; generated by Slic3r 1.3.0 on 2019-04-29 at 11:32:17

; external perimeters extrusion width = 0.55mm (6.64mm^3/s)
; perimeters extrusion width = 0.52mm (12.53mm^3/s)
; infill extrusion width = 0.52mm (16.71mm^3/s)
; solid infill extrusion width = 0.52mm (4.18mm^3/s)
; top infill extrusion width = 0.52mm (3.13mm^3/s)

M107
M104 S205 ; set temperature
G28 ; home all axes
G1 Z5 F5000 ; lift nozzle

; Filament gcode

M109 S205 ; set temperature and wait for it to be reached
G21 ; set units to millimeters
G90 ; use absolute coordinates
M82 ; use absolute distances for extrusion
G92 E0
G1 Z0.500 F7800.000
G1 E-2.00000 F2400.00000
G92 E0
G1 X96.555 Y97.086 F7800.000
G1 E2.00000 F2400.00000
G1 F600
G1 X96.807 Y96.851 E2.00830
G1 X97.109 Y96.669 E2.01679
G1 X97.479 Y96.537 E2.02625
G1 X97.912 Y96.486 E2.03674
G1 X98.233 Y96.517 E2.04450
G1 X98.490 Y96.582 E2.05089
G1 X98.791 Y96.703 E2.05870
G1 X99.181 Y96.945 E2.06974
G1 X99.345 Y97.085 E2.07494
G1 X99.520 Y97.277 E2.08120
G1 X99.661 Y97.487 E2.08728
G1 X99.746 Y97.667 E2.09207
G1 F600
G1 X99.850 Y98.059 E2.10327
G1 X99.857 Y98.344 E2.11114
G1 X99.833 Y98.517 E2.11597
G1 X99.758 Y98.773 E2.12334
G1 X99.590 Y99.062 E2.13258
G1 F600
G1 X99.447 Y99.220 E2.13771
G1 X99.243 Y99.372 E2.14384
G1 X98.921 Y99.518 E2.15237
G1 X98.620 Y99.586 E2.15978
G1 X98.253 Y99.598 E2.16864
G1 X97.809 Y99.536 E2.17943
G1 X97.397 Y99.411 E2.18980
G1 X97.040 Y99.247 E2.19926
G1 X96.619 Y98.957 E2.21156
G1 X96.450 Y98.783 E2.21741
G1 X96.288 Y98.532 E2.22461
G1 X96.232 Y98.392 E2.22824
G1 X96.172 Y98.092 E2.23561
G1 F600
G1 X96.197 Y97.769 E2.24341
G1 X96.253 Y97.593 E2.24784
G1 X96.323 Y97.419 E2.25236
G1 X96.507 Y97.143 E2.26034
G1 X96.555 Y97.086 F7800.000
M104 S200 ; set temperature
G1 Z1.000 F7800.000
G1 X96.741 Y97.230 F7800.000
G1 F600
G1 X97.056 Y96.932 E2.27037
G1 X97.389 Y96.735 E2.27930
G1 X97.773 Y96.608 E2.28865
G1 X98.118 Y96.568 E2.29666
G1 X98.377 Y96.579 E2.30265
G1 X98.744 Y96.655 E2.31131
G1 X99.079 Y96.783 E2.31958
G1 X99.294 Y96.899 E2.32522
G1 X99.615 Y97.136 E2.33444
G1 X99.879 Y97.437 E2.34368
G1 F600
G1 X99.976 Y97.595 E2.34875
G1 X100.091 Y97.845 E2.35625
G1 X100.156 Y98.098 E2.36335
G1 X100.180 Y98.320 E2.36945
G1 X100.171 Y98.559 E2.37598
G1 X100.111 Y98.836 E2.38370
G1 X100.066 Y98.955 E2.38719
G1 X99.940 Y99.181 E2.39424
G1 F600
G1 X99.808 Y99.336 E2.39906
G1 X99.583 Y99.508 E2.40578
G1 X99.341 Y99.632 E2.41221
G1 X99.034 Y99.718 E2.41977
G1 X98.836 Y99.744 E2.42452
G1 X98.559 Y99.747 E2.43109
G1 X98.075 Y99.672 E2.44268
G1 X97.733 Y99.565 E2.45118
G1 X97.360 Y99.394 E2.46091
G1 X97.000 Y99.161 E2.47108
G1 X96.842 Y99.029 E2.47596
G1 X96.691 Y98.865 E2.48124
G1 X96.522 Y98.610 E2.48849
G1 X96.418 Y98.228 E2.49787
G1 F600
G1 X96.417 Y97.983 E2.50354
G1 X96.453 Y97.796 E2.50794
G1 X96.533 Y97.569 E2.51348
G1 X96.696 Y97.290 E2.52094
G1 X96.741 Y97.230 F7800.000
G1 Z1.500 F7800.000
G1 X96.935 Y97.366 F7800.000
G1 F600
G1 X97.015 Y97.261 E2.52401
G1 X97.313 Y96.985 E2.53348
G1 X97.633 Y96.795 E2.54215
G1 X98.027 Y96.666 E2.55179
G1 X98.419 Y96.626 E2.56098
G1 X98.774 Y96.658 E2.56928
G1 X99.083 Y96.737 E2.57670
G1 X99.377 Y96.855 E2.58409
G1 X99.615 Y96.990 E2.59046
G1 X99.913 Y97.219 E2.59921
G1 X100.137 Y97.472 E2.60708
G1 X100.273 Y97.685 E2.61295
G1 X100.419 Y98.053 E2.62217
G1 X100.475 Y98.411 E2.63062
G1 X100.464 Y98.702 E2.63739
G1 X100.380 Y99.042 E2.64555
G1 X100.252 Y99.291 E2.65205
G1 X100.062 Y99.519 E2.65898
G1 X99.857 Y99.669 E2.66491
G1 X99.582 Y99.797 E2.67197
G1 X99.184 Y99.890 E2.68147
G1 X98.738 Y99.893 E2.69186
G1 X98.361 Y99.837 E2.70073
G1 X97.962 Y99.717 E2.71043
G1 X97.544 Y99.519 E2.72121
G1 X97.182 Y99.261 E2.73155
G1 X96.937 Y99.017 E2.73962
G1 X96.827 Y98.855 E2.74418
G1 X96.693 Y98.560 E2.75172
G1 X96.644 Y98.307 E2.75771
G1 X96.669 Y97.944 E2.76618
G1 X96.790 Y97.592 E2.77485
G1 X96.892 Y97.428 E2.77936
G1 X96.899 Y97.293 F7800.000
M106 S255
G1 Z2.000 F7800.000
G1 X97.116 Y97.480 F7800.000
G1 F600
G1 X97.351 Y97.200 E2.78777
G1 X97.508 Y97.063 E2.79257
G1 X97.835 Y96.862 E2.80140
G1 X98.112 Y96.755 E2.80824
G1 X98.540 Y96.690 E2.81819
G1 X98.852 Y96.699 E2.82539
G1 X99.207 Y96.764 E2.83369
G1 X99.581 Y96.901 E2.84285
G1 X99.888 Y97.076 E2.85100
G1 X100.141 Y97.273 E2.85839
G1 X100.348 Y97.495 E2.86538
G1 X100.559 Y97.840 E2.87468
G1 X100.675 Y98.171 E2.88275
G1 X100.724 Y98.594 E2.89256
G1 X100.680 Y98.942 E2.90064
G1 X100.589 Y99.220 E2.90736
G1 X100.428 Y99.489 E2.91458
G1 X100.212 Y99.713 E2.92176
G1 X99.944 Y99.877 E2.92898
G1 X99.606 Y99.990 E2.93719
G1 X99.222 Y100.034 E2.94609
G1 X98.676 Y100.022 E2.95866
G1 X98.309 Y99.970 E2.96718
G1 X97.908 Y99.831 E2.97695
G1 X97.637 Y99.675 E2.98415
G1 X97.365 Y99.450 E2.99228
G1 X97.215 Y99.279 E2.99750
G1 X97.096 Y99.106 E3.00235
G1 X96.913 Y98.735 E3.01187
G1 X96.863 Y98.518 E3.01700
G1 X96.858 Y98.181 E3.02476
G1 X96.932 Y97.840 E3.03278
G1 X97.078 Y97.545 E3.04037
G1 X97.111 Y97.470 F7800.000
G1 Z2.500 F7800.000
G1 X97.307 Y97.601 F7800.000
G1 F600
G1 X97.422 Y97.425 E3.04500
G1 X97.612 Y97.220 E3.05119
G1 X97.972 Y96.969 E3.06088
G1 X98.175 Y96.879 E3.06580
G1 X98.427 Y96.804 E3.07160
G1 X98.866 Y96.762 E3.08134
G1 X99.324 Y96.821 E3.09153
G1 X99.751 Y96.964 E3.10150
G1 X100.024 Y97.114 E3.10838
G1 X100.291 Y97.308 E3.11566
G1 X100.461 Y97.476 E3.12095
G1 X100.595 Y97.645 E3.12571
G1 X100.705 Y97.820 E3.13028
G1 X100.845 Y98.159 E3.13838
G1 X100.911 Y98.534 E3.14680
G1 X100.885 Y98.905 E3.15501
G1 X100.800 Y99.207 E3.16195
G1 X100.676 Y99.450 E3.16797
G1 X100.420 Y99.759 E3.17684
G1 X100.268 Y99.878 E3.18110
G1 X100.015 Y100.018 E3.18749
G1 X99.610 Y100.117 E3.19671
G1 X99.171 Y100.144 E3.20642
G1 F600
G1 X98.756 Y100.246 E3.21757
G1 X98.500 Y100.253 E3.22425
G1 X98.259 Y100.229 E3.23058
G1 X97.820 Y100.099 E3.24253
G1 X97.461 Y99.904 E3.25319
G1 F600
G1 X97.173 Y99.654 E3.26171
G1 X97.017 Y99.439 E3.26766
G1 X96.902 Y99.196 E3.27367
G1 X96.852 Y98.930 E3.27972
G1 X96.852 Y98.805 E3.28252
G1 F600
G1 X96.901 Y98.459 E3.29024
G1 X96.957 Y98.280 E3.29439
G1 X97.063 Y98.035 E3.30027
G1 X97.267 Y97.664 E3.30964
G1 X97.233 Y97.465 F7800.000
G1 Z3.000 F7800.000
G1 X97.365 Y97.664 F7800.000
G1 F600
G1 X97.563 Y97.495 E3.31552
G1 X98.039 Y97.155 E3.32869
G1 X98.264 Y97.029 E3.33451
G1 X98.448 Y96.958 E3.33895
G1 X98.664 Y96.901 E3.34400
G1 X98.978 Y96.868 E3.35113
G1 X99.466 Y96.921 E3.36219
G1 X99.935 Y97.084 E3.37338
G1 X100.217 Y97.246 E3.38073
G1 X100.499 Y97.478 E3.38896
G1 X100.693 Y97.694 E3.39549
G1 X100.899 Y98.029 E3.40436
G1 X101.053 Y98.490 E3.41532
G1 F600
G1 X101.091 Y98.783 E3.42322
G1 X101.092 Y98.971 E3.42822
G1 X101.017 Y99.338 E3.43823
G1 X100.892 Y99.574 E3.44535
G1 X100.725 Y99.754 E3.45191
G1 X100.542 Y99.885 E3.45791
G1 X100.398 Y99.961 E3.46225
G1 F600
G1 X100.070 Y100.096 E3.47026
G1 X99.796 Y100.165 E3.47662
G1 X99.352 Y100.196 E3.48665
G1 X98.943 Y100.397 E3.49693
G1 F600
G1 X98.567 Y100.486 E3.50720
G1 X98.132 Y100.475 E3.51872
G1 X97.818 Y100.401 E3.52730
G1 X97.576 Y100.307 E3.53419
G1 X97.187 Y100.065 E3.54637
G1 F600
G1 X97.006 Y99.895 E3.55204
G1 X96.830 Y99.648 E3.55899
G1 X96.727 Y99.406 E3.56504
G1 X96.680 Y99.096 E3.57222
G1 F600
G1 X96.698 Y98.829 E3.57824
G1 X96.764 Y98.564 E3.58441
G1 X96.877 Y98.303 E3.59082
G1 X97.084 Y97.971 E3.59965
G1 X97.311 Y97.716 E3.60735
G1 X97.336 Y97.547 F7800.000
G1 Z3.500 F7800.000
G1 E1.60735 F2400.00000
G92 E0
G1 X100.874 Y100.192 F7800.000
G1 E2.00000 F2400.00000
G1 F600
G1 X100.694 Y100.261 E2.00521
G1 X100.511 Y100.300 E2.01024
G1 X100.273 Y100.313 E2.01668
G1 X100.068 Y100.296 E2.02222
G1 F600
G1 X99.434 Y100.234 E2.03691
G1 X99.364 Y100.263 E2.03866
G1 X99.042 Y100.509 E2.04797
G1 X98.701 Y100.673 E2.05671
G1 F600
G1 X98.506 Y100.729 E2.06214
G1 X98.140 Y100.760 E2.07203
G1 X97.849 Y100.729 E2.07990
G1 X97.621 Y100.670 E2.08621
G1 X97.338 Y100.554 E2.09446
G1 X97.099 Y100.411 E2.10195
G1 X96.823 Y100.161 E2.11193
G1 F600
G1 X96.676 Y99.963 E2.11757
G1 X96.569 Y99.737 E2.12324
G1 X96.510 Y99.467 E2.12953
G1 X96.504 Y99.339 E2.13245
G1 F600
G1 X96.518 Y99.108 E2.13784
G1 X96.559 Y98.922 E2.14224
G1 X96.693 Y98.558 E2.15127
G1 X96.844 Y98.302 E2.15816
G1 X97.085 Y98.004 E2.16707
G1 X97.290 Y97.812 E2.17359
G1 X97.586 Y97.599 E2.18206
G1 X97.892 Y97.450 E2.18996
G1 X98.253 Y97.325 E2.19884
G1 X98.660 Y97.124 E2.20938
G1 X98.899 Y97.063 E2.21512
G1 X99.317 Y97.045 E2.22483
G1 X99.667 Y97.106 E2.23309
G1 X99.945 Y97.207 E2.23996
G1 X100.167 Y97.319 E2.24574
G1 X100.540 Y97.590 E2.25645
G1 X101.039 Y98.081 E2.27269
G1 F600
G1 X101.331 Y98.473 E2.28596
G1 F600
G1 X101.412 Y98.644 E2.29180
G1 X101.478 Y98.870 E2.29904
G1 X101.497 Y99.267 E2.31127
G1 X101.449 Y99.510 E2.31891
G1 X101.377 Y99.688 E2.32480
G1 X101.200 Y99.943 E2.33436
G1 F600
G1 X101.066 Y100.073 E2.33938
G1 X100.939 Y100.154 E2.34345
G1 X100.874 Y100.202 F7800.000
G1 Z4.000 F7800.000
G1 X101.191 Y100.429 F7800.000
G1 F600
G1 X101.127 Y100.460 E2.34534
G1 F600
G1 X100.909 Y100.534 E2.35053
G1 X100.710 Y100.576 E2.35512
G1 X100.299 Y100.579 E2.36438
G1 X99.917 Y100.510 E2.37315
G1 X99.501 Y100.365 E2.38309
G1 X99.396 Y100.361 E2.38546
G1 X99.320 Y100.393 E2.38732
G1 X99.033 Y100.662 E2.39618
G1 X98.784 Y100.833 E2.40300
G1 F600
G1 X98.507 Y100.959 E2.41102
G1 X98.245 Y101.022 E2.41815
G1 X97.913 Y101.038 E2.42695
G1 X97.646 Y100.998 E2.43407
G1 X97.321 Y100.900 E2.44306
G1 X97.028 Y100.756 E2.45167
G1 X96.777 Y100.573 E2.45988
G1 X96.560 Y100.336 E2.46838
G1 F600
G1 X96.427 Y100.111 E2.47433
G1 X96.344 Y99.850 E2.48054
G1 X96.321 Y99.534 E2.48776
G1 F600
G1 X96.363 Y99.242 E2.49468
G1 X96.472 Y98.918 E2.50268
G1 X96.642 Y98.601 E2.51110
G1 X96.866 Y98.300 E2.51992
G1 X97.130 Y98.038 E2.52863
G1 X97.446 Y97.818 E2.53764
G1 X97.798 Y97.654 E2.54673
G1 X98.174 Y97.569 E2.55576
G1 F600
G1 X98.535 Y97.547 E2.56573
G1 X98.968 Y97.377 E2.57853
G1 X99.156 Y97.344 E2.58377
G1 X99.327 Y97.326 E2.58850
G1 X99.562 Y97.339 E2.59499
G1 F600
G1 X99.825 Y97.387 E2.60119
G1 X100.214 Y97.501 E2.61056
G1 X100.790 Y97.714 E2.62477
G1 X101.013 Y97.832 E2.63062
G1 X101.194 Y97.954 E2.63566
G1 X101.497 Y98.239 E2.64530
G1 F600
G1 X101.619 Y98.411 E2.65094
G1 X101.730 Y98.618 E2.65723
G1 X101.812 Y98.858 E2.66402
G1 X101.859 Y99.138 E2.67160
G1 X101.853 Y99.438 E2.67963
G1 X101.797 Y99.702 E2.68685
G1 X101.663 Y100.000 E2.69556
G1 X101.539 Y100.164 E2.70105
G1 X101.255 Y100.391 E2.71078
G1 X101.188 Y100.500 F7800.000
G1 Z4.500 F7800.000
G1 X101.276 Y100.719 F7800.000
G1 F600
G1 X100.948 Y100.773 E2.71848
G1 X100.523 Y100.770 E2.72834
G1 X100.146 Y100.711 E2.73718
G1 X99.814 Y100.612 E2.74522
G1 X99.444 Y100.464 E2.75446
G1 X99.350 Y100.464 E2.75665
G1 X99.263 Y100.507 E2.75889
G1 X98.989 Y100.816 E2.76847
G1 X98.707 Y101.043 E2.77687
G1 X98.353 Y101.225 E2.78609
G1 F600
G1 X98.061 Y101.306 E2.79430
G1 X97.913 Y101.325 E2.79835
G1 X97.530 Y101.301 E2.80874
G1 X97.190 Y101.212 E2.81825
G1 X96.866 Y101.056 E2.82800
G1 X96.575 Y100.842 E2.83777
G1 X96.377 Y100.612 E2.84600
G1 X96.269 Y100.430 E2.85172
G1 F600
G1 X96.157 Y100.097 E2.85961
G1 X96.142 Y99.752 E2.86738
G1 F600
G1 X96.200 Y99.442 E2.87451
G1 X96.300 Y99.175 E2.88097
G1 X96.538 Y98.761 E2.89179
G1 X96.763 Y98.490 E2.89976
G1 X96.997 Y98.275 E2.90695
G1 X97.250 Y98.092 E2.91402
G1 X97.508 Y97.958 E2.92060
G1 F600
G1 X97.828 Y97.845 E2.92968
G1 X98.129 Y97.801 E2.93779
G1 X98.388 Y97.811 E2.94471
G1 X98.770 Y97.902 E2.95521
G1 X98.824 Y97.898 E2.95666
G1 X99.118 Y97.736 E2.96560
G1 X99.387 Y97.636 E2.97329
G1 F600
G1 X99.757 Y97.556 E2.98185
G1 X100.075 Y97.536 E2.98905
G1 X100.401 Y97.563 E2.99644
G1 X100.666 Y97.620 E3.00258
G1 X100.886 Y97.697 E3.00785
G1 X101.170 Y97.835 E3.01499
G1 X101.402 Y97.991 E3.02132
G1 X101.616 Y98.179 E3.02775
G1 X101.778 Y98.364 E3.03332
G1 X101.939 Y98.610 E3.03997
G1 F600
G1 X102.061 Y98.872 E3.04767
G1 X102.136 Y99.107 E3.05424
G1 X102.184 Y99.408 E3.06239
G1 F600
G1 X102.183 Y99.670 E3.07049
G1 X102.113 Y99.989 E3.08058
G1 X101.993 Y100.238 E3.08913
G1 X101.887 Y100.372 E3.09442
G1 F600
G1 X101.719 Y100.522 E3.10051
G1 X101.394 Y100.685 E3.11034
G1 F600
G1 X101.348 Y100.698 E3.11145
G1 X101.301 Y100.778 F7800.000
G1 Z5.000 F7800.000
G1 X101.886 Y100.915 F7800.000
G1 F600
G1 X101.551 Y100.997 E3.12072
G1 X101.232 Y101.013 E3.12928
G1 F600
G1 X100.758 Y100.966 E3.14006
G1 X100.318 Y100.866 E3.15028
G1 X99.882 Y100.713 E3.16072
G1 X99.446 Y100.496 E3.17174
G1 X99.348 Y100.484 E3.17398
G1 X99.233 Y100.540 E3.17688
G1 X98.899 Y101.001 E3.18975
G1 X98.743 Y101.157 E3.19474
G1 X98.513 Y101.344 E3.20145
G1 F600
G1 X98.159 Y101.540 E3.21205
G1 X97.869 Y101.631 E3.22002
G1 F600
G1 X97.628 Y101.658 E3.22723
G1 X97.234 Y101.626 E3.23902
G1 X96.844 Y101.494 E3.25129
G1 X96.489 Y101.272 E3.26379
G1 F600
G1 X96.333 Y101.132 E3.26927
G1 X96.141 Y100.890 E3.27736
G1 X96.035 Y100.680 E3.28353
G1 X95.966 Y100.408 E3.29089
G1 F600
G1 X95.960 Y100.004 E3.29995
G1 F600
G1 X96.037 Y99.666 E3.30817
G1 X96.139 Y99.408 E3.31474
G1 X96.320 Y99.091 E3.32341
G1 X96.570 Y98.781 E3.33287
G1 X96.861 Y98.516 E3.34219
G1 X97.184 Y98.301 E3.35140
G1 X97.423 Y98.192 E3.35763
G1 X97.700 Y98.112 E3.36447
G1 F600
G1 X97.926 Y98.078 E3.37083
G1 X98.294 Y98.101 E3.38112
G1 X98.421 Y98.131 E3.38475
G1 X98.812 Y98.288 E3.39651
G1 X98.899 Y98.273 E3.39899
G1 X98.981 Y98.211 E3.40187
G1 F600
G1 X99.253 Y97.969 E3.41051
G1 X99.491 Y97.826 E3.41711
G1 X99.880 Y97.685 E3.42695
G1 X100.283 Y97.641 E3.43658
G1 X100.543 Y97.661 E3.44279
G1 X100.808 Y97.720 E3.44925
G1 X101.086 Y97.821 E3.45627
G1 X101.380 Y97.972 E3.46414
G1 X101.668 Y98.167 E3.47241
G1 X101.890 Y98.364 E3.47945
G1 X102.083 Y98.577 E3.48630
G1 X102.252 Y98.808 E3.49309
G1 X102.373 Y99.025 E3.49899
G1 F600
G1 X102.486 Y99.301 E3.50718
G1 X102.554 Y99.576 E3.51495
G1 F600
G1 X102.574 Y99.916 E3.52575
G1 X102.534 Y100.178 E3.53415
G1 X102.477 Y100.359 E3.54017
G1 X102.386 Y100.521 E3.54605
G1 X102.269 Y100.671 E3.55209
G1 X102.104 Y100.805 E3.55883
G1 X101.953 Y100.882 E3.56419
G1 X101.881 Y100.941 F7800.000
G1 Z5.500 F7800.000
G1 X102.900 Y100.753 F7800.000
G1 F600
G1 X102.830 Y100.880 E3.56940
G1 X102.717 Y101.012 E3.57566
G1 X102.540 Y101.142 E3.58355
G1 X102.377 Y101.211 E3.58988
G1 F600
G1 X102.214 Y101.262 E3.59520
G1 X102.052 Y101.284 E3.60030
G1 F600
G1 X101.777 Y101.309 E3.60782
G1 X101.452 Y101.291 E3.61666
G1 F600
G1 X100.790 Y101.151 E3.63104
G1 X100.304 Y100.969 E3.64206
G1 X99.858 Y100.738 E3.65274
G1 X99.446 Y100.450 E3.66343
G1 X99.339 Y100.423 E3.66575
G1 X99.265 Y100.439 E3.66737
G1 X99.200 Y100.486 E3.66907
G1 X98.935 Y101.009 E3.68153
G1 X98.713 Y101.316 E3.68958
G1 F600
G1 X98.546 Y101.499 E3.69577
G1 X98.227 Y101.749 E3.70591
G1 X97.811 Y101.945 E3.71741
G1 F600
G1 X97.571 Y101.997 E3.72470
G1 X97.311 Y102.010 E3.73242
G1 X96.887 Y101.940 E3.74515
G1 F600
G1 X96.538 Y101.788 E3.75506
G1 X96.218 Y101.563 E3.76525
G1 X96.109 Y101.455 E3.76927
G1 X95.926 Y101.204 E3.77737
G1 X95.854 Y101.058 E3.78160
G1 X95.763 Y100.730 E3.79048
G1 F600
G1 X95.751 Y100.623 E3.79286
G1 X95.779 Y100.232 E3.80153
G1 X95.869 Y99.906 E3.80903
G1 X96.065 Y99.503 E3.81895
G1 X96.417 Y99.030 E3.83200
G1 X96.688 Y98.785 E3.84011
G1 X97.044 Y98.560 E3.84943
G1 F600
G1 X97.290 Y98.453 E3.85644
G1 X97.527 Y98.388 E3.86287
G1 X97.756 Y98.356 E3.86894
G1 X97.975 Y98.359 E3.87468
G1 X98.134 Y98.384 E3.87889
G1 X98.414 Y98.474 E3.88658
G1 F600
G1 X98.805 Y98.696 E3.90001
G1 F600
G1 X98.937 Y98.754 E3.90505
G1 F600
G1 X99.080 Y98.608 E3.91152
G1 F600
G1 X99.205 Y98.423 E3.91729
G1 X99.345 Y98.273 E3.92261
G1 X99.492 Y98.149 E3.92759
G1 X99.849 Y97.953 E3.93814
G1 X100.130 Y97.871 E3.94572
G1 F600
G1 X100.424 Y97.836 E3.95228
G1 X100.724 Y97.852 E3.95892
G1 X101.011 Y97.910 E3.96540
G1 X101.335 Y98.024 E3.97300
G1 X101.686 Y98.196 E3.98166
G1 X101.974 Y98.378 E3.98921
G1 X102.335 Y98.685 E3.99968
G1 X102.549 Y98.936 E4.00700
G1 F600
G1 X102.738 Y99.239 E4.01617
G1 X102.892 Y99.614 E4.02661
G1 F600
G1 X102.946 Y99.833 E4.03328
G1 X102.987 Y100.155 E4.04291
G1 F600
G1 X102.984 Y100.419 E4.05238
G1 X102.926 Y100.683 E4.06208
G1 X102.982 Y100.872 F7800.000
G1 Z6.000 F7800.000
G1 X103.660 Y101.075 F7800.000
M106 S255

G1 F3600
G1 X103.680 Y101.234 E4.06652
G1 X103.661 Y101.472 E4.07315
G1 X103.607 Y101.626 E4.07770
G1 X103.503 Y101.760 E4.08240
G1 X103.380 Y101.841 E4.08648
G1 X103.262 Y101.880 E4.08994
G1 X103.088 Y101.901 E4.09482
G1 X102.857 Y101.892 E4.10123
G1 X102.813 Y101.692 E4.10692
G1 X103.098 Y101.545 E4.11583
G1 X103.276 Y101.386 E4.12246
G1 X103.414 Y101.161 E4.12980
G1 X103.443 Y101.059 E4.13273
G1 X103.585 Y101.070 E4.13671
M106 S255

G1 X103.505 Y100.499 F7800.000
G1 F600
G1 X103.469 Y100.373 E4.14107
G1 F600
G1 X103.338 Y100.003 E4.15234
G1 F600
G1 X103.260 Y99.817 E4.15738
G1 F600
G1 X102.945 Y99.259 E4.17097
G1 X102.704 Y98.955 E4.17920
G1 X102.491 Y98.744 E4.18559
G1 X102.228 Y98.546 E4.19257
G1 X101.803 Y98.318 E4.20280
G1 F600
G1 X101.468 Y98.192 E4.21172
G1 X101.182 Y98.122 E4.21904
G1 X100.856 Y98.084 E4.22720
G1 X100.626 Y98.090 E4.23293
G1 F600
G1 X100.337 Y98.138 E4.24131
G1 X99.971 Y98.284 E4.25254
G1 F600
G1 X99.676 Y98.496 E4.26456
G1 X99.468 Y98.739 E4.27512
G1 X99.376 Y98.896 E4.28115
G1 X99.230 Y99.262 E4.29417
G1 F600
G1 X99.175 Y99.349 E4.29827
G1 F600
G1 X99.120 Y99.437 E4.30275
G1 X99.139 Y99.571 E4.30861
G1 F600
G1 X99.230 Y100.068 E4.32837
G1 X99.192 Y100.130 E4.33125
G1 F600
G1 X99.153 Y100.193 E4.33370
G1 F600
G1 X99.117 Y100.263 E4.33589
G1 F600
G1 X99.033 Y100.649 E4.34533
G1 X98.918 Y100.998 E4.35414
G1 X98.698 Y101.411 E4.36533
G1 X98.381 Y101.809 E4.37751
G1 X98.202 Y101.976 E4.38337
G1 X97.860 Y102.198 E4.39314
G1 F600
G1 X97.501 Y102.340 E4.40376
G1 F600
G1 X97.151 Y102.405 E4.41573
G1 F600
G1 X96.754 Y102.383 E4.43062
G1 X96.390 Y102.250 E4.44514
G1 F600
G1 X96.104 Y102.063 E4.45652
G1 X95.887 Y101.836 E4.46694
G1 F600
G1 X95.708 Y101.565 E4.47658
G1 X95.638 Y101.400 E4.48186
G1 F600
G1 X95.555 Y101.047 E4.49123
G1 F600
G1 X95.552 Y100.762 E4.49749
G1 X95.601 Y100.479 E4.50378
G1 X95.684 Y100.206 E4.51005
G1 X95.855 Y99.857 E4.51856
G1 X96.110 Y99.496 E4.52827
G1 X96.324 Y99.267 E4.53514
G1 X96.637 Y99.004 E4.54412
G1 F600
G1 X96.946 Y98.813 E4.55376
G1 X97.193 Y98.708 E4.56087
G1 X97.472 Y98.644 E4.56850
G1 X97.792 Y98.635 E4.57701
G1 X98.082 Y98.695 E4.58487
G1 X98.350 Y98.809 E4.59260
G1 X98.617 Y98.997 E4.60128
G1 X98.838 Y99.233 E4.60989
G1 F600
G1 X98.931 Y99.301 E4.61370
G1 F600
G1 X99.025 Y99.369 E4.61826
G1 F600
G1 X99.120 Y99.437 E4.62371
G1 X99.230 Y100.068 F7800.000
G1 F600
G1 X99.270 Y100.098 E4.62580
G1 F600
G1 X99.347 Y100.157 E4.62924
G1 F600
G1 X99.425 Y100.217 E4.63204
G1 F600
G1 X99.778 Y100.645 E4.64536
G1 X100.230 Y101.006 E4.65927
G1 X100.705 Y101.265 E4.67226
G1 X101.365 Y101.514 E4.68921
G1 F600
G1 X101.957 Y101.667 E4.70641
G1 F600
G1 X102.551 Y101.779 E4.72570
G1 Z6.500 F7800.000
G1 E2.72570 F2400.00000
G92 E0
G1 X98.891 Y100.628 F7800.000
G1 E2.00000 F2400.00000
G1 F600
G1 X98.822 Y101.027 E2.00846
G1 X98.673 Y101.439 E2.01759
G1 X98.527 Y101.710 E2.02403
G1 X98.274 Y102.058 E2.03301
G1 F600
G1 X97.977 Y102.382 E2.04433
G1 X97.643 Y102.659 E2.05552
G1 F600
G1 X97.261 Y102.859 E2.06852
G1 F600
G1 X96.973 Y102.936 E2.07877
G1 X96.815 Y102.945 E2.08420
G1 X96.642 Y102.940 E2.09014
G1 X96.332 Y102.866 E2.10107
G1 X96.164 Y102.793 E2.10738
G1 X95.884 Y102.605 E2.11896
G1 X95.690 Y102.409 E2.12845
G1 X95.573 Y102.249 E2.13525
G1 F600
G1 X95.444 Y102.005 E2.14313
G1 X95.345 Y101.672 E2.15305
G1 F600
G1 X95.324 Y101.318 E2.16141
G1 F600
G1 X95.364 Y100.974 E2.16958
G1 X95.445 Y100.664 E2.17711
G1 X95.542 Y100.423 E2.18324
G1 X95.740 Y100.066 E2.19283
G1 X96.041 Y99.694 E2.20410
G1 X96.363 Y99.401 E2.21435
G1 X96.682 Y99.192 E2.22332
G1 F600
G1 X97.030 Y99.040 E2.23409
G1 X97.303 Y98.975 E2.24204
G1 X97.623 Y98.964 E2.25110
G1 X97.906 Y99.020 E2.25926
G1 X98.158 Y99.126 E2.26702
G1 X98.431 Y99.319 E2.27649
G1 X98.618 Y99.527 E2.28441
G1 X98.774 Y99.809 E2.29354
G1 F600
G1 X98.877 Y100.168 E2.30272
G1 X98.898 Y100.454 E2.30979
G1 F600
G1 X98.895 Y100.553 E2.31186
G1 X98.891 Y100.628 F7800.000
G1 E0.31186 F2400.00000
G92 E0
G1 X100.339 Y98.531 F7800.000
G1 E2.00000 F2400.00000
G1 F600
G1 X100.630 Y98.408 E2.00902
G1 F600
G1 X100.915 Y98.346 E2.01625
G1 X101.097 Y98.334 E2.02078
G1 X101.451 Y98.359 E2.02960
G1 F600
G1 X101.852 Y98.458 E2.03820
G1 X102.166 Y98.593 E2.04532
G1 X102.512 Y98.797 E2.05369
G1 X102.965 Y99.173 E2.06596
G1 F600
G1 X103.213 Y99.424 E2.07462
G1 X103.480 Y99.738 E2.08474
G1 X103.721 Y100.068 E2.09478
G1 F600
G1 X104.020 Y100.592 E2.11216
G1 F600
G1 X104.120 Y100.822 E2.12044
G1 X104.231 Y101.155 E2.13204
G1 F600
G1 X104.287 Y101.442 E2.14274
G1 F600
G1 X104.292 Y101.703 E2.15327
G1 F600
G1 X104.257 Y101.903 E2.16224
G1 X104.215 Y102.024 E2.16791
G1 X104.087 Y102.227 E2.17853
G1 X103.928 Y102.365 E2.18788
G1 X103.637 Y102.492 E2.20189
G1 F600
G1 X103.405 Y102.521 E2.21140
G1 F600
G1 X103.178 Y102.511 E2.21984
G1 X102.986 Y102.470 E2.22711
G1 F600
G1 X102.740 Y102.404 E2.23540
G1 X102.434 Y102.275 E2.24628
G1 F600
G1 X101.972 Y102.040 E2.26119
G1 F600
G1 X100.768 Y101.383 E2.29288
G1 X100.319 Y101.072 E2.30552
G1 X100.112 Y100.884 E2.31197
G1 X99.959 Y100.706 E2.31739
G1 X99.817 Y100.488 E2.32341
G1 F600
G1 X99.720 Y100.278 E2.32974
G1 X99.623 Y99.874 E2.34109
G1 F600
G1 X99.637 Y99.502 E2.35173
G1 X99.754 Y99.136 E2.36272
G1 X99.864 Y98.949 E2.36893
G1 X99.979 Y98.809 E2.37410
G1 X100.275 Y98.569 E2.38498
G1 X100.351 Y98.300 F7800.000
G1 E0.38498 F2400.00000
G92 E0
M107
; Filament-specific end gcode 
;END gcode for filament

M104 S0 ; turn off temperature
G28 X0  ; home X axis
M84     ; disable motors

M140 S0 ; set bed temperature
; filament used = 5.0mm (0.0cm3)
; total filament cost = 0.0

; avoid_crossing_perimeters = 0
; bed_shape = 0x0,200x0,200x200,0x200
; bed_temperature = 0
; before_layer_gcode = 
; between_objects_gcode = 
; bridge_acceleration = 0
; bridge_fan_speed = 100
; brim_connections_width = 0
; brim_width = 0
; complete_objects = 0
; cooling = 1
; default_acceleration = 0
; disable_fan_first_layers = 3
; duplicate_distance = 6
; end_filament_gcode = "; Filament-specific end gcode \n;END gcode for filament\n"
; end_gcode = M104 S0 ; turn off temperature\nG28 X0  ; home X axis\nM84     ; disable motors\n
; extruder_clearance_height = 20
; extruder_clearance_radius = 20
; extruder_offset = 0x0
; extrusion_axis = E
; extrusion_multiplier = 1
; fan_always_on = 0
; fan_below_layer_time = 60
; filament_colour = #FFFFFF
; filament_cost = 0
; filament_density = 0
; filament_diameter = 3
; filament_max_volumetric_speed = 0
; filament_notes = ""
; first_layer_acceleration = 0
; first_layer_bed_temperature = 0
; first_layer_extrusion_width = 200%
; first_layer_speed = 30
; first_layer_temperature = 205
; gcode_arcs = 0
; gcode_comments = 0
; gcode_flavor = reprap
; has_heatbed = 1
; infill_acceleration = 0
; infill_first = 0
; interior_brim_width = 0
; layer_gcode = 
; max_fan_speed = 100
; max_layer_height = 0.3
; max_print_speed = 80
; max_volumetric_speed = 0
; min_fan_speed = 35
; min_layer_height = 0.15
; min_print_speed = 10
; min_skirt_length = 0
; notes = 
; nozzle_diameter = 0.5
; only_retract_when_crossing_perimeters = 1
; ooze_prevention = 0
; output_filename_format = [input_filename_base].gcode
; perimeter_acceleration = 0
; post_process = 
; pressure_advance = 0
; printer_notes = 
; resolution = 0
; retract_before_travel = 2
; retract_layer_change = 0
; retract_length = 2
; retract_length_toolchange = 10
; retract_lift = 0
; retract_lift_above = 0
; retract_lift_below = 0
; retract_restart_extra = 0
; retract_restart_extra_toolchange = 0
; retract_speed = 40
; skirt_distance = 6
; skirt_height = 1
; skirts = 0
; slowdown_below_layer_time = 5
; spiral_vase = 0
; standby_temperature_delta = -5
; start_filament_gcode = "; Filament gcode\n"
; start_gcode = G28 ; home all axes\nG1 Z5 F5000 ; lift nozzle\n
; temperature = 200
; threads = 8
; toolchange_gcode = 
; travel_speed = 130
; use_firmware_retraction = 0
; use_relative_e_distances = 0
; use_set_and_wait_bed = 0
; use_set_and_wait_extruder = 0
; use_volumetric_e = 0
; vibration_limit = 0
; wipe = 0
; z_offset = 0
; z_steps_per_mm = 0
; adaptive_slicing = 0
; adaptive_slicing_quality = 75%
; dont_support_bridges = 1
; extrusion_width = 0
; first_layer_height = 0.5
; infill_only_where_needed = 0
; interface_shells = 0
; layer_height = 0.5
; match_horizontal_surfaces = 0
; raft_layers = 0
; regions_overlap = 0
; seam_position = aligned
; sequential_print_priority = 0
; support_material = 0
; support_material_angle = 0
; support_material_buildplate_only = 0
; support_material_contact_distance = 0.2
; support_material_enforce_layers = 0
; support_material_extruder = 1
; support_material_extrusion_width = 0
; support_material_interface_extruder = 1
; support_material_interface_extrusion_width = 0
; support_material_interface_layers = 3
; support_material_interface_spacing = 0
; support_material_interface_speed = 100%
; support_material_max_layers = 0
; support_material_pattern = pillars
; support_material_spacing = 2.5
; support_material_speed = 60
; support_material_threshold = 60%
; xy_size_compensation = 0
; bottom_infill_pattern = rectilinear
; bottom_solid_layers = 3
; bridge_flow_ratio = 1
; bridge_speed = 60
; external_perimeter_extrusion_width = 0
; external_perimeter_speed = 50%
; external_perimeters_first = 0
; extra_perimeters = 1
; fill_angle = 45
; fill_density = 20%
; fill_gaps = 1
; fill_pattern = stars
; gap_fill_speed = 20
; infill_every_layers = 1
; infill_extruder = 1
; infill_extrusion_width = 0
; infill_overlap = 55%
; infill_speed = 80
; overhangs = 1
; perimeter_extruder = 1
; perimeter_extrusion_width = 0
; perimeter_speed = 60
; perimeters = 3
; small_perimeter_speed = 15
; solid_infill_below_area = 70
; solid_infill_every_layers = 0
; solid_infill_extruder = 1
; solid_infill_extrusion_width = 0
; solid_infill_speed = 20
; thin_walls = 1
; top_infill_extrusion_width = 0
; top_infill_pattern = rectilinear
; top_solid_infill_speed = 15
; top_solid_layers = 3
