; generated by Slic3r 1.3.0 on 2020-03-11 at 14:49:15

; external perimeters extrusion width = 0.55mm (6.64mm^3/s)
; perimeters extrusion width = 0.52mm (12.53mm^3/s)
; infill extrusion width = 0.52mm (16.71mm^3/s)
; solid infill extrusion width = 0.52mm (4.18mm^3/s)
; top infill extrusion width = 0.52mm (3.13mm^3/s)

M107
M104 S205 ; set temperature
G28 ; home all axes
G1 Z5 F5000 ; lift nozzle

; Filament gcode

M109 S205 ; set temperature and wait for it to be reached
G21 ; set units to millimeters
G90 ; use absolute coordinates
M82 ; use absolute distances for extrusion
G92 E0
G1 Z0.500 F7800.000
G1 E-2.00000 F2400.00000
G92 E0
G1 X98.294 Y97.599 F7800.000
G1 E2.00000 F2400.00000
G1 F600
G1 X97.599 Y98.294 E2.06726
G1 X97.599 Y99.663 E2.16101
G1 X99.663 Y97.599 E2.36084
G1 X101.032 Y97.599 E2.45459
G1 X97.599 Y101.032 E2.78701
G1 X97.599 Y102.401 E2.88076
G1 X102.401 Y97.599 E3.34576
G1 X102.401 Y98.968 E3.43951
G1 X98.968 Y102.401 E3.77193
G1 X100.337 Y102.401 E3.86568
G1 X102.401 Y100.337 E4.06551
G1 X102.401 Y101.706 E4.15926
G1 X101.706 Y102.401 E4.22652
M104 S200 ; set temperature
G1 Z1.000 F7800.000
G1 E2.22652 F2400.00000
G92 E0
G1 X97.871 Y102.453 F7800.000
G1 E2.00000 F2400.00000
G1 F778.851
G1 X97.546 Y102.129 E2.01404
G1 X97.546 Y101.518 E2.03271
G1 X98.482 Y102.454 E2.07316
G1 X99.093 Y102.454 E2.09183
G1 X97.546 Y100.907 E2.15868
G1 X97.546 Y100.296 E2.17735
G1 X99.704 Y102.454 E2.27061
G1 X100.315 Y102.454 E2.28928
G1 X97.546 Y99.685 E2.40894
G1 X97.546 Y99.074 E2.42761
G1 X100.926 Y102.454 E2.57368
G1 X101.537 Y102.454 E2.59235
G1 X97.546 Y98.463 E2.76481
G1 X97.546 Y97.852 E2.78348
G1 X102.148 Y102.454 E2.98235
G1 X102.454 Y102.454 E2.99169
G1 X102.454 Y102.148 E3.00102
G1 X97.852 Y97.546 E3.19989
G1 X98.463 Y97.546 E3.21856
G1 X102.454 Y101.537 E3.39103
G1 X102.454 Y100.926 E3.40970
G1 X99.074 Y97.546 E3.55576
G1 X99.685 Y97.546 E3.57443
G1 X102.454 Y100.315 E3.69409
G1 X102.454 Y99.704 E3.71276
G1 X100.296 Y97.546 E3.80602
G1 X100.907 Y97.546 E3.82469
G1 X102.454 Y99.093 E3.89155
G1 X102.454 Y98.482 E3.91022
G1 X101.518 Y97.546 E3.95067
G1 X102.129 Y97.546 E3.96934
G1 X102.454 Y97.871 E3.98338
G1 E1.98338 F2400.00000
G92 E0
; Filament-specific end gcode 
;END gcode for filament

M104 S0 ; turn off temperature
G28 X0  ; home X axis
M84     ; disable motors

M140 S0 ; set bed temperature
; filament used = 4.2mm (0.0cm3)
; total filament cost = 0.0

; avoid_crossing_perimeters = 0
; bed_shape = 0x0,200x0,200x200,0x200
; bed_temperature = 0
; before_layer_gcode = 
; between_objects_gcode = 
; bridge_acceleration = 0
; bridge_fan_speed = 100
; brim_connections_width = 0
; brim_width = 0
; complete_objects = 0
; cooling = 1
; default_acceleration = 0
; disable_fan_first_layers = 3
; duplicate_distance = 6
; end_filament_gcode = "; Filament-specific end gcode \n;END gcode for filament\n"
; end_gcode = M104 S0 ; turn off temperature\nG28 X0  ; home X axis\nM84     ; disable motors\n
; extruder_clearance_height = 20
; extruder_clearance_radius = 20
; extruder_offset = 0x0
; extrusion_axis = E
; extrusion_multiplier = 1
; fan_always_on = 0
; fan_below_layer_time = 60
; filament_colour = #FFFFFF
; filament_cost = 0
; filament_density = 0
; filament_diameter = 3
; filament_max_volumetric_speed = 0
; filament_notes = ""
; first_layer_acceleration = 0
; first_layer_bed_temperature = 0
; first_layer_extrusion_width = 200%
; first_layer_speed = 30
; first_layer_temperature = 205
; gcode_arcs = 0
; gcode_comments = 0
; gcode_flavor = reprap
; has_heatbed = 1
; infill_acceleration = 0
; infill_first = 0
; interior_brim_width = 0
; layer_gcode = 
; max_fan_speed = 100
; max_layer_height = 0.3
; max_print_speed = 80
; max_volumetric_speed = 0
; min_fan_speed = 35
; min_layer_height = 0.15
; min_print_speed = 10
; min_skirt_length = 0
; notes = 
; nozzle_diameter = 0.5
; only_retract_when_crossing_perimeters = 1
; ooze_prevention = 0
; output_filename_format = [input_filename_base].gcode
; perimeter_acceleration = 0
; post_process = 
; pressure_advance = 0
; printer_notes = 
; resolution = 0
; retract_before_travel = 2
; retract_layer_change = 0
; retract_length = 2
; retract_length_toolchange = 10
; retract_lift = 0
; retract_lift_above = 0
; retract_lift_below = 0
; retract_restart_extra = 0
; retract_restart_extra_toolchange = 0
; retract_speed = 40
; skirt_distance = 6
; skirt_height = 1
; skirts = 0
; slowdown_below_layer_time = 5
; spiral_vase = 0
; standby_temperature_delta = -5
; start_filament_gcode = "; Filament gcode\n"
; start_gcode = G28 ; home all axes\nG1 Z5 F5000 ; lift nozzle\n
; temperature = 200
; threads = 8
; toolchange_gcode = 
; travel_speed = 130
; use_firmware_retraction = 0
; use_relative_e_distances = 0
; use_set_and_wait_bed = 0
; use_set_and_wait_extruder = 0
; use_volumetric_e = 0
; vibration_limit = 0
; wipe = 0
; z_offset = 0
; z_steps_per_mm = 0
; adaptive_slicing = 0
; adaptive_slicing_quality = 75%
; dont_support_bridges = 1
; extrusion_width = 0
; first_layer_height = 0.5
; infill_only_where_needed = 0
; interface_shells = 0
; layer_height = 0.5
; match_horizontal_surfaces = 0
; raft_layers = 0
; regions_overlap = 0
; seam_position = aligned
; sequential_print_priority = 0
; support_material = 0
; support_material_angle = 0
; support_material_buildplate_only = 0
; support_material_contact_distance = 0.2
; support_material_enforce_layers = 0
; support_material_extruder = 1
; support_material_extrusion_width = 0
; support_material_interface_extruder = 1
; support_material_interface_extrusion_width = 0
; support_material_interface_layers = 3
; support_material_interface_spacing = 0
; support_material_interface_speed = 100%
; support_material_max_layers = 0
; support_material_pattern = pillars
; support_material_spacing = 2.5
; support_material_speed = 60
; support_material_threshold = 60%
; xy_size_compensation = 0
; bottom_infill_pattern = rectilinear
; bottom_solid_layers = 0
; bridge_flow_ratio = 1
; bridge_speed = 60
; external_perimeter_extrusion_width = 0
; external_perimeter_speed = 50%
; external_perimeters_first = 0
; extra_perimeters = 1
; fill_angle = 45
; fill_density = 20%
; fill_gaps = 1
; fill_pattern = rectilinear
; gap_fill_speed = 20
; infill_every_layers = 1
; infill_extruder = 1
; infill_extrusion_width = 0
; infill_overlap = 55%
; infill_speed = 80
; overhangs = 1
; perimeter_extruder = 1
; perimeter_extrusion_width = 0
; perimeter_speed = 60
; perimeters = 0
; small_perimeter_speed = 15
; solid_infill_below_area = 70
; solid_infill_every_layers = 0
; solid_infill_extruder = 1
; solid_infill_extrusion_width = 0
; solid_infill_speed = 20
; thin_walls = 1
; top_infill_extrusion_width = 0
; top_infill_pattern = rectilinear
; top_solid_infill_speed = 15
; top_solid_layers = 0
