; generated by Slic3r 1.3.0 on 2021-07-27 at 11:59:44

; external perimeters extrusion width = 0.55mm (6.64mm^3/s)
; perimeters extrusion width = 0.52mm (12.53mm^3/s)
; infill extrusion width = 0.52mm (16.71mm^3/s)
; solid infill extrusion width = 0.52mm (4.18mm^3/s)
; top infill extrusion width = 0.52mm (3.13mm^3/s)

M107
M104 S200 ; set temperature
G28 ; home all axes
G1 Z5 F5000 ; lift nozzle

; Filament gcode

M109 S200 ; set temperature and wait for it to be reached
G21 ; set units to millimeters
G90 ; use absolute coordinates
M82 ; use absolute distances for extrusion
G92 E0
G1 Z0.500 F7800.000
G1 E-2.00000 F2400.00000
G92 E0
G1 X92.124 Y91.139 F7800.000
G1 E2.00000 F2400.00000
G1 F1800
G1 X91.139 Y92.124 E2.79117
G1 X91.139 Y93.108 E3.35068
G1 X93.108 Y91.139 E4.93312
G1 X94.093 Y91.139 E5.49264
G1 X91.139 Y94.093 E7.86635
G1 X91.139 Y95.077 E8.42587
G1 X95.077 Y91.139 E11.59085
G1 X96.062 Y91.139 E12.15037
G1 X91.139 Y96.062 E16.10663
G1 X91.139 Y97.046 E16.66615
G1 X97.046 Y91.139 E21.41368
G1 X98.031 Y91.139 E21.97320
G1 X91.139 Y98.031 E27.51201
G1 X91.139 Y99.015 E28.07152
G1 X99.015 Y91.139 E34.40160
G1 X100.000 Y91.139 E34.96112
G1 X91.139 Y100.000 E42.08248
G1 X91.139 Y100.984 E42.64199
G1 X95.722 Y96.402 E46.32486
G1 X95.722 Y95.861 E46.63259
G1 X96.263 Y95.861 E46.94032
G1 X100.984 Y91.139 E50.73489
G1 X101.969 Y91.139 E51.29440
G1 X97.248 Y95.861 E55.08898
G1 X98.232 Y95.861 E55.64849
G1 X102.954 Y91.139 E59.44306
G1 X103.938 Y91.139 E60.00258
G1 X99.217 Y95.861 E63.79715
G1 X100.201 Y95.861 E64.35667
G1 X104.923 Y91.139 E68.15124
G1 X105.907 Y91.139 E68.71076
G1 X101.186 Y95.861 E72.50533
G1 X102.170 Y95.861 E73.06484
G1 X106.892 Y91.139 E76.85942
G1 X107.876 Y91.139 E77.41893
G1 X103.155 Y95.861 E81.21351
G1 X104.139 Y95.861 E81.77302
G1 X108.861 Y91.139 E85.56759
G1 X108.861 Y92.124 E86.12711
G1 X104.139 Y96.845 E89.92168
G1 X104.139 Y97.830 E90.48119
G1 X108.861 Y93.108 E94.27576
G1 X108.861 Y94.093 E94.83528
G1 X104.139 Y98.814 E98.62985
G1 X104.139 Y99.799 E99.18937
G1 X108.861 Y95.077 E102.98394
G1 X108.861 Y96.062 E103.54345
G1 X104.139 Y100.783 E107.33802
G1 X104.139 Y101.768 E107.89754
G1 X108.861 Y97.046 E111.69211
G1 X108.861 Y98.031 E112.25163
G1 X104.139 Y102.752 E116.04620
G1 X104.139 Y103.737 E116.60571
G1 X108.861 Y99.016 E120.40028
G1 X108.861 Y100.000 E120.95980
G1 X100.000 Y108.861 E128.08116
G1 X100.985 Y108.861 E128.64067
G1 X108.861 Y100.985 E134.97075
G1 X108.861 Y101.969 E135.53027
G1 X101.969 Y108.861 E141.06908
G1 X102.954 Y108.861 E141.62860
G1 X108.861 Y102.954 E146.37613
G1 X108.861 Y103.938 E146.93565
G1 X103.938 Y108.861 E150.89191
G1 X104.923 Y108.861 E151.45142
G1 X108.861 Y104.923 E154.61641
G1 X108.861 Y105.907 E155.17592
G1 X105.907 Y108.861 E157.54964
G1 X106.892 Y108.861 E158.10915
G1 X108.861 Y106.892 E159.69159
G1 X108.861 Y107.876 E160.25111
G1 X107.876 Y108.861 E161.04227
G1 E159.04227 F2400.00000
G92 E0
G1 X99.016 Y108.861 F7800.000
G1 E2.00000 F2400.00000
G1 F1800
G1 X103.737 Y104.139 E5.79457
G1 X102.752 Y104.139 E6.35409
G1 X98.031 Y108.861 E10.14866
G1 X97.046 Y108.861 E10.70818
G1 X101.768 Y104.139 E14.50275
G1 X100.783 Y104.139 E15.06226
G1 X96.062 Y108.861 E18.85684
G1 X95.077 Y108.861 E19.41635
G1 X99.799 Y104.139 E23.21092
G1 X98.814 Y104.139 E23.77044
G1 X94.093 Y108.861 E27.56501
G1 X93.108 Y108.861 E28.12453
G1 X97.830 Y104.139 E31.91910
G1 X96.845 Y104.139 E32.47862
G1 X92.124 Y108.861 E36.27319
G1 X91.139 Y108.861 E36.83270
G1 X95.861 Y104.139 E40.62728
G1 X95.861 Y103.155 E41.18679
G1 X91.139 Y107.876 E44.98136
G1 X91.139 Y106.892 E45.54088
G1 X95.861 Y102.170 E49.33545
G1 X95.861 Y101.186 E49.89496
G1 X91.139 Y105.907 E53.68954
G1 X91.139 Y104.923 E54.24905
G1 X95.861 Y100.201 E58.04362
G1 X95.861 Y99.217 E58.60314
G1 X91.139 Y103.938 E62.39771
G1 X91.139 Y102.954 E62.95722
G1 X95.861 Y98.232 E66.75180
G1 X95.861 Y97.248 E67.31131
G1 X91.139 Y101.969 E71.10588
G1 X91.139 Y100.984 E71.66540
G1 Z1.000 F7800.000
G1 E69.66540 F2400.00000
G92 E0
G1 X103.710 Y107.247 F7800.000
G1 E2.00000 F2400.00000
G1 F1200
G1 X103.799 Y107.335 E2.03412
G1 X104.403 Y107.335 E2.19833
G1 X103.710 Y106.643 E2.46468
G1 X103.710 Y106.039 E2.62889
G1 X105.007 Y107.335 E3.12746
G1 X105.611 Y107.335 E3.29166
G1 X103.710 Y105.435 E4.02246
G1 X103.710 Y104.831 E4.18667
G1 X106.215 Y107.335 E5.14968
G1 X106.818 Y107.335 E5.31389
G1 X103.710 Y104.227 E6.50913
G1 X103.710 Y104.165 E6.52608
G1 X104.165 Y104.165 E6.64969
G1 X104.165 Y104.078 E6.67334
G1 X107.335 Y107.248 E7.89255
G1 X107.335 Y106.645 E8.05676
G1 X104.165 Y103.474 E9.27597
G1 X104.165 Y102.870 E9.44018
G1 X107.335 Y106.041 E10.65939
G1 X107.335 Y105.437 E10.82360
G1 X104.165 Y102.266 E12.04281
G1 X104.165 Y101.662 E12.20702
G1 X107.335 Y104.833 E13.42623
G1 X107.335 Y104.229 E13.59044
G1 X104.165 Y101.058 E14.80965
G1 X104.165 Y100.454 E14.97386
G1 X107.335 Y103.625 E16.19307
G1 X107.335 Y103.021 E16.35728
G1 X104.165 Y99.850 E17.57649
G1 X104.165 Y99.246 E17.74070
G1 X107.335 Y102.417 E18.95991
G1 X107.335 Y101.813 E19.12412
G1 X104.165 Y98.642 E20.34333
G1 X104.165 Y98.038 E20.50754
G1 X107.335 Y101.209 E21.72676
G1 X107.335 Y100.605 E21.89096
G1 X104.165 Y97.434 E23.11018
G1 X104.165 Y96.830 E23.27438
G1 X107.335 Y100.001 E24.49360
G1 X107.335 Y99.397 E24.65780
G1 X104.165 Y96.226 E25.87702
G1 X104.165 Y95.747 E26.00728
G1 X103.710 Y95.747 E26.13089
G1 X103.710 Y95.167 E26.28844
G1 X107.335 Y98.793 E27.68246
G1 X107.335 Y98.189 E27.84667
G1 X103.710 Y94.563 E29.24069
G1 X103.710 Y93.959 E29.40490
G1 X107.335 Y97.585 E30.79892
G1 X107.335 Y96.981 E30.96313
G1 X103.710 Y93.355 E32.35715
G1 X103.710 Y92.752 E32.52136
G1 X107.335 Y96.377 E33.91538
G1 X107.335 Y95.773 E34.07959
G1 X104.227 Y92.665 E35.27483
G1 X104.831 Y92.665 E35.43904
G1 X107.335 Y95.169 E36.40206
G1 X107.335 Y94.565 E36.56626
G1 X105.435 Y92.665 E37.29706
G1 X106.039 Y92.665 E37.46126
G1 X107.335 Y93.961 E37.95983
G1 X107.335 Y93.357 E38.12404
G1 X106.643 Y92.665 E38.39039
G1 X107.247 Y92.665 E38.55460
G1 X107.335 Y92.753 E38.58872
G1 E36.58872 F2400.00000
G92 E0
G1 X102.290 Y92.753 F7800.000
G1 E2.00000 F2400.00000
G1 F1200
G1 X102.201 Y92.665 E2.03566
G1 X101.570 Y92.665 E2.21497
G1 X102.290 Y93.384 E2.50422
G1 X102.290 Y94.016 E2.68353
G1 X100.939 Y92.665 E3.22636
G1 X100.308 Y92.665 E3.40568
G1 X102.290 Y94.647 E4.20210
G1 X102.290 Y95.278 E4.38141
G1 X99.677 Y92.665 E5.43142
G1 X99.046 Y92.665 E5.61073
G1 X102.217 Y95.835 E6.88479
G1 X101.585 Y95.835 E7.06410
G1 X98.415 Y92.665 E8.33816
G1 X97.783 Y92.665 E8.51747
G1 X100.954 Y95.835 E9.79153
G1 X100.323 Y95.835 E9.97085
G1 X97.710 Y93.222 E11.02086
G1 X97.710 Y93.853 E11.20017
G1 X99.692 Y95.835 E11.99659
G1 X99.061 Y95.835 E12.17591
G1 X97.710 Y94.484 E12.71874
G1 X97.710 Y95.116 E12.89806
G1 X98.430 Y95.835 E13.18731
G1 X97.799 Y95.835 E13.36662
G1 X97.710 Y95.747 E13.40228
G1 E11.40228 F2400.00000
G92 E0
G1 X96.290 Y92.753 F7800.000
G1 E2.00000 F2400.00000
G1 F1200
G1 X96.201 Y92.665 E2.03412
G1 X95.597 Y92.665 E2.19833
G1 X96.290 Y93.357 E2.46468
G1 X96.290 Y93.961 E2.62888
G1 X94.993 Y92.665 E3.12746
G1 X94.389 Y92.665 E3.29166
G1 X96.290 Y94.565 E4.02246
G1 X96.290 Y95.169 E4.18666
G1 X93.785 Y92.665 E5.14968
G1 X93.182 Y92.665 E5.31389
G1 X96.290 Y95.773 E6.50913
G1 X96.290 Y95.835 E6.52608
G1 X95.835 Y95.835 E6.64969
G1 X95.835 Y95.922 E6.67334
G1 X92.665 Y92.752 E7.89255
G1 X92.665 Y93.355 E8.05676
G1 X95.835 Y96.526 E9.27597
G1 X95.835 Y97.130 E9.44018
G1 X92.665 Y93.959 E10.65939
G1 X92.665 Y94.563 E10.82360
G1 X95.835 Y97.734 E12.04281
G1 X95.835 Y98.338 E12.20702
G1 X92.665 Y95.167 E13.42623
G1 X92.665 Y95.771 E13.59044
G1 X95.835 Y98.942 E14.80965
G1 X95.835 Y99.546 E14.97386
G1 X92.665 Y96.375 E16.19307
G1 X92.665 Y96.979 E16.35728
G1 X95.835 Y100.150 E17.57649
G1 X95.835 Y100.754 E17.74070
G1 X92.665 Y97.583 E18.95991
G1 X92.665 Y98.187 E19.12412
G1 X95.835 Y101.358 E20.34334
G1 X95.835 Y101.962 E20.50754
G1 X92.665 Y98.791 E21.72676
G1 X92.665 Y99.395 E21.89096
G1 X95.835 Y102.566 E23.11018
G1 X95.835 Y103.170 E23.27438
G1 X92.665 Y99.999 E24.49360
G1 X92.665 Y100.603 E24.65780
G1 X95.835 Y103.774 E25.87702
G1 X95.835 Y104.253 E26.00729
G1 X96.290 Y104.253 E26.13089
G1 X96.290 Y104.833 E26.28844
G1 X92.665 Y101.207 E27.68247
G1 X92.665 Y101.811 E27.84667
G1 X96.290 Y105.437 E29.24070
G1 X96.290 Y106.041 E29.40490
G1 X92.665 Y102.415 E30.79893
G1 X92.665 Y103.019 E30.96313
G1 X96.290 Y106.645 E32.35716
G1 X96.290 Y107.248 E32.52136
G1 X92.665 Y103.623 E33.91539
G1 X92.665 Y104.227 E34.07959
G1 X95.773 Y107.335 E35.27484
G1 X95.169 Y107.335 E35.43904
G1 X92.665 Y104.831 E36.40206
G1 X92.665 Y105.435 E36.56627
G1 X94.565 Y107.335 E37.29706
G1 X93.961 Y107.335 E37.46127
G1 X92.665 Y106.039 E37.95984
G1 X92.665 Y106.643 E38.12405
G1 X93.357 Y107.335 E38.39040
G1 X92.753 Y107.335 E38.55460
G1 X92.665 Y107.247 E38.58873
G1 E36.58873 F2400.00000
G92 E0
G1 X97.710 Y107.247 F7800.000
G1 E2.00000 F2400.00000
G1 F1200
G1 X97.799 Y107.335 E2.03566
G1 X98.430 Y107.335 E2.21497
G1 X97.710 Y106.616 E2.50422
G1 X97.710 Y105.984 E2.68354
G1 X99.061 Y107.335 E3.22637
G1 X99.692 Y107.335 E3.40569
G1 X97.710 Y105.353 E4.20211
G1 X97.710 Y104.722 E4.38142
G1 X100.323 Y107.335 E5.43143
G1 X100.954 Y107.335 E5.61074
G1 X97.783 Y104.165 E6.88480
G1 X98.415 Y104.165 E7.06412
G1 X101.585 Y107.335 E8.33818
G1 X102.217 Y107.335 E8.51749
G1 X99.046 Y104.165 E9.79155
G1 X99.677 Y104.165 E9.97086
G1 X102.290 Y106.778 E11.02087
G1 X102.290 Y106.147 E11.20018
G1 X100.308 Y104.165 E11.99660
G1 X100.939 Y104.165 E12.17591
G1 X102.290 Y105.516 E12.71875
G1 X102.290 Y104.884 E12.89806
G1 X101.570 Y104.165 E13.18731
G1 X102.201 Y104.165 E13.36662
G1 X102.290 Y104.253 E13.40228
G1 Z1.500 F7800.000
G1 E11.40228 F2400.00000
G92 E0
G1 X107.247 Y107.335 F7800.000
G1 E2.00000 F2400.00000
G1 F1200
G1 X107.335 Y107.247 E2.03412
G1 X107.335 Y106.643 E2.19833
G1 X106.643 Y107.335 E2.46468
G1 X106.039 Y107.335 E2.62888
G1 X107.335 Y106.039 E3.12745
G1 X107.335 Y105.435 E3.29166
G1 X105.435 Y107.335 E4.02245
G1 X104.831 Y107.335 E4.18666
G1 X107.335 Y104.831 E5.14968
G1 X107.335 Y104.227 E5.31388
G1 X104.227 Y107.335 E6.50913
G1 X103.710 Y107.335 E6.64969
G1 X103.710 Y107.248 E6.67333
G1 X107.335 Y103.623 E8.06735
G1 X107.335 Y103.019 E8.23156
G1 X103.710 Y106.645 E9.62558
G1 X103.710 Y106.041 E9.78979
G1 X107.335 Y102.415 E11.18381
G1 X107.335 Y101.811 E11.34802
G1 X103.710 Y105.437 E12.74204
G1 X103.710 Y104.833 E12.90625
G1 X107.335 Y101.207 E14.30027
G1 X107.335 Y100.603 E14.46448
G1 X104.165 Y103.774 E15.68369
G1 X104.165 Y103.170 E15.84790
G1 X107.335 Y99.999 E17.06711
G1 X107.335 Y99.395 E17.23132
G1 X104.165 Y102.566 E18.45053
G1 X104.165 Y101.962 E18.61474
G1 X107.335 Y98.791 E19.83395
G1 X107.335 Y98.187 E19.99816
G1 X104.165 Y101.358 E21.21737
G1 X104.165 Y100.754 E21.38158
G1 X107.335 Y97.583 E22.60079
G1 X107.335 Y96.979 E22.76500
G1 X104.165 Y100.150 E23.98421
G1 X104.165 Y99.546 E24.14842
G1 X107.335 Y96.375 E25.36763
G1 X107.335 Y95.771 E25.53184
G1 X104.165 Y98.942 E26.75105
G1 X104.165 Y98.338 E26.91526
G1 X107.335 Y95.167 E28.13447
G1 X107.335 Y94.563 E28.29868
G1 X104.165 Y97.734 E29.51789
G1 X104.165 Y97.130 E29.68210
G1 X107.335 Y93.959 E30.90131
G1 X107.335 Y93.355 E31.06552
G1 X104.165 Y96.526 E32.28473
G1 X104.165 Y95.922 E32.44894
G1 X107.335 Y92.752 E33.66815
G1 X107.335 Y92.665 E33.69180
G1 X106.818 Y92.665 E33.83236
G1 X103.710 Y95.773 E35.02760
G1 X103.710 Y95.169 E35.19181
G1 X106.215 Y92.665 E36.15483
G1 X105.611 Y92.665 E36.31904
G1 X103.710 Y94.565 E37.04983
G1 X103.710 Y93.961 E37.21404
G1 X105.007 Y92.665 E37.71261
G1 X104.403 Y92.665 E37.87682
G1 X103.710 Y93.357 E38.14317
G1 X103.710 Y92.753 E38.30738
G1 X103.799 Y92.665 E38.34150
G1 E36.34150 F2400.00000
G92 E0
G1 X102.201 Y95.835 F7800.000
G1 E2.00000 F2400.00000
G1 F1200
G1 X102.290 Y95.747 E2.03566
G1 X102.290 Y95.116 E2.21497
G1 X101.570 Y95.835 E2.50422
G1 X100.939 Y95.835 E2.68353
G1 X102.290 Y94.484 E3.22636
G1 X102.290 Y93.853 E3.40568
G1 X100.308 Y95.835 E4.20210
G1 X99.677 Y95.835 E4.38141
G1 X102.290 Y93.222 E5.43141
G1 X102.290 Y92.665 E5.58985
G1 X102.217 Y92.665 E5.61073
G1 X99.046 Y95.835 E6.88479
G1 X98.415 Y95.835 E7.06410
G1 X101.585 Y92.665 E8.33816
G1 X100.954 Y92.665 E8.51748
G1 X97.783 Y95.835 E9.79154
G1 X97.710 Y95.835 E9.81242
G1 X97.710 Y95.278 E9.97085
G1 X100.323 Y92.665 E11.02086
G1 X99.692 Y92.665 E11.20017
G1 X97.710 Y94.647 E11.99660
G1 X97.710 Y94.016 E12.17591
G1 X99.061 Y92.665 E12.71875
G1 X98.430 Y92.665 E12.89806
G1 X97.710 Y93.384 E13.18731
G1 X97.710 Y92.753 E13.36662
G1 X97.799 Y92.665 E13.40228
G1 X92.753 Y92.665 F7800.000
G1 F1200
G1 X92.665 Y92.753 E13.43641
G1 X92.665 Y93.357 E13.60062
G1 X93.357 Y92.665 E13.86696
G1 X93.961 Y92.665 E14.03117
G1 X92.665 Y93.961 E14.52974
G1 X92.665 Y94.565 E14.69395
G1 X94.565 Y92.665 E15.42474
G1 X95.169 Y92.665 E15.58895
G1 X92.665 Y95.169 E16.55197
G1 X92.665 Y95.773 E16.71618
G1 X95.773 Y92.665 E17.91142
G1 X96.290 Y92.665 E18.05198
G1 X96.290 Y92.752 E18.07563
G1 X92.665 Y96.377 E19.46965
G1 X92.665 Y96.981 E19.63385
G1 X96.290 Y93.355 E21.02788
G1 X96.290 Y93.959 E21.19208
G1 X92.665 Y97.585 E22.58611
G1 X92.665 Y98.189 E22.75031
G1 X96.290 Y94.563 E24.14433
G1 X96.290 Y95.167 E24.30854
G1 X92.665 Y98.793 E25.70256
G1 X92.665 Y99.397 E25.86677
G1 X95.835 Y96.226 E27.08598
G1 X95.835 Y96.830 E27.25019
G1 X92.665 Y100.001 E28.46940
G1 X92.665 Y100.605 E28.63361
G1 X95.835 Y97.434 E29.85282
G1 X95.835 Y98.038 E30.01703
G1 X92.665 Y101.209 E31.23624
G1 X92.665 Y101.813 E31.40045
G1 X95.835 Y98.642 E32.61967
G1 X95.835 Y99.246 E32.78387
G1 X92.665 Y102.417 E34.00309
G1 X92.665 Y103.021 E34.16729
G1 X95.835 Y99.850 E35.38651
G1 X95.835 Y100.454 E35.55071
G1 X92.665 Y103.625 E36.76993
G1 X92.665 Y104.229 E36.93413
G1 X95.835 Y101.058 E38.15335
G1 X95.835 Y101.662 E38.31755
G1 X92.665 Y104.833 E39.53677
G1 X92.665 Y105.437 E39.70097
G1 X95.835 Y102.266 E40.92019
G1 X95.835 Y102.870 E41.08439
G1 X92.665 Y106.041 E42.30361
G1 X92.665 Y106.645 E42.46781
G1 X95.835 Y103.474 E43.68703
G1 X95.835 Y104.078 E43.85123
G1 X92.665 Y107.248 E45.07045
G1 X92.665 Y107.335 E45.09409
G1 X93.182 Y107.335 E45.23465
G1 X96.290 Y104.227 E46.42990
G1 X96.290 Y104.831 E46.59410
G1 X93.785 Y107.335 E47.55712
G1 X94.389 Y107.335 E47.72133
G1 X96.290 Y105.435 E48.45212
G1 X96.290 Y106.039 E48.61633
G1 X94.993 Y107.335 E49.11490
G1 X95.597 Y107.335 E49.27911
G1 X96.290 Y106.643 E49.54545
G1 X96.290 Y107.247 E49.70966
G1 X96.201 Y107.335 E49.74379
G1 E47.74379 F2400.00000
G92 E0
G1 X97.799 Y104.165 F7800.000
G1 E2.00000 F2400.00000
G1 F1200
G1 X97.710 Y104.253 E2.03566
G1 X97.710 Y104.884 E2.21498
G1 X98.430 Y104.165 E2.50423
G1 X99.061 Y104.165 E2.68354
G1 X97.710 Y105.516 E3.22637
G1 X97.710 Y106.147 E3.40569
G1 X99.692 Y104.165 E4.20211
G1 X100.323 Y104.165 E4.38142
G1 X97.710 Y106.778 E5.43143
G1 X97.710 Y107.335 E5.58986
G1 X97.783 Y107.335 E5.61075
G1 X100.954 Y104.165 E6.88481
G1 X101.585 Y104.165 E7.06412
G1 X98.415 Y107.335 E8.33818
G1 X99.046 Y107.335 E8.51750
G1 X102.217 Y104.165 E9.79156
G1 X102.290 Y104.165 E9.81244
G1 X102.290 Y104.722 E9.97087
G1 X99.677 Y107.335 E11.02088
G1 X100.308 Y107.335 E11.20019
G1 X102.290 Y105.353 E11.99661
G1 X102.290 Y105.984 E12.17592
G1 X100.939 Y107.335 E12.71875
G1 X101.570 Y107.335 E12.89807
G1 X102.290 Y106.616 E13.18731
G1 X102.290 Y107.247 E13.36663
G1 X102.201 Y107.335 E13.40228
M106 S209.1
G1 Z2.000 F7800.000
G1 E11.40228 F2400.00000
G92 E0
G1 X98.705 Y107.335 F7800.000
G1 E2.00000 F2400.00000
G1 F1200
G1 X99.300 Y107.335 E2.15947
G1 X96.129 Y104.165 E3.36097
G1 X96.725 Y104.165 E3.52043
G1 X99.896 Y107.335 E4.72193
G1 X100.491 Y107.335 E4.88140
G1 X97.320 Y104.165 E6.08290
G1 X97.915 Y104.165 E6.24236
G1 X101.086 Y107.335 E7.44386
G1 X101.681 Y107.335 E7.60333
G1 X98.510 Y104.165 E8.80483
G1 X99.105 Y104.165 E8.96430
G1 X102.276 Y107.335 E10.16579
G1 X102.872 Y107.335 E10.32526
G1 X99.701 Y104.165 E11.52676
G1 X100.296 Y104.165 E11.68623
G1 X103.467 Y107.335 E12.88772
G1 X104.062 Y107.335 E13.04719
G1 X100.891 Y104.165 E14.24869
G1 X101.486 Y104.165 E14.40816
G1 X104.657 Y107.335 E15.60965
G1 X105.252 Y107.335 E15.76912
G1 X102.081 Y104.165 E16.97062
G1 X102.677 Y104.165 E17.13009
G1 X105.848 Y107.335 E18.33158
G1 X106.443 Y107.335 E18.49105
G1 X103.272 Y104.165 E19.69255
G1 X103.867 Y104.165 E19.85202
G1 X107.038 Y107.335 E21.05351
G1 X107.335 Y107.335 E21.13324
G1 X107.335 Y107.038 E21.21298
G1 X104.165 Y103.867 E22.41448
G1 X104.165 Y103.272 E22.57395
G1 X107.335 Y106.443 E23.77544
G1 X107.335 Y105.847 E23.93491
G1 X104.165 Y102.677 E25.13641
G1 X104.165 Y102.081 E25.29588
G1 X107.335 Y105.252 E26.49737
G1 X107.335 Y104.657 E26.65684
G1 X104.165 Y101.486 E27.85834
G1 X104.165 Y100.891 E28.01781
G1 X107.335 Y104.062 E29.21930
G1 X107.335 Y103.467 E29.37877
G1 X104.165 Y100.296 E30.58027
G1 X104.165 Y99.701 E30.73974
G1 X107.335 Y102.872 E31.94123
G1 X107.335 Y102.276 E32.10070
G1 X104.165 Y99.105 E33.30220
G1 X104.165 Y98.510 E33.46167
G1 X107.335 Y101.681 E34.66316
G1 X107.335 Y101.086 E34.82263
G1 X104.165 Y97.915 E36.02413
G1 X104.165 Y97.320 E36.18360
G1 X107.335 Y100.491 E37.38510
G1 X107.335 Y99.896 E37.54456
G1 X104.165 Y96.725 E38.74606
G1 X104.165 Y96.129 E38.90553
G1 X107.335 Y99.300 E40.10703
G1 E38.10703 F2400.00000
G92 E0
G1 X107.335 Y92.753 F7800.000
G1 E2.00000 F2400.00000
G1 F1200
G1 X107.247 Y92.665 E2.03363
G1 X106.652 Y92.665 E2.19310
G1 X107.335 Y93.348 E2.45225
G1 X107.335 Y93.944 E2.61172
G1 X106.056 Y92.665 E3.09639
G1 X105.461 Y92.665 E3.25586
G1 X107.335 Y94.539 E3.96606
G1 X107.335 Y95.134 E4.12553
G1 X104.866 Y92.665 E5.06125
G1 X104.271 Y92.665 E5.22072
G1 X107.335 Y95.729 E6.38196
G1 X107.335 Y96.324 E6.54143
G1 X103.676 Y92.665 E7.92820
G1 X103.080 Y92.665 E8.08767
G1 X107.335 Y96.920 E9.69996
G1 X107.335 Y97.515 E9.85943
G1 X102.485 Y92.665 E11.69725
G1 X101.890 Y92.665 E11.85672
G1 X107.335 Y98.110 E13.92005
G1 X107.335 Y98.705 E14.07952
G1 X101.295 Y92.665 E16.36838
G1 X100.700 Y92.665 E16.52785
G1 X103.871 Y95.835 E17.72935
G1 X103.275 Y95.835 E17.88882
G1 X100.104 Y92.665 E19.09032
G1 X99.509 Y92.665 E19.24978
G1 X102.680 Y95.835 E20.45128
G1 X102.085 Y95.835 E20.61075
G1 X98.914 Y92.665 E21.81225
G1 X98.319 Y92.665 E21.97172
G1 X101.490 Y95.835 E23.17321
G1 X100.895 Y95.835 E23.33268
G1 X97.724 Y92.665 E24.53418
G1 X97.128 Y92.665 E24.69365
G1 X100.299 Y95.835 E25.89514
G1 X99.704 Y95.835 E26.05461
G1 X96.533 Y92.665 E27.25611
G1 X95.938 Y92.665 E27.41558
G1 X99.109 Y95.835 E28.61708
G1 X98.514 Y95.835 E28.77654
G1 X95.343 Y92.665 E29.97804
G1 X94.748 Y92.665 E30.13751
G1 X97.919 Y95.835 E31.33901
G1 X97.323 Y95.835 E31.49848
G1 X94.153 Y92.665 E32.69997
G1 X93.557 Y92.665 E32.85944
G1 X96.728 Y95.835 E34.06094
G1 X96.133 Y95.835 E34.22041
G1 X92.962 Y92.665 E35.42190
G1 X92.665 Y92.665 E35.50164
G1 X92.665 Y92.962 E35.58137
G1 X95.835 Y96.133 E36.78287
G1 X95.835 Y96.728 E36.94234
G1 X92.665 Y93.557 E38.14383
G1 X92.665 Y94.152 E38.30330
G1 X95.835 Y97.323 E39.50480
G1 X95.835 Y97.919 E39.66427
G1 X92.665 Y94.748 E40.86577
G1 X92.665 Y95.343 E41.02524
G1 X95.835 Y98.514 E42.22673
G1 X95.835 Y99.109 E42.38620
G1 X92.665 Y95.938 E43.58770
G1 X92.665 Y96.533 E43.74717
G1 X95.835 Y99.704 E44.94866
G1 X95.835 Y100.299 E45.10813
G1 X92.665 Y97.128 E46.30963
G1 X92.665 Y97.724 E46.46910
G1 X95.835 Y100.895 E47.67059
G1 X95.835 Y101.490 E47.83006
G1 X92.665 Y98.319 E49.03156
G1 X92.665 Y98.914 E49.19103
G1 X95.835 Y102.085 E50.39253
G1 X95.835 Y102.680 E50.55199
G1 X92.665 Y99.509 E51.75349
G1 X92.665 Y100.104 E51.91296
G1 X95.835 Y103.275 E53.11446
G1 X95.835 Y103.871 E53.27393
G1 X92.665 Y100.700 E54.47542
G1 X92.665 Y101.295 E54.63489
G1 X98.705 Y107.335 E56.92377
G1 X98.110 Y107.335 E57.08324
G1 X92.665 Y101.890 E59.14659
G1 X92.665 Y102.485 E59.30606
G1 X97.515 Y107.335 E61.14389
G1 X96.920 Y107.335 E61.30336
G1 X92.665 Y103.080 E62.91567
G1 X92.665 Y103.676 E63.07514
G1 X96.324 Y107.335 E64.46193
G1 X95.729 Y107.335 E64.62139
G1 X92.665 Y104.271 E65.78266
G1 X92.665 Y104.866 E65.94213
G1 X95.134 Y107.335 E66.87786
G1 X94.539 Y107.335 E67.03733
G1 X92.665 Y105.461 E67.74755
G1 X92.665 Y106.056 E67.90702
G1 X93.944 Y107.335 E68.39171
G1 X93.349 Y107.335 E68.55118
G1 X92.665 Y106.651 E68.81034
G1 X92.665 Y107.247 E68.96981
G1 X92.753 Y107.335 E69.00339
M106 S255
G1 Z2.500 F7800.000
G1 E67.00339 F2400.00000
G92 E0
G1 X102.041 Y105.835 F7800.000
G1 E2.00000 F2400.00000
G1 F1610.46
G1 X103.712 Y104.165 E2.62837
G1 X102.727 Y104.165 E2.89017
G1 X101.056 Y105.835 E3.51854
G1 X100.072 Y105.835 E3.78034
G1 X101.743 Y104.165 E4.40871
G1 X100.758 Y104.165 E4.67052
G1 X99.087 Y105.835 E5.29889
G1 X98.103 Y105.835 E5.56069
G1 X99.774 Y104.165 E6.18906
G1 X98.789 Y104.165 E6.45086
G1 X97.118 Y105.835 E7.07923
G1 X96.134 Y105.835 E7.34103
G1 X97.805 Y104.165 E7.96940
G1 X96.820 Y104.165 E8.23120
G1 X95.149 Y105.835 E8.85958
G1 X94.165 Y105.835 E9.12138
G1 X95.835 Y104.165 E9.74975
G1 X95.835 Y103.180 E10.01155
G1 X94.165 Y104.851 E10.63992
G1 X94.165 Y103.866 E10.90172
G1 X95.835 Y102.195 E11.53009
G1 X95.835 Y101.211 E11.79189
G1 X94.165 Y102.882 E12.42026
G1 X94.165 Y101.897 E12.68206
G1 X95.835 Y100.226 E13.31044
G1 X95.835 Y99.242 E13.57224
G1 X94.165 Y100.913 E14.20061
G1 X94.165 Y99.928 E14.46241
G1 X95.835 Y98.257 E15.09078
G1 X95.835 Y97.273 E15.35258
G1 X94.165 Y98.944 E15.98095
G1 X94.165 Y97.959 E16.24275
G1 X95.006 Y94.165 F7800.000
G1 F1610.46
G1 X94.165 Y95.006 E16.55908
G1 X94.165 Y95.990 E16.82088
G1 X95.990 Y94.165 E17.50745
G1 X96.975 Y94.165 E17.76925
G1 X94.165 Y96.975 E18.82606
G1 X94.165 Y97.959 E19.08786
G1 X95.747 Y96.377 E19.68291
G1 X95.747 Y95.835 E19.82689
G1 X96.288 Y95.835 E19.97088
G1 X97.959 Y94.165 E20.59925
G1 X98.944 Y94.165 E20.86106
G1 X97.273 Y95.835 E21.48943
G1 X98.257 Y95.835 E21.75123
G1 X99.928 Y94.165 E22.37960
G1 X100.913 Y94.165 E22.64140
G1 X99.242 Y95.835 E23.26977
G1 X100.226 Y95.835 E23.53157
G1 X101.897 Y94.165 E24.15994
G1 X102.882 Y94.165 E24.42174
G1 X101.211 Y95.835 E25.05012
G1 X102.195 Y95.835 E25.31192
G1 X103.866 Y94.165 E25.94029
G1 X104.851 Y94.165 E26.20209
G1 X103.180 Y95.835 E26.83046
G1 X104.165 Y95.835 E27.09226
G1 X105.835 Y94.165 E27.72063
G1 X105.835 Y95.149 E27.98243
G1 X104.165 Y96.820 E28.61081
G1 X104.165 Y97.805 E28.87261
G1 X105.835 Y96.134 E29.50098
G1 X105.835 Y97.118 E29.76278
G1 X104.165 Y98.789 E30.39115
G1 X104.165 Y99.774 E30.65295
G1 X105.835 Y98.103 E31.28132
G1 X105.835 Y99.087 E31.54312
G1 X104.165 Y100.758 E32.17149
G1 X104.165 Y101.743 E32.43330
G1 X105.835 Y100.072 E33.06167
G1 X105.835 Y101.056 E33.32347
G1 X104.165 Y102.727 E33.95184
G1 X104.165 Y103.712 E34.21364
G1 X105.835 Y102.041 E34.84201
G1 X105.835 Y103.025 E35.10381
G1 X103.025 Y105.835 E36.16062
G1 X104.010 Y105.835 E36.42242
G1 X105.835 Y104.010 E37.10899
G1 X105.835 Y104.994 E37.37079
G1 X104.994 Y105.835 E37.68712
G1 Z3.000 F7800.000
G1 X97.959 Y105.835 F7800.000
G1 F1610.46
G1 X98.944 Y105.835 E37.94892
G1 X97.273 Y104.165 E38.57729
G1 X98.257 Y104.165 E38.83909
G1 X99.928 Y105.835 E39.46746
G1 X100.913 Y105.835 E39.72926
G1 X99.242 Y104.165 E40.35763
G1 X100.226 Y104.165 E40.61943
G1 X101.897 Y105.835 E41.24780
G1 X102.882 Y105.835 E41.50960
G1 X101.211 Y104.165 E42.13798
G1 X102.195 Y104.165 E42.39978
G1 X103.866 Y105.835 E43.02815
G1 X104.851 Y105.835 E43.28995
G1 X103.180 Y104.165 E43.91832
G1 X104.165 Y104.165 E44.18012
G1 X105.835 Y105.835 E44.80849
G1 X105.835 Y104.851 E45.07029
G1 X104.165 Y103.180 E45.69866
G1 X104.165 Y102.195 E45.96046
G1 X105.835 Y103.866 E46.58883
G1 X105.835 Y102.882 E46.85063
G1 X104.165 Y101.211 E47.47901
G1 X104.165 Y100.226 E47.74081
G1 X105.835 Y101.897 E48.36918
G1 X105.835 Y100.913 E48.63098
G1 X104.165 Y99.242 E49.25935
G1 X104.165 Y98.257 E49.52115
G1 X105.835 Y99.928 E50.14952
G1 X105.835 Y98.944 E50.41132
G1 X104.165 Y97.273 E51.03969
G1 X104.165 Y96.288 E51.30149
G1 X105.835 Y97.959 E51.92987
G1 X105.835 Y95.006 F7800.000
G1 F1610.46
G1 X104.994 Y94.165 E52.24619
G1 X104.010 Y94.165 E52.50799
G1 X105.835 Y95.990 E53.19456
G1 X105.835 Y96.975 E53.45636
G1 X103.025 Y94.165 E54.51317
G1 X102.041 Y94.165 E54.77497
G1 X103.712 Y95.835 E55.40334
G1 X102.727 Y95.835 E55.66515
G1 X101.056 Y94.165 E56.29352
G1 X100.072 Y94.165 E56.55532
G1 X101.743 Y95.835 E57.18369
G1 X100.758 Y95.835 E57.44549
G1 X99.087 Y94.165 E58.07386
G1 X98.103 Y94.165 E58.33566
G1 X99.774 Y95.835 E58.96403
G1 X98.789 Y95.835 E59.22583
G1 X97.118 Y94.165 E59.85421
G1 X96.134 Y94.165 E60.11601
G1 X97.805 Y95.835 E60.74438
G1 X96.820 Y95.835 E61.00618
G1 X95.149 Y94.165 E61.63455
G1 X94.165 Y94.165 E61.89635
G1 X95.835 Y95.835 E62.52472
G1 X95.835 Y96.820 E62.78652
G1 X94.165 Y95.149 E63.41490
G1 X94.165 Y96.134 E63.67670
G1 X95.835 Y97.805 E64.30507
G1 X95.835 Y98.789 E64.56687
G1 X94.165 Y97.118 E65.19524
G1 X94.165 Y98.103 E65.45704
G1 X95.835 Y99.774 E66.08541
G1 X95.835 Y100.758 E66.34721
G1 X94.165 Y99.087 E66.97559
G1 X94.165 Y100.072 E67.23739
G1 X95.835 Y101.743 E67.86576
G1 X95.835 Y102.727 E68.12756
G1 X94.165 Y101.056 E68.75593
G1 X94.165 Y102.041 E69.01773
G1 X95.835 Y103.712 E69.64610
G1 X95.835 Y104.253 E69.79009
G1 X96.377 Y104.253 E69.93408
G1 X97.959 Y105.835 E70.52913
G1 X96.975 Y105.835 E70.79093
G1 X94.165 Y103.025 E71.84774
G1 X94.165 Y104.010 E72.10954
G1 X95.990 Y105.835 E72.79611
G1 X95.006 Y105.835 E73.05791
G1 X94.165 Y104.994 E73.37424
G1 Z3.500 F7800.000
G1 X94.165 Y97.959 F7800.000
G1 F1610.46
G1 X94.165 Y98.944 E73.63604
G1 X95.835 Y97.273 E74.26441
G1 X95.835 Y98.257 E74.52621
G1 X94.165 Y99.928 E75.15458
G1 X94.165 Y100.913 E75.41638
G1 X95.835 Y99.242 E76.04475
G1 X95.835 Y100.226 E76.30655
G1 X94.165 Y101.897 E76.93492
G1 X94.165 Y102.882 E77.19672
G1 X95.835 Y101.211 E77.82510
G1 X95.835 Y102.195 E78.08690
G1 X94.165 Y103.866 E78.71527
G1 X94.165 Y104.851 E78.97707
G1 X95.835 Y103.180 E79.60544
G1 X95.835 Y104.165 E79.86724
G1 X94.165 Y105.835 E80.49561
G1 X95.149 Y105.835 E80.75741
G1 X96.820 Y104.165 E81.38578
G1 X97.805 Y104.165 E81.64759
G1 X96.134 Y105.835 E82.27596
G1 X97.118 Y105.835 E82.53776
G1 X98.789 Y104.165 E83.16613
G1 X99.774 Y104.165 E83.42793
G1 X98.103 Y105.835 E84.05630
G1 X99.087 Y105.835 E84.31810
G1 X100.758 Y104.165 E84.94647
G1 X101.743 Y104.165 E85.20827
G1 X100.072 Y105.835 E85.83664
G1 X101.056 Y105.835 E86.09845
G1 X102.727 Y104.165 E86.72682
G1 X103.712 Y104.165 E86.98862
G1 X102.041 Y105.835 E87.61699
G1 X104.994 Y105.835 F7800.000
G1 F1610.46
G1 X105.835 Y104.994 E87.93331
G1 X105.835 Y104.010 E88.19511
G1 X104.010 Y105.835 E88.88168
G1 X103.025 Y105.835 E89.14348
G1 X105.835 Y103.025 E90.20029
G1 X105.835 Y102.041 E90.46209
G1 X104.165 Y103.712 E91.09046
G1 X104.165 Y102.727 E91.35226
G1 X105.835 Y101.056 E91.98064
G1 X105.835 Y100.072 E92.24244
G1 X104.165 Y101.743 E92.87081
G1 X104.165 Y100.758 E93.13261
G1 X105.835 Y99.087 E93.76098
G1 X105.835 Y98.103 E94.02278
G1 X104.165 Y99.774 E94.65115
G1 X104.165 Y98.789 E94.91295
G1 X105.835 Y97.118 E95.54133
G1 X105.835 Y96.134 E95.80313
G1 X104.165 Y97.805 E96.43150
G1 X104.165 Y96.820 E96.69330
G1 X105.835 Y95.149 E97.32167
G1 X105.835 Y94.165 E97.58347
G1 X104.165 Y95.835 E98.21184
G1 X103.180 Y95.835 E98.47364
G1 X104.851 Y94.165 E99.10202
G1 X103.866 Y94.165 E99.36382
G1 X102.195 Y95.835 E99.99219
G1 X101.211 Y95.835 E100.25399
G1 X102.882 Y94.165 E100.88236
G1 X101.897 Y94.165 E101.14416
G1 X100.226 Y95.835 E101.77253
G1 X99.242 Y95.835 E102.03433
G1 X100.913 Y94.165 E102.66270
G1 X99.928 Y94.165 E102.92450
G1 X98.257 Y95.835 E103.55288
G1 X97.273 Y95.835 E103.81468
G1 X98.944 Y94.165 E104.44305
G1 X97.959 Y94.165 E104.70485
G1 X96.288 Y95.835 E105.33322
G1 X95.747 Y95.835 E105.47721
G1 X95.747 Y96.377 E105.62120
G1 X94.165 Y97.959 E106.21625
G1 X94.165 Y96.975 E106.47805
G1 X96.975 Y94.165 E107.53486
G1 X95.990 Y94.165 E107.79666
G1 X94.165 Y95.990 E108.48323
G1 X94.165 Y95.006 E108.74503
G1 X95.006 Y94.165 E109.06135
G1 Z4.000 F7800.000
G1 X105.835 Y95.006 F7800.000
G1 F1610.46
G1 X104.994 Y94.165 E109.37768
G1 X104.010 Y94.165 E109.63948
G1 X105.835 Y95.990 E110.32605
G1 X105.835 Y96.975 E110.58785
G1 X103.025 Y94.165 E111.64466
G1 X102.041 Y94.165 E111.90646
G1 X103.712 Y95.835 E112.53483
G1 X102.727 Y95.835 E112.79663
G1 X101.056 Y94.165 E113.42500
G1 X100.072 Y94.165 E113.68680
G1 X101.743 Y95.835 E114.31518
G1 X100.758 Y95.835 E114.57698
G1 X99.087 Y94.165 E115.20535
G1 X98.103 Y94.165 E115.46715
G1 X99.774 Y95.835 E116.09552
G1 X98.789 Y95.835 E116.35732
G1 X97.118 Y94.165 E116.98569
G1 X96.134 Y94.165 E117.24749
G1 X97.805 Y95.835 E117.87587
G1 X96.820 Y95.835 E118.13767
G1 X95.149 Y94.165 E118.76604
G1 X94.165 Y94.165 E119.02784
G1 X95.835 Y95.835 E119.65621
G1 X95.835 Y96.820 E119.91801
G1 X94.165 Y95.149 E120.54638
G1 X94.165 Y96.134 E120.80818
G1 X95.835 Y97.805 E121.43656
G1 X95.835 Y98.789 E121.69836
G1 X94.165 Y97.118 E122.32673
G1 X94.165 Y98.103 E122.58853
G1 X95.835 Y99.774 E123.21690
G1 X95.835 Y100.758 E123.47870
G1 X94.165 Y99.087 E124.10707
G1 X94.165 Y100.072 E124.36887
G1 X95.835 Y101.743 E124.99724
G1 X95.835 Y102.727 E125.25905
G1 X94.165 Y101.056 E125.88742
G1 X94.165 Y102.041 E126.14922
G1 X95.835 Y103.712 E126.77759
G1 X95.835 Y104.253 E126.92158
G1 X96.377 Y104.253 E127.06557
G1 X97.959 Y105.835 E127.66062
G1 X96.975 Y105.835 E127.92242
G1 X94.165 Y103.025 E128.97923
G1 X94.165 Y104.010 E129.24103
G1 X95.990 Y105.835 E129.92760
G1 X95.006 Y105.835 E130.18940
G1 X94.165 Y104.994 E130.50572
G1 X97.959 Y105.835 F7800.000
G1 F1610.46
G1 X98.944 Y105.835 E130.76752
G1 X97.273 Y104.165 E131.39590
G1 X98.257 Y104.165 E131.65770
G1 X99.928 Y105.835 E132.28607
G1 X100.913 Y105.835 E132.54787
G1 X99.242 Y104.165 E133.17624
G1 X100.226 Y104.165 E133.43804
G1 X101.897 Y105.835 E134.06641
G1 X102.882 Y105.835 E134.32821
G1 X101.211 Y104.165 E134.95658
G1 X102.195 Y104.165 E135.21838
G1 X103.866 Y105.835 E135.84676
G1 X104.851 Y105.835 E136.10856
G1 X103.180 Y104.165 E136.73693
G1 X104.165 Y104.165 E136.99873
G1 X105.835 Y105.835 E137.62710
G1 X105.835 Y104.851 E137.88890
G1 X104.165 Y103.180 E138.51727
G1 X104.165 Y102.195 E138.77907
G1 X105.835 Y103.866 E139.40744
G1 X105.835 Y102.882 E139.66924
G1 X104.165 Y101.211 E140.29761
G1 X104.165 Y100.226 E140.55941
G1 X105.835 Y101.897 E141.18779
G1 X105.835 Y100.913 E141.44959
G1 X104.165 Y99.242 E142.07796
G1 X104.165 Y98.257 E142.33976
G1 X105.835 Y99.928 E142.96813
G1 X105.835 Y98.944 E143.22993
G1 X104.165 Y97.273 E143.85830
G1 X104.165 Y96.288 E144.12010
G1 X105.835 Y97.959 E144.74847
G1 Z4.500 F7800.000
G1 X104.994 Y105.835 F7800.000
G1 F1610.46
G1 X105.835 Y104.994 E145.06480
G1 X105.835 Y104.010 E145.32660
G1 X104.010 Y105.835 E146.01317
G1 X103.025 Y105.835 E146.27497
G1 X105.835 Y103.025 E147.33178
G1 X105.835 Y102.041 E147.59358
G1 X104.165 Y103.712 E148.22195
G1 X104.165 Y102.727 E148.48375
G1 X105.835 Y101.056 E149.11212
G1 X105.835 Y100.072 E149.37392
G1 X104.165 Y101.743 E150.00229
G1 X104.165 Y100.758 E150.26409
G1 X105.835 Y99.087 E150.89247
G1 X105.835 Y98.103 E151.15427
G1 X104.165 Y99.774 E151.78264
G1 X104.165 Y98.789 E152.04444
G1 X105.835 Y97.118 E152.67281
G1 X105.835 Y96.134 E152.93461
G1 X104.165 Y97.805 E153.56298
G1 X104.165 Y96.820 E153.82478
G1 X105.835 Y95.149 E154.45316
G1 X105.835 Y94.165 E154.71496
G1 X104.165 Y95.835 E155.34333
G1 X103.180 Y95.835 E155.60513
G1 X104.851 Y94.165 E156.23350
G1 X103.866 Y94.165 E156.49530
G1 X102.195 Y95.835 E157.12367
G1 X101.211 Y95.835 E157.38547
G1 X102.882 Y94.165 E158.01384
G1 X101.897 Y94.165 E158.27564
G1 X100.226 Y95.835 E158.90402
G1 X99.242 Y95.835 E159.16582
G1 X100.913 Y94.165 E159.79419
G1 X99.928 Y94.165 E160.05599
G1 X98.257 Y95.835 E160.68436
G1 X97.273 Y95.835 E160.94616
G1 X98.944 Y94.165 E161.57453
G1 X97.959 Y94.165 E161.83633
G1 X96.288 Y95.835 E162.46471
G1 X95.747 Y95.835 E162.60869
G1 X95.747 Y96.377 E162.75268
G1 X94.165 Y97.959 E163.34773
G1 X94.165 Y96.975 E163.60953
G1 X96.975 Y94.165 E164.66634
G1 X95.990 Y94.165 E164.92814
G1 X94.165 Y95.990 E165.61471
G1 X94.165 Y95.006 E165.87651
G1 X95.006 Y94.165 E166.19284
G1 X94.165 Y97.959 F7800.000
G1 F1610.46
G1 X94.165 Y98.944 E166.45464
G1 X95.835 Y97.273 E167.08301
G1 X95.835 Y98.257 E167.34481
G1 X94.165 Y99.928 E167.97318
G1 X94.165 Y100.913 E168.23498
G1 X95.835 Y99.242 E168.86335
G1 X95.835 Y100.226 E169.12515
G1 X94.165 Y101.897 E169.75352
G1 X94.165 Y102.882 E170.01532
G1 X95.835 Y101.211 E170.64370
G1 X95.835 Y102.195 E170.90550
G1 X94.165 Y103.866 E171.53387
G1 X94.165 Y104.851 E171.79567
G1 X95.835 Y103.180 E172.42404
G1 X95.835 Y104.165 E172.68584
G1 X94.165 Y105.835 E173.31421
G1 X95.149 Y105.835 E173.57601
G1 X96.820 Y104.165 E174.20439
G1 X97.805 Y104.165 E174.46619
G1 X96.134 Y105.835 E175.09456
G1 X97.118 Y105.835 E175.35636
G1 X98.789 Y104.165 E175.98473
G1 X99.774 Y104.165 E176.24653
G1 X98.103 Y105.835 E176.87490
G1 X99.087 Y105.835 E177.13670
G1 X100.758 Y104.165 E177.76507
G1 X101.743 Y104.165 E178.02687
G1 X100.072 Y105.835 E178.65525
G1 X101.056 Y105.835 E178.91705
G1 X102.727 Y104.165 E179.54542
G1 X103.712 Y104.165 E179.80722
G1 X102.041 Y105.835 E180.43559
G1 Z5.000 F7800.000
G1 X97.959 Y105.835 F7800.000
G1 F1610.46
G1 X98.944 Y105.835 E180.69739
G1 X97.273 Y104.165 E181.32576
G1 X98.257 Y104.165 E181.58756
G1 X99.928 Y105.835 E182.21593
G1 X100.913 Y105.835 E182.47773
G1 X99.242 Y104.165 E183.10610
G1 X100.226 Y104.165 E183.36790
G1 X101.897 Y105.835 E183.99628
G1 X102.882 Y105.835 E184.25808
G1 X101.211 Y104.165 E184.88645
G1 X102.195 Y104.165 E185.14825
G1 X103.866 Y105.835 E185.77662
G1 X104.851 Y105.835 E186.03842
G1 X103.180 Y104.165 E186.66679
G1 X104.165 Y104.165 E186.92859
G1 X105.835 Y105.835 E187.55696
G1 X105.835 Y104.851 E187.81876
G1 X104.165 Y103.180 E188.44713
G1 X104.165 Y102.195 E188.70893
G1 X105.835 Y103.866 E189.33731
G1 X105.835 Y102.882 E189.59911
G1 X104.165 Y101.211 E190.22748
G1 X104.165 Y100.226 E190.48928
G1 X105.835 Y101.897 E191.11765
G1 X105.835 Y100.913 E191.37945
G1 X104.165 Y99.242 E192.00782
G1 X104.165 Y98.257 E192.26962
G1 X105.835 Y99.928 E192.89799
G1 X105.835 Y98.944 E193.15979
G1 X104.165 Y97.273 E193.78817
G1 X104.165 Y96.288 E194.04997
G1 X105.835 Y97.959 E194.67834
G1 X105.835 Y95.006 F7800.000
G1 F1610.46
G1 X104.994 Y94.165 E194.99466
G1 X104.010 Y94.165 E195.25647
G1 X105.835 Y95.990 E195.94303
G1 X105.835 Y96.975 E196.20483
G1 X103.025 Y94.165 E197.26165
G1 X102.041 Y94.165 E197.52345
G1 X103.712 Y95.835 E198.15182
G1 X102.727 Y95.835 E198.41362
G1 X101.056 Y94.165 E199.04199
G1 X100.072 Y94.165 E199.30379
G1 X101.743 Y95.835 E199.93216
G1 X100.758 Y95.835 E200.19396
G1 X99.087 Y94.165 E200.82233
G1 X98.103 Y94.165 E201.08413
G1 X99.774 Y95.835 E201.71251
G1 X98.789 Y95.835 E201.97431
G1 X97.118 Y94.165 E202.60268
G1 X96.134 Y94.165 E202.86448
G1 X97.805 Y95.835 E203.49285
G1 X96.820 Y95.835 E203.75465
G1 X95.149 Y94.165 E204.38302
G1 X94.165 Y94.165 E204.64482
G1 X95.835 Y95.835 E205.27320
G1 X95.835 Y96.820 E205.53500
G1 X94.165 Y95.149 E206.16337
G1 X94.165 Y96.134 E206.42517
G1 X95.835 Y97.805 E207.05354
G1 X95.835 Y98.789 E207.31534
G1 X94.165 Y97.118 E207.94371
G1 X94.165 Y98.103 E208.20551
G1 X95.835 Y99.774 E208.83389
G1 X95.835 Y100.758 E209.09569
G1 X94.165 Y99.087 E209.72406
G1 X94.165 Y100.072 E209.98586
G1 X95.835 Y101.743 E210.61423
G1 X95.835 Y102.727 E210.87603
G1 X94.165 Y101.056 E211.50440
G1 X94.165 Y102.041 E211.76620
G1 X95.835 Y103.712 E212.39458
G1 X95.835 Y104.253 E212.53856
G1 X96.377 Y104.253 E212.68255
G1 X97.959 Y105.835 E213.27760
G1 X96.975 Y105.835 E213.53940
G1 X94.165 Y103.025 E214.59621
G1 X94.165 Y104.010 E214.85801
G1 X95.990 Y105.835 E215.54458
G1 X95.006 Y105.835 E215.80638
G1 X94.165 Y104.994 E216.12271
G1 Z5.500 F7800.000
G1 X94.165 Y97.959 F7800.000
G1 F1610.46
G1 X94.165 Y98.944 E216.38451
G1 X95.835 Y97.273 E217.01288
G1 X95.835 Y98.257 E217.27468
G1 X94.165 Y99.928 E217.90305
G1 X94.165 Y100.913 E218.16485
G1 X95.835 Y99.242 E218.79322
G1 X95.835 Y100.226 E219.05502
G1 X94.165 Y101.897 E219.68340
G1 X94.165 Y102.882 E219.94520
G1 X95.835 Y101.211 E220.57357
G1 X95.835 Y102.195 E220.83537
G1 X94.165 Y103.866 E221.46374
G1 X94.165 Y104.851 E221.72554
G1 X95.835 Y103.180 E222.35391
G1 X95.835 Y104.165 E222.61571
G1 X94.165 Y105.835 E223.24409
G1 X95.149 Y105.835 E223.50589
G1 X96.820 Y104.165 E224.13426
G1 X97.805 Y104.165 E224.39606
G1 X96.134 Y105.835 E225.02443
G1 X97.118 Y105.835 E225.28623
G1 X98.789 Y104.165 E225.91460
G1 X99.774 Y104.165 E226.17640
G1 X98.103 Y105.835 E226.80477
G1 X99.087 Y105.835 E227.06657
G1 X100.758 Y104.165 E227.69495
G1 X101.743 Y104.165 E227.95675
G1 X100.072 Y105.835 E228.58512
G1 X101.056 Y105.835 E228.84692
G1 X102.727 Y104.165 E229.47529
G1 X103.712 Y104.165 E229.73709
G1 X102.041 Y105.835 E230.36546
G1 X104.994 Y105.835 F7800.000
G1 F1610.46
G1 X105.835 Y104.994 E230.68179
G1 X105.835 Y104.010 E230.94359
G1 X104.010 Y105.835 E231.63016
G1 X103.025 Y105.835 E231.89196
G1 X105.835 Y103.025 E232.94877
G1 X105.835 Y102.041 E233.21057
G1 X104.165 Y103.712 E233.83894
G1 X104.165 Y102.727 E234.10074
G1 X105.835 Y101.056 E234.72911
G1 X105.835 Y100.072 E234.99091
G1 X104.165 Y101.743 E235.61928
G1 X104.165 Y100.758 E235.88108
G1 X105.835 Y99.087 E236.50945
G1 X105.835 Y98.103 E236.77125
G1 X104.165 Y99.774 E237.39963
G1 X104.165 Y98.789 E237.66143
G1 X105.835 Y97.118 E238.28980
G1 X105.835 Y96.134 E238.55160
G1 X104.165 Y97.805 E239.17997
G1 X104.165 Y96.820 E239.44177
G1 X105.835 Y95.149 E240.07014
G1 X105.835 Y94.165 E240.33194
G1 X104.165 Y95.835 E240.96032
G1 X103.180 Y95.835 E241.22212
G1 X104.851 Y94.165 E241.85049
G1 X103.866 Y94.165 E242.11229
G1 X102.195 Y95.835 E242.74066
G1 X101.211 Y95.835 E243.00246
G1 X102.882 Y94.165 E243.63083
G1 X101.897 Y94.165 E243.89263
G1 X100.226 Y95.835 E244.52100
G1 X99.242 Y95.835 E244.78281
G1 X100.913 Y94.165 E245.41118
G1 X99.928 Y94.165 E245.67298
G1 X98.257 Y95.835 E246.30135
G1 X97.273 Y95.835 E246.56315
G1 X98.944 Y94.165 E247.19152
G1 X97.959 Y94.165 E247.45332
G1 X96.288 Y95.835 E248.08169
G1 X95.747 Y95.835 E248.22568
G1 X95.747 Y96.377 E248.36967
G1 X94.165 Y97.959 E248.96472
G1 X94.165 Y96.975 E249.22652
G1 X96.975 Y94.165 E250.28333
G1 X95.990 Y94.165 E250.54513
G1 X94.165 Y95.990 E251.23170
G1 X94.165 Y95.006 E251.49350
G1 X95.006 Y94.165 E251.80982
G1 Z6.000 F7800.000
G1 X105.835 Y95.006 F7800.000
G1 F1610.46
G1 X104.994 Y94.165 E252.12615
G1 X104.010 Y94.165 E252.38795
G1 X105.835 Y95.990 E253.07452
G1 X105.835 Y96.975 E253.33632
G1 X103.025 Y94.165 E254.39313
G1 X102.041 Y94.165 E254.65493
G1 X103.712 Y95.835 E255.28330
G1 X102.727 Y95.835 E255.54510
G1 X101.056 Y94.165 E256.17348
G1 X100.072 Y94.165 E256.43528
G1 X101.743 Y95.835 E257.06365
G1 X100.758 Y95.835 E257.32545
G1 X99.087 Y94.165 E257.95382
G1 X98.103 Y94.165 E258.21562
G1 X99.774 Y95.835 E258.84399
G1 X98.789 Y95.835 E259.10579
G1 X97.118 Y94.165 E259.73417
G1 X96.134 Y94.165 E259.99597
G1 X97.805 Y95.835 E260.62434
G1 X96.820 Y95.835 E260.88614
G1 X95.149 Y94.165 E261.51451
G1 X94.165 Y94.165 E261.77631
G1 X95.835 Y95.835 E262.40468
G1 X95.835 Y96.820 E262.66648
G1 X94.165 Y95.149 E263.29486
G1 X94.165 Y96.134 E263.55666
G1 X95.835 Y97.805 E264.18503
G1 X95.835 Y98.789 E264.44683
G1 X94.165 Y97.118 E265.07520
G1 X94.165 Y98.103 E265.33700
G1 X95.835 Y99.774 E265.96537
G1 X95.835 Y100.758 E266.22717
G1 X94.165 Y99.087 E266.85555
G1 X94.165 Y100.072 E267.11735
G1 X95.835 Y101.743 E267.74572
G1 X95.835 Y102.727 E268.00752
G1 X94.165 Y101.056 E268.63589
G1 X94.165 Y102.041 E268.89769
G1 X95.835 Y103.712 E269.52606
G1 X95.835 Y104.253 E269.67005
G1 X96.377 Y104.253 E269.81404
G1 X97.959 Y105.835 E270.40909
G1 X96.975 Y105.835 E270.67089
G1 X94.165 Y103.025 E271.72770
G1 X94.165 Y104.010 E271.98950
G1 X95.990 Y105.835 E272.67607
G1 X95.006 Y105.835 E272.93787
G1 X94.165 Y104.994 E273.25420
G1 X97.959 Y105.835 F7800.000
G1 F1610.46
G1 X98.944 Y105.835 E273.51600
G1 X97.273 Y104.165 E274.14437
G1 X98.257 Y104.165 E274.40617
G1 X99.928 Y105.835 E275.03454
G1 X100.913 Y105.835 E275.29634
G1 X99.242 Y104.165 E275.92471
G1 X100.226 Y104.165 E276.18651
G1 X101.897 Y105.835 E276.81488
G1 X102.882 Y105.835 E277.07668
G1 X101.211 Y104.165 E277.70506
G1 X102.195 Y104.165 E277.96686
G1 X103.866 Y105.835 E278.59523
G1 X104.851 Y105.835 E278.85703
G1 X103.180 Y104.165 E279.48540
G1 X104.165 Y104.165 E279.74720
G1 X105.835 Y105.835 E280.37557
G1 X105.835 Y104.851 E280.63737
G1 X104.165 Y103.180 E281.26574
G1 X104.165 Y102.195 E281.52754
G1 X105.835 Y103.866 E282.15591
G1 X105.835 Y102.882 E282.41771
G1 X104.165 Y101.211 E283.04609
G1 X104.165 Y100.226 E283.30789
G1 X105.835 Y101.897 E283.93626
G1 X105.835 Y100.913 E284.19806
G1 X104.165 Y99.242 E284.82643
G1 X104.165 Y98.257 E285.08823
G1 X105.835 Y99.928 E285.71660
G1 X105.835 Y98.944 E285.97840
G1 X104.165 Y97.273 E286.60677
G1 X104.165 Y96.288 E286.86857
G1 X105.835 Y97.959 E287.49695
G1 Z6.500 F7800.000
G1 X104.994 Y105.835 F7800.000
G1 F1610.46
G1 X105.835 Y104.994 E287.81327
G1 X105.835 Y104.010 E288.07507
G1 X104.010 Y105.835 E288.76164
G1 X103.025 Y105.835 E289.02344
G1 X105.835 Y103.025 E290.08025
G1 X105.835 Y102.041 E290.34205
G1 X104.165 Y103.712 E290.97042
G1 X104.165 Y102.727 E291.23222
G1 X105.835 Y101.056 E291.86059
G1 X105.835 Y100.072 E292.12239
G1 X104.165 Y101.743 E292.75077
G1 X104.165 Y100.758 E293.01257
G1 X105.835 Y99.087 E293.64094
G1 X105.835 Y98.103 E293.90274
G1 X104.165 Y99.774 E294.53111
G1 X104.165 Y98.789 E294.79291
G1 X105.835 Y97.118 E295.42128
G1 X105.835 Y96.134 E295.68308
G1 X104.165 Y97.805 E296.31146
G1 X104.165 Y96.820 E296.57326
G1 X105.835 Y95.149 E297.20163
G1 X105.835 Y94.165 E297.46343
G1 X104.165 Y95.835 E298.09180
G1 X103.180 Y95.835 E298.35360
G1 X104.851 Y94.165 E298.98197
G1 X103.866 Y94.165 E299.24377
G1 X102.195 Y95.835 E299.87214
G1 X101.211 Y95.835 E300.13394
G1 X102.882 Y94.165 E300.76232
G1 X101.897 Y94.165 E301.02412
G1 X100.226 Y95.835 E301.65249
G1 X99.242 Y95.835 E301.91429
G1 X100.913 Y94.165 E302.54266
G1 X99.928 Y94.165 E302.80446
G1 X98.257 Y95.835 E303.43283
G1 X97.273 Y95.835 E303.69463
G1 X98.944 Y94.165 E304.32301
G1 X97.959 Y94.165 E304.58481
G1 X96.288 Y95.835 E305.21318
G1 X95.747 Y95.835 E305.35717
G1 X95.747 Y96.377 E305.50115
G1 X94.165 Y97.959 E306.09620
G1 X94.165 Y96.975 E306.35800
G1 X96.975 Y94.165 E307.41481
G1 X95.990 Y94.165 E307.67661
G1 X94.165 Y95.990 E308.36318
G1 X94.165 Y95.006 E308.62498
G1 X95.006 Y94.165 E308.94131
G1 X94.165 Y97.959 F7800.000
G1 F1610.46
G1 X94.165 Y98.944 E309.20311
G1 X95.835 Y97.273 E309.83148
G1 X95.835 Y98.257 E310.09328
G1 X94.165 Y99.928 E310.72165
G1 X94.165 Y100.913 E310.98345
G1 X95.835 Y99.242 E311.61183
G1 X95.835 Y100.226 E311.87363
G1 X94.165 Y101.897 E312.50200
G1 X94.165 Y102.882 E312.76380
G1 X95.835 Y101.211 E313.39217
G1 X95.835 Y102.195 E313.65397
G1 X94.165 Y103.866 E314.28234
G1 X94.165 Y104.851 E314.54414
G1 X95.835 Y103.180 E315.17251
G1 X95.835 Y104.165 E315.43431
G1 X94.165 Y105.835 E316.06269
G1 X95.149 Y105.835 E316.32449
G1 X96.820 Y104.165 E316.95286
G1 X97.805 Y104.165 E317.21466
G1 X96.134 Y105.835 E317.84303
G1 X97.118 Y105.835 E318.10483
G1 X98.789 Y104.165 E318.73320
G1 X99.774 Y104.165 E318.99500
G1 X98.103 Y105.835 E319.62337
G1 X99.087 Y105.835 E319.88517
G1 X100.758 Y104.165 E320.51355
G1 X101.743 Y104.165 E320.77535
G1 X100.072 Y105.835 E321.40372
G1 X101.056 Y105.835 E321.66552
G1 X102.727 Y104.165 E322.29389
G1 X103.712 Y104.165 E322.55569
G1 X102.041 Y105.835 E323.18406
G1 Z7.000 F7800.000
G1 X97.959 Y105.835 F7800.000
G1 F1610.46
G1 X98.944 Y105.835 E323.44586
G1 X97.273 Y104.165 E324.07423
G1 X98.257 Y104.165 E324.33603
G1 X99.928 Y105.835 E324.96440
G1 X100.913 Y105.835 E325.22621
G1 X99.242 Y104.165 E325.85458
G1 X100.226 Y104.165 E326.11638
G1 X101.897 Y105.835 E326.74475
G1 X102.882 Y105.835 E327.00655
G1 X101.211 Y104.165 E327.63492
G1 X102.195 Y104.165 E327.89672
G1 X103.866 Y105.835 E328.52509
G1 X104.851 Y105.835 E328.78689
G1 X103.180 Y104.165 E329.41526
G1 X104.165 Y104.165 E329.67706
G1 X105.835 Y105.835 E330.30544
G1 X105.835 Y104.851 E330.56724
G1 X104.165 Y103.180 E331.19561
G1 X104.165 Y102.195 E331.45741
G1 X105.835 Y103.866 E332.08578
G1 X105.835 Y102.882 E332.34758
G1 X104.165 Y101.211 E332.97595
G1 X104.165 Y100.226 E333.23775
G1 X105.835 Y101.897 E333.86612
G1 X105.835 Y100.913 E334.12792
G1 X104.165 Y99.242 E334.75629
G1 X104.165 Y98.257 E335.01810
G1 X105.835 Y99.928 E335.64647
G1 X105.835 Y98.944 E335.90827
G1 X104.165 Y97.273 E336.53664
G1 X104.165 Y96.288 E336.79844
G1 X105.835 Y97.959 E337.42681
G1 X105.835 Y95.006 F7800.000
G1 F1610.46
G1 X104.994 Y94.165 E337.74314
G1 X104.010 Y94.165 E338.00494
G1 X105.835 Y95.990 E338.69151
G1 X105.835 Y96.975 E338.95331
G1 X103.025 Y94.165 E340.01012
G1 X102.041 Y94.165 E340.27192
G1 X103.712 Y95.835 E340.90029
G1 X102.727 Y95.835 E341.16209
G1 X101.056 Y94.165 E341.79046
G1 X100.072 Y94.165 E342.05226
G1 X101.743 Y95.835 E342.68063
G1 X100.758 Y95.835 E342.94244
G1 X99.087 Y94.165 E343.57081
G1 X98.103 Y94.165 E343.83261
G1 X99.774 Y95.835 E344.46098
G1 X98.789 Y95.835 E344.72278
G1 X97.118 Y94.165 E345.35115
G1 X96.134 Y94.165 E345.61295
G1 X97.805 Y95.835 E346.24132
G1 X96.820 Y95.835 E346.50312
G1 X95.149 Y94.165 E347.13150
G1 X94.165 Y94.165 E347.39330
G1 X95.835 Y95.835 E348.02167
G1 X95.835 Y96.820 E348.28347
G1 X94.165 Y95.149 E348.91184
G1 X94.165 Y96.134 E349.17364
G1 X95.835 Y97.805 E349.80201
G1 X95.835 Y98.789 E350.06381
G1 X94.165 Y97.118 E350.69219
G1 X94.165 Y98.103 E350.95399
G1 X95.835 Y99.774 E351.58236
G1 X95.835 Y100.758 E351.84416
G1 X94.165 Y99.087 E352.47253
G1 X94.165 Y100.072 E352.73433
G1 X95.835 Y101.743 E353.36270
G1 X95.835 Y102.727 E353.62450
G1 X94.165 Y101.056 E354.25288
G1 X94.165 Y102.041 E354.51468
G1 X95.835 Y103.712 E355.14305
G1 X95.835 Y104.253 E355.28704
G1 X96.377 Y104.253 E355.43102
G1 X97.959 Y105.835 E356.02607
G1 X96.975 Y105.835 E356.28787
G1 X94.165 Y103.025 E357.34468
G1 X94.165 Y104.010 E357.60648
G1 X95.990 Y105.835 E358.29305
G1 X95.006 Y105.835 E358.55485
G1 X94.165 Y104.994 E358.87118
G1 Z7.500 F7800.000
G1 X94.165 Y97.959 F7800.000
G1 F1610.46
G1 X94.165 Y98.944 E359.13298
G1 X95.835 Y97.273 E359.76135
G1 X95.835 Y98.257 E360.02315
G1 X94.165 Y99.928 E360.65153
G1 X94.165 Y100.913 E360.91333
G1 X95.835 Y99.242 E361.54170
G1 X95.835 Y100.226 E361.80350
G1 X94.165 Y101.897 E362.43187
G1 X94.165 Y102.882 E362.69367
G1 X95.835 Y101.211 E363.32204
G1 X95.835 Y102.195 E363.58384
G1 X94.165 Y103.866 E364.21221
G1 X94.165 Y104.851 E364.47401
G1 X95.835 Y103.180 E365.10239
G1 X95.835 Y104.165 E365.36419
G1 X94.165 Y105.835 E365.99256
G1 X95.149 Y105.835 E366.25436
G1 X96.820 Y104.165 E366.88273
G1 X97.805 Y104.165 E367.14453
G1 X96.134 Y105.835 E367.77290
G1 X97.118 Y105.835 E368.03470
G1 X98.789 Y104.165 E368.66307
G1 X99.774 Y104.165 E368.92487
G1 X98.103 Y105.835 E369.55325
G1 X99.087 Y105.835 E369.81505
G1 X100.758 Y104.165 E370.44342
G1 X101.743 Y104.165 E370.70522
G1 X100.072 Y105.835 E371.33359
G1 X101.056 Y105.835 E371.59539
G1 X102.727 Y104.165 E372.22376
G1 X103.712 Y104.165 E372.48556
G1 X102.041 Y105.835 E373.11393
G1 X104.994 Y105.835 F7800.000
G1 F1610.46
G1 X105.835 Y104.994 E373.43026
G1 X105.835 Y104.010 E373.69206
G1 X104.010 Y105.835 E374.37863
G1 X103.025 Y105.835 E374.64043
G1 X105.835 Y103.025 E375.69724
G1 X105.835 Y102.041 E375.95904
G1 X104.165 Y103.712 E376.58741
G1 X104.165 Y102.727 E376.84921
G1 X105.835 Y101.056 E377.47758
G1 X105.835 Y100.072 E377.73938
G1 X104.165 Y101.743 E378.36775
G1 X104.165 Y100.758 E378.62955
G1 X105.835 Y99.087 E379.25793
G1 X105.835 Y98.103 E379.51973
G1 X104.165 Y99.774 E380.14810
G1 X104.165 Y98.789 E380.40990
G1 X105.835 Y97.118 E381.03827
G1 X105.835 Y96.134 E381.30007
G1 X104.165 Y97.805 E381.92844
G1 X104.165 Y96.820 E382.19024
G1 X105.835 Y95.149 E382.81862
G1 X105.835 Y94.165 E383.08042
G1 X104.165 Y95.835 E383.70879
G1 X103.180 Y95.835 E383.97059
G1 X104.851 Y94.165 E384.59896
G1 X103.866 Y94.165 E384.86076
G1 X102.195 Y95.835 E385.48913
G1 X101.211 Y95.835 E385.75093
G1 X102.882 Y94.165 E386.37930
G1 X101.897 Y94.165 E386.64111
G1 X100.226 Y95.835 E387.26948
G1 X99.242 Y95.835 E387.53128
G1 X100.913 Y94.165 E388.15965
G1 X99.928 Y94.165 E388.42145
G1 X98.257 Y95.835 E389.04982
G1 X97.273 Y95.835 E389.31162
G1 X98.944 Y94.165 E389.93999
G1 X97.959 Y94.165 E390.20179
G1 X96.288 Y95.835 E390.83017
G1 X95.747 Y95.835 E390.97415
G1 X95.747 Y96.377 E391.11814
G1 X94.165 Y97.959 E391.71319
G1 X94.165 Y96.975 E391.97499
G1 X96.975 Y94.165 E393.03180
G1 X95.990 Y94.165 E393.29360
G1 X94.165 Y95.990 E393.98017
G1 X94.165 Y95.006 E394.24197
G1 X95.006 Y94.165 E394.55830
G1 Z8.000 F7800.000
G1 X105.835 Y95.006 F7800.000
G1 F1610.46
G1 X104.994 Y94.165 E394.87462
G1 X104.010 Y94.165 E395.13643
G1 X105.835 Y95.990 E395.82299
G1 X105.835 Y96.975 E396.08479
G1 X103.025 Y94.165 E397.14160
G1 X102.041 Y94.165 E397.40341
G1 X103.712 Y95.835 E398.03178
G1 X102.727 Y95.835 E398.29358
G1 X101.056 Y94.165 E398.92195
G1 X100.072 Y94.165 E399.18375
G1 X101.743 Y95.835 E399.81212
G1 X100.758 Y95.835 E400.07392
G1 X99.087 Y94.165 E400.70229
G1 X98.103 Y94.165 E400.96409
G1 X99.774 Y95.835 E401.59247
G1 X98.789 Y95.835 E401.85427
G1 X97.118 Y94.165 E402.48264
G1 X96.134 Y94.165 E402.74444
G1 X97.805 Y95.835 E403.37281
G1 X96.820 Y95.835 E403.63461
G1 X95.149 Y94.165 E404.26298
G1 X94.165 Y94.165 E404.52478
G1 X95.835 Y95.835 E405.15316
G1 X95.835 Y96.820 E405.41496
G1 X94.165 Y95.149 E406.04333
G1 X94.165 Y96.134 E406.30513
G1 X95.835 Y97.805 E406.93350
G1 X95.835 Y98.789 E407.19530
G1 X94.165 Y97.118 E407.82367
G1 X94.165 Y98.103 E408.08547
G1 X95.835 Y99.774 E408.71385
G1 X95.835 Y100.758 E408.97565
G1 X94.165 Y99.087 E409.60402
G1 X94.165 Y100.072 E409.86582
G1 X95.835 Y101.743 E410.49419
G1 X95.835 Y102.727 E410.75599
G1 X94.165 Y101.056 E411.38436
G1 X94.165 Y102.041 E411.64616
G1 X95.835 Y103.712 E412.27453
G1 X95.835 Y104.253 E412.41852
G1 X96.377 Y104.253 E412.56251
G1 X97.959 Y105.835 E413.15756
G1 X96.975 Y105.835 E413.41936
G1 X94.165 Y103.025 E414.47617
G1 X94.165 Y104.010 E414.73797
G1 X95.990 Y105.835 E415.42454
G1 X95.006 Y105.835 E415.68634
G1 X94.165 Y104.994 E416.00267
G1 X97.959 Y105.835 F7800.000
G1 F1610.46
G1 X98.944 Y105.835 E416.26447
G1 X97.273 Y104.165 E416.89284
G1 X98.257 Y104.165 E417.15464
G1 X99.928 Y105.835 E417.78301
G1 X100.913 Y105.835 E418.04481
G1 X99.242 Y104.165 E418.67318
G1 X100.226 Y104.165 E418.93498
G1 X101.897 Y105.835 E419.56336
G1 X102.882 Y105.835 E419.82516
G1 X101.211 Y104.165 E420.45353
G1 X102.195 Y104.165 E420.71533
G1 X103.866 Y105.835 E421.34370
G1 X104.851 Y105.835 E421.60550
G1 X103.180 Y104.165 E422.23387
G1 X104.165 Y104.165 E422.49567
G1 X105.835 Y105.835 E423.12404
G1 X105.835 Y104.851 E423.38584
G1 X104.165 Y103.180 E424.01421
G1 X104.165 Y102.195 E424.27601
G1 X105.835 Y103.866 E424.90439
G1 X105.835 Y102.882 E425.16619
G1 X104.165 Y101.211 E425.79456
G1 X104.165 Y100.226 E426.05636
G1 X105.835 Y101.897 E426.68473
G1 X105.835 Y100.913 E426.94653
G1 X104.165 Y99.242 E427.57490
G1 X104.165 Y98.257 E427.83670
G1 X105.835 Y99.928 E428.46507
G1 X105.835 Y98.944 E428.72687
G1 X104.165 Y97.273 E429.35525
G1 X104.165 Y96.288 E429.61705
G1 X105.835 Y97.959 E430.24542
G1 Z8.500 F7800.000
G1 X104.994 Y105.835 F7800.000
G1 F1610.46
G1 X105.835 Y104.994 E430.56174
G1 X105.835 Y104.010 E430.82354
G1 X104.010 Y105.835 E431.51011
G1 X103.025 Y105.835 E431.77191
G1 X105.835 Y103.025 E432.82872
G1 X105.835 Y102.041 E433.09052
G1 X104.165 Y103.712 E433.71889
G1 X104.165 Y102.727 E433.98069
G1 X105.835 Y101.056 E434.60907
G1 X105.835 Y100.072 E434.87087
G1 X104.165 Y101.743 E435.49924
G1 X104.165 Y100.758 E435.76104
G1 X105.835 Y99.087 E436.38941
G1 X105.835 Y98.103 E436.65121
G1 X104.165 Y99.774 E437.27958
G1 X104.165 Y98.789 E437.54138
G1 X105.835 Y97.118 E438.16976
G1 X105.835 Y96.134 E438.43156
G1 X104.165 Y97.805 E439.05993
G1 X104.165 Y96.820 E439.32173
G1 X105.835 Y95.149 E439.95010
G1 X105.835 Y94.165 E440.21190
G1 X104.165 Y95.835 E440.84027
G1 X103.180 Y95.835 E441.10207
G1 X104.851 Y94.165 E441.73044
G1 X103.866 Y94.165 E441.99224
G1 X102.195 Y95.835 E442.62062
G1 X101.211 Y95.835 E442.88242
G1 X102.882 Y94.165 E443.51079
G1 X101.897 Y94.165 E443.77259
G1 X100.226 Y95.835 E444.40096
G1 X99.242 Y95.835 E444.66276
G1 X100.913 Y94.165 E445.29113
G1 X99.928 Y94.165 E445.55293
G1 X98.257 Y95.835 E446.18131
G1 X97.273 Y95.835 E446.44311
G1 X98.944 Y94.165 E447.07148
G1 X97.959 Y94.165 E447.33328
G1 X96.288 Y95.835 E447.96165
G1 X95.747 Y95.835 E448.10564
G1 X95.747 Y96.377 E448.24963
G1 X94.165 Y97.959 E448.84468
G1 X94.165 Y96.975 E449.10648
G1 X96.975 Y94.165 E450.16329
G1 X95.990 Y94.165 E450.42509
G1 X94.165 Y95.990 E451.11166
G1 X94.165 Y95.006 E451.37346
G1 X95.006 Y94.165 E451.68978
G1 X94.165 Y97.959 F7800.000
G1 F1610.46
G1 X94.165 Y98.944 E451.95158
G1 X95.835 Y97.273 E452.57995
G1 X95.835 Y98.257 E452.84175
G1 X94.165 Y99.928 E453.47013
G1 X94.165 Y100.913 E453.73193
G1 X95.835 Y99.242 E454.36030
G1 X95.835 Y100.226 E454.62210
G1 X94.165 Y101.897 E455.25047
G1 X94.165 Y102.882 E455.51227
G1 X95.835 Y101.211 E456.14064
G1 X95.835 Y102.195 E456.40244
G1 X94.165 Y103.866 E457.03081
G1 X94.165 Y104.851 E457.29261
G1 X95.835 Y103.180 E457.92099
G1 X95.835 Y104.165 E458.18279
G1 X94.165 Y105.835 E458.81116
G1 X95.149 Y105.835 E459.07296
G1 X96.820 Y104.165 E459.70133
G1 X97.805 Y104.165 E459.96313
G1 X96.134 Y105.835 E460.59150
G1 X97.118 Y105.835 E460.85330
G1 X98.789 Y104.165 E461.48167
G1 X99.774 Y104.165 E461.74347
G1 X98.103 Y105.835 E462.37185
G1 X99.087 Y105.835 E462.63365
G1 X100.758 Y104.165 E463.26202
G1 X101.743 Y104.165 E463.52382
G1 X100.072 Y105.835 E464.15219
G1 X101.056 Y105.835 E464.41399
G1 X102.727 Y104.165 E465.04236
G1 X103.712 Y104.165 E465.30416
G1 X102.041 Y105.835 E465.93253
G1 Z9.000 F7800.000
G1 X97.959 Y105.835 F7800.000
G1 F1610.46
G1 X98.944 Y105.835 E466.19433
G1 X97.273 Y104.165 E466.82271
G1 X98.257 Y104.165 E467.08451
G1 X99.928 Y105.835 E467.71288
G1 X100.913 Y105.835 E467.97468
G1 X99.242 Y104.165 E468.60305
G1 X100.226 Y104.165 E468.86485
G1 X101.897 Y105.835 E469.49322
G1 X102.882 Y105.835 E469.75502
G1 X101.211 Y104.165 E470.38339
G1 X102.195 Y104.165 E470.64519
G1 X103.866 Y105.835 E471.27357
G1 X104.851 Y105.835 E471.53537
G1 X103.180 Y104.165 E472.16374
G1 X104.165 Y104.165 E472.42554
G1 X105.835 Y105.835 E473.05391
G1 X105.835 Y104.851 E473.31571
G1 X104.165 Y103.180 E473.94408
G1 X104.165 Y102.195 E474.20588
G1 X105.835 Y103.866 E474.83425
G1 X105.835 Y102.882 E475.09605
G1 X104.165 Y101.211 E475.72442
G1 X104.165 Y100.226 E475.98622
G1 X105.835 Y101.897 E476.61460
G1 X105.835 Y100.913 E476.87640
G1 X104.165 Y99.242 E477.50477
G1 X104.165 Y98.257 E477.76657
G1 X105.835 Y99.928 E478.39494
G1 X105.835 Y98.944 E478.65674
G1 X104.165 Y97.273 E479.28511
G1 X104.165 Y96.288 E479.54691
G1 X105.835 Y97.959 E480.17528
G1 X105.835 Y95.006 F7800.000
G1 F1610.46
G1 X104.994 Y94.165 E480.49161
G1 X104.010 Y94.165 E480.75341
G1 X105.835 Y95.990 E481.43998
G1 X105.835 Y96.975 E481.70178
G1 X103.025 Y94.165 E482.75859
G1 X102.041 Y94.165 E483.02039
G1 X103.712 Y95.835 E483.64876
G1 X102.727 Y95.835 E483.91056
G1 X101.056 Y94.165 E484.53893
G1 X100.072 Y94.165 E484.80074
G1 X101.743 Y95.835 E485.42911
G1 X100.758 Y95.835 E485.69091
G1 X99.087 Y94.165 E486.31928
G1 X98.103 Y94.165 E486.58108
G1 X99.774 Y95.835 E487.20945
G1 X98.789 Y95.835 E487.47125
G1 X97.118 Y94.165 E488.09962
G1 X96.134 Y94.165 E488.36142
G1 X97.805 Y95.835 E488.98980
G1 X96.820 Y95.835 E489.25160
G1 X95.149 Y94.165 E489.87997
G1 X94.165 Y94.165 E490.14177
G1 X95.835 Y95.835 E490.77014
G1 X95.835 Y96.820 E491.03194
G1 X94.165 Y95.149 E491.66031
G1 X94.165 Y96.134 E491.92211
G1 X95.835 Y97.805 E492.55049
G1 X95.835 Y98.789 E492.81229
G1 X94.165 Y97.118 E493.44066
G1 X94.165 Y98.103 E493.70246
G1 X95.835 Y99.774 E494.33083
G1 X95.835 Y100.758 E494.59263
G1 X94.165 Y99.087 E495.22100
G1 X94.165 Y100.072 E495.48280
G1 X95.835 Y101.743 E496.11118
G1 X95.835 Y102.727 E496.37298
G1 X94.165 Y101.056 E497.00135
G1 X94.165 Y102.041 E497.26315
G1 X95.835 Y103.712 E497.89152
G1 X95.835 Y104.253 E498.03551
G1 X96.377 Y104.253 E498.17950
G1 X97.959 Y105.835 E498.77455
G1 X96.975 Y105.835 E499.03635
G1 X94.165 Y103.025 E500.09316
G1 X94.165 Y104.010 E500.35496
G1 X95.990 Y105.835 E501.04153
G1 X95.006 Y105.835 E501.30333
G1 X94.165 Y104.994 E501.61965
G1 Z9.500 F7800.000
G1 X94.165 Y97.959 F7800.000
G1 F1610.46
G1 X94.165 Y98.944 E501.88145
G1 X95.835 Y97.273 E502.50983
G1 X95.835 Y98.257 E502.77163
G1 X94.165 Y99.928 E503.40000
G1 X94.165 Y100.913 E503.66180
G1 X95.835 Y99.242 E504.29017
G1 X95.835 Y100.226 E504.55197
G1 X94.165 Y101.897 E505.18034
G1 X94.165 Y102.882 E505.44214
G1 X95.835 Y101.211 E506.07051
G1 X95.835 Y102.195 E506.33231
G1 X94.165 Y103.866 E506.96069
G1 X94.165 Y104.851 E507.22249
G1 X95.835 Y103.180 E507.85086
G1 X95.835 Y104.165 E508.11266
G1 X94.165 Y105.835 E508.74103
G1 X95.149 Y105.835 E509.00283
G1 X96.820 Y104.165 E509.63120
G1 X97.805 Y104.165 E509.89300
G1 X96.134 Y105.835 E510.52137
G1 X97.118 Y105.835 E510.78317
G1 X98.789 Y104.165 E511.41155
G1 X99.774 Y104.165 E511.67335
G1 X98.103 Y105.835 E512.30172
G1 X99.087 Y105.835 E512.56352
G1 X100.758 Y104.165 E513.19189
G1 X101.743 Y104.165 E513.45369
G1 X100.072 Y105.835 E514.08206
G1 X101.056 Y105.835 E514.34386
G1 X102.727 Y104.165 E514.97223
G1 X103.712 Y104.165 E515.23403
G1 X102.041 Y105.835 E515.86241
G1 X104.994 Y105.835 F7800.000
G1 F1610.46
G1 X105.835 Y104.994 E516.17873
G1 X105.835 Y104.010 E516.44053
G1 X104.010 Y105.835 E517.12710
G1 X103.025 Y105.835 E517.38890
G1 X105.835 Y103.025 E518.44571
G1 X105.835 Y102.041 E518.70751
G1 X104.165 Y103.712 E519.33588
G1 X104.165 Y102.727 E519.59768
G1 X105.835 Y101.056 E520.22605
G1 X105.835 Y100.072 E520.48786
G1 X104.165 Y101.743 E521.11623
G1 X104.165 Y100.758 E521.37803
G1 X105.835 Y99.087 E522.00640
G1 X105.835 Y98.103 E522.26820
G1 X104.165 Y99.774 E522.89657
G1 X104.165 Y98.789 E523.15837
G1 X105.835 Y97.118 E523.78674
G1 X105.835 Y96.134 E524.04854
G1 X104.165 Y97.805 E524.67692
G1 X104.165 Y96.820 E524.93872
G1 X105.835 Y95.149 E525.56709
G1 X105.835 Y94.165 E525.82889
G1 X104.165 Y95.835 E526.45726
G1 X103.180 Y95.835 E526.71906
G1 X104.851 Y94.165 E527.34743
G1 X103.866 Y94.165 E527.60923
G1 X102.195 Y95.835 E528.23761
G1 X101.211 Y95.835 E528.49941
G1 X102.882 Y94.165 E529.12778
G1 X101.897 Y94.165 E529.38958
G1 X100.226 Y95.835 E530.01795
G1 X99.242 Y95.835 E530.27975
G1 X100.913 Y94.165 E530.90812
G1 X99.928 Y94.165 E531.16992
G1 X98.257 Y95.835 E531.79829
G1 X97.273 Y95.835 E532.06009
G1 X98.944 Y94.165 E532.68847
G1 X97.959 Y94.165 E532.95027
G1 X96.288 Y95.835 E533.57864
G1 X95.747 Y95.835 E533.72263
G1 X95.747 Y96.377 E533.86661
G1 X94.165 Y97.959 E534.46167
G1 X94.165 Y96.975 E534.72347
G1 X96.975 Y94.165 E535.78027
G1 X95.990 Y94.165 E536.04208
G1 X94.165 Y95.990 E536.72864
G1 X94.165 Y95.006 E536.99044
G1 X95.006 Y94.165 E537.30677
G1 Z10.000 F7800.000
G1 E535.30677 F2400.00000
G92 E0
G1 X105.835 Y95.006 F7800.000
G1 E2.00000 F2400.00000
G1 F1610.46
G1 X104.994 Y94.165 E2.31633
G1 X104.010 Y94.165 E2.57813
G1 X105.835 Y95.990 E3.26470
G1 X105.835 Y96.975 E3.52650
G1 X103.025 Y94.165 E4.58331
G1 X102.041 Y94.165 E4.84511
G1 X103.712 Y95.835 E5.47348
G1 X102.727 Y95.835 E5.73528
G1 X101.056 Y94.165 E6.36365
G1 X100.072 Y94.165 E6.62545
G1 X101.743 Y95.835 E7.25382
G1 X100.758 Y95.835 E7.51562
G1 X99.087 Y94.165 E8.14400
G1 X98.103 Y94.165 E8.40580
G1 X99.774 Y95.835 E9.03417
G1 X98.789 Y95.835 E9.29597
G1 X97.118 Y94.165 E9.92434
G1 X96.134 Y94.165 E10.18614
G1 X97.805 Y95.835 E10.81451
G1 X96.820 Y95.835 E11.07631
G1 X95.149 Y94.165 E11.70469
G1 X94.165 Y94.165 E11.96649
G1 X95.835 Y95.835 E12.59486
G1 X95.835 Y96.820 E12.85666
G1 X94.165 Y95.149 E13.48503
G1 X94.165 Y96.134 E13.74683
G1 X95.835 Y97.805 E14.37520
G1 X95.835 Y98.789 E14.63700
G1 X94.165 Y97.118 E15.26538
G1 X94.165 Y98.103 E15.52718
G1 X95.835 Y99.774 E16.15555
G1 X95.835 Y100.758 E16.41735
G1 X94.165 Y99.087 E17.04572
G1 X94.165 Y100.072 E17.30752
G1 X95.835 Y101.743 E17.93589
G1 X95.835 Y102.727 E18.19769
G1 X94.165 Y101.056 E18.82607
G1 X94.165 Y102.041 E19.08787
G1 X95.835 Y103.712 E19.71624
G1 X95.835 Y104.253 E19.86023
G1 X96.377 Y104.253 E20.00421
G1 X97.959 Y105.835 E20.59926
G1 X96.975 Y105.835 E20.86106
G1 X94.165 Y103.025 E21.91787
G1 X94.165 Y104.010 E22.17967
G1 X95.990 Y105.835 E22.86624
G1 X95.006 Y105.835 E23.12804
G1 X94.165 Y104.994 E23.44437
G1 E21.44437 F2400.00000
G92 E0
G1 X97.959 Y105.835 F7800.000
G1 E2.00000 F2400.00000
G1 F1610.46
G1 X98.944 Y105.835 E2.26180
G1 X97.273 Y104.165 E2.89017
G1 X98.257 Y104.165 E3.15197
G1 X99.928 Y105.835 E3.78034
G1 X100.913 Y105.835 E4.04214
G1 X99.242 Y104.165 E4.67052
G1 X100.226 Y104.165 E4.93232
G1 X101.897 Y105.835 E5.56069
G1 X102.882 Y105.835 E5.82249
G1 X101.211 Y104.165 E6.45086
G1 X102.195 Y104.165 E6.71266
G1 X103.866 Y105.835 E7.34103
G1 X104.851 Y105.835 E7.60283
G1 X103.180 Y104.165 E8.23120
G1 X104.165 Y104.165 E8.49300
G1 X105.835 Y105.835 E9.12137
G1 X105.835 Y104.851 E9.38317
G1 X104.165 Y103.180 E10.01155
G1 X104.165 Y102.195 E10.27335
G1 X105.835 Y103.866 E10.90172
G1 X105.835 Y102.882 E11.16352
G1 X104.165 Y101.211 E11.79189
G1 X104.165 Y100.226 E12.05369
G1 X105.835 Y101.897 E12.68206
G1 X105.835 Y100.913 E12.94386
G1 X104.165 Y99.242 E13.57223
G1 X104.165 Y98.257 E13.83403
G1 X105.835 Y99.928 E14.46241
G1 X105.835 Y98.944 E14.72421
G1 X104.165 Y97.273 E15.35258
G1 X104.165 Y96.288 E15.61438
G1 X105.835 Y97.959 E16.24275
G1 E14.24275 F2400.00000
G92 E0
M107
; Filament-specific end gcode 
;END gcode for filament

M104 S0 ; turn off temperature
G28 X0  ; home X axis
M84     ; disable motors

M140 S0 ; set bed temperature
; filament used = 1096.3mm (0.9cm3)
; total filament cost = 0.0

; avoid_crossing_perimeters = 0
; bed_shape = 0x0,200x0,200x200,0x200
; bed_temperature = 0
; before_layer_gcode = 
; between_objects_gcode = 
; bridge_acceleration = 0
; bridge_fan_speed = 100
; brim_connections_width = 0
; brim_width = 0
; complete_objects = 0
; cooling = 1
; default_acceleration = 0
; disable_fan_first_layers = 3
; duplicate_distance = 6
; end_filament_gcode = "; Filament-specific end gcode \n;END gcode for filament\n"
; end_gcode = M104 S0 ; turn off temperature\nG28 X0  ; home X axis\nM84     ; disable motors\n
; extruder_clearance_height = 20
; extruder_clearance_radius = 20
; extruder_offset = 0x0
; extrusion_axis = E
; extrusion_multiplier = 1
; fan_always_on = 0
; fan_below_layer_time = 60
; filament_colour = #FFFFFF
; filament_cost = 0
; filament_density = 0
; filament_diameter = 1
; filament_max_volumetric_speed = 0
; filament_notes = ""
; first_layer_acceleration = 0
; first_layer_bed_temperature = 0
; first_layer_extrusion_width = 200%
; first_layer_speed = 30
; first_layer_temperature = 200
; gcode_arcs = 0
; gcode_comments = 0
; gcode_flavor = reprap
; has_heatbed = 1
; infill_acceleration = 0
; infill_first = 0
; interior_brim_width = 0
; layer_gcode = 
; max_fan_speed = 100
; max_layer_height = 0.3
; max_print_speed = 80
; max_volumetric_speed = 0
; min_fan_speed = 35
; min_layer_height = 0.15
; min_print_speed = 10
; min_skirt_length = 0
; notes = 
; nozzle_diameter = 0.5
; only_retract_when_crossing_perimeters = 1
; ooze_prevention = 0
; output_filename_format = [input_filename_base].gcode
; perimeter_acceleration = 0
; post_process = 
; pressure_advance = 0
; printer_notes = 
; resolution = 0
; retract_before_travel = 2
; retract_layer_change = 0
; retract_length = 2
; retract_length_toolchange = 10
; retract_lift = 0
; retract_lift_above = 0
; retract_lift_below = 0
; retract_restart_extra = 0
; retract_restart_extra_toolchange = 0
; retract_speed = 40
; skirt_distance = 6
; skirt_height = 1
; skirts = 0
; slowdown_below_layer_time = 5
; spiral_vase = 0
; standby_temperature_delta = -5
; start_filament_gcode = "; Filament gcode\n"
; start_gcode = G28 ; home all axes\nG1 Z5 F5000 ; lift nozzle\n
; temperature = 200
; threads = 4
; toolchange_gcode = 
; travel_speed = 130
; use_firmware_retraction = 0
; use_relative_e_distances = 0
; use_set_and_wait_bed = 0
; use_set_and_wait_extruder = 0
; use_volumetric_e = 0
; vibration_limit = 0
; wipe = 0
; z_offset = 0
; z_steps_per_mm = 0
; adaptive_slicing = 0
; adaptive_slicing_quality = 75%
; dont_support_bridges = 1
; extrusion_width = 0
; first_layer_height = 0.5
; infill_only_where_needed = 0
; interface_shells = 0
; layer_height = 0.5
; match_horizontal_surfaces = 0
; raft_layers = 0
; regions_overlap = 0
; seam_position = aligned
; sequential_print_priority = 0
; support_material = 0
; support_material_angle = 0
; support_material_buildplate_only = 0
; support_material_contact_distance = 0.2
; support_material_enforce_layers = 0
; support_material_extruder = 1
; support_material_extrusion_width = 0
; support_material_interface_extruder = 1
; support_material_interface_extrusion_width = 0
; support_material_interface_layers = 3
; support_material_interface_spacing = 0
; support_material_interface_speed = 100%
; support_material_max_layers = 0
; support_material_pattern = pillars
; support_material_spacing = 2.5
; support_material_speed = 60
; support_material_threshold = 60%
; xy_size_compensation = 0
; bottom_infill_pattern = rectilinear
; bottom_solid_layers = 0
; bridge_flow_ratio = 1
; bridge_speed = 60
; external_perimeter_extrusion_width = 0
; external_perimeter_speed = 50%
; external_perimeters_first = 0
; extra_perimeters = 1
; fill_angle = 45
; fill_density = 60%
; fill_gaps = 1
; fill_pattern = rectilinear
; gap_fill_speed = 20
; infill_every_layers = 1
; infill_extruder = 1
; infill_extrusion_width = 0
; infill_overlap = 15%
; infill_speed = 80
; overhangs = 1
; perimeter_extruder = 1
; perimeter_extrusion_width = 0
; perimeter_speed = 60
; perimeters = 0
; small_perimeter_speed = 15
; solid_infill_below_area = 70
; solid_infill_every_layers = 0
; solid_infill_extruder = 1
; solid_infill_extrusion_width = 0
; solid_infill_speed = 20
; thin_walls = 1
; top_infill_extrusion_width = 0
; top_infill_pattern = rectilinear
; top_solid_infill_speed = 15
; top_solid_layers = 0
