; generated by Slic3r 1.3.0 on 2019-04-29 at 14:50:10

; external perimeters extrusion width = 0.55mm (6.64mm^3/s)
; perimeters extrusion width = 0.52mm (12.53mm^3/s)
; infill extrusion width = 0.52mm (16.71mm^3/s)
; solid infill extrusion width = 0.52mm (4.18mm^3/s)
; top infill extrusion width = 0.52mm (3.13mm^3/s)

M107
M104 S205 ; set temperature
G28 ; home all axes
G1 Z5 F5000 ; lift nozzle

; Filament gcode

M109 S205 ; set temperature and wait for it to be reached
G21 ; set units to millimeters
G90 ; use absolute coordinates
M82 ; use absolute distances for extrusion
G92 E0
G1 Z0.500 F7800.000
G1 E-2.00000 F2400.00000
G92 E0
G1 X97.600 Y93.125 F7800.000
G1 E2.00000 F2400.00000
G1 F1327.56
G1 X97.400 Y93.075 E2.01666
G1 F1327.56
G1 X97.200 Y93.025 E2.03187
G1 F1327.56
G1 X97.100 Y93.000 E2.03874
G1 X93.500 Y93.000 E2.27880
G1 X93.293 Y93.043 E2.29290
G1 F1327.56
G1 X93.086 Y93.086 E2.30818
G1 X93.021 Y93.396 E2.33110
G1 F1327.56
G1 X93.000 Y93.500 E2.33810
G1 X93.000 Y97.200 E2.58297
G1 X93.025 Y97.300 E2.58979
G1 F1327.56
G1 X93.075 Y97.500 E2.60426
G1 F1327.56
G1 X93.125 Y97.700 E2.62020
G1 F1327.56
G1 X93.075 Y97.900 E2.63686
G1 F1327.56
G1 X93.025 Y98.100 E2.65207
G1 F1327.56
G1 X93.000 Y98.200 E2.65894
G1 X93.000 Y101.900 E2.90566
G1 X93.025 Y102.000 E2.91254
G1 F1327.56
G1 X93.075 Y102.200 E2.92701
G1 F1327.56
G1 X93.125 Y102.400 E2.94295
G1 F1327.56
G1 X93.075 Y102.600 E2.95961
G1 F1327.56
G1 X93.025 Y102.800 E2.97482
G1 F1327.56
G1 X93.000 Y102.900 E2.98169
G1 X93.000 Y106.500 E3.22175
G1 X93.043 Y106.707 E3.23585
G1 F1327.56
G1 X93.086 Y106.914 E3.25113
G1 X93.396 Y106.979 E3.27405
G1 F1327.56
G1 X93.500 Y107.000 E3.28105
G1 X97.100 Y107.000 E3.51930
G1 X97.200 Y106.975 E3.52612
G1 F1327.56
G1 X97.400 Y106.925 E3.54059
G1 F1327.56
G1 X97.600 Y106.875 E3.55653
G1 F1327.56
G1 X97.600 Y106.725 E3.56812
G1 F1327.56
G1 X97.600 Y106.575 E3.57866
G1 F1327.56
G1 X97.600 Y102.844 E3.82637
G1 F1327.56
G1 X97.600 Y102.733 E3.83447
G1 F1327.56
G1 X97.600 Y102.622 E3.84329
G1 F1327.56
G1 X97.600 Y102.511 E3.85284
G1 F1327.56
G1 X97.600 Y102.400 E3.86311
G1 F1327.56
G1 X97.489 Y102.400 E3.87339
G1 F1327.56
G1 X97.378 Y102.400 E3.88293
G1 F1327.56
G1 X97.267 Y102.400 E3.89176
G1 F1327.56
G1 X97.156 Y102.400 E3.89986
G1 F1327.56
G1 X93.425 Y102.400 E4.14757
G1 F1327.56
G1 X93.275 Y102.400 E4.15811
G1 F1327.56
G1 X93.125 Y102.400 E4.16970
G1 E2.16970 F2400.00000
G92 E0
G1 X97.600 Y102.400 F7800.000
G1 E2.00000 F2400.00000
G1 F1327.56
G1 X97.656 Y102.400 E2.00514
G1 F1327.56
G1 X97.767 Y102.400 E2.01468
G1 F1327.56
G1 X97.878 Y102.400 E2.02351
G1 F1327.56
G1 X97.989 Y102.400 E2.03161
G1 F1327.56
G1 X101.856 Y102.400 E2.28836
G1 F1327.56
G1 X101.967 Y102.400 E2.29646
G1 F1327.56
G1 X102.078 Y102.400 E2.30529
G1 F1327.56
G1 X102.189 Y102.400 E2.31484
G1 F1327.56
G1 X102.300 Y102.400 E2.32511
G1 F1327.56
G1 X102.300 Y102.344 E2.33024
G1 F1327.56
G1 X102.300 Y102.233 E2.33979
G1 F1327.56
G1 X102.300 Y102.122 E2.34862
G1 F1327.56
G1 X102.300 Y102.011 E2.35672
G1 F1327.56
G1 X102.300 Y98.144 E2.61347
G1 F1327.56
G1 X102.300 Y98.033 E2.62157
G1 F1327.56
G1 X102.300 Y97.922 E2.63039
G1 F1327.56
G1 X102.300 Y97.811 E2.63994
G1 F1327.56
G1 X102.300 Y97.700 E2.65021
G1 F1327.56
G1 X102.189 Y97.700 E2.66049
G1 F1327.56
G1 X102.078 Y97.700 E2.67003
G1 F1327.56
G1 X101.967 Y97.700 E2.67886
G1 F1327.56
G1 X101.856 Y97.700 E2.68696
G1 F1327.56
G1 X97.989 Y97.700 E2.94371
G1 F1327.56
G1 X97.878 Y97.700 E2.95181
G1 F1327.56
G1 X97.767 Y97.700 E2.96064
G1 F1327.56
G1 X97.656 Y97.700 E2.97018
G1 F1327.56
G1 X97.600 Y97.700 E2.97532
G1 F1327.56
G1 X97.489 Y97.700 E2.98559
G1 F1327.56
G1 X97.378 Y97.700 E2.99514
G1 F1327.56
G1 X97.267 Y97.700 E3.00397
G1 F1327.56
G1 X97.156 Y97.700 E3.01207
G1 F1327.56
G1 X93.425 Y97.700 E3.25978
G1 F1327.56
G1 X93.275 Y97.700 E3.27031
G1 F1327.56
G1 X93.125 Y97.700 E3.28191
G1 E1.28191 F2400.00000
G92 E0
G1 X97.600 Y97.700 F7800.000
G1 E2.00000 F2400.00000
G1 F1327.56
G1 X97.600 Y97.811 E2.01027
G1 F1327.56
G1 X97.600 Y97.922 E2.01982
G1 F1327.56
G1 X97.600 Y98.033 E2.02864
G1 F1327.56
G1 X97.600 Y98.144 E2.03675
G1 F1327.56
G1 X97.600 Y102.011 E2.29350
G1 F1327.56
G1 X97.600 Y102.122 E2.30160
G1 F1327.56
G1 X97.600 Y102.233 E2.31042
G1 F1327.56
G1 X97.600 Y102.344 E2.31997
G1 F1327.56
G1 X97.600 Y102.400 E2.32511
G1 E0.32511 F2400.00000
G92 E0
G1 X97.600 Y106.875 F7800.000
G1 E2.00000 F2400.00000
G1 F1327.56
G1 X97.800 Y106.925 E2.01593
G1 F1327.56
G1 X98.000 Y106.975 E2.03041
G1 F1327.56
G1 X98.100 Y107.000 E2.03728
G1 X101.800 Y107.000 E2.28401
G1 X101.900 Y106.975 E2.29088
G1 F1327.56
G1 X102.100 Y106.925 E2.30609
G1 F1327.56
G1 X102.300 Y106.875 E2.32275
G1 F1327.56
G1 X102.300 Y106.725 E2.33434
G1 F1327.56
G1 X102.300 Y106.575 E2.34488
G1 F1327.56
G1 X102.300 Y102.844 E2.59259
G1 F1327.56
G1 X102.300 Y102.733 E2.60069
G1 F1327.56
G1 X102.300 Y102.622 E2.60952
G1 F1327.56
G1 X102.300 Y102.511 E2.61906
G1 F1327.56
G1 X102.300 Y102.400 E2.62934
G1 F1327.56
G1 X102.356 Y102.400 E2.63447
G1 F1327.56
G1 X102.467 Y102.400 E2.64402
G1 F1327.56
G1 X102.578 Y102.400 E2.65284
G1 F1327.56
G1 X102.689 Y102.400 E2.66095
G1 F1327.56
G1 X106.575 Y102.400 E2.92008
G1 F1327.56
G1 X106.725 Y102.400 E2.93114
G1 F1327.56
G1 X106.875 Y102.400 E2.94327
G1 F1327.56
G1 X106.925 Y102.600 E2.95993
G1 F1327.56
G1 X106.975 Y102.800 E2.97514
G1 F1327.56
G1 X107.000 Y102.900 E2.98201
G1 X107.000 Y106.500 E3.22207
G1 X106.957 Y106.707 E3.23617
G1 F1327.56
G1 X106.914 Y106.914 E3.25145
G1 X106.604 Y106.979 E3.27437
G1 F1327.56
G1 X106.500 Y107.000 E3.28137
G1 X102.800 Y107.000 E3.52623
G1 X102.700 Y106.975 E3.53306
G1 F1327.56
G1 X102.500 Y106.925 E3.54753
G1 F1327.56
G1 X102.300 Y106.875 E3.56347
G1 E1.56347 F2400.00000
G92 E0
G1 X106.875 Y102.400 F7800.000
G1 E2.00000 F2400.00000
G1 F1327.56
G1 X106.925 Y102.200 E2.01666
G1 F1327.56
G1 X106.975 Y102.000 E2.03187
G1 F1327.56
G1 X107.000 Y101.900 E2.03874
G1 X107.000 Y98.200 E2.28547
G1 X106.975 Y98.100 E2.29234
G1 F1327.56
G1 X106.925 Y97.900 E2.30682
G1 F1327.56
G1 X106.875 Y97.700 E2.32275
G1 F1327.56
G1 X106.925 Y97.500 E2.33941
G1 F1327.56
G1 X106.975 Y97.300 E2.35462
G1 F1327.56
G1 X107.000 Y97.200 E2.36149
G1 X107.000 Y93.500 E2.60822
G1 X106.957 Y93.293 E2.62232
G1 F1327.56
G1 X106.914 Y93.086 E2.63760
G1 X106.604 Y93.021 E2.66052
G1 F1327.56
G1 X106.500 Y93.000 E2.66752
G1 X102.800 Y93.000 E2.91238
G1 X102.700 Y93.025 E2.91921
G1 F1327.56
G1 X102.500 Y93.075 E2.93368
G1 F1327.56
G1 X102.300 Y93.125 E2.94962
G1 F1327.56
G1 X102.100 Y93.075 E2.96628
G1 F1327.56
G1 X101.900 Y93.025 E2.98149
G1 F1327.56
G1 X101.800 Y93.000 E2.98836
G1 X98.100 Y93.000 E3.23508
G1 X98.000 Y93.025 E3.24196
G1 F1327.56
G1 X97.800 Y93.075 E3.25643
G1 F1327.56
G1 X97.600 Y93.125 E3.27237
G1 F1327.56
G1 X97.600 Y93.275 E3.28449
G1 F1327.56
G1 X97.600 Y93.425 E3.29556
G1 F1327.56
G1 X97.600 Y97.311 E3.55469
G1 F1327.56
G1 X97.600 Y97.422 E3.56279
G1 F1327.56
G1 X97.600 Y97.533 E3.57162
G1 F1327.56
G1 X97.600 Y97.644 E3.58116
G1 F1327.56
G1 X97.600 Y97.700 E3.58630
G1 E1.58630 F2400.00000
G92 E0
G1 X102.300 Y97.700 F7800.000
G1 E2.00000 F2400.00000
G1 F1327.56
G1 X102.356 Y97.700 E2.00514
G1 F1327.56
G1 X102.467 Y97.700 E2.01468
G1 F1327.56
G1 X102.578 Y97.700 E2.02351
G1 F1327.56
G1 X102.689 Y97.700 E2.03161
G1 F1327.56
G1 X106.575 Y97.700 E2.29075
G1 F1327.56
G1 X106.725 Y97.700 E2.30181
G1 F1327.56
G1 X106.875 Y97.700 E2.31393
G1 E0.31393 F2400.00000
G92 E0
G1 X102.300 Y97.700 F7800.000
G1 E2.00000 F2400.00000
G1 F1327.56
G1 X102.300 Y97.644 E2.00514
G1 F1327.56
G1 X102.300 Y97.533 E2.01468
G1 F1327.56
G1 X102.300 Y97.422 E2.02351
G1 F1327.56
G1 X102.300 Y97.311 E2.03161
G1 F1327.56
G1 X102.300 Y93.425 E2.29075
G1 F1327.56
G1 X102.300 Y93.275 E2.30181
G1 F1327.56
G1 X102.300 Y93.125 E2.31393
M104 S200 ; set temperature
G1 Z1.000 F7800.000
G1 E0.31393 F2400.00000
G92 E0
G1 X102.525 Y102.625 F7800.000
G1 E2.00000 F2400.00000
G1 F900
G1 X106.775 Y102.625 E2.13309
G1 X106.775 Y106.775 E2.26304
G1 X102.525 Y106.775 E2.39613
G1 X102.525 Y102.700 E2.52374
G1 X102.394 Y102.143 F7800.000
G1 X102.525 Y102.175 F7800.000
G1 F900
G1 X102.525 Y97.925 E2.65682
G1 X106.775 Y97.925 E2.78991
G1 X106.775 Y102.175 E2.92300
G1 X102.600 Y102.175 E3.05373
G1 X102.042 Y102.304 F7800.000
G1 E1.05373 F2400.00000
G92 E0
G1 X102.525 Y97.475 F7800.000
G1 E2.00000 F2400.00000
G1 F900
G1 X102.525 Y93.225 E2.13309
G1 X106.775 Y93.225 E2.26617
G1 X106.775 Y97.475 E2.39926
G1 X102.600 Y97.475 E2.53000
G1 X102.042 Y97.604 F7800.000
G1 X102.075 Y97.475 F7800.000
G1 F900
G1 X97.825 Y97.475 E2.66309
G1 X97.825 Y93.225 E2.79617
G1 X102.075 Y93.225 E2.92926
G1 X102.075 Y97.400 E3.06000
G1 X102.204 Y97.958 F7800.000
G1 E1.06000 F2400.00000
G92 E0
G1 X97.375 Y97.475 F7800.000
G1 E2.00000 F2400.00000
G1 F900
G1 X93.225 Y97.475 E2.12996
G1 X93.225 Y93.225 E2.26304
G1 X97.375 Y93.225 E2.39300
G1 X97.375 Y97.400 E2.52374
G1 X97.502 Y97.958 F7800.000
G1 X97.375 Y97.925 F7800.000
G1 F900
G1 X97.375 Y102.175 E2.65682
G1 X93.225 Y102.175 E2.78678
G1 X93.225 Y97.925 E2.91987
G1 X97.300 Y97.925 E3.04747
G1 X97.857 Y97.794 F7800.000
G1 X97.825 Y97.925 F7800.000
G1 F900
G1 X102.075 Y97.925 E3.18056
G1 X102.075 Y102.175 E3.31365
G1 X97.825 Y102.175 E3.44673
G1 X97.825 Y98.000 E3.57747
G1 X97.696 Y97.442 F7800.000
G1 E1.57747 F2400.00000
G92 E0
G1 X97.825 Y102.625 F7800.000
G1 E2.00000 F2400.00000
G1 F900
G1 X102.075 Y102.625 E2.13309
G1 X102.075 Y106.775 E2.26304
G1 X97.825 Y106.775 E2.39613
G1 X97.825 Y102.700 E2.52374
G1 X97.694 Y102.143 F7800.000
G1 X97.375 Y102.625 F7800.000
G1 F900
G1 X97.375 Y106.775 E2.65369
G1 X93.225 Y106.775 E2.78365
G1 X93.225 Y102.625 E2.91360
G1 X97.300 Y102.625 E3.04121
G1 X97.858 Y102.496 F7800.000
G1 E1.04121 F2400.00000
G92 E0
G1 X92.775 Y107.225 F7800.000
G1 E2.00000 F2400.00000
G1 F1800
G1 X92.775 Y92.775 E2.45250
G1 X107.225 Y92.775 E2.90499
G1 X107.225 Y107.225 E3.35749
G1 X92.850 Y107.225 E3.80763
G1 X92.904 Y106.742 F7800.000
G1 E1.80763 F2400.00000
G92 E0
; Filament-specific end gcode 
;END gcode for filament

M104 S0 ; turn off temperature
G28 X0  ; home X axis
M84     ; disable motors

M140 S0 ; set bed temperature
; filament used = 14.1mm (0.1cm3)
; total filament cost = 0.0

; avoid_crossing_perimeters = 0
; bed_shape = 0x0,200x0,200x200,0x200
; bed_temperature = 0
; before_layer_gcode = 
; between_objects_gcode = 
; bridge_acceleration = 0
; bridge_fan_speed = 100
; brim_connections_width = 0
; brim_width = 0
; complete_objects = 0
; cooling = 1
; default_acceleration = 0
; disable_fan_first_layers = 3
; duplicate_distance = 6
; end_filament_gcode = "; Filament-specific end gcode \n;END gcode for filament\n"
; end_gcode = M104 S0 ; turn off temperature\nG28 X0  ; home X axis\nM84     ; disable motors\n
; extruder_clearance_height = 20
; extruder_clearance_radius = 20
; extruder_offset = 0x0
; extrusion_axis = E
; extrusion_multiplier = 1
; fan_always_on = 0
; fan_below_layer_time = 60
; filament_colour = #FFFFFF
; filament_cost = 0
; filament_density = 0
; filament_diameter = 3
; filament_max_volumetric_speed = 0
; filament_notes = ""
; first_layer_acceleration = 0
; first_layer_bed_temperature = 0
; first_layer_extrusion_width = 200%
; first_layer_speed = 30
; first_layer_temperature = 205
; gcode_arcs = 0
; gcode_comments = 0
; gcode_flavor = reprap
; has_heatbed = 1
; infill_acceleration = 0
; infill_first = 0
; interior_brim_width = 0
; layer_gcode = 
; max_fan_speed = 100
; max_layer_height = 0.3
; max_print_speed = 80
; max_volumetric_speed = 0
; min_fan_speed = 35
; min_layer_height = 0.15
; min_print_speed = 10
; min_skirt_length = 0
; notes = 
; nozzle_diameter = 0.5
; only_retract_when_crossing_perimeters = 1
; ooze_prevention = 0
; output_filename_format = [input_filename_base].gcode
; perimeter_acceleration = 0
; post_process = 
; pressure_advance = 0
; printer_notes = 
; resolution = 0
; retract_before_travel = 2
; retract_layer_change = 0
; retract_length = 2
; retract_length_toolchange = 10
; retract_lift = 0
; retract_lift_above = 0
; retract_lift_below = 0
; retract_restart_extra = 0
; retract_restart_extra_toolchange = 0
; retract_speed = 40
; skirt_distance = 6
; skirt_height = 1
; skirts = 0
; slowdown_below_layer_time = 5
; spiral_vase = 0
; standby_temperature_delta = -5
; start_filament_gcode = "; Filament gcode\n"
; start_gcode = G28 ; home all axes\nG1 Z5 F5000 ; lift nozzle\n
; temperature = 200
; threads = 8
; toolchange_gcode = 
; travel_speed = 130
; use_firmware_retraction = 0
; use_relative_e_distances = 0
; use_set_and_wait_bed = 0
; use_set_and_wait_extruder = 0
; use_volumetric_e = 0
; vibration_limit = 0
; wipe = 0
; z_offset = 0
; z_steps_per_mm = 0
; adaptive_slicing = 0
; adaptive_slicing_quality = 75%
; dont_support_bridges = 1
; extrusion_width = 0
; first_layer_height = 0.5
; infill_only_where_needed = 0
; interface_shells = 0
; layer_height = 0.5
; match_horizontal_surfaces = 0
; raft_layers = 0
; regions_overlap = 0
; seam_position = aligned
; sequential_print_priority = 0
; support_material = 0
; support_material_angle = 0
; support_material_buildplate_only = 0
; support_material_contact_distance = 0.2
; support_material_enforce_layers = 0
; support_material_extruder = 1
; support_material_extrusion_width = 0
; support_material_interface_extruder = 1
; support_material_interface_extrusion_width = 0
; support_material_interface_layers = 3
; support_material_interface_spacing = 0
; support_material_interface_speed = 100%
; support_material_max_layers = 0
; support_material_pattern = pillars
; support_material_spacing = 2.5
; support_material_speed = 60
; support_material_threshold = 60%
; xy_size_compensation = 0
; bottom_infill_pattern = rectilinear
; bottom_solid_layers = 3
; bridge_flow_ratio = 1
; bridge_speed = 60
; external_perimeter_extrusion_width = 0
; external_perimeter_speed = 50%
; external_perimeters_first = 0
; extra_perimeters = 1
; fill_angle = 45
; fill_density = 20%
; fill_gaps = 1
; fill_pattern = stars
; gap_fill_speed = 20
; infill_every_layers = 1
; infill_extruder = 1
; infill_extrusion_width = 0
; infill_overlap = 55%
; infill_speed = 80
; overhangs = 1
; perimeter_extruder = 1
; perimeter_extrusion_width = 0
; perimeter_speed = 60
; perimeters = 3
; small_perimeter_speed = 15
; solid_infill_below_area = 70
; solid_infill_every_layers = 0
; solid_infill_extruder = 1
; solid_infill_extrusion_width = 0
; solid_infill_speed = 20
; thin_walls = 1
; top_infill_extrusion_width = 0
; top_infill_pattern = rectilinear
; top_solid_infill_speed = 15
; top_solid_layers = 3
