; generated by Slic3r 1.3.0 on 2020-03-11 at 14:22:32

; external perimeters extrusion width = 0.55mm (6.64mm^3/s)
; perimeters extrusion width = 0.52mm (12.53mm^3/s)
; infill extrusion width = 0.52mm (16.71mm^3/s)
; solid infill extrusion width = 0.52mm (4.18mm^3/s)
; top infill extrusion width = 0.52mm (3.13mm^3/s)

M107
M104 S205 ; set temperature
G28 ; home all axes
G1 Z5 F5000 ; lift nozzle

; Filament gcode

M109 S205 ; set temperature and wait for it to be reached
G21 ; set units to millimeters
G90 ; use absolute coordinates
M82 ; use absolute distances for extrusion
G92 E0
G1 Z0.500 F7800.000
G1 E-2.00000 F2400.00000
G92 E0
G1 X99.236 Y91.297 F7800.000
G1 E2.00000 F2400.00000
G1 F600
G1 X98.542 Y91.992 E2.07163
G1 X98.451 Y92.358 E2.09915
G1 X98.108 Y93.384 E2.17804
G1 X97.979 Y94.012 E2.22482
G1 X100.694 Y91.297 E2.50484
G1 X102.152 Y91.297 E2.61116
G1 X99.470 Y93.979 E2.88773
G1 X99.811 Y93.963 E2.91261
G1 X99.882 Y93.982 E2.91798
G1 X100.928 Y93.979 E2.99426
G1 X102.804 Y92.104 E3.18766
G1 X102.900 Y92.517 E3.21863
G1 X102.990 Y93.061 E3.25887
G1 X103.015 Y93.350 E3.28000
G1 X102.321 Y94.045 E3.35162
M104 S200 ; set temperature
G1 Z1.000 F7800.000
G1 X102.750 Y91.569 F7800.000
G1 F862.816
G1 X102.425 Y91.244 E3.36581
G1 X101.807 Y91.244 E3.38488
G1 X102.873 Y92.310 E3.43140
G1 X103.064 Y93.084 E3.45605
G1 X103.036 Y93.090 E3.45693
G1 X101.190 Y91.244 E3.53754
G1 X100.573 Y91.244 E3.55661
G1 X103.060 Y93.732 E3.66524
G1 X103.067 Y94.283 E3.68226
G1 X102.828 Y94.117 E3.69125
G1 X99.955 Y91.244 E3.81669
G1 X99.338 Y91.244 E3.83576
G1 X102.127 Y94.034 E3.95757
G1 X101.508 Y94.032 E3.97669
G1 X98.720 Y91.244 E4.09841
G1 X98.447 Y91.244 E4.10685
G1 X98.529 Y91.263 E4.10944
G1 X98.458 Y91.599 E4.12005
G1 X100.893 Y94.034 E4.22639
G1 X100.273 Y94.032 E4.24552
G1 X98.312 Y92.071 E4.33117
G1 X98.154 Y92.530 E4.34616
G1 X99.655 Y94.032 E4.41175
G1 X99.555 Y94.010 E4.41493
G1 X99.500 Y94.034 E4.41679
G1 X99.040 Y94.033 E4.43099
G1 X98.018 Y93.012 E4.47560
G1 X97.919 Y93.530 E4.49190
G1 X98.509 Y94.120 E4.51765
G1 X98.314 Y94.275 E4.52534
G1 X98.208 Y94.436 E4.53130
G1 X97.829 Y94.057 E4.54785
G1 X97.751 Y94.309 E4.55601
G1 X97.654 Y94.500 E4.56261
G1 X98.105 Y94.951 E4.58228
G1 X98.127 Y95.590 E4.60203
G1 X97.369 Y94.832 E4.63513
G1 X97.088 Y95.168 E4.64867
G1 X98.098 Y96.178 E4.69277
G1 X98.055 Y96.432 E4.70072
G1 X97.984 Y96.682 E4.70874
G1 X96.826 Y95.524 E4.75932
G1 X96.564 Y95.880 E4.77296
G1 X97.700 Y97.015 E4.82254
G1 X97.285 Y97.218 E4.83679
G1 X96.303 Y96.236 E4.87967
G1 X96.046 Y96.596 E4.89334
G1 X96.912 Y97.462 E4.93120
G1 X96.536 Y97.704 E4.94500
G1 X95.801 Y96.969 E4.97709
G1 X95.580 Y97.365 E4.99110
G1 X96.121 Y97.906 E5.01474
G1 X95.701 Y98.103 E5.02909
G1 X95.376 Y97.778 E5.04328
G1 X95.221 Y98.174 F7800.000
G1 F3451.26
G1 X94.726 Y97.679 E5.06398
G1 X95.069 Y97.241 E5.08041
G1 X95.315 Y96.973 E5.09116
G1 X95.047 Y97.479 E5.10808
G1 X94.893 Y97.815 E5.11900
G1 X94.896 Y97.850 E5.12003
G1 X95.511 Y98.465 F7800.000
G1 F3451.26
G1 X95.959 Y97.966 E5.13983
G1 X95.315 Y98.269 E5.16085
G1 X95.836 Y98.790 E5.18262
G1 E3.18262 F2400.00000
G92 E0
G1 X97.597 Y94.643 F7800.000
G1 E2.00000 F2400.00000
G1 F3451.26
G1 X97.216 Y94.262 E2.01594
G1 X97.489 Y93.580 E2.03765
G1 X97.428 Y93.940 E2.04846
G1 X97.359 Y94.160 E2.05526
G1 X97.272 Y94.319 E2.06060
G1 E0.06060 F2400.00000
G92 E0
G1 X100.762 Y100.762 F7800.000
G1 E2.00000 F2400.00000
G1 F3451.26
G1 X97.676 Y97.676 E2.12896
G1 X97.685 Y98.100 E2.14151
G1 X97.632 Y98.679 E2.15868
G1 X97.322 Y100.275 E2.20672
G1 X98.491 Y101.445 E2.25559
G1 X98.352 Y102.062 E2.27429
G1 X98.083 Y103.682 E2.32279
G1 X98.018 Y103.925 E2.33024
G1 X96.893 Y102.801 E2.37724
G1 X96.822 Y103.230 E2.39010
G1 X96.628 Y105.239 E2.44973
G1 X96.623 Y105.483 E2.45695
G1 X97.397 Y106.257 E2.48930
G1 X97.332 Y106.442 E2.49508
G1 X97.248 Y106.603 E2.50044
G1 X97.132 Y106.690 E2.50473
G1 X97.080 Y106.695 E2.50628
G1 X97.018 Y106.660 E2.50838
G1 X96.967 Y106.517 E2.51286
G1 X96.947 Y105.808 E2.53381
G1 E0.53381 F2400.00000
G92 E0
G1 X99.680 Y105.587 F7800.000
G1 E2.00000 F2400.00000
G1 F3451.26
G1 X99.712 Y106.406 E2.02422
G1 X99.690 Y107.286 E2.05021
G1 X99.707 Y107.772 E2.06458
G1 X99.767 Y108.117 E2.07492
G1 X99.825 Y108.264 E2.07961
G1 X99.918 Y108.373 E2.08385
G1 X99.992 Y108.400 E2.08617
G1 X100.045 Y108.380 E2.08785
G1 X100.140 Y108.285 E2.09182
G1 X100.217 Y108.115 E2.09734
G1 X100.296 Y107.748 E2.10842
G1 X100.332 Y107.377 E2.11943
G1 X100.382 Y106.289 E2.15162
G1 X99.355 Y105.262 E2.19452
G1 X99.321 Y104.397 E2.22011
G1 X99.368 Y102.321 E2.28144
G1 X100.548 Y103.502 E2.33077
G1 E0.33077 F2400.00000
G92 E0
G1 X102.430 Y105.384 F7800.000
G1 E2.00000 F2400.00000
G1 F3451.26
G1 X102.594 Y106.059 E2.02053
G1 X103.070 Y107.285 E2.05939
G1 X103.156 Y107.433 E2.06443
G1 X103.223 Y107.472 E2.06674
G1 X103.286 Y107.475 E2.06861
G1 X103.359 Y107.387 E2.07200
G1 X103.385 Y107.237 E2.07648
G1 X103.406 Y106.359 E2.10243
G1 X102.105 Y105.059 E2.15676
G1 X101.980 Y104.442 E2.17537
G1 X101.638 Y102.290 E2.23975
G1 X101.486 Y101.486 E2.26392
G1 X102.893 Y102.893 E2.32272
G1 X102.640 Y101.496 E2.36467
G1 X102.610 Y101.167 E2.37444
G1 X102.616 Y100.903 E2.38223
G1 X102.670 Y100.612 E2.39098
G1 X102.787 Y100.369 E2.39894
G1 X102.921 Y100.232 E2.40460
G1 X103.108 Y100.154 E2.41058
G1 X98.219 Y95.266 E2.61484
G1 X98.202 Y94.514 E2.63707
G1 X98.231 Y94.363 E2.64160
G1 X98.281 Y94.257 E2.64507
G1 X98.387 Y94.162 E2.64926
G1 X98.538 Y94.128 E2.65384
G1 X99.205 Y94.127 E2.67355
G1 X99.256 Y94.148 E2.67519
G1 X99.304 Y94.124 E2.67677
G1 X99.895 Y94.124 E2.69423
G1 X99.924 Y94.143 E2.69526
G1 X100.034 Y94.127 E2.69855
G1 X104.002 Y98.095 E2.86434
G1 E0.86434 F2400.00000
G92 E0
G1 X102.783 Y99.829 F7800.000
G1 E2.00000 F2400.00000
G1 F3451.26
G1 X102.998 Y99.839 E2.00635
G1 X103.168 Y99.934 E2.01212
G1 X103.283 Y100.122 E2.01864
G1 X103.431 Y100.477 E2.03000
G1 X104.975 Y102.022 E2.09454
G1 Z1.500 F7800.000
G1 X104.539 Y101.612 F7800.000
G1 F839.671
G1 X104.981 Y101.170 E2.11367
G1 X104.796 Y100.744 E2.12788
G1 X104.464 Y101.076 E2.14225
G1 X104.454 Y101.029 E2.14372
G1 X104.471 Y101.069 E2.14504
G1 X103.798 Y101.130 F7800.000
G1 F839.671
G1 X103.473 Y101.455 E2.15909
G1 X103.642 Y101.898 E2.17357
G1 X104.051 Y101.489 E2.19125
G1 X104.219 Y101.677 E2.19897
G1 X104.363 Y101.788 E2.20453
G1 X103.818 Y102.332 E2.22807
G1 X104.002 Y102.761 E2.24231
G1 X105.162 Y101.601 E2.29247
G1 X105.327 Y102.046 E2.30701
G1 X104.189 Y103.184 E2.35622
G1 X104.378 Y103.607 E2.37037
G1 X105.493 Y102.492 E2.41859
G1 X105.659 Y102.938 E2.43313
G1 X104.564 Y104.032 E2.48046
G1 X104.752 Y104.456 E2.49463
G1 X105.824 Y103.383 E2.54102
G1 X105.986 Y103.833 E2.55563
G1 X104.955 Y104.864 E2.60021
G1 X105.079 Y105.067 E2.60749
G1 X105.209 Y105.221 E2.61366
G1 X106.116 Y104.315 E2.65286
G1 X106.149 Y104.609 E2.66193
G1 X106.111 Y104.868 E2.66994
G1 X106.034 Y105.007 E2.67479
G1 X105.709 Y105.333 E2.68887
G1 E0.68887 F2400.00000
G92 E0
G1 X103.206 Y107.711 F7800.000
G1 E2.00000 F2400.00000
G1 F839.671
G1 X103.586 Y107.311 E2.01687
G1 X103.632 Y107.188 E2.02089
G1 X103.654 Y107.029 E2.02580
G1 X103.641 Y106.613 E2.03853
G1 X102.617 Y107.637 E2.08281
G1 X102.530 Y107.485 E2.08815
G1 X102.430 Y107.161 E2.09853
G1 X103.594 Y105.997 E2.14887
G1 X103.516 Y105.412 E2.16692
G1 X102.429 Y106.498 E2.21392
G1 X102.319 Y106.210 E2.22336
G1 X102.165 Y106.267 E2.22839
G1 X102.131 Y106.133 E2.23262
G1 X102.625 Y105.639 E2.25399
G1 X102.534 Y105.554 E2.25778
G1 X102.347 Y105.253 E2.26862
G1 X102.022 Y105.578 E2.28267
G1 X100.549 Y105.536 F7800.000
G1 F839.671
G1 X100.191 Y105.895 E2.29816
G1 X100.109 Y106.568 E2.31890
G1 X100.518 Y106.159 E2.33660
G1 X100.492 Y106.775 E2.35545
G1 X100.046 Y107.221 E2.37474
G1 X99.901 Y108.548 F7800.000
G1 F839.671
G1 X100.245 Y108.204 E2.38962
G1 X100.294 Y108.130 E2.39234
G1 X100.343 Y108.016 E2.39615
G1 X100.432 Y107.629 E2.40828
G1 X100.452 Y107.407 E2.41510
G1 X99.375 Y108.483 E2.46164
G1 X99.288 Y108.269 E2.46870
G1 X99.247 Y108.021 E2.47640
G1 X100.023 Y107.244 E2.50997
G1 X99.892 Y107.221 E2.51403
G1 X99.784 Y107.176 E2.51761
G1 X99.726 Y107.099 E2.52057
G1 X99.684 Y106.992 E2.52407
G1 X99.216 Y107.460 E2.54431
G1 X99.231 Y106.855 E2.56283
G1 X99.644 Y106.442 E2.58069
G1 X99.623 Y105.872 E2.59813
G1 X99.239 Y106.256 E2.61475
G1 X99.222 Y105.682 E2.63232
G1 X99.547 Y105.357 E2.64637
G1 E0.64637 F2400.00000
G92 E0
G1 X97.760 Y104.241 F7800.000
G1 E2.00000 F2400.00000
G1 F839.671
G1 X98.085 Y103.916 E2.01405
G1 X97.924 Y104.742 E2.03977
G1 X96.329 Y106.337 E2.10877
G1 X96.343 Y106.733 E2.12089
G1 X96.411 Y106.920 E2.12697
G1 X97.783 Y105.548 E2.18628
G1 X97.645 Y106.083 E2.20317
G1 X97.520 Y106.461 E2.21533
G1 X97.163 Y106.833 E2.23110
G1 X96.398 Y105.602 F7800.000
G1 F839.671
G1 X97.417 Y104.584 E2.27514
G1 X97.134 Y104.371 E2.28595
G1 X97.089 Y104.247 E2.29000
G1 X96.514 Y104.821 E2.31484
G1 X96.626 Y104.044 E2.33884
G1 X96.951 Y103.719 E2.35289
G1 X97.107 Y102.893 F7800.000
G1 F3358.68
G1 X98.183 Y101.817 E2.39788
G1 X97.987 Y102.897 E2.43031
G1 X97.885 Y103.308 E2.44284
G1 X97.731 Y103.689 E2.45499
G1 X97.626 Y103.872 E2.46120
G1 X97.471 Y104.078 E2.46882
G1 X97.422 Y103.962 E2.47255
G1 X97.358 Y103.626 E2.48265
G1 X97.367 Y103.116 E2.49771
G1 X97.431 Y102.569 E2.51400
G1 E0.51400 F2400.00000
G92 E0
G1 X100.059 Y102.894 F7800.000
G1 E2.00000 F2400.00000
G1 F3358.68
G1 X100.071 Y102.097 E2.02357
G1 X100.144 Y101.215 E2.04971
G1 X100.221 Y100.878 E2.05992
G1 X100.321 Y100.676 E2.06658
G1 X100.384 Y100.591 E2.06971
G1 X100.535 Y100.470 E2.07541
G1 X100.688 Y100.426 E2.08013
G1 X100.845 Y100.444 E2.08479
G1 X101.013 Y100.537 E2.09047
G1 X101.134 Y100.657 E2.09550
G1 X101.287 Y100.885 E2.10362
G1 X101.385 Y101.111 E2.11089
G1 X101.493 Y101.461 E2.12171
G1 X102.511 Y100.442 E2.16427
G1 X102.497 Y100.775 E2.17413
G1 X102.530 Y101.117 E2.18427
G1 X102.843 Y103.064 E2.24254
G1 X102.004 Y103.903 E2.27759
G1 E0.27759 F2400.00000
G92 E0
G1 X99.718 Y106.190 F7800.000
G1 E2.00000 F2400.00000
G1 F3358.68
G1 X100.050 Y105.857 E2.01388
G1 X100.114 Y105.446 E2.02620
G1 X100.303 Y104.549 E2.05328
G1 X100.373 Y103.858 E2.07377
G1 X100.384 Y102.569 E2.11186
G1 X99.513 Y103.441 E2.14827
G1 X99.504 Y102.526 E2.17530
G1 X99.452 Y101.702 E2.19969
G1 X99.367 Y101.094 E2.21783
G1 X99.257 Y100.743 E2.22869
G1 X103.762 Y96.238 E2.41692
G1 X103.275 Y93.771 E2.49122
G1 X97.586 Y99.461 E2.72897
G1 X97.628 Y99.192 E2.73700
G1 X97.532 Y99.174 E2.73988
G1 X97.617 Y98.595 E2.75717
G1 X97.641 Y98.142 E2.77057
G1 X97.620 Y97.910 E2.77747
G1 X97.545 Y97.718 E2.78354
G1 X97.581 Y97.520 E2.78950
G1 X97.318 Y97.447 E2.79756
G1 X97.028 Y97.435 E2.80616
G1 X97.016 Y97.604 E2.81117
G1 X96.796 Y97.730 E2.81865
G1 X96.465 Y97.988 E2.83105
G1 X96.412 Y97.919 E2.83364
G1 X95.819 Y98.337 E2.85508
G1 X95.864 Y98.382 E2.85697
G1 X95.450 Y98.861 E2.87568
G1 X95.173 Y99.141 E2.88730
G1 X94.722 Y99.523 E2.90478
G1 X94.575 Y99.614 E2.90988
G1 X94.426 Y99.667 E2.91456
G1 X102.760 Y91.332 E3.26282
G1 X102.755 Y91.244 E3.26543
G1 X99.895 Y91.244 E3.34993
G1 X97.595 Y93.544 E3.44603
G1 X97.769 Y93.141 E3.45899
G1 X98.200 Y92.253 E3.48817
G1 X98.329 Y91.909 E3.49902
G1 X98.402 Y91.569 E3.50929
G1 X99.570 Y91.569 E3.54379
G1 X103.762 Y96.238 F7800.000
G1 F3358.68
G1 X103.938 Y97.136 E3.57082
G1 X104.117 Y98.259 E3.60443
G1 X104.171 Y98.783 E3.61998
G1 X102.930 Y100.024 E3.67184
M106 S249.9
G1 Z2.000 F7800.000
G1 X102.859 Y99.689 F7800.000
G1 F1200
G1 X103.035 Y99.728 E3.67767
G1 X103.199 Y99.821 E3.68377
G1 X103.320 Y99.992 E3.69056
G1 X103.505 Y100.335 E3.70319
G1 X104.391 Y101.221 E3.74380
G1 X102.577 Y101.784 F7800.000
G1 F1200
G1 X101.167 Y100.374 E3.80842
G1 X101.348 Y100.690 E3.82023
G1 X101.551 Y101.352 E3.84267
G1 X102.690 Y102.491 E3.89487
G1 X102.803 Y103.198 E3.91808
G1 X101.723 Y102.118 E3.96758
G1 X101.867 Y102.856 E3.99194
G1 X102.916 Y103.905 E4.04005
G1 X103.008 Y104.591 E4.06248
G1 X102.006 Y103.589 E4.10841
G1 X102.172 Y104.349 E4.13362
G1 X103.039 Y105.216 E4.17336
G1 X103.005 Y105.512 E4.18301
G1 X102.941 Y105.687 E4.18905
G1 X102.858 Y105.610 E4.19271
G1 X102.729 Y105.406 E4.20052
G1 X102.573 Y104.992 E4.21486
G1 X102.497 Y104.674 E4.22546
G1 E2.22546 F2400.00000
G92 E0
G1 X99.974 Y105.715 F7800.000
G1 E2.00000 F2400.00000
G1 F1200
G1 X100.046 Y106.231 E2.01687
G1 X100.101 Y105.842 E2.02959
G1 X99.649 Y105.391 E2.05030
G1 X99.564 Y104.711 E2.07250
G1 X100.202 Y105.349 E2.10175
G1 X100.302 Y104.855 E2.11810
G1 X99.529 Y104.082 E2.15353
G1 X99.521 Y103.480 E2.17304
G1 X100.357 Y104.317 E2.21139
G1 X100.379 Y103.745 E2.22995
G1 X99.513 Y102.878 E2.26966
G1 X99.505 Y102.277 E2.28916
G1 X100.383 Y103.154 E2.32939
G1 X100.387 Y102.564 E2.34853
G1 X99.474 Y101.651 E2.39039
G1 X99.403 Y100.986 E2.41206
G1 X100.403 Y101.986 E2.45789
G1 E0.45789 F2400.00000
G92 E0
G1 X98.024 Y99.012 F7800.000
G1 E2.00000 F2400.00000
G1 F1200
G1 X97.653 Y98.642 E2.01698
G1 X97.581 Y99.164 E2.03407
G1 X98.881 Y100.464 E2.09366
G1 X98.757 Y100.577 E2.09910
G1 X98.608 Y100.785 E2.10739
G1 X97.499 Y99.676 E2.15822
G1 X97.431 Y100.203 E2.17543
G1 X98.432 Y101.204 E2.22131
G1 X98.293 Y101.658 E2.23673
G1 X97.373 Y100.738 E2.27890
G1 X97.305 Y101.264 E2.29610
G1 X98.183 Y102.142 E2.33634
G1 X98.091 Y102.644 E2.35287
G1 X97.229 Y101.782 E2.39236
G1 X97.153 Y102.301 E2.40933
G1 X97.993 Y103.140 E2.44782
G1 X97.885 Y103.626 E2.46396
G1 X97.077 Y102.819 E2.50096
G1 X97.030 Y103.366 E2.51876
G1 X97.712 Y104.047 E2.55000
G1 X97.629 Y104.192 E2.55541
G1 X97.470 Y104.400 E2.56388
G1 X97.145 Y104.075 E2.57878
G1 E0.57878 F2400.00000
G92 E0
G1 X98.000 Y98.989 F7800.000
G1 E2.00000 F2400.00000
G1 F1200
G1 X100.443 Y101.432 E2.11197
G1 X100.485 Y101.109 E2.12251
G1 X100.530 Y100.925 E2.12867
G1 X98.611 Y99.005 E2.21664
G1 X99.222 Y99.022 E2.23644
G1 X100.750 Y100.551 E2.30650
G1 X100.860 Y100.470 E2.31091
G1 X101.013 Y100.426 E2.31608
G1 X101.175 Y100.438 E2.32133
G1 X101.314 Y100.521 E2.32659
G1 X99.830 Y99.036 E2.39462
G1 X100.423 Y99.036 E2.41384
G1 X102.497 Y101.109 E2.50890
G1 X102.503 Y100.839 E2.51766
G1 X102.548 Y100.566 E2.52663
G1 X101.037 Y99.055 E2.59589
G1 X101.372 Y99.064 E2.60675
G1 X101.625 Y99.049 E2.61496
G1 X102.748 Y100.172 E2.66642
G1 X102.818 Y100.108 E2.66951
G1 X102.946 Y100.042 E2.67418
G1 X103.053 Y100.016 E2.67774
G1 X103.184 Y100.014 E2.68199
G1 X102.119 Y98.949 E2.73082
G1 X102.594 Y98.830 E2.74669
G1 X104.224 Y100.460 E2.82140
G1 X104.118 Y99.760 E2.84435
G1 X103.172 Y98.814 E2.88769
G1 X103.751 Y98.798 E2.90644
G1 X104.076 Y99.123 E2.92134
G1 E0.92134 F2400.00000
G92 E0
G1 X97.610 Y97.446 F7800.000
G1 E2.00000 F2400.00000
G1 F1200
G1 X97.285 Y97.121 E2.01490
G1 X96.222 Y96.706 E2.05188
G1 X97.132 Y97.616 E2.09358
G1 X96.758 Y97.889 E2.10861
G1 X96.227 Y97.358 E2.13295
G1 X96.412 Y97.190 E2.14105
G1 X96.168 Y96.882 E2.15380
G1 X96.140 Y96.854 E2.15509
G1 X95.889 Y97.020 E2.16486
G1 X95.681 Y96.813 E2.17437
G1 X95.402 Y97.182 E2.18937
G1 X96.384 Y98.163 E2.23435
G1 X96.226 Y98.288 E2.24085
G1 X96.045 Y98.472 E2.24925
G1 X95.140 Y97.568 E2.29071
G1 X94.913 Y97.989 E2.30621
G1 X95.755 Y98.831 E2.34481
G1 X95.468 Y99.192 E2.35976
G1 X94.782 Y98.506 E2.39122
G1 X94.558 Y98.929 E2.40675
G1 X95.168 Y99.540 E2.43474
G1 X95.012 Y99.661 E2.44115
G1 X94.938 Y99.697 E2.44382
G1 X94.814 Y99.717 E2.44790
G1 X94.656 Y99.676 E2.45318
G1 X94.331 Y99.351 E2.46808
G1 E0.46808 F2400.00000
G92 E0
G1 X96.919 Y96.480 F7800.000
G1 E2.00000 F2400.00000
M106 S255

G1 F3600
G1 X96.825 Y96.636 E2.00520
G1 X97.234 Y96.795 E2.01778
G1 X96.542 Y96.104 E2.04580
G1 X96.838 Y95.610 E2.06228
G1 X100.131 Y98.903 E2.19571
G1 X100.921 Y98.905 E2.21836
G1 X97.133 Y95.117 E2.37184
G1 X97.432 Y94.627 E2.38829
G1 X101.736 Y98.931 E2.56269
G1 X102.014 Y98.905 E2.57067
G1 X102.410 Y98.816 E2.58230
G1 X97.692 Y94.098 E2.77346
G1 X97.916 Y93.533 E2.79087
G1 X103.076 Y98.693 E2.99992
G1 X103.780 Y98.674 E3.02011
G1 X103.769 Y98.598 E3.02231
G1 X98.124 Y92.953 E3.25102
G1 X98.347 Y92.386 E3.26845
G1 X103.642 Y97.681 E3.48297
G1 X103.499 Y96.750 E3.50996
G1 X98.568 Y91.818 E3.70977
