; generated by Slic3r 1.3.0 on 2019-04-29 at 10:26:30

; external perimeters extrusion width = 0.55mm (6.64mm^3/s)
; perimeters extrusion width = 0.52mm (12.53mm^3/s)
; infill extrusion width = 0.52mm (16.71mm^3/s)
; solid infill extrusion width = 0.52mm (4.18mm^3/s)
; top infill extrusion width = 0.52mm (3.13mm^3/s)

M107
M104 S205 ; set temperature
G28 ; home all axes
G1 Z5 F5000 ; lift nozzle

; Filament gcode

M109 S205 ; set temperature and wait for it to be reached
G21 ; set units to millimeters
G90 ; use absolute coordinates
M82 ; use absolute distances for extrusion
G92 E0
G1 Z0.500 F7800.000
G1 E-2.00000 F2400.00000
G92 E0
G1 X106.419 Y98.385 F7800.000
G1 E2.00000 F2400.00000
G1 F600
G1 X106.948 Y98.506 E2.03428
G1 X108.302 Y98.946 E2.12419
G1 X108.302 Y102.240 E2.33220
G1 X107.128 Y102.500 E2.40810
G1 X106.420 Y102.617 E2.45345
G1 X106.419 Y98.460 E2.71591
G1 X106.827 Y98.674 F7800.000
G1 X105.919 Y98.416 F7800.000
G1 F600
G1 X105.742 Y98.095 E2.72118
G1 F600
G1 X105.698 Y98.026 E2.72284
G1 F600
G1 X105.677 Y97.992 E2.72392
G1 X105.636 Y97.976 E2.72508
G1 X104.566 Y97.626 E2.75507
G1 X104.188 Y97.261 F7800.000
G1 F600
G1 X103.991 Y97.665 E2.78345
G1 X103.566 Y97.543 E2.81138
G1 X103.426 Y97.476 E2.82120
G1 X103.243 Y97.065 E2.84964
G1 X103.562 Y96.806 E2.87557
G1 X104.127 Y97.217 E2.91968
G1 X103.838 Y97.542 F7800.000
G1 E0.91968 F2400.00000
G92 E0
G1 X107.360 Y99.110 F7800.000
G1 E2.00000 F2400.00000
G1 F600
G1 X107.361 Y101.991 E2.18000
M104 S200 ; set temperature
G1 Z1.000 F7800.000
G1 E0.18000 F2400.00000
G92 E0
G1 X103.589 Y97.314 F7800.000
G1 E2.00000 F2400.00000
G1 F2730.09
G1 X104.392 Y97.809 E2.02788
G1 X105.111 Y98.173 E2.05171
G1 X106.566 Y98.763 E2.09809
G1 X107.679 Y99.269 E2.13421
G1 X107.679 Y101.821 E2.20962
G1 X106.588 Y102.078 E2.24274
G1 X105.673 Y102.252 E2.27025

G1 F3600
G1 X102.554 Y102.845 E2.35846
G1 X101.256 Y103.026 E2.39487
G1 X100.930 Y103.053 E2.40395
G1 X100.954 Y102.854 E2.40952
G1 X100.729 Y102.275 E2.42678
G1 X100.431 Y101.953 E2.43899
G1 X100.136 Y101.761 E2.44875
G1 X100.413 Y101.374 E2.46196
G1 X100.481 Y100.782 E2.47852
G1 X100.317 Y100.249 E2.49400
G1 X100.045 Y99.952 E2.50520
G1 X100.400 Y99.601 E2.51905
G1 X100.541 Y98.991 E2.53645
G1 X100.463 Y98.599 E2.54756
G1 X101.213 Y98.723 E2.56869
G1 X101.703 Y98.761 E2.58234
G1 X102.141 Y98.759 E2.59451
G1 X102.574 Y98.702 E2.60665
G1 X103.091 Y98.485 E2.62222
G1 X103.288 Y98.242 E2.63091

G1 F2730.09
G1 X103.574 Y97.889 E2.64432
G1 X103.587 Y97.389 E2.65911
G1 E0.65911 F2400.00000
G92 E0
G1 X100.113 Y98.984 F7800.000
G1 E2.00000 F2400.00000

G1 F3600
G1 X100.038 Y98.605 E2.01074
G1 X99.540 Y97.986 E2.03282
G1 X100.719 Y98.224 E2.06625
G1 X101.261 Y98.308 E2.08149
G1 X101.718 Y98.344 E2.09421
G1 X102.112 Y98.342 E2.10517
G1 X102.464 Y98.295 E2.11502
G1 X102.833 Y98.140 E2.12613
G1 X102.917 Y98.037 E2.12982

G1 F2730.09
G1 X103.160 Y97.737 E2.14125
G1 X103.173 Y97.203 E2.15704
G1 X102.997 Y96.801 E2.16999
G1 X102.520 Y96.145 E2.19396
G1 X102.689 Y95.990 E2.20074
G1 X103.515 Y96.720 E2.23328
G1 X104.008 Y97.082 E2.25135
G1 X104.596 Y97.444 E2.27178
G1 X105.285 Y97.793 E2.29458
G1 X106.733 Y98.380 E2.34076
G1 X107.730 Y98.846 E2.37328
G1 X108.097 Y98.967 E2.38469
G1 X108.097 Y102.152 E2.47879
G1 X106.675 Y102.486 E2.52195
G1 X105.423 Y102.724 E2.55960

G1 F3600
G1 X102.622 Y103.257 E2.63881
G1 X101.302 Y103.441 E2.67582
G1 X100.928 Y103.473 E2.68625
G1 X100.457 Y103.475 E2.69934
G1 X100.527 Y102.907 E2.71522
G1 X100.369 Y102.501 E2.72734
G1 X100.159 Y102.275 E2.73591
G1 X99.908 Y102.111 E2.74425
G1 X99.584 Y101.999 E2.75376
G1 X99.461 Y101.985 E2.75721
G1 X99.421 Y101.811 E2.76216
G1 X99.720 Y101.624 E2.77197
G1 X100.010 Y101.219 E2.78580
G1 X100.056 Y100.821 E2.79693
G1 X99.946 Y100.462 E2.80737
G1 X99.684 Y100.175 E2.81816
G1 X99.205 Y99.920 E2.83323
G1 X99.662 Y99.743 E2.84685
G1 X100.020 Y99.390 E2.86082
G1 X100.097 Y99.057 E2.87029

G1 E0.87029 F2400.00000
G92 E0
G1 X102.734 Y97.579 F7800.000
G1 E2.00000 F2400.00000
G1 F1800
G1 X102.741 Y97.288 E2.00913
G1 X102.618 Y97.010 E2.01865
G1 X102.456 Y96.769 E2.02774
G1 X101.960 Y96.121 E2.05330
G1 X101.717 Y95.884 E2.06391

G1 F3600
G1 X101.335 Y95.553 E2.07797
G1 X101.070 Y95.290 E2.08835
G1 X100.801 Y94.985 E2.09962
G1 X100.604 Y94.697 E2.10933
G1 X100.560 Y94.534 E2.11400
G1 X100.574 Y94.440 E2.11664
G1 X100.643 Y94.309 E2.12078
G1 X100.727 Y94.237 E2.12384
G1 X100.826 Y94.214 E2.12667
G1 X100.976 Y94.247 E2.13094
G1 X101.196 Y94.346 E2.13762
G1 X101.665 Y94.624 E2.15277
G1 X102.030 Y94.871 E2.16502
G1 X102.487 Y95.229 E2.18114

G1 F1800
G1 X103.476 Y96.127 E2.22297
G1 X103.780 Y96.381 E2.23537
G1 X104.248 Y96.724 E2.25355
G1 X104.806 Y97.069 E2.27410
G1 X105.463 Y97.401 E2.29713
G1 X106.905 Y97.985 E2.34587
G1 X107.890 Y98.445 E2.37990
G1 X108.416 Y98.620 E2.39727
G1 X108.527 Y98.632 E2.40076
G1 X108.527 Y102.535 E2.52298
G1 X108.232 Y102.562 E2.53226
G1 X106.764 Y102.907 E2.57948
G1 X105.395 Y103.168 E2.62312

G1 F3600
G1 X102.692 Y103.682 E2.69956
G1 X101.350 Y103.869 E2.73719
G1 X100.947 Y103.903 E2.74841
G1 X100.464 Y103.905 E2.76184
G1 X100.088 Y103.966 E2.77240
G1 X99.838 Y104.033 E2.77960
G1 X99.516 Y104.153 E2.78915
G1 X97.955 Y104.820 E2.83631
G1 X95.931 Y105.565 E2.89621
G1 X95.656 Y105.644 E2.90415
G1 X95.460 Y105.677 E2.90970
G1 X95.059 Y105.651 E2.92084
G1 X95.396 Y105.382 E2.93280
G1 X95.789 Y105.171 E2.94520
G1 X98.080 Y104.163 E3.01472
G1 X99.743 Y103.506 E3.06439
G1 X99.960 Y103.379 E3.07138
G1 X100.055 Y103.219 E3.07654
G1 X100.087 Y102.962 E3.08373
G1 X99.998 Y102.733 E3.09056
G1 X99.880 Y102.606 E3.09537
G1 X99.717 Y102.500 E3.10076
G1 X99.489 Y102.421 E3.10747
G1 X99.115 Y102.380 E3.11791
G1 X98.798 Y102.395 E3.12673
G1 X95.008 Y103.061 E3.23362
G1 X94.297 Y103.156 E3.25355
G1 X93.846 Y103.178 E3.26609
G1 X93.011 Y103.158 E3.28930
G1 X92.975 Y102.942 E3.29541
G1 X93.785 Y102.616 E3.31967
G1 X94.123 Y102.495 E3.32965
G1 X94.488 Y102.394 E3.34016
G1 X95.408 Y102.207 E3.36622
G1 X97.836 Y101.818 E3.43455
G1 X98.799 Y101.606 E3.46194
G1 X99.123 Y101.491 E3.47148
G1 X99.420 Y101.305 E3.48122
G1 X99.596 Y101.059 E3.48960
G1 X99.619 Y100.862 E3.49513
G1 X99.563 Y100.681 E3.50038
G1 X99.416 Y100.520 E3.50644
G1 X99.217 Y100.414 E3.51269
G1 X98.973 Y100.347 E3.51973
G1 X98.670 Y100.313 E3.52820
G1 X97.969 Y100.292 E3.54769
G1 X96.274 Y100.329 E3.59477
G1 X95.664 Y100.323 E3.61171
G1 X94.184 Y100.170 E3.65306
G1 X92.791 Y100.103 E3.69180
G1 X92.367 Y100.060 E3.70364
G1 X92.010 Y99.971 E3.71386
G1 X91.749 Y99.843 E3.72192
G1 X91.969 Y99.701 E3.72918
G1 X92.182 Y99.640 E3.73535
G1 X92.413 Y99.609 E3.74182
G1 X92.877 Y99.594 E3.75470
G1 X93.757 Y99.616 E3.77915
G1 X95.441 Y99.550 E3.82598
G1 X97.407 Y99.596 E3.88059
G1 X98.327 Y99.581 E3.90615
G1 X98.795 Y99.547 E3.91918
G1 X99.115 Y99.493 E3.92822
G1 X99.424 Y99.374 E3.93740
G1 X99.629 Y99.171 E3.94541
G1 X99.674 Y98.978 E3.95093
G1 X99.637 Y98.793 E3.95617
G1 X99.464 Y98.577 E3.96385
G1 X99.190 Y98.413 E3.97272
G1 X98.819 Y98.287 E3.98360
G1 X98.115 Y98.125 E4.00367
G1 X96.495 Y97.856 E4.04928
G1 X95.435 Y97.572 E4.07977
G1 X94.461 Y97.360 E4.10746
G1 X93.678 Y97.084 E4.13051
G1 X93.710 Y96.868 E4.13658
G1 X94.156 Y96.847 E4.14898
G1 X94.595 Y96.857 E4.16117
G1 X96.599 Y97.050 E4.21710
G1 X99.341 Y97.507 E4.29431
G1 X100.795 Y97.801 E4.33552
G1 X101.311 Y97.881 E4.35003
G1 X101.734 Y97.913 E4.36180
G1 X102.083 Y97.912 E4.37151
G1 X102.351 Y97.876 E4.37901
G1 X102.567 Y97.785 E4.38552
G1 X102.685 Y97.640 E4.39074

G1 F1800
G1 X102.687 Y97.638 E4.39081
G1 X103.011 Y97.670 F7800.000
G1 E2.39081 F2400.00000
G92 E0
G1 X92.613 Y102.781 F7800.000
G1 E2.00000 F2400.00000
G1 F1800
G1 X92.599 Y103.121 E2.00330
G1 X92.709 Y103.407 E2.00629
G1 X93.656 Y102.941 F7800.000
G1 F910.031
G1 X94.059 Y102.852 E2.00897
G1 F910.031
G1 X94.266 Y102.813 E2.01123
G1 F910.031
G1 X95.477 Y102.587 E2.03175
G1 X97.900 Y102.179 E2.07270
G1 X98.767 Y102.009 E2.08741
G1 F910.031
G1 X99.227 Y101.928 E2.09721
G1 X100.244 Y103.413 F7800.000
G1 F910.031
G1 X100.137 Y103.621 E2.09779
G1 F910.031
G1 X100.122 Y103.645 E2.09796
G1 X99.865 Y103.747 E2.09962
G1 F910.031
G1 X99.419 Y103.912 E2.09966
G1 X96.950 Y104.929 E2.09984
G1 E0.09984 F2400.00000
G92 E0
G1 X98.542 Y99.937 F7800.000
G1 E2.00000 F2400.00000
G1 F910.031
G1 X96.272 Y99.949 E2.03292
G1 X94.826 Y99.904 E2.05390
G1 F910.031
G1 X94.207 Y99.884 E2.05927
G1 F910.031
G1 X92.878 Y99.851 E2.06253
G1 E0.06253 F2400.00000
G92 E0
G1 X94.579 Y97.118 F7800.000
G1 E2.00000 F2400.00000
G1 F910.031
G1 X95.198 Y97.215 E2.00264
G1 F910.031
G1 X95.771 Y97.311 E2.00842
G1 F910.031
G1 X96.288 Y97.404 E2.01690
G1 F910.031
G1 X98.188 Y97.726 E2.05718
G1 X98.894 Y97.866 E2.07222
G1 X99.476 Y98.250 E2.08679
G1 E0.08679 F2400.00000
G92 E0
G1 X101.661 Y95.201 F7800.000
G1 E2.00000 F2400.00000
G1 F910.031
G1 X101.423 Y95.005 E2.00920
G1 F910.031
G1 X100.992 Y94.650 E2.02360
G1 F910.031
G1 X100.791 Y94.483 E2.02874
G1 X101.661 Y95.201 F7800.000
G1 F910.031
G1 X102.198 Y95.640 E2.05204
G1 X102.465 Y95.904 E2.06463
G1 E0.06463 F2400.00000
G92 E0
G1 X105.614 Y100.416 F7800.000
G1 E2.00000 F2400.00000

G1 F3600
G1 X105.637 Y100.371 E2.00167
G1 X106.059 Y100.472 E2.01603
G1 X106.062 Y101.175 E2.03929
G1 X106.468 Y101.863 E2.06570

G1 X107.331 Y99.810 F7800.000

G1 F3600
G1 X107.060 Y99.351 E2.08331
G1 X106.120 Y98.930 E2.11739
G1 X107.331 Y100.981 E2.19617
G1 X107.331 Y101.667 E2.21884
G1 X107.079 Y101.726 E2.22740
G1 X106.058 Y99.997 E2.29381
G1 X106.067 Y99.691 E2.30391
G1 X105.835 Y99.619 E2.31196
G1 X105.752 Y99.478 E2.31737
G1 X106.066 Y99.399 E2.32809
G1 X106.055 Y98.947 E2.34305
G1 X105.617 Y98.864 E2.35778
G1 X105.523 Y99.091 E2.36589
G1 X105.211 Y98.561 E2.38623
G1 X104.776 Y98.385 E2.40174
G1 X104.261 Y98.125 E2.42080
G1 X105.884 Y100.874 E2.52638
G1 X105.748 Y101.144 E2.53636
G1 X105.899 Y101.465 E2.54812
G1 X106.059 Y101.430 E2.55352
G1 X105.752 Y101.728 E2.56768
G1 X105.786 Y101.879 E2.57280
G1 X103.618 Y98.207 E2.71381
G1 X103.255 Y98.655 E2.73288
G1 X103.204 Y98.676 E2.73471
G1 X105.224 Y102.099 E2.86616
G1 X104.603 Y102.218 E2.88708
G1 X102.650 Y98.909 E3.01413
G1 X102.567 Y98.944 E3.01710
G1 X102.020 Y99.014 E3.03533
G1 X103.981 Y102.336 E3.16289
G1 X103.359 Y102.454 E3.18382
G1 X101.319 Y98.998 E3.31652
G1 X100.859 Y98.948 E3.33184
G1 X100.786 Y99.266 E3.34261
G1 X102.738 Y102.573 E3.46959
G1 X102.102 Y102.667 E3.49084
G1 X100.836 Y100.523 E3.57317
G1 X100.744 Y101.325 E3.59985
G1 X100.675 Y101.421 E3.60378
G1 X100.946 Y101.880 E3.62137

G1 Z1.500 F7800.000
G1 X103.515 Y97.190 F7800.000
G1 F900
G1 X103.837 Y97.415 E3.63299
G1 X104.347 Y97.718 E3.65051
G1 X105.024 Y98.065 E3.67299
G1 X106.641 Y98.763 E3.72501
G1 X107.566 Y99.212 E3.75541
G1 X107.679 Y99.250 E3.75893
G1 X107.679 Y101.826 E3.83504
G1 X106.585 Y102.082 E3.86825
G1 X102.541 Y102.875 E3.99000
G1 X101.460 Y103.048 E4.02236
G1 X100.794 Y103.116 E4.04211
G1 X100.837 Y102.831 E4.05061
G1 X100.628 Y102.238 E4.06919
G1 X100.055 Y101.733 E4.09177
G1 X100.370 Y101.352 E4.10639
G1 X100.338 Y100.377 E4.13519
G1 X99.936 Y99.977 E4.15195
G1 X100.446 Y99.403 E4.17462
G1 X100.381 Y98.501 E4.20135
G1 X101.193 Y98.656 E4.22578
G1 X102.022 Y98.722 E4.25034
G1 X102.456 Y98.683 E4.26320
G1 X102.905 Y98.521 E4.27733
G1 X103.293 Y98.179 E4.29261
G1 X103.525 Y97.675 E4.30901
G1 X103.516 Y97.265 E4.32111
G1 X102.951 Y97.924 F7800.000
G1 F900
G1 X103.106 Y97.587 E4.33205
G1 X103.097 Y97.212 E4.34314
G1 X102.989 Y96.916 E4.35246
G1 X102.741 Y96.539 E4.36579
G1 X102.432 Y96.159 E4.38026
G1 X102.081 Y95.789 E4.39535
G1 X101.608 Y95.416 E4.41315
G1 X101.736 Y95.223 E4.41999
G1 X101.874 Y95.300 E4.42464
G1 X102.378 Y95.681 E4.44332
G1 X103.021 Y96.268 E4.46902
G1 X103.551 Y96.707 E4.48937
G1 X104.064 Y97.063 E4.50782
G1 X104.549 Y97.352 E4.52452
G1 X105.202 Y97.687 E4.54619
G1 X106.815 Y98.383 E4.59808
G1 X107.725 Y98.825 E4.62797
G1 X108.097 Y98.950 E4.63957
G1 X108.097 Y102.157 E4.73434
G1 X106.673 Y102.490 E4.77756
G1 X102.615 Y103.286 E4.89974
G1 X101.514 Y103.462 E4.93268
G1 X100.099 Y103.607 E4.97471
G1 X100.348 Y103.273 E4.98702
G1 X100.409 Y102.872 E4.99900
G1 X100.270 Y102.480 E5.01129
G1 X99.930 Y102.180 E5.02468
G1 X99.514 Y102.041 E5.03765
G1 X99.280 Y102.024 E5.04460
G1 X99.239 Y101.843 E5.05008
G1 X99.586 Y101.645 E5.06187
G1 X99.947 Y101.208 E5.07864
G1 X99.926 Y100.557 E5.09788
G1 X99.537 Y100.169 E5.11410
G1 X98.986 Y99.943 E5.13171
G1 X99.635 Y99.688 E5.15232
G1 X100.016 Y99.258 E5.16931
G1 X99.970 Y98.614 E5.18837
G1 X99.598 Y98.232 E5.20414
G1 X99.222 Y98.048 E5.21649
G1 X99.295 Y97.838 E5.22305
G1 X100.707 Y98.144 E5.26574
G1 X101.247 Y98.241 E5.28193
G1 X102.020 Y98.302 E5.30485
G1 X102.365 Y98.271 E5.31508
G1 X102.689 Y98.155 E5.32526
G1 X102.894 Y97.974 E5.33336
G1 X102.271 Y97.848 F7800.000
G1 F1800
G1 X102.466 Y97.778 E5.33983
G1 X102.598 Y97.661 E5.34534
G1 X102.673 Y97.498 E5.35099
G1 X102.669 Y97.293 E5.35741
G1 X102.602 Y97.111 E5.36348
G1 X102.394 Y96.794 E5.37536
G1 X102.109 Y96.443 E5.38951
G1 X101.790 Y96.108 E5.40400
G1 X101.143 Y95.597 E5.42980
G1 X100.788 Y95.288 E5.44454
G1 X100.480 Y94.969 E5.45844
G1 X100.392 Y94.837 E5.46340
G1 X100.359 Y94.703 E5.46773
G1 X100.370 Y94.588 E5.47135
G1 X100.484 Y94.333 E5.48009
G1 X100.641 Y94.164 E5.48730
G1 X101.458 Y94.642 E5.51695
G1 X101.636 Y94.732 E5.52319
G1 X101.691 Y94.705 E5.52512
G1 X102.109 Y94.939 E5.54012
G1 X102.654 Y95.350 E5.56147
G1 X103.303 Y95.943 E5.58902
G1 X103.812 Y96.364 E5.60969
G1 X104.297 Y96.701 E5.62820
G1 X104.758 Y96.976 E5.64499
G1 X105.386 Y97.297 E5.66709
G1 X106.994 Y97.992 E5.72194
G1 X107.888 Y98.426 E5.75306
G1 X108.415 Y98.603 E5.77048
G1 X108.527 Y98.616 E5.77401
G1 X108.527 Y102.540 E5.89689
G1 X108.232 Y102.568 E5.90617
G1 X106.763 Y102.911 E5.95341
G1 X102.690 Y103.710 E6.08339
G1 X101.570 Y103.889 E6.11891
G1 X100.463 Y104.002 E6.15375
G1 X99.896 Y104.215 E6.17271
G1 X98.024 Y105.014 E6.23647
G1 X95.940 Y105.777 E6.30594
G1 X95.587 Y105.875 E6.31742
G1 X95.277 Y105.919 E6.32721
G1 X95.074 Y105.905 E6.33360
G1 X94.912 Y105.849 E6.33896
G1 X94.813 Y105.775 E6.34284
G1 X94.829 Y105.654 E6.34664
G1 X94.930 Y105.478 E6.35300
G1 X95.053 Y105.357 E6.35840
G1 X95.204 Y105.248 E6.36424
G1 X95.699 Y104.989 E6.38173
G1 X97.685 Y104.111 E6.44973
G1 X98.432 Y103.808 E6.47499
G1 X99.688 Y103.343 E6.51690
G1 X99.825 Y103.254 E6.52204
G1 X99.939 Y103.102 E6.52799
G1 X99.967 Y102.914 E6.53393
G1 X99.902 Y102.729 E6.54009
G1 X99.711 Y102.561 E6.54804
G1 X99.428 Y102.466 E6.55739
G1 X99.109 Y102.442 E6.56742
G1 X98.826 Y102.460 E6.57631
G1 X98.426 Y102.524 E6.58897
G1 X95.910 Y103.025 E6.66931
G1 X94.387 Y103.293 E6.71773
G1 X93.560 Y103.402 E6.74387
G1 X92.812 Y103.426 E6.76729
G1 X92.666 Y103.405 E6.77192
G1 X92.558 Y103.365 E6.77552
G1 X92.437 Y103.255 E6.78065
G1 X92.402 Y103.103 E6.78555
G1 X92.418 Y103.015 E6.78834
G1 X92.476 Y102.915 E6.79196
G1 X92.575 Y102.824 E6.79616
G1 X92.704 Y102.754 E6.80075
G1 X93.577 Y102.477 E6.82945
G1 X94.073 Y102.350 E6.84546
G1 X95.250 Y102.125 E6.88300
G1 X97.786 Y101.760 E6.96322
G1 X98.690 Y101.577 E6.99211
G1 X99.052 Y101.454 E7.00409
G1 X99.305 Y101.310 E7.01318
G1 X99.512 Y101.059 E7.02339
G1 X99.502 Y100.741 E7.03335
G1 X99.295 Y100.535 E7.04251
G1 X99.073 Y100.444 E7.05000
G1 X98.559 Y100.375 E7.06624
G1 X97.889 Y100.372 E7.08722
G1 X96.250 Y100.435 E7.13858
G1 X95.649 Y100.437 E7.15741
G1 X94.179 Y100.311 E7.20360
G1 X92.737 Y100.250 E7.24882
G1 X92.213 Y100.203 E7.26529
G1 X92.034 Y100.171 E7.27096
G1 X91.809 Y100.105 E7.27830
G1 X91.717 Y100.059 E7.28154
G1 X91.594 Y99.935 E7.28701
G1 X91.566 Y99.795 E7.29146
G1 X91.589 Y99.723 E7.29384
G1 X91.660 Y99.632 E7.29745
G1 X91.786 Y99.556 E7.30205
G1 X92.036 Y99.488 E7.31016
G1 X92.336 Y99.454 E7.31963
G1 X92.776 Y99.444 E7.33341
G1 X93.755 Y99.472 E7.36409
G1 X95.246 Y99.429 E7.41079
G1 X97.479 Y99.511 E7.48078
G1 X98.354 Y99.513 E7.50815
G1 X98.768 Y99.490 E7.52114
G1 X99.096 Y99.438 E7.53154
G1 X99.381 Y99.325 E7.54115
G1 X99.574 Y99.108 E7.55026
G1 X99.552 Y98.801 E7.55987
G1 X99.342 Y98.585 E7.56932
G1 X99.066 Y98.450 E7.57893
G1 X98.716 Y98.343 E7.59040
G1 X98.049 Y98.206 E7.61173
G1 X96.563 Y97.987 E7.65876
G1 X95.400 Y97.747 E7.69595
G1 X94.364 Y97.571 E7.72886
G1 X93.773 Y97.419 E7.74797
G1 X93.406 Y97.297 E7.76007
G1 X93.273 Y97.208 E7.76509
G1 X93.163 Y97.066 E7.77072
G1 X93.123 Y96.953 E7.77447
G1 X93.120 Y96.861 E7.77737
G1 X93.162 Y96.730 E7.78166
G1 X93.207 Y96.676 E7.78385
G1 X93.300 Y96.615 E7.78735
G1 X93.442 Y96.571 E7.79199
G1 X93.696 Y96.553 E7.79997
G1 X94.159 Y96.569 E7.81448
G1 X96.477 Y96.908 E7.88783
G1 X99.350 Y97.410 E7.97916
G1 X100.791 Y97.722 E8.02534
G1 X101.302 Y97.814 E8.04159
G1 X102.018 Y97.871 E8.06408
G1 X102.197 Y97.855 E8.06971
G1 X102.411 Y98.000 F7800.000
G1 X103.255 Y96.907 F7800.000
G1 F1200
G1 X103.235 Y96.797 E8.06984
G1 X103.076 Y96.619 E8.07012
G1 X101.480 Y95.220 F7800.000
G1 F1200
G1 X100.998 Y94.878 E8.08724
G1 F1200
G1 X100.793 Y94.717 E8.09340
G1 F1200
G1 X100.742 Y94.659 E8.09485
G1 X100.662 Y94.458 E8.09890
G1 E6.09890 F2400.00000
G92 E0
G1 X99.052 Y97.883 F7800.000
G1 E2.00000 F2400.00000
G1 F1200
G1 X98.128 Y97.708 E2.03253
G1 X94.464 Y97.100 E2.16109
G1 F1200
G1 X93.897 Y96.998 E2.17842
G1 F1200
G1 X93.703 Y96.964 E2.18314
G1 F1200
G1 X93.528 Y96.935 E2.18669
G1 F1200
G1 X93.481 Y96.917 E2.18740
G1 F1200
G1 X93.437 Y96.900 E2.18790
G1 E0.18790 F2400.00000
G92 E0
G1 X94.211 Y99.886 F7800.000
G1 E2.00000 F2400.00000
G1 F1200
G1 X92.362 Y99.834 E2.04134
G1 F1200
G1 X92.114 Y99.831 E2.04527
G1 F1200
G1 X91.799 Y99.804 E2.04887
G1 E0.04887 F2400.00000
G92 E0
G1 X94.211 Y99.886 F7800.000
G1 E2.00000 F2400.00000
G1 F1200
G1 X94.900 Y99.905 E2.01923
G1 F1200
G1 X96.240 Y99.950 E2.06238
G1 F1200
G1 X97.467 Y99.949 E2.09588
G1 F1200
G1 X98.194 Y99.943 E2.11250
G1 X98.988 Y101.707 F7800.000
G1 F1200
G1 X98.815 Y102.009 E2.12145
G1 X96.498 Y102.424 E2.18189
G1 F1200
G1 X93.704 Y102.919 E2.27175
G1 F1200
G1 X93.353 Y102.989 E2.28141
G1 F1200
G1 X93.012 Y103.047 E2.28880
G1 F1200
G1 X92.625 Y103.135 E2.29461
G1 E0.29461 F2400.00000
G92 E0
G1 X95.074 Y105.650 F7800.000
G1 E2.00000 F2400.00000
G1 F1200
G1 X95.511 Y105.509 E2.00676
G1 F1200
G1 X95.816 Y105.388 E2.01321
G1 F1200
G1 X96.534 Y105.096 E2.03149
G1 F1200
G1 X99.402 Y103.932 E2.12166
G1 E0.12166 F2400.00000
G92 E0
G1 X100.674 Y99.175 F7800.000
G1 E2.00000 F2400.00000
G1 F1200
G1 X100.999 Y98.851 E2.01365
G1 X101.300 Y98.908 E2.02274
G1 X101.518 Y98.925 E2.02925
G1 X100.557 Y99.886 E2.06961
G1 X100.348 Y100.122 E2.07897
G1 X100.588 Y100.361 E2.08902
G1 X100.591 Y100.446 E2.09157
G1 X102.068 Y98.969 E2.15363
G1 X102.186 Y98.978 E2.15715
G1 X102.698 Y98.932 E2.17242
G1 X100.609 Y101.021 E2.26016
G1 X100.628 Y101.597 E2.27725
G1 X104.305 Y97.920 E2.43167
G1 X104.688 Y98.116 E2.44447
G1 X100.736 Y102.082 E2.61076
G1 X100.823 Y102.159 E2.61422
G1 X100.935 Y102.477 E2.62422
G1 X105.095 Y98.318 E2.79891
G1 X105.509 Y98.497 E2.81233
G1 X101.206 Y102.800 E2.99307
G1 X101.910 Y102.690 E3.01424
G1 X105.924 Y98.676 E3.18283
G1 X106.339 Y98.855 E3.19624
G1 X102.631 Y102.563 E3.35197
G1 X103.370 Y102.418 E3.37433
G1 X106.749 Y99.038 E3.51626
G1 X107.149 Y99.232 E3.52946
G1 X104.108 Y102.273 E3.65716
G1 X104.847 Y102.128 E3.67951
G1 X107.424 Y99.551 E3.78775
G1 X107.424 Y100.145 E3.80538
G1 X105.586 Y101.983 E3.88259
G1 X106.324 Y101.838 E3.90495
G1 X107.424 Y100.738 E3.95113
G1 X107.424 Y101.332 E3.96877
G1 X107.099 Y101.657 E3.98242
M106 S242.25
G1 Z2.000 F7800.000
G1 X103.627 Y97.365 F7800.000
G1 F900
G1 X104.008 Y97.600 E3.99563
G1 X104.805 Y98.036 E4.02247
G1 X105.409 Y98.313 E4.04210
G1 X106.647 Y98.822 E4.08167
G1 X107.679 Y99.301 E4.11528
G1 X107.679 Y101.775 E4.18838
G1 X106.594 Y102.024 E4.22126
G1 X104.957 Y102.321 E4.27045
G1 X102.184 Y102.875 E4.35400
G1 X101.383 Y102.977 E4.37785
G1 X101.058 Y102.996 E4.38746
G1 X101.068 Y102.713 E4.39583
G1 X100.837 Y102.136 E4.41420
G1 X100.389 Y101.704 E4.43258
G1 X100.687 Y101.098 E4.45255
G1 X100.564 Y100.266 E4.47738
G1 X100.248 Y99.947 E4.49067
G1 X100.537 Y99.676 E4.50237
G1 X100.722 Y99.099 E4.52026
G1 X100.669 Y98.666 E4.53317
G1 X101.384 Y98.752 E4.55445
G1 X101.921 Y98.777 E4.57035
G1 X102.296 Y98.757 E4.58142
G1 X102.710 Y98.678 E4.59388
G1 X103.107 Y98.483 E4.60697
G1 X103.456 Y98.119 E4.62185
G1 X103.642 Y97.618 E4.63765
G1 X103.632 Y97.440 E4.64291
G1 E2.64291 F2400.00000
G92 E0
G1 X100.296 Y99.059 F7800.000
G1 E2.00000 F2400.00000
G1 F900
G1 X100.246 Y98.649 E2.01222
G1 X99.861 Y98.117 E2.03161
G1 X100.930 Y98.284 E2.06358
G1 X101.416 Y98.336 E2.07800
G1 X101.920 Y98.358 E2.09292
G1 X102.245 Y98.342 E2.10254
G1 X102.576 Y98.278 E2.11249
G1 X102.857 Y98.140 E2.12174
G1 X103.094 Y97.892 E2.13189
G1 X103.220 Y97.555 E2.14253
G1 X103.197 Y97.171 E2.15388
G1 X103.025 Y96.790 E2.16624
G1 X102.921 Y96.649 E2.17142
G1 X103.069 Y96.497 E2.17769
G1 X103.512 Y96.803 E2.19360
G1 X104.218 Y97.239 E2.21812
G1 X104.992 Y97.662 E2.24419
G1 X105.575 Y97.930 E2.26315
G1 X106.815 Y98.439 E2.30274
G1 X107.823 Y98.907 E2.33559
G1 X108.097 Y98.992 E2.34406
G1 X108.097 Y102.108 E2.43610
G1 X106.679 Y102.433 E2.47909
G1 X105.035 Y102.732 E2.52845
G1 X102.251 Y103.288 E2.61233
G1 X101.422 Y103.394 E2.63704
G1 X100.538 Y103.445 E2.66318
G1 X100.633 Y103.199 E2.67097
G1 X100.648 Y102.787 E2.68317
G1 X100.482 Y102.375 E2.69629
G1 X100.205 Y102.107 E2.70768
G1 X99.888 Y101.952 E2.71809
G1 X99.583 Y101.872 E2.72741
G1 X100.031 Y101.486 E2.74488
G1 X100.255 Y101.030 E2.75987
G1 X100.171 Y100.463 E2.77682
G1 X99.783 Y100.071 E2.79310
G1 X99.473 Y99.929 E2.80319
G1 X99.811 Y99.783 E2.81408
G1 X100.172 Y99.445 E2.82871
G1 X100.273 Y99.131 E2.83846
G1 X99.797 Y99.207 F7800.000
G1 F1800
G1 X99.858 Y99.018 E2.84470
G1 X99.833 Y98.811 E2.85121
G1 X99.651 Y98.560 E2.86091
G1 X99.374 Y98.365 E2.87153
G1 X99.107 Y98.253 E2.88059
G1 X98.396 Y98.034 E2.90390
G1 X96.666 Y97.693 E2.95912
G1 X96.436 Y97.622 E2.96665
G1 X96.101 Y97.476 E2.97808
G1 X96.144 Y97.265 E2.98482
G1 X96.585 Y97.262 E2.99861
G1 X97.026 Y97.303 E3.01249
G1 X98.579 Y97.535 E3.06166
G1 X100.013 Y97.705 E3.10689
G1 X100.986 Y97.857 E3.13772
G1 X101.448 Y97.907 E3.15226
G1 X101.919 Y97.928 E3.16701
G1 X102.193 Y97.914 E3.17563
G1 X102.438 Y97.867 E3.18344
G1 X102.599 Y97.788 E3.18904
G1 X102.722 Y97.659 E3.19462
G1 X102.785 Y97.490 E3.20028
G1 X102.773 Y97.276 E3.20699
G1 X102.652 Y97.008 E3.21618
G1 X101.924 Y96.019 E3.25463
G1 X101.690 Y95.793 E3.26482
G1 X100.779 Y95.070 E3.30125
G1 X100.592 Y94.881 E3.30957
G1 X100.729 Y94.698 E3.31675
G1 X101.264 Y94.986 E3.33577
G1 X101.539 Y95.109 E3.34522
G1 X101.593 Y95.038 E3.34801
G1 X101.885 Y95.163 E3.35797
G1 X102.166 Y95.314 E3.36795
G1 X102.557 Y95.572 E3.38263
G1 X103.258 Y96.104 E3.41018
G1 X103.748 Y96.443 E3.42883
G1 X104.434 Y96.867 E3.45410
G1 X105.185 Y97.278 E3.48091
G1 X105.747 Y97.536 E3.50025
G1 X106.987 Y98.045 E3.54224
G1 X107.979 Y98.505 E3.57647
G1 X108.419 Y98.642 E3.59090
G1 X108.527 Y98.654 E3.59432
G1 X108.527 Y102.491 E3.71446
G1 X108.233 Y102.518 E3.72372
G1 X106.765 Y102.854 E3.77087
G1 X105.116 Y103.154 E3.82337
G1 X102.320 Y103.713 E3.91263
G1 X101.461 Y103.822 E3.93975
G1 X100.486 Y103.879 E3.97036
G1 X100.151 Y103.918 E3.98091
G1 X99.388 Y104.063 E4.00523
G1 X99.308 Y103.845 E4.01250
G1 X99.834 Y103.567 E4.03115
G1 X100.103 Y103.379 E4.04140
G1 X100.206 Y103.112 E4.05036
G1 X100.215 Y102.863 E4.05818
G1 X100.117 Y102.620 E4.06635
G1 X99.955 Y102.464 E4.07342
G1 X99.738 Y102.357 E4.08098
G1 X99.513 Y102.299 E4.08827
G1 X99.249 Y102.269 E4.09659
G1 X98.987 Y102.271 E4.10479
G1 X98.358 Y102.351 E4.12464
G1 X96.132 Y102.709 E4.19524
G1 X95.202 Y102.812 E4.22455
G1 X94.894 Y102.810 E4.23421
G1 X94.851 Y102.598 E4.24100
G1 X95.023 Y102.526 E4.24683
G1 X95.725 Y102.341 E4.26956
G1 X97.919 Y101.913 E4.33957
G1 X98.848 Y101.682 E4.36953
G1 X99.178 Y101.571 E4.38043
G1 X99.428 Y101.438 E4.38928
G1 X99.684 Y101.217 E4.39988
G1 X99.810 Y100.961 E4.40882
G1 X99.766 Y100.665 E4.41819
G1 X99.533 Y100.430 E4.42856
G1 X99.243 Y100.298 E4.43853
G1 X98.956 Y100.240 E4.44771
G1 X98.069 Y100.168 E4.47556
G1 X96.315 Y100.154 E4.53049
G1 X95.721 Y100.127 E4.54913
G1 X95.060 Y100.026 E4.57005
G1 X95.071 Y99.799 E4.57717
G1 X95.412 Y99.762 E4.58791
G1 X97.641 Y99.732 E4.65770
G1 X98.466 Y99.681 E4.68361
G1 X98.976 Y99.613 E4.69969
G1 X99.257 Y99.554 E4.70870
G1 X99.572 Y99.418 E4.71943
G1 X99.742 Y99.258 E4.72674
G1 X99.996 Y99.211 F7800.000
G1 E2.72674 F2400.00000
G92 E0
G1 X100.337 Y94.607 F7800.000
G1 E2.00000 F2400.00000
G1 F1800
G1 X100.254 Y94.779 E2.00134
G1 X100.337 Y94.607 F7800.000
G1 F1800
G1 X100.503 Y94.263 E2.00597
G1 E0.00597 F2400.00000
G92 E0
G1 X94.791 Y99.898 F7800.000
G1 E2.00000 F2400.00000
G1 F1800
G1 X94.216 Y99.882 E2.01960
G1 F1800
G1 X94.003 Y99.887 E2.02536
G1 F1800
G1 X93.352 Y99.867 E2.04055
G1 F1800
G1 X92.965 Y99.860 E2.04725
G1 F1800
G1 X92.930 Y99.855 E2.04767
G1 E0.04767 F2400.00000
G92 E0
G1 X97.975 Y102.158 F7800.000
G1 E2.00000 F2400.00000
G1 F1200
G1 X98.625 Y102.030 E2.00145
G1 F1200
G1 X99.034 Y101.954 E2.00429
G1 E0.00429 F2400.00000
G92 E0
G1 X98.858 Y99.931 F7800.000
G1 E2.00000 F2400.00000
G1 F1200
G1 X98.493 Y99.940 E2.00160
G1 E0.00160 F2400.00000
G92 E0
G1 X99.604 Y98.207 F7800.000
G1 E2.00000 F2400.00000
G1 F1200
G1 X99.179 Y97.823 E2.00104
G1 X98.991 Y97.895 F7800.000
G1 F1200
G1 X98.545 Y97.800 E2.00360
G1 X98.991 Y97.895 F7800.000
G1 F1200
G1 X99.529 Y98.024 E2.00960
G1 E0.00960 F2400.00000
G92 E0
G1 X101.600 Y95.406 F7800.000
G1 E2.00000 F2400.00000
G1 F1200
G1 X101.658 Y95.413 E2.00007
G1 F1200
G1 X101.692 Y95.408 E2.00028
G1 X101.750 Y95.444 E2.00069
G1 F1200
G1 X101.991 Y95.608 E2.00370
G1 F1200
G1 X102.269 Y95.841 E2.00960
G1 F1200
G1 X102.499 Y96.071 E2.01658
G1 F1200
G1 X102.843 Y96.420 E2.03031
G1 X107.424 Y99.730 F7800.000
G1 F1200
G1 X107.099 Y99.405 E2.04475
G1 X105.963 Y98.897 E2.08382
G1 X107.424 Y100.358 E2.14870
G1 X107.424 Y100.986 E2.16842
G1 X104.881 Y98.443 E2.28134
G1 X104.455 Y98.247 E2.29608
G1 X103.770 Y97.873 E2.32058
G1 X103.747 Y97.936 E2.32269
G1 X107.417 Y101.606 E2.48569
G1 X106.906 Y101.723 E2.50214
G1 X103.513 Y98.331 E2.65282
G1 X103.206 Y98.651 E2.66676
G1 X106.384 Y101.829 E2.80790
G1 X105.853 Y101.926 E2.82485
G1 X102.789 Y98.862 E2.96092
G1 X102.681 Y98.915 E2.96471
G1 X102.289 Y98.990 E2.97723
G1 X105.322 Y102.023 E3.11190
G1 X104.794 Y102.123 E3.12876
G1 X101.701 Y99.030 E3.26613
G1 X101.031 Y98.988 E3.28721
G1 X104.271 Y102.227 E3.43109
G1 X103.748 Y102.332 E3.44785
G1 X100.841 Y99.426 E3.57692
G1 X100.739 Y99.744 E3.58743
G1 X100.684 Y99.796 E3.58979
G1 X100.795 Y99.908 E3.59473
G1 X100.812 Y100.024 E3.59843
G1 X103.224 Y102.437 E3.70557
G1 X102.701 Y102.541 E3.72233
G1 X100.921 Y100.761 E3.80139
G1 X100.957 Y101.003 E3.80906
G1 X100.818 Y101.286 E3.81896
G1 X102.171 Y102.639 E3.87907
G1 X101.614 Y102.710 E3.89670
G1 X101.289 Y102.385 E3.91114
M106 S247.35
G1 Z2.500 F7800.000
G1 E1.91114 F2400.00000
G92 E0
G1 X102.153 Y99.028 F7800.000
G1 E2.00000 F2400.00000
G1 F900
G1 X102.731 Y98.928 E2.01734
G1 X103.131 Y98.796 E2.02979
G1 X103.480 Y98.605 E2.04154
G1 X103.870 Y98.199 E2.05817
G1 X103.972 Y97.872 E2.06830
G1 X104.905 Y98.436 E2.10053
G1 X105.547 Y98.733 E2.12142
G1 X107.679 Y99.538 E2.18876
G1 X107.679 Y101.552 E2.24829
G1 X106.948 Y101.758 E2.27073
G1 X106.600 Y101.836 E2.28126
G1 X105.361 Y102.054 E2.31844
G1 X102.952 Y102.533 E2.39099
G1 X102.332 Y102.612 E2.40947
G1 X102.134 Y101.763 E2.43522
G1 X102.108 Y101.556 E2.44139
G1 X102.152 Y99.103 E2.51387
G1 X101.742 Y98.659 F7800.000
G1 F900
G1 X102.270 Y98.592 E2.52961
G1 X102.625 Y98.523 E2.54030
G1 X102.964 Y98.411 E2.55085
G1 X103.224 Y98.269 E2.55958
G1 X103.500 Y97.981 E2.57139
G1 X103.626 Y97.577 E2.58388
G1 X103.578 Y97.167 E2.59608
G1 X103.967 Y97.381 E2.60918
G1 X105.101 Y98.066 E2.64835
G1 X105.708 Y98.348 E2.66811
G1 X107.935 Y99.188 E2.73843
G1 X108.097 Y99.228 E2.74335
G1 X108.097 Y101.869 E2.82138
G1 X107.050 Y102.163 E2.85351
G1 X106.682 Y102.245 E2.86464
G1 X105.438 Y102.465 E2.90198
G1 X103.019 Y102.946 E2.97483
G1 X102.364 Y103.029 E2.99437
G1 X101.922 Y103.033 E3.00741
G1 X101.891 Y102.557 E3.02149
G1 X101.723 Y101.837 E3.04335
G1 X101.690 Y101.579 E3.05105
G1 X101.740 Y98.734 E3.13511
G1 X103.120 Y97.757 F7800.000
G1 F900
G1 X103.188 Y97.537 E3.14233
G1 X103.157 Y97.273 E3.15063
G1 X103.065 Y97.040 E3.15850
G1 X102.758 Y96.461 E3.17900
G1 X103.065 Y96.495 E3.18868
G1 X103.178 Y96.525 E3.19234
G1 X103.665 Y96.724 E3.20880
G1 X104.182 Y97.008 E3.22727
G1 X105.304 Y97.686 E3.26832
G1 X105.875 Y97.951 E3.28804
G1 X108.063 Y98.776 E3.36128
G1 X108.527 Y98.891 E3.37625
G1 X108.527 Y102.218 E3.48041
G1 X108.211 Y102.283 E3.49052
G1 X107.155 Y102.580 E3.52487
G1 X106.767 Y102.667 E3.53733
G1 X105.517 Y102.888 E3.57707
G1 X103.088 Y103.371 E3.65461
G1 X102.393 Y103.459 E3.67657
G1 X101.871 Y103.464 E3.69291
G1 X101.515 Y103.399 E3.70424
G1 X101.464 Y102.621 E3.72864
G1 X101.299 Y101.913 E3.75140
G1 X101.259 Y101.602 E3.76122
G1 X101.314 Y98.499 E3.85841
G1 X101.335 Y98.342 E3.86337
G1 X101.452 Y98.277 E3.86758
G1 X101.587 Y98.245 E3.87193
G1 X102.202 Y98.167 E3.89133
G1 X102.516 Y98.106 E3.90135
G1 X102.792 Y98.015 E3.91047
G1 X102.959 Y97.924 E3.91642
G1 X103.068 Y97.811 E3.92132
G1 X103.350 Y97.752 F7800.000
G1 X103.295 Y96.931 F7800.000
G1 F1200
G1 X103.250 Y96.787 E3.92132
G1 E1.92132 F2400.00000
G92 E0
G1 X102.402 Y99.543 F7800.000
G1 E2.00000 F2400.00000
G1 F900
G1 X102.727 Y99.218 E2.01369
G1 X102.995 Y99.172 E2.02180
G1 X103.461 Y99.018 E2.03641
G1 X103.598 Y98.943 E2.04105
G1 X102.391 Y100.150 E2.09188
G1 X102.380 Y100.756 E2.10995
G1 X104.636 Y98.501 E2.20498
G1 X105.020 Y98.712 E2.21805
G1 X102.370 Y101.362 E2.32972
G1 X102.364 Y101.696 E2.33965
G1 X102.401 Y101.927 E2.34662
G1 X105.427 Y98.900 E2.47413
G1 X105.852 Y99.071 E2.48777
G1 X102.628 Y102.295 E2.62361
G1 X103.363 Y102.156 E2.64590
G1 X106.285 Y99.234 E2.76900
G1 X106.717 Y99.397 E2.78277
G1 X104.106 Y102.008 E2.89277
G1 X104.850 Y101.860 E2.91535
G1 X107.150 Y99.561 E3.01224
G1 X107.424 Y99.664 E3.02098
G1 X107.424 Y99.882 E3.02747
G1 X105.581 Y101.725 E3.10513
G1 X106.304 Y101.597 E3.12702
G1 X107.424 Y100.477 E3.17420
G1 X107.424 Y101.073 E3.19195
G1 X107.099 Y101.398 E3.20564
G1 E1.20564 F2400.00000
G92 E0
M107
; Filament-specific end gcode 
;END gcode for filament

M104 S0 ; turn off temperature
G28 X0  ; home X axis
M84     ; disable motors

M140 S0 ; set bed temperature
; filament used = 22.6mm (0.2cm3)
; total filament cost = 0.0

; avoid_crossing_perimeters = 0
; bed_shape = 0x0,200x0,200x200,0x200
; bed_temperature = 0
; before_layer_gcode = 
; between_objects_gcode = 
; bridge_acceleration = 0
; bridge_fan_speed = 100
; brim_connections_width = 0
; brim_width = 0
; complete_objects = 0
; cooling = 1
; default_acceleration = 0
; disable_fan_first_layers = 3
; duplicate_distance = 6
; end_filament_gcode = "; Filament-specific end gcode \n;END gcode for filament\n"
; end_gcode = M104 S0 ; turn off temperature\nG28 X0  ; home X axis\nM84     ; disable motors\n
; extruder_clearance_height = 20
; extruder_clearance_radius = 20
; extruder_offset = 0x0
; extrusion_axis = E
; extrusion_multiplier = 1
; fan_always_on = 0
; fan_below_layer_time = 60
; filament_colour = #FFFFFF
; filament_cost = 0
; filament_density = 0
; filament_diameter = 3
; filament_max_volumetric_speed = 0
; filament_notes = ""
; first_layer_acceleration = 0
; first_layer_bed_temperature = 0
; first_layer_extrusion_width = 200%
; first_layer_speed = 30
; first_layer_temperature = 205
; gcode_arcs = 0
; gcode_comments = 0
; gcode_flavor = reprap
; has_heatbed = 1
; infill_acceleration = 0
; infill_first = 0
; interior_brim_width = 0
; layer_gcode = 
; max_fan_speed = 100
; max_layer_height = 0.3
; max_print_speed = 80
; max_volumetric_speed = 0
; min_fan_speed = 35
; min_layer_height = 0.15
; min_print_speed = 10
; min_skirt_length = 0
; notes = 
; nozzle_diameter = 0.5
; only_retract_when_crossing_perimeters = 1
; ooze_prevention = 0
; output_filename_format = [input_filename_base].gcode
; perimeter_acceleration = 0
; post_process = 
; pressure_advance = 0
; printer_notes = 
; resolution = 0
; retract_before_travel = 2
; retract_layer_change = 0
; retract_length = 2
; retract_length_toolchange = 10
; retract_lift = 0
; retract_lift_above = 0
; retract_lift_below = 0
; retract_restart_extra = 0
; retract_restart_extra_toolchange = 0
; retract_speed = 40
; skirt_distance = 6
; skirt_height = 1
; skirts = 0
; slowdown_below_layer_time = 5
; spiral_vase = 0
; standby_temperature_delta = -5
; start_filament_gcode = "; Filament gcode\n"
; start_gcode = G28 ; home all axes\nG1 Z5 F5000 ; lift nozzle\n
; temperature = 200
; threads = 8
; toolchange_gcode = 
; travel_speed = 130
; use_firmware_retraction = 0
; use_relative_e_distances = 0
; use_set_and_wait_bed = 0
; use_set_and_wait_extruder = 0
; use_volumetric_e = 0
; vibration_limit = 0
; wipe = 0
; z_offset = 0
; z_steps_per_mm = 0
; adaptive_slicing = 0
; adaptive_slicing_quality = 75%
; dont_support_bridges = 1
; extrusion_width = 0
; first_layer_height = 0.5
; infill_only_where_needed = 0
; interface_shells = 0
; layer_height = 0.5
; match_horizontal_surfaces = 0
; raft_layers = 0
; regions_overlap = 0
; seam_position = aligned
; sequential_print_priority = 0
; support_material = 0
; support_material_angle = 0
; support_material_buildplate_only = 0
; support_material_contact_distance = 0.2
; support_material_enforce_layers = 0
; support_material_extruder = 1
; support_material_extrusion_width = 0
; support_material_interface_extruder = 1
; support_material_interface_extrusion_width = 0
; support_material_interface_layers = 3
; support_material_interface_spacing = 0
; support_material_interface_speed = 100%
; support_material_max_layers = 0
; support_material_pattern = pillars
; support_material_spacing = 2.5
; support_material_speed = 60
; support_material_threshold = 60%
; xy_size_compensation = 0
; bottom_infill_pattern = rectilinear
; bottom_solid_layers = 3
; bridge_flow_ratio = 1
; bridge_speed = 60
; external_perimeter_extrusion_width = 0
; external_perimeter_speed = 50%
; external_perimeters_first = 0
; extra_perimeters = 1
; fill_angle = 45
; fill_density = 20%
; fill_gaps = 1
; fill_pattern = stars
; gap_fill_speed = 20
; infill_every_layers = 1
; infill_extruder = 1
; infill_extrusion_width = 0
; infill_overlap = 55%
; infill_speed = 80
; overhangs = 1
; perimeter_extruder = 1
; perimeter_extrusion_width = 0
; perimeter_speed = 60
; perimeters = 3
; small_perimeter_speed = 15
; solid_infill_below_area = 70
; solid_infill_every_layers = 0
; solid_infill_extruder = 1
; solid_infill_extrusion_width = 0
; solid_infill_speed = 20
; thin_walls = 1
; top_infill_extrusion_width = 0
; top_infill_pattern = rectilinear
; top_solid_infill_speed = 15
; top_solid_layers = 3
