; generated by Slic3r 1.3.0 on 2019-04-29 at 16:15:23

; external perimeters extrusion width = 0.55mm (4.37mm^3/s)
; perimeters extrusion width = 0.70mm (11.44mm^3/s)
; infill extrusion width = 0.63mm (13.45mm^3/s)
; solid infill extrusion width = 0.70mm (3.81mm^3/s)
; top infill extrusion width = 0.70mm (2.86mm^3/s)

M107
M104 S205 ; set temperature
G28 ; home all axes
G1 Z5 F5000 ; lift nozzle

; Filament gcode

M109 S205 ; set temperature and wait for it to be reached
G21 ; set units to millimeters
G90 ; use absolute coordinates
M82 ; use absolute distances for extrusion
G92 E0
G1 Z0.300 F7800.000
G1 E-2.00000 F2400.00000
G92 E0
G1 X96.871 Y95.371 F7800.000
G1 E2.00000 F2400.00000
G1 F1800
G1 X103.129 Y95.371 E2.14225
G1 X103.129 Y104.629 E2.35269
G1 X96.871 Y104.629 E2.49494
G1 X96.871 Y95.446 E2.70368
G1 X96.336 Y94.836 F7800.000
G1 F1800
G1 X103.664 Y94.836 E2.87028
G1 X103.664 Y105.164 E3.10508
G1 X96.336 Y105.164 E3.27168
G1 X96.336 Y94.911 E3.50477
G1 X95.800 Y94.300 F7800.000
G1 F1800
G1 X104.200 Y94.300 E3.69573
G1 X104.200 Y105.700 E3.95488
G1 X95.800 Y105.700 E4.14583
G1 X95.800 Y94.375 E4.40327
G1 X96.276 Y94.453 F7800.000
G1 E2.40327 F2400.00000
G92 E0
G1 X97.199 Y96.115 F7800.000
G1 E2.00000 F2400.00000
G1 F1800
G1 X97.615 Y95.699 E2.01391
G1 X98.402 Y95.699 E2.03248
G1 X97.199 Y96.902 E2.07265
G1 X97.199 Y97.689 E2.09122
G1 X99.189 Y95.699 E2.15766
G1 X99.975 Y95.699 E2.17623
G1 X97.199 Y98.475 E2.26892
G1 X97.199 Y99.262 E2.28749
G1 X100.762 Y95.699 E2.40645
G1 X101.548 Y95.699 E2.42502
G1 X97.199 Y100.048 E2.57023
G1 X97.199 Y100.835 E2.58880
G1 X102.335 Y95.699 E2.76028
G1 X102.801 Y95.699 E2.77129
G1 X102.801 Y96.019 E2.77885
G1 X97.199 Y101.622 E2.96590
G1 X97.199 Y102.408 E2.98447
G1 X102.801 Y96.805 E3.17152
G1 X102.801 Y97.592 E3.19009
G1 X97.199 Y103.195 E3.37715
G1 X97.199 Y103.981 E3.39572
G1 X102.801 Y98.378 E3.58277
G1 X102.801 Y99.165 E3.60134
G1 X97.665 Y104.301 E3.77282
G1 X98.452 Y104.301 E3.79138
G1 X102.801 Y99.952 E3.93660
G1 X102.801 Y100.738 E3.95517
G1 X99.238 Y104.301 E4.07413
G1 X100.025 Y104.301 E4.09270
G1 X102.801 Y101.525 E4.18539
G1 X102.801 Y102.311 E4.20396
G1 X100.811 Y104.301 E4.27040
G1 X101.598 Y104.301 E4.28897
G1 X102.801 Y103.098 E4.32914
G1 X102.801 Y103.885 E4.34771
G1 X102.385 Y104.301 E4.36162
M104 S200 ; set temperature
G1 Z0.600 F7800.000
G1 E2.36162 F2400.00000
G92 E0
G1 X96.971 Y95.471 F7800.000
G1 E2.00000 F2400.00000
G1 F900
G1 X103.029 Y95.471 E2.16341
G1 X103.029 Y104.529 E2.40775
G1 X96.971 Y104.529 E2.57116
G1 X96.971 Y95.546 E2.81348
G1 X96.336 Y94.836 F7800.000
G1 F900
G1 X103.664 Y94.836 E3.01118
G1 X103.664 Y105.164 E3.28982
G1 X96.336 Y105.164 E3.48752
G1 X96.336 Y94.911 E3.76413
G1 X95.775 Y94.275 F7800.000
G1 F900
G1 X104.225 Y94.275 E3.93829
G1 X104.225 Y105.725 E4.17428
G1 X95.775 Y105.725 E4.34844
G1 X95.775 Y94.350 E4.58288
G1 X96.251 Y94.428 F7800.000
G1 E2.58288 F2400.00000
G92 E0
G1 X102.640 Y96.354 F7800.000
G1 E2.00000 F2400.00000
G1 F900
G1 X102.146 Y95.860 E2.02030
G1 X101.179 Y95.860 E2.04837
G1 X102.640 Y97.321 E2.10836
G1 X102.640 Y98.288 E2.13643
G1 X100.212 Y95.860 E2.23612
G1 X99.245 Y95.860 E2.26419
G1 X102.640 Y99.255 E2.40357
G1 X102.640 Y100.223 E2.43164
G1 X98.277 Y95.860 E2.61072
G1 X97.360 Y95.860 E2.63735
G1 X97.360 Y95.909 E2.63878
G1 X102.640 Y101.190 E2.85553
G1 X102.640 Y102.157 E2.88360
G1 X97.360 Y96.876 E3.10035
G1 X97.360 Y97.843 E3.12842
G1 X102.640 Y103.124 E3.34517
G1 X102.640 Y104.091 E3.37323
G1 X97.360 Y98.810 E3.58998
G1 X97.360 Y99.777 E3.61805
G1 X101.723 Y104.140 E3.79713
G1 X100.756 Y104.140 E3.82520
G1 X97.360 Y100.744 E3.96458
G1 X97.360 Y101.712 E3.99265
G1 X99.788 Y104.140 E4.09234
G1 X98.821 Y104.140 E4.12041
G1 X97.360 Y102.679 E4.18040
G1 X97.360 Y103.646 E4.20847
G1 X97.854 Y104.140 E4.22876
G1 Z0.900 F7800.000
G1 E2.22876 F2400.00000
G92 E0
G1 X96.980 Y95.480 F7800.000
G1 E2.00000 F2400.00000
G1 F900
G1 X97.161 Y95.340 E2.00472
G1 X97.373 Y95.253 E2.00944
G1 X97.582 Y95.225 E2.01379
G1 X102.418 Y95.225 E2.11346
G1 X102.627 Y95.253 E2.11781
G1 X102.839 Y95.340 E2.12253
G1 X103.020 Y95.480 E2.12725
G1 X103.160 Y95.661 E2.13197
G1 X103.247 Y95.873 E2.13669
G1 X103.275 Y96.082 E2.14103
G1 X103.275 Y103.918 E2.30254
G1 X103.247 Y104.127 E2.30688
G1 X103.160 Y104.339 E2.31160
G1 X103.020 Y104.520 E2.31632
G1 X102.839 Y104.660 E2.32105
G1 X102.627 Y104.747 E2.32577
G1 X102.418 Y104.775 E2.33011
G1 X97.582 Y104.775 E2.42978
G1 X97.373 Y104.747 E2.43413
G1 X97.161 Y104.660 E2.43885
G1 X96.980 Y104.520 E2.44357
G1 X96.840 Y104.339 E2.44829
G1 X96.753 Y104.127 E2.45301
G1 X96.725 Y103.918 E2.45736
G1 X96.725 Y96.082 E2.61886
G1 X96.753 Y95.873 E2.62321
G1 X96.840 Y95.661 E2.62793
G1 X96.934 Y95.539 E2.63110
G1 X96.980 Y95.480 F7800.000
G1 X95.775 Y94.275 F7800.000
G1 F900
G1 X104.225 Y94.275 E2.80526
G1 X104.225 Y105.725 E3.04125
G1 X95.775 Y105.725 E3.21541
G1 X95.775 Y94.350 E3.44985
G1 X96.251 Y94.428 F7800.000
G1 X96.055 Y95.067 F7800.000
G1 F1200
G1 X96.913 Y94.836 E3.47011
G1 F1200
G1 X97.114 Y94.796 E3.47410
G1 F1200
G1 X97.272 Y94.768 E3.47666
G1 F1200
G1 X97.564 Y94.750 E3.48069
G1 X102.436 Y94.750 E3.54790
G1 F1200
G1 X102.728 Y94.768 E3.55257
G1 X103.945 Y94.929 E3.57218
G1 X103.945 Y95.067 F7800.000
G1 F1200
G1 X102.045 Y94.555 E3.61710
G1 X102.394 Y94.555 F7800.000
G1 F1200
G1 X103.520 Y94.980 E3.65715
G1 X103.945 Y96.106 E3.69721
G1 X103.732 Y95.772 F7800.000
G1 F1200
G1 X103.704 Y95.614 E3.69976
G1 F1200
G1 X103.664 Y95.413 E3.70375
G1 F1200
G1 X103.433 Y94.555 E3.72402
G1 X103.732 Y95.772 F7800.000
G1 F1200
G1 X103.750 Y96.064 E3.72805
G1 X103.750 Y103.936 E3.83664
G1 F1200
G1 X103.724 Y104.285 E3.84222
G1 F1200
G1 X103.684 Y104.487 E3.84621
G1 F1200
G1 X103.433 Y105.445 E3.86882
G1 X102.987 Y105.184 F7800.000
G1 F1200
G1 X102.785 Y105.224 E3.87282
G1 F1200
G1 X102.436 Y105.250 E3.87840
G1 F1200
G1 X97.564 Y105.250 E3.94561
G1 X97.272 Y105.232 E3.94964
G1 F1200
G1 X97.114 Y105.204 E3.95219
G1 F1200
G1 X96.913 Y105.164 E3.95619
G1 F1200
G1 X96.055 Y104.933 E3.97645
G1 X96.336 Y104.587 F7800.000
G1 F1200
G1 X96.567 Y105.445 E3.99672
G1 X96.336 Y104.587 F7800.000
G1 F1200
G1 X96.296 Y104.386 E4.00071
G1 F1200
G1 X96.268 Y104.228 E4.00326
G1 F1200
G1 X96.250 Y103.936 E4.00729
G1 X96.250 Y96.064 E4.11589
G1 F1200
G1 X96.276 Y95.715 E4.12147
G1 F1200
G1 X96.316 Y95.513 E4.12546
G1 F1200
G1 X96.567 Y94.555 E4.14807
G1 X97.606 Y94.555 F7800.000
G1 F1200
G1 X96.480 Y94.980 E4.18812
G1 X96.055 Y96.106 E4.22818
G1 X96.055 Y103.894 F7800.000
G1 F1200
G1 X96.480 Y105.020 E4.26823
G1 X97.606 Y105.445 E4.30828
G1 X102.394 Y105.445 F7800.000
G1 F1200
G1 X103.520 Y105.020 E4.34834
G1 X103.945 Y103.894 E4.38839
G1 X103.945 Y104.933 F7800.000
G1 F1200
G1 X102.987 Y105.184 E4.41100
M106 S247.35
G1 Z1.200 F7800.000
G1 E2.41100 F2400.00000
G92 E0
G1 X96.980 Y95.480 F7800.000
G1 E2.00000 F2400.00000
G1 F900
G1 X97.161 Y95.340 E2.00472
G1 X97.373 Y95.253 E2.00944
G1 X97.582 Y95.225 E2.01379
G1 X102.418 Y95.225 E2.11346
G1 X102.627 Y95.253 E2.11781
G1 X102.839 Y95.340 E2.12253
G1 X103.020 Y95.480 E2.12725
G1 X103.160 Y95.661 E2.13197
G1 X103.247 Y95.873 E2.13669
G1 X103.275 Y96.082 E2.14103
G1 X103.275 Y103.918 E2.30254
G1 X103.247 Y104.127 E2.30688
G1 X103.160 Y104.339 E2.31160
G1 X103.020 Y104.520 E2.31632
G1 X102.839 Y104.660 E2.32105
G1 X102.627 Y104.747 E2.32577
G1 X102.418 Y104.775 E2.33011
G1 X97.582 Y104.775 E2.42978
G1 X97.373 Y104.747 E2.43413
G1 X97.161 Y104.660 E2.43885
G1 X96.980 Y104.520 E2.44357
G1 X96.840 Y104.339 E2.44829
G1 X96.753 Y104.127 E2.45301
G1 X96.725 Y103.918 E2.45736
G1 X96.725 Y96.082 E2.61886
G1 X96.753 Y95.873 E2.62321
G1 X96.840 Y95.661 E2.62793
G1 X96.934 Y95.539 E2.63110
G1 X96.980 Y95.480 F7800.000
G1 X95.775 Y94.275 F7800.000
G1 F900
G1 X104.225 Y94.275 E2.80526
G1 X104.225 Y105.725 E3.04125
G1 X95.775 Y105.725 E3.21541
G1 X95.775 Y94.350 E3.44985
G1 X96.251 Y94.428 F7800.000
G1 X96.055 Y94.929 F7800.000
G1 F1200
G1 X97.272 Y94.768 E3.46946
G1 F1200
G1 X97.564 Y94.750 E3.47349
G1 X102.436 Y94.750 E3.54070
G1 F1200
G1 X102.785 Y94.776 E3.54628
G1 F1200
G1 X102.987 Y94.816 E3.55027
G1 F1200
G1 X103.945 Y95.067 E3.57288
G1 X103.571 Y94.555 F7800.000
G1 F1200
G1 X103.732 Y95.772 E3.59249
G1 F1200
G1 X103.750 Y96.064 E3.59653
G1 X103.750 Y103.936 E3.70512
G1 F1200
G1 X103.724 Y104.285 E3.71070
G1 F1200
G1 X103.684 Y104.487 E3.71469
G1 F1200
G1 X103.433 Y105.445 E3.73730
G1 X102.987 Y105.184 F7800.000
G1 F1200
G1 X102.785 Y105.224 E3.74129
G1 F1200
G1 X102.436 Y105.250 E3.74687
G1 F1200
G1 X97.564 Y105.250 E3.81408
G1 X97.272 Y105.232 E3.81811
G1 F1200
G1 X97.114 Y105.204 E3.82067
G1 F1200
G1 X96.913 Y105.164 E3.82466
G1 F1200
G1 X96.055 Y104.933 E3.84493
G1 X96.429 Y105.445 F7800.000
G1 F1200
G1 X96.268 Y104.228 E3.86454
G1 F1200
G1 X96.250 Y103.936 E3.86857
G1 X96.250 Y96.064 E3.97716
G1 F1200
G1 X96.276 Y95.715 E3.98274
G1 F1200
G1 X96.316 Y95.513 E3.98673
G1 F1200
G1 X96.567 Y94.555 E4.00934
G1 X96.055 Y95.067 F7800.000
G1 F1200
G1 X97.955 Y94.555 E4.05426
G1 X97.606 Y94.555 F7800.000
G1 F1200
G1 X96.480 Y94.980 E4.09431
G1 X96.055 Y96.106 E4.13436
G1 E2.13436 F2400.00000
G92 E0
G1 X102.394 Y94.555 F7800.000
G1 E2.00000 F2400.00000
G1 F1200
G1 X103.520 Y94.980 E2.04005
G1 X103.945 Y96.106 E2.08011
G1 X103.945 Y96.455 F7800.000
G1 F1200
G1 X103.433 Y94.555 E2.12502
G1 X103.945 Y103.894 F7800.000
G1 F1200
G1 X103.520 Y105.020 E2.16508
G1 X102.394 Y105.445 E2.20513
G1 X102.987 Y105.184 F7800.000
G1 F1200
G1 X103.945 Y104.933 E2.22774
G1 X97.606 Y105.445 F7800.000
G1 F1200
G1 X96.480 Y105.020 E2.26779
G1 X96.055 Y103.894 E2.30785
G1 X96.055 Y103.545 F7800.000
G1 F1200
G1 X96.567 Y105.445 E2.35276
G1 Z1.500 F7800.000
G1 X96.980 Y95.480 F7800.000
G1 F900
G1 X97.161 Y95.340 E2.35748
G1 X97.373 Y95.253 E2.36220
G1 X97.582 Y95.225 E2.36655
G1 X102.418 Y95.225 E2.46622
G1 X102.627 Y95.253 E2.47057
G1 X102.839 Y95.340 E2.47529
G1 X103.020 Y95.480 E2.48001
G1 X103.160 Y95.661 E2.48473
G1 X103.247 Y95.873 E2.48945
G1 X103.275 Y96.082 E2.49380
G1 X103.275 Y103.918 E2.65530
G1 X103.247 Y104.127 E2.65965
G1 X103.160 Y104.339 E2.66437
G1 X103.020 Y104.520 E2.66909
G1 X102.839 Y104.660 E2.67381
G1 X102.627 Y104.747 E2.67853
G1 X102.418 Y104.775 E2.68287
G1 X97.582 Y104.775 E2.78255
G1 X97.373 Y104.747 E2.78689
G1 X97.161 Y104.660 E2.79161
G1 X96.980 Y104.520 E2.79633
G1 X96.840 Y104.339 E2.80105
G1 X96.753 Y104.127 E2.80577
G1 X96.725 Y103.918 E2.81012
G1 X96.725 Y96.082 E2.97162
G1 X96.753 Y95.873 E2.97597
G1 X96.840 Y95.661 E2.98069
G1 X96.934 Y95.539 E2.98387
G1 X96.980 Y95.480 F7800.000
G1 X95.775 Y94.275 F7800.000
G1 F900
G1 X104.225 Y94.275 E3.15802
G1 X104.225 Y105.725 E3.39401
G1 X95.775 Y105.725 E3.56817
G1 X95.775 Y94.350 E3.80261
G1 X96.251 Y94.428 F7800.000
G1 X96.055 Y95.067 F7800.000
G1 F1200
G1 X96.913 Y94.836 E3.82288
G1 F1200
G1 X97.114 Y94.796 E3.82687
G1 F1200
G1 X97.272 Y94.768 E3.82942
G1 F1200
G1 X97.564 Y94.750 E3.83345
G1 X102.436 Y94.750 E3.90067
G1 F1200
G1 X102.785 Y94.776 E3.90625
G1 F1200
G1 X102.987 Y94.816 E3.91024
G1 F1200
G1 X103.945 Y95.067 E3.93285
G1 X103.664 Y95.413 F7800.000
G1 F1200
G1 X103.433 Y94.555 E3.95311
G1 X103.664 Y95.413 F7800.000
G1 F1200
G1 X103.704 Y95.614 E3.95710
G1 F1200
G1 X103.732 Y95.772 E3.95966
G1 F1200
G1 X103.750 Y96.064 E3.96369
G1 X103.750 Y103.936 E4.07228
G1 F1200
G1 X103.732 Y104.228 E4.07695
G1 X103.571 Y105.445 E4.09656
G1 X103.433 Y105.445 F7800.000
G1 F1200
G1 X103.945 Y103.545 E4.14148
G1 X103.945 Y103.894 F7800.000
G1 F1200
G1 X103.520 Y105.020 E4.18153
G1 X102.394 Y105.445 E4.22159
G1 X102.436 Y105.250 F7800.000
G1 F1200
G1 X97.564 Y105.250 E4.28880
G1 X97.272 Y105.232 E4.29283
G1 F1200
G1 X96.055 Y105.071 E4.31244
G1 X96.055 Y104.933 F7800.000
G1 F1200
G1 X97.955 Y105.445 E4.35736
G1 X97.606 Y105.445 F7800.000
G1 F1200
G1 X96.480 Y105.020 E4.39741
G1 X96.055 Y103.894 E4.43747
G1 X96.268 Y104.228 F7800.000
G1 F1200
G1 X96.296 Y104.386 E4.44002
G1 F1200
G1 X96.336 Y104.587 E4.44401
G1 F1200
G1 X96.567 Y105.445 E4.46428
G1 X96.268 Y104.228 F7800.000
G1 F1200
G1 X96.250 Y103.936 E4.46831
G1 X96.250 Y96.064 E4.57690
G1 F1200
G1 X96.276 Y95.715 E4.58248
G1 F1200
G1 X96.316 Y95.513 E4.58647
G1 F1200
G1 X96.567 Y94.555 E4.60908
G1 X97.606 Y94.555 F7800.000
G1 F1200
G1 X96.480 Y94.980 E4.64914
G1 X96.055 Y96.106 E4.68919
G1 E2.68919 F2400.00000
G92 E0
G1 X102.394 Y94.555 F7800.000
G1 E2.00000 F2400.00000
G1 F1200
G1 X103.520 Y94.980 E2.04005
G1 X103.945 Y96.106 E2.08011
G1 X103.945 Y104.933 F7800.000
G1 F1200
G1 X102.987 Y105.184 E2.10272
G1 F1200
G1 X102.785 Y105.224 E2.10671
G1 F1200
G1 X102.436 Y105.250 E2.11229
G1 Z1.800 F7800.000
G1 E0.11229 F2400.00000
G92 E0
G1 X96.980 Y95.480 F7800.000
G1 E2.00000 F2400.00000
G1 F900
G1 X97.161 Y95.340 E2.00472
G1 X97.373 Y95.253 E2.00944
G1 X97.582 Y95.225 E2.01379
G1 X102.418 Y95.225 E2.11346
G1 X102.627 Y95.253 E2.11781
G1 X102.839 Y95.340 E2.12253
G1 X103.020 Y95.480 E2.12725
G1 X103.160 Y95.661 E2.13197
G1 X103.247 Y95.873 E2.13669
G1 X103.275 Y96.082 E2.14103
G1 X103.275 Y103.918 E2.30254
G1 X103.247 Y104.127 E2.30688
G1 X103.160 Y104.339 E2.31160
G1 X103.020 Y104.520 E2.31632
G1 X102.839 Y104.660 E2.32105
G1 X102.627 Y104.747 E2.32577
G1 X102.418 Y104.775 E2.33011
G1 X97.582 Y104.775 E2.42978
G1 X97.373 Y104.747 E2.43413
G1 X97.161 Y104.660 E2.43885
G1 X96.980 Y104.520 E2.44357
G1 X96.840 Y104.339 E2.44829
G1 X96.753 Y104.127 E2.45301
G1 X96.725 Y103.918 E2.45736
G1 X96.725 Y96.082 E2.61886
G1 X96.753 Y95.873 E2.62321
G1 X96.840 Y95.661 E2.62793
G1 X96.934 Y95.539 E2.63110
G1 X96.980 Y95.480 F7800.000
G1 X95.775 Y94.275 F7800.000
G1 F900
G1 X104.225 Y94.275 E2.80526
G1 X104.225 Y105.725 E3.04125
G1 X95.775 Y105.725 E3.21541
G1 X95.775 Y94.350 E3.44985
G1 X96.251 Y94.428 F7800.000
G1 X96.055 Y95.067 F7800.000
G1 F1200
G1 X96.913 Y94.836 E3.47011
G1 F1200
G1 X97.114 Y94.796 E3.47410
G1 F1200
G1 X97.272 Y94.768 E3.47666
G1 F1200
G1 X97.564 Y94.750 E3.48069
G1 X102.436 Y94.750 E3.54790
G1 F1200
G1 X102.785 Y94.776 E3.55348
G1 F1200
G1 X102.987 Y94.816 E3.55747
G1 F1200
G1 X103.945 Y95.067 E3.58008
G1 X103.571 Y94.555 F7800.000
G1 F1200
G1 X103.732 Y95.772 E3.59969
G1 F1200
G1 X103.750 Y96.064 E3.60373
G1 X103.750 Y103.936 E3.71232
G1 F1200
G1 X103.724 Y104.285 E3.71790
G1 F1200
G1 X103.684 Y104.487 E3.72189
G1 F1200
G1 X103.433 Y105.445 E3.74450
G1 X102.987 Y105.184 F7800.000
G1 F1200
G1 X102.785 Y105.224 E3.74849
G1 F1200
G1 X102.436 Y105.250 E3.75407
G1 F1200
G1 X97.564 Y105.250 E3.82128
G1 X97.272 Y105.232 E3.82531
G1 F1200
G1 X97.114 Y105.204 E3.82787
G1 F1200
G1 X96.913 Y105.164 E3.83186
G1 F1200
G1 X96.055 Y104.933 E3.85213
G1 X96.336 Y104.587 F7800.000
G1 F1200
G1 X96.567 Y105.445 E3.87239
G1 X96.336 Y104.587 F7800.000
G1 F1200
G1 X96.296 Y104.386 E3.87638
G1 F1200
G1 X96.268 Y104.228 E3.87894
G1 F1200
G1 X96.250 Y103.936 E3.88297
G1 X96.250 Y96.064 E3.99156
G1 F1200
G1 X96.276 Y95.715 E3.99714
G1 F1200
G1 X96.316 Y95.513 E4.00113
G1 F1200
G1 X96.567 Y94.555 E4.02374
G1 X97.606 Y94.555 F7800.000
G1 F1200
G1 X96.480 Y94.980 E4.06380
G1 X96.055 Y96.106 E4.10385
G1 E2.10385 F2400.00000
G92 E0
G1 X102.394 Y94.555 F7800.000
G1 E2.00000 F2400.00000
G1 F1200
G1 X103.520 Y94.980 E2.04005
G1 X103.945 Y96.106 E2.08011
G1 X103.945 Y96.455 F7800.000
G1 F1200
G1 X103.433 Y94.555 E2.12502
G1 X103.945 Y103.894 F7800.000
G1 F1200
G1 X103.520 Y105.020 E2.16508
G1 X102.394 Y105.445 E2.20513
G1 X102.987 Y105.184 F7800.000
G1 F1200
G1 X103.945 Y104.933 E2.22774
G1 X97.606 Y105.445 F7800.000
G1 F1200
G1 X96.480 Y105.020 E2.26780
G1 X96.055 Y103.894 E2.30785
G1 Z2.100 F7800.000
G1 X96.980 Y95.480 F7800.000
G1 F900
G1 X97.161 Y95.340 E2.31257
G1 X97.373 Y95.253 E2.31729
G1 X97.582 Y95.225 E2.32164
G1 X102.418 Y95.225 E2.42131
G1 X102.627 Y95.253 E2.42565
G1 X102.839 Y95.340 E2.43038
G1 X103.020 Y95.480 E2.43510
G1 X103.160 Y95.661 E2.43982
G1 X103.247 Y95.873 E2.44454
G1 X103.275 Y96.082 E2.44888
G1 X103.275 Y103.918 E2.61039
G1 X103.247 Y104.127 E2.61473
G1 X103.160 Y104.339 E2.61945
G1 X103.020 Y104.520 E2.62417
G1 X102.839 Y104.660 E2.62889
G1 X102.627 Y104.747 E2.63362
G1 X102.418 Y104.775 E2.63796
G1 X97.582 Y104.775 E2.73763
G1 X97.373 Y104.747 E2.74198
G1 X97.161 Y104.660 E2.74670
G1 X96.980 Y104.520 E2.75142
G1 X96.840 Y104.339 E2.75614
G1 X96.753 Y104.127 E2.76086
G1 X96.725 Y103.918 E2.76521
G1 X96.725 Y96.082 E2.92671
G1 X96.753 Y95.873 E2.93106
G1 X96.840 Y95.661 E2.93578
G1 X96.934 Y95.539 E2.93895
G1 X96.980 Y95.480 F7800.000
G1 X95.775 Y94.275 F7800.000
G1 F900
G1 X104.225 Y94.275 E3.11311
G1 X104.225 Y105.725 E3.34910
G1 X95.775 Y105.725 E3.52326
G1 X95.775 Y94.350 E3.75770
G1 X96.251 Y94.428 F7800.000
G1 X96.055 Y95.067 F7800.000
G1 F1200
G1 X96.913 Y94.836 E3.77796
G1 F1200
G1 X97.114 Y94.796 E3.78195
G1 F1200
G1 X97.272 Y94.768 E3.78451
G1 F1200
G1 X97.564 Y94.750 E3.78854
G1 X102.436 Y94.750 E3.85575
G1 F1200
G1 X102.785 Y94.776 E3.86133
G1 F1200
G1 X102.987 Y94.816 E3.86532
G1 F1200
G1 X103.945 Y95.067 E3.88793
G1 X103.664 Y95.413 F7800.000
G1 F1200
G1 X103.433 Y94.555 E3.90820
G1 X103.664 Y95.413 F7800.000
G1 F1200
G1 X103.704 Y95.614 E3.91219
G1 F1200
G1 X103.732 Y95.772 E3.91474
G1 F1200
G1 X103.750 Y96.064 E3.91878
G1 X103.750 Y103.936 E4.02737
G1 F1200
G1 X103.732 Y104.228 E4.03204
G1 X103.571 Y105.445 E4.05165
G1 X103.433 Y105.445 F7800.000
G1 F1200
G1 X103.945 Y103.545 E4.09657
G1 X103.945 Y103.894 F7800.000
G1 F1200
G1 X103.520 Y105.020 E4.13662
G1 X102.394 Y105.445 E4.17667
G1 X102.436 Y105.250 F7800.000
G1 F1200
G1 X97.564 Y105.250 E4.24389
G1 X97.272 Y105.232 E4.24792
G1 F1200
G1 X97.114 Y105.204 E4.25047
G1 F1200
G1 X96.913 Y105.164 E4.25446
G1 F1200
G1 X96.055 Y104.933 E4.27473
G1 X96.336 Y104.587 F7800.000
G1 F1200
G1 X96.567 Y105.445 E4.29499
G1 X96.336 Y104.587 F7800.000
G1 F1200
G1 X96.296 Y104.386 E4.29898
G1 F1200
G1 X96.268 Y104.228 E4.30154
G1 F1200
G1 X96.250 Y103.936 E4.30557
G1 X96.250 Y96.064 E4.41416
G1 F1200
G1 X96.276 Y95.715 E4.41974
G1 F1200
G1 X96.316 Y95.513 E4.42373
G1 F1200
G1 X96.567 Y94.555 E4.44634
G1 X97.606 Y94.555 F7800.000
G1 F1200
G1 X96.480 Y94.980 E4.48640
G1 X96.055 Y96.106 E4.52645
G1 E2.52645 F2400.00000
G92 E0
G1 X102.394 Y94.555 F7800.000
G1 E2.00000 F2400.00000
G1 F1200
G1 X103.520 Y94.980 E2.04005
G1 X103.945 Y96.106 E2.08011
G1 X103.945 Y104.933 F7800.000
G1 F1200
G1 X102.987 Y105.184 E2.10272
G1 F1200
G1 X102.785 Y105.224 E2.10671
G1 F1200
G1 X102.436 Y105.250 E2.11229
G1 X97.606 Y105.445 F7800.000
G1 F1200
G1 X96.480 Y105.020 E2.15234
G1 X96.055 Y103.894 E2.19240
G1 Z2.400 F7800.000
G1 X96.980 Y95.480 F7800.000
G1 F900
G1 X97.161 Y95.340 E2.19712
G1 X97.373 Y95.253 E2.20184
G1 X97.582 Y95.225 E2.20618
G1 X102.418 Y95.225 E2.30585
G1 X102.627 Y95.253 E2.31020
G1 X102.839 Y95.340 E2.31492
G1 X103.020 Y95.480 E2.31964
G1 X103.160 Y95.661 E2.32436
G1 X103.247 Y95.873 E2.32908
G1 X103.275 Y96.082 E2.33343
G1 X103.275 Y103.918 E2.49493
G1 X103.247 Y104.127 E2.49928
G1 X103.160 Y104.339 E2.50400
G1 X103.020 Y104.520 E2.50872
G1 X102.839 Y104.660 E2.51344
G1 X102.627 Y104.747 E2.51816
G1 X102.418 Y104.775 E2.52251
G1 X97.582 Y104.775 E2.62218
G1 X97.373 Y104.747 E2.62653
G1 X97.161 Y104.660 E2.63125
G1 X96.980 Y104.520 E2.63597
G1 X96.840 Y104.339 E2.64069
G1 X96.753 Y104.127 E2.64541
G1 X96.725 Y103.918 E2.64975
G1 X96.725 Y96.073 E2.81143
G1 X96.775 Y95.820 E2.81676
G1 X96.840 Y95.661 E2.82029
G1 X96.934 Y95.539 E2.82347
G1 X96.980 Y95.480 F7800.000
G1 X95.775 Y94.275 F7800.000
G1 F900
G1 X104.225 Y94.275 E2.99763
G1 X104.225 Y105.725 E3.23362
G1 X95.775 Y105.725 E3.40777
G1 X95.775 Y94.350 E3.64222
G1 X96.251 Y94.428 F7800.000
G1 X96.451 Y94.555 F7800.000
G1 F1200
G1 X96.252 Y96.009 E3.66730
G1 F1200
G1 X96.250 Y103.936 E3.77788
G1 X96.276 Y104.285 E3.78275
G1 F1200
G1 X96.316 Y104.487 E3.78639
G1 F1200
G1 X96.567 Y105.445 E3.80728
G1 X96.913 Y105.164 F7800.000
G1 F1200
G1 X96.055 Y104.933 E3.82754
G1 X96.913 Y105.164 F7800.000
G1 F1200
G1 X97.114 Y105.204 E3.83154
G1 F1200
G1 X97.272 Y105.232 E3.83409
G1 F1200
G1 X97.564 Y105.250 E3.83812
G1 X102.436 Y105.250 E3.90533
G1 F1200
G1 X102.785 Y105.224 E3.91091
G1 F1200
G1 X102.987 Y105.184 E3.91491
G1 F1200
G1 X103.945 Y104.933 E3.93752
G1 X103.684 Y104.487 F7800.000
G1 F1200
G1 X103.724 Y104.285 E3.94151
G1 F1200
G1 X103.750 Y103.936 E3.94709
G1 F1200
G1 X103.750 Y96.064 E4.05568
G1 X103.732 Y95.772 E4.05971
G1 F1200
G1 X103.704 Y95.614 E4.06227
G1 F1200
G1 X103.664 Y95.413 E4.06626
G1 F1200
G1 X103.433 Y94.555 E4.08652
G1 X102.987 Y94.816 F7800.000
G1 F1200
G1 X102.785 Y94.776 E4.09051
G1 F1200
G1 X102.436 Y94.750 E4.09609
G1 F1200
G1 X97.564 Y94.750 E4.16331
G1 X97.272 Y94.768 E4.16734
G1 F1200
G1 X97.114 Y94.796 E4.16989
G1 F1200
G1 X96.913 Y94.836 E4.17388
G1 F1200
G1 X96.055 Y95.067 E4.19415
G1 X96.567 Y94.555 F7800.000
G1 F1200
G1 X96.055 Y96.455 E4.23906
G1 X96.055 Y96.106 F7800.000
G1 F1200
G1 X96.480 Y94.980 E4.27912
G1 X97.606 Y94.555 E4.31917
G1 X102.394 Y94.555 F7800.000
G1 F1200
G1 X103.520 Y94.980 E4.35923
G1 X103.945 Y96.106 E4.39928
G1 X103.945 Y95.067 F7800.000
G1 F1200
G1 X102.987 Y94.816 E4.42189
G1 X103.945 Y103.894 F7800.000
G1 F1200
G1 X103.520 Y105.020 E4.46194
G1 X102.394 Y105.445 E4.50200
G1 X103.433 Y105.445 F7800.000
G1 F1200
G1 X103.684 Y104.487 E4.52460
G1 X97.606 Y105.445 F7800.000
G1 F1200
G1 X96.480 Y105.020 E4.56466
G1 X96.055 Y103.894 E4.60471
G1 Z2.700 F7800.000
G1 X96.980 Y95.480 F7800.000
G1 F900
G1 X97.161 Y95.340 E4.60943
G1 X97.373 Y95.253 E4.61415
G1 X97.582 Y95.225 E4.61850
G1 X102.418 Y95.225 E4.71817
G1 X102.627 Y95.253 E4.72252
G1 X102.839 Y95.340 E4.72724
G1 X103.020 Y95.480 E4.73196
G1 X103.160 Y95.661 E4.73668
G1 X103.247 Y95.873 E4.74140
G1 X103.275 Y96.082 E4.74575
G1 X103.275 Y103.918 E4.90725
G1 X103.247 Y104.127 E4.91160
G1 X103.160 Y104.339 E4.91632
G1 X103.020 Y104.520 E4.92104
G1 X102.839 Y104.660 E4.92576
G1 X102.627 Y104.747 E4.93048
G1 X102.418 Y104.775 E4.93482
G1 X97.582 Y104.775 E5.03450
G1 X97.373 Y104.747 E5.03884
G1 X97.161 Y104.660 E5.04356
G1 X96.980 Y104.520 E5.04828
G1 X96.840 Y104.339 E5.05300
G1 X96.753 Y104.127 E5.05772
G1 X96.725 Y103.918 E5.06207
G1 X96.725 Y96.082 E5.22357
G1 X96.753 Y95.873 E5.22792
G1 X96.840 Y95.661 E5.23264
G1 X96.934 Y95.539 E5.23582
G1 X96.980 Y95.480 F7800.000
G1 X95.775 Y94.275 F7800.000
G1 F900
G1 X104.225 Y94.275 E5.40997
G1 X104.225 Y105.725 E5.64596
G1 X95.775 Y105.725 E5.82012
G1 X95.775 Y94.350 E6.05456
G1 X96.251 Y94.428 F7800.000
G1 X96.429 Y94.555 F7800.000
G1 F1200
G1 X96.268 Y95.772 E6.07417
G1 X96.250 Y96.064 E6.07884
G1 F1200
G1 X96.250 Y103.936 E6.18743
G1 X96.268 Y104.228 E6.19147
G1 F1200
G1 X96.296 Y104.386 E6.19402
G1 F1200
G1 X96.336 Y104.587 E6.19801
G1 F1200
G1 X96.567 Y105.445 E6.21828
G1 X96.913 Y105.164 F7800.000
G1 F1200
G1 X96.055 Y104.933 E6.23854
G1 X96.913 Y105.164 F7800.000
G1 F1200
G1 X97.114 Y105.204 E6.24253
G1 F1200
G1 X97.272 Y105.232 E6.24509
G1 F1200
G1 X97.564 Y105.250 E6.24912
G1 X102.436 Y105.250 E6.31633
G1 F1200
G1 X102.785 Y105.224 E6.32191
G1 F1200
G1 X102.987 Y105.184 E6.32590
G1 F1200
G1 X103.945 Y104.933 E6.34851
G1 X103.571 Y105.445 F7800.000
G1 F1200
G1 X103.732 Y104.228 E6.36812
G1 X103.750 Y103.936 E6.37279
G1 F1200
G1 X103.750 Y96.064 E6.48139
G1 X103.732 Y95.772 E6.48542
G1 F1200
G1 X103.704 Y95.614 E6.48797
G1 F1200
G1 X103.664 Y95.413 E6.49196
G1 F1200
G1 X103.433 Y94.555 E6.51223
G1 X103.945 Y94.929 F7800.000
G1 F1200
G1 X102.728 Y94.768 E6.53184
G1 X102.436 Y94.750 E6.53651
G1 F1200
G1 X97.564 Y94.750 E6.60372
G1 X97.272 Y94.768 E6.60775
G1 F1200
G1 X97.114 Y94.796 E6.61031
G1 F1200
G1 X96.913 Y94.836 E6.61430
G1 F1200
G1 X96.055 Y95.067 E6.63456
G1 X96.567 Y94.555 F7800.000
G1 F1200
G1 X96.055 Y96.455 E6.67948
G1 X96.055 Y96.106 F7800.000
G1 F1200
G1 X96.480 Y94.980 E6.71953
G1 X97.606 Y94.555 E6.75959
G1 X102.045 Y94.555 F7800.000
G1 F1200
G1 X103.945 Y95.067 E6.80450
G1 X103.945 Y96.106 F7800.000
G1 F1200
G1 X103.520 Y94.980 E6.84456
G1 X102.394 Y94.555 E6.88461
G1 E4.88461 F2400.00000
G92 E0
G1 X103.945 Y103.545 F7800.000
G1 E2.00000 F2400.00000
G1 F1200
G1 X103.433 Y105.445 E2.04492
G1 X102.394 Y105.445 F7800.000
G1 F1200
G1 X103.520 Y105.020 E2.08497
G1 X103.945 Y103.894 E2.12503
G1 E0.12503 F2400.00000
G92 E0
G1 X97.606 Y105.445 F7800.000
G1 E2.00000 F2400.00000
G1 F1200
G1 X96.480 Y105.020 E2.04006
G1 X96.055 Y103.894 E2.08011
G1 Z3.000 F7800.000
G1 E0.08011 F2400.00000
G92 E0
G1 X96.980 Y95.480 F7800.000
G1 E2.00000 F2400.00000
G1 F900
G1 X97.161 Y95.340 E2.00472
G1 X97.373 Y95.253 E2.00944
G1 X97.582 Y95.225 E2.01379
G1 X102.418 Y95.225 E2.11346
G1 X102.627 Y95.253 E2.11781
G1 X102.839 Y95.340 E2.12253
G1 X103.020 Y95.480 E2.12725
G1 X103.160 Y95.661 E2.13197
G1 X103.247 Y95.873 E2.13669
G1 X103.275 Y96.082 E2.14103
G1 X103.275 Y103.918 E2.30254
G1 X103.247 Y104.127 E2.30688
G1 X103.160 Y104.339 E2.31160
G1 X103.020 Y104.520 E2.31632
G1 X102.839 Y104.660 E2.32105
G1 X102.627 Y104.747 E2.32577
G1 X102.418 Y104.775 E2.33011
G1 X97.582 Y104.775 E2.42978
G1 X97.373 Y104.747 E2.43413
G1 X97.161 Y104.660 E2.43885
G1 X96.980 Y104.520 E2.44357
G1 X96.840 Y104.339 E2.44829
G1 X96.753 Y104.127 E2.45301
G1 X96.725 Y103.918 E2.45736
G1 X96.725 Y96.080 E2.61891
G1 X96.757 Y95.862 E2.62345
G1 X96.840 Y95.661 E2.62792
G1 X96.934 Y95.539 E2.63110
G1 X96.980 Y95.480 F7800.000
G1 X95.775 Y94.275 F7800.000
G1 F900
G1 X104.225 Y94.275 E2.80525
G1 X104.225 Y105.725 E3.04124
G1 X95.775 Y105.725 E3.21540
G1 X95.775 Y94.350 E3.44984
G1 X96.251 Y94.428 F7800.000
G1 X96.434 Y94.555 F7800.000
G1 F1200
G1 X96.271 Y95.755 E3.46948
G1 X96.251 Y96.031 E3.47396
G1 F1200
G1 X96.250 Y103.936 E3.58371
G1 X96.276 Y104.285 E3.58855
G1 F1200
G1 X96.316 Y104.487 E3.59219
G1 F1200
G1 X96.567 Y105.445 E3.61309
G1 X96.913 Y105.164 F7800.000
G1 F1200
G1 X96.055 Y104.933 E3.63335
G1 X96.913 Y105.164 F7800.000
G1 F1200
G1 X97.114 Y105.204 E3.63734
G1 F1200
G1 X97.272 Y105.232 E3.63990
G1 F1200
G1 X97.564 Y105.250 E3.64393
G1 X102.436 Y105.250 E3.71114
G1 F1200
G1 X102.785 Y105.224 E3.71672
G1 F1200
G1 X102.987 Y105.184 E3.72071
G1 F1200
G1 X103.945 Y104.933 E3.74332
G1 X103.571 Y105.445 F7800.000
G1 F1200
G1 X103.732 Y104.228 E3.76293
G1 X103.750 Y103.936 E3.76760
G1 F1200
G1 X103.750 Y96.064 E3.87620
G1 X103.732 Y95.772 E3.88023
G1 F1200
G1 X103.704 Y95.614 E3.88278
G1 F1200
G1 X103.664 Y95.413 E3.88677
G1 F1200
G1 X103.433 Y94.555 E3.90704
G1 X102.987 Y94.816 F7800.000
G1 F1200
G1 X102.785 Y94.776 E3.91103
G1 F1200
G1 X102.436 Y94.750 E3.91661
G1 F1200
G1 X97.564 Y94.750 E3.98382
G1 X97.272 Y94.768 E3.98785
G1 F1200
G1 X97.114 Y94.796 E3.99041
G1 F1200
G1 X96.913 Y94.836 E3.99440
G1 F1200
G1 X96.055 Y95.067 E4.01466
G1 X96.567 Y94.555 F7800.000
G1 F1200
G1 X96.055 Y96.455 E4.05958
G1 X96.055 Y96.106 F7800.000
G1 F1200
G1 X96.480 Y94.980 E4.09963
G1 X97.606 Y94.555 E4.13968
G1 E2.13968 F2400.00000
G92 E0
G1 X102.394 Y94.555 F7800.000
G1 E2.00000 F2400.00000
G1 F1200
G1 X103.520 Y94.980 E2.04005
G1 X103.945 Y96.106 E2.08011
G1 X103.945 Y95.067 F7800.000
G1 F1200
G1 X102.987 Y94.816 E2.10272
G1 E0.10272 F2400.00000
G92 E0
G1 X103.945 Y103.545 F7800.000
G1 E2.00000 F2400.00000
G1 F1200
G1 X103.433 Y105.445 E2.04492
G1 X102.394 Y105.445 F7800.000
G1 F1200
G1 X103.520 Y105.020 E2.08497
G1 X103.945 Y103.894 E2.12502
G1 E0.12502 F2400.00000
G92 E0
G1 X97.606 Y105.445 F7800.000
G1 E2.00000 F2400.00000
G1 F1200
G1 X96.480 Y105.020 E2.04006
G1 X96.055 Y103.894 E2.08011
G1 E0.08011 F2400.00000
G92 E0
M107
; Filament-specific end gcode 
;END gcode for filament

M104 S0 ; turn off temperature
G28 X0  ; home X axis
M84     ; disable motors

M140 S0 ; set bed temperature
; filament used = 29.1mm (0.2cm3)
; total filament cost = 0.0

; avoid_crossing_perimeters = 0
; bed_shape = 0x0,200x0,200x200,0x200
; bed_temperature = 0
; before_layer_gcode = 
; between_objects_gcode = 
; bridge_acceleration = 0
; bridge_fan_speed = 100
; brim_connections_width = 0
; brim_width = 0
; complete_objects = 0
; cooling = 1
; default_acceleration = 0
; disable_fan_first_layers = 3
; duplicate_distance = 6
; end_filament_gcode = "; Filament-specific end gcode \n;END gcode for filament\n"
; end_gcode = M104 S0 ; turn off temperature\nG28 X0  ; home X axis\nM84     ; disable motors\n
; extruder_clearance_height = 20
; extruder_clearance_radius = 20
; extruder_offset = 0x0
; extrusion_axis = E
; extrusion_multiplier = 1
; fan_always_on = 0
; fan_below_layer_time = 60
; filament_colour = #FFFFFF
; filament_cost = 0
; filament_density = 0
; filament_diameter = 3
; filament_max_volumetric_speed = 0
; filament_notes = ""
; first_layer_acceleration = 0
; first_layer_bed_temperature = 0
; first_layer_extrusion_width = 200%
; first_layer_speed = 30
; first_layer_temperature = 205
; gcode_arcs = 0
; gcode_comments = 0
; gcode_flavor = reprap
; has_heatbed = 1
; infill_acceleration = 0
; infill_first = 0
; interior_brim_width = 0
; layer_gcode = 
; max_fan_speed = 100
; max_layer_height = 0.3
; max_print_speed = 80
; max_volumetric_speed = 0
; min_fan_speed = 35
; min_layer_height = 0.15
; min_print_speed = 10
; min_skirt_length = 0
; notes = 
; nozzle_diameter = 0.5
; only_retract_when_crossing_perimeters = 1
; ooze_prevention = 0
; output_filename_format = [input_filename_base].gcode
; perimeter_acceleration = 0
; post_process = 
; pressure_advance = 0
; printer_notes = 
; resolution = 0
; retract_before_travel = 2
; retract_layer_change = 0
; retract_length = 2
; retract_length_toolchange = 10
; retract_lift = 0
; retract_lift_above = 0
; retract_lift_below = 0
; retract_restart_extra = 0
; retract_restart_extra_toolchange = 0
; retract_speed = 40
; skirt_distance = 6
; skirt_height = 1
; skirts = 0
; slowdown_below_layer_time = 5
; spiral_vase = 0
; standby_temperature_delta = -5
; start_filament_gcode = "; Filament gcode\n"
; start_gcode = G28 ; home all axes\nG1 Z5 F5000 ; lift nozzle\n
; temperature = 200
; threads = 8
; toolchange_gcode = 
; travel_speed = 130
; use_firmware_retraction = 0
; use_relative_e_distances = 0
; use_set_and_wait_bed = 0
; use_set_and_wait_extruder = 0
; use_volumetric_e = 0
; vibration_limit = 0
; wipe = 0
; z_offset = 0
; z_steps_per_mm = 0
; adaptive_slicing = 0
; adaptive_slicing_quality = 75%
; dont_support_bridges = 1
; extrusion_width = 0
; first_layer_height = 0.3
; infill_only_where_needed = 0
; interface_shells = 0
; layer_height = 0.3
; match_horizontal_surfaces = 0
; raft_layers = 0
; regions_overlap = 0
; seam_position = aligned
; sequential_print_priority = 0
; support_material = 0
; support_material_angle = 0
; support_material_buildplate_only = 0
; support_material_contact_distance = 0.2
; support_material_enforce_layers = 0
; support_material_extruder = 1
; support_material_extrusion_width = 0
; support_material_interface_extruder = 1
; support_material_interface_extrusion_width = 0
; support_material_interface_layers = 3
; support_material_interface_spacing = 0
; support_material_interface_speed = 100%
; support_material_max_layers = 0
; support_material_pattern = pillars
; support_material_spacing = 2.5
; support_material_speed = 60
; support_material_threshold = 60%
; xy_size_compensation = 0
; bottom_infill_pattern = rectilinear
; bottom_solid_layers = 3
; bridge_flow_ratio = 1
; bridge_speed = 60
; external_perimeter_extrusion_width = 0
; external_perimeter_speed = 50%
; external_perimeters_first = 0
; extra_perimeters = 1
; fill_angle = 45
; fill_density = 20%
; fill_gaps = 1
; fill_pattern = stars
; gap_fill_speed = 20
; infill_every_layers = 1
; infill_extruder = 1
; infill_extrusion_width = 0
; infill_overlap = 55%
; infill_speed = 80
; overhangs = 1
; perimeter_extruder = 1
; perimeter_extrusion_width = 0
; perimeter_speed = 60
; perimeters = 3
; small_perimeter_speed = 15
; solid_infill_below_area = 70
; solid_infill_every_layers = 0
; solid_infill_extruder = 1
; solid_infill_extrusion_width = 0
; solid_infill_speed = 20
; thin_walls = 1
; top_infill_extrusion_width = 0
; top_infill_pattern = rectilinear
; top_solid_infill_speed = 15
; top_solid_layers = 3
