; generated by Slic3r 1.3.0 on 2020-09-29 at 14:22:56

; external perimeters extrusion width = 0.55mm (4.37mm^3/s)
; perimeters extrusion width = 0.70mm (11.44mm^3/s)
; infill extrusion width = 0.63mm (13.45mm^3/s)
; solid infill extrusion width = 0.70mm (3.81mm^3/s)
; top infill extrusion width = 0.70mm (2.86mm^3/s)

M107
M104 S205 ; set temperature
G28 ; home all axes
G1 Z5 F5000 ; lift nozzle

; Filament gcode

M109 S205 ; set temperature and wait for it to be reached
G21 ; set units to millimeters
G90 ; use absolute coordinates
M82 ; use absolute distances for extrusion
G92 E0
G1 Z0.300 F7800.000
G1 E-2.00000 F2400.00000
G92 E0
G1 X98.624 Y92.567 F7800.000
G1 E2.00000 F2400.00000
G1 F1598.02
G1 X97.567 Y93.624 E2.03396
G1 X97.567 Y94.505 E2.05399
G1 X99.505 Y92.567 E2.11627
G1 X100.385 Y92.567 E2.13630
G1 X97.567 Y95.385 E2.22690
G1 X97.567 Y96.266 E2.24693
G1 X101.266 Y92.567 E2.36585
G1 X102.147 Y92.567 E2.38588
G1 X97.567 Y97.147 E2.53312
G1 X97.567 Y98.028 E2.55315
G1 X102.433 Y93.162 E2.70958
G1 X102.433 Y94.043 E2.72960
G1 X97.567 Y98.909 E2.88603
G1 X97.567 Y99.790 E2.90605
G1 X102.433 Y94.924 E3.06248
G1 X102.433 Y95.805 E3.08251
G1 X97.567 Y100.671 E3.23893
G1 X97.567 Y101.552 E3.25896
G1 X102.433 Y96.686 E3.41538
G1 X102.433 Y97.567 E3.43541
G1 X97.567 Y102.433 E3.59183
G1 X97.567 Y103.314 E3.61186
G1 X102.433 Y98.448 E3.76829
G1 X102.433 Y99.329 E3.78831
G1 X97.567 Y104.195 E3.94474
G1 X97.567 Y105.076 E3.96476
G1 X102.433 Y100.210 E4.12119
G1 X102.433 Y101.091 E4.14121
G1 X97.567 Y105.957 E4.29764
G1 X97.567 Y106.838 E4.31767
G1 X102.433 Y101.972 E4.47409
G1 X102.433 Y102.853 E4.49412
G1 X97.853 Y107.433 E4.64136
G1 X98.734 Y107.433 E4.66139
G1 X102.433 Y103.734 E4.78031
G1 X102.433 Y104.615 E4.80034
G1 X99.615 Y107.433 E4.89094
G1 X100.495 Y107.433 E4.91097
G1 X102.433 Y105.495 E4.97325
G1 X102.433 Y106.376 E4.99328
G1 X101.376 Y107.433 E5.02724
M104 S200 ; set temperature
G1 Z0.600 F7800.000
G1 X97.548 Y106.357 F7800.000
G1 F1611.88
G1 X98.643 Y107.452 E5.06410
G1 X99.524 Y107.452 E5.08506
G1 X97.548 Y105.476 E5.15156
G1 X97.548 Y104.595 E5.17252
G1 X100.405 Y107.452 E5.26866
G1 X101.286 Y107.452 E5.28962
G1 X97.548 Y103.714 E5.41541
G1 X97.548 Y102.833 E5.43637
G1 X102.167 Y107.452 E5.59179
G1 X102.452 Y107.452 E5.59859
G1 X102.452 Y106.857 E5.61276
G1 X97.548 Y101.952 E5.77779
G1 X97.548 Y101.071 E5.79875
G1 X102.452 Y105.976 E5.96379
G1 X102.452 Y105.095 E5.98475
G1 X97.548 Y100.190 E6.14978
G1 X97.548 Y99.310 E6.17074
G1 X102.452 Y104.214 E6.33578
G1 X102.452 Y103.333 E6.35674
G1 X97.548 Y98.429 E6.52178
G1 X97.548 Y97.548 E6.54274
G1 X102.452 Y102.452 E6.70777
G1 X102.452 Y101.571 E6.72873
G1 X97.548 Y96.667 E6.89377
G1 X97.548 Y95.786 E6.91473
G1 X102.452 Y100.690 E7.07976
G1 X102.452 Y99.810 E7.10072
G1 X97.548 Y94.905 E7.26576
G1 X97.548 Y94.024 E7.28672
G1 X102.452 Y98.929 E7.45176
G1 X102.452 Y98.048 E7.47272
G1 X97.548 Y93.143 E7.63775
G1 X97.548 Y92.548 E7.65192
G1 X97.833 Y92.548 E7.65871
G1 X102.452 Y97.167 E7.81414
G1 X102.452 Y96.286 E7.83510
G1 X98.714 Y92.548 E7.96088
G1 X99.595 Y92.548 E7.98184
G1 X102.452 Y95.405 E8.07799
G1 X102.452 Y94.524 E8.09895
G1 X100.476 Y92.548 E8.16545
G1 X101.357 Y92.548 E8.18641
G1 X102.452 Y93.643 E8.22326
G1 Z0.900 F7800.000
G1 X98.643 Y92.548 F7800.000
G1 F1611.88
G1 X97.548 Y93.643 E8.26012
G1 X97.548 Y94.524 E8.28108
G1 X99.524 Y92.548 E8.34758
G1 X100.405 Y92.548 E8.36854
G1 X97.548 Y95.405 E8.46468
G1 X97.548 Y96.286 E8.48564
G1 X101.286 Y92.548 E8.61143
G1 X102.167 Y92.548 E8.63239
G1 X97.548 Y97.167 E8.78782
G1 X97.548 Y98.048 E8.80878
G1 X102.452 Y93.143 E8.97381
G1 X102.452 Y94.024 E8.99477
G1 X97.548 Y98.929 E9.15981
G1 X97.548 Y99.810 E9.18077
G1 X102.452 Y94.905 E9.34580
G1 X102.452 Y95.786 E9.36676
G1 X97.548 Y100.690 E9.53180
G1 X97.548 Y101.571 E9.55276
G1 X102.452 Y96.667 E9.71780
G1 X102.452 Y97.548 E9.73876
G1 X97.548 Y102.452 E9.90379
G1 X97.548 Y103.333 E9.92475
G1 X102.452 Y98.429 E10.08979
G1 X102.452 Y99.310 E10.11075
G1 X97.548 Y104.214 E10.27578
G1 X97.548 Y105.095 E10.29674
G1 X102.452 Y100.190 E10.46178
G1 X102.452 Y101.071 E10.48274
G1 X97.548 Y105.976 E10.64778
G1 X97.548 Y106.857 E10.66874
G1 X102.452 Y101.952 E10.83377
G1 X102.452 Y102.833 E10.85473
G1 X97.833 Y107.452 E11.01016
G1 X98.714 Y107.452 E11.03112
G1 X102.452 Y103.714 E11.15690
G1 X102.452 Y104.595 E11.17786
G1 X99.595 Y107.452 E11.27401
G1 X100.476 Y107.452 E11.29497
G1 X102.452 Y105.476 E11.36147
G1 X102.452 Y106.357 E11.38243
G1 X101.357 Y107.452 E11.41928
M106 S255
G1 Z1.200 F7800.000
G1 X97.548 Y106.357 F7800.000
G1 F1611.88
G1 X98.643 Y107.452 E11.45614
G1 X99.524 Y107.452 E11.47710
G1 X97.548 Y105.476 E11.54360
G1 X97.548 Y104.595 E11.56456
G1 X100.405 Y107.452 E11.66070
G1 X101.286 Y107.452 E11.68166
G1 X97.548 Y103.714 E11.80745
G1 X97.548 Y102.833 E11.82841
G1 X102.167 Y107.452 E11.98384
G1 X102.452 Y107.452 E11.99063
G1 X102.452 Y106.857 E12.00480
G1 X97.548 Y101.952 E12.16983
G1 X97.548 Y101.071 E12.19079
G1 X102.452 Y105.976 E12.35583
G1 X102.452 Y105.095 E12.37679
G1 X97.548 Y100.190 E12.54182
G1 X97.548 Y99.310 E12.56279
G1 X102.452 Y104.214 E12.72782
G1 X102.452 Y103.333 E12.74878
G1 X97.548 Y98.429 E12.91382
G1 X97.548 Y97.548 E12.93478
G1 X102.452 Y102.452 E13.09981
G1 X102.452 Y101.571 E13.12077
G1 X97.548 Y96.667 E13.28581
G1 X97.548 Y95.786 E13.30677
G1 X102.452 Y100.690 E13.47181
G1 X102.452 Y99.810 E13.49277
G1 X97.548 Y94.905 E13.65780
G1 X97.548 Y94.024 E13.67876
G1 X102.452 Y98.929 E13.84380
G1 X102.452 Y98.048 E13.86476
G1 X97.548 Y93.143 E14.02979
G1 X97.548 Y92.548 E14.04396
G1 X97.833 Y92.548 E14.05075
G1 X102.452 Y97.167 E14.20618
G1 X102.452 Y96.286 E14.22714
G1 X98.714 Y92.548 E14.35293
G1 X99.595 Y92.548 E14.37389
G1 X102.452 Y95.405 E14.47003
G1 X102.452 Y94.524 E14.49099
G1 X100.476 Y92.548 E14.55749
G1 X101.357 Y92.548 E14.57845
G1 X102.452 Y93.643 E14.61531
G1 Z1.500 F7800.000
G1 X98.643 Y92.548 F7800.000
G1 F1611.88
G1 X97.548 Y93.643 E14.65216
G1 X97.548 Y94.524 E14.67312
G1 X99.524 Y92.548 E14.73962
G1 X100.405 Y92.548 E14.76058
G1 X97.548 Y95.405 E14.85673
G1 X97.548 Y96.286 E14.87769
G1 X101.286 Y92.548 E15.00347
G1 X102.167 Y92.548 E15.02443
G1 X97.548 Y97.167 E15.17986
G1 X97.548 Y98.048 E15.20082
G1 X102.452 Y93.143 E15.36585
G1 X102.452 Y94.024 E15.38681
G1 X97.548 Y98.929 E15.55185
G1 X97.548 Y99.810 E15.57281
G1 X102.452 Y94.905 E15.73785
G1 X102.452 Y95.786 E15.75881
G1 X97.548 Y100.690 E15.92384
G1 X97.548 Y101.571 E15.94480
G1 X102.452 Y96.667 E16.10984
G1 X102.452 Y97.548 E16.13080
G1 X97.548 Y102.452 E16.29583
G1 X97.548 Y103.333 E16.31679
G1 X102.452 Y98.429 E16.48183
G1 X102.452 Y99.310 E16.50279
G1 X97.548 Y104.214 E16.66783
G1 X97.548 Y105.095 E16.68879
G1 X102.452 Y100.190 E16.85382
G1 X102.452 Y101.071 E16.87478
G1 X97.548 Y105.976 E17.03982
G1 X97.548 Y106.857 E17.06078
G1 X102.452 Y101.952 E17.22581
G1 X102.452 Y102.833 E17.24677
G1 X97.833 Y107.452 E17.40220
G1 X98.714 Y107.452 E17.42316
G1 X102.452 Y103.714 E17.54895
G1 X102.452 Y104.595 E17.56991
G1 X99.595 Y107.452 E17.66605
G1 X100.476 Y107.452 E17.68701
G1 X102.452 Y105.476 E17.75351
G1 X102.452 Y106.357 E17.77447
G1 X101.357 Y107.452 E17.81133
G1 Z1.800 F7800.000
G1 X97.548 Y106.357 F7800.000
G1 F1611.88
G1 X98.643 Y107.452 E17.84818
G1 X99.524 Y107.452 E17.86914
G1 X97.548 Y105.476 E17.93564
G1 X97.548 Y104.595 E17.95660
G1 X100.405 Y107.452 E18.05275
G1 X101.286 Y107.452 E18.07371
G1 X97.548 Y103.714 E18.19949
G1 X97.548 Y102.833 E18.22045
G1 X102.167 Y107.452 E18.37588
G1 X102.452 Y107.452 E18.38267
G1 X102.452 Y106.857 E18.39684
G1 X97.548 Y101.952 E18.56187
G1 X97.548 Y101.071 E18.58283
G1 X102.452 Y105.976 E18.74787
G1 X102.452 Y105.095 E18.76883
G1 X97.548 Y100.190 E18.93387
G1 X97.548 Y99.310 E18.95483
G1 X102.452 Y104.214 E19.11986
G1 X102.452 Y103.333 E19.14082
G1 X97.548 Y98.429 E19.30586
G1 X97.548 Y97.548 E19.32682
G1 X102.452 Y102.452 E19.49185
G1 X102.452 Y101.571 E19.51282
G1 X97.548 Y96.667 E19.67785
G1 X97.548 Y95.786 E19.69881
G1 X102.452 Y100.690 E19.86385
G1 X102.452 Y99.810 E19.88481
G1 X97.548 Y94.905 E20.04984
G1 X97.548 Y94.024 E20.07080
G1 X102.452 Y98.929 E20.23584
G1 X102.452 Y98.048 E20.25680
G1 X97.548 Y93.143 E20.42184
G1 X97.548 Y92.548 E20.43600
G1 X97.833 Y92.548 E20.44280
G1 X102.452 Y97.167 E20.59822
G1 X102.452 Y96.286 E20.61918
G1 X98.714 Y92.548 E20.74497
G1 X99.595 Y92.548 E20.76593
G1 X102.452 Y95.405 E20.86207
G1 X102.452 Y94.524 E20.88303
G1 X100.476 Y92.548 E20.94953
G1 X101.357 Y92.548 E20.97049
G1 X102.452 Y93.643 E21.00735
G1 Z2.100 F7800.000
G1 X98.643 Y92.548 F7800.000
G1 F1611.88
G1 X97.548 Y93.643 E21.04420
G1 X97.548 Y94.524 E21.06517
G1 X99.524 Y92.548 E21.13166
G1 X100.405 Y92.548 E21.15263
G1 X97.548 Y95.405 E21.24877
G1 X97.548 Y96.286 E21.26973
G1 X101.286 Y92.548 E21.39551
G1 X102.167 Y92.548 E21.41647
G1 X97.548 Y97.167 E21.57190
G1 X97.548 Y98.048 E21.59286
G1 X102.452 Y93.143 E21.75790
G1 X102.452 Y94.024 E21.77886
G1 X97.548 Y98.929 E21.94389
G1 X97.548 Y99.810 E21.96485
G1 X102.452 Y94.905 E22.12989
G1 X102.452 Y95.786 E22.15085
G1 X97.548 Y100.690 E22.31588
G1 X97.548 Y101.571 E22.33684
G1 X102.452 Y96.667 E22.50188
G1 X102.452 Y97.548 E22.52284
G1 X97.548 Y102.452 E22.68788
G1 X97.548 Y103.333 E22.70884
G1 X102.452 Y98.429 E22.87387
G1 X102.452 Y99.310 E22.89483
G1 X97.548 Y104.214 E23.05987
G1 X97.548 Y105.095 E23.08083
G1 X102.452 Y100.190 E23.24586
G1 X102.452 Y101.071 E23.26682
G1 X97.548 Y105.976 E23.43186
G1 X97.548 Y106.857 E23.45282
G1 X102.452 Y101.952 E23.61786
G1 X102.452 Y102.833 E23.63882
G1 X97.833 Y107.452 E23.79424
G1 X98.714 Y107.452 E23.81520
G1 X102.452 Y103.714 E23.94099
G1 X102.452 Y104.595 E23.96195
G1 X99.595 Y107.452 E24.05809
G1 X100.476 Y107.452 E24.07905
G1 X102.452 Y105.476 E24.14555
G1 X102.452 Y106.357 E24.16651
G1 X101.357 Y107.452 E24.20337
G1 Z2.400 F7800.000
G1 X97.548 Y106.357 F7800.000
G1 F1611.88
G1 X98.643 Y107.452 E24.24023
G1 X99.524 Y107.452 E24.26119
G1 X97.548 Y105.476 E24.32769
G1 X97.548 Y104.595 E24.34865
G1 X100.405 Y107.452 E24.44479
G1 X101.286 Y107.452 E24.46575
G1 X97.548 Y103.714 E24.59153
G1 X97.548 Y102.833 E24.61249
G1 X102.167 Y107.452 E24.76792
G1 X102.452 Y107.452 E24.77471
G1 X102.452 Y106.857 E24.78888
G1 X97.548 Y101.952 E24.95392
G1 X97.548 Y101.071 E24.97488
G1 X102.452 Y105.976 E25.13991
G1 X102.452 Y105.095 E25.16087
G1 X97.548 Y100.190 E25.32591
G1 X97.548 Y99.310 E25.34687
G1 X102.452 Y104.214 E25.51190
G1 X102.452 Y103.333 E25.53286
G1 X97.548 Y98.429 E25.69790
G1 X97.548 Y97.548 E25.71886
G1 X102.452 Y102.452 E25.88390
G1 X102.452 Y101.571 E25.90486
G1 X97.548 Y96.667 E26.06989
G1 X97.548 Y95.786 E26.09085
G1 X102.452 Y100.690 E26.25589
G1 X102.452 Y99.810 E26.27685
G1 X97.548 Y94.905 E26.44188
G1 X97.548 Y94.024 E26.46285
G1 X102.452 Y98.929 E26.62788
G1 X102.452 Y98.048 E26.64884
G1 X97.548 Y93.143 E26.81388
G1 X97.548 Y92.548 E26.82804
G1 X97.833 Y92.548 E26.83484
G1 X102.452 Y97.167 E26.99026
G1 X102.452 Y96.286 E27.01122
G1 X98.714 Y92.548 E27.13701
G1 X99.595 Y92.548 E27.15797
G1 X102.452 Y95.405 E27.25411
G1 X102.452 Y94.524 E27.27507
G1 X100.476 Y92.548 E27.34157
G1 X101.357 Y92.548 E27.36253
G1 X102.452 Y93.643 E27.39939
G1 Z2.700 F7800.000
G1 X98.643 Y92.548 F7800.000
G1 F1611.88
G1 X97.548 Y93.643 E27.43625
G1 X97.548 Y94.524 E27.45721
G1 X99.524 Y92.548 E27.52371
G1 X100.405 Y92.548 E27.54467
G1 X97.548 Y95.405 E27.64081
G1 X97.548 Y96.286 E27.66177
G1 X101.286 Y92.548 E27.78755
G1 X102.167 Y92.548 E27.80851
G1 X97.548 Y97.167 E27.96394
G1 X97.548 Y98.048 E27.98490
G1 X102.452 Y93.143 E28.14994
G1 X102.452 Y94.024 E28.17090
G1 X97.548 Y98.929 E28.33593
G1 X97.548 Y99.810 E28.35689
G1 X102.452 Y94.905 E28.52193
G1 X102.452 Y95.786 E28.54289
G1 X97.548 Y100.690 E28.70792
G1 X97.548 Y101.571 E28.72889
G1 X102.452 Y96.667 E28.89392
G1 X102.452 Y97.548 E28.91488
G1 X97.548 Y102.452 E29.07992
G1 X97.548 Y103.333 E29.10088
G1 X102.452 Y98.429 E29.26591
G1 X102.452 Y99.310 E29.28687
G1 X97.548 Y104.214 E29.45191
G1 X97.548 Y105.095 E29.47287
G1 X102.452 Y100.190 E29.63791
G1 X102.452 Y101.071 E29.65887
G1 X97.548 Y105.976 E29.82390
G1 X97.548 Y106.857 E29.84486
G1 X102.452 Y101.952 E30.00990
G1 X102.452 Y102.833 E30.03086
G1 X97.833 Y107.452 E30.18628
G1 X98.714 Y107.452 E30.20724
G1 X102.452 Y103.714 E30.33303
G1 X102.452 Y104.595 E30.35399
G1 X99.595 Y107.452 E30.45013
G1 X100.476 Y107.452 E30.47109
G1 X102.452 Y105.476 E30.53759
G1 X102.452 Y106.357 E30.55855
G1 X101.357 Y107.452 E30.59541
G1 Z3.000 F7800.000
G1 X97.548 Y106.357 F7800.000
G1 F1611.88
G1 X98.643 Y107.452 E30.63227
G1 X99.524 Y107.452 E30.65323
G1 X97.548 Y105.476 E30.71973
G1 X97.548 Y104.595 E30.74069
G1 X100.405 Y107.452 E30.83683
G1 X101.286 Y107.452 E30.85779
G1 X97.548 Y103.714 E30.98357
G1 X97.548 Y102.833 E31.00453
G1 X102.167 Y107.452 E31.15996
G1 X102.452 Y107.452 E31.16676
G1 X102.452 Y106.857 E31.18092
G1 X97.548 Y101.952 E31.34596
G1 X97.548 Y101.071 E31.36692
G1 X102.452 Y105.976 E31.53195
G1 X102.452 Y105.095 E31.55291
G1 X97.548 Y100.190 E31.71795
G1 X97.548 Y99.310 E31.73891
G1 X102.452 Y104.214 E31.90395
G1 X102.452 Y103.333 E31.92491
G1 X97.548 Y98.429 E32.08994
G1 X97.548 Y97.548 E32.11090
G1 X102.452 Y102.452 E32.27594
G1 X102.452 Y101.571 E32.29690
G1 X97.548 Y96.667 E32.46193
G1 X97.548 Y95.786 E32.48289
G1 X102.452 Y100.690 E32.64793
G1 X102.452 Y99.810 E32.66889
G1 X97.548 Y94.905 E32.83393
G1 X97.548 Y94.024 E32.85489
G1 X102.452 Y98.929 E33.01992
G1 X102.452 Y98.048 E33.04088
G1 X97.548 Y93.143 E33.20592
G1 X97.548 Y92.548 E33.22008
G1 X97.833 Y92.548 E33.22688
G1 X102.452 Y97.167 E33.38231
G1 X102.452 Y96.286 E33.40327
G1 X98.714 Y92.548 E33.52905
G1 X99.595 Y92.548 E33.55001
G1 X102.452 Y95.405 E33.64615
G1 X102.452 Y94.524 E33.66711
G1 X100.476 Y92.548 E33.73361
G1 X101.357 Y92.548 E33.75457
G1 X102.452 Y93.643 E33.79143
G1 Z3.300 F7800.000
G1 X98.643 Y92.548 F7800.000
G1 F1611.88
G1 X97.548 Y93.643 E33.82829
G1 X97.548 Y94.524 E33.84925
G1 X99.524 Y92.548 E33.91575
G1 X100.405 Y92.548 E33.93671
G1 X97.548 Y95.405 E34.03285
G1 X97.548 Y96.286 E34.05381
G1 X101.286 Y92.548 E34.17960
G1 X102.167 Y92.548 E34.20056
G1 X97.548 Y97.167 E34.35598
G1 X97.548 Y98.048 E34.37694
G1 X102.452 Y93.143 E34.54198
G1 X102.452 Y94.024 E34.56294
G1 X97.548 Y98.929 E34.72797
G1 X97.548 Y99.810 E34.74893
G1 X102.452 Y94.905 E34.91397
G1 X102.452 Y95.786 E34.93493
G1 X97.548 Y100.690 E35.09997
G1 X97.548 Y101.571 E35.12093
G1 X102.452 Y96.667 E35.28596
G1 X102.452 Y97.548 E35.30692
G1 X97.548 Y102.452 E35.47196
G1 X97.548 Y103.333 E35.49292
G1 X102.452 Y98.429 E35.65795
G1 X102.452 Y99.310 E35.67892
G1 X97.548 Y104.214 E35.84395
G1 X97.548 Y105.095 E35.86491
G1 X102.452 Y100.190 E36.02995
G1 X102.452 Y101.071 E36.05091
G1 X97.548 Y105.976 E36.21594
G1 X97.548 Y106.857 E36.23690
G1 X102.452 Y101.952 E36.40194
G1 X102.452 Y102.833 E36.42290
G1 X97.833 Y107.452 E36.57833
G1 X98.714 Y107.452 E36.59929
G1 X102.452 Y103.714 E36.72507
G1 X102.452 Y104.595 E36.74603
G1 X99.595 Y107.452 E36.84217
G1 X100.476 Y107.452 E36.86313
G1 X102.452 Y105.476 E36.92963
G1 X102.452 Y106.357 E36.95059
G1 X101.357 Y107.452 E36.98745
G1 Z3.600 F7800.000
G1 X97.548 Y106.357 F7800.000
G1 F1611.88
G1 X98.643 Y107.452 E37.02431
G1 X99.524 Y107.452 E37.04527
G1 X97.548 Y105.476 E37.11177
G1 X97.548 Y104.595 E37.13273
G1 X100.405 Y107.452 E37.22887
G1 X101.286 Y107.452 E37.24983
G1 X97.548 Y103.714 E37.37562
G1 X97.548 Y102.833 E37.39658
G1 X102.167 Y107.452 E37.55200
G1 X102.452 Y107.452 E37.55880
G1 X102.452 Y106.857 E37.57296
G1 X97.548 Y101.952 E37.73800
G1 X97.548 Y101.071 E37.75896
G1 X102.452 Y105.976 E37.92400
G1 X102.452 Y105.095 E37.94496
G1 X97.548 Y100.190 E38.10999
G1 X97.548 Y99.310 E38.13095
G1 X102.452 Y104.214 E38.29599
G1 X102.452 Y103.333 E38.31695
G1 X97.548 Y98.429 E38.48198
G1 X97.548 Y97.548 E38.50294
G1 X102.452 Y102.452 E38.66798
G1 X102.452 Y101.571 E38.68894
G1 X97.548 Y96.667 E38.85398
G1 X97.548 Y95.786 E38.87494
G1 X102.452 Y100.690 E39.03997
G1 X102.452 Y99.810 E39.06093
G1 X97.548 Y94.905 E39.22597
G1 X97.548 Y94.024 E39.24693
G1 X102.452 Y98.929 E39.41196
G1 X102.452 Y98.048 E39.43292
G1 X97.548 Y93.143 E39.59796
G1 X97.548 Y92.548 E39.61213
G1 X97.833 Y92.548 E39.61892
G1 X102.452 Y97.167 E39.77435
G1 X102.452 Y96.286 E39.79531
G1 X98.714 Y92.548 E39.92109
G1 X99.595 Y92.548 E39.94205
G1 X102.452 Y95.405 E40.03819
G1 X102.452 Y94.524 E40.05915
G1 X100.476 Y92.548 E40.12565
G1 X101.357 Y92.548 E40.14661
G1 X102.452 Y93.643 E40.18347
G1 Z3.900 F7800.000
G1 X98.643 Y92.548 F7800.000
G1 F1611.88
G1 X97.548 Y93.643 E40.22033
G1 X97.548 Y94.524 E40.24129
G1 X99.524 Y92.548 E40.30779
G1 X100.405 Y92.548 E40.32875
G1 X97.548 Y95.405 E40.42489
G1 X97.548 Y96.286 E40.44585
G1 X101.286 Y92.548 E40.57164
G1 X102.167 Y92.548 E40.59260
G1 X97.548 Y97.167 E40.74802
G1 X97.548 Y98.048 E40.76898
G1 X102.452 Y93.143 E40.93402
G1 X102.452 Y94.024 E40.95498
G1 X97.548 Y98.929 E41.12002
G1 X97.548 Y99.810 E41.14098
G1 X102.452 Y94.905 E41.30601
G1 X102.452 Y95.786 E41.32697
G1 X97.548 Y100.690 E41.49201
G1 X97.548 Y101.571 E41.51297
G1 X102.452 Y96.667 E41.67800
G1 X102.452 Y97.548 E41.69896
G1 X97.548 Y102.452 E41.86400
G1 X97.548 Y103.333 E41.88496
G1 X102.452 Y98.429 E42.05000
G1 X102.452 Y99.310 E42.07096
G1 X97.548 Y104.214 E42.23599
G1 X97.548 Y105.095 E42.25695
G1 X102.452 Y100.190 E42.42199
G1 X102.452 Y101.071 E42.44295
G1 X97.548 Y105.976 E42.60798
G1 X97.548 Y106.857 E42.62895
G1 X102.452 Y101.952 E42.79398
G1 X102.452 Y102.833 E42.81494
G1 X97.833 Y107.452 E42.97037
G1 X98.714 Y107.452 E42.99133
G1 X102.452 Y103.714 E43.11711
G1 X102.452 Y104.595 E43.13807
G1 X99.595 Y107.452 E43.23422
G1 X100.476 Y107.452 E43.25518
G1 X102.452 Y105.476 E43.32168
G1 X102.452 Y106.357 E43.34264
G1 X101.357 Y107.452 E43.37949
G1 Z4.200 F7800.000
G1 X97.548 Y106.357 F7800.000
G1 F1611.88
G1 X98.643 Y107.452 E43.41635
G1 X99.524 Y107.452 E43.43731
G1 X97.548 Y105.476 E43.50381
G1 X97.548 Y104.595 E43.52477
G1 X100.405 Y107.452 E43.62091
G1 X101.286 Y107.452 E43.64187
G1 X97.548 Y103.714 E43.76766
G1 X97.548 Y102.833 E43.78862
G1 X102.167 Y107.452 E43.94404
G1 X102.452 Y107.452 E43.95084
G1 X102.452 Y106.857 E43.96501
G1 X97.548 Y101.952 E44.13004
G1 X97.548 Y101.071 E44.15100
G1 X102.452 Y105.976 E44.31604
G1 X102.452 Y105.095 E44.33700
G1 X97.548 Y100.190 E44.50203
G1 X97.548 Y99.310 E44.52299
G1 X102.452 Y104.214 E44.68803
G1 X102.452 Y103.333 E44.70899
G1 X97.548 Y98.429 E44.87403
G1 X97.548 Y97.548 E44.89499
G1 X102.452 Y102.452 E45.06002
G1 X102.452 Y101.571 E45.08098
G1 X97.548 Y96.667 E45.24602
G1 X97.548 Y95.786 E45.26698
G1 X102.452 Y100.690 E45.43201
G1 X102.452 Y99.810 E45.45297
G1 X97.548 Y94.905 E45.61801
G1 X97.548 Y94.024 E45.63897
G1 X102.452 Y98.929 E45.80401
G1 X102.452 Y98.048 E45.82497
G1 X97.548 Y93.143 E45.99000
G1 X97.548 Y92.548 E46.00417
G1 X97.833 Y92.548 E46.01096
G1 X102.452 Y97.167 E46.16639
G1 X102.452 Y96.286 E46.18735
G1 X98.714 Y92.548 E46.31313
G1 X99.595 Y92.548 E46.33409
G1 X102.452 Y95.405 E46.43024
G1 X102.452 Y94.524 E46.45120
G1 X100.476 Y92.548 E46.51770
G1 X101.357 Y92.548 E46.53866
G1 X102.452 Y93.643 E46.57551
G1 Z4.500 F7800.000
G1 X98.643 Y92.548 F7800.000
G1 F1611.88
G1 X97.548 Y93.643 E46.61237
G1 X97.548 Y94.524 E46.63333
G1 X99.524 Y92.548 E46.69983
G1 X100.405 Y92.548 E46.72079
G1 X97.548 Y95.405 E46.81693
G1 X97.548 Y96.286 E46.83789
G1 X101.286 Y92.548 E46.96368
G1 X102.167 Y92.548 E46.98464
G1 X97.548 Y97.167 E47.14007
G1 X97.548 Y98.048 E47.16103
G1 X102.452 Y93.143 E47.32606
G1 X102.452 Y94.024 E47.34702
G1 X97.548 Y98.929 E47.51206
G1 X97.548 Y99.810 E47.53302
G1 X102.452 Y94.905 E47.69805
G1 X102.452 Y95.786 E47.71901
G1 X97.548 Y100.690 E47.88405
G1 X97.548 Y101.571 E47.90501
G1 X102.452 Y96.667 E48.07005
G1 X102.452 Y97.548 E48.09101
G1 X97.548 Y102.452 E48.25604
G1 X97.548 Y103.333 E48.27700
G1 X102.452 Y98.429 E48.44204
G1 X102.452 Y99.310 E48.46300
G1 X97.548 Y104.214 E48.62803
G1 X97.548 Y105.095 E48.64899
G1 X102.452 Y100.190 E48.81403
G1 X102.452 Y101.071 E48.83499
G1 X97.548 Y105.976 E49.00003
G1 X97.548 Y106.857 E49.02099
G1 X102.452 Y101.952 E49.18602
G1 X102.452 Y102.833 E49.20698
G1 X97.833 Y107.452 E49.36241
G1 X98.714 Y107.452 E49.38337
G1 X102.452 Y103.714 E49.50915
G1 X102.452 Y104.595 E49.53011
G1 X99.595 Y107.452 E49.62626
G1 X100.476 Y107.452 E49.64722
G1 X102.452 Y105.476 E49.71372
G1 X102.452 Y106.357 E49.73468
G1 X101.357 Y107.452 E49.77153
G1 Z4.800 F7800.000
G1 X97.548 Y106.357 F7800.000
G1 F1611.88
G1 X98.643 Y107.452 E49.80839
G1 X99.524 Y107.452 E49.82935
G1 X97.548 Y105.476 E49.89585
G1 X97.548 Y104.595 E49.91681
G1 X100.405 Y107.452 E50.01295
G1 X101.286 Y107.452 E50.03392
G1 X97.548 Y103.714 E50.15970
G1 X97.548 Y102.833 E50.18066
G1 X102.167 Y107.452 E50.33609
G1 X102.452 Y107.452 E50.34288
G1 X102.452 Y106.857 E50.35705
G1 X97.548 Y101.952 E50.52208
G1 X97.548 Y101.071 E50.54304
G1 X102.452 Y105.976 E50.70808
G1 X102.452 Y105.095 E50.72904
G1 X97.548 Y100.190 E50.89407
G1 X97.548 Y99.310 E50.91504
G1 X102.452 Y104.214 E51.08007
G1 X102.452 Y103.333 E51.10103
G1 X97.548 Y98.429 E51.26607
G1 X97.548 Y97.548 E51.28703
G1 X102.452 Y102.452 E51.45206
G1 X102.452 Y101.571 E51.47302
G1 X97.548 Y96.667 E51.63806
G1 X97.548 Y95.786 E51.65902
G1 X102.452 Y100.690 E51.82406
G1 X102.452 Y99.810 E51.84502
G1 X97.548 Y94.905 E52.01005
G1 X97.548 Y94.024 E52.03101
G1 X102.452 Y98.929 E52.19605
G1 X102.452 Y98.048 E52.21701
G1 X97.548 Y93.143 E52.38204
G1 X97.548 Y92.548 E52.39621
G1 X97.833 Y92.548 E52.40300
G1 X102.452 Y97.167 E52.55843
G1 X102.452 Y96.286 E52.57939
G1 X98.714 Y92.548 E52.70518
G1 X99.595 Y92.548 E52.72614
G1 X102.452 Y95.405 E52.82228
G1 X102.452 Y94.524 E52.84324
G1 X100.476 Y92.548 E52.90974
G1 X101.357 Y92.548 E52.93070
G1 X102.452 Y93.643 E52.96756
G1 Z5.100 F7800.000
G1 X98.643 Y92.548 F7800.000
G1 F1611.88
G1 X97.548 Y93.643 E53.00441
G1 X97.548 Y94.524 E53.02537
G1 X99.524 Y92.548 E53.09187
G1 X100.405 Y92.548 E53.11283
G1 X97.548 Y95.405 E53.20898
G1 X97.548 Y96.286 E53.22994
G1 X101.286 Y92.548 E53.35572
G1 X102.167 Y92.548 E53.37668
G1 X97.548 Y97.167 E53.53211
G1 X97.548 Y98.048 E53.55307
G1 X102.452 Y93.143 E53.71810
G1 X102.452 Y94.024 E53.73906
G1 X97.548 Y98.929 E53.90410
G1 X97.548 Y99.810 E53.92506
G1 X102.452 Y94.905 E54.09010
G1 X102.452 Y95.786 E54.11106
G1 X97.548 Y100.690 E54.27609
G1 X97.548 Y101.571 E54.29705
G1 X102.452 Y96.667 E54.46209
G1 X102.452 Y97.548 E54.48305
G1 X97.548 Y102.452 E54.64808
G1 X97.548 Y103.333 E54.66904
G1 X102.452 Y98.429 E54.83408
G1 X102.452 Y99.310 E54.85504
G1 X97.548 Y104.214 E55.02008
G1 X97.548 Y105.095 E55.04104
G1 X102.452 Y100.190 E55.20607
G1 X102.452 Y101.071 E55.22703
G1 X97.548 Y105.976 E55.39207
G1 X97.548 Y106.857 E55.41303
G1 X102.452 Y101.952 E55.57806
G1 X102.452 Y102.833 E55.59902
G1 X97.833 Y107.452 E55.75445
G1 X98.714 Y107.452 E55.77541
G1 X102.452 Y103.714 E55.90120
G1 X102.452 Y104.595 E55.92216
G1 X99.595 Y107.452 E56.01830
G1 X100.476 Y107.452 E56.03926
G1 X102.452 Y105.476 E56.10576
G1 X102.452 Y106.357 E56.12672
G1 X101.357 Y107.452 E56.16358
G1 Z5.400 F7800.000
G1 X97.548 Y106.357 F7800.000
G1 F1611.88
G1 X98.643 Y107.452 E56.20043
G1 X99.524 Y107.452 E56.22139
G1 X97.548 Y105.476 E56.28789
G1 X97.548 Y104.595 E56.30885
G1 X100.405 Y107.452 E56.40500
G1 X101.286 Y107.452 E56.42596
G1 X97.548 Y103.714 E56.55174
G1 X97.548 Y102.833 E56.57270
G1 X102.167 Y107.452 E56.72813
G1 X102.452 Y107.452 E56.73492
G1 X102.452 Y106.857 E56.74909
G1 X97.548 Y101.952 E56.91412
G1 X97.548 Y101.071 E56.93508
G1 X102.452 Y105.976 E57.10012
G1 X102.452 Y105.095 E57.12108
G1 X97.548 Y100.190 E57.28612
G1 X97.548 Y99.310 E57.30708
G1 X102.452 Y104.214 E57.47211
G1 X102.452 Y103.333 E57.49307
G1 X97.548 Y98.429 E57.65811
G1 X97.548 Y97.548 E57.67907
G1 X102.452 Y102.452 E57.84410
G1 X102.452 Y101.571 E57.86507
G1 X97.548 Y96.667 E58.03010
G1 X97.548 Y95.786 E58.05106
G1 X102.452 Y100.690 E58.21610
G1 X102.452 Y99.810 E58.23706
G1 X97.548 Y94.905 E58.40209
G1 X97.548 Y94.024 E58.42305
G1 X102.452 Y98.929 E58.58809
G1 X102.452 Y98.048 E58.60905
G1 X97.548 Y93.143 E58.77409
G1 X97.548 Y92.548 E58.78825
G1 X97.833 Y92.548 E58.79505
G1 X102.452 Y97.167 E58.95047
G1 X102.452 Y96.286 E58.97143
G1 X98.714 Y92.548 E59.09722
G1 X99.595 Y92.548 E59.11818
G1 X102.452 Y95.405 E59.21432
G1 X102.452 Y94.524 E59.23528
G1 X100.476 Y92.548 E59.30178
G1 X101.357 Y92.548 E59.32274
G1 X102.452 Y93.643 E59.35960
G1 Z5.700 F7800.000
G1 X98.643 Y92.548 F7800.000
G1 F1611.88
G1 X97.548 Y93.643 E59.39645
G1 X97.548 Y94.524 E59.41742
G1 X99.524 Y92.548 E59.48392
G1 X100.405 Y92.548 E59.50488
G1 X97.548 Y95.405 E59.60102
G1 X97.548 Y96.286 E59.62198
G1 X101.286 Y92.548 E59.74776
G1 X102.167 Y92.548 E59.76872
G1 X97.548 Y97.167 E59.92415
G1 X97.548 Y98.048 E59.94511
G1 X102.452 Y93.143 E60.11015
G1 X102.452 Y94.024 E60.13111
G1 X97.548 Y98.929 E60.29614
G1 X97.548 Y99.810 E60.31710
G1 X102.452 Y94.905 E60.48214
G1 X102.452 Y95.786 E60.50310
G1 X97.548 Y100.690 E60.66813
G1 X97.548 Y101.571 E60.68909
G1 X102.452 Y96.667 E60.85413
G1 X102.452 Y97.548 E60.87509
G1 X97.548 Y102.452 E61.04013
G1 X97.548 Y103.333 E61.06109
G1 X102.452 Y98.429 E61.22612
G1 X102.452 Y99.310 E61.24708
G1 X97.548 Y104.214 E61.41212
G1 X97.548 Y105.095 E61.43308
G1 X102.452 Y100.190 E61.59811
G1 X102.452 Y101.071 E61.61907
G1 X97.548 Y105.976 E61.78411
G1 X97.548 Y106.857 E61.80507
G1 X102.452 Y101.952 E61.97011
G1 X102.452 Y102.833 E61.99107
G1 X97.833 Y107.452 E62.14649
G1 X98.714 Y107.452 E62.16745
G1 X102.452 Y103.714 E62.29324
G1 X102.452 Y104.595 E62.31420
G1 X99.595 Y107.452 E62.41034
G1 X100.476 Y107.452 E62.43130
G1 X102.452 Y105.476 E62.49780
G1 X102.452 Y106.357 E62.51876
G1 X101.357 Y107.452 E62.55562
G1 Z6.000 F7800.000
G1 X97.548 Y106.357 F7800.000
G1 F1611.88
G1 X98.643 Y107.452 E62.59248
G1 X99.524 Y107.452 E62.61344
G1 X97.548 Y105.476 E62.67994
G1 X97.548 Y104.595 E62.70090
G1 X100.405 Y107.452 E62.79704
G1 X101.286 Y107.452 E62.81800
G1 X97.548 Y103.714 E62.94378
G1 X97.548 Y102.833 E62.96474
G1 X102.167 Y107.452 E63.12017
G1 X102.452 Y107.452 E63.12696
G1 X102.452 Y106.857 E63.14113
G1 X97.548 Y101.952 E63.30617
G1 X97.548 Y101.071 E63.32713
G1 X102.452 Y105.976 E63.49216
G1 X102.452 Y105.095 E63.51312
G1 X97.548 Y100.190 E63.67816
G1 X97.548 Y99.310 E63.69912
G1 X102.452 Y104.214 E63.86415
G1 X102.452 Y103.333 E63.88511
G1 X97.548 Y98.429 E64.05015
G1 X97.548 Y97.548 E64.07111
G1 X102.452 Y102.452 E64.23615
G1 X102.452 Y101.571 E64.25711
G1 X97.548 Y96.667 E64.42214
G1 X97.548 Y95.786 E64.44310
G1 X102.452 Y100.690 E64.60814
G1 X102.452 Y99.810 E64.62910
G1 X97.548 Y94.905 E64.79413
G1 X97.548 Y94.024 E64.81510
G1 X102.452 Y98.929 E64.98013
G1 X102.452 Y98.048 E65.00109
G1 X97.548 Y93.143 E65.16613
G1 X97.548 Y92.548 E65.18029
G1 X97.833 Y92.548 E65.18709
G1 X102.452 Y97.167 E65.34251
G1 X102.452 Y96.286 E65.36347
G1 X98.714 Y92.548 E65.48926
G1 X99.595 Y92.548 E65.51022
G1 X102.452 Y95.405 E65.60636
G1 X102.452 Y94.524 E65.62732
G1 X100.476 Y92.548 E65.69382
G1 X101.357 Y92.548 E65.71478
G1 X102.452 Y93.643 E65.75164
G1 Z6.300 F7800.000
G1 X98.643 Y92.548 F7800.000
G1 F1611.88
G1 X97.548 Y93.643 E65.78850
G1 X97.548 Y94.524 E65.80946
G1 X99.524 Y92.548 E65.87596
G1 X100.405 Y92.548 E65.89692
G1 X97.548 Y95.405 E65.99306
G1 X97.548 Y96.286 E66.01402
G1 X101.286 Y92.548 E66.13980
G1 X102.167 Y92.548 E66.16076
G1 X97.548 Y97.167 E66.31619
G1 X97.548 Y98.048 E66.33715
G1 X102.452 Y93.143 E66.50219
G1 X102.452 Y94.024 E66.52315
G1 X97.548 Y98.929 E66.68818
G1 X97.548 Y99.810 E66.70914
G1 X102.452 Y94.905 E66.87418
G1 X102.452 Y95.786 E66.89514
G1 X97.548 Y100.690 E67.06017
G1 X97.548 Y101.571 E67.08114
G1 X102.452 Y96.667 E67.24617
G1 X102.452 Y97.548 E67.26713
G1 X97.548 Y102.452 E67.43217
G1 X97.548 Y103.333 E67.45313
G1 X102.452 Y98.429 E67.61816
G1 X102.452 Y99.310 E67.63912
G1 X97.548 Y104.214 E67.80416
G1 X97.548 Y105.095 E67.82512
G1 X102.452 Y100.190 E67.99016
G1 X102.452 Y101.071 E68.01112
G1 X97.548 Y105.976 E68.17615
G1 X97.548 Y106.857 E68.19711
G1 X102.452 Y101.952 E68.36215
G1 X102.452 Y102.833 E68.38311
G1 X97.833 Y107.452 E68.53853
G1 X98.714 Y107.452 E68.55949
G1 X102.452 Y103.714 E68.68528
G1 X102.452 Y104.595 E68.70624
G1 X99.595 Y107.452 E68.80238
G1 X100.476 Y107.452 E68.82334
G1 X102.452 Y105.476 E68.88984
G1 X102.452 Y106.357 E68.91080
G1 X101.357 Y107.452 E68.94766
G1 Z6.600 F7800.000
G1 X97.548 Y106.357 F7800.000
G1 F1611.88
G1 X98.643 Y107.452 E68.98452
G1 X99.524 Y107.452 E69.00548
G1 X97.548 Y105.476 E69.07198
G1 X97.548 Y104.595 E69.09294
G1 X100.405 Y107.452 E69.18908
G1 X101.286 Y107.452 E69.21004
G1 X97.548 Y103.714 E69.33582
G1 X97.548 Y102.833 E69.35678
G1 X102.167 Y107.452 E69.51221
G1 X102.452 Y107.452 E69.51901
G1 X102.452 Y106.857 E69.53317
G1 X97.548 Y101.952 E69.69821
G1 X97.548 Y101.071 E69.71917
G1 X102.452 Y105.976 E69.88420
G1 X102.452 Y105.095 E69.90516
G1 X97.548 Y100.190 E70.07020
G1 X97.548 Y99.310 E70.09116
G1 X102.452 Y104.214 E70.25620
G1 X102.452 Y103.333 E70.27716
G1 X97.548 Y98.429 E70.44219
G1 X97.548 Y97.548 E70.46315
G1 X102.452 Y102.452 E70.62819
G1 X102.452 Y101.571 E70.64915
G1 X97.548 Y96.667 E70.81418
G1 X97.548 Y95.786 E70.83514
G1 X102.452 Y100.690 E71.00018
G1 X102.452 Y99.810 E71.02114
G1 X97.548 Y94.905 E71.18618
G1 X97.548 Y94.024 E71.20714
G1 X102.452 Y98.929 E71.37217
G1 X102.452 Y98.048 E71.39313
G1 X97.548 Y93.143 E71.55817
G1 X97.548 Y92.548 E71.57233
G1 X97.833 Y92.548 E71.57913
G1 X102.452 Y97.167 E71.73456
G1 X102.452 Y96.286 E71.75552
G1 X98.714 Y92.548 E71.88130
G1 X99.595 Y92.548 E71.90226
G1 X102.452 Y95.405 E71.99840
G1 X102.452 Y94.524 E72.01936
G1 X100.476 Y92.548 E72.08586
G1 X101.357 Y92.548 E72.10682
G1 X102.452 Y93.643 E72.14368
G1 Z6.900 F7800.000
G1 X98.643 Y92.548 F7800.000
G1 F1611.88
G1 X97.548 Y93.643 E72.18054
G1 X97.548 Y94.524 E72.20150
G1 X99.524 Y92.548 E72.26800
G1 X100.405 Y92.548 E72.28896
G1 X97.548 Y95.405 E72.38510
G1 X97.548 Y96.286 E72.40606
G1 X101.286 Y92.548 E72.53185
G1 X102.167 Y92.548 E72.55281
G1 X97.548 Y97.167 E72.70823
G1 X97.548 Y98.048 E72.72919
G1 X102.452 Y93.143 E72.89423
G1 X102.452 Y94.024 E72.91519
G1 X97.548 Y98.929 E73.08022
G1 X97.548 Y99.810 E73.10118
G1 X102.452 Y94.905 E73.26622
G1 X102.452 Y95.786 E73.28718
G1 X97.548 Y100.690 E73.45222
G1 X97.548 Y101.571 E73.47318
G1 X102.452 Y96.667 E73.63821
G1 X102.452 Y97.548 E73.65917
G1 X97.548 Y102.452 E73.82421
G1 X97.548 Y103.333 E73.84517
G1 X102.452 Y98.429 E74.01020
G1 X102.452 Y99.310 E74.03117
G1 X97.548 Y104.214 E74.19620
G1 X97.548 Y105.095 E74.21716
G1 X102.452 Y100.190 E74.38220
G1 X102.452 Y101.071 E74.40316
G1 X97.548 Y105.976 E74.56819
G1 X97.548 Y106.857 E74.58915
G1 X102.452 Y101.952 E74.75419
G1 X102.452 Y102.833 E74.77515
G1 X97.833 Y107.452 E74.93058
G1 X98.714 Y107.452 E74.95154
G1 X102.452 Y103.714 E75.07732
G1 X102.452 Y104.595 E75.09828
G1 X99.595 Y107.452 E75.19442
G1 X100.476 Y107.452 E75.21538
G1 X102.452 Y105.476 E75.28188
G1 X102.452 Y106.357 E75.30284
G1 X101.357 Y107.452 E75.33970
G1 Z7.200 F7800.000
G1 X97.548 Y106.357 F7800.000
G1 F1611.88
G1 X98.643 Y107.452 E75.37656
G1 X99.524 Y107.452 E75.39752
G1 X97.548 Y105.476 E75.46402
G1 X97.548 Y104.595 E75.48498
G1 X100.405 Y107.452 E75.58112
G1 X101.286 Y107.452 E75.60208
G1 X97.548 Y103.714 E75.72787
G1 X97.548 Y102.833 E75.74883
G1 X102.167 Y107.452 E75.90425
G1 X102.452 Y107.452 E75.91105
G1 X102.452 Y106.857 E75.92521
G1 X97.548 Y101.952 E76.09025
G1 X97.548 Y101.071 E76.11121
G1 X102.452 Y105.976 E76.27625
G1 X102.452 Y105.095 E76.29721
G1 X97.548 Y100.190 E76.46224
G1 X97.548 Y99.310 E76.48320
G1 X102.452 Y104.214 E76.64824
G1 X102.452 Y103.333 E76.66920
G1 X97.548 Y98.429 E76.83423
G1 X97.548 Y97.548 E76.85519
G1 X102.452 Y102.452 E77.02023
G1 X102.452 Y101.571 E77.04119
G1 X97.548 Y96.667 E77.20623
G1 X97.548 Y95.786 E77.22719
G1 X102.452 Y100.690 E77.39222
G1 X102.452 Y99.810 E77.41318
G1 X97.548 Y94.905 E77.57822
G1 X97.548 Y94.024 E77.59918
G1 X102.452 Y98.929 E77.76421
G1 X102.452 Y98.048 E77.78517
G1 X97.548 Y93.143 E77.95021
G1 X97.548 Y92.548 E77.96438
G1 X97.833 Y92.548 E77.97117
G1 X102.452 Y97.167 E78.12660
G1 X102.452 Y96.286 E78.14756
G1 X98.714 Y92.548 E78.27334
G1 X99.595 Y92.548 E78.29430
G1 X102.452 Y95.405 E78.39044
G1 X102.452 Y94.524 E78.41141
G1 X100.476 Y92.548 E78.47790
G1 X101.357 Y92.548 E78.49887
G1 X102.452 Y93.643 E78.53572
G1 Z7.500 F7800.000
G1 X98.643 Y92.548 F7800.000
G1 F1611.88
G1 X97.548 Y93.643 E78.57258
G1 X97.548 Y94.524 E78.59354
G1 X99.524 Y92.548 E78.66004
G1 X100.405 Y92.548 E78.68100
G1 X97.548 Y95.405 E78.77714
G1 X97.548 Y96.286 E78.79810
G1 X101.286 Y92.548 E78.92389
G1 X102.167 Y92.548 E78.94485
G1 X97.548 Y97.167 E79.10027
G1 X97.548 Y98.048 E79.12123
G1 X102.452 Y93.143 E79.28627
G1 X102.452 Y94.024 E79.30723
G1 X97.548 Y98.929 E79.47227
G1 X97.548 Y99.810 E79.49323
G1 X102.452 Y94.905 E79.65826
G1 X102.452 Y95.786 E79.67922
G1 X97.548 Y100.690 E79.84426
G1 X97.548 Y101.571 E79.86522
G1 X102.452 Y96.667 E80.03025
G1 X102.452 Y97.548 E80.05121
G1 X97.548 Y102.452 E80.21625
G1 X97.548 Y103.333 E80.23721
G1 X102.452 Y98.429 E80.40225
G1 X102.452 Y99.310 E80.42321
G1 X97.548 Y104.214 E80.58824
G1 X97.548 Y105.095 E80.60920
G1 X102.452 Y100.190 E80.77424
G1 X102.452 Y101.071 E80.79520
G1 X97.548 Y105.976 E80.96023
G1 X97.548 Y106.857 E80.98120
G1 X102.452 Y101.952 E81.14623
G1 X102.452 Y102.833 E81.16719
G1 X97.833 Y107.452 E81.32262
G1 X98.714 Y107.452 E81.34358
G1 X102.452 Y103.714 E81.46936
G1 X102.452 Y104.595 E81.49032
G1 X99.595 Y107.452 E81.58647
G1 X100.476 Y107.452 E81.60743
G1 X102.452 Y105.476 E81.67393
G1 X102.452 Y106.357 E81.69489
G1 X101.357 Y107.452 E81.73174
G1 Z7.800 F7800.000
G1 X97.548 Y106.357 F7800.000
G1 F1611.88
G1 X98.643 Y107.452 E81.76860
G1 X99.524 Y107.452 E81.78956
G1 X97.548 Y105.476 E81.85606
G1 X97.548 Y104.595 E81.87702
G1 X100.405 Y107.452 E81.97316
G1 X101.286 Y107.452 E81.99412
G1 X97.548 Y103.714 E82.11991
G1 X97.548 Y102.833 E82.14087
G1 X102.167 Y107.452 E82.29629
G1 X102.452 Y107.452 E82.30309
G1 X102.452 Y106.857 E82.31726
G1 X97.548 Y101.952 E82.48229
G1 X97.548 Y101.071 E82.50325
G1 X102.452 Y105.976 E82.66829
G1 X102.452 Y105.095 E82.68925
G1 X97.548 Y100.190 E82.85428
G1 X97.548 Y99.310 E82.87524
G1 X102.452 Y104.214 E83.04028
G1 X102.452 Y103.333 E83.06124
G1 X97.548 Y98.429 E83.22628
G1 X97.548 Y97.548 E83.24724
G1 X102.452 Y102.452 E83.41227
G1 X102.452 Y101.571 E83.43323
G1 X97.548 Y96.667 E83.59827
G1 X97.548 Y95.786 E83.61923
G1 X102.452 Y100.690 E83.78426
G1 X102.452 Y99.810 E83.80522
G1 X97.548 Y94.905 E83.97026
G1 X97.548 Y94.024 E83.99122
G1 X102.452 Y98.929 E84.15626
G1 X102.452 Y98.048 E84.17722
G1 X97.548 Y93.143 E84.34225
G1 X97.548 Y92.548 E84.35642
G1 X97.833 Y92.548 E84.36321
G1 X102.452 Y97.167 E84.51864
G1 X102.452 Y96.286 E84.53960
G1 X98.714 Y92.548 E84.66538
G1 X99.595 Y92.548 E84.68634
G1 X102.452 Y95.405 E84.78249
G1 X102.452 Y94.524 E84.80345
G1 X100.476 Y92.548 E84.86995
G1 X101.357 Y92.548 E84.89091
G1 X102.452 Y93.643 E84.92776
G1 Z8.100 F7800.000
G1 E82.92776 F2400.00000
G92 E0
G1 X98.643 Y92.548 F7800.000
G1 E2.00000 F2400.00000
G1 F1611.88
G1 X97.548 Y93.643 E2.03686
G1 X97.548 Y94.524 E2.05782
G1 X99.524 Y92.548 E2.12432
G1 X100.405 Y92.548 E2.14528
G1 X97.548 Y95.405 E2.24142
G1 X97.548 Y96.286 E2.26238
G1 X101.286 Y92.548 E2.38816
G1 X102.167 Y92.548 E2.40912
G1 X97.548 Y97.167 E2.56455
G1 X97.548 Y98.048 E2.58551
G1 X102.452 Y93.143 E2.75055
G1 X102.452 Y94.024 E2.77151
G1 X97.548 Y98.929 E2.93654
G1 X97.548 Y99.810 E2.95750
G1 X102.452 Y94.905 E3.12254
G1 X102.452 Y95.786 E3.14350
G1 X97.548 Y100.690 E3.30854
G1 X97.548 Y101.571 E3.32950
G1 X102.452 Y96.667 E3.49453
G1 X102.452 Y97.548 E3.51549
G1 X97.548 Y102.452 E3.68053
G1 X97.548 Y103.333 E3.70149
G1 X102.452 Y98.429 E3.86652
G1 X102.452 Y99.310 E3.88748
G1 X97.548 Y104.214 E4.05252
G1 X97.548 Y105.095 E4.07348
G1 X102.452 Y100.190 E4.23852
G1 X102.452 Y101.071 E4.25948
G1 X97.548 Y105.976 E4.42451
G1 X97.548 Y106.857 E4.44547
G1 X102.452 Y101.952 E4.61051
G1 X102.452 Y102.833 E4.63147
G1 X97.833 Y107.452 E4.78690
G1 X98.714 Y107.452 E4.80786
G1 X102.452 Y103.714 E4.93364
G1 X102.452 Y104.595 E4.95460
G1 X99.595 Y107.452 E5.05074
G1 X100.476 Y107.452 E5.07170
G1 X102.452 Y105.476 E5.13820
G1 X102.452 Y106.357 E5.15916
G1 X101.357 Y107.452 E5.19602
G1 E3.19602 F2400.00000
G92 E0
M107
; Filament-specific end gcode 
;END gcode for filament

M104 S0 ; turn off temperature
G28 X0  ; home X axis
M84     ; disable motors

M140 S0 ; set bed temperature
; filament used = 86.1mm (0.6cm3)
; total filament cost = 0.0

; avoid_crossing_perimeters = 0
; bed_shape = 0x0,200x0,200x200,0x200
; bed_temperature = 0
; before_layer_gcode = 
; between_objects_gcode = 
; bridge_acceleration = 0
; bridge_fan_speed = 100
; brim_connections_width = 0
; brim_width = 0
; complete_objects = 0
; cooling = 1
; default_acceleration = 0
; disable_fan_first_layers = 3
; duplicate_distance = 6
; end_filament_gcode = "; Filament-specific end gcode \n;END gcode for filament\n"
; end_gcode = M104 S0 ; turn off temperature\nG28 X0  ; home X axis\nM84     ; disable motors\n
; extruder_clearance_height = 20
; extruder_clearance_radius = 20
; extruder_offset = 0x0
; extrusion_axis = E
; extrusion_multiplier = 1
; fan_always_on = 0
; fan_below_layer_time = 60
; filament_colour = #FFFFFF
; filament_cost = 0
; filament_density = 0
; filament_diameter = 3
; filament_max_volumetric_speed = 0
; filament_notes = ""
; first_layer_acceleration = 0
; first_layer_bed_temperature = 0
; first_layer_extrusion_width = 200%
; first_layer_speed = 30
; first_layer_temperature = 205
; gcode_arcs = 0
; gcode_comments = 0
; gcode_flavor = reprap
; has_heatbed = 1
; infill_acceleration = 0
; infill_first = 0
; interior_brim_width = 0
; layer_gcode = 
; max_fan_speed = 100
; max_layer_height = 0.3
; max_print_speed = 80
; max_volumetric_speed = 0
; min_fan_speed = 35
; min_layer_height = 0.15
; min_print_speed = 10
; min_skirt_length = 0
; notes = 
; nozzle_diameter = 0.5
; only_retract_when_crossing_perimeters = 1
; ooze_prevention = 0
; output_filename_format = [input_filename_base].gcode
; perimeter_acceleration = 0
; post_process = 
; pressure_advance = 0
; printer_notes = 
; resolution = 0
; retract_before_travel = 2
; retract_layer_change = 0
; retract_length = 2
; retract_length_toolchange = 10
; retract_lift = 0
; retract_lift_above = 0
; retract_lift_below = 0
; retract_restart_extra = 0
; retract_restart_extra_toolchange = 0
; retract_speed = 40
; skirt_distance = 6
; skirt_height = 1
; skirts = 0
; slowdown_below_layer_time = 5
; spiral_vase = 0
; standby_temperature_delta = -5
; start_filament_gcode = "; Filament gcode\n"
; start_gcode = G28 ; home all axes\nG1 Z5 F5000 ; lift nozzle\n
; temperature = 200
; threads = 8
; toolchange_gcode = 
; travel_speed = 130
; use_firmware_retraction = 0
; use_relative_e_distances = 0
; use_set_and_wait_bed = 0
; use_set_and_wait_extruder = 0
; use_volumetric_e = 0
; vibration_limit = 0
; wipe = 0
; z_offset = 0
; z_steps_per_mm = 0
; adaptive_slicing = 0
; adaptive_slicing_quality = 75%
; dont_support_bridges = 1
; extrusion_width = 0
; first_layer_height = 0.3
; infill_only_where_needed = 0
; interface_shells = 0
; layer_height = 0.3
; match_horizontal_surfaces = 0
; raft_layers = 0
; regions_overlap = 0
; seam_position = aligned
; sequential_print_priority = 0
; support_material = 0
; support_material_angle = 0
; support_material_buildplate_only = 0
; support_material_contact_distance = 0.2
; support_material_enforce_layers = 0
; support_material_extruder = 1
; support_material_extrusion_width = 0
; support_material_interface_extruder = 1
; support_material_interface_extrusion_width = 0
; support_material_interface_layers = 3
; support_material_interface_spacing = 0
; support_material_interface_speed = 100%
; support_material_max_layers = 0
; support_material_pattern = pillars
; support_material_spacing = 2.5
; support_material_speed = 60
; support_material_threshold = 60%
; xy_size_compensation = 0
; bottom_infill_pattern = rectilinear
; bottom_solid_layers = 0
; bridge_flow_ratio = 1
; bridge_speed = 60
; external_perimeter_extrusion_width = 0
; external_perimeter_speed = 50%
; external_perimeters_first = 0
; extra_perimeters = 1
; fill_angle = 45
; fill_density = 90%
; fill_gaps = 1
; fill_pattern = rectilinear
; gap_fill_speed = 20
; infill_every_layers = 1
; infill_extruder = 1
; infill_extrusion_width = 0
; infill_overlap = 55%
; infill_speed = 80
; overhangs = 1
; perimeter_extruder = 1
; perimeter_extrusion_width = 0
; perimeter_speed = 60
; perimeters = 0
; small_perimeter_speed = 15
; solid_infill_below_area = 70
; solid_infill_every_layers = 0
; solid_infill_extruder = 1
; solid_infill_extrusion_width = 0
; solid_infill_speed = 20
; thin_walls = 1
; top_infill_extrusion_width = 0
; top_infill_pattern = rectilinear
; top_solid_infill_speed = 15
; top_solid_layers = 0
