;START_OF_HEADER
;HEADER_VERSION:0.1
;FLAVOR:Griffin
;GENERATOR.NAME:Cura_SteamEngine
;GENERATOR.VERSION:5.6.0
;GENERATOR.BUILD_DATE:2023-11-28
;TARGET_MACHINE.NAME:Ultimaker 3
;EXTRUDER_TRAIN.0.INITIAL_TEMPERATURE:200
;EXTRUDER_TRAIN.0.MATERIAL.VOLUME_USED:22542
;EXTRUDER_TRAIN.0.MATERIAL.GUID:e509f649-9fe6-4b14-ac45-d441438cb4ef
;EXTRUDER_TRAIN.0.NOZZLE.DIAMETER:0.4
;EXTRUDER_TRAIN.0.NOZZLE.NAME:AA 0.4
;BUILD_PLATE.INITIAL_TEMPERATURE:60
;PRINT.TIME:17173
;PRINT.GROUPS:1
;PRINT.SIZE.MIN.X:9
;PRINT.SIZE.MIN.Y:6
;PRINT.SIZE.MIN.Z:0.2
;PRINT.SIZE.MAX.X:201.125
;PRINT.SIZE.MAX.Y:195.428
;PRINT.SIZE.MAX.Z:4.85
;SLICE_UUID:f7cf054f-a072-4f65-b2f0-15faaef5d329
;END_OF_HEADER
;Generated with Cura_SteamEngine 5.6.0
T0
M82 ;absolute extrusion mode

G92 E0
M190 S60
M109 S200
G0 F15000 X9 Y6 Z2
G280
G1 F1500 E-6.5
;LAYER_COUNT:32
;LAYER:0
M106 S255
M204 S1000
M205 X20 Y20
G1 F600 Z2.2
G0 F15000 X17.926 Y32.796 Z2.2
;TYPE:SKIRT
G1 F600 Z0.2
G1 F1500 E0
G1 F1350 X24.077 Y32.796 E0.07714
G1 X26.571 Y33.644 E0.11017
G1 X28.339 Y35.464 E0.14199
G1 X30.154 Y33.701 E0.17372
G1 X32.926 Y32.796 E0.21029
G1 X37.671 Y32.796 E0.26979
G1 X38.447 Y32.543 E0.28003
G1 X44.598 Y32.543 E0.35716
G1 X47.092 Y33.391 E0.3902
G1 X48.86 Y35.211 E0.42202
G1 X50.675 Y33.448 E0.45375
G1 X53.447 Y32.543 E0.49032
G1 X64.598 Y32.543 E0.63015
G1 X67.092 Y33.391 E0.66319
G1 X68.86 Y35.211 E0.69501
G1 X70.675 Y33.448 E0.72674
G1 X73.447 Y32.543 E0.76331
G1 X76.405 Y32.543 E0.8004
G1 X76.647 Y31.968 E0.80822
G1 X79.013 Y29.67 E0.84958
G1 X81.785 Y28.765 E0.88615
G1 X117.936 Y28.765 E1.3395
G1 X119.975 Y29.458 E1.36651
G1 X120.172 Y29.57 E1.36935
G1 X120.924 Y29.323 E1.37927
G1 X155.99 Y29.323 E1.81901
G1 X157.951 Y28.682 E1.84489
G1 X194.102 Y28.682 E2.29823
G1 X196.596 Y29.53 E2.33127
G1 X198.961 Y31.965 E2.37384
G1 X199.866 Y34.737 E2.4104
G1 X199.862 Y64.373 E2.78205
G1 X200.47 Y66.232 E2.80658
G1 X200.47 Y95.196 E3.1698
G1 X200.539 Y95.354 E3.17196
G1 X201.125 Y97.148 E3.19563
G1 X201.125 Y126.954 E3.5694
G1 X200.891 Y128.026 E3.58316
G1 X200.995 Y128.527 E3.58958
G1 X200.995 Y158.081 E3.9602
G1 X200.614 Y159.824 E3.98257
G1 X200.284 Y160.36 E3.99047
G1 X200.284 Y189.239 E4.35262
G1 X199.91 Y190.957 E4.37467
G1 X198.928 Y192.567 E4.39832
G1 X196.984 Y194.453 E4.43228
G1 X194.223 Y195.348 E4.46868
G1 X188.423 Y195.348 E4.54142
G1 X186.705 Y194.974 E4.56346
G1 X185.318 Y194.128 E4.58384
G1 X184.895 Y194.482 E4.59076
G1 X182.223 Y195.348 E4.62598
G1 X176.423 Y195.348 E4.69871
G1 X174.705 Y194.974 E4.72076
G1 X173.095 Y193.992 E4.74441
G1 X171.209 Y192.048 E4.77838
G1 X170.314 Y189.287 E4.81477
G1 X170.314 Y181.348 E4.91433
G1 X163.785 Y181.348 E4.99621
G1 X163.785 Y189.319 E5.09617
G1 X163.411 Y191.037 E5.11822
G1 X162.429 Y192.647 E5.14187
G1 X160.485 Y194.533 E5.17583
G1 X157.724 Y195.428 E5.21223
G1 X151.924 Y195.428 E5.28496
G1 X150.206 Y195.054 E5.30701
G1 X148.819 Y194.208 E5.32739
G1 X148.396 Y194.562 E5.3343
G1 X145.724 Y195.428 E5.36953
G1 X139.924 Y195.428 E5.44226
G1 X138.206 Y195.054 E5.46431
G1 X136.596 Y194.072 E5.48796
G1 X134.71 Y192.128 E5.52193
G1 X133.815 Y189.367 E5.55832
G1 X133.815 Y181.428 E5.65788
G1 X125.843 Y181.428 E5.75785
G1 X125.843 Y189.298 E5.85655
G1 X125.469 Y191.016 E5.8786
G1 X124.487 Y192.626 E5.90224
G1 X122.543 Y194.512 E5.93621
G1 X119.782 Y195.407 E5.97261
G1 X113.982 Y195.407 E6.04534
G1 X112.264 Y195.033 E6.06739
G1 X110.877 Y194.187 E6.08776
G1 X110.454 Y194.541 E6.09468
G1 X107.782 Y195.407 E6.12991
G1 X101.982 Y195.407 E6.20264
G1 X100.264 Y195.033 E6.22469
G1 X98.654 Y194.051 E6.24834
G1 X96.768 Y192.107 E6.2823
G1 X95.873 Y189.346 E6.3187
G1 X95.873 Y181.407 E6.41826
G1 X85.636 Y181.407 E6.54664
G1 X85.636 Y188.614 E6.63701
G1 X85.262 Y190.332 E6.65906
G1 X84.28 Y191.942 E6.68271
G1 X82.336 Y193.828 E6.71668
G1 X79.575 Y194.723 E6.75308
G1 X73.775 Y194.723 E6.82581
G1 X72.057 Y194.349 E6.84786
G1 X70.67 Y193.503 E6.86823
G1 X70.247 Y193.857 E6.87515
G1 X67.575 Y194.723 E6.91037
G1 X61.775 Y194.723 E6.98311
G1 X60.057 Y194.349 E7.00516
G1 X58.447 Y193.367 E7.02881
G1 X56.561 Y191.423 E7.06277
G1 X55.666 Y188.662 E7.09917
G1 X55.666 Y180.723 E7.19873
G1 X43.705 Y180.723 E7.34872
G1 X43.705 Y183.419 E7.38253
G1 X43.373 Y184.943 E7.40209
G1 X43.146 Y185.41 E7.4086
G1 X43.184 Y185.65 E7.41165
G1 X43.184 Y189.141 E7.45543
G1 X42.81 Y190.859 E7.47748
G1 X41.828 Y192.469 E7.50113
G1 X39.884 Y194.355 E7.53509
G1 X37.123 Y195.25 E7.57149
G1 X16.323 Y195.25 E7.83233
G1 X14.605 Y194.876 E7.85438
G1 X12.995 Y193.894 E7.87803
G1 X11.109 Y191.95 E7.91199
G1 X10.214 Y189.189 E7.94839
G1 X10.214 Y185.044 E8.00037
G1 X10.78 Y183.377 E8.02245
G1 X10.735 Y183.089 E8.0261
G1 X10.74 Y179.778 E8.06763
G1 X10.776 Y179.563 E8.07036
G1 X10.478 Y178.64 E8.08252
G1 X10.478 Y174.836 E8.13023
G1 X10.756 Y173.636 E8.14567
G1 X10.789 Y173.546 E8.14687
G1 X10.789 Y170.227 E8.1885
G1 X11.435 Y168.327 E8.21366
G1 X11.236 Y167.711 E8.22178
G1 X11.236 Y163.81 E8.2707
G1 X11.358 Y163.271 E8.27763
G1 X11.142 Y162.608 E8.28637
G1 X11.142 Y158.736 E8.33493
G1 X11.269 Y158.175 E8.34214
G1 X10.836 Y156.851 E8.35961
G1 X10.836 Y152.976 E8.40821
G1 X10.959 Y152.428 E8.41525
G1 X10.8 Y151.884 E8.42236
G1 X10.832 Y148.284 E8.4675
G1 X10.917 Y147.766 E8.47409
G1 X10.825 Y147.203 E8.48124
G1 X10.825 Y143.919 E8.52242
G1 X10.924 Y143.441 E8.52855
G1 X10.762 Y142.888 E8.53577
G1 X10.762 Y138.805 E8.58697
G1 X11.339 Y137.108 E8.60945
G1 X11.339 Y133.805 E8.65087
G1 X11.425 Y133.39 E8.65619
G1 X11.221 Y132.77 E8.66437
G1 X11.221 Y128.954 E8.71223
G1 X11.487 Y127.792 E8.72718
G1 X11.506 Y124.467 E8.76887
G1 X11.663 Y123.727 E8.77836
G1 X11.635 Y123.464 E8.78168
G1 X11.635 Y120.015 E8.82493
G1 X11.796 Y119.475 E8.83199
G1 X11.64 Y118.929 E8.83912
G1 X11.64 Y114.84 E8.89039
G1 X11.968 Y113.873 E8.9032
G1 X11.932 Y113.595 E8.90671
G1 X11.932 Y109.949 E8.95244
G1 X12.34 Y108.747 E8.96835
G1 X12.273 Y108.355 E8.97334
G1 X12.273 Y104.59 E9.02056
G1 X12.483 Y103.972 E9.02874
G1 X12.392 Y103.478 E9.03504
G1 X12.392 Y99.706 E9.08234
G1 X13.138 Y97.528 E9.11121
G1 X12.392 Y95.24 E9.14139
G1 X12.392 Y88.307 E9.22833
G1 X12.901 Y86.806 E9.24821
G1 X12.392 Y85.246 E9.26879
G1 X12.392 Y78.307 E9.35581
G1 X12.901 Y76.806 E9.37568
G1 X12.392 Y75.246 E9.39626
G1 X12.392 Y68.307 E9.48328
G1 X12.901 Y66.806 E9.50315
G1 X12.392 Y65.246 E9.52373
G1 X12.392 Y58.307 E9.61075
G1 X12.901 Y56.806 E9.63062
G1 X12.392 Y55.246 E9.6512
G1 X12.392 Y48.312 E9.73816
G1 X12.591 Y47.733 E9.74583
G1 X11.871 Y45.511 E9.77513
G1 X11.871 Y38.56 E9.86229
G1 X12.719 Y36.066 E9.89533
G1 X15.154 Y33.701 E9.9379
G1 X17.926 Y32.796 E9.97446
G0 F15000 X17.989 Y33.196
G1 F1350 X24.01 Y33.196 E10.04997
G1 X26.351 Y33.992 E10.08098
G1 X28.331 Y36.03 E10.11661
G1 X30.367 Y34.052 E10.15221
G1 X32.989 Y33.196 E10.1868
G1 X37.734 Y33.196 E10.2463
G1 X38.51 Y32.943 E10.25654
G1 X44.531 Y32.943 E10.33204
G1 X46.872 Y33.739 E10.36305
G1 X48.852 Y35.777 E10.39868
G1 X50.888 Y33.799 E10.43428
G1 X53.51 Y32.943 E10.46887
G1 X64.531 Y32.943 E10.60708
G1 X66.872 Y33.739 E10.63808
G1 X68.852 Y35.777 E10.67372
G1 X70.888 Y33.799 E10.70931
G1 X73.51 Y32.943 E10.7439
G1 X76.691 Y32.943 E10.78379
G1 X76.926 Y32.255 E10.79291
G1 X79.226 Y30.021 E10.83312
G1 X81.848 Y29.165 E10.86771
G1 X117.869 Y29.165 E11.31942
G1 X119.846 Y29.837 E11.34561
G1 X120.119 Y30.009 E11.34966
G1 X120.988 Y29.723 E11.36113
G1 X156.114 Y29.723 E11.80162
G1 X156.282 Y29.648 E11.80393
G1 X158.014 Y29.082 E11.82678
G1 X194.035 Y29.082 E12.2785
G1 X196.376 Y29.878 E12.3095
G1 X198.61 Y32.178 E12.34971
G1 X199.466 Y34.8 E12.3843
G1 X199.462 Y64.436 E12.75595
G1 X200.07 Y66.295 E12.78048
G1 X200.07 Y95.283 E13.144
G1 X200.159 Y95.478 E13.14668
G1 X200.725 Y97.211 E13.16955
G1 X200.725 Y126.91 E13.54198
G1 X200.481 Y128.028 E13.55633
G1 X200.595 Y128.527 E13.56275
G1 X200.595 Y158.037 E13.93282
G1 X200.238 Y159.671 E13.95379
G1 X199.884 Y160.246 E13.96226
G1 X199.884 Y189.195 E14.32529
G1 X199.533 Y190.808 E14.34599
G1 X198.615 Y192.313 E14.3681
G1 X196.772 Y194.101 E14.4003
G1 X194.159 Y194.948 E14.43475
G1 X188.467 Y194.948 E14.50613
G1 X186.854 Y194.597 E14.52683
G1 X185.261 Y193.625 E14.55023
G1 X184.772 Y194.101 E14.55879
G1 X182.159 Y194.948 E14.59323
G1 X176.467 Y194.948 E14.66461
G1 X174.854 Y194.597 E14.68531
G1 X173.349 Y193.679 E14.70742
G1 X171.561 Y191.836 E14.73962
G1 X170.714 Y189.223 E14.77407
G1 X170.714 Y180.948 E14.87784
G1 X163.385 Y180.948 E14.96975
G1 X163.385 Y189.275 E15.07417
G1 X163.034 Y190.888 E15.09487
G1 X162.116 Y192.393 E15.11698
G1 X160.273 Y194.181 E15.14918
G1 X157.66 Y195.028 E15.18363
G1 X151.968 Y195.028 E15.25501
G1 X150.355 Y194.677 E15.27571
G1 X148.762 Y193.705 E15.29911
G1 X148.273 Y194.181 E15.30767
G1 X145.66 Y195.028 E15.34212
G1 X139.968 Y195.028 E15.4135
G1 X138.355 Y194.677 E15.4342
G1 X136.85 Y193.759 E15.4563
G1 X135.062 Y191.916 E15.48851
G1 X134.215 Y189.303 E15.52295
G1 X134.215 Y181.028 E15.62672
G1 X125.443 Y181.028 E15.73673
G1 X125.443 Y189.254 E15.83988
G1 X125.092 Y190.867 E15.86059
G1 X124.174 Y192.372 E15.88269
G1 X122.331 Y194.16 E15.91489
G1 X119.718 Y195.007 E15.94934
G1 X114.026 Y195.007 E16.02072
G1 X112.413 Y194.656 E16.04142
G1 X110.82 Y193.684 E16.06482
G1 X110.331 Y194.16 E16.07338
G1 X107.718 Y195.007 E16.10783
G1 X102.026 Y195.007 E16.17921
G1 X100.413 Y194.656 E16.19991
G1 X98.908 Y193.738 E16.22202
G1 X97.12 Y191.895 E16.25422
G1 X96.273 Y189.282 E16.28866
G1 X96.273 Y181.007 E16.39243
G1 X85.236 Y181.007 E16.53084
G1 X85.236 Y188.57 E16.62569
G1 X84.885 Y190.183 E16.64639
G1 X83.967 Y191.688 E16.66849
G1 X82.124 Y193.476 E16.70069
G1 X79.511 Y194.323 E16.73514
G1 X73.819 Y194.323 E16.80652
G1 X72.206 Y193.972 E16.82722
G1 X70.613 Y193 E16.85062
G1 X70.124 Y193.476 E16.85918
G1 X67.511 Y194.323 E16.89363
G1 X61.819 Y194.323 E16.96501
G1 X60.206 Y193.972 E16.98571
G1 X58.701 Y193.054 E17.00782
G1 X56.913 Y191.211 E17.04002
G1 X56.066 Y188.598 E17.07446
G1 X56.066 Y180.323 E17.17824
G1 X43.863 Y180.323 E17.33127
G1 X43.305 Y180.211 E17.3384
G1 X43.305 Y183.375 E17.37808
G1 X42.982 Y184.858 E17.39711
G1 X42.728 Y185.347 E17.40402
G1 X42.784 Y185.65 E17.40789
G1 X42.784 Y189.097 E17.45111
G1 X42.433 Y190.71 E17.47182
G1 X41.515 Y192.215 E17.49392
G1 X39.672 Y194.003 E17.52612
G1 X37.059 Y194.85 E17.56057
G1 X16.367 Y194.85 E17.82006
G1 X14.754 Y194.499 E17.84076
G1 X13.249 Y193.581 E17.86286
G1 X11.461 Y191.738 E17.89507
G1 X10.614 Y189.125 E17.92951
G1 X10.614 Y185.111 E17.97985
G1 X11.192 Y183.409 E18.00239
G1 X11.135 Y183.089 E18.00647
G1 X11.135 Y179.844 E18.04716
G1 X11.187 Y179.533 E18.05111
G1 X10.878 Y178.576 E18.06372
G1 X10.878 Y174.882 E18.11005
G1 X11.132 Y173.773 E18.12432
G1 X11.189 Y173.617 E18.1264
G1 X11.189 Y170.294 E18.16807
G1 X11.857 Y168.33 E18.19409
G1 X11.636 Y167.647 E18.20309
G1 X11.636 Y163.81 E18.25121
G1 X11.773 Y163.256 E18.25836
G1 X11.542 Y162.545 E18.26774
G1 X11.542 Y158.736 E18.3155
G1 X11.684 Y158.159 E18.32295
G1 X11.236 Y156.788 E18.34104
G1 X11.236 Y152.976 E18.38885
G1 X11.373 Y152.418 E18.39605
G1 X11.201 Y151.829 E18.40375
G1 X11.232 Y148.288 E18.44815
G1 X11.323 Y147.767 E18.45479
G1 X11.225 Y147.203 E18.46196
G1 X11.225 Y143.961 E18.50262
G1 X11.336 Y143.425 E18.50948
G1 X11.162 Y142.831 E18.51725
G1 X11.162 Y138.872 E18.56689
G1 X11.739 Y137.175 E18.58937
G1 X11.739 Y133.848 E18.63109
G1 X11.839 Y133.368 E18.63724
G1 X11.621 Y132.706 E18.64598
G1 X11.621 Y128.999 E18.69247
G1 X11.887 Y127.838 E18.70741
G1 X11.906 Y124.509 E18.74915
G1 X12.068 Y123.745 E18.75895
G1 X12.035 Y123.464 E18.7625
G1 X12.035 Y120.015 E18.80575
G1 X12.217 Y119.478 E18.81286
G1 X12.04 Y118.929 E18.82009
G1 X12.04 Y114.907 E18.87053
G1 X12.378 Y113.911 E18.88372
G1 X12.332 Y113.595 E18.88772
G1 X12.332 Y110.016 E18.93261
G1 X12.752 Y108.778 E18.949
G1 X12.673 Y108.355 E18.9544
G1 X12.673 Y104.657 E19.00077
G1 X12.896 Y104 E19.00947
G1 X12.792 Y103.478 E19.01615
G1 X12.792 Y99.774 E19.06259
G1 X13.495 Y97.706 E19.08999
G1 X13.572 Y97.568 E19.09197
G1 X12.792 Y95.177 E19.12351
G1 X12.792 Y88.374 E19.20882
G1 X13.323 Y86.809 E19.22954
G1 X12.792 Y85.183 E19.25099
G1 X12.792 Y78.374 E19.33638
G1 X13.323 Y76.809 E19.35711
G1 X12.792 Y75.183 E19.37856
G1 X12.792 Y68.374 E19.46394
G1 X13.323 Y66.809 E19.48467
G1 X12.792 Y65.183 E19.50612
G1 X12.792 Y58.374 E19.59151
G1 X13.323 Y56.809 E19.61223
G1 X12.792 Y55.183 E19.63368
G1 X12.792 Y48.378 E19.71902
G1 X13.029 Y47.688 E19.72817
G1 X12.942 Y47.519 E19.73055
G1 X12.271 Y45.447 E19.75786
G1 X12.271 Y38.627 E19.84339
G1 X13.067 Y36.286 E19.8744
G1 X15.367 Y34.052 E19.91461
G1 X17.989 Y33.196 E19.94919
G0 F15000 X18.052 Y33.596
G1 F1350 X23.943 Y33.596 E20.02307
G1 X26.131 Y34.34 E20.05205
G1 X28.17 Y36.439 E20.08875
G1 X28.323 Y36.777 E20.0934
G1 X28.484 Y36.439 E20.0981
G1 X30.58 Y34.403 E20.13474
G1 X33.052 Y33.596 E20.16735
G1 X37.797 Y33.596 E20.22685
G1 X38.573 Y33.343 E20.23709
G1 X44.464 Y33.343 E20.31096
G1 X46.652 Y34.087 E20.33995
G1 X48.691 Y36.186 E20.37664
G1 X48.844 Y36.524 E20.38129
G1 X49.005 Y36.186 E20.38599
G1 X51.101 Y34.15 E20.42263
G1 X53.573 Y33.343 E20.45524
G1 X64.464 Y33.343 E20.59182
G1 X66.652 Y34.087 E20.6208
G1 X68.691 Y36.186 E20.6575
G1 X68.844 Y36.524 E20.66215
G1 X69.005 Y36.186 E20.66685
G1 X71.101 Y34.15 E20.70349
G1 X73.573 Y33.343 E20.7361
G1 X76.978 Y33.343 E20.7788
G1 X77.274 Y32.475 E20.7903
G1 X79.439 Y30.372 E20.82815
G1 X81.911 Y29.565 E20.86076
G1 X117.802 Y29.565 E21.31085
G1 X119.717 Y30.216 E21.33621
G1 X120.055 Y30.451 E21.34137
G1 X121.052 Y30.123 E21.35454
G1 X156.205 Y30.123 E21.79537
G1 X156.406 Y30.028 E21.79816
G1 X158.077 Y29.482 E21.8202
G1 X193.968 Y29.482 E22.27029
G1 X196.156 Y30.226 E22.29927
G1 X198.259 Y32.391 E22.33712
G1 X199.066 Y34.863 E22.36973
G1 X199.062 Y64.344 E22.73943
G1 X199.046 Y64.449 E22.74076
G1 X199.67 Y66.358 E22.76595
G1 X199.67 Y95.373 E23.12981
G1 X199.779 Y95.602 E23.13299
G1 X200.325 Y97.274 E23.15505
G1 X200.325 Y126.866 E23.52614
G1 X200.07 Y128.036 E23.54116
G1 X200.195 Y128.527 E23.54751
G1 X200.195 Y157.993 E23.91703
G1 X199.862 Y159.518 E23.9366
G1 X199.484 Y160.132 E23.94564
G1 X199.484 Y189.151 E24.30955
G1 X199.156 Y190.659 E24.3289
G1 X198.302 Y192.059 E24.34947
G1 X196.56 Y193.749 E24.37991
G1 X194.095 Y194.548 E24.4124
G1 X188.511 Y194.548 E24.48243
G1 X187.003 Y194.22 E24.50178
G1 X185.651 Y193.395 E24.52164
G1 X185.288 Y193.04 E24.52801
G1 X184.56 Y193.749 E24.54075
G1 X182.095 Y194.548 E24.57325
G1 X176.511 Y194.548 E24.64327
G1 X175.003 Y194.22 E24.66263
G1 X173.603 Y193.366 E24.68319
G1 X171.913 Y191.624 E24.71363
G1 X171.114 Y189.159 E24.74612
G1 X171.114 Y180.548 E24.85411
G1 X162.985 Y180.548 E24.95605
G1 X162.985 Y189.231 E25.06494
G1 X162.657 Y190.739 E25.08429
G1 X161.803 Y192.139 E25.10485
G1 X160.061 Y193.829 E25.13529
G1 X157.596 Y194.628 E25.16779
G1 X152.012 Y194.628 E25.23781
G1 X150.504 Y194.3 E25.25716
G1 X149.152 Y193.475 E25.27703
G1 X148.789 Y193.12 E25.28339
G1 X148.061 Y193.829 E25.29614
G1 X145.596 Y194.628 E25.32863
G1 X140.012 Y194.628 E25.39866
G1 X138.504 Y194.3 E25.41801
G1 X137.104 Y193.446 E25.43858
G1 X135.414 Y191.704 E25.46901
G1 X134.615 Y189.239 E25.50151
G1 X134.615 Y180.628 E25.60949
G1 X125.043 Y180.628 E25.72953
G1 X125.043 Y189.21 E25.83715
G1 X124.715 Y190.718 E25.8565
G1 X123.861 Y192.118 E25.87707
G1 X122.119 Y193.808 E25.90751
G1 X119.654 Y194.607 E25.94
G1 X114.07 Y194.607 E26.01003
G1 X112.562 Y194.279 E26.02938
G1 X111.21 Y193.454 E26.04924
G1 X110.847 Y193.099 E26.05561
G1 X110.119 Y193.808 E26.06835
G1 X107.654 Y194.607 E26.10085
G1 X102.07 Y194.607 E26.17087
G1 X100.562 Y194.279 E26.19023
G1 X99.162 Y193.425 E26.21079
G1 X97.472 Y191.683 E26.24123
G1 X96.673 Y189.218 E26.27372
G1 X96.673 Y180.607 E26.38171
G1 X84.836 Y180.607 E26.53015
G1 X84.836 Y188.526 E26.62946
G1 X84.508 Y190.034 E26.64881
G1 X83.654 Y191.434 E26.66937
G1 X81.912 Y193.124 E26.69981
G1 X79.447 Y193.923 E26.73231
G1 X73.863 Y193.923 E26.80233
G1 X72.355 Y193.595 E26.82168
G1 X71.003 Y192.77 E26.84155
G1 X70.64 Y192.415 E26.84791
G1 X69.912 Y193.124 E26.86066
G1 X67.447 Y193.923 E26.89315
