;START_OF_HEADER
;HEADER_VERSION:0.1
;FLAVOR:Griffin
;GENERATOR.NAME:Cura_SteamEngine
;GENERATOR.VERSION:5.6.0
;GENERATOR.BUILD_DATE:2023-11-28
;TARGET_MACHINE.NAME:Ultimaker 3
;EXTRUDER_TRAIN.0.INITIAL_TEMPERATURE:200
;EXTRUDER_TRAIN.0.MATERIAL.VOLUME_USED:6518
;EXTRUDER_TRAIN.0.MATERIAL.GUID:e509f649-9fe6-4b14-ac45-d441438cb4ef
;EXTRUDER_TRAIN.0.NOZZLE.DIAMETER:0.4
;EXTRUDER_TRAIN.0.NOZZLE.NAME:AA 0.4
;BUILD_PLATE.INITIAL_TEMPERATURE:60
;PRINT.TIME:4877
;PRINT.GROUPS:1
;PRINT.SIZE.MIN.X:9
;PRINT.SIZE.MIN.Y:6
;PRINT.SIZE.MIN.Z:0.2
;PRINT.SIZE.MAX.X:200.226
;PRINT.SIZE.MAX.Y:149.163
;PRINT.SIZE.MAX.Z:4
;SLICE_UUID:6b920a81-5384-4c98-8dd7-c05108bfa64f
;END_OF_HEADER
;Generated with Cura_SteamEngine 5.6.0
T0
M82 ;absolute extrusion mode

G92 E0
M190 S60
M109 S200
G0 F15000 X9 Y6 Z2
G280
G1 F1500 E-6.5
;LAYER_COUNT:13
;LAYER:0
M106 S255
M204 S1000
M205 X20 Y20
G1 F600 Z2.2
G0 F15000 X50.539 Y70.95 Z2.2
;TYPE:SKIRT
G1 F600 Z0.2
G1 F1500 E0
G1 F1350 X48.104 Y73.315 E0.04257
G1 X47.256 Y75.809 E0.0756
G1 X47.256 Y82.748 E0.16262
G1 X47.765 Y84.308 E0.1832
G1 X47.256 Y85.809 E0.20307
G1 X47.256 Y92.748 E0.29009
G1 X47.765 Y94.308 E0.31067
G1 X47.256 Y95.809 E0.33055
G1 X47.256 Y102.748 E0.41756
G1 X47.765 Y104.308 E0.43814
G1 X47.256 Y105.809 E0.45802
G1 X47.256 Y112.748 E0.54503
G1 X47.765 Y114.308 E0.56561
G1 X47.256 Y115.809 E0.58549
G1 X47.256 Y122.748 E0.67251
G1 X47.765 Y124.308 E0.69308
G1 X47.256 Y125.809 E0.71296
G1 X47.256 Y132.754 E0.80005
G1 X48.151 Y135.515 E0.83645
G1 X50.037 Y137.459 E0.87042
G1 X51.647 Y138.441 E0.89407
G1 X53.365 Y138.815 E0.91611
G1 X74.165 Y138.815 E1.17695
G1 X76.926 Y137.92 E1.21335
G1 X78.87 Y136.034 E1.24732
G1 X79.852 Y134.424 E1.27097
G1 X80.226 Y132.706 E1.29302
G1 X80.226 Y126.1 E1.37586
G1 X79.725 Y124.569 E1.39606
G1 X79.907 Y124.173 E1.40152
G1 X80.226 Y122.706 E1.42035
G1 X80.226 Y116.1 E1.50319
G1 X79.725 Y114.569 E1.52339
G1 X79.907 Y114.173 E1.52886
G1 X80.226 Y112.706 E1.54769
G1 X80.226 Y106.1 E1.63053
G1 X79.725 Y104.569 E1.65073
G1 X79.907 Y104.173 E1.65619
G1 X80.226 Y102.706 E1.67502
G1 X80.226 Y96.1 E1.75786
G1 X79.725 Y94.569 E1.77806
G1 X79.907 Y94.173 E1.78353
G1 X80.226 Y92.706 E1.80236
G1 X80.226 Y86.1 E1.8852
G1 X79.725 Y84.569 E1.9054
G1 X79.907 Y84.173 E1.91086
G1 X80.226 Y82.706 E1.92969
G1 X80.226 Y76.1 E2.01253
G1 X79.321 Y73.328 E2.0491
G1 X76.956 Y70.893 E2.09167
G1 X74.462 Y70.045 E2.1247
G1 X68.311 Y70.045 E2.20184
G1 X65.539 Y70.95 E2.23841
G1 X63.724 Y72.713 E2.27014
G1 X61.956 Y70.893 E2.30196
G1 X59.462 Y70.045 E2.33499
G1 X53.311 Y70.045 E2.41213
G1 X50.539 Y70.95 E2.44869
G0 F15000 X50.752 Y71.301
G1 F1350 X53.374 Y70.445 E2.48328
G1 X59.395 Y70.445 E2.55879
G1 X61.736 Y71.241 E2.5898
G1 X63.716 Y73.279 E2.62543
G1 X65.752 Y71.301 E2.66103
G1 X68.374 Y70.445 E2.69561
G1 X74.395 Y70.445 E2.77112
G1 X76.736 Y71.241 E2.80213
G1 X78.97 Y73.541 E2.84234
G1 X79.826 Y76.163 E2.87692
G1 X79.826 Y82.662 E2.95842
G1 X79.516 Y84.088 E2.97673
G1 X79.295 Y84.539 E2.98302
G1 X79.826 Y86.163 E3.00445
G1 X79.826 Y92.662 E3.08595
G1 X79.516 Y94.088 E3.10425
G1 X79.295 Y94.539 E3.11055
G1 X79.826 Y96.163 E3.13197
G1 X79.826 Y102.662 E3.21347
G1 X79.516 Y104.088 E3.23177
G1 X79.295 Y104.539 E3.23807
G1 X79.826 Y106.163 E3.2595
G1 X79.826 Y112.662 E3.341
G1 X79.516 Y114.088 E3.3593
G1 X79.295 Y114.539 E3.3656
G1 X79.826 Y116.163 E3.38702
G1 X79.826 Y122.662 E3.46852
G1 X79.516 Y124.088 E3.48682
G1 X79.295 Y124.539 E3.49312
G1 X79.826 Y126.163 E3.51455
G1 X79.826 Y132.662 E3.59605
G1 X79.475 Y134.275 E3.61675
G1 X78.557 Y135.78 E3.63886
G1 X76.714 Y137.568 E3.67106
G1 X74.101 Y138.415 E3.70551
G1 X53.409 Y138.415 E3.96499
G1 X51.796 Y138.064 E3.98569
G1 X50.291 Y137.146 E4.0078
G1 X48.503 Y135.303 E4.04
G1 X47.656 Y132.69 E4.07445
G1 X47.656 Y125.876 E4.1599
G1 X48.187 Y124.311 E4.18062
G1 X47.656 Y122.685 E4.20207
G1 X47.656 Y115.876 E4.28746
G1 X48.187 Y114.311 E4.30818
G1 X47.656 Y112.685 E4.32963
G1 X47.656 Y105.876 E4.41502
G1 X48.187 Y104.311 E4.43575
G1 X47.656 Y102.685 E4.4572
G1 X47.656 Y95.876 E4.54258
G1 X48.187 Y94.311 E4.56331
G1 X47.656 Y92.685 E4.58476
G1 X47.656 Y85.876 E4.67015
G1 X48.187 Y84.311 E4.69087
G1 X47.656 Y82.685 E4.71232
G1 X47.656 Y75.876 E4.79771
G1 X48.452 Y73.535 E4.82872
G1 X50.752 Y71.301 E4.86893
G0 F15000 X50.965 Y71.652
G1 F1350 X53.437 Y70.845 E4.90153
G1 X59.328 Y70.845 E4.97541
G1 X61.516 Y71.589 E5.00439
G1 X63.555 Y73.688 E5.04109
G1 X63.708 Y74.026 E5.04574
G1 X63.869 Y73.688 E5.05044
G1 X65.965 Y71.652 E5.08708
G1 X68.437 Y70.845 E5.11969
G1 X74.328 Y70.845 E5.19357
G1 X76.516 Y71.589 E5.22255
G1 X78.619 Y73.754 E5.2604
G1 X79.426 Y76.226 E5.29301
G1 X79.426 Y82.618 E5.37316
G1 X79.125 Y84.003 E5.39094
G1 X78.863 Y84.503 E5.39802
G1 X79.426 Y86.226 E5.42075
G1 X79.426 Y92.618 E5.50091
G1 X79.125 Y94.003 E5.51868
G1 X78.863 Y94.503 E5.52576
G1 X79.426 Y96.226 E5.54849
G1 X79.426 Y102.618 E5.62865
G1 X79.125 Y104.003 E5.64642
G1 X78.863 Y104.503 E5.6535
G1 X79.426 Y106.226 E5.67623
G1 X79.426 Y112.618 E5.75639
G1 X79.125 Y114.003 E5.77416
G1 X78.863 Y114.503 E5.78124
G1 X79.426 Y116.226 E5.80397
G1 X79.426 Y122.618 E5.88413
G1 X79.125 Y124.003 E5.90191
G1 X78.863 Y124.503 E5.90899
G1 X79.426 Y126.226 E5.93172
G1 X79.426 Y132.618 E6.01187
G1 X79.098 Y134.126 E6.03123
G1 X78.244 Y135.526 E6.05179
G1 X76.502 Y137.216 E6.08223
G1 X74.037 Y138.015 E6.11472
G1 X53.453 Y138.015 E6.37286
G1 X51.945 Y137.687 E6.39221
G1 X50.545 Y136.833 E6.41277
G1 X48.855 Y135.091 E6.44321
G1 X48.056 Y132.626 E6.47571
G1 X48.056 Y125.943 E6.55951
G1 X48.609 Y124.314 E6.58109
G1 X48.056 Y122.622 E6.60341
G1 X48.056 Y115.943 E6.68717
G1 X48.609 Y114.314 E6.70874
G1 X48.056 Y112.622 E6.73106
G1 X48.056 Y105.943 E6.81482
G1 X48.609 Y104.314 E6.83639
G1 X48.056 Y102.622 E6.85872
G1 X48.056 Y95.943 E6.94247
G1 X48.609 Y94.314 E6.96405
G1 X48.056 Y92.622 E6.98637
G1 X48.056 Y85.943 E7.07013
G1 X48.609 Y84.314 E7.0917
G1 X48.056 Y82.622 E7.11402
G1 X48.056 Y75.943 E7.19778
G1 X48.8 Y73.755 E7.22676
G1 X50.965 Y71.652 E7.26461
G0 F15000 X51.178 Y72.003
G1 F1350 X53.5 Y71.245 E7.29524
G1 X59.261 Y71.245 E7.36749
G1 X61.296 Y71.937 E7.39444
G1 X63.268 Y73.967 E7.42993
G1 X63.7 Y75.291 E7.4474
G1 X64.148 Y73.975 E7.46483
G1 X66.178 Y72.003 E7.50032
G1 X68.5 Y71.245 E7.53095
G1 X74.261 Y71.245 E7.6032
G1 X76.296 Y71.937 E7.63015
G1 X78.268 Y73.967 E7.66564
G1 X79.026 Y76.289 E7.69627
G1 X79.026 Y82.574 E7.77509
G1 X78.734 Y83.918 E7.79234
G1 X78.428 Y84.459 E7.80013
G1 X79.026 Y86.289 E7.82427
G1 X79.026 Y92.574 E7.90309
G1 X78.734 Y93.918 E7.92034
G1 X78.428 Y94.459 E7.92813
G1 X79.026 Y96.289 E7.95228
G1 X79.026 Y102.574 E8.03109
G1 X78.734 Y103.918 E8.04834
G1 X78.428 Y104.459 E8.05613
G1 X79.026 Y106.289 E8.08028
G1 X79.026 Y112.574 E8.15909
G1 X78.734 Y113.918 E8.17634
G1 X78.428 Y114.459 E8.18414
G1 X79.026 Y116.289 E8.20828
G1 X79.026 Y122.574 E8.28709
G1 X78.734 Y123.918 E8.30434
G1 X78.428 Y124.459 E8.31214
G1 X79.026 Y126.289 E8.33628
G1 X79.026 Y132.574 E8.4151
G1 X78.721 Y133.977 E8.4331
G1 X77.931 Y135.272 E8.45212
G1 X76.29 Y136.864 E8.4808
G1 X73.973 Y137.615 E8.51134
G1 X53.497 Y137.615 E8.76812
G1 X52.094 Y137.31 E8.78612
G1 X50.799 Y136.52 E8.80514
G1 X49.207 Y134.879 E8.83382
G1 X48.456 Y132.562 E8.86436
G1 X48.456 Y126.01 E8.94652
G1 X49.031 Y124.317 E8.96895
G1 X48.456 Y122.559 E8.99214
G1 X48.456 Y116.01 E9.07427
G1 X49.031 Y114.317 E9.09669
G1 X48.456 Y112.559 E9.11989
G1 X48.456 Y106.01 E9.20201
G1 X49.031 Y104.317 E9.22443
G1 X48.456 Y102.559 E9.24763
G1 X48.456 Y96.01 E9.32976
G1 X49.031 Y94.317 E9.35218
G1 X48.456 Y92.559 E9.37537
G1 X48.456 Y86.01 E9.4575
G1 X49.031 Y84.317 E9.47992
G1 X48.456 Y82.559 E9.50312
G1 X48.456 Y76.01 E9.58525
G1 X49.148 Y73.975 E9.6122
G1 X51.178 Y72.003 E9.64769
G0 F15000 X51.391 Y72.354
G1 F1350 X53.563 Y71.645 E9.67634
G1 X59.194 Y71.645 E9.74696
G1 X61.076 Y72.285 E9.77189
G1 X62.917 Y74.18 E9.80502
G1 X63.526 Y76.045 E9.82962
G1 X63.867 Y76.045 E9.8339
G1 X64.496 Y74.195 E9.8584
G1 X66.391 Y72.354 E9.89153
G1 X68.563 Y71.645 E9.92019
G1 X74.194 Y71.645 E9.9908
G1 X76.076 Y72.285 E10.01573
G1 X77.917 Y74.18 E10.04886
G1 X78.626 Y76.352 E10.07751
G1 X78.626 Y82.53 E10.15499
G1 X78.343 Y83.833 E10.17171
G1 X77.99 Y84.406 E10.18015
G1 X78.626 Y86.352 E10.20582
G1 X78.626 Y92.53 E10.2833
G1 X78.343 Y93.833 E10.30002
G1 X77.99 Y94.406 E10.30846
G1 X78.626 Y96.352 E10.33413
G1 X78.626 Y102.53 E10.41161
G1 X78.343 Y103.833 E10.42833
G1 X77.99 Y104.406 E10.43677
G1 X78.626 Y106.352 E10.46244
G1 X78.626 Y112.53 E10.53991
G1 X78.343 Y113.833 E10.55664
G1 X77.99 Y114.406 E10.56508
G1 X78.626 Y116.352 E10.59075
G1 X78.626 Y122.53 E10.66822
G1 X78.343 Y123.833 E10.68494
G1 X77.99 Y124.406 E10.69338
G1 X78.626 Y126.352 E10.71906
G1 X78.626 Y132.53 E10.79653
G1 X78.344 Y133.828 E10.81319
G1 X77.618 Y135.018 E10.83067
G1 X76.078 Y136.512 E10.85758
G1 X73.909 Y137.215 E10.88617
G1 X53.541 Y137.215 E11.14159
G1 X52.243 Y136.933 E11.15825
G1 X51.053 Y136.207 E11.17573
G1 X49.559 Y134.667 E11.20264
G1 X48.856 Y132.498 E11.23123
G1 X48.856 Y126.077 E11.31175
G1 X49.453 Y124.32 E11.33502
G1 X48.856 Y122.496 E11.35909
G1 X48.856 Y116.077 E11.43959
G1 X49.453 Y114.32 E11.46286
G1 X48.856 Y112.496 E11.48693
G1 X48.856 Y106.077 E11.56742
G1 X49.453 Y104.32 E11.59069
G1 X48.856 Y102.496 E11.61476
G1 X48.856 Y96.077 E11.69526
G1 X49.453 Y94.32 E11.71853
G1 X48.856 Y92.496 E11.7426
G1 X48.856 Y86.077 E11.82309
G1 X49.453 Y84.32 E11.84636
G1 X48.856 Y82.496 E11.87043
G1 X48.856 Y76.077 E11.95093
G1 X49.496 Y74.195 E11.97586
G1 X51.391 Y72.354 E12.00899
G0 F15000 X51.604 Y72.705
G1 F1350 X53.626 Y72.045 E12.03566
G1 X59.127 Y72.045 E12.10465
G1 X60.856 Y72.633 E12.12755
G1 X62.566 Y74.393 E12.15832
G1 X63.236 Y76.445 E12.18539
G1 X64.256 Y76.445 E12.19818
G1 X64.277 Y76.082 E12.20274
G1 X64.844 Y74.415 E12.22482
G1 X66.604 Y72.705 E12.25559
G1 X68.626 Y72.045 E12.28227
G1 X74.127 Y72.045 E12.35125
G1 X75.856 Y72.633 E12.37415
G1 X77.566 Y74.393 E12.40493
G1 X78.226 Y76.415 E12.4316
G1 X78.226 Y82.486 E12.50773
G1 X77.966 Y83.682 E12.52308
G1 X77.508 Y84.428 E12.53406
G1 X77.653 Y84.66 E12.53749
G1 X78.226 Y86.415 E12.56064
G1 X78.226 Y92.486 E12.63677
G1 X77.966 Y93.682 E12.65212
G1 X77.508 Y94.428 E12.6631
G1 X77.653 Y94.66 E12.66653
G1 X78.226 Y96.415 E12.68968
G1 X78.226 Y102.486 E12.76582
G1 X77.966 Y103.682 E12.78116
G1 X77.508 Y104.428 E12.79214
G1 X77.653 Y104.66 E12.79557
G1 X78.226 Y106.415 E12.81872
G1 X78.226 Y112.486 E12.89486
G1 X77.966 Y113.682 E12.91021
G1 X77.508 Y114.428 E12.92118
G1 X77.653 Y114.66 E12.92461
G1 X78.226 Y116.415 E12.94777
G1 X78.226 Y122.486 E13.0239
G1 X77.966 Y123.682 E13.03925
G1 X77.508 Y124.428 E13.05022
G1 X77.653 Y124.66 E13.05366
G1 X78.226 Y126.415 E13.07681
G1 X78.226 Y132.486 E13.15294
G1 X77.967 Y133.679 E13.16825
G1 X77.305 Y134.764 E13.18419
G1 X75.866 Y136.16 E13.20933
G1 X73.845 Y136.815 E13.23597
G1 X53.585 Y136.815 E13.49004
G1 X52.392 Y136.556 E13.50535
G1 X51.307 Y135.894 E13.52129
G1 X49.911 Y134.455 E13.54643
G1 X49.256 Y132.434 E13.57307
G1 X49.256 Y126.144 E13.65195
G1 X49.782 Y124.597 E13.67244
G1 X49.935 Y124.373 E13.67584
G1 X49.825 Y124.186 E13.67856
G1 X49.256 Y122.431 E13.7017
G1 X49.256 Y116.144 E13.78054
G1 X49.782 Y114.597 E13.80103
G1 X49.935 Y114.373 E13.80443
G1 X49.825 Y114.186 E13.80715
G1 X49.256 Y112.431 E13.83029
G1 X49.256 Y106.144 E13.90913
G1 X49.782 Y104.597 E13.92962
G1 X49.935 Y104.373 E13.93302
G1 X49.825 Y104.186 E13.93574
G1 X49.256 Y102.431 E13.95888
G1 X49.256 Y96.144 E14.03772
G1 X49.782 Y94.597 E14.05821
G1 X49.935 Y94.373 E14.06161
G1 X49.825 Y94.186 E14.06434
G1 X49.256 Y92.431 E14.08747
G1 X49.256 Y86.144 E14.16631
G1 X49.782 Y84.597 E14.1868
G1 X49.935 Y84.373 E14.19021
G1 X49.825 Y84.186 E14.19293
G1 X49.256 Y82.431 E14.21606
G1 X49.256 Y76.144 E14.2949
G1 X49.844 Y74.415 E14.31781
G1 X51.604 Y72.705 E14.34858
G0 F15000 X51.817 Y73.056
G1 F1350 X53.689 Y72.445 E14.37327
G1 X59.06 Y72.445 E14.44063
G1 X60.636 Y72.981 E14.4615
G1 X62.215 Y74.606 E14.48992
G1 X62.806 Y76.417 E14.51381
G1 X62.826 Y76.845 E14.51918
G1 X64.656 Y76.845 E14.54213
G1 X64.656 Y76.211 E14.55008
G1 X65.192 Y74.635 E14.57095
G1 X66.817 Y73.056 E14.59937
G1 X68.689 Y72.445 E14.62406
G1 X74.06 Y72.445 E14.69142
G1 X75.636 Y72.981 E14.71229
G1 X77.215 Y74.606 E14.74071
G1 X77.826 Y76.478 E14.7654
G1 X77.826 Y82.442 E14.84019
G1 X77.589 Y83.531 E14.85417
G1 X77.027 Y84.447 E14.86764
G1 X77.273 Y84.784 E14.87288
G1 X77.826 Y86.478 E14.89522
G1 X77.826 Y92.442 E14.97001
G1 X77.589 Y93.531 E14.98399
G1 X77.027 Y94.447 E14.99747
G1 X77.273 Y94.784 E15.0027
G1 X77.826 Y96.478 E15.02505
G1 X77.826 Y102.442 E15.09984
G1 X77.589 Y103.531 E15.11381
G1 X77.027 Y104.447 E15.12729
G1 X77.273 Y104.784 E15.13252
G1 X77.826 Y106.478 E15.15487
G1 X77.826 Y112.442 E15.22966
G1 X77.589 Y113.531 E15.24363
G1 X77.027 Y114.447 E15.25711
G1 X77.273 Y114.784 E15.26234
G1 X77.826 Y116.478 E15.28469
G1 X77.826 Y122.442 E15.35948
G1 X77.589 Y123.531 E15.37346
G1 X77.027 Y124.447 E15.38693
G1 X77.273 Y124.784 E15.39217
G1 X77.826 Y126.478 E15.41451
G1 X77.826 Y132.442 E15.4893
G1 X77.59 Y133.53 E15.50326
G1 X76.992 Y134.51 E15.51766
G1 X75.654 Y135.808 E15.54104
G1 X73.781 Y136.415 E15.56573
G1 X53.629 Y136.415 E15.81844
G1 X52.541 Y136.179 E15.8324
G1 X51.561 Y135.581 E15.8468
G1 X50.263 Y134.243 E15.87018
G1 X49.656 Y132.37 E15.89487
G1 X49.656 Y126.211 E15.97211
G1 X50.161 Y124.726 E15.99177
G1 X50.443 Y124.391 E15.99727
G1 X50.205 Y124.063 E16.00235
G1 X49.656 Y122.37 E16.02467
G1 X49.656 Y116.211 E16.1019
G1 X50.161 Y114.726 E16.12157
G1 X50.443 Y114.391 E16.12706
G1 X50.205 Y114.063 E16.13215
G1 X49.656 Y112.37 E16.15447
G1 X49.656 Y106.211 E16.2317
G1 X50.161 Y104.726 E16.25137
G1 X50.443 Y104.391 E16.25686
G1 X50.205 Y104.063 E16.26195
G1 X49.656 Y102.37 E16.28426
G1 X49.656 Y96.211 E16.3615
G1 X50.161 Y94.726 E16.38117
G1 X50.443 Y94.391 E16.38666
G1 X50.205 Y94.063 E16.39174
G1 X49.656 Y92.37 E16.41406
G1 X49.656 Y86.211 E16.4913
G1 X50.161 Y84.726 E16.51097
G1 X50.443 Y84.391 E16.51646
G1 X50.205 Y84.063 E16.52154
G1 X49.656 Y82.37 E16.54386
G1 X49.656 Y76.211 E16.6211
G1 X50.192 Y74.635 E16.64197
G1 X51.817 Y73.056 E16.67039
G0 F15000 X52.03 Y73.407
G1 F1350 X53.752 Y72.845 E16.6931
G1 X58.993 Y72.845 E16.75883
G1 X60.416 Y73.329 E16.77768
G1 X61.864 Y74.819 E16.80373
G1 X62.426 Y76.541 E16.82645
G1 X62.426 Y77.245 E16.83527
G1 X65.056 Y77.245 E16.86826
G1 X65.056 Y76.278 E16.88038
G1 X65.54 Y74.855 E16.89923
G1 X67.03 Y73.407 E16.92529
G1 X68.752 Y72.845 E16.948
G1 X73.993 Y72.845 E17.01373
G1 X75.416 Y73.329 E17.03257
G1 X76.864 Y74.819 E17.05863
G1 X77.426 Y76.541 E17.08134
G1 X77.426 Y82.398 E17.15479
G1 X77.213 Y83.379 E17.16738
G1 X76.702 Y84.217 E17.17969
G1 X76.493 Y84.437 E17.1835
G1 X76.893 Y84.908 E17.19125
G1 X77.426 Y86.541 E17.21279
G1 X77.426 Y92.398 E17.28624
G1 X77.213 Y93.379 E17.29882
G1 X76.702 Y94.217 E17.31113
G1 X76.493 Y94.437 E17.31494
G1 X76.893 Y94.908 E17.32269
G1 X77.426 Y96.541 E17.34423
G1 X77.426 Y102.398 E17.41768
G1 X77.213 Y103.379 E17.43027
G1 X76.702 Y104.217 E17.44258
G1 X76.493 Y104.437 E17.44638
G1 X76.893 Y104.908 E17.45413
G1 X77.426 Y106.541 E17.47567
G1 X77.426 Y112.398 E17.54912
G1 X77.213 Y113.379 E17.56171
G1 X76.702 Y114.217 E17.57402
G1 X76.493 Y114.437 E17.57782
G1 X76.893 Y114.908 E17.58557
G1 X77.426 Y116.541 E17.60711
G1 X77.426 Y122.398 E17.68056
G1 X77.213 Y123.379 E17.69315
G1 X76.702 Y124.217 E17.70546
G1 X76.493 Y124.437 E17.70927
G1 X76.893 Y124.908 E17.71701
G1 X77.426 Y126.541 E17.73856
G1 X77.426 Y132.398 E17.81201
G1 X77.213 Y133.379 E17.82459
G1 X76.677 Y134.258 E17.8375
G1 X75.441 Y135.457 E17.8591
G1 X73.72 Y136.015 E17.88179
G1 X53.673 Y136.015 E18.13318
G1 X52.692 Y135.802 E18.14577
G1 X51.813 Y135.266 E18.15868
G1 X50.614 Y134.03 E18.18028
G1 X50.056 Y132.309 E18.20297
G1 X50.056 Y126.278 E18.2786
G1 X50.54 Y124.855 E18.29745
G1 X50.99 Y124.417 E18.30532
G1 X50.585 Y123.94 E18.31317
G1 X50.056 Y122.309 E18.33467
G1 X50.056 Y116.278 E18.4103
G1 X50.54 Y114.855 E18.42915
