;START_OF_HEADER
;HEADER_VERSION:0.1
;FLAVOR:Griffin
;GENERATOR.NAME:Cura_SteamEngine
;GENERATOR.VERSION:5.6.0
;GENERATOR.BUILD_DATE:2023-11-28
;TARGET_MACHINE.NAME:Ultimaker 3
;EXTRUDER_TRAIN.0.INITIAL_TEMPERATURE:200
;EXTRUDER_TRAIN.0.MATERIAL.VOLUME_USED:2834
;EXTRUDER_TRAIN.0.MATERIAL.GUID:e509f649-9fe6-4b14-ac45-d441438cb4ef
;EXTRUDER_TRAIN.0.NOZZLE.DIAMETER:0.4
;EXTRUDER_TRAIN.0.NOZZLE.NAME:AA 0.4
;BUILD_PLATE.INITIAL_TEMPERATURE:60
;PRINT.TIME:2911
;PRINT.GROUPS:1
;PRINT.SIZE.MIN.X:9
;PRINT.SIZE.MIN.Y:6
;PRINT.SIZE.MIN.Z:0.2
;PRINT.SIZE.MAX.X:192.985
;PRINT.SIZE.MAX.Y:136.885
;PRINT.SIZE.MAX.Z:4
;SLICE_UUID:7ab9ccdb-53b5-482e-92bf-389d1254837a
;END_OF_HEADER
;Generated with Cura_SteamEngine 5.6.0
T0
M82 ;absolute extrusion mode

G92 E0
M190 S60
M109 S200
G0 F15000 X9 Y6 Z2
G280
G1 F1500 E-6.5
;LAYER_COUNT:13
;LAYER:0
M106 S255
M204 S1000
M205 X20 Y20
G1 F600 Z2.2
G0 F15000 X80.863 Y71.385 Z2.2
;TYPE:SKIRT
G1 F600 Z0.2
G1 F1500 E0
G1 F1350 X83.298 Y69.02 E0.04257
G1 X86.07 Y68.115 E0.07914
G1 X106.327 Y68.121 E0.33317
G1 X167.221 Y68.115 E1.0968
G1 X169.715 Y68.963 E1.12983
G1 X172.08 Y71.398 E1.1724
G1 X172.985 Y74.17 E1.20897
G1 X172.985 Y80.776 E1.29181
G1 X172.666 Y82.243 E1.31064
G1 X172.484 Y82.639 E1.3161
G1 X172.985 Y84.17 E1.3363
G1 X172.985 Y88.115 E1.38578
G1 X187.221 Y88.115 E1.5643
G1 X189.715 Y88.963 E1.59733
G1 X192.08 Y91.398 E1.6399
G1 X192.985 Y94.17 E1.67647
G1 X192.985 Y100.776 E1.75931
G1 X192.666 Y102.243 E1.77814
G1 X192.484 Y102.639 E1.7836
G1 X192.985 Y104.17 E1.8038
G1 X192.985 Y110.776 E1.88665
G1 X192.611 Y112.494 E1.9087
G1 X191.629 Y114.104 E1.93234
G1 X189.685 Y115.99 E1.96631
G1 X186.924 Y116.885 E2.00271
G1 X181.124 Y116.885 E2.07544
G1 X179.406 Y116.511 E2.09749
G1 X177.798 Y115.53 E2.12111
G1 X176.519 Y114.211 E2.14415
G1 X174.685 Y115.99 E2.17619
G1 X172.985 Y116.541 E2.1986
G1 X172.985 Y120.776 E2.25171
G1 X172.666 Y122.243 E2.27054
G1 X172.484 Y122.639 E2.27601
G1 X172.985 Y124.17 E2.29621
G1 X172.985 Y130.776 E2.37905
G1 X172.611 Y132.494 E2.4011
G1 X171.629 Y134.104 E2.42475
G1 X169.685 Y135.99 E2.45871
G1 X166.924 Y136.885 E2.49511
G1 X161.124 Y136.885 E2.56784
G1 X159.406 Y136.511 E2.58989
G1 X157.798 Y135.53 E2.61351
G1 X156.519 Y134.211 E2.63655
G1 X154.685 Y135.99 E2.6686
G1 X151.924 Y136.885 E2.70499
G1 X141.124 Y136.885 E2.84043
G1 X139.406 Y136.511 E2.86248
G1 X137.798 Y135.53 E2.8861
G1 X136.519 Y134.211 E2.90914
G1 X134.685 Y135.99 E2.94118
G1 X131.924 Y136.885 E2.97758
G1 X121.124 Y136.885 E3.11302
G1 X119.406 Y136.511 E3.13506
G1 X117.798 Y135.53 E3.15869
G1 X116.519 Y134.211 E3.18173
G1 X114.685 Y135.99 E3.21377
G1 X111.924 Y136.885 E3.25017
G1 X101.124 Y136.885 E3.3856
G1 X99.406 Y136.511 E3.40765
G1 X97.798 Y135.53 E3.43127
G1 X96.519 Y134.211 E3.45431
G1 X94.685 Y135.99 E3.48635
G1 X91.924 Y136.885 E3.52275
G1 X86.124 Y136.885 E3.59548
G1 X84.406 Y136.511 E3.61753
G1 X82.796 Y135.529 E3.64118
G1 X80.91 Y133.585 E3.67515
G1 X80.015 Y130.824 E3.71155
G1 X80.015 Y123.879 E3.79864
G1 X80.524 Y122.378 E3.81852
G1 X80.015 Y120.818 E3.83909
G1 X80.015 Y113.879 E3.92611
G1 X80.524 Y112.378 E3.94599
G1 X80.015 Y110.818 E3.96657
G1 X80.015 Y103.879 E4.05358
G1 X80.524 Y102.378 E4.07346
G1 X80.015 Y100.818 E4.09404
G1 X80.015 Y93.879 E4.18105
G1 X80.524 Y92.378 E4.20093
G1 X80.015 Y90.818 E4.22151
G1 X80.015 Y83.879 E4.30853
G1 X80.524 Y82.378 E4.3284
G1 X80.015 Y80.818 E4.34898
G1 X80.015 Y73.879 E4.436
G1 X80.863 Y71.385 E4.46903
G0 F15000 X81.211 Y71.605
G1 F1350 X83.511 Y69.371 E4.50924
G1 X86.133 Y68.515 E4.54383
G1 X106.327 Y68.521 E4.79707
G1 X167.154 Y68.515 E5.55986
G1 X169.495 Y69.311 E5.59087
G1 X171.729 Y71.611 E5.63108
G1 X172.585 Y74.233 E5.66567
G1 X172.585 Y80.732 E5.74717
G1 X172.275 Y82.158 E5.76547
G1 X172.054 Y82.609 E5.77177
G1 X172.585 Y84.233 E5.79319
G1 X172.585 Y88.515 E5.84689
G1 X187.154 Y88.515 E6.02959
G1 X189.495 Y89.311 E6.0606
G1 X191.729 Y91.611 E6.10081
G1 X192.585 Y94.233 E6.1354
G1 X192.585 Y100.732 E6.2169
G1 X192.275 Y102.158 E6.2352
G1 X192.054 Y102.609 E6.2415
G1 X192.585 Y104.233 E6.26292
G1 X192.585 Y110.732 E6.34442
G1 X192.234 Y112.345 E6.36512
G1 X191.316 Y113.85 E6.38723
G1 X189.473 Y115.638 E6.41943
G1 X186.86 Y116.485 E6.45388
G1 X181.168 Y116.485 E6.52526
G1 X179.555 Y116.134 E6.54596
G1 X178.05 Y115.216 E6.56807
G1 X176.474 Y113.591 E6.59645
G1 X176.282 Y113.883 E6.60084
G1 X174.473 Y115.638 E6.63244
G1 X172.585 Y116.25 E6.65733
G1 X172.585 Y120.732 E6.71354
G1 X172.275 Y122.158 E6.73184
G1 X172.054 Y122.609 E6.73814
G1 X172.585 Y124.233 E6.75956
G1 X172.585 Y130.732 E6.84106
G1 X172.234 Y132.345 E6.86176
G1 X171.316 Y133.85 E6.88387
G1 X169.473 Y135.638 E6.91607
G1 X166.86 Y136.485 E6.95052
G1 X161.168 Y136.485 E7.0219
G1 X159.555 Y136.134 E7.0426
G1 X158.05 Y135.216 E7.06471
G1 X156.474 Y133.591 E7.09309
G1 X156.282 Y133.883 E7.09748
G1 X154.473 Y135.638 E7.12908
G1 X151.86 Y136.485 E7.16353
G1 X141.168 Y136.485 E7.29761
G1 X139.555 Y136.134 E7.31831
G1 X138.05 Y135.216 E7.34042
G1 X136.474 Y133.591 E7.36881
G1 X136.282 Y133.883 E7.37319
G1 X134.473 Y135.638 E7.4048
G1 X131.86 Y136.485 E7.43924
G1 X121.168 Y136.485 E7.57333
G1 X119.555 Y136.134 E7.59403
G1 X118.05 Y135.216 E7.61613
G1 X116.474 Y133.591 E7.64452
G1 X116.282 Y133.883 E7.6489
G1 X114.473 Y135.638 E7.68051
G1 X111.86 Y136.485 E7.71496
G1 X101.168 Y136.485 E7.84904
G1 X99.555 Y136.134 E7.86974
G1 X98.05 Y135.216 E7.89185
G1 X96.474 Y133.591 E7.92023
G1 X96.282 Y133.883 E7.92462
G1 X94.473 Y135.638 E7.95622
G1 X91.86 Y136.485 E7.99067
G1 X86.168 Y136.485 E8.06205
G1 X84.555 Y136.134 E8.08275
G1 X83.05 Y135.216 E8.10486
G1 X81.262 Y133.373 E8.13706
G1 X80.415 Y130.76 E8.17151
G1 X80.415 Y123.946 E8.25696
G1 X80.946 Y122.381 E8.27768
G1 X80.415 Y120.755 E8.29913
G1 X80.415 Y113.946 E8.38452
G1 X80.946 Y112.381 E8.40524
G1 X80.415 Y110.755 E8.42669
G1 X80.415 Y103.946 E8.51208
G1 X80.946 Y102.381 E8.53281
G1 X80.415 Y100.755 E8.55426
G1 X80.415 Y93.946 E8.63964
G1 X80.946 Y92.381 E8.66037
G1 X80.415 Y90.755 E8.68182
G1 X80.415 Y83.946 E8.76721
G1 X80.946 Y82.381 E8.78793
G1 X80.415 Y80.755 E8.80938
G1 X80.415 Y73.946 E8.89477
G1 X81.211 Y71.605 E8.92578
G0 F15000 X81.559 Y71.825
G1 F1350 X83.724 Y69.722 E8.96363
G1 X86.196 Y68.915 E8.99624
G1 X106.327 Y68.921 E9.24869
G1 X167.087 Y68.915 E10.01064
G1 X169.275 Y69.659 E10.03962
G1 X171.378 Y71.824 E10.07747
G1 X172.185 Y74.296 E10.11008
G1 X172.185 Y80.688 E10.19024
G1 X171.884 Y82.073 E10.20801
G1 X171.622 Y82.573 E10.21509
G1 X172.185 Y84.296 E10.23782
G1 X172.185 Y88.915 E10.29575
G1 X187.087 Y88.915 E10.48262
G1 X189.275 Y89.659 E10.5116
G1 X191.378 Y91.824 E10.54945
G1 X192.185 Y94.296 E10.58206
G1 X192.185 Y100.688 E10.66222
G1 X191.884 Y102.073 E10.68
G1 X191.622 Y102.573 E10.68707
G1 X192.185 Y104.296 E10.70981
G1 X192.185 Y110.688 E10.78996
G1 X191.857 Y112.196 E10.80932
G1 X191.003 Y113.596 E10.82988
G1 X189.261 Y115.286 E10.86032
G1 X186.796 Y116.085 E10.89281
G1 X181.212 Y116.085 E10.96284
G1 X179.704 Y115.757 E10.98219
G1 X178.304 Y114.903 E11.00276
G1 X176.679 Y113.228 E11.03202
G1 X176.494 Y112.791 E11.03797
G1 X176.003 Y113.596 E11.0498
G1 X174.261 Y115.286 E11.08024
G1 X172.185 Y115.959 E11.1076
G1 X172.185 Y120.688 E11.16691
G1 X171.884 Y122.073 E11.18468
G1 X171.622 Y122.573 E11.19176
G1 X172.185 Y124.296 E11.21449
G1 X172.185 Y130.688 E11.29465
G1 X171.857 Y132.196 E11.314
G1 X171.003 Y133.596 E11.33457
G1 X169.261 Y135.286 E11.365
G1 X166.796 Y136.085 E11.3975
G1 X161.212 Y136.085 E11.46752
G1 X159.704 Y135.757 E11.48688
G1 X158.304 Y134.903 E11.50744
G1 X156.679 Y133.228 E11.53671
G1 X156.494 Y132.791 E11.54266
G1 X156.003 Y133.596 E11.55448
G1 X154.261 Y135.286 E11.58492
G1 X151.796 Y136.085 E11.61741
G1 X141.212 Y136.085 E11.75014
G1 X139.704 Y135.757 E11.7695
G1 X138.304 Y134.903 E11.79006
G1 X136.679 Y133.228 E11.81933
G1 X136.494 Y132.791 E11.82528
G1 X136.003 Y133.596 E11.8371
G1 X134.261 Y135.286 E11.86754
G1 X131.796 Y136.085 E11.90003
G1 X121.212 Y136.085 E12.03276
G1 X119.704 Y135.757 E12.05211
G1 X118.304 Y134.903 E12.07268
G1 X116.679 Y133.228 E12.10194
G1 X116.494 Y132.791 E12.1079
G1 X116.003 Y133.596 E12.11972
G1 X114.261 Y135.286 E12.15016
G1 X111.796 Y136.085 E12.18265
G1 X101.212 Y136.085 E12.31538
G1 X99.704 Y135.757 E12.33473
G1 X98.304 Y134.903 E12.3553
G1 X96.679 Y133.228 E12.38456
G1 X96.494 Y132.791 E12.39051
G1 X96.003 Y133.596 E12.40234
G1 X94.261 Y135.286 E12.43277
G1 X91.796 Y136.085 E12.46527
G1 X86.212 Y136.085 E12.5353
G1 X84.704 Y135.757 E12.55465
G1 X83.304 Y134.903 E12.57521
G1 X81.614 Y133.161 E12.60565
G1 X80.815 Y130.696 E12.63815
G1 X80.815 Y124.013 E12.72195
G1 X81.368 Y122.384 E12.74353
G1 X80.815 Y120.692 E12.76585
G1 X80.815 Y114.013 E12.84961
G1 X81.368 Y112.384 E12.87118
G1 X80.815 Y110.692 E12.8935
G1 X80.815 Y104.013 E12.97726
G1 X81.368 Y102.384 E12.99883
G1 X80.815 Y100.692 E13.02116
G1 X80.815 Y94.013 E13.10491
G1 X81.368 Y92.384 E13.12649
G1 X80.815 Y90.692 E13.14881
G1 X80.815 Y84.013 E13.23257
G1 X81.368 Y82.384 E13.25414
G1 X80.815 Y80.692 E13.27646
G1 X80.815 Y74.013 E13.36022
G1 X81.559 Y71.825 E13.3892
G0 F15000 X81.907 Y72.045
G1 F1350 X83.937 Y70.073 E13.42469
G1 X86.259 Y69.315 E13.45532
G1 X106.327 Y69.321 E13.70698
G1 X167.02 Y69.315 E14.4681
G1 X169.055 Y70.007 E14.49505
G1 X171.027 Y72.037 E14.53054
G1 X171.785 Y74.359 E14.56117
G1 X171.785 Y80.644 E14.63999
G1 X171.493 Y81.988 E14.65724
G1 X171.187 Y82.529 E14.66503
G1 X171.785 Y84.359 E14.68917
G1 X171.785 Y89.315 E14.75132
G1 X187.02 Y89.315 E14.94238
G1 X189.055 Y90.007 E14.96933
G1 X191.027 Y92.037 E15.00482
G1 X191.785 Y94.359 E15.03545
G1 X191.785 Y100.644 E15.11427
G1 X191.493 Y101.988 E15.13152
G1 X191.187 Y102.529 E15.13931
G1 X191.785 Y104.359 E15.16345
G1 X191.785 Y110.644 E15.24227
G1 X191.48 Y112.047 E15.26027
G1 X190.69 Y113.342 E15.2793
G1 X189.049 Y114.934 E15.30797
G1 X186.732 Y115.685 E15.33851
G1 X181.256 Y115.685 E15.40718
G1 X179.853 Y115.38 E15.42519
G1 X178.558 Y114.59 E15.44421
G1 X176.966 Y112.949 E15.47288
G1 X176.558 Y111.689 E15.48949
G1 X176.444 Y112.106 E15.49491
G1 X175.69 Y113.342 E15.51307
G1 X174.049 Y114.934 E15.54174
G1 X171.785 Y115.668 E15.57159
G1 X171.785 Y120.644 E15.63399
G1 X171.493 Y121.988 E15.65124
G1 X171.187 Y122.529 E15.65903
G1 X171.785 Y124.359 E15.68317
G1 X171.785 Y130.644 E15.76199
G1 X171.48 Y132.047 E15.78
G1 X170.69 Y133.342 E15.79902
G1 X169.049 Y134.934 E15.82769
G1 X166.732 Y135.685 E15.85823
G1 X161.256 Y135.685 E15.92691
G1 X159.853 Y135.38 E15.94491
G1 X158.558 Y134.59 E15.96393
G1 X156.966 Y132.949 E15.99261
G1 X156.558 Y131.689 E16.00921
G1 X156.444 Y132.106 E16.01463
G1 X155.69 Y133.342 E16.03279
G1 X154.049 Y134.934 E16.06146
G1 X151.732 Y135.685 E16.09201
G1 X141.256 Y135.685 E16.22338
G1 X139.853 Y135.38 E16.24138
G1 X138.558 Y134.59 E16.26041
G1 X136.966 Y132.949 E16.28908
G1 X136.558 Y131.689 E16.30569
G1 X136.444 Y132.106 E16.31111
G1 X135.69 Y133.342 E16.32927
G1 X134.049 Y134.934 E16.35794
G1 X131.732 Y135.685 E16.38848
G1 X121.256 Y135.685 E16.51985
G1 X119.853 Y135.38 E16.53786
G1 X118.558 Y134.59 E16.55688
G1 X116.966 Y132.949 E16.58555
G1 X116.558 Y131.689 E16.60216
G1 X116.444 Y132.106 E16.60758
G1 X115.69 Y133.342 E16.62574
G1 X114.049 Y134.934 E16.65441
G1 X111.732 Y135.685 E16.68496
G1 X101.256 Y135.685 E16.81633
G1 X99.853 Y135.38 E16.83433
G1 X98.558 Y134.59 E16.85336
G1 X96.966 Y132.949 E16.88203
G1 X96.558 Y131.689 E16.89864
G1 X96.444 Y132.106 E16.90406
G1 X95.69 Y133.342 E16.92221
G1 X94.049 Y134.934 E16.95089
G1 X91.732 Y135.685 E16.98143
G1 X86.256 Y135.685 E17.0501
G1 X84.853 Y135.38 E17.06811
G1 X83.558 Y134.59 E17.08713
G1 X81.966 Y132.949 E17.1158
G1 X81.215 Y130.632 E17.14635
G1 X81.215 Y124.08 E17.22851
G1 X81.79 Y122.387 E17.25093
G1 X81.215 Y120.629 E17.27413
G1 X81.215 Y114.08 E17.35625
G1 X81.79 Y112.387 E17.37868
G1 X81.215 Y110.629 E17.40187
G1 X81.215 Y104.08 E17.484
G1 X81.79 Y102.387 E17.50642
G1 X81.215 Y100.629 E17.52962
G1 X81.215 Y94.08 E17.61174
G1 X81.79 Y92.387 E17.63416
G1 X81.215 Y90.629 E17.65736
G1 X81.215 Y84.08 E17.73949
G1 X81.79 Y82.387 E17.76191
G1 X81.215 Y80.629 E17.7851
G1 X81.215 Y74.08 E17.86723
G1 X81.907 Y72.045 E17.89419
G0 F15000 X82.255 Y72.265
G1 F1350 X84.15 Y70.424 E17.92732
G1 X86.322 Y69.715 E17.95597
G1 X106.327 Y69.721 E18.20684
G1 X166.953 Y69.715 E18.96711
G1 X168.835 Y70.355 E18.99204
G1 X170.676 Y72.25 E19.02517
G1 X171.385 Y74.422 E19.05382
G1 X171.385 Y80.6 E19.1313
G1 X171.102 Y81.903 E19.14802
G1 X170.749 Y82.476 E19.15646
G1 X171.385 Y84.422 E19.18213
G1 X171.385 Y89.715 E19.24851
G1 X186.953 Y89.715 E19.44374
G1 X188.835 Y90.355 E19.46867
G1 X190.676 Y92.25 E19.5018
G1 X191.385 Y94.422 E19.53045
G1 X191.385 Y100.6 E19.60792
G1 X191.102 Y101.903 E19.62465
G1 X190.749 Y102.476 E19.63309
G1 X191.385 Y104.422 E19.65876
G1 X191.385 Y110.6 E19.73623
G1 X191.103 Y111.898 E19.75289
G1 X190.377 Y113.088 E19.77037
G1 X188.837 Y114.582 E19.79728
G1 X186.668 Y115.285 E19.82587
G1 X181.3 Y115.285 E19.89319
G1 X180.002 Y115.003 E19.90985
G1 X178.812 Y114.277 E19.92733
G1 X177.318 Y112.737 E19.95423
G1 X176.718 Y110.885 E19.97865
G1 X176.323 Y110.885 E19.9836
G1 X176.103 Y111.898 E19.9966
G1 X175.377 Y113.088 E20.01408
G1 X173.837 Y114.582 E20.04099
G1 X171.727 Y115.266 E20.0688
G1 X171.385 Y115.285 E20.0731
G1 X171.385 Y120.6 E20.13975
G1 X171.102 Y121.903 E20.15647
G1 X170.749 Y122.476 E20.16491
G1 X171.385 Y124.422 E20.19059
G1 X171.385 Y130.6 E20.26806
G1 X171.103 Y131.898 E20.28472
G1 X170.377 Y133.088 E20.3022
G1 X168.837 Y134.582 E20.3291
G1 X166.668 Y135.285 E20.3577
G1 X161.3 Y135.285 E20.42501
G1 X160.002 Y135.003 E20.44167
G1 X158.812 Y134.277 E20.45915
G1 X157.318 Y132.737 E20.48606
G1 X156.718 Y130.885 E20.51047
G1 X156.323 Y130.885 E20.51543
G1 X156.103 Y131.898 E20.52843
G1 X155.377 Y133.088 E20.54591
G1 X153.837 Y134.582 E20.57281
G1 X151.668 Y135.285 E20.60141
G1 X141.3 Y135.285 E20.73142
G1 X140.002 Y135.003 E20.74808
G1 X138.812 Y134.277 E20.76556
G1 X137.318 Y132.737 E20.79247
G1 X136.718 Y130.885 E20.81688
G1 X136.323 Y130.885 E20.82184
G1 X136.103 Y131.898 E20.83484
G1 X135.377 Y133.088 E20.85232
G1 X133.837 Y134.582 E20.87922
G1 X131.668 Y135.285 E20.90782
G1 X121.3 Y135.285 E21.03783
G1 X120.002 Y135.003 E21.05449
G1 X118.812 Y134.277 E21.07197
G1 X117.318 Y132.737 E21.09888
G1 X116.718 Y130.885 E21.12329
G1 X116.323 Y130.885 E21.12825
G1 X116.103 Y131.898 E21.14125
G1 X115.377 Y133.088 E21.15873
G1 X113.837 Y134.582 E21.18563
G1 X111.668 Y135.285 E21.21423
G1 X101.3 Y135.285 E21.34425
G1 X100.002 Y135.003 E21.3609
G1 X98.812 Y134.277 E21.37838
G1 X97.318 Y132.737 E21.40529
G1 X96.718 Y130.885 E21.4297
G1 X96.323 Y130.885 E21.43466
G1 X96.103 Y131.898 E21.44766
G1 X95.377 Y133.088 E21.46514
G1 X93.837 Y134.582 E21.49204
G1 X91.668 Y135.285 E21.52064
G1 X86.3 Y135.285 E21.58795
G1 X85.002 Y135.003 E21.60461
G1 X83.812 Y134.277 E21.62209
G1 X82.318 Y132.737 E21.649
G1 X81.615 Y130.568 E21.67759
G1 X81.615 Y124.147 E21.75811
G1 X82.212 Y122.39 E21.78138
G1 X81.615 Y120.566 E21.80545
G1 X81.615 Y114.147 E21.88595
G1 X82.212 Y112.39 E21.90922
G1 X81.615 Y110.566 E21.93329
G1 X81.615 Y104.147 E22.01378
G1 X82.212 Y102.39 E22.03705
G1 X81.615 Y100.566 E22.06112
G1 X81.615 Y94.147 E22.14162
G1 X82.212 Y92.39 E22.16489
G1 X81.615 Y90.566 E22.18896
G1 X81.615 Y84.147 E22.26945
G1 X82.212 Y82.39 E22.29272
G1 X81.615 Y80.566 E22.31679
G1 X81.615 Y74.147 E22.39729
G1 X82.255 Y72.265 E22.42222
G0 F15000 X82.603 Y72.485
G1 F1350 X84.363 Y70.775 E22.45299
G1 X86.385 Y70.115 E22.47966
G1 X106.275 Y70.118 E22.72909
G1 X106.613 Y70.162 E22.73337
G1 X107.015 Y70.115 E22.73844
G1 X166.886 Y70.115 E23.48925
G1 X168.615 Y70.703 E23.51215
G1 X170.325 Y72.463 E23.54292
G1 X170.985 Y74.485 E23.56959
G1 X170.985 Y80.556 E23.64573
G1 X170.725 Y81.752 E23.66107
G1 X170.267 Y82.498 E23.67205
G1 X170.412 Y82.73 E23.67548
G1 X170.985 Y84.485 E23.69863
G1 X170.985 Y90.115 E23.76924
G1 X186.886 Y90.115 E23.96864
G1 X188.615 Y90.703 E23.99154
G1 X190.325 Y92.463 E24.02232
G1 X190.985 Y94.485 E24.04899
