;START_OF_HEADER
;HEADER_VERSION:0.1
;FLAVOR:Griffin
;GENERATOR.NAME:Cura_SteamEngine
;GENERATOR.VERSION:5.6.0
;GENERATOR.BUILD_DATE:2023-11-28
;TARGET_MACHINE.NAME:Ultimaker 3
;EXTRUDER_TRAIN.0.INITIAL_TEMPERATURE:200
;EXTRUDER_TRAIN.0.MATERIAL.VOLUME_USED:4046
;EXTRUDER_TRAIN.0.MATERIAL.GUID:e509f649-9fe6-4b14-ac45-d441438cb4ef
;EXTRUDER_TRAIN.0.NOZZLE.DIAMETER:0.4
;EXTRUDER_TRAIN.0.NOZZLE.NAME:AA 0.4
;BUILD_PLATE.INITIAL_TEMPERATURE:60
;PRINT.TIME:4104
;PRINT.GROUPS:1
;PRINT.SIZE.MIN.X:9
;PRINT.SIZE.MIN.Y:6
;PRINT.SIZE.MIN.Z:0.2
;PRINT.SIZE.MAX.X:212.985
;PRINT.SIZE.MAX.Y:166.885
;PRINT.SIZE.MAX.Z:4
;SLICE_UUID:3a31ea65-47e6-4e07-91f2-a647e0f6485c
;END_OF_HEADER
;Generated with Cura_SteamEngine 5.6.0
T0
M82 ;absolute extrusion mode

G92 E0
M190 S60
M109 S200
G0 F15000 X9 Y6 Z2
G280
G1 F1500 E-6.5
;LAYER_COUNT:13
;LAYER:0
M106 S255
M204 S1000
M205 X20 Y20
G1 F600 Z2.2
G0 F15000 X63.692 Y69.02 Z2.2
;TYPE:SKIRT
G1 F600 Z0.2
G1 F1500 E0
G1 F1350 X66.464 Y68.115 E0.03657
G1 X86.721 Y68.121 E0.2906
G1 X127.615 Y68.115 E0.80342
G1 X130.109 Y68.963 E0.83646
G1 X132.474 Y71.398 E0.87903
G1 X133.379 Y74.17 E0.91559
G1 X133.379 Y80.776 E0.99844
G1 X133.06 Y82.243 E1.01726
G1 X132.878 Y82.639 E1.02273
G1 X133.379 Y84.17 E1.04293
G1 X133.379 Y90.776 E1.12577
G1 X133.06 Y92.243 E1.1446
G1 X132.878 Y92.639 E1.15006
G1 X133.379 Y94.17 E1.17026
G1 X133.379 Y100.776 E1.2531
G1 X133.06 Y102.243 E1.27193
G1 X132.878 Y102.639 E1.2774
G1 X133.379 Y104.17 E1.2976
G1 X133.379 Y110.776 E1.38044
G1 X133.06 Y112.243 E1.39927
G1 X132.878 Y112.639 E1.40473
G1 X133.379 Y114.17 E1.42493
G1 X133.379 Y120.776 E1.50777
G1 X133.06 Y122.243 E1.5266
G1 X132.878 Y122.639 E1.53207
G1 X133.379 Y124.17 E1.55227
G1 X133.379 Y130.776 E1.63511
G1 X133.005 Y132.494 E1.65716
G1 X132.023 Y134.104 E1.68081
G1 X130.079 Y135.99 E1.71477
G1 X127.318 Y136.885 E1.75117
G1 X121.518 Y136.885 E1.82391
G1 X119.8 Y136.511 E1.84595
G1 X118.192 Y135.53 E1.86958
G1 X116.913 Y134.211 E1.89262
G1 X115.079 Y135.99 E1.92466
G1 X112.318 Y136.885 E1.96106
G1 X101.518 Y136.885 E2.09649
G1 X99.8 Y136.511 E2.11854
G1 X98.192 Y135.53 E2.14216
G1 X96.913 Y134.211 E2.1652
G1 X95.079 Y135.99 E2.19724
G1 X92.318 Y136.885 E2.23364
G1 X81.518 Y136.885 E2.36908
G1 X79.8 Y136.511 E2.39113
G1 X78.192 Y135.53 E2.41475
G1 X76.913 Y134.211 E2.43779
G1 X75.079 Y135.99 E2.46983
G1 X72.318 Y136.885 E2.50623
G1 X66.518 Y136.885 E2.57896
G1 X64.8 Y136.511 E2.60101
G1 X63.19 Y135.529 E2.62466
G1 X61.304 Y133.585 E2.65862
G1 X60.409 Y130.824 E2.69502
G1 X60.409 Y123.879 E2.78212
G1 X60.918 Y122.378 E2.80199
G1 X60.409 Y120.818 E2.82257
G1 X60.409 Y113.879 E2.90959
G1 X60.918 Y112.378 E2.92946
G1 X60.409 Y110.818 E2.95004
G1 X60.409 Y103.879 E3.03706
G1 X60.918 Y102.378 E3.05693
G1 X60.409 Y100.818 E3.07751
G1 X60.409 Y93.879 E3.16453
G1 X60.918 Y92.378 E3.18441
G1 X60.409 Y90.818 E3.20498
G1 X60.409 Y83.879 E3.292
G1 X60.918 Y82.378 E3.31188
G1 X60.409 Y80.818 E3.33246
G1 X60.409 Y73.879 E3.41947
G1 X61.257 Y71.385 E3.45251
G1 X63.692 Y69.02 E3.49508
G0 F15000 X63.905 Y69.371
G1 F1350 X61.605 Y71.605 E3.53528
G1 X60.809 Y73.946 E3.56629
G1 X60.809 Y80.755 E3.65168
G1 X61.34 Y82.381 E3.67313
G1 X60.809 Y83.946 E3.69385
G1 X60.809 Y90.755 E3.77924
G1 X61.34 Y92.381 E3.80069
G1 X60.809 Y93.946 E3.82142
G1 X60.809 Y100.755 E3.9068
G1 X61.34 Y102.381 E3.92825
G1 X60.809 Y103.946 E3.94898
G1 X60.809 Y110.755 E4.03437
G1 X61.34 Y112.381 E4.05582
G1 X60.809 Y113.946 E4.07654
G1 X60.809 Y120.755 E4.16193
G1 X61.34 Y122.381 E4.18338
G1 X60.809 Y123.946 E4.2041
G1 X60.809 Y130.76 E4.28955
G1 X61.656 Y133.373 E4.324
G1 X63.444 Y135.216 E4.3562
G1 X64.949 Y136.134 E4.37831
G1 X66.562 Y136.485 E4.39901
G1 X72.254 Y136.485 E4.47039
G1 X74.867 Y135.638 E4.50484
G1 X76.676 Y133.883 E4.53644
G1 X76.868 Y133.591 E4.54083
G1 X78.444 Y135.216 E4.56921
G1 X79.949 Y136.134 E4.59132
G1 X81.562 Y136.485 E4.61202
G1 X92.254 Y136.485 E4.7461
G1 X94.867 Y135.638 E4.78055
G1 X96.676 Y133.883 E4.81216
G1 X96.868 Y133.591 E4.81654
G1 X98.444 Y135.216 E4.84493
G1 X99.949 Y136.134 E4.86703
G1 X101.562 Y136.485 E4.88773
G1 X112.254 Y136.485 E5.02182
G1 X114.867 Y135.638 E5.05626
G1 X116.676 Y133.883 E5.08787
G1 X116.868 Y133.591 E5.09225
G1 X118.444 Y135.216 E5.12064
G1 X119.949 Y136.134 E5.14275
G1 X121.562 Y136.485 E5.16345
G1 X127.254 Y136.485 E5.23483
G1 X129.867 Y135.638 E5.26927
G1 X131.71 Y133.85 E5.30148
G1 X132.628 Y132.345 E5.32358
G1 X132.979 Y130.732 E5.34428
G1 X132.979 Y124.233 E5.42578
G1 X132.448 Y122.609 E5.44721
G1 X132.669 Y122.158 E5.45351
G1 X132.979 Y120.732 E5.47181
G1 X132.979 Y114.233 E5.55331
G1 X132.448 Y112.609 E5.57474
G1 X132.669 Y112.158 E5.58103
G1 X132.979 Y110.732 E5.59933
G1 X132.979 Y104.233 E5.68083
G1 X132.448 Y102.609 E5.70226
G1 X132.669 Y102.158 E5.70856
G1 X132.979 Y100.732 E5.72686
G1 X132.979 Y94.233 E5.80836
G1 X132.448 Y92.609 E5.82979
G1 X132.669 Y92.158 E5.83608
G1 X132.979 Y90.732 E5.85438
G1 X132.979 Y84.233 E5.93588
G1 X132.448 Y82.609 E5.95731
G1 X132.669 Y82.158 E5.96361
G1 X132.979 Y80.732 E5.98191
G1 X132.979 Y74.233 E6.06341
G1 X132.123 Y71.611 E6.098
G1 X129.889 Y69.311 E6.13821
G1 X127.548 Y68.515 E6.16921
G1 X86.721 Y68.521 E6.6812
G1 X66.527 Y68.515 E6.93444
G1 X63.905 Y69.371 E6.96903
G0 F15000 X64.118 Y69.722
G1 F1350 X66.59 Y68.915 E7.00164
G1 X86.721 Y68.921 E7.25409
G1 X127.481 Y68.915 E7.76523
G1 X129.669 Y69.659 E7.79422
G1 X131.772 Y71.824 E7.83207
G1 X132.579 Y74.296 E7.86468
G1 X132.579 Y80.688 E7.94483
G1 X132.278 Y82.073 E7.96261
G1 X132.016 Y82.573 E7.96969
G1 X132.579 Y84.296 E7.99242
G1 X132.579 Y90.688 E8.07258
G1 X132.278 Y92.073 E8.09035
G1 X132.016 Y92.573 E8.09743
G1 X132.579 Y94.296 E8.12016
G1 X132.579 Y100.688 E8.20032
G1 X132.278 Y102.073 E8.21809
G1 X132.016 Y102.573 E8.22517
G1 X132.579 Y104.296 E8.2479
G1 X132.579 Y110.688 E8.32806
G1 X132.278 Y112.073 E8.34583
G1 X132.016 Y112.573 E8.35291
G1 X132.579 Y114.296 E8.37564
G1 X132.579 Y120.688 E8.4558
G1 X132.278 Y122.073 E8.47358
G1 X132.016 Y122.573 E8.48065
G1 X132.579 Y124.296 E8.50339
G1 X132.579 Y130.688 E8.58354
G1 X132.251 Y132.196 E8.6029
G1 X131.397 Y133.596 E8.62346
G1 X129.655 Y135.286 E8.6539
G1 X127.19 Y136.085 E8.68639
G1 X121.606 Y136.085 E8.75642
G1 X120.098 Y135.757 E8.77577
G1 X118.698 Y134.903 E8.79634
G1 X117.073 Y133.228 E8.8256
G1 X116.888 Y132.791 E8.83155
G1 X116.397 Y133.596 E8.84338
G1 X114.655 Y135.286 E8.87381
G1 X112.19 Y136.085 E8.90631
G1 X101.606 Y136.085 E9.03904
G1 X100.098 Y135.757 E9.05839
G1 X98.698 Y134.903 E9.07896
G1 X97.073 Y133.228 E9.10822
G1 X96.888 Y132.791 E9.11417
G1 X96.397 Y133.596 E9.126
G1 X94.655 Y135.286 E9.15643
G1 X92.19 Y136.085 E9.18893
G1 X81.606 Y136.085 E9.32166
G1 X80.098 Y135.757 E9.34101
G1 X78.698 Y134.903 E9.36157
G1 X77.073 Y133.228 E9.39084
G1 X76.888 Y132.791 E9.39679
G1 X76.397 Y133.596 E9.40862
G1 X74.655 Y135.286 E9.43905
G1 X72.19 Y136.085 E9.47155
G1 X66.606 Y136.085 E9.54157
G1 X65.098 Y135.757 E9.56093
G1 X63.698 Y134.903 E9.58149
G1 X62.008 Y133.161 E9.61193
G1 X61.209 Y130.696 E9.64442
G1 X61.209 Y124.013 E9.72823
G1 X61.762 Y122.384 E9.7498
G1 X61.209 Y120.692 E9.77213
G1 X61.209 Y114.013 E9.85588
G1 X61.762 Y112.384 E9.87746
G1 X61.209 Y110.692 E9.89978
G1 X61.209 Y104.013 E9.98354
G1 X61.762 Y102.384 E10.00511
G1 X61.209 Y100.692 E10.02743
G1 X61.209 Y94.013 E10.11119
G1 X61.762 Y92.384 E10.13276
G1 X61.209 Y90.692 E10.15509
G1 X61.209 Y84.013 E10.23884
G1 X61.762 Y82.384 E10.26042
G1 X61.209 Y80.692 E10.28274
G1 X61.209 Y74.013 E10.3665
G1 X61.953 Y71.825 E10.39548
G1 X64.118 Y69.722 E10.43333
G0 F15000 X64.331 Y70.073
G1 F1350 X66.653 Y69.315 E10.46396
G1 X86.721 Y69.321 E10.71562
G1 X127.414 Y69.315 E11.22592
G1 X129.449 Y70.007 E11.25288
G1 X131.421 Y72.037 E11.28837
G1 X132.179 Y74.359 E11.319
G1 X132.179 Y80.644 E11.39782
G1 X131.887 Y81.988 E11.41506
G1 X131.581 Y82.529 E11.42286
G1 X132.179 Y84.359 E11.447
G1 X132.179 Y90.644 E11.52582
G1 X131.887 Y91.988 E11.54307
G1 X131.581 Y92.529 E11.55086
G1 X132.179 Y94.359 E11.575
G1 X132.179 Y100.644 E11.65382
G1 X131.887 Y101.988 E11.67107
G1 X131.581 Y102.529 E11.67886
G1 X132.179 Y104.359 E11.703
G1 X132.179 Y110.644 E11.78182
G1 X131.887 Y111.988 E11.79907
G1 X131.581 Y112.529 E11.80686
G1 X132.179 Y114.359 E11.831
G1 X132.179 Y120.644 E11.90982
G1 X131.887 Y121.988 E11.92707
G1 X131.581 Y122.529 E11.93486
G1 X132.179 Y124.359 E11.95901
G1 X132.179 Y130.644 E12.03782
G1 X131.874 Y132.047 E12.05583
G1 X131.084 Y133.342 E12.07485
G1 X129.443 Y134.934 E12.10352
G1 X127.126 Y135.685 E12.13407
G1 X121.65 Y135.685 E12.20274
G1 X120.247 Y135.38 E12.22074
G1 X118.952 Y134.59 E12.23977
G1 X117.36 Y132.949 E12.26844
G1 X116.952 Y131.689 E12.28505
G1 X116.838 Y132.106 E12.29047
G1 X116.084 Y133.342 E12.30862
G1 X114.443 Y134.934 E12.33729
G1 X112.126 Y135.685 E12.36784
G1 X101.65 Y135.685 E12.49921
G1 X100.247 Y135.38 E12.51722
G1 X98.952 Y134.59 E12.53624
G1 X97.36 Y132.949 E12.56491
G1 X96.952 Y131.689 E12.58152
G1 X96.838 Y132.106 E12.58694
G1 X96.084 Y133.342 E12.6051
G1 X94.443 Y134.934 E12.63377
G1 X92.126 Y135.685 E12.66431
G1 X81.65 Y135.685 E12.79569
G1 X80.247 Y135.38 E12.81369
G1 X78.952 Y134.59 E12.83271
G1 X77.36 Y132.949 E12.86139
G1 X76.952 Y131.689 E12.87799
G1 X76.838 Y132.106 E12.88342
G1 X76.084 Y133.342 E12.90157
G1 X74.443 Y134.934 E12.93024
G1 X72.126 Y135.685 E12.96079
G1 X66.65 Y135.685 E13.02946
G1 X65.247 Y135.38 E13.04746
G1 X63.952 Y134.59 E13.06649
G1 X62.36 Y132.949 E13.09516
G1 X61.609 Y130.632 E13.1257
G1 X61.609 Y124.08 E13.20787
G1 X62.184 Y122.387 E13.23029
G1 X61.609 Y120.629 E13.25348
G1 X61.609 Y114.08 E13.33561
G1 X62.184 Y112.387 E13.35803
G1 X61.609 Y110.629 E13.38123
G1 X61.609 Y104.08 E13.46336
G1 X62.184 Y102.387 E13.48578
G1 X61.609 Y100.629 E13.50897
G1 X61.609 Y94.08 E13.5911
G1 X62.184 Y92.387 E13.61352
G1 X61.609 Y90.629 E13.63672
G1 X61.609 Y84.08 E13.71884
G1 X62.184 Y82.387 E13.74127
G1 X61.609 Y80.629 E13.76446
G1 X61.609 Y74.08 E13.84659
G1 X62.301 Y72.045 E13.87354
G1 X64.331 Y70.073 E13.90903
G0 F15000 X64.544 Y70.424
G1 F1350 X66.716 Y69.715 E13.93769
G1 X86.721 Y69.721 E14.18856
G1 X127.347 Y69.715 E14.69802
G1 X129.229 Y70.355 E14.72295
G1 X131.07 Y72.25 E14.75608
G1 X131.779 Y74.422 E14.78473
G1 X131.779 Y80.6 E14.86221
G1 X131.496 Y81.903 E14.87893
G1 X131.143 Y82.476 E14.88737
G1 X131.779 Y84.422 E14.91304
G1 X131.779 Y90.6 E14.99052
G1 X131.496 Y91.903 E15.00724
G1 X131.143 Y92.476 E15.01568
G1 X131.779 Y94.422 E15.04135
G1 X131.779 Y100.6 E15.11883
G1 X131.496 Y101.903 E15.13555
G1 X131.143 Y102.476 E15.14399
G1 X131.779 Y104.422 E15.16966
G1 X131.779 Y110.6 E15.24713
G1 X131.496 Y111.903 E15.26386
G1 X131.143 Y112.476 E15.2723
G1 X131.779 Y114.422 E15.29797
G1 X131.779 Y120.6 E15.37544
G1 X131.496 Y121.903 E15.39216
G1 X131.143 Y122.476 E15.4006
G1 X131.779 Y124.422 E15.42628
G1 X131.779 Y130.6 E15.50375
G1 X131.497 Y131.898 E15.52041
G1 X130.771 Y133.088 E15.53789
G1 X129.231 Y134.582 E15.5648
G1 X127.062 Y135.285 E15.59339
G1 X121.694 Y135.285 E15.66071
G1 X120.396 Y135.003 E15.67736
G1 X119.206 Y134.277 E15.69485
G1 X117.712 Y132.737 E15.72175
G1 X117.112 Y130.885 E15.74617
G1 X116.717 Y130.885 E15.75112
G1 X116.497 Y131.898 E15.76412
G1 X115.771 Y133.088 E15.7816
G1 X114.231 Y134.582 E15.80851
G1 X112.062 Y135.285 E15.8371
G1 X101.694 Y135.285 E15.96712
G1 X100.396 Y135.003 E15.98377
G1 X99.206 Y134.277 E16.00126
G1 X97.712 Y132.737 E16.02816
G1 X97.112 Y130.885 E16.05258
G1 X96.717 Y130.885 E16.05753
G1 X96.497 Y131.898 E16.07053
G1 X95.771 Y133.088 E16.08801
G1 X94.231 Y134.582 E16.11492
G1 X92.062 Y135.285 E16.14351
G1 X81.694 Y135.285 E16.27353
G1 X80.396 Y135.003 E16.29019
G1 X79.206 Y134.277 E16.30767
G1 X77.712 Y132.737 E16.33457
G1 X77.112 Y130.885 E16.35899
G1 X76.717 Y130.885 E16.36394
G1 X76.497 Y131.898 E16.37694
G1 X75.771 Y133.088 E16.39442
G1 X74.231 Y134.582 E16.42133
G1 X72.062 Y135.285 E16.44992
G1 X66.694 Y135.285 E16.51724
G1 X65.396 Y135.003 E16.53389
G1 X64.206 Y134.277 E16.55137
G1 X62.712 Y132.737 E16.57828
G1 X62.009 Y130.568 E16.60687
G1 X62.009 Y124.147 E16.6874
G1 X62.606 Y122.39 E16.71067
G1 X62.009 Y120.566 E16.73473
G1 X62.009 Y114.147 E16.81523
G1 X62.606 Y112.39 E16.8385
G1 X62.009 Y110.566 E16.86257
G1 X62.009 Y104.147 E16.94307
G1 X62.606 Y102.39 E16.96634
G1 X62.009 Y100.566 E16.9904
G1 X62.009 Y94.147 E17.0709
G1 X62.606 Y92.39 E17.09417
G1 X62.009 Y90.566 E17.11824
G1 X62.009 Y84.147 E17.19874
G1 X62.606 Y82.39 E17.22201
G1 X62.009 Y80.566 E17.24607
G1 X62.009 Y74.147 E17.32657
G1 X62.649 Y72.265 E17.3515
G1 X64.544 Y70.424 E17.38463
G0 F15000 X64.757 Y70.775
G1 F1350 X66.779 Y70.115 E17.4113
G1 X86.669 Y70.118 E17.66073
G1 X87.007 Y70.162 E17.66501
G1 X87.409 Y70.115 E17.67008
G1 X127.28 Y70.115 E18.17008
G1 X129.009 Y70.703 E18.19298
G1 X130.719 Y72.463 E18.22375
G1 X131.379 Y74.485 E18.25043
G1 X131.379 Y80.556 E18.32656
G1 X131.119 Y81.752 E18.34191
G1 X130.661 Y82.498 E18.35289
G1 X130.806 Y82.73 E18.35632
G1 X131.379 Y84.485 E18.37947
G1 X131.379 Y90.556 E18.4556
G1 X131.119 Y91.752 E18.47095
G1 X130.661 Y92.498 E18.48193
G1 X130.806 Y92.73 E18.48536
G1 X131.379 Y94.485 E18.50851
G1 X131.379 Y100.556 E18.58464
G1 X131.119 Y101.752 E18.59999
G1 X130.661 Y102.498 E18.61097
G1 X130.806 Y102.73 E18.6144
G1 X131.379 Y104.485 E18.63755
G1 X131.379 Y110.556 E18.71368
G1 X131.119 Y111.752 E18.72903
G1 X130.661 Y112.498 E18.74001
G1 X130.806 Y112.73 E18.74344
G1 X131.379 Y114.485 E18.76659
G1 X131.379 Y120.556 E18.84273
G1 X131.119 Y121.752 E18.85807
G1 X130.661 Y122.498 E18.86905
G1 X130.806 Y122.73 E18.87248
G1 X131.379 Y124.485 E18.89563
G1 X131.379 Y130.556 E18.97177
G1 X131.12 Y131.749 E18.98708
G1 X130.458 Y132.834 E19.00301
G1 X129.019 Y134.23 E19.02816
G1 X126.998 Y134.885 E19.0548
G1 X121.738 Y134.885 E19.12076
G1 X120.545 Y134.626 E19.13607
G1 X119.46 Y133.964 E19.15201
G1 X118.064 Y132.525 E19.17715
G1 X117.403 Y130.485 E19.20404
G1 X116.394 Y130.485 E19.2167
G1 X116.12 Y131.749 E19.23292
G1 X115.458 Y132.834 E19.24885
G1 X114.019 Y134.23 E19.274
G1 X111.998 Y134.885 E19.30064
G1 X101.738 Y134.885 E19.4293
G1 X100.545 Y134.626 E19.44461
G1 X99.46 Y133.964 E19.46055
G1 X98.064 Y132.525 E19.48569
G1 X97.403 Y130.485 E19.51258
G1 X96.394 Y130.485 E19.52524
G1 X96.12 Y131.749 E19.54146
G1 X95.458 Y132.834 E19.5574
G1 X94.019 Y134.23 E19.58254
G1 X91.998 Y134.885 E19.60918
G1 X81.738 Y134.885 E19.73784
G1 X80.545 Y134.626 E19.75315
G1 X79.46 Y133.964 E19.76909
G1 X78.064 Y132.525 E19.79423
G1 X77.403 Y130.485 E19.82113
G1 X76.394 Y130.485 E19.83378
G1 X76.12 Y131.749 E19.85
G1 X75.458 Y132.834 E19.86594
G1 X74.019 Y134.23 E19.89108
G1 X71.998 Y134.885 E19.91772
G1 X66.738 Y134.885 E19.98368
G1 X65.545 Y134.626 E19.99899
G1 X64.46 Y133.964 E20.01493
G1 X63.064 Y132.525 E20.04007
G1 X62.409 Y130.504 E20.06671
G1 X62.409 Y124.214 E20.14559
G1 X62.935 Y122.667 E20.16608
G1 X63.088 Y122.443 E20.16949
G1 X62.978 Y122.256 E20.17221
G1 X62.409 Y120.501 E20.19534
G1 X62.409 Y114.214 E20.27418
G1 X62.935 Y112.667 E20.29467
G1 X63.088 Y112.443 E20.29808
G1 X62.978 Y112.256 E20.3008
G1 X62.409 Y110.501 E20.32393
G1 X62.409 Y104.214 E20.40277
G1 X62.935 Y102.667 E20.42327
G1 X63.088 Y102.443 E20.42667
G1 X62.978 Y102.256 E20.42939
G1 X62.409 Y100.501 E20.45252
G1 X62.409 Y94.214 E20.53137
G1 X62.935 Y92.667 E20.55186
G1 X63.088 Y92.443 E20.55526
G1 X62.978 Y92.256 E20.55798
G1 X62.409 Y90.501 E20.58111
G1 X62.409 Y84.214 E20.65996
G1 X62.935 Y82.667 E20.68045
G1 X63.088 Y82.443 E20.68385
G1 X62.978 Y82.256 E20.68657
G1 X62.409 Y80.501 E20.70971
G1 X62.409 Y74.214 E20.78855
G1 X62.997 Y72.485 E20.81145
G1 X64.757 Y70.775 E20.84222
G0 F15000 X64.97 Y71.126
G1 F1350 X66.842 Y70.515 E20.86692
G1 X86.617 Y70.515 E21.1149
G1 X87.005 Y70.566 E21.11981
G1 X87.409 Y70.515 E21.12492
G1 X127.213 Y70.515 E21.62407
G1 X128.789 Y71.051 E21.64495
G1 X130.368 Y72.676 E21.67336
G1 X130.979 Y74.548 E21.69806
G1 X130.979 Y80.512 E21.77285
G1 X130.742 Y81.601 E21.78682
G1 X130.18 Y82.517 E21.8003
G1 X130.426 Y82.854 E21.80553
G1 X130.979 Y84.548 E21.82788
