;START_OF_HEADER
;HEADER_VERSION:0.1
;FLAVOR:Griffin
;GENERATOR.NAME:Cura_SteamEngine
;GENERATOR.VERSION:5.3.1
;GENERATOR.BUILD_DATE:2023-04-19
;TARGET_MACHINE.NAME:Ultimaker 3
;EXTRUDER_TRAIN.0.INITIAL_TEMPERATURE:215
;EXTRUDER_TRAIN.0.MATERIAL.VOLUME_USED:3895
;EXTRUDER_TRAIN.0.MATERIAL.GUID:851427a0-0c9a-4d7c-a9a8-5cc92f84af1f
;EXTRUDER_TRAIN.0.NOZZLE.DIAMETER:0.4
;EXTRUDER_TRAIN.0.NOZZLE.NAME:AA 0.4
;BUILD_PLATE.INITIAL_TEMPERATURE:60
;PRINT.TIME:2441
;PRINT.GROUPS:1
;PRINT.SIZE.MIN.X:9
;PRINT.SIZE.MIN.Y:6
;PRINT.SIZE.MIN.Z:0.2
;PRINT.SIZE.MAX.X:172.985
;PRINT.SIZE.MAX.Y:159.485
;PRINT.SIZE.MAX.Z:3.4
;SLICE_UUID:05b4de50-586f-4628-864b-5f8708a6770a
;END_OF_HEADER
;Generated with Cura_SteamEngine 5.3.1
T0
M82 ;absolute extrusion mode

G92 E0
M109 S215
G0 F15000 X9 Y6 Z2
G280
G1 F1500 E-6.5
;LAYER_COUNT:13
;LAYER:0
M106 S255
M204 S1000
M205 X20 Y20
G1 F600 Z2.2
G0 F15000 X90.977 Y63.687 Z2.2
;TYPE:SKIRT
G1 F600 Z0.2
G1 F1500 E0
G1 F1440 X92.798 Y61.92 E0.03182
G1 X95.57 Y61.015 E0.06839
G1 X137.375 Y61.015 E0.59264
G1 X139.306 Y61.452 E0.61747
G1 X140.015 Y61.934 E0.62822
G1 X140.025 Y61.581 E0.63265
G1 X140.452 Y59.694 E0.65691
G1 X141.477 Y58.187 E0.67976
G1 X143.298 Y56.42 E0.71158
G1 X146.07 Y55.515 E0.74815
G1 X166.875 Y55.515 E1.00905
G1 X168.806 Y55.952 E1.03388
G1 X170.313 Y56.977 E1.05674
G1 X172.08 Y58.798 E1.08856
G1 X172.985 Y61.57 E1.12512
G1 X172.985 Y103.394 E1.64961
G1 X172.577 Y105.236 E1.67327
G1 X171.578 Y106.758 E1.6961
G1 X170.817 Y107.496 E1.7094
G1 X172.08 Y108.798 E1.73214
G1 X172.985 Y111.57 E1.76871
G1 X172.985 Y153.929 E2.29991
G1 X172.013 Y156.095 E2.32968
G1 X171.108 Y157.362 E2.34921
G1 X169.302 Y158.666 E2.37714
G1 X167.046 Y159.485 E2.40724
G1 X146.108 Y159.485 E2.66981
G1 X144.242 Y159.075 E2.69377
G1 X142.766 Y158.091 E2.71601
G1 X140.916 Y156.183 E2.74934
G1 X140.035 Y153.468 E2.78513
G1 X140.015 Y153.141 E2.78924
G1 X137.43 Y153.985 E2.82334
G1 X95.811 Y153.984 E3.34526
G1 X94.325 Y153.723 E3.36418
G1 X91.807 Y152.359 E3.40009
G1 X90.334 Y150.301 E3.43183
G1 X89.515 Y148.045 E3.46193
G1 X89.515 Y127.125 E3.72427
G1 X89.952 Y125.194 E3.7491
G1 X90.977 Y123.687 E3.77196
G1 X92.189 Y122.511 E3.79313
G1 X90.416 Y120.683 E3.82507
G1 X89.515 Y117.906 E3.86168
G1 X89.515 Y97.125 E4.12228
G1 X89.952 Y95.194 E4.14711
G1 X90.977 Y93.687 E4.16997
G1 X92.189 Y92.511 E4.19114
G1 X90.416 Y90.683 E4.22308
G1 X89.515 Y87.906 E4.25969
G1 X89.515 Y67.125 E4.52029
G1 X89.952 Y65.194 E4.54512
G1 X90.977 Y63.687 E4.56798
G0 F15000 X91.285 Y63.946
G1 F1440 X90.325 Y65.357 E4.58938
G1 X89.915 Y67.169 E4.61267
G1 X89.915 Y87.845 E4.87196
G1 X90.767 Y90.471 E4.90658
G1 X92.489 Y92.247 E4.9376
G1 X92.806 Y92.47 E4.94246
G1 X91.285 Y93.946 E4.96904
G1 X90.325 Y95.357 E4.99044
G1 X89.915 Y97.169 E5.01374
G1 X89.915 Y117.845 E5.27302
G1 X90.767 Y120.471 E5.30765
G1 X92.489 Y122.247 E5.33867
G1 X92.806 Y122.47 E5.34353
G1 X91.285 Y123.946 E5.37011
G1 X90.325 Y125.357 E5.39151
G1 X89.915 Y127.169 E5.41481
G1 X89.915 Y147.974 E5.67571
G1 X90.692 Y150.114 E5.70426
G1 X92.078 Y152.051 E5.73413
G1 X94.458 Y153.34 E5.76807
G1 X95.846 Y153.584 E5.78574
G1 X137.367 Y153.585 E6.30643
G1 X139.987 Y152.73 E6.34099
G1 X140.415 Y152.315 E6.34847
G1 X140.415 Y153.345 E6.36138
G1 X141.267 Y155.971 E6.39601
G1 X143.021 Y157.78 E6.4276
G1 X144.401 Y158.7 E6.4484
G1 X146.153 Y159.085 E6.4709
G1 X166.975 Y159.085 E6.73201
G1 X169.115 Y158.308 E6.76056
G1 X170.82 Y157.077 E6.78694
G1 X171.664 Y155.895 E6.80515
G1 X172.585 Y153.843 E6.83335
G1 X172.585 Y111.633 E7.36268
G1 X171.729 Y109.011 E7.39727
G1 X170.251 Y107.488 E7.42389
G1 X171.267 Y106.503 E7.44163
G1 X172.202 Y105.079 E7.463
G1 X172.585 Y103.349 E7.48522
G1 X172.585 Y61.633 E8.00835
G1 X171.729 Y59.011 E8.04294
G1 X170.054 Y57.285 E8.0731
G1 X168.643 Y56.325 E8.0945
G1 X166.831 Y55.915 E8.1178
G1 X146.133 Y55.915 E8.37736
G1 X143.511 Y56.771 E8.41195
G1 X141.785 Y58.446 E8.44211
G1 X140.825 Y59.857 E8.46351
G1 X140.415 Y61.669 E8.48681
G1 X140.415 Y62.691 E8.49962
G1 X139.143 Y61.825 E8.51892
G1 X137.331 Y61.415 E8.54222
G1 X95.633 Y61.415 E9.06513
G1 X93.011 Y62.271 E9.09972
G1 X91.285 Y63.946 E9.12988
G0 F15000 X91.593 Y64.205
G1 F1440 X93.224 Y62.622 E9.15838
G1 X95.696 Y61.815 E9.19099
G1 X137.287 Y61.815 E9.71256
G1 X138.98 Y62.198 E9.73433
G1 X140.295 Y63.093 E9.75427
G1 X140.815 Y63.629 E9.76364
G1 X140.815 Y61.713 E9.78767
G1 X141.198 Y60.02 E9.80943
G1 X142.093 Y58.705 E9.82938
G1 X143.724 Y57.122 E9.85788
G1 X146.196 Y56.315 E9.89049
G1 X166.787 Y56.315 E10.14871
G1 X168.48 Y56.698 E10.17048
G1 X169.795 Y57.593 E10.19043
G1 X171.378 Y59.224 E10.21893
G1 X172.185 Y61.696 E10.25154
G1 X172.185 Y103.304 E10.77332
G1 X171.827 Y104.922 E10.7941
G1 X170.956 Y106.248 E10.814
G1 X169.685 Y107.48 E10.83619
G1 X171.378 Y109.224 E10.86667
G1 X172.185 Y111.696 E10.89928
G1 X172.185 Y153.757 E11.42674
G1 X171.315 Y155.696 E11.4534
G1 X170.532 Y156.792 E11.47029
G1 X168.927 Y157.951 E11.49511
G1 X166.905 Y158.685 E11.52209
G1 X146.198 Y158.685 E11.78176
G1 X144.56 Y158.325 E11.80279
G1 X143.276 Y157.469 E11.82215
G1 X141.618 Y155.759 E11.85201
G1 X140.815 Y153.284 E11.88464
G1 X140.815 Y151.369 E11.90866
G1 X139.774 Y152.379 E11.92685
G1 X137.304 Y153.185 E11.95943
G1 X95.881 Y153.184 E12.47889
G1 X94.591 Y152.957 E12.49532
G1 X92.349 Y151.743 E12.52729
G1 X91.049 Y149.926 E12.55531
G1 X90.315 Y147.904 E12.58228
G1 X90.315 Y127.213 E12.84175
G1 X90.698 Y125.52 E12.86352
G1 X91.593 Y124.205 E12.88347
G1 X93.158 Y122.686 E12.91082
G1 X93.581 Y122.506 E12.91658
G1 X92.776 Y121.969 E12.92872
G1 X91.118 Y120.259 E12.95859
G1 X90.315 Y117.784 E12.99122
G1 X90.315 Y97.213 E13.24919
G1 X90.698 Y95.52 E13.27095
G1 X91.593 Y94.205 E13.2909
G1 X93.158 Y92.686 E13.31825
G1 X93.581 Y92.506 E13.32402
G1 X92.776 Y91.969 E13.33615
G1 X91.118 Y90.259 E13.36602
G1 X90.315 Y87.784 E13.39865
G1 X90.315 Y67.213 E13.65662
G1 X90.698 Y65.52 E13.67839
G1 X91.593 Y64.205 E13.69833
G0 F15000 X91.901 Y64.464
G1 F1440 X91.071 Y65.683 E13.71683
G1 X90.715 Y67.257 E13.73706
G1 X90.715 Y87.723 E13.99372
G1 X91.469 Y90.047 E14.02435
G1 X93.031 Y91.658 E14.05249
G1 X94.156 Y92.408 E14.06945
G1 X94.709 Y92.558 E14.07664
G1 X93.437 Y92.973 E14.09341
G1 X91.901 Y94.464 E14.12026
G1 X91.071 Y95.683 E14.13875
G1 X90.715 Y97.257 E14.15899
G1 X90.715 Y117.723 E14.41564
G1 X91.469 Y120.047 E14.44628
G1 X93.031 Y121.658 E14.47442
G1 X94.156 Y122.408 E14.49138
G1 X94.709 Y122.558 E14.49856
G1 X93.437 Y122.973 E14.51534
G1 X91.901 Y124.464 E14.54218
G1 X91.071 Y125.683 E14.56068
G1 X90.715 Y127.257 E14.58092
G1 X90.715 Y147.833 E14.83895
G1 X91.407 Y149.739 E14.86437
G1 X92.62 Y151.435 E14.89052
G1 X94.724 Y152.574 E14.92053
G1 X95.916 Y152.784 E14.9357
G1 X137.241 Y152.785 E15.45393
G1 X139.561 Y152.028 E15.48454
G1 X141.215 Y150.423 E15.51344
G1 X141.215 Y153.223 E15.54855
G1 X141.969 Y155.547 E15.57919
G1 X143.531 Y157.158 E15.60733
G1 X144.719 Y157.95 E15.62524
G1 X146.243 Y158.285 E15.6448
G1 X166.834 Y158.285 E15.90302
G1 X168.74 Y157.593 E15.92845
G1 X170.244 Y156.507 E15.95172
G1 X170.966 Y155.496 E15.9673
G1 X171.785 Y153.671 E15.99238
G1 X171.785 Y111.759 E16.51797
G1 X171.027 Y109.437 E16.5486
G1 X169.536 Y107.901 E16.57545
G1 X169.032 Y107.557 E16.5831
G1 X170.647 Y105.99 E16.61132
G1 X171.452 Y104.765 E16.6297
G1 X171.785 Y103.259 E16.64904
G1 X171.785 Y61.759 E17.16947
G1 X171.027 Y59.437 E17.2001
G1 X169.536 Y57.901 E17.22694
G1 X168.317 Y57.071 E17.24544
G1 X166.743 Y56.715 E17.26568
G1 X146.259 Y56.715 E17.52255
G1 X143.937 Y57.473 E17.55318
G1 X142.401 Y58.964 E17.58003
G1 X141.571 Y60.183 E17.59852
G1 X141.215 Y61.757 E17.61876
G1 X141.215 Y64.616 E17.65461
G1 X140.036 Y63.401 E17.67584
G1 X138.817 Y62.571 E17.69434
G1 X137.243 Y62.215 E17.71457
G1 X95.759 Y62.215 E18.2348
G1 X93.437 Y62.973 E18.26543
G1 X91.901 Y64.464 E18.29227
G0 F15000 X92.209 Y64.723
G1 F1440 X91.444 Y65.846 E18.30931
G1 X91.115 Y67.301 E18.32802
G1 X91.115 Y87.662 E18.58335
G1 X91.82 Y89.835 E18.612
G1 X93.286 Y91.347 E18.63841
G1 X94.378 Y92.075 E18.65487
G1 X95.788 Y92.385 E18.67298
G1 X137.263 Y92.385 E19.19309
G1 X139.053 Y91.735 E19.21697
G1 X140.456 Y90.722 E19.23867
G1 X141.117 Y89.797 E19.25293
G1 X141.615 Y88.687 E19.26818
G1 X141.615 Y96.495 E19.3661
G1 X141.176 Y95.15 E19.38384
G1 X139.777 Y93.709 E19.40903
G1 X138.654 Y92.944 E19.42607
G1 X137.199 Y92.615 E19.44477
G1 X95.822 Y92.615 E19.96366
G1 X93.65 Y93.324 E19.99231
G1 X92.209 Y94.723 E20.0175
G1 X91.444 Y95.846 E20.03454
G1 X91.115 Y97.301 E20.05324
G1 X91.115 Y117.662 E20.30858
G1 X91.82 Y119.835 E20.33723
G1 X93.286 Y121.347 E20.36364
G1 X94.378 Y122.075 E20.38009
G1 X95.788 Y122.385 E20.3982
G1 X137.503 Y122.385 E20.92132
G1 X139.519 Y121.491 E20.94898
G1 X140.443 Y120.696 E20.96426
G1 X141.444 Y119.284 E20.98597
G1 X141.615 Y118.632 E20.99442
G1 X141.615 Y126.495 E21.09302
G1 X141.176 Y125.15 E21.11077
G1 X139.777 Y123.709 E21.13595
G1 X138.654 Y122.944 E21.15299
G1 X137.199 Y122.615 E21.1717
G1 X95.822 Y122.615 E21.69058
G1 X93.65 Y123.324 E21.71923
G1 X92.209 Y124.723 E21.74442
G1 X91.444 Y125.846 E21.76146
G1 X91.115 Y127.301 E21.78017
G1 X91.115 Y147.762 E22.03676
G1 X91.765 Y149.552 E22.06064
G1 X92.891 Y151.126 E22.08491
G1 X94.859 Y152.192 E22.11297
G1 X95.951 Y152.384 E22.12688
G1 X137.178 Y152.385 E22.64388
G1 X139.348 Y151.677 E22.6725
G1 X140.837 Y150.232 E22.69852
G1 X141.533 Y149.187 E22.71427
G1 X141.615 Y148.942 E22.71751
G1 X141.615 Y153.162 E22.77043
G1 X142.32 Y155.335 E22.79908
G1 X143.786 Y156.847 E22.82549
G1 X144.878 Y157.575 E22.84195
G1 X146.288 Y157.885 E22.86005
G1 X166.763 Y157.885 E23.11682
G1 X168.553 Y157.235 E23.1407
G1 X169.956 Y156.222 E23.1624
G1 X170.617 Y155.297 E23.17666
G1 X171.385 Y153.585 E23.20019
G1 X171.385 Y111.822 E23.72391
G1 X170.676 Y109.65 E23.75256
G1 X169.277 Y108.209 E23.77775
G1 X168.119 Y107.42 E23.79532
G1 X168.838 Y107.187 E23.8048
G1 X170.338 Y105.732 E23.831
G1 X171.076 Y104.608 E23.84787
G1 X171.385 Y103.213 E23.86578
G1 X171.385 Y61.822 E24.38484
G1 X170.676 Y59.65 E24.41349
G1 X169.277 Y58.209 E24.43868
G1 X168.154 Y57.444 E24.45572
G1 X166.699 Y57.115 E24.47443
G1 X146.322 Y57.115 E24.72996
G1 X144.15 Y57.824 E24.75861
G1 X142.709 Y59.223 E24.7838
G1 X141.944 Y60.346 E24.80084
G1 X141.615 Y61.801 E24.81955
G1 X141.615 Y66.495 E24.87841
G1 X141.176 Y65.15 E24.89615
G1 X139.777 Y63.709 E24.92134
G1 X138.654 Y62.944 E24.93838
G1 X137.199 Y62.615 E24.95709
G1 X95.822 Y62.615 E25.47597
G1 X93.65 Y63.324 E25.50462
G1 X92.209 Y64.723 E25.52981
G0 F15000 X92.517 Y64.982
G1 F1440 X93.863 Y63.675 E25.55334
G1 X95.885 Y63.015 E25.58001
G1 X137.155 Y63.015 E26.09755
G1 X138.491 Y63.317 E26.11473
G1 X139.518 Y64.017 E26.13031
G1 X140.825 Y65.363 E26.15384
G1 X141.485 Y67.385 E26.18051
G1 X141.485 Y87.999 E26.43902
G1 X140.768 Y89.598 E26.461
G1 X140.168 Y90.437 E26.47393
G1 X138.865 Y91.378 E26.49409
G1 X137.193 Y91.985 E26.51639
G1 X95.833 Y91.985 E27.03506
G1 X94.537 Y91.7 E27.0517
G1 X93.541 Y91.036 E27.06672
G1 X92.171 Y89.623 E27.0914
G1 X91.515 Y87.601 E27.11805
G1 X91.515 Y67.345 E27.37207
G1 X91.817 Y66.009 E27.38925
G1 X92.517 Y64.982 E27.40483
G0 F15000 X92.822 Y65.244
G1 F1440 X94.076 Y64.026 E27.42676
G1 X95.948 Y63.415 E27.45145
G1 X137.111 Y63.415 E27.96765
G1 X138.33 Y63.69 E27.98332
G1 X139.256 Y64.322 E27.99738
G1 X140.474 Y65.576 E28.0193
G1 X141.085 Y67.448 E28.044
G1 X141.085 Y87.913 E28.30064
G1 X140.417 Y89.402 E28.3211
G1 X139.882 Y90.151 E28.33265
G1 X138.678 Y91.02 E28.35127
G1 X137.122 Y91.585 E28.37202
G1 X95.878 Y91.585 E28.88924
G1 X94.696 Y91.325 E28.90442
G1 X93.796 Y90.725 E28.91798
G1 X92.522 Y89.411 E28.94093
G1 X91.915 Y87.54 E28.9656
G1 X91.915 Y67.389 E29.2183
G1 X92.19 Y66.17 E29.23397
G1 X92.822 Y65.244 E29.24803
G0 F15000 X93.129 Y65.504
G1 F1440 X94.289 Y64.377 E29.26831
G1 X96.011 Y63.815 E29.29103
G1 X137.067 Y63.815 E29.80589
G1 X138.167 Y64.063 E29.82003
G1 X138.996 Y64.629 E29.83261
G1 X140.123 Y65.789 E29.8529
G1 X140.685 Y67.511 E29.87561
G1 X140.685 Y87.827 E30.13038
G1 X140.068 Y89.202 E30.14928
G1 X139.594 Y89.866 E30.15951
G1 X138.49 Y90.663 E30.17659
G1 X137.052 Y91.185 E30.19577
G1 X95.923 Y91.185 E30.71154
G1 X94.855 Y90.95 E30.72526
G1 X94.051 Y90.414 E30.73738
G1 X92.873 Y89.199 E30.7586
G1 X92.315 Y87.479 E30.78127
G1 X92.315 Y67.433 E31.03266
G1 X92.563 Y66.333 E31.0468
G1 X93.129 Y65.504 E31.05939
G0 F15000 X93.436 Y65.764
G1 F1440 X94.502 Y64.728 E31.07803
G1 X96.074 Y64.215 E31.09876
G1 X137.023 Y64.215 E31.61228
G1 X138.004 Y64.436 E31.62489
G1 X138.736 Y64.936 E31.63601
G1 X139.772 Y66.002 E31.65465
G1 X140.285 Y67.574 E31.67539
G1 X140.285 Y87.741 E31.92829
G1 X139.719 Y89.003 E31.94563
G1 X139.306 Y89.581 E31.95454
G1 X138.303 Y90.305 E31.97005
G1 X136.981 Y90.785 E31.98769
G1 X95.968 Y90.785 E32.50201
G1 X95.014 Y90.575 E32.51426
G1 X94.306 Y90.103 E32.52493
G1 X93.224 Y88.987 E32.54442
G1 X92.715 Y87.418 E32.56511
G1 X92.715 Y67.477 E32.81517
G1 X92.936 Y66.496 E32.82778
G1 X93.436 Y65.764 E32.8389
G0 F15000 X93.743 Y66.024
G1 F1440 X94.715 Y65.079 E32.8559
G1 X96.137 Y64.615 E32.87466
G1 X136.979 Y64.615 E33.38683
G1 X137.841 Y64.809 E33.39791
G1 X138.476 Y65.243 E33.40756
G1 X139.421 Y66.215 E33.42456
G1 X139.885 Y67.637 E33.44332
G1 X139.885 Y87.655 E33.69435
G1 X139.37 Y88.803 E33.71013
G1 X139.018 Y89.296 E33.71773
G1 X138.115 Y89.948 E33.73169
G1 X136.911 Y90.385 E33.74776
G1 X96.013 Y90.385 E34.26063
G1 X95.173 Y90.2 E34.27142
G1 X94.561 Y89.792 E34.28064
G1 X93.575 Y88.775 E34.29841
G1 X93.115 Y87.357 E34.3171
G1 X93.115 Y67.521 E34.56585
G1 X93.309 Y66.659 E34.57693
G1 X93.743 Y66.024 E34.58658
G0 F15000 X94.05 Y66.284
G1 F1440 X94.928 Y65.43 E34.60194
G1 X96.2 Y65.015 E34.61871
G1 X136.935 Y65.015 E35.12955
G1 X137.678 Y65.182 E35.1391
G1 X138.216 Y65.55 E35.14727
G1 X139.07 Y66.428 E35.16263
G1 X139.485 Y67.7 E35.17941
G1 X139.485 Y87.569 E35.42857
G1 X139.021 Y88.604 E35.4428
G1 X138.73 Y89.011 E35.44907
G1 X137.928 Y89.59 E35.46148
G1 X136.84 Y89.985 E35.47599
G1 X96.058 Y89.985 E35.98741
G1 X95.332 Y89.825 E35.99674
G1 X94.816 Y89.481 E36.00451
G1 X93.926 Y88.563 E36.02055
G1 X93.515 Y87.296 E36.03725
G1 X93.515 Y67.565 E36.28468
G1 X93.682 Y66.822 E36.29423
G1 X94.05 Y66.284 E36.30241
G0 F15000 X94.329 Y66.571
G1 F1440 X94.055 Y66.984 E36.30862
G1 X93.915 Y67.608 E36.31664
G1 X93.915 Y87.235 E36.56277
G1 X94.277 Y88.351 E36.57749
G1 X95.071 Y89.17 E36.59179
G1 X95.491 Y89.45 E36.59812
G1 X96.103 Y89.585 E36.60598
G1 X136.769 Y89.585 E37.11595
G1 X137.741 Y89.232 E37.12892
G1 X138.442 Y88.726 E37.13976
G1 X138.656 Y88.44 E37.14424
G1 X139.085 Y87.483 E37.15739
G1 X139.085 Y67.763 E37.40468
G1 X138.719 Y66.641 E37.41948
G1 X137.929 Y65.829 E37.43369
G1 X137.516 Y65.555 E37.43991
G1 X136.892 Y65.415 E37.44793
G1 X96.263 Y65.415 E37.95743
G1 X95.141 Y65.781 E37.97223
G1 X94.329 Y66.571 E37.98644
G0 F15000 X94.608 Y66.858
G1 F1440 X95.354 Y66.132 E37.99949
G1 X96.326 Y65.815 E38.01231
G1 X136.85 Y65.815 E38.5205
G1 X137.355 Y65.928 E38.52699
G1 X137.642 Y66.108 E38.53124
G1 X138.368 Y66.854 E38.54429
G1 X138.685 Y67.826 E38.55711
G1 X138.685 Y87.397 E38.80254
G1 X138.291 Y88.276 E38.81462
G1 X138.16 Y88.437 E38.81722
G1 X137.554 Y88.874 E38.82659
G1 X136.698 Y89.185 E38.83801
G1 X96.148 Y89.185 E39.34652
G1 X95.648 Y89.075 E39.35294
G1 X95.358 Y88.892 E39.35724
G1 X94.629 Y88.14 E39.37038
G1 X94.315 Y87.173 E39.38313
G1 X94.315 Y67.65 E39.62795
G1 X94.428 Y67.145 E39.63444
G1 X94.608 Y66.858 E39.63869
G0 F15000 X94.887 Y67.145
G1 F1440 X95.567 Y66.483 E39.65059
G1 X96.389 Y66.215 E39.66143
G1 X136.85 Y66.215 E40.16883
G1 X137.159 Y66.277 E40.17278
G1 X137.355 Y66.387 E40.1756
G1 X138.017 Y67.067 E40.1875
G1 X138.285 Y67.889 E40.19834
G1 X138.285 Y87.311 E40.4419
G1 X137.926 Y88.112 E40.45291
G1 X137.364 Y88.517 E40.4616
G1 X136.627 Y88.785 E40.47143
G1 X96.148 Y88.785 E40.97905
G1 X95.844 Y88.726 E40.98294
G1 X95.645 Y88.614 E40.9858
G1 X94.981 Y87.929 E40.99776
G1 X94.715 Y87.111 E41.00855
G1 X94.715 Y67.65 E41.2526
G1 X94.777 Y67.341 E41.25655
G1 X94.887 Y67.145 E41.25937
G0 F15000 X95.166 Y67.432
