;START_OF_HEADER
;HEADER_VERSION:0.1
;FLAVOR:Griffin
;GENERATOR.NAME:Cura_SteamEngine
;GENERATOR.VERSION:5.6.0
;GENERATOR.BUILD_DATE:2023-11-28
;TARGET_MACHINE.NAME:Ultimaker 3
;EXTRUDER_TRAIN.0.INITIAL_TEMPERATURE:200
;EXTRUDER_TRAIN.0.MATERIAL.VOLUME_USED:2406
;EXTRUDER_TRAIN.0.MATERIAL.GUID:e509f649-9fe6-4b14-ac45-d441438cb4ef
;EXTRUDER_TRAIN.0.NOZZLE.DIAMETER:0.4
;EXTRUDER_TRAIN.0.NOZZLE.NAME:AA 0.4
;BUILD_PLATE.INITIAL_TEMPERATURE:60
;PRINT.TIME:1882
;PRINT.GROUPS:1
;PRINT.SIZE.MIN.X:9
;PRINT.SIZE.MIN.Y:6
;PRINT.SIZE.MIN.Z:0.2
;PRINT.SIZE.MAX.X:143.292
;PRINT.SIZE.MAX.Y:150.082
;PRINT.SIZE.MAX.Z:4.85
;SLICE_UUID:1715aa71-38cb-4e42-a2c3-9799cbc7d581
;END_OF_HEADER
;Generated with Cura_SteamEngine 5.6.0
T0
M82 ;absolute extrusion mode

G92 E0
M190 S60
M109 S200
G0 F15000 X9 Y6 Z2
G280
G1 F1500 E-6.5
;LAYER_COUNT:32
;LAYER:0
M106 S255
M204 S1000
M205 X20 Y20
G1 F600 Z2.2
G0 F15000 X89.647 Y86.199 Z2.2
;TYPE:SKIRT
G1 F600 Z0.2
G1 F1500 E0
G1 F1350 X92.082 Y83.834 E0.04257
G1 X94.854 Y82.929 E0.07914
G1 X99.005 Y82.929 E0.13119
G1 X101.499 Y83.777 E0.16422
G1 X103.739 Y86.083 E0.20454
G1 X103.945 Y86.517 E0.21056
G1 X137.528 Y86.515 E0.63171
G1 X140.022 Y87.363 E0.66474
G1 X142.387 Y89.798 E0.70731
G1 X143.292 Y92.57 E0.74388
G1 X143.292 Y122.378 E1.11768
G1 X143.001 Y123.65 E1.13404
G1 X142.937 Y123.82 E1.13632
G1 X142.937 Y143.973 E1.38905
G1 X142.563 Y145.691 E1.4111
G1 X141.581 Y147.301 E1.43475
G1 X139.637 Y149.187 E1.46871
G1 X136.876 Y150.082 E1.50511
G1 X133.076 Y150.082 E1.55276
G1 X131.358 Y149.708 E1.57481
G1 X129.748 Y148.726 E1.59846
G1 X127.926 Y146.848 E1.63128
G1 X127.715 Y146.329 E1.6383
G1 X95.907 Y146.33 E2.03718
G1 X94.189 Y145.956 E2.05923
G1 X92.579 Y144.974 E2.08288
G1 X90.693 Y143.03 E2.11685
G1 X89.798 Y140.269 E2.15325
G1 X89.804 Y112.534 E2.50105
G1 X89.512 Y112.049 E2.50815
G1 X88.799 Y109.847 E2.53718
G1 X88.799 Y88.693 E2.80246
G1 X89.647 Y86.199 E2.83549
G0 F15000 X89.995 Y86.419
G1 F1350 X92.295 Y84.185 E2.8757
G1 X94.917 Y83.329 E2.91029
G1 X98.938 Y83.329 E2.96071
G1 X101.279 Y84.125 E2.99172
G1 X103.452 Y86.362 E3.03083
G1 X103.675 Y86.917 E3.03833
G1 X137.461 Y86.915 E3.46202
G1 X139.802 Y87.711 E3.49303
G1 X142.036 Y90.011 E3.53324
G1 X142.892 Y92.633 E3.56783
G1 X142.892 Y122.333 E3.94028
G1 X142.611 Y123.561 E3.95607
G1 X142.537 Y123.74 E3.9585
G1 X142.537 Y143.929 E4.21168
G1 X142.186 Y145.542 E4.23238
G1 X141.268 Y147.047 E4.25449
G1 X139.425 Y148.835 E4.28669
G1 X136.812 Y149.682 E4.32114
G1 X133.12 Y149.682 E4.36743
G1 X131.507 Y149.331 E4.38814
G1 X130.002 Y148.413 E4.41024
G1 X128.213 Y146.569 E4.44246
G1 X128.006 Y145.929 E4.4509
G1 X95.951 Y145.93 E4.85288
G1 X94.338 Y145.579 E4.87358
G1 X92.833 Y144.661 E4.89569
G1 X91.045 Y142.818 E4.92789
G1 X90.198 Y140.205 E4.96233
G1 X90.204 Y112.419 E5.31078
G1 X89.893 Y111.926 E5.31809
G1 X89.199 Y109.783 E5.34634
G1 X89.199 Y88.76 E5.60997
G1 X89.995 Y86.419 E5.64098
G0 F15000 X90.343 Y86.639
G1 F1350 X92.508 Y84.536 E5.67883
G1 X94.98 Y83.729 E5.71144
G1 X98.871 Y83.729 E5.76024
G1 X101.059 Y84.473 E5.78922
G1 X103.165 Y86.641 E5.82712
G1 X103.384 Y87.317 E5.83603
G1 X137.394 Y87.315 E6.26253
G1 X139.582 Y88.059 E6.29151
G1 X141.685 Y90.224 E6.32936
G1 X142.492 Y92.696 E6.36197
G1 X142.492 Y122.289 E6.73308
G1 X142.241 Y123.408 E6.74746
G1 X142.137 Y123.659 E6.75087
G1 X142.137 Y143.885 E7.00451
G1 X141.809 Y145.393 E7.02386
G1 X140.955 Y146.793 E7.04443
G1 X139.213 Y148.483 E7.07486
G1 X136.748 Y149.282 E7.10736
G1 X133.164 Y149.282 E7.1523
G1 X131.656 Y148.954 E7.17166
G1 X130.256 Y148.1 E7.19222
G1 X128.565 Y146.357 E7.22268
G1 X128.297 Y145.529 E7.23359
G1 X95.995 Y145.53 E7.63867
G1 X94.487 Y145.202 E7.65802
G1 X93.087 Y144.348 E7.67859
G1 X91.397 Y142.606 E7.70902
G1 X90.598 Y140.141 E7.74152
G1 X90.604 Y112.297 E8.09069
G1 X90.274 Y111.803 E8.09814
G1 X89.599 Y109.719 E8.12561
G1 X89.599 Y88.827 E8.38761
G1 X90.343 Y86.639 E8.41659
G0 F15000 X90.691 Y86.859
G1 F1350 X92.721 Y84.887 E8.45208
G1 X95.043 Y84.129 E8.48271
G1 X98.804 Y84.129 E8.52987
G1 X100.839 Y84.821 E8.55683
G1 X102.813 Y86.853 E8.59236
G1 X103.093 Y87.717 E8.60375
G1 X137.327 Y87.715 E9.03305
G1 X139.362 Y88.407 E9.06001
G1 X141.334 Y90.437 E9.0955
G1 X142.092 Y92.759 E9.12613
G1 X142.092 Y122.244 E9.49588
G1 X141.871 Y123.256 E9.50887
G1 X141.717 Y123.63 E9.51394
G1 X141.737 Y123.797 E9.51605
G1 X141.737 Y143.841 E9.76741
G1 X141.432 Y145.244 E9.78542
G1 X140.642 Y146.539 E9.80444
G1 X139.001 Y148.131 E9.83311
G1 X136.684 Y148.882 E9.86366
G1 X133.208 Y148.882 E9.90725
G1 X131.805 Y148.577 E9.92525
G1 X130.51 Y147.787 E9.94427
G1 X128.917 Y146.145 E9.97296
G1 X128.588 Y145.129 E9.98636
G1 X96.039 Y145.13 E10.39453
G1 X94.636 Y144.825 E10.41254
G1 X93.341 Y144.035 E10.43156
G1 X91.749 Y142.394 E10.46023
G1 X90.998 Y140.077 E10.49078
G1 X91.004 Y112.169 E10.84075
G1 X90.655 Y111.68 E10.84829
G1 X89.999 Y109.655 E10.87498
G1 X89.999 Y88.894 E11.13533
G1 X90.691 Y86.859 E11.16229
G0 F15000 X91.039 Y87.079
G1 F1350 X92.934 Y85.238 E11.19542
G1 X95.106 Y84.529 E11.22407
G1 X98.737 Y84.529 E11.2696
G1 X100.619 Y85.169 E11.29453
G1 X102.461 Y87.065 E11.32768
G1 X102.802 Y88.117 E11.34155
G1 X137.26 Y88.115 E11.77367
G1 X139.142 Y88.755 E11.7986
G1 X140.983 Y90.65 E11.83173
G1 X141.692 Y92.822 E11.86038
G1 X141.692 Y122.2 E12.22879
G1 X141.48 Y123.171 E12.24125
G1 X141.306 Y123.574 E12.24676
G1 X141.337 Y123.797 E12.24958
G1 X141.337 Y143.797 E12.50039
G1 X141.055 Y145.095 E12.51705
G1 X140.329 Y146.285 E12.53453
G1 X138.789 Y147.779 E12.56143
G1 X136.62 Y148.482 E12.59003
G1 X133.252 Y148.482 E12.63226
G1 X131.954 Y148.2 E12.64892
G1 X130.764 Y147.474 E12.6664
G1 X129.269 Y145.933 E12.69333
G1 X128.879 Y144.729 E12.7092
G1 X96.083 Y144.73 E13.12047
G1 X94.785 Y144.448 E13.13713
G1 X93.595 Y143.722 E13.15461
G1 X92.101 Y142.182 E13.18152
G1 X91.398 Y140.013 E13.21011
G1 X91.404 Y112.033 E13.56099
G1 X91.036 Y111.557 E13.56853
G1 X90.399 Y109.591 E13.59445
G1 X90.399 Y88.961 E13.85316
G1 X91.039 Y87.079 E13.87809
G0 F15000 X91.387 Y87.299
G1 F1350 X93.147 Y85.589 E13.90886
G1 X95.169 Y84.929 E13.93553
G1 X98.67 Y84.929 E13.97944
G1 X100.399 Y85.517 E14.00234
G1 X102.109 Y87.277 E14.03311
G1 X102.511 Y88.517 E14.04946
G1 X137.193 Y88.515 E14.48438
G1 X138.922 Y89.103 E14.50728
G1 X140.632 Y90.863 E14.53806
G1 X141.292 Y92.885 E14.56473
G1 X141.292 Y122.156 E14.9318
G1 X141.089 Y123.086 E14.94374
G1 X140.892 Y123.519 E14.9497
G1 X140.937 Y123.797 E14.95323
G1 X140.937 Y143.753 E15.20349
G1 X140.678 Y144.946 E15.2188
G1 X140.016 Y146.031 E15.23474
G1 X138.577 Y147.427 E15.25988
G1 X136.556 Y148.082 E15.28652
G1 X133.296 Y148.082 E15.3274
G1 X132.103 Y147.823 E15.34271
G1 X131.018 Y147.161 E15.35865
G1 X129.621 Y145.721 E15.38381
G1 X129.17 Y144.329 E15.40216
G1 X96.127 Y144.33 E15.81653
G1 X94.934 Y144.071 E15.83184
G1 X93.849 Y143.409 E15.84778
G1 X92.453 Y141.97 E15.87292
G1 X91.798 Y139.949 E15.89956
G1 X91.804 Y111.885 E16.2515
G1 X91.417 Y111.434 E16.25895
G1 X90.799 Y109.527 E16.28409
G1 X90.799 Y89.028 E16.54115
G1 X91.387 Y87.299 E16.56406
G0 F15000 X91.735 Y87.519
G1 F1350 X93.36 Y85.94 E16.59247
G1 X95.232 Y85.329 E16.61716
G1 X98.603 Y85.329 E16.65944
G1 X100.179 Y85.865 E16.68031
G1 X101.758 Y87.49 E16.70873
G1 X102.221 Y88.917 E16.72754
G1 X137.126 Y88.915 E17.16526
G1 X138.702 Y89.451 E17.18614
G1 X140.281 Y91.076 E17.21455
G1 X140.892 Y92.948 E17.23925
G1 X140.892 Y122.112 E17.60497
G1 X140.698 Y123.001 E17.61638
G1 X140.474 Y123.463 E17.62282
G1 X140.537 Y123.797 E17.62708
G1 X140.537 Y143.709 E17.87679
G1 X140.301 Y144.797 E17.89075
G1 X139.703 Y145.777 E17.90515
G1 X138.365 Y147.075 E17.92852
G1 X136.492 Y147.682 E17.95321
G1 X133.34 Y147.682 E17.99274
G1 X132.252 Y147.446 E18.0067
G1 X131.272 Y146.848 E18.0211
G1 X129.973 Y145.509 E18.04449
G1 X129.461 Y143.929 E18.06532
G1 X96.171 Y143.93 E18.48279
G1 X95.083 Y143.694 E18.49675
G1 X94.103 Y143.096 E18.51115
G1 X92.805 Y141.758 E18.53453
G1 X92.198 Y139.885 E18.55922
G1 X92.204 Y111.737 E18.9122
G1 X91.773 Y111.235 E18.9205
G1 X91.199 Y109.463 E18.94386
G1 X91.199 Y89.095 E19.19928
G1 X91.735 Y87.519 E19.22016
G0 F15000 X92.083 Y87.739
G1 F1350 X93.573 Y86.291 E19.24621
G1 X95.295 Y85.729 E19.26893
G1 X98.536 Y85.729 E19.30957
G1 X99.959 Y86.213 E19.32842
G1 X101.407 Y87.703 E19.35448
G1 X101.931 Y89.317 E19.37576
G1 X137.059 Y89.315 E19.81627
G1 X138.482 Y89.799 E19.83512
G1 X139.93 Y91.289 E19.86118
G1 X140.492 Y93.011 E19.88389
G1 X140.492 Y122.068 E20.24828
G1 X140.307 Y122.916 E20.25916
G1 X140.052 Y123.408 E20.26611
G1 X140.137 Y123.797 E20.27111
G1 X140.137 Y143.665 E20.52026
G1 X139.924 Y144.646 E20.53285
G1 X139.388 Y145.525 E20.54576
G1 X138.152 Y146.724 E20.56735
G1 X136.431 Y147.282 E20.59004
G1 X133.384 Y147.282 E20.62825
G1 X132.403 Y147.069 E20.64084
G1 X131.524 Y146.533 E20.65375
G1 X130.325 Y145.297 E20.67534
G1 X129.752 Y143.529 E20.69865
G1 X96.215 Y143.53 E21.11922
G1 X95.234 Y143.317 E21.13181
G1 X94.355 Y142.781 E21.14472
G1 X93.156 Y141.545 E21.16631
G1 X92.598 Y139.824 E21.189
G1 X92.604 Y111.576 E21.54324
G1 X92.154 Y111.112 E21.55135
G1 X91.599 Y109.399 E21.57393
G1 X91.599 Y89.162 E21.82771
G1 X92.083 Y87.739 E21.84655
G0 F15000 X92.431 Y87.959
G1 F1350 X93.786 Y86.642 E21.87025
G1 X95.358 Y86.129 E21.89099
G1 X98.469 Y86.129 E21.93
G1 X99.739 Y86.561 E21.94682
G1 X101.056 Y87.916 E21.97052
G1 X101.549 Y89.427 E21.99045
G1 X101.569 Y89.817 E21.99535
G1 X101.944 Y89.715 E22.00022
G1 X136.992 Y89.715 E22.43974
G1 X138.262 Y90.147 E22.45656
G1 X139.579 Y91.502 E22.48025
G1 X140.092 Y93.074 E22.50099
G1 X140.092 Y122.024 E22.86404
G1 X139.916 Y122.831 E22.87439
G1 X139.626 Y123.351 E22.88186
G1 X139.737 Y123.797 E22.88762
G1 X139.737 Y143.621 E23.13622
G1 X139.547 Y144.495 E23.14744
G1 X139.073 Y145.273 E23.15886
G1 X137.939 Y146.373 E23.17868
G1 X136.37 Y146.882 E23.19936
G1 X133.428 Y146.882 E23.23626
G1 X132.554 Y146.692 E23.24747
G1 X131.776 Y146.218 E23.2589
G1 X130.676 Y145.084 E23.27871
G1 X130.187 Y143.577 E23.29858
G1 X130.167 Y143.129 E23.3042
G1 X96.259 Y143.13 E23.72942
G1 X95.385 Y142.94 E23.74064
G1 X94.607 Y142.466 E23.75206
G1 X93.507 Y141.332 E23.77187
G1 X92.998 Y139.763 E23.79256
G1 X93.004 Y111.413 E24.14808
G1 X92.506 Y110.9 E24.15704
G1 X91.999 Y109.335 E24.17767
G1 X91.999 Y89.229 E24.42981
G1 X92.431 Y87.959 E24.44663
G0 F15000 X92.779 Y88.179
G1 F1350 X93.999 Y86.993 E24.46797
G1 X95.421 Y86.529 E24.48673
G1 X98.402 Y86.529 E24.52411
G1 X99.519 Y86.909 E24.53891
G1 X100.705 Y88.129 E24.56024
G1 X101.169 Y89.551 E24.579
G1 X101.169 Y90.368 E24.58925
G1 X101.944 Y90.115 E24.59947
G1 X136.925 Y90.115 E25.03814
G1 X138.042 Y90.495 E25.05294
G1 X139.228 Y91.715 E25.07428
G1 X139.692 Y93.137 E25.09303
G1 X139.692 Y121.98 E25.45474
G1 X139.525 Y122.746 E25.46457
G1 X139.193 Y123.293 E25.47259
G1 X139.337 Y123.797 E25.47917
G1 X139.337 Y143.577 E25.72721
G1 X139.17 Y144.344 E25.73706
G1 X138.756 Y145.024 E25.74704
G1 X137.727 Y146.022 E25.76502
G1 X136.309 Y146.482 E25.78371
G1 X133.472 Y146.482 E25.81929
G1 X132.705 Y146.315 E25.82913
G1 X132.025 Y145.901 E25.83912
G1 X131.027 Y144.872 E25.85709
G1 X130.567 Y143.454 E25.87579
G1 X130.567 Y142.729 E25.88488
G1 X96.303 Y142.73 E26.31456
G1 X95.536 Y142.563 E26.32441
G1 X94.856 Y142.149 E26.33439
G1 X93.858 Y141.12 E26.35237
G1 X93.398 Y139.702 E26.37106
G1 X93.404 Y111.252 E26.72783
G1 X92.859 Y110.69 E26.73765
G1 X92.399 Y109.271 E26.75636
G1 X92.399 Y89.296 E27.00685
G1 X92.779 Y88.179 E27.02165
G0 F15000 X93.127 Y88.399
G1 F1350 X94.212 Y87.344 E27.04063
G1 X95.484 Y86.929 E27.05741
G1 X98.335 Y86.929 E27.09316
G1 X99.299 Y87.257 E27.10593
G1 X100.354 Y88.342 E27.12491
G1 X100.769 Y89.614 E27.14168
G1 X100.769 Y90.919 E27.15805
G1 X102.007 Y90.515 E27.17438
G1 X136.858 Y90.515 E27.61142
G1 X137.822 Y90.843 E27.62419
G1 X138.877 Y91.928 E27.64317
G1 X139.292 Y93.2 E27.65995
G1 X139.292 Y121.936 E28.02031
G1 X139.148 Y122.595 E28.02877
G1 X138.755 Y123.242 E28.03826
G1 X138.937 Y123.797 E28.04559
G1 X138.937 Y143.533 E28.29308
G1 X138.793 Y144.193 E28.30156
G1 X138.439 Y144.775 E28.3101
G1 X137.515 Y145.671 E28.32624
G1 X136.248 Y146.082 E28.34294
G1 X133.516 Y146.082 E28.3772
G1 X132.856 Y145.938 E28.38567
G1 X132.274 Y145.584 E28.39422
G1 X131.378 Y144.66 E28.41036
G1 X130.967 Y143.393 E28.42706
G1 X130.967 Y142.329 E28.4404
G1 X96.347 Y142.33 E28.87455
G1 X95.687 Y142.186 E28.88302
G1 X95.105 Y141.832 E28.89157
G1 X94.209 Y140.908 E28.90771
G1 X93.798 Y139.641 E28.92441
G1 X93.804 Y111.089 E29.28246
G1 X93.21 Y110.477 E29.29316
G1 X92.799 Y109.21 E29.30986
G1 X92.799 Y89.363 E29.55875
G1 X93.127 Y88.399 E29.57152
G0 F15000 X93.475 Y88.619
G1 F1350 X94.425 Y87.695 E29.58814
G1 X95.547 Y87.329 E29.60294
G1 X98.268 Y87.329 E29.63706
G1 X99.079 Y87.605 E29.6478
G1 X100.003 Y88.555 E29.66442
G1 X100.369 Y89.677 E29.67922
G1 X100.369 Y91.844 E29.7064
G1 X100.948 Y91.281 E29.71653
G1 X102.07 Y90.915 E29.73133
G1 X136.791 Y90.915 E30.16674
G1 X137.602 Y91.191 E30.17748
G1 X138.526 Y92.141 E30.1941
G1 X138.892 Y93.263 E30.2089
G1 X138.892 Y121.892 E30.56792
G1 X138.771 Y122.445 E30.57502
G1 X138.477 Y122.93 E30.58213
G1 X138.292 Y123.109 E30.58536
G1 X138.537 Y123.86 E30.59527
G1 X138.537 Y143.489 E30.84142
G1 X138.416 Y144.042 E30.84852
G1 X138.122 Y144.526 E30.85562
G1 X137.303 Y145.32 E30.86993
G1 X136.187 Y145.682 E30.88464
G1 X133.56 Y145.682 E30.91758
G1 X133.007 Y145.561 E30.92468
G1 X132.523 Y145.267 E30.93178
G1 X131.729 Y144.448 E30.94609
G1 X131.367 Y143.332 E30.9608
G1 X131.367 Y141.817 E30.9798
G1 X130.957 Y141.93 E30.98513
G1 X96.391 Y141.93 E31.4186
G1 X95.838 Y141.809 E31.4257
G1 X95.354 Y141.515 E31.4328
G1 X94.56 Y140.696 E31.44711
G1 X94.198 Y139.58 E31.46182
G1 X94.204 Y110.928 E31.82113
G1 X93.561 Y110.265 E31.83271
G1 X93.199 Y109.149 E31.84742
G1 X93.199 Y89.43 E32.09471
G1 X93.475 Y88.619 E32.10545
G0 F15000 X93.823 Y88.839
G1 F1350 X94.638 Y88.046 E32.11971
G1 X95.61 Y87.729 E32.13253
G1 X98.201 Y87.729 E32.16502
G1 X98.859 Y87.953 E32.17374
G1 X99.652 Y88.768 E32.188
G1 X99.969 Y89.74 E32.20082
G1 X99.969 Y109.16 E32.44436
G1 X100.94 Y109.16 E32.45653
G1 X100.436 Y108.64 E32.46561
G1 X100.122 Y107.673 E32.47836
G1 X100.122 Y93.083 E32.66133
G1 X100.346 Y92.425 E32.67004
G1 X101.161 Y91.632 E32.6843
G1 X102.133 Y91.315 E32.69712
G1 X136.724 Y91.315 E33.13091
G1 X137.382 Y91.539 E33.13963
G1 X138.175 Y92.354 E33.15389
G1 X138.492 Y93.326 E33.16671
G1 X138.492 Y121.892 E33.52493
G1 X138.382 Y122.352 E33.53087
G1 X138.199 Y122.642 E33.53517
G1 X137.834 Y122.995 E33.54153
G1 X138.137 Y123.923 E33.55378
G1 X138.137 Y143.489 E33.79914
G1 X138.027 Y143.949 E33.80507
G1 X137.844 Y144.239 E33.80937
G1 X137.092 Y144.968 E33.82251
G1 X136.125 Y145.282 E33.83526
G1 X133.56 Y145.282 E33.86742
G1 X133.1 Y145.172 E33.87335
G1 X132.81 Y144.989 E33.87765
G1 X132.081 Y144.237 E33.89079
G1 X131.767 Y143.27 E33.90354
G1 X131.767 Y141.266 E33.92867
G1 X130.957 Y141.53 E33.93935
G1 X96.391 Y141.53 E34.37282
G1 X95.931 Y141.42 E34.37875
G1 X95.641 Y141.237 E34.38305
G1 X94.912 Y140.485 E34.39619
G1 X94.598 Y139.518 E34.40894
G1 X94.598 Y110.995 E34.76663
G1 X94.633 Y110.797 E34.76915
G1 X93.913 Y110.054 E34.78212
G1 X93.599 Y109.087 E34.79487
G1 X93.599 Y89.497 E35.04054
G1 X93.823 Y88.839 E35.04926
G0 F15000 X94.171 Y89.059
G1 F1350 X94.851 Y88.397 E35.06116
G1 X95.673 Y88.129 E35.072
G1 X98.134 Y88.129 E35.10286
G1 X98.639 Y88.301 E35.10955
G1 X99.301 Y88.981 E35.12145
G1 X99.569 Y89.803 E35.13229
G1 X99.569 Y109.266 E35.37637
G1 X99.512 Y109.56 E35.38012
G1 X101.133 Y109.56 E35.40045
G1 X101.638 Y109.732 E35.40714
G1 X102.3 Y110.412 E35.41904
G1 X102.568 Y111.234 E35.42988
G1 X102.568 Y135.56 E35.73494
G1 X106.998 Y135.56 E35.7905
G1 X106.998 Y110.995 E36.09855
G1 X107.17 Y110.49 E36.10524
G1 X107.85 Y109.828 E36.11714
G1 X108.672 Y109.56 E36.12798
G1 X113.133 Y109.56 E36.18393
G1 X113.638 Y109.732 E36.19062
G1 X114.3 Y110.412 E36.20252
G1 X114.568 Y111.234 E36.21336
G1 X114.568 Y123.56 E36.36793
G1 X131.133 Y123.56 E36.57566
G1 X131.638 Y123.732 E36.58235
