;START_OF_HEADER
;HEADER_VERSION:0.1
;FLAVOR:Griffin
;GENERATOR.NAME:Cura_SteamEngine
;GENERATOR.VERSION:5.6.0
;GENERATOR.BUILD_DATE:2023-11-28
;TARGET_MACHINE.NAME:Ultimaker 3
;EXTRUDER_TRAIN.0.INITIAL_TEMPERATURE:200
;EXTRUDER_TRAIN.0.MATERIAL.VOLUME_USED:2448
;EXTRUDER_TRAIN.0.MATERIAL.GUID:e509f649-9fe6-4b14-ac45-d441438cb4ef
;EXTRUDER_TRAIN.0.NOZZLE.DIAMETER:0.4
;EXTRUDER_TRAIN.0.NOZZLE.NAME:AA 0.4
;BUILD_PLATE.INITIAL_TEMPERATURE:60
;PRINT.TIME:1815
;PRINT.GROUPS:1
;PRINT.SIZE.MIN.X:9
;PRINT.SIZE.MIN.Y:6
;PRINT.SIZE.MIN.Z:0.2
;PRINT.SIZE.MAX.X:155.035
;PRINT.SIZE.MAX.Y:150.068
;PRINT.SIZE.MAX.Z:3.55
;SLICE_UUID:1da73b13-f9ad-4fc7-9d60-b32419fc5597
;END_OF_HEADER
;Generated with Cura_SteamEngine 5.6.0
T0
M82 ;absolute extrusion mode

G92 E0
M190 S60
M109 S200
G0 F15000 X9 Y6 Z2
G280
G1 F1500 E-6.5
;LAYER_COUNT:13
;LAYER:0
M106 S255
M204 S1000
M205 X20 Y20
G1 F600 Z2.2
G0 F15000 X78.813 Y75.665 Z2.2
;TYPE:SKIRT
G1 F600 Z0.2
G1 F1500 E0
G1 F1350 X81.248 Y73.3 E0.04257
G1 X84.02 Y72.395 E0.07914
G1 X103.342 Y72.394 E0.32144
G1 X105.208 Y72.804 E0.3454
G1 X106.69 Y73.792 E0.36774
G1 X107.494 Y74.62 E0.38221
G1 X129.841 Y74.62 E0.66245
G1 X132.335 Y75.468 E0.69548
G1 X134.7 Y77.903 E0.73805
G1 X135.605 Y80.675 E0.77462
G1 X135.606 Y88.015 E0.86666
G1 X139.271 Y88.015 E0.91262
G1 X141.583 Y88.801 E0.94325
G1 X141.836 Y88.981 E0.94714
G1 X142.026 Y88.862 E0.94995
G1 X144.62 Y88.015 E0.98417
G1 X149.271 Y88.015 E1.0425
G1 X151.765 Y88.863 E1.07553
G1 X154.13 Y91.298 E1.1181
G1 X155.035 Y94.07 E1.15467
G1 X155.035 Y120.496 E1.48606
G1 X154.661 Y122.214 E1.50811
G1 X153.679 Y123.824 E1.53176
G1 X151.734 Y125.711 E1.56574
G1 X148.976 Y126.605 E1.6021
G1 X135.605 Y126.606 E1.76978
G1 X135.606 Y129.42 E1.80507
G1 X135.232 Y131.144 E1.82719
G1 X134.25 Y132.754 E1.85084
G1 X132.306 Y134.64 E1.8848
G1 X129.545 Y135.535 E1.9212
G1 X126.683 Y135.535 E1.95709
G1 X126.596 Y135.795 E1.96053
G1 X125.998 Y136.775 E1.97493
G1 X126.195 Y137.059 E1.97926
G1 X127.042 Y139.653 E2.01348
G1 X127.042 Y143.959 E2.06748
G1 X126.668 Y145.677 E2.08953
G1 X125.686 Y147.287 E2.11318
G1 X123.742 Y149.173 E2.14714
G1 X120.981 Y150.068 E2.18354
G1 X94.561 Y150.068 E2.51486
G1 X92.843 Y149.694 E2.53691
G1 X91.233 Y148.712 E2.56056
G1 X89.346 Y146.767 E2.59454
G1 X88.452 Y144.009 E2.6309
G1 X88.451 Y129.256 E2.81591
G1 X86.925 Y127.683 E2.84339
G1 X86.024 Y124.906 E2.88
G1 X86.024 Y110.985 E3.05458
G1 X84.074 Y110.985 E3.07903
G1 X82.356 Y110.611 E3.10108
G1 X80.746 Y109.629 E3.12473
G1 X78.86 Y107.685 E3.15869
G1 X77.965 Y104.924 E3.19509
G1 X77.965 Y78.159 E3.53073
G1 X78.813 Y75.665 E3.56377
G0 F15000 X79.161 Y75.885
G1 F1350 X81.461 Y73.651 E3.60398
G1 X84.083 Y72.795 E3.63857
G1 X103.297 Y72.794 E3.87952
G1 X105.049 Y73.179 E3.90201
G1 X106.432 Y74.101 E3.92286
G1 X107.324 Y75.02 E3.93892
G1 X129.774 Y75.02 E4.22045
G1 X132.115 Y75.816 E4.25146
G1 X134.349 Y78.116 E4.29166
G1 X135.205 Y80.738 E4.32625
G1 X135.206 Y88.415 E4.42253
G1 X139.204 Y88.415 E4.47266
G1 X141.454 Y89.18 E4.50246
G1 X141.826 Y89.5 E4.50862
G1 X142.15 Y89.242 E4.51381
G1 X144.683 Y88.415 E4.54723
G1 X149.204 Y88.415 E4.60392
G1 X151.545 Y89.211 E4.63493
G1 X153.779 Y91.511 E4.67514
G1 X154.635 Y94.133 E4.70973
G1 X154.635 Y120.452 E5.03978
G1 X154.284 Y122.065 E5.06048
G1 X153.366 Y123.57 E5.08258
G1 X151.522 Y125.359 E5.1148
G1 X148.912 Y126.205 E5.14921
G1 X135.205 Y126.206 E5.3211
G1 X135.206 Y129.377 E5.36087
G1 X134.855 Y130.995 E5.38163
G1 X133.937 Y132.5 E5.40374
G1 X132.094 Y134.288 E5.43594
G1 X129.481 Y135.135 E5.47038
G1 X126.377 Y135.135 E5.50931
G1 X126.255 Y135.587 E5.51518
G1 X125.509 Y136.809 E5.53313
G1 X125.815 Y137.183 E5.53919
G1 X126.642 Y139.716 E5.57261
G1 X126.642 Y143.915 E5.62527
G1 X126.291 Y145.528 E5.64597
G1 X125.373 Y147.033 E5.66807
G1 X123.53 Y148.821 E5.70028
G1 X120.917 Y149.668 E5.73472
G1 X94.605 Y149.668 E6.06468
G1 X92.992 Y149.317 E6.08539
G1 X91.487 Y148.399 E6.10749
G1 X89.698 Y146.555 E6.13971
G1 X88.852 Y143.945 E6.17412
G1 X88.851 Y129.095 E6.36034
G1 X87.276 Y127.471 E6.38871
G1 X86.424 Y124.845 E6.42333
G1 X86.424 Y110.585 E6.60216
G1 X84.118 Y110.585 E6.63108
G1 X82.505 Y110.234 E6.65178
G1 X81 Y109.316 E6.67389
G1 X79.212 Y107.473 E6.70609
G1 X78.365 Y104.86 E6.74053
G1 X78.365 Y78.226 E7.07453
G1 X79.161 Y75.885 E7.10554
G0 F15000 X79.509 Y76.105
G1 F1350 X81.674 Y74.002 E7.14339
G1 X84.146 Y73.195 E7.176
G1 X103.252 Y73.194 E7.4156
G1 X104.89 Y73.554 E7.43663
G1 X106.174 Y74.41 E7.45598
G1 X107.154 Y75.42 E7.47363
G1 X129.707 Y75.42 E7.75645
G1 X131.895 Y76.164 E7.78543
G1 X133.998 Y78.329 E7.82328
G1 X134.805 Y80.801 E7.85589
G1 X134.806 Y88.815 E7.95639
G1 X139.137 Y88.815 E8.0107
G1 X141.325 Y89.559 E8.03969
G1 X141.817 Y90.065 E8.04854
G1 X142.274 Y89.622 E8.05652
G1 X144.746 Y88.815 E8.08913
G1 X149.137 Y88.815 E8.14419
G1 X151.325 Y89.559 E8.17317
G1 X153.428 Y91.724 E8.21102
G1 X154.235 Y94.196 E8.24363
G1 X154.235 Y120.408 E8.57234
G1 X153.907 Y121.916 E8.59169
G1 X153.053 Y123.316 E8.61226
G1 X151.31 Y125.007 E8.64271
G1 X148.848 Y125.805 E8.67517
G1 X134.805 Y125.806 E8.85127
G1 X134.806 Y129.334 E8.89552
G1 X134.478 Y130.846 E8.91492
G1 X133.624 Y132.246 E8.93548
G1 X131.882 Y133.936 E8.96592
G1 X129.417 Y134.735 E8.99841
G1 X126.054 Y134.735 E9.04059
G1 X125.914 Y135.379 E9.04885
G1 X125.007 Y136.865 E9.07068
G1 X125.435 Y137.307 E9.0784
G1 X126.242 Y139.779 E9.11101
G1 X126.242 Y143.871 E9.16233
G1 X125.914 Y145.379 E9.18168
G1 X125.06 Y146.779 E9.20224
G1 X123.318 Y148.469 E9.23268
G1 X120.853 Y149.268 E9.26518
G1 X94.649 Y149.268 E9.59378
G1 X93.141 Y148.94 E9.61314
G1 X91.741 Y148.086 E9.6337
G1 X90.05 Y146.343 E9.66416
G1 X89.252 Y143.881 E9.69661
G1 X89.251 Y128.934 E9.88405
G1 X87.627 Y127.259 E9.91331
G1 X86.824 Y124.784 E9.94594
G1 X86.824 Y110.185 E10.12902
G1 X84.162 Y110.185 E10.1624
G1 X82.654 Y109.857 E10.18175
G1 X81.254 Y109.003 E10.20232
G1 X79.564 Y107.261 E10.23275
G1 X78.765 Y104.796 E10.26525
G1 X78.765 Y78.293 E10.59761
G1 X79.509 Y76.105 E10.62659
G0 F15000 X79.857 Y76.325
G1 F1350 X81.887 Y74.353 E10.66208
G1 X84.209 Y73.595 E10.69271
G1 X103.207 Y73.594 E10.93095
G1 X104.731 Y73.929 E10.95052
G1 X105.919 Y74.721 E10.96842
G1 X106.985 Y75.82 E10.98762
G1 X129.64 Y75.82 E11.27173
G1 X131.675 Y76.512 E11.29868
G1 X133.647 Y78.542 E11.33417
G1 X134.405 Y80.864 E11.3648
G1 X134.406 Y89.346 E11.47117
G1 X134.87 Y89.215 E11.47722
G1 X139.07 Y89.215 E11.52989
G1 X141.105 Y89.907 E11.55684
G1 X141.809 Y90.631 E11.5695
G1 X142.487 Y89.973 E11.58135
G1 X144.809 Y89.215 E11.61198
G1 X149.07 Y89.215 E11.66542
G1 X151.105 Y89.907 E11.69237
G1 X153.077 Y91.937 E11.72786
G1 X153.835 Y94.259 E11.7585
G1 X153.835 Y120.364 E12.08586
G1 X153.53 Y121.767 E12.10387
G1 X152.74 Y123.062 E12.12289
G1 X151.098 Y124.655 E12.15158
G1 X148.784 Y125.405 E12.18208
G1 X134.405 Y125.406 E12.3624
G1 X134.406 Y129.291 E12.41112
G1 X134.101 Y130.697 E12.42916
G1 X133.311 Y131.992 E12.44819
G1 X131.67 Y133.584 E12.47686
G1 X129.353 Y134.335 E12.5074
G1 X125.732 Y134.335 E12.55281
G1 X125.537 Y135.23 E12.5643
G1 X124.749 Y136.521 E12.58326
G1 X124.422 Y136.838 E12.58898
G1 X125.084 Y137.52 E12.60089
G1 X125.842 Y139.842 E12.63153
G1 X125.842 Y143.827 E12.6815
G1 X125.537 Y145.23 E12.6995
G1 X124.747 Y146.525 E12.71853
G1 X123.106 Y148.117 E12.7472
G1 X120.789 Y148.868 E12.77774
G1 X94.693 Y148.868 E13.105
G1 X93.29 Y148.563 E13.123
G1 X91.995 Y147.773 E13.14202
G1 X90.402 Y146.131 E13.17071
G1 X89.652 Y143.817 E13.20122
G1 X89.651 Y128.717 E13.39058
G1 X89.444 Y128.559 E13.39384
G1 X87.978 Y127.047 E13.42025
G1 X87.224 Y124.723 E13.45089
G1 X87.224 Y110.047 E13.63494
G1 X87.29 Y109.785 E13.63832
G1 X84.206 Y109.785 E13.677
G1 X82.803 Y109.48 E13.695
G1 X81.508 Y108.69 E13.71403
G1 X79.916 Y107.049 E13.7427
G1 X79.165 Y104.732 E13.77324
G1 X79.165 Y78.36 E14.10396
G1 X79.857 Y76.325 E14.13091
G0 F15000 X80.205 Y76.545
G1 F1350 X82.1 Y74.704 E14.16404
G1 X84.272 Y73.995 E14.1927
G1 X103.162 Y73.994 E14.42958
G1 X104.572 Y74.304 E14.44769
G1 X105.664 Y75.032 E14.46415
G1 X106.816 Y76.22 E14.4849
G1 X129.573 Y76.22 E14.77028
G1 X131.455 Y76.86 E14.79521
G1 X133.296 Y78.755 E14.82834
G1 X134.005 Y80.927 E14.85699
G1 X134.006 Y89.898 E14.96949
G1 X134.87 Y89.615 E14.98089
G1 X139.003 Y89.615 E15.03272
G1 X140.885 Y90.255 E15.05765
G1 X141.801 Y91.197 E15.07413
G1 X142.7 Y90.324 E15.08984
G1 X144.872 Y89.615 E15.11849
G1 X149.003 Y89.615 E15.1703
G1 X150.885 Y90.255 E15.19523
G1 X152.726 Y92.15 E15.22836
G1 X153.435 Y94.322 E15.25701
G1 X153.435 Y120.32 E15.58304
G1 X153.153 Y121.618 E15.59969
G1 X152.427 Y122.808 E15.61717
G1 X150.886 Y124.303 E15.6441
G1 X148.72 Y125.005 E15.67265
G1 X134.005 Y125.006 E15.85718
G1 X134.006 Y129.248 E15.91038
G1 X133.724 Y130.548 E15.92706
G1 X132.998 Y131.738 E15.94454
G1 X131.458 Y133.232 E15.97145
G1 X129.289 Y133.935 E16.00004
G1 X125.409 Y133.935 E16.0487
G1 X125.16 Y135.081 E16.0634
G1 X124.436 Y136.267 E16.08083
G1 X123.856 Y136.83 E16.09097
G1 X124.733 Y137.733 E16.10675
G1 X125.442 Y139.905 E16.1354
G1 X125.442 Y143.783 E16.18404
G1 X125.16 Y145.081 E16.20069
G1 X124.434 Y146.271 E16.21817
G1 X122.894 Y147.765 E16.24508
G1 X120.725 Y148.468 E16.27367
G1 X94.737 Y148.468 E16.59957
G1 X93.439 Y148.186 E16.61623
G1 X92.249 Y147.46 E16.63371
G1 X90.754 Y145.919 E16.66064
G1 X90.052 Y143.753 E16.68919
G1 X90.051 Y128.513 E16.8803
G1 X89.731 Y128.281 E16.88526
G1 X88.329 Y126.835 E16.91052
G1 X87.624 Y124.662 E16.93917
G1 X87.624 Y110.047 E17.12244
G1 X87.849 Y109.385 E17.13121
G1 X84.25 Y109.385 E17.17635
G1 X82.952 Y109.103 E17.193
G1 X81.762 Y108.377 E17.21048
G1 X80.268 Y106.837 E17.23739
G1 X79.565 Y104.668 E17.26598
G1 X79.565 Y78.427 E17.59505
G1 X80.205 Y76.545 E17.61998
G0 F15000 X80.553 Y76.765
G1 F1350 X82.313 Y75.055 E17.65076
G1 X84.335 Y74.395 E17.67743
G1 X103.117 Y74.394 E17.91296
G1 X104.413 Y74.679 E17.9296
G1 X105.409 Y75.343 E17.94461
G1 X106.647 Y76.62 E17.96692
G1 X129.506 Y76.62 E18.25358
G1 X131.235 Y77.208 E18.27648
G1 X132.945 Y78.968 E18.30725
G1 X133.605 Y80.99 E18.33393
G1 X133.606 Y90.45 E18.45256
G1 X134.934 Y90.015 E18.47008
G1 X138.936 Y90.015 E18.52027
G1 X140.665 Y90.603 E18.54317
G1 X141.793 Y91.763 E18.56346
G1 X142.913 Y90.675 E18.58304
G1 X144.935 Y90.015 E18.60972
G1 X148.936 Y90.015 E18.65989
G1 X150.665 Y90.603 E18.68279
G1 X152.375 Y92.363 E18.71357
G1 X153.035 Y94.385 E18.74024
G1 X153.035 Y120.276 E19.06492
G1 X152.776 Y121.469 E19.08023
G1 X152.114 Y122.554 E19.09617
G1 X150.673 Y123.952 E19.12135
G1 X148.659 Y124.605 E19.1479
G1 X133.605 Y124.606 E19.33668
G1 X133.606 Y129.205 E19.39435
G1 X133.347 Y130.399 E19.40968
G1 X132.685 Y131.484 E19.42561
G1 X131.246 Y132.88 E19.45076
G1 X129.225 Y133.535 E19.4774
G1 X125.042 Y133.535 E19.52985
G1 X125.033 Y133.78 E19.53293
G1 X124.783 Y134.932 E19.54771
G1 X124.122 Y136.015 E19.56362
G1 X123.29 Y136.822 E19.57816
G1 X124.382 Y137.946 E19.59781
G1 X125.042 Y139.968 E19.62448
G1 X125.042 Y143.739 E19.67177
G1 X124.783 Y144.932 E19.68708
G1 X124.121 Y146.017 E19.70302
G1 X122.682 Y147.413 E19.72816
G1 X120.661 Y148.068 E19.75481
G1 X94.781 Y148.068 E20.07935
G1 X93.588 Y147.809 E20.09466
G1 X92.503 Y147.147 E20.1106
G1 X91.105 Y145.706 E20.13578
G1 X90.452 Y143.692 E20.16233
G1 X90.451 Y128.303 E20.35531
G1 X90.018 Y128.003 E20.36192
G1 X88.68 Y126.623 E20.38602
G1 X88.024 Y124.601 E20.41268
G1 X88.024 Y110.114 E20.59435
G1 X88.452 Y108.855 E20.61103
G1 X87.99 Y108.985 E20.61704
G1 X84.294 Y108.985 E20.66339
G1 X83.101 Y108.726 E20.6787
G1 X82.016 Y108.064 E20.69464
G1 X80.62 Y106.625 E20.71978
G1 X79.965 Y104.604 E20.74643
G1 X79.965 Y78.494 E21.07385
G1 X80.553 Y76.765 E21.09676
G0 F15000 X80.901 Y76.985
G1 F1350 X82.526 Y75.406 E21.12517
G1 X84.398 Y74.795 E21.14987
G1 X103.072 Y74.794 E21.38404
G1 X104.254 Y75.054 E21.39922
G1 X105.154 Y75.654 E21.41279
G1 X106.237 Y76.771 E21.4323
G1 X106.382 Y77.02 E21.43591
G1 X129.439 Y77.02 E21.72505
G1 X131.015 Y77.556 E21.74593
G1 X132.594 Y79.181 E21.77434
G1 X133.205 Y81.053 E21.79904
G1 X133.206 Y91.002 E21.9238
G1 X134.998 Y90.415 E21.94745
G1 X138.869 Y90.415 E21.99599
G1 X140.445 Y90.951 E22.01687
G1 X141.785 Y92.329 E22.04097
G1 X143.126 Y91.026 E22.06442
G1 X144.998 Y90.415 E22.08911
G1 X148.869 Y90.415 E22.13766
G1 X150.445 Y90.951 E22.15853
G1 X152.024 Y92.576 E22.18695
G1 X152.635 Y94.448 E22.21164
G1 X152.635 Y120.232 E22.53498
G1 X152.399 Y121.32 E22.54894
G1 X151.801 Y122.3 E22.56334
G1 X150.461 Y123.6 E22.58675
G1 X148.595 Y124.205 E22.61135
G1 X133.205 Y124.206 E22.80435
G1 X133.206 Y129.162 E22.8665
G1 X132.97 Y130.25 E22.88046
G1 X132.372 Y131.23 E22.89486
G1 X131.034 Y132.528 E22.91823
G1 X129.161 Y133.135 E22.94292
G1 X124.642 Y133.135 E22.99959
G1 X124.642 Y133.695 E23.00662
G1 X124.406 Y134.783 E23.02058
G1 X123.808 Y135.763 E23.03497
G1 X122.724 Y136.814 E23.05391
G1 X124.031 Y138.159 E23.07743
G1 X124.642 Y140.031 E23.10212
G1 X124.642 Y143.695 E23.14807
G1 X124.406 Y144.783 E23.16203
G1 X123.808 Y145.763 E23.17643
G1 X122.47 Y147.061 E23.19981
G1 X120.597 Y147.668 E23.2245
G1 X94.825 Y147.668 E23.54769
G1 X93.737 Y147.432 E23.56165
G1 X92.757 Y146.834 E23.57604
G1 X91.457 Y145.494 E23.59946
G1 X90.852 Y143.628 E23.62406
G1 X90.851 Y128.089 E23.81892
G1 X90.305 Y127.725 E23.82715
G1 X89.031 Y126.411 E23.8501
G1 X88.424 Y124.54 E23.87477
G1 X88.424 Y110.181 E24.05484
G1 X88.96 Y108.605 E24.07571
G1 X89.476 Y108.103 E24.08474
G1 X87.99 Y108.585 E24.10433
G1 X84.338 Y108.585 E24.15013
G1 X83.25 Y108.349 E24.16409
G1 X82.27 Y107.751 E24.17849
G1 X80.972 Y106.413 E24.20186
G1 X80.365 Y104.54 E24.22655
G1 X80.365 Y78.561 E24.55234
G1 X80.901 Y76.985 E24.57322
G0 F15000 X81.249 Y77.205
G1 F1350 X82.739 Y75.757 E24.59927
G1 X84.461 Y75.195 E24.62199
G1 X103.027 Y75.194 E24.85481
G1 X104.095 Y75.429 E24.86852
G1 X104.899 Y75.965 E24.88064
G1 X105.95 Y77.049 E24.89958
G1 X106.134 Y77.42 E24.90477
G1 X129.372 Y77.42 E25.19618
G1 X130.795 Y77.904 E25.21503
G1 X132.243 Y79.394 E25.24109
G1 X132.805 Y81.116 E25.2638
G1 X132.806 Y91.895 E25.39897
G1 X133.339 Y91.377 E25.40829
G1 X135.061 Y90.815 E25.43101
G1 X138.802 Y90.815 E25.47792
G1 X140.225 Y91.299 E25.49677
G1 X141.609 Y92.723 E25.52167
G1 X141.765 Y93.071 E25.52646
G1 X141.918 Y92.758 E25.53083
G1 X143.339 Y91.377 E25.55568
G1 X145.061 Y90.815 E25.57839
G1 X148.802 Y90.815 E25.6253
G1 X150.225 Y91.299 E25.64415
G1 X151.673 Y92.789 E25.67021
G1 X152.235 Y94.511 E25.69292
G1 X152.235 Y120.188 E26.01492
G1 X152.022 Y121.169 E26.02751
G1 X151.486 Y122.048 E26.04042
G1 X150.249 Y123.248 E26.06203
G1 X148.531 Y123.805 E26.08468
G1 X132.805 Y123.806 E26.28189
G1 X132.806 Y129.118 E26.34851
G1 X132.593 Y130.099 E26.3611
G1 X132.057 Y130.978 E26.37401
G1 X130.821 Y132.177 E26.3956
G1 X129.1 Y132.735 E26.41829
G1 X124.242 Y132.735 E26.47921
G1 X124.242 Y133.651 E26.4907
G1 X124.029 Y134.632 E26.50329
G1 X123.493 Y135.511 E26.5162
G1 X122.323 Y136.646 E26.53664
G1 X121.986 Y136.798 E26.54127
G1 X122.299 Y136.951 E26.54564
G1 X123.68 Y138.372 E26.57049
G1 X124.242 Y140.094 E26.59321
G1 X124.242 Y143.651 E26.63781
G1 X124.029 Y144.632 E26.6504
G1 X123.493 Y145.511 E26.66331
G1 X122.257 Y146.71 E26.68491
G1 X120.536 Y147.268 E26.7076
G1 X94.869 Y147.268 E27.02947
G1 X93.888 Y147.055 E27.04206
G1 X93.009 Y146.519 E27.05497
G1 X91.809 Y145.282 E27.07658
G1 X91.252 Y143.564 E27.09923
G1 X91.251 Y127.875 E27.29598
G1 X90.56 Y127.414 E27.30639
G1 X89.382 Y126.199 E27.32761
G1 X88.824 Y124.479 E27.35029
G1 X88.824 Y110.248 E27.52875
G1 X89.308 Y108.825 E27.5476
G1 X90.801 Y107.374 E27.57371
G1 X91.401 Y107.179 E27.58162
G1 X91.315 Y106.8 E27.5865
G1 X91.315 Y105.908 E27.59768
G1 X91.261 Y105.812 E27.59906
G1 X90.886 Y106.428 E27.60811
G1 X89.65 Y107.627 E27.6297
G1 X87.929 Y108.185 E27.65239
G1 X84.382 Y108.185 E27.69687
G1 X83.401 Y107.972 E27.70946
G1 X82.522 Y107.436 E27.72237
G1 X81.323 Y106.2 E27.74396
G1 X80.765 Y104.479 E27.76665
G1 X80.765 Y78.628 E28.09083
G1 X81.249 Y77.205 E28.10968
G0 F15000 X81.597 Y77.425
G1 F1350 X82.952 Y76.108 E28.13338
G1 X84.524 Y75.595 E28.15411
