;START_OF_HEADER
;HEADER_VERSION:0.1
;FLAVOR:Griffin
;GENERATOR.NAME:Cura_SteamEngine
;GENERATOR.VERSION:5.6.0
;GENERATOR.BUILD_DATE:2023-11-28
;TARGET_MACHINE.NAME:Ultimaker 3
;EXTRUDER_TRAIN.0.INITIAL_TEMPERATURE:200
;EXTRUDER_TRAIN.0.MATERIAL.VOLUME_USED:589
;EXTRUDER_TRAIN.0.MATERIAL.GUID:e509f649-9fe6-4b14-ac45-d441438cb4ef
;EXTRUDER_TRAIN.0.NOZZLE.DIAMETER:0.4
;EXTRUDER_TRAIN.0.NOZZLE.NAME:AA 0.4
;BUILD_PLATE.INITIAL_TEMPERATURE:60
;PRINT.TIME:418
;PRINT.GROUPS:1
;PRINT.SIZE.MIN.X:9
;PRINT.SIZE.MIN.Y:6
;PRINT.SIZE.MIN.Z:0.2
;PRINT.SIZE.MAX.X:135.606
;PRINT.SIZE.MAX.Y:116.476
;PRINT.SIZE.MAX.Z:2.2
;SLICE_UUID:e7675c09-6f40-4cb3-aef6-c5d2cb541111
;END_OF_HEADER
;Generated with Cura_SteamEngine 5.6.0
T0
M82 ;absolute extrusion mode

G92 E0
M190 S60
M109 S200
G0 F15000 X9 Y6 Z2
G280
G1 F1500 E-6.5
;LAYER_COUNT:13
;LAYER:0
M106 S255
M204 S1000
M205 X20 Y20
G1 F600 Z2.2
G0 F15000 X97.863 Y77.89 Z2.2
;TYPE:SKIRT
G1 F600 Z0.2
G1 F1500 E0
G1 F1350 X100.298 Y75.525 E0.04257
G1 X103.07 Y74.62 E0.07914
G1 X129.841 Y74.62 E0.41485
G1 X132.335 Y75.468 E0.44789
G1 X134.7 Y77.903 E0.49046
G1 X135.605 Y80.675 E0.52702
G1 X135.606 Y99.979 E0.7691
G1 X135.232 Y101.699 E0.79118
G1 X134.25 Y103.309 E0.81483
G1 X132.306 Y105.195 E0.84879
G1 X129.984 Y105.946 E0.8794
G1 X129.985 Y107.25 E0.89575
G1 X129.906 Y107.657 E0.90095
G1 X129.985 Y108.2 E0.90783
G1 X129.985 Y110.367 E0.935
G1 X129.611 Y112.085 E0.95705
G1 X128.629 Y113.695 E0.9807
G1 X126.685 Y115.581 E1.01467
G1 X123.924 Y116.476 E1.05107
G1 X109.124 Y116.476 E1.23666
G1 X107.406 Y116.102 E1.25871
G1 X105.796 Y115.12 E1.28236
G1 X103.91 Y113.176 E1.31633
G1 X103.015 Y110.415 E1.35272
G1 X103.021 Y107.801 E1.38551
G1 X103.096 Y107.358 E1.39114
G1 X103.02 Y106.866 E1.39738
G1 X103.015 Y104.288 E1.42971
G1 X103.863 Y101.794 E1.46275
G1 X104.588 Y101.09 E1.47542
G1 X103.124 Y101.09 E1.49378
G1 X101.406 Y100.716 E1.51583
G1 X99.796 Y99.734 E1.53948
G1 X97.91 Y97.79 E1.57344
G1 X97.015 Y95.029 E1.60984
G1 X97.015 Y90.384 E1.66809
G1 X97.801 Y88.072 E1.69871
G1 X97.984 Y87.816 E1.70266
G1 X97.85 Y87.608 E1.70576
G1 X97.015 Y85.029 E1.73976
G1 X97.015 Y80.384 E1.79801
G1 X97.863 Y77.89 E1.83104
G0 F15000 X98.211 Y78.11
G1 F1350 X100.511 Y75.876 E1.87125
G1 X103.133 Y75.02 E1.90584
G1 X129.774 Y75.02 E2.23993
G1 X132.115 Y75.816 E2.27093
G1 X134.349 Y78.116 E2.31114
G1 X135.205 Y80.738 E2.34573
G1 X135.206 Y99.935 E2.58647
G1 X134.855 Y101.55 E2.60719
G1 X133.937 Y103.055 E2.6293
G1 X132.094 Y104.843 E2.6615
G1 X129.584 Y105.655 E2.69459
G1 X129.585 Y107.21 E2.71409
G1 X129.5 Y107.647 E2.71967
G1 X129.585 Y108.2 E2.72668
G1 X129.585 Y110.323 E2.75331
G1 X129.234 Y111.936 E2.77401
G1 X128.316 Y113.441 E2.79612
G1 X126.473 Y115.229 E2.82832
G1 X123.86 Y116.076 E2.86276
G1 X109.168 Y116.076 E3.04701
G1 X107.555 Y115.725 E3.06771
G1 X106.05 Y114.807 E3.08982
G1 X104.262 Y112.964 E3.12202
G1 X103.415 Y110.351 E3.15646
G1 X103.421 Y107.802 E3.18843
G1 X103.502 Y107.359 E3.19408
G1 X103.42 Y106.865 E3.20036
G1 X103.415 Y104.355 E3.23183
G1 X104.211 Y102.014 E3.26284
G1 X105.574 Y100.69 E3.28667
G1 X103.168 Y100.69 E3.31684
G1 X101.555 Y100.339 E3.33754
G1 X100.05 Y99.421 E3.35965
G1 X98.262 Y97.578 E3.39185
G1 X97.415 Y94.965 E3.4263
G1 X97.415 Y90.451 E3.4829
G1 X98.18 Y88.201 E3.51271
G1 X98.504 Y87.826 E3.51892
G1 X98.231 Y87.485 E3.5244
G1 X97.415 Y84.965 E3.55762
G1 X97.415 Y80.451 E3.61422
G1 X98.211 Y78.11 E3.64523
G0 F15000 X98.559 Y78.33
G1 F1350 X100.724 Y76.227 E3.68308
G1 X103.196 Y75.42 E3.71569
G1 X129.707 Y75.42 E4.04815
G1 X131.895 Y76.164 E4.07713
G1 X133.998 Y78.329 E4.11498
G1 X134.805 Y80.801 E4.14759
G1 X134.806 Y99.891 E4.38699
G1 X134.478 Y101.401 E4.40636
G1 X133.624 Y102.801 E4.42693
G1 X131.882 Y104.491 E4.45736
G1 X129.476 Y105.271 E4.48908
G1 X129.184 Y105.29 E4.49275
G1 X129.185 Y107.169 E4.51632
G1 X129.093 Y107.641 E4.52235
G1 X129.185 Y108.2 E4.52945
G1 X129.185 Y110.279 E4.55552
G1 X128.857 Y111.787 E4.57487
G1 X128.003 Y113.187 E4.59544
G1 X126.261 Y114.877 E4.62588
G1 X123.796 Y115.676 E4.65837
G1 X109.212 Y115.676 E4.84126
G1 X107.704 Y115.348 E4.86061
G1 X106.304 Y114.494 E4.88118
G1 X104.614 Y112.752 E4.91161
G1 X103.815 Y110.287 E4.94411
G1 X103.815 Y107.874 E4.97437
G1 X103.908 Y107.363 E4.98088
G1 X103.815 Y106.8 E4.98804
G1 X103.815 Y104.422 E5.01786
G1 X104.559 Y102.234 E5.04684
G1 X106.56 Y100.29 E5.08183
G1 X103.212 Y100.29 E5.12381
G1 X101.704 Y99.962 E5.14316
G1 X100.304 Y99.108 E5.16373
G1 X98.614 Y97.366 E5.19417
G1 X97.815 Y94.901 E5.22666
G1 X97.815 Y90.518 E5.28163
G1 X98.559 Y88.33 E5.31061
G1 X99.07 Y87.834 E5.31954
G1 X98.612 Y87.362 E5.32779
G1 X97.815 Y84.901 E5.36023
G1 X97.815 Y80.518 E5.41519
G1 X98.559 Y78.33 E5.44417
G0 F15000 X98.907 Y78.55
G1 F1350 X98.215 Y80.585 E5.47113
G1 X98.215 Y84.837 E5.52445
G1 X98.965 Y87.152 E5.55496
G1 X99.635 Y87.843 E5.56703
G1 X98.907 Y88.55 E5.57976
G1 X98.215 Y90.585 E5.60671
G1 X98.215 Y94.837 E5.66004
G1 X98.966 Y97.154 E5.69058
G1 X100.558 Y98.795 E5.71925
G1 X101.853 Y99.585 E5.73828
G1 X103.256 Y99.89 E5.75628
G1 X108.751 Y99.89 E5.82519
G1 X106.937 Y100.482 E5.84912
G1 X104.907 Y102.454 E5.88461
G1 X104.215 Y104.489 E5.91156
G1 X104.215 Y106.8 E5.94055
G1 X104.315 Y107.365 E5.94774
G1 X104.215 Y107.874 E5.95425
G1 X104.215 Y110.223 E5.9837
G1 X104.966 Y112.54 E6.01425
G1 X106.558 Y114.181 E6.04292
G1 X107.853 Y114.971 E6.06194
G1 X109.256 Y115.276 E6.07995
G1 X123.732 Y115.276 E6.26148
G1 X126.049 Y114.525 E6.29203
G1 X127.69 Y112.933 E6.3207
G1 X128.48 Y111.638 E6.33972
G1 X128.785 Y110.235 E6.35773
G1 X128.785 Y108.2 E6.38324
G1 X128.686 Y107.636 E6.39043
G1 X128.785 Y107.128 E6.39692
G1 X128.784 Y104.89 E6.42498
G1 X129.353 Y104.89 E6.43212
G1 X131.67 Y104.139 E6.46266
G1 X133.311 Y102.547 E6.49133
G1 X134.101 Y101.252 E6.51036
G1 X134.406 Y99.847 E6.52839
G1 X134.405 Y80.864 E6.76644
G1 X133.647 Y78.542 E6.79707
G1 X131.675 Y76.512 E6.83256
G1 X129.64 Y75.82 E6.85952
G1 X103.259 Y75.82 E7.19034
G1 X100.937 Y76.578 E7.22097
G1 X98.907 Y78.55 E7.25647
G0 F15000 X99.255 Y78.77
G1 F1350 X101.15 Y76.929 E7.2896
G1 X103.322 Y76.22 E7.31825
G1 X129.573 Y76.22 E7.64745
G1 X131.455 Y76.86 E7.67238
G1 X133.296 Y78.755 E7.70551
G1 X134.005 Y80.927 E7.73416
G1 X134.006 Y99.803 E7.97087
G1 X133.724 Y101.103 E7.98755
G1 X132.998 Y102.293 E8.00503
G1 X131.458 Y103.787 E8.03194
G1 X129.289 Y104.49 E8.06053
G1 X128.273 Y104.49 E8.07327
G1 X128.385 Y104.894 E8.07853
G1 X128.385 Y107.087 E8.10603
G1 X128.278 Y107.633 E8.11301
G1 X128.385 Y108.2 E8.12025
G1 X128.385 Y110.191 E8.14521
G1 X128.103 Y111.489 E8.16187
G1 X127.377 Y112.679 E8.17935
G1 X125.837 Y114.173 E8.20626
G1 X123.668 Y114.876 E8.23485
G1 X109.3 Y114.876 E8.41503
G1 X108.002 Y114.594 E8.43169
G1 X106.812 Y113.868 E8.44917
G1 X105.318 Y112.328 E8.47608
G1 X104.615 Y110.159 E8.50467
G1 X104.615 Y107.915 E8.53281
G1 X104.722 Y107.368 E8.5398
G1 X104.615 Y106.8 E8.54705
G1 X104.615 Y104.556 E8.57519
G1 X105.255 Y102.674 E8.60012
G1 X107.15 Y100.833 E8.63325
G1 X109.322 Y100.124 E8.6619
G1 X113.728 Y100.124 E8.71715
G1 X113.634 Y99.835 E8.72097
G1 X113.615 Y99.49 E8.7253
G1 X103.3 Y99.49 E8.85465
G1 X102.002 Y99.208 E8.87131
G1 X100.812 Y98.482 E8.88879
G1 X99.318 Y96.942 E8.9157
G1 X98.615 Y94.773 E8.94429
G1 X98.615 Y90.652 E8.99597
G1 X99.255 Y88.77 E9.0209
G1 X100.201 Y87.851 E9.03744
G1 X99.317 Y86.94 E9.05336
G1 X98.615 Y84.773 E9.08192
G1 X98.615 Y80.652 E9.1336
G1 X99.255 Y78.77 E9.15853
G0 F15000 X99.603 Y78.99
G1 F1350 X101.363 Y77.28 E9.1893
G1 X103.385 Y76.62 E9.21597
G1 X129.506 Y76.62 E9.54354
G1 X131.235 Y77.208 E9.56644
G1 X132.945 Y78.968 E9.59722
G1 X133.605 Y80.99 E9.62389
G1 X133.606 Y99.76 E9.85927
G1 X133.347 Y100.954 E9.87459
G1 X132.685 Y102.039 E9.89053
G1 X131.246 Y103.435 E9.91567
G1 X129.225 Y104.09 E9.94232
G1 X127.722 Y104.09 E9.96116
G1 X127.985 Y104.894 E9.97177
G1 X127.985 Y107.087 E9.99927
G1 X127.87 Y107.632 E10.00626
G1 X127.985 Y108.2 E10.01353
G1 X127.985 Y110.147 E10.03794
G1 X127.726 Y111.34 E10.05325
G1 X127.064 Y112.425 E10.06919
G1 X125.625 Y113.821 E10.09433
G1 X123.604 Y114.476 E10.12097
G1 X109.344 Y114.476 E10.2998
G1 X108.151 Y114.217 E10.31511
G1 X107.066 Y113.555 E10.33105
G1 X105.67 Y112.116 E10.35619
G1 X105.015 Y110.095 E10.38283
G1 X105.015 Y107.915 E10.41017
G1 X105.13 Y107.369 E10.41717
G1 X105.015 Y106.8 E10.42445
G1 X105.015 Y104.623 E10.45175
G1 X105.603 Y102.894 E10.47465
G1 X107.363 Y101.184 E10.50542
G1 X109.385 Y100.524 E10.5321
G1 X114.278 Y100.524 E10.59346
G1 X114.015 Y99.712 E10.60416
G1 X114.015 Y99.09 E10.61196
G1 X103.344 Y99.09 E10.74578
G1 X102.151 Y98.831 E10.76109
G1 X101.066 Y98.169 E10.77703
G1 X99.67 Y96.73 E10.80217
G1 X99.015 Y94.709 E10.82881
G1 X99.015 Y90.719 E10.87885
G1 X99.603 Y88.99 E10.90175
G1 X100.766 Y87.86 E10.92208
G1 X99.67 Y86.73 E10.94182
G1 X99.015 Y84.709 E10.96847
G1 X99.015 Y80.719 E11.0185
G1 X99.603 Y78.99 E11.0414
G0 F15000 X99.951 Y79.21
G1 F1350 X101.576 Y77.631 E11.06982
G1 X103.448 Y77.02 E11.09451
G1 X129.439 Y77.02 E11.42045
G1 X131.015 Y77.556 E11.44132
G1 X132.594 Y79.181 E11.46974
G1 X133.205 Y81.053 E11.49443
G1 X133.206 Y99.717 E11.72849
G1 X132.97 Y100.805 E11.74245
G1 X132.372 Y101.785 E11.75684
G1 X131.034 Y103.083 E11.78022
G1 X129.161 Y103.69 E11.80491
G1 X127.171 Y103.69 E11.82987
G1 X127.585 Y104.957 E11.84658
G1 X127.585 Y107.087 E11.87329
G1 X127.46 Y107.63 E11.88028
G1 X127.585 Y108.2 E11.8876
G1 X127.585 Y110.103 E11.91146
G1 X127.349 Y111.191 E11.92542
G1 X126.751 Y112.171 E11.93982
G1 X125.413 Y113.469 E11.9632
G1 X123.54 Y114.076 E11.98789
G1 X109.388 Y114.076 E12.16536
G1 X108.3 Y113.84 E12.17932
G1 X107.32 Y113.242 E12.19372
G1 X106.022 Y111.904 E12.2171
G1 X105.415 Y110.031 E12.24179
G1 X105.415 Y107.915 E12.26832
G1 X105.54 Y107.372 E12.27531
G1 X105.415 Y106.8 E12.28265
G1 X105.415 Y104.69 E12.30911
G1 X105.951 Y103.114 E12.32999
G1 X107.576 Y101.535 E12.3584
G1 X109.448 Y100.924 E12.3831
G1 X114.828 Y100.924 E12.45056
G1 X114.415 Y99.648 E12.46738
G1 X114.415 Y98.69 E12.4794
G1 X103.388 Y98.69 E12.61768
G1 X102.3 Y98.454 E12.63164
G1 X101.32 Y97.856 E12.64604
G1 X100.022 Y96.518 E12.66941
G1 X99.415 Y94.645 E12.6941
G1 X99.415 Y90.786 E12.7425
G1 X99.951 Y89.21 E12.76337
G1 X101.332 Y87.868 E12.78752
G1 X100.022 Y86.518 E12.81111
G1 X99.415 Y84.645 E12.8358
G1 X99.415 Y80.786 E12.88419
G1 X99.951 Y79.21 E12.90507
G0 F15000 X100.299 Y79.43
G1 F1350 X101.789 Y77.982 E12.93113
G1 X103.511 Y77.42 E12.95384
G1 X129.372 Y77.42 E13.27815
G1 X130.795 Y77.904 E13.297
G1 X132.243 Y79.394 E13.32305
G1 X132.805 Y81.116 E13.34577
G1 X132.806 Y99.673 E13.57848
G1 X132.593 Y100.654 E13.59107
G1 X132.057 Y101.533 E13.60398
G1 X130.821 Y102.732 E13.62557
G1 X129.1 Y103.29 E13.64826
G1 X126.62 Y103.29 E13.67936
G1 X127.185 Y105.02 E13.70218
G1 X127.185 Y107.087 E13.7281
G1 X127.048 Y107.626 E13.73508
G1 X127.185 Y108.2 E13.74248
G1 X127.185 Y110.059 E13.76579
G1 X126.972 Y111.04 E13.77838
G1 X126.436 Y111.919 E13.79129
G1 X125.2 Y113.118 E13.81289
G1 X123.479 Y113.676 E13.83557
G1 X109.432 Y113.676 E14.01173
G1 X108.451 Y113.463 E14.02432
G1 X107.572 Y112.927 E14.03723
G1 X106.373 Y111.691 E14.05882
G1 X105.815 Y109.97 E14.08151
G1 X105.815 Y107.915 E14.10728
G1 X105.952 Y107.375 E14.11427
G1 X105.815 Y106.8 E14.12168
G1 X105.815 Y104.757 E14.1473
G1 X106.299 Y103.334 E14.16615
G1 X107.789 Y101.886 E14.1922
G1 X109.511 Y101.324 E14.21492
G1 X115.379 Y101.324 E14.28851
G1 X114.815 Y99.584 E14.31144
G1 X114.815 Y98.29 E14.32767
G1 X103.432 Y98.29 E14.47042
G1 X102.451 Y98.077 E14.48301
G1 X101.572 Y97.541 E14.49592
G1 X100.373 Y96.305 E14.51751
G1 X99.815 Y94.584 E14.5402
G1 X99.815 Y90.853 E14.58699
G1 X100.299 Y89.43 E14.60584
G1 X101.723 Y88.046 E14.63074
G1 X102.119 Y87.874 E14.63615
G1 X101.572 Y87.541 E14.64418
G1 X100.373 Y86.305 E14.66578
G1 X99.815 Y84.584 E14.68847
G1 X99.815 Y80.853 E14.73525
G1 X100.299 Y79.43 E14.7541
G0 F15000 X100.647 Y79.65
G1 F1350 X102.002 Y78.333 E14.7778
G1 X103.574 Y77.82 E14.79854
G1 X129.305 Y77.82 E15.12121
G1 X130.575 Y78.252 E15.13803
G1 X131.892 Y79.607 E15.16173
G1 X132.405 Y81.179 E15.18247
G1 X132.406 Y99.629 E15.41384
G1 X132.216 Y100.503 E15.42505
G1 X131.742 Y101.281 E15.43648
G1 X130.608 Y102.381 E15.45629
G1 X129.039 Y102.89 E15.47698
G1 X125.668 Y102.89 E15.51925
G1 X126.272 Y103.511 E15.53011
G1 X126.785 Y105.083 E15.55085
G1 X126.785 Y107.087 E15.57598
G1 X126.633 Y107.621 E15.58294
G1 X126.785 Y108.2 E15.59045
G1 X126.785 Y110.015 E15.61321
G1 X126.595 Y110.889 E15.62443
G1 X126.121 Y111.667 E15.63585
G1 X124.987 Y112.767 E15.65566
G1 X123.418 Y113.276 E15.67635
G1 X109.476 Y113.276 E15.85119
G1 X108.602 Y113.086 E15.8624
G1 X107.824 Y112.612 E15.87383
G1 X106.724 Y111.478 E15.89364
G1 X106.215 Y109.909 E15.91432
G1 X106.215 Y107.915 E15.93933
G1 X106.367 Y107.379 E15.94632
G1 X106.215 Y106.8 E15.95382
G1 X106.215 Y104.824 E15.9786
G1 X106.647 Y103.554 E15.99543
G1 X108.002 Y102.237 E16.01912
G1 X109.574 Y101.724 E16.03986
G1 X116.337 Y101.724 E16.12467
G1 X115.724 Y101.092 E16.13571
G1 X115.215 Y99.523 E16.1564
G1 X115.215 Y97.89 E16.17687
G1 X103.476 Y97.89 E16.32409
G1 X102.602 Y97.7 E16.3353
G1 X101.824 Y97.226 E16.34673
G1 X100.724 Y96.092 E16.36654
G1 X100.215 Y94.523 E16.38722
G1 X100.215 Y90.92 E16.43241
G1 X100.647 Y89.65 E16.44923
G1 X102.002 Y88.333 E16.47293
G1 X103.406 Y87.875 E16.49144
G1 X102.602 Y87.7 E16.50176
G1 X101.824 Y87.226 E16.51319
G1 X100.724 Y86.092 E16.533
G1 X100.215 Y84.523 E16.55369
G1 X100.215 Y80.92 E16.59887
G1 X100.647 Y79.65 E16.61569
G0 F15000 X100.995 Y79.87
G1 F1350 X102.215 Y78.684 E16.63703
G1 X103.637 Y78.22 E16.65579
G1 X129.238 Y78.22 E16.97683
G1 X130.355 Y78.6 E16.99163
G1 X131.541 Y79.82 E17.01296
G1 X132.005 Y81.242 E17.03172
G1 X132.006 Y99.585 E17.26175
G1 X131.839 Y100.352 E17.27159
G1 X131.425 Y101.032 E17.28158
G1 X130.396 Y102.03 E17.29955
G1 X128.978 Y102.49 E17.31825
G1 X124.721 Y102.49 E17.37163
G1 X125.921 Y103.724 E17.39322
G1 X126.385 Y105.146 E17.41198
G1 X126.385 Y107.03 E17.4356
G1 X126.216 Y107.621 E17.44331
G1 X126.385 Y108.2 E17.45087
G1 X126.385 Y109.971 E17.47308
G1 X126.218 Y110.738 E17.48293
G1 X125.804 Y111.418 E17.49291
G1 X124.775 Y112.416 E17.51089
G1 X123.357 Y112.876 E17.52958
G1 X109.52 Y112.876 E17.7031
G1 X108.753 Y112.709 E17.71295
G1 X108.073 Y112.295 E17.72293
G1 X107.075 Y111.266 E17.74091
G1 X106.615 Y109.848 E17.7596
G1 X106.615 Y107.971 E17.78314
G1 X106.783 Y107.378 E17.79087
G1 X106.615 Y106.8 E17.79842
G1 X106.615 Y104.891 E17.82236
G1 X106.995 Y103.774 E17.83715
G1 X108.215 Y102.588 E17.85849
G1 X109.637 Y102.124 E17.87725
G1 X117.426 Y102.124 E17.97492
G1 X117.035 Y101.87 E17.98077
G1 X116.075 Y100.88 E17.99806
G1 X115.615 Y99.462 E18.01676
G1 X115.615 Y97.49 E18.04149
G1 X103.52 Y97.49 E18.19316
G1 X102.753 Y97.323 E18.20301
G1 X102.073 Y96.909 E18.21299
G1 X101.075 Y95.88 E18.23097
G1 X100.615 Y94.462 E18.24966
G1 X100.615 Y90.987 E18.29324
G1 X100.995 Y89.87 E18.30804
G1 X102.215 Y88.684 E18.32937
G1 X103.637 Y88.22 E18.34813
G1 X123.115 Y88.22 E18.59239
G1 X123.115 Y87.49 E18.60155
G1 X103.52 Y87.49 E18.84728
G1 X102.753 Y87.323 E18.85712
G1 X102.073 Y86.909 E18.8671
G1 X101.075 Y85.88 E18.88508
G1 X100.615 Y84.462 E18.90377
G1 X100.615 Y80.987 E18.94735
G1 X100.995 Y79.87 E18.96215
G0 F15000 X101.343 Y80.09
G1 F1350 X102.428 Y79.035 E18.98113
G1 X103.7 Y78.62 E18.9979
G1 X129.171 Y78.62 E19.31732
G1 X130.135 Y78.948 E19.33009
G1 X131.19 Y80.033 E19.34907
G1 X131.605 Y81.305 E19.36585
G1 X131.606 Y99.541 E19.59453
G1 X131.462 Y100.201 E19.603
G1 X131.108 Y100.783 E19.61155
G1 X130.184 Y101.679 E19.62769
G1 X128.917 Y102.09 E19.64439
G1 X118.564 Y102.09 E19.77422
G1 X117.904 Y101.946 E19.78269
G1 X117.322 Y101.592 E19.79124
G1 X116.426 Y100.668 E19.80738
G1 X116.015 Y99.401 E19.82408
G1 X116.015 Y97.09 E19.85306
G1 X103.564 Y97.09 E20.0092
G1 X102.904 Y96.946 E20.01767
G1 X102.322 Y96.592 E20.02621
G1 X101.426 Y95.668 E20.04235
G1 X101.015 Y94.401 E20.05906
G1 X101.015 Y91.054 E20.10103
G1 X101.343 Y90.09 E20.1138
G1 X102.428 Y89.035 E20.13278
