;START_OF_HEADER
;HEADER_VERSION:0.1
;FLAVOR:Griffin
;GENERATOR.NAME:Cura_SteamEngine
;GENERATOR.VERSION:5.6.0
;GENERATOR.BUILD_DATE:2023-11-28
;TARGET_MACHINE.NAME:Ultimaker 3
;EXTRUDER_TRAIN.0.INITIAL_TEMPERATURE:200
;EXTRUDER_TRAIN.0.MATERIAL.VOLUME_USED:696
;EXTRUDER_TRAIN.0.MATERIAL.GUID:e509f649-9fe6-4b14-ac45-d441438cb4ef
;EXTRUDER_TRAIN.0.NOZZLE.DIAMETER:0.4
;EXTRUDER_TRAIN.0.NOZZLE.NAME:AA 0.4
;BUILD_PLATE.INITIAL_TEMPERATURE:60
;PRINT.TIME:692
;PRINT.GROUPS:1
;PRINT.SIZE.MIN.X:9
;PRINT.SIZE.MIN.Y:6
;PRINT.SIZE.MIN.Z:0.2
;PRINT.SIZE.MAX.X:132.985
;PRINT.SIZE.MAX.Y:116.885
;PRINT.SIZE.MAX.Z:2.2
;SLICE_UUID:1f48b54a-7208-4870-982c-ae7b27e86a1d
;END_OF_HEADER
;Generated with Cura_SteamEngine 5.6.0
T0
M82 ;absolute extrusion mode

G92 E0
M190 S60
M109 S200
G0 F15000 X9 Y6 Z2
G280
G1 F1500 E-6.5
;LAYER_COUNT:13
;LAYER:0
M106 S255
M204 S1000
M205 X20 Y20
G1 F600 Z2.2
G0 F15000 X100.863 Y65.347 Z2.2
;TYPE:SKIRT
G1 F600 Z0.2
G1 F1500 E0
G1 F1350 X103.298 Y62.982 E0.04257
G1 X106.07 Y62.077 E0.07914
G1 X127.221 Y62.077 E0.34438
G1 X129.715 Y62.925 E0.37741
G1 X132.08 Y65.36 E0.41998
G1 X132.985 Y68.136 E0.45659
G1 X132.971 Y73.045 E0.51816
G1 X132.985 Y73.685 E0.52618
G1 X132.973 Y79.463 E0.59864
G1 X132.985 Y80.134 E0.60706
G1 X132.971 Y85.697 E0.67682
G1 X132.985 Y86.349 E0.685
G1 X132.965 Y98.117 E0.83257
G1 X132.985 Y98.758 E0.84062
G1 X132.973 Y104.342 E0.91064
G1 X132.981 Y104.931 E0.91803
G1 X132.985 Y110.77 E0.99125
G1 X132.611 Y112.494 E1.01337
G1 X131.629 Y114.104 E1.03702
G1 X129.685 Y115.99 E1.07099
G1 X126.924 Y116.885 E1.10739
G1 X121.124 Y116.885 E1.18012
G1 X119.406 Y116.511 E1.20217
G1 X117.798 Y115.53 E1.22579
G1 X116.519 Y114.211 E1.24883
G1 X114.685 Y115.99 E1.28087
G1 X111.924 Y116.885 E1.31727
G1 X106.124 Y116.885 E1.39
G1 X104.406 Y116.511 E1.41205
G1 X102.796 Y115.529 E1.4357
G1 X100.91 Y113.585 E1.46967
G1 X100.015 Y110.824 E1.50607
G1 X100.03 Y104.314 E1.5877
G1 X100.015 Y103.704 E1.59536
G1 X100.037 Y98.071 E1.666
G1 X100.018 Y97.488 E1.67331
G1 X100.029 Y85.748 E1.82054
G1 X100.019 Y85.145 E1.8281
G1 X100.027 Y79.376 E1.90044
G1 X100.015 Y78.702 E1.9089
G1 X100.024 Y73.034 E1.97998
G1 X100.015 Y67.841 E2.0451
G1 X100.863 Y65.347 E2.07813
G0 F15000 X101.211 Y65.567
G1 F1350 X100.415 Y67.908 E2.10914
G1 X100.424 Y73.035 E2.17344
G1 X100.415 Y78.703 E2.24451
G1 X100.427 Y79.377 E2.25297
G1 X100.419 Y85.146 E2.32531
G1 X100.429 Y85.748 E2.33286
G1 X100.418 Y97.488 E2.48009
G1 X100.437 Y98.058 E2.48724
G1 X100.415 Y103.706 E2.55807
G1 X100.43 Y104.315 E2.56571
G1 X100.415 Y110.76 E2.64653
G1 X101.262 Y113.373 E2.68098
G1 X103.05 Y115.216 E2.71318
G1 X104.555 Y116.134 E2.73529
G1 X106.168 Y116.485 E2.75599
G1 X111.86 Y116.485 E2.82737
G1 X114.473 Y115.638 E2.86181
G1 X116.282 Y113.883 E2.89342
G1 X116.474 Y113.591 E2.8978
G1 X118.05 Y115.216 E2.92619
G1 X119.555 Y116.134 E2.9483
G1 X121.168 Y116.485 E2.969
G1 X126.86 Y116.485 E3.04038
G1 X129.473 Y115.638 E3.07482
G1 X131.316 Y113.85 E3.10703
G1 X132.234 Y112.345 E3.12913
G1 X132.585 Y110.727 E3.14989
G1 X132.581 Y104.931 E3.22258
G1 X132.573 Y104.341 E3.22998
G1 X132.585 Y98.757 E3.3
G1 X132.565 Y98.116 E3.30805
G1 X132.585 Y86.348 E3.45562
G1 X132.571 Y85.696 E3.4638
G1 X132.585 Y80.133 E3.53356
G1 X132.573 Y79.462 E3.54198
G1 X132.585 Y73.684 E3.61444
G1 X132.571 Y73.044 E3.62246
G1 X132.585 Y68.198 E3.68324
G1 X131.729 Y65.573 E3.71786
G1 X129.495 Y63.273 E3.75807
G1 X127.154 Y62.477 E3.78908
G1 X106.133 Y62.477 E4.05269
G1 X103.511 Y63.333 E4.08728
G1 X101.211 Y65.567 E4.12749
G0 F15000 X101.559 Y65.787
G1 F1350 X103.724 Y63.684 E4.16534
G1 X106.196 Y62.877 E4.19794
G1 X127.087 Y62.877 E4.45993
G1 X129.275 Y63.621 E4.48891
G1 X131.378 Y65.786 E4.52676
G1 X132.185 Y68.26 E4.55939
G1 X132.175 Y72.987 E4.61867
G1 X132.135 Y73.266 E4.6222
G1 X132.185 Y73.683 E4.62747
G1 X132.173 Y79.461 E4.69993
G1 X132.185 Y80.132 E4.70834
G1 X132.171 Y85.695 E4.77811
G1 X132.185 Y86.347 E4.78629
G1 X132.169 Y98.059 E4.93316
G1 X132.133 Y98.309 E4.93633
G1 X132.185 Y98.756 E4.94197
G1 X132.173 Y104.34 E5.01199
G1 X132.181 Y104.931 E5.01941
G1 X132.185 Y110.684 E5.09155
G1 X131.857 Y112.196 E5.11095
G1 X131.003 Y113.596 E5.13152
G1 X129.261 Y115.286 E5.16196
G1 X126.796 Y116.085 E5.19445
G1 X121.212 Y116.085 E5.26448
G1 X119.704 Y115.757 E5.28383
G1 X118.304 Y114.903 E5.30439
G1 X116.679 Y113.228 E5.33366
G1 X116.494 Y112.791 E5.33961
G1 X116.003 Y113.596 E5.35144
G1 X114.261 Y115.286 E5.38187
G1 X111.796 Y116.085 E5.41437
G1 X106.212 Y116.085 E5.48439
G1 X104.704 Y115.757 E5.50375
G1 X103.304 Y114.903 E5.52431
G1 X101.614 Y113.161 E5.55475
G1 X100.815 Y110.696 E5.58724
G1 X100.83 Y104.316 E5.66725
G1 X100.815 Y103.708 E5.67488
G1 X100.837 Y98.06 E5.74571
G1 X100.818 Y97.488 E5.75288
G1 X100.819 Y91.986 E5.82188
G1 X100.862 Y91.681 E5.82574
G1 X100.823 Y91.363 E5.82976
G1 X100.829 Y85.748 E5.90017
G1 X100.819 Y85.147 E5.90771
G1 X100.827 Y79.378 E5.98006
G1 X100.815 Y78.703 E5.98852
G1 X100.82 Y73.09 E6.05891
G1 X100.863 Y72.778 E6.06286
G1 X100.818 Y72.423 E6.06735
G1 X100.815 Y67.975 E6.12313
G1 X101.559 Y65.787 E6.15211
G0 F15000 X101.907 Y66.007
G1 F1350 X101.215 Y68.042 E6.17907
G1 X101.215 Y72.372 E6.23337
G1 X101.267 Y72.78 E6.23852
G1 X101.22 Y73.09 E6.24245
G1 X101.215 Y78.703 E6.31284
G1 X101.267 Y79.116 E6.31806
G1 X101.227 Y79.379 E6.3214
G1 X101.219 Y85.148 E6.39375
G1 X101.266 Y85.518 E6.39842
G1 X101.225 Y85.805 E6.40206
G1 X101.223 Y91.363 E6.47176
G1 X101.266 Y91.684 E6.47582
G1 X101.215 Y92.042 E6.48035
G1 X101.215 Y97.437 E6.54801
G1 X101.272 Y97.883 E6.55365
G1 X101.232 Y98.125 E6.55672
G1 X101.215 Y103.709 E6.62675
G1 X101.263 Y104.11 E6.63181
G1 X101.226 Y104.372 E6.63513
G1 X101.215 Y110.632 E6.71364
G1 X101.966 Y112.949 E6.74418
G1 X103.558 Y114.59 E6.77285
G1 X104.853 Y115.38 E6.79187
G1 X106.256 Y115.685 E6.80988
G1 X111.732 Y115.685 E6.87855
G1 X114.049 Y114.934 E6.90909
G1 X115.69 Y113.342 E6.93777
G1 X116.444 Y112.106 E6.95592
G1 X116.558 Y111.689 E6.96134
G1 X116.966 Y112.949 E6.97795
G1 X118.558 Y114.59 E7.00662
G1 X119.853 Y115.38 E7.02565
G1 X121.256 Y115.685 E7.04365
G1 X126.732 Y115.685 E7.11232
G1 X129.049 Y114.934 E7.14287
G1 X130.69 Y113.342 E7.17154
G1 X131.48 Y112.047 E7.19056
G1 X131.785 Y110.641 E7.2086
G1 X131.781 Y104.931 E7.28021
G1 X131.773 Y104.339 E7.28763
G1 X131.785 Y98.755 E7.35766
G1 X131.73 Y98.305 E7.36334
G1 X131.773 Y98.003 E7.36717
G1 X131.785 Y86.347 E7.51334
G1 X131.734 Y85.924 E7.51868
G1 X131.775 Y85.638 E7.52231
G1 X131.785 Y80.131 E7.59137
G1 X131.733 Y79.721 E7.59655
G1 X131.773 Y79.46 E7.59986
G1 X131.785 Y73.682 E7.67232
G1 X131.731 Y73.261 E7.67764
G1 X131.775 Y72.986 E7.68113
G1 X131.785 Y68.322 E7.73962
G1 X131.027 Y65.999 E7.77027
G1 X129.055 Y63.969 E7.80576
G1 X127.02 Y63.277 E7.83271
G1 X106.259 Y63.277 E8.09306
G1 X103.937 Y64.035 E8.12369
G1 X101.907 Y66.007 E8.15918
G0 F15000 X102.255 Y66.227
G1 F1350 X104.15 Y64.386 E8.19232
G1 X106.322 Y63.677 E8.22097
G1 X126.953 Y63.677 E8.47969
G1 X128.835 Y64.317 E8.50462
G1 X130.676 Y66.212 E8.53775
G1 X131.385 Y68.384 E8.5664
G1 X131.38 Y72.923 E8.62332
G1 X131.327 Y73.255 E8.62754
G1 X131.385 Y73.681 E8.63293
G1 X131.373 Y79.459 E8.70539
G1 X131.328 Y79.71 E8.70859
G1 X131.385 Y80.13 E8.7139
G1 X131.375 Y85.637 E8.78296
G1 X131.33 Y85.919 E8.78654
G1 X131.385 Y86.347 E8.79195
G1 X131.381 Y91.84 E8.86084
G1 X131.338 Y92.143 E8.86468
G1 X131.38 Y92.474 E8.86886
G1 X131.373 Y98.002 E8.93818
G1 X131.326 Y98.302 E8.94199
G1 X131.385 Y98.754 E8.94771
G1 X131.373 Y104.338 E9.01773
G1 X131.335 Y104.587 E9.02089
G1 X131.381 Y104.931 E9.02524
G1 X131.385 Y110.598 E9.09631
G1 X131.103 Y111.898 E9.11299
G1 X130.377 Y113.088 E9.13047
G1 X128.837 Y114.582 E9.15738
G1 X126.668 Y115.285 E9.18597
G1 X121.3 Y115.285 E9.25329
G1 X120.002 Y115.003 E9.26995
G1 X118.812 Y114.277 E9.28743
G1 X117.318 Y112.737 E9.31433
G1 X116.718 Y110.885 E9.33875
G1 X116.323 Y110.885 E9.3437
G1 X116.103 Y111.898 E9.3567
G1 X115.377 Y113.088 E9.37418
G1 X113.837 Y114.582 E9.40109
G1 X111.668 Y115.285 E9.42968
G1 X106.3 Y115.285 E9.497
G1 X105.002 Y115.003 E9.51365
G1 X103.812 Y114.277 E9.53114
G1 X102.318 Y112.737 E9.55804
G1 X101.615 Y110.568 E9.58664
G1 X101.626 Y104.373 E9.66432
G1 X101.668 Y104.115 E9.6676
G1 X101.615 Y103.71 E9.67272
G1 X101.627 Y98.19 E9.74195
G1 X101.676 Y97.891 E9.74575
G1 X101.615 Y97.437 E9.75149
G1 X101.615 Y92.042 E9.81915
G1 X101.671 Y91.684 E9.82369
G1 X101.623 Y91.363 E9.82776
G1 X101.625 Y85.805 E9.89746
G1 X101.67 Y85.524 E9.90103
G1 X101.619 Y85.149 E9.90577
G1 X101.627 Y79.38 E9.97812
G1 X101.672 Y79.127 E9.98134
G1 X101.615 Y78.703 E9.98671
G1 X101.62 Y73.09 E10.0571
G1 X101.671 Y72.786 E10.06096
G1 X101.615 Y72.372 E10.0662
G1 X101.615 Y68.109 E10.11966
G1 X102.255 Y66.227 E10.14459
G0 F15000 X102.603 Y66.447
G1 F1350 X104.363 Y64.737 E10.17536
G1 X106.385 Y64.077 E10.20203
G1 X126.886 Y64.077 E10.45912
G1 X128.615 Y64.665 E10.48203
G1 X130.325 Y66.425 E10.5128
G1 X130.985 Y68.447 E10.53947
G1 X130.985 Y72.86 E10.59481
G1 X130.922 Y73.255 E10.59983
G1 X130.985 Y73.681 E10.60523
G1 X130.979 Y79.389 E10.67681
G1 X130.923 Y79.704 E10.68082
G1 X130.985 Y80.13 E10.68622
G1 X130.98 Y85.574 E10.75449
G1 X130.926 Y85.913 E10.7588
G1 X130.985 Y86.347 E10.76429
G1 X130.985 Y91.784 E10.83247
G1 X130.934 Y92.143 E10.83702
G1 X130.98 Y92.473 E10.8412
G1 X130.973 Y98.001 E10.91052
G1 X130.921 Y98.293 E10.91424
G1 X130.985 Y98.753 E10.92006
G1 X130.973 Y104.337 E10.99009
G1 X130.929 Y104.581 E10.9932
G1 X130.981 Y104.931 E10.99763
G1 X130.985 Y110.555 E11.06816
G1 X130.726 Y111.749 E11.08348
G1 X130.064 Y112.834 E11.09942
G1 X128.625 Y114.23 E11.12456
G1 X126.604 Y114.885 E11.15121
G1 X121.344 Y114.885 E11.21717
G1 X120.151 Y114.626 E11.23248
G1 X119.066 Y113.964 E11.24842
G1 X117.67 Y112.525 E11.27356
G1 X117.009 Y110.485 E11.30045
G1 X116 Y110.485 E11.3131
G1 X115.726 Y111.749 E11.32932
G1 X115.064 Y112.834 E11.34526
G1 X113.625 Y114.23 E11.3704
G1 X111.604 Y114.885 E11.39705
G1 X106.344 Y114.885 E11.46301
G1 X105.151 Y114.626 E11.47832
G1 X104.066 Y113.964 E11.49426
G1 X102.67 Y112.525 E11.5194
G1 X102.015 Y110.504 E11.54604
G1 X102.021 Y104.438 E11.62211
G1 X102.073 Y104.121 E11.62614
G1 X102.015 Y103.711 E11.63133
G1 X102.027 Y98.191 E11.70055
G1 X102.081 Y97.897 E11.7043
G1 X102.015 Y97.437 E11.71013
G1 X102.015 Y92.042 E11.77779
G1 X102.076 Y91.687 E11.7823
G1 X102.019 Y91.304 E11.78716
G1 X102.02 Y85.868 E11.85533
G1 X102.075 Y85.525 E11.85968
G1 X102.019 Y85.149 E11.86445
G1 X102.021 Y79.451 E11.93591
G1 X102.078 Y79.134 E11.93995
G1 X102.015 Y78.703 E11.94541
G1 X102.015 Y73.156 E12.01497
G1 X102.076 Y72.791 E12.01961
G1 X102.015 Y72.372 E12.02492
G1 X102.015 Y68.176 E12.07754
G1 X102.603 Y66.447 E12.10044
G0 F15000 X102.951 Y66.667
G1 F1350 X104.576 Y65.088 E12.12885
G1 X106.448 Y64.477 E12.15355
G1 X126.819 Y64.477 E12.40901
G1 X128.395 Y65.013 E12.42988
G1 X129.974 Y66.638 E12.4583
G1 X130.585 Y68.51 E12.48299
G1 X130.585 Y72.86 E12.53754
G1 X130.517 Y73.253 E12.54254
G1 X130.585 Y73.681 E12.54798
G1 X130.585 Y79.319 E12.61868
G1 X130.517 Y79.699 E12.62352
G1 X130.585 Y80.13 E12.62899
G1 X130.585 Y85.511 E12.69647
G1 X130.521 Y85.913 E12.70158
G1 X130.585 Y86.347 E12.70708
G1 X130.585 Y91.784 E12.77526
G1 X130.529 Y92.142 E12.77981
G1 X130.58 Y92.473 E12.78401
G1 X130.579 Y97.93 E12.85244
G1 X130.515 Y98.287 E12.85699
G1 X130.585 Y98.753 E12.8629
G1 X130.579 Y104.266 E12.93203
G1 X130.523 Y104.575 E12.93597
G1 X130.585 Y104.99 E12.94123
G1 X130.585 Y110.512 E13.01048
G1 X130.349 Y111.6 E13.02444
G1 X129.751 Y112.58 E13.03884
G1 X128.413 Y113.878 E13.06222
G1 X126.54 Y114.485 E13.08691
G1 X121.388 Y114.485 E13.15151
G1 X120.3 Y114.249 E13.16548
G1 X119.32 Y113.651 E13.17987
G1 X118.022 Y112.313 E13.20325
G1 X117.435 Y110.502 E13.22712
G1 X117.415 Y110.085 E13.23236
G1 X115.585 Y110.085 E13.25531
G1 X115.576 Y110.553 E13.26118
G1 X115.349 Y111.6 E13.27461
G1 X114.751 Y112.58 E13.28901
G1 X113.413 Y113.878 E13.31239
G1 X111.54 Y114.485 E13.33708
G1 X106.388 Y114.485 E13.40169
G1 X105.3 Y114.249 E13.41565
G1 X104.32 Y113.651 E13.43004
G1 X103.022 Y112.313 E13.45342
G1 X102.415 Y110.44 E13.47811
G1 X102.421 Y104.438 E13.55338
G1 X102.478 Y104.127 E13.55734
G1 X102.415 Y103.711 E13.56262
G1 X102.421 Y98.263 E13.63094
G1 X102.486 Y97.906 E13.63549
G1 X102.415 Y97.437 E13.64144
G1 X102.415 Y92.042 E13.70909
G1 X102.482 Y91.696 E13.71351
G1 X102.415 Y91.245 E13.71923
G1 X102.415 Y85.931 E13.78587
G1 X102.48 Y85.526 E13.79101
G1 X102.415 Y85.09 E13.79654
G1 X102.415 Y79.522 E13.86637
G1 X102.484 Y79.139 E13.87125
G1 X102.415 Y78.703 E13.87678
G1 X102.415 Y73.156 E13.94634
G1 X102.481 Y72.795 E13.95095
G1 X102.415 Y72.372 E13.95632
G1 X102.415 Y68.243 E14.00809
G1 X102.951 Y66.667 E14.02897
G0 F15000 X103.299 Y66.887
G1 F1350 X104.789 Y65.439 E14.05503
G1 X106.511 Y64.877 E14.07774
G1 X126.752 Y64.877 E14.33157
G1 X128.175 Y65.361 E14.35042
G1 X129.623 Y66.851 E14.37647
G1 X130.185 Y68.573 E14.39919
G1 X130.185 Y72.86 E14.45295
G1 X130.111 Y73.249 E14.45792
G1 X130.185 Y73.681 E14.46341
G1 X130.185 Y79.319 E14.53412
G1 X130.11 Y79.694 E14.53891
G1 X130.185 Y80.13 E14.54446
G1 X130.185 Y85.511 E14.61194
G1 X130.116 Y85.911 E14.61703
G1 X130.185 Y86.347 E14.62256
G1 X130.185 Y91.784 E14.69075
G1 X130.124 Y92.142 E14.6953
G1 X130.18 Y92.473 E14.69951
G1 X130.185 Y97.859 E14.76705
G1 X130.109 Y98.283 E14.77245
G1 X130.185 Y98.753 E14.77843
G1 X130.185 Y104.195 E14.84667
G1 X130.117 Y104.571 E14.85146
G1 X130.185 Y104.99 E14.85678
G1 X130.185 Y110.468 E14.92548
G1 X129.972 Y111.449 E14.93807
G1 X129.436 Y112.328 E14.95098
G1 X128.2 Y113.527 E14.97257
G1 X126.479 Y114.085 E14.99526
G1 X121.432 Y114.085 E15.05855
G1 X120.451 Y113.872 E15.07114
G1 X119.572 Y113.336 E15.08405
G1 X118.373 Y112.1 E15.10565
G1 X117.815 Y110.379 E15.12834
G1 X117.815 Y109.685 E15.13704
G1 X115.185 Y109.685 E15.17002
G1 X115.185 Y110.468 E15.17984
G1 X114.972 Y111.449 E15.19243
G1 X114.436 Y112.328 E15.20534
G1 X113.2 Y113.527 E15.22693
G1 X111.479 Y114.085 E15.24962
G1 X106.432 Y114.085 E15.31291
G1 X105.451 Y113.872 E15.3255
G1 X104.572 Y113.336 E15.33841
G1 X103.373 Y112.1 E15.36001
G1 X102.815 Y110.379 E15.3827
G1 X102.815 Y104.51 E15.45629
G1 X102.884 Y104.131 E15.46113
G1 X102.815 Y103.711 E15.46646
G1 X102.815 Y98.334 E15.53389
G1 X102.892 Y97.91 E15.5393
G1 X102.815 Y97.437 E15.54531
G1 X102.815 Y92.083 E15.61245
G1 X102.889 Y91.704 E15.61729
G1 X102.815 Y91.245 E15.62312
G1 X102.815 Y85.931 E15.68976
G1 X102.885 Y85.528 E15.69489
G1 X102.815 Y85.09 E15.70045
G1 X102.815 Y79.522 E15.77028
G1 X102.891 Y79.145 E15.7751
G1 X102.815 Y78.703 E15.78072
G1 X102.815 Y73.156 E15.85028
G1 X102.888 Y72.806 E15.85477
G1 X102.815 Y72.372 E15.86029
G1 X102.815 Y68.31 E15.91123
G1 X103.299 Y66.887 E15.93008
G0 F15000 X103.647 Y67.107
G1 F1350 X105.002 Y65.79 E15.95377
G1 X106.574 Y65.277 E15.97451
G1 X126.685 Y65.277 E16.22671
G1 X127.955 Y65.709 E16.24353
G1 X129.272 Y67.064 E16.26723
G1 X129.785 Y68.636 E16.28796
G1 X129.785 Y72.86 E16.34093
G1 X129.704 Y73.244 E16.34585
G1 X129.785 Y73.681 E16.35143
G1 X129.785 Y79.319 E16.42213
G1 X129.702 Y79.687 E16.42686
G1 X129.785 Y80.13 E16.43251
G1 X129.785 Y85.511 E16.49999
G1 X129.71 Y85.907 E16.50505
G1 X129.785 Y86.347 E16.51064
G1 X129.785 Y91.784 E16.57883
G1 X129.718 Y92.139 E16.58336
G1 X129.785 Y92.539 E16.58844
G1 X129.785 Y97.859 E16.65516
G1 X129.702 Y98.279 E16.66053
G1 X129.785 Y98.753 E16.66656
G1 X129.785 Y104.195 E16.73481
G1 X129.71 Y104.567 E16.73956
G1 X129.785 Y104.99 E16.74495
G1 X129.785 Y110.424 E16.8131
G1 X129.595 Y111.298 E16.82431
G1 X129.121 Y112.076 E16.83574
G1 X127.987 Y113.176 E16.85555
G1 X126.418 Y113.685 E16.87623
G1 X121.476 Y113.685 E16.93821
G1 X120.602 Y113.495 E16.94943
G1 X119.824 Y113.021 E16.96085
G1 X118.724 Y111.887 E16.98066
G1 X118.215 Y110.318 E17.00135
G1 X118.215 Y109.285 E17.0143
G1 X114.785 Y109.285 E17.05732
G1 X114.785 Y110.424 E17.0716
G1 X114.595 Y111.298 E17.08281
G1 X114.121 Y112.076 E17.09424
G1 X112.987 Y113.176 E17.11405
G1 X111.418 Y113.685 E17.13474
