; generated by Slic3r 1.2.9 on 2019-01-16 at 14:48:53

; external perimeters extrusion width = 0.90mm
; perimeters extrusion width = 1.53mm
; infill extrusion width = 2.18mm
; solid infill extrusion width = 1.53mm
; top infill extrusion width = 1.53mm

M107
M104 S200 ; set temperature
G28 ; home all axes
G1 Z5 F5000 ; lift nozzle

M109 S200 ; wait for temperature to be reached
G21 ; set units to millimeters
G90 ; use absolute coordinates
M82 ; use absolute distances for extrusion
G92 E0
G1 Z0.900 F7800.000
G1 E-2.00000 F2400.00000
G92 E0
G1 X86.441 Y87.901 F7800.000
G1 E2.00000 F2400.00000
G1 X88.225 Y86.208 E6.52737 F1800.000
G1 X90.455 Y85.173 E11.05474
G1 X92.500 Y84.893 E14.85539
G1 X107.500 Y84.893 E42.47525
G1 X109.926 Y85.291 E47.00261
G1 X112.099 Y86.441 E51.52998 F1800.000
G1 X113.792 Y88.225 E56.05735
G1 X114.827 Y90.455 E60.58472
G1 X115.107 Y92.500 E64.38537
G1 X115.107 Y107.500 E92.00523
G1 X114.709 Y109.926 E96.53260
G1 X113.559 Y112.099 E101.05997
G1 X111.775 Y113.792 E105.58733
G1 X109.545 Y114.827 E110.11470
G1 X107.500 Y115.107 E113.91535
G1 X92.500 Y115.107 E141.53521
G1 X90.074 Y114.709 E146.06258
G1 X87.901 Y113.559 E150.58995
G1 X86.208 Y111.775 E155.11732
G1 X85.173 Y109.545 E159.64468
G1 X84.893 Y107.500 E163.44534
G1 X84.893 Y92.500 E191.06519
G1 X85.291 Y90.074 E195.59256
G1 X86.378 Y88.020 E199.87135
G1 E197.87135 F2400.00000
G92 E0
G1 X99.200 Y106.500 F7800.000
G1 E2.00000 F2400.00000
G1 X97.200 Y107.000 E5.79598 F1800.000
G1 X93.500 Y107.000 E12.60888
G1 X93.086 Y106.914 E13.38777
G1 X93.000 Y106.500 E14.16666
G1 X93.000 Y102.800 E20.97955
G1 X93.125 Y102.300 E21.92855
G1 X101.107 Y102.300 E36.62574
G1 X102.400 Y102.300 F7800.000
G1 X102.400 Y106.875 E45.04979 F1800.000
G1 X102.900 Y107.000 E45.99879
G1 X106.500 Y107.000 E52.62756
G1 X106.914 Y106.914 E53.40644
G1 X107.000 Y106.500 E54.18533
G1 X107.000 Y102.800 E60.99823
G1 X106.875 Y102.300 E61.94723
G1 X102.400 Y102.300 E70.18715
G1 X102.400 Y101.007 F7800.000
G1 X102.400 Y93.125 E84.70020 F1800.000
G1 X102.900 Y93.000 E85.64920
G1 X106.500 Y93.000 E92.27796
G1 X106.914 Y93.086 E93.05685
G1 X107.000 Y93.500 E93.83574
G1 X107.000 Y97.100 E100.46451
G1 X106.500 Y99.100 E104.26049
G1 X105.807 Y97.600 F7800.000
G1 X97.700 Y97.600 E119.18784 F1800.000
G1 X97.700 Y105.707 E134.11519
G1 E132.11519 F2400.00000
G92 E0
G1 X93.500 Y103.800 F7800.000
G1 E2.00000 F2400.00000
G1 X93.000 Y101.800 E5.79599 F1800.000
G1 X93.000 Y98.100 E12.60889
G1 X93.125 Y97.600 E13.55788
G1 X101.107 Y97.600 E28.25507
G1 E26.25507 F2400.00000
G92 E0
G1 X99.200 Y93.500 F7800.000
G1 E2.00000 F2400.00000
G1 X97.200 Y93.000 E5.79599 F1800.000
G1 X93.500 Y93.000 E12.60889
G1 X93.086 Y93.086 E13.38777
G1 X93.000 Y93.500 E14.16666
G1 X93.000 Y97.100 E20.79543
G1 X93.500 Y99.100 E24.59142
G1 E22.59142 F2400.00000
G92 E0
G1 X97.700 Y101.007 F7800.000
G1 E2.00000 F2400.00000
G1 X97.700 Y93.125 E16.51305 F1800.000
G1 X98.200 Y93.000 E17.46205
G1 X101.900 Y93.000 E24.27495
G1 X103.900 Y93.500 E28.07093
G1 E26.07093 F2400.00000
G92 E0
G1 X105.807 Y102.300 F7800.000
G1 E2.00000 F2400.00000
G1 X97.700 Y102.300 E16.92735 F1800.000
G1 X97.700 Y106.875 E25.35141
G1 X98.200 Y107.000 E26.30040
G1 X101.900 Y107.000 E33.11330
G1 X103.900 Y106.500 E36.90928
G1 X102.400 Y105.707 F7800.000
G1 X102.400 Y97.600 E51.83663 F1800.000
G1 X106.875 Y97.600 E60.07656
G1 X107.000 Y98.100 E61.02555
G1 X107.000 Y101.800 E67.83845
G1 X106.500 Y103.800 E71.63444
G1 E69.63444 F2400.00000
G92 E0
M104 S0 ; turn off temperature
G28 X0  ; home X axis
M84     ; disable motors

; filament used = 474.5mm (0.4cm3)

; avoid_crossing_perimeters = 1
; bed_shape = 0x0,200x0,200x200,0x200
; bed_temperature = 0
; before_layer_gcode = 
; bridge_acceleration = 0
; bridge_fan_speed = 100
; brim_width = 0
; complete_objects = 0
; cooling = 1
; default_acceleration = 0
; disable_fan_first_layers = 3
; duplicate_distance = 6
; end_gcode = M104 S0 ; turn off temperature\nG28 X0  ; home X axis\nM84     ; disable motors\n
; extruder_clearance_height = 20
; extruder_clearance_radius = 20
; extruder_offset = 0x0
; extrusion_axis = E
; extrusion_multiplier = 1
; fan_always_on = 0
; fan_below_layer_time = 60
; filament_colour = #FFFFFF
; filament_diameter = 1
; first_layer_acceleration = 0
; first_layer_bed_temperature = 0
; first_layer_extrusion_width = 200%
; first_layer_speed = 30
; first_layer_temperature = 200
; gcode_arcs = 0
; gcode_comments = 0
; gcode_flavor = reprap
; infill_acceleration = 0
; infill_first = 0
; layer_gcode = 
; max_fan_speed = 100
; max_print_speed = 80
; max_volumetric_speed = 0
; min_fan_speed = 35
; min_print_speed = 10
; min_skirt_length = 0
; notes = 
; nozzle_diameter = 0.9
; only_retract_when_crossing_perimeters = 1
; ooze_prevention = 0
; output_filename_format = [input_filename_base].gcode
; perimeter_acceleration = 0
; post_process = 
; pressure_advance = 0
; resolution = 0
; retract_before_travel = 2
; retract_layer_change = 0
; retract_length = 2
; retract_length_toolchange = 10
; retract_lift = 0
; retract_restart_extra = 0
; retract_restart_extra_toolchange = 0
; retract_speed = 40
; skirt_distance = 6
; skirt_height = 1
; skirts = 1
; slowdown_below_layer_time = 5
; spiral_vase = 0
; standby_temperature_delta = -5
; start_gcode = G28 ; home all axes\nG1 Z5 F5000 ; lift nozzle\n
; temperature = 200
; threads = 2
; toolchange_gcode = 
; travel_speed = 130
; use_firmware_retraction = 0
; use_relative_e_distances = 0
; use_volumetric_e = 0
; vibration_limit = 0
; wipe = 0
; z_offset = 0
; dont_support_bridges = 1
; extrusion_width = 0
; first_layer_height = 0.9
; infill_only_where_needed = 0
; interface_shells = 0
; layer_height = 0.3
; raft_layers = 0
; seam_position = aligned
; support_material = 0
; support_material_angle = 0
; support_material_contact_distance = 0.2
; support_material_enforce_layers = 0
; support_material_extruder = 1
; support_material_extrusion_width = 0
; support_material_interface_extruder = 1
; support_material_interface_layers = 3
; support_material_interface_spacing = 0
; support_material_interface_speed = 100%
; support_material_pattern = pillars
; support_material_spacing = 2.5
; support_material_speed = 60
; support_material_threshold = 0
; xy_size_compensation = 0
; bottom_solid_layers = 2
; bridge_flow_ratio = 1
; bridge_speed = 60
; external_fill_pattern = rectilinear
; external_perimeter_extrusion_width = 0
; external_perimeter_speed = 50%
; external_perimeters_first = 0
; extra_perimeters = 1
; fill_angle = 45
; fill_density = 20%
; fill_pattern = rectilinear
; gap_fill_speed = 20
; infill_every_layers = 10
; infill_extruder = 1
; infill_extrusion_width = 0
; infill_overlap = 15%
; infill_speed = 80
; overhangs = 1
; perimeter_extruder = 1
; perimeter_extrusion_width = 0
; perimeter_speed = 60
; perimeters = 3
; small_perimeter_speed = 15
; solid_infill_below_area = 70
; solid_infill_every_layers = 0
; solid_infill_extruder = 1
; solid_infill_extrusion_width = 0
; solid_infill_speed = 20
; thin_walls = 1
; top_infill_extrusion_width = 0
; top_solid_infill_speed = 15
; top_solid_layers = 2
