; generated by Slic3r 1.3.0 on 2019-10-08 at 19:02:52

; external perimeters extrusion width = 0.55mm (4.37mm^3/s)
; perimeters extrusion width = 0.70mm (11.44mm^3/s)
; infill extrusion width = 0.63mm (13.45mm^3/s)
; solid infill extrusion width = 0.70mm (3.81mm^3/s)
; top infill extrusion width = 0.70mm (2.86mm^3/s)

M107
M104 S205 ; set temperature
G28 ; home all axes
G1 Z5 F5000 ; lift nozzle

; Filament gcode

M109 S205 ; set temperature and wait for it to be reached
G21 ; set units to millimeters
G90 ; use absolute coordinates
M82 ; use absolute distances for extrusion
G92 E0
G1 Z0.300 F7800.000
G1 E-2.00000 F2400.00000
G92 E0
G1 X93.371 Y93.371 F7800.000
G1 E2.00000 F2400.00000
G1 F1800
G1 X106.629 Y93.371 E2.30138
G1 X106.629 Y106.629 E2.60275
G1 X93.371 Y106.629 E2.90413
G1 X93.371 Y93.446 E3.20380
G1 X92.836 Y92.836 F7800.000
G1 F1800
G1 X107.164 Y92.836 E3.52952
G1 X107.164 Y107.164 E3.85525
G1 X92.836 Y107.164 E4.18098
G1 X92.836 Y92.911 E4.50500
G1 X92.300 Y92.300 F7800.000
G1 F1800
G1 X107.700 Y92.300 E4.85508
G1 X107.700 Y107.700 E5.20516
G1 X92.300 Y107.700 E5.55524
G1 X92.300 Y92.375 E5.90361
G1 X92.783 Y92.429 F7800.000
G1 E3.90361 F2400.00000
G92 E0
G1 X94.115 Y93.699 F7800.000
G1 E2.00000 F2400.00000
G1 F1800
G1 X93.699 Y94.115 E2.01347
G1 X93.699 Y94.877 E2.03088
G1 X94.877 Y93.699 E2.06897
G1 X95.639 Y93.699 E2.08638
G1 X93.699 Y95.639 E2.14909
G1 X93.699 Y96.400 E2.16650
G1 X96.400 Y93.699 E2.25383
G1 X97.162 Y93.699 E2.27124
G1 X93.699 Y97.162 E2.38319
G1 X93.699 Y97.923 E2.40060
G1 X97.923 Y93.699 E2.53717
G1 X98.685 Y93.699 E2.55458
G1 X93.699 Y98.685 E2.71577
G1 X93.699 Y99.447 E2.73318
G1 X99.447 Y93.699 E2.91899
G1 X100.208 Y93.699 E2.93640
G1 X93.699 Y100.208 E3.14683
G1 X93.699 Y100.970 E3.16424
G1 X100.970 Y93.699 E3.39929
G1 X101.732 Y93.699 E3.41670
G1 X93.699 Y101.732 E3.67637
G1 X93.699 Y102.493 E3.69378
G1 X102.493 Y93.699 E3.97807
G1 X103.255 Y93.699 E3.99547
G1 X93.699 Y103.255 E4.30438
G1 X93.699 Y104.017 E4.32179
G1 X104.017 Y93.699 E4.65532
G1 X104.778 Y93.699 E4.67273
G1 X93.699 Y104.778 E5.03088
G1 X93.699 Y105.540 E5.04829
G1 X105.540 Y93.699 E5.43106
G1 X106.301 Y93.699 E5.44846
G1 X93.699 Y106.301 E5.85585
G1 X94.460 Y106.301 E5.87326
G1 X106.301 Y94.460 E6.25603
G1 X106.301 Y95.222 E6.27344
G1 X95.222 Y106.301 E6.63159
G1 X95.983 Y106.301 E6.64899
G1 X106.301 Y95.983 E6.98252
G1 X106.301 Y96.745 E6.99993
G1 X96.745 Y106.301 E7.30884
G1 X97.507 Y106.301 E7.32625
G1 X106.301 Y97.507 E7.61054
G1 X106.301 Y98.268 E7.62795
G1 X98.268 Y106.301 E7.88762
G1 X99.030 Y106.301 E7.90502
G1 X106.301 Y99.030 E8.14007
G1 X106.301 Y99.792 E8.15748
G1 X99.792 Y106.301 E8.36791
G1 X100.553 Y106.301 E8.38532
G1 X106.301 Y100.553 E8.57113
G1 X106.301 Y101.315 E8.58854
G1 X101.315 Y106.301 E8.74973
G1 X102.077 Y106.301 E8.76714
G1 X106.301 Y102.077 E8.90371
G1 X106.301 Y102.838 E8.92112
G1 X102.838 Y106.301 E9.03307
G1 X103.600 Y106.301 E9.05048
G1 X106.301 Y103.600 E9.13781
G1 X106.301 Y104.361 E9.15522
G1 X104.361 Y106.301 E9.21793
G1 X105.123 Y106.301 E9.23534
G1 X106.301 Y105.123 E9.27343
G1 X106.301 Y105.885 E9.29084
G1 X105.885 Y106.301 E9.30431
M104 S200 ; set temperature
G1 Z0.600 F7800.000
G1 X93.471 Y93.471 F7800.000
G1 F3600
G1 X106.529 Y93.471 E9.65655
G1 X106.529 Y106.529 E10.00880
G1 X93.471 Y106.529 E10.36105
G1 X93.471 Y93.546 E10.71127
G1 X92.836 Y92.836 F7800.000
G1 F3600
G1 X107.164 Y92.836 E11.09781
G1 X107.164 Y107.164 E11.48435
G1 X92.836 Y107.164 E11.87089
G1 X92.836 Y92.911 E12.25541
G1 X92.275 Y92.275 F7800.000
G1 F1800
G1 X107.725 Y92.275 E12.57384
G1 X107.725 Y107.725 E12.89227
G1 X92.275 Y107.725 E13.21070
G1 X92.275 Y92.350 E13.52758
G1 X92.758 Y92.404 F7800.000
G1 X93.860 Y105.646 F7800.000
G1 F1200
G1 X94.354 Y106.140 E13.54661
G1 X95.261 Y106.140 E13.57128
G1 X93.860 Y104.739 E13.62520
G1 X93.860 Y103.833 E13.64986
G1 X96.167 Y106.140 E13.73867
G1 X97.074 Y106.140 E13.76333
G1 X93.860 Y102.926 E13.88702
G1 X93.860 Y102.019 E13.91169
G1 X97.981 Y106.140 E14.07026
G1 X98.887 Y106.140 E14.09493
G1 X93.860 Y101.113 E14.28839
G1 X93.860 Y100.206 E14.31306
G1 X99.794 Y106.140 E14.54140
G1 X100.701 Y106.140 E14.56607
G1 X93.860 Y99.299 E14.82930
G1 X93.860 Y98.393 E14.85397
G1 X101.607 Y106.140 E15.15208
G1 X102.514 Y106.140 E15.17675
G1 X93.860 Y97.486 E15.50975
G1 X93.860 Y96.580 E15.53442
G1 X103.420 Y106.140 E15.90231
G1 X104.327 Y106.140 E15.92698
G1 X93.860 Y95.673 E16.32975
G1 X93.860 Y94.766 E16.35442
G1 X105.234 Y106.140 E16.79207
G1 X106.140 Y106.140 E16.81674
G1 X93.860 Y93.860 E17.28929
G1 X94.766 Y93.860 E17.31395
G1 X106.140 Y105.234 E17.75161
G1 X106.140 Y104.327 E17.77628
G1 X95.673 Y93.860 E18.17905
G1 X96.580 Y93.860 E18.20372
G1 X106.140 Y103.420 E18.57160
G1 X106.140 Y102.514 E18.59627
G1 X97.486 Y93.860 E18.92927
G1 X98.393 Y93.860 E18.95394
G1 X106.140 Y101.607 E19.25205
G1 X106.140 Y100.701 E19.27672
G1 X99.299 Y93.860 E19.53995
G1 X100.206 Y93.860 E19.56462
G1 X106.140 Y99.794 E19.79296
G1 X106.140 Y98.887 E19.81763
G1 X101.113 Y93.860 E20.01109
G1 X102.019 Y93.860 E20.03576
G1 X106.140 Y97.981 E20.19433
G1 X106.140 Y97.074 E20.21900
G1 X102.926 Y93.860 E20.34268
G1 X103.833 Y93.860 E20.36735
G1 X106.140 Y96.167 E20.45615
G1 X106.140 Y95.261 E20.48082
G1 X104.739 Y93.860 E20.53473
G1 X105.646 Y93.860 E20.55940
G1 X106.140 Y94.354 E20.57843
G1 Z0.900 F7800.000
G1 X93.471 Y93.471 F7800.000
G1 F3600
G1 X106.529 Y93.471 E20.93068
G1 X106.529 Y106.529 E21.28292
G1 X93.471 Y106.529 E21.63517
G1 X93.471 Y93.546 E21.98539
G1 X92.836 Y92.836 F7800.000
G1 F3600
G1 X107.164 Y92.836 E22.37193
G1 X107.164 Y107.164 E22.75847
G1 X92.836 Y107.164 E23.14501
G1 X92.836 Y92.911 E23.52953
G1 X92.275 Y92.275 F7800.000
G1 F1800
G1 X107.725 Y92.275 E23.84796
G1 X107.725 Y107.725 E24.16639
G1 X92.275 Y107.725 E24.48482
G1 X92.275 Y92.350 E24.80170
G1 X92.758 Y92.404 F7800.000
G1 X94.354 Y93.860 F7800.000
G1 F1200
G1 X93.860 Y94.354 E24.82073
G1 X93.860 Y95.261 E24.84540
G1 X95.261 Y93.860 E24.89932
G1 X96.167 Y93.860 E24.92399
G1 X93.860 Y96.167 E25.01279
G1 X93.860 Y97.074 E25.03745
G1 X97.074 Y93.860 E25.16114
G1 X97.981 Y93.860 E25.18581
G1 X93.860 Y97.981 E25.34438
G1 X93.860 Y98.887 E25.36905
G1 X98.887 Y93.860 E25.56251
G1 X99.794 Y93.860 E25.58718
G1 X93.860 Y99.794 E25.81552
G1 X93.860 Y100.701 E25.84019
G1 X100.701 Y93.860 E26.10342
G1 X101.607 Y93.860 E26.12809
G1 X93.860 Y101.607 E26.42620
G1 X93.860 Y102.514 E26.45087
G1 X102.514 Y93.860 E26.78387
G1 X103.420 Y93.860 E26.80854
G1 X93.860 Y103.420 E27.17643
G1 X93.860 Y104.327 E27.20110
G1 X104.327 Y93.860 E27.60387
G1 X105.234 Y93.860 E27.62854
G1 X93.860 Y105.234 E28.06620
G1 X93.860 Y106.140 E28.09086
G1 X106.140 Y93.860 E28.56341
G1 X106.140 Y94.766 E28.58807
G1 X94.766 Y106.140 E29.02573
G1 X95.673 Y106.140 E29.05040
G1 X106.140 Y95.673 E29.45317
G1 X106.140 Y96.580 E29.47784
G1 X96.580 Y106.140 E29.84573
G1 X97.486 Y106.140 E29.87039
G1 X106.140 Y97.486 E30.20339
G1 X106.140 Y98.393 E30.22806
G1 X98.393 Y106.140 E30.52618
G1 X99.299 Y106.140 E30.55084
G1 X106.140 Y99.299 E30.81407
G1 X106.140 Y100.206 E30.83874
G1 X100.206 Y106.140 E31.06708
G1 X101.113 Y106.140 E31.09175
G1 X106.140 Y101.113 E31.28521
G1 X106.140 Y102.019 E31.30988
G1 X102.019 Y106.140 E31.46845
G1 X102.926 Y106.140 E31.49312
G1 X106.140 Y102.926 E31.61680
G1 X106.140 Y103.833 E31.64147
G1 X103.833 Y106.140 E31.73027
G1 X104.739 Y106.140 E31.75494
G1 X106.140 Y104.739 E31.80885
G1 X106.140 Y105.646 E31.83352
G1 X105.646 Y106.140 E31.85255
M106 S249.9
G1 Z1.200 F7800.000
G1 X93.471 Y93.471 F7800.000
G1 F3600
G1 X106.529 Y93.471 E32.20480
G1 X106.529 Y106.529 E32.55704
G1 X93.471 Y106.529 E32.90929
G1 X93.471 Y93.546 E33.25951
G1 X92.836 Y92.836 F7800.000
G1 F3600
G1 X107.164 Y92.836 E33.64605
G1 X107.164 Y107.164 E34.03259
G1 X92.836 Y107.164 E34.41913
G1 X92.836 Y92.911 E34.80365
G1 X92.275 Y92.275 F7800.000
G1 F1800
G1 X107.725 Y92.275 E35.12208
G1 X107.725 Y107.725 E35.44051
G1 X92.275 Y107.725 E35.75894
G1 X92.275 Y92.350 E36.07582
G1 X92.758 Y92.404 F7800.000
G1 X93.837 Y95.592 F7800.000
G1 F4800
G1 X95.592 Y93.837 E36.13489
G1 X98.235 Y93.837 F7800.000
G1 F4800
G1 X93.837 Y98.235 E36.28289
G1 X93.837 Y100.878 F7800.000
G1 F4800
G1 X100.878 Y93.837 E36.51981
G1 X103.520 Y93.837 F7800.000
G1 F4800
G1 X93.837 Y103.520 E36.84566
G1 X93.837 Y104.408 F7800.000
G1 F4800
G1 X95.592 Y106.163 E36.90472
G1 X98.235 Y106.163 E36.96760
G1 X93.837 Y101.765 E37.11560
G1 X93.837 Y99.122 E37.17848
G1 X100.878 Y106.163 E37.41540
G1 X103.520 Y106.163 E37.47828
G1 X93.837 Y96.480 E37.80413
G1 X93.837 Y93.837 E37.86701
G1 X106.163 Y106.163 E38.28179
G1 X106.163 Y103.520 E38.34467
G1 X96.480 Y93.837 E38.67052
G1 X99.122 Y93.837 E38.73340
G1 X106.163 Y100.878 E38.97032
G1 X106.163 Y98.235 E39.03320
G1 X101.765 Y93.837 E39.18119
G1 X104.408 Y93.837 E39.24407
G1 X106.163 Y95.592 E39.30314
G1 X106.163 Y96.480 F7800.000
G1 F4800
G1 X96.480 Y106.163 E39.62899
G1 X99.122 Y106.163 F7800.000
G1 F4800
G1 X106.163 Y99.122 E39.86591
G1 X106.163 Y101.765 F7800.000
G1 F4800
G1 X101.765 Y106.163 E40.01391
G1 X104.408 Y106.163 F7800.000
G1 F4800
G1 X106.163 Y104.408 E40.07297
G1 X106.163 Y93.837 F7800.000
G1 F4800
G1 X93.837 Y106.163 E40.48775
G1 Z1.500 F7800.000
G1 X93.471 Y93.471 F7800.000
G1 F3600
G1 X106.529 Y93.471 E40.84000
G1 X106.529 Y106.529 E41.19224
G1 X93.471 Y106.529 E41.54449
G1 X93.471 Y93.546 E41.89471
G1 X92.836 Y92.836 F7800.000
G1 F3600
G1 X107.164 Y92.836 E42.28125
G1 X107.164 Y107.164 E42.66779
G1 X92.836 Y107.164 E43.05433
G1 X92.836 Y92.911 E43.43885
G1 X92.275 Y92.275 F7800.000
G1 F1800
G1 X107.725 Y92.275 E43.75728
G1 X107.725 Y107.725 E44.07571
G1 X92.275 Y107.725 E44.39414
G1 X92.275 Y92.350 E44.71102
G1 X92.758 Y92.404 F7800.000
G1 X93.837 Y95.592 F7800.000
G1 F4800
G1 X95.592 Y93.837 E44.77009
G1 X98.235 Y93.837 F7800.000
G1 F4800
G1 X93.837 Y98.235 E44.91809
G1 X93.837 Y100.878 F7800.000
G1 F4800
G1 X100.878 Y93.837 E45.15501
G1 X103.520 Y93.837 F7800.000
G1 F4800
G1 X93.837 Y103.520 E45.48085
G1 X93.837 Y104.408 F7800.000
G1 F4800
G1 X95.592 Y106.163 E45.53992
G1 X98.235 Y106.163 E45.60280
G1 X93.837 Y101.765 E45.75080
G1 X93.837 Y99.122 E45.81368
G1 X100.878 Y106.163 E46.05060
G1 X103.520 Y106.163 E46.11348
G1 X93.837 Y96.480 E46.43933
G1 X93.837 Y93.837 E46.50221
G1 X106.163 Y106.163 E46.91699
G1 X106.163 Y103.520 E46.97987
G1 X96.480 Y93.837 E47.30572
G1 X99.122 Y93.837 E47.36860
G1 X106.163 Y100.878 E47.60552
G1 X106.163 Y98.235 E47.66840
G1 X101.765 Y93.837 E47.81639
G1 X104.408 Y93.837 E47.87927
G1 X106.163 Y95.592 E47.93834
G1 X106.163 Y96.480 F7800.000
G1 F4800
G1 X96.480 Y106.163 E48.26419
G1 X99.122 Y106.163 F7800.000
G1 F4800
G1 X106.163 Y99.122 E48.50111
G1 X106.163 Y101.765 F7800.000
G1 F4800
G1 X101.765 Y106.163 E48.64911
G1 X104.408 Y106.163 F7800.000
G1 F4800
G1 X106.163 Y104.408 E48.70817
G1 X106.163 Y93.837 F7800.000
G1 F4800
G1 X93.837 Y106.163 E49.12295
G1 Z1.800 F7800.000
G1 X93.471 Y93.471 F7800.000
G1 F3600
G1 X106.529 Y93.471 E49.47520
G1 X106.529 Y106.529 E49.82744
G1 X93.471 Y106.529 E50.17969
G1 X93.471 Y93.546 E50.52991
G1 X92.836 Y92.836 F7800.000
G1 F3600
G1 X107.164 Y92.836 E50.91645
G1 X107.164 Y107.164 E51.30299
G1 X92.836 Y107.164 E51.68953
G1 X92.836 Y92.911 E52.07405
G1 X92.275 Y92.275 F7800.000
G1 F1800
G1 X107.725 Y92.275 E52.39248
G1 X107.725 Y107.725 E52.71091
G1 X92.275 Y107.725 E53.02934
G1 X92.275 Y92.350 E53.34622
G1 X92.758 Y92.404 F7800.000
G1 X93.837 Y95.592 F7800.000
G1 F4800
G1 X95.592 Y93.837 E53.40529
G1 X98.235 Y93.837 F7800.000
G1 F4800
G1 X93.837 Y98.235 E53.55328
G1 X93.837 Y100.878 F7800.000
G1 F4800
G1 X100.878 Y93.837 E53.79021
G1 X103.520 Y93.837 F7800.000
G1 F4800
G1 X93.837 Y103.520 E54.11605
G1 X93.837 Y104.408 F7800.000
G1 F4800
G1 X95.592 Y106.163 E54.17512
G1 X98.235 Y106.163 E54.23800
G1 X93.837 Y101.765 E54.38600
G1 X93.837 Y99.122 E54.44888
G1 X100.878 Y106.163 E54.68580
G1 X103.520 Y106.163 E54.74868
G1 X93.837 Y96.480 E55.07453
G1 X93.837 Y93.837 E55.13741
G1 X106.163 Y106.163 E55.55218
G1 X106.163 Y103.520 E55.61507
G1 X96.480 Y93.837 E55.94091
G1 X99.122 Y93.837 E56.00379
G1 X106.163 Y100.878 E56.24072
G1 X106.163 Y98.235 E56.30360
G1 X101.765 Y93.837 E56.45159
G1 X104.408 Y93.837 E56.51447
G1 X106.163 Y95.592 E56.57354
G1 X106.163 Y96.480 F7800.000
G1 F4800
G1 X96.480 Y106.163 E56.89939
G1 X99.122 Y106.163 F7800.000
G1 F4800
G1 X106.163 Y99.122 E57.13631
G1 X106.163 Y101.765 F7800.000
G1 F4800
G1 X101.765 Y106.163 E57.28430
G1 X104.408 Y106.163 F7800.000
G1 F4800
G1 X106.163 Y104.408 E57.34337
G1 X106.163 Y93.837 F7800.000
G1 F4800
G1 X93.837 Y106.163 E57.75815
G1 Z2.100 F7800.000
G1 X93.471 Y93.471 F7800.000
G1 F3600
G1 X106.529 Y93.471 E58.11039
G1 X106.529 Y106.529 E58.46264
G1 X93.471 Y106.529 E58.81489
G1 X93.471 Y93.546 E59.16511
G1 X92.836 Y92.836 F7800.000
G1 F3600
G1 X107.164 Y92.836 E59.55165
G1 X107.164 Y107.164 E59.93819
G1 X92.836 Y107.164 E60.32473
G1 X92.836 Y92.911 E60.70925
G1 X92.275 Y92.275 F7800.000
G1 F1800
G1 X107.725 Y92.275 E61.02768
G1 X107.725 Y107.725 E61.34611
G1 X92.275 Y107.725 E61.66454
G1 X92.275 Y92.350 E61.98142
G1 X92.758 Y92.404 F7800.000
G1 X93.837 Y95.592 F7800.000
G1 F4800
G1 X95.592 Y93.837 E62.04049
G1 X98.235 Y93.837 F7800.000
G1 F4800
G1 X93.837 Y98.235 E62.18848
G1 X93.837 Y100.878 F7800.000
G1 F4800
G1 X100.878 Y93.837 E62.42540
G1 X103.520 Y93.837 F7800.000
G1 F4800
G1 X93.837 Y103.520 E62.75125
G1 X93.837 Y104.408 F7800.000
G1 F4800
G1 X95.592 Y106.163 E62.81032
G1 X98.235 Y106.163 E62.87320
G1 X93.837 Y101.765 E63.02120
G1 X93.837 Y99.122 E63.08408
G1 X100.878 Y106.163 E63.32100
G1 X103.520 Y106.163 E63.38388
G1 X93.837 Y96.480 E63.70973
G1 X93.837 Y93.837 E63.77261
G1 X106.163 Y106.163 E64.18738
G1 X106.163 Y103.520 E64.25026
G1 X96.480 Y93.837 E64.57611
G1 X99.122 Y93.837 E64.63899
G1 X106.163 Y100.878 E64.87592
G1 X106.163 Y98.235 E64.93880
G1 X101.765 Y93.837 E65.08679
G1 X104.408 Y93.837 E65.14967
G1 X106.163 Y95.592 E65.20874
G1 X106.163 Y96.480 F7800.000
G1 F4800
G1 X96.480 Y106.163 E65.53459
G1 X99.122 Y106.163 F7800.000
G1 F4800
G1 X106.163 Y99.122 E65.77151
G1 X106.163 Y101.765 F7800.000
G1 F4800
G1 X101.765 Y106.163 E65.91950
G1 X104.408 Y106.163 F7800.000
G1 F4800
G1 X106.163 Y104.408 E65.97857
G1 X106.163 Y93.837 F7800.000
G1 F4800
G1 X93.837 Y106.163 E66.39335
G1 Z2.400 F7800.000
G1 X93.471 Y93.471 F7800.000
G1 F3600
G1 X106.529 Y93.471 E66.74559
G1 X106.529 Y106.529 E67.09784
G1 X93.471 Y106.529 E67.45009
G1 X93.471 Y93.546 E67.80031
G1 X92.836 Y92.836 F7800.000
G1 F3600
G1 X107.164 Y92.836 E68.18685
G1 X107.164 Y107.164 E68.57339
G1 X92.836 Y107.164 E68.95993
G1 X92.836 Y92.911 E69.34445
G1 X92.275 Y92.275 F7800.000
G1 F1800
G1 X107.725 Y92.275 E69.66288
G1 X107.725 Y107.725 E69.98131
G1 X92.275 Y107.725 E70.29974
G1 X92.275 Y92.350 E70.61662
G1 X92.758 Y92.404 F7800.000
G1 X93.837 Y95.592 F7800.000
G1 F4800
G1 X95.592 Y93.837 E70.67569
G1 X98.235 Y93.837 F7800.000
G1 F4800
G1 X93.837 Y98.235 E70.82368
G1 X93.837 Y100.878 F7800.000
G1 F4800
G1 X100.878 Y93.837 E71.06060
G1 X103.520 Y93.837 F7800.000
G1 F4800
G1 X93.837 Y103.520 E71.38645
G1 X93.837 Y104.408 F7800.000
G1 F4800
G1 X95.592 Y106.163 E71.44552
G1 X98.235 Y106.163 E71.50840
G1 X93.837 Y101.765 E71.65639
G1 X93.837 Y99.122 E71.71928
G1 X100.878 Y106.163 E71.95620
G1 X103.520 Y106.163 E72.01908
G1 X93.837 Y96.480 E72.34493
G1 X93.837 Y93.837 E72.40781
G1 X106.163 Y106.163 E72.82258
G1 X106.163 Y103.520 E72.88546
G1 X96.480 Y93.837 E73.21131
G1 X99.122 Y93.837 E73.27419
G1 X106.163 Y100.878 E73.51111
G1 X106.163 Y98.235 E73.57400
G1 X101.765 Y93.837 E73.72199
G1 X104.408 Y93.837 E73.78487
G1 X106.163 Y95.592 E73.84394
G1 X106.163 Y96.480 F7800.000
G1 F4800
G1 X96.480 Y106.163 E74.16979
G1 X99.122 Y106.163 F7800.000
G1 F4800
G1 X106.163 Y99.122 E74.40671
G1 X106.163 Y101.765 F7800.000
G1 F4800
G1 X101.765 Y106.163 E74.55470
G1 X104.408 Y106.163 F7800.000
G1 F4800
G1 X106.163 Y104.408 E74.61377
G1 X106.163 Y93.837 F7800.000
G1 F4800
G1 X93.837 Y106.163 E75.02855
G1 Z2.700 F7800.000
G1 X93.471 Y93.471 F7800.000
G1 F3600
