; generated by Slic3r 1.3.0 on 2019-10-08 at 19:03:21

; external perimeters extrusion width = 0.55mm (4.37mm^3/s)
; perimeters extrusion width = 0.70mm (11.44mm^3/s)
; infill extrusion width = 0.63mm (13.45mm^3/s)
; solid infill extrusion width = 0.70mm (3.81mm^3/s)
; top infill extrusion width = 0.70mm (2.86mm^3/s)

M107
M104 S205 ; set temperature
G28 ; home all axes
G1 Z5 F5000 ; lift nozzle

; Filament gcode

M109 S205 ; set temperature and wait for it to be reached
G21 ; set units to millimeters
G90 ; use absolute coordinates
M82 ; use absolute distances for extrusion
G92 E0
G1 Z0.300 F7800.000
G1 E-2.00000 F2400.00000
G92 E0
G1 X92.476 Y92.059 F7800.000
G1 E2.00000 F2400.00000
G1 F1800
G1 X92.059 Y92.476 E2.01368
G1 X92.059 Y93.249 E2.03162
G1 X93.249 Y92.059 E2.07067
G1 X94.023 Y92.059 E2.08861
G1 X92.059 Y94.023 E2.15304
G1 X92.059 Y94.796 E2.17098
G1 X94.796 Y92.059 E2.26078
G1 X95.569 Y92.059 E2.27872
G1 X92.059 Y95.569 E2.39390
G1 X92.059 Y96.342 E2.41184
G1 X96.342 Y92.059 E2.55238
G1 X97.116 Y92.059 E2.57033
G1 X92.059 Y97.116 E2.73625
G1 X92.059 Y97.889 E2.75419
G1 X97.889 Y92.059 E2.94548
G1 X98.662 Y92.059 E2.96343
G1 X92.059 Y98.662 E3.18010
G1 X92.059 Y99.435 E3.19804
G1 X99.435 Y92.059 E3.44008
G1 X100.208 Y92.059 E3.45802
G1 X92.059 Y100.208 E3.72544
G1 X92.059 Y100.982 E3.74338
G1 X100.982 Y92.059 E4.03617
G1 X101.755 Y92.059 E4.05411
G1 X92.059 Y101.755 E4.37228
G1 X92.059 Y102.528 E4.39022
G1 X102.528 Y92.059 E4.73376
G1 X103.301 Y92.059 E4.75170
G1 X92.059 Y103.301 E5.12061
G1 X92.059 Y104.074 E5.13855
G1 X104.074 Y92.059 E5.53284
G1 X104.848 Y92.059 E5.55078
G1 X92.059 Y104.848 E5.97044
G1 X92.059 Y105.621 E5.98838
G1 X105.621 Y92.059 E6.43342
G1 X106.394 Y92.059 E6.45136
G1 X92.059 Y106.394 E6.92177
G1 X92.059 Y107.167 E6.93971
G1 X107.167 Y92.059 E7.43549
G1 X107.941 Y92.060 E7.45343
G1 X92.060 Y107.941 E7.97459
G1 X92.833 Y107.941 E7.99253
G1 X107.941 Y92.833 E8.48831
G1 X107.941 Y93.606 E8.50625
G1 X93.606 Y107.941 E8.97666
G1 X94.379 Y107.941 E8.99460
G1 X107.941 Y94.379 E9.43963
G1 X107.941 Y95.152 E9.45757
G1 X95.152 Y107.941 E9.87723
G1 X95.926 Y107.941 E9.89517
G1 X107.941 Y95.926 E10.28946
G1 X107.941 Y96.699 E10.30740
G1 X96.699 Y107.941 E10.67631
G1 X97.472 Y107.941 E10.69425
G1 X107.941 Y97.472 E11.03779
G1 X107.941 Y98.245 E11.05573
G1 X98.245 Y107.941 E11.37389
G1 X99.018 Y107.941 E11.39184
G1 X107.941 Y99.018 E11.68463
G1 X107.941 Y99.792 E11.70257
G1 X99.792 Y107.941 E11.96998
G1 X100.565 Y107.941 E11.98792
G1 X107.941 Y100.565 E12.22997
G1 X107.941 Y101.338 E12.24791
G1 X101.338 Y107.941 E12.46457
G1 X102.111 Y107.941 E12.48252
G1 X107.941 Y102.111 E12.67381
G1 X107.941 Y102.884 E12.69175
G1 X102.884 Y107.941 E12.85767
G1 X103.658 Y107.941 E12.87561
G1 X107.941 Y103.658 E13.01616
G1 X107.941 Y104.431 E13.03410
G1 X104.431 Y107.941 E13.14927
G1 X105.204 Y107.941 E13.16722
G1 X107.941 Y105.204 E13.25701
G1 X107.941 Y105.977 E13.27496
G1 X105.977 Y107.941 E13.33938
G1 X106.751 Y107.941 E13.35732
G1 X107.941 Y106.751 E13.39637
G1 X107.941 Y107.524 E13.41431
G1 X107.524 Y107.941 E13.42799
M104 S200 ; set temperature
G1 Z0.600 F7800.000
G1 X107.929 Y92.565 F7800.000
G1 F1200
G1 X107.435 Y92.071 E13.44696
G1 X106.531 Y92.071 E13.47147
G1 X107.929 Y93.469 E13.52511
G1 X107.929 Y94.373 E13.54962
G1 X105.627 Y92.071 E13.63792
G1 X104.724 Y92.071 E13.66244
G1 X107.929 Y95.276 E13.78541
G1 X107.929 Y96.180 E13.80992
G1 X103.820 Y92.071 E13.96756
G1 X102.916 Y92.071 E13.99207
G1 X107.929 Y97.084 E14.18437
G1 X107.929 Y97.988 E14.20889
G1 X102.012 Y92.071 E14.43586
G1 X101.108 Y92.071 E14.46037
G1 X107.929 Y98.892 E14.72201
G1 X107.929 Y99.795 E14.74652
G1 X100.205 Y92.071 E15.04283
G1 X99.301 Y92.071 E15.06734
G1 X107.929 Y100.699 E15.39831
G1 X107.929 Y101.603 E15.42282
G1 X98.397 Y92.071 E15.78846
G1 X97.493 Y92.071 E15.81297
G1 X107.929 Y102.507 E16.21328
G1 X107.929 Y103.410 E16.23779
G1 X96.590 Y92.071 E16.67276
G1 X95.686 Y92.071 E16.69728
G1 X107.929 Y104.314 E17.16691
G1 X107.929 Y105.218 E17.19143
G1 X94.782 Y92.071 E17.69573
G1 X93.878 Y92.071 E17.72025
G1 X107.929 Y106.122 E18.25922
G1 X107.929 Y107.026 E18.28373
G1 X92.974 Y92.071 E18.85737
G1 X92.071 Y92.071 E18.88188
G1 X107.929 Y107.929 E19.49019
G1 X107.026 Y107.929 E19.51470
G1 X92.071 Y92.974 E20.08834
G1 X92.071 Y93.878 E20.11286
G1 X106.122 Y107.929 E20.65183
G1 X105.218 Y107.929 E20.67634
G1 X92.071 Y94.782 E21.18065
G1 X92.071 Y95.686 E21.20516
G1 X104.314 Y107.929 E21.67480
G1 X103.411 Y107.929 E21.69931
G1 X92.071 Y96.589 E22.13429
G1 X92.071 Y97.493 E22.15880
G1 X102.507 Y107.929 E22.55911
G1 X101.603 Y107.929 E22.58362
G1 X92.071 Y98.397 E22.94926
G1 X92.071 Y99.301 E22.97377
G1 X100.699 Y107.929 E23.30474
G1 X99.795 Y107.929 E23.32926
G1 X92.071 Y100.205 E23.62556
G1 X92.071 Y101.108 E23.65008
G1 X98.892 Y107.929 E23.91171
G1 X97.988 Y107.929 E23.93623
G1 X92.071 Y102.012 E24.16320
G1 X92.071 Y102.916 E24.18771
G1 X97.084 Y107.929 E24.38002
G1 X96.180 Y107.929 E24.40453
G1 X92.071 Y103.820 E24.56217
G1 X92.071 Y104.723 E24.58668
G1 X95.277 Y107.929 E24.70965
G1 X94.373 Y107.929 E24.73417
G1 X92.071 Y105.627 E24.82247
G1 X92.071 Y106.531 E24.84698
G1 X93.469 Y107.929 E24.90062
G1 X92.565 Y107.929 E24.92513
G1 X92.071 Y107.435 E24.94411
G1 Z0.900 F7800.000
G1 X92.565 Y92.071 F7800.000
G1 F1200
G1 X92.071 Y92.565 E24.96308
G1 X92.071 Y93.469 E24.98759
G1 X93.469 Y92.071 E25.04123
G1 X94.373 Y92.071 E25.06574
G1 X92.071 Y94.373 E25.15404
G1 X92.071 Y95.277 E25.17856
G1 X95.277 Y92.071 E25.30153
G1 X96.180 Y92.071 E25.32604
G1 X92.071 Y96.180 E25.48368
G1 X92.071 Y97.084 E25.50819
G1 X97.084 Y92.071 E25.70050
G1 X97.988 Y92.071 E25.72501
G1 X92.071 Y97.988 E25.95198
G1 X92.071 Y98.892 E25.97650
G1 X98.892 Y92.071 E26.23813
G1 X99.795 Y92.071 E26.26265
G1 X92.071 Y99.795 E26.55895
G1 X92.071 Y100.699 E26.58347
G1 X100.699 Y92.071 E26.91444
G1 X101.603 Y92.071 E26.93895
G1 X92.071 Y101.603 E27.30459
G1 X92.071 Y102.507 E27.32910
G1 X102.507 Y92.071 E27.72941
G1 X103.411 Y92.071 E27.75392
G1 X92.071 Y103.411 E28.18890
G1 X92.071 Y104.314 E28.21341
G1 X104.314 Y92.071 E28.68305
G1 X105.218 Y92.071 E28.70756
G1 X92.071 Y105.218 E29.21187
G1 X92.071 Y106.122 E29.23638
G1 X106.122 Y92.071 E29.77535
G1 X107.026 Y92.071 E29.79987
G1 X92.071 Y107.026 E30.37351
G1 X92.071 Y107.929 E30.39802
G1 X107.929 Y92.071 E31.00633
G1 X107.929 Y92.974 E31.03084
G1 X92.974 Y107.929 E31.60448
G1 X93.878 Y107.929 E31.62899
G1 X107.929 Y93.878 E32.16796
G1 X107.929 Y94.782 E32.19248
G1 X94.782 Y107.929 E32.69678
G1 X95.686 Y107.929 E32.72130
G1 X107.929 Y95.686 E33.19093
G1 X107.929 Y96.590 E33.21545
G1 X96.590 Y107.929 E33.65042
G1 X97.493 Y107.929 E33.67493
G1 X107.929 Y97.493 E34.07524
G1 X107.929 Y98.397 E34.09975
G1 X98.397 Y107.929 E34.46539
G1 X99.301 Y107.929 E34.48990
G1 X107.929 Y99.301 E34.82087
G1 X107.929 Y100.205 E34.84538
G1 X100.205 Y107.929 E35.14169
G1 X101.108 Y107.929 E35.16620
G1 X107.929 Y101.108 E35.42784
G1 X107.929 Y102.012 E35.45235
G1 X102.012 Y107.929 E35.67932
G1 X102.916 Y107.929 E35.70383
G1 X107.929 Y102.916 E35.89614
G1 X107.929 Y103.820 E35.92065
G1 X103.820 Y107.929 E36.07829
G1 X104.724 Y107.929 E36.10280
G1 X107.929 Y104.724 E36.22577
G1 X107.929 Y105.627 E36.25028
G1 X105.627 Y107.929 E36.33859
G1 X106.531 Y107.929 E36.36310
G1 X107.929 Y106.531 E36.41674
G1 X107.929 Y107.435 E36.44125
G1 X107.435 Y107.929 E36.46022
M106 S255
G1 Z1.200 F7800.000
G1 X105.262 Y107.952 F7800.000
G1 F3564.19
G1 X107.952 Y105.262 E36.55076
G1 X107.952 Y102.619 F7800.000
G1 F3564.19
G1 X102.619 Y107.952 E36.73023
G1 X99.976 Y107.952 F7800.000
G1 F3564.19
G1 X107.952 Y99.976 E36.99862
G1 X107.952 Y97.333 F7800.000
G1 F3564.19
G1 X97.333 Y107.952 E37.35594
G1 X94.690 Y107.952 F7800.000
G1 F3564.19
G1 X107.952 Y94.690 E37.80219
G1 X107.952 Y94.738 F7800.000
G1 F3564.19
G1 X105.262 Y92.048 E37.89273
G1 X102.619 Y92.048 E37.95561
G1 X107.952 Y97.381 E38.13507
G1 X107.952 Y100.024 E38.19796
G1 X99.976 Y92.048 E38.46635
G1 X97.333 Y92.048 E38.52923
G1 X107.952 Y102.667 E38.88655
G1 X107.952 Y105.310 E38.94943
G1 X94.690 Y92.048 E39.39568
G1 X92.048 Y92.048 E39.45856
G1 X107.952 Y107.952 E39.99374
G1 X105.310 Y107.952 E40.05662
G1 X92.048 Y94.690 E40.50286
G1 X92.048 Y97.333 E40.56574
G1 X102.667 Y107.952 E40.92307
G1 X100.024 Y107.952 E40.98595
G1 X92.048 Y99.976 E41.25434
G1 X92.048 Y102.619 E41.31722
G1 X97.381 Y107.952 E41.49669
G1 X94.738 Y107.952 E41.55957
G1 X92.048 Y105.262 E41.65011
G1 X92.048 Y105.310 F7800.000
G1 F3564.19
G1 X105.310 Y92.048 E42.09636
G1 X102.667 Y92.048 F7800.000
G1 F3564.19
G1 X92.048 Y102.667 E42.45368
G1 X92.048 Y100.024 F7800.000
G1 F3564.19
G1 X100.024 Y92.048 E42.72207
G1 X97.381 Y92.048 F7800.000
G1 F3564.19
G1 X92.048 Y97.381 E42.90154
G1 X92.048 Y94.738 F7800.000
G1 F3564.19
G1 X94.738 Y92.048 E42.99208
G1 X107.952 Y92.048 F7800.000
G1 F3564.19
G1 X92.048 Y107.952 E43.52725
G1 Z1.500 F7800.000
G1 F3564.19
G1 X107.952 Y92.048 E44.06243
G1 X107.952 Y94.690 F7800.000
G1 F3564.19
G1 X94.690 Y107.952 E44.50867
G1 X97.333 Y107.952 F7800.000
G1 F3564.19
G1 X107.952 Y97.333 E44.86599
G1 X107.952 Y94.738 F7800.000
G1 F3564.19
G1 X105.262 Y92.048 E44.95653
G1 X102.619 Y92.048 E45.01942
G1 X107.952 Y97.381 E45.19888
G1 X107.952 Y100.024 E45.26176
G1 X99.976 Y92.048 E45.53016
G1 X97.333 Y92.048 E45.59304
G1 X107.952 Y102.667 E45.95036
G1 X107.952 Y105.310 E46.01324
G1 X94.690 Y92.048 E46.45949
G1 X92.048 Y92.048 E46.52237
G1 X107.952 Y107.952 E47.05754
G1 X105.310 Y107.952 E47.12042
G1 X92.048 Y94.690 E47.56667
G1 X92.048 Y97.333 E47.62955
G1 X102.667 Y107.952 E47.98687
G1 X100.024 Y107.952 E48.04975
G1 X92.048 Y99.976 E48.31815
G1 X92.048 Y102.619 E48.38103
G1 X97.381 Y107.952 E48.56050
G1 X94.738 Y107.952 E48.62338
G1 X92.048 Y105.262 E48.71392
G1 X92.048 Y105.310 F7800.000
G1 F3564.19
G1 X105.310 Y92.048 E49.16016
G1 X102.667 Y92.048 F7800.000
G1 F3564.19
G1 X92.048 Y102.667 E49.51748
G1 X92.048 Y100.024 F7800.000
G1 F3564.19
G1 X100.024 Y92.048 E49.78588
G1 X97.381 Y92.048 F7800.000
G1 F3564.19
G1 X92.048 Y97.381 E49.96535
G1 X92.048 Y94.738 F7800.000
G1 F3564.19
G1 X94.738 Y92.048 E50.05589
G1 X107.952 Y99.976 F7800.000
G1 F3564.19
G1 X99.976 Y107.952 E50.32428
G1 X102.619 Y107.952 F7800.000
G1 F3564.19
G1 X107.952 Y102.619 E50.50375
G1 X107.952 Y105.262 F7800.000
G1 F3564.19
G1 X105.262 Y107.952 E50.59429
G1 Z1.800 F7800.000
G1 F3564.19
G1 X107.952 Y105.262 E50.68483
G1 X107.952 Y102.619 F7800.000
G1 F3564.19
G1 X102.619 Y107.952 E50.86429
G1 X99.976 Y107.952 F7800.000
G1 F3564.19
G1 X107.952 Y99.976 E51.13269
G1 X107.952 Y97.333 F7800.000
G1 F3564.19
G1 X97.333 Y107.952 E51.49001
G1 X94.690 Y107.952 F7800.000
G1 F3564.19
G1 X107.952 Y94.690 E51.93625
G1 X107.952 Y94.738 F7800.000
G1 F3564.19
G1 X105.262 Y92.048 E52.02679
G1 X102.619 Y92.048 E52.08968
G1 X107.952 Y97.381 E52.26914
G1 X107.952 Y100.024 E52.33202
G1 X99.976 Y92.048 E52.60042
G1 X97.333 Y92.048 E52.66330
G1 X107.952 Y102.667 E53.02062
G1 X107.952 Y105.310 E53.08350
G1 X94.690 Y92.048 E53.52975
G1 X92.048 Y92.048 E53.59263
G1 X107.952 Y107.952 E54.12780
G1 X105.310 Y107.952 E54.19068
G1 X92.048 Y94.690 E54.63693
G1 X92.048 Y97.333 E54.69981
G1 X102.667 Y107.952 E55.05713
G1 X100.024 Y107.952 E55.12001
G1 X92.048 Y99.976 E55.38841
G1 X92.048 Y102.619 E55.45129
G1 X97.381 Y107.952 E55.63076
G1 X94.738 Y107.952 E55.69364
G1 X92.048 Y105.262 E55.78418
G1 X92.048 Y105.310 F7800.000
G1 F3564.19
G1 X105.310 Y92.048 E56.23042
G1 X102.667 Y92.048 F7800.000
G1 F3564.19
G1 X92.048 Y102.667 E56.58774
G1 X92.048 Y100.024 F7800.000
G1 F3564.19
G1 X100.024 Y92.048 E56.85614
G1 X97.381 Y92.048 F7800.000
G1 F3564.19
G1 X92.048 Y97.381 E57.03560
G1 X92.048 Y94.738 F7800.000
G1 F3564.19
G1 X94.738 Y92.048 E57.12614
G1 X107.952 Y92.048 F7800.000
G1 F3564.19
G1 X92.048 Y107.952 E57.66132
G1 Z2.100 F7800.000
G1 F3564.19
G1 X107.952 Y92.048 E58.19649
G1 X107.952 Y94.690 F7800.000
G1 F3564.19
G1 X94.690 Y107.952 E58.64274
G1 X97.333 Y107.952 F7800.000
G1 F3564.19
G1 X107.952 Y97.333 E59.00006
G1 X107.952 Y94.738 F7800.000
G1 F3564.19
G1 X105.262 Y92.048 E59.09060
G1 X102.619 Y92.048 E59.15348
G1 X107.952 Y97.381 E59.33295
G1 X107.952 Y100.024 E59.39583
G1 X99.976 Y92.048 E59.66422
G1 X97.333 Y92.048 E59.72711
G1 X107.952 Y102.667 E60.08443
G1 X107.952 Y105.310 E60.14731
G1 X94.690 Y92.048 E60.59355
G1 X92.048 Y92.048 E60.65644
G1 X107.952 Y107.952 E61.19161
G1 X105.310 Y107.952 E61.25449
G1 X92.048 Y94.690 E61.70074
G1 X92.048 Y97.333 E61.76362
G1 X102.667 Y107.952 E62.12094
G1 X100.024 Y107.952 E62.18382
G1 X92.048 Y99.976 E62.45222
G1 X92.048 Y102.619 E62.51510
G1 X97.381 Y107.952 E62.69456
G1 X94.738 Y107.952 E62.75744
G1 X92.048 Y105.262 E62.84798
G1 X92.048 Y105.310 F7800.000
G1 F3564.19
G1 X105.310 Y92.048 E63.29423
G1 X102.667 Y92.048 F7800.000
G1 F3564.19
G1 X92.048 Y102.667 E63.65155
G1 X92.048 Y100.024 F7800.000
G1 F3564.19
G1 X100.024 Y92.048 E63.91995
G1 X97.381 Y92.048 F7800.000
G1 F3564.19
G1 X92.048 Y97.381 E64.09941
G1 X92.048 Y94.738 F7800.000
G1 F3564.19
G1 X94.738 Y92.048 E64.18995
G1 X107.952 Y99.976 F7800.000
G1 F3564.19
G1 X99.976 Y107.952 E64.45835
G1 X102.619 Y107.952 F7800.000
G1 F3564.19
G1 X107.952 Y102.619 E64.63781
G1 X107.952 Y105.262 F7800.000
G1 F3564.19
G1 X105.262 Y107.952 E64.72835
G1 Z2.400 F7800.000
G1 F3564.19
G1 X107.952 Y105.262 E64.81889
G1 X107.952 Y102.619 F7800.000
G1 F3564.19
G1 X102.619 Y107.952 E64.99836
G1 X99.976 Y107.952 F7800.000
G1 F3564.19
G1 X107.952 Y99.976 E65.26675
G1 X107.952 Y97.333 F7800.000
G1 F3564.19
G1 X97.333 Y107.952 E65.62407
G1 X94.690 Y107.952 F7800.000
G1 F3564.19
G1 X107.952 Y94.690 E66.07032
G1 X107.952 Y94.738 F7800.000
G1 F3564.19
G1 X105.262 Y92.048 E66.16086
G1 X102.619 Y92.048 E66.22374
G1 X107.952 Y97.381 E66.40321
G1 X107.952 Y100.024 E66.46609
G1 X99.976 Y92.048 E66.73448
G1 X97.333 Y92.048 E66.79737
G1 X107.952 Y102.667 E67.15469
G1 X107.952 Y105.310 E67.21757
G1 X94.690 Y92.048 E67.66381
G1 X92.048 Y92.048 E67.72670
G1 X107.952 Y107.952 E68.26187
G1 X105.310 Y107.952 E68.32475
G1 X92.048 Y94.690 E68.77100
G1 X92.048 Y97.333 E68.83388
G1 X102.667 Y107.952 E69.19120
G1 X100.024 Y107.952 E69.25408
G1 X92.048 Y99.976 E69.52247
G1 X92.048 Y102.619 E69.58536
G1 X97.381 Y107.952 E69.76482
G1 X94.738 Y107.952 E69.82770
G1 X92.048 Y105.262 E69.91824
G1 X92.048 Y105.310 F7800.000
G1 F3564.19
G1 X105.310 Y92.048 E70.36449
G1 X102.667 Y92.048 F7800.000
G1 F3564.19
G1 X92.048 Y102.667 E70.72181
G1 X92.048 Y100.024 F7800.000
G1 F3564.19
G1 X100.024 Y92.048 E70.99021
G1 X97.381 Y92.048 F7800.000
G1 F3564.19
G1 X92.048 Y97.381 E71.16967
G1 X92.048 Y94.738 F7800.000
G1 F3564.19
G1 X94.738 Y92.048 E71.26021
G1 X107.952 Y92.048 F7800.000
G1 F3564.19
G1 X92.048 Y107.952 E71.79539
G1 Z2.700 F7800.000
G1 F3564.19
G1 X107.952 Y92.048 E72.33056
G1 X107.952 Y94.690 F7800.000
G1 F3564.19
G1 X94.690 Y107.952 E72.77681
G1 X97.333 Y107.952 F7800.000
G1 F3564.19
G1 X107.952 Y97.333 E73.13413
G1 X107.952 Y94.738 F7800.000
G1 F3564.19
G1 X105.262 Y92.048 E73.22467
G1 X102.619 Y92.048 E73.28755
G1 X107.952 Y97.381 E73.46702
G1 X107.952 Y100.024 E73.52990
G1 X99.976 Y92.048 E73.79829
G1 X97.333 Y92.048 E73.86117
G1 X107.952 Y102.667 E74.21849
G1 X107.952 Y105.310 E74.28137
G1 X94.690 Y92.048 E74.72762
G1 X92.048 Y92.048 E74.79050
G1 X107.952 Y107.952 E75.32568
G1 X105.310 Y107.952 E75.38856
G1 X92.048 Y94.690 E75.83481
G1 X92.048 Y97.333 E75.89769
G1 X102.667 Y107.952 E76.25501
G1 X100.024 Y107.952 E76.31789
G1 X92.048 Y99.976 E76.58628
G1 X92.048 Y102.619 E76.64916
G1 X97.381 Y107.952 E76.82863
G1 X94.738 Y107.952 E76.89151
G1 X92.048 Y105.262 E76.98205
G1 X92.048 Y105.310 F7800.000
G1 F3564.19
G1 X105.310 Y92.048 E77.42830
G1 X102.667 Y92.048 F7800.000
G1 F3564.19
G1 X92.048 Y102.667 E77.78562
G1 X92.048 Y100.024 F7800.000
G1 F3564.19
G1 X100.024 Y92.048 E78.05401
G1 X97.381 Y92.048 F7800.000
G1 F3564.19
G1 X92.048 Y97.381 E78.23348
G1 X92.048 Y94.738 F7800.000
G1 F3564.19
G1 X94.738 Y92.048 E78.32402
G1 X107.952 Y99.976 F7800.000
G1 F3564.19
G1 X99.976 Y107.952 E78.59241
G1 X102.619 Y107.952 F7800.000
G1 F3564.19
G1 X107.952 Y102.619 E78.77188
G1 X107.952 Y105.262 F7800.000
G1 F3564.19
G1 X105.262 Y107.952 E78.86242
G1 Z3.000 F7800.000
G1 F3564.19
G1 X107.952 Y105.262 E78.95296
G1 X107.952 Y102.619 F7800.000
G1 F3564.19
G1 X102.619 Y107.952 E79.13243
G1 X99.976 Y107.952 F7800.000
G1 F3564.19
G1 X107.952 Y99.976 E79.40082
G1 X107.952 Y97.333 F7800.000
G1 F3564.19
G1 X97.333 Y107.952 E79.75814
G1 X94.690 Y107.952 F7800.000
G1 F3564.19
G1 X107.952 Y94.690 E80.20439
G1 X107.952 Y94.738 F7800.000
G1 F3564.19
G1 X105.262 Y92.048 E80.29493
G1 X102.619 Y92.048 E80.35781
G1 X107.952 Y97.381 E80.53728
G1 X107.952 Y100.024 E80.60016
G1 X99.976 Y92.048 E80.86855
G1 X97.333 Y92.048 E80.93143
G1 X107.952 Y102.667 E81.28875
G1 X107.952 Y105.310 E81.35163
G1 X94.690 Y92.048 E81.79788
G1 X92.048 Y92.048 E81.86076
G1 X107.952 Y107.952 E82.39594
G1 X105.310 Y107.952 E82.45882
G1 X92.048 Y94.690 E82.90507
G1 X92.048 Y97.333 E82.96795
G1 X102.667 Y107.952 E83.32527
G1 X100.024 Y107.952 E83.38815
G1 X92.048 Y99.976 E83.65654
G1 X92.048 Y102.619 E83.71942
G1 X97.381 Y107.952 E83.89889
G1 X94.738 Y107.952 E83.96177
G1 X92.048 Y105.262 E84.05231
G1 X92.048 Y105.310 F7800.000
G1 F3564.19
G1 X105.310 Y92.048 E84.49856
G1 X102.667 Y92.048 F7800.000
G1 F3564.19
G1 X92.048 Y102.667 E84.85588
G1 X92.048 Y100.024 F7800.000
G1 F3564.19
G1 X100.024 Y92.048 E85.12427
G1 X97.381 Y92.048 F7800.000
G1 F3564.19
G1 X92.048 Y97.381 E85.30374
G1 X92.048 Y94.738 F7800.000
G1 F3564.19
G1 X94.738 Y92.048 E85.39428
G1 X107.952 Y92.048 F7800.000
G1 F3564.19
G1 X92.048 Y107.952 E85.92945
G1 Z3.300 F7800.000
G1 F3564.19
G1 X107.952 Y92.048 E86.46463
G1 X107.952 Y94.690 F7800.000
G1 F3564.19
G1 X94.690 Y107.952 E86.91088
G1 X97.333 Y107.952 F7800.000
G1 F3564.19
G1 X107.952 Y97.333 E87.26820
G1 X107.952 Y94.738 F7800.000
G1 F3564.19
G1 X105.262 Y92.048 E87.35874
G1 X102.619 Y92.048 E87.42162
G1 X107.952 Y97.381 E87.60108
G1 X107.952 Y100.024 E87.66397
G1 X99.976 Y92.048 E87.93236
G1 X97.333 Y92.048 E87.99524
G1 X107.952 Y102.667 E88.35256
G1 X107.952 Y105.310 E88.41544
G1 X94.690 Y92.048 E88.86169
G1 X92.048 Y92.048 E88.92457
G1 X107.952 Y107.952 E89.45975
G1 X105.310 Y107.952 E89.52263
G1 X92.048 Y94.690 E89.96887
G1 X92.048 Y97.333 E90.03175
G1 X102.667 Y107.952 E90.38908
G1 X100.024 Y107.952 E90.45196
G1 X92.048 Y99.976 E90.72035
G1 X92.048 Y102.619 E90.78323
G1 X97.381 Y107.952 E90.96270
G1 X94.738 Y107.952 E91.02558
G1 X92.048 Y105.262 E91.11612
G1 X92.048 Y105.310 F7800.000
G1 F3564.19
G1 X105.310 Y92.048 E91.56237
G1 X102.667 Y92.048 F7800.000
G1 F3564.19
G1 X92.048 Y102.667 E91.91969
G1 X92.048 Y100.024 F7800.000
G1 F3564.19
G1 X100.024 Y92.048 E92.18808
G1 X97.381 Y92.048 F7800.000
G1 F3564.19
G1 X92.048 Y97.381 E92.36755
G1 X92.048 Y94.738 F7800.000
G1 F3564.19
G1 X94.738 Y92.048 E92.45809
G1 X107.952 Y99.976 F7800.000
G1 F3564.19
G1 X99.976 Y107.952 E92.72648
G1 X102.619 Y107.952 F7800.000
G1 F3564.19
G1 X107.952 Y102.619 E92.90595
G1 X107.952 Y105.262 F7800.000
G1 F3564.19
G1 X105.262 Y107.952 E92.99649
G1 Z3.600 F7800.000
G1 F3564.19
G1 X107.952 Y105.262 E93.08703
G1 X107.952 Y102.619 F7800.000
G1 F3564.19
G1 X102.619 Y107.952 E93.26649
G1 X99.976 Y107.952 F7800.000
G1 F3564.19
G1 X107.952 Y99.976 E93.53489
G1 X107.952 Y97.333 F7800.000
G1 F3564.19
G1 X97.333 Y107.952 E93.89221
G1 X94.690 Y107.952 F7800.000
G1 F3564.19
G1 X107.952 Y94.690 E94.33846
G1 X107.952 Y94.738 F7800.000
G1 F3564.19
G1 X105.262 Y92.048 E94.42900
G1 X102.619 Y92.048 E94.49188
G1 X107.952 Y97.381 E94.67134
G1 X107.952 Y100.024 E94.73423
G1 X99.976 Y92.048 E95.00262
G1 X97.333 Y92.048 E95.06550
G1 X107.952 Y102.667 E95.42282
G1 X107.952 Y105.310 E95.48570
G1 X94.690 Y92.048 E95.93195
G1 X92.048 Y92.048 E95.99483
G1 X107.952 Y107.952 E96.53000
G1 X105.310 Y107.952 E96.59289
G1 X92.048 Y94.690 E97.03913
G1 X92.048 Y97.333 E97.10201
G1 X102.667 Y107.952 E97.45934
G1 X100.024 Y107.952 E97.52222
G1 X92.048 Y99.976 E97.79061
G1 X92.048 Y102.619 E97.85349
G1 X97.381 Y107.952 E98.03296
G1 X94.738 Y107.952 E98.09584
G1 X92.048 Y105.262 E98.18638
G1 X92.048 Y105.310 F7800.000
G1 F3564.19
G1 X105.310 Y92.048 E98.63263
G1 X102.667 Y92.048 F7800.000
G1 F3564.19
G1 X92.048 Y102.667 E98.98995
G1 X92.048 Y100.024 F7800.000
G1 F3564.19
G1 X100.024 Y92.048 E99.25834
G1 X97.381 Y92.048 F7800.000
G1 F3564.19
G1 X92.048 Y97.381 E99.43781
G1 X92.048 Y94.738 F7800.000
G1 F3564.19
G1 X94.738 Y92.048 E99.52835
G1 X107.952 Y92.048 F7800.000
G1 F3564.19
G1 X92.048 Y107.952 E100.06352
G1 Z3.900 F7800.000
G1 F3564.19
G1 X107.952 Y92.048 E100.59870
G1 X107.952 Y94.690 F7800.000
G1 F3564.19
G1 X94.690 Y107.952 E101.04494
G1 X97.333 Y107.952 F7800.000
G1 F3564.19
G1 X107.952 Y97.333 E101.40226
G1 X107.952 Y94.738 F7800.000
G1 F3564.19
G1 X105.262 Y92.048 E101.49280
G1 X102.619 Y92.048 E101.55569
G1 X107.952 Y97.381 E101.73515
G1 X107.952 Y100.024 E101.79803
G1 X99.976 Y92.048 E102.06643
G1 X97.333 Y92.048 E102.12931
G1 X107.952 Y102.667 E102.48663
G1 X107.952 Y105.310 E102.54951
G1 X94.690 Y92.048 E102.99576
G1 X92.048 Y92.048 E103.05864
G1 X107.952 Y107.952 E103.59381
G1 X105.310 Y107.952 E103.65669
G1 X92.048 Y94.690 E104.10294
G1 X92.048 Y97.333 E104.16582
G1 X102.667 Y107.952 E104.52314
G1 X100.024 Y107.952 E104.58602
G1 X92.048 Y99.976 E104.85442
G1 X92.048 Y102.619 E104.91730
G1 X97.381 Y107.952 E105.09677
G1 X94.738 Y107.952 E105.15965
G1 X92.048 Y105.262 E105.25019
G1 X92.048 Y105.310 F7800.000
G1 F3564.19
G1 X105.310 Y92.048 E105.69643
G1 X102.667 Y92.048 F7800.000
G1 F3564.19
G1 X92.048 Y102.667 E106.05375
G1 X92.048 Y100.024 F7800.000
G1 F3564.19
G1 X100.024 Y92.048 E106.32215
G1 X97.381 Y92.048 F7800.000
G1 F3564.19
G1 X92.048 Y97.381 E106.50161
G1 X92.048 Y94.738 F7800.000
G1 F3564.19
G1 X94.738 Y92.048 E106.59215
G1 X107.952 Y99.976 F7800.000
G1 F3564.19
G1 X99.976 Y107.952 E106.86055
G1 X102.619 Y107.952 F7800.000
G1 F3564.19
G1 X107.952 Y102.619 E107.04002
G1 X107.952 Y105.262 F7800.000
G1 F3564.19
G1 X105.262 Y107.952 E107.13056
G1 Z4.200 F7800.000
G1 F3564.19
G1 X107.952 Y105.262 E107.22110
G1 X107.952 Y102.619 F7800.000
G1 F3564.19
G1 X102.619 Y107.952 E107.40056
G1 X99.976 Y107.952 F7800.000
G1 F3564.19
G1 X107.952 Y99.976 E107.66896
G1 X107.952 Y97.333 F7800.000
G1 F3564.19
G1 X97.333 Y107.952 E108.02628
G1 X94.690 Y107.952 F7800.000
G1 F3564.19
G1 X107.952 Y94.690 E108.47252
G1 X107.952 Y94.738 F7800.000
G1 F3564.19
G1 X105.262 Y92.048 E108.56306
G1 X102.619 Y92.048 E108.62594
G1 X107.952 Y97.381 E108.80541
G1 X107.952 Y100.024 E108.86829
G1 X99.976 Y92.048 E109.13669
G1 X97.333 Y92.048 E109.19957
G1 X107.952 Y102.667 E109.55689
G1 X107.952 Y105.310 E109.61977
G1 X94.690 Y92.048 E110.06602
G1 X92.048 Y92.048 E110.12890
G1 X107.952 Y107.952 E110.66407
G1 X105.310 Y107.952 E110.72695
G1 X92.048 Y94.690 E111.17320
G1 X92.048 Y97.333 E111.23608
G1 X102.667 Y107.952 E111.59340
G1 X100.024 Y107.952 E111.65628
G1 X92.048 Y99.976 E111.92468
G1 X92.048 Y102.619 E111.98756
G1 X97.381 Y107.952 E112.16702
G1 X94.738 Y107.952 E112.22991
G1 X92.048 Y105.262 E112.32045
G1 X92.048 Y105.310 F7800.000
G1 F3564.19
G1 X105.310 Y92.048 E112.76669
G1 X102.667 Y92.048 F7800.000
G1 F3564.19
G1 X92.048 Y102.667 E113.12401
G1 X92.048 Y100.024 F7800.000
G1 F3564.19
G1 X100.024 Y92.048 E113.39241
G1 X97.381 Y92.048 F7800.000
G1 F3564.19
G1 X92.048 Y97.381 E113.57187
G1 X92.048 Y94.738 F7800.000
G1 F3564.19
G1 X94.738 Y92.048 E113.66241
G1 X107.952 Y92.048 F7800.000
G1 F3564.19
G1 X92.048 Y107.952 E114.19759
M106 S204
G1 Z4.500 F7800.000
G1 X107.435 Y107.929 F7800.000
G1 F1200
G1 X107.929 Y107.435 E114.21656
G1 X107.929 Y106.531 E114.24107
G1 X106.531 Y107.929 E114.29471
G1 X105.627 Y107.929 E114.31922
G1 X107.929 Y105.627 E114.40752
G1 X107.929 Y104.724 E114.43204
G1 X104.724 Y107.929 E114.55501
G1 X103.820 Y107.929 E114.57952
G1 X107.929 Y103.820 E114.73716
G1 X107.929 Y102.916 E114.76167
G1 X102.916 Y107.929 E114.95397
G1 X102.012 Y107.929 E114.97849
G1 X107.929 Y102.012 E115.20546
G1 X107.929 Y101.108 E115.22997
G1 X101.108 Y107.929 E115.49161
G1 X100.205 Y107.929 E115.51612
G1 X107.929 Y100.205 E115.81242
G1 X107.929 Y99.301 E115.83694
G1 X99.301 Y107.929 E116.16791
G1 X98.397 Y107.929 E116.19242
G1 X107.929 Y98.397 E116.55806
G1 X107.929 Y97.493 E116.58257
G1 X97.493 Y107.929 E116.98288
G1 X96.590 Y107.929 E117.00739
G1 X107.929 Y96.590 E117.44236
G1 X107.929 Y95.686 E117.46687
G1 X95.686 Y107.929 E117.93651
G1 X94.782 Y107.929 E117.96103
G1 X107.929 Y94.782 E118.46533
G1 X107.929 Y93.878 E118.48984
G1 X93.878 Y107.929 E119.02882
G1 X92.974 Y107.929 E119.05333
G1 X107.929 Y92.974 E119.62697
G1 X107.929 Y92.071 E119.65148
G1 X92.071 Y107.929 E120.25979
G1 X92.071 Y107.026 E120.28430
G1 X107.026 Y92.071 E120.85794
G1 X106.122 Y92.071 E120.88245
G1 X92.071 Y106.122 E121.42143
G1 X92.071 Y105.218 E121.44594
G1 X105.218 Y92.071 E121.95025
G1 X104.314 Y92.071 E121.97476
G1 X92.071 Y104.314 E122.44440
G1 X92.071 Y103.411 E122.46891
G1 X103.411 Y92.071 E122.90388
G1 X102.507 Y92.071 E122.92840
G1 X92.071 Y102.507 E123.32870
G1 X92.071 Y101.603 E123.35322
G1 X101.603 Y92.071 E123.71886
G1 X100.699 Y92.071 E123.74337
G1 X92.071 Y100.699 E124.07434
G1 X92.071 Y99.795 E124.09885
G1 X99.795 Y92.071 E124.39516
G1 X98.892 Y92.071 E124.41967
G1 X92.071 Y98.892 E124.68131
G1 X92.071 Y97.988 E124.70582
G1 X97.988 Y92.071 E124.93280
G1 X97.084 Y92.071 E124.95731
G1 X92.071 Y97.084 E125.14961
G1 X92.071 Y96.180 E125.17413
G1 X96.180 Y92.071 E125.33177
G1 X95.277 Y92.071 E125.35628
G1 X92.071 Y95.277 E125.47925
G1 X92.071 Y94.373 E125.50376
G1 X94.373 Y92.071 E125.59207
G1 X93.469 Y92.071 E125.61658
G1 X92.071 Y93.469 E125.67022
G1 X92.071 Y92.565 E125.69473
G1 X92.565 Y92.071 E125.71370
G1 Z4.800 F7800.000
G1 X107.929 Y92.565 F7800.000
G1 F1200
G1 X107.435 Y92.071 E125.73267
G1 X106.531 Y92.071 E125.75718
G1 X107.929 Y93.469 E125.81082
G1 X107.929 Y94.373 E125.83533
G1 X105.627 Y92.071 E125.92364
G1 X104.724 Y92.071 E125.94815
G1 X107.929 Y95.276 E126.07112
G1 X107.929 Y96.180 E126.09563
G1 X103.820 Y92.071 E126.25327
G1 X102.916 Y92.071 E126.27778
G1 X107.929 Y97.084 E126.47009
G1 X107.929 Y97.988 E126.49460
G1 X102.012 Y92.071 E126.72157
G1 X101.108 Y92.071 E126.74608
G1 X107.929 Y98.892 E127.00772
G1 X107.929 Y99.795 E127.03223
G1 X100.205 Y92.071 E127.32854
G1 X99.301 Y92.071 E127.35305
G1 X107.929 Y100.699 E127.68402
G1 X107.929 Y101.603 E127.70853
G1 X98.397 Y92.071 E128.07417
G1 X97.493 Y92.071 E128.09869
G1 X107.929 Y102.507 E128.49899
G1 X107.929 Y103.410 E128.52350
G1 X96.590 Y92.071 E128.95847
G1 X95.686 Y92.071 E128.98299
G1 X107.929 Y104.314 E129.45263
G1 X107.929 Y105.218 E129.47714
G1 X94.782 Y92.071 E129.98144
G1 X93.878 Y92.071 E130.00596
G1 X107.929 Y106.122 E130.54493
G1 X107.929 Y107.026 E130.56944
G1 X92.974 Y92.071 E131.14308
G1 X92.071 Y92.071 E131.16759
G1 X107.929 Y107.929 E131.77590
G1 X107.026 Y107.929 E131.80041
G1 X92.071 Y92.974 E132.37405
G1 X92.071 Y93.878 E132.39857
G1 X106.122 Y107.929 E132.93754
G1 X105.218 Y107.929 E132.96205
G1 X92.071 Y94.782 E133.46636
G1 X92.071 Y95.686 E133.49087
G1 X104.314 Y107.929 E133.96051
G1 X103.411 Y107.929 E133.98503
G1 X92.071 Y96.589 E134.42000
G1 X92.071 Y97.493 E134.44451
G1 X102.507 Y107.929 E134.84482
G1 X101.603 Y107.929 E134.86933
G1 X92.071 Y98.397 E135.23497
G1 X92.071 Y99.301 E135.25948
G1 X100.699 Y107.929 E135.59046
G1 X99.795 Y107.929 E135.61497
G1 X92.071 Y100.205 E135.91127
G1 X92.071 Y101.108 E135.93579
G1 X98.892 Y107.929 E136.19743
G1 X97.988 Y107.929 E136.22194
G1 X92.071 Y102.012 E136.44891
G1 X92.071 Y102.916 E136.47342
G1 X97.084 Y107.929 E136.66573
G1 X96.180 Y107.929 E136.69024
G1 X92.071 Y103.820 E136.84788
G1 X92.071 Y104.723 E136.87239
G1 X95.277 Y107.929 E136.99537
G1 X94.373 Y107.929 E137.01988
G1 X92.071 Y105.627 E137.10818
G1 X92.071 Y106.531 E137.13270
G1 X93.469 Y107.929 E137.18633
G1 X92.565 Y107.929 E137.21085
G1 X92.071 Y107.435 E137.22982
M106 S183.6
G1 Z5.100 F7800.000
G1 E135.22982 F2400.00000
G92 E0
G1 X92.565 Y92.071 F7800.000
G1 E2.00000 F2400.00000
G1 F900
G1 X92.071 Y92.565 E2.01897
G1 X92.071 Y93.469 E2.04348
G1 X93.469 Y92.071 E2.09712
G1 X94.373 Y92.071 E2.12163
G1 X92.071 Y94.373 E2.20994
G1 X92.071 Y95.277 E2.23445
G1 X95.277 Y92.071 E2.35742
G1 X96.180 Y92.071 E2.38194
G1 X92.071 Y96.180 E2.53957
G1 X92.071 Y97.084 E2.56409
G1 X97.084 Y92.071 E2.75639
G1 X97.988 Y92.071 E2.78091
G1 X92.071 Y97.988 E3.00788
G1 X92.071 Y98.892 E3.03239
G1 X98.892 Y92.071 E3.29403
G1 X99.795 Y92.071 E3.31854
G1 X92.071 Y99.795 E3.61485
G1 X92.071 Y100.699 E3.63936
G1 X100.699 Y92.071 E3.97033
G1 X101.603 Y92.071 E3.99485
G1 X92.071 Y101.603 E4.36048
G1 X92.071 Y102.507 E4.38500
G1 X102.507 Y92.071 E4.78530
G1 X103.411 Y92.071 E4.80982
G1 X92.071 Y103.411 E5.24479
G1 X92.071 Y104.314 E5.26930
G1 X104.314 Y92.071 E5.73894
G1 X105.218 Y92.071 E5.76346
G1 X92.071 Y105.218 E6.26776
G1 X92.071 Y106.122 E6.29228
G1 X106.122 Y92.071 E6.83125
G1 X107.026 Y92.071 E6.85576
G1 X92.071 Y107.026 E7.42940
G1 X92.071 Y107.929 E7.45392
G1 X107.929 Y92.071 E8.06222
G1 X107.929 Y92.974 E8.08673
G1 X92.974 Y107.929 E8.66037
G1 X93.878 Y107.929 E8.68489
G1 X107.929 Y93.878 E9.22386
G1 X107.929 Y94.782 E9.24837
G1 X94.782 Y107.929 E9.75268
G1 X95.686 Y107.929 E9.77719
G1 X107.929 Y95.686 E10.24683
G1 X107.929 Y96.590 E10.27134
G1 X96.590 Y107.929 E10.70631
G1 X97.493 Y107.929 E10.73083
G1 X107.929 Y97.493 E11.13113
G1 X107.929 Y98.397 E11.15564
G1 X98.397 Y107.929 E11.52128
G1 X99.301 Y107.929 E11.54579
G1 X107.929 Y99.301 E11.87676
G1 X107.929 Y100.205 E11.90128
G1 X100.205 Y107.929 E12.19758
G1 X101.108 Y107.929 E12.22210
G1 X107.929 Y101.108 E12.48373
G1 X107.929 Y102.012 E12.50825
G1 X102.012 Y107.929 E12.73522
G1 X102.916 Y107.929 E12.75973
G1 X107.929 Y102.916 E12.95203
G1 X107.929 Y103.820 E12.97655
G1 X103.820 Y107.929 E13.13418
G1 X104.724 Y107.929 E13.15870
G1 X107.929 Y104.724 E13.28167
G1 X107.929 Y105.627 E13.30618
G1 X105.627 Y107.929 E13.39448
G1 X106.531 Y107.929 E13.41899
G1 X107.929 Y106.531 E13.47263
G1 X107.929 Y107.435 E13.49714
G1 X107.435 Y107.929 E13.51611
G1 E11.51611 F2400.00000
G92 E0
M107
; Filament-specific end gcode 
;END gcode for filament

M104 S0 ; turn off temperature
G28 X0  ; home X axis
M84     ; disable motors

M140 S0 ; set bed temperature
; filament used = 146.7mm (1.0cm3)
; total filament cost = 0.0

; avoid_crossing_perimeters = 0
; bed_shape = 0x0,200x0,200x200,0x200
; bed_temperature = 0
; before_layer_gcode = 
; between_objects_gcode = 
; bridge_acceleration = 0
; bridge_fan_speed = 100
; brim_connections_width = 0
; brim_width = 0
; complete_objects = 0
; cooling = 1
; default_acceleration = 0
; disable_fan_first_layers = 3
; duplicate_distance = 6
; end_filament_gcode = "; Filament-specific end gcode \n;END gcode for filament\n"
; end_gcode = M104 S0 ; turn off temperature\nG28 X0  ; home X axis\nM84     ; disable motors\n
; extruder_clearance_height = 20
; extruder_clearance_radius = 20
; extruder_offset = 0x0
; extrusion_axis = E
; extrusion_multiplier = 1
; fan_always_on = 0
; fan_below_layer_time = 60
; filament_colour = #FFFFFF
; filament_cost = 0
; filament_density = 0
; filament_diameter = 3
; filament_max_volumetric_speed = 0
; filament_notes = ""
; first_layer_acceleration = 0
; first_layer_bed_temperature = 0
; first_layer_extrusion_width = 200%
; first_layer_speed = 30
; first_layer_temperature = 205
; gcode_arcs = 0
; gcode_comments = 0
; gcode_flavor = reprap
; has_heatbed = 1
; infill_acceleration = 0
; infill_first = 0
; interior_brim_width = 0
; layer_gcode = 
; max_fan_speed = 100
; max_layer_height = 0.3
; max_print_speed = 80
; max_volumetric_speed = 0
; min_fan_speed = 35
; min_layer_height = 0.15
; min_print_speed = 10
; min_skirt_length = 0
; notes = 
; nozzle_diameter = 0.5
; only_retract_when_crossing_perimeters = 1
; ooze_prevention = 0
; output_filename_format = [input_filename_base].gcode
; perimeter_acceleration = 0
; post_process = 
; pressure_advance = 0
; printer_notes = 
; resolution = 0
; retract_before_travel = 2
; retract_layer_change = 0
; retract_length = 2
; retract_length_toolchange = 10
; retract_lift = 0
; retract_lift_above = 0
; retract_lift_below = 0
; retract_restart_extra = 0
; retract_restart_extra_toolchange = 0
; retract_speed = 40
; skirt_distance = 6
; skirt_height = 1
; skirts = 0
; slowdown_below_layer_time = 5
; spiral_vase = 0
; standby_temperature_delta = -5
; start_filament_gcode = "; Filament gcode\n"
; start_gcode = G28 ; home all axes\nG1 Z5 F5000 ; lift nozzle\n
; temperature = 200
; threads = 8
; toolchange_gcode = 
; travel_speed = 130
; use_firmware_retraction = 0
; use_relative_e_distances = 0
; use_set_and_wait_bed = 0
; use_set_and_wait_extruder = 0
; use_volumetric_e = 0
; vibration_limit = 0
; wipe = 0
; z_offset = 0
; z_steps_per_mm = 0
; adaptive_slicing = 0
; adaptive_slicing_quality = 75%
; dont_support_bridges = 1
; extrusion_width = 0
; first_layer_height = 0.3
; infill_only_where_needed = 0
; interface_shells = 0
; layer_height = 0.3
; match_horizontal_surfaces = 0
; raft_layers = 0
; regions_overlap = 0
; seam_position = aligned
; sequential_print_priority = 0
; support_material = 0
; support_material_angle = 0
; support_material_buildplate_only = 0
; support_material_contact_distance = 0.2
; support_material_enforce_layers = 0
; support_material_extruder = 1
; support_material_extrusion_width = 0
; support_material_interface_extruder = 1
; support_material_interface_extrusion_width = 0
; support_material_interface_layers = 3
; support_material_interface_spacing = 0
; support_material_interface_speed = 100%
; support_material_max_layers = 0
; support_material_pattern = pillars
; support_material_spacing = 2.5
; support_material_speed = 60
; support_material_threshold = 60%
; xy_size_compensation = 0
; bottom_infill_pattern = rectilinear
; bottom_solid_layers = 3
; bridge_flow_ratio = 1
; bridge_speed = 60
; external_perimeter_extrusion_width = 0
; external_perimeter_speed = 50%
; external_perimeters_first = 0
; extra_perimeters = 1
; fill_angle = 45
; fill_density = 60%
; fill_gaps = 1
; fill_pattern = grid
; gap_fill_speed = 20
; infill_every_layers = 1
; infill_extruder = 1
; infill_extrusion_width = 0
; infill_overlap = 55%
; infill_speed = 80
; overhangs = 1
; perimeter_extruder = 1
; perimeter_extrusion_width = 0
; perimeter_speed = 60
; perimeters = 0
; small_perimeter_speed = 15
; solid_infill_below_area = 70
; solid_infill_every_layers = 0
; solid_infill_extruder = 1
; solid_infill_extrusion_width = 0
; solid_infill_speed = 20
; thin_walls = 1
; top_infill_extrusion_width = 0
; top_infill_pattern = rectilinear
; top_solid_infill_speed = 15
; top_solid_layers = 3
