; generated by Slic3r 1.3.0 on 2019-10-08 at 18:52:53

; external perimeters extrusion width = 0.55mm (4.37mm^3/s)
; perimeters extrusion width = 0.70mm (11.44mm^3/s)
; infill extrusion width = 0.63mm (13.45mm^3/s)
; solid infill extrusion width = 0.70mm (3.81mm^3/s)
; top infill extrusion width = 0.70mm (2.86mm^3/s)

; external perimeters extrusion width = 0.55mm (4.37mm^3/s)
; perimeters extrusion width = 0.70mm (11.44mm^3/s)
; infill extrusion width = 0.63mm (13.45mm^3/s)
; solid infill extrusion width = 0.70mm (3.81mm^3/s)
; top infill extrusion width = 0.70mm (2.86mm^3/s)

M107
M104 S205 ; set temperature
G28 ; home all axes
G1 Z5 F5000 ; lift nozzle

; Filament gcode

M109 S205 ; set temperature and wait for it to be reached
G21 ; set units to millimeters
G90 ; use absolute coordinates
M82 ; use absolute distances for extrusion
G92 E0
G1 Z0.300 F7800.000
G1 E-2.00000 F2400.00000
G92 E0
G1 X93.371 Y93.371 F7800.000
G1 E2.00000 F2400.00000
G1 F1800
G1 X106.629 Y93.371 E2.30138
G1 X106.629 Y106.629 E2.60275
G1 X93.371 Y106.629 E2.90413
G1 X93.371 Y93.446 E3.20380
G1 X92.836 Y92.836 F7800.000
G1 F1800
G1 X107.164 Y92.836 E3.52953
G1 X107.164 Y107.164 E3.85525
G1 X92.836 Y107.164 E4.18098
G1 X92.836 Y92.911 E4.50500
G1 X92.300 Y92.300 F7800.000
G1 F1800
G1 X107.700 Y92.300 E4.85508
G1 X107.700 Y107.700 E5.20516
G1 X92.300 Y107.700 E5.55524
G1 X92.300 Y92.375 E5.90362
G1 X92.783 Y92.429 F7800.000
G1 E3.90362 F2400.00000
G92 E0
G1 X94.115 Y93.699 F7800.000
G1 E2.00000 F2400.00000
G1 F1800
G1 X93.699 Y94.115 E2.01347
G1 X93.699 Y94.877 E2.03088
G1 X94.877 Y93.699 E2.06897
G1 X95.639 Y93.699 E2.08638
G1 X93.699 Y95.639 E2.14909
G1 X93.699 Y96.400 E2.16650
G1 X96.400 Y93.699 E2.25383
G1 X97.162 Y93.699 E2.27124
G1 X93.699 Y97.162 E2.38319
G1 X93.699 Y97.923 E2.40060
G1 X97.923 Y93.699 E2.53717
G1 X98.685 Y93.699 E2.55458
G1 X93.699 Y98.685 E2.71577
G1 X93.699 Y99.447 E2.73318
G1 X99.447 Y93.699 E2.91899
G1 X100.208 Y93.699 E2.93640
G1 X93.699 Y100.208 E3.14683
G1 X93.699 Y100.970 E3.16424
G1 X100.970 Y93.699 E3.39929
G1 X101.732 Y93.699 E3.41670
G1 X93.699 Y101.732 E3.67637
G1 X93.699 Y102.493 E3.69378
G1 X102.493 Y93.699 E3.97807
G1 X103.255 Y93.699 E3.99548
G1 X93.699 Y103.255 E4.30439
G1 X93.699 Y104.017 E4.32180
G1 X104.017 Y93.699 E4.65533
G1 X104.778 Y93.699 E4.67274
G1 X93.699 Y104.778 E5.03089
G1 X93.699 Y105.540 E5.04830
G1 X105.540 Y93.699 E5.43107
G1 X106.301 Y93.699 E5.44848
G1 X93.699 Y106.301 E5.85587
G1 X94.460 Y106.301 E5.87327
G1 X106.301 Y94.460 E6.25604
G1 X106.301 Y95.222 E6.27345
G1 X95.222 Y106.301 E6.63160
G1 X95.983 Y106.301 E6.64901
G1 X106.301 Y95.983 E6.98254
G1 X106.301 Y96.745 E6.99995
G1 X96.745 Y106.301 E7.30886
G1 X97.507 Y106.301 E7.32627
G1 X106.301 Y97.507 E7.61056
G1 X106.301 Y98.268 E7.62797
G1 X98.268 Y106.301 E7.88764
G1 X99.030 Y106.301 E7.90505
G1 X106.301 Y99.030 E8.14010
G1 X106.301 Y99.792 E8.15750
G1 X99.792 Y106.301 E8.36793
G1 X100.553 Y106.301 E8.38534
G1 X106.301 Y100.553 E8.57115
G1 X106.301 Y101.315 E8.58856
G1 X101.315 Y106.301 E8.74975
G1 X102.077 Y106.301 E8.76716
G1 X106.301 Y102.077 E8.90373
G1 X106.301 Y102.838 E8.92114
G1 X102.838 Y106.301 E9.03309
G1 X103.600 Y106.301 E9.05050
G1 X106.301 Y103.600 E9.13783
G1 X106.301 Y104.361 E9.15524
G1 X104.361 Y106.301 E9.21795
G1 X105.123 Y106.301 E9.23536
G1 X106.301 Y105.123 E9.27345
G1 X106.301 Y105.885 E9.29086
G1 X105.885 Y106.301 E9.30433
M104 S200 ; set temperature
G1 Z0.600 F7800.000
G1 X93.471 Y93.471 F7800.000
G1 F3600
G1 X106.529 Y93.471 E9.65658
G1 X106.529 Y106.529 E10.00883
G1 X93.471 Y106.529 E10.36108
G1 X93.471 Y93.546 E10.71130
G1 X92.836 Y92.836 F7800.000
G1 F3600
G1 X107.164 Y92.836 E11.09784
G1 X107.164 Y107.164 E11.48438
G1 X92.836 Y107.164 E11.87092
G1 X92.836 Y92.911 E12.25544
G1 X92.275 Y92.275 F7800.000
G1 F1800
G1 X107.725 Y92.275 E12.57387
G1 X107.725 Y107.725 E12.89230
G1 X92.275 Y107.725 E13.21073
G1 X92.275 Y92.350 E13.52761
G1 X92.758 Y92.404 F7800.000
G1 X93.860 Y105.646 F7800.000
G1 F1200
G1 X94.354 Y106.140 E13.54664
G1 X95.261 Y106.140 E13.57131
G1 X93.860 Y104.739 E13.62523
G1 X93.860 Y103.833 E13.64989
G1 X96.167 Y106.140 E13.73870
G1 X97.074 Y106.140 E13.76336
G1 X93.860 Y102.926 E13.88705
G1 X93.860 Y102.019 E13.91172
G1 X97.981 Y106.140 E14.07029
G1 X98.887 Y106.140 E14.09496
G1 X93.860 Y101.113 E14.28842
G1 X93.860 Y100.206 E14.31309
G1 X99.794 Y106.140 E14.54143
G1 X100.701 Y106.140 E14.56610
G1 X93.860 Y99.299 E14.82933
G1 X93.860 Y98.393 E14.85400
G1 X101.607 Y106.140 E15.15211
G1 X102.514 Y106.140 E15.17678
G1 X93.860 Y97.486 E15.50978
G1 X93.860 Y96.580 E15.53445
G1 X103.420 Y106.140 E15.90234
G1 X104.327 Y106.140 E15.92701
G1 X93.860 Y95.673 E16.32978
G1 X93.860 Y94.766 E16.35445
G1 X105.234 Y106.140 E16.79211
G1 X106.140 Y106.140 E16.81678
G1 X93.860 Y93.860 E17.28933
G1 X94.766 Y93.860 E17.31399
G1 X106.140 Y105.234 E17.75165
G1 X106.140 Y104.327 E17.77632
G1 X95.673 Y93.860 E18.17910
G1 X96.580 Y93.860 E18.20376
G1 X106.140 Y103.420 E18.57165
G1 X106.140 Y102.514 E18.59632
G1 X97.486 Y93.860 E18.92932
G1 X98.393 Y93.860 E18.95399
G1 X106.140 Y101.607 E19.25211
G1 X106.140 Y100.701 E19.27678
G1 X99.299 Y93.860 E19.54001
G1 X100.206 Y93.860 E19.56467
G1 X106.140 Y99.794 E19.79302
G1 X106.140 Y98.887 E19.81769
G1 X101.113 Y93.860 E20.01115
G1 X102.019 Y93.860 E20.03581
G1 X106.140 Y97.981 E20.19439
G1 X106.140 Y97.074 E20.21905
G1 X102.926 Y93.860 E20.34274
G1 X103.833 Y93.860 E20.36741
G1 X106.140 Y96.167 E20.45621
G1 X106.140 Y95.261 E20.48088
G1 X104.739 Y93.860 E20.53479
G1 X105.646 Y93.860 E20.55946
G1 X106.140 Y94.354 E20.57849
G1 Z0.900 F7800.000
G1 X93.471 Y93.471 F7800.000
G1 F3600
G1 X106.529 Y93.471 E20.93074
G1 X106.529 Y106.529 E21.28298
G1 X93.471 Y106.529 E21.63523
G1 X93.471 Y93.546 E21.98546
G1 X92.836 Y92.836 F7800.000
G1 F3600
G1 X107.164 Y92.836 E22.37200
G1 X107.164 Y107.164 E22.75854
G1 X92.836 Y107.164 E23.14508
G1 X92.836 Y92.911 E23.52960
G1 X92.275 Y92.275 F7800.000
G1 F1800
G1 X107.725 Y92.275 E23.84803
G1 X107.725 Y107.725 E24.16646
G1 X92.275 Y107.725 E24.48489
G1 X92.275 Y92.350 E24.80177
G1 X92.758 Y92.404 F7800.000
G1 X94.354 Y93.860 F7800.000
G1 F1200
G1 X93.860 Y94.354 E24.82080
G1 X93.860 Y95.261 E24.84547
G1 X95.261 Y93.860 E24.89938
G1 X96.167 Y93.860 E24.92405
G1 X93.860 Y96.167 E25.01285
G1 X93.860 Y97.074 E25.03752
G1 X97.074 Y93.860 E25.16121
G1 X97.981 Y93.860 E25.18587
G1 X93.860 Y97.981 E25.34445
G1 X93.860 Y98.887 E25.36912
G1 X98.887 Y93.860 E25.56257
G1 X99.794 Y93.860 E25.58724
G1 X93.860 Y99.794 E25.81559
G1 X93.860 Y100.701 E25.84026
G1 X100.701 Y93.860 E26.10349
G1 X101.607 Y93.860 E26.12815
G1 X93.860 Y101.607 E26.42627
G1 X93.860 Y102.514 E26.45094
G1 X102.514 Y93.860 E26.78394
G1 X103.420 Y93.860 E26.80861
G1 X93.860 Y103.420 E27.17650
G1 X93.860 Y104.327 E27.20117
G1 X104.327 Y93.860 E27.60394
G1 X105.234 Y93.860 E27.62861
G1 X93.860 Y105.234 E28.06627
G1 X93.860 Y106.140 E28.09094
G1 X106.140 Y93.860 E28.56348
G1 X106.140 Y94.766 E28.58815
G1 X94.766 Y106.140 E29.02581
G1 X95.673 Y106.140 E29.05048
G1 X106.140 Y95.673 E29.45325
G1 X106.140 Y96.580 E29.47792
G1 X96.580 Y106.140 E29.84581
G1 X97.486 Y106.140 E29.87048
G1 X106.140 Y97.486 E30.20348
G1 X106.140 Y98.393 E30.22815
G1 X98.393 Y106.140 E30.52626
G1 X99.299 Y106.140 E30.55093
G1 X106.140 Y99.299 E30.81416
G1 X106.140 Y100.206 E30.83883
G1 X100.206 Y106.140 E31.06717
G1 X101.113 Y106.140 E31.09184
G1 X106.140 Y101.113 E31.28530
G1 X106.140 Y102.019 E31.30997
G1 X102.019 Y106.140 E31.46854
G1 X102.926 Y106.140 E31.49321
G1 X106.140 Y102.926 E31.61690
G1 X106.140 Y103.833 E31.64157
G1 X103.833 Y106.140 E31.73037
G1 X104.739 Y106.140 E31.75503
G1 X106.140 Y104.739 E31.80895
G1 X106.140 Y105.646 E31.83362
G1 X105.646 Y106.140 E31.85265
M106 S247.35
G1 Z1.200 F7800.000
G1 X93.471 Y93.471 F7800.000
G1 F3600
G1 X106.529 Y93.471 E32.20489
G1 X106.529 Y106.529 E32.55714
G1 X93.471 Y106.529 E32.90939
G1 X93.471 Y93.546 E33.25961
G1 X92.836 Y92.836 F7800.000
G1 F3600
G1 X107.164 Y92.836 E33.64615
G1 X107.164 Y107.164 E34.03269
G1 X92.836 Y107.164 E34.41923
G1 X92.836 Y92.911 E34.80375
G1 X92.275 Y92.275 F7800.000
G1 F1800
G1 X107.725 Y92.275 E35.12218
G1 X107.725 Y107.725 E35.44061
G1 X92.275 Y107.725 E35.75904
G1 X92.275 Y92.350 E36.07593
G1 X92.758 Y92.404 F7800.000
G1 X93.837 Y104.738 F7800.000
G1 F4800
G1 X95.262 Y106.163 E36.12388
G1 X96.253 Y106.163 E36.14746
G1 X93.837 Y103.747 E36.22876
G1 X93.837 Y102.756 E36.25234
G1 X97.244 Y106.163 E36.36699
G1 X98.235 Y106.163 E36.39057
G1 X93.837 Y101.765 E36.53856
G1 X93.837 Y100.774 E36.56214
G1 X99.226 Y106.163 E36.74349
G1 X100.217 Y106.163 E36.76707
G1 X93.837 Y99.783 E36.98176
G1 X93.837 Y98.792 E37.00534
G1 X101.208 Y106.163 E37.25338
G1 X102.199 Y106.163 E37.27696
G1 X93.837 Y97.801 E37.55834
G1 X93.837 Y96.810 E37.58192
G1 X103.190 Y106.163 E37.89666
G1 X104.181 Y106.163 E37.92024
G1 X93.837 Y95.819 E38.26832
G1 X93.837 Y94.828 E38.29190
G1 X105.172 Y106.163 E38.67333
G1 X106.163 Y106.163 E38.69691
G1 X93.837 Y93.837 E39.11168
G1 X94.828 Y93.837 E39.13526
G1 X106.163 Y105.172 E39.51669
G1 X106.163 Y104.181 E39.54027
G1 X95.819 Y93.837 E39.88835
G1 X96.810 Y93.837 E39.91193
G1 X106.163 Y103.190 E40.22667
G1 X106.163 Y102.199 E40.25025
G1 X97.801 Y93.837 E40.53163
G1 X98.792 Y93.837 E40.55521
G1 X106.163 Y101.208 E40.80325
G1 X106.163 Y100.217 E40.82683
G1 X99.783 Y93.837 E41.04152
G1 X100.774 Y93.837 E41.06510
G1 X106.163 Y99.226 E41.24645
G1 X106.163 Y98.235 E41.27003
G1 X101.765 Y93.837 E41.41802
G1 X102.756 Y93.837 E41.44160
G1 X106.163 Y97.244 E41.55625
G1 X106.163 Y96.253 E41.57983
G1 X103.747 Y93.837 E41.66113
G1 X104.738 Y93.837 E41.68471
G1 X106.163 Y95.262 E41.73266
G1 Z1.500 F7800.000
G1 X93.471 Y93.471 F7800.000
G1 F3600
G1 X106.529 Y93.471 E42.08491
G1 X106.529 Y106.529 E42.43716
G1 X93.471 Y106.529 E42.78940
G1 X93.471 Y93.546 E43.13963
G1 X92.836 Y92.836 F7800.000
G1 F3600
G1 X107.164 Y92.836 E43.52617
G1 X107.164 Y107.164 E43.91271
G1 X92.836 Y107.164 E44.29925
G1 X92.836 Y92.911 E44.68377
G1 X92.275 Y92.275 F7800.000
G1 F1800
G1 X107.725 Y92.275 E45.00220
G1 X107.725 Y107.725 E45.32063
G1 X92.275 Y107.725 E45.63906
G1 X92.275 Y92.350 E45.95594
G1 X92.758 Y92.404 F7800.000
G1 X95.262 Y93.837 F7800.000
G1 F4800
G1 X93.837 Y95.262 E46.00390
G1 X93.837 Y96.253 E46.02748
G1 X96.253 Y93.837 E46.10878
G1 X97.244 Y93.837 E46.13236
G1 X93.837 Y97.244 E46.24700
G1 X93.837 Y98.235 E46.27058
G1 X98.235 Y93.837 E46.41858
G1 X99.226 Y93.837 E46.44216
G1 X93.837 Y99.226 E46.62350
G1 X93.837 Y100.217 E46.64708
G1 X100.217 Y93.837 E46.86177
G1 X101.208 Y93.837 E46.88535
G1 X93.837 Y101.208 E47.13339
G1 X93.837 Y102.199 E47.15697
G1 X102.199 Y93.837 E47.43836
G1 X103.190 Y93.837 E47.46194
G1 X93.837 Y103.190 E47.77667
G1 X93.837 Y104.181 E47.80025
G1 X104.181 Y93.837 E48.14833
G1 X105.172 Y93.837 E48.17191
G1 X93.837 Y105.172 E48.55334
G1 X93.837 Y106.163 E48.57692
G1 X106.163 Y93.837 E48.99170
G1 X106.163 Y94.828 E49.01528
G1 X94.828 Y106.163 E49.39671
G1 X95.819 Y106.163 E49.42029
G1 X106.163 Y95.819 E49.76837
G1 X106.163 Y96.810 E49.79195
G1 X96.810 Y106.163 E50.10668
G1 X97.801 Y106.163 E50.13026
G1 X106.163 Y97.801 E50.41165
G1 X106.163 Y98.792 E50.43523
G1 X98.792 Y106.163 E50.68327
G1 X99.783 Y106.163 E50.70685
G1 X106.163 Y99.783 E50.92154
G1 X106.163 Y100.774 E50.94512
G1 X100.774 Y106.163 E51.12646
G1 X101.765 Y106.163 E51.15004
G1 X106.163 Y101.765 E51.29804
G1 X106.163 Y102.756 E51.32162
G1 X102.756 Y106.163 E51.43626
G1 X103.747 Y106.163 E51.45984
G1 X106.163 Y103.747 E51.54115
G1 X106.163 Y104.738 E51.56473
G1 X104.738 Y106.163 E51.61268
G1 Z1.800 F7800.000
G1 X93.471 Y93.471 F7800.000
G1 F3600
G1 X106.529 Y93.471 E51.96493
G1 X106.529 Y106.529 E52.31717
G1 X93.471 Y106.529 E52.66942
G1 X93.471 Y93.546 E53.01964
G1 X92.836 Y92.836 F7800.000
G1 F3600
G1 X107.164 Y92.836 E53.40618
G1 X107.164 Y107.164 E53.79273
G1 X92.836 Y107.164 E54.17927
G1 X92.836 Y92.911 E54.56378
G1 X92.275 Y92.275 F7800.000
G1 F1800
G1 X107.725 Y92.275 E54.88221
G1 X107.725 Y107.725 E55.20064
G1 X92.275 Y107.725 E55.51907
G1 X92.275 Y92.350 E55.83596
G1 X92.758 Y92.404 F7800.000
G1 X93.837 Y104.738 F7800.000
G1 F4800
G1 X95.262 Y106.163 E55.88391
G1 X96.253 Y106.163 E55.90749
G1 X93.837 Y103.747 E55.98879
G1 X93.837 Y102.756 E56.01237
G1 X97.244 Y106.163 E56.12702
G1 X98.235 Y106.163 E56.15060
G1 X93.837 Y101.765 E56.29860
G1 X93.837 Y100.774 E56.32218
G1 X99.226 Y106.163 E56.50352
G1 X100.217 Y106.163 E56.52710
G1 X93.837 Y99.783 E56.74179
G1 X93.837 Y98.792 E56.76537
G1 X101.208 Y106.163 E57.01341
G1 X102.199 Y106.163 E57.03699
G1 X93.837 Y97.801 E57.31837
G1 X93.837 Y96.810 E57.34195
G1 X103.190 Y106.163 E57.65669
G1 X104.181 Y106.163 E57.68027
G1 X93.837 Y95.819 E58.02835
G1 X93.837 Y94.828 E58.05193
G1 X105.172 Y106.163 E58.43336
G1 X106.163 Y106.163 E58.45694
G1 X93.837 Y93.837 E58.87171
G1 X94.828 Y93.837 E58.89529
G1 X106.163 Y105.172 E59.27672
G1 X106.163 Y104.181 E59.30030
G1 X95.819 Y93.837 E59.64838
G1 X96.810 Y93.837 E59.67196
G1 X106.163 Y103.190 E59.98670
G1 X106.163 Y102.199 E60.01028
G1 X97.801 Y93.837 E60.29166
G1 X98.792 Y93.837 E60.31524
G1 X106.163 Y101.208 E60.56328
G1 X106.163 Y100.217 E60.58686
G1 X99.783 Y93.837 E60.80155
G1 X100.774 Y93.837 E60.82513
G1 X106.163 Y99.226 E61.00648
G1 X106.163 Y98.235 E61.03006
G1 X101.765 Y93.837 E61.17805
G1 X102.756 Y93.837 E61.20163
G1 X106.163 Y97.244 E61.31628
G1 X106.163 Y96.253 E61.33986
G1 X103.747 Y93.837 E61.42116
G1 X104.738 Y93.837 E61.44474
G1 X106.163 Y95.262 E61.49269
G1 Z2.100 F7800.000
G1 X93.471 Y93.471 F7800.000
G1 F3600
G1 X106.529 Y93.471 E61.84494
G1 X106.529 Y106.529 E62.19719
G1 X93.471 Y106.529 E62.54944
G1 X93.471 Y93.546 E62.89966
G1 X92.836 Y92.836 F7800.000
G1 F3600
G1 X107.164 Y92.836 E63.28620
G1 X107.164 Y107.164 E63.67274
G1 X92.836 Y107.164 E64.05928
G1 X92.836 Y92.911 E64.44380
G1 X92.275 Y92.275 F7800.000
G1 F1800
G1 X107.725 Y92.275 E64.76223
G1 X107.725 Y107.725 E65.08066
G1 X92.275 Y107.725 E65.39909
G1 X92.275 Y92.350 E65.71597
G1 X92.758 Y92.404 F7800.000
G1 X95.262 Y93.837 F7800.000
G1 F4800
G1 X93.837 Y95.262 E65.76393
G1 X93.837 Y96.253 E65.78751
G1 X96.253 Y93.837 E65.86881
G1 X97.244 Y93.837 E65.89239
G1 X93.837 Y97.244 E66.00704
G1 X93.837 Y98.235 E66.03062
G1 X98.235 Y93.837 E66.17861
G1 X99.226 Y93.837 E66.20219
G1 X93.837 Y99.226 E66.38353
G1 X93.837 Y100.217 E66.40712
G1 X100.217 Y93.837 E66.62181
G1 X101.208 Y93.837 E66.64539
G1 X93.837 Y101.208 E66.89342
G1 X93.837 Y102.199 E66.91700
G1 X102.199 Y93.837 E67.19839
G1 X103.190 Y93.837 E67.22197
G1 X93.837 Y103.190 E67.53670
G1 X93.837 Y104.181 E67.56028
G1 X104.181 Y93.837 E67.90836
G1 X105.172 Y93.837 E67.93195
G1 X93.837 Y105.172 E68.31337
G1 X93.837 Y106.163 E68.33695
G1 X106.163 Y93.837 E68.75173
G1 X106.163 Y94.828 E68.77531
G1 X94.828 Y106.163 E69.15674
G1 X95.819 Y106.163 E69.18032
G1 X106.163 Y95.819 E69.52840
G1 X106.163 Y96.810 E69.55198
G1 X96.810 Y106.163 E69.86671
G1 X97.801 Y106.163 E69.89029
G1 X106.163 Y97.801 E70.17168
G1 X106.163 Y98.792 E70.19526
G1 X98.792 Y106.163 E70.44330
G1 X99.783 Y106.163 E70.46688
G1 X106.163 Y99.783 E70.68157
G1 X106.163 Y100.774 E70.70515
G1 X100.774 Y106.163 E70.88649
G1 X101.765 Y106.163 E70.91007
G1 X106.163 Y101.765 E71.05807
G1 X106.163 Y102.756 E71.08165
G1 X102.756 Y106.163 E71.19630
G1 X103.747 Y106.163 E71.21988
G1 X106.163 Y103.747 E71.30118
G1 X106.163 Y104.738 E71.32476
G1 X104.738 Y106.163 E71.37271
G1 Z2.400 F7800.000
G1 X93.471 Y93.471 F7800.000
G1 F3600
G1 X106.529 Y93.471 E71.72496
G1 X106.529 Y106.529 E72.07720
G1 X93.471 Y106.529 E72.42945
G1 X93.471 Y93.546 E72.77968
G1 X92.836 Y92.836 F7800.000
G1 F3600
G1 X107.164 Y92.836 E73.16622
G1 X107.164 Y107.164 E73.55276
G1 X92.836 Y107.164 E73.93930
G1 X92.836 Y92.911 E74.32382
G1 X92.275 Y92.275 F7800.000
G1 F1800
G1 X107.725 Y92.275 E74.64225
G1 X107.725 Y107.725 E74.96068
G1 X92.275 Y107.725 E75.27911
G1 X92.275 Y92.350 E75.59599
G1 X92.758 Y92.404 F7800.000
G1 X93.837 Y104.738 F7800.000
G1 F4800
G1 X95.262 Y106.163 E75.64394
G1 X96.253 Y106.163 E75.66752
G1 X93.837 Y103.747 E75.74882
G1 X93.837 Y102.756 E75.77240
G1 X97.244 Y106.163 E75.88705
G1 X98.235 Y106.163 E75.91063
G1 X93.837 Y101.765 E76.05863
G1 X93.837 Y100.774 E76.08221
G1 X99.226 Y106.163 E76.26355
G1 X100.217 Y106.163 E76.28713
G1 X93.837 Y99.783 E76.50182
G1 X93.837 Y98.792 E76.52540
G1 X101.208 Y106.163 E76.77344
G1 X102.199 Y106.163 E76.79702
G1 X93.837 Y97.801 E77.07841
G1 X93.837 Y96.810 E77.10199
G1 X103.190 Y106.163 E77.41672
G1 X104.181 Y106.163 E77.44030
G1 X93.837 Y95.819 E77.78838
G1 X93.837 Y94.828 E77.81196
G1 X105.172 Y106.163 E78.19339
G1 X106.163 Y106.163 E78.21697
G1 X93.837 Y93.837 E78.63175
G1 X94.828 Y93.837 E78.65533
G1 X106.163 Y105.172 E79.03675
G1 X106.163 Y104.181 E79.06034
G1 X95.819 Y93.837 E79.40842
G1 X96.810 Y93.837 E79.43200
G1 X106.163 Y103.190 E79.74673
G1 X106.163 Y102.199 E79.77031
G1 X97.801 Y93.837 E80.05170
G1 X98.792 Y93.837 E80.07528
G1 X106.163 Y101.208 E80.32331
G1 X106.163 Y100.217 E80.34690
G1 X99.783 Y93.837 E80.56159
G1 X100.774 Y93.837 E80.58517
G1 X106.163 Y99.226 E80.76651
G1 X106.163 Y98.235 E80.79009
G1 X101.765 Y93.837 E80.93808
G1 X102.756 Y93.837 E80.96167
G1 X106.163 Y97.244 E81.07631
G1 X106.163 Y96.253 E81.09989
G1 X103.747 Y93.837 E81.18119
G1 X104.738 Y93.837 E81.20477
G1 X106.163 Y95.262 E81.25273
G1 Z2.700 F7800.000
G1 X93.471 Y93.471 F7800.000
G1 F3600
G1 X106.529 Y93.471 E81.60497
G1 X106.529 Y106.529 E81.95722
G1 X93.471 Y106.529 E82.30947
G1 X93.471 Y93.546 E82.65969
G1 X92.836 Y92.836 F7800.000
G1 F3600
G1 X107.164 Y92.836 E83.04623
G1 X107.164 Y107.164 E83.43277
G1 X92.836 Y107.164 E83.81931
G1 X92.836 Y92.911 E84.20383
G1 X92.275 Y92.275 F7800.000
G1 F1800
G1 X107.725 Y92.275 E84.52226
G1 X107.725 Y107.725 E84.84069
G1 X92.275 Y107.725 E85.15912
G1 X92.275 Y92.350 E85.47601
G1 X92.758 Y92.404 F7800.000
G1 X95.262 Y93.837 F7800.000
G1 F4800
G1 X93.837 Y95.262 E85.52396
G1 X93.837 Y96.253 E85.54754
G1 X96.253 Y93.837 E85.62884
G1 X97.244 Y93.837 E85.65242
G1 X93.837 Y97.244 E85.76707
G1 X93.837 Y98.235 E85.79065
G1 X98.235 Y93.837 E85.93864
G1 X99.226 Y93.837 E85.96222
G1 X93.837 Y99.226 E86.14357
G1 X93.837 Y100.217 E86.16715
G1 X100.217 Y93.837 E86.38184
G1 X101.208 Y93.837 E86.40542
G1 X93.837 Y101.208 E86.65346
G1 X93.837 Y102.199 E86.67704
G1 X102.199 Y93.837 E86.95842
G1 X103.190 Y93.837 E86.98200
G1 X93.837 Y103.190 E87.29674
G1 X93.837 Y104.181 E87.32032
G1 X104.181 Y93.837 E87.66840
G1 X105.172 Y93.837 E87.69198
G1 X93.837 Y105.172 E88.07341
G1 X93.837 Y106.163 E88.09699
G1 X106.163 Y93.837 E88.51176
G1 X106.163 Y94.828 E88.53534
G1 X94.828 Y106.163 E88.91677
G1 X95.819 Y106.163 E88.94035
G1 X106.163 Y95.819 E89.28843
G1 X106.163 Y96.810 E89.31201
G1 X96.810 Y106.163 E89.62675
G1 X97.801 Y106.163 E89.65033
G1 X106.163 Y97.801 E89.93171
G1 X106.163 Y98.792 E89.95529
G1 X98.792 Y106.163 E90.20333
G1 X99.783 Y106.163 E90.22691
G1 X106.163 Y99.783 E90.44160
G1 X106.163 Y100.774 E90.46518
G1 X100.774 Y106.163 E90.64652
G1 X101.765 Y106.163 E90.67010
G1 X106.163 Y101.765 E90.81810
G1 X106.163 Y102.756 E90.84168
G1 X102.756 Y106.163 E90.95633
G1 X103.747 Y106.163 E90.97991
G1 X106.163 Y103.747 E91.06121
G1 X106.163 Y104.738 E91.08479
G1 X104.738 Y106.163 E91.13274
G1 Z3.000 F7800.000
G1 X93.471 Y93.471 F7800.000
G1 F3600
G1 X106.529 Y93.471 E91.48499
G1 X106.529 Y106.529 E91.83724
G1 X93.471 Y106.529 E92.18948
G1 X93.471 Y93.546 E92.53971
G1 X92.836 Y92.836 F7800.000
G1 F3600
G1 X107.164 Y92.836 E92.92625
G1 X107.164 Y107.164 E93.31279
G1 X92.836 Y107.164 E93.69933
G1 X92.836 Y92.911 E94.08385
G1 X92.275 Y92.275 F7800.000
G1 F1800
G1 X107.725 Y92.275 E94.40228
G1 X107.725 Y107.725 E94.72071
G1 X92.275 Y107.725 E95.03914
G1 X92.275 Y92.350 E95.35602
G1 X92.758 Y92.404 F7800.000
G1 X93.837 Y104.738 F7800.000
G1 F4800
G1 X95.262 Y106.163 E95.40397
G1 X96.253 Y106.163 E95.42755
G1 X93.837 Y103.747 E95.50885
G1 X93.837 Y102.756 E95.53244
G1 X97.244 Y106.163 E95.64708
G1 X98.235 Y106.163 E95.67066
G1 X93.837 Y101.765 E95.81866
G1 X93.837 Y100.774 E95.84224
G1 X99.226 Y106.163 E96.02358
G1 X100.217 Y106.163 E96.04716
G1 X93.837 Y99.783 E96.26185
G1 X93.837 Y98.792 E96.28543
G1 X101.208 Y106.163 E96.53347
G1 X102.199 Y106.163 E96.55705
G1 X93.837 Y97.801 E96.83844
G1 X93.837 Y96.810 E96.86202
G1 X103.190 Y106.163 E97.17675
G1 X104.181 Y106.163 E97.20033
G1 X93.837 Y95.819 E97.54841
G1 X93.837 Y94.828 E97.57199
G1 X105.172 Y106.163 E97.95342
G1 X106.163 Y106.163 E97.97700
G1 X93.837 Y93.837 E98.39178
G1 X94.828 Y93.837 E98.41536
G1 X106.163 Y105.172 E98.79679
G1 X106.163 Y104.181 E98.82037
G1 X95.819 Y93.837 E99.16845
G1 X96.810 Y93.837 E99.19203
G1 X106.163 Y103.190 E99.50676
G1 X106.163 Y102.199 E99.53034
G1 X97.801 Y93.837 E99.81173
G1 X98.792 Y93.837 E99.83531
G1 X106.163 Y101.208 E100.08335
G1 X106.163 Y100.217 E100.10693
G1 X99.783 Y93.837 E100.32162
G1 X100.774 Y93.837 E100.34520
G1 X106.163 Y99.226 E100.52654
G1 X106.163 Y98.235 E100.55012
G1 X101.765 Y93.837 E100.69812
G1 X102.756 Y93.837 E100.72170
G1 X106.163 Y97.244 E100.83634
G1 X106.163 Y96.253 E100.85993
G1 X103.747 Y93.837 E100.94123
G1 X104.738 Y93.837 E100.96481
G1 X106.163 Y95.262 E101.01276
G1 Z3.300 F7800.000
G1 X93.471 Y93.471 F7800.000
G1 F3600
G1 X106.529 Y93.471 E101.36501
G1 X106.529 Y106.529 E101.71725
G1 X93.471 Y106.529 E102.06950
G1 X93.471 Y93.546 E102.41972
G1 X92.836 Y92.836 F7800.000
G1 F3600
G1 X107.164 Y92.836 E102.80626
G1 X107.164 Y107.164 E103.19281
G1 X92.836 Y107.164 E103.57935
G1 X92.836 Y92.911 E103.96386
G1 X92.275 Y92.275 F7800.000
G1 F1800
G1 X107.725 Y92.275 E104.28229
G1 X107.725 Y107.725 E104.60072
G1 X92.275 Y107.725 E104.91915
G1 X92.275 Y92.350 E105.23604
G1 X92.758 Y92.404 F7800.000
G1 X95.262 Y93.837 F7800.000
G1 F4800
G1 X93.837 Y95.262 E105.28399
G1 X93.837 Y96.253 E105.30757
G1 X96.253 Y93.837 E105.38887
G1 X97.244 Y93.837 E105.41245
G1 X93.837 Y97.244 E105.52710
G1 X93.837 Y98.235 E105.55068
G1 X98.235 Y93.837 E105.69868
G1 X99.226 Y93.837 E105.72226
G1 X93.837 Y99.226 E105.90360
G1 X93.837 Y100.217 E105.92718
G1 X100.217 Y93.837 E106.14187
G1 X101.208 Y93.837 E106.16545
G1 X93.837 Y101.208 E106.41349
G1 X93.837 Y102.199 E106.43707
G1 X102.199 Y93.837 E106.71845
G1 X103.190 Y93.837 E106.74203
G1 X93.837 Y103.190 E107.05677
G1 X93.837 Y104.181 E107.08035
G1 X104.181 Y93.837 E107.42843
G1 X105.172 Y93.837 E107.45201
G1 X93.837 Y105.172 E107.83344
G1 X93.837 Y106.163 E107.85702
G1 X106.163 Y93.837 E108.27179
G1 X106.163 Y94.828 E108.29537
G1 X94.828 Y106.163 E108.67680
G1 X95.819 Y106.163 E108.70038
G1 X106.163 Y95.819 E109.04846
G1 X106.163 Y96.810 E109.07204
G1 X96.810 Y106.163 E109.38678
G1 X97.801 Y106.163 E109.41036
G1 X106.163 Y97.801 E109.69174
G1 X106.163 Y98.792 E109.71532
G1 X98.792 Y106.163 E109.96336
G1 X99.783 Y106.163 E109.98694
G1 X106.163 Y99.783 E110.20163
G1 X106.163 Y100.774 E110.22521
G1 X100.774 Y106.163 E110.40656
G1 X101.765 Y106.163 E110.43014
G1 X106.163 Y101.765 E110.57813
G1 X106.163 Y102.756 E110.60171
G1 X102.756 Y106.163 E110.71636
G1 X103.747 Y106.163 E110.73994
G1 X106.163 Y103.747 E110.82124
G1 X106.163 Y104.738 E110.84482
G1 X104.738 Y106.163 E110.89277
G1 Z3.600 F7800.000
G1 X93.471 Y93.471 F7800.000
G1 F3600
G1 X106.529 Y93.471 E111.24502
G1 X106.529 Y106.529 E111.59727
G1 X93.471 Y106.529 E111.94952
G1 X93.471 Y93.546 E112.29974
G1 X92.836 Y92.836 F7800.000
G1 F3600
G1 X107.164 Y92.836 E112.68628
G1 X107.164 Y107.164 E113.07282
G1 X92.836 Y107.164 E113.45936
G1 X92.836 Y92.911 E113.84388
G1 X92.275 Y92.275 F7800.000
G1 F1800
G1 X107.725 Y92.275 E114.16231
G1 X107.725 Y107.725 E114.48074
G1 X92.275 Y107.725 E114.79917
G1 X92.275 Y92.350 E115.11605
G1 X92.758 Y92.404 F7800.000
G1 X93.837 Y104.738 F7800.000
G1 F4800
G1 X95.262 Y106.163 E115.16401
G1 X96.253 Y106.163 E115.18759
G1 X93.837 Y103.747 E115.26889
G1 X93.837 Y102.756 E115.29247
G1 X97.244 Y106.163 E115.40711
G1 X98.235 Y106.163 E115.43070
G1 X93.837 Y101.765 E115.57869
G1 X93.837 Y100.774 E115.60227
G1 X99.226 Y106.163 E115.78361
G1 X100.217 Y106.163 E115.80719
G1 X93.837 Y99.783 E116.02188
G1 X93.837 Y98.792 E116.04547
G1 X101.208 Y106.163 E116.29350
G1 X102.199 Y106.163 E116.31708
G1 X93.837 Y97.801 E116.59847
G1 X93.837 Y96.810 E116.62205
G1 X103.190 Y106.163 E116.93678
G1 X104.181 Y106.163 E116.96036
G1 X93.837 Y95.819 E117.30844
G1 X93.837 Y94.828 E117.33202
G1 X105.172 Y106.163 E117.71345
G1 X106.163 Y106.163 E117.73703
G1 X93.837 Y93.837 E118.15181
G1 X94.828 Y93.837 E118.17539
G1 X106.163 Y105.172 E118.55682
G1 X106.163 Y104.181 E118.58040
G1 X95.819 Y93.837 E118.92848
G1 X96.810 Y93.837 E118.95206
G1 X106.163 Y103.190 E119.26679
G1 X106.163 Y102.199 E119.29037
G1 X97.801 Y93.837 E119.57176
G1 X98.792 Y93.837 E119.59534
G1 X106.163 Y101.208 E119.84338
G1 X106.163 Y100.217 E119.86696
G1 X99.783 Y93.837 E120.08165
G1 X100.774 Y93.837 E120.10523
G1 X106.163 Y99.226 E120.28657
G1 X106.163 Y98.235 E120.31015
G1 X101.765 Y93.837 E120.45815
G1 X102.756 Y93.837 E120.48173
G1 X106.163 Y97.244 E120.59638
G1 X106.163 Y96.253 E120.61996
G1 X103.747 Y93.837 E120.70126
G1 X104.738 Y93.837 E120.72484
G1 X106.163 Y95.262 E120.77279
G1 Z3.900 F7800.000
G1 X93.471 Y93.471 F7800.000
G1 F3600
G1 X106.529 Y93.471 E121.12504
G1 X106.529 Y106.529 E121.47728
G1 X93.471 Y106.529 E121.82953
G1 X93.471 Y93.546 E122.17976
G1 X92.836 Y92.836 F7800.000
G1 F3600
G1 X107.164 Y92.836 E122.56630
G1 X107.164 Y107.164 E122.95284
G1 X92.836 Y107.164 E123.33938
G1 X92.836 Y92.911 E123.72390
G1 X92.275 Y92.275 F7800.000
G1 F1800
G1 X107.725 Y92.275 E124.04233
G1 X107.725 Y107.725 E124.36076
G1 X92.275 Y107.725 E124.67919
G1 X92.275 Y92.350 E124.99607
G1 X92.758 Y92.404 F7800.000
G1 X95.262 Y93.837 F7800.000
G1 F4800
G1 X93.837 Y95.262 E125.04402
G1 X93.837 Y96.253 E125.06760
G1 X96.253 Y93.837 E125.14890
G1 X97.244 Y93.837 E125.17248
G1 X93.837 Y97.244 E125.28713
G1 X93.837 Y98.235 E125.31071
G1 X98.235 Y93.837 E125.45871
G1 X99.226 Y93.837 E125.48229
G1 X93.837 Y99.226 E125.66363
G1 X93.837 Y100.217 E125.68721
G1 X100.217 Y93.837 E125.90190
G1 X101.208 Y93.837 E125.92548
G1 X93.837 Y101.208 E126.17352
G1 X93.837 Y102.199 E126.19710
G1 X102.199 Y93.837 E126.47849
G1 X103.190 Y93.837 E126.50207
G1 X93.837 Y103.190 E126.81680
G1 X93.837 Y104.181 E126.84038
G1 X104.181 Y93.837 E127.18846
G1 X105.172 Y93.837 E127.21204
G1 X93.837 Y105.172 E127.59347
G1 X93.837 Y106.163 E127.61705
G1 X106.163 Y93.837 E128.03183
G1 X106.163 Y94.828 E128.05541
G1 X94.828 Y106.163 E128.43683
G1 X95.819 Y106.163 E128.46041
G1 X106.163 Y95.819 E128.80850
G1 X106.163 Y96.810 E128.83208
G1 X96.810 Y106.163 E129.14681
G1 X97.801 Y106.163 E129.17039
G1 X106.163 Y97.801 E129.45178
G1 X106.163 Y98.792 E129.47536
G1 X98.792 Y106.163 E129.72339
G1 X99.783 Y106.163 E129.74697
G1 X106.163 Y99.783 E129.96166
G1 X106.163 Y100.774 E129.98525
G1 X100.774 Y106.163 E130.16659
G1 X101.765 Y106.163 E130.19017
G1 X106.163 Y101.765 E130.33816
G1 X106.163 Y102.756 E130.36174
G1 X102.756 Y106.163 E130.47639
G1 X103.747 Y106.163 E130.49997
G1 X106.163 Y103.747 E130.58127
G1 X106.163 Y104.738 E130.60485
G1 X104.738 Y106.163 E130.65281
G1 Z4.200 F7800.000
G1 X93.471 Y93.471 F7800.000
G1 F3600
G1 X106.529 Y93.471 E131.00505
G1 X106.529 Y106.529 E131.35730
G1 X93.471 Y106.529 E131.70955
G1 X93.471 Y93.546 E132.05977
G1 X92.836 Y92.836 F7800.000
G1 F3600
G1 X107.164 Y92.836 E132.44631
G1 X107.164 Y107.164 E132.83285
G1 X92.836 Y107.164 E133.21939
G1 X92.836 Y92.911 E133.60391
G1 X92.275 Y92.275 F7800.000
G1 F1800
G1 X107.725 Y92.275 E133.92234
G1 X107.725 Y107.725 E134.24077
G1 X92.275 Y107.725 E134.55920
G1 X92.275 Y92.350 E134.87609
G1 X92.758 Y92.404 F7800.000
G1 X93.837 Y104.738 F7800.000
G1 F4800
G1 X95.262 Y106.163 E134.92404
G1 X96.253 Y106.163 E134.94762
G1 X93.837 Y103.747 E135.02892
G1 X93.837 Y102.756 E135.05250
G1 X97.244 Y106.163 E135.16715
G1 X98.235 Y106.163 E135.19073
G1 X93.837 Y101.765 E135.33872
G1 X93.837 Y100.774 E135.36230
G1 X99.226 Y106.163 E135.54365
G1 X100.217 Y106.163 E135.56723
G1 X93.837 Y99.783 E135.78192
G1 X93.837 Y98.792 E135.80550
G1 X101.208 Y106.163 E136.05354
G1 X102.199 Y106.163 E136.07712
G1 X93.837 Y97.801 E136.35850
G1 X93.837 Y96.810 E136.38208
G1 X103.190 Y106.163 E136.69682
G1 X104.181 Y106.163 E136.72040
G1 X93.837 Y95.819 E137.06848
G1 X93.837 Y94.828 E137.09206
G1 X105.172 Y106.163 E137.47349
G1 X106.163 Y106.163 E137.49707
G1 X93.837 Y93.837 E137.91184
G1 X94.828 Y93.837 E137.93542
G1 X106.163 Y105.172 E138.31685
G1 X106.163 Y104.181 E138.34043
G1 X95.819 Y93.837 E138.68851
G1 X96.810 Y93.837 E138.71209
G1 X106.163 Y103.190 E139.02683
G1 X106.163 Y102.199 E139.05041
G1 X97.801 Y93.837 E139.33179
G1 X98.792 Y93.837 E139.35537
G1 X106.163 Y101.208 E139.60341
G1 X106.163 Y100.217 E139.62699
G1 X99.783 Y93.837 E139.84168
G1 X100.774 Y93.837 E139.86526
G1 X106.163 Y99.226 E140.04660
G1 X106.163 Y98.235 E140.07018
G1 X101.765 Y93.837 E140.21818
G1 X102.756 Y93.837 E140.24176
G1 X106.163 Y97.244 E140.35641
G1 X106.163 Y96.253 E140.37999
G1 X103.747 Y93.837 E140.46129
G1 X104.738 Y93.837 E140.48487
G1 X106.163 Y95.262 E140.53282
M106 S219.3
G1 Z4.500 F7800.000
G1 X93.471 Y93.471 F7800.000
G1 F3600
G1 X106.529 Y93.471 E140.88507
G1 X106.529 Y106.529 E141.23732
G1 X93.471 Y106.529 E141.58956
G1 X93.471 Y93.546 E141.93979
G1 X92.836 Y92.836 F7800.000
G1 F3600
G1 X107.164 Y92.836 E142.32633
G1 X107.164 Y107.164 E142.71287
G1 X92.836 Y107.164 E143.09941
G1 X92.836 Y92.911 E143.48393
G1 X92.275 Y92.275 F7800.000
G1 F1800
G1 X107.725 Y92.275 E143.80236
G1 X107.725 Y107.725 E144.12079
G1 X92.275 Y107.725 E144.43922
G1 X92.275 Y92.350 E144.75610
G1 X92.758 Y92.404 F7800.000
G1 X94.354 Y93.860 F7800.000
G1 F1200
G1 X93.860 Y94.354 E144.77513
G1 X93.860 Y95.261 E144.79980
G1 X95.261 Y93.860 E144.85371
G1 X96.167 Y93.860 E144.87838
G1 X93.860 Y96.167 E144.96718
G1 X93.860 Y97.074 E144.99185
G1 X97.074 Y93.860 E145.11554
G1 X97.981 Y93.860 E145.14021
G1 X93.860 Y97.981 E145.29878
G1 X93.860 Y98.887 E145.32345
G1 X98.887 Y93.860 E145.51691
G1 X99.794 Y93.860 E145.54157
G1 X93.860 Y99.794 E145.76992
G1 X93.860 Y100.701 E145.79459
G1 X100.701 Y93.860 E146.05782
G1 X101.607 Y93.860 E146.08249
G1 X93.860 Y101.607 E146.38060
G1 X93.860 Y102.514 E146.40527
G1 X102.514 Y93.860 E146.73827
G1 X103.420 Y93.860 E146.76294
G1 X93.860 Y103.420 E147.13083
G1 X93.860 Y104.327 E147.15550
G1 X104.327 Y93.860 E147.55827
G1 X105.234 Y93.860 E147.58294
G1 X93.860 Y105.234 E148.02060
G1 X93.860 Y106.140 E148.04527
G1 X106.140 Y93.860 E148.51781
G1 X106.140 Y94.766 E148.54248
G1 X94.766 Y106.140 E148.98014
G1 X95.673 Y106.140 E149.00481
G1 X106.140 Y95.673 E149.40758
G1 X106.140 Y96.580 E149.43225
G1 X96.580 Y106.140 E149.80014
G1 X97.486 Y106.140 E149.82481
G1 X106.140 Y97.486 E150.15781
G1 X106.140 Y98.393 E150.18248
G1 X98.393 Y106.140 E150.48060
G1 X99.299 Y106.140 E150.50526
G1 X106.140 Y99.299 E150.76849
G1 X106.140 Y100.206 E150.79316
G1 X100.206 Y106.140 E151.02151
G1 X101.113 Y106.140 E151.04617
G1 X106.140 Y101.113 E151.23963
G1 X106.140 Y102.019 E151.26430
G1 X102.019 Y106.140 E151.42287
G1 X102.926 Y106.140 E151.44754
G1 X106.140 Y102.926 E151.57123
G1 X106.140 Y103.833 E151.59590
G1 X103.833 Y106.140 E151.68470
G1 X104.739 Y106.140 E151.70937
G1 X106.140 Y104.739 E151.76328
G1 X106.140 Y105.646 E151.78795
G1 X105.646 Y106.140 E151.80698
G1 Z4.800 F7800.000
G1 X93.471 Y93.471 F7800.000
G1 F3600
G1 X106.529 Y93.471 E152.15923
G1 X106.529 Y106.529 E152.51147
G1 X93.471 Y106.529 E152.86372
G1 X93.471 Y93.546 E153.21394
G1 X92.836 Y92.836 F7800.000
G1 F3600
G1 X107.164 Y92.836 E153.60048
G1 X107.164 Y107.164 E153.98703
G1 X92.836 Y107.164 E154.37357
G1 X92.836 Y92.911 E154.75808
G1 X92.275 Y92.275 F7800.000
G1 F1800
G1 X107.725 Y92.275 E155.07651
G1 X107.725 Y107.725 E155.39494
G1 X92.275 Y107.725 E155.71337
G1 X92.275 Y92.350 E156.03026
G1 X92.758 Y92.404 F7800.000
G1 X93.860 Y105.646 F7800.000
G1 F1200
G1 X94.354 Y106.140 E156.04929
G1 X95.261 Y106.140 E156.07396
G1 X93.860 Y104.739 E156.12787
G1 X93.860 Y103.833 E156.15254
G1 X96.167 Y106.140 E156.24134
G1 X97.074 Y106.140 E156.26601
G1 X93.860 Y102.926 E156.38969
G1 X93.860 Y102.019 E156.41436
G1 X97.981 Y106.140 E156.57294
G1 X98.887 Y106.140 E156.59760
G1 X93.860 Y101.113 E156.79106
G1 X93.860 Y100.206 E156.81573
G1 X99.794 Y106.140 E157.04408
G1 X100.701 Y106.140 E157.06874
G1 X93.860 Y99.299 E157.33197
G1 X93.860 Y98.393 E157.35664
G1 X101.607 Y106.140 E157.65476
G1 X102.514 Y106.140 E157.67943
G1 X93.860 Y97.486 E158.01243
G1 X93.860 Y96.580 E158.03710
G1 X103.420 Y106.140 E158.40499
G1 X104.327 Y106.140 E158.42965
G1 X93.860 Y95.673 E158.83243
G1 X93.860 Y94.766 E158.85710
G1 X105.234 Y106.140 E159.29476
G1 X106.140 Y106.140 E159.31942
G1 X93.860 Y93.860 E159.79197
G1 X94.766 Y93.860 E159.81664
G1 X106.140 Y105.234 E160.25430
G1 X106.140 Y104.327 E160.27897
G1 X95.673 Y93.860 E160.68174
G1 X96.580 Y93.860 E160.70641
G1 X106.140 Y103.420 E161.07430
G1 X106.140 Y102.514 E161.09897
G1 X97.486 Y93.860 E161.43197
G1 X98.393 Y93.860 E161.45664
G1 X106.140 Y101.607 E161.75475
G1 X106.140 Y100.701 E161.77942
G1 X99.299 Y93.860 E162.04265
G1 X100.206 Y93.860 E162.06732
G1 X106.140 Y99.794 E162.29566
G1 X106.140 Y98.887 E162.32033
G1 X101.113 Y93.860 E162.51379
G1 X102.019 Y93.860 E162.53846
G1 X106.140 Y97.981 E162.69703
G1 X106.140 Y97.074 E162.72170
G1 X102.926 Y93.860 E162.84539
G1 X103.833 Y93.860 E162.87005
G1 X106.140 Y96.167 E162.95885
G1 X106.140 Y95.261 E162.98352
G1 X104.739 Y93.860 E163.03744
G1 X105.646 Y93.860 E163.06211
G1 X106.140 Y94.354 E163.08113
M106 S204
G1 Z5.100 F7800.000
G1 E161.08113 F2400.00000
G92 E0
G1 X93.471 Y93.471 F7800.000
G1 E2.00000 F2400.00000
G1 F3600
G1 X106.529 Y93.471 E2.35225
G1 X106.529 Y106.529 E2.70449
G1 X93.471 Y106.529 E3.05674
G1 X93.471 Y93.546 E3.40697
G1 X92.836 Y92.836 F7800.000
G1 F3600
G1 X107.164 Y92.836 E3.79351
G1 X107.164 Y107.164 E4.18005
G1 X92.836 Y107.164 E4.56659
G1 X92.836 Y92.911 E4.95111
G1 X92.275 Y92.275 F7800.000
G1 F1800
G1 X107.725 Y92.275 E5.26954
G1 X107.725 Y107.725 E5.58797
G1 X92.275 Y107.725 E5.90640
G1 X92.275 Y92.350 E6.22328
G1 X92.758 Y92.404 F7800.000
G1 E4.22328 F2400.00000
G92 E0
G1 X94.354 Y93.860 F7800.000
G1 E2.00000 F2400.00000
G1 F900
G1 X93.860 Y94.354 E2.01903
G1 X93.860 Y95.261 E2.04370
G1 X95.261 Y93.860 E2.09761
G1 X96.167 Y93.860 E2.12228
G1 X93.860 Y96.167 E2.21108
G1 X93.860 Y97.074 E2.23575
G1 X97.074 Y93.860 E2.35944
G1 X97.981 Y93.860 E2.38410
G1 X93.860 Y97.981 E2.54268
G1 X93.860 Y98.887 E2.56735
G1 X98.887 Y93.860 E2.76080
G1 X99.794 Y93.860 E2.78547
G1 X93.860 Y99.794 E3.01382
G1 X93.860 Y100.701 E3.03849
G1 X100.701 Y93.860 E3.30172
G1 X101.607 Y93.860 E3.32638
G1 X93.860 Y101.607 E3.62450
G1 X93.860 Y102.514 E3.64917
G1 X102.514 Y93.860 E3.98217
G1 X103.420 Y93.860 E4.00684
G1 X93.860 Y103.420 E4.37473
G1 X93.860 Y104.327 E4.39940
G1 X104.327 Y93.860 E4.80217
G1 X105.234 Y93.860 E4.82684
G1 X93.860 Y105.234 E5.26450
G1 X93.860 Y106.140 E5.28917
G1 X106.140 Y93.860 E5.76171
G1 X106.140 Y94.766 E5.78638
G1 X94.766 Y106.140 E6.22404
G1 X95.673 Y106.140 E6.24871
G1 X106.140 Y95.673 E6.65148
G1 X106.140 Y96.580 E6.67615
G1 X96.580 Y106.140 E7.04404
G1 X97.486 Y106.140 E7.06871
G1 X106.140 Y97.486 E7.40171
G1 X106.140 Y98.393 E7.42638
G1 X98.393 Y106.140 E7.72449
G1 X99.299 Y106.140 E7.74916
G1 X106.140 Y99.299 E8.01239
G1 X106.140 Y100.206 E8.03706
G1 X100.206 Y106.140 E8.26540
G1 X101.113 Y106.140 E8.29007
G1 X106.140 Y101.113 E8.48353
G1 X106.140 Y102.019 E8.50820
G1 X102.019 Y106.140 E8.66677
G1 X102.926 Y106.140 E8.69144
G1 X106.140 Y102.926 E8.81513
G1 X106.140 Y103.833 E8.83979
G1 X103.833 Y106.140 E8.92860
G1 X104.739 Y106.140 E8.95326
G1 X106.140 Y104.739 E9.00718
G1 X106.140 Y105.646 E9.03185
G1 X105.646 Y106.140 E9.05088
G1 E7.05088 F2400.00000
G92 E0
M107
; Filament-specific end gcode 
;END gcode for filament

M104 S0 ; turn off temperature
G28 X0  ; home X axis
M84     ; disable motors

M140 S0 ; set bed temperature
; filament used = 176.3mm (1.2cm3)
; total filament cost = 0.0

; avoid_crossing_perimeters = 0
; bed_shape = 0x0,200x0,200x200,0x200
; bed_temperature = 0
; before_layer_gcode = 
; between_objects_gcode = 
; bridge_acceleration = 0
; bridge_fan_speed = 100
; brim_connections_width = 0
; brim_width = 0
; complete_objects = 0
; cooling = 1
; default_acceleration = 0
; disable_fan_first_layers = 3
; duplicate_distance = 6
; end_filament_gcode = "; Filament-specific end gcode \n;END gcode for filament\n"
; end_gcode = M104 S0 ; turn off temperature\nG28 X0  ; home X axis\nM84     ; disable motors\n
; extruder_clearance_height = 20
; extruder_clearance_radius = 20
; extruder_offset = 0x0
; extrusion_axis = E
; extrusion_multiplier = 1
; fan_always_on = 0
; fan_below_layer_time = 60
; filament_colour = #FFFFFF
; filament_cost = 0
; filament_density = 0
; filament_diameter = 3
; filament_max_volumetric_speed = 0
; filament_notes = ""
; first_layer_acceleration = 0
; first_layer_bed_temperature = 0
; first_layer_extrusion_width = 200%
; first_layer_speed = 30
; first_layer_temperature = 205
; gcode_arcs = 0
; gcode_comments = 0
; gcode_flavor = reprap
; has_heatbed = 1
; infill_acceleration = 0
; infill_first = 0
; interior_brim_width = 0
; layer_gcode = 
; max_fan_speed = 100
; max_layer_height = 0.3
; max_print_speed = 80
; max_volumetric_speed = 0
; min_fan_speed = 35
; min_layer_height = 0.15
; min_print_speed = 10
; min_skirt_length = 0
; notes = 
; nozzle_diameter = 0.5
; only_retract_when_crossing_perimeters = 1
; ooze_prevention = 0
; output_filename_format = [input_filename_base].gcode
; perimeter_acceleration = 0
; post_process = 
; pressure_advance = 0
; printer_notes = 
; resolution = 0
; retract_before_travel = 2
; retract_layer_change = 0
; retract_length = 2
; retract_length_toolchange = 10
; retract_lift = 0
; retract_lift_above = 0
; retract_lift_below = 0
; retract_restart_extra = 0
; retract_restart_extra_toolchange = 0
; retract_speed = 40
; skirt_distance = 6
; skirt_height = 1
; skirts = 0
; slowdown_below_layer_time = 5
; spiral_vase = 0
; standby_temperature_delta = -5
; start_filament_gcode = "; Filament gcode\n"
; start_gcode = G28 ; home all axes\nG1 Z5 F5000 ; lift nozzle\n
; temperature = 200
; threads = 8
; toolchange_gcode = 
; travel_speed = 130
; use_firmware_retraction = 0
; use_relative_e_distances = 0
; use_set_and_wait_bed = 0
; use_set_and_wait_extruder = 0
; use_volumetric_e = 0
; vibration_limit = 0
; wipe = 0
; z_offset = 0
; z_steps_per_mm = 0
; adaptive_slicing = 0
; adaptive_slicing_quality = 75%
; dont_support_bridges = 1
; extrusion_width = 0
; first_layer_height = 0.3
; infill_only_where_needed = 0
; interface_shells = 0
; layer_height = 0.3
; match_horizontal_surfaces = 0
; raft_layers = 0
; regions_overlap = 0
; seam_position = aligned
; sequential_print_priority = 0
; support_material = 0
; support_material_angle = 0
; support_material_buildplate_only = 0
; support_material_contact_distance = 0.2
; support_material_enforce_layers = 0
; support_material_extruder = 1
; support_material_extrusion_width = 0
; support_material_interface_extruder = 1
; support_material_interface_extrusion_width = 0
; support_material_interface_layers = 3
; support_material_interface_spacing = 0
; support_material_interface_speed = 100%
; support_material_max_layers = 0
; support_material_pattern = pillars
; support_material_spacing = 2.5
; support_material_speed = 60
; support_material_threshold = 60%
; xy_size_compensation = 0
; bottom_infill_pattern = rectilinear
; bottom_solid_layers = 3
; bridge_flow_ratio = 1
; bridge_speed = 60
; external_perimeter_extrusion_width = 0
; external_perimeter_speed = 50%
; external_perimeters_first = 0
; extra_perimeters = 1
; fill_angle = 45
; fill_density = 80%
; fill_gaps = 1
; fill_pattern = rectilinear
; gap_fill_speed = 20
; infill_every_layers = 1
; infill_extruder = 1
; infill_extrusion_width = 0
; infill_overlap = 55%
; infill_speed = 80
; overhangs = 1
; perimeter_extruder = 1
; perimeter_extrusion_width = 0
; perimeter_speed = 60
; perimeters = 3
; small_perimeter_speed = 15
; solid_infill_below_area = 70
; solid_infill_every_layers = 0
; solid_infill_extruder = 1
; solid_infill_extrusion_width = 0
; solid_infill_speed = 20
; thin_walls = 1
; top_infill_extrusion_width = 0
; top_infill_pattern = rectilinear
; top_solid_infill_speed = 15
; top_solid_layers = 3
