; generated by Slic3r 1.2.9 on 2019-07-27 at 12:14:39

; external perimeters extrusion width = 0.50mm
; perimeters extrusion width = 0.58mm
; infill extrusion width = 0.58mm
; solid infill extrusion width = 0.58mm
; top infill extrusion width = 0.58mm

M107
M104 S200 ; set temperature
G28 ; home all axes
G1 Z5 F5000 ; lift nozzle

M109 S200 ; wait for temperature to be reached
G21 ; set units to millimeters
G90 ; use absolute coordinates
M82 ; use absolute distances for extrusion
G92 E0
G1 Z0.400 F7800.000
G1 E-2.00000 F2400.00000
G92 E0
G1 X108.379 Y92.147 F7800.000
G1 E2.00000 F2400.00000
G1 X107.853 Y91.621 E2.27033 F1800.000
G1 X106.985 Y91.621 E2.58595
G1 X108.379 Y93.015 E3.30263
G1 X108.379 Y93.882 E3.61824
G1 X106.118 Y91.621 E4.78127
G1 X105.250 Y91.621 E5.09689
G1 X108.379 Y94.750 E6.70627
G1 X108.379 Y95.618 E7.02188
G1 X104.382 Y91.621 E9.07761
G1 X103.514 Y91.621 E9.39323
G1 X108.379 Y96.486 E11.89531
G1 X108.379 Y97.353 E12.21092
G1 X102.647 Y91.621 E15.15935
G1 X101.779 Y91.621 E15.47497
G1 X108.379 Y98.221 E18.86974
G1 X108.379 Y99.089 E19.18536
G1 X100.911 Y91.621 E23.02649
G1 X100.043 Y91.621 E23.34211
G1 X108.379 Y99.957 E27.62958
G1 X108.379 Y100.824 E27.94520
G1 X99.176 Y91.621 E32.67902
G1 X98.308 Y91.621 E32.99464
G1 X108.379 Y101.692 E38.17482
G1 X108.379 Y102.560 E38.49043
G1 X97.440 Y91.621 E44.11696
G1 X96.572 Y91.621 E44.43257
G1 X108.379 Y103.428 E50.50545
G1 X108.379 Y104.295 E50.82106
G1 X95.705 Y91.621 E57.34029
G1 X94.837 Y91.621 E57.65590
G1 X108.379 Y105.163 E64.62148
G1 X108.379 Y106.031 E64.93709
G1 X93.969 Y91.621 E72.34902
G1 X93.101 Y91.621 E72.66463
G1 X108.379 Y106.899 E80.52291
G1 X108.379 Y107.766 E80.83852
G1 X92.234 Y91.621 E89.14314
G1 X91.621 Y91.877 E89.38447
G1 X108.123 Y108.379 E97.87271
G1 X107.256 Y108.379 E98.18833
G1 X91.621 Y92.744 E106.23023
G1 X91.621 Y93.612 E106.54585
G1 X106.388 Y108.379 E114.14139
G1 X105.520 Y108.379 E114.45701
G1 X91.621 Y94.480 E121.60621
G1 X91.621 Y95.348 E121.92183
G1 X104.652 Y108.379 E128.62467
G1 X103.785 Y108.379 E128.94029
G1 X91.621 Y96.215 E135.19679
G1 X91.621 Y97.083 E135.51241
G1 X102.917 Y108.379 E141.32256
G1 X102.049 Y108.379 E141.63817
G1 X91.621 Y97.951 E147.00197
G1 X91.621 Y98.819 E147.31759
G1 X101.181 Y108.379 E152.23504
G1 X100.314 Y108.379 E152.55066
G1 X91.621 Y99.686 E157.02176
G1 X91.621 Y100.554 E157.33738
G1 X99.446 Y108.379 E161.36213
G1 X98.578 Y108.379 E161.67774
G1 X91.621 Y101.422 E165.25615
G1 X91.621 Y102.290 E165.57176
G1 X97.710 Y108.379 E168.70381
G1 X96.843 Y108.379 E169.01943
G1 X91.621 Y103.157 E171.70513
G1 X91.621 Y104.025 E172.02075
G1 X95.975 Y108.379 E174.26010
G1 X95.107 Y108.379 E174.57572
G1 X91.621 Y104.893 E176.36872
G1 X91.621 Y105.761 E176.68434
G1 X94.239 Y108.379 E178.03099
G1 X93.372 Y108.379 E178.34661
G1 X91.621 Y106.628 E179.24692
G1 X91.621 Y107.496 E179.56253
G1 X92.504 Y108.379 E180.01649
G1 Z0.800 F7800.000
G1 X107.853 Y108.379 F7800.000
G1 X108.379 Y107.853 E180.20230 F4800.000
G1 X108.379 Y106.985 E180.41923
G1 X106.985 Y108.379 E180.91184
G1 X106.118 Y108.379 E181.12878
G1 X108.379 Y106.118 E181.92818
G1 X108.379 Y105.250 E182.14512
G1 X105.250 Y108.379 E183.25131
G1 X104.382 Y108.379 E183.46825
G1 X108.379 Y104.382 E184.88125
G1 X108.379 Y103.514 E185.09818
G1 X103.514 Y108.379 E186.81797
G1 X102.647 Y108.379 E187.03491
G1 X108.379 Y102.647 E189.06150
G1 X108.379 Y101.779 E189.27843
G1 X101.779 Y108.379 E191.61182
G1 X100.911 Y108.379 E191.82875
G1 X108.379 Y100.911 E194.46893
G1 X108.379 Y100.043 E194.68587
G1 X100.043 Y108.379 E197.63284
G1 X99.176 Y108.379 E197.84978
G1 X108.379 Y99.176 E201.10355
G1 X108.379 Y98.308 E201.32049
G1 X98.308 Y108.379 E204.88106
G1 X97.440 Y108.379 E205.09799
G1 X108.379 Y97.440 E208.96536
G1 X108.379 Y96.572 E209.18230
G1 X96.572 Y108.379 E213.35645
G1 X95.705 Y108.379 E213.57339
G1 X108.379 Y95.705 E218.05435
G1 X108.379 Y94.837 E218.27129
G1 X94.837 Y108.379 E223.05904
G1 X93.969 Y108.379 E223.27597
G1 X108.379 Y93.969 E228.37052
G1 X108.379 Y93.101 E228.58746
G1 X93.101 Y108.379 E233.98880
G1 X92.234 Y108.379 E234.20574
G1 X108.379 Y92.234 E239.91388
G1 X108.123 Y91.621 E240.07975
G1 X91.621 Y108.123 E245.91411
G1 X91.621 Y107.256 E246.13104
G1 X107.256 Y91.621 E251.65860
G1 X106.388 Y91.621 E251.87554
G1 X91.621 Y106.388 E257.09630
G1 X91.621 Y105.520 E257.31324
G1 X105.520 Y91.621 E262.22721
G1 X104.652 Y91.621 E262.44414
G1 X91.621 Y104.652 E267.05131
G1 X91.621 Y103.785 E267.26825
G1 X103.785 Y91.621 E271.56863
G1 X102.917 Y91.621 E271.78556
G1 X91.621 Y102.917 E275.77914
G1 X91.621 Y102.049 E275.99608
G1 X102.049 Y91.621 E279.68286
G1 X101.181 Y91.621 E279.89980
G1 X91.621 Y101.181 E283.27978
G1 X91.621 Y100.314 E283.49672
G1 X100.314 Y91.621 E286.56991
G1 X99.446 Y91.621 E286.78685
G1 X91.621 Y99.446 E289.55324
G1 X91.621 Y98.578 E289.77018
G1 X98.578 Y91.621 E292.22978
G1 X97.710 Y91.621 E292.44671
G1 X91.621 Y97.710 E294.59951
G1 X91.621 Y96.843 E294.81645
G1 X96.843 Y91.621 E296.66246
G1 X95.975 Y91.621 E296.87939
G1 X91.621 Y95.975 E298.41860
G1 X91.621 Y95.107 E298.63554
G1 X95.107 Y91.621 E299.86795
G1 X94.239 Y91.621 E300.08489
G1 X91.621 Y94.239 E301.01051
G1 X91.621 Y93.372 E301.22744
G1 X93.372 Y91.621 E301.84627
G1 X92.504 Y91.621 E302.06320
G1 X91.621 Y92.504 E302.37523
G1 Z1.200 F7800.000
G1 X92.504 Y108.379 F7800.000
G1 X91.621 Y107.496 E302.68725 F4800.000
G1 X91.621 Y106.628 E302.90419
G1 X93.372 Y108.379 E303.52301
G1 X94.239 Y108.379 E303.73994
G1 X91.621 Y105.761 E304.66556
G1 X91.621 Y104.893 E304.88250
G1 X95.107 Y108.379 E306.11491
G1 X95.975 Y108.379 E306.33185
G1 X91.621 Y104.025 E307.87106
G1 X91.621 Y103.157 E308.08799
G1 X96.843 Y108.379 E309.93400
G1 X97.710 Y108.379 E310.15094
G1 X91.621 Y102.290 E312.30374
G1 X91.621 Y101.422 E312.52067
G1 X98.578 Y108.379 E314.98027
G1 X99.446 Y108.379 E315.19721
G1 X91.621 Y100.554 E317.96360
G1 X91.621 Y99.686 E318.18054
G1 X100.314 Y108.379 E321.25373
G1 X101.181 Y108.379 E321.47066
G1 X91.621 Y98.819 E324.85065
G1 X91.621 Y97.951 E325.06759
G1 X102.049 Y108.379 E328.75437
G1 X102.917 Y108.379 E328.97131
G1 X91.621 Y97.083 E332.96488
G1 X91.621 Y96.215 E333.18182
G1 X103.785 Y108.379 E337.48219
G1 X104.652 Y108.379 E337.69913
G1 X91.621 Y95.348 E342.30630
G1 X91.621 Y94.480 E342.52324
G1 X105.520 Y108.379 E347.43720
G1 X106.388 Y108.379 E347.65414
G1 X91.621 Y93.612 E352.87490
G1 X91.621 Y92.744 E353.09184
G1 X107.256 Y108.379 E358.61940
G1 X108.123 Y108.379 E358.83634
G1 X91.621 Y91.877 E364.67069
G1 X92.234 Y91.621 E364.83656
G1 X108.379 Y107.766 E370.54470
G1 X108.379 Y106.899 E370.76164
G1 X93.101 Y91.621 E376.16299
G1 X93.969 Y91.621 E376.37992
G1 X108.379 Y106.031 E381.47447
G1 X108.379 Y105.163 E381.69141
G1 X94.837 Y91.621 E386.47916
G1 X95.705 Y91.621 E386.69610
G1 X108.379 Y104.295 E391.17705
G1 X108.379 Y103.428 E391.39399
G1 X96.572 Y91.621 E395.56815
G1 X97.440 Y91.621 E395.78509
G1 X108.379 Y102.560 E399.65245
G1 X108.379 Y101.692 E399.86939
G1 X98.308 Y91.621 E403.42996
G1 X99.176 Y91.621 E403.64690
G1 X108.379 Y100.824 E406.90067
G1 X108.379 Y99.957 E407.11760
G1 X100.043 Y91.621 E410.06458
G1 X100.911 Y91.621 E410.28152
G1 X108.379 Y99.089 E412.92170
G1 X108.379 Y98.221 E413.13863
G1 X101.779 Y91.621 E415.47202
G1 X102.647 Y91.621 E415.68895
G1 X108.379 Y97.353 E417.71554
G1 X108.379 Y96.486 E417.93248
G1 X103.514 Y91.621 E419.65227
G1 X104.382 Y91.621 E419.86921
G1 X108.379 Y95.618 E421.28220
G1 X108.379 Y94.750 E421.49914
G1 X105.250 Y91.621 E422.60534
G1 X106.118 Y91.621 E422.82227
G1 X108.379 Y93.882 E423.62168
G1 X108.379 Y93.015 E423.83861
G1 X106.985 Y91.621 E424.33122
G1 X107.853 Y91.621 E424.54816
G1 X108.379 Y92.147 E424.73397
M106 S249.9
G1 Z1.600 F7800.000
G1 X107.853 Y108.379 F7800.000
G1 X108.379 Y107.853 E424.91978 F4800.000
G1 X108.379 Y106.985 E425.13672
G1 X106.985 Y108.379 E425.62932
G1 X106.118 Y108.379 E425.84626
G1 X108.379 Y106.118 E426.64566
G1 X108.379 Y105.250 E426.86260
G1 X105.250 Y108.379 E427.96880
G1 X104.382 Y108.379 E428.18573
G1 X108.379 Y104.382 E429.59873
G1 X108.379 Y103.514 E429.81566
G1 X103.514 Y108.379 E431.53545
G1 X102.647 Y108.379 E431.75239
G1 X108.379 Y102.647 E433.77898
G1 X108.379 Y101.779 E433.99592
G1 X101.779 Y108.379 E436.32930
G1 X100.911 Y108.379 E436.54624
G1 X108.379 Y100.911 E439.18641
G1 X108.379 Y100.043 E439.40335
G1 X100.043 Y108.379 E442.35033
G1 X99.176 Y108.379 E442.56726
G1 X108.379 Y99.176 E445.82103
G1 X108.379 Y98.308 E446.03797
G1 X98.308 Y108.379 E449.59854
G1 X97.440 Y108.379 E449.81548
G1 X108.379 Y97.440 E453.68284
G1 X108.379 Y96.572 E453.89978
G1 X96.572 Y108.379 E458.07394
G1 X95.705 Y108.379 E458.29087
G1 X108.379 Y95.705 E462.77183
G1 X108.379 Y94.837 E462.98877
G1 X94.837 Y108.379 E467.77652
G1 X93.969 Y108.379 E467.99346
G1 X108.379 Y93.969 E473.08800
G1 X108.379 Y93.101 E473.30494
G1 X93.101 Y108.379 E478.70628
G1 X92.234 Y108.379 E478.92322
G1 X108.379 Y92.234 E484.63136
G1 X108.123 Y91.621 E484.79723
G1 X91.621 Y108.123 E490.63159
G1 X91.621 Y107.256 E490.84853
G1 X107.256 Y91.621 E496.37608
G1 X106.388 Y91.621 E496.59302
G1 X91.621 Y106.388 E501.81378
G1 X91.621 Y105.520 E502.03072
G1 X105.520 Y91.621 E506.94469
G1 X104.652 Y91.621 E507.16163
G1 X91.621 Y104.652 E511.76880
G1 X91.621 Y103.785 E511.98573
G1 X103.785 Y91.621 E516.28611
G1 X102.917 Y91.621 E516.50305
G1 X91.621 Y102.917 E520.49662
G1 X91.621 Y102.049 E520.71356
G1 X102.049 Y91.621 E524.40034
G1 X101.181 Y91.621 E524.61728
G1 X91.621 Y101.181 E527.99727
G1 X91.621 Y100.314 E528.21420
G1 X100.314 Y91.621 E531.28739
G1 X99.446 Y91.621 E531.50433
G1 X91.621 Y99.446 E534.27072
G1 X91.621 Y98.578 E534.48766
G1 X98.578 Y91.621 E536.94726
G1 X97.710 Y91.621 E537.16420
G1 X91.621 Y97.710 E539.31700
G1 X91.621 Y96.843 E539.53393
G1 X96.843 Y91.621 E541.37994
G1 X95.975 Y91.621 E541.59688
G1 X91.621 Y95.975 E543.13609
G1 X91.621 Y95.107 E543.35302
G1 X95.107 Y91.621 E544.58544
G1 X94.239 Y91.621 E544.80237
G1 X91.621 Y94.239 E545.72799
G1 X91.621 Y93.372 E545.94493
G1 X93.372 Y91.621 E546.56375
G1 X92.504 Y91.621 E546.78068
G1 X91.621 Y92.504 E547.09271
G1 Z2.000 F7800.000
G1 X92.504 Y108.379 F7800.000
G1 X91.621 Y107.496 E547.40473 F4800.000
G1 X91.621 Y106.628 E547.62167
G1 X93.372 Y108.379 E548.24049
G1 X94.239 Y108.379 E548.45743
G1 X91.621 Y105.761 E549.38304
G1 X91.621 Y104.893 E549.59998
G1 X95.107 Y108.379 E550.83239
G1 X95.975 Y108.379 E551.04933
G1 X91.621 Y104.025 E552.58854
G1 X91.621 Y103.157 E552.80548
G1 X96.843 Y108.379 E554.65148
G1 X97.710 Y108.379 E554.86842
G1 X91.621 Y102.290 E557.02122
G1 X91.621 Y101.422 E557.23816
G1 X98.578 Y108.379 E559.69775
G1 X99.446 Y108.379 E559.91469
G1 X91.621 Y100.554 E562.68108
G1 X91.621 Y99.686 E562.89802
G1 X100.314 Y108.379 E565.97121
G1 X101.181 Y108.379 E566.18815
G1 X91.621 Y98.819 E569.56813
G1 X91.621 Y97.951 E569.78507
G1 X102.049 Y108.379 E573.47185
G1 X102.917 Y108.379 E573.68879
G1 X91.621 Y97.083 E577.68236
G1 X91.621 Y96.215 E577.89930
G1 X103.785 Y108.379 E582.19968
G1 X104.652 Y108.379 E582.41661
G1 X91.621 Y95.348 E587.02378
G1 X91.621 Y94.480 E587.24072
G1 X105.520 Y108.379 E592.15469
G1 X106.388 Y108.379 E592.37162
G1 X91.621 Y93.612 E597.59239
G1 X91.621 Y92.744 E597.80932
G1 X107.256 Y108.379 E603.33688
G1 X108.123 Y108.379 E603.55382
G1 X91.621 Y91.877 E609.38817
G1 X92.234 Y91.621 E609.55405
G1 X108.379 Y107.766 E615.26219
G1 X108.379 Y106.899 E615.47912
G1 X93.101 Y91.621 E620.88047
G1 X93.969 Y91.621 E621.09741
G1 X108.379 Y106.031 E626.19195
G1 X108.379 Y105.163 E626.40889
G1 X94.837 Y91.621 E631.19664
G1 X95.705 Y91.621 E631.41358
G1 X108.379 Y104.295 E635.89454
G1 X108.379 Y103.428 E636.11147
G1 X96.572 Y91.621 E640.28563
G1 X97.440 Y91.621 E640.50257
G1 X108.379 Y102.560 E644.36993
G1 X108.379 Y101.692 E644.58687
G1 X98.308 Y91.621 E648.14744
G1 X99.176 Y91.621 E648.36438
G1 X108.379 Y100.824 E651.61815
G1 X108.379 Y99.957 E651.83509
G1 X100.043 Y91.621 E654.78206
G1 X100.911 Y91.621 E654.99900
G1 X108.379 Y99.089 E657.63918
G1 X108.379 Y98.221 E657.85612
G1 X101.779 Y91.621 E660.18950
G1 X102.647 Y91.621 E660.40644
G1 X108.379 Y97.353 E662.43302
G1 X108.379 Y96.486 E662.64996
G1 X103.514 Y91.621 E664.36975
G1 X104.382 Y91.621 E664.58669
G1 X108.379 Y95.618 E665.99968
G1 X108.379 Y94.750 E666.21662
G1 X105.250 Y91.621 E667.32282
G1 X106.118 Y91.621 E667.53976
G1 X108.379 Y93.882 E668.33916
G1 X108.379 Y93.015 E668.55610
G1 X106.985 Y91.621 E669.04870
G1 X107.853 Y91.621 E669.26564
G1 X108.379 Y92.147 E669.45145
G1 Z2.400 F7800.000
G1 X107.853 Y108.379 F7800.000
G1 X108.379 Y107.853 E669.63726 F4800.000
G1 X108.379 Y106.985 E669.85420
G1 X106.985 Y108.379 E670.34680
G1 X106.118 Y108.379 E670.56374
G1 X108.379 Y106.118 E671.36314
G1 X108.379 Y105.250 E671.58008
G1 X105.250 Y108.379 E672.68628
G1 X104.382 Y108.379 E672.90322
G1 X108.379 Y104.382 E674.31621
G1 X108.379 Y103.514 E674.53315
G1 X103.514 Y108.379 E676.25294
G1 X102.647 Y108.379 E676.46987
G1 X108.379 Y102.647 E678.49646
G1 X108.379 Y101.779 E678.71340
G1 X101.779 Y108.379 E681.04678
G1 X100.911 Y108.379 E681.26372
G1 X108.379 Y100.911 E683.90390
G1 X108.379 Y100.043 E684.12083
G1 X100.043 Y108.379 E687.06781
G1 X99.176 Y108.379 E687.28475
G1 X108.379 Y99.176 E690.53852
G1 X108.379 Y98.308 E690.75545
G1 X98.308 Y108.379 E694.31602
G1 X97.440 Y108.379 E694.53296
G1 X108.379 Y97.440 E698.40032
G1 X108.379 Y96.572 E698.61726
G1 X96.572 Y108.379 E702.79142
G1 X95.705 Y108.379 E703.00836
G1 X108.379 Y95.705 E707.48931
G1 X108.379 Y94.837 E707.70625
G1 X94.837 Y108.379 E712.49400
G1 X93.969 Y108.379 E712.71094
G1 X108.379 Y93.969 E717.80549
G1 X108.379 Y93.101 E718.02242
G1 X93.101 Y108.379 E723.42377
G1 X92.234 Y108.379 E723.64070
G1 X108.379 Y92.234 E729.34884
G1 X108.123 Y91.621 E729.51472
G1 X91.621 Y108.123 E735.34907
G1 X91.621 Y107.256 E735.56601
G1 X107.256 Y91.621 E741.09357
G1 X106.388 Y91.621 E741.31050
G1 X91.621 Y106.388 E746.53127
G1 X91.621 Y105.520 E746.74820
G1 X105.520 Y91.621 E751.66217
G1 X104.652 Y91.621 E751.87911
G1 X91.621 Y104.652 E756.48628
G1 X91.621 Y103.785 E756.70322
G1 X103.785 Y91.621 E761.00359
G1 X102.917 Y91.621 E761.22053
G1 X91.621 Y102.917 E765.21411
G1 X91.621 Y102.049 E765.43104
G1 X102.049 Y91.621 E769.11782
G1 X101.181 Y91.621 E769.33476
G1 X91.621 Y101.181 E772.71475
G1 X91.621 Y100.314 E772.93169
G1 X100.314 Y91.621 E776.00487
G1 X99.446 Y91.621 E776.22181
G1 X91.621 Y99.446 E778.98821
G1 X91.621 Y98.578 E779.20514
G1 X98.578 Y91.621 E781.66474
G1 X97.710 Y91.621 E781.88168
G1 X91.621 Y97.710 E784.03448
G1 X91.621 Y96.843 E784.25142
G1 X96.843 Y91.621 E786.09742
G1 X95.975 Y91.621 E786.31436
G1 X91.621 Y95.975 E787.85357
G1 X91.621 Y95.107 E788.07051
G1 X95.107 Y91.621 E789.30292
G1 X94.239 Y91.621 E789.51986
G1 X91.621 Y94.239 E790.44547
G1 X91.621 Y93.372 E790.66241
G1 X93.372 Y91.621 E791.28123
G1 X92.504 Y91.621 E791.49817
G1 X91.621 Y92.504 E791.81019
G1 Z2.800 F7800.000
G1 X92.504 Y108.379 F7800.000
G1 X91.621 Y107.496 E792.12221 F4800.000
G1 X91.621 Y106.628 E792.33915
G1 X93.372 Y108.379 E792.95797
G1 X94.239 Y108.379 E793.17491
G1 X91.621 Y105.761 E794.10052
G1 X91.621 Y104.893 E794.31746
G1 X95.107 Y108.379 E795.54987
G1 X95.975 Y108.379 E795.76681
G1 X91.621 Y104.025 E797.30602
G1 X91.621 Y103.157 E797.52296
G1 X96.843 Y108.379 E799.36896
G1 X97.710 Y108.379 E799.58590
G1 X91.621 Y102.290 E801.73870
G1 X91.621 Y101.422 E801.95564
G1 X98.578 Y108.379 E804.41523
G1 X99.446 Y108.379 E804.63217
G1 X91.621 Y100.554 E807.39856
G1 X91.621 Y99.686 E807.61550
G1 X100.314 Y108.379 E810.68869
G1 X101.181 Y108.379 E810.90563
G1 X91.621 Y98.819 E814.28561
G1 X91.621 Y97.951 E814.50255
G1 X102.049 Y108.379 E818.18933
G1 X102.917 Y108.379 E818.40627
G1 X91.621 Y97.083 E822.39985
G1 X91.621 Y96.215 E822.61678
G1 X103.785 Y108.379 E826.91716
G1 X104.652 Y108.379 E827.13410
G1 X91.621 Y95.348 E831.74127
G1 X91.621 Y94.480 E831.95820
G1 X105.520 Y108.379 E836.87217
G1 X106.388 Y108.379 E837.08911
G1 X91.621 Y93.612 E842.30987
G1 X91.621 Y92.744 E842.52681
G1 X107.256 Y108.379 E848.05436
G1 X108.123 Y108.379 E848.27130
G1 X91.621 Y91.877 E854.10566
G1 X92.234 Y91.621 E854.27153
G1 X108.379 Y107.766 E859.97967
G1 X108.379 Y106.899 E860.19661
G1 X93.101 Y91.621 E865.59795
G1 X93.969 Y91.621 E865.81489
G1 X108.379 Y106.031 E870.90944
G1 X108.379 Y105.163 E871.12637
G1 X94.837 Y91.621 E875.91412
G1 X95.705 Y91.621 E876.13106
G1 X108.379 Y104.295 E880.61202
G1 X108.379 Y103.428 E880.82896
G1 X96.572 Y91.621 E885.00312
G1 X97.440 Y91.621 E885.22005
G1 X108.379 Y102.560 E889.08742
G1 X108.379 Y101.692 E889.30435
G1 X98.308 Y91.621 E892.86492
G1 X99.176 Y91.621 E893.08186
G1 X108.379 Y100.824 E896.33563
G1 X108.379 Y99.957 E896.55257
G1 X100.043 Y91.621 E899.49954
G1 X100.911 Y91.621 E899.71648
G1 X108.379 Y99.089 E902.35666
G1 X108.379 Y98.221 E902.57360
G1 X101.779 Y91.621 E904.90698
G1 X102.647 Y91.621 E905.12392
G1 X108.379 Y97.353 E907.15050
G1 X108.379 Y96.486 E907.36744
G1 X103.514 Y91.621 E909.08723
G1 X104.382 Y91.621 E909.30417
G1 X108.379 Y95.618 E910.71716
G1 X108.379 Y94.750 E910.93410
G1 X105.250 Y91.621 E912.04030
G1 X106.118 Y91.621 E912.25724
G1 X108.379 Y93.882 E913.05664
G1 X108.379 Y93.015 E913.27358
G1 X106.985 Y91.621 E913.76618
G1 X107.853 Y91.621 E913.98312
G1 X108.379 Y92.147 E914.16893
G1 Z3.200 F7800.000
G1 X107.853 Y108.379 F7800.000
G1 X108.379 Y107.853 E914.35474 F4800.000
G1 X108.379 Y106.985 E914.57168
G1 X106.985 Y108.379 E915.06429
G1 X106.118 Y108.379 E915.28122
G1 X108.379 Y106.118 E916.08062
G1 X108.379 Y105.250 E916.29756
G1 X105.250 Y108.379 E917.40376
G1 X104.382 Y108.379 E917.62070
G1 X108.379 Y104.382 E919.03369
G1 X108.379 Y103.514 E919.25063
G1 X103.514 Y108.379 E920.97042
G1 X102.647 Y108.379 E921.18736
G1 X108.379 Y102.647 E923.21394
G1 X108.379 Y101.779 E923.43088
G1 X101.779 Y108.379 E925.76426
G1 X100.911 Y108.379 E925.98120
G1 X108.379 Y100.911 E928.62138
G1 X108.379 Y100.043 E928.83832
G1 X100.043 Y108.379 E931.78529
G1 X99.176 Y108.379 E932.00223
G1 X108.379 Y99.176 E935.25600
G1 X108.379 Y98.308 E935.47294
G1 X98.308 Y108.379 E939.03350
G1 X97.440 Y108.379 E939.25044
G1 X108.379 Y97.440 E943.11780
G1 X108.379 Y96.572 E943.33474
G1 X96.572 Y108.379 E947.50890
G1 X95.705 Y108.379 E947.72584
G1 X108.379 Y95.705 E952.20679
G1 X108.379 Y94.837 E952.42373
G1 X94.837 Y108.379 E957.21148
G1 X93.969 Y108.379 E957.42842
G1 X108.379 Y93.969 E962.52297
G1 X108.379 Y93.101 E962.73990
G1 X93.101 Y108.379 E968.14125
G1 X92.234 Y108.379 E968.35819
G1 X108.379 Y92.234 E974.06633
G1 X108.123 Y91.621 E974.23220
G1 X91.621 Y108.123 E980.06655
G1 X91.621 Y107.256 E980.28349
G1 X107.256 Y91.621 E985.81105
G1 X106.388 Y91.621 E986.02799
G1 X91.621 Y106.388 E991.24875
G1 X91.621 Y105.520 E991.46569
G1 X105.520 Y91.621 E996.37965
G1 X104.652 Y91.621 E996.59659
G1 X91.621 Y104.652 E1001.20376
G1 X91.621 Y103.785 E1001.42070
G1 X103.785 Y91.621 E1005.72107
G1 X102.917 Y91.621 E1005.93801
G1 X91.621 Y102.917 E1009.93159
G1 X91.621 Y102.049 E1010.14852
G1 X102.049 Y91.621 E1013.83531
G1 X101.181 Y91.621 E1014.05224
G1 X91.621 Y101.181 E1017.43223
G1 X91.621 Y100.314 E1017.64917
G1 X100.314 Y91.621 E1020.72236
G1 X99.446 Y91.621 E1020.93929
G1 X91.621 Y99.446 E1023.70569
G1 X91.621 Y98.578 E1023.92262
G1 X98.578 Y91.621 E1026.38222
G1 X97.710 Y91.621 E1026.59916
G1 X91.621 Y97.710 E1028.75196
G1 X91.621 Y96.843 E1028.96890
G1 X96.843 Y91.621 E1030.81490
G1 X95.975 Y91.621 E1031.03184
G1 X91.621 Y95.975 E1032.57105
G1 X91.621 Y95.107 E1032.78799
G1 X95.107 Y91.621 E1034.02040
G1 X94.239 Y91.621 E1034.23734
G1 X91.621 Y94.239 E1035.16295
G1 X91.621 Y93.372 E1035.37989
G1 X93.372 Y91.621 E1035.99871
G1 X92.504 Y91.621 E1036.21565
G1 X91.621 Y92.504 E1036.52767
G1 Z3.600 F7800.000
G1 X92.504 Y108.379 F7800.000
G1 X91.621 Y107.496 E1036.83970 F4800.000
G1 X91.621 Y106.628 E1037.05663
G1 X93.372 Y108.379 E1037.67545
G1 X94.239 Y108.379 E1037.89239
G1 X91.621 Y105.761 E1038.81801
G1 X91.621 Y104.893 E1039.03494
G1 X95.107 Y108.379 E1040.26736
G1 X95.975 Y108.379 E1040.48429
G1 X91.621 Y104.025 E1042.02350
G1 X91.621 Y103.157 E1042.24044
G1 X96.843 Y108.379 E1044.08644
G1 X97.710 Y108.379 E1044.30338
G1 X91.621 Y102.290 E1046.45618
G1 X91.621 Y101.422 E1046.67312
G1 X98.578 Y108.379 E1049.13272
G1 X99.446 Y108.379 E1049.34965
G1 X91.621 Y100.554 E1052.11605
G1 X91.621 Y99.686 E1052.33298
G1 X100.314 Y108.379 E1055.40617
G1 X101.181 Y108.379 E1055.62311
G1 X91.621 Y98.819 E1059.00309
G1 X91.621 Y97.951 E1059.22003
G1 X102.049 Y108.379 E1062.90681
G1 X102.917 Y108.379 E1063.12375
G1 X91.621 Y97.083 E1067.11733
G1 X91.621 Y96.215 E1067.33427
G1 X103.785 Y108.379 E1071.63464
G1 X104.652 Y108.379 E1071.85158
G1 X91.621 Y95.348 E1076.45875
G1 X91.621 Y94.480 E1076.67569
G1 X105.520 Y108.379 E1081.58965
G1 X106.388 Y108.379 E1081.80659
G1 X91.621 Y93.612 E1087.02735
G1 X91.621 Y92.744 E1087.24429
G1 X107.256 Y108.379 E1092.77185
G1 X108.123 Y108.379 E1092.98878
G1 X91.621 Y91.877 E1098.82314
G1 X92.234 Y91.621 E1098.98901
G1 X108.379 Y107.766 E1104.69715
G1 X108.379 Y106.899 E1104.91409
G1 X93.101 Y91.621 E1110.31543
G1 X93.969 Y91.621 E1110.53237
G1 X108.379 Y106.031 E1115.62692
G1 X108.379 Y105.163 E1115.84385
G1 X94.837 Y91.621 E1120.63161
G1 X95.705 Y91.621 E1120.84854
G1 X108.379 Y104.295 E1125.32950
G1 X108.379 Y103.428 E1125.54644
G1 X96.572 Y91.621 E1129.72060
G1 X97.440 Y91.621 E1129.93753
G1 X108.379 Y102.560 E1133.80490
G1 X108.379 Y101.692 E1134.02184
G1 X98.308 Y91.621 E1137.58240
G1 X99.176 Y91.621 E1137.79934
G1 X108.379 Y100.824 E1141.05311
G1 X108.379 Y99.957 E1141.27005
G1 X100.043 Y91.621 E1144.21702
G1 X100.911 Y91.621 E1144.43396
G1 X108.379 Y99.089 E1147.07414
G1 X108.379 Y98.221 E1147.29108
G1 X101.779 Y91.621 E1149.62446
G1 X102.647 Y91.621 E1149.84140
G1 X108.379 Y97.353 E1151.86799
G1 X108.379 Y96.486 E1152.08492
G1 X103.514 Y91.621 E1153.80471
G1 X104.382 Y91.621 E1154.02165
G1 X108.379 Y95.618 E1155.43465
G1 X108.379 Y94.750 E1155.65159
G1 X105.250 Y91.621 E1156.75778
G1 X106.118 Y91.621 E1156.97472
G1 X108.379 Y93.882 E1157.77412
G1 X108.379 Y93.015 E1157.99106
G1 X106.985 Y91.621 E1158.48367
G1 X107.853 Y91.621 E1158.70060
G1 X108.379 Y92.147 E1158.88641
G1 Z4.000 F7800.000
G1 X107.853 Y108.379 F7800.000
G1 X108.379 Y107.853 E1159.07222 F4800.000
G1 X108.379 Y106.985 E1159.28916
G1 X106.985 Y108.379 E1159.78177
G1 X106.118 Y108.379 E1159.99870
G1 X108.379 Y106.118 E1160.79811
G1 X108.379 Y105.250 E1161.01504
G1 X105.250 Y108.379 E1162.12124
G1 X104.382 Y108.379 E1162.33818
G1 X108.379 Y104.382 E1163.75117
G1 X108.379 Y103.514 E1163.96811
G1 X103.514 Y108.379 E1165.68790
G1 X102.647 Y108.379 E1165.90484
G1 X108.379 Y102.647 E1167.93142
G1 X108.379 Y101.779 E1168.14836
G1 X101.779 Y108.379 E1170.48174
G1 X100.911 Y108.379 E1170.69868
G1 X108.379 Y100.911 E1173.33886
G1 X108.379 Y100.043 E1173.55580
G1 X100.043 Y108.379 E1176.50277
G1 X99.176 Y108.379 E1176.71971
G1 X108.379 Y99.176 E1179.97348
G1 X108.379 Y98.308 E1180.19042
G1 X98.308 Y108.379 E1183.75099
G1 X97.440 Y108.379 E1183.96792
G1 X108.379 Y97.440 E1187.83529
G1 X108.379 Y96.572 E1188.05222
G1 X96.572 Y108.379 E1192.22638
G1 X95.705 Y108.379 E1192.44332
G1 X108.379 Y95.705 E1196.92428
G1 X108.379 Y94.837 E1197.14121
G1 X94.837 Y108.379 E1201.92896
G1 X93.969 Y108.379 E1202.14590
G1 X108.379 Y93.969 E1207.24045
G1 X108.379 Y93.101 E1207.45739
G1 X93.101 Y108.379 E1212.85873
G1 X92.234 Y108.379 E1213.07567
G1 X108.379 Y92.234 E1218.78381
G1 X108.123 Y91.621 E1218.94968
G1 X91.621 Y108.123 E1224.78403
G1 X91.621 Y107.256 E1225.00097
G1 X107.256 Y91.621 E1230.52853
G1 X106.388 Y91.621 E1230.74547
G1 X91.621 Y106.388 E1235.96623
G1 X91.621 Y105.520 E1236.18317
G1 X105.520 Y91.621 E1241.09713
G1 X104.652 Y91.621 E1241.31407
G1 X91.621 Y104.652 E1245.92124
G1 X91.621 Y103.785 E1246.13818
G1 X103.785 Y91.621 E1250.43855
G1 X102.917 Y91.621 E1250.65549
G1 X91.621 Y102.917 E1254.64907
G1 X91.621 Y102.049 E1254.86601
G1 X102.049 Y91.621 E1258.55279
G1 X101.181 Y91.621 E1258.76973
G1 X91.621 Y101.181 E1262.14971
G1 X91.621 Y100.314 E1262.36665
G1 X100.314 Y91.621 E1265.43984
G1 X99.446 Y91.621 E1265.65678
G1 X91.621 Y99.446 E1268.42317
G1 X91.621 Y98.578 E1268.64011
G1 X98.578 Y91.621 E1271.09970
G1 X97.710 Y91.621 E1271.31664
G1 X91.621 Y97.710 E1273.46944
G1 X91.621 Y96.843 E1273.68638
G1 X96.843 Y91.621 E1275.53239
G1 X95.975 Y91.621 E1275.74932
G1 X91.621 Y95.975 E1277.28853
G1 X91.621 Y95.107 E1277.50547
G1 X95.107 Y91.621 E1278.73788
G1 X94.239 Y91.621 E1278.95482
G1 X91.621 Y94.239 E1279.88044
G1 X91.621 Y93.372 E1280.09737
G1 X93.372 Y91.621 E1280.71619
G1 X92.504 Y91.621 E1280.93313
G1 X91.621 Y92.504 E1281.24515
G1 Z4.400 F7800.000
G1 X92.504 Y108.379 F7800.000
G1 X91.621 Y107.496 E1281.55718 F4800.000
G1 X91.621 Y106.628 E1281.77412
G1 X93.372 Y108.379 E1282.39294
G1 X94.239 Y108.379 E1282.60987
G1 X91.621 Y105.761 E1283.53549
G1 X91.621 Y104.893 E1283.75243
G1 X95.107 Y108.379 E1284.98484
G1 X95.975 Y108.379 E1285.20178
G1 X91.621 Y104.025 E1286.74098
G1 X91.621 Y103.157 E1286.95792
G1 X96.843 Y108.379 E1288.80393
G1 X97.710 Y108.379 E1289.02086
G1 X91.621 Y102.290 E1291.17366
G1 X91.621 Y101.422 E1291.39060
G1 X98.578 Y108.379 E1293.85020
G1 X99.446 Y108.379 E1294.06714
G1 X91.621 Y100.554 E1296.83353
G1 X91.621 Y99.686 E1297.05047
G1 X100.314 Y108.379 E1300.12365
G1 X101.181 Y108.379 E1300.34059
G1 X91.621 Y98.819 E1303.72058
G1 X91.621 Y97.951 E1303.93751
G1 X102.049 Y108.379 E1307.62430
G1 X102.917 Y108.379 E1307.84123
G1 X91.621 Y97.083 E1311.83481
G1 X91.621 Y96.215 E1312.05175
G1 X103.785 Y108.379 E1316.35212
G1 X104.652 Y108.379 E1316.56906
G1 X91.621 Y95.348 E1321.17623
G1 X91.621 Y94.480 E1321.39317
G1 X105.520 Y108.379 E1326.30713
G1 X106.388 Y108.379 E1326.52407
G1 X91.621 Y93.612 E1331.74483
G1 X91.621 Y92.744 E1331.96177
G1 X107.256 Y108.379 E1337.48933
G1 X108.123 Y108.379 E1337.70627
G1 X91.621 Y91.877 E1343.54062
G1 X92.234 Y91.621 E1343.70649
G1 X108.379 Y107.766 E1349.41463
G1 X108.379 Y106.899 E1349.63157
G1 X93.101 Y91.621 E1355.03291
G1 X93.969 Y91.621 E1355.24985
G1 X108.379 Y106.031 E1360.34440
G1 X108.379 Y105.163 E1360.56134
G1 X94.837 Y91.621 E1365.34909
G1 X95.705 Y91.621 E1365.56603
G1 X108.379 Y104.295 E1370.04698
G1 X108.379 Y103.428 E1370.26392
G1 X96.572 Y91.621 E1374.43808
G1 X97.440 Y91.621 E1374.65502
G1 X108.379 Y102.560 E1378.52238
G1 X108.379 Y101.692 E1378.73932
G1 X98.308 Y91.621 E1382.29989
G1 X99.176 Y91.621 E1382.51682
G1 X108.379 Y100.824 E1385.77059
G1 X108.379 Y99.957 E1385.98753
G1 X100.043 Y91.621 E1388.93451
G1 X100.911 Y91.621 E1389.15144
G1 X108.379 Y99.089 E1391.79162
G1 X108.379 Y98.221 E1392.00856
G1 X101.779 Y91.621 E1394.34194
G1 X102.647 Y91.621 E1394.55888
G1 X108.379 Y97.353 E1396.58547
G1 X108.379 Y96.486 E1396.80241
G1 X103.514 Y91.621 E1398.52220
G1 X104.382 Y91.621 E1398.73913
G1 X108.379 Y95.618 E1400.15213
G1 X108.379 Y94.750 E1400.36907
G1 X105.250 Y91.621 E1401.47527
G1 X106.118 Y91.621 E1401.69220
G1 X108.379 Y93.882 E1402.49160
G1 X108.379 Y93.015 E1402.70854
G1 X106.985 Y91.621 E1403.20115
G1 X107.853 Y91.621 E1403.41809
G1 X108.379 Y92.147 E1403.60390
G1 Z4.800 F7800.000
G1 X107.853 Y108.379 F7800.000
G1 X108.379 Y107.853 E1403.78971 F4800.000
G1 X108.379 Y106.985 E1404.00664
G1 X106.985 Y108.379 E1404.49925
G1 X106.118 Y108.379 E1404.71619
G1 X108.379 Y106.118 E1405.51559
G1 X108.379 Y105.250 E1405.73253
G1 X105.250 Y108.379 E1406.83872
G1 X104.382 Y108.379 E1407.05566
G1 X108.379 Y104.382 E1408.46866
G1 X108.379 Y103.514 E1408.68559
G1 X103.514 Y108.379 E1410.40538
G1 X102.647 Y108.379 E1410.62232
G1 X108.379 Y102.647 E1412.64891
G1 X108.379 Y101.779 E1412.86584
G1 X101.779 Y108.379 E1415.19923
G1 X100.911 Y108.379 E1415.41616
G1 X108.379 Y100.911 E1418.05634
G1 X108.379 Y100.043 E1418.27328
G1 X100.043 Y108.379 E1421.22025
G1 X99.176 Y108.379 E1421.43719
G1 X108.379 Y99.176 E1424.69096
G1 X108.379 Y98.308 E1424.90790
G1 X98.308 Y108.379 E1428.46847
G1 X97.440 Y108.379 E1428.68541
G1 X108.379 Y97.440 E1432.55277
G1 X108.379 Y96.572 E1432.76971
G1 X96.572 Y108.379 E1436.94386
G1 X95.705 Y108.379 E1437.16080
G1 X108.379 Y95.705 E1441.64176
G1 X108.379 Y94.837 E1441.85870
G1 X94.837 Y108.379 E1446.64645
G1 X93.969 Y108.379 E1446.86338
G1 X108.379 Y93.969 E1451.95793
G1 X108.379 Y93.101 E1452.17487
G1 X93.101 Y108.379 E1457.57621
G1 X92.234 Y108.379 E1457.79315
G1 X108.379 Y92.234 E1463.50129
G1 X108.123 Y91.621 E1463.66716
G1 X91.621 Y108.123 E1469.50152
G1 X91.621 Y107.256 E1469.71845
G1 X107.256 Y91.621 E1475.24601
G1 X106.388 Y91.621 E1475.46295
G1 X91.621 Y106.388 E1480.68371
G1 X91.621 Y105.520 E1480.90065
G1 X105.520 Y91.621 E1485.81462
G1 X104.652 Y91.621 E1486.03155
G1 X91.621 Y104.652 E1490.63872
G1 X91.621 Y103.785 E1490.85566
G1 X103.785 Y91.621 E1495.15604
G1 X102.917 Y91.621 E1495.37297
G1 X91.621 Y102.917 E1499.36655
G1 X91.621 Y102.049 E1499.58349
G1 X102.049 Y91.621 E1503.27027
G1 X101.181 Y91.621 E1503.48721
G1 X91.621 Y101.181 E1506.86719
G1 X91.621 Y100.314 E1507.08413
G1 X100.314 Y91.621 E1510.15732
G1 X99.446 Y91.621 E1510.37426
G1 X91.621 Y99.446 E1513.14065
G1 X91.621 Y98.578 E1513.35759
G1 X98.578 Y91.621 E1515.81719
G1 X97.710 Y91.621 E1516.03412
G1 X91.621 Y97.710 E1518.18692
G1 X91.621 Y96.843 E1518.40386
G1 X96.843 Y91.621 E1520.24987
G1 X95.975 Y91.621 E1520.46680
G1 X91.621 Y95.975 E1522.00601
G1 X91.621 Y95.107 E1522.22295
G1 X95.107 Y91.621 E1523.45536
G1 X94.239 Y91.621 E1523.67230
G1 X91.621 Y94.239 E1524.59792
G1 X91.621 Y93.372 E1524.81486
G1 X93.372 Y91.621 E1525.43368
G1 X92.504 Y91.621 E1525.65061
G1 X91.621 Y92.504 E1525.96264
G1 Z5.200 F7800.000
G1 X92.504 Y108.379 F7800.000
G1 X91.621 Y107.496 E1526.27466 F4800.000
G1 X91.621 Y106.628 E1526.49160
G1 X93.372 Y108.379 E1527.11042
G1 X94.239 Y108.379 E1527.32736
G1 X91.621 Y105.761 E1528.25297
G1 X91.621 Y104.893 E1528.46991
G1 X95.107 Y108.379 E1529.70232
G1 X95.975 Y108.379 E1529.91926
G1 X91.621 Y104.025 E1531.45847
G1 X91.621 Y103.157 E1531.67540
G1 X96.843 Y108.379 E1533.52141
G1 X97.710 Y108.379 E1533.73835
G1 X91.621 Y102.290 E1535.89115
G1 X91.621 Y101.422 E1536.10808
G1 X98.578 Y108.379 E1538.56768
G1 X99.446 Y108.379 E1538.78462
G1 X91.621 Y100.554 E1541.55101
G1 X91.621 Y99.686 E1541.76795
G1 X100.314 Y108.379 E1544.84114
G1 X101.181 Y108.379 E1545.05807
G1 X91.621 Y98.819 E1548.43806
G1 X91.621 Y97.951 E1548.65500
G1 X102.049 Y108.379 E1552.34178
G1 X102.917 Y108.379 E1552.55872
G1 X91.621 Y97.083 E1556.55229
G1 X91.621 Y96.215 E1556.76923
G1 X103.785 Y108.379 E1561.06960
G1 X104.652 Y108.379 E1561.28654
G1 X91.621 Y95.348 E1565.89371
G1 X91.621 Y94.480 E1566.11065
G1 X105.520 Y108.379 E1571.02462
G1 X106.388 Y108.379 E1571.24155
G1 X91.621 Y93.612 E1576.46231
G1 X91.621 Y92.744 E1576.67925
G1 X107.256 Y108.379 E1582.20681
G1 X108.123 Y108.379 E1582.42375
G1 X91.621 Y91.877 E1588.25810
G1 X92.234 Y91.621 E1588.42397
G1 X108.379 Y107.766 E1594.13211
G1 X108.379 Y106.899 E1594.34905
G1 X93.101 Y91.621 E1599.75040
G1 X93.969 Y91.621 E1599.96733
G1 X108.379 Y106.031 E1605.06188
G1 X108.379 Y105.163 E1605.27882
G1 X94.837 Y91.621 E1610.06657
G1 X95.705 Y91.621 E1610.28351
G1 X108.379 Y104.295 E1614.76446
G1 X108.379 Y103.428 E1614.98140
G1 X96.572 Y91.621 E1619.15556
G1 X97.440 Y91.621 E1619.37250
G1 X108.379 Y102.560 E1623.23986
G1 X108.379 Y101.692 E1623.45680
G1 X98.308 Y91.621 E1627.01737
G1 X99.176 Y91.621 E1627.23431
G1 X108.379 Y100.824 E1630.48808
G1 X108.379 Y99.957 E1630.70501
G1 X100.043 Y91.621 E1633.65199
G1 X100.911 Y91.621 E1633.86893
G1 X108.379 Y99.089 E1636.50911
G1 X108.379 Y98.221 E1636.72604
G1 X101.779 Y91.621 E1639.05943
G1 X102.647 Y91.621 E1639.27636
G1 X108.379 Y97.353 E1641.30295
G1 X108.379 Y96.486 E1641.51989
G1 X103.514 Y91.621 E1643.23968
G1 X104.382 Y91.621 E1643.45662
G1 X108.379 Y95.618 E1644.86961
G1 X108.379 Y94.750 E1645.08655
G1 X105.250 Y91.621 E1646.19275
G1 X106.118 Y91.621 E1646.40968
G1 X108.379 Y93.882 E1647.20909
G1 X108.379 Y93.015 E1647.42602
G1 X106.985 Y91.621 E1647.91863
G1 X107.853 Y91.621 E1648.13557
G1 X108.379 Y92.147 E1648.32138
G1 Z5.600 F7800.000
G1 X107.853 Y108.379 F7800.000
G1 X108.379 Y107.853 E1648.50719 F4800.000
G1 X108.379 Y106.985 E1648.72413
G1 X106.985 Y108.379 E1649.21673
G1 X106.118 Y108.379 E1649.43367
G1 X108.379 Y106.118 E1650.23307
G1 X108.379 Y105.250 E1650.45001
G1 X105.250 Y108.379 E1651.55621
G1 X104.382 Y108.379 E1651.77314
G1 X108.379 Y104.382 E1653.18614
G1 X108.379 Y103.514 E1653.40308
G1 X103.514 Y108.379 E1655.12287
G1 X102.647 Y108.379 E1655.33980
G1 X108.379 Y102.647 E1657.36639
G1 X108.379 Y101.779 E1657.58333
G1 X101.779 Y108.379 E1659.91671
G1 X100.911 Y108.379 E1660.13365
G1 X108.379 Y100.911 E1662.77382
G1 X108.379 Y100.043 E1662.99076
G1 X100.043 Y108.379 E1665.93774
G1 X99.176 Y108.379 E1666.15467
G1 X108.379 Y99.176 E1669.40844
G1 X108.379 Y98.308 E1669.62538
G1 X98.308 Y108.379 E1673.18595
G1 X97.440 Y108.379 E1673.40289
G1 X108.379 Y97.440 E1677.27025
G1 X108.379 Y96.572 E1677.48719
G1 X96.572 Y108.379 E1681.66135
G1 X95.705 Y108.379 E1681.87828
G1 X108.379 Y95.705 E1686.35924
G1 X108.379 Y94.837 E1686.57618
G1 X94.837 Y108.379 E1691.36393
G1 X93.969 Y108.379 E1691.58087
G1 X108.379 Y93.969 E1696.67541
G1 X108.379 Y93.101 E1696.89235
G1 X93.101 Y108.379 E1702.29369
G1 X92.234 Y108.379 E1702.51063
G1 X108.379 Y92.234 E1708.21877
G1 X108.123 Y91.621 E1708.38464
G1 X91.621 Y108.123 E1714.21900
G1 X91.621 Y107.256 E1714.43594
G1 X107.256 Y91.621 E1719.96349
G1 X106.388 Y91.621 E1720.18043
G1 X91.621 Y106.388 E1725.40119
G1 X91.621 Y105.520 E1725.61813
G1 X105.520 Y91.621 E1730.53210
G1 X104.652 Y91.621 E1730.74904
G1 X91.621 Y104.652 E1735.35621
G1 X91.621 Y103.785 E1735.57314
G1 X103.785 Y91.621 E1739.87352
G1 X102.917 Y91.621 E1740.09046
G1 X91.621 Y102.917 E1744.08403
G1 X91.621 Y102.049 E1744.30097
G1 X102.049 Y91.621 E1747.98775
G1 X101.181 Y91.621 E1748.20469
G1 X91.621 Y101.181 E1751.58468
G1 X91.621 Y100.314 E1751.80161
G1 X100.314 Y91.621 E1754.87480
G1 X99.446 Y91.621 E1755.09174
G1 X91.621 Y99.446 E1757.85813
G1 X91.621 Y98.578 E1758.07507
G1 X98.578 Y91.621 E1760.53467
G1 X97.710 Y91.621 E1760.75161
G1 X91.621 Y97.710 E1762.90441
G1 X91.621 Y96.843 E1763.12134
G1 X96.843 Y91.621 E1764.96735
G1 X95.975 Y91.621 E1765.18429
G1 X91.621 Y95.975 E1766.72350
G1 X91.621 Y95.107 E1766.94043
G1 X95.107 Y91.621 E1768.17285
G1 X94.239 Y91.621 E1768.38978
G1 X91.621 Y94.239 E1769.31540
G1 X91.621 Y93.372 E1769.53234
G1 X93.372 Y91.621 E1770.15116
G1 X92.504 Y91.621 E1770.36810
G1 X91.621 Y92.504 E1770.68012
G1 Z6.000 F7800.000
G1 X92.504 Y108.379 F7800.000
G1 X91.621 Y107.496 E1770.99214 F4800.000
G1 X91.621 Y106.628 E1771.20908
G1 X93.372 Y108.379 E1771.82790
G1 X94.239 Y108.379 E1772.04484
G1 X91.621 Y105.761 E1772.97045
G1 X91.621 Y104.893 E1773.18739
G1 X95.107 Y108.379 E1774.41980
G1 X95.975 Y108.379 E1774.63674
G1 X91.621 Y104.025 E1776.17595
G1 X91.621 Y103.157 E1776.39289
G1 X96.843 Y108.379 E1778.23889
G1 X97.710 Y108.379 E1778.45583
G1 X91.621 Y102.290 E1780.60863
G1 X91.621 Y101.422 E1780.82557
G1 X98.578 Y108.379 E1783.28516
G1 X99.446 Y108.379 E1783.50210
G1 X91.621 Y100.554 E1786.26849
G1 X91.621 Y99.686 E1786.48543
G1 X100.314 Y108.379 E1789.55862
G1 X101.181 Y108.379 E1789.77556
G1 X91.621 Y98.819 E1793.15554
G1 X91.621 Y97.951 E1793.37248
G1 X102.049 Y108.379 E1797.05926
G1 X102.917 Y108.379 E1797.27620
G1 X91.621 Y97.083 E1801.26977
G1 X91.621 Y96.215 E1801.48671
G1 X103.785 Y108.379 E1805.78709
G1 X104.652 Y108.379 E1806.00402
G1 X91.621 Y95.348 E1810.61119
G1 X91.621 Y94.480 E1810.82813
G1 X105.520 Y108.379 E1815.74210
G1 X106.388 Y108.379 E1815.95903
G1 X91.621 Y93.612 E1821.17980
G1 X91.621 Y92.744 E1821.39673
G1 X107.256 Y108.379 E1826.92429
G1 X108.123 Y108.379 E1827.14123
G1 X91.621 Y91.877 E1832.97558
G1 X92.234 Y91.621 E1833.14146
G1 X108.379 Y107.766 E1838.84960
G1 X108.379 Y106.899 E1839.06653
G1 X93.101 Y91.621 E1844.46788
G1 X93.969 Y91.621 E1844.68482
G1 X108.379 Y106.031 E1849.77936
G1 X108.379 Y105.163 E1849.99630
G1 X94.837 Y91.621 E1854.78405
G1 X95.705 Y91.621 E1855.00099
G1 X108.379 Y104.295 E1859.48195
G1 X108.379 Y103.428 E1859.69888
G1 X96.572 Y91.621 E1863.87304
G1 X97.440 Y91.621 E1864.08998
G1 X108.379 Y102.560 E1867.95734
G1 X108.379 Y101.692 E1868.17428
G1 X98.308 Y91.621 E1871.73485
G1 X99.176 Y91.621 E1871.95179
G1 X108.379 Y100.824 E1875.20556
G1 X108.379 Y99.957 E1875.42250
G1 X100.043 Y91.621 E1878.36947
G1 X100.911 Y91.621 E1878.58641
G1 X108.379 Y99.089 E1881.22659
G1 X108.379 Y98.221 E1881.44353
G1 X101.779 Y91.621 E1883.77691
G1 X102.647 Y91.621 E1883.99385
G1 X108.379 Y97.353 E1886.02043
G1 X108.379 Y96.486 E1886.23737
G1 X103.514 Y91.621 E1887.95716
G1 X104.382 Y91.621 E1888.17410
G1 X108.379 Y95.618 E1889.58709
G1 X108.379 Y94.750 E1889.80403
G1 X105.250 Y91.621 E1890.91023
G1 X106.118 Y91.621 E1891.12717
G1 X108.379 Y93.882 E1891.92657
G1 X108.379 Y93.015 E1892.14351
G1 X106.985 Y91.621 E1892.63611
G1 X107.853 Y91.621 E1892.85305
G1 X108.379 Y92.147 E1893.03886
G1 Z6.400 F7800.000
G1 X107.853 Y108.379 F7800.000
G1 X108.379 Y107.853 E1893.22467 F4800.000
G1 X108.379 Y106.985 E1893.44161
G1 X106.985 Y108.379 E1893.93421
G1 X106.118 Y108.379 E1894.15115
G1 X108.379 Y106.118 E1894.95055
G1 X108.379 Y105.250 E1895.16749
G1 X105.250 Y108.379 E1896.27369
G1 X104.382 Y108.379 E1896.49063
G1 X108.379 Y104.382 E1897.90362
G1 X108.379 Y103.514 E1898.12056
G1 X103.514 Y108.379 E1899.84035
G1 X102.647 Y108.379 E1900.05728
G1 X108.379 Y102.647 E1902.08387
G1 X108.379 Y101.779 E1902.30081
G1 X101.779 Y108.379 E1904.63419
G1 X100.911 Y108.379 E1904.85113
G1 X108.379 Y100.911 E1907.49131
G1 X108.379 Y100.043 E1907.70824
G1 X100.043 Y108.379 E1910.65522
G1 X99.176 Y108.379 E1910.87216
G1 X108.379 Y99.176 E1914.12593
G1 X108.379 Y98.308 E1914.34286
G1 X98.308 Y108.379 E1917.90343
G1 X97.440 Y108.379 E1918.12037
G1 X108.379 Y97.440 E1921.98773
G1 X108.379 Y96.572 E1922.20467
G1 X96.572 Y108.379 E1926.37883
G1 X95.705 Y108.379 E1926.59577
G1 X108.379 Y95.705 E1931.07672
G1 X108.379 Y94.837 E1931.29366
G1 X94.837 Y108.379 E1936.08141
G1 X93.969 Y108.379 E1936.29835
G1 X108.379 Y93.969 E1941.39290
G1 X108.379 Y93.101 E1941.60983
G1 X93.101 Y108.379 E1947.01118
G1 X92.234 Y108.379 E1947.22811
G1 X108.379 Y92.234 E1952.93625
G1 X108.123 Y91.621 E1953.10213
G1 X91.621 Y108.123 E1958.93648
G1 X91.621 Y107.256 E1959.15342
G1 X107.256 Y91.621 E1964.68098
G1 X106.388 Y91.621 E1964.89791
G1 X91.621 Y106.388 E1970.11868
G1 X91.621 Y105.520 E1970.33561
G1 X105.520 Y91.621 E1975.24958
G1 X104.652 Y91.621 E1975.46652
G1 X91.621 Y104.652 E1980.07369
G1 X91.621 Y103.785 E1980.29063
G1 X103.785 Y91.621 E1984.59100
G1 X102.917 Y91.621 E1984.80794
G1 X91.621 Y102.917 E1988.80152
G1 X91.621 Y102.049 E1989.01845
G1 X102.049 Y91.621 E1992.70523
G1 X101.181 Y91.621 E1992.92217
G1 X91.621 Y101.181 E1996.30216
G1 X91.621 Y100.314 E1996.51910
G1 X100.314 Y91.621 E1999.59228
G1 X99.446 Y91.621 E1999.80922
G1 X91.621 Y99.446 E2002.57562
G1 X91.621 Y98.578 E2002.79255
G1 X98.578 Y91.621 E2005.25215
G1 X97.710 Y91.621 E2005.46909
G1 X91.621 Y97.710 E2007.62189
G1 X91.621 Y96.843 E2007.83883
G1 X96.843 Y91.621 E2009.68483
G1 X95.975 Y91.621 E2009.90177
G1 X91.621 Y95.975 E2011.44098
G1 X91.621 Y95.107 E2011.65792
G1 X95.107 Y91.621 E2012.89033
G1 X94.239 Y91.621 E2013.10727
G1 X91.621 Y94.239 E2014.03288
G1 X91.621 Y93.372 E2014.24982
G1 X93.372 Y91.621 E2014.86864
G1 X92.504 Y91.621 E2015.08558
G1 X91.621 Y92.504 E2015.39760
G1 Z6.800 F7800.000
G1 X92.504 Y108.379 F7800.000
G1 X91.621 Y107.496 E2015.70962 F4800.000
G1 X91.621 Y106.628 E2015.92656
G1 X93.372 Y108.379 E2016.54538
G1 X94.239 Y108.379 E2016.76232
G1 X91.621 Y105.761 E2017.68793
G1 X91.621 Y104.893 E2017.90487
G1 X95.107 Y108.379 E2019.13728
G1 X95.975 Y108.379 E2019.35422
G1 X91.621 Y104.025 E2020.89343
G1 X91.621 Y103.157 E2021.11037
G1 X96.843 Y108.379 E2022.95637
G1 X97.710 Y108.379 E2023.17331
G1 X91.621 Y102.290 E2025.32611
G1 X91.621 Y101.422 E2025.54305
G1 X98.578 Y108.379 E2028.00264
G1 X99.446 Y108.379 E2028.21958
G1 X91.621 Y100.554 E2030.98597
G1 X91.621 Y99.686 E2031.20291
G1 X100.314 Y108.379 E2034.27610
G1 X101.181 Y108.379 E2034.49304
G1 X91.621 Y98.819 E2037.87302
G1 X91.621 Y97.951 E2038.08996
G1 X102.049 Y108.379 E2041.77674
G1 X102.917 Y108.379 E2041.99368
G1 X91.621 Y97.083 E2045.98726
G1 X91.621 Y96.215 E2046.20419
G1 X103.785 Y108.379 E2050.50457
G1 X104.652 Y108.379 E2050.72151
G1 X91.621 Y95.348 E2055.32868
G1 X91.621 Y94.480 E2055.54561
G1 X105.520 Y108.379 E2060.45958
G1 X106.388 Y108.379 E2060.67652
G1 X91.621 Y93.612 E2065.89728
G1 X91.621 Y92.744 E2066.11422
G1 X107.256 Y108.379 E2071.64177
G1 X108.123 Y108.379 E2071.85871
G1 X91.621 Y91.877 E2077.69307
G1 X92.234 Y91.621 E2077.85894
G1 X108.379 Y107.766 E2083.56708
G1 X108.379 Y106.899 E2083.78402
G1 X93.101 Y91.621 E2089.18536
G1 X93.969 Y91.621 E2089.40230
G1 X108.379 Y106.031 E2094.49685
G1 X108.379 Y105.163 E2094.71378
G1 X94.837 Y91.621 E2099.50154
G1 X95.705 Y91.621 E2099.71847
G1 X108.379 Y104.295 E2104.19943
G1 X108.379 Y103.428 E2104.41637
G1 X96.572 Y91.621 E2108.59053
G1 X97.440 Y91.621 E2108.80746
G1 X108.379 Y102.560 E2112.67483
G1 X108.379 Y101.692 E2112.89176
G1 X98.308 Y91.621 E2116.45233
G1 X99.176 Y91.621 E2116.66927
G1 X108.379 Y100.824 E2119.92304
G1 X108.379 Y99.957 E2120.13998
G1 X100.043 Y91.621 E2123.08695
G1 X100.911 Y91.621 E2123.30389
G1 X108.379 Y99.089 E2125.94407
G1 X108.379 Y98.221 E2126.16101
G1 X101.779 Y91.621 E2128.49439
G1 X102.647 Y91.621 E2128.71133
G1 X108.379 Y97.353 E2130.73791
G1 X108.379 Y96.486 E2130.95485
G1 X103.514 Y91.621 E2132.67464
G1 X104.382 Y91.621 E2132.89158
G1 X108.379 Y95.618 E2134.30458
G1 X108.379 Y94.750 E2134.52151
G1 X105.250 Y91.621 E2135.62771
G1 X106.118 Y91.621 E2135.84465
G1 X108.379 Y93.882 E2136.64405
G1 X108.379 Y93.015 E2136.86099
G1 X106.985 Y91.621 E2137.35359
G1 X107.853 Y91.621 E2137.57053
G1 X108.379 Y92.147 E2137.75634
G1 Z7.200 F7800.000
G1 X107.853 Y108.379 F7800.000
G1 X108.379 Y107.853 E2137.94215 F4800.000
G1 X108.379 Y106.985 E2138.15909
G1 X106.985 Y108.379 E2138.65170
G1 X106.118 Y108.379 E2138.86863
G1 X108.379 Y106.118 E2139.66803
G1 X108.379 Y105.250 E2139.88497
G1 X105.250 Y108.379 E2140.99117
G1 X104.382 Y108.379 E2141.20811
G1 X108.379 Y104.382 E2142.62110
G1 X108.379 Y103.514 E2142.83804
G1 X103.514 Y108.379 E2144.55783
G1 X102.647 Y108.379 E2144.77477
G1 X108.379 Y102.647 E2146.80135
G1 X108.379 Y101.779 E2147.01829
G1 X101.779 Y108.379 E2149.35167
G1 X100.911 Y108.379 E2149.56861
G1 X108.379 Y100.911 E2152.20879
G1 X108.379 Y100.043 E2152.42573
G1 X100.043 Y108.379 E2155.37270
G1 X99.176 Y108.379 E2155.58964
G1 X108.379 Y99.176 E2158.84341
G1 X108.379 Y98.308 E2159.06035
G1 X98.308 Y108.379 E2162.62091
G1 X97.440 Y108.379 E2162.83785
G1 X108.379 Y97.440 E2166.70521
G1 X108.379 Y96.572 E2166.92215
G1 X96.572 Y108.379 E2171.09631
G1 X95.705 Y108.379 E2171.31325
G1 X108.379 Y95.705 E2175.79420
G1 X108.379 Y94.837 E2176.01114
G1 X94.837 Y108.379 E2180.79889
G1 X93.969 Y108.379 E2181.01583
G1 X108.379 Y93.969 E2186.11038
G1 X108.379 Y93.101 E2186.32732
G1 X93.101 Y108.379 E2191.72866
G1 X92.234 Y108.379 E2191.94560
G1 X108.379 Y92.234 E2197.65374
G1 X108.123 Y91.621 E2197.81961
G1 X91.621 Y108.123 E2203.65396
G1 X91.621 Y107.256 E2203.87090
G1 X107.256 Y91.621 E2209.39846
G1 X106.388 Y91.621 E2209.61540
G1 X91.621 Y106.388 E2214.83616
G1 X91.621 Y105.520 E2215.05310
G1 X105.520 Y91.621 E2219.96706
G1 X104.652 Y91.621 E2220.18400
G1 X91.621 Y104.652 E2224.79117
G1 X91.621 Y103.785 E2225.00811
G1 X103.785 Y91.621 E2229.30848
G1 X102.917 Y91.621 E2229.52542
G1 X91.621 Y102.917 E2233.51900
G1 X91.621 Y102.049 E2233.73593
G1 X102.049 Y91.621 E2237.42272
G1 X101.181 Y91.621 E2237.63965
G1 X91.621 Y101.181 E2241.01964
G1 X91.621 Y100.314 E2241.23658
G1 X100.314 Y91.621 E2244.30977
G1 X99.446 Y91.621 E2244.52670
G1 X91.621 Y99.446 E2247.29310
G1 X91.621 Y98.578 E2247.51004
G1 X98.578 Y91.621 E2249.96963
G1 X97.710 Y91.621 E2250.18657
G1 X91.621 Y97.710 E2252.33937
G1 X91.621 Y96.843 E2252.55631
G1 X96.843 Y91.621 E2254.40231
G1 X95.975 Y91.621 E2254.61925
G1 X91.621 Y95.975 E2256.15846
G1 X91.621 Y95.107 E2256.37540
G1 X95.107 Y91.621 E2257.60781
G1 X94.239 Y91.621 E2257.82475
G1 X91.621 Y94.239 E2258.75036
G1 X91.621 Y93.372 E2258.96730
G1 X93.372 Y91.621 E2259.58612
G1 X92.504 Y91.621 E2259.80306
G1 X91.621 Y92.504 E2260.11508
G1 Z7.600 F7800.000
G1 X92.504 Y108.379 F7800.000
G1 X91.621 Y107.496 E2260.42711 F4800.000
G1 X91.621 Y106.628 E2260.64404
G1 X93.372 Y108.379 E2261.26286
G1 X94.239 Y108.379 E2261.47980
G1 X91.621 Y105.761 E2262.40542
G1 X91.621 Y104.893 E2262.62235
G1 X95.107 Y108.379 E2263.85477
G1 X95.975 Y108.379 E2264.07170
G1 X91.621 Y104.025 E2265.61091
G1 X91.621 Y103.157 E2265.82785
G1 X96.843 Y108.379 E2267.67385
G1 X97.710 Y108.379 E2267.89079
G1 X91.621 Y102.290 E2270.04359
G1 X91.621 Y101.422 E2270.26053
G1 X98.578 Y108.379 E2272.72013
G1 X99.446 Y108.379 E2272.93706
G1 X91.621 Y100.554 E2275.70346
G1 X91.621 Y99.686 E2275.92039
G1 X100.314 Y108.379 E2278.99358
G1 X101.181 Y108.379 E2279.21052
G1 X91.621 Y98.819 E2282.59050
G1 X91.621 Y97.951 E2282.80744
G1 X102.049 Y108.379 E2286.49422
G1 X102.917 Y108.379 E2286.71116
G1 X91.621 Y97.083 E2290.70474
G1 X91.621 Y96.215 E2290.92168
G1 X103.785 Y108.379 E2295.22205
G1 X104.652 Y108.379 E2295.43899
G1 X91.621 Y95.348 E2300.04616
G1 X91.621 Y94.480 E2300.26310
G1 X105.520 Y108.379 E2305.17706
G1 X106.388 Y108.379 E2305.39400
G1 X91.621 Y93.612 E2310.61476
G1 X91.621 Y92.744 E2310.83170
G1 X107.256 Y108.379 E2316.35926
G1 X108.123 Y108.379 E2316.57619
G1 X91.621 Y91.877 E2322.41055
G1 X92.234 Y91.621 E2322.57642
G1 X108.379 Y107.766 E2328.28456
G1 X108.379 Y106.899 E2328.50150
G1 X93.101 Y91.621 E2333.90284
G1 X93.969 Y91.621 E2334.11978
G1 X108.379 Y106.031 E2339.21433
G1 X108.379 Y105.163 E2339.43127
G1 X94.837 Y91.621 E2344.21902
G1 X95.705 Y91.621 E2344.43595
G1 X108.379 Y104.295 E2348.91691
G1 X108.379 Y103.428 E2349.13385
G1 X96.572 Y91.621 E2353.30801
G1 X97.440 Y91.621 E2353.52495
G1 X108.379 Y102.560 E2357.39231
G1 X108.379 Y101.692 E2357.60925
G1 X98.308 Y91.621 E2361.16981
G1 X99.176 Y91.621 E2361.38675
G1 X108.379 Y100.824 E2364.64052
G1 X108.379 Y99.957 E2364.85746
G1 X100.043 Y91.621 E2367.80444
G1 X100.911 Y91.621 E2368.02137
G1 X108.379 Y99.089 E2370.66155
G1 X108.379 Y98.221 E2370.87849
G1 X101.779 Y91.621 E2373.21187
G1 X102.647 Y91.621 E2373.42881
G1 X108.379 Y97.353 E2375.45540
G1 X108.379 Y96.486 E2375.67233
G1 X103.514 Y91.621 E2377.39212
G1 X104.382 Y91.621 E2377.60906
G1 X108.379 Y95.618 E2379.02206
G1 X108.379 Y94.750 E2379.23900
G1 X105.250 Y91.621 E2380.34519
G1 X106.118 Y91.621 E2380.56213
G1 X108.379 Y93.882 E2381.36153
G1 X108.379 Y93.015 E2381.57847
G1 X106.985 Y91.621 E2382.07108
G1 X107.853 Y91.621 E2382.28801
G1 X108.379 Y92.147 E2382.47382
G1 Z8.000 F7800.000
G1 X107.853 Y108.379 F7800.000
G1 X108.379 Y107.853 E2382.65963 F4800.000
G1 X108.379 Y106.985 E2382.87657
G1 X106.985 Y108.379 E2383.36918
G1 X106.118 Y108.379 E2383.58611
G1 X108.379 Y106.118 E2384.38552
G1 X108.379 Y105.250 E2384.60245
G1 X105.250 Y108.379 E2385.70865
G1 X104.382 Y108.379 E2385.92559
G1 X108.379 Y104.382 E2387.33858
G1 X108.379 Y103.514 E2387.55552
G1 X103.514 Y108.379 E2389.27531
G1 X102.647 Y108.379 E2389.49225
G1 X108.379 Y102.647 E2391.51883
G1 X108.379 Y101.779 E2391.73577
G1 X101.779 Y108.379 E2394.06915
G1 X100.911 Y108.379 E2394.28609
G1 X108.379 Y100.911 E2396.92627
G1 X108.379 Y100.043 E2397.14321
G1 X100.043 Y108.379 E2400.09018
G1 X99.176 Y108.379 E2400.30712
G1 X108.379 Y99.176 E2403.56089
G1 X108.379 Y98.308 E2403.77783
G1 X98.308 Y108.379 E2407.33840
G1 X97.440 Y108.379 E2407.55533
G1 X108.379 Y97.440 E2411.42270
G1 X108.379 Y96.572 E2411.63963
G1 X96.572 Y108.379 E2415.81379
G1 X95.705 Y108.379 E2416.03073
G1 X108.379 Y95.705 E2420.51169
G1 X108.379 Y94.837 E2420.72862
G1 X94.837 Y108.379 E2425.51637
G1 X93.969 Y108.379 E2425.73331
G1 X108.379 Y93.969 E2430.82786
G1 X108.379 Y93.101 E2431.04480
G1 X93.101 Y108.379 E2436.44614
G1 X92.234 Y108.379 E2436.66308
G1 X108.379 Y92.234 E2442.37122
G1 X108.123 Y91.621 E2442.53709
G1 X91.621 Y108.123 E2448.37144
G1 X91.621 Y107.256 E2448.58838
G1 X107.256 Y91.621 E2454.11594
G1 X106.388 Y91.621 E2454.33288
G1 X91.621 Y106.388 E2459.55364
G1 X91.621 Y105.520 E2459.77058
G1 X105.520 Y91.621 E2464.68454
G1 X104.652 Y91.621 E2464.90148
G1 X91.621 Y104.652 E2469.50865
G1 X91.621 Y103.785 E2469.72559
G1 X103.785 Y91.621 E2474.02596
G1 X102.917 Y91.621 E2474.24290
G1 X91.621 Y102.917 E2478.23648
G1 X91.621 Y102.049 E2478.45342
G1 X102.049 Y91.621 E2482.14020
G1 X101.181 Y91.621 E2482.35714
G1 X91.621 Y101.181 E2485.73712
G1 X91.621 Y100.314 E2485.95406
G1 X100.314 Y91.621 E2489.02725
G1 X99.446 Y91.621 E2489.24419
G1 X91.621 Y99.446 E2492.01058
G1 X91.621 Y98.578 E2492.22752
G1 X98.578 Y91.621 E2494.68711
G1 X97.710 Y91.621 E2494.90405
G1 X91.621 Y97.710 E2497.05685
G1 X91.621 Y96.843 E2497.27379
G1 X96.843 Y91.621 E2499.11980
G1 X95.975 Y91.621 E2499.33673
G1 X91.621 Y95.975 E2500.87594
G1 X91.621 Y95.107 E2501.09288
G1 X95.107 Y91.621 E2502.32529
G1 X94.239 Y91.621 E2502.54223
G1 X91.621 Y94.239 E2503.46785
G1 X91.621 Y93.372 E2503.68478
G1 X93.372 Y91.621 E2504.30360
G1 X92.504 Y91.621 E2504.52054
G1 X91.621 Y92.504 E2504.83257
G1 Z8.400 F7800.000
G1 X92.504 Y108.379 F7800.000
G1 X91.621 Y107.496 E2505.14459 F4800.000
G1 X91.621 Y106.628 E2505.36153
G1 X93.372 Y108.379 E2505.98035
G1 X94.239 Y108.379 E2506.19728
G1 X91.621 Y105.761 E2507.12290
G1 X91.621 Y104.893 E2507.33984
G1 X95.107 Y108.379 E2508.57225
G1 X95.975 Y108.379 E2508.78919
G1 X91.621 Y104.025 E2510.32839
G1 X91.621 Y103.157 E2510.54533
G1 X96.843 Y108.379 E2512.39134
G1 X97.710 Y108.379 E2512.60827
G1 X91.621 Y102.290 E2514.76107
G1 X91.621 Y101.422 E2514.97801
G1 X98.578 Y108.379 E2517.43761
G1 X99.446 Y108.379 E2517.65455
G1 X91.621 Y100.554 E2520.42094
G1 X91.621 Y99.686 E2520.63788
G1 X100.314 Y108.379 E2523.71106
G1 X101.181 Y108.379 E2523.92800
G1 X91.621 Y98.819 E2527.30799
G1 X91.621 Y97.951 E2527.52492
G1 X102.049 Y108.379 E2531.21171
G1 X102.917 Y108.379 E2531.42864
G1 X91.621 Y97.083 E2535.42222
G1 X91.621 Y96.215 E2535.63916
G1 X103.785 Y108.379 E2539.93953
G1 X104.652 Y108.379 E2540.15647
G1 X91.621 Y95.348 E2544.76364
G1 X91.621 Y94.480 E2544.98058
G1 X105.520 Y108.379 E2549.89454
G1 X106.388 Y108.379 E2550.11148
G1 X91.621 Y93.612 E2555.33224
G1 X91.621 Y92.744 E2555.54918
G1 X107.256 Y108.379 E2561.07674
G1 X108.123 Y108.379 E2561.29368
G1 X91.621 Y91.877 E2567.12803
G1 X92.234 Y91.621 E2567.29390
G1 X108.379 Y107.766 E2573.00204
G1 X108.379 Y106.899 E2573.21898
G1 X93.101 Y91.621 E2578.62032
G1 X93.969 Y91.621 E2578.83726
G1 X108.379 Y106.031 E2583.93181
G1 X108.379 Y105.163 E2584.14875
G1 X94.837 Y91.621 E2588.93650
G1 X95.705 Y91.621 E2589.15344
G1 X108.379 Y104.295 E2593.63439
G1 X108.379 Y103.428 E2593.85133
G1 X96.572 Y91.621 E2598.02549
G1 X97.440 Y91.621 E2598.24243
G1 X108.379 Y102.560 E2602.10979
G1 X108.379 Y101.692 E2602.32673
G1 X98.308 Y91.621 E2605.88730
G1 X99.176 Y91.621 E2606.10423
G1 X108.379 Y100.824 E2609.35800
G1 X108.379 Y99.957 E2609.57494
G1 X100.043 Y91.621 E2612.52192
G1 X100.911 Y91.621 E2612.73885
G1 X108.379 Y99.089 E2615.37903
G1 X108.379 Y98.221 E2615.59597
G1 X101.779 Y91.621 E2617.92935
G1 X102.647 Y91.621 E2618.14629
G1 X108.379 Y97.353 E2620.17288
G1 X108.379 Y96.486 E2620.38982
G1 X103.514 Y91.621 E2622.10961
G1 X104.382 Y91.621 E2622.32654
G1 X108.379 Y95.618 E2623.73954
G1 X108.379 Y94.750 E2623.95648
G1 X105.250 Y91.621 E2625.06268
G1 X106.118 Y91.621 E2625.27961
G1 X108.379 Y93.882 E2626.07902
G1 X108.379 Y93.015 E2626.29595
G1 X106.985 Y91.621 E2626.78856
G1 X107.853 Y91.621 E2627.00550
G1 X108.379 Y92.147 E2627.19131
G1 Z8.800 F7800.000
G1 X107.853 Y108.379 F7800.000
G1 X108.379 Y107.853 E2627.37712 F4800.000
G1 X108.379 Y106.985 E2627.59405
G1 X106.985 Y108.379 E2628.08666
G1 X106.118 Y108.379 E2628.30360
G1 X108.379 Y106.118 E2629.10300
G1 X108.379 Y105.250 E2629.31994
G1 X105.250 Y108.379 E2630.42613
G1 X104.382 Y108.379 E2630.64307
G1 X108.379 Y104.382 E2632.05607
G1 X108.379 Y103.514 E2632.27300
G1 X103.514 Y108.379 E2633.99279
G1 X102.647 Y108.379 E2634.20973
G1 X108.379 Y102.647 E2636.23632
G1 X108.379 Y101.779 E2636.45325
G1 X101.779 Y108.379 E2638.78664
G1 X100.911 Y108.379 E2639.00357
G1 X108.379 Y100.911 E2641.64375
G1 X108.379 Y100.043 E2641.86069
G1 X100.043 Y108.379 E2644.80767
G1 X99.176 Y108.379 E2645.02460
G1 X108.379 Y99.176 E2648.27837
G1 X108.379 Y98.308 E2648.49531
G1 X98.308 Y108.379 E2652.05588
G1 X97.440 Y108.379 E2652.27282
G1 X108.379 Y97.440 E2656.14018
G1 X108.379 Y96.572 E2656.35712
G1 X96.572 Y108.379 E2660.53127
G1 X95.705 Y108.379 E2660.74821
G1 X108.379 Y95.705 E2665.22917
G1 X108.379 Y94.837 E2665.44611
G1 X94.837 Y108.379 E2670.23386
G1 X93.969 Y108.379 E2670.45079
G1 X108.379 Y93.969 E2675.54534
G1 X108.379 Y93.101 E2675.76228
G1 X93.101 Y108.379 E2681.16362
G1 X92.234 Y108.379 E2681.38056
G1 X108.379 Y92.234 E2687.08870
G1 X108.123 Y91.621 E2687.25457
G1 X91.621 Y108.123 E2693.08893
G1 X91.621 Y107.256 E2693.30586
G1 X107.256 Y91.621 E2698.83342
G1 X106.388 Y91.621 E2699.05036
G1 X91.621 Y106.388 E2704.27112
G1 X91.621 Y105.520 E2704.48806
G1 X105.520 Y91.621 E2709.40203
G1 X104.652 Y91.621 E2709.61896
G1 X91.621 Y104.652 E2714.22613
G1 X91.621 Y103.785 E2714.44307
G1 X103.785 Y91.621 E2718.74345
G1 X102.917 Y91.621 E2718.96038
G1 X91.621 Y102.917 E2722.95396
G1 X91.621 Y102.049 E2723.17090
G1 X102.049 Y91.621 E2726.85768
G1 X101.181 Y91.621 E2727.07462
G1 X91.621 Y101.181 E2730.45460
G1 X91.621 Y100.314 E2730.67154
G1 X100.314 Y91.621 E2733.74473
G1 X99.446 Y91.621 E2733.96167
G1 X91.621 Y99.446 E2736.72806
G1 X91.621 Y98.578 E2736.94500
G1 X98.578 Y91.621 E2739.40460
G1 X97.710 Y91.621 E2739.62153
G1 X91.621 Y97.710 E2741.77434
G1 X91.621 Y96.843 E2741.99127
G1 X96.843 Y91.621 E2743.83728
G1 X95.975 Y91.621 E2744.05421
G1 X91.621 Y95.975 E2745.59342
G1 X91.621 Y95.107 E2745.81036
G1 X95.107 Y91.621 E2747.04277
G1 X94.239 Y91.621 E2747.25971
G1 X91.621 Y94.239 E2748.18533
G1 X91.621 Y93.372 E2748.40227
G1 X93.372 Y91.621 E2749.02109
G1 X92.504 Y91.621 E2749.23802
G1 X91.621 Y92.504 E2749.55005
G1 Z9.200 F7800.000
G1 X92.504 Y108.379 F7800.000
G1 X91.621 Y107.496 E2749.86207 F4800.000
G1 X91.621 Y106.628 E2750.07901
G1 X93.372 Y108.379 E2750.69783
G1 X94.239 Y108.379 E2750.91477
G1 X91.621 Y105.761 E2751.84038
G1 X91.621 Y104.893 E2752.05732
G1 X95.107 Y108.379 E2753.28973
G1 X95.975 Y108.379 E2753.50667
G1 X91.621 Y104.025 E2755.04588
G1 X91.621 Y103.157 E2755.26281
G1 X96.843 Y108.379 E2757.10882
G1 X97.710 Y108.379 E2757.32576
G1 X91.621 Y102.290 E2759.47856
G1 X91.621 Y101.422 E2759.69549
G1 X98.578 Y108.379 E2762.15509
G1 X99.446 Y108.379 E2762.37203
G1 X91.621 Y100.554 E2765.13842
G1 X91.621 Y99.686 E2765.35536
G1 X100.314 Y108.379 E2768.42855
G1 X101.181 Y108.379 E2768.64548
G1 X91.621 Y98.819 E2772.02547
G1 X91.621 Y97.951 E2772.24241
G1 X102.049 Y108.379 E2775.92919
G1 X102.917 Y108.379 E2776.14613
G1 X91.621 Y97.083 E2780.13970
G1 X91.621 Y96.215 E2780.35664
G1 X103.785 Y108.379 E2784.65701
G1 X104.652 Y108.379 E2784.87395
G1 X91.621 Y95.348 E2789.48112
G1 X91.621 Y94.480 E2789.69806
G1 X105.520 Y108.379 E2794.61203
G1 X106.388 Y108.379 E2794.82896
G1 X91.621 Y93.612 E2800.04972
G1 X91.621 Y92.744 E2800.26666
G1 X107.256 Y108.379 E2805.79422
G1 X108.123 Y108.379 E2806.01116
G1 X91.621 Y91.877 E2811.84551
G1 X92.234 Y91.621 E2812.01138
G1 X108.379 Y107.766 E2817.71952
G1 X108.379 Y106.899 E2817.93646
G1 X93.101 Y91.621 E2823.33781
G1 X93.969 Y91.621 E2823.55474
G1 X108.379 Y106.031 E2828.64929
G1 X108.379 Y105.163 E2828.86623
G1 X94.837 Y91.621 E2833.65398
G1 X95.705 Y91.621 E2833.87092
G1 X108.379 Y104.295 E2838.35187
G1 X108.379 Y103.428 E2838.56881
G1 X96.572 Y91.621 E2842.74297
G1 X97.440 Y91.621 E2842.95991
G1 X108.379 Y102.560 E2846.82727
G1 X108.379 Y101.692 E2847.04421
G1 X98.308 Y91.621 E2850.60478
G1 X99.176 Y91.621 E2850.82172
G1 X108.379 Y100.824 E2854.07549
G1 X108.379 Y99.957 E2854.29242
G1 X100.043 Y91.621 E2857.23940
G1 X100.911 Y91.621 E2857.45634
G1 X108.379 Y99.089 E2860.09652
G1 X108.379 Y98.221 E2860.31345
G1 X101.779 Y91.621 E2862.64684
G1 X102.647 Y91.621 E2862.86377
G1 X108.379 Y97.353 E2864.89036
G1 X108.379 Y96.486 E2865.10730
G1 X103.514 Y91.621 E2866.82709
G1 X104.382 Y91.621 E2867.04403
G1 X108.379 Y95.618 E2868.45702
G1 X108.379 Y94.750 E2868.67396
G1 X105.250 Y91.621 E2869.78016
G1 X106.118 Y91.621 E2869.99709
G1 X108.379 Y93.882 E2870.79650
G1 X108.379 Y93.015 E2871.01343
G1 X106.985 Y91.621 E2871.50604
G1 X107.853 Y91.621 E2871.72298
G1 X108.379 Y92.147 E2871.90879
G1 Z9.600 F7800.000
G1 X107.853 Y108.379 F7800.000
G1 X108.379 Y107.853 E2872.09460 F4800.000
G1 X108.379 Y106.985 E2872.31154
G1 X106.985 Y108.379 E2872.80414
G1 X106.118 Y108.379 E2873.02108
G1 X108.379 Y106.118 E2873.82048
G1 X108.379 Y105.250 E2874.03742
G1 X105.250 Y108.379 E2875.14362
G1 X104.382 Y108.379 E2875.36055
G1 X108.379 Y104.382 E2876.77355
G1 X108.379 Y103.514 E2876.99049
G1 X103.514 Y108.379 E2878.71028
G1 X102.647 Y108.379 E2878.92721
G1 X108.379 Y102.647 E2880.95380
G1 X108.379 Y101.779 E2881.17074
G1 X101.779 Y108.379 E2883.50412
G1 X100.911 Y108.379 E2883.72106
G1 X108.379 Y100.911 E2886.36124
G1 X108.379 Y100.043 E2886.57817
G1 X100.043 Y108.379 E2889.52515
G1 X99.176 Y108.379 E2889.74208
G1 X108.379 Y99.176 E2892.99586
G1 X108.379 Y98.308 E2893.21279
G1 X98.308 Y108.379 E2896.77336
G1 X97.440 Y108.379 E2896.99030
G1 X108.379 Y97.440 E2900.85766
G1 X108.379 Y96.572 E2901.07460
G1 X96.572 Y108.379 E2905.24876
G1 X95.705 Y108.379 E2905.46569
G1 X108.379 Y95.705 E2909.94665
G1 X108.379 Y94.837 E2910.16359
G1 X94.837 Y108.379 E2914.95134
G1 X93.969 Y108.379 E2915.16828
G1 X108.379 Y93.969 E2920.26282
G1 X108.379 Y93.101 E2920.47976
G1 X93.101 Y108.379 E2925.88110
G1 X92.234 Y108.379 E2926.09804
G1 X108.379 Y92.234 E2931.80618
G1 X108.123 Y91.621 E2931.97205
G1 X91.621 Y108.123 E2937.80641
G1 X91.621 Y107.256 E2938.02335
G1 X107.256 Y91.621 E2943.55091
G1 X106.388 Y91.621 E2943.76784
G1 X91.621 Y106.388 E2948.98860
G1 X91.621 Y105.520 E2949.20554
G1 X105.520 Y91.621 E2954.11951
G1 X104.652 Y91.621 E2954.33645
G1 X91.621 Y104.652 E2958.94362
G1 X91.621 Y103.785 E2959.16055
G1 X103.785 Y91.621 E2963.46093
G1 X102.917 Y91.621 E2963.67787
G1 X91.621 Y102.917 E2967.67144
G1 X91.621 Y102.049 E2967.88838
G1 X102.049 Y91.621 E2971.57516
G1 X101.181 Y91.621 E2971.79210
G1 X91.621 Y101.181 E2975.17209
G1 X91.621 Y100.314 E2975.38902
G1 X100.314 Y91.621 E2978.46221
G1 X99.446 Y91.621 E2978.67915
G1 X91.621 Y99.446 E2981.44554
G1 X91.621 Y98.578 E2981.66248
G1 X98.578 Y91.621 E2984.12208
G1 X97.710 Y91.621 E2984.33902
G1 X91.621 Y97.710 E2986.49182
G1 X91.621 Y96.843 E2986.70875
G1 X96.843 Y91.621 E2988.55476
G1 X95.975 Y91.621 E2988.77170
G1 X91.621 Y95.975 E2990.31091
G1 X91.621 Y95.107 E2990.52784
G1 X95.107 Y91.621 E2991.76026
G1 X94.239 Y91.621 E2991.97719
G1 X91.621 Y94.239 E2992.90281
G1 X91.621 Y93.372 E2993.11975
G1 X93.372 Y91.621 E2993.73857
G1 X92.504 Y91.621 E2993.95551
G1 X91.621 Y92.504 E2994.26753
G1 Z10.000 F7800.000
G1 E2992.26753 F2400.00000
G92 E0
G1 X92.504 Y108.379 F7800.000
G1 E2.00000 F2400.00000
G1 X91.621 Y107.496 E2.31202 F4800.000
G1 X91.621 Y106.628 E2.52896
G1 X93.372 Y108.379 E3.14778
G1 X94.239 Y108.379 E3.36472
G1 X91.621 Y105.761 E4.29033
G1 X91.621 Y104.893 E4.50727
G1 X95.107 Y108.379 E5.73968
G1 X95.975 Y108.379 E5.95662
G1 X91.621 Y104.025 E7.49583
G1 X91.621 Y103.157 E7.71277
G1 X96.843 Y108.379 E9.55877
G1 X97.710 Y108.379 E9.77571
G1 X91.621 Y102.290 E11.92851
G1 X91.621 Y101.422 E12.14545
G1 X98.578 Y108.379 E14.60504
G1 X99.446 Y108.379 E14.82198
G1 X91.621 Y100.554 E17.58837
G1 X91.621 Y99.686 E17.80531
G1 X100.314 Y108.379 E20.87850
G1 X101.181 Y108.379 E21.09544
G1 X91.621 Y98.819 E24.47542
G1 X91.621 Y97.951 E24.69236
G1 X102.049 Y108.379 E28.37914
G1 X102.917 Y108.379 E28.59608
G1 X91.621 Y97.083 E32.58966
G1 X91.621 Y96.215 E32.80659
G1 X103.785 Y108.379 E37.10697
G1 X104.652 Y108.379 E37.32390
G1 X91.621 Y95.348 E41.93107
G1 X91.621 Y94.480 E42.14801
G1 X105.520 Y108.379 E47.06198
G1 X106.388 Y108.379 E47.27892
G1 X91.621 Y93.612 E52.49968
G1 X91.621 Y92.744 E52.71662
G1 X107.256 Y108.379 E58.24417
G1 X108.123 Y108.379 E58.46111
G1 X91.621 Y91.877 E64.29547
G1 X92.234 Y91.621 E64.46134
G1 X108.379 Y107.766 E70.16948
G1 X108.379 Y106.899 E70.38642
G1 X93.101 Y91.621 E75.78776
G1 X93.969 Y91.621 E76.00470
G1 X108.379 Y106.031 E81.09924
G1 X108.379 Y105.163 E81.31618
G1 X94.837 Y91.621 E86.10393
G1 X95.705 Y91.621 E86.32087
G1 X108.379 Y104.295 E90.80183
G1 X108.379 Y103.428 E91.01877
G1 X96.572 Y91.621 E95.19292
G1 X97.440 Y91.621 E95.40986
G1 X108.379 Y102.560 E99.27723
G1 X108.379 Y101.692 E99.49416
G1 X98.308 Y91.621 E103.05473
G1 X99.176 Y91.621 E103.27167
G1 X108.379 Y100.824 E106.52544
G1 X108.379 Y99.957 E106.74238
G1 X100.043 Y91.621 E109.68935
G1 X100.911 Y91.621 E109.90629
G1 X108.379 Y99.089 E112.54647
G1 X108.379 Y98.221 E112.76341
G1 X101.779 Y91.621 E115.09679
G1 X102.647 Y91.621 E115.31373
G1 X108.379 Y97.353 E117.34031
G1 X108.379 Y96.486 E117.55725
G1 X103.514 Y91.621 E119.27704
G1 X104.382 Y91.621 E119.49398
G1 X108.379 Y95.618 E120.90697
G1 X108.379 Y94.750 E121.12391
G1 X105.250 Y91.621 E122.23011
G1 X106.118 Y91.621 E122.44705
G1 X108.379 Y93.882 E123.24645
G1 X108.379 Y93.015 E123.46339
G1 X106.985 Y91.621 E123.95599
G1 X107.853 Y91.621 E124.17293
G1 X108.379 Y92.147 E124.35874
G1 E122.35874 F2400.00000
G92 E0
M107
M104 S0 ; turn off temperature
G28 X0  ; home X axis
M84     ; disable motors

; filament used = 3114.6mm (2.4cm3)

; avoid_crossing_perimeters = 0
; bed_shape = 0x0,200x0,200x200,0x200
; bed_temperature = 0
; before_layer_gcode = 
; bridge_acceleration = 0
; bridge_fan_speed = 100
; brim_width = 0
; complete_objects = 0
; cooling = 1
; default_acceleration = 0
; disable_fan_first_layers = 3
; duplicate_distance = 6
; end_gcode = M104 S0 ; turn off temperature\nG28 X0  ; home X axis\nM84     ; disable motors\n
; extruder_clearance_height = 20
; extruder_clearance_radius = 20
; extruder_offset = 0x0
; extrusion_axis = E
; extrusion_multiplier = 1
; fan_always_on = 0
; fan_below_layer_time = 60
; filament_colour = #FFFFFF
; filament_diameter = 1
; first_layer_acceleration = 0
; first_layer_bed_temperature = 0
; first_layer_extrusion_width = 200%
; first_layer_speed = 30
; first_layer_temperature = 200
; gcode_arcs = 0
; gcode_comments = 0
; gcode_flavor = reprap
; infill_acceleration = 0
; infill_first = 0
; layer_gcode = 
; max_fan_speed = 100
; max_print_speed = 80
; max_volumetric_speed = 0
; min_fan_speed = 35
; min_print_speed = 10
; min_skirt_length = 0
; notes = 
; nozzle_diameter = 0.5
; only_retract_when_crossing_perimeters = 1
; ooze_prevention = 0
; output_filename_format = [input_filename_base].gcode
; perimeter_acceleration = 0
; post_process = 
; pressure_advance = 0
; resolution = 0
; retract_before_travel = 2
; retract_layer_change = 0
; retract_length = 2
; retract_length_toolchange = 10
; retract_lift = 0
; retract_restart_extra = 0
; retract_restart_extra_toolchange = 0
; retract_speed = 40
; skirt_distance = 6
; skirt_height = 1
; skirts = 0
; slowdown_below_layer_time = 5
; spiral_vase = 0
; standby_temperature_delta = -5
; start_gcode = G28 ; home all axes\nG1 Z5 F5000 ; lift nozzle\n
; temperature = 200
; threads = 2
; toolchange_gcode = 
; travel_speed = 130
; use_firmware_retraction = 0
; use_relative_e_distances = 0
; use_volumetric_e = 0
; vibration_limit = 0
; wipe = 0
; z_offset = 0
; dont_support_bridges = 1
; extrusion_width = 0
; first_layer_height = 0.4
; infill_only_where_needed = 0
; interface_shells = 0
; layer_height = 0.4
; raft_layers = 0
; seam_position = aligned
; support_material = 0
; support_material_angle = 0
; support_material_contact_distance = 0.2
; support_material_enforce_layers = 0
; support_material_extruder = 1
; support_material_extrusion_width = 0
; support_material_interface_extruder = 1
; support_material_interface_layers = 3
; support_material_interface_spacing = 0
; support_material_interface_speed = 100%
; support_material_pattern = pillars
; support_material_spacing = 2.5
; support_material_speed = 60
; support_material_threshold = 0
; xy_size_compensation = 0
; bottom_solid_layers = 0
; bridge_flow_ratio = 1
; bridge_speed = 60
; external_fill_pattern = rectilinear
; external_perimeter_extrusion_width = 0
; external_perimeter_speed = 50%
; external_perimeters_first = 0
; extra_perimeters = 1
; fill_angle = 45
; fill_density = 80%
; fill_pattern = rectilinear
; gap_fill_speed = 20
; infill_every_layers = 1
; infill_extruder = 1
; infill_extrusion_width = 0
; infill_overlap = 15%
; infill_speed = 80
; overhangs = 1
; perimeter_extruder = 1
; perimeter_extrusion_width = 0
; perimeter_speed = 60
; perimeters = 0
; small_perimeter_speed = 15
; solid_infill_below_area = 70
; solid_infill_every_layers = 0
; solid_infill_extruder = 1
; solid_infill_extrusion_width = 0
; solid_infill_speed = 20
; thin_walls = 1
; top_infill_extrusion_width = 0
; top_solid_infill_speed = 15
; top_solid_layers = 0
