; generated by Slic3r 1.3.0 on 2020-01-13 at 18:20:44

; external perimeters extrusion width = 0.55mm (5.57mm^3/s)
; perimeters extrusion width = 0.58mm (11.78mm^3/s)
; infill extrusion width = 0.58mm (15.71mm^3/s)
; solid infill extrusion width = 0.58mm (3.93mm^3/s)
; top infill extrusion width = 0.58mm (2.95mm^3/s)

M107
M104 S200 ; set temperature
G28 ; home all axes
G1 Z5 F5000 ; lift nozzle

; Filament gcode

M109 S200 ; set temperature and wait for it to be reached
G21 ; set units to millimeters
G90 ; use absolute coordinates
M82 ; use absolute distances for extrusion
G92 E0
G1 Z0.400 F7800.000
G1 E-2.00000 F2400.00000
G92 E0
G1 X91.519 Y90.432 F7800.000
G1 E2.00000 F2400.00000
G1 F1800
G1 X90.432 Y91.519 E2.55953
G1 X90.432 Y92.908 E3.06451
G1 X92.908 Y90.432 E4.33820
G1 X94.296 Y90.432 E4.84318
G1 X90.432 Y94.296 E6.83103
G1 X90.432 Y95.684 E7.33601
G1 X95.684 Y90.432 E10.03801
G1 X97.073 Y90.432 E10.54300
G1 X90.432 Y97.073 E13.95916
G1 X90.432 Y98.461 E14.46414
G1 X98.461 Y90.432 E18.59446
G1 X99.850 Y90.432 E19.09945
G1 X90.432 Y99.850 E23.94392
G1 X90.432 Y101.238 E24.44891
G1 X101.238 Y90.432 E30.00754
G1 X102.626 Y90.432 E30.51253
G1 X90.432 Y102.626 E36.78532
G1 X90.432 Y104.015 E37.29030
G1 X104.015 Y90.432 E44.27725
G1 X105.403 Y90.432 E44.78224
G1 X90.432 Y105.403 E52.48335
G1 X90.432 Y106.792 E52.98833
G1 X106.792 Y90.432 E61.40360
G1 X108.180 Y90.432 E61.90858
G1 X90.432 Y108.180 E71.03801
G1 X90.432 Y109.568 E71.54299
G1 X109.568 Y90.432 E81.38657
G1 X109.568 Y91.820 E81.89156
G1 X91.820 Y109.568 E91.02098
G1 X93.208 Y109.568 E91.52597
G1 X109.568 Y93.208 E99.94124
G1 X109.568 Y94.597 E100.44622
G1 X94.597 Y109.568 E108.14733
G1 X95.985 Y109.568 E108.65232
G1 X109.568 Y95.985 E115.63927
G1 X109.568 Y97.374 E116.14425
G1 X97.374 Y109.568 E122.41704
G1 X98.762 Y109.568 E122.92203
G1 X109.568 Y98.762 E128.48066
G1 X109.568 Y100.150 E128.98565
G1 X100.150 Y109.568 E133.83012
G1 X101.539 Y109.568 E134.33511
G1 X109.568 Y101.539 E138.46543
G1 X109.568 Y102.927 E138.97041
G1 X102.927 Y109.568 E142.38657
G1 X104.316 Y109.568 E142.89156
G1 X109.568 Y104.316 E145.59356
G1 X109.568 Y105.704 E146.09855
G1 X105.704 Y109.568 E148.08639
G1 X107.092 Y109.568 E148.59138
G1 X109.568 Y107.092 E149.86506
G1 X109.568 Y108.481 E150.37005
G1 X108.481 Y109.568 E150.92957
G1 Z0.800 F7800.000
G1 X90.443 Y108.493 F7800.000
G1 F4800
G1 X91.507 Y109.557 E151.30579
G1 X92.896 Y109.557 E151.65289
G1 X90.443 Y107.104 E152.51998
G1 X90.443 Y105.716 E152.86708
G1 X94.284 Y109.557 E154.22504
G1 X95.673 Y109.557 E154.57214
G1 X90.443 Y104.327 E156.42097
G1 X90.443 Y102.939 E156.76807
G1 X97.061 Y109.557 E159.10778
G1 X98.449 Y109.557 E159.45488
G1 X90.443 Y101.551 E162.28546
G1 X90.443 Y100.162 E162.63256
G1 X99.838 Y109.557 E165.95401
G1 X101.226 Y109.557 E166.30111
G1 X90.443 Y98.774 E170.11344
G1 X90.443 Y97.385 E170.46053
G1 X102.615 Y109.557 E174.76373
G1 X104.003 Y109.557 E175.11083
G1 X90.443 Y95.997 E179.90490
G1 X90.443 Y94.609 E180.25200
G1 X105.391 Y109.557 E185.53695
G1 X106.780 Y109.557 E185.88405
G1 X90.443 Y93.220 E191.65987
G1 X90.443 Y91.832 E192.00697
G1 X108.168 Y109.557 E198.27366
G1 X109.557 Y109.557 E198.62076
G1 X90.443 Y90.443 E205.37832
G1 X91.832 Y90.443 E205.72542
G1 X109.557 Y108.168 E211.99211
G1 X109.557 Y106.780 E212.33921
G1 X93.220 Y90.443 E218.11503
G1 X94.609 Y90.443 E218.46213
G1 X109.557 Y105.391 E223.74707
G1 X109.557 Y104.003 E224.09417
G1 X95.997 Y90.443 E228.88824
G1 X97.385 Y90.443 E229.23534
G1 X109.557 Y102.615 E233.53854
G1 X109.557 Y101.226 E233.88564
G1 X98.774 Y90.443 E237.69797
G1 X100.162 Y90.443 E238.04507
G1 X109.557 Y99.838 E241.36652
G1 X109.557 Y98.449 E241.71362
G1 X101.551 Y90.443 E244.54420
G1 X102.939 Y90.443 E244.89130
G1 X109.557 Y97.061 E247.23101
G1 X109.557 Y95.673 E247.57811
G1 X104.327 Y90.443 E249.42694
G1 X105.716 Y90.443 E249.77404
G1 X109.557 Y94.284 E251.13200
G1 X109.557 Y92.896 E251.47910
G1 X107.104 Y90.443 E252.34619
G1 X108.493 Y90.443 E252.69329
G1 X109.557 Y91.507 E253.06950
G1 Z1.200 F7800.000
G1 X108.493 Y109.557 F7800.000
G1 F4800
G1 X109.557 Y108.493 E253.44572
G1 X109.557 Y107.104 E253.79282
G1 X107.104 Y109.557 E254.65991
G1 X105.716 Y109.557 E255.00701
G1 X109.557 Y105.716 E256.36497
G1 X109.557 Y104.327 E256.71207
G1 X104.327 Y109.557 E258.56090
G1 X102.939 Y109.557 E258.90800
G1 X109.557 Y102.939 E261.24771
G1 X109.557 Y101.551 E261.59481
G1 X101.551 Y109.557 E264.42539
G1 X100.162 Y109.557 E264.77249
G1 X109.557 Y100.162 E268.09394
G1 X109.557 Y98.774 E268.44104
G1 X98.774 Y109.557 E272.25337
G1 X97.385 Y109.557 E272.60047
G1 X109.557 Y97.385 E276.90366
G1 X109.557 Y95.997 E277.25076
G1 X95.997 Y109.557 E282.04484
G1 X94.609 Y109.557 E282.39194
G1 X109.557 Y94.609 E287.67688
G1 X109.557 Y93.220 E288.02398
G1 X93.220 Y109.557 E293.79980
G1 X91.832 Y109.557 E294.14690
G1 X109.557 Y91.832 E300.41359
G1 X109.557 Y90.443 E300.76069
G1 X90.443 Y109.557 E307.51825
G1 X90.443 Y108.168 E307.86535
G1 X108.168 Y90.443 E314.13204
G1 X106.780 Y90.443 E314.47914
G1 X90.443 Y106.780 E320.25496
G1 X90.443 Y105.391 E320.60206
G1 X105.391 Y90.443 E325.88700
G1 X104.003 Y90.443 E326.23410
G1 X90.443 Y104.003 E331.02817
G1 X90.443 Y102.615 E331.37527
G1 X102.615 Y90.443 E335.67847
G1 X101.226 Y90.443 E336.02557
G1 X90.443 Y101.226 E339.83790
G1 X90.443 Y99.838 E340.18500
G1 X99.838 Y90.443 E343.50645
G1 X98.449 Y90.443 E343.85355
G1 X90.443 Y98.449 E346.68413
G1 X90.443 Y97.061 E347.03123
G1 X97.061 Y90.443 E349.37094
G1 X95.673 Y90.443 E349.71804
G1 X90.443 Y95.673 E351.56687
G1 X90.443 Y94.284 E351.91397
G1 X94.284 Y90.443 E353.27193
G1 X92.896 Y90.443 E353.61903
G1 X90.443 Y92.896 E354.48612
G1 X90.443 Y91.507 E354.83322
G1 X91.507 Y90.443 E355.20943
M106 S252.45
G1 Z1.600 F7800.000
G1 X90.443 Y108.493 F7800.000
G1 F4800
G1 X91.507 Y109.557 E355.58565
G1 X92.896 Y109.557 E355.93275
G1 X90.443 Y107.104 E356.79983
G1 X90.443 Y105.716 E357.14693
G1 X94.284 Y109.557 E358.50489
G1 X95.673 Y109.557 E358.85199
G1 X90.443 Y104.327 E360.70083
G1 X90.443 Y102.939 E361.04793
G1 X97.061 Y109.557 E363.38763
G1 X98.449 Y109.557 E363.73473
G1 X90.443 Y101.551 E366.56531
G1 X90.443 Y100.162 E366.91241
G1 X99.838 Y109.557 E370.23387
G1 X101.226 Y109.557 E370.58097
G1 X90.443 Y98.774 E374.39329
G1 X90.443 Y97.385 E374.74039
G1 X102.615 Y109.557 E379.04359
G1 X104.003 Y109.557 E379.39069
G1 X90.443 Y95.997 E384.18476
G1 X90.443 Y94.609 E384.53186
G1 X105.391 Y109.557 E389.81680
G1 X106.780 Y109.557 E390.16390
G1 X90.443 Y93.220 E395.93972
G1 X90.443 Y91.832 E396.28682
G1 X108.168 Y109.557 E402.55351
G1 X109.557 Y109.557 E402.90061
G1 X90.443 Y90.443 E409.65818
G1 X91.832 Y90.443 E410.00528
G1 X109.557 Y108.168 E416.27197
G1 X109.557 Y106.780 E416.61907
G1 X93.220 Y90.443 E422.39488
G1 X94.609 Y90.443 E422.74198
G1 X109.557 Y105.391 E428.02693
G1 X109.557 Y104.003 E428.37403
G1 X95.997 Y90.443 E433.16810
G1 X97.385 Y90.443 E433.51520
G1 X109.557 Y102.615 E437.81840
G1 X109.557 Y101.226 E438.16550
G1 X98.774 Y90.443 E441.97782
G1 X100.162 Y90.443 E442.32492
G1 X109.557 Y99.838 E445.64638
G1 X109.557 Y98.449 E445.99348
G1 X101.551 Y90.443 E448.82406
G1 X102.939 Y90.443 E449.17116
G1 X109.557 Y97.061 E451.51086
G1 X109.557 Y95.673 E451.85796
G1 X104.327 Y90.443 E453.70680
G1 X105.716 Y90.443 E454.05390
G1 X109.557 Y94.284 E455.41186
G1 X109.557 Y92.896 E455.75896
G1 X107.104 Y90.443 E456.62604
G1 X108.493 Y90.443 E456.97314
G1 X109.557 Y91.507 E457.34936
G1 Z2.000 F7800.000
G1 X108.493 Y109.557 F7800.000
G1 F4800
G1 X109.557 Y108.493 E457.72557
G1 X109.557 Y107.104 E458.07267
G1 X107.104 Y109.557 E458.93976
G1 X105.716 Y109.557 E459.28686
G1 X109.557 Y105.716 E460.64482
G1 X109.557 Y104.327 E460.99192
G1 X104.327 Y109.557 E462.84076
G1 X102.939 Y109.557 E463.18786
G1 X109.557 Y102.939 E465.52756
G1 X109.557 Y101.551 E465.87466
G1 X101.551 Y109.557 E468.70524
G1 X100.162 Y109.557 E469.05234
G1 X109.557 Y100.162 E472.37380
G1 X109.557 Y98.774 E472.72090
G1 X98.774 Y109.557 E476.53322
G1 X97.385 Y109.557 E476.88032
G1 X109.557 Y97.385 E481.18352
G1 X109.557 Y95.997 E481.53062
G1 X95.997 Y109.557 E486.32469
G1 X94.609 Y109.557 E486.67179
G1 X109.557 Y94.609 E491.95674
G1 X109.557 Y93.220 E492.30384
G1 X93.220 Y109.557 E498.07965
G1 X91.832 Y109.557 E498.42675
G1 X109.557 Y91.832 E504.69345
G1 X109.557 Y90.443 E505.04055
G1 X90.443 Y109.557 E511.79811
G1 X90.443 Y108.168 E512.14521
G1 X108.168 Y90.443 E518.41190
G1 X106.780 Y90.443 E518.75900
G1 X90.443 Y106.780 E524.53482
G1 X90.443 Y105.391 E524.88192
G1 X105.391 Y90.443 E530.16686
G1 X104.003 Y90.443 E530.51396
G1 X90.443 Y104.003 E535.30803
G1 X90.443 Y102.615 E535.65513
G1 X102.615 Y90.443 E539.95833
G1 X101.226 Y90.443 E540.30543
G1 X90.443 Y101.226 E544.11775
G1 X90.443 Y99.838 E544.46485
G1 X99.838 Y90.443 E547.78631
G1 X98.449 Y90.443 E548.13341
G1 X90.443 Y98.449 E550.96399
G1 X90.443 Y97.061 E551.31108
G1 X97.061 Y90.443 E553.65079
G1 X95.673 Y90.443 E553.99789
G1 X90.443 Y95.673 E555.84673
G1 X90.443 Y94.284 E556.19382
G1 X94.284 Y90.443 E557.55179
G1 X92.896 Y90.443 E557.89889
G1 X90.443 Y92.896 E558.76597
G1 X90.443 Y91.507 E559.11307
G1 X91.507 Y90.443 E559.48929
G1 Z2.400 F7800.000
G1 X90.443 Y108.493 F7800.000
G1 F4800
G1 X91.507 Y109.557 E559.86550
G1 X92.896 Y109.557 E560.21260
G1 X90.443 Y107.104 E561.07969
G1 X90.443 Y105.716 E561.42679
G1 X94.284 Y109.557 E562.78475
G1 X95.673 Y109.557 E563.13185
G1 X90.443 Y104.327 E564.98068
G1 X90.443 Y102.939 E565.32778
G1 X97.061 Y109.557 E567.66749
G1 X98.449 Y109.557 E568.01459
G1 X90.443 Y101.551 E570.84517
G1 X90.443 Y100.162 E571.19227
G1 X99.838 Y109.557 E574.51372
G1 X101.226 Y109.557 E574.86082
G1 X90.443 Y98.774 E578.67315
G1 X90.443 Y97.385 E579.02025
G1 X102.615 Y109.557 E583.32344
G1 X104.003 Y109.557 E583.67054
G1 X90.443 Y95.997 E588.46462
G1 X90.443 Y94.609 E588.81172
G1 X105.391 Y109.557 E594.09666
G1 X106.780 Y109.557 E594.44376
G1 X90.443 Y93.220 E600.21958
G1 X90.443 Y91.832 E600.56668
G1 X108.168 Y109.557 E606.83337
G1 X109.557 Y109.557 E607.18047
G1 X90.443 Y90.443 E613.93803
G1 X91.832 Y90.443 E614.28513
G1 X109.557 Y108.168 E620.55182
G1 X109.557 Y106.780 E620.89892
G1 X93.220 Y90.443 E626.67474
G1 X94.609 Y90.443 E627.02184
G1 X109.557 Y105.391 E632.30678
G1 X109.557 Y104.003 E632.65388
G1 X95.997 Y90.443 E637.44796
G1 X97.385 Y90.443 E637.79506
G1 X109.557 Y102.615 E642.09825
G1 X109.557 Y101.226 E642.44535
G1 X98.774 Y90.443 E646.25768
G1 X100.162 Y90.443 E646.60478
G1 X109.557 Y99.838 E649.92623
G1 X109.557 Y98.449 E650.27333
G1 X101.551 Y90.443 E653.10391
G1 X102.939 Y90.443 E653.45101
G1 X109.557 Y97.061 E655.79072
G1 X109.557 Y95.673 E656.13782
G1 X104.327 Y90.443 E657.98665
G1 X105.716 Y90.443 E658.33375
G1 X109.557 Y94.284 E659.69171
G1 X109.557 Y92.896 E660.03881
G1 X107.104 Y90.443 E660.90590
G1 X108.493 Y90.443 E661.25300
G1 X109.557 Y91.507 E661.62922
G1 Z2.800 F7800.000
G1 X108.493 Y109.557 F7800.000
G1 F4800
G1 X109.557 Y108.493 E662.00543
G1 X109.557 Y107.104 E662.35253
G1 X107.104 Y109.557 E663.21962
G1 X105.716 Y109.557 E663.56672
G1 X109.557 Y105.716 E664.92468
G1 X109.557 Y104.327 E665.27178
G1 X104.327 Y109.557 E667.12061
G1 X102.939 Y109.557 E667.46771
G1 X109.557 Y102.939 E669.80742
G1 X109.557 Y101.551 E670.15452
G1 X101.551 Y109.557 E672.98510
G1 X100.162 Y109.557 E673.33220
G1 X109.557 Y100.162 E676.65365
G1 X109.557 Y98.774 E677.00075
G1 X98.774 Y109.557 E680.81308
G1 X97.385 Y109.557 E681.16018
G1 X109.557 Y97.385 E685.46338
G1 X109.557 Y95.997 E685.81048
G1 X95.997 Y109.557 E690.60455
G1 X94.609 Y109.557 E690.95165
G1 X109.557 Y94.609 E696.23659
G1 X109.557 Y93.220 E696.58369
G1 X93.220 Y109.557 E702.35951
G1 X91.832 Y109.557 E702.70661
G1 X109.557 Y91.832 E708.97330
G1 X109.557 Y90.443 E709.32040
G1 X90.443 Y109.557 E716.07796
G1 X90.443 Y108.168 E716.42506
G1 X108.168 Y90.443 E722.69175
G1 X106.780 Y90.443 E723.03885
G1 X90.443 Y106.780 E728.81467
G1 X90.443 Y105.391 E729.16177
G1 X105.391 Y90.443 E734.44672
G1 X104.003 Y90.443 E734.79381
G1 X90.443 Y104.003 E739.58789
G1 X90.443 Y102.615 E739.93499
G1 X102.615 Y90.443 E744.23819
G1 X101.226 Y90.443 E744.58528
G1 X90.443 Y101.226 E748.39761
G1 X90.443 Y99.838 E748.74471
G1 X99.838 Y90.443 E752.06616
G1 X98.449 Y90.443 E752.41326
G1 X90.443 Y98.449 E755.24384
G1 X90.443 Y97.061 E755.59094
G1 X97.061 Y90.443 E757.93065
G1 X95.673 Y90.443 E758.27775
G1 X90.443 Y95.673 E760.12658
G1 X90.443 Y94.284 E760.47368
G1 X94.284 Y90.443 E761.83164
G1 X92.896 Y90.443 E762.17874
G1 X90.443 Y92.896 E763.04583
G1 X90.443 Y91.507 E763.39293
G1 X91.507 Y90.443 E763.76914
G1 Z3.200 F7800.000
G1 X90.443 Y108.493 F7800.000
G1 F4800
G1 X91.507 Y109.557 E764.14536
G1 X92.896 Y109.557 E764.49246
G1 X90.443 Y107.104 E765.35955
G1 X90.443 Y105.716 E765.70664
G1 X94.284 Y109.557 E767.06461
G1 X95.673 Y109.557 E767.41171
G1 X90.443 Y104.327 E769.26054
G1 X90.443 Y102.939 E769.60764
G1 X97.061 Y109.557 E771.94735
G1 X98.449 Y109.557 E772.29445
G1 X90.443 Y101.551 E775.12503
G1 X90.443 Y100.162 E775.47212
G1 X99.838 Y109.557 E778.79358
G1 X101.226 Y109.557 E779.14068
G1 X90.443 Y98.774 E782.95300
G1 X90.443 Y97.385 E783.30010
G1 X102.615 Y109.557 E787.60330
G1 X104.003 Y109.557 E787.95040
G1 X90.443 Y95.997 E792.74447
G1 X90.443 Y94.609 E793.09157
G1 X105.391 Y109.557 E798.37652
G1 X106.780 Y109.557 E798.72362
G1 X90.443 Y93.220 E804.49943
G1 X90.443 Y91.832 E804.84653
G1 X108.168 Y109.557 E811.11322
G1 X109.557 Y109.557 E811.46032
G1 X90.443 Y90.443 E818.21789
G1 X91.832 Y90.443 E818.56499
G1 X109.557 Y108.168 E824.83168
G1 X109.557 Y106.780 E825.17878
G1 X93.220 Y90.443 E830.95460
G1 X94.609 Y90.443 E831.30170
G1 X109.557 Y105.391 E836.58664
G1 X109.557 Y104.003 E836.93374
G1 X95.997 Y90.443 E841.72781
G1 X97.385 Y90.443 E842.07491
G1 X109.557 Y102.615 E846.37811
G1 X109.557 Y101.226 E846.72521
G1 X98.774 Y90.443 E850.53754
G1 X100.162 Y90.443 E850.88464
G1 X109.557 Y99.838 E854.20609
G1 X109.557 Y98.449 E854.55319
G1 X101.551 Y90.443 E857.38377
G1 X102.939 Y90.443 E857.73087
G1 X109.557 Y97.061 E860.07057
G1 X109.557 Y95.673 E860.41767
G1 X104.327 Y90.443 E862.26651
G1 X105.716 Y90.443 E862.61361
G1 X109.557 Y94.284 E863.97157
G1 X109.557 Y92.896 E864.31867
G1 X107.104 Y90.443 E865.18576
G1 X108.493 Y90.443 E865.53286
G1 X109.557 Y91.507 E865.90907
G1 Z3.600 F7800.000
G1 X108.493 Y109.557 F7800.000
G1 F4800
G1 X109.557 Y108.493 E866.28529
G1 X109.557 Y107.104 E866.63239
G1 X107.104 Y109.557 E867.49947
G1 X105.716 Y109.557 E867.84657
G1 X109.557 Y105.716 E869.20454
G1 X109.557 Y104.327 E869.55163
G1 X104.327 Y109.557 E871.40047
G1 X102.939 Y109.557 E871.74757
G1 X109.557 Y102.939 E874.08728
G1 X109.557 Y101.551 E874.43437
G1 X101.551 Y109.557 E877.26496
G1 X100.162 Y109.557 E877.61205
G1 X109.557 Y100.162 E880.93351
G1 X109.557 Y98.774 E881.28061
G1 X98.774 Y109.557 E885.09293
G1 X97.385 Y109.557 E885.44003
G1 X109.557 Y97.385 E889.74323
G1 X109.557 Y95.997 E890.09033
G1 X95.997 Y109.557 E894.88440
G1 X94.609 Y109.557 E895.23150
G1 X109.557 Y94.609 E900.51645
G1 X109.557 Y93.220 E900.86355
G1 X93.220 Y109.557 E906.63937
G1 X91.832 Y109.557 E906.98647
G1 X109.557 Y91.832 E913.25316
G1 X109.557 Y90.443 E913.60026
G1 X90.443 Y109.557 E920.35782
G1 X90.443 Y108.168 E920.70492
G1 X108.168 Y90.443 E926.97161
G1 X106.780 Y90.443 E927.31871
G1 X90.443 Y106.780 E933.09453
G1 X90.443 Y105.391 E933.44163
G1 X105.391 Y90.443 E938.72657
G1 X104.003 Y90.443 E939.07367
G1 X90.443 Y104.003 E943.86774
G1 X90.443 Y102.615 E944.21484
G1 X102.615 Y90.443 E948.51804
G1 X101.226 Y90.443 E948.86514
G1 X90.443 Y101.226 E952.67747
G1 X90.443 Y99.838 E953.02457
G1 X99.838 Y90.443 E956.34602
G1 X98.449 Y90.443 E956.69312
G1 X90.443 Y98.449 E959.52370
G1 X90.443 Y97.061 E959.87080
G1 X97.061 Y90.443 E962.21050
G1 X95.673 Y90.443 E962.55760
G1 X90.443 Y95.673 E964.40644
G1 X90.443 Y94.284 E964.75354
G1 X94.284 Y90.443 E966.11150
G1 X92.896 Y90.443 E966.45860
G1 X90.443 Y92.896 E967.32568
G1 X90.443 Y91.507 E967.67278
G1 X91.507 Y90.443 E968.04900
G1 Z4.000 F7800.000
G1 X90.443 Y108.493 F7800.000
G1 F4800
G1 X91.507 Y109.557 E968.42521
G1 X92.896 Y109.557 E968.77231
G1 X90.443 Y107.104 E969.63940
G1 X90.443 Y105.716 E969.98650
G1 X94.284 Y109.557 E971.34446
G1 X95.673 Y109.557 E971.69156
G1 X90.443 Y104.327 E973.54040
G1 X90.443 Y102.939 E973.88749
G1 X97.061 Y109.557 E976.22720
G1 X98.449 Y109.557 E976.57430
G1 X90.443 Y101.551 E979.40488
G1 X90.443 Y100.162 E979.75198
G1 X99.838 Y109.557 E983.07343
G1 X101.226 Y109.557 E983.42053
G1 X90.443 Y98.774 E987.23286
G1 X90.443 Y97.385 E987.57996
G1 X102.615 Y109.557 E991.88316
G1 X104.003 Y109.557 E992.23026
G1 X90.443 Y95.997 E997.02433
G1 X90.443 Y94.609 E997.37143
G1 X105.391 Y109.557 E1002.65637
G1 X106.780 Y109.557 E1003.00347
G1 X90.443 Y93.220 E1008.77929
G1 X90.443 Y91.832 E1009.12639
G1 X108.168 Y109.557 E1015.39308
G1 X109.557 Y109.557 E1015.74018
G1 X90.443 Y90.443 E1022.49774
G1 X91.832 Y90.443 E1022.84484
G1 X109.557 Y108.168 E1029.11153
G1 X109.557 Y106.780 E1029.45863
G1 X93.220 Y90.443 E1035.23445
G1 X94.609 Y90.443 E1035.58155
G1 X109.557 Y105.391 E1040.86650
G1 X109.557 Y104.003 E1041.21360
G1 X95.997 Y90.443 E1046.00767
G1 X97.385 Y90.443 E1046.35477
G1 X109.557 Y102.615 E1050.65797
G1 X109.557 Y101.226 E1051.00507
G1 X98.774 Y90.443 E1054.81739
G1 X100.162 Y90.443 E1055.16449
G1 X109.557 Y99.838 E1058.48594
G1 X109.557 Y98.449 E1058.83304
G1 X101.551 Y90.443 E1061.66362
G1 X102.939 Y90.443 E1062.01072
G1 X109.557 Y97.061 E1064.35043
G1 X109.557 Y95.673 E1064.69753
G1 X104.327 Y90.443 E1066.54636
G1 X105.716 Y90.443 E1066.89346
G1 X109.557 Y94.284 E1068.25142
G1 X109.557 Y92.896 E1068.59852
G1 X107.104 Y90.443 E1069.46561
G1 X108.493 Y90.443 E1069.81271
G1 X109.557 Y91.507 E1070.18893
G1 Z4.400 F7800.000
G1 X108.493 Y109.557 F7800.000
G1 F4800
G1 X109.557 Y108.493 E1070.56514
G1 X109.557 Y107.104 E1070.91224
G1 X107.104 Y109.557 E1071.77933
G1 X105.716 Y109.557 E1072.12643
G1 X109.557 Y105.716 E1073.48439
G1 X109.557 Y104.327 E1073.83149
G1 X104.327 Y109.557 E1075.68032
G1 X102.939 Y109.557 E1076.02742
G1 X109.557 Y102.939 E1078.36713
G1 X109.557 Y101.551 E1078.71423
G1 X101.551 Y109.557 E1081.54481
G1 X100.162 Y109.557 E1081.89191
G1 X109.557 Y100.162 E1085.21336
G1 X109.557 Y98.774 E1085.56046
G1 X98.774 Y109.557 E1089.37279
G1 X97.385 Y109.557 E1089.71989
G1 X109.557 Y97.385 E1094.02309
G1 X109.557 Y95.997 E1094.37019
G1 X95.997 Y109.557 E1099.16426
G1 X94.609 Y109.557 E1099.51136
G1 X109.557 Y94.609 E1104.79631
G1 X109.557 Y93.220 E1105.14340
G1 X93.220 Y109.557 E1110.91922
G1 X91.832 Y109.557 E1111.26632
G1 X109.557 Y91.832 E1117.53301
G1 X109.557 Y90.443 E1117.88011
G1 X90.443 Y109.557 E1124.63768
G1 X90.443 Y108.168 E1124.98478
G1 X108.168 Y90.443 E1131.25147
G1 X106.780 Y90.443 E1131.59857
G1 X90.443 Y106.780 E1137.37438
G1 X90.443 Y105.391 E1137.72148
G1 X105.391 Y90.443 E1143.00643
G1 X104.003 Y90.443 E1143.35353
G1 X90.443 Y104.003 E1148.14760
G1 X90.443 Y102.615 E1148.49470
G1 X102.615 Y90.443 E1152.79790
G1 X101.226 Y90.443 E1153.14500
G1 X90.443 Y101.226 E1156.95732
G1 X90.443 Y99.838 E1157.30442
G1 X99.838 Y90.443 E1160.62587
G1 X98.449 Y90.443 E1160.97297
G1 X90.443 Y98.449 E1163.80355
G1 X90.443 Y97.061 E1164.15065
G1 X97.061 Y90.443 E1166.49036
G1 X95.673 Y90.443 E1166.83746
G1 X90.443 Y95.673 E1168.68629
G1 X90.443 Y94.284 E1169.03339
G1 X94.284 Y90.443 E1170.39135
G1 X92.896 Y90.443 E1170.73845
G1 X90.443 Y92.896 E1171.60554
G1 X90.443 Y91.507 E1171.95264
G1 X91.507 Y90.443 E1172.32885
G1 Z4.800 F7800.000
G1 X90.443 Y108.493 F7800.000
G1 F4800
G1 X91.507 Y109.557 E1172.70507
G1 X92.896 Y109.557 E1173.05217
G1 X90.443 Y107.104 E1173.91926
G1 X90.443 Y105.716 E1174.26636
G1 X94.284 Y109.557 E1175.62432
G1 X95.673 Y109.557 E1175.97142
G1 X90.443 Y104.327 E1177.82025
G1 X90.443 Y102.939 E1178.16735
G1 X97.061 Y109.557 E1180.50706
G1 X98.449 Y109.557 E1180.85416
G1 X90.443 Y101.551 E1183.68474
G1 X90.443 Y100.162 E1184.03184
G1 X99.838 Y109.557 E1187.35329
G1 X101.226 Y109.557 E1187.70039
G1 X90.443 Y98.774 E1191.51271
G1 X90.443 Y97.385 E1191.85981
G1 X102.615 Y109.557 E1196.16301
G1 X104.003 Y109.557 E1196.51011
G1 X90.443 Y95.997 E1201.30418
G1 X90.443 Y94.609 E1201.65128
G1 X105.391 Y109.557 E1206.93623
G1 X106.780 Y109.557 E1207.28333
G1 X90.443 Y93.220 E1213.05915
G1 X90.443 Y91.832 E1213.40625
G1 X108.168 Y109.557 E1219.67294
G1 X109.557 Y109.557 E1220.02004
G1 X90.443 Y90.443 E1226.77760
G1 X91.832 Y90.443 E1227.12470
G1 X109.557 Y108.168 E1233.39139
G1 X109.557 Y106.780 E1233.73849
G1 X93.220 Y90.443 E1239.51431
G1 X94.609 Y90.443 E1239.86141
G1 X109.557 Y105.391 E1245.14635
G1 X109.557 Y104.003 E1245.49345
G1 X95.997 Y90.443 E1250.28752
G1 X97.385 Y90.443 E1250.63462
G1 X109.557 Y102.615 E1254.93782
G1 X109.557 Y101.226 E1255.28492
G1 X98.774 Y90.443 E1259.09725
G1 X100.162 Y90.443 E1259.44435
G1 X109.557 Y99.838 E1262.76580
G1 X109.557 Y98.449 E1263.11290
G1 X101.551 Y90.443 E1265.94348
G1 X102.939 Y90.443 E1266.29058
G1 X109.557 Y97.061 E1268.63029
G1 X109.557 Y95.673 E1268.97739
G1 X104.327 Y90.443 E1270.82622
G1 X105.716 Y90.443 E1271.17332
G1 X109.557 Y94.284 E1272.53128
G1 X109.557 Y92.896 E1272.87838
G1 X107.104 Y90.443 E1273.74547
G1 X108.493 Y90.443 E1274.09257
G1 X109.557 Y91.507 E1274.46878
G1 Z5.200 F7800.000
G1 X108.493 Y109.557 F7800.000
G1 F4800
G1 X109.557 Y108.493 E1274.84500
G1 X109.557 Y107.104 E1275.19210
G1 X107.104 Y109.557 E1276.05919
G1 X105.716 Y109.557 E1276.40629
G1 X109.557 Y105.716 E1277.76425
G1 X109.557 Y104.327 E1278.11135
G1 X104.327 Y109.557 E1279.96018
G1 X102.939 Y109.557 E1280.30728
G1 X109.557 Y102.939 E1282.64699
G1 X109.557 Y101.551 E1282.99409
G1 X101.551 Y109.557 E1285.82467
G1 X100.162 Y109.557 E1286.17177
G1 X109.557 Y100.162 E1289.49322
G1 X109.557 Y98.774 E1289.84032
G1 X98.774 Y109.557 E1293.65265
G1 X97.385 Y109.557 E1293.99975
G1 X109.557 Y97.385 E1298.30294
G1 X109.557 Y95.997 E1298.65004
G1 X95.997 Y109.557 E1303.44412
G1 X94.609 Y109.557 E1303.79122
G1 X109.557 Y94.609 E1309.07616
G1 X109.557 Y93.220 E1309.42326
G1 X93.220 Y109.557 E1315.19908
G1 X91.832 Y109.557 E1315.54618
G1 X109.557 Y91.832 E1321.81287
G1 X109.557 Y90.443 E1322.15997
G1 X90.443 Y109.557 E1328.91753
G1 X90.443 Y108.168 E1329.26463
G1 X108.168 Y90.443 E1335.53132
G1 X106.780 Y90.443 E1335.87842
G1 X90.443 Y106.780 E1341.65424
G1 X90.443 Y105.391 E1342.00134
G1 X105.391 Y90.443 E1347.28628
G1 X104.003 Y90.443 E1347.63338
G1 X90.443 Y104.003 E1352.42745
G1 X90.443 Y102.615 E1352.77455
G1 X102.615 Y90.443 E1357.07775
G1 X101.226 Y90.443 E1357.42485
G1 X90.443 Y101.226 E1361.23718
G1 X90.443 Y99.838 E1361.58428
G1 X99.838 Y90.443 E1364.90573
G1 X98.449 Y90.443 E1365.25283
G1 X90.443 Y98.449 E1368.08341
G1 X90.443 Y97.061 E1368.43051
G1 X97.061 Y90.443 E1370.77022
G1 X95.673 Y90.443 E1371.11732
G1 X90.443 Y95.673 E1372.96615
G1 X90.443 Y94.284 E1373.31325
G1 X94.284 Y90.443 E1374.67121
G1 X92.896 Y90.443 E1375.01831
G1 X90.443 Y92.896 E1375.88540
G1 X90.443 Y91.507 E1376.23250
G1 X91.507 Y90.443 E1376.60871
G1 Z5.600 F7800.000
G1 X90.443 Y108.493 F7800.000
G1 F4800
G1 X91.507 Y109.557 E1376.98493
G1 X92.896 Y109.557 E1377.33203
G1 X90.443 Y107.104 E1378.19911
G1 X90.443 Y105.716 E1378.54621
G1 X94.284 Y109.557 E1379.90417
G1 X95.673 Y109.557 E1380.25127
G1 X90.443 Y104.327 E1382.10011
G1 X90.443 Y102.939 E1382.44721
G1 X97.061 Y109.557 E1384.78691
G1 X98.449 Y109.557 E1385.13401
G1 X90.443 Y101.551 E1387.96459
G1 X90.443 Y100.162 E1388.31169
G1 X99.838 Y109.557 E1391.63314
G1 X101.226 Y109.557 E1391.98024
G1 X90.443 Y98.774 E1395.79257
G1 X90.443 Y97.385 E1396.13967
G1 X102.615 Y109.557 E1400.44287
G1 X104.003 Y109.557 E1400.78997
G1 X90.443 Y95.997 E1405.58404
G1 X90.443 Y94.609 E1405.93114
G1 X105.391 Y109.557 E1411.21608
G1 X106.780 Y109.557 E1411.56318
G1 X90.443 Y93.220 E1417.33900
G1 X90.443 Y91.832 E1417.68610
G1 X108.168 Y109.557 E1423.95279
G1 X109.557 Y109.557 E1424.29989
G1 X90.443 Y90.443 E1431.05746
G1 X91.832 Y90.443 E1431.40455
G1 X109.557 Y108.168 E1437.67125
G1 X109.557 Y106.780 E1438.01835
G1 X93.220 Y90.443 E1443.79416
G1 X94.609 Y90.443 E1444.14126
G1 X109.557 Y105.391 E1449.42621
G1 X109.557 Y104.003 E1449.77331
G1 X95.997 Y90.443 E1454.56738
G1 X97.385 Y90.443 E1454.91448
G1 X109.557 Y102.615 E1459.21768
G1 X109.557 Y101.226 E1459.56478
G1 X98.774 Y90.443 E1463.37710
G1 X100.162 Y90.443 E1463.72420
G1 X109.557 Y99.838 E1467.04566
G1 X109.557 Y98.449 E1467.39276
G1 X101.551 Y90.443 E1470.22334
G1 X102.939 Y90.443 E1470.57044
G1 X109.557 Y97.061 E1472.91014
G1 X109.557 Y95.673 E1473.25724
G1 X104.327 Y90.443 E1475.10608
G1 X105.716 Y90.443 E1475.45318
G1 X109.557 Y94.284 E1476.81114
G1 X109.557 Y92.896 E1477.15824
G1 X107.104 Y90.443 E1478.02532
G1 X108.493 Y90.443 E1478.37242
G1 X109.557 Y91.507 E1478.74864
G1 Z6.000 F7800.000
G1 X108.493 Y109.557 F7800.000
G1 F4800
G1 X109.557 Y108.493 E1479.12485
G1 X109.557 Y107.104 E1479.47195
G1 X107.104 Y109.557 E1480.33904
G1 X105.716 Y109.557 E1480.68614
G1 X109.557 Y105.716 E1482.04410
G1 X109.557 Y104.327 E1482.39120
G1 X104.327 Y109.557 E1484.24004
G1 X102.939 Y109.557 E1484.58714
G1 X109.557 Y102.939 E1486.92684
G1 X109.557 Y101.551 E1487.27394
G1 X101.551 Y109.557 E1490.10452
G1 X100.162 Y109.557 E1490.45162
G1 X109.557 Y100.162 E1493.77308
G1 X109.557 Y98.774 E1494.12018
G1 X98.774 Y109.557 E1497.93250
G1 X97.385 Y109.557 E1498.27960
G1 X109.557 Y97.385 E1502.58280
G1 X109.557 Y95.997 E1502.92990
G1 X95.997 Y109.557 E1507.72397
G1 X94.609 Y109.557 E1508.07107
G1 X109.557 Y94.609 E1513.35602
G1 X109.557 Y93.220 E1513.70312
G1 X93.220 Y109.557 E1519.47893
G1 X91.832 Y109.557 E1519.82603
G1 X109.557 Y91.832 E1526.09273
G1 X109.557 Y90.443 E1526.43983
G1 X90.443 Y109.557 E1533.19739
G1 X90.443 Y108.168 E1533.54449
G1 X108.168 Y90.443 E1539.81118
G1 X106.780 Y90.443 E1540.15828
G1 X90.443 Y106.780 E1545.93410
G1 X90.443 Y105.391 E1546.28119
G1 X105.391 Y90.443 E1551.56614
G1 X104.003 Y90.443 E1551.91324
G1 X90.443 Y104.003 E1556.70731
G1 X90.443 Y102.615 E1557.05441
G1 X102.615 Y90.443 E1561.35761
G1 X101.226 Y90.443 E1561.70471
G1 X90.443 Y101.226 E1565.51703
G1 X90.443 Y99.838 E1565.86413
G1 X99.838 Y90.443 E1569.18559
G1 X98.449 Y90.443 E1569.53269
G1 X90.443 Y98.449 E1572.36327
G1 X90.443 Y97.061 E1572.71036
G1 X97.061 Y90.443 E1575.05007
G1 X95.673 Y90.443 E1575.39717
G1 X90.443 Y95.673 E1577.24600
G1 X90.443 Y94.284 E1577.59310
G1 X94.284 Y90.443 E1578.95107
G1 X92.896 Y90.443 E1579.29816
G1 X90.443 Y92.896 E1580.16525
G1 X90.443 Y91.507 E1580.51235
G1 X91.507 Y90.443 E1580.88857
G1 Z6.400 F7800.000
G1 X90.443 Y108.493 F7800.000
G1 F4800
G1 X91.507 Y109.557 E1581.26478
G1 X92.896 Y109.557 E1581.61188
G1 X90.443 Y107.104 E1582.47897
G1 X90.443 Y105.716 E1582.82607
G1 X94.284 Y109.557 E1584.18403
G1 X95.673 Y109.557 E1584.53113
G1 X90.443 Y104.327 E1586.37996
G1 X90.443 Y102.939 E1586.72706
G1 X97.061 Y109.557 E1589.06677
G1 X98.449 Y109.557 E1589.41387
G1 X90.443 Y101.551 E1592.24445
G1 X90.443 Y100.162 E1592.59155
G1 X99.838 Y109.557 E1595.91300
G1 X101.226 Y109.557 E1596.26010
G1 X90.443 Y98.774 E1600.07243
G1 X90.443 Y97.385 E1600.41953
G1 X102.615 Y109.557 E1604.72272
G1 X104.003 Y109.557 E1605.06982
G1 X90.443 Y95.997 E1609.86390
G1 X90.443 Y94.609 E1610.21100
G1 X105.391 Y109.557 E1615.49594
G1 X106.780 Y109.557 E1615.84304
G1 X90.443 Y93.220 E1621.61886
G1 X90.443 Y91.832 E1621.96596
G1 X108.168 Y109.557 E1628.23265
G1 X109.557 Y109.557 E1628.57975
G1 X90.443 Y90.443 E1635.33731
G1 X91.832 Y90.443 E1635.68441
G1 X109.557 Y108.168 E1641.95110
G1 X109.557 Y106.780 E1642.29820
G1 X93.220 Y90.443 E1648.07402
G1 X94.609 Y90.443 E1648.42112
G1 X109.557 Y105.391 E1653.70606
G1 X109.557 Y104.003 E1654.05316
G1 X95.997 Y90.443 E1658.84724
G1 X97.385 Y90.443 E1659.19434
G1 X109.557 Y102.615 E1663.49753
G1 X109.557 Y101.226 E1663.84463
G1 X98.774 Y90.443 E1667.65696
G1 X100.162 Y90.443 E1668.00406
G1 X109.557 Y99.838 E1671.32551
G1 X109.557 Y98.449 E1671.67261
G1 X101.551 Y90.443 E1674.50319
G1 X102.939 Y90.443 E1674.85029
G1 X109.557 Y97.061 E1677.19000
G1 X109.557 Y95.673 E1677.53710
G1 X104.327 Y90.443 E1679.38593
G1 X105.716 Y90.443 E1679.73303
G1 X109.557 Y94.284 E1681.09099
G1 X109.557 Y92.896 E1681.43809
G1 X107.104 Y90.443 E1682.30518
G1 X108.493 Y90.443 E1682.65228
G1 X109.557 Y91.507 E1683.02850
G1 Z6.800 F7800.000
G1 X108.493 Y109.557 F7800.000
G1 F4800
G1 X109.557 Y108.493 E1683.40471
G1 X109.557 Y107.104 E1683.75181
G1 X107.104 Y109.557 E1684.61890
G1 X105.716 Y109.557 E1684.96600
G1 X109.557 Y105.716 E1686.32396
G1 X109.557 Y104.327 E1686.67106
G1 X104.327 Y109.557 E1688.51989
G1 X102.939 Y109.557 E1688.86699
G1 X109.557 Y102.939 E1691.20670
G1 X109.557 Y101.551 E1691.55380
G1 X101.551 Y109.557 E1694.38438
G1 X100.162 Y109.557 E1694.73148
G1 X109.557 Y100.162 E1698.05293
G1 X109.557 Y98.774 E1698.40003
G1 X98.774 Y109.557 E1702.21236
G1 X97.385 Y109.557 E1702.55946
G1 X109.557 Y97.385 E1706.86266
G1 X109.557 Y95.997 E1707.20976
G1 X95.997 Y109.557 E1712.00383
G1 X94.609 Y109.557 E1712.35093
G1 X109.557 Y94.609 E1717.63587
G1 X109.557 Y93.220 E1717.98297
G1 X93.220 Y109.557 E1723.75879
G1 X91.832 Y109.557 E1724.10589
G1 X109.557 Y91.832 E1730.37258
G1 X109.557 Y90.443 E1730.71968
G1 X90.443 Y109.557 E1737.47724
G1 X90.443 Y108.168 E1737.82434
G1 X108.168 Y90.443 E1744.09103
G1 X106.780 Y90.443 E1744.43813
G1 X90.443 Y106.780 E1750.21395
G1 X90.443 Y105.391 E1750.56105
G1 X105.391 Y90.443 E1755.84600
G1 X104.003 Y90.443 E1756.19309
G1 X90.443 Y104.003 E1760.98717
G1 X90.443 Y102.615 E1761.33427
G1 X102.615 Y90.443 E1765.63746
G1 X101.226 Y90.443 E1765.98456
G1 X90.443 Y101.226 E1769.79689
G1 X90.443 Y99.838 E1770.14399
G1 X99.838 Y90.443 E1773.46544
G1 X98.449 Y90.443 E1773.81254
G1 X90.443 Y98.449 E1776.64312
G1 X90.443 Y97.061 E1776.99022
G1 X97.061 Y90.443 E1779.32993
G1 X95.673 Y90.443 E1779.67703
G1 X90.443 Y95.673 E1781.52586
G1 X90.443 Y94.284 E1781.87296
G1 X94.284 Y90.443 E1783.23092
G1 X92.896 Y90.443 E1783.57802
G1 X90.443 Y92.896 E1784.44511
G1 X90.443 Y91.507 E1784.79221
G1 X91.507 Y90.443 E1785.16842
G1 Z7.200 F7800.000
G1 X90.443 Y108.493 F7800.000
G1 F4800
G1 X91.507 Y109.557 E1785.54464
G1 X92.896 Y109.557 E1785.89174
G1 X90.443 Y107.104 E1786.75883
G1 X90.443 Y105.716 E1787.10592
G1 X94.284 Y109.557 E1788.46389
G1 X95.673 Y109.557 E1788.81099
G1 X90.443 Y104.327 E1790.65982
G1 X90.443 Y102.939 E1791.00692
G1 X97.061 Y109.557 E1793.34663
G1 X98.449 Y109.557 E1793.69373
G1 X90.443 Y101.551 E1796.52431
G1 X90.443 Y100.162 E1796.87140
G1 X99.838 Y109.557 E1800.19286
G1 X101.226 Y109.557 E1800.53996
G1 X90.443 Y98.774 E1804.35228
G1 X90.443 Y97.385 E1804.69938
G1 X102.615 Y109.557 E1809.00258
G1 X104.003 Y109.557 E1809.34968
G1 X90.443 Y95.997 E1814.14375
G1 X90.443 Y94.609 E1814.49085
G1 X105.391 Y109.557 E1819.77580
G1 X106.780 Y109.557 E1820.12290
G1 X90.443 Y93.220 E1825.89871
G1 X90.443 Y91.832 E1826.24581
G1 X108.168 Y109.557 E1832.51250
G1 X109.557 Y109.557 E1832.85960
G1 X90.443 Y90.443 E1839.61717
G1 X91.832 Y90.443 E1839.96427
G1 X109.557 Y108.168 E1846.23096
G1 X109.557 Y106.780 E1846.57806
G1 X93.220 Y90.443 E1852.35388
G1 X94.609 Y90.443 E1852.70098
G1 X109.557 Y105.391 E1857.98592
G1 X109.557 Y104.003 E1858.33302
G1 X95.997 Y90.443 E1863.12709
G1 X97.385 Y90.443 E1863.47419
G1 X109.557 Y102.615 E1867.77739
G1 X109.557 Y101.226 E1868.12449
G1 X98.774 Y90.443 E1871.93682
G1 X100.162 Y90.443 E1872.28392
G1 X109.557 Y99.838 E1875.60537
G1 X109.557 Y98.449 E1875.95247
G1 X101.551 Y90.443 E1878.78305
G1 X102.939 Y90.443 E1879.13015
G1 X109.557 Y97.061 E1881.46985
G1 X109.557 Y95.673 E1881.81695
G1 X104.327 Y90.443 E1883.66579
G1 X105.716 Y90.443 E1884.01289
G1 X109.557 Y94.284 E1885.37085
G1 X109.557 Y92.896 E1885.71795
G1 X107.104 Y90.443 E1886.58504
G1 X108.493 Y90.443 E1886.93214
G1 X109.557 Y91.507 E1887.30835
G1 Z7.600 F7800.000
G1 X108.493 Y109.557 F7800.000
G1 F4800
G1 X109.557 Y108.493 E1887.68457
G1 X109.557 Y107.104 E1888.03167
G1 X107.104 Y109.557 E1888.89875
G1 X105.716 Y109.557 E1889.24585
G1 X109.557 Y105.716 E1890.60381
G1 X109.557 Y104.327 E1890.95091
G1 X104.327 Y109.557 E1892.79975
G1 X102.939 Y109.557 E1893.14685
G1 X109.557 Y102.939 E1895.48656
G1 X109.557 Y101.551 E1895.83365
G1 X101.551 Y109.557 E1898.66423
G1 X100.162 Y109.557 E1899.01133
G1 X109.557 Y100.162 E1902.33279
G1 X109.557 Y98.774 E1902.67989
G1 X98.774 Y109.557 E1906.49221
G1 X97.385 Y109.557 E1906.83931
G1 X109.557 Y97.385 E1911.14251
G1 X109.557 Y95.997 E1911.48961
G1 X95.997 Y109.557 E1916.28368
G1 X94.609 Y109.557 E1916.63078
G1 X109.557 Y94.609 E1921.91573
G1 X109.557 Y93.220 E1922.26283
G1 X93.220 Y109.557 E1928.03865
G1 X91.832 Y109.557 E1928.38575
G1 X109.557 Y91.832 E1934.65244
G1 X109.557 Y90.443 E1934.99954
G1 X90.443 Y109.557 E1941.75710
G1 X90.443 Y108.168 E1942.10420
G1 X108.168 Y90.443 E1948.37089
G1 X106.780 Y90.443 E1948.71799
G1 X90.443 Y106.780 E1954.49381
G1 X90.443 Y105.391 E1954.84091
G1 X105.391 Y90.443 E1960.12585
G1 X104.003 Y90.443 E1960.47295
G1 X90.443 Y104.003 E1965.26702
G1 X90.443 Y102.615 E1965.61412
G1 X102.615 Y90.443 E1969.91732
G1 X101.226 Y90.443 E1970.26442
G1 X90.443 Y101.226 E1974.07675
G1 X90.443 Y99.838 E1974.42385
G1 X99.838 Y90.443 E1977.74530
G1 X98.449 Y90.443 E1978.09240
G1 X90.443 Y98.449 E1980.92298
G1 X90.443 Y97.061 E1981.27008
G1 X97.061 Y90.443 E1983.60978
G1 X95.673 Y90.443 E1983.95688
G1 X90.443 Y95.673 E1985.80572
G1 X90.443 Y94.284 E1986.15282
G1 X94.284 Y90.443 E1987.51078
G1 X92.896 Y90.443 E1987.85788
G1 X90.443 Y92.896 E1988.72496
G1 X90.443 Y91.507 E1989.07206
G1 X91.507 Y90.443 E1989.44828
G1 Z8.000 F7800.000
G1 X90.443 Y108.493 F7800.000
G1 F4800
G1 X91.507 Y109.557 E1989.82449
G1 X92.896 Y109.557 E1990.17159
G1 X90.443 Y107.104 E1991.03868
G1 X90.443 Y105.716 E1991.38578
G1 X94.284 Y109.557 E1992.74374
G1 X95.673 Y109.557 E1993.09084
G1 X90.443 Y104.327 E1994.93968
G1 X90.443 Y102.939 E1995.28677
G1 X97.061 Y109.557 E1997.62648
G1 X98.449 Y109.557 E1997.97358
G1 X90.443 Y101.551 E2000.80416
G1 X90.443 Y100.162 E2001.15126
G1 X99.838 Y109.557 E2004.47271
G1 X101.226 Y109.557 E2004.81981
G1 X90.443 Y98.774 E2008.63214
G1 X90.443 Y97.385 E2008.97924
G1 X102.615 Y109.557 E2013.28244
G1 X104.003 Y109.557 E2013.62954
G1 X90.443 Y95.997 E2018.42361
G1 X90.443 Y94.609 E2018.77071
G1 X105.391 Y109.557 E2024.05565
G1 X106.780 Y109.557 E2024.40275
G1 X90.443 Y93.220 E2030.17857
G1 X90.443 Y91.832 E2030.52567
G1 X108.168 Y109.557 E2036.79236
G1 X109.557 Y109.557 E2037.13946
G1 X90.443 Y90.443 E2043.89702
G1 X91.832 Y90.443 E2044.24412
G1 X109.557 Y108.168 E2050.51081
G1 X109.557 Y106.780 E2050.85791
G1 X93.220 Y90.443 E2056.63373
G1 X94.609 Y90.443 E2056.98083
G1 X109.557 Y105.391 E2062.26578
G1 X109.557 Y104.003 E2062.61288
G1 X95.997 Y90.443 E2067.40695
G1 X97.385 Y90.443 E2067.75405
G1 X109.557 Y102.615 E2072.05725
G1 X109.557 Y101.226 E2072.40435
G1 X98.774 Y90.443 E2076.21667
G1 X100.162 Y90.443 E2076.56377
G1 X109.557 Y99.838 E2079.88522
G1 X109.557 Y98.449 E2080.23232
G1 X101.551 Y90.443 E2083.06290
G1 X102.939 Y90.443 E2083.41000
G1 X109.557 Y97.061 E2085.74971
G1 X109.557 Y95.673 E2086.09681
G1 X104.327 Y90.443 E2087.94564
G1 X105.716 Y90.443 E2088.29274
G1 X109.557 Y94.284 E2089.65070
G1 X109.557 Y92.896 E2089.99780
G1 X107.104 Y90.443 E2090.86489
G1 X108.493 Y90.443 E2091.21199
G1 X109.557 Y91.507 E2091.58821
G1 Z8.400 F7800.000
G1 X108.493 Y109.557 F7800.000
G1 F4800
G1 X109.557 Y108.493 E2091.96442
G1 X109.557 Y107.104 E2092.31152
G1 X107.104 Y109.557 E2093.17861
G1 X105.716 Y109.557 E2093.52571
G1 X109.557 Y105.716 E2094.88367
G1 X109.557 Y104.327 E2095.23077
G1 X104.327 Y109.557 E2097.07960
G1 X102.939 Y109.557 E2097.42670
G1 X109.557 Y102.939 E2099.76641
G1 X109.557 Y101.551 E2100.11351
G1 X101.551 Y109.557 E2102.94409
G1 X100.162 Y109.557 E2103.29119
G1 X109.557 Y100.162 E2106.61264
G1 X109.557 Y98.774 E2106.95974
G1 X98.774 Y109.557 E2110.77207
G1 X97.385 Y109.557 E2111.11917
G1 X109.557 Y97.385 E2115.42237
G1 X109.557 Y95.997 E2115.76947
G1 X95.997 Y109.557 E2120.56354
G1 X94.609 Y109.557 E2120.91064
G1 X109.557 Y94.609 E2126.19559
G1 X109.557 Y93.220 E2126.54268
G1 X93.220 Y109.557 E2132.31850
G1 X91.832 Y109.557 E2132.66560
G1 X109.557 Y91.832 E2138.93229
G1 X109.557 Y90.443 E2139.27939
G1 X90.443 Y109.557 E2146.03696
G1 X90.443 Y108.168 E2146.38406
G1 X108.168 Y90.443 E2152.65075
G1 X106.780 Y90.443 E2152.99785
G1 X90.443 Y106.780 E2158.77366
G1 X90.443 Y105.391 E2159.12076
G1 X105.391 Y90.443 E2164.40571
G1 X104.003 Y90.443 E2164.75281
G1 X90.443 Y104.003 E2169.54688
G1 X90.443 Y102.615 E2169.89398
G1 X102.615 Y90.443 E2174.19718
G1 X101.226 Y90.443 E2174.54428
G1 X90.443 Y101.226 E2178.35660
G1 X90.443 Y99.838 E2178.70370
G1 X99.838 Y90.443 E2182.02515
G1 X98.449 Y90.443 E2182.37225
G1 X90.443 Y98.449 E2185.20283
G1 X90.443 Y97.061 E2185.54993
G1 X97.061 Y90.443 E2187.88964
G1 X95.673 Y90.443 E2188.23674
G1 X90.443 Y95.673 E2190.08557
G1 X90.443 Y94.284 E2190.43267
G1 X94.284 Y90.443 E2191.79063
G1 X92.896 Y90.443 E2192.13773
G1 X90.443 Y92.896 E2193.00482
G1 X90.443 Y91.507 E2193.35192
G1 X91.507 Y90.443 E2193.72813
G1 Z8.800 F7800.000
G1 X90.443 Y108.493 F7800.000
G1 F4800
G1 X91.507 Y109.557 E2194.10435
G1 X92.896 Y109.557 E2194.45145
G1 X90.443 Y107.104 E2195.31854
G1 X90.443 Y105.716 E2195.66564
G1 X94.284 Y109.557 E2197.02360
G1 X95.673 Y109.557 E2197.37070
G1 X90.443 Y104.327 E2199.21953
G1 X90.443 Y102.939 E2199.56663
G1 X97.061 Y109.557 E2201.90634
G1 X98.449 Y109.557 E2202.25344
G1 X90.443 Y101.551 E2205.08402
G1 X90.443 Y100.162 E2205.43112
G1 X99.838 Y109.557 E2208.75257
G1 X101.226 Y109.557 E2209.09967
G1 X90.443 Y98.774 E2212.91199
G1 X90.443 Y97.385 E2213.25909
G1 X102.615 Y109.557 E2217.56229
G1 X104.003 Y109.557 E2217.90939
G1 X90.443 Y95.997 E2222.70346
G1 X90.443 Y94.609 E2223.05056
G1 X105.391 Y109.557 E2228.33551
G1 X106.780 Y109.557 E2228.68261
G1 X90.443 Y93.220 E2234.45843
G1 X90.443 Y91.832 E2234.80553
G1 X108.168 Y109.557 E2241.07222
G1 X109.557 Y109.557 E2241.41932
G1 X90.443 Y90.443 E2248.17688
G1 X91.832 Y90.443 E2248.52398
G1 X109.557 Y108.168 E2254.79067
G1 X109.557 Y106.780 E2255.13777
G1 X93.220 Y90.443 E2260.91359
G1 X94.609 Y90.443 E2261.26069
G1 X109.557 Y105.391 E2266.54563
G1 X109.557 Y104.003 E2266.89273
G1 X95.997 Y90.443 E2271.68680
G1 X97.385 Y90.443 E2272.03390
G1 X109.557 Y102.615 E2276.33710
G1 X109.557 Y101.226 E2276.68420
G1 X98.774 Y90.443 E2280.49653
G1 X100.162 Y90.443 E2280.84363
G1 X109.557 Y99.838 E2284.16508
G1 X109.557 Y98.449 E2284.51218
G1 X101.551 Y90.443 E2287.34276
G1 X102.939 Y90.443 E2287.68986
G1 X109.557 Y97.061 E2290.02957
G1 X109.557 Y95.673 E2290.37667
G1 X104.327 Y90.443 E2292.22550
G1 X105.716 Y90.443 E2292.57260
G1 X109.557 Y94.284 E2293.93056
G1 X109.557 Y92.896 E2294.27766
G1 X107.104 Y90.443 E2295.14475
G1 X108.493 Y90.443 E2295.49185
G1 X109.557 Y91.507 E2295.86806
G1 Z9.200 F7800.000
G1 X108.493 Y109.557 F7800.000
G1 F4800
G1 X109.557 Y108.493 E2296.24428
G1 X109.557 Y107.104 E2296.59138
G1 X107.104 Y109.557 E2297.45847
G1 X105.716 Y109.557 E2297.80557
G1 X109.557 Y105.716 E2299.16353
G1 X109.557 Y104.327 E2299.51063
G1 X104.327 Y109.557 E2301.35946
G1 X102.939 Y109.557 E2301.70656
G1 X109.557 Y102.939 E2304.04627
G1 X109.557 Y101.551 E2304.39337
G1 X101.551 Y109.557 E2307.22395
G1 X100.162 Y109.557 E2307.57105
G1 X109.557 Y100.162 E2310.89250
G1 X109.557 Y98.774 E2311.23960
G1 X98.774 Y109.557 E2315.05193
G1 X97.385 Y109.557 E2315.39903
G1 X109.557 Y97.385 E2319.70222
G1 X109.557 Y95.997 E2320.04932
G1 X95.997 Y109.557 E2324.84340
G1 X94.609 Y109.557 E2325.19050
G1 X109.557 Y94.609 E2330.47544
G1 X109.557 Y93.220 E2330.82254
G1 X93.220 Y109.557 E2336.59836
G1 X91.832 Y109.557 E2336.94546
G1 X109.557 Y91.832 E2343.21215
G1 X109.557 Y90.443 E2343.55925
G1 X90.443 Y109.557 E2350.31681
G1 X90.443 Y108.168 E2350.66391
G1 X108.168 Y90.443 E2356.93060
G1 X106.780 Y90.443 E2357.27770
G1 X90.443 Y106.780 E2363.05352
G1 X90.443 Y105.391 E2363.40062
G1 X105.391 Y90.443 E2368.68556
G1 X104.003 Y90.443 E2369.03266
G1 X90.443 Y104.003 E2373.82673
G1 X90.443 Y102.615 E2374.17383
G1 X102.615 Y90.443 E2378.47703
G1 X101.226 Y90.443 E2378.82413
G1 X90.443 Y101.226 E2382.63646
G1 X90.443 Y99.838 E2382.98356
G1 X99.838 Y90.443 E2386.30501
G1 X98.449 Y90.443 E2386.65211
G1 X90.443 Y98.449 E2389.48269
G1 X90.443 Y97.061 E2389.82979
G1 X97.061 Y90.443 E2392.16950
G1 X95.673 Y90.443 E2392.51660
G1 X90.443 Y95.673 E2394.36543
G1 X90.443 Y94.284 E2394.71253
G1 X94.284 Y90.443 E2396.07049
G1 X92.896 Y90.443 E2396.41759
G1 X90.443 Y92.896 E2397.28468
G1 X90.443 Y91.507 E2397.63178
G1 X91.507 Y90.443 E2398.00799
G1 Z9.600 F7800.000
G1 X90.443 Y108.493 F7800.000
G1 F4800
G1 X91.507 Y109.557 E2398.38421
G1 X92.896 Y109.557 E2398.73131
G1 X90.443 Y107.104 E2399.59839
G1 X90.443 Y105.716 E2399.94549
G1 X94.284 Y109.557 E2401.30345
G1 X95.673 Y109.557 E2401.65055
G1 X90.443 Y104.327 E2403.49939
G1 X90.443 Y102.939 E2403.84649
G1 X97.061 Y109.557 E2406.18619
G1 X98.449 Y109.557 E2406.53329
G1 X90.443 Y101.551 E2409.36387
G1 X90.443 Y100.162 E2409.71097
G1 X99.838 Y109.557 E2413.03242
G1 X101.226 Y109.557 E2413.37952
G1 X90.443 Y98.774 E2417.19185
G1 X90.443 Y97.385 E2417.53895
G1 X102.615 Y109.557 E2421.84215
G1 X104.003 Y109.557 E2422.18925
G1 X90.443 Y95.997 E2426.98332
G1 X90.443 Y94.609 E2427.33042
G1 X105.391 Y109.557 E2432.61536
G1 X106.780 Y109.557 E2432.96246
G1 X90.443 Y93.220 E2438.73828
G1 X90.443 Y91.832 E2439.08538
G1 X108.168 Y109.557 E2445.35207
G1 X109.557 Y109.557 E2445.69917
G1 X90.443 Y90.443 E2452.45674
G1 X91.832 Y90.443 E2452.80383
G1 X109.557 Y108.168 E2459.07053
G1 X109.557 Y106.780 E2459.41763
G1 X93.220 Y90.443 E2465.19344
G1 X94.609 Y90.443 E2465.54054
G1 X109.557 Y105.391 E2470.82549
G1 X109.557 Y104.003 E2471.17259
G1 X95.997 Y90.443 E2475.96666
G1 X97.385 Y90.443 E2476.31376
G1 X109.557 Y102.615 E2480.61696
G1 X109.557 Y101.226 E2480.96406
G1 X98.774 Y90.443 E2484.77638
G1 X100.162 Y90.443 E2485.12348
G1 X109.557 Y99.838 E2488.44494
G1 X109.557 Y98.449 E2488.79204
G1 X101.551 Y90.443 E2491.62262
G1 X102.939 Y90.443 E2491.96971
G1 X109.557 Y97.061 E2494.30942
G1 X109.557 Y95.673 E2494.65652
G1 X104.327 Y90.443 E2496.50536
G1 X105.716 Y90.443 E2496.85245
G1 X109.557 Y94.284 E2498.21042
G1 X109.557 Y92.896 E2498.55752
G1 X107.104 Y90.443 E2499.42460
G1 X108.493 Y90.443 E2499.77170
G1 X109.557 Y91.507 E2500.14792
G1 Z10.000 F7800.000
G1 E2498.14792 F2400.00000
G92 E0
G1 X108.493 Y109.557 F7800.000
G1 E2.00000 F2400.00000
G1 F4800
G1 X109.557 Y108.493 E2.37621
G1 X109.557 Y107.104 E2.72331
G1 X107.104 Y109.557 E3.59040
G1 X105.716 Y109.557 E3.93750
G1 X109.557 Y105.716 E5.29546
G1 X109.557 Y104.327 E5.64256
G1 X104.327 Y109.557 E7.49140
G1 X102.939 Y109.557 E7.83850
G1 X109.557 Y102.939 E10.17820
G1 X109.557 Y101.551 E10.52530
G1 X101.551 Y109.557 E13.35588
G1 X100.162 Y109.557 E13.70298
G1 X109.557 Y100.162 E17.02444
G1 X109.557 Y98.774 E17.37154
G1 X98.774 Y109.557 E21.18386
G1 X97.385 Y109.557 E21.53096
G1 X109.557 Y97.385 E25.83416
G1 X109.557 Y95.997 E26.18126
G1 X95.997 Y109.557 E30.97533
G1 X94.609 Y109.557 E31.32243
G1 X109.557 Y94.609 E36.60738
G1 X109.557 Y93.220 E36.95448
G1 X93.220 Y109.557 E42.73030
G1 X91.832 Y109.557 E43.07740
G1 X109.557 Y91.832 E49.34409
G1 X109.557 Y90.443 E49.69119
G1 X90.443 Y109.557 E56.44875
G1 X90.443 Y108.168 E56.79585
G1 X108.168 Y90.443 E63.06254
G1 X106.780 Y90.443 E63.40964
G1 X90.443 Y106.780 E69.18546
G1 X90.443 Y105.391 E69.53256
G1 X105.391 Y90.443 E74.81750
G1 X104.003 Y90.443 E75.16460
G1 X90.443 Y104.003 E79.95867
G1 X90.443 Y102.615 E80.30577
G1 X102.615 Y90.443 E84.60897
G1 X101.226 Y90.443 E84.95607
G1 X90.443 Y101.226 E88.76839
G1 X90.443 Y99.838 E89.11549
G1 X99.838 Y90.443 E92.43695
G1 X98.449 Y90.443 E92.78405
G1 X90.443 Y98.449 E95.61463
G1 X90.443 Y97.061 E95.96173
G1 X97.061 Y90.443 E98.30143
G1 X95.673 Y90.443 E98.64853
G1 X90.443 Y95.673 E100.49737
G1 X90.443 Y94.284 E100.84447
G1 X94.284 Y90.443 E102.20243
G1 X92.896 Y90.443 E102.54953
G1 X90.443 Y92.896 E103.41661
G1 X90.443 Y91.507 E103.76371
G1 X91.507 Y90.443 E104.13993
G1 E102.13993 F2400.00000
G92 E0
M107
; Filament-specific end gcode 
;END gcode for filament

M104 S0 ; turn off temperature
G28 X0  ; home X axis
M84     ; disable motors

M140 S0 ; set bed temperature
; filament used = 2600.3mm (2.0cm3)
; total filament cost = 0.0

; avoid_crossing_perimeters = 0
; bed_shape = 0x0,200x0,200x200,0x200
; bed_temperature = 0
; before_layer_gcode = 
; between_objects_gcode = 
; bridge_acceleration = 0
; bridge_fan_speed = 100
; brim_connections_width = 0
; brim_width = 0
; complete_objects = 0
; cooling = 1
; default_acceleration = 0
; disable_fan_first_layers = 3
; duplicate_distance = 6
; end_filament_gcode = "; Filament-specific end gcode \n;END gcode for filament\n"
; end_gcode = M104 S0 ; turn off temperature\nG28 X0  ; home X axis\nM84     ; disable motors\n
; extruder_clearance_height = 20
; extruder_clearance_radius = 20
; extruder_offset = 0x0
; extrusion_axis = E
; extrusion_multiplier = 1
; fan_always_on = 0
; fan_below_layer_time = 60
; filament_colour = #FFFFFF
; filament_cost = 0
; filament_density = 0
; filament_diameter = 1
; filament_max_volumetric_speed = 0
; filament_notes = ""
; first_layer_acceleration = 0
; first_layer_bed_temperature = 0
; first_layer_extrusion_width = 200%
; first_layer_speed = 30
; first_layer_temperature = 200
; gcode_arcs = 0
; gcode_comments = 0
; gcode_flavor = reprap
; has_heatbed = 1
; infill_acceleration = 0
; infill_first = 0
; interior_brim_width = 0
; layer_gcode = 
; max_fan_speed = 100
; max_layer_height = 0.3
; max_print_speed = 80
; max_volumetric_speed = 0
; min_fan_speed = 35
; min_layer_height = 0.15
; min_print_speed = 10
; min_skirt_length = 0
; notes = 
; nozzle_diameter = 0.5
; only_retract_when_crossing_perimeters = 1
; ooze_prevention = 0
; output_filename_format = [input_filename_base].gcode
; perimeter_acceleration = 0
; post_process = 
; pressure_advance = 0
; printer_notes = 
; resolution = 0
; retract_before_travel = 2
; retract_layer_change = 0
; retract_length = 2
; retract_length_toolchange = 10
; retract_lift = 0
; retract_lift_above = 0
; retract_lift_below = 0
; retract_restart_extra = 0
; retract_restart_extra_toolchange = 0
; retract_speed = 40
; skirt_distance = 6
; skirt_height = 1
; skirts = 0
; slowdown_below_layer_time = 5
; spiral_vase = 0
; standby_temperature_delta = -5
; start_filament_gcode = "; Filament gcode\n"
; start_gcode = G28 ; home all axes\nG1 Z5 F5000 ; lift nozzle\n
; temperature = 200
; threads = 4
; toolchange_gcode = 
; travel_speed = 130
; use_firmware_retraction = 0
; use_relative_e_distances = 0
; use_set_and_wait_bed = 0
; use_set_and_wait_extruder = 0
; use_volumetric_e = 0
; vibration_limit = 0
; wipe = 0
; z_offset = 0
; z_steps_per_mm = 0
; adaptive_slicing = 0
; adaptive_slicing_quality = 75%
; dont_support_bridges = 1
; extrusion_width = 0
; first_layer_height = 0.4
; infill_only_where_needed = 0
; interface_shells = 0
; layer_height = 0.4
; match_horizontal_surfaces = 0
; raft_layers = 0
; regions_overlap = 0
; seam_position = aligned
; sequential_print_priority = 0
; support_material = 0
; support_material_angle = 0
; support_material_buildplate_only = 0
; support_material_contact_distance = 0.2
; support_material_enforce_layers = 0
; support_material_extruder = 1
; support_material_extrusion_width = 0
; support_material_interface_extruder = 1
; support_material_interface_extrusion_width = 0
; support_material_interface_layers = 3
; support_material_interface_spacing = 0
; support_material_interface_speed = 100%
; support_material_max_layers = 0
; support_material_pattern = pillars
; support_material_spacing = 2.5
; support_material_speed = 60
; support_material_threshold = 60%
; xy_size_compensation = 0
; bottom_infill_pattern = rectilinear
; bottom_solid_layers = 0
; bridge_flow_ratio = 1
; bridge_speed = 60
; external_perimeter_extrusion_width = 0
; external_perimeter_speed = 50%
; external_perimeters_first = 0
; extra_perimeters = 1
; fill_angle = 45
; fill_density = 50%
; fill_gaps = 1
; fill_pattern = rectilinear
; gap_fill_speed = 20
; infill_every_layers = 1
; infill_extruder = 1
; infill_extrusion_width = 0
; infill_overlap = 15%
; infill_speed = 80
; overhangs = 1
; perimeter_extruder = 1
; perimeter_extrusion_width = 0
; perimeter_speed = 60
; perimeters = 0
; small_perimeter_speed = 15
; solid_infill_below_area = 70
; solid_infill_every_layers = 0
; solid_infill_extruder = 1
; solid_infill_extrusion_width = 0
; solid_infill_speed = 20
; thin_walls = 1
; top_infill_extrusion_width = 0
; top_infill_pattern = rectilinear
; top_solid_infill_speed = 15
; top_solid_layers = 0
