; generated by Slic3r 1.2.9 on 2019-06-20 at 19:01:18

; external perimeters extrusion width = 0.50mm
; perimeters extrusion width = 0.58mm
; infill extrusion width = 0.58mm
; solid infill extrusion width = 0.58mm
; top infill extrusion width = 0.58mm

M107
M104 S200 ; set temperature
G28 ; home all axes
G1 Z5 F5000 ; lift nozzle

M109 S200 ; wait for temperature to be reached
G21 ; set units to millimeters
G90 ; use absolute coordinates
M82 ; use absolute distances for extrusion
G92 E0
G1 Z0.400 F7800.000
G1 E-2.00000 F2400.00000
G92 E0
G1 X109.629 Y90.729 F7800.000
G1 E2.00000 F2400.00000
G1 X109.271 Y90.371 E2.18404 F1800.000
G1 X107.535 Y90.371 E2.81527
G1 X109.629 Y92.465 E3.89201
G1 X109.629 Y94.200 E4.52324
G1 X105.800 Y90.371 E6.49267
G1 X104.064 Y90.371 E7.12391
G1 X109.629 Y95.936 E9.98604
G1 X109.629 Y97.671 E10.61728
G1 X102.329 Y90.371 E14.37211
G1 X100.593 Y90.371 E15.00334
G1 X109.629 Y99.407 E19.65087
G1 X109.629 Y101.142 E20.28211
G1 X98.858 Y90.371 E25.82234
G1 X97.122 Y90.371 E26.45357
G1 X109.629 Y102.878 E32.88650
G1 X109.629 Y104.613 E33.51774
G1 X95.387 Y90.371 E40.84336
G1 X93.651 Y90.371 E41.47460
G1 X109.629 Y106.349 E49.69293
G1 X109.629 Y108.084 E50.32416
G1 X91.916 Y90.371 E59.43519
G1 X90.371 Y90.562 E60.00128
G1 X109.438 Y109.629 E69.80867
G1 X107.702 Y109.629 E70.43990
G1 X90.371 Y92.298 E79.35459
G1 X90.371 Y94.033 E79.98583
G1 X105.967 Y109.629 E88.00782
G1 X104.231 Y109.629 E88.63905
G1 X90.371 Y95.769 E95.76834
G1 X90.371 Y97.504 E96.39958
G1 X102.496 Y109.629 E102.63617
G1 X100.760 Y109.629 E103.26740
G1 X90.371 Y99.240 E108.61130
G1 X90.371 Y100.975 E109.24253
G1 X99.025 Y109.629 E113.69372
G1 X97.289 Y109.629 E114.32496
G1 X90.371 Y102.711 E117.88345
G1 X90.371 Y104.446 E118.51469
G1 X95.554 Y109.629 E121.18048
G1 X93.818 Y109.629 E121.81172
G1 X90.371 Y106.182 E123.58481
G1 X90.371 Y107.917 E124.21605
G1 X92.083 Y109.629 E125.09644
G1 Z0.800 F7800.000
G1 X109.271 Y109.629 F7800.000
G1 X109.629 Y109.271 E125.22294 F4061.267
G1 X109.629 Y107.535 E125.65682
G1 X107.535 Y109.629 E126.39690
G1 X105.800 Y109.629 E126.83078
G1 X109.629 Y105.800 E128.18446
G1 X109.629 Y104.064 E128.61834
G1 X104.064 Y109.629 E130.58561
G1 X102.329 Y109.629 E131.01948
G1 X109.629 Y102.329 E133.60035
G1 X109.629 Y100.593 E134.03422
G1 X100.593 Y109.629 E137.22868
G1 X98.858 Y109.629 E137.66256
G1 X109.629 Y98.858 E141.47061
G1 X109.629 Y97.122 E141.90448
G1 X97.122 Y109.629 E146.32612
G1 X95.387 Y109.629 E146.76000
G1 X109.629 Y95.387 E151.79523
G1 X109.629 Y93.651 E152.22911
G1 X93.651 Y109.629 E157.87793
G1 X91.916 Y109.629 E158.31181
G1 X109.629 Y91.916 E164.57423
G1 X109.438 Y90.371 E164.96333
G1 X90.371 Y109.438 E171.70439
G1 X90.371 Y107.702 E172.13826
G1 X107.702 Y90.371 E178.26573
G1 X105.967 Y90.371 E178.69961
G1 X90.371 Y105.967 E184.21348
G1 X90.371 Y104.231 E184.64736
G1 X104.231 Y90.371 E189.54764
G1 X102.496 Y90.371 E189.98152
G1 X90.371 Y102.496 E194.26821
G1 X90.371 Y100.760 E194.70208
G1 X100.760 Y90.371 E198.37518
G1 X99.025 Y90.371 E198.80906
G1 X90.371 Y99.025 E201.86857
G1 X90.371 Y97.289 E202.30244
G1 X97.289 Y90.371 E204.74836
G1 X95.554 Y90.371 E205.18223
G1 X90.371 Y95.554 E207.01455
G1 X90.371 Y93.818 E207.44843
G1 X93.818 Y90.371 E208.66716
G1 X92.083 Y90.371 E209.10103
G1 X90.371 Y92.083 E209.70617
G1 Z1.200 F7800.000
G1 X92.083 Y109.629 F7800.000
G1 X90.371 Y107.917 E210.31131 F4061.267
G1 X90.371 Y106.182 E210.74518
G1 X93.818 Y109.629 E211.96391
G1 X95.554 Y109.629 E212.39779
G1 X90.371 Y104.446 E214.23011
G1 X90.371 Y102.711 E214.66399
G1 X97.289 Y109.629 E217.10990
G1 X99.025 Y109.629 E217.54377
G1 X90.371 Y100.975 E220.60328
G1 X90.371 Y99.240 E221.03716
G1 X100.760 Y109.629 E224.71025
G1 X102.496 Y109.629 E225.14413
G1 X90.371 Y97.504 E229.43082
G1 X90.371 Y95.769 E229.86470
G1 X104.231 Y109.629 E234.76498
G1 X105.967 Y109.629 E235.19885
G1 X90.371 Y94.033 E240.71273
G1 X90.371 Y92.298 E241.14661
G1 X107.702 Y109.629 E247.27407
G1 X109.438 Y109.629 E247.70795
G1 X90.371 Y90.562 E254.44901
G1 X91.916 Y90.371 E254.83811
G1 X109.629 Y108.084 E261.10053
G1 X109.629 Y106.349 E261.53440
G1 X93.651 Y90.371 E267.18323
G1 X95.387 Y90.371 E267.61710
G1 X109.629 Y104.613 E272.65234
G1 X109.629 Y102.878 E273.08621
G1 X97.122 Y90.371 E277.50786
G1 X98.858 Y90.371 E277.94173
G1 X109.629 Y101.142 E281.74978
G1 X109.629 Y99.407 E282.18366
G1 X100.593 Y90.371 E285.37812
G1 X102.329 Y90.371 E285.81199
G1 X109.629 Y97.671 E288.39286
G1 X109.629 Y95.936 E288.82673
G1 X104.064 Y90.371 E290.79400
G1 X105.800 Y90.371 E291.22788
G1 X109.629 Y94.200 E292.58156
G1 X109.629 Y92.465 E293.01544
G1 X107.535 Y90.371 E293.75553
G1 X109.271 Y90.371 E294.18940
G1 X109.629 Y90.729 E294.31590
M106 S255
G1 Z1.600 F7800.000
G1 X109.271 Y109.629 F7800.000
G1 X109.629 Y109.271 E294.44239 F4061.267
G1 X109.629 Y107.535 E294.87627
G1 X107.535 Y109.629 E295.61636
G1 X105.800 Y109.629 E296.05023
G1 X109.629 Y105.800 E297.40391
G1 X109.629 Y104.064 E297.83779
G1 X104.064 Y109.629 E299.80506
G1 X102.329 Y109.629 E300.23894
G1 X109.629 Y102.329 E302.81980
G1 X109.629 Y100.593 E303.25368
G1 X100.593 Y109.629 E306.44813
G1 X98.858 Y109.629 E306.88201
G1 X109.629 Y98.858 E310.69006
G1 X109.629 Y97.122 E311.12393
G1 X97.122 Y109.629 E315.54558
G1 X95.387 Y109.629 E315.97945
G1 X109.629 Y95.387 E321.01468
G1 X109.629 Y93.651 E321.44856
G1 X93.651 Y109.629 E327.09739
G1 X91.916 Y109.629 E327.53126
G1 X109.629 Y91.916 E333.79368
G1 X109.438 Y90.371 E334.18278
G1 X90.371 Y109.438 E340.92384
G1 X90.371 Y107.702 E341.35772
G1 X107.702 Y90.371 E347.48518
G1 X105.967 Y90.371 E347.91906
G1 X90.371 Y105.967 E353.43294
G1 X90.371 Y104.231 E353.86681
G1 X104.231 Y90.371 E358.76709
G1 X102.496 Y90.371 E359.20097
G1 X90.371 Y102.496 E363.48766
G1 X90.371 Y100.760 E363.92154
G1 X100.760 Y90.371 E367.59464
G1 X99.025 Y90.371 E368.02851
G1 X90.371 Y99.025 E371.08802
G1 X90.371 Y97.289 E371.52189
G1 X97.289 Y90.371 E373.96781
G1 X95.554 Y90.371 E374.40168
G1 X90.371 Y95.554 E376.23401
G1 X90.371 Y93.818 E376.66788
G1 X93.818 Y90.371 E377.88661
G1 X92.083 Y90.371 E378.32049
G1 X90.371 Y92.083 E378.92562
G1 Z2.000 F7800.000
G1 X92.083 Y109.629 F7800.000
G1 X90.371 Y107.917 E379.53076 F4061.267
G1 X90.371 Y106.182 E379.96464
G1 X93.818 Y109.629 E381.18336
G1 X95.554 Y109.629 E381.61724
G1 X90.371 Y104.446 E383.44956
G1 X90.371 Y102.711 E383.88344
G1 X97.289 Y109.629 E386.32935
G1 X99.025 Y109.629 E386.76323
G1 X90.371 Y100.975 E389.82273
G1 X90.371 Y99.240 E390.25661
G1 X100.760 Y109.629 E393.92971
G1 X102.496 Y109.629 E394.36358
G1 X90.371 Y97.504 E398.65027
G1 X90.371 Y95.769 E399.08415
G1 X104.231 Y109.629 E403.98443
G1 X105.967 Y109.629 E404.41831
G1 X90.371 Y94.033 E409.93218
G1 X90.371 Y92.298 E410.36606
G1 X107.702 Y109.629 E416.49353
G1 X109.438 Y109.629 E416.92740
G1 X90.371 Y90.562 E423.66846
G1 X91.916 Y90.371 E424.05756
G1 X109.629 Y108.084 E430.31998
G1 X109.629 Y106.349 E430.75385
G1 X93.651 Y90.371 E436.40268
G1 X95.387 Y90.371 E436.83656
G1 X109.629 Y104.613 E441.87179
G1 X109.629 Y102.878 E442.30567
G1 X97.122 Y90.371 E446.72731
G1 X98.858 Y90.371 E447.16118
G1 X109.629 Y101.142 E450.96923
G1 X109.629 Y99.407 E451.40311
G1 X100.593 Y90.371 E454.59757
G1 X102.329 Y90.371 E455.03144
G1 X109.629 Y97.671 E457.61231
G1 X109.629 Y95.936 E458.04618
G1 X104.064 Y90.371 E460.01346
G1 X105.800 Y90.371 E460.44733
G1 X109.629 Y94.200 E461.80101
G1 X109.629 Y92.465 E462.23489
G1 X107.535 Y90.371 E462.97498
G1 X109.271 Y90.371 E463.40885
G1 X109.629 Y90.729 E463.53535
G1 Z2.400 F7800.000
G1 X109.271 Y109.629 F7800.000
G1 X109.629 Y109.271 E463.66185 F4061.267
G1 X109.629 Y107.535 E464.09572
G1 X107.535 Y109.629 E464.83581
G1 X105.800 Y109.629 E465.26968
G1 X109.629 Y105.800 E466.62336
G1 X109.629 Y104.064 E467.05724
G1 X104.064 Y109.629 E469.02451
G1 X102.329 Y109.629 E469.45839
G1 X109.629 Y102.329 E472.03925
G1 X109.629 Y100.593 E472.47313
G1 X100.593 Y109.629 E475.66759
G1 X98.858 Y109.629 E476.10146
G1 X109.629 Y98.858 E479.90951
G1 X109.629 Y97.122 E480.34339
G1 X97.122 Y109.629 E484.76503
G1 X95.387 Y109.629 E485.19890
G1 X109.629 Y95.387 E490.23414
G1 X109.629 Y93.651 E490.66801
G1 X93.651 Y109.629 E496.31684
G1 X91.916 Y109.629 E496.75071
G1 X109.629 Y91.916 E503.01313
G1 X109.438 Y90.371 E503.40223
G1 X90.371 Y109.438 E510.14329
G1 X90.371 Y107.702 E510.57717
G1 X107.702 Y90.371 E516.70464
G1 X105.967 Y90.371 E517.13851
G1 X90.371 Y105.967 E522.65239
G1 X90.371 Y104.231 E523.08626
G1 X104.231 Y90.371 E527.98655
G1 X102.496 Y90.371 E528.42042
G1 X90.371 Y102.496 E532.70711
G1 X90.371 Y100.760 E533.14099
G1 X100.760 Y90.371 E536.81409
G1 X99.025 Y90.371 E537.24796
G1 X90.371 Y99.025 E540.30747
G1 X90.371 Y97.289 E540.74135
G1 X97.289 Y90.371 E543.18726
G1 X95.554 Y90.371 E543.62113
G1 X90.371 Y95.554 E545.45346
G1 X90.371 Y93.818 E545.88733
G1 X93.818 Y90.371 E547.10606
G1 X92.083 Y90.371 E547.53994
G1 X90.371 Y92.083 E548.14508
G1 Z2.800 F7800.000
G1 X92.083 Y109.629 F7800.000
G1 X90.371 Y107.917 E548.75021 F4061.267
G1 X90.371 Y106.182 E549.18409
G1 X93.818 Y109.629 E550.40282
G1 X95.554 Y109.629 E550.83669
G1 X90.371 Y104.446 E552.66901
G1 X90.371 Y102.711 E553.10289
G1 X97.289 Y109.629 E555.54880
G1 X99.025 Y109.629 E555.98268
G1 X90.371 Y100.975 E559.04218
G1 X90.371 Y99.240 E559.47606
G1 X100.760 Y109.629 E563.14916
G1 X102.496 Y109.629 E563.58303
G1 X90.371 Y97.504 E567.86972
G1 X90.371 Y95.769 E568.30360
G1 X104.231 Y109.629 E573.20388
G1 X105.967 Y109.629 E573.63776
G1 X90.371 Y94.033 E579.15163
G1 X90.371 Y92.298 E579.58551
G1 X107.702 Y109.629 E585.71298
G1 X109.438 Y109.629 E586.14685
G1 X90.371 Y90.562 E592.88791
G1 X91.916 Y90.371 E593.27701
G1 X109.629 Y108.084 E599.53943
G1 X109.629 Y106.349 E599.97331
G1 X93.651 Y90.371 E605.62213
G1 X95.387 Y90.371 E606.05601
G1 X109.629 Y104.613 E611.09124
G1 X109.629 Y102.878 E611.52512
G1 X97.122 Y90.371 E615.94676
G1 X98.858 Y90.371 E616.38064
G1 X109.629 Y101.142 E620.18869
G1 X109.629 Y99.407 E620.62256
G1 X100.593 Y90.371 E623.81702
G1 X102.329 Y90.371 E624.25089
G1 X109.629 Y97.671 E626.83176
G1 X109.629 Y95.936 E627.26564
G1 X104.064 Y90.371 E629.23291
G1 X105.800 Y90.371 E629.66678
G1 X109.629 Y94.200 E631.02047
G1 X109.629 Y92.465 E631.45434
G1 X107.535 Y90.371 E632.19443
G1 X109.271 Y90.371 E632.62830
G1 X109.629 Y90.729 E632.75480
G1 Z3.200 F7800.000
G1 X109.271 Y109.629 F7800.000
G1 X109.629 Y109.271 E632.88130 F4061.267
G1 X109.629 Y107.535 E633.31517
G1 X107.535 Y109.629 E634.05526
G1 X105.800 Y109.629 E634.48914
G1 X109.629 Y105.800 E635.84282
G1 X109.629 Y104.064 E636.27669
G1 X104.064 Y109.629 E638.24396
G1 X102.329 Y109.629 E638.67784
G1 X109.629 Y102.329 E641.25871
G1 X109.629 Y100.593 E641.69258
G1 X100.593 Y109.629 E644.88704
G1 X98.858 Y109.629 E645.32091
G1 X109.629 Y98.858 E649.12896
G1 X109.629 Y97.122 E649.56284
G1 X97.122 Y109.629 E653.98448
G1 X95.387 Y109.629 E654.41836
G1 X109.629 Y95.387 E659.45359
G1 X109.629 Y93.651 E659.88746
G1 X93.651 Y109.629 E665.53629
G1 X91.916 Y109.629 E665.97017
G1 X109.629 Y91.916 E672.23258
G1 X109.438 Y90.371 E672.62168
G1 X90.371 Y109.438 E679.36274
G1 X90.371 Y107.702 E679.79662
G1 X107.702 Y90.371 E685.92409
G1 X105.967 Y90.371 E686.35796
G1 X90.371 Y105.967 E691.87184
G1 X90.371 Y104.231 E692.30571
G1 X104.231 Y90.371 E697.20600
G1 X102.496 Y90.371 E697.63987
G1 X90.371 Y102.496 E701.92657
G1 X90.371 Y100.760 E702.36044
G1 X100.760 Y90.371 E706.03354
G1 X99.025 Y90.371 E706.46742
G1 X90.371 Y99.025 E709.52692
G1 X90.371 Y97.289 E709.96080
G1 X97.289 Y90.371 E712.40671
G1 X95.554 Y90.371 E712.84059
G1 X90.371 Y95.554 E714.67291
G1 X90.371 Y93.818 E715.10678
G1 X93.818 Y90.371 E716.32551
G1 X92.083 Y90.371 E716.75939
G1 X90.371 Y92.083 E717.36453
G1 Z3.600 F7800.000
G1 X92.083 Y109.629 F7800.000
G1 X90.371 Y107.917 E717.96966 F4061.267
G1 X90.371 Y106.182 E718.40354
G1 X93.818 Y109.629 E719.62227
G1 X95.554 Y109.629 E720.05614
G1 X90.371 Y104.446 E721.88847
G1 X90.371 Y102.711 E722.32234
G1 X97.289 Y109.629 E724.76826
G1 X99.025 Y109.629 E725.20213
G1 X90.371 Y100.975 E728.26164
G1 X90.371 Y99.240 E728.69551
G1 X100.760 Y109.629 E732.36861
G1 X102.496 Y109.629 E732.80249
G1 X90.371 Y97.504 E737.08918
G1 X90.371 Y95.769 E737.52305
G1 X104.231 Y109.629 E742.42334
G1 X105.967 Y109.629 E742.85721
G1 X90.371 Y94.033 E748.37109
G1 X90.371 Y92.298 E748.80496
G1 X107.702 Y109.629 E754.93243
G1 X109.438 Y109.629 E755.36630
G1 X90.371 Y90.562 E762.10736
G1 X91.916 Y90.371 E762.49646
G1 X109.629 Y108.084 E768.75888
G1 X109.629 Y106.349 E769.19276
G1 X93.651 Y90.371 E774.84159
G1 X95.387 Y90.371 E775.27546
G1 X109.629 Y104.613 E780.31070
G1 X109.629 Y102.878 E780.74457
G1 X97.122 Y90.371 E785.16621
G1 X98.858 Y90.371 E785.60009
G1 X109.629 Y101.142 E789.40814
G1 X109.629 Y99.407 E789.84201
G1 X100.593 Y90.371 E793.03647
G1 X102.329 Y90.371 E793.47035
G1 X109.629 Y97.671 E796.05121
G1 X109.629 Y95.936 E796.48509
G1 X104.064 Y90.371 E798.45236
G1 X105.800 Y90.371 E798.88624
G1 X109.629 Y94.200 E800.23992
G1 X109.629 Y92.465 E800.67379
G1 X107.535 Y90.371 E801.41388
G1 X109.271 Y90.371 E801.84776
G1 X109.629 Y90.729 E801.97425
G1 Z4.000 F7800.000
G1 X109.271 Y109.629 F7800.000
G1 X109.629 Y109.271 E802.10075 F4061.267
G1 X109.629 Y107.535 E802.53462
G1 X107.535 Y109.629 E803.27471
G1 X105.800 Y109.629 E803.70859
G1 X109.629 Y105.800 E805.06227
G1 X109.629 Y104.064 E805.49614
G1 X104.064 Y109.629 E807.46342
G1 X102.329 Y109.629 E807.89729
G1 X109.629 Y102.329 E810.47816
G1 X109.629 Y100.593 E810.91203
G1 X100.593 Y109.629 E814.10649
G1 X98.858 Y109.629 E814.54037
G1 X109.629 Y98.858 E818.34841
G1 X109.629 Y97.122 E818.78229
G1 X97.122 Y109.629 E823.20393
G1 X95.387 Y109.629 E823.63781
G1 X109.629 Y95.387 E828.67304
G1 X109.629 Y93.651 E829.10692
G1 X93.651 Y109.629 E834.75574
G1 X91.916 Y109.629 E835.18962
G1 X109.629 Y91.916 E841.45204
G1 X109.438 Y90.371 E841.84114
G1 X90.371 Y109.438 E848.58220
G1 X90.371 Y107.702 E849.01607
G1 X107.702 Y90.371 E855.14354
G1 X105.967 Y90.371 E855.57742
G1 X90.371 Y105.967 E861.09129
G1 X90.371 Y104.231 E861.52517
G1 X104.231 Y90.371 E866.42545
G1 X102.496 Y90.371 E866.85933
G1 X90.371 Y102.496 E871.14602
G1 X90.371 Y100.760 E871.57989
G1 X100.760 Y90.371 E875.25299
G1 X99.025 Y90.371 E875.68687
G1 X90.371 Y99.025 E878.74637
G1 X90.371 Y97.289 E879.18025
G1 X97.289 Y90.371 E881.62616
G1 X95.554 Y90.371 E882.06004
G1 X90.371 Y95.554 E883.89236
G1 X90.371 Y93.818 E884.32624
G1 X93.818 Y90.371 E885.54497
G1 X92.083 Y90.371 E885.97884
G1 X90.371 Y92.083 E886.58398
G1 Z4.400 F7800.000
G1 X92.083 Y109.629 F7800.000
G1 X90.371 Y107.917 E887.18912 F4061.267
G1 X90.371 Y106.182 E887.62299
G1 X93.818 Y109.629 E888.84172
G1 X95.554 Y109.629 E889.27560
G1 X90.371 Y104.446 E891.10792
G1 X90.371 Y102.711 E891.54179
G1 X97.289 Y109.629 E893.98771
G1 X99.025 Y109.629 E894.42158
G1 X90.371 Y100.975 E897.48109
G1 X90.371 Y99.240 E897.91496
G1 X100.760 Y109.629 E901.58806
G1 X102.496 Y109.629 E902.02194
G1 X90.371 Y97.504 E906.30863
G1 X90.371 Y95.769 E906.74250
G1 X104.231 Y109.629 E911.64279
G1 X105.967 Y109.629 E912.07666
G1 X90.371 Y94.033 E917.59054
G1 X90.371 Y92.298 E918.02441
G1 X107.702 Y109.629 E924.15188
G1 X109.438 Y109.629 E924.58576
G1 X90.371 Y90.562 E931.32682
G1 X91.916 Y90.371 E931.71592
G1 X109.629 Y108.084 E937.97834
G1 X109.629 Y106.349 E938.41221
G1 X93.651 Y90.371 E944.06104
G1 X95.387 Y90.371 E944.49491
G1 X109.629 Y104.613 E949.53015
G1 X109.629 Y102.878 E949.96402
G1 X97.122 Y90.371 E954.38566
G1 X98.858 Y90.371 E954.81954
G1 X109.629 Y101.142 E958.62759
G1 X109.629 Y99.407 E959.06147
G1 X100.593 Y90.371 E962.25592
G1 X102.329 Y90.371 E962.68980
G1 X109.629 Y97.671 E965.27066
G1 X109.629 Y95.936 E965.70454
G1 X104.064 Y90.371 E967.67181
G1 X105.800 Y90.371 E968.10569
G1 X109.629 Y94.200 E969.45937
G1 X109.629 Y92.465 E969.89324
G1 X107.535 Y90.371 E970.63333
G1 X109.271 Y90.371 E971.06721
G1 X109.629 Y90.729 E971.19371
G1 Z4.800 F7800.000
G1 X109.271 Y109.629 F7800.000
G1 X109.629 Y109.271 E971.32020 F4061.267
G1 X109.629 Y107.535 E971.75408
G1 X107.535 Y109.629 E972.49416
G1 X105.800 Y109.629 E972.92804
G1 X109.629 Y105.800 E974.28172
G1 X109.629 Y104.064 E974.71560
G1 X104.064 Y109.629 E976.68287
G1 X102.329 Y109.629 E977.11674
G1 X109.629 Y102.329 E979.69761
G1 X109.629 Y100.593 E980.13148
G1 X100.593 Y109.629 E983.32594
G1 X98.858 Y109.629 E983.75982
G1 X109.629 Y98.858 E987.56787
G1 X109.629 Y97.122 E988.00174
G1 X97.122 Y109.629 E992.42338
G1 X95.387 Y109.629 E992.85726
G1 X109.629 Y95.387 E997.89249
G1 X109.629 Y93.651 E998.32637
G1 X93.651 Y109.629 E1003.97519
G1 X91.916 Y109.629 E1004.40907
G1 X109.629 Y91.916 E1010.67149
G1 X109.438 Y90.371 E1011.06059
G1 X90.371 Y109.438 E1017.80165
G1 X90.371 Y107.702 E1018.23552
G1 X107.702 Y90.371 E1024.36299
G1 X105.967 Y90.371 E1024.79687
G1 X90.371 Y105.967 E1030.31074
G1 X90.371 Y104.231 E1030.74462
G1 X104.231 Y90.371 E1035.64490
G1 X102.496 Y90.371 E1036.07878
G1 X90.371 Y102.496 E1040.36547
G1 X90.371 Y100.760 E1040.79934
G1 X100.760 Y90.371 E1044.47244
G1 X99.025 Y90.371 E1044.90632
G1 X90.371 Y99.025 E1047.96583
G1 X90.371 Y97.289 E1048.39970
G1 X97.289 Y90.371 E1050.84562
G1 X95.554 Y90.371 E1051.27949
G1 X90.371 Y95.554 E1053.11181
G1 X90.371 Y93.818 E1053.54569
G1 X93.818 Y90.371 E1054.76442
G1 X92.083 Y90.371 E1055.19829
G1 X90.371 Y92.083 E1055.80343
G1 Z5.200 F7800.000
G1 X92.083 Y109.629 F7800.000
G1 X90.371 Y107.917 E1056.40857 F4061.267
G1 X90.371 Y106.182 E1056.84244
G1 X93.818 Y109.629 E1058.06117
G1 X95.554 Y109.629 E1058.49505
G1 X90.371 Y104.446 E1060.32737
G1 X90.371 Y102.711 E1060.76125
G1 X97.289 Y109.629 E1063.20716
G1 X99.025 Y109.629 E1063.64103
G1 X90.371 Y100.975 E1066.70054
G1 X90.371 Y99.240 E1067.13442
G1 X100.760 Y109.629 E1070.80752
G1 X102.496 Y109.629 E1071.24139
G1 X90.371 Y97.504 E1075.52808
G1 X90.371 Y95.769 E1075.96196
G1 X104.231 Y109.629 E1080.86224
G1 X105.967 Y109.629 E1081.29612
G1 X90.371 Y94.033 E1086.80999
G1 X90.371 Y92.298 E1087.24387
G1 X107.702 Y109.629 E1093.37133
G1 X109.438 Y109.629 E1093.80521
G1 X90.371 Y90.562 E1100.54627
G1 X91.916 Y90.371 E1100.93537
G1 X109.629 Y108.084 E1107.19779
G1 X109.629 Y106.349 E1107.63166
G1 X93.651 Y90.371 E1113.28049
G1 X95.387 Y90.371 E1113.71437
G1 X109.629 Y104.613 E1118.74960
G1 X109.629 Y102.878 E1119.18347
G1 X97.122 Y90.371 E1123.60512
G1 X98.858 Y90.371 E1124.03899
G1 X109.629 Y101.142 E1127.84704
G1 X109.629 Y99.407 E1128.28092
G1 X100.593 Y90.371 E1131.47538
G1 X102.329 Y90.371 E1131.90925
G1 X109.629 Y97.671 E1134.49012
G1 X109.629 Y95.936 E1134.92399
G1 X104.064 Y90.371 E1136.89127
G1 X105.800 Y90.371 E1137.32514
G1 X109.629 Y94.200 E1138.67882
G1 X109.629 Y92.465 E1139.11270
G1 X107.535 Y90.371 E1139.85279
G1 X109.271 Y90.371 E1140.28666
G1 X109.629 Y90.729 E1140.41316
G1 Z5.600 F7800.000
G1 X109.271 Y109.629 F7800.000
G1 X109.629 Y109.271 E1140.53965 F4061.267
G1 X109.629 Y107.535 E1140.97353
G1 X107.535 Y109.629 E1141.71362
G1 X105.800 Y109.629 E1142.14749
G1 X109.629 Y105.800 E1143.50117
G1 X109.629 Y104.064 E1143.93505
G1 X104.064 Y109.629 E1145.90232
G1 X102.329 Y109.629 E1146.33620
G1 X109.629 Y102.329 E1148.91706
G1 X109.629 Y100.593 E1149.35094
G1 X100.593 Y109.629 E1152.54539
G1 X98.858 Y109.629 E1152.97927
G1 X109.629 Y98.858 E1156.78732
G1 X109.629 Y97.122 E1157.22119
G1 X97.122 Y109.629 E1161.64284
G1 X95.387 Y109.629 E1162.07671
G1 X109.629 Y95.387 E1167.11195
G1 X109.629 Y93.651 E1167.54582
G1 X93.651 Y109.629 E1173.19465
G1 X91.916 Y109.629 E1173.62852
G1 X109.629 Y91.916 E1179.89094
G1 X109.438 Y90.371 E1180.28004
G1 X90.371 Y109.438 E1187.02110
G1 X90.371 Y107.702 E1187.45498
G1 X107.702 Y90.371 E1193.58244
G1 X105.967 Y90.371 E1194.01632
G1 X90.371 Y105.967 E1199.53020
G1 X90.371 Y104.231 E1199.96407
G1 X104.231 Y90.371 E1204.86435
G1 X102.496 Y90.371 E1205.29823
G1 X90.371 Y102.496 E1209.58492
G1 X90.371 Y100.760 E1210.01880
G1 X100.760 Y90.371 E1213.69190
G1 X99.025 Y90.371 E1214.12577
G1 X90.371 Y99.025 E1217.18528
G1 X90.371 Y97.289 E1217.61915
G1 X97.289 Y90.371 E1220.06507
G1 X95.554 Y90.371 E1220.49894
G1 X90.371 Y95.554 E1222.33127
G1 X90.371 Y93.818 E1222.76514
G1 X93.818 Y90.371 E1223.98387
G1 X92.083 Y90.371 E1224.41775
G1 X90.371 Y92.083 E1225.02288
G1 Z6.000 F7800.000
G1 X92.083 Y109.629 F7800.000
G1 X90.371 Y107.917 E1225.62802 F4061.267
G1 X90.371 Y106.182 E1226.06190
G1 X93.818 Y109.629 E1227.28063
G1 X95.554 Y109.629 E1227.71450
G1 X90.371 Y104.446 E1229.54682
G1 X90.371 Y102.711 E1229.98070
G1 X97.289 Y109.629 E1232.42661
G1 X99.025 Y109.629 E1232.86049
G1 X90.371 Y100.975 E1235.91999
G1 X90.371 Y99.240 E1236.35387
G1 X100.760 Y109.629 E1240.02697
G1 X102.496 Y109.629 E1240.46084
G1 X90.371 Y97.504 E1244.74753
G1 X90.371 Y95.769 E1245.18141
G1 X104.231 Y109.629 E1250.08169
G1 X105.967 Y109.629 E1250.51557
G1 X90.371 Y94.033 E1256.02944
G1 X90.371 Y92.298 E1256.46332
G1 X107.702 Y109.629 E1262.59079
G1 X109.438 Y109.629 E1263.02466
G1 X90.371 Y90.562 E1269.76572
G1 X91.916 Y90.371 E1270.15482
G1 X109.629 Y108.084 E1276.41724
G1 X109.629 Y106.349 E1276.85111
G1 X93.651 Y90.371 E1282.49994
G1 X95.387 Y90.371 E1282.93382
G1 X109.629 Y104.613 E1287.96905
G1 X109.629 Y102.878 E1288.40293
G1 X97.122 Y90.371 E1292.82457
G1 X98.858 Y90.371 E1293.25844
G1 X109.629 Y101.142 E1297.06649
G1 X109.629 Y99.407 E1297.50037
G1 X100.593 Y90.371 E1300.69483
G1 X102.329 Y90.371 E1301.12870
G1 X109.629 Y97.671 E1303.70957
G1 X109.629 Y95.936 E1304.14344
G1 X104.064 Y90.371 E1306.11072
G1 X105.800 Y90.371 E1306.54459
G1 X109.629 Y94.200 E1307.89827
G1 X109.629 Y92.465 E1308.33215
G1 X107.535 Y90.371 E1309.07224
G1 X109.271 Y90.371 E1309.50611
G1 X109.629 Y90.729 E1309.63261
G1 Z6.400 F7800.000
G1 X109.271 Y109.629 F7800.000
G1 X109.629 Y109.271 E1309.75911 F4061.267
G1 X109.629 Y107.535 E1310.19298
G1 X107.535 Y109.629 E1310.93307
G1 X105.800 Y109.629 E1311.36694
G1 X109.629 Y105.800 E1312.72063
G1 X109.629 Y104.064 E1313.15450
G1 X104.064 Y109.629 E1315.12177
G1 X102.329 Y109.629 E1315.55565
G1 X109.629 Y102.329 E1318.13651
G1 X109.629 Y100.593 E1318.57039
G1 X100.593 Y109.629 E1321.76485
G1 X98.858 Y109.629 E1322.19872
G1 X109.629 Y98.858 E1326.00677
G1 X109.629 Y97.122 E1326.44065
G1 X97.122 Y109.629 E1330.86229
G1 X95.387 Y109.629 E1331.29616
G1 X109.629 Y95.387 E1336.33140
G1 X109.629 Y93.651 E1336.76527
G1 X93.651 Y109.629 E1342.41410
G1 X91.916 Y109.629 E1342.84797
G1 X109.629 Y91.916 E1349.11039
G1 X109.438 Y90.371 E1349.49949
G1 X90.371 Y109.438 E1356.24055
G1 X90.371 Y107.702 E1356.67443
G1 X107.702 Y90.371 E1362.80190
G1 X105.967 Y90.371 E1363.23577
G1 X90.371 Y105.967 E1368.74965
G1 X90.371 Y104.231 E1369.18352
G1 X104.231 Y90.371 E1374.08381
G1 X102.496 Y90.371 E1374.51768
G1 X90.371 Y102.496 E1378.80437
G1 X90.371 Y100.760 E1379.23825
G1 X100.760 Y90.371 E1382.91135
G1 X99.025 Y90.371 E1383.34522
G1 X90.371 Y99.025 E1386.40473
G1 X90.371 Y97.289 E1386.83861
G1 X97.289 Y90.371 E1389.28452
G1 X95.554 Y90.371 E1389.71840
G1 X90.371 Y95.554 E1391.55072
G1 X90.371 Y93.818 E1391.98459
G1 X93.818 Y90.371 E1393.20332
G1 X92.083 Y90.371 E1393.63720
G1 X90.371 Y92.083 E1394.24234
G1 Z6.800 F7800.000
G1 X92.083 Y109.629 F7800.000
G1 X90.371 Y107.917 E1394.84747 F4061.267
G1 X90.371 Y106.182 E1395.28135
G1 X93.818 Y109.629 E1396.50008
G1 X95.554 Y109.629 E1396.93395
G1 X90.371 Y104.446 E1398.76627
G1 X90.371 Y102.711 E1399.20015
G1 X97.289 Y109.629 E1401.64606
G1 X99.025 Y109.629 E1402.07994
G1 X90.371 Y100.975 E1405.13945
G1 X90.371 Y99.240 E1405.57332
G1 X100.760 Y109.629 E1409.24642
G1 X102.496 Y109.629 E1409.68029
G1 X90.371 Y97.504 E1413.96699
G1 X90.371 Y95.769 E1414.40086
G1 X104.231 Y109.629 E1419.30114
G1 X105.967 Y109.629 E1419.73502
G1 X90.371 Y94.033 E1425.24889
G1 X90.371 Y92.298 E1425.68277
G1 X107.702 Y109.629 E1431.81024
G1 X109.438 Y109.629 E1432.24411
G1 X90.371 Y90.562 E1438.98517
G1 X91.916 Y90.371 E1439.37427
G1 X109.629 Y108.084 E1445.63669
G1 X109.629 Y106.349 E1446.07057
G1 X93.651 Y90.371 E1451.71939
G1 X95.387 Y90.371 E1452.15327
G1 X109.629 Y104.613 E1457.18850
G1 X109.629 Y102.878 E1457.62238
G1 X97.122 Y90.371 E1462.04402
G1 X98.858 Y90.371 E1462.47790
G1 X109.629 Y101.142 E1466.28595
G1 X109.629 Y99.407 E1466.71982
G1 X100.593 Y90.371 E1469.91428
G1 X102.329 Y90.371 E1470.34815
G1 X109.629 Y97.671 E1472.92902
G1 X109.629 Y95.936 E1473.36290
G1 X104.064 Y90.371 E1475.33017
G1 X105.800 Y90.371 E1475.76404
G1 X109.629 Y94.200 E1477.11773
G1 X109.629 Y92.465 E1477.55160
G1 X107.535 Y90.371 E1478.29169
G1 X109.271 Y90.371 E1478.72556
G1 X109.629 Y90.729 E1478.85206
G1 Z7.200 F7800.000
G1 E1476.85206 F2400.00000
G92 E0
G1 X109.271 Y109.629 F7800.000
G1 E2.00000 F2400.00000
G1 X109.629 Y109.271 E2.12650 F4061.267
G1 X109.629 Y107.535 E2.56037
G1 X107.535 Y109.629 E3.30046
G1 X105.800 Y109.629 E3.73433
G1 X109.629 Y105.800 E5.08802
G1 X109.629 Y104.064 E5.52189
G1 X104.064 Y109.629 E7.48916
G1 X102.329 Y109.629 E7.92304
G1 X109.629 Y102.329 E10.50390
G1 X109.629 Y100.593 E10.93778
G1 X100.593 Y109.629 E14.13224
G1 X98.858 Y109.629 E14.56611
G1 X109.629 Y98.858 E18.37416
G1 X109.629 Y97.122 E18.80804
G1 X97.122 Y109.629 E23.22968
G1 X95.387 Y109.629 E23.66355
G1 X109.629 Y95.387 E28.69879
G1 X109.629 Y93.651 E29.13266
G1 X93.651 Y109.629 E34.78149
G1 X91.916 Y109.629 E35.21536
G1 X109.629 Y91.916 E41.47778
G1 X109.438 Y90.371 E41.86688
G1 X90.371 Y109.438 E48.60794
G1 X90.371 Y107.702 E49.04182
G1 X107.702 Y90.371 E55.16929
G1 X105.967 Y90.371 E55.60316
G1 X90.371 Y105.967 E61.11704
G1 X90.371 Y104.231 E61.55091
G1 X104.231 Y90.371 E66.45120
G1 X102.496 Y90.371 E66.88507
G1 X90.371 Y102.496 E71.17176
G1 X90.371 Y100.760 E71.60564
G1 X100.760 Y90.371 E75.27874
G1 X99.025 Y90.371 E75.71261
G1 X90.371 Y99.025 E78.77212
G1 X90.371 Y97.289 E79.20600
G1 X97.289 Y90.371 E81.65191
G1 X95.554 Y90.371 E82.08579
G1 X90.371 Y95.554 E83.91811
G1 X90.371 Y93.818 E84.35198
G1 X93.818 Y90.371 E85.57071
G1 X92.083 Y90.371 E86.00459
G1 X90.371 Y92.083 E86.60973
G1 E84.60973 F2400.00000
G92 E0
M107
M104 S0 ; turn off temperature
G28 X0  ; home X axis
M84     ; disable motors

; filament used = 1561.5mm (1.2cm3)

; avoid_crossing_perimeters = 0
; bed_shape = 0x0,200x0,200x200,0x200
; bed_temperature = 0
; before_layer_gcode = 
; bridge_acceleration = 0
; bridge_fan_speed = 100
; brim_width = 0
; complete_objects = 0
; cooling = 1
; default_acceleration = 0
; disable_fan_first_layers = 3
; duplicate_distance = 6
; end_gcode = M104 S0 ; turn off temperature\nG28 X0  ; home X axis\nM84     ; disable motors\n
; extruder_clearance_height = 20
; extruder_clearance_radius = 20
; extruder_offset = 0x0
; extrusion_axis = E
; extrusion_multiplier = 1
; fan_always_on = 0
; fan_below_layer_time = 60
; filament_colour = #FFFFFF
; filament_diameter = 1
; first_layer_acceleration = 0
; first_layer_bed_temperature = 0
; first_layer_extrusion_width = 200%
; first_layer_speed = 30
; first_layer_temperature = 200
; gcode_arcs = 0
; gcode_comments = 0
; gcode_flavor = reprap
; infill_acceleration = 0
; infill_first = 0
; layer_gcode = 
; max_fan_speed = 100
; max_print_speed = 80
; max_volumetric_speed = 0
; min_fan_speed = 35
; min_print_speed = 10
; min_skirt_length = 0
; notes = 
; nozzle_diameter = 0.5
; only_retract_when_crossing_perimeters = 1
; ooze_prevention = 0
; output_filename_format = [input_filename_base].gcode
; perimeter_acceleration = 0
; post_process = 
; pressure_advance = 0
; resolution = 0
; retract_before_travel = 2
; retract_layer_change = 0
; retract_length = 2
; retract_length_toolchange = 10
; retract_lift = 0
; retract_restart_extra = 0
; retract_restart_extra_toolchange = 0
; retract_speed = 40
; skirt_distance = 6
; skirt_height = 1
; skirts = 0
; slowdown_below_layer_time = 5
; spiral_vase = 0
; standby_temperature_delta = -5
; start_gcode = G28 ; home all axes\nG1 Z5 F5000 ; lift nozzle\n
; temperature = 200
; threads = 2
; toolchange_gcode = 
; travel_speed = 130
; use_firmware_retraction = 0
; use_relative_e_distances = 0
; use_volumetric_e = 0
; vibration_limit = 0
; wipe = 0
; z_offset = 0
; dont_support_bridges = 1
; extrusion_width = 0
; first_layer_height = 0.4
; infill_only_where_needed = 0
; interface_shells = 0
; layer_height = 0.4
; raft_layers = 0
; seam_position = aligned
; support_material = 0
; support_material_angle = 0
; support_material_contact_distance = 0.2
; support_material_enforce_layers = 0
; support_material_extruder = 1
; support_material_extrusion_width = 0
; support_material_interface_extruder = 1
; support_material_interface_layers = 3
; support_material_interface_spacing = 0
; support_material_interface_speed = 100%
; support_material_pattern = pillars
; support_material_spacing = 2.5
; support_material_speed = 60
; support_material_threshold = 0
; xy_size_compensation = 0
; bottom_solid_layers = 0
; bridge_flow_ratio = 1
; bridge_speed = 60
; external_fill_pattern = rectilinear
; external_perimeter_extrusion_width = 0
; external_perimeter_speed = 50%
; external_perimeters_first = 0
; extra_perimeters = 1
; fill_angle = 45
; fill_density = 40%
; fill_pattern = rectilinear
; gap_fill_speed = 20
; infill_every_layers = 1
; infill_extruder = 1
; infill_extrusion_width = 0
; infill_overlap = 15%
; infill_speed = 80
; overhangs = 1
; perimeter_extruder = 1
; perimeter_extrusion_width = 0
; perimeter_speed = 60
; perimeters = 0
; small_perimeter_speed = 15
; solid_infill_below_area = 70
; solid_infill_every_layers = 0
; solid_infill_extruder = 1
; solid_infill_extrusion_width = 0
; solid_infill_speed = 20
; thin_walls = 1
; top_infill_extrusion_width = 0
; top_solid_infill_speed = 15
; top_solid_layers = 0
