; generated by Slic3r 1.2.9 on 2019-06-17 at 11:00:55

; external perimeters extrusion width = 0.50mm
; perimeters extrusion width = 0.52mm
; infill extrusion width = 0.52mm
; solid infill extrusion width = 0.52mm
; top infill extrusion width = 0.52mm

M107
M104 S200 ; set temperature
G28 ; home all axes
G1 Z5 F5000 ; lift nozzle

M109 S200 ; wait for temperature to be reached
G21 ; set units to millimeters
G90 ; use absolute coordinates
M82 ; use absolute distances for extrusion
G92 E0
G1 Z0.500 F7800.000
G1 E-2.00000 F2400.00000
G92 E0
G1 X90.325 Y107.966 F7800.000
G1 E2.00000 F2400.00000
G1 X91.459 Y109.100 E2.91161 F1800.000
G1 X92.444 Y109.100 E3.47112
G1 X90.325 Y106.981 E5.17400
G1 X90.325 Y105.996 E5.73352
G1 X93.429 Y109.100 E8.22768
G1 X94.413 Y109.100 E8.78719
G1 X90.325 Y105.012 E12.07263
G1 X90.325 Y104.027 E12.63214
G1 X95.398 Y109.100 E16.70885
G1 X96.382 Y109.100 E17.26836
G1 X90.325 Y103.043 E22.13635
G1 X90.325 Y102.058 E22.69586
G1 X97.367 Y109.100 E28.35512
G1 X98.351 Y109.100 E28.91463
G1 X90.325 Y101.074 E35.36517
G1 X90.325 Y100.089 E35.92468
G1 X99.336 Y109.100 E43.16649
G1 X100.320 Y109.100 E43.72601
G1 X90.325 Y99.105 E51.75909
G1 X90.325 Y98.120 E52.31860
G1 X101.305 Y109.100 E61.14296
G1 X102.289 Y109.100 E61.70248
G1 X90.325 Y97.136 E71.31811
G1 X90.325 Y96.151 E71.87763
G1 X103.274 Y109.100 E82.28453
G1 X104.258 Y109.100 E82.84405
G1 X90.325 Y95.167 E94.04223
G1 X90.325 Y94.182 E94.60175
G1 X105.243 Y109.100 E106.59120
G1 X106.227 Y109.100 E107.15072
G1 X90.325 Y93.198 E119.93145
G1 X90.325 Y92.213 E120.49097
G1 X107.212 Y109.100 E134.06298
G1 X108.196 Y109.100 E134.62249
G1 X90.325 Y91.229 E148.98578
G1 X90.981 Y90.900 E149.40276
G1 X109.181 Y109.100 E164.02997
G1 X109.675 Y108.609 E164.42561
G1 X91.966 Y90.900 E178.65847
G1 X92.950 Y90.900 E179.21798
G1 X109.675 Y107.625 E192.65956
G1 X109.675 Y106.640 E193.21908
G1 X93.935 Y90.900 E205.86938
G1 X94.919 Y90.900 E206.42890
G1 X109.675 Y105.656 E218.28793
G1 X109.675 Y104.671 E218.84744
G1 X95.904 Y90.900 E229.91520
G1 X96.889 Y90.900 E230.47472
G1 X109.675 Y103.686 E240.75120
G1 X109.675 Y102.702 E241.31071
G1 X97.873 Y90.900 E250.79592
G1 X98.858 Y90.900 E251.35543
G1 X109.675 Y101.717 E260.04936
G1 X109.675 Y100.733 E260.60888
G1 X99.842 Y90.900 E268.51153
G1 X100.827 Y90.900 E269.07105
G1 X109.675 Y99.748 E276.18243
G1 X109.675 Y98.764 E276.74194
G1 X101.811 Y90.900 E283.06205
G1 X102.796 Y90.900 E283.62156
G1 X109.675 Y97.779 E289.15039
G1 X109.675 Y96.795 E289.70991
G1 X103.780 Y90.900 E294.44746
G1 X104.765 Y90.900 E295.00698
G1 X109.675 Y95.810 E298.95326
G1 X109.675 Y94.826 E299.51277
G1 X105.749 Y90.900 E302.66778
G1 X106.734 Y90.900 E303.22729
G1 X109.675 Y93.841 E305.59102
G1 X109.675 Y92.857 E306.15054
G1 X107.718 Y90.900 E307.72299
G1 X108.703 Y90.900 E308.28251
G1 X109.675 Y91.872 E309.06369
G1 Z1.000 F7800.000
G1 X108.703 Y109.100 F7800.000
G1 X109.675 Y108.128 E309.42920 F4800.000
G1 X109.675 Y107.143 E309.69101
G1 X107.718 Y109.100 E310.42677
G1 X106.734 Y109.100 E310.68857
G1 X109.675 Y106.159 E311.79457
G1 X109.675 Y105.174 E312.05637
G1 X105.749 Y109.100 E313.53262
G1 X104.765 Y109.100 E313.79442
G1 X109.675 Y104.190 E315.64090
G1 X109.675 Y103.205 E315.90270
G1 X103.780 Y109.100 E318.11943
G1 X102.796 Y109.100 E318.38124
G1 X109.675 Y102.221 E320.96821
G1 X109.675 Y101.236 E321.23001
G1 X101.811 Y109.100 E324.18722
G1 X100.827 Y109.100 E324.44902
G1 X109.675 Y100.252 E327.77648
G1 X109.675 Y99.267 E328.03828
G1 X99.842 Y109.100 E331.73598
G1 X98.858 Y109.100 E331.99778
G1 X109.675 Y98.283 E336.06572
G1 X109.675 Y97.298 E336.32752
G1 X97.873 Y109.100 E340.76570
G1 X96.889 Y109.100 E341.02750
G1 X109.675 Y96.314 E345.83592
G1 X109.675 Y95.329 E346.09773
G1 X95.904 Y109.100 E351.27639
G1 X94.919 Y109.100 E351.53819
G1 X109.675 Y94.344 E357.08710
G1 X109.675 Y93.360 E357.34890
G1 X93.935 Y109.100 E363.26805
G1 X92.950 Y109.100 E363.52985
G1 X109.675 Y92.375 E369.81925
G1 X109.675 Y91.391 E370.08105
G1 X91.966 Y109.100 E376.74068
G1 X90.981 Y109.100 E377.00248
G1 X109.181 Y90.900 E383.84664
G1 X108.196 Y90.900 E384.10844
G1 X90.325 Y108.771 E390.82910
G1 X90.325 Y107.787 E391.09090
G1 X107.212 Y90.900 E397.44132
G1 X106.227 Y90.900 E397.70313
G1 X90.325 Y106.802 E403.68330
G1 X90.325 Y105.818 E403.94510
G1 X105.243 Y90.900 E409.55504
G1 X104.258 Y90.900 E409.81684
G1 X90.325 Y104.833 E415.05653
G1 X90.325 Y103.849 E415.31834
G1 X103.274 Y90.900 E420.18779
G1 X102.289 Y90.900 E420.44959
G1 X90.325 Y102.864 E424.94880
G1 X90.325 Y101.880 E425.21060
G1 X101.305 Y90.900 E429.33957
G1 X100.320 Y90.900 E429.60137
G1 X90.325 Y100.895 E433.36009
G1 X90.325 Y99.911 E433.62189
G1 X99.336 Y90.900 E437.01038
G1 X98.351 Y90.900 E437.27218
G1 X90.325 Y98.926 E440.29042
G1 X90.325 Y97.942 E440.55222
G1 X97.367 Y90.900 E443.20022
G1 X96.382 Y90.900 E443.46202
G1 X90.325 Y96.957 E445.73977
G1 X90.325 Y95.973 E446.00158
G1 X95.398 Y90.900 E447.90909
G1 X94.413 Y90.900 E448.17089
G1 X90.325 Y94.988 E449.70816
G1 X90.325 Y94.004 E449.96996
G1 X93.429 Y90.900 E451.13699
G1 X92.444 Y90.900 E451.39879
G1 X90.325 Y93.019 E452.19558
G1 X90.325 Y92.034 E452.45738
G1 X91.459 Y90.900 E452.88393
G1 Z1.500 F7800.000
G1 X90.325 Y107.966 F7800.000
G1 X91.459 Y109.100 E453.31047 F4800.000
G1 X92.444 Y109.100 E453.57227
G1 X90.325 Y106.981 E454.36906
G1 X90.325 Y105.996 E454.63086
G1 X93.429 Y109.100 E455.79789
G1 X94.413 Y109.100 E456.05969
G1 X90.325 Y105.012 E457.59697
G1 X90.325 Y104.027 E457.85877
G1 X95.398 Y109.100 E459.76628
G1 X96.382 Y109.100 E460.02808
G1 X90.325 Y103.043 E462.30584
G1 X90.325 Y102.058 E462.56764
G1 X97.367 Y109.100 E465.21564
G1 X98.351 Y109.100 E465.47744
G1 X90.325 Y101.074 E468.49568
G1 X90.325 Y100.089 E468.75748
G1 X99.336 Y109.100 E472.14597
G1 X100.320 Y109.100 E472.40777
G1 X90.325 Y99.105 E476.16649
G1 X90.325 Y98.120 E476.42829
G1 X101.305 Y109.100 E480.55726
G1 X102.289 Y109.100 E480.81906
G1 X90.325 Y97.136 E485.31827
G1 X90.325 Y96.151 E485.58007
G1 X103.274 Y109.100 E490.44952
G1 X104.258 Y109.100 E490.71133
G1 X90.325 Y95.167 E495.95102
G1 X90.325 Y94.182 E496.21282
G1 X105.243 Y109.100 E501.82276
G1 X106.227 Y109.100 E502.08456
G1 X90.325 Y93.198 E508.06473
G1 X90.325 Y92.213 E508.32654
G1 X107.212 Y109.100 E514.67696
G1 X108.196 Y109.100 E514.93876
G1 X90.325 Y91.229 E521.65942
G1 X90.981 Y90.900 E521.85453
G1 X109.181 Y109.100 E528.69869
G1 X109.675 Y108.609 E528.88381
G1 X91.966 Y90.900 E535.54344
G1 X92.950 Y90.900 E535.80525
G1 X109.675 Y107.625 E542.09464
G1 X109.675 Y106.640 E542.35644
G1 X93.935 Y90.900 E548.27559
G1 X94.919 Y90.900 E548.53739
G1 X109.675 Y105.656 E554.08630
G1 X109.675 Y104.671 E554.34810
G1 X95.904 Y90.900 E559.52677
G1 X96.889 Y90.900 E559.78857
G1 X109.675 Y103.686 E564.59699
G1 X109.675 Y102.702 E564.85879
G1 X97.873 Y90.900 E569.29697
G1 X98.858 Y90.900 E569.55877
G1 X109.675 Y101.717 E573.62671
G1 X109.675 Y100.733 E573.88851
G1 X99.842 Y90.900 E577.58621
G1 X100.827 Y90.900 E577.84801
G1 X109.675 Y99.748 E581.17547
G1 X109.675 Y98.764 E581.43727
G1 X101.811 Y90.900 E584.39448
G1 X102.796 Y90.900 E584.65628
G1 X109.675 Y97.779 E587.24325
G1 X109.675 Y96.795 E587.50505
G1 X103.780 Y90.900 E589.72178
G1 X104.765 Y90.900 E589.98358
G1 X109.675 Y95.810 E591.83007
G1 X109.675 Y94.826 E592.09187
G1 X105.749 Y90.900 E593.56812
G1 X106.734 Y90.900 E593.82992
G1 X109.675 Y93.841 E594.93592
G1 X109.675 Y92.857 E595.19772
G1 X107.718 Y90.900 E595.93348
G1 X108.703 Y90.900 E596.19528
G1 X109.675 Y91.872 E596.56080
M106 S247.35
G1 Z2.000 F7800.000
G1 X108.703 Y109.100 F7800.000
G1 X109.675 Y108.128 E596.92632 F4800.000
G1 X109.675 Y107.143 E597.18812
G1 X107.718 Y109.100 E597.92388
G1 X106.734 Y109.100 E598.18568
G1 X109.675 Y106.159 E599.29168
G1 X109.675 Y105.174 E599.55348
G1 X105.749 Y109.100 E601.02973
G1 X104.765 Y109.100 E601.29153
G1 X109.675 Y104.190 E603.13802
G1 X109.675 Y103.205 E603.39982
G1 X103.780 Y109.100 E605.61655
G1 X102.796 Y109.100 E605.87835
G1 X109.675 Y102.221 E608.46532
G1 X109.675 Y101.236 E608.72712
G1 X101.811 Y109.100 E611.68434
G1 X100.827 Y109.100 E611.94614
G1 X109.675 Y100.252 E615.27359
G1 X109.675 Y99.267 E615.53539
G1 X99.842 Y109.100 E619.23309
G1 X98.858 Y109.100 E619.49489
G1 X109.675 Y98.283 E623.56283
G1 X109.675 Y97.298 E623.82463
G1 X97.873 Y109.100 E628.26281
G1 X96.889 Y109.100 E628.52461
G1 X109.675 Y96.314 E633.33304
G1 X109.675 Y95.329 E633.59484
G1 X95.904 Y109.100 E638.77351
G1 X94.919 Y109.100 E639.03531
G1 X109.675 Y94.344 E644.58422
G1 X109.675 Y93.360 E644.84602
G1 X93.935 Y109.100 E650.76517
G1 X92.950 Y109.100 E651.02697
G1 X109.675 Y92.375 E657.31636
G1 X109.675 Y91.391 E657.57816
G1 X91.966 Y109.100 E664.23780
G1 X90.981 Y109.100 E664.49960
G1 X109.181 Y90.900 E671.34375
G1 X108.196 Y90.900 E671.60555
G1 X90.325 Y108.771 E678.32622
G1 X90.325 Y107.787 E678.58802
G1 X107.212 Y90.900 E684.93844
G1 X106.227 Y90.900 E685.20024
G1 X90.325 Y106.802 E691.18042
G1 X90.325 Y105.818 E691.44222
G1 X105.243 Y90.900 E697.05215
G1 X104.258 Y90.900 E697.31395
G1 X90.325 Y104.833 E702.55365
G1 X90.325 Y103.849 E702.81545
G1 X103.274 Y90.900 E707.68490
G1 X102.289 Y90.900 E707.94670
G1 X90.325 Y102.864 E712.44591
G1 X90.325 Y101.880 E712.70771
G1 X101.305 Y90.900 E716.83668
G1 X100.320 Y90.900 E717.09848
G1 X90.325 Y100.895 E720.85721
G1 X90.325 Y99.911 E721.11901
G1 X99.336 Y90.900 E724.50749
G1 X98.351 Y90.900 E724.76929
G1 X90.325 Y98.926 E727.78753
G1 X90.325 Y97.942 E728.04933
G1 X97.367 Y90.900 E730.69733
G1 X96.382 Y90.900 E730.95913
G1 X90.325 Y96.957 E733.23689
G1 X90.325 Y95.973 E733.49869
G1 X95.398 Y90.900 E735.40620
G1 X94.413 Y90.900 E735.66800
G1 X90.325 Y94.988 E737.20528
G1 X90.325 Y94.004 E737.46708
G1 X93.429 Y90.900 E738.63411
G1 X92.444 Y90.900 E738.89591
G1 X90.325 Y93.019 E739.69270
G1 X90.325 Y92.034 E739.95450
G1 X91.459 Y90.900 E740.38104
G1 Z2.500 F7800.000
G1 X90.325 Y107.966 F7800.000
G1 X91.459 Y109.100 E740.80759 F4800.000
G1 X92.444 Y109.100 E741.06939
G1 X90.325 Y106.981 E741.86618
G1 X90.325 Y105.996 E742.12798
G1 X93.429 Y109.100 E743.29501
G1 X94.413 Y109.100 E743.55681
G1 X90.325 Y105.012 E745.09408
G1 X90.325 Y104.027 E745.35588
G1 X95.398 Y109.100 E747.26340
G1 X96.382 Y109.100 E747.52520
G1 X90.325 Y103.043 E749.80295
G1 X90.325 Y102.058 E750.06475
G1 X97.367 Y109.100 E752.71275
G1 X98.351 Y109.100 E752.97455
G1 X90.325 Y101.074 E755.99280
G1 X90.325 Y100.089 E756.25460
G1 X99.336 Y109.100 E759.64308
G1 X100.320 Y109.100 E759.90488
G1 X90.325 Y99.105 E763.66361
G1 X90.325 Y98.120 E763.92541
G1 X101.305 Y109.100 E768.05438
G1 X102.289 Y109.100 E768.31618
G1 X90.325 Y97.136 E772.81539
G1 X90.325 Y96.151 E773.07719
G1 X103.274 Y109.100 E777.94664
G1 X104.258 Y109.100 E778.20844
G1 X90.325 Y95.167 E783.44813
G1 X90.325 Y94.182 E783.70993
G1 X105.243 Y109.100 E789.31987
G1 X106.227 Y109.100 E789.58167
G1 X90.325 Y93.198 E795.56185
G1 X90.325 Y92.213 E795.82365
G1 X107.212 Y109.100 E802.17407
G1 X108.196 Y109.100 E802.43587
G1 X90.325 Y91.229 E809.15654
G1 X90.981 Y90.900 E809.35165
G1 X109.181 Y109.100 E816.19580
G1 X109.675 Y108.609 E816.38092
G1 X91.966 Y90.900 E823.04056
G1 X92.950 Y90.900 E823.30236
G1 X109.675 Y107.625 E829.59175
G1 X109.675 Y106.640 E829.85355
G1 X93.935 Y90.900 E835.77270
G1 X94.919 Y90.900 E836.03450
G1 X109.675 Y105.656 E841.58341
G1 X109.675 Y104.671 E841.84521
G1 X95.904 Y90.900 E847.02388
G1 X96.889 Y90.900 E847.28568
G1 X109.675 Y103.686 E852.09411
G1 X109.675 Y102.702 E852.35591
G1 X97.873 Y90.900 E856.79409
G1 X98.858 Y90.900 E857.05589
G1 X109.675 Y101.717 E861.12383
G1 X109.675 Y100.733 E861.38563
G1 X99.842 Y90.900 E865.08333
G1 X100.827 Y90.900 E865.34513
G1 X109.675 Y99.748 E868.67258
G1 X109.675 Y98.764 E868.93438
G1 X101.811 Y90.900 E871.89160
G1 X102.796 Y90.900 E872.15340
G1 X109.675 Y97.779 E874.74037
G1 X109.675 Y96.795 E875.00217
G1 X103.780 Y90.900 E877.21890
G1 X104.765 Y90.900 E877.48070
G1 X109.675 Y95.810 E879.32719
G1 X109.675 Y94.826 E879.58899
G1 X105.749 Y90.900 E881.06523
G1 X106.734 Y90.900 E881.32703
G1 X109.675 Y93.841 E882.43303
G1 X109.675 Y92.857 E882.69484
G1 X107.718 Y90.900 E883.43060
G1 X108.703 Y90.900 E883.69240
G1 X109.675 Y91.872 E884.05791
G1 Z3.000 F7800.000
G1 X108.703 Y109.100 F7800.000
G1 X109.675 Y108.128 E884.42343 F4800.000
G1 X109.675 Y107.143 E884.68523
G1 X107.718 Y109.100 E885.42099
G1 X106.734 Y109.100 E885.68279
G1 X109.675 Y106.159 E886.78880
G1 X109.675 Y105.174 E887.05060
G1 X105.749 Y109.100 E888.52684
G1 X104.765 Y109.100 E888.78864
G1 X109.675 Y104.190 E890.63513
G1 X109.675 Y103.205 E890.89693
G1 X103.780 Y109.100 E893.11366
G1 X102.796 Y109.100 E893.37546
G1 X109.675 Y102.221 E895.96243
G1 X109.675 Y101.236 E896.22424
G1 X101.811 Y109.100 E899.18145
G1 X100.827 Y109.100 E899.44325
G1 X109.675 Y100.252 E902.77071
G1 X109.675 Y99.267 E903.03251
G1 X99.842 Y109.100 E906.73020
G1 X98.858 Y109.100 E906.99201
G1 X109.675 Y98.283 E911.05995
G1 X109.675 Y97.298 E911.32175
G1 X97.873 Y109.100 E915.75993
G1 X96.889 Y109.100 E916.02173
G1 X109.675 Y96.314 E920.83015
G1 X109.675 Y95.329 E921.09195
G1 X95.904 Y109.100 E926.27062
G1 X94.919 Y109.100 E926.53242
G1 X109.675 Y94.344 E932.08133
G1 X109.675 Y93.360 E932.34313
G1 X93.935 Y109.100 E938.26228
G1 X92.950 Y109.100 E938.52408
G1 X109.675 Y92.375 E944.81347
G1 X109.675 Y91.391 E945.07528
G1 X91.966 Y109.100 E951.73491
G1 X90.981 Y109.100 E951.99671
G1 X109.181 Y90.900 E958.84087
G1 X108.196 Y90.900 E959.10267
G1 X90.325 Y108.771 E965.82333
G1 X90.325 Y107.787 E966.08513
G1 X107.212 Y90.900 E972.43555
G1 X106.227 Y90.900 E972.69735
G1 X90.325 Y106.802 E978.67753
G1 X90.325 Y105.818 E978.93933
G1 X105.243 Y90.900 E984.54927
G1 X104.258 Y90.900 E984.81107
G1 X90.325 Y104.833 E990.05076
G1 X90.325 Y103.849 E990.31256
G1 X103.274 Y90.900 E995.18202
G1 X102.289 Y90.900 E995.44382
G1 X90.325 Y102.864 E999.94303
G1 X90.325 Y101.880 E1000.20483
G1 X101.305 Y90.900 E1004.33379
G1 X100.320 Y90.900 E1004.59559
G1 X90.325 Y100.895 E1008.35432
G1 X90.325 Y99.911 E1008.61612
G1 X99.336 Y90.900 E1012.00460
G1 X98.351 Y90.900 E1012.26640
G1 X90.325 Y98.926 E1015.28465
G1 X90.325 Y97.942 E1015.54645
G1 X97.367 Y90.900 E1018.19445
G1 X96.382 Y90.900 E1018.45625
G1 X90.325 Y96.957 E1020.73400
G1 X90.325 Y95.973 E1020.99580
G1 X95.398 Y90.900 E1022.90332
G1 X94.413 Y90.900 E1023.16512
G1 X90.325 Y94.988 E1024.70239
G1 X90.325 Y94.004 E1024.96419
G1 X93.429 Y90.900 E1026.13122
G1 X92.444 Y90.900 E1026.39302
G1 X90.325 Y93.019 E1027.18981
G1 X90.325 Y92.034 E1027.45161
G1 X91.459 Y90.900 E1027.87816
G1 Z3.500 F7800.000
G1 X90.325 Y107.966 F7800.000
G1 X91.459 Y109.100 E1028.30470 F4800.000
G1 X92.444 Y109.100 E1028.56650
G1 X90.325 Y106.981 E1029.36329
G1 X90.325 Y105.996 E1029.62509
G1 X93.429 Y109.100 E1030.79212
G1 X94.413 Y109.100 E1031.05392
G1 X90.325 Y105.012 E1032.59119
G1 X90.325 Y104.027 E1032.85300
G1 X95.398 Y109.100 E1034.76051
G1 X96.382 Y109.100 E1035.02231
G1 X90.325 Y103.043 E1037.30007
G1 X90.325 Y102.058 E1037.56187
G1 X97.367 Y109.100 E1040.20987
G1 X98.351 Y109.100 E1040.47167
G1 X90.325 Y101.074 E1043.48991
G1 X90.325 Y100.089 E1043.75171
G1 X99.336 Y109.100 E1047.14019
G1 X100.320 Y109.100 E1047.40199
G1 X90.325 Y99.105 E1051.16072
G1 X90.325 Y98.120 E1051.42252
G1 X101.305 Y109.100 E1055.55149
G1 X102.289 Y109.100 E1055.81329
G1 X90.325 Y97.136 E1060.31250
G1 X90.325 Y96.151 E1060.57430
G1 X103.274 Y109.100 E1065.44375
G1 X104.258 Y109.100 E1065.70555
G1 X90.325 Y95.167 E1070.94525
G1 X90.325 Y94.182 E1071.20705
G1 X105.243 Y109.100 E1076.81698
G1 X106.227 Y109.100 E1077.07878
G1 X90.325 Y93.198 E1083.05896
G1 X90.325 Y92.213 E1083.32076
G1 X107.212 Y109.100 E1089.67119
G1 X108.196 Y109.100 E1089.93299
G1 X90.325 Y91.229 E1096.65365
G1 X90.981 Y90.900 E1096.84876
G1 X109.181 Y109.100 E1103.69292
G1 X109.675 Y108.609 E1103.87804
G1 X91.966 Y90.900 E1110.53767
G1 X92.950 Y90.900 E1110.79947
G1 X109.675 Y107.625 E1117.08887
G1 X109.675 Y106.640 E1117.35067
G1 X93.935 Y90.900 E1123.26982
G1 X94.919 Y90.900 E1123.53162
G1 X109.675 Y105.656 E1129.08053
G1 X109.675 Y104.671 E1129.34233
G1 X95.904 Y90.900 E1134.52099
G1 X96.889 Y90.900 E1134.78280
G1 X109.675 Y103.686 E1139.59122
G1 X109.675 Y102.702 E1139.85302
G1 X97.873 Y90.900 E1144.29120
G1 X98.858 Y90.900 E1144.55300
G1 X109.675 Y101.717 E1148.62094
G1 X109.675 Y100.733 E1148.88274
G1 X99.842 Y90.900 E1152.58044
G1 X100.827 Y90.900 E1152.84224
G1 X109.675 Y99.748 E1156.16970
G1 X109.675 Y98.764 E1156.43150
G1 X101.811 Y90.900 E1159.38871
G1 X102.796 Y90.900 E1159.65051
G1 X109.675 Y97.779 E1162.23748
G1 X109.675 Y96.795 E1162.49928
G1 X103.780 Y90.900 E1164.71601
G1 X104.765 Y90.900 E1164.97781
G1 X109.675 Y95.810 E1166.82430
G1 X109.675 Y94.826 E1167.08610
G1 X105.749 Y90.900 E1168.56235
G1 X106.734 Y90.900 E1168.82415
G1 X109.675 Y93.841 E1169.93015
G1 X109.675 Y92.857 E1170.19195
G1 X107.718 Y90.900 E1170.92771
G1 X108.703 Y90.900 E1171.18951
G1 X109.675 Y91.872 E1171.55503
G1 Z4.000 F7800.000
G1 X108.703 Y109.100 F7800.000
G1 X109.675 Y108.128 E1171.92055 F4800.000
G1 X109.675 Y107.143 E1172.18235
G1 X107.718 Y109.100 E1172.91811
G1 X106.734 Y109.100 E1173.17991
G1 X109.675 Y106.159 E1174.28591
G1 X109.675 Y105.174 E1174.54771
G1 X105.749 Y109.100 E1176.02396
G1 X104.765 Y109.100 E1176.28576
G1 X109.675 Y104.190 E1178.13225
G1 X109.675 Y103.205 E1178.39405
G1 X103.780 Y109.100 E1180.61078
G1 X102.796 Y109.100 E1180.87258
G1 X109.675 Y102.221 E1183.45955
G1 X109.675 Y101.236 E1183.72135
G1 X101.811 Y109.100 E1186.67856
G1 X100.827 Y109.100 E1186.94036
G1 X109.675 Y100.252 E1190.26782
G1 X109.675 Y99.267 E1190.52962
G1 X99.842 Y109.100 E1194.22732
G1 X98.858 Y109.100 E1194.48912
G1 X109.675 Y98.283 E1198.55706
G1 X109.675 Y97.298 E1198.81886
G1 X97.873 Y109.100 E1203.25704
G1 X96.889 Y109.100 E1203.51884
G1 X109.675 Y96.314 E1208.32727
G1 X109.675 Y95.329 E1208.58907
G1 X95.904 Y109.100 E1213.76773
G1 X94.919 Y109.100 E1214.02953
G1 X109.675 Y94.344 E1219.57844
G1 X109.675 Y93.360 E1219.84024
G1 X93.935 Y109.100 E1225.75940
G1 X92.950 Y109.100 E1226.02120
G1 X109.675 Y92.375 E1232.31059
G1 X109.675 Y91.391 E1232.57239
G1 X91.966 Y109.100 E1239.23202
G1 X90.981 Y109.100 E1239.49382
G1 X109.181 Y90.900 E1246.33798
G1 X108.196 Y90.900 E1246.59978
G1 X90.325 Y108.771 E1253.32044
G1 X90.325 Y107.787 E1253.58225
G1 X107.212 Y90.900 E1259.93267
G1 X106.227 Y90.900 E1260.19447
G1 X90.325 Y106.802 E1266.17465
G1 X90.325 Y105.818 E1266.43645
G1 X105.243 Y90.900 E1272.04638
G1 X104.258 Y90.900 E1272.30818
G1 X90.325 Y104.833 E1277.54788
G1 X90.325 Y103.849 E1277.80968
G1 X103.274 Y90.900 E1282.67913
G1 X102.289 Y90.900 E1282.94093
G1 X90.325 Y102.864 E1287.44014
G1 X90.325 Y101.880 E1287.70194
G1 X101.305 Y90.900 E1291.83091
G1 X100.320 Y90.900 E1292.09271
G1 X90.325 Y100.895 E1295.85143
G1 X90.325 Y99.911 E1296.11323
G1 X99.336 Y90.900 E1299.50172
G1 X98.351 Y90.900 E1299.76352
G1 X90.325 Y98.926 E1302.78176
G1 X90.325 Y97.942 E1303.04356
G1 X97.367 Y90.900 E1305.69156
G1 X96.382 Y90.900 E1305.95336
G1 X90.325 Y96.957 E1308.23112
G1 X90.325 Y95.973 E1308.49292
G1 X95.398 Y90.900 E1310.40043
G1 X94.413 Y90.900 E1310.66223
G1 X90.325 Y94.988 E1312.19950
G1 X90.325 Y94.004 E1312.46130
G1 X93.429 Y90.900 E1313.62833
G1 X92.444 Y90.900 E1313.89014
G1 X90.325 Y93.019 E1314.68692
G1 X90.325 Y92.034 E1314.94872
G1 X91.459 Y90.900 E1315.37527
G1 Z4.500 F7800.000
G1 X90.325 Y107.966 F7800.000
G1 X91.459 Y109.100 E1315.80182 F4800.000
G1 X92.444 Y109.100 E1316.06362
G1 X90.325 Y106.981 E1316.86040
G1 X90.325 Y105.996 E1317.12221
G1 X93.429 Y109.100 E1318.28924
G1 X94.413 Y109.100 E1318.55104
G1 X90.325 Y105.012 E1320.08831
G1 X90.325 Y104.027 E1320.35011
G1 X95.398 Y109.100 E1322.25762
G1 X96.382 Y109.100 E1322.51942
G1 X90.325 Y103.043 E1324.79718
G1 X90.325 Y102.058 E1325.05898
G1 X97.367 Y109.100 E1327.70698
G1 X98.351 Y109.100 E1327.96878
G1 X90.325 Y101.074 E1330.98702
G1 X90.325 Y100.089 E1331.24882
G1 X99.336 Y109.100 E1334.63731
G1 X100.320 Y109.100 E1334.89911
G1 X90.325 Y99.105 E1338.65783
G1 X90.325 Y98.120 E1338.91964
G1 X101.305 Y109.100 E1343.04860
G1 X102.289 Y109.100 E1343.31040
G1 X90.325 Y97.136 E1347.80961
G1 X90.325 Y96.151 E1348.07141
G1 X103.274 Y109.100 E1352.94087
G1 X104.258 Y109.100 E1353.20267
G1 X90.325 Y95.167 E1358.44236
G1 X90.325 Y94.182 E1358.70416
G1 X105.243 Y109.100 E1364.31410
G1 X106.227 Y109.100 E1364.57590
G1 X90.325 Y93.198 E1370.55608
G1 X90.325 Y92.213 E1370.81788
G1 X107.212 Y109.100 E1377.16830
G1 X108.196 Y109.100 E1377.43010
G1 X90.325 Y91.229 E1384.15076
G1 X90.981 Y90.900 E1384.34587
G1 X109.181 Y109.100 E1391.19003
G1 X109.675 Y108.609 E1391.37515
G1 X91.966 Y90.900 E1398.03479
G1 X92.950 Y90.900 E1398.29659
G1 X109.675 Y107.625 E1404.58598
G1 X109.675 Y106.640 E1404.84778
G1 X93.935 Y90.900 E1410.76693
G1 X94.919 Y90.900 E1411.02873
G1 X109.675 Y105.656 E1416.57764
G1 X109.675 Y104.671 E1416.83944
G1 X95.904 Y90.900 E1422.01811
G1 X96.889 Y90.900 E1422.27991
G1 X109.675 Y103.686 E1427.08833
G1 X109.675 Y102.702 E1427.35013
G1 X97.873 Y90.900 E1431.78832
G1 X98.858 Y90.900 E1432.05012
G1 X109.675 Y101.717 E1436.11806
G1 X109.675 Y100.733 E1436.37986
G1 X99.842 Y90.900 E1440.07755
G1 X100.827 Y90.900 E1440.33935
G1 X109.675 Y99.748 E1443.66681
G1 X109.675 Y98.764 E1443.92861
G1 X101.811 Y90.900 E1446.88582
G1 X102.796 Y90.900 E1447.14763
G1 X109.675 Y97.779 E1449.73460
G1 X109.675 Y96.795 E1449.99640
G1 X103.780 Y90.900 E1452.21313
G1 X104.765 Y90.900 E1452.47493
G1 X109.675 Y95.810 E1454.32141
G1 X109.675 Y94.826 E1454.58321
G1 X105.749 Y90.900 E1456.05946
G1 X106.734 Y90.900 E1456.32126
G1 X109.675 Y93.841 E1457.42726
G1 X109.675 Y92.857 E1457.68906
G1 X107.718 Y90.900 E1458.42482
G1 X108.703 Y90.900 E1458.68662
G1 X109.675 Y91.872 E1459.05214
G1 Z5.000 F7800.000
G1 X108.703 Y109.100 F7800.000
G1 X109.675 Y108.128 E1459.41766 F4800.000
G1 X109.675 Y107.143 E1459.67946
G1 X107.718 Y109.100 E1460.41522
G1 X106.734 Y109.100 E1460.67702
G1 X109.675 Y106.159 E1461.78303
G1 X109.675 Y105.174 E1462.04483
G1 X105.749 Y109.100 E1463.52107
G1 X104.765 Y109.100 E1463.78287
G1 X109.675 Y104.190 E1465.62936
G1 X109.675 Y103.205 E1465.89116
G1 X103.780 Y109.100 E1468.10789
G1 X102.796 Y109.100 E1468.36969
G1 X109.675 Y102.221 E1470.95666
G1 X109.675 Y101.236 E1471.21846
G1 X101.811 Y109.100 E1474.17568
G1 X100.827 Y109.100 E1474.43748
G1 X109.675 Y100.252 E1477.76493
G1 X109.675 Y99.267 E1478.02673
G1 X99.842 Y109.100 E1481.72443
G1 X98.858 Y109.100 E1481.98623
G1 X109.675 Y98.283 E1486.05417
G1 X109.675 Y97.298 E1486.31597
G1 X97.873 Y109.100 E1490.75416
G1 X96.889 Y109.100 E1491.01596
G1 X109.675 Y96.314 E1495.82438
G1 X109.675 Y95.329 E1496.08618
G1 X95.904 Y109.100 E1501.26485
G1 X94.919 Y109.100 E1501.52665
G1 X109.675 Y94.344 E1507.07556
G1 X109.675 Y93.360 E1507.33736
G1 X93.935 Y109.100 E1513.25651
G1 X92.950 Y109.100 E1513.51831
G1 X109.675 Y92.375 E1519.80770
G1 X109.675 Y91.391 E1520.06950
G1 X91.966 Y109.100 E1526.72914
G1 X90.981 Y109.100 E1526.99094
G1 X109.181 Y90.900 E1533.83509
G1 X108.196 Y90.900 E1534.09690
G1 X90.325 Y108.771 E1540.81756
G1 X90.325 Y107.787 E1541.07936
G1 X107.212 Y90.900 E1547.42978
G1 X106.227 Y90.900 E1547.69158
G1 X90.325 Y106.802 E1553.67176
G1 X90.325 Y105.818 E1553.93356
G1 X105.243 Y90.900 E1559.54350
G1 X104.258 Y90.900 E1559.80530
G1 X90.325 Y104.833 E1565.04499
G1 X90.325 Y103.849 E1565.30679
G1 X103.274 Y90.900 E1570.17624
G1 X102.289 Y90.900 E1570.43804
G1 X90.325 Y102.864 E1574.93725
G1 X90.325 Y101.880 E1575.19905
G1 X101.305 Y90.900 E1579.32802
G1 X100.320 Y90.900 E1579.58982
G1 X90.325 Y100.895 E1583.34855
G1 X90.325 Y99.911 E1583.61035
G1 X99.336 Y90.900 E1586.99883
G1 X98.351 Y90.900 E1587.26063
G1 X90.325 Y98.926 E1590.27887
G1 X90.325 Y97.942 E1590.54067
G1 X97.367 Y90.900 E1593.18867
G1 X96.382 Y90.900 E1593.45047
G1 X90.325 Y96.957 E1595.72823
G1 X90.325 Y95.973 E1595.99003
G1 X95.398 Y90.900 E1597.89755
G1 X94.413 Y90.900 E1598.15935
G1 X90.325 Y94.988 E1599.69662
G1 X90.325 Y94.004 E1599.95842
G1 X93.429 Y90.900 E1601.12545
G1 X92.444 Y90.900 E1601.38725
G1 X90.325 Y93.019 E1602.18404
G1 X90.325 Y92.034 E1602.44584
G1 X91.459 Y90.900 E1602.87238
G1 Z5.500 F7800.000
G1 X90.325 Y107.966 F7800.000
G1 X91.459 Y109.100 E1603.29893 F4800.000
G1 X92.444 Y109.100 E1603.56073
G1 X90.325 Y106.981 E1604.35752
G1 X90.325 Y105.996 E1604.61932
G1 X93.429 Y109.100 E1605.78635
G1 X94.413 Y109.100 E1606.04815
G1 X90.325 Y105.012 E1607.58542
G1 X90.325 Y104.027 E1607.84722
G1 X95.398 Y109.100 E1609.75474
G1 X96.382 Y109.100 E1610.01654
G1 X90.325 Y103.043 E1612.29430
G1 X90.325 Y102.058 E1612.55610
G1 X97.367 Y109.100 E1615.20410
G1 X98.351 Y109.100 E1615.46590
G1 X90.325 Y101.074 E1618.48414
G1 X90.325 Y100.089 E1618.74594
G1 X99.336 Y109.100 E1622.13442
G1 X100.320 Y109.100 E1622.39622
G1 X90.325 Y99.105 E1626.15495
G1 X90.325 Y98.120 E1626.41675
G1 X101.305 Y109.100 E1630.54572
G1 X102.289 Y109.100 E1630.80752
G1 X90.325 Y97.136 E1635.30673
G1 X90.325 Y96.151 E1635.56853
G1 X103.274 Y109.100 E1640.43798
G1 X104.258 Y109.100 E1640.69978
G1 X90.325 Y95.167 E1645.93948
G1 X90.325 Y94.182 E1646.20128
G1 X105.243 Y109.100 E1651.81121
G1 X106.227 Y109.100 E1652.07301
G1 X90.325 Y93.198 E1658.05319
G1 X90.325 Y92.213 E1658.31499
G1 X107.212 Y109.100 E1664.66541
G1 X108.196 Y109.100 E1664.92721
G1 X90.325 Y91.229 E1671.64788
G1 X90.981 Y90.900 E1671.84299
G1 X109.181 Y109.100 E1678.68714
G1 X109.675 Y108.609 E1678.87227
G1 X91.966 Y90.900 E1685.53190
G1 X92.950 Y90.900 E1685.79370
G1 X109.675 Y107.625 E1692.08309
G1 X109.675 Y106.640 E1692.34489
G1 X93.935 Y90.900 E1698.26405
G1 X94.919 Y90.900 E1698.52585
G1 X109.675 Y105.656 E1704.07475
G1 X109.675 Y104.671 E1704.33656
G1 X95.904 Y90.900 E1709.51522
G1 X96.889 Y90.900 E1709.77702
G1 X109.675 Y103.686 E1714.58545
G1 X109.675 Y102.702 E1714.84725
G1 X97.873 Y90.900 E1719.28543
G1 X98.858 Y90.900 E1719.54723
G1 X109.675 Y101.717 E1723.61517
G1 X109.675 Y100.733 E1723.87697
G1 X99.842 Y90.900 E1727.57467
G1 X100.827 Y90.900 E1727.83647
G1 X109.675 Y99.748 E1731.16392
G1 X109.675 Y98.764 E1731.42572
G1 X101.811 Y90.900 E1734.38294
G1 X102.796 Y90.900 E1734.64474
G1 X109.675 Y97.779 E1737.23171
G1 X109.675 Y96.795 E1737.49351
G1 X103.780 Y90.900 E1739.71024
G1 X104.765 Y90.900 E1739.97204
G1 X109.675 Y95.810 E1741.81853
G1 X109.675 Y94.826 E1742.08033
G1 X105.749 Y90.900 E1743.55657
G1 X106.734 Y90.900 E1743.81837
G1 X109.675 Y93.841 E1744.92438
G1 X109.675 Y92.857 E1745.18618
G1 X107.718 Y90.900 E1745.92194
G1 X108.703 Y90.900 E1746.18374
G1 X109.675 Y91.872 E1746.54926
G1 Z6.000 F7800.000
G1 X108.703 Y109.100 F7800.000
G1 X109.675 Y108.128 E1746.91477 F4800.000
G1 X109.675 Y107.143 E1747.17658
G1 X107.718 Y109.100 E1747.91234
G1 X106.734 Y109.100 E1748.17414
G1 X109.675 Y106.159 E1749.28014
G1 X109.675 Y105.174 E1749.54194
G1 X105.749 Y109.100 E1751.01819
G1 X104.765 Y109.100 E1751.27999
G1 X109.675 Y104.190 E1753.12647
G1 X109.675 Y103.205 E1753.38827
G1 X103.780 Y109.100 E1755.60500
G1 X102.796 Y109.100 E1755.86681
G1 X109.675 Y102.221 E1758.45378
G1 X109.675 Y101.236 E1758.71558
G1 X101.811 Y109.100 E1761.67279
G1 X100.827 Y109.100 E1761.93459
G1 X109.675 Y100.252 E1765.26205
G1 X109.675 Y99.267 E1765.52385
G1 X99.842 Y109.100 E1769.22155
G1 X98.858 Y109.100 E1769.48335
G1 X109.675 Y98.283 E1773.55129
G1 X109.675 Y97.298 E1773.81309
G1 X97.873 Y109.100 E1778.25127
G1 X96.889 Y109.100 E1778.51307
G1 X109.675 Y96.314 E1783.32149
G1 X109.675 Y95.329 E1783.58330
G1 X95.904 Y109.100 E1788.76196
G1 X94.919 Y109.100 E1789.02376
G1 X109.675 Y94.344 E1794.57267
G1 X109.675 Y93.360 E1794.83447
G1 X93.935 Y109.100 E1800.75362
G1 X92.950 Y109.100 E1801.01542
G1 X109.675 Y92.375 E1807.30482
G1 X109.675 Y91.391 E1807.56662
G1 X91.966 Y109.100 E1814.22625
G1 X90.981 Y109.100 E1814.48805
G1 X109.181 Y90.900 E1821.33221
G1 X108.196 Y90.900 E1821.59401
G1 X90.325 Y108.771 E1828.31467
G1 X90.325 Y107.787 E1828.57647
G1 X107.212 Y90.900 E1834.92689
G1 X106.227 Y90.900 E1835.18870
G1 X90.325 Y106.802 E1841.16887
G1 X90.325 Y105.818 E1841.43067
G1 X105.243 Y90.900 E1847.04061
G1 X104.258 Y90.900 E1847.30241
G1 X90.325 Y104.833 E1852.54210
G1 X90.325 Y103.849 E1852.80391
G1 X103.274 Y90.900 E1857.67336
G1 X102.289 Y90.900 E1857.93516
G1 X90.325 Y102.864 E1862.43437
G1 X90.325 Y101.880 E1862.69617
G1 X101.305 Y90.900 E1866.82514
G1 X100.320 Y90.900 E1867.08694
G1 X90.325 Y100.895 E1870.84566
G1 X90.325 Y99.911 E1871.10746
G1 X99.336 Y90.900 E1874.49595
G1 X98.351 Y90.900 E1874.75775
G1 X90.325 Y98.926 E1877.77599
G1 X90.325 Y97.942 E1878.03779
G1 X97.367 Y90.900 E1880.68579
G1 X96.382 Y90.900 E1880.94759
G1 X90.325 Y96.957 E1883.22534
G1 X90.325 Y95.973 E1883.48715
G1 X95.398 Y90.900 E1885.39466
G1 X94.413 Y90.900 E1885.65646
G1 X90.325 Y94.988 E1887.19373
G1 X90.325 Y94.004 E1887.45553
G1 X93.429 Y90.900 E1888.62256
G1 X92.444 Y90.900 E1888.88436
G1 X90.325 Y93.019 E1889.68115
G1 X90.325 Y92.034 E1889.94295
G1 X91.459 Y90.900 E1890.36950
G1 Z6.500 F7800.000
G1 X90.325 Y107.966 F7800.000
G1 X91.459 Y109.100 E1890.79604 F4800.000
G1 X92.444 Y109.100 E1891.05784
G1 X90.325 Y106.981 E1891.85463
G1 X90.325 Y105.996 E1892.11643
G1 X93.429 Y109.100 E1893.28346
G1 X94.413 Y109.100 E1893.54526
G1 X90.325 Y105.012 E1895.08254
G1 X90.325 Y104.027 E1895.34434
G1 X95.398 Y109.100 E1897.25185
G1 X96.382 Y109.100 E1897.51365
G1 X90.325 Y103.043 E1899.79141
G1 X90.325 Y102.058 E1900.05321
G1 X97.367 Y109.100 E1902.70121
G1 X98.351 Y109.100 E1902.96301
G1 X90.325 Y101.074 E1905.98125
G1 X90.325 Y100.089 E1906.24305
G1 X99.336 Y109.100 E1909.63154
G1 X100.320 Y109.100 E1909.89334
G1 X90.325 Y99.105 E1913.65206
G1 X90.325 Y98.120 E1913.91386
G1 X101.305 Y109.100 E1918.04283
G1 X102.289 Y109.100 E1918.30463
G1 X90.325 Y97.136 E1922.80384
G1 X90.325 Y96.151 E1923.06564
G1 X103.274 Y109.100 E1927.93509
G1 X104.258 Y109.100 E1928.19690
G1 X90.325 Y95.167 E1933.43659
G1 X90.325 Y94.182 E1933.69839
G1 X105.243 Y109.100 E1939.30833
G1 X106.227 Y109.100 E1939.57013
G1 X90.325 Y93.198 E1945.55030
G1 X90.325 Y92.213 E1945.81211
G1 X107.212 Y109.100 E1952.16253
G1 X108.196 Y109.100 E1952.42433
G1 X90.325 Y91.229 E1959.14499
G1 X90.981 Y90.900 E1959.34010
G1 X109.181 Y109.100 E1966.18426
G1 X109.675 Y108.609 E1966.36938
G1 X91.966 Y90.900 E1973.02901
G1 X92.950 Y90.900 E1973.29082
G1 X109.675 Y107.625 E1979.58021
G1 X109.675 Y106.640 E1979.84201
G1 X93.935 Y90.900 E1985.76116
G1 X94.919 Y90.900 E1986.02296
G1 X109.675 Y105.656 E1991.57187
G1 X109.675 Y104.671 E1991.83367
G1 X95.904 Y90.900 E1997.01234
G1 X96.889 Y90.900 E1997.27414
G1 X109.675 Y103.686 E2002.08256
G1 X109.675 Y102.702 E2002.34436
G1 X97.873 Y90.900 E2006.78254
G1 X98.858 Y90.900 E2007.04434
G1 X109.675 Y101.717 E2011.11228
G1 X109.675 Y100.733 E2011.37408
G1 X99.842 Y90.900 E2015.07178
G1 X100.827 Y90.900 E2015.33358
G1 X109.675 Y99.748 E2018.66104
G1 X109.675 Y98.764 E2018.92284
G1 X101.811 Y90.900 E2021.88005
G1 X102.796 Y90.900 E2022.14185
G1 X109.675 Y97.779 E2024.72882
G1 X109.675 Y96.795 E2024.99062
G1 X103.780 Y90.900 E2027.20735
G1 X104.765 Y90.900 E2027.46915
G1 X109.675 Y95.810 E2029.31564
G1 X109.675 Y94.826 E2029.57744
G1 X105.749 Y90.900 E2031.05369
G1 X106.734 Y90.900 E2031.31549
G1 X109.675 Y93.841 E2032.42149
G1 X109.675 Y92.857 E2032.68329
G1 X107.718 Y90.900 E2033.41905
G1 X108.703 Y90.900 E2033.68085
G1 X109.675 Y91.872 E2034.04637
G1 Z7.000 F7800.000
G1 E2032.04637 F2400.00000
G92 E0
G1 X108.703 Y109.100 F7800.000
G1 E2.00000 F2400.00000
G1 X109.675 Y108.128 E2.36552 F4800.000
G1 X109.675 Y107.143 E2.62732
G1 X107.718 Y109.100 E3.36308
G1 X106.734 Y109.100 E3.62488
G1 X109.675 Y106.159 E4.73088
G1 X109.675 Y105.174 E4.99268
G1 X105.749 Y109.100 E6.46893
G1 X104.765 Y109.100 E6.73073
G1 X109.675 Y104.190 E8.57722
G1 X109.675 Y103.205 E8.83902
G1 X103.780 Y109.100 E11.05575
G1 X102.796 Y109.100 E11.31755
G1 X109.675 Y102.221 E13.90452
G1 X109.675 Y101.236 E14.16632
G1 X101.811 Y109.100 E17.12354
G1 X100.827 Y109.100 E17.38534
G1 X109.675 Y100.252 E20.71279
G1 X109.675 Y99.267 E20.97459
G1 X99.842 Y109.100 E24.67229
G1 X98.858 Y109.100 E24.93409
G1 X109.675 Y98.283 E29.00203
G1 X109.675 Y97.298 E29.26383
G1 X97.873 Y109.100 E33.70201
G1 X96.889 Y109.100 E33.96381
G1 X109.675 Y96.314 E38.77224
G1 X109.675 Y95.329 E39.03404
G1 X95.904 Y109.100 E44.21271
G1 X94.919 Y109.100 E44.47451
G1 X109.675 Y94.344 E50.02342
G1 X109.675 Y93.360 E50.28522
G1 X93.935 Y109.100 E56.20437
G1 X92.950 Y109.100 E56.46617
G1 X109.675 Y92.375 E62.75556
G1 X109.675 Y91.391 E63.01736
G1 X91.966 Y109.100 E69.67700
G1 X90.981 Y109.100 E69.93880
G1 X109.181 Y90.900 E76.78295
G1 X108.196 Y90.900 E77.04475
G1 X90.325 Y108.771 E83.76542
G1 X90.325 Y107.787 E84.02722
G1 X107.212 Y90.900 E90.37764
G1 X106.227 Y90.900 E90.63944
G1 X90.325 Y106.802 E96.61962
G1 X90.325 Y105.818 E96.88142
G1 X105.243 Y90.900 E102.49135
G1 X104.258 Y90.900 E102.75315
G1 X90.325 Y104.833 E107.99285
G1 X90.325 Y103.849 E108.25465
G1 X103.274 Y90.900 E113.12410
G1 X102.289 Y90.900 E113.38590
G1 X90.325 Y102.864 E117.88511
G1 X90.325 Y101.880 E118.14691
G1 X101.305 Y90.900 E122.27588
G1 X100.320 Y90.900 E122.53768
G1 X90.325 Y100.895 E126.29641
G1 X90.325 Y99.911 E126.55821
G1 X99.336 Y90.900 E129.94669
G1 X98.351 Y90.900 E130.20849
G1 X90.325 Y98.926 E133.22673
G1 X90.325 Y97.942 E133.48853
G1 X97.367 Y90.900 E136.13653
G1 X96.382 Y90.900 E136.39833
G1 X90.325 Y96.957 E138.67609
G1 X90.325 Y95.973 E138.93789
G1 X95.398 Y90.900 E140.84540
G1 X94.413 Y90.900 E141.10720
G1 X90.325 Y94.988 E142.64448
G1 X90.325 Y94.004 E142.90628
G1 X93.429 Y90.900 E144.07331
G1 X92.444 Y90.900 E144.33511
G1 X90.325 Y93.019 E145.13189
G1 X90.325 Y92.034 E145.39370
G1 X91.459 Y90.900 E145.82024
G1 E143.82024 F2400.00000
G92 E0
M107
M104 S0 ; turn off temperature
G28 X0  ; home X axis
M84     ; disable motors

; filament used = 2175.9mm (1.7cm3)

; avoid_crossing_perimeters = 0
; bed_shape = 0x0,200x0,200x200,0x200
; bed_temperature = 0
; before_layer_gcode = 
; bridge_acceleration = 0
; bridge_fan_speed = 100
; brim_width = 0
; complete_objects = 0
; cooling = 1
; default_acceleration = 0
; disable_fan_first_layers = 3
; duplicate_distance = 6
; end_gcode = M104 S0 ; turn off temperature\nG28 X0  ; home X axis\nM84     ; disable motors\n
; extruder_clearance_height = 20
; extruder_clearance_radius = 20
; extruder_offset = 0x0
; extrusion_axis = E
; extrusion_multiplier = 1
; fan_always_on = 0
; fan_below_layer_time = 60
; filament_colour = #FFFFFF
; filament_diameter = 1
; first_layer_acceleration = 0
; first_layer_bed_temperature = 0
; first_layer_extrusion_width = 200%
; first_layer_speed = 30
; first_layer_temperature = 200
; gcode_arcs = 0
; gcode_comments = 0
; gcode_flavor = reprap
; infill_acceleration = 0
; infill_first = 0
; layer_gcode = 
; max_fan_speed = 100
; max_print_speed = 80
; max_volumetric_speed = 0
; min_fan_speed = 35
; min_print_speed = 10
; min_skirt_length = 0
; notes = 
; nozzle_diameter = 0.5
; only_retract_when_crossing_perimeters = 1
; ooze_prevention = 0
; output_filename_format = [input_filename_base].gcode
; perimeter_acceleration = 0
; post_process = 
; pressure_advance = 0
; resolution = 0
; retract_before_travel = 2
; retract_layer_change = 0
; retract_length = 2
; retract_length_toolchange = 10
; retract_lift = 0
; retract_restart_extra = 0
; retract_restart_extra_toolchange = 0
; retract_speed = 40
; skirt_distance = 6
; skirt_height = 1
; skirts = 0
; slowdown_below_layer_time = 5
; spiral_vase = 0
; standby_temperature_delta = -5
; start_gcode = G28 ; home all axes\nG1 Z5 F5000 ; lift nozzle\n
; temperature = 200
; threads = 2
; toolchange_gcode = 
; travel_speed = 130
; use_firmware_retraction = 0
; use_relative_e_distances = 0
; use_volumetric_e = 0
; vibration_limit = 0
; wipe = 0
; z_offset = 0
; dont_support_bridges = 1
; extrusion_width = 0
; first_layer_height = 0.5
; infill_only_where_needed = 0
; interface_shells = 0
; layer_height = 0.5
; raft_layers = 0
; seam_position = aligned
; support_material = 0
; support_material_angle = 0
; support_material_contact_distance = 0.2
; support_material_enforce_layers = 0
; support_material_extruder = 1
; support_material_extrusion_width = 0
; support_material_interface_extruder = 1
; support_material_interface_layers = 3
; support_material_interface_spacing = 0
; support_material_interface_speed = 100%
; support_material_pattern = pillars
; support_material_spacing = 2.5
; support_material_speed = 60
; support_material_threshold = 0
; xy_size_compensation = 0
; bottom_solid_layers = 0
; bridge_flow_ratio = 1
; bridge_speed = 60
; external_fill_pattern = rectilinear
; external_perimeter_extrusion_width = 0
; external_perimeter_speed = 50%
; external_perimeters_first = 0
; extra_perimeters = 1
; fill_angle = 45
; fill_density = 60%
; fill_pattern = rectilinear
; gap_fill_speed = 20
; infill_every_layers = 1
; infill_extruder = 1
; infill_extrusion_width = 0
; infill_overlap = 15%
; infill_speed = 80
; overhangs = 1
; perimeter_extruder = 1
; perimeter_extrusion_width = 0
; perimeter_speed = 60
; perimeters = 0
; small_perimeter_speed = 15
; solid_infill_below_area = 70
; solid_infill_every_layers = 0
; solid_infill_extruder = 1
; solid_infill_extrusion_width = 0
; solid_infill_speed = 20
; thin_walls = 1
; top_infill_extrusion_width = 0
; top_solid_infill_speed = 15
; top_solid_layers = 0
