; generated by Slic3r 1.2.9 on 2019-06-17 at 11:01:13

; external perimeters extrusion width = 0.50mm
; perimeters extrusion width = 0.52mm
; infill extrusion width = 0.52mm
; solid infill extrusion width = 0.52mm
; top infill extrusion width = 0.52mm

M107
M104 S200 ; set temperature
G28 ; home all axes
G1 Z5 F5000 ; lift nozzle

M109 S200 ; wait for temperature to be reached
G21 ; set units to millimeters
G90 ; use absolute coordinates
M82 ; use absolute distances for extrusion
G92 E0
G1 Z0.500 F7800.000
G1 E-2.00000 F2400.00000
G92 E0
G1 X92.444 Y109.100 F7800.000
G1 E2.00000 F2400.00000
G1 X90.325 Y106.981 E3.70290 F1800.000
G1 X90.325 Y104.027 E5.38145
G1 X95.398 Y109.100 E9.45817
G1 X98.351 Y109.100 E11.13672
G1 X90.325 Y101.074 E17.58727
G1 X90.325 Y98.120 E19.26581
G1 X101.305 Y109.100 E28.09019
G1 X104.258 Y109.100 E29.76873
G1 X90.325 Y95.167 E40.96693
G1 X90.325 Y92.213 E42.64548
G1 X107.212 Y109.100 E56.21750
G1 X109.675 Y108.609 E57.64470
G1 X91.966 Y90.900 E71.87758
G1 X94.919 Y90.900 E73.55612
G1 X109.675 Y105.656 E85.41517
G1 X109.675 Y102.702 E87.09372
G1 X97.873 Y90.900 E96.57894
G1 X100.827 Y90.900 E98.25748
G1 X109.675 Y99.748 E105.36888
G1 X109.675 Y96.795 E107.04743
G1 X103.780 Y90.900 E111.78500
G1 X106.734 Y90.900 E113.46354
G1 X109.675 Y93.841 E115.82729
G1 Z1.000 F7800.000
G1 X106.734 Y109.100 F7800.000
G1 X109.675 Y106.159 E116.93330 F2398.571
G1 X109.675 Y103.205 E117.71870
G1 X103.780 Y109.100 E119.93544
G1 X100.827 Y109.100 E120.72084
G1 X109.675 Y100.252 E124.04830
G1 X109.675 Y97.298 E124.83371
G1 X97.873 Y109.100 E129.27190
G1 X94.919 Y109.100 E130.05730
G1 X109.675 Y94.344 E135.60621
G1 X109.675 Y91.391 E136.39162
G1 X91.966 Y109.100 E143.05126
G1 X90.325 Y107.787 E143.61003
G1 X107.212 Y90.900 E149.96046
G1 X104.258 Y90.900 E150.74586
G1 X90.325 Y104.833 E155.98556
G1 X90.325 Y101.880 E156.77097
G1 X101.305 Y90.900 E160.89994
G1 X98.351 Y90.900 E161.68534
G1 X90.325 Y98.926 E164.70359
G1 X90.325 Y95.973 E165.48899
G1 X95.398 Y90.900 E167.39652
G1 X92.444 Y90.900 E168.18192
G1 X90.325 Y93.019 E168.97871
G1 Z1.500 F7800.000
G1 X92.444 Y109.100 F7800.000
G1 X90.325 Y106.981 E169.77551 F2403.491
G1 X90.325 Y104.027 E170.56091
G1 X95.398 Y109.100 E172.46843
G1 X98.351 Y109.100 E173.25384
G1 X90.325 Y101.074 E176.27208
G1 X90.325 Y98.120 E177.05749
G1 X101.305 Y109.100 E181.18646
G1 X104.258 Y109.100 E181.97186
G1 X90.325 Y95.167 E187.21156
G1 X90.325 Y92.213 E187.99697
G1 X107.212 Y109.100 E194.34740
G1 X109.675 Y108.609 E195.01519
G1 X91.966 Y90.900 E201.67483
G1 X94.919 Y90.900 E202.46024
G1 X109.675 Y105.656 E208.00915
G1 X109.675 Y102.702 E208.79455
G1 X97.873 Y90.900 E213.23274
G1 X100.827 Y90.900 E214.01815
G1 X109.675 Y99.748 E217.34561
G1 X109.675 Y96.795 E218.13101
G1 X103.780 Y90.900 E220.34775
G1 X106.734 Y90.900 E221.13315
G1 X109.675 Y93.841 E222.23916
M106 S255
G1 Z2.000 F7800.000
G1 X106.734 Y109.100 F7800.000
G1 X109.675 Y106.159 E223.34517 F2398.571
G1 X109.675 Y103.205 E224.13057
G1 X103.780 Y109.100 E226.34731
G1 X100.827 Y109.100 E227.13271
G1 X109.675 Y100.252 E230.46017
G1 X109.675 Y97.298 E231.24558
G1 X97.873 Y109.100 E235.68377
G1 X94.919 Y109.100 E236.46917
G1 X109.675 Y94.344 E242.01808
G1 X109.675 Y91.391 E242.80349
G1 X91.966 Y109.100 E249.46313
G1 X90.325 Y107.787 E250.02190
G1 X107.212 Y90.900 E256.37233
G1 X104.258 Y90.900 E257.15773
G1 X90.325 Y104.833 E262.39743
G1 X90.325 Y101.880 E263.18284
G1 X101.305 Y90.900 E267.31181
G1 X98.351 Y90.900 E268.09721
G1 X90.325 Y98.926 E271.11546
G1 X90.325 Y95.973 E271.90086
G1 X95.398 Y90.900 E273.80839
G1 X92.444 Y90.900 E274.59379
G1 X90.325 Y93.019 E275.39058
G1 Z2.500 F7800.000
G1 X92.444 Y109.100 F7800.000
G1 X90.325 Y106.981 E276.18738 F2403.491
G1 X90.325 Y104.027 E276.97278
G1 X95.398 Y109.100 E278.88030
G1 X98.351 Y109.100 E279.66571
G1 X90.325 Y101.074 E282.68395
G1 X90.325 Y98.120 E283.46936
G1 X101.305 Y109.100 E287.59833
G1 X104.258 Y109.100 E288.38373
G1 X90.325 Y95.167 E293.62343
G1 X90.325 Y92.213 E294.40884
G1 X107.212 Y109.100 E300.75927
G1 X109.675 Y108.609 E301.42706
G1 X91.966 Y90.900 E308.08670
G1 X94.919 Y90.900 E308.87211
G1 X109.675 Y105.656 E314.42102
G1 X109.675 Y102.702 E315.20642
G1 X97.873 Y90.900 E319.64461
G1 X100.827 Y90.900 E320.43002
G1 X109.675 Y99.748 E323.75748
G1 X109.675 Y96.795 E324.54288
G1 X103.780 Y90.900 E326.75962
G1 X106.734 Y90.900 E327.54502
G1 X109.675 Y93.841 E328.65103
G1 Z3.000 F7800.000
G1 X106.734 Y109.100 F7800.000
G1 X109.675 Y106.159 E329.75704 F2398.571
G1 X109.675 Y103.205 E330.54244
G1 X103.780 Y109.100 E332.75918
G1 X100.827 Y109.100 E333.54458
G1 X109.675 Y100.252 E336.87204
G1 X109.675 Y97.298 E337.65745
G1 X97.873 Y109.100 E342.09564
G1 X94.919 Y109.100 E342.88104
G1 X109.675 Y94.344 E348.42995
G1 X109.675 Y91.391 E349.21536
G1 X91.966 Y109.100 E355.87500
G1 X90.325 Y107.787 E356.43377
G1 X107.212 Y90.900 E362.78420
G1 X104.258 Y90.900 E363.56960
G1 X90.325 Y104.833 E368.80930
G1 X90.325 Y101.880 E369.59471
G1 X101.305 Y90.900 E373.72368
G1 X98.351 Y90.900 E374.50908
G1 X90.325 Y98.926 E377.52733
G1 X90.325 Y95.973 E378.31273
G1 X95.398 Y90.900 E380.22026
G1 X92.444 Y90.900 E381.00566
G1 X90.325 Y93.019 E381.80245
G1 Z3.500 F7800.000
G1 X92.444 Y109.100 F7800.000
G1 X90.325 Y106.981 E382.59925 F2403.491
G1 X90.325 Y104.027 E383.38465
G1 X95.398 Y109.100 E385.29217
G1 X98.351 Y109.100 E386.07758
G1 X90.325 Y101.074 E389.09582
G1 X90.325 Y98.120 E389.88123
G1 X101.305 Y109.100 E394.01020
G1 X104.258 Y109.100 E394.79560
G1 X90.325 Y95.167 E400.03530
G1 X90.325 Y92.213 E400.82071
G1 X107.212 Y109.100 E407.17114
G1 X109.675 Y108.609 E407.83893
G1 X91.966 Y90.900 E414.49857
G1 X94.919 Y90.900 E415.28398
G1 X109.675 Y105.656 E420.83289
G1 X109.675 Y102.702 E421.61829
G1 X97.873 Y90.900 E426.05648
G1 X100.827 Y90.900 E426.84189
G1 X109.675 Y99.748 E430.16935
G1 X109.675 Y96.795 E430.95475
G1 X103.780 Y90.900 E433.17149
G1 X106.734 Y90.900 E433.95689
G1 X109.675 Y93.841 E435.06290
G1 Z4.000 F7800.000
G1 X106.734 Y109.100 F7800.000
G1 X109.675 Y106.159 E436.16891 F2398.571
G1 X109.675 Y103.205 E436.95431
G1 X103.780 Y109.100 E439.17105
G1 X100.827 Y109.100 E439.95645
G1 X109.675 Y100.252 E443.28391
G1 X109.675 Y97.298 E444.06932
G1 X97.873 Y109.100 E448.50751
G1 X94.919 Y109.100 E449.29291
G1 X109.675 Y94.344 E454.84182
G1 X109.675 Y91.391 E455.62723
G1 X91.966 Y109.100 E462.28687
G1 X90.325 Y107.787 E462.84564
G1 X107.212 Y90.900 E469.19607
G1 X104.258 Y90.900 E469.98147
G1 X90.325 Y104.833 E475.22117
G1 X90.325 Y101.880 E476.00657
G1 X101.305 Y90.900 E480.13555
G1 X98.351 Y90.900 E480.92095
G1 X90.325 Y98.926 E483.93920
G1 X90.325 Y95.973 E484.72460
G1 X95.398 Y90.900 E486.63212
G1 X92.444 Y90.900 E487.41753
G1 X90.325 Y93.019 E488.21432
G1 Z4.500 F7800.000
G1 X92.444 Y109.100 F7800.000
G1 X90.325 Y106.981 E489.01112 F2403.491
G1 X90.325 Y104.027 E489.79652
G1 X95.398 Y109.100 E491.70404
G1 X98.351 Y109.100 E492.48945
G1 X90.325 Y101.074 E495.50769
G1 X90.325 Y98.120 E496.29310
G1 X101.305 Y109.100 E500.42207
G1 X104.258 Y109.100 E501.20747
G1 X90.325 Y95.167 E506.44717
G1 X90.325 Y92.213 E507.23258
G1 X107.212 Y109.100 E513.58301
G1 X109.675 Y108.609 E514.25080
G1 X91.966 Y90.900 E520.91044
G1 X94.919 Y90.900 E521.69585
G1 X109.675 Y105.656 E527.24476
G1 X109.675 Y102.702 E528.03016
G1 X97.873 Y90.900 E532.46835
G1 X100.827 Y90.900 E533.25376
G1 X109.675 Y99.748 E536.58122
G1 X109.675 Y96.795 E537.36662
G1 X103.780 Y90.900 E539.58336
G1 X106.734 Y90.900 E540.36876
G1 X109.675 Y93.841 E541.47477
G1 Z5.000 F7800.000
G1 X106.734 Y109.100 F7800.000
G1 X109.675 Y106.159 E542.58078 F2398.571
G1 X109.675 Y103.205 E543.36618
G1 X103.780 Y109.100 E545.58292
G1 X100.827 Y109.100 E546.36832
G1 X109.675 Y100.252 E549.69578
G1 X109.675 Y97.298 E550.48119
G1 X97.873 Y109.100 E554.91937
G1 X94.919 Y109.100 E555.70478
G1 X109.675 Y94.344 E561.25369
G1 X109.675 Y91.391 E562.03910
G1 X91.966 Y109.100 E568.69874
G1 X90.325 Y107.787 E569.25751
G1 X107.212 Y90.900 E575.60794
G1 X104.258 Y90.900 E576.39334
G1 X90.325 Y104.833 E581.63304
G1 X90.325 Y101.880 E582.41844
G1 X101.305 Y90.900 E586.54742
G1 X98.351 Y90.900 E587.33282
G1 X90.325 Y98.926 E590.35107
G1 X90.325 Y95.973 E591.13647
G1 X95.398 Y90.900 E593.04399
G1 X92.444 Y90.900 E593.82940
G1 X90.325 Y93.019 E594.62619
G1 Z5.500 F7800.000
G1 X92.444 Y109.100 F7800.000
G1 X90.325 Y106.981 E595.42299 F2403.491
G1 X90.325 Y104.027 E596.20839
G1 X95.398 Y109.100 E598.11591
G1 X98.351 Y109.100 E598.90131
G1 X90.325 Y101.074 E601.91956
G1 X90.325 Y98.120 E602.70497
G1 X101.305 Y109.100 E606.83394
G1 X104.258 Y109.100 E607.61934
G1 X90.325 Y95.167 E612.85904
G1 X90.325 Y92.213 E613.64445
G1 X107.212 Y109.100 E619.99487
G1 X109.675 Y108.609 E620.66267
G1 X91.966 Y90.900 E627.32231
G1 X94.919 Y90.900 E628.10772
G1 X109.675 Y105.656 E633.65663
G1 X109.675 Y102.702 E634.44203
G1 X97.873 Y90.900 E638.88022
G1 X100.827 Y90.900 E639.66562
G1 X109.675 Y99.748 E642.99309
G1 X109.675 Y96.795 E643.77849
G1 X103.780 Y90.900 E645.99523
G1 X106.734 Y90.900 E646.78063
G1 X109.675 Y93.841 E647.88664
G1 Z6.000 F7800.000
G1 X106.734 Y109.100 F7800.000
G1 X109.675 Y106.159 E648.99265 F2398.571
G1 X109.675 Y103.205 E649.77805
G1 X103.780 Y109.100 E651.99479
G1 X100.827 Y109.100 E652.78019
G1 X109.675 Y100.252 E656.10765
G1 X109.675 Y97.298 E656.89306
G1 X97.873 Y109.100 E661.33124
G1 X94.919 Y109.100 E662.11665
G1 X109.675 Y94.344 E667.66556
G1 X109.675 Y91.391 E668.45097
G1 X91.966 Y109.100 E675.11061
G1 X90.325 Y107.787 E675.66938
G1 X107.212 Y90.900 E682.01981
G1 X104.258 Y90.900 E682.80521
G1 X90.325 Y104.833 E688.04491
G1 X90.325 Y101.880 E688.83031
G1 X101.305 Y90.900 E692.95929
G1 X98.351 Y90.900 E693.74469
G1 X90.325 Y98.926 E696.76294
G1 X90.325 Y95.973 E697.54834
G1 X95.398 Y90.900 E699.45586
G1 X92.444 Y90.900 E700.24127
G1 X90.325 Y93.019 E701.03806
G1 Z6.500 F7800.000
G1 X92.444 Y109.100 F7800.000
G1 X90.325 Y106.981 E701.83486 F2403.491
G1 X90.325 Y104.027 E702.62026
G1 X95.398 Y109.100 E704.52778
G1 X98.351 Y109.100 E705.31318
G1 X90.325 Y101.074 E708.33143
G1 X90.325 Y98.120 E709.11684
G1 X101.305 Y109.100 E713.24581
G1 X104.258 Y109.100 E714.03121
G1 X90.325 Y95.167 E719.27091
G1 X90.325 Y92.213 E720.05632
G1 X107.212 Y109.100 E726.40674
G1 X109.675 Y108.609 E727.07454
G1 X91.966 Y90.900 E733.73418
G1 X94.919 Y90.900 E734.51959
G1 X109.675 Y105.656 E740.06850
G1 X109.675 Y102.702 E740.85390
G1 X97.873 Y90.900 E745.29209
G1 X100.827 Y90.900 E746.07749
G1 X109.675 Y99.748 E749.40496
G1 X109.675 Y96.795 E750.19036
G1 X103.780 Y90.900 E752.40710
G1 X106.734 Y90.900 E753.19250
G1 X109.675 Y93.841 E754.29851
G1 Z7.000 F7800.000
G1 E752.29851 F2400.00000
G92 E0
G1 X106.734 Y109.100 F7800.000
G1 E2.00000 F2400.00000
G1 X109.675 Y106.159 E3.10601 F2398.571
G1 X109.675 Y103.205 E3.89141
G1 X103.780 Y109.100 E6.10815
G1 X100.827 Y109.100 E6.89355
G1 X109.675 Y100.252 E10.22101
G1 X109.675 Y97.298 E11.00642
G1 X97.873 Y109.100 E15.44461
G1 X94.919 Y109.100 E16.23001
G1 X109.675 Y94.344 E21.77892
G1 X109.675 Y91.391 E22.56433
G1 X91.966 Y109.100 E29.22397
G1 X90.325 Y107.787 E29.78274
G1 X107.212 Y90.900 E36.13317
G1 X104.258 Y90.900 E36.91857
G1 X90.325 Y104.833 E42.15827
G1 X90.325 Y101.880 E42.94368
G1 X101.305 Y90.900 E47.07265
G1 X98.351 Y90.900 E47.85805
G1 X90.325 Y98.926 E50.87630
G1 X90.325 Y95.973 E51.66170
G1 X95.398 Y90.900 E53.56923
G1 X92.444 Y90.900 E54.35463
G1 X90.325 Y93.019 E55.15142
G1 E53.15142 F2400.00000
G92 E0
M107
M104 S0 ; turn off temperature
G28 X0  ; home X axis
M84     ; disable motors

; filament used = 805.4mm (0.6cm3)

; avoid_crossing_perimeters = 0
; bed_shape = 0x0,200x0,200x200,0x200
; bed_temperature = 0
; before_layer_gcode = 
; bridge_acceleration = 0
; bridge_fan_speed = 100
; brim_width = 0
; complete_objects = 0
; cooling = 1
; default_acceleration = 0
; disable_fan_first_layers = 3
; duplicate_distance = 6
; end_gcode = M104 S0 ; turn off temperature\nG28 X0  ; home X axis\nM84     ; disable motors\n
; extruder_clearance_height = 20
; extruder_clearance_radius = 20
; extruder_offset = 0x0
; extrusion_axis = E
; extrusion_multiplier = 1
; fan_always_on = 0
; fan_below_layer_time = 60
; filament_colour = #FFFFFF
; filament_diameter = 1
; first_layer_acceleration = 0
; first_layer_bed_temperature = 0
; first_layer_extrusion_width = 200%
; first_layer_speed = 30
; first_layer_temperature = 200
; gcode_arcs = 0
; gcode_comments = 0
; gcode_flavor = reprap
; infill_acceleration = 0
; infill_first = 0
; layer_gcode = 
; max_fan_speed = 100
; max_print_speed = 80
; max_volumetric_speed = 0
; min_fan_speed = 35
; min_print_speed = 10
; min_skirt_length = 0
; notes = 
; nozzle_diameter = 0.5
; only_retract_when_crossing_perimeters = 1
; ooze_prevention = 0
; output_filename_format = [input_filename_base].gcode
; perimeter_acceleration = 0
; post_process = 
; pressure_advance = 0
; resolution = 0
; retract_before_travel = 2
; retract_layer_change = 0
; retract_length = 2
; retract_length_toolchange = 10
; retract_lift = 0
; retract_restart_extra = 0
; retract_restart_extra_toolchange = 0
; retract_speed = 40
; skirt_distance = 6
; skirt_height = 1
; skirts = 0
; slowdown_below_layer_time = 5
; spiral_vase = 0
; standby_temperature_delta = -5
; start_gcode = G28 ; home all axes\nG1 Z5 F5000 ; lift nozzle\n
; temperature = 200
; threads = 2
; toolchange_gcode = 
; travel_speed = 130
; use_firmware_retraction = 0
; use_relative_e_distances = 0
; use_volumetric_e = 0
; vibration_limit = 0
; wipe = 0
; z_offset = 0
; dont_support_bridges = 1
; extrusion_width = 0
; first_layer_height = 0.5
; infill_only_where_needed = 0
; interface_shells = 0
; layer_height = 0.5
; raft_layers = 0
; seam_position = aligned
; support_material = 0
; support_material_angle = 0
; support_material_contact_distance = 0.2
; support_material_enforce_layers = 0
; support_material_extruder = 1
; support_material_extrusion_width = 0
; support_material_interface_extruder = 1
; support_material_interface_layers = 3
; support_material_interface_spacing = 0
; support_material_interface_speed = 100%
; support_material_pattern = pillars
; support_material_spacing = 2.5
; support_material_speed = 60
; support_material_threshold = 0
; xy_size_compensation = 0
; bottom_solid_layers = 0
; bridge_flow_ratio = 1
; bridge_speed = 60
; external_fill_pattern = rectilinear
; external_perimeter_extrusion_width = 0
; external_perimeter_speed = 50%
; external_perimeters_first = 0
; extra_perimeters = 1
; fill_angle = 45
; fill_density = 20%
; fill_pattern = rectilinear
; gap_fill_speed = 20
; infill_every_layers = 1
; infill_extruder = 1
; infill_extrusion_width = 0
; infill_overlap = 15%
; infill_speed = 80
; overhangs = 1
; perimeter_extruder = 1
; perimeter_extrusion_width = 0
; perimeter_speed = 60
; perimeters = 0
; small_perimeter_speed = 15
; solid_infill_below_area = 70
; solid_infill_every_layers = 0
; solid_infill_extruder = 1
; solid_infill_extrusion_width = 0
; solid_infill_speed = 20
; thin_walls = 1
; top_infill_extrusion_width = 0
; top_solid_infill_speed = 15
; top_solid_layers = 0
