; generated by Slic3r 1.2.9 on 2019-07-13 at 17:04:09

; external perimeters extrusion width = 0.50mm
; perimeters extrusion width = 0.58mm
; infill extrusion width = 0.58mm
; solid infill extrusion width = 0.58mm
; top infill extrusion width = 0.58mm

M107
M104 S200 ; set temperature
G28 ; home all axes
G1 Z5 F5000 ; lift nozzle

M109 S200 ; wait for temperature to be reached
G21 ; set units to millimeters
G90 ; use absolute coordinates
M82 ; use absolute distances for extrusion
G92 E0
G1 Z0.400 F7800.000
G1 E-2.00000 F2400.00000
G92 E0
G1 X109.379 Y90.222 F7800.000
G1 E2.00000 F2400.00000
G1 X108.778 Y89.621 E2.30899 F1800.000
G1 X108.007 Y89.621 E2.58954
G1 X109.379 Y90.993 E3.29528
G1 X109.379 Y91.765 E3.57583
G1 X107.235 Y89.621 E4.67832
G1 X106.464 Y89.621 E4.95887
G1 X109.379 Y92.536 E6.45813
G1 X109.379 Y93.307 E6.73867
G1 X105.693 Y89.621 E8.63468
G1 X104.921 Y89.621 E8.91523
G1 X109.379 Y94.079 E11.20799
G1 X109.379 Y94.850 E11.48854
G1 X104.150 Y89.621 E14.17806
G1 X103.379 Y89.621 E14.45861
G1 X109.379 Y95.621 E17.54488
G1 X109.379 Y96.393 E17.82543
G1 X102.607 Y89.621 E21.30846
G1 X101.836 Y89.621 E21.58901
G1 X109.379 Y97.164 E25.46879
G1 X109.379 Y97.935 E25.74934
G1 X101.065 Y89.621 E30.02588
G1 X100.293 Y89.621 E30.30643
G1 X109.379 Y98.707 E34.97972
G1 X109.379 Y99.478 E35.26027
G1 X99.522 Y89.621 E40.33032
G1 X98.751 Y89.621 E40.61087
G1 X109.379 Y100.249 E46.07767
G1 X109.379 Y101.021 E46.35822
G1 X97.979 Y89.621 E52.22178
G1 X97.208 Y89.621 E52.50233
G1 X109.379 Y101.792 E58.76264
G1 X109.379 Y102.563 E59.04319
G1 X96.437 Y89.621 E65.70026
G1 X95.665 Y89.621 E65.98081
G1 X109.379 Y103.335 E73.03464
G1 X109.379 Y104.106 E73.31518
G1 X94.894 Y89.621 E80.76576
G1 X94.123 Y89.621 E81.04631
G1 X109.379 Y104.877 E88.89365
G1 X109.379 Y105.649 E89.17420
G1 X93.351 Y89.621 E97.41829
G1 X92.580 Y89.621 E97.69884
G1 X109.379 Y106.420 E106.33968
G1 X109.379 Y107.191 E106.62023
G1 X91.809 Y89.621 E115.65783
G1 X91.037 Y89.621 E115.93838
G1 X109.379 Y107.963 E125.37274
G1 X109.379 Y108.734 E125.65329
G1 X90.621 Y89.977 E135.30165
G1 X90.621 Y90.748 E135.58219
G1 X109.379 Y109.505 E145.23055
G1 X109.379 Y110.277 E145.51110
G1 X90.621 Y91.519 E155.15946
G1 X90.621 Y92.291 E155.44001
G1 X108.709 Y110.379 E164.74410
G1 X107.938 Y110.379 E165.02465
G1 X90.621 Y93.062 E173.93199
G1 X90.621 Y93.833 E174.21254
G1 X107.167 Y110.379 E182.72312
G1 X106.395 Y110.379 E183.00367
G1 X90.621 Y94.605 E191.11750
G1 X90.621 Y95.376 E191.39805
G1 X105.624 Y110.379 E199.11512
G1 X104.853 Y110.379 E199.39567
G1 X90.621 Y96.147 E206.71599
G1 X90.621 Y96.919 E206.99654
G1 X104.081 Y110.379 E213.92010
G1 X103.310 Y110.379 E214.20065
G1 X90.621 Y97.690 E220.72745
G1 X90.621 Y98.461 E221.00800
G1 X102.539 Y110.379 E227.13805
G1 X101.767 Y110.379 E227.41860
G1 X90.621 Y99.233 E233.15190
G1 X90.621 Y100.004 E233.43245
G1 X100.996 Y110.379 E238.76899
G1 X100.225 Y110.379 E239.04954
G1 X90.621 Y100.775 E243.98932
G1 X90.621 Y101.547 E244.26987
G1 X99.453 Y110.379 E248.81291
G1 X98.682 Y110.379 E249.09345
G1 X90.621 Y102.318 E253.23973
G1 X90.621 Y103.089 E253.52028
G1 X97.911 Y110.379 E257.26980
G1 X97.139 Y110.379 E257.55035
G1 X90.621 Y103.861 E260.90311
G1 X90.621 Y104.632 E261.18366
G1 X96.368 Y110.379 E264.13967
G1 X95.597 Y110.379 E264.42022
G1 X90.621 Y105.403 E266.97948
G1 X90.621 Y106.175 E267.26003
G1 X94.825 Y110.379 E269.42253
G1 X94.054 Y110.379 E269.70308
G1 X90.621 Y106.946 E271.46882
G1 X90.621 Y107.717 E271.74937
G1 X93.283 Y110.379 E273.11836
G1 X92.511 Y110.379 E273.39891
G1 X90.621 Y108.489 E274.37114
G1 X90.621 Y109.260 E274.65169
G1 X91.740 Y110.379 E275.22717
G1 X90.969 Y110.379 E275.50772
G1 X90.621 Y110.031 E275.68644
G1 Z0.800 F7800.000
G1 X108.778 Y110.379 F7800.000
G1 X109.379 Y109.778 E275.89883 F4800.000
G1 X109.379 Y109.007 E276.09166
G1 X108.007 Y110.379 E276.57675
G1 X107.235 Y110.379 E276.76958
G1 X109.379 Y108.235 E277.52738
G1 X109.379 Y107.464 E277.72021
G1 X106.464 Y110.379 E278.75072
G1 X105.693 Y110.379 E278.94355
G1 X109.379 Y106.693 E280.24676
G1 X109.379 Y105.921 E280.43959
G1 X104.921 Y110.379 E282.01551
G1 X104.150 Y110.379 E282.20835
G1 X109.379 Y105.150 E284.05697
G1 X109.379 Y104.379 E284.24981
G1 X103.379 Y110.379 E286.37114
G1 X102.607 Y110.379 E286.56397
G1 X109.379 Y103.607 E288.95802
G1 X109.379 Y102.836 E289.15085
G1 X101.836 Y110.379 E291.81760
G1 X101.065 Y110.379 E292.01043
G1 X109.379 Y102.065 E294.94989
G1 X109.379 Y101.293 E295.14272
G1 X100.293 Y110.379 E298.35489
G1 X99.522 Y110.379 E298.54772
G1 X109.379 Y100.522 E302.03260
G1 X109.379 Y99.751 E302.22543
G1 X98.751 Y110.379 E305.98301
G1 X97.979 Y110.379 E306.17584
G1 X109.379 Y98.979 E310.20613
G1 X109.379 Y98.208 E310.39897
G1 X97.208 Y110.379 E314.70196
G1 X96.437 Y110.379 E314.89480
G1 X109.379 Y97.437 E319.47050
G1 X109.379 Y96.665 E319.66333
G1 X95.665 Y110.379 E324.51174
G1 X94.894 Y110.379 E324.70458
G1 X109.379 Y95.894 E329.82570
G1 X109.379 Y95.123 E330.01853
G1 X94.123 Y110.379 E335.41236
G1 X93.351 Y110.379 E335.60519
G1 X109.379 Y94.351 E341.27172
G1 X109.379 Y93.580 E341.46456
G1 X92.580 Y110.379 E347.40380
G1 X91.809 Y110.379 E347.59663
G1 X109.379 Y92.809 E353.80858
G1 X109.379 Y92.037 E354.00142
G1 X91.037 Y110.379 E360.48607
G1 X90.621 Y110.023 E360.62285
G1 X109.379 Y91.266 E367.25460
G1 X109.379 Y90.495 E367.44744
G1 X90.621 Y109.252 E374.07919
G1 X90.621 Y108.481 E374.27202
G1 X109.379 Y89.723 E380.90377
G1 X108.709 Y89.621 E381.07303
G1 X90.621 Y107.709 E387.46815
G1 X90.621 Y106.938 E387.66099
G1 X107.938 Y89.621 E393.78340
G1 X107.167 Y89.621 E393.97623
G1 X90.621 Y106.167 E399.82594
G1 X90.621 Y105.395 E400.01877
G1 X106.395 Y89.621 E405.59577
G1 X105.624 Y89.621 E405.78861
G1 X90.621 Y104.624 E411.09290
G1 X90.621 Y103.853 E411.28573
G1 X104.853 Y89.621 E416.31732
G1 X104.081 Y89.621 E416.51015
G1 X90.621 Y103.081 E421.26903
G1 X90.621 Y102.310 E421.46186
G1 X103.310 Y89.621 E425.94803
G1 X102.539 Y89.621 E426.14086
G1 X90.621 Y101.539 E430.35432
G1 X90.621 Y100.767 E430.54716
G1 X101.767 Y89.621 E434.48791
G1 X100.996 Y89.621 E434.68074
G1 X90.621 Y99.996 E438.34879
G1 X90.621 Y99.225 E438.54162
G1 X100.225 Y89.621 E441.93696
G1 X99.453 Y89.621 E442.12979
G1 X90.621 Y98.453 E445.25243
G1 X90.621 Y97.682 E445.44526
G1 X98.682 Y89.621 E448.29518
G1 X97.911 Y89.621 E448.48801
G1 X90.621 Y96.911 E451.06523
G1 X90.621 Y96.139 E451.25806
G1 X97.139 Y89.621 E453.56257
G1 X96.368 Y89.621 E453.75540
G1 X90.621 Y95.368 E455.78720
G1 X90.621 Y94.597 E455.98004
G1 X95.597 Y89.621 E457.73913
G1 X94.825 Y89.621 E457.93196
G1 X90.621 Y93.825 E459.41835
G1 X90.621 Y93.054 E459.61118
G1 X94.054 Y89.621 E460.82486
G1 X93.283 Y89.621 E461.01769
G1 X90.621 Y92.283 E461.95866
G1 X90.621 Y91.511 E462.15149
G1 X92.511 Y89.621 E462.81975
G1 X91.740 Y89.621 E463.01259
G1 X90.621 Y90.740 E463.40814
G1 X90.621 Y89.969 E463.60097
G1 X90.969 Y89.621 E463.72382
G1 Z1.200 F7800.000
G1 X109.379 Y90.222 F7800.000
G1 X108.778 Y89.621 E463.93620 F4800.000
G1 X108.007 Y89.621 E464.12903
G1 X109.379 Y90.993 E464.61412
G1 X109.379 Y91.765 E464.80696
G1 X107.235 Y89.621 E465.56475
G1 X106.464 Y89.621 E465.75759
G1 X109.379 Y92.536 E466.78809
G1 X109.379 Y93.307 E466.98092
G1 X105.693 Y89.621 E468.28414
G1 X104.921 Y89.621 E468.47697
G1 X109.379 Y94.079 E470.05289
G1 X109.379 Y94.850 E470.24572
G1 X104.150 Y89.621 E472.09435
G1 X103.379 Y89.621 E472.28718
G1 X109.379 Y95.621 E474.40852
G1 X109.379 Y96.393 E474.60135
G1 X102.607 Y89.621 E476.99539
G1 X101.836 Y89.621 E477.18823
G1 X109.379 Y97.164 E479.85498
G1 X109.379 Y97.935 E480.04781
G1 X101.065 Y89.621 E482.98727
G1 X100.293 Y89.621 E483.18010
G1 X109.379 Y98.707 E486.39227
G1 X109.379 Y99.478 E486.58510
G1 X99.522 Y89.621 E490.06997
G1 X98.751 Y89.621 E490.26281
G1 X109.379 Y100.249 E494.02039
G1 X109.379 Y101.021 E494.21322
G1 X97.979 Y89.621 E498.24351
G1 X97.208 Y89.621 E498.43634
G1 X109.379 Y101.792 E502.73934
G1 X109.379 Y102.563 E502.93217
G1 X96.437 Y89.621 E507.50788
G1 X95.665 Y89.621 E507.70071
G1 X109.379 Y103.335 E512.54912
G1 X109.379 Y104.106 E512.74195
G1 X94.894 Y89.621 E517.86307
G1 X94.123 Y89.621 E518.05591
G1 X109.379 Y104.877 E523.44974
G1 X109.379 Y105.649 E523.64257
G1 X93.351 Y89.621 E529.30910
G1 X92.580 Y89.621 E529.50194
G1 X109.379 Y106.420 E535.44118
G1 X109.379 Y107.191 E535.63401
G1 X91.809 Y89.621 E541.84596
G1 X91.037 Y89.621 E542.03880
G1 X109.379 Y107.963 E548.52345
G1 X109.379 Y108.734 E548.71629
G1 X90.621 Y89.977 E555.34804
G1 X90.621 Y90.748 E555.54087
G1 X109.379 Y109.505 E562.17263
G1 X109.379 Y110.277 E562.36546
G1 X90.621 Y91.519 E568.99721
G1 X90.621 Y92.291 E569.19004
G1 X108.709 Y110.379 E575.58517
G1 X107.938 Y110.379 E575.77800
G1 X90.621 Y93.062 E581.90041
G1 X90.621 Y93.833 E582.09325
G1 X107.167 Y110.379 E587.94295
G1 X106.395 Y110.379 E588.13579
G1 X90.621 Y94.605 E593.71279
G1 X90.621 Y95.376 E593.90562
G1 X105.624 Y110.379 E599.20991
G1 X104.853 Y110.379 E599.40275
G1 X90.621 Y96.147 E604.43433
G1 X90.621 Y96.919 E604.62716
G1 X104.081 Y110.379 E609.38604
G1 X103.310 Y110.379 E609.57887
G1 X90.621 Y97.690 E614.06504
G1 X90.621 Y98.461 E614.25788
G1 X102.539 Y110.379 E618.47134
G1 X101.767 Y110.379 E618.66417
G1 X90.621 Y99.233 E622.60492
G1 X90.621 Y100.004 E622.79776
G1 X100.996 Y110.379 E626.46580
G1 X100.225 Y110.379 E626.65863
G1 X90.621 Y100.775 E630.05397
G1 X90.621 Y101.547 E630.24681
G1 X99.453 Y110.379 E633.36944
G1 X98.682 Y110.379 E633.56227
G1 X90.621 Y102.318 E636.41219
G1 X90.621 Y103.089 E636.60503
G1 X97.911 Y110.379 E639.18224
G1 X97.139 Y110.379 E639.37507
G1 X90.621 Y103.861 E641.67958
G1 X90.621 Y104.632 E641.87242
G1 X96.368 Y110.379 E643.90421
G1 X95.597 Y110.379 E644.09705
G1 X90.621 Y105.403 E645.85614
G1 X90.621 Y106.175 E646.04897
G1 X94.825 Y110.379 E647.53536
G1 X94.054 Y110.379 E647.72819
G1 X90.621 Y106.946 E648.94187
G1 X90.621 Y107.717 E649.13470
G1 X93.283 Y110.379 E650.07567
G1 X92.511 Y110.379 E650.26850
G1 X90.621 Y108.489 E650.93676
G1 X90.621 Y109.260 E651.12960
G1 X91.740 Y110.379 E651.52515
G1 X90.969 Y110.379 E651.71798
G1 X90.621 Y110.031 E651.84083
M106 S239.7
G1 Z1.600 F7800.000
G1 X108.778 Y110.379 F7800.000
G1 X109.379 Y109.778 E652.05321 F4800.000
G1 X109.379 Y109.007 E652.24604
G1 X108.007 Y110.379 E652.73113
G1 X107.235 Y110.379 E652.92397
G1 X109.379 Y108.235 E653.68176
G1 X109.379 Y107.464 E653.87460
G1 X106.464 Y110.379 E654.90510
G1 X105.693 Y110.379 E655.09793
G1 X109.379 Y106.693 E656.40115
G1 X109.379 Y105.921 E656.59398
G1 X104.921 Y110.379 E658.16990
G1 X104.150 Y110.379 E658.36273
G1 X109.379 Y105.150 E660.21136
G1 X109.379 Y104.379 E660.40419
G1 X103.379 Y110.379 E662.52553
G1 X102.607 Y110.379 E662.71836
G1 X109.379 Y103.607 E665.11240
G1 X109.379 Y102.836 E665.30523
G1 X101.836 Y110.379 E667.97198
G1 X101.065 Y110.379 E668.16482
G1 X109.379 Y102.065 E671.10428
G1 X109.379 Y101.293 E671.29711
G1 X100.293 Y110.379 E674.50927
G1 X99.522 Y110.379 E674.70211
G1 X109.379 Y100.522 E678.18698
G1 X109.379 Y99.751 E678.37981
G1 X98.751 Y110.379 E682.13739
G1 X97.979 Y110.379 E682.33023
G1 X109.379 Y98.979 E686.36052
G1 X109.379 Y98.208 E686.55335
G1 X97.208 Y110.379 E690.85635
G1 X96.437 Y110.379 E691.04918
G1 X109.379 Y97.437 E695.62488
G1 X109.379 Y96.665 E695.81772
G1 X95.665 Y110.379 E700.66613
G1 X94.894 Y110.379 E700.85896
G1 X109.379 Y95.894 E705.98008
G1 X109.379 Y95.123 E706.17291
G1 X94.123 Y110.379 E711.56674
G1 X93.351 Y110.379 E711.75957
G1 X109.379 Y94.351 E717.42611
G1 X109.379 Y93.580 E717.61894
G1 X92.580 Y110.379 E723.55818
G1 X91.809 Y110.379 E723.75102
G1 X109.379 Y92.809 E729.96297
G1 X109.379 Y92.037 E730.15580
G1 X91.037 Y110.379 E736.64046
G1 X90.621 Y110.023 E736.77723
G1 X109.379 Y91.266 E743.40899
G1 X109.379 Y90.495 E743.60182
G1 X90.621 Y109.252 E750.23357
G1 X90.621 Y108.481 E750.42641
G1 X109.379 Y89.723 E757.05816
G1 X108.709 Y89.621 E757.22741
G1 X90.621 Y107.709 E763.62254
G1 X90.621 Y106.938 E763.81537
G1 X107.938 Y89.621 E769.93778
G1 X107.167 Y89.621 E770.13062
G1 X90.621 Y106.167 E775.98033
G1 X90.621 Y105.395 E776.17316
G1 X106.395 Y89.621 E781.75016
G1 X105.624 Y89.621 E781.94299
G1 X90.621 Y104.624 E787.24728
G1 X90.621 Y103.853 E787.44012
G1 X104.853 Y89.621 E792.47170
G1 X104.081 Y89.621 E792.66454
G1 X90.621 Y103.081 E797.42341
G1 X90.621 Y102.310 E797.61624
G1 X103.310 Y89.621 E802.10241
G1 X102.539 Y89.621 E802.29525
G1 X90.621 Y101.539 E806.50871
G1 X90.621 Y100.767 E806.70154
G1 X101.767 Y89.621 E810.64230
G1 X100.996 Y89.621 E810.83513
G1 X90.621 Y99.996 E814.50317
G1 X90.621 Y99.225 E814.69601
G1 X100.225 Y89.621 E818.09135
G1 X99.453 Y89.621 E818.28418
G1 X90.621 Y98.453 E821.40681
G1 X90.621 Y97.682 E821.59964
G1 X98.682 Y89.621 E824.44957
G1 X97.911 Y89.621 E824.64240
G1 X90.621 Y96.911 E827.21961
G1 X90.621 Y96.139 E827.41245
G1 X97.139 Y89.621 E829.71695
G1 X96.368 Y89.621 E829.90979
G1 X90.621 Y95.368 E831.94159
G1 X90.621 Y94.597 E832.13442
G1 X95.597 Y89.621 E833.89351
G1 X94.825 Y89.621 E834.08635
G1 X90.621 Y93.825 E835.57273
G1 X90.621 Y93.054 E835.76556
G1 X94.054 Y89.621 E836.97924
G1 X93.283 Y89.621 E837.17207
G1 X90.621 Y92.283 E838.11304
G1 X90.621 Y91.511 E838.30588
G1 X92.511 Y89.621 E838.97414
G1 X91.740 Y89.621 E839.16697
G1 X90.621 Y90.740 E839.56253
G1 X90.621 Y89.969 E839.75536
G1 X90.969 Y89.621 E839.87820
G1 Z2.000 F7800.000
G1 X109.379 Y90.222 F7800.000
G1 X108.778 Y89.621 E840.09059 F4800.000
G1 X108.007 Y89.621 E840.28342
G1 X109.379 Y90.993 E840.76851
G1 X109.379 Y91.765 E840.96134
G1 X107.235 Y89.621 E841.71914
G1 X106.464 Y89.621 E841.91197
G1 X109.379 Y92.536 E842.94247
G1 X109.379 Y93.307 E843.13531
G1 X105.693 Y89.621 E844.43852
G1 X104.921 Y89.621 E844.63135
G1 X109.379 Y94.079 E846.20727
G1 X109.379 Y94.850 E846.40011
G1 X104.150 Y89.621 E848.24873
G1 X103.379 Y89.621 E848.44157
G1 X109.379 Y95.621 E850.56290
G1 X109.379 Y96.393 E850.75573
G1 X102.607 Y89.621 E853.14978
G1 X101.836 Y89.621 E853.34261
G1 X109.379 Y97.164 E856.00936
G1 X109.379 Y97.935 E856.20219
G1 X101.065 Y89.621 E859.14165
G1 X100.293 Y89.621 E859.33449
G1 X109.379 Y98.707 E862.54665
G1 X109.379 Y99.478 E862.73948
G1 X99.522 Y89.621 E866.22436
G1 X98.751 Y89.621 E866.41719
G1 X109.379 Y100.249 E870.17477
G1 X109.379 Y101.021 E870.36761
G1 X97.979 Y89.621 E874.39789
G1 X97.208 Y89.621 E874.59073
G1 X109.379 Y101.792 E878.89372
G1 X109.379 Y102.563 E879.08656
G1 X96.437 Y89.621 E883.66226
G1 X95.665 Y89.621 E883.85509
G1 X109.379 Y103.335 E888.70351
G1 X109.379 Y104.106 E888.89634
G1 X94.894 Y89.621 E894.01746
G1 X94.123 Y89.621 E894.21029
G1 X109.379 Y104.877 E899.60412
G1 X109.379 Y105.649 E899.79695
G1 X93.351 Y89.621 E905.46349
G1 X92.580 Y89.621 E905.65632
G1 X109.379 Y106.420 E911.59556
G1 X109.379 Y107.191 E911.78840
G1 X91.809 Y89.621 E918.00035
G1 X91.037 Y89.621 E918.19318
G1 X109.379 Y107.963 E924.67784
G1 X109.379 Y108.734 E924.87067
G1 X90.621 Y89.977 E931.50242
G1 X90.621 Y90.748 E931.69526
G1 X109.379 Y109.505 E938.32701
G1 X109.379 Y110.277 E938.51984
G1 X90.621 Y91.519 E945.15159
G1 X90.621 Y92.291 E945.34443
G1 X108.709 Y110.379 E951.73955
G1 X107.938 Y110.379 E951.93238
G1 X90.621 Y93.062 E958.05480
G1 X90.621 Y93.833 E958.24763
G1 X107.167 Y110.379 E964.09734
G1 X106.395 Y110.379 E964.29017
G1 X90.621 Y94.605 E969.86717
G1 X90.621 Y95.376 E970.06001
G1 X105.624 Y110.379 E975.36430
G1 X104.853 Y110.379 E975.55713
G1 X90.621 Y96.147 E980.58871
G1 X90.621 Y96.919 E980.78155
G1 X104.081 Y110.379 E985.54042
G1 X103.310 Y110.379 E985.73326
G1 X90.621 Y97.690 E990.21943
G1 X90.621 Y98.461 E990.41226
G1 X102.539 Y110.379 E994.62572
G1 X101.767 Y110.379 E994.81855
G1 X90.621 Y99.233 E998.75931
G1 X90.621 Y100.004 E998.95214
G1 X100.996 Y110.379 E1002.62019
G1 X100.225 Y110.379 E1002.81302
G1 X90.621 Y100.775 E1006.20836
G1 X90.621 Y101.547 E1006.40119
G1 X99.453 Y110.379 E1009.52382
G1 X98.682 Y110.379 E1009.71665
G1 X90.621 Y102.318 E1012.56658
G1 X90.621 Y103.089 E1012.75941
G1 X97.911 Y110.379 E1015.33663
G1 X97.139 Y110.379 E1015.52946
G1 X90.621 Y103.861 E1017.83397
G1 X90.621 Y104.632 E1018.02680
G1 X96.368 Y110.379 E1020.05860
G1 X95.597 Y110.379 E1020.25143
G1 X90.621 Y105.403 E1022.01052
G1 X90.621 Y106.175 E1022.20336
G1 X94.825 Y110.379 E1023.68974
G1 X94.054 Y110.379 E1023.88258
G1 X90.621 Y106.946 E1025.09625
G1 X90.621 Y107.717 E1025.28908
G1 X93.283 Y110.379 E1026.23005
G1 X92.511 Y110.379 E1026.42289
G1 X90.621 Y108.489 E1027.09115
G1 X90.621 Y109.260 E1027.28398
G1 X91.740 Y110.379 E1027.67953
G1 X90.969 Y110.379 E1027.87237
G1 X90.621 Y110.031 E1027.99521
G1 Z2.400 F7800.000
G1 X108.778 Y110.379 F7800.000
G1 X109.379 Y109.778 E1028.20759 F4800.000
G1 X109.379 Y109.007 E1028.40043
G1 X108.007 Y110.379 E1028.88552
G1 X107.235 Y110.379 E1029.07835
G1 X109.379 Y108.235 E1029.83615
G1 X109.379 Y107.464 E1030.02898
G1 X106.464 Y110.379 E1031.05948
G1 X105.693 Y110.379 E1031.25232
G1 X109.379 Y106.693 E1032.55553
G1 X109.379 Y105.921 E1032.74836
G1 X104.921 Y110.379 E1034.32428
G1 X104.150 Y110.379 E1034.51712
G1 X109.379 Y105.150 E1036.36574
G1 X109.379 Y104.379 E1036.55858
G1 X103.379 Y110.379 E1038.67991
G1 X102.607 Y110.379 E1038.87274
G1 X109.379 Y103.607 E1041.26679
G1 X109.379 Y102.836 E1041.45962
G1 X101.836 Y110.379 E1044.12637
G1 X101.065 Y110.379 E1044.31920
G1 X109.379 Y102.065 E1047.25866
G1 X109.379 Y101.293 E1047.45149
G1 X100.293 Y110.379 E1050.66366
G1 X99.522 Y110.379 E1050.85649
G1 X109.379 Y100.522 E1054.34136
G1 X109.379 Y99.751 E1054.53420
G1 X98.751 Y110.379 E1058.29178
G1 X97.979 Y110.379 E1058.48461
G1 X109.379 Y98.979 E1062.51490
G1 X109.379 Y98.208 E1062.70773
G1 X97.208 Y110.379 E1067.01073
G1 X96.437 Y110.379 E1067.20356
G1 X109.379 Y97.437 E1071.77927
G1 X109.379 Y96.665 E1071.97210
G1 X95.665 Y110.379 E1076.82051
G1 X94.894 Y110.379 E1077.01335
G1 X109.379 Y95.894 E1082.13447
G1 X109.379 Y95.123 E1082.32730
G1 X94.123 Y110.379 E1087.72113
G1 X93.351 Y110.379 E1087.91396
G1 X109.379 Y94.351 E1093.58049
G1 X109.379 Y93.580 E1093.77333
G1 X92.580 Y110.379 E1099.71257
G1 X91.809 Y110.379 E1099.90540
G1 X109.379 Y92.809 E1106.11735
G1 X109.379 Y92.037 E1106.31019
G1 X91.037 Y110.379 E1112.79484
G1 X90.621 Y110.023 E1112.93162
G1 X109.379 Y91.266 E1119.56337
G1 X109.379 Y90.495 E1119.75620
G1 X90.621 Y109.252 E1126.38796
G1 X90.621 Y108.481 E1126.58079
G1 X109.379 Y89.723 E1133.21254
G1 X108.709 Y89.621 E1133.38180
G1 X90.621 Y107.709 E1139.77692
G1 X90.621 Y106.938 E1139.96975
G1 X107.938 Y89.621 E1146.09217
G1 X107.167 Y89.621 E1146.28500
G1 X90.621 Y106.167 E1152.13471
G1 X90.621 Y105.395 E1152.32754
G1 X106.395 Y89.621 E1157.90454
G1 X105.624 Y89.621 E1158.09738
G1 X90.621 Y104.624 E1163.40167
G1 X90.621 Y103.853 E1163.59450
G1 X104.853 Y89.621 E1168.62609
G1 X104.081 Y89.621 E1168.81892
G1 X90.621 Y103.081 E1173.57780
G1 X90.621 Y102.310 E1173.77063
G1 X103.310 Y89.621 E1178.25680
G1 X102.539 Y89.621 E1178.44963
G1 X90.621 Y101.539 E1182.66309
G1 X90.621 Y100.767 E1182.85593
G1 X101.767 Y89.621 E1186.79668
G1 X100.996 Y89.621 E1186.98951
G1 X90.621 Y99.996 E1190.65756
G1 X90.621 Y99.225 E1190.85039
G1 X100.225 Y89.621 E1194.24573
G1 X99.453 Y89.621 E1194.43856
G1 X90.621 Y98.453 E1197.56119
G1 X90.621 Y97.682 E1197.75403
G1 X98.682 Y89.621 E1200.60395
G1 X97.911 Y89.621 E1200.79678
G1 X90.621 Y96.911 E1203.37400
G1 X90.621 Y96.139 E1203.56683
G1 X97.139 Y89.621 E1205.87134
G1 X96.368 Y89.621 E1206.06417
G1 X90.621 Y95.368 E1208.09597
G1 X90.621 Y94.597 E1208.28881
G1 X95.597 Y89.621 E1210.04790
G1 X94.825 Y89.621 E1210.24073
G1 X90.621 Y93.825 E1211.72712
G1 X90.621 Y93.054 E1211.91995
G1 X94.054 Y89.621 E1213.13363
G1 X93.283 Y89.621 E1213.32646
G1 X90.621 Y92.283 E1214.26743
G1 X90.621 Y91.511 E1214.46026
G1 X92.511 Y89.621 E1215.12852
G1 X91.740 Y89.621 E1215.32136
G1 X90.621 Y90.740 E1215.71691
G1 X90.621 Y89.969 E1215.90974
G1 X90.969 Y89.621 E1216.03259
G1 Z2.800 F7800.000
G1 X109.379 Y90.222 F7800.000
G1 X108.778 Y89.621 E1216.24497 F4800.000
G1 X108.007 Y89.621 E1216.43780
G1 X109.379 Y90.993 E1216.92289
G1 X109.379 Y91.765 E1217.11573
G1 X107.235 Y89.621 E1217.87352
G1 X106.464 Y89.621 E1218.06636
G1 X109.379 Y92.536 E1219.09686
G1 X109.379 Y93.307 E1219.28969
G1 X105.693 Y89.621 E1220.59290
G1 X104.921 Y89.621 E1220.78574
G1 X109.379 Y94.079 E1222.36166
G1 X109.379 Y94.850 E1222.55449
G1 X104.150 Y89.621 E1224.40312
G1 X103.379 Y89.621 E1224.59595
G1 X109.379 Y95.621 E1226.71729
G1 X109.379 Y96.393 E1226.91012
G1 X102.607 Y89.621 E1229.30416
G1 X101.836 Y89.621 E1229.49700
G1 X109.379 Y97.164 E1232.16375
G1 X109.379 Y97.935 E1232.35658
G1 X101.065 Y89.621 E1235.29604
G1 X100.293 Y89.621 E1235.48887
G1 X109.379 Y98.707 E1238.70104
G1 X109.379 Y99.478 E1238.89387
G1 X99.522 Y89.621 E1242.37874
G1 X98.751 Y89.621 E1242.57158
G1 X109.379 Y100.249 E1246.32916
G1 X109.379 Y101.021 E1246.52199
G1 X97.979 Y89.621 E1250.55228
G1 X97.208 Y89.621 E1250.74511
G1 X109.379 Y101.792 E1255.04811
G1 X109.379 Y102.563 E1255.24094
G1 X96.437 Y89.621 E1259.81665
G1 X95.665 Y89.621 E1260.00948
G1 X109.379 Y103.335 E1264.85789
G1 X109.379 Y104.106 E1265.05072
G1 X94.894 Y89.621 E1270.17184
G1 X94.123 Y89.621 E1270.36468
G1 X109.379 Y104.877 E1275.75850
G1 X109.379 Y105.649 E1275.95134
G1 X93.351 Y89.621 E1281.61787
G1 X92.580 Y89.621 E1281.81071
G1 X109.379 Y106.420 E1287.74995
G1 X109.379 Y107.191 E1287.94278
G1 X91.809 Y89.621 E1294.15473
G1 X91.037 Y89.621 E1294.34757
G1 X109.379 Y107.963 E1300.83222
G1 X109.379 Y108.734 E1301.02506
G1 X90.621 Y89.977 E1307.65681
G1 X90.621 Y90.748 E1307.84964
G1 X109.379 Y109.505 E1314.48139
G1 X109.379 Y110.277 E1314.67423
G1 X90.621 Y91.519 E1321.30598
G1 X90.621 Y92.291 E1321.49881
G1 X108.709 Y110.379 E1327.89394
G1 X107.938 Y110.379 E1328.08677
G1 X90.621 Y93.062 E1334.20918
G1 X90.621 Y93.833 E1334.40202
G1 X107.167 Y110.379 E1340.25172
G1 X106.395 Y110.379 E1340.44456
G1 X90.621 Y94.605 E1346.02156
G1 X90.621 Y95.376 E1346.21439
G1 X105.624 Y110.379 E1351.51868
G1 X104.853 Y110.379 E1351.71152
G1 X90.621 Y96.147 E1356.74310
G1 X90.621 Y96.919 E1356.93593
G1 X104.081 Y110.379 E1361.69481
G1 X103.310 Y110.379 E1361.88764
G1 X90.621 Y97.690 E1366.37381
G1 X90.621 Y98.461 E1366.56664
G1 X102.539 Y110.379 E1370.78010
G1 X101.767 Y110.379 E1370.97294
G1 X90.621 Y99.233 E1374.91369
G1 X90.621 Y100.004 E1375.10652
G1 X100.996 Y110.379 E1378.77457
G1 X100.225 Y110.379 E1378.96740
G1 X90.621 Y100.775 E1382.36274
G1 X90.621 Y101.547 E1382.55557
G1 X99.453 Y110.379 E1385.67821
G1 X98.682 Y110.379 E1385.87104
G1 X90.621 Y102.318 E1388.72096
G1 X90.621 Y103.089 E1388.91379
G1 X97.911 Y110.379 E1391.49101
G1 X97.139 Y110.379 E1391.68384
G1 X90.621 Y103.861 E1393.98835
G1 X90.621 Y104.632 E1394.18118
G1 X96.368 Y110.379 E1396.21298
G1 X95.597 Y110.379 E1396.40582
G1 X90.621 Y105.403 E1398.16491
G1 X90.621 Y106.175 E1398.35774
G1 X94.825 Y110.379 E1399.84413
G1 X94.054 Y110.379 E1400.03696
G1 X90.621 Y106.946 E1401.25064
G1 X90.621 Y107.717 E1401.44347
G1 X93.283 Y110.379 E1402.38444
G1 X92.511 Y110.379 E1402.57727
G1 X90.621 Y108.489 E1403.24553
G1 X90.621 Y109.260 E1403.43837
G1 X91.740 Y110.379 E1403.83392
G1 X90.969 Y110.379 E1404.02675
G1 X90.621 Y110.031 E1404.14960
G1 Z3.200 F7800.000
G1 E1402.14960 F2400.00000
G92 E0
G1 X108.778 Y110.379 F7800.000
G1 E2.00000 F2400.00000
G1 X109.379 Y109.778 E2.21238 F4800.000
G1 X109.379 Y109.007 E2.40521
G1 X108.007 Y110.379 E2.89030
G1 X107.235 Y110.379 E3.08314
G1 X109.379 Y108.235 E3.84093
G1 X109.379 Y107.464 E4.03377
G1 X106.464 Y110.379 E5.06427
G1 X105.693 Y110.379 E5.25710
G1 X109.379 Y106.693 E6.56032
G1 X109.379 Y105.921 E6.75315
G1 X104.921 Y110.379 E8.32907
G1 X104.150 Y110.379 E8.52190
G1 X109.379 Y105.150 E10.37053
G1 X109.379 Y104.379 E10.56336
G1 X103.379 Y110.379 E12.68470
G1 X102.607 Y110.379 E12.87753
G1 X109.379 Y103.607 E15.27157
G1 X109.379 Y102.836 E15.46441
G1 X101.836 Y110.379 E18.13116
G1 X101.065 Y110.379 E18.32399
G1 X109.379 Y102.065 E21.26345
G1 X109.379 Y101.293 E21.45628
G1 X100.293 Y110.379 E24.66844
G1 X99.522 Y110.379 E24.86128
G1 X109.379 Y100.522 E28.34615
G1 X109.379 Y99.751 E28.53898
G1 X98.751 Y110.379 E32.29657
G1 X97.979 Y110.379 E32.48940
G1 X109.379 Y98.979 E36.51969
G1 X109.379 Y98.208 E36.71252
G1 X97.208 Y110.379 E41.01552
G1 X96.437 Y110.379 E41.20835
G1 X109.379 Y97.437 E45.78405
G1 X109.379 Y96.665 E45.97689
G1 X95.665 Y110.379 E50.82530
G1 X94.894 Y110.379 E51.01813
G1 X109.379 Y95.894 E56.13925
G1 X109.379 Y95.123 E56.33209
G1 X94.123 Y110.379 E61.72591
G1 X93.351 Y110.379 E61.91875
G1 X109.379 Y94.351 E67.58528
G1 X109.379 Y93.580 E67.77811
G1 X92.580 Y110.379 E73.71735
G1 X91.809 Y110.379 E73.91019
G1 X109.379 Y92.809 E80.12214
G1 X109.379 Y92.037 E80.31497
G1 X91.037 Y110.379 E86.79963
G1 X90.621 Y110.023 E86.93641
G1 X109.379 Y91.266 E93.56816
G1 X109.379 Y90.495 E93.76099
G1 X90.621 Y109.252 E100.39274
G1 X90.621 Y108.481 E100.58558
G1 X109.379 Y89.723 E107.21733
G1 X108.709 Y89.621 E107.38658
G1 X90.621 Y107.709 E113.78171
G1 X90.621 Y106.938 E113.97454
G1 X107.938 Y89.621 E120.09696
G1 X107.167 Y89.621 E120.28979
G1 X90.621 Y106.167 E126.13950
G1 X90.621 Y105.395 E126.33233
G1 X106.395 Y89.621 E131.90933
G1 X105.624 Y89.621 E132.10216
G1 X90.621 Y104.624 E137.40645
G1 X90.621 Y103.853 E137.59929
G1 X104.853 Y89.621 E142.63087
G1 X104.081 Y89.621 E142.82371
G1 X90.621 Y103.081 E147.58258
G1 X90.621 Y102.310 E147.77542
G1 X103.310 Y89.621 E152.26158
G1 X102.539 Y89.621 E152.45442
G1 X90.621 Y101.539 E156.66788
G1 X90.621 Y100.767 E156.86071
G1 X101.767 Y89.621 E160.80147
G1 X100.996 Y89.621 E160.99430
G1 X90.621 Y99.996 E164.66235
G1 X90.621 Y99.225 E164.85518
G1 X100.225 Y89.621 E168.25052
G1 X99.453 Y89.621 E168.44335
G1 X90.621 Y98.453 E171.56598
G1 X90.621 Y97.682 E171.75881
G1 X98.682 Y89.621 E174.60874
G1 X97.911 Y89.621 E174.80157
G1 X90.621 Y96.911 E177.37878
G1 X90.621 Y96.139 E177.57162
G1 X97.139 Y89.621 E179.87613
G1 X96.368 Y89.621 E180.06896
G1 X90.621 Y95.368 E182.10076
G1 X90.621 Y94.597 E182.29359
G1 X95.597 Y89.621 E184.05268
G1 X94.825 Y89.621 E184.24552
G1 X90.621 Y93.825 E185.73190
G1 X90.621 Y93.054 E185.92473
G1 X94.054 Y89.621 E187.13841
G1 X93.283 Y89.621 E187.33124
G1 X90.621 Y92.283 E188.27221
G1 X90.621 Y91.511 E188.46505
G1 X92.511 Y89.621 E189.13331
G1 X91.740 Y89.621 E189.32614
G1 X90.621 Y90.740 E189.72170
G1 X90.621 Y89.969 E189.91453
G1 X90.969 Y89.621 E190.03738
G1 E188.03738 F2400.00000
G92 E0
M107
M104 S0 ; turn off temperature
G28 X0  ; home X axis
M84     ; disable motors

; filament used = 1590.2mm (1.2cm3)

; avoid_crossing_perimeters = 0
; bed_shape = 0x0,200x0,200x200,0x200
; bed_temperature = 0
; before_layer_gcode = 
; bridge_acceleration = 0
; bridge_fan_speed = 100
; brim_width = 0
; complete_objects = 0
; cooling = 1
; default_acceleration = 0
; disable_fan_first_layers = 3
; duplicate_distance = 6
; end_gcode = M104 S0 ; turn off temperature\nG28 X0  ; home X axis\nM84     ; disable motors\n
; extruder_clearance_height = 20
; extruder_clearance_radius = 20
; extruder_offset = 0x0
; extrusion_axis = E
; extrusion_multiplier = 1
; fan_always_on = 0
; fan_below_layer_time = 60
; filament_colour = #FFFFFF
; filament_diameter = 1
; first_layer_acceleration = 0
; first_layer_bed_temperature = 0
; first_layer_extrusion_width = 200%
; first_layer_speed = 30
; first_layer_temperature = 200
; gcode_arcs = 0
; gcode_comments = 0
; gcode_flavor = reprap
; infill_acceleration = 0
; infill_first = 0
; layer_gcode = 
; max_fan_speed = 100
; max_print_speed = 80
; max_volumetric_speed = 0
; min_fan_speed = 35
; min_print_speed = 10
; min_skirt_length = 0
; notes = 
; nozzle_diameter = 0.5
; only_retract_when_crossing_perimeters = 1
; ooze_prevention = 0
; output_filename_format = [input_filename_base].gcode
; perimeter_acceleration = 0
; post_process = 
; pressure_advance = 0
; resolution = 0
; retract_before_travel = 2
; retract_layer_change = 0
; retract_length = 2
; retract_length_toolchange = 10
; retract_lift = 0
; retract_restart_extra = 0
; retract_restart_extra_toolchange = 0
; retract_speed = 40
; skirt_distance = 6
; skirt_height = 1
; skirts = 0
; slowdown_below_layer_time = 5
; spiral_vase = 0
; standby_temperature_delta = -5
; start_gcode = G28 ; home all axes\nG1 Z5 F5000 ; lift nozzle\n
; temperature = 200
; threads = 2
; toolchange_gcode = 
; travel_speed = 130
; use_firmware_retraction = 0
; use_relative_e_distances = 0
; use_volumetric_e = 0
; vibration_limit = 0
; wipe = 0
; z_offset = 0
; dont_support_bridges = 1
; extrusion_width = 0
; first_layer_height = 0.4
; infill_only_where_needed = 0
; interface_shells = 0
; layer_height = 0.4
; raft_layers = 0
; seam_position = aligned
; support_material = 0
; support_material_angle = 0
; support_material_contact_distance = 0.2
; support_material_enforce_layers = 0
; support_material_extruder = 1
; support_material_extrusion_width = 0
; support_material_interface_extruder = 1
; support_material_interface_layers = 3
; support_material_interface_spacing = 0
; support_material_interface_speed = 100%
; support_material_pattern = pillars
; support_material_spacing = 2.5
; support_material_speed = 60
; support_material_threshold = 0
; xy_size_compensation = 0
; bottom_solid_layers = 0
; bridge_flow_ratio = 1
; bridge_speed = 60
; external_fill_pattern = rectilinear
; external_perimeter_extrusion_width = 0
; external_perimeter_speed = 50%
; external_perimeters_first = 0
; extra_perimeters = 1
; fill_angle = 45
; fill_density = 90%
; fill_pattern = rectilinear
; gap_fill_speed = 20
; infill_every_layers = 1
; infill_extruder = 1
; infill_extrusion_width = 0
; infill_overlap = 15%
; infill_speed = 80
; overhangs = 1
; perimeter_extruder = 1
; perimeter_extrusion_width = 0
; perimeter_speed = 60
; perimeters = 0
; small_perimeter_speed = 15
; solid_infill_below_area = 70
; solid_infill_every_layers = 0
; solid_infill_extruder = 1
; solid_infill_extrusion_width = 0
; solid_infill_speed = 20
; thin_walls = 1
; top_infill_extrusion_width = 0
; top_solid_infill_speed = 15
; top_solid_layers = 0
