; generated by Slic3r 1.2.9 on 2019-07-13 at 17:04:23

; external perimeters extrusion width = 0.50mm
; perimeters extrusion width = 0.58mm
; infill extrusion width = 0.58mm
; solid infill extrusion width = 0.58mm
; top infill extrusion width = 0.58mm

M107
M104 S200 ; set temperature
G28 ; home all axes
G1 Z5 F5000 ; lift nozzle

M109 S200 ; wait for temperature to be reached
G21 ; set units to millimeters
G90 ; use absolute coordinates
M82 ; use absolute distances for extrusion
G92 E0
G1 Z0.400 F7800.000
G1 E-2.00000 F2400.00000
G92 E0
G1 X109.379 Y90.442 F7800.000
G1 E2.00000 F2400.00000
G1 X108.558 Y89.621 E2.42236 F1800.000
G1 X107.566 Y89.621 E2.78306
G1 X109.379 Y91.434 E3.71553
G1 X109.379 Y92.426 E4.07624
G1 X106.574 Y89.621 E5.51882
G1 X105.582 Y89.621 E5.87953
G1 X109.379 Y93.418 E7.83222
G1 X109.379 Y94.409 E8.19293
G1 X104.591 Y89.621 E10.65574
G1 X103.599 Y89.621 E11.01645
G1 X109.379 Y95.401 E13.98937
G1 X109.379 Y96.393 E14.35008
G1 X102.607 Y89.621 E17.83312
G1 X101.616 Y89.621 E18.19382
G1 X109.379 Y97.384 E22.18698
G1 X109.379 Y98.376 E22.54768
G1 X100.624 Y89.621 E27.05095
G1 X99.632 Y89.621 E27.41165
G1 X109.379 Y99.368 E32.42503
G1 X109.379 Y100.360 E32.78574
G1 X98.640 Y89.621 E38.30923
G1 X97.649 Y89.621 E38.66994
G1 X109.379 Y101.351 E44.70354
G1 X109.379 Y102.343 E45.06425
G1 X96.657 Y89.621 E51.60797
G1 X95.665 Y89.621 E51.96868
G1 X109.379 Y103.335 E59.02251
G1 X109.379 Y104.326 E59.38322
G1 X94.674 Y89.621 E66.94717
G1 X93.682 Y89.621 E67.30787
G1 X109.379 Y105.318 E75.38194
G1 X109.379 Y106.310 E75.74264
G1 X92.690 Y89.621 E84.32682
G1 X91.698 Y89.621 E84.68752
G1 X109.379 Y107.302 E93.78181
G1 X109.379 Y108.293 E94.14252
G1 X90.707 Y89.621 E103.74692
G1 X90.621 Y90.528 E104.07800
G1 X109.379 Y109.285 E113.72637
G1 X109.379 Y110.277 E114.08708
G1 X90.621 Y91.519 E123.73545
G1 X90.621 Y92.511 E124.09615
G1 X108.489 Y110.379 E133.28690
G1 X107.497 Y110.379 E133.64760
G1 X90.621 Y93.503 E142.32823
G1 X90.621 Y94.494 E142.68894
G1 X106.506 Y110.379 E150.85945
G1 X105.514 Y110.379 E151.22016
G1 X90.621 Y95.486 E158.88056
G1 X90.621 Y96.478 E159.24127
G1 X104.522 Y110.379 E166.39156
G1 X103.530 Y110.379 E166.75226
G1 X90.621 Y97.470 E173.39244
G1 X90.621 Y98.461 E173.75314
G1 X102.539 Y110.379 E179.88321
G1 X101.547 Y110.379 E180.24391
G1 X90.621 Y99.453 E185.86386
G1 X90.621 Y100.445 E186.22456
G1 X100.555 Y110.379 E191.33440
G1 X99.564 Y110.379 E191.69510
G1 X90.621 Y101.436 E196.29483
G1 X90.621 Y102.428 E196.65553
G1 X98.572 Y110.379 E200.74514
G1 X97.580 Y110.379 E201.10584
G1 X90.621 Y103.420 E204.68533
G1 X90.621 Y104.412 E205.04604
G1 X96.588 Y110.379 E208.11542
G1 X95.597 Y110.379 E208.47612
G1 X90.621 Y105.403 E211.03539
G1 X90.621 Y106.395 E211.39609
G1 X94.605 Y110.379 E213.44525
G1 X93.613 Y110.379 E213.80595
G1 X90.621 Y107.387 E215.34499
G1 X90.621 Y108.378 E215.70569
G1 X92.622 Y110.379 E216.73462
G1 X91.630 Y110.379 E217.09532
G1 X90.621 Y109.370 E217.61413
G1 Z0.800 F7800.000
G1 X108.558 Y110.379 F7800.000
G1 X109.379 Y109.558 E217.90444 F4800.000
G1 X109.379 Y108.566 E218.15237
G1 X107.566 Y110.379 E218.79329
G1 X106.574 Y110.379 E219.04122
G1 X109.379 Y107.574 E220.03278
G1 X109.379 Y106.582 E220.28070
G1 X105.582 Y110.379 E221.62288
G1 X104.591 Y110.379 E221.87081
G1 X109.379 Y105.591 E223.56361
G1 X109.379 Y104.599 E223.81154
G1 X103.599 Y110.379 E225.85497
G1 X102.607 Y110.379 E226.10290
G1 X109.379 Y103.607 E228.49695
G1 X109.379 Y102.616 E228.74487
G1 X101.616 Y110.379 E231.48955
G1 X100.624 Y110.379 E231.73748
G1 X109.379 Y101.624 E234.83277
G1 X109.379 Y100.632 E235.08070
G1 X99.632 Y110.379 E238.52663
G1 X98.640 Y110.379 E238.77455
G1 X109.379 Y99.640 E242.57110
G1 X109.379 Y98.649 E242.81903
G1 X97.649 Y110.379 E246.96620
G1 X96.657 Y110.379 E247.21413
G1 X109.379 Y97.657 E251.71193
G1 X109.379 Y96.665 E251.95985
G1 X95.665 Y110.379 E256.80827
G1 X94.674 Y110.379 E257.05620
G1 X109.379 Y95.674 E262.25524
G1 X109.379 Y94.682 E262.50317
G1 X93.682 Y110.379 E268.05284
G1 X92.690 Y110.379 E268.30077
G1 X109.379 Y93.690 E274.20106
G1 X109.379 Y92.698 E274.44899
G1 X91.698 Y110.379 E280.69990
G1 X90.707 Y110.379 E280.94783
G1 X109.379 Y91.707 E287.54937
G1 X109.379 Y90.715 E287.79730
G1 X90.621 Y109.472 E294.42906
G1 X90.621 Y108.481 E294.67699
G1 X109.379 Y89.723 E301.30875
G1 X108.489 Y89.621 E301.53263
G1 X90.621 Y107.489 E307.84984
G1 X90.621 Y106.497 E308.09777
G1 X107.497 Y89.621 E314.06435
G1 X106.506 Y89.621 E314.31228
G1 X90.621 Y105.506 E319.92825
G1 X90.621 Y104.514 E320.17618
G1 X105.514 Y89.621 E325.44152
G1 X104.522 Y89.621 E325.68944
G1 X90.621 Y103.522 E330.60416
G1 X90.621 Y102.530 E330.85209
G1 X103.530 Y89.621 E335.41618
G1 X102.539 Y89.621 E335.66411
G1 X90.621 Y101.539 E339.87758
G1 X90.621 Y100.547 E340.12551
G1 X101.547 Y89.621 E343.98835
G1 X100.555 Y89.621 E344.23628
G1 X90.621 Y99.555 E347.74850
G1 X90.621 Y98.564 E347.99643
G1 X99.564 Y89.621 E351.15802
G1 X98.572 Y89.621 E351.40595
G1 X90.621 Y97.572 E354.21692
G1 X90.621 Y96.580 E354.46485
G1 X97.580 Y89.621 E356.92520
G1 X96.588 Y89.621 E357.17313
G1 X90.621 Y95.588 E359.28285
G1 X90.621 Y94.597 E359.53078
G1 X95.597 Y89.621 E361.28988
G1 X94.605 Y89.621 E361.53780
G1 X90.621 Y93.605 E362.94628
G1 X90.621 Y92.613 E363.19421
G1 X93.613 Y89.621 E364.25206
G1 X92.622 Y89.621 E364.49999
G1 X90.621 Y91.622 E365.20721
G1 X90.621 Y90.630 E365.45514
G1 X91.630 Y89.621 E365.81174
G1 Z1.200 F7800.000
G1 X109.379 Y90.442 F7800.000
G1 X108.558 Y89.621 E366.10205 F4800.000
G1 X107.566 Y89.621 E366.34998
G1 X109.379 Y91.434 E366.99091
G1 X109.379 Y92.426 E367.23883
G1 X106.574 Y89.621 E368.23039
G1 X105.582 Y89.621 E368.47832
G1 X109.379 Y93.418 E369.82049
G1 X109.379 Y94.409 E370.06842
G1 X104.591 Y89.621 E371.76122
G1 X103.599 Y89.621 E372.00915
G1 X109.379 Y95.401 E374.05258
G1 X109.379 Y96.393 E374.30051
G1 X102.607 Y89.621 E376.69456
G1 X101.616 Y89.621 E376.94249
G1 X109.379 Y97.384 E379.68716
G1 X109.379 Y98.376 E379.93509
G1 X100.624 Y89.621 E383.03039
G1 X99.632 Y89.621 E383.27832
G1 X109.379 Y99.368 E386.72424
G1 X109.379 Y100.360 E386.97217
G1 X98.640 Y89.621 E390.76871
G1 X97.649 Y89.621 E391.01664
G1 X109.379 Y101.351 E395.16381
G1 X109.379 Y102.343 E395.41174
G1 X96.657 Y89.621 E399.90954
G1 X95.665 Y89.621 E400.15747
G1 X109.379 Y103.335 E405.00589
G1 X109.379 Y104.326 E405.25381
G1 X94.674 Y89.621 E410.45286
G1 X93.682 Y89.621 E410.70079
G1 X109.379 Y105.318 E416.25045
G1 X109.379 Y106.310 E416.49838
G1 X92.690 Y89.621 E422.39867
G1 X91.698 Y89.621 E422.64660
G1 X109.379 Y107.302 E428.89752
G1 X109.379 Y108.293 E429.14545
G1 X90.707 Y89.621 E435.74699
G1 X90.621 Y90.528 E435.97455
G1 X109.379 Y109.285 E442.60631
G1 X109.379 Y110.277 E442.85424
G1 X90.621 Y91.519 E449.48600
G1 X90.621 Y92.511 E449.73393
G1 X108.489 Y110.379 E456.05114
G1 X107.497 Y110.379 E456.29907
G1 X90.621 Y93.503 E462.26566
G1 X90.621 Y94.494 E462.51359
G1 X106.506 Y110.379 E468.12955
G1 X105.514 Y110.379 E468.37748
G1 X90.621 Y95.486 E473.64282
G1 X90.621 Y96.478 E473.89075
G1 X104.522 Y110.379 E478.80546
G1 X103.530 Y110.379 E479.05339
G1 X90.621 Y97.470 E483.61748
G1 X90.621 Y98.461 E483.86541
G1 X102.539 Y110.379 E488.07888
G1 X101.547 Y110.379 E488.32681
G1 X90.621 Y99.453 E492.18965
G1 X90.621 Y100.445 E492.43758
G1 X100.555 Y110.379 E495.94980
G1 X99.564 Y110.379 E496.19773
G1 X90.621 Y101.436 E499.35932
G1 X90.621 Y102.428 E499.60725
G1 X98.572 Y110.379 E502.41822
G1 X97.580 Y110.379 E502.66615
G1 X90.621 Y103.420 E505.12650
G1 X90.621 Y104.412 E505.37443
G1 X96.588 Y110.379 E507.48415
G1 X95.597 Y110.379 E507.73208
G1 X90.621 Y105.403 E509.49118
G1 X90.621 Y106.395 E509.73911
G1 X94.605 Y110.379 E511.14758
G1 X93.613 Y110.379 E511.39551
G1 X90.621 Y107.387 E512.45336
G1 X90.621 Y108.378 E512.70129
G1 X92.622 Y110.379 E513.40851
G1 X91.630 Y110.379 E513.65644
G1 X90.621 Y109.370 E514.01304
M106 S247.35
G1 Z1.600 F7800.000
G1 X108.558 Y110.379 F7800.000
G1 X109.379 Y109.558 E514.30335 F4800.000
G1 X109.379 Y108.566 E514.55128
G1 X107.566 Y110.379 E515.19221
G1 X106.574 Y110.379 E515.44014
G1 X109.379 Y107.574 E516.43169
G1 X109.379 Y106.582 E516.67962
G1 X105.582 Y110.379 E518.02179
G1 X104.591 Y110.379 E518.26972
G1 X109.379 Y105.591 E519.96252
G1 X109.379 Y104.599 E520.21045
G1 X103.599 Y110.379 E522.25388
G1 X102.607 Y110.379 E522.50181
G1 X109.379 Y103.607 E524.89586
G1 X109.379 Y102.616 E525.14379
G1 X101.616 Y110.379 E527.88846
G1 X100.624 Y110.379 E528.13639
G1 X109.379 Y101.624 E531.23169
G1 X109.379 Y100.632 E531.47962
G1 X99.632 Y110.379 E534.92554
G1 X98.640 Y110.379 E535.17347
G1 X109.379 Y99.640 E538.97001
G1 X109.379 Y98.649 E539.21794
G1 X97.649 Y110.379 E543.36511
G1 X96.657 Y110.379 E543.61304
G1 X109.379 Y97.657 E548.11084
G1 X109.379 Y96.665 E548.35877
G1 X95.665 Y110.379 E553.20719
G1 X94.674 Y110.379 E553.45511
G1 X109.379 Y95.674 E558.65416
G1 X109.379 Y94.682 E558.90209
G1 X93.682 Y110.379 E564.45175
G1 X92.690 Y110.379 E564.69968
G1 X109.379 Y93.690 E570.59997
G1 X109.379 Y92.698 E570.84790
G1 X91.698 Y110.379 E577.09882
G1 X90.707 Y110.379 E577.34675
G1 X109.379 Y91.707 E583.94829
G1 X109.379 Y90.715 E584.19621
G1 X90.621 Y109.472 E590.82797
G1 X90.621 Y108.481 E591.07590
G1 X109.379 Y89.723 E597.70766
G1 X108.489 Y89.621 E597.93154
G1 X90.621 Y107.489 E604.24875
G1 X90.621 Y106.497 E604.49668
G1 X107.497 Y89.621 E610.46327
G1 X106.506 Y89.621 E610.71120
G1 X90.621 Y105.506 E616.32716
G1 X90.621 Y104.514 E616.57509
G1 X105.514 Y89.621 E621.84043
G1 X104.522 Y89.621 E622.08836
G1 X90.621 Y103.522 E627.00307
G1 X90.621 Y102.530 E627.25100
G1 X103.530 Y89.621 E631.81509
G1 X102.539 Y89.621 E632.06302
G1 X90.621 Y101.539 E636.27649
G1 X90.621 Y100.547 E636.52442
G1 X101.547 Y89.621 E640.38726
G1 X100.555 Y89.621 E640.63519
G1 X90.621 Y99.555 E644.14741
G1 X90.621 Y98.564 E644.39534
G1 X99.564 Y89.621 E647.55693
G1 X98.572 Y89.621 E647.80486
G1 X90.621 Y97.572 E650.61583
G1 X90.621 Y96.580 E650.86376
G1 X97.580 Y89.621 E653.32411
G1 X96.588 Y89.621 E653.57204
G1 X90.621 Y95.588 E655.68176
G1 X90.621 Y94.597 E655.92969
G1 X95.597 Y89.621 E657.68879
G1 X94.605 Y89.621 E657.93672
G1 X90.621 Y93.605 E659.34519
G1 X90.621 Y92.613 E659.59312
G1 X93.613 Y89.621 E660.65097
G1 X92.622 Y89.621 E660.89890
G1 X90.621 Y91.622 E661.60612
G1 X90.621 Y90.630 E661.85405
G1 X91.630 Y89.621 E662.21066
G1 Z2.000 F7800.000
G1 X109.379 Y90.442 F7800.000
G1 X108.558 Y89.621 E662.50096 F4800.000
G1 X107.566 Y89.621 E662.74889
G1 X109.379 Y91.434 E663.38982
G1 X109.379 Y92.426 E663.63775
G1 X106.574 Y89.621 E664.62930
G1 X105.582 Y89.621 E664.87723
G1 X109.379 Y93.418 E666.21941
G1 X109.379 Y94.409 E666.46733
G1 X104.591 Y89.621 E668.16014
G1 X103.599 Y89.621 E668.40807
G1 X109.379 Y95.401 E670.45149
G1 X109.379 Y96.393 E670.69942
G1 X102.607 Y89.621 E673.09347
G1 X101.616 Y89.621 E673.34140
G1 X109.379 Y97.384 E676.08607
G1 X109.379 Y98.376 E676.33400
G1 X100.624 Y89.621 E679.42930
G1 X99.632 Y89.621 E679.67723
G1 X109.379 Y99.368 E683.12315
G1 X109.379 Y100.360 E683.37108
G1 X98.640 Y89.621 E687.16763
G1 X97.649 Y89.621 E687.41556
G1 X109.379 Y101.351 E691.56273
G1 X109.379 Y102.343 E691.81065
G1 X96.657 Y89.621 E696.30845
G1 X95.665 Y89.621 E696.55638
G1 X109.379 Y103.335 E701.40480
G1 X109.379 Y104.326 E701.65273
G1 X94.674 Y89.621 E706.85177
G1 X93.682 Y89.621 E707.09970
G1 X109.379 Y105.318 E712.64937
G1 X109.379 Y106.310 E712.89729
G1 X92.690 Y89.621 E718.79759
G1 X91.698 Y89.621 E719.04551
G1 X109.379 Y107.302 E725.29643
G1 X109.379 Y108.293 E725.54436
G1 X90.707 Y89.621 E732.14590
G1 X90.621 Y90.528 E732.37347
G1 X109.379 Y109.285 E739.00522
G1 X109.379 Y110.277 E739.25315
G1 X90.621 Y91.519 E745.88491
G1 X90.621 Y92.511 E746.13284
G1 X108.489 Y110.379 E752.45005
G1 X107.497 Y110.379 E752.69798
G1 X90.621 Y93.503 E758.66457
G1 X90.621 Y94.494 E758.91250
G1 X106.506 Y110.379 E764.52846
G1 X105.514 Y110.379 E764.77639
G1 X90.621 Y95.486 E770.04173
G1 X90.621 Y96.478 E770.28966
G1 X104.522 Y110.379 E775.20438
G1 X103.530 Y110.379 E775.45231
G1 X90.621 Y97.470 E780.01640
G1 X90.621 Y98.461 E780.26433
G1 X102.539 Y110.379 E784.47779
G1 X101.547 Y110.379 E784.72572
G1 X90.621 Y99.453 E788.58856
G1 X90.621 Y100.445 E788.83649
G1 X100.555 Y110.379 E792.34871
G1 X99.564 Y110.379 E792.59664
G1 X90.621 Y101.436 E795.75824
G1 X90.621 Y102.428 E796.00617
G1 X98.572 Y110.379 E798.81714
G1 X97.580 Y110.379 E799.06506
G1 X90.621 Y103.420 E801.52541
G1 X90.621 Y104.412 E801.77334
G1 X96.588 Y110.379 E803.88306
G1 X95.597 Y110.379 E804.13099
G1 X90.621 Y105.403 E805.89009
G1 X90.621 Y106.395 E806.13802
G1 X94.605 Y110.379 E807.54649
G1 X93.613 Y110.379 E807.79442
G1 X90.621 Y107.387 E808.85227
G1 X90.621 Y108.378 E809.10020
G1 X92.622 Y110.379 E809.80743
G1 X91.630 Y110.379 E810.05535
G1 X90.621 Y109.370 E810.41196
G1 Z2.400 F7800.000
G1 X108.558 Y110.379 F7800.000
G1 X109.379 Y109.558 E810.70226 F4800.000
G1 X109.379 Y108.566 E810.95019
G1 X107.566 Y110.379 E811.59112
G1 X106.574 Y110.379 E811.83905
G1 X109.379 Y107.574 E812.83060
G1 X109.379 Y106.582 E813.07853
G1 X105.582 Y110.379 E814.42071
G1 X104.591 Y110.379 E814.66864
G1 X109.379 Y105.591 E816.36144
G1 X109.379 Y104.599 E816.60937
G1 X103.599 Y110.379 E818.65279
G1 X102.607 Y110.379 E818.90072
G1 X109.379 Y103.607 E821.29477
G1 X109.379 Y102.616 E821.54270
G1 X101.616 Y110.379 E824.28737
G1 X100.624 Y110.379 E824.53530
G1 X109.379 Y101.624 E827.63060
G1 X109.379 Y100.632 E827.87853
G1 X99.632 Y110.379 E831.32445
G1 X98.640 Y110.379 E831.57238
G1 X109.379 Y99.640 E835.36893
G1 X109.379 Y98.649 E835.61685
G1 X97.649 Y110.379 E839.76403
G1 X96.657 Y110.379 E840.01195
G1 X109.379 Y97.657 E844.50975
G1 X109.379 Y96.665 E844.75768
G1 X95.665 Y110.379 E849.60610
G1 X94.674 Y110.379 E849.85403
G1 X109.379 Y95.674 E855.05307
G1 X109.379 Y94.682 E855.30100
G1 X93.682 Y110.379 E860.85067
G1 X92.690 Y110.379 E861.09859
G1 X109.379 Y93.690 E866.99889
G1 X109.379 Y92.698 E867.24681
G1 X91.698 Y110.379 E873.49773
G1 X90.707 Y110.379 E873.74566
G1 X109.379 Y91.707 E880.34720
G1 X109.379 Y90.715 E880.59513
G1 X90.621 Y109.472 E887.22689
G1 X90.621 Y108.481 E887.47481
G1 X109.379 Y89.723 E894.10657
G1 X108.489 Y89.621 E894.33045
G1 X90.621 Y107.489 E900.64766
G1 X90.621 Y106.497 E900.89559
G1 X107.497 Y89.621 E906.86218
G1 X106.506 Y89.621 E907.11011
G1 X90.621 Y105.506 E912.72607
G1 X90.621 Y104.514 E912.97400
G1 X105.514 Y89.621 E918.23934
G1 X104.522 Y89.621 E918.48727
G1 X90.621 Y103.522 E923.40199
G1 X90.621 Y102.530 E923.64991
G1 X103.530 Y89.621 E928.21401
G1 X102.539 Y89.621 E928.46194
G1 X90.621 Y101.539 E932.67540
G1 X90.621 Y100.547 E932.92333
G1 X101.547 Y89.621 E936.78617
G1 X100.555 Y89.621 E937.03410
G1 X90.621 Y99.555 E940.54632
G1 X90.621 Y98.564 E940.79425
G1 X99.564 Y89.621 E943.95585
G1 X98.572 Y89.621 E944.20378
G1 X90.621 Y97.572 E947.01475
G1 X90.621 Y96.580 E947.26267
G1 X97.580 Y89.621 E949.72302
G1 X96.588 Y89.621 E949.97095
G1 X90.621 Y95.588 E952.08067
G1 X90.621 Y94.597 E952.32860
G1 X95.597 Y89.621 E954.08770
G1 X94.605 Y89.621 E954.33563
G1 X90.621 Y93.605 E955.74410
G1 X90.621 Y92.613 E955.99203
G1 X93.613 Y89.621 E957.04988
G1 X92.622 Y89.621 E957.29781
G1 X90.621 Y91.622 E958.00504
G1 X90.621 Y90.630 E958.25297
G1 X91.630 Y89.621 E958.60957
G1 Z2.800 F7800.000
G1 X109.379 Y90.442 F7800.000
G1 X108.558 Y89.621 E958.89987 F4800.000
G1 X107.566 Y89.621 E959.14780
G1 X109.379 Y91.434 E959.78873
G1 X109.379 Y92.426 E960.03666
G1 X106.574 Y89.621 E961.02821
G1 X105.582 Y89.621 E961.27614
G1 X109.379 Y93.418 E962.61832
G1 X109.379 Y94.409 E962.86625
G1 X104.591 Y89.621 E964.55905
G1 X103.599 Y89.621 E964.80698
G1 X109.379 Y95.401 E966.85040
G1 X109.379 Y96.393 E967.09833
G1 X102.607 Y89.621 E969.49238
G1 X101.616 Y89.621 E969.74031
G1 X109.379 Y97.384 E972.48499
G1 X109.379 Y98.376 E972.73291
G1 X100.624 Y89.621 E975.82821
G1 X99.632 Y89.621 E976.07614
G1 X109.379 Y99.368 E979.52206
G1 X109.379 Y100.360 E979.76999
G1 X98.640 Y89.621 E983.56654
G1 X97.649 Y89.621 E983.81447
G1 X109.379 Y101.351 E987.96164
G1 X109.379 Y102.343 E988.20957
G1 X96.657 Y89.621 E992.70736
G1 X95.665 Y89.621 E992.95529
G1 X109.379 Y103.335 E997.80371
G1 X109.379 Y104.326 E998.05164
G1 X94.674 Y89.621 E1003.25068
G1 X93.682 Y89.621 E1003.49861
G1 X109.379 Y105.318 E1009.04828
G1 X109.379 Y106.310 E1009.29621
G1 X92.690 Y89.621 E1015.19650
G1 X91.698 Y89.621 E1015.44443
G1 X109.379 Y107.302 E1021.69534
G1 X109.379 Y108.293 E1021.94327
G1 X90.707 Y89.621 E1028.54481
G1 X90.621 Y90.528 E1028.77238
G1 X109.379 Y109.285 E1035.40414
G1 X109.379 Y110.277 E1035.65207
G1 X90.621 Y91.519 E1042.28382
G1 X90.621 Y92.511 E1042.53175
G1 X108.489 Y110.379 E1048.84897
G1 X107.497 Y110.379 E1049.09689
G1 X90.621 Y93.503 E1055.06348
G1 X90.621 Y94.494 E1055.31141
G1 X106.506 Y110.379 E1060.92738
G1 X105.514 Y110.379 E1061.17530
G1 X90.621 Y95.486 E1066.44064
G1 X90.621 Y96.478 E1066.68857
G1 X104.522 Y110.379 E1071.60329
G1 X103.530 Y110.379 E1071.85122
G1 X90.621 Y97.470 E1076.41531
G1 X90.621 Y98.461 E1076.66324
G1 X102.539 Y110.379 E1080.87671
G1 X101.547 Y110.379 E1081.12463
G1 X90.621 Y99.453 E1084.98748
G1 X90.621 Y100.445 E1085.23541
G1 X100.555 Y110.379 E1088.74763
G1 X99.564 Y110.379 E1088.99555
G1 X90.621 Y101.436 E1092.15715
G1 X90.621 Y102.428 E1092.40508
G1 X98.572 Y110.379 E1095.21605
G1 X97.580 Y110.379 E1095.46398
G1 X90.621 Y103.420 E1097.92432
G1 X90.621 Y104.412 E1098.17225
G1 X96.588 Y110.379 E1100.28198
G1 X95.597 Y110.379 E1100.52990
G1 X90.621 Y105.403 E1102.28900
G1 X90.621 Y106.395 E1102.53693
G1 X94.605 Y110.379 E1103.94541
G1 X93.613 Y110.379 E1104.19333
G1 X90.621 Y107.387 E1105.25118
G1 X90.621 Y108.378 E1105.49911
G1 X92.622 Y110.379 E1106.20634
G1 X91.630 Y110.379 E1106.45427
G1 X90.621 Y109.370 E1106.81087
G1 Z3.200 F7800.000
G1 E1104.81087 F2400.00000
G92 E0
G1 X108.558 Y110.379 F7800.000
G1 E2.00000 F2400.00000
G1 X109.379 Y109.558 E2.29030 F4800.000
G1 X109.379 Y108.566 E2.53823
G1 X107.566 Y110.379 E3.17916
G1 X106.574 Y110.379 E3.42709
G1 X109.379 Y107.574 E4.41864
G1 X109.379 Y106.582 E4.66657
G1 X105.582 Y110.379 E6.00875
G1 X104.591 Y110.379 E6.25668
G1 X109.379 Y105.591 E7.94948
G1 X109.379 Y104.599 E8.19741
G1 X103.599 Y110.379 E10.24084
G1 X102.607 Y110.379 E10.48876
G1 X109.379 Y103.607 E12.88281
G1 X109.379 Y102.616 E13.13074
G1 X101.616 Y110.379 E15.87542
G1 X100.624 Y110.379 E16.12334
G1 X109.379 Y101.624 E19.21864
G1 X109.379 Y100.632 E19.46657
G1 X99.632 Y110.379 E22.91249
G1 X98.640 Y110.379 E23.16042
G1 X109.379 Y99.640 E26.95697
G1 X109.379 Y98.649 E27.20490
G1 X97.649 Y110.379 E31.35207
G1 X96.657 Y110.379 E31.60000
G1 X109.379 Y97.657 E36.09779
G1 X109.379 Y96.665 E36.34572
G1 X95.665 Y110.379 E41.19414
G1 X94.674 Y110.379 E41.44207
G1 X109.379 Y95.674 E46.64111
G1 X109.379 Y94.682 E46.88904
G1 X93.682 Y110.379 E52.43871
G1 X92.690 Y110.379 E52.68664
G1 X109.379 Y93.690 E58.58693
G1 X109.379 Y92.698 E58.83486
G1 X91.698 Y110.379 E65.08577
G1 X90.707 Y110.379 E65.33370
G1 X109.379 Y91.707 E71.93524
G1 X109.379 Y90.715 E72.18317
G1 X90.621 Y109.472 E78.81493
G1 X90.621 Y108.481 E79.06286
G1 X109.379 Y89.723 E85.69462
G1 X108.489 Y89.621 E85.91849
G1 X90.621 Y107.489 E92.23571
G1 X90.621 Y106.497 E92.48363
G1 X107.497 Y89.621 E98.45022
G1 X106.506 Y89.621 E98.69815
G1 X90.621 Y105.506 E104.31412
G1 X90.621 Y104.514 E104.56204
G1 X105.514 Y89.621 E109.82738
G1 X104.522 Y89.621 E110.07531
G1 X90.621 Y103.522 E114.99003
G1 X90.621 Y102.530 E115.23796
G1 X103.530 Y89.621 E119.80205
G1 X102.539 Y89.621 E120.04998
G1 X90.621 Y101.539 E124.26345
G1 X90.621 Y100.547 E124.51137
G1 X101.547 Y89.621 E128.37422
G1 X100.555 Y89.621 E128.62215
G1 X90.621 Y99.555 E132.13437
G1 X90.621 Y98.564 E132.38230
G1 X99.564 Y89.621 E135.54389
G1 X98.572 Y89.621 E135.79182
G1 X90.621 Y97.572 E138.60279
G1 X90.621 Y96.580 E138.85072
G1 X97.580 Y89.621 E141.31107
G1 X96.588 Y89.621 E141.55899
G1 X90.621 Y95.588 E143.66872
G1 X90.621 Y94.597 E143.91665
G1 X95.597 Y89.621 E145.67574
G1 X94.605 Y89.621 E145.92367
G1 X90.621 Y93.605 E147.33215
G1 X90.621 Y92.613 E147.58008
G1 X93.613 Y89.621 E148.63793
G1 X92.622 Y89.621 E148.88585
G1 X90.621 Y91.622 E149.59308
G1 X90.621 Y90.630 E149.84101
G1 X91.630 Y89.621 E150.19761
G1 E148.19761 F2400.00000
G92 E0
M107
M104 S0 ; turn off temperature
G28 X0  ; home X axis
M84     ; disable motors

; filament used = 1253.0mm (1.0cm3)

; avoid_crossing_perimeters = 0
; bed_shape = 0x0,200x0,200x200,0x200
; bed_temperature = 0
; before_layer_gcode = 
; bridge_acceleration = 0
; bridge_fan_speed = 100
; brim_width = 0
; complete_objects = 0
; cooling = 1
; default_acceleration = 0
; disable_fan_first_layers = 3
; duplicate_distance = 6
; end_gcode = M104 S0 ; turn off temperature\nG28 X0  ; home X axis\nM84     ; disable motors\n
; extruder_clearance_height = 20
; extruder_clearance_radius = 20
; extruder_offset = 0x0
; extrusion_axis = E
; extrusion_multiplier = 1
; fan_always_on = 0
; fan_below_layer_time = 60
; filament_colour = #FFFFFF
; filament_diameter = 1
; first_layer_acceleration = 0
; first_layer_bed_temperature = 0
; first_layer_extrusion_width = 200%
; first_layer_speed = 30
; first_layer_temperature = 200
; gcode_arcs = 0
; gcode_comments = 0
; gcode_flavor = reprap
; infill_acceleration = 0
; infill_first = 0
; layer_gcode = 
; max_fan_speed = 100
; max_print_speed = 80
; max_volumetric_speed = 0
; min_fan_speed = 35
; min_print_speed = 10
; min_skirt_length = 0
; notes = 
; nozzle_diameter = 0.5
; only_retract_when_crossing_perimeters = 1
; ooze_prevention = 0
; output_filename_format = [input_filename_base].gcode
; perimeter_acceleration = 0
; post_process = 
; pressure_advance = 0
; resolution = 0
; retract_before_travel = 2
; retract_layer_change = 0
; retract_length = 2
; retract_length_toolchange = 10
; retract_lift = 0
; retract_restart_extra = 0
; retract_restart_extra_toolchange = 0
; retract_speed = 40
; skirt_distance = 6
; skirt_height = 1
; skirts = 0
; slowdown_below_layer_time = 5
; spiral_vase = 0
; standby_temperature_delta = -5
; start_gcode = G28 ; home all axes\nG1 Z5 F5000 ; lift nozzle\n
; temperature = 200
; threads = 2
; toolchange_gcode = 
; travel_speed = 130
; use_firmware_retraction = 0
; use_relative_e_distances = 0
; use_volumetric_e = 0
; vibration_limit = 0
; wipe = 0
; z_offset = 0
; dont_support_bridges = 1
; extrusion_width = 0
; first_layer_height = 0.4
; infill_only_where_needed = 0
; interface_shells = 0
; layer_height = 0.4
; raft_layers = 0
; seam_position = aligned
; support_material = 0
; support_material_angle = 0
; support_material_contact_distance = 0.2
; support_material_enforce_layers = 0
; support_material_extruder = 1
; support_material_extrusion_width = 0
; support_material_interface_extruder = 1
; support_material_interface_layers = 3
; support_material_interface_spacing = 0
; support_material_interface_speed = 100%
; support_material_pattern = pillars
; support_material_spacing = 2.5
; support_material_speed = 60
; support_material_threshold = 0
; xy_size_compensation = 0
; bottom_solid_layers = 0
; bridge_flow_ratio = 1
; bridge_speed = 60
; external_fill_pattern = rectilinear
; external_perimeter_extrusion_width = 0
; external_perimeter_speed = 50%
; external_perimeters_first = 0
; extra_perimeters = 1
; fill_angle = 45
; fill_density = 70%
; fill_pattern = rectilinear
; gap_fill_speed = 20
; infill_every_layers = 1
; infill_extruder = 1
; infill_extrusion_width = 0
; infill_overlap = 15%
; infill_speed = 80
; overhangs = 1
; perimeter_extruder = 1
; perimeter_extrusion_width = 0
; perimeter_speed = 60
; perimeters = 0
; small_perimeter_speed = 15
; solid_infill_below_area = 70
; solid_infill_every_layers = 0
; solid_infill_extruder = 1
; solid_infill_extrusion_width = 0
; solid_infill_speed = 20
; thin_walls = 1
; top_infill_extrusion_width = 0
; top_solid_infill_speed = 15
; top_solid_layers = 0
