; generated by Slic3r 1.2.9 on 2019-06-14 at 20:11:15

; external perimeters extrusion width = 0.50mm
; perimeters extrusion width = 0.52mm
; infill extrusion width = 0.52mm
; solid infill extrusion width = 0.52mm
; top infill extrusion width = 0.52mm

M107
M104 S200 ; set temperature
G28 ; home all axes
G1 Z5 F5000 ; lift nozzle

M109 S200 ; wait for temperature to be reached
G21 ; set units to millimeters
G90 ; use absolute coordinates
M82 ; use absolute distances for extrusion
G92 E0
G1 Z0.500 F7800.000
G1 E-2.00000 F2400.00000
G92 E0
G1 X89.887 Y110.400 F7800.000
G1 E2.00000 F2400.00000
G1 X89.600 Y110.113 E2.23082 F1800.000
G1 X89.600 Y108.636 E3.07009
G1 X91.364 Y110.400 E4.48783
G1 X92.841 Y110.400 E5.32710
G1 X89.600 Y107.159 E7.93174
G1 X89.600 Y105.682 E8.77102
G1 X94.318 Y110.400 E12.56257
G1 X95.795 Y110.400 E13.40185
G1 X89.600 Y104.205 E18.38032
G1 X89.600 Y102.729 E19.21959
G1 X97.271 Y110.400 E25.38498
G1 X98.748 Y110.400 E26.22425
G1 X89.600 Y101.252 E33.57654
G1 X89.600 Y99.775 E34.41582
G1 X100.225 Y110.400 E42.95503
G1 X101.702 Y110.400 E43.79430
G1 X89.600 Y98.298 E53.52042
G1 X89.600 Y96.821 E54.35969
G1 X103.179 Y110.400 E65.27273
G1 X104.655 Y110.400 E66.11200
G1 X89.600 Y95.345 E78.21194
G1 X89.600 Y93.868 E79.05122
G1 X106.132 Y110.400 E92.33808
G1 X107.609 Y110.400 E93.17735
G1 X89.600 Y92.391 E107.65112
G1 X89.600 Y90.914 E108.49039
G1 X109.086 Y110.400 E124.15108
G1 X110.400 Y110.237 E124.90359
G1 X89.763 Y89.600 E141.48964
G1 X91.240 Y89.600 E142.32892
G1 X110.400 Y108.760 E157.72806
G1 X110.400 Y107.283 E158.56734
G1 X92.717 Y89.600 E172.77957
G1 X94.193 Y89.600 E173.61884
G1 X110.400 Y105.807 E186.64416
G1 X110.400 Y104.330 E187.48344
G1 X95.670 Y89.600 E199.32184
G1 X97.147 Y89.600 E200.16112
G1 X110.400 Y102.853 E210.81261
G1 X110.400 Y101.376 E211.65189
G1 X98.624 Y89.600 E221.11647
G1 X100.100 Y89.600 E221.95575
G1 X110.400 Y99.900 E230.23342
G1 X110.400 Y98.423 E231.07269
G1 X101.577 Y89.600 E238.16345
G1 X103.054 Y89.600 E239.00272
G1 X110.400 Y96.946 E244.90657
G1 X110.400 Y95.469 E245.74584
G1 X104.531 Y89.600 E250.46277
G1 X106.008 Y89.600 E251.30205
G1 X110.400 Y93.992 E254.83207
G1 X110.400 Y92.516 E255.67134
G1 X107.484 Y89.600 E258.01445
G1 X108.961 Y89.600 E258.85372
G1 X110.400 Y91.039 E260.00992
G1 Z1.000 F7800.000
G1 X108.961 Y110.400 F7800.000
G1 X110.400 Y108.961 E260.55091 F4800.000
G1 X110.400 Y107.484 E260.94361
G1 X107.484 Y110.400 E262.03997
G1 X106.008 Y110.400 E262.43267
G1 X110.400 Y106.008 E264.08438
G1 X110.400 Y104.531 E264.47708
G1 X104.531 Y110.400 E266.68416
G1 X103.054 Y110.400 E267.07687
G1 X110.400 Y103.054 E269.83931
G1 X110.400 Y101.577 E270.23201
G1 X101.577 Y110.400 E273.54982
G1 X100.100 Y110.400 E273.94252
G1 X110.400 Y100.100 E277.81569
G1 X110.400 Y98.624 E278.20839
G1 X98.624 Y110.400 E282.63692
G1 X97.147 Y110.400 E283.02962
G1 X110.400 Y97.147 E288.01352
G1 X110.400 Y95.670 E288.40622
G1 X95.670 Y110.400 E293.94548
G1 X94.193 Y110.400 E294.33818
G1 X110.400 Y94.193 E300.43280
G1 X110.400 Y92.717 E300.82550
G1 X92.717 Y110.400 E307.47549
G1 X91.240 Y110.400 E307.86819
G1 X110.400 Y91.240 E315.07354
G1 X110.400 Y89.763 E315.46624
G1 X89.763 Y110.400 E323.22695
G1 X89.600 Y109.086 E323.57905
G1 X109.086 Y89.600 E330.90678
G1 X107.609 Y89.600 E331.29948
G1 X89.600 Y107.609 E338.07184
G1 X89.600 Y106.132 E338.46454
G1 X106.132 Y89.600 E344.68154
G1 X104.655 Y89.600 E345.07424
G1 X89.600 Y104.655 E350.73588
G1 X89.600 Y103.179 E351.12858
G1 X103.179 Y89.600 E356.23485
G1 X101.702 Y89.600 E356.62755
G1 X89.600 Y101.702 E361.17846
G1 X89.600 Y100.225 E361.57116
G1 X100.225 Y89.600 E365.56671
G1 X98.748 Y89.600 E365.95941
G1 X89.600 Y98.748 E369.39959
G1 X89.600 Y97.271 E369.79229
G1 X97.271 Y89.600 E372.67711
G1 X95.795 Y89.600 E373.06981
G1 X89.600 Y95.795 E375.39927
G1 X89.600 Y94.318 E375.79197
G1 X94.318 Y89.600 E377.56606
G1 X92.841 Y89.600 E377.95876
G1 X89.600 Y92.841 E379.17749
G1 X89.600 Y91.364 E379.57019
G1 X91.364 Y89.600 E380.23355
G1 X89.887 Y89.600 E380.62626
G1 X89.600 Y89.887 E380.73426
G1 Z1.500 F7800.000
G1 X89.887 Y110.400 F7800.000
G1 X89.600 Y110.113 E380.84226 F4800.000
G1 X89.600 Y108.636 E381.23496
G1 X91.364 Y110.400 E381.89833
G1 X92.841 Y110.400 E382.29103
G1 X89.600 Y107.159 E383.50976
G1 X89.600 Y105.682 E383.90246
G1 X94.318 Y110.400 E385.67655
G1 X95.795 Y110.400 E386.06925
G1 X89.600 Y104.205 E388.39870
G1 X89.600 Y102.729 E388.79140
G1 X97.271 Y110.400 E391.67622
G1 X98.748 Y110.400 E392.06892
G1 X89.600 Y101.252 E395.50910
G1 X89.600 Y99.775 E395.90181
G1 X100.225 Y110.400 E399.89735
G1 X101.702 Y110.400 E400.29005
G1 X89.600 Y98.298 E404.84096
G1 X89.600 Y96.821 E405.23366
G1 X103.179 Y110.400 E410.33993
G1 X104.655 Y110.400 E410.73263
G1 X89.600 Y95.345 E416.39427
G1 X89.600 Y93.868 E416.78697
G1 X106.132 Y110.400 E423.00397
G1 X107.609 Y110.400 E423.39667
G1 X89.600 Y92.391 E430.16903
G1 X89.600 Y90.914 E430.56173
G1 X109.086 Y110.400 E437.88945
G1 X110.400 Y110.237 E438.24156
G1 X89.763 Y89.600 E446.00227
G1 X91.240 Y89.600 E446.39497
G1 X110.400 Y108.760 E453.60032
G1 X110.400 Y107.283 E453.99302
G1 X92.717 Y89.600 E460.64300
G1 X94.193 Y89.600 E461.03571
G1 X110.400 Y105.807 E467.13033
G1 X110.400 Y104.330 E467.52303
G1 X95.670 Y89.600 E473.06229
G1 X97.147 Y89.600 E473.45499
G1 X110.400 Y102.853 E478.43889
G1 X110.400 Y101.376 E478.83159
G1 X98.624 Y89.600 E483.26012
G1 X100.100 Y89.600 E483.65282
G1 X110.400 Y99.900 E487.52599
G1 X110.400 Y98.423 E487.91869
G1 X101.577 Y89.600 E491.23650
G1 X103.054 Y89.600 E491.62920
G1 X110.400 Y96.946 E494.39164
G1 X110.400 Y95.469 E494.78434
G1 X104.531 Y89.600 E496.99143
G1 X106.008 Y89.600 E497.38413
G1 X110.400 Y93.992 E499.03584
G1 X110.400 Y92.516 E499.42854
G1 X107.484 Y89.600 E500.52490
G1 X108.961 Y89.600 E500.91760
G1 X110.400 Y91.039 E501.45859
M106 S252.45
G1 Z2.000 F7800.000
G1 X108.961 Y110.400 F7800.000
G1 X110.400 Y108.961 E501.99958 F4800.000
G1 X110.400 Y107.484 E502.39228
G1 X107.484 Y110.400 E503.48863
G1 X106.008 Y110.400 E503.88134
G1 X110.400 Y106.008 E505.53305
G1 X110.400 Y104.531 E505.92575
G1 X104.531 Y110.400 E508.13283
G1 X103.054 Y110.400 E508.52553
G1 X110.400 Y103.054 E511.28798
G1 X110.400 Y101.577 E511.68068
G1 X101.577 Y110.400 E514.99848
G1 X100.100 Y110.400 E515.39119
G1 X110.400 Y100.100 E519.26436
G1 X110.400 Y98.624 E519.65706
G1 X98.624 Y110.400 E524.08559
G1 X97.147 Y110.400 E524.47829
G1 X110.400 Y97.147 E529.46219
G1 X110.400 Y95.670 E529.85489
G1 X95.670 Y110.400 E535.39415
G1 X94.193 Y110.400 E535.78685
G1 X110.400 Y94.193 E541.88147
G1 X110.400 Y92.717 E542.27417
G1 X92.717 Y110.400 E548.92416
G1 X91.240 Y110.400 E549.31686
G1 X110.400 Y91.240 E556.52221
G1 X110.400 Y89.763 E556.91491
G1 X89.763 Y110.400 E564.67562
G1 X89.600 Y109.086 E565.02772
G1 X109.086 Y89.600 E572.35545
G1 X107.609 Y89.600 E572.74815
G1 X89.600 Y107.609 E579.52051
G1 X89.600 Y106.132 E579.91321
G1 X106.132 Y89.600 E586.13021
G1 X104.655 Y89.600 E586.52291
G1 X89.600 Y104.655 E592.18455
G1 X89.600 Y103.179 E592.57725
G1 X103.179 Y89.600 E597.68352
G1 X101.702 Y89.600 E598.07622
G1 X89.600 Y101.702 E602.62713
G1 X89.600 Y100.225 E603.01983
G1 X100.225 Y89.600 E607.01538
G1 X98.748 Y89.600 E607.40808
G1 X89.600 Y98.748 E610.84826
G1 X89.600 Y97.271 E611.24096
G1 X97.271 Y89.600 E614.12578
G1 X95.795 Y89.600 E614.51848
G1 X89.600 Y95.795 E616.84793
G1 X89.600 Y94.318 E617.24064
G1 X94.318 Y89.600 E619.01473
G1 X92.841 Y89.600 E619.40743
G1 X89.600 Y92.841 E620.62616
G1 X89.600 Y91.364 E621.01886
G1 X91.364 Y89.600 E621.68222
G1 X89.887 Y89.600 E622.07492
G1 X89.600 Y89.887 E622.18293
G1 Z2.500 F7800.000
G1 X89.887 Y110.400 F7800.000
G1 X89.600 Y110.113 E622.29093 F4800.000
G1 X89.600 Y108.636 E622.68363
G1 X91.364 Y110.400 E623.34699
G1 X92.841 Y110.400 E623.73970
G1 X89.600 Y107.159 E624.95842
G1 X89.600 Y105.682 E625.35112
G1 X94.318 Y110.400 E627.12522
G1 X95.795 Y110.400 E627.51792
G1 X89.600 Y104.205 E629.84737
G1 X89.600 Y102.729 E630.24007
G1 X97.271 Y110.400 E633.12489
G1 X98.748 Y110.400 E633.51759
G1 X89.600 Y101.252 E636.95777
G1 X89.600 Y99.775 E637.35047
G1 X100.225 Y110.400 E641.34602
G1 X101.702 Y110.400 E641.73872
G1 X89.600 Y98.298 E646.28963
G1 X89.600 Y96.821 E646.68233
G1 X103.179 Y110.400 E651.78860
G1 X104.655 Y110.400 E652.18130
G1 X89.600 Y95.345 E657.84294
G1 X89.600 Y93.868 E658.23564
G1 X106.132 Y110.400 E664.45263
G1 X107.609 Y110.400 E664.84534
G1 X89.600 Y92.391 E671.61770
G1 X89.600 Y90.914 E672.01040
G1 X109.086 Y110.400 E679.33812
G1 X110.400 Y110.237 E679.69022
G1 X89.763 Y89.600 E687.45094
G1 X91.240 Y89.600 E687.84364
G1 X110.400 Y108.760 E695.04899
G1 X110.400 Y107.283 E695.44169
G1 X92.717 Y89.600 E702.09167
G1 X94.193 Y89.600 E702.48437
G1 X110.400 Y105.807 E708.57900
G1 X110.400 Y104.330 E708.97170
G1 X95.670 Y89.600 E714.51096
G1 X97.147 Y89.600 E714.90366
G1 X110.400 Y102.853 E719.88756
G1 X110.400 Y101.376 E720.28026
G1 X98.624 Y89.600 E724.70879
G1 X100.100 Y89.600 E725.10149
G1 X110.400 Y99.900 E728.97466
G1 X110.400 Y98.423 E729.36736
G1 X101.577 Y89.600 E732.68517
G1 X103.054 Y89.600 E733.07787
G1 X110.400 Y96.946 E735.84031
G1 X110.400 Y95.469 E736.23301
G1 X104.531 Y89.600 E738.44009
G1 X106.008 Y89.600 E738.83280
G1 X110.400 Y93.992 E740.48451
G1 X110.400 Y92.516 E740.87721
G1 X107.484 Y89.600 E741.97357
G1 X108.961 Y89.600 E742.36627
G1 X110.400 Y91.039 E742.90726
G1 Z3.000 F7800.000
G1 X108.961 Y110.400 F7800.000
G1 X110.400 Y108.961 E743.44825 F4800.000
G1 X110.400 Y107.484 E743.84095
G1 X107.484 Y110.400 E744.93730
G1 X106.008 Y110.400 E745.33001
G1 X110.400 Y106.008 E746.98172
G1 X110.400 Y104.531 E747.37442
G1 X104.531 Y110.400 E749.58150
G1 X103.054 Y110.400 E749.97420
G1 X110.400 Y103.054 E752.73665
G1 X110.400 Y101.577 E753.12935
G1 X101.577 Y110.400 E756.44715
G1 X100.100 Y110.400 E756.83986
G1 X110.400 Y100.100 E760.71302
G1 X110.400 Y98.624 E761.10573
G1 X98.624 Y110.400 E765.53426
G1 X97.147 Y110.400 E765.92696
G1 X110.400 Y97.147 E770.91086
G1 X110.400 Y95.670 E771.30356
G1 X95.670 Y110.400 E776.84282
G1 X94.193 Y110.400 E777.23552
G1 X110.400 Y94.193 E783.33014
G1 X110.400 Y92.717 E783.72284
G1 X92.717 Y110.400 E790.37283
G1 X91.240 Y110.400 E790.76553
G1 X110.400 Y91.240 E797.97088
G1 X110.400 Y89.763 E798.36358
G1 X89.763 Y110.400 E806.12429
G1 X89.600 Y109.086 E806.47639
G1 X109.086 Y89.600 E813.80412
G1 X107.609 Y89.600 E814.19682
G1 X89.600 Y107.609 E820.96918
G1 X89.600 Y106.132 E821.36188
G1 X106.132 Y89.600 E827.57888
G1 X104.655 Y89.600 E827.97158
G1 X89.600 Y104.655 E833.63322
G1 X89.600 Y103.179 E834.02592
G1 X103.179 Y89.600 E839.13219
G1 X101.702 Y89.600 E839.52489
G1 X89.600 Y101.702 E844.07580
G1 X89.600 Y100.225 E844.46850
G1 X100.225 Y89.600 E848.46404
G1 X98.748 Y89.600 E848.85675
G1 X89.600 Y98.748 E852.29693
G1 X89.600 Y97.271 E852.68963
G1 X97.271 Y89.600 E855.57445
G1 X95.795 Y89.600 E855.96715
G1 X89.600 Y95.795 E858.29660
G1 X89.600 Y94.318 E858.68931
G1 X94.318 Y89.600 E860.46340
G1 X92.841 Y89.600 E860.85610
G1 X89.600 Y92.841 E862.07483
G1 X89.600 Y91.364 E862.46753
G1 X91.364 Y89.600 E863.13089
G1 X89.887 Y89.600 E863.52359
G1 X89.600 Y89.887 E863.63160
G1 Z3.500 F7800.000
G1 X89.887 Y110.400 F7800.000
G1 X89.600 Y110.113 E863.73960 F4800.000
G1 X89.600 Y108.636 E864.13230
G1 X91.364 Y110.400 E864.79566
G1 X92.841 Y110.400 E865.18836
G1 X89.600 Y107.159 E866.40709
G1 X89.600 Y105.682 E866.79979
G1 X94.318 Y110.400 E868.57389
G1 X95.795 Y110.400 E868.96659
G1 X89.600 Y104.205 E871.29604
G1 X89.600 Y102.729 E871.68874
G1 X97.271 Y110.400 E874.57356
G1 X98.748 Y110.400 E874.96626
G1 X89.600 Y101.252 E878.40644
G1 X89.600 Y99.775 E878.79914
G1 X100.225 Y110.400 E882.79469
G1 X101.702 Y110.400 E883.18739
G1 X89.600 Y98.298 E887.73830
G1 X89.600 Y96.821 E888.13100
G1 X103.179 Y110.400 E893.23727
G1 X104.655 Y110.400 E893.62997
G1 X89.600 Y95.345 E899.29160
G1 X89.600 Y93.868 E899.68431
G1 X106.132 Y110.400 E905.90130
G1 X107.609 Y110.400 E906.29400
G1 X89.600 Y92.391 E913.06636
G1 X89.600 Y90.914 E913.45907
G1 X109.086 Y110.400 E920.78679
G1 X110.400 Y110.237 E921.13889
G1 X89.763 Y89.600 E928.89961
G1 X91.240 Y89.600 E929.29231
G1 X110.400 Y108.760 E936.49766
G1 X110.400 Y107.283 E936.89036
G1 X92.717 Y89.600 E943.54034
G1 X94.193 Y89.600 E943.93304
G1 X110.400 Y105.807 E950.02767
G1 X110.400 Y104.330 E950.42037
G1 X95.670 Y89.600 E955.95963
G1 X97.147 Y89.600 E956.35233
G1 X110.400 Y102.853 E961.33622
G1 X110.400 Y101.376 E961.72893
G1 X98.624 Y89.600 E966.15746
G1 X100.100 Y89.600 E966.55016
G1 X110.400 Y99.900 E970.42333
G1 X110.400 Y98.423 E970.81603
G1 X101.577 Y89.600 E974.13384
G1 X103.054 Y89.600 E974.52654
G1 X110.400 Y96.946 E977.28898
G1 X110.400 Y95.469 E977.68168
G1 X104.531 Y89.600 E979.88876
G1 X106.008 Y89.600 E980.28146
G1 X110.400 Y93.992 E981.93318
G1 X110.400 Y92.516 E982.32588
G1 X107.484 Y89.600 E983.42224
G1 X108.961 Y89.600 E983.81494
G1 X110.400 Y91.039 E984.35593
G1 Z4.000 F7800.000
G1 X108.961 Y110.400 F7800.000
G1 X110.400 Y108.961 E984.89692 F4800.000
G1 X110.400 Y107.484 E985.28962
G1 X107.484 Y110.400 E986.38597
G1 X106.008 Y110.400 E986.77867
G1 X110.400 Y106.008 E988.43039
G1 X110.400 Y104.531 E988.82309
G1 X104.531 Y110.400 E991.03017
G1 X103.054 Y110.400 E991.42287
G1 X110.400 Y103.054 E994.18532
G1 X110.400 Y101.577 E994.57802
G1 X101.577 Y110.400 E997.89582
G1 X100.100 Y110.400 E998.28852
G1 X110.400 Y100.100 E1002.16169
G1 X110.400 Y98.624 E1002.55439
G1 X98.624 Y110.400 E1006.98293
G1 X97.147 Y110.400 E1007.37563
G1 X110.400 Y97.147 E1012.35952
G1 X110.400 Y95.670 E1012.75223
G1 X95.670 Y110.400 E1018.29149
G1 X94.193 Y110.400 E1018.68419
G1 X110.400 Y94.193 E1024.77881
G1 X110.400 Y92.717 E1025.17151
G1 X92.717 Y110.400 E1031.82150
G1 X91.240 Y110.400 E1032.21420
G1 X110.400 Y91.240 E1039.41955
G1 X110.400 Y89.763 E1039.81225
G1 X89.763 Y110.400 E1047.57296
G1 X89.600 Y109.086 E1047.92506
G1 X109.086 Y89.600 E1055.25279
G1 X107.609 Y89.600 E1055.64549
G1 X89.600 Y107.609 E1062.41785
G1 X89.600 Y106.132 E1062.81055
G1 X106.132 Y89.600 E1069.02755
G1 X104.655 Y89.600 E1069.42025
G1 X89.600 Y104.655 E1075.08188
G1 X89.600 Y103.179 E1075.47459
G1 X103.179 Y89.600 E1080.58086
G1 X101.702 Y89.600 E1080.97356
G1 X89.600 Y101.702 E1085.52447
G1 X89.600 Y100.225 E1085.91717
G1 X100.225 Y89.600 E1089.91271
G1 X98.748 Y89.600 E1090.30542
G1 X89.600 Y98.748 E1093.74560
G1 X89.600 Y97.271 E1094.13830
G1 X97.271 Y89.600 E1097.02312
G1 X95.795 Y89.600 E1097.41582
G1 X89.600 Y95.795 E1099.74527
G1 X89.600 Y94.318 E1100.13797
G1 X94.318 Y89.600 E1101.91207
G1 X92.841 Y89.600 E1102.30477
G1 X89.600 Y92.841 E1103.52350
G1 X89.600 Y91.364 E1103.91620
G1 X91.364 Y89.600 E1104.57956
G1 X89.887 Y89.600 E1104.97226
G1 X89.600 Y89.887 E1105.08026
G1 Z4.500 F7800.000
G1 E1103.08026 F2400.00000
G92 E0
G1 X89.887 Y110.400 F7800.000
G1 E2.00000 F2400.00000
G1 X89.600 Y110.113 E2.10800 F4800.000
G1 X89.600 Y108.636 E2.50070
G1 X91.364 Y110.400 E3.16407
G1 X92.841 Y110.400 E3.55677
G1 X89.600 Y107.159 E4.77550
G1 X89.600 Y105.682 E5.16820
G1 X94.318 Y110.400 E6.94229
G1 X95.795 Y110.400 E7.33499
G1 X89.600 Y104.205 E9.66445
G1 X89.600 Y102.729 E10.05715
G1 X97.271 Y110.400 E12.94197
G1 X98.748 Y110.400 E13.33467
G1 X89.600 Y101.252 E16.77485
G1 X89.600 Y99.775 E17.16755
G1 X100.225 Y110.400 E21.16309
G1 X101.702 Y110.400 E21.55579
G1 X89.600 Y98.298 E26.10670
G1 X89.600 Y96.821 E26.49940
G1 X103.179 Y110.400 E31.60567
G1 X104.655 Y110.400 E31.99837
G1 X89.600 Y95.345 E37.66001
G1 X89.600 Y93.868 E38.05271
G1 X106.132 Y110.400 E44.26971
G1 X107.609 Y110.400 E44.66241
G1 X89.600 Y92.391 E51.43477
G1 X89.600 Y90.914 E51.82747
G1 X109.086 Y110.400 E59.15519
G1 X110.400 Y110.237 E59.50730
G1 X89.763 Y89.600 E67.26801
G1 X91.240 Y89.600 E67.66071
G1 X110.400 Y108.760 E74.86606
G1 X110.400 Y107.283 E75.25876
G1 X92.717 Y89.600 E81.90875
G1 X94.193 Y89.600 E82.30145
G1 X110.400 Y105.807 E88.39607
G1 X110.400 Y104.330 E88.78877
G1 X95.670 Y89.600 E94.32803
G1 X97.147 Y89.600 E94.72073
G1 X110.400 Y102.853 E99.70463
G1 X110.400 Y101.376 E100.09733
G1 X98.624 Y89.600 E104.52586
G1 X100.100 Y89.600 E104.91856
G1 X110.400 Y99.900 E108.79173
G1 X110.400 Y98.423 E109.18444
G1 X101.577 Y89.600 E112.50224
G1 X103.054 Y89.600 E112.89494
G1 X110.400 Y96.946 E115.65739
G1 X110.400 Y95.469 E116.05009
G1 X104.531 Y89.600 E118.25717
G1 X106.008 Y89.600 E118.64987
G1 X110.400 Y93.992 E120.30159
G1 X110.400 Y92.516 E120.69429
G1 X107.484 Y89.600 E121.79064
G1 X108.961 Y89.600 E122.18334
G1 X110.400 Y91.039 E122.72433
G1 E120.72433 F2400.00000
G92 E0
M107
M104 S0 ; turn off temperature
G28 X0  ; home X axis
M84     ; disable motors

; filament used = 1223.8mm (1.0cm3)

; avoid_crossing_perimeters = 0
; bed_shape = 0x0,200x0,200x200,0x200
; bed_temperature = 0
; before_layer_gcode = 
; bridge_acceleration = 0
; bridge_fan_speed = 100
; brim_width = 0
; complete_objects = 0
; cooling = 1
; default_acceleration = 0
; disable_fan_first_layers = 3
; duplicate_distance = 6
; end_gcode = M104 S0 ; turn off temperature\nG28 X0  ; home X axis\nM84     ; disable motors\n
; extruder_clearance_height = 20
; extruder_clearance_radius = 20
; extruder_offset = 0x0
; extrusion_axis = E
; extrusion_multiplier = 1
; fan_always_on = 0
; fan_below_layer_time = 60
; filament_colour = #FFFFFF
; filament_diameter = 1
; first_layer_acceleration = 0
; first_layer_bed_temperature = 0
; first_layer_extrusion_width = 200%
; first_layer_speed = 30
; first_layer_temperature = 200
; gcode_arcs = 0
; gcode_comments = 0
; gcode_flavor = reprap
; infill_acceleration = 0
; infill_first = 0
; layer_gcode = 
; max_fan_speed = 100
; max_print_speed = 80
; max_volumetric_speed = 0
; min_fan_speed = 35
; min_print_speed = 10
; min_skirt_length = 0
; notes = 
; nozzle_diameter = 0.5
; only_retract_when_crossing_perimeters = 1
; ooze_prevention = 0
; output_filename_format = [input_filename_base].gcode
; perimeter_acceleration = 0
; post_process = 
; pressure_advance = 0
; resolution = 0
; retract_before_travel = 2
; retract_layer_change = 0
; retract_length = 2
; retract_length_toolchange = 10
; retract_lift = 0
; retract_restart_extra = 0
; retract_restart_extra_toolchange = 0
; retract_speed = 40
; skirt_distance = 6
; skirt_height = 1
; skirts = 0
; slowdown_below_layer_time = 5
; spiral_vase = 0
; standby_temperature_delta = -5
; start_gcode = G28 ; home all axes\nG1 Z5 F5000 ; lift nozzle\n
; temperature = 200
; threads = 2
; toolchange_gcode = 
; travel_speed = 130
; use_firmware_retraction = 0
; use_relative_e_distances = 0
; use_volumetric_e = 0
; vibration_limit = 0
; wipe = 0
; z_offset = 0
; dont_support_bridges = 1
; extrusion_width = 0
; first_layer_height = 0.5
; infill_only_where_needed = 0
; interface_shells = 0
; layer_height = 0.5
; raft_layers = 0
; seam_position = aligned
; support_material = 0
; support_material_angle = 0
; support_material_contact_distance = 0.2
; support_material_enforce_layers = 0
; support_material_extruder = 1
; support_material_extrusion_width = 0
; support_material_interface_extruder = 1
; support_material_interface_layers = 3
; support_material_interface_spacing = 0
; support_material_interface_speed = 100%
; support_material_pattern = pillars
; support_material_spacing = 2.5
; support_material_speed = 60
; support_material_threshold = 0
; xy_size_compensation = 0
; bottom_solid_layers = 0
; bridge_flow_ratio = 1
; bridge_speed = 60
; external_fill_pattern = rectilinear
; external_perimeter_extrusion_width = 0
; external_perimeter_speed = 50%
; external_perimeters_first = 0
; extra_perimeters = 1
; fill_angle = 45
; fill_density = 40%
; fill_pattern = rectilinear
; gap_fill_speed = 20
; infill_every_layers = 1
; infill_extruder = 1
; infill_extrusion_width = 0
; infill_overlap = 15%
; infill_speed = 80
; overhangs = 1
; perimeter_extruder = 1
; perimeter_extrusion_width = 0
; perimeter_speed = 60
; perimeters = 0
; small_perimeter_speed = 15
; solid_infill_below_area = 70
; solid_infill_every_layers = 0
; solid_infill_extruder = 1
; solid_infill_extrusion_width = 0
; solid_infill_speed = 20
; thin_walls = 1
; top_infill_extrusion_width = 0
; top_solid_infill_speed = 15
; top_solid_layers = 0
