; generated by Slic3r 1.2.9 on 2019-06-14 at 18:42:12

; external perimeters extrusion width = 0.50mm
; perimeters extrusion width = 0.52mm
; infill extrusion width = 0.52mm
; solid infill extrusion width = 0.52mm
; top infill extrusion width = 0.52mm

M107
M104 S200 ; set temperature
G28 ; home all axes
G1 Z5 F5000 ; lift nozzle

M109 S200 ; wait for temperature to be reached
G21 ; set units to millimeters
G90 ; use absolute coordinates
M82 ; use absolute distances for extrusion
G92 E0
G1 Z0.500 F7800.000
G1 E-2.00000 F2400.00000
G92 E0
G1 X108.210 Y90.759 F7800.000
G1 E2.00000 F2400.00000
G1 X108.210 Y91.502 E2.18573 F1800.000
G1 X108.395 Y91.687 E2.25113
G1 X108.395 Y92.546 E2.46595
G1 X108.210 Y92.731 E2.53135
G1 X108.210 Y93.590 E2.74616
G1 X108.395 Y93.775 E2.81157
G1 X108.395 Y94.635 E3.02638
G1 X108.210 Y94.819 E3.09178
G1 X108.210 Y95.679 E3.30660
G1 X108.395 Y95.864 E3.37200
G1 X108.395 Y96.723 E3.58682
G1 X108.210 Y96.908 E3.65222
G1 X108.210 Y97.767 E3.86703
G1 X108.395 Y97.952 E3.93244
G1 X108.395 Y98.811 E4.14725
G1 X108.210 Y98.996 E4.21265
G1 X108.210 Y99.856 E4.42747
G1 X108.395 Y100.041 E4.49287
G1 X108.395 Y100.900 E4.70769
G1 X108.210 Y101.085 E4.77309
G1 X108.210 Y101.944 E4.98790
G1 X108.395 Y102.129 E5.05331
G1 X108.395 Y102.988 E5.26812
G1 X108.210 Y103.173 E5.33352
G1 X108.210 Y104.033 E5.54834
G1 X108.395 Y104.218 E5.61374
G1 X108.395 Y105.077 E5.82856
G1 X108.210 Y105.262 E5.89396
G1 X108.210 Y106.121 E6.10877
G1 X108.395 Y106.306 E6.17418
G1 X108.395 Y107.165 E6.38899
G1 X108.210 Y107.350 E6.45439
G1 X108.210 Y108.210 E6.66921
G1 X108.395 Y108.395 E6.73461
G1 X108.395 Y109.241 E6.94623
G1 X107.165 Y109.241 E7.25353
G1 X107.165 Y108.395 E7.46515
G1 X107.350 Y108.210 E7.53055
G1 X107.350 Y107.350 E7.74537
G1 X107.165 Y107.165 E7.81077
G1 X107.165 Y106.306 E8.02558
G1 X107.350 Y106.121 E8.09098
G1 X107.350 Y105.262 E8.30580
G1 X107.165 Y105.077 E8.37120
G1 X107.165 Y104.218 E8.58602
G1 X107.350 Y104.033 E8.65142
G1 X107.350 Y103.173 E8.86624
G1 X107.165 Y102.988 E8.93164
G1 X107.165 Y102.129 E9.14645
G1 X107.350 Y101.944 E9.21185
G1 X107.350 Y101.085 E9.42667
G1 X107.165 Y100.900 E9.49207
G1 X107.165 Y100.041 E9.70689
G1 X107.350 Y99.856 E9.77229
G1 X107.350 Y98.996 E9.98711
G1 X107.165 Y98.811 E10.05251
G1 X107.165 Y97.952 E10.26732
G1 X107.350 Y97.767 E10.33272
G1 X107.350 Y96.908 E10.54754
G1 X107.165 Y96.723 E10.61294
G1 X107.165 Y95.864 E10.82776
G1 X107.350 Y95.679 E10.89316
G1 X107.350 Y94.819 E11.10798
G1 X107.165 Y94.635 E11.17338
G1 X107.165 Y93.775 E11.38819
G1 X107.350 Y93.590 E11.45359
G1 X107.350 Y92.731 E11.66841
G1 X107.165 Y92.546 E11.73381
G1 X107.165 Y91.687 E11.94863
G1 X107.350 Y91.502 E12.01403
G1 X107.350 Y90.759 E12.19976
G1 X106.121 Y90.759 E12.50707
G1 X106.121 Y91.502 E12.69280
G1 X106.306 Y91.687 E12.75820
G1 X106.306 Y92.546 E12.97301
G1 X106.121 Y92.731 E13.03842
G1 X106.121 Y93.590 E13.25323
G1 X106.306 Y93.775 E13.31863
G1 X106.306 Y94.635 E13.53345
G1 X106.121 Y94.819 E13.59885
G1 X106.121 Y95.679 E13.81367
G1 X106.306 Y95.864 E13.87907
G1 X106.306 Y96.723 E14.09388
G1 X106.121 Y96.908 E14.15929
G1 X106.121 Y97.767 E14.37410
G1 X106.306 Y97.952 E14.43950
G1 X106.306 Y98.811 E14.65432
G1 X106.121 Y98.996 E14.71972
G1 X106.121 Y99.856 E14.93454
G1 X106.306 Y100.041 E14.99994
G1 X106.306 Y100.900 E15.21475
G1 X106.121 Y101.085 E15.28016
G1 X106.121 Y101.944 E15.49497
G1 X106.306 Y102.129 E15.56037
G1 X106.306 Y102.988 E15.77519
G1 X106.121 Y103.173 E15.84059
G1 X106.121 Y104.033 E16.05541
G1 X106.306 Y104.218 E16.12081
G1 X106.306 Y105.077 E16.33562
G1 X106.121 Y105.262 E16.40103
G1 X106.121 Y106.121 E16.61584
G1 X106.306 Y106.306 E16.68124
G1 X106.306 Y107.165 E16.89606
G1 X106.121 Y107.350 E16.96146
G1 X106.121 Y108.210 E17.17628
G1 X106.306 Y108.395 E17.24168
G1 X106.306 Y109.241 E17.45329
G1 X105.077 Y109.241 E17.76060
G1 X105.077 Y108.395 E17.97221
G1 X105.262 Y108.210 E18.03762
G1 X105.262 Y107.350 E18.25243
G1 X105.077 Y107.165 E18.31783
G1 X105.077 Y106.306 E18.53265
G1 X105.262 Y106.121 E18.59805
G1 X105.262 Y105.262 E18.81287
G1 X105.077 Y105.077 E18.87827
G1 X105.077 Y104.218 E19.09309
G1 X105.262 Y104.033 E19.15849
G1 X105.262 Y103.173 E19.37330
G1 X105.077 Y102.988 E19.43870
G1 X105.077 Y102.129 E19.65352
G1 X105.262 Y101.944 E19.71892
G1 X105.262 Y101.085 E19.93374
G1 X105.077 Y100.900 E19.99914
G1 X105.077 Y100.041 E20.21396
G1 X105.262 Y99.856 E20.27936
G1 X105.262 Y98.996 E20.49417
G1 X105.077 Y98.811 E20.55957
G1 X105.077 Y97.952 E20.77439
G1 X105.262 Y97.767 E20.83979
G1 X105.262 Y96.908 E21.05461
G1 X105.077 Y96.723 E21.12001
G1 X105.077 Y95.864 E21.33483
G1 X105.262 Y95.679 E21.40023
G1 X105.262 Y94.819 E21.61504
G1 X105.077 Y94.635 E21.68044
G1 X105.077 Y93.775 E21.89526
G1 X105.262 Y93.590 E21.96066
G1 X105.262 Y92.731 E22.17548
G1 X105.077 Y92.546 E22.24088
G1 X105.077 Y91.687 E22.45570
G1 X105.262 Y91.502 E22.52110
G1 X105.262 Y90.759 E22.70683
G1 X104.033 Y90.759 E23.01413
G1 X104.033 Y91.502 E23.19986
G1 X104.218 Y91.687 E23.26526
G1 X104.218 Y92.546 E23.48008
G1 X104.033 Y92.731 E23.54548
G1 X104.033 Y93.590 E23.76030
G1 X104.218 Y93.775 E23.82570
G1 X104.218 Y94.635 E24.04052
G1 X104.033 Y94.819 E24.10592
G1 X104.033 Y95.679 E24.32073
G1 X104.218 Y95.864 E24.38613
G1 X104.218 Y96.723 E24.60095
G1 X104.033 Y96.908 E24.66635
G1 X104.033 Y97.767 E24.88117
G1 X104.218 Y97.952 E24.94657
G1 X104.218 Y98.811 E25.16139
G1 X104.033 Y98.996 E25.22679
G1 X104.033 Y99.856 E25.44160
G1 X104.218 Y100.041 E25.50701
G1 X104.218 Y100.900 E25.72182
G1 X104.033 Y101.085 E25.78722
G1 X104.033 Y101.944 E26.00204
G1 X104.218 Y102.129 E26.06744
G1 X104.218 Y102.988 E26.28226
G1 X104.033 Y103.173 E26.34766
G1 X104.033 Y104.033 E26.56247
G1 X104.218 Y104.218 E26.62788
G1 X104.218 Y105.077 E26.84269
G1 X104.033 Y105.262 E26.90809
G1 X104.033 Y106.121 E27.12291
G1 X104.218 Y106.306 E27.18831
G1 X104.218 Y107.165 E27.40313
G1 X104.033 Y107.350 E27.46853
G1 X104.033 Y108.210 E27.68334
G1 X104.218 Y108.395 E27.74875
G1 X104.218 Y109.241 E27.96036
G1 X102.988 Y109.241 E28.26767
G1 X102.988 Y108.395 E28.47928
G1 X103.173 Y108.210 E28.54468
G1 X103.173 Y107.350 E28.75950
G1 X102.988 Y107.165 E28.82490
G1 X102.988 Y106.306 E29.03972
G1 X103.173 Y106.121 E29.10512
G1 X103.173 Y105.262 E29.31993
G1 X102.988 Y105.077 E29.38534
G1 X102.988 Y104.218 E29.60015
G1 X103.173 Y104.033 E29.66555
G1 X103.173 Y103.173 E29.88037
G1 X102.988 Y102.988 E29.94577
G1 X102.988 Y102.129 E30.16059
G1 X103.173 Y101.944 E30.22599
G1 X103.173 Y101.085 E30.44080
G1 X102.988 Y100.900 E30.50621
G1 X102.988 Y100.041 E30.72102
G1 X103.173 Y99.856 E30.78642
G1 X103.173 Y98.996 E31.00124
G1 X102.988 Y98.811 E31.06664
G1 X102.988 Y97.952 E31.28146
G1 X103.173 Y97.767 E31.34686
G1 X103.173 Y96.908 E31.56167
G1 X102.988 Y96.723 E31.62708
G1 X102.988 Y95.864 E31.84189
G1 X103.173 Y95.679 E31.90729
G1 X103.173 Y94.819 E32.12211
G1 X102.988 Y94.635 E32.18751
G1 X102.988 Y93.775 E32.40233
G1 X103.173 Y93.590 E32.46773
G1 X103.173 Y92.731 E32.68254
G1 X102.988 Y92.546 E32.74795
G1 X102.988 Y91.687 E32.96276
G1 X103.173 Y91.502 E33.02816
G1 X103.173 Y90.759 E33.21389
G1 X101.944 Y90.759 E33.52120
G1 X101.944 Y91.502 E33.70693
G1 X102.129 Y91.687 E33.77233
G1 X102.129 Y92.546 E33.98715
G1 X101.944 Y92.731 E34.05255
G1 X101.944 Y93.590 E34.26737
G1 X102.129 Y93.775 E34.33277
G1 X102.129 Y94.635 E34.54758
G1 X101.944 Y94.819 E34.61298
G1 X101.944 Y95.679 E34.82780
G1 X102.129 Y95.864 E34.89320
G1 X102.129 Y96.723 E35.10802
G1 X101.944 Y96.908 E35.17342
G1 X101.944 Y97.767 E35.38824
G1 X102.129 Y97.952 E35.45364
G1 X102.129 Y98.811 E35.66845
G1 X101.944 Y98.996 E35.73385
G1 X101.944 Y99.856 E35.94867
G1 X102.129 Y100.041 E36.01407
G1 X102.129 Y100.900 E36.22889
G1 X101.944 Y101.085 E36.29429
G1 X101.944 Y101.944 E36.50911
G1 X102.129 Y102.129 E36.57451
G1 X102.129 Y102.988 E36.78932
G1 X101.944 Y103.173 E36.85472
G1 X101.944 Y104.033 E37.06954
G1 X102.129 Y104.218 E37.13494
G1 X102.129 Y105.077 E37.34976
G1 X101.944 Y105.262 E37.41516
G1 X101.944 Y106.121 E37.62998
G1 X102.129 Y106.306 E37.69538
G1 X102.129 Y107.165 E37.91019
G1 X101.944 Y107.350 E37.97559
G1 X101.944 Y108.210 E38.19041
G1 X102.129 Y108.395 E38.25581
G1 X102.129 Y109.241 E38.46743
G1 X100.900 Y109.241 E38.77473
G1 X100.900 Y108.395 E38.98635
G1 X101.085 Y108.210 E39.05175
G1 X101.085 Y107.350 E39.26657
G1 X100.900 Y107.165 E39.33197
G1 X100.900 Y106.306 E39.54678
G1 X101.085 Y106.121 E39.61219
G1 X101.085 Y105.262 E39.82700
G1 X100.900 Y105.077 E39.89240
G1 X100.900 Y104.218 E40.10722
G1 X101.085 Y104.033 E40.17262
G1 X101.085 Y103.173 E40.38744
G1 X100.900 Y102.988 E40.45284
G1 X100.900 Y102.129 E40.66765
G1 X101.085 Y101.944 E40.73306
G1 X101.085 Y101.085 E40.94787
G1 X100.900 Y100.900 E41.01327
G1 X100.900 Y100.041 E41.22809
G1 X101.085 Y99.856 E41.29349
G1 X101.085 Y98.996 E41.50831
G1 X100.900 Y98.811 E41.57371
G1 X100.900 Y97.952 E41.78852
G1 X101.085 Y97.767 E41.85393
G1 X101.085 Y96.908 E42.06874
G1 X100.900 Y96.723 E42.13414
G1 X100.900 Y95.864 E42.34896
G1 X101.085 Y95.679 E42.41436
G1 X101.085 Y94.819 E42.62918
G1 X100.900 Y94.635 E42.69458
G1 X100.900 Y93.775 E42.90939
G1 X101.085 Y93.590 E42.97480
G1 X101.085 Y92.731 E43.18961
G1 X100.900 Y92.546 E43.25501
G1 X100.900 Y91.687 E43.46983
G1 X101.085 Y91.502 E43.53523
G1 X101.085 Y90.759 E43.72096
G1 X99.856 Y90.759 E44.02827
G1 X99.856 Y91.502 E44.21400
G1 X100.041 Y91.687 E44.27940
G1 X100.041 Y92.546 E44.49421
G1 X99.856 Y92.731 E44.55962
G1 X99.856 Y93.590 E44.77443
G1 X100.041 Y93.775 E44.83983
G1 X100.041 Y94.635 E45.05465
G1 X99.856 Y94.819 E45.12005
G1 X99.856 Y95.679 E45.33487
G1 X100.041 Y95.864 E45.40027
G1 X100.041 Y96.723 E45.61508
G1 X99.856 Y96.908 E45.68049
G1 X99.856 Y97.767 E45.89530
G1 X100.041 Y97.952 E45.96070
G1 X100.041 Y98.811 E46.17552
G1 X99.856 Y98.996 E46.24092
G1 X99.856 Y99.856 E46.45574
G1 X100.041 Y100.041 E46.52114
G1 X100.041 Y100.900 E46.73595
G1 X99.856 Y101.085 E46.80136
G1 X99.856 Y101.944 E47.01617
G1 X100.041 Y102.129 E47.08157
G1 X100.041 Y102.988 E47.29639
G1 X99.856 Y103.173 E47.36179
G1 X99.856 Y104.033 E47.57661
G1 X100.041 Y104.218 E47.64201
G1 X100.041 Y105.077 E47.85683
G1 X99.856 Y105.262 E47.92223
G1 X99.856 Y106.121 E48.13704
G1 X100.041 Y106.306 E48.20244
G1 X100.041 Y107.165 E48.41726
G1 X99.856 Y107.350 E48.48266
G1 X99.856 Y108.210 E48.69748
G1 X100.041 Y108.395 E48.76288
G1 X100.041 Y109.241 E48.97449
G1 X98.811 Y109.241 E49.28180
G1 X98.811 Y108.395 E49.49342
G1 X98.996 Y108.210 E49.55882
G1 X98.996 Y107.350 E49.77363
G1 X98.811 Y107.165 E49.83903
G1 X98.811 Y106.306 E50.05385
G1 X98.996 Y106.121 E50.11925
G1 X98.996 Y105.262 E50.33407
G1 X98.811 Y105.077 E50.39947
G1 X98.811 Y104.218 E50.61429
G1 X98.996 Y104.033 E50.67969
G1 X98.996 Y103.173 E50.89450
G1 X98.811 Y102.988 E50.95990
G1 X98.811 Y102.129 E51.17472
G1 X98.996 Y101.944 E51.24012
G1 X98.996 Y101.085 E51.45494
G1 X98.811 Y100.900 E51.52034
G1 X98.811 Y100.041 E51.73516
G1 X98.996 Y99.856 E51.80056
G1 X98.996 Y98.996 E52.01537
G1 X98.811 Y98.811 E52.08077
G1 X98.811 Y97.952 E52.29559
G1 X98.996 Y97.767 E52.36099
G1 X98.996 Y96.908 E52.57581
G1 X98.811 Y96.723 E52.64121
G1 X98.811 Y95.864 E52.85603
G1 X98.996 Y95.679 E52.92143
G1 X98.996 Y94.819 E53.13624
G1 X98.811 Y94.635 E53.20165
G1 X98.811 Y93.775 E53.41646
G1 X98.996 Y93.590 E53.48186
G1 X98.996 Y92.731 E53.69668
G1 X98.811 Y92.546 E53.76208
G1 X98.811 Y91.687 E53.97690
G1 X98.996 Y91.502 E54.04230
G1 X98.996 Y90.759 E54.22803
G1 X97.767 Y90.759 E54.53533
G1 X97.767 Y91.502 E54.72106
G1 X97.952 Y91.687 E54.78647
G1 X97.952 Y92.546 E55.00128
G1 X97.767 Y92.731 E55.06668
G1 X97.767 Y93.590 E55.28150
G1 X97.952 Y93.775 E55.34690
G1 X97.952 Y94.635 E55.56172
G1 X97.767 Y94.819 E55.62712
G1 X97.767 Y95.679 E55.84193
G1 X97.952 Y95.864 E55.90734
G1 X97.952 Y96.723 E56.12215
G1 X97.767 Y96.908 E56.18755
G1 X97.767 Y97.767 E56.40237
G1 X97.952 Y97.952 E56.46777
G1 X97.952 Y98.811 E56.68259
G1 X97.767 Y98.996 E56.74799
G1 X97.767 Y99.856 E56.96280
G1 X97.952 Y100.041 E57.02821
G1 X97.952 Y100.900 E57.24302
G1 X97.767 Y101.085 E57.30842
G1 X97.767 Y101.944 E57.52324
G1 X97.952 Y102.129 E57.58864
G1 X97.952 Y102.988 E57.80346
G1 X97.767 Y103.173 E57.86886
G1 X97.767 Y104.033 E58.08367
G1 X97.952 Y104.218 E58.14908
G1 X97.952 Y105.077 E58.36389
G1 X97.767 Y105.262 E58.42929
G1 X97.767 Y106.121 E58.64411
G1 X97.952 Y106.306 E58.70951
G1 X97.952 Y107.165 E58.92433
G1 X97.767 Y107.350 E58.98973
G1 X97.767 Y108.210 E59.20454
G1 X97.952 Y108.395 E59.26995
G1 X97.952 Y109.241 E59.48156
G1 X96.723 Y109.241 E59.78887
G1 X96.723 Y108.395 E60.00048
G1 X96.908 Y108.210 E60.06588
G1 X96.908 Y107.350 E60.28070
G1 X96.723 Y107.165 E60.34610
G1 X96.723 Y106.306 E60.56092
G1 X96.908 Y106.121 E60.62632
G1 X96.908 Y105.262 E60.84114
G1 X96.723 Y105.077 E60.90654
G1 X96.723 Y104.218 E61.12135
G1 X96.908 Y104.033 E61.18675
G1 X96.908 Y103.173 E61.40157
G1 X96.723 Y102.988 E61.46697
G1 X96.723 Y102.129 E61.68179
G1 X96.908 Y101.944 E61.74719
G1 X96.908 Y101.085 E61.96201
G1 X96.723 Y100.900 E62.02741
G1 X96.723 Y100.041 E62.24222
G1 X96.908 Y99.856 E62.30762
G1 X96.908 Y98.996 E62.52244
G1 X96.723 Y98.811 E62.58784
G1 X96.723 Y97.952 E62.80266
G1 X96.908 Y97.767 E62.86806
G1 X96.908 Y96.908 E63.08288
G1 X96.723 Y96.723 E63.14828
G1 X96.723 Y95.864 E63.36309
G1 X96.908 Y95.679 E63.42849
G1 X96.908 Y94.819 E63.64331
G1 X96.723 Y94.635 E63.70871
G1 X96.723 Y93.775 E63.92353
G1 X96.908 Y93.590 E63.98893
G1 X96.908 Y92.731 E64.20375
G1 X96.723 Y92.546 E64.26915
G1 X96.723 Y91.687 E64.48396
G1 X96.908 Y91.502 E64.54936
G1 X96.908 Y90.759 E64.73509
G1 X95.679 Y90.759 E65.04240
G1 X95.679 Y91.502 E65.22813
G1 X95.864 Y91.687 E65.29353
G1 X95.864 Y92.546 E65.50835
G1 X95.679 Y92.731 E65.57375
G1 X95.679 Y93.590 E65.78857
G1 X95.864 Y93.775 E65.85397
G1 X95.864 Y94.635 E66.06878
G1 X95.679 Y94.819 E66.13419
G1 X95.679 Y95.679 E66.34900
G1 X95.864 Y95.864 E66.41440
G1 X95.864 Y96.723 E66.62922
G1 X95.679 Y96.908 E66.69462
G1 X95.679 Y97.767 E66.90944
G1 X95.864 Y97.952 E66.97484
G1 X95.864 Y98.811 E67.18965
G1 X95.679 Y98.996 E67.25506
G1 X95.679 Y99.856 E67.46987
G1 X95.864 Y100.041 E67.53527
G1 X95.864 Y100.900 E67.75009
G1 X95.679 Y101.085 E67.81549
G1 X95.679 Y101.944 E68.03031
G1 X95.864 Y102.129 E68.09571
G1 X95.864 Y102.988 E68.31052
G1 X95.679 Y103.173 E68.37593
G1 X95.679 Y104.033 E68.59074
G1 X95.864 Y104.218 E68.65614
G1 X95.864 Y105.077 E68.87096
G1 X95.679 Y105.262 E68.93636
G1 X95.679 Y106.121 E69.15118
G1 X95.864 Y106.306 E69.21658
G1 X95.864 Y107.165 E69.43139
G1 X95.679 Y107.350 E69.49680
G1 X95.679 Y108.210 E69.71161
G1 X95.864 Y108.395 E69.77701
G1 X95.864 Y109.241 E69.98863
G1 X94.635 Y109.241 E70.29594
G1 X94.635 Y108.395 E70.50755
G1 X94.819 Y108.210 E70.57295
G1 X94.819 Y107.350 E70.78777
G1 X94.635 Y107.165 E70.85317
G1 X94.635 Y106.306 E71.06798
G1 X94.819 Y106.121 E71.13339
G1 X94.819 Y105.262 E71.34820
G1 X94.635 Y105.077 E71.41360
G1 X94.635 Y104.218 E71.62842
G1 X94.819 Y104.033 E71.69382
G1 X94.819 Y103.173 E71.90864
G1 X94.635 Y102.988 E71.97404
G1 X94.635 Y102.129 E72.18885
G1 X94.819 Y101.944 E72.25426
G1 X94.819 Y101.085 E72.46907
G1 X94.635 Y100.900 E72.53447
G1 X94.635 Y100.041 E72.74929
G1 X94.819 Y99.856 E72.81469
G1 X94.819 Y98.996 E73.02951
G1 X94.635 Y98.811 E73.09491
G1 X94.635 Y97.952 E73.30973
G1 X94.819 Y97.767 E73.37513
G1 X94.819 Y96.908 E73.58994
G1 X94.635 Y96.723 E73.65534
G1 X94.635 Y95.864 E73.87016
G1 X94.819 Y95.679 E73.93556
G1 X94.819 Y94.819 E74.15038
G1 X94.635 Y94.635 E74.21578
G1 X94.635 Y93.775 E74.43060
G1 X94.819 Y93.590 E74.49600
G1 X94.819 Y92.731 E74.71081
G1 X94.635 Y92.546 E74.77621
G1 X94.635 Y91.687 E74.99103
G1 X94.819 Y91.502 E75.05643
G1 X94.819 Y90.759 E75.24216
G1 X93.590 Y90.759 E75.54947
G1 X93.590 Y91.502 E75.73520
G1 X93.775 Y91.687 E75.80060
G1 X93.775 Y92.546 E76.01542
G1 X93.590 Y92.731 E76.08082
G1 X93.590 Y93.590 E76.29563
G1 X93.775 Y93.775 E76.36103
G1 X93.775 Y94.635 E76.57585
G1 X93.590 Y94.819 E76.64125
G1 X93.590 Y95.679 E76.85607
G1 X93.775 Y95.864 E76.92147
G1 X93.775 Y96.723 E77.13628
G1 X93.590 Y96.908 E77.20169
G1 X93.590 Y97.767 E77.41650
G1 X93.775 Y97.952 E77.48190
G1 X93.775 Y98.811 E77.69672
G1 X93.590 Y98.996 E77.76212
G1 X93.590 Y99.856 E77.97694
G1 X93.775 Y100.041 E78.04234
G1 X93.775 Y100.900 E78.25715
G1 X93.590 Y101.085 E78.32256
G1 X93.590 Y101.944 E78.53737
G1 X93.775 Y102.129 E78.60277
G1 X93.775 Y102.988 E78.81759
G1 X93.590 Y103.173 E78.88299
G1 X93.590 Y104.033 E79.09781
G1 X93.775 Y104.218 E79.16321
G1 X93.775 Y105.077 E79.37802
G1 X93.590 Y105.262 E79.44342
G1 X93.590 Y106.121 E79.65824
G1 X93.775 Y106.306 E79.72364
G1 X93.775 Y107.165 E79.93846
G1 X93.590 Y107.350 E80.00386
G1 X93.590 Y108.210 E80.21868
G1 X93.775 Y108.395 E80.28408
G1 X93.775 Y109.241 E80.49569
G1 X92.546 Y109.241 E80.80300
G1 X92.546 Y108.395 E81.01461
G1 X92.731 Y108.210 E81.08001
G1 X92.731 Y107.350 E81.29483
G1 X92.546 Y107.165 E81.36023
G1 X92.546 Y106.306 E81.57505
G1 X92.731 Y106.121 E81.64045
G1 X92.731 Y105.262 E81.85527
G1 X92.546 Y105.077 E81.92067
G1 X92.546 Y104.218 E82.13548
G1 X92.731 Y104.033 E82.20088
G1 X92.731 Y103.173 E82.41570
G1 X92.546 Y102.988 E82.48110
G1 X92.546 Y102.129 E82.69592
G1 X92.731 Y101.944 E82.76132
G1 X92.731 Y101.085 E82.97614
G1 X92.546 Y100.900 E83.04154
G1 X92.546 Y100.041 E83.25635
G1 X92.731 Y99.856 E83.32175
G1 X92.731 Y98.996 E83.53657
G1 X92.546 Y98.811 E83.60197
G1 X92.546 Y97.952 E83.81679
G1 X92.731 Y97.767 E83.88219
G1 X92.731 Y96.908 E84.09701
G1 X92.546 Y96.723 E84.16241
G1 X92.546 Y95.864 E84.37722
G1 X92.731 Y95.679 E84.44263
G1 X92.731 Y94.819 E84.65744
G1 X92.546 Y94.635 E84.72284
G1 X92.546 Y93.775 E84.93766
G1 X92.731 Y93.590 E85.00306
G1 X92.731 Y92.731 E85.21788
G1 X92.546 Y92.546 E85.28328
G1 X92.546 Y91.687 E85.49809
G1 X92.731 Y91.502 E85.56350
G1 X92.731 Y90.759 E85.74922
G1 X91.502 Y90.759 E86.05653
G1 X91.502 Y91.502 E86.24226
G1 X91.687 Y91.687 E86.30766
G1 X91.687 Y92.546 E86.52248
G1 X91.502 Y92.731 E86.58788
G1 X91.502 Y93.590 E86.80270
G1 X91.687 Y93.775 E86.86810
G1 X91.687 Y94.635 E87.08291
G1 X91.502 Y94.819 E87.14832
G1 X91.502 Y95.679 E87.36313
G1 X91.687 Y95.864 E87.42853
G1 X91.687 Y96.723 E87.64335
G1 X91.502 Y96.908 E87.70875
G1 X91.502 Y97.767 E87.92357
G1 X91.687 Y97.952 E87.98897
G1 X91.687 Y98.811 E88.20378
G1 X91.502 Y98.996 E88.26919
G1 X91.502 Y99.856 E88.48400
G1 X91.687 Y100.041 E88.54940
G1 X91.687 Y100.900 E88.76422
G1 X91.502 Y101.085 E88.82962
G1 X91.502 Y101.944 E89.04444
G1 X91.687 Y102.129 E89.10984
G1 X91.687 Y102.988 E89.32465
G1 X91.502 Y103.173 E89.39006
G1 X91.502 Y104.033 E89.60487
G1 X91.687 Y104.218 E89.67027
G1 X91.687 Y105.077 E89.88509
G1 X91.502 Y105.262 E89.95049
G1 X91.502 Y106.121 E90.16531
G1 X91.687 Y106.306 E90.23071
G1 X91.687 Y107.165 E90.44552
G1 X91.502 Y107.350 E90.51093
G1 X91.502 Y108.210 E90.72574
G1 X91.687 Y108.395 E90.79114
G1 X91.687 Y109.241 E91.00276
G1 Z1.000 F7800.000
G1 X90.759 Y108.226 F7800.000
G1 X91.518 Y108.226 E91.19259 F4218.677
G1 X91.670 Y108.378 E91.24639
G1 X92.562 Y108.378 E91.46941
G1 X92.715 Y108.226 E91.52320
G1 X93.607 Y108.226 E91.74623
G1 X93.759 Y108.378 E91.80002
G1 X94.651 Y108.378 E92.02305
G1 X94.803 Y108.226 E92.07684
G1 X95.695 Y108.226 E92.29986
G1 X95.847 Y108.378 E92.35366
G1 X96.739 Y108.378 E92.57668
G1 X96.892 Y108.226 E92.63048
G1 X97.784 Y108.226 E92.85350
G1 X97.936 Y108.378 E92.90730
G1 X98.828 Y108.378 E93.13032
G1 X98.980 Y108.226 E93.18412
G1 X99.872 Y108.226 E93.40714
G1 X100.024 Y108.378 E93.46093
G1 X100.916 Y108.378 E93.68396
G1 X101.069 Y108.226 E93.73775
G1 X101.961 Y108.226 E93.96077
G1 X102.113 Y108.378 E94.01457
G1 X103.005 Y108.378 E94.23759
G1 X103.157 Y108.226 E94.29139
G1 X104.049 Y108.226 E94.51441
G1 X104.201 Y108.378 E94.56821
G1 X105.093 Y108.378 E94.79123
G1 X105.246 Y108.226 E94.84503
G1 X106.138 Y108.226 E95.06805
G1 X106.290 Y108.378 E95.12184
G1 X107.182 Y108.378 E95.34487
G1 X107.334 Y108.226 E95.39866
G1 X108.226 Y108.226 E95.62168
G1 X108.378 Y108.378 E95.67548
G1 X109.241 Y108.378 E95.89120
G1 X109.241 Y107.182 E96.19030
G1 X108.378 Y107.182 E96.40602
G1 X108.226 Y107.334 E96.45981
G1 X107.334 Y107.334 E96.68284
G1 X107.182 Y107.182 E96.73663
G1 X106.290 Y107.182 E96.95965
G1 X106.138 Y107.334 E97.01345
G1 X105.246 Y107.334 E97.23647
G1 X105.093 Y107.182 E97.29027
G1 X104.201 Y107.182 E97.51329
G1 X104.049 Y107.334 E97.56709
G1 X103.157 Y107.334 E97.79011
G1 X103.005 Y107.182 E97.84391
G1 X102.113 Y107.182 E98.06693
G1 X101.961 Y107.334 E98.12072
G1 X101.069 Y107.334 E98.34375
G1 X100.916 Y107.182 E98.39754
G1 X100.024 Y107.182 E98.62056
G1 X99.872 Y107.334 E98.67436
G1 X98.980 Y107.334 E98.89738
G1 X98.828 Y107.182 E98.95118
G1 X97.936 Y107.182 E99.17420
G1 X97.784 Y107.334 E99.22800
G1 X96.892 Y107.334 E99.45102
G1 X96.739 Y107.182 E99.50482
G1 X95.847 Y107.182 E99.72784
G1 X95.695 Y107.334 E99.78163
G1 X94.803 Y107.334 E100.00466
G1 X94.651 Y107.182 E100.05845
G1 X93.759 Y107.182 E100.28148
G1 X93.607 Y107.334 E100.33527
G1 X92.715 Y107.334 E100.55829
G1 X92.562 Y107.182 E100.61209
G1 X91.670 Y107.182 E100.83511
G1 X91.518 Y107.334 E100.88891
G1 X90.759 Y107.334 E101.07874
G1 X90.759 Y106.138 E101.37784
G1 X91.518 Y106.138 E101.56767
G1 X91.670 Y106.290 E101.62147
G1 X92.562 Y106.290 E101.84449
G1 X92.715 Y106.138 E101.89829
G1 X93.607 Y106.138 E102.12131
G1 X93.759 Y106.290 E102.17511
G1 X94.651 Y106.290 E102.39813
G1 X94.803 Y106.138 E102.45193
G1 X95.695 Y106.138 E102.67495
G1 X95.847 Y106.290 E102.72874
G1 X96.739 Y106.290 E102.95177
G1 X96.892 Y106.138 E103.00556
G1 X97.784 Y106.138 E103.22858
G1 X97.936 Y106.290 E103.28238
G1 X98.828 Y106.290 E103.50540
G1 X98.980 Y106.138 E103.55920
G1 X99.872 Y106.138 E103.78222
G1 X100.024 Y106.290 E103.83602
G1 X100.916 Y106.290 E104.05904
G1 X101.069 Y106.138 E104.11284
G1 X101.961 Y106.138 E104.33586
G1 X102.113 Y106.290 E104.38965
G1 X103.005 Y106.290 E104.61268
G1 X103.157 Y106.138 E104.66647
G1 X104.049 Y106.138 E104.88949
G1 X104.201 Y106.290 E104.94329
G1 X105.093 Y106.290 E105.16631
G1 X105.246 Y106.138 E105.22011
G1 X106.138 Y106.138 E105.44313
G1 X106.290 Y106.290 E105.49693
G1 X107.182 Y106.290 E105.71995
G1 X107.334 Y106.138 E105.77375
G1 X108.226 Y106.138 E105.99677
G1 X108.378 Y106.290 E106.05056
G1 X109.241 Y106.290 E106.26628
G1 X109.241 Y105.093 E106.56538
G1 X108.378 Y105.093 E106.78110
G1 X108.226 Y105.246 E106.83490
G1 X107.334 Y105.246 E107.05792
G1 X107.182 Y105.093 E107.11172
G1 X106.290 Y105.093 E107.33474
G1 X106.138 Y105.246 E107.38853
G1 X105.246 Y105.246 E107.61156
G1 X105.093 Y105.093 E107.66535
G1 X104.201 Y105.093 E107.88837
G1 X104.049 Y105.246 E107.94217
G1 X103.157 Y105.246 E108.16519
G1 X103.005 Y105.093 E108.21899
G1 X102.113 Y105.093 E108.44201
G1 X101.961 Y105.246 E108.49581
G1 X101.069 Y105.246 E108.71883
G1 X100.916 Y105.093 E108.77263
G1 X100.024 Y105.093 E108.99565
G1 X99.872 Y105.246 E109.04944
G1 X98.980 Y105.246 E109.27247
G1 X98.828 Y105.093 E109.32626
G1 X97.936 Y105.093 E109.54929
G1 X97.784 Y105.246 E109.60308
G1 X96.892 Y105.246 E109.82610
G1 X96.739 Y105.093 E109.87990
G1 X95.847 Y105.093 E110.10292
G1 X95.695 Y105.246 E110.15672
G1 X94.803 Y105.246 E110.37974
G1 X94.651 Y105.093 E110.43354
G1 X93.759 Y105.093 E110.65656
G1 X93.607 Y105.246 E110.71035
G1 X92.715 Y105.246 E110.93338
G1 X92.562 Y105.093 E110.98717
G1 X91.670 Y105.093 E111.21020
G1 X91.518 Y105.246 E111.26399
G1 X90.759 Y105.246 E111.45382
G1 X90.759 Y104.049 E111.75293
G1 X91.518 Y104.049 E111.94276
G1 X91.670 Y104.201 E111.99655
G1 X92.562 Y104.201 E112.21958
G1 X92.715 Y104.049 E112.27337
G1 X93.607 Y104.049 E112.49639
G1 X93.759 Y104.201 E112.55019
G1 X94.651 Y104.201 E112.77321
G1 X94.803 Y104.049 E112.82701
G1 X95.695 Y104.049 E113.05003
G1 X95.847 Y104.201 E113.10383
G1 X96.739 Y104.201 E113.32685
G1 X96.892 Y104.049 E113.38065
G1 X97.784 Y104.049 E113.60367
G1 X97.936 Y104.201 E113.65746
G1 X98.828 Y104.201 E113.88049
G1 X98.980 Y104.049 E113.93428
G1 X99.872 Y104.049 E114.15730
G1 X100.024 Y104.201 E114.21110
G1 X100.916 Y104.201 E114.43412
G1 X101.069 Y104.049 E114.48792
G1 X101.961 Y104.049 E114.71094
G1 X102.113 Y104.201 E114.76474
G1 X103.005 Y104.201 E114.98776
G1 X103.157 Y104.049 E115.04156
G1 X104.049 Y104.049 E115.26458
G1 X104.201 Y104.201 E115.31837
G1 X105.093 Y104.201 E115.54140
G1 X105.246 Y104.049 E115.59519
G1 X106.138 Y104.049 E115.81822
G1 X106.290 Y104.201 E115.87201
G1 X107.182 Y104.201 E116.09503
G1 X107.334 Y104.049 E116.14883
G1 X108.226 Y104.049 E116.37185
G1 X108.378 Y104.201 E116.42565
G1 X109.241 Y104.201 E116.64137
G1 X109.241 Y103.005 E116.94047
G1 X108.378 Y103.005 E117.15618
G1 X108.226 Y103.157 E117.20998
G1 X107.334 Y103.157 E117.43300
G1 X107.182 Y103.005 E117.48680
G1 X106.290 Y103.005 E117.70982
G1 X106.138 Y103.157 E117.76362
G1 X105.246 Y103.157 E117.98664
G1 X105.093 Y103.005 E118.04044
G1 X104.201 Y103.005 E118.26346
G1 X104.049 Y103.157 E118.31725
G1 X103.157 Y103.157 E118.54028
G1 X103.005 Y103.005 E118.59407
G1 X102.113 Y103.005 E118.81710
G1 X101.961 Y103.157 E118.87089
G1 X101.069 Y103.157 E119.09391
G1 X100.916 Y103.005 E119.14771
G1 X100.024 Y103.005 E119.37073
G1 X99.872 Y103.157 E119.42453
G1 X98.980 Y103.157 E119.64755
G1 X98.828 Y103.005 E119.70135
G1 X97.936 Y103.005 E119.92437
G1 X97.784 Y103.157 E119.97816
G1 X96.892 Y103.157 E120.20119
G1 X96.739 Y103.005 E120.25498
G1 X95.847 Y103.005 E120.47801
G1 X95.695 Y103.157 E120.53180
G1 X94.803 Y103.157 E120.75482
G1 X94.651 Y103.005 E120.80862
G1 X93.759 Y103.005 E121.03164
G1 X93.607 Y103.157 E121.08544
G1 X92.715 Y103.157 E121.30846
G1 X92.562 Y103.005 E121.36226
G1 X91.670 Y103.005 E121.58528
G1 X91.518 Y103.157 E121.63907
G1 X90.759 Y103.157 E121.82891
G1 X90.759 Y101.961 E122.12801
G1 X91.518 Y101.961 E122.31784
G1 X91.670 Y102.113 E122.37164
G1 X92.562 Y102.113 E122.59466
G1 X92.715 Y101.961 E122.64846
G1 X93.607 Y101.961 E122.87148
G1 X93.759 Y102.113 E122.92527
G1 X94.651 Y102.113 E123.14830
G1 X94.803 Y101.961 E123.20209
G1 X95.695 Y101.961 E123.42511
G1 X95.847 Y102.113 E123.47891
G1 X96.739 Y102.113 E123.70193
G1 X96.892 Y101.961 E123.75573
G1 X97.784 Y101.961 E123.97875
G1 X97.936 Y102.113 E124.03255
G1 X98.828 Y102.113 E124.25557
G1 X98.980 Y101.961 E124.30937
G1 X99.872 Y101.961 E124.53239
G1 X100.024 Y102.113 E124.58618
G1 X100.916 Y102.113 E124.80921
G1 X101.069 Y101.961 E124.86300
G1 X101.961 Y101.961 E125.08603
G1 X102.113 Y102.113 E125.13982
G1 X103.005 Y102.113 E125.36284
G1 X103.157 Y101.961 E125.41664
G1 X104.049 Y101.961 E125.63966
G1 X104.201 Y102.113 E125.69346
G1 X105.093 Y102.113 E125.91648
G1 X105.246 Y101.961 E125.97028
G1 X106.138 Y101.961 E126.19330
G1 X106.290 Y102.113 E126.24709
G1 X107.182 Y102.113 E126.47012
G1 X107.334 Y101.961 E126.52391
G1 X108.226 Y101.961 E126.74694
G1 X108.378 Y102.113 E126.80073
G1 X109.241 Y102.113 E127.01645
G1 X109.241 Y100.916 E127.31555
G1 X108.378 Y100.916 E127.53127
G1 X108.226 Y101.069 E127.58506
G1 X107.334 Y101.069 E127.80809
G1 X107.182 Y100.916 E127.86188
G1 X106.290 Y100.916 E128.08490
G1 X106.138 Y101.069 E128.13870
G1 X105.246 Y101.069 E128.36172
G1 X105.093 Y100.916 E128.41552
G1 X104.201 Y100.916 E128.63854
G1 X104.049 Y101.069 E128.69234
G1 X103.157 Y101.069 E128.91536
G1 X103.005 Y100.916 E128.96916
G1 X102.113 Y100.916 E129.19218
G1 X101.961 Y101.069 E129.24597
G1 X101.069 Y101.069 E129.46900
G1 X100.916 Y100.916 E129.52279
G1 X100.024 Y100.916 E129.74582
G1 X99.872 Y101.069 E129.79961
G1 X98.980 Y101.069 E130.02263
G1 X98.828 Y100.916 E130.07643
G1 X97.936 Y100.916 E130.29945
G1 X97.784 Y101.069 E130.35325
G1 X96.892 Y101.069 E130.57627
G1 X96.739 Y100.916 E130.63007
G1 X95.847 Y100.916 E130.85309
G1 X95.695 Y101.069 E130.90688
G1 X94.803 Y101.069 E131.12991
G1 X94.651 Y100.916 E131.18370
G1 X93.759 Y100.916 E131.40673
G1 X93.607 Y101.069 E131.46052
G1 X92.715 Y101.069 E131.68354
G1 X92.562 Y100.916 E131.73734
G1 X91.670 Y100.916 E131.96036
G1 X91.518 Y101.069 E132.01416
G1 X90.759 Y101.069 E132.20399
G1 X90.759 Y99.872 E132.50309
G1 X91.518 Y99.872 E132.69292
G1 X91.670 Y100.024 E132.74672
G1 X92.562 Y100.024 E132.96974
G1 X92.715 Y99.872 E133.02354
G1 X93.607 Y99.872 E133.24656
G1 X93.759 Y100.024 E133.30036
G1 X94.651 Y100.024 E133.52338
G1 X94.803 Y99.872 E133.57718
G1 X95.695 Y99.872 E133.80020
G1 X95.847 Y100.024 E133.85399
G1 X96.739 Y100.024 E134.07702
G1 X96.892 Y99.872 E134.13081
G1 X97.784 Y99.872 E134.35384
G1 X97.936 Y100.024 E134.40763
G1 X98.828 Y100.024 E134.63065
G1 X98.980 Y99.872 E134.68445
G1 X99.872 Y99.872 E134.90747
G1 X100.024 Y100.024 E134.96127
G1 X100.916 Y100.024 E135.18429
G1 X101.069 Y99.872 E135.23809
G1 X101.961 Y99.872 E135.46111
G1 X102.113 Y100.024 E135.51490
G1 X103.005 Y100.024 E135.73793
G1 X103.157 Y99.872 E135.79172
G1 X104.049 Y99.872 E136.01475
G1 X104.201 Y100.024 E136.06854
G1 X105.093 Y100.024 E136.29156
G1 X105.246 Y99.872 E136.34536
G1 X106.138 Y99.872 E136.56838
G1 X106.290 Y100.024 E136.62218
G1 X107.182 Y100.024 E136.84520
G1 X107.334 Y99.872 E136.89900
G1 X108.226 Y99.872 E137.12202
G1 X108.378 Y100.024 E137.17581
G1 X109.241 Y100.024 E137.39153
G1 X109.241 Y98.828 E137.69063
G1 X108.378 Y98.828 E137.90635
G1 X108.226 Y98.980 E137.96015
G1 X107.334 Y98.980 E138.18317
G1 X107.182 Y98.828 E138.23697
G1 X106.290 Y98.828 E138.45999
G1 X106.138 Y98.980 E138.51378
G1 X105.246 Y98.980 E138.73681
G1 X105.093 Y98.828 E138.79060
G1 X104.201 Y98.828 E139.01363
G1 X104.049 Y98.980 E139.06742
G1 X103.157 Y98.980 E139.29044
G1 X103.005 Y98.828 E139.34424
G1 X102.113 Y98.828 E139.56726
G1 X101.961 Y98.980 E139.62106
G1 X101.069 Y98.980 E139.84408
G1 X100.916 Y98.828 E139.89788
G1 X100.024 Y98.828 E140.12090
G1 X99.872 Y98.980 E140.17470
G1 X98.980 Y98.980 E140.39772
G1 X98.828 Y98.828 E140.45151
G1 X97.936 Y98.828 E140.67454
G1 X97.784 Y98.980 E140.72833
G1 X96.892 Y98.980 E140.95135
G1 X96.739 Y98.828 E141.00515
G1 X95.847 Y98.828 E141.22817
G1 X95.695 Y98.980 E141.28197
G1 X94.803 Y98.980 E141.50499
G1 X94.651 Y98.828 E141.55879
G1 X93.759 Y98.828 E141.78181
G1 X93.607 Y98.980 E141.83561
G1 X92.715 Y98.980 E142.05863
G1 X92.562 Y98.828 E142.11242
G1 X91.670 Y98.828 E142.33545
G1 X91.518 Y98.980 E142.38924
G1 X90.759 Y98.980 E142.57907
G1 X90.759 Y97.784 E142.87818
G1 X91.518 Y97.784 E143.06801
G1 X91.670 Y97.936 E143.12180
G1 X92.562 Y97.936 E143.34483
G1 X92.715 Y97.784 E143.39862
G1 X93.607 Y97.784 E143.62165
G1 X93.759 Y97.936 E143.67544
G1 X94.651 Y97.936 E143.89846
G1 X94.803 Y97.784 E143.95226
G1 X95.695 Y97.784 E144.17528
G1 X95.847 Y97.936 E144.22908
G1 X96.739 Y97.936 E144.45210
G1 X96.892 Y97.784 E144.50590
G1 X97.784 Y97.784 E144.72892
G1 X97.936 Y97.936 E144.78271
G1 X98.828 Y97.936 E145.00574
G1 X98.980 Y97.784 E145.05953
G1 X99.872 Y97.784 E145.28256
G1 X100.024 Y97.936 E145.33635
G1 X100.916 Y97.936 E145.55937
G1 X101.069 Y97.784 E145.61317
G1 X101.961 Y97.784 E145.83619
G1 X102.113 Y97.936 E145.88999
G1 X103.005 Y97.936 E146.11301
G1 X103.157 Y97.784 E146.16681
G1 X104.049 Y97.784 E146.38983
G1 X104.201 Y97.936 E146.44363
G1 X105.093 Y97.936 E146.66665
G1 X105.246 Y97.784 E146.72044
G1 X106.138 Y97.784 E146.94347
G1 X106.290 Y97.936 E146.99726
G1 X107.182 Y97.936 E147.22028
G1 X107.334 Y97.784 E147.27408
G1 X108.226 Y97.784 E147.49710
G1 X108.378 Y97.936 E147.55090
G1 X109.241 Y97.936 E147.76662
G1 X109.241 Y96.739 E148.06572
G1 X108.378 Y96.739 E148.28144
G1 X108.226 Y96.892 E148.33523
G1 X107.334 Y96.892 E148.55825
G1 X107.182 Y96.739 E148.61205
G1 X106.290 Y96.739 E148.83507
G1 X106.138 Y96.892 E148.88887
G1 X105.246 Y96.892 E149.11189
G1 X105.093 Y96.739 E149.16569
G1 X104.201 Y96.739 E149.38871
G1 X104.049 Y96.892 E149.44250
G1 X103.157 Y96.892 E149.66553
G1 X103.005 Y96.739 E149.71932
G1 X102.113 Y96.739 E149.94235
G1 X101.961 Y96.892 E149.99614
G1 X101.069 Y96.892 E150.21916
G1 X100.916 Y96.739 E150.27296
G1 X100.024 Y96.739 E150.49598
G1 X99.872 Y96.892 E150.54978
G1 X98.980 Y96.892 E150.77280
G1 X98.828 Y96.739 E150.82660
G1 X97.936 Y96.739 E151.04962
G1 X97.784 Y96.892 E151.10342
G1 X96.892 Y96.892 E151.32644
G1 X96.739 Y96.739 E151.38023
G1 X95.847 Y96.739 E151.60326
G1 X95.695 Y96.892 E151.65705
G1 X94.803 Y96.892 E151.88007
G1 X94.651 Y96.739 E151.93387
G1 X93.759 Y96.739 E152.15689
G1 X93.607 Y96.892 E152.21069
G1 X92.715 Y96.892 E152.43371
G1 X92.562 Y96.739 E152.48751
G1 X91.670 Y96.739 E152.71053
G1 X91.518 Y96.892 E152.76433
G1 X90.759 Y96.892 E152.95416
G1 X90.759 Y95.695 E153.25326
G1 X91.518 Y95.695 E153.44309
G1 X91.670 Y95.847 E153.49689
G1 X92.562 Y95.847 E153.71991
G1 X92.715 Y95.695 E153.77371
G1 X93.607 Y95.695 E153.99673
G1 X93.759 Y95.847 E154.05052
G1 X94.651 Y95.847 E154.27355
G1 X94.803 Y95.695 E154.32734
G1 X95.695 Y95.695 E154.55037
G1 X95.847 Y95.847 E154.60416
G1 X96.739 Y95.847 E154.82718
G1 X96.892 Y95.695 E154.88098
G1 X97.784 Y95.695 E155.10400
G1 X97.936 Y95.847 E155.15780
G1 X98.828 Y95.847 E155.38082
G1 X98.980 Y95.695 E155.43462
G1 X99.872 Y95.695 E155.65764
G1 X100.024 Y95.847 E155.71144
G1 X100.916 Y95.847 E155.93446
G1 X101.069 Y95.695 E155.98825
G1 X101.961 Y95.695 E156.21128
G1 X102.113 Y95.847 E156.26507
G1 X103.005 Y95.847 E156.48809
G1 X103.157 Y95.695 E156.54189
G1 X104.049 Y95.695 E156.76491
G1 X104.201 Y95.847 E156.81871
G1 X105.093 Y95.847 E157.04173
G1 X105.246 Y95.695 E157.09553
G1 X106.138 Y95.695 E157.31855
G1 X106.290 Y95.847 E157.37235
G1 X107.182 Y95.847 E157.59537
G1 X107.334 Y95.695 E157.64916
G1 X108.226 Y95.695 E157.87219
G1 X108.378 Y95.847 E157.92598
G1 X109.241 Y95.847 E158.14170
G1 X109.241 Y94.651 E158.44080
G1 X108.378 Y94.651 E158.65652
G1 X108.226 Y94.803 E158.71031
G1 X107.334 Y94.803 E158.93334
G1 X107.182 Y94.651 E158.98713
G1 X106.290 Y94.651 E159.21016
G1 X106.138 Y94.803 E159.26395
G1 X105.246 Y94.803 E159.48697
G1 X105.093 Y94.651 E159.54077
G1 X104.201 Y94.651 E159.76379
G1 X104.049 Y94.803 E159.81759
G1 X103.157 Y94.803 E160.04061
G1 X103.005 Y94.651 E160.09441
G1 X102.113 Y94.651 E160.31743
G1 X101.961 Y94.803 E160.37123
G1 X101.069 Y94.803 E160.59425
G1 X100.916 Y94.651 E160.64804
G1 X100.024 Y94.651 E160.87107
G1 X99.872 Y94.803 E160.92486
G1 X98.980 Y94.803 E161.14788
G1 X98.828 Y94.651 E161.20168
G1 X97.936 Y94.651 E161.42470
G1 X97.784 Y94.803 E161.47850
G1 X96.892 Y94.803 E161.70152
G1 X96.739 Y94.651 E161.75532
G1 X95.847 Y94.651 E161.97834
G1 X95.695 Y94.803 E162.03214
G1 X94.803 Y94.803 E162.25516
G1 X94.651 Y94.651 E162.30895
G1 X93.759 Y94.651 E162.53198
G1 X93.607 Y94.803 E162.58577
G1 X92.715 Y94.803 E162.80879
G1 X92.562 Y94.651 E162.86259
G1 X91.670 Y94.651 E163.08561
G1 X91.518 Y94.803 E163.13941
G1 X90.759 Y94.803 E163.32924
G1 X90.759 Y93.607 E163.62834
G1 X91.518 Y93.607 E163.81818
G1 X91.670 Y93.759 E163.87197
G1 X92.562 Y93.759 E164.09499
G1 X92.715 Y93.607 E164.14879
G1 X93.607 Y93.607 E164.37181
G1 X93.759 Y93.759 E164.42561
G1 X94.651 Y93.759 E164.64863
G1 X94.803 Y93.607 E164.70243
G1 X95.695 Y93.607 E164.92545
G1 X95.847 Y93.759 E164.97924
G1 X96.739 Y93.759 E165.20227
G1 X96.892 Y93.607 E165.25606
G1 X97.784 Y93.607 E165.47909
G1 X97.936 Y93.759 E165.53288
G1 X98.828 Y93.759 E165.75590
G1 X98.980 Y93.607 E165.80970
G1 X99.872 Y93.607 E166.03272
G1 X100.024 Y93.759 E166.08652
G1 X100.916 Y93.759 E166.30954
G1 X101.069 Y93.607 E166.36334
G1 X101.961 Y93.607 E166.58636
G1 X102.113 Y93.759 E166.64016
G1 X103.005 Y93.759 E166.86318
G1 X103.157 Y93.607 E166.91697
G1 X104.049 Y93.607 E167.14000
G1 X104.201 Y93.759 E167.19379
G1 X105.093 Y93.759 E167.41681
G1 X105.246 Y93.607 E167.47061
G1 X106.138 Y93.607 E167.69363
G1 X106.290 Y93.759 E167.74743
G1 X107.182 Y93.759 E167.97045
G1 X107.334 Y93.607 E168.02425
G1 X108.226 Y93.607 E168.24727
G1 X108.378 Y93.759 E168.30107
G1 X109.241 Y93.759 E168.51678
G1 X109.241 Y92.562 E168.81588
G1 X108.378 Y92.562 E169.03160
G1 X108.226 Y92.715 E169.08540
G1 X107.334 Y92.715 E169.30842
G1 X107.182 Y92.562 E169.36222
G1 X106.290 Y92.562 E169.58524
G1 X106.138 Y92.715 E169.63904
G1 X105.246 Y92.715 E169.86206
G1 X105.093 Y92.562 E169.91585
G1 X104.201 Y92.562 E170.13888
G1 X104.049 Y92.715 E170.19267
G1 X103.157 Y92.715 E170.41569
G1 X103.005 Y92.562 E170.46949
G1 X102.113 Y92.562 E170.69251
G1 X101.961 Y92.715 E170.74631
G1 X101.069 Y92.715 E170.96933
G1 X100.916 Y92.562 E171.02313
G1 X100.024 Y92.562 E171.24615
G1 X99.872 Y92.715 E171.29995
G1 X98.980 Y92.715 E171.52297
G1 X98.828 Y92.562 E171.57676
G1 X97.936 Y92.562 E171.79979
G1 X97.784 Y92.715 E171.85358
G1 X96.892 Y92.715 E172.07660
G1 X96.739 Y92.562 E172.13040
G1 X95.847 Y92.562 E172.35342
G1 X95.695 Y92.715 E172.40722
G1 X94.803 Y92.715 E172.63024
G1 X94.651 Y92.562 E172.68404
G1 X93.759 Y92.562 E172.90706
G1 X93.607 Y92.715 E172.96086
G1 X92.715 Y92.715 E173.18388
G1 X92.562 Y92.562 E173.23767
G1 X91.670 Y92.562 E173.46070
G1 X91.518 Y92.715 E173.51449
G1 X90.759 Y92.715 E173.70433
G1 X90.759 Y91.518 E174.00343
G1 X91.518 Y91.518 E174.19326
G1 X91.670 Y91.670 E174.24705
G1 X92.562 Y91.670 E174.47008
G1 X92.715 Y91.518 E174.52387
G1 X93.607 Y91.518 E174.74690
G1 X93.759 Y91.670 E174.80069
G1 X94.651 Y91.670 E175.02371
G1 X94.803 Y91.518 E175.07751
G1 X95.695 Y91.518 E175.30053
G1 X95.847 Y91.670 E175.35433
G1 X96.739 Y91.670 E175.57735
G1 X96.892 Y91.518 E175.63115
G1 X97.784 Y91.518 E175.85417
G1 X97.936 Y91.670 E175.90797
G1 X98.828 Y91.670 E176.13099
G1 X98.980 Y91.518 E176.18478
G1 X99.872 Y91.518 E176.40781
G1 X100.024 Y91.670 E176.46160
G1 X100.916 Y91.670 E176.68462
G1 X101.069 Y91.518 E176.73842
G1 X101.961 Y91.518 E176.96144
G1 X102.113 Y91.670 E177.01524
G1 X103.005 Y91.670 E177.23826
G1 X103.157 Y91.518 E177.29206
G1 X104.049 Y91.518 E177.51508
G1 X104.201 Y91.670 E177.56888
G1 X105.093 Y91.670 E177.79190
G1 X105.246 Y91.518 E177.84569
G1 X106.138 Y91.518 E178.06872
G1 X106.290 Y91.670 E178.12251
G1 X107.182 Y91.670 E178.34553
G1 X107.334 Y91.518 E178.39933
G1 X108.226 Y91.518 E178.62235
G1 X108.378 Y91.670 E178.67615
G1 X109.241 Y91.670 E178.89187
G1 Z1.500 F7800.000
G1 X109.241 Y108.197 F7800.000
G1 X109.102 Y108.058 E178.94113 F4800.000
G1 X109.102 Y107.503 E179.07987
G1 X109.241 Y107.363 E179.12914
G1 X109.241 Y106.108 E179.44285
G1 X109.102 Y105.969 E179.49212
G1 X109.102 Y105.414 E179.63086
G1 X109.241 Y105.275 E179.68012
G1 X109.241 Y104.020 E179.99384
G1 X109.102 Y103.881 E180.04310
G1 X109.102 Y103.326 E180.18184
G1 X109.241 Y103.186 E180.23111
G1 X109.241 Y101.931 E180.54482
G1 X109.102 Y101.792 E180.59409
G1 X109.102 Y101.237 E180.73283
G1 X109.241 Y101.098 E180.78209
G1 X109.241 Y99.843 E181.09580
G1 X109.102 Y99.704 E181.14507
G1 X109.102 Y99.149 E181.28381
G1 X109.241 Y99.009 E181.33308
G1 X109.241 Y97.754 E181.64679
G1 X109.102 Y97.615 E181.69606
G1 X109.102 Y97.060 E181.83479
G1 X109.241 Y96.921 E181.88406
G1 X109.241 Y95.666 E182.19777
G1 X109.102 Y95.527 E182.24704
G1 X109.102 Y94.972 E182.38578
G1 X109.241 Y94.832 E182.43505
G1 X109.241 Y93.577 E182.74876
G1 X109.102 Y93.438 E182.79803
G1 X109.102 Y92.883 E182.93676
G1 X109.241 Y92.744 E182.98603
G1 X109.241 Y91.489 E183.29974
G1 X109.102 Y91.350 E183.34901
G1 X109.102 Y90.795 E183.48775
G1 X109.138 Y90.759 E183.50041
G1 X108.511 Y90.759 E183.65705
G1 X108.547 Y90.795 E183.66971
G1 X108.547 Y91.350 E183.80845
G1 X108.058 Y91.839 E183.98144
G1 X108.058 Y92.394 E184.12018
G1 X108.547 Y92.883 E184.29317
G1 X108.547 Y93.438 E184.43191
G1 X108.058 Y93.927 E184.60490
G1 X108.058 Y94.482 E184.74364
G1 X108.547 Y94.972 E184.91663
G1 X108.547 Y95.527 E185.05537
G1 X108.058 Y96.016 E185.22836
G1 X108.058 Y96.571 E185.36710
G1 X108.547 Y97.060 E185.54009
G1 X108.547 Y97.615 E185.67883
G1 X108.058 Y98.104 E185.85182
G1 X108.058 Y98.659 E185.99056
G1 X108.547 Y99.149 E186.16356
G1 X108.547 Y99.704 E186.30229
G1 X108.058 Y100.193 E186.47529
G1 X108.058 Y100.748 E186.61402
G1 X108.547 Y101.237 E186.78702
G1 X108.547 Y101.792 E186.92575
G1 X108.058 Y102.281 E187.09875
G1 X108.058 Y102.836 E187.23748
G1 X108.547 Y103.326 E187.41048
G1 X108.547 Y103.881 E187.54921
G1 X108.058 Y104.370 E187.72221
G1 X108.058 Y104.925 E187.86094
G1 X108.547 Y105.414 E188.03394
G1 X108.547 Y105.969 E188.17268
G1 X108.058 Y106.458 E188.34567
G1 X108.058 Y107.013 E188.48441
G1 X108.547 Y107.503 E188.65740
G1 X108.547 Y108.058 E188.79614
G1 X108.058 Y108.547 E188.96913
G1 X108.058 Y109.102 E189.10787
G1 X108.197 Y109.241 E189.15713
G1 X107.363 Y109.241 E189.36555
G1 X107.503 Y109.102 E189.41482
G1 X107.503 Y108.547 E189.55355
G1 X107.013 Y108.058 E189.72655
G1 X107.013 Y107.503 E189.86528
G1 X107.503 Y107.013 E190.03828
G1 X107.503 Y106.458 E190.17701
G1 X107.013 Y105.969 E190.35001
G1 X107.013 Y105.414 E190.48874
G1 X107.503 Y104.925 E190.66174
G1 X107.503 Y104.370 E190.80048
G1 X107.013 Y103.881 E190.97347
G1 X107.013 Y103.326 E191.11221
G1 X107.503 Y102.836 E191.28520
G1 X107.503 Y102.281 E191.42394
G1 X107.013 Y101.792 E191.59693
G1 X107.013 Y101.237 E191.73567
G1 X107.503 Y100.748 E191.90866
G1 X107.503 Y100.193 E192.04740
G1 X107.013 Y99.704 E192.22039
G1 X107.013 Y99.149 E192.35913
G1 X107.503 Y98.659 E192.53212
G1 X107.503 Y98.104 E192.67086
G1 X107.013 Y97.615 E192.84385
G1 X107.013 Y97.060 E192.98259
G1 X107.503 Y96.571 E193.15558
G1 X107.503 Y96.016 E193.29432
G1 X107.013 Y95.527 E193.46731
G1 X107.013 Y94.972 E193.60605
G1 X107.503 Y94.482 E193.77904
G1 X107.503 Y93.927 E193.91778
G1 X107.013 Y93.438 E194.09077
G1 X107.013 Y92.883 E194.22951
G1 X107.503 Y92.394 E194.40250
G1 X107.503 Y91.839 E194.54124
G1 X107.013 Y91.350 E194.71423
G1 X107.013 Y90.795 E194.85297
G1 X107.049 Y90.759 E194.86563
G1 X106.423 Y90.759 E195.02227
G1 X106.458 Y90.795 E195.03494
G1 X106.458 Y91.350 E195.17367
G1 X105.969 Y91.839 E195.34667
G1 X105.969 Y92.394 E195.48540
G1 X106.458 Y92.883 E195.65840
G1 X106.458 Y93.438 E195.79713
G1 X105.969 Y93.927 E195.97013
G1 X105.969 Y94.482 E196.10886
G1 X106.458 Y94.972 E196.28186
G1 X106.458 Y95.527 E196.42059
G1 X105.969 Y96.016 E196.59359
G1 X105.969 Y96.571 E196.73232
G1 X106.458 Y97.060 E196.90532
G1 X106.458 Y97.615 E197.04405
G1 X105.969 Y98.104 E197.21705
G1 X105.969 Y98.659 E197.35579
G1 X106.458 Y99.149 E197.52878
G1 X106.458 Y99.704 E197.66752
G1 X105.969 Y100.193 E197.84051
G1 X105.969 Y100.748 E197.97925
G1 X106.458 Y101.237 E198.15224
G1 X106.458 Y101.792 E198.29098
G1 X105.969 Y102.281 E198.46397
G1 X105.969 Y102.836 E198.60271
G1 X106.458 Y103.326 E198.77570
G1 X106.458 Y103.881 E198.91444
G1 X105.969 Y104.370 E199.08743
G1 X105.969 Y104.925 E199.22617
G1 X106.458 Y105.414 E199.39916
G1 X106.458 Y105.969 E199.53790
G1 X105.969 Y106.458 E199.71089
G1 X105.969 Y107.013 E199.84963
G1 X106.458 Y107.503 E200.02262
G1 X106.458 Y108.058 E200.16136
G1 X105.969 Y108.547 E200.33435
G1 X105.969 Y109.102 E200.47309
G1 X106.108 Y109.241 E200.52236
G1 X105.275 Y109.241 E200.73077
G1 X105.414 Y109.102 E200.78004
G1 X105.414 Y108.547 E200.91877
G1 X104.925 Y108.058 E201.09177
G1 X104.925 Y107.503 E201.23051
G1 X105.414 Y107.013 E201.40350
G1 X105.414 Y106.458 E201.54224
G1 X104.925 Y105.969 E201.71523
G1 X104.925 Y105.414 E201.85397
G1 X105.414 Y104.925 E202.02696
G1 X105.414 Y104.370 E202.16570
G1 X104.925 Y103.881 E202.33869
G1 X104.925 Y103.326 E202.47743
G1 X105.414 Y102.836 E202.65042
G1 X105.414 Y102.281 E202.78916
G1 X104.925 Y101.792 E202.96215
G1 X104.925 Y101.237 E203.10089
G1 X105.414 Y100.748 E203.27388
G1 X105.414 Y100.193 E203.41262
G1 X104.925 Y99.704 E203.58561
G1 X104.925 Y99.149 E203.72435
G1 X105.414 Y98.659 E203.89734
G1 X105.414 Y98.104 E204.03608
G1 X104.925 Y97.615 E204.20907
G1 X104.925 Y97.060 E204.34781
G1 X105.414 Y96.571 E204.52080
G1 X105.414 Y96.016 E204.65954
G1 X104.925 Y95.527 E204.83253
G1 X104.925 Y94.972 E204.97127
G1 X105.414 Y94.482 E205.14426
G1 X105.414 Y93.927 E205.28300
G1 X104.925 Y93.438 E205.45600
G1 X104.925 Y92.883 E205.59473
G1 X105.414 Y92.394 E205.76773
G1 X105.414 Y91.839 E205.90646
G1 X104.925 Y91.350 E206.07946
G1 X104.925 Y90.795 E206.21819
G1 X104.961 Y90.759 E206.23085
G1 X104.334 Y90.759 E206.38750
G1 X104.370 Y90.795 E206.40016
G1 X104.370 Y91.350 E206.53889
G1 X103.881 Y91.839 E206.71189
G1 X103.881 Y92.394 E206.85062
G1 X104.370 Y92.883 E207.02362
G1 X104.370 Y93.438 E207.16236
G1 X103.881 Y93.927 E207.33535
G1 X103.881 Y94.482 E207.47409
G1 X104.370 Y94.972 E207.64708
G1 X104.370 Y95.527 E207.78582
G1 X103.881 Y96.016 E207.95881
G1 X103.881 Y96.571 E208.09755
G1 X104.370 Y97.060 E208.27054
G1 X104.370 Y97.615 E208.40928
G1 X103.881 Y98.104 E208.58227
G1 X103.881 Y98.659 E208.72101
G1 X104.370 Y99.149 E208.89400
G1 X104.370 Y99.704 E209.03274
G1 X103.881 Y100.193 E209.20573
G1 X103.881 Y100.748 E209.34447
G1 X104.370 Y101.237 E209.51746
G1 X104.370 Y101.792 E209.65620
G1 X103.881 Y102.281 E209.82919
G1 X103.881 Y102.836 E209.96793
G1 X104.370 Y103.326 E210.14092
G1 X104.370 Y103.881 E210.27966
G1 X103.881 Y104.370 E210.45265
G1 X103.881 Y104.925 E210.59139
G1 X104.370 Y105.414 E210.76438
G1 X104.370 Y105.969 E210.90312
G1 X103.881 Y106.458 E211.07611
G1 X103.881 Y107.013 E211.21485
G1 X104.370 Y107.503 E211.38785
G1 X104.370 Y108.058 E211.52658
G1 X103.881 Y108.547 E211.69958
G1 X103.881 Y109.102 E211.83831
G1 X104.020 Y109.241 E211.88758
G1 X103.186 Y109.241 E212.09599
G1 X103.326 Y109.102 E212.14526
G1 X103.326 Y108.547 E212.28400
G1 X102.836 Y108.058 E212.45699
G1 X102.836 Y107.503 E212.59573
G1 X103.326 Y107.013 E212.76872
G1 X103.326 Y106.458 E212.90746
G1 X102.836 Y105.969 E213.08045
G1 X102.836 Y105.414 E213.21919
G1 X103.326 Y104.925 E213.39218
G1 X103.326 Y104.370 E213.53092
G1 X102.836 Y103.881 E213.70391
G1 X102.836 Y103.326 E213.84265
G1 X103.326 Y102.836 E214.01564
G1 X103.326 Y102.281 E214.15438
G1 X102.836 Y101.792 E214.32737
G1 X102.836 Y101.237 E214.46611
G1 X103.326 Y100.748 E214.63910
G1 X103.326 Y100.193 E214.77784
G1 X102.836 Y99.704 E214.95084
G1 X102.836 Y99.149 E215.08957
G1 X103.326 Y98.659 E215.26257
G1 X103.326 Y98.104 E215.40130
G1 X102.836 Y97.615 E215.57430
G1 X102.836 Y97.060 E215.71303
G1 X103.326 Y96.571 E215.88603
G1 X103.326 Y96.016 E216.02476
G1 X102.836 Y95.527 E216.19776
G1 X102.836 Y94.972 E216.33649
G1 X103.326 Y94.482 E216.50949
G1 X103.326 Y93.927 E216.64822
G1 X102.836 Y93.438 E216.82122
G1 X102.836 Y92.883 E216.95995
G1 X103.326 Y92.394 E217.13295
G1 X103.326 Y91.839 E217.27168
G1 X102.836 Y91.350 E217.44468
G1 X102.836 Y90.795 E217.58342
G1 X102.872 Y90.759 E217.59608
G1 X102.246 Y90.759 E217.75272
G1 X102.281 Y90.795 E217.76538
G1 X102.281 Y91.350 E217.90412
G1 X101.792 Y91.839 E218.07711
G1 X101.792 Y92.394 E218.21585
G1 X102.281 Y92.883 E218.38884
G1 X102.281 Y93.438 E218.52758
G1 X101.792 Y93.927 E218.70057
G1 X101.792 Y94.482 E218.83931
G1 X102.281 Y94.972 E219.01230
G1 X102.281 Y95.527 E219.15104
G1 X101.792 Y96.016 E219.32403
G1 X101.792 Y96.571 E219.46277
G1 X102.281 Y97.060 E219.63576
G1 X102.281 Y97.615 E219.77450
G1 X101.792 Y98.104 E219.94749
G1 X101.792 Y98.659 E220.08623
G1 X102.281 Y99.149 E220.25922
G1 X102.281 Y99.704 E220.39796
G1 X101.792 Y100.193 E220.57095
G1 X101.792 Y100.748 E220.70969
G1 X102.281 Y101.237 E220.88268
G1 X102.281 Y101.792 E221.02142
G1 X101.792 Y102.281 E221.19441
G1 X101.792 Y102.836 E221.33315
G1 X102.281 Y103.326 E221.50614
G1 X102.281 Y103.881 E221.64488
G1 X101.792 Y104.370 E221.81788
G1 X101.792 Y104.925 E221.95661
G1 X102.281 Y105.414 E222.12961
G1 X102.281 Y105.969 E222.26834
G1 X101.792 Y106.458 E222.44134
G1 X101.792 Y107.013 E222.58007
G1 X102.281 Y107.503 E222.75307
G1 X102.281 Y108.058 E222.89180
G1 X101.792 Y108.547 E223.06480
G1 X101.792 Y109.102 E223.20353
G1 X101.931 Y109.241 E223.25280
G1 X101.098 Y109.241 E223.46122
G1 X101.237 Y109.102 E223.51048
G1 X101.237 Y108.547 E223.64922
G1 X100.748 Y108.058 E223.82221
G1 X100.748 Y107.503 E223.96095
G1 X101.237 Y107.013 E224.13394
G1 X101.237 Y106.458 E224.27268
G1 X100.748 Y105.969 E224.44568
G1 X100.748 Y105.414 E224.58441
G1 X101.237 Y104.925 E224.75741
G1 X101.237 Y104.370 E224.89614
G1 X100.748 Y103.881 E225.06914
G1 X100.748 Y103.326 E225.20787
G1 X101.237 Y102.836 E225.38087
G1 X101.237 Y102.281 E225.51960
G1 X100.748 Y101.792 E225.69260
G1 X100.748 Y101.237 E225.83133
G1 X101.237 Y100.748 E226.00433
G1 X101.237 Y100.193 E226.14307
G1 X100.748 Y99.704 E226.31606
G1 X100.748 Y99.149 E226.45480
G1 X101.237 Y98.659 E226.62779
G1 X101.237 Y98.104 E226.76653
G1 X100.748 Y97.615 E226.93952
G1 X100.748 Y97.060 E227.07826
G1 X101.237 Y96.571 E227.25125
G1 X101.237 Y96.016 E227.38999
G1 X100.748 Y95.527 E227.56298
G1 X100.748 Y94.972 E227.70172
G1 X101.237 Y94.482 E227.87471
G1 X101.237 Y93.927 E228.01345
G1 X100.748 Y93.438 E228.18644
G1 X100.748 Y92.883 E228.32518
G1 X101.237 Y92.394 E228.49817
G1 X101.237 Y91.839 E228.63691
G1 X100.748 Y91.350 E228.80990
G1 X100.748 Y90.795 E228.94864
G1 X100.784 Y90.759 E228.96130
G1 X100.157 Y90.759 E229.11794
G1 X100.193 Y90.795 E229.13060
G1 X100.193 Y91.350 E229.26934
G1 X99.704 Y91.839 E229.44233
G1 X99.704 Y92.394 E229.58107
G1 X100.193 Y92.883 E229.75406
G1 X100.193 Y93.438 E229.89280
G1 X99.704 Y93.927 E230.06579
G1 X99.704 Y94.482 E230.20453
G1 X100.193 Y94.972 E230.37752
G1 X100.193 Y95.527 E230.51626
G1 X99.704 Y96.016 E230.68926
G1 X99.704 Y96.571 E230.82799
G1 X100.193 Y97.060 E231.00099
G1 X100.193 Y97.615 E231.13972
G1 X99.704 Y98.104 E231.31272
G1 X99.704 Y98.659 E231.45145
G1 X100.193 Y99.149 E231.62445
G1 X100.193 Y99.704 E231.76318
G1 X99.704 Y100.193 E231.93618
G1 X99.704 Y100.748 E232.07491
G1 X100.193 Y101.237 E232.24791
G1 X100.193 Y101.792 E232.38664
G1 X99.704 Y102.281 E232.55964
G1 X99.704 Y102.836 E232.69837
G1 X100.193 Y103.326 E232.87137
G1 X100.193 Y103.881 E233.01010
G1 X99.704 Y104.370 E233.18310
G1 X99.704 Y104.925 E233.32184
G1 X100.193 Y105.414 E233.49483
G1 X100.193 Y105.969 E233.63357
G1 X99.704 Y106.458 E233.80656
G1 X99.704 Y107.013 E233.94530
G1 X100.193 Y107.503 E234.11829
G1 X100.193 Y108.058 E234.25703
G1 X99.704 Y108.547 E234.43002
G1 X99.704 Y109.102 E234.56876
G1 X99.843 Y109.241 E234.61802
G1 X99.009 Y109.241 E234.82644
G1 X99.149 Y109.102 E234.87571
G1 X99.149 Y108.547 E235.01444
G1 X98.659 Y108.058 E235.18744
G1 X98.659 Y107.503 E235.32617
G1 X99.149 Y107.013 E235.49917
G1 X99.149 Y106.458 E235.63790
G1 X98.659 Y105.969 E235.81090
G1 X98.659 Y105.414 E235.94963
G1 X99.149 Y104.925 E236.12263
G1 X99.149 Y104.370 E236.26136
G1 X98.659 Y103.881 E236.43436
G1 X98.659 Y103.326 E236.57310
G1 X99.149 Y102.836 E236.74609
G1 X99.149 Y102.281 E236.88483
G1 X98.659 Y101.792 E237.05782
G1 X98.659 Y101.237 E237.19656
G1 X99.149 Y100.748 E237.36955
G1 X99.149 Y100.193 E237.50829
G1 X98.659 Y99.704 E237.68128
G1 X98.659 Y99.149 E237.82002
G1 X99.149 Y98.659 E237.99301
G1 X99.149 Y98.104 E238.13175
G1 X98.659 Y97.615 E238.30474
G1 X98.659 Y97.060 E238.44348
G1 X99.149 Y96.571 E238.61647
G1 X99.149 Y96.016 E238.75521
G1 X98.659 Y95.527 E238.92820
G1 X98.659 Y94.972 E239.06694
G1 X99.149 Y94.482 E239.23993
G1 X99.149 Y93.927 E239.37867
G1 X98.659 Y93.438 E239.55166
G1 X98.659 Y92.883 E239.69040
G1 X99.149 Y92.394 E239.86339
G1 X99.149 Y91.839 E240.00213
G1 X98.659 Y91.350 E240.17512
G1 X98.659 Y90.795 E240.31386
G1 X98.695 Y90.759 E240.32652
G1 X98.069 Y90.759 E240.48316
G1 X98.104 Y90.795 E240.49583
G1 X98.104 Y91.350 E240.63456
G1 X97.615 Y91.839 E240.80756
G1 X97.615 Y92.394 E240.94629
G1 X98.104 Y92.883 E241.11929
G1 X98.104 Y93.438 E241.25802
G1 X97.615 Y93.927 E241.43102
G1 X97.615 Y94.482 E241.56975
G1 X98.104 Y94.972 E241.74275
G1 X98.104 Y95.527 E241.88148
G1 X97.615 Y96.016 E242.05448
G1 X97.615 Y96.571 E242.19322
G1 X98.104 Y97.060 E242.36621
G1 X98.104 Y97.615 E242.50495
G1 X97.615 Y98.104 E242.67794
G1 X97.615 Y98.659 E242.81668
G1 X98.104 Y99.149 E242.98967
G1 X98.104 Y99.704 E243.12841
G1 X97.615 Y100.193 E243.30140
G1 X97.615 Y100.748 E243.44014
G1 X98.104 Y101.237 E243.61313
G1 X98.104 Y101.792 E243.75187
G1 X97.615 Y102.281 E243.92486
G1 X97.615 Y102.836 E244.06360
G1 X98.104 Y103.326 E244.23659
G1 X98.104 Y103.881 E244.37533
G1 X97.615 Y104.370 E244.54832
G1 X97.615 Y104.925 E244.68706
G1 X98.104 Y105.414 E244.86005
G1 X98.104 Y105.969 E244.99879
G1 X97.615 Y106.458 E245.17178
G1 X97.615 Y107.013 E245.31052
G1 X98.104 Y107.503 E245.48351
G1 X98.104 Y108.058 E245.62225
G1 X97.615 Y108.547 E245.79524
G1 X97.615 Y109.102 E245.93398
G1 X97.754 Y109.241 E245.98325
G1 X96.921 Y109.241 E246.19166
G1 X97.060 Y109.102 E246.24093
G1 X97.060 Y108.547 E246.37967
G1 X96.571 Y108.058 E246.55266
G1 X96.571 Y107.503 E246.69140
G1 X97.060 Y107.013 E246.86439
G1 X97.060 Y106.458 E247.00313
G1 X96.571 Y105.969 E247.17612
G1 X96.571 Y105.414 E247.31486
G1 X97.060 Y104.925 E247.48785
G1 X97.060 Y104.370 E247.62659
G1 X96.571 Y103.881 E247.79958
G1 X96.571 Y103.326 E247.93832
G1 X97.060 Y102.836 E248.11131
G1 X97.060 Y102.281 E248.25005
G1 X96.571 Y101.792 E248.42304
G1 X96.571 Y101.237 E248.56178
G1 X97.060 Y100.748 E248.73477
G1 X97.060 Y100.193 E248.87351
G1 X96.571 Y99.704 E249.04650
G1 X96.571 Y99.149 E249.18524
G1 X97.060 Y98.659 E249.35823
G1 X97.060 Y98.104 E249.49697
G1 X96.571 Y97.615 E249.66996
G1 X96.571 Y97.060 E249.80870
G1 X97.060 Y96.571 E249.98169
G1 X97.060 Y96.016 E250.12043
G1 X96.571 Y95.527 E250.29342
G1 X96.571 Y94.972 E250.43216
G1 X97.060 Y94.482 E250.60515
G1 X97.060 Y93.927 E250.74389
G1 X96.571 Y93.438 E250.91689
G1 X96.571 Y92.883 E251.05562
G1 X97.060 Y92.394 E251.22862
G1 X97.060 Y91.839 E251.36735
G1 X96.571 Y91.350 E251.54035
G1 X96.571 Y90.795 E251.67908
G1 X96.607 Y90.759 E251.69174
G1 X95.980 Y90.759 E251.84839
G1 X96.016 Y90.795 E251.86105
G1 X96.016 Y91.350 E251.99978
G1 X95.527 Y91.839 E252.17278
G1 X95.527 Y92.394 E252.31151
G1 X96.016 Y92.883 E252.48451
G1 X96.016 Y93.438 E252.62325
G1 X95.527 Y93.927 E252.79624
G1 X95.527 Y94.482 E252.93498
G1 X96.016 Y94.972 E253.10797
G1 X96.016 Y95.527 E253.24671
G1 X95.527 Y96.016 E253.41970
G1 X95.527 Y96.571 E253.55844
G1 X96.016 Y97.060 E253.73143
G1 X96.016 Y97.615 E253.87017
G1 X95.527 Y98.104 E254.04316
G1 X95.527 Y98.659 E254.18190
G1 X96.016 Y99.149 E254.35489
G1 X96.016 Y99.704 E254.49363
G1 X95.527 Y100.193 E254.66662
G1 X95.527 Y100.748 E254.80536
G1 X96.016 Y101.237 E254.97835
G1 X96.016 Y101.792 E255.11709
G1 X95.527 Y102.281 E255.29008
G1 X95.527 Y102.836 E255.42882
G1 X96.016 Y103.326 E255.60181
G1 X96.016 Y103.881 E255.74055
G1 X95.527 Y104.370 E255.91354
G1 X95.527 Y104.925 E256.05228
G1 X96.016 Y105.414 E256.22527
G1 X96.016 Y105.969 E256.36401
G1 X95.527 Y106.458 E256.53700
G1 X95.527 Y107.013 E256.67574
G1 X96.016 Y107.503 E256.84874
G1 X96.016 Y108.058 E256.98747
G1 X95.527 Y108.547 E257.16047
G1 X95.527 Y109.102 E257.29920
G1 X95.666 Y109.241 E257.34847
G1 X94.832 Y109.241 E257.55688
G1 X94.972 Y109.102 E257.60615
G1 X94.972 Y108.547 E257.74489
G1 X94.482 Y108.058 E257.91788
G1 X94.482 Y107.503 E258.05662
G1 X94.972 Y107.013 E258.22961
G1 X94.972 Y106.458 E258.36835
G1 X94.482 Y105.969 E258.54134
G1 X94.482 Y105.414 E258.68008
G1 X94.972 Y104.925 E258.85307
G1 X94.972 Y104.370 E258.99181
G1 X94.482 Y103.881 E259.16480
G1 X94.482 Y103.326 E259.30354
G1 X94.972 Y102.836 E259.47653
G1 X94.972 Y102.281 E259.61527
G1 X94.482 Y101.792 E259.78827
G1 X94.482 Y101.237 E259.92700
G1 X94.972 Y100.748 E260.10000
G1 X94.972 Y100.193 E260.23873
G1 X94.482 Y99.704 E260.41173
G1 X94.482 Y99.149 E260.55046
G1 X94.972 Y98.659 E260.72346
G1 X94.972 Y98.104 E260.86219
G1 X94.482 Y97.615 E261.03519
G1 X94.482 Y97.060 E261.17392
G1 X94.972 Y96.571 E261.34692
G1 X94.972 Y96.016 E261.48566
G1 X94.482 Y95.527 E261.65865
G1 X94.482 Y94.972 E261.79739
G1 X94.972 Y94.482 E261.97038
G1 X94.972 Y93.927 E262.10912
G1 X94.482 Y93.438 E262.28211
G1 X94.482 Y92.883 E262.42085
G1 X94.972 Y92.394 E262.59384
G1 X94.972 Y91.839 E262.73258
G1 X94.482 Y91.350 E262.90557
G1 X94.482 Y90.795 E263.04431
G1 X94.518 Y90.759 E263.05697
G1 X93.892 Y90.759 E263.21361
G1 X93.927 Y90.795 E263.22627
G1 X93.927 Y91.350 E263.36501
G1 X93.438 Y91.839 E263.53800
G1 X93.438 Y92.394 E263.67674
G1 X93.927 Y92.883 E263.84973
G1 X93.927 Y93.438 E263.98847
G1 X93.438 Y93.927 E264.16146
G1 X93.438 Y94.482 E264.30020
G1 X93.927 Y94.972 E264.47319
G1 X93.927 Y95.527 E264.61193
G1 X93.438 Y96.016 E264.78492
G1 X93.438 Y96.571 E264.92366
G1 X93.927 Y97.060 E265.09665
G1 X93.927 Y97.615 E265.23539
G1 X93.438 Y98.104 E265.40838
G1 X93.438 Y98.659 E265.54712
G1 X93.927 Y99.149 E265.72011
G1 X93.927 Y99.704 E265.85885
G1 X93.438 Y100.193 E266.03184
G1 X93.438 Y100.748 E266.17058
G1 X93.927 Y101.237 E266.34357
G1 X93.927 Y101.792 E266.48231
G1 X93.438 Y102.281 E266.65531
G1 X93.438 Y102.836 E266.79404
G1 X93.927 Y103.326 E266.96704
G1 X93.927 Y103.881 E267.10577
G1 X93.438 Y104.370 E267.27877
G1 X93.438 Y104.925 E267.41750
G1 X93.927 Y105.414 E267.59050
G1 X93.927 Y105.969 E267.72923
G1 X93.438 Y106.458 E267.90223
G1 X93.438 Y107.013 E268.04096
G1 X93.927 Y107.503 E268.21396
G1 X93.927 Y108.058 E268.35269
G1 X93.438 Y108.547 E268.52569
G1 X93.438 Y109.102 E268.66442
G1 X93.577 Y109.241 E268.71369
G1 X92.744 Y109.241 E268.92211
G1 X92.883 Y109.102 E268.97137
G1 X92.883 Y108.547 E269.11011
G1 X92.394 Y108.058 E269.28310
G1 X92.394 Y107.503 E269.42184
G1 X92.883 Y107.013 E269.59483
G1 X92.883 Y106.458 E269.73357
G1 X92.394 Y105.969 E269.90656
G1 X92.394 Y105.414 E270.04530
G1 X92.883 Y104.925 E270.21830
G1 X92.883 Y104.370 E270.35703
G1 X92.394 Y103.881 E270.53003
G1 X92.394 Y103.326 E270.66876
G1 X92.883 Y102.836 E270.84176
G1 X92.883 Y102.281 E270.98049
G1 X92.394 Y101.792 E271.15349
G1 X92.394 Y101.237 E271.29222
G1 X92.883 Y100.748 E271.46522
G1 X92.883 Y100.193 E271.60395
G1 X92.394 Y99.704 E271.77695
G1 X92.394 Y99.149 E271.91569
G1 X92.883 Y98.659 E272.08868
G1 X92.883 Y98.104 E272.22742
G1 X92.394 Y97.615 E272.40041
G1 X92.394 Y97.060 E272.53915
G1 X92.883 Y96.571 E272.71214
G1 X92.883 Y96.016 E272.85088
G1 X92.394 Y95.527 E273.02387
G1 X92.394 Y94.972 E273.16261
G1 X92.883 Y94.482 E273.33560
G1 X92.883 Y93.927 E273.47434
G1 X92.394 Y93.438 E273.64733
G1 X92.394 Y92.883 E273.78607
G1 X92.883 Y92.394 E273.95906
G1 X92.883 Y91.839 E274.09780
G1 X92.394 Y91.350 E274.27079
G1 X92.394 Y90.795 E274.40953
G1 X92.430 Y90.759 E274.42219
G1 X91.803 Y90.759 E274.57883
G1 X91.839 Y90.795 E274.59149
G1 X91.839 Y91.350 E274.73023
G1 X91.350 Y91.839 E274.90322
G1 X91.350 Y92.394 E275.04196
G1 X91.839 Y92.883 E275.21495
G1 X91.839 Y93.438 E275.35369
G1 X91.350 Y93.927 E275.52668
G1 X91.350 Y94.482 E275.66542
G1 X91.839 Y94.972 E275.83842
G1 X91.839 Y95.527 E275.97715
G1 X91.350 Y96.016 E276.15015
G1 X91.350 Y96.571 E276.28888
G1 X91.839 Y97.060 E276.46188
G1 X91.839 Y97.615 E276.60061
G1 X91.350 Y98.104 E276.77361
G1 X91.350 Y98.659 E276.91234
G1 X91.839 Y99.149 E277.08534
G1 X91.839 Y99.704 E277.22407
G1 X91.350 Y100.193 E277.39707
G1 X91.350 Y100.748 E277.53580
G1 X91.839 Y101.237 E277.70880
G1 X91.839 Y101.792 E277.84754
G1 X91.350 Y102.281 E278.02053
G1 X91.350 Y102.836 E278.15927
G1 X91.839 Y103.326 E278.33226
G1 X91.839 Y103.881 E278.47100
G1 X91.350 Y104.370 E278.64399
G1 X91.350 Y104.925 E278.78273
G1 X91.839 Y105.414 E278.95572
G1 X91.839 Y105.969 E279.09446
G1 X91.350 Y106.458 E279.26745
G1 X91.350 Y107.013 E279.40619
G1 X91.839 Y107.503 E279.57918
G1 X91.839 Y108.058 E279.71792
G1 X91.350 Y108.547 E279.89091
G1 X91.350 Y109.102 E280.02965
G1 X91.489 Y109.241 E280.07892
G1 X90.759 Y108.511 E280.33705
G1 X90.795 Y108.547 E280.34971
G1 X90.795 Y109.102 E280.48845
G1 X90.759 Y109.138 E280.50111
G1 X90.759 Y107.049 F7800.000
G1 X90.795 Y107.013 E280.51377 F4800.000
G1 X90.795 Y106.458 E280.65251
G1 X90.759 Y106.423 E280.66517
G1 X90.759 Y104.961 E281.03065
G1 X90.795 Y104.925 E281.04331
G1 X90.795 Y104.370 E281.18205
G1 X90.759 Y104.334 E281.19471
G1 X90.759 Y102.872 E281.56019
G1 X90.795 Y102.836 E281.57285
G1 X90.795 Y102.281 E281.71159
G1 X90.759 Y102.246 E281.72425
G1 X90.759 Y100.784 E282.08973
G1 X90.795 Y100.748 E282.10239
G1 X90.795 Y100.193 E282.24113
G1 X90.759 Y100.157 E282.25379
G1 X90.759 Y98.695 E282.61927
G1 X90.795 Y98.659 E282.63193
G1 X90.795 Y98.104 E282.77067
G1 X90.759 Y98.069 E282.78333
G1 X90.759 Y96.607 E283.14881
G1 X90.795 Y96.571 E283.16147
G1 X90.795 Y96.016 E283.30021
G1 X90.759 Y95.980 E283.31287
G1 X90.759 Y94.518 E283.67835
G1 X90.795 Y94.482 E283.69101
G1 X90.795 Y93.927 E283.82975
G1 X90.759 Y93.892 E283.84241
G1 X90.759 Y92.430 E284.20789
G1 X90.795 Y92.394 E284.22055
G1 X90.795 Y91.839 E284.35929
G1 X90.759 Y91.803 E284.37195
M106 S255
G1 Z2.000 F7800.000
G1 X90.759 Y91.485 F7800.000
G1 X91.485 Y91.485 E284.55358 F4453.229
G1 X91.703 Y91.703 E284.63058
G1 X92.530 Y91.703 E284.83719
G1 X92.747 Y91.485 E284.91420
G1 X93.574 Y91.485 E285.12081
G1 X93.792 Y91.703 E285.19782
G1 X94.618 Y91.703 E285.40443
G1 X94.836 Y91.485 E285.48143
G1 X95.662 Y91.485 E285.68804
G1 X95.880 Y91.703 E285.76505
G1 X96.707 Y91.703 E285.97166
G1 X96.924 Y91.485 E286.04867
G1 X97.751 Y91.485 E286.25528
G1 X97.969 Y91.703 E286.33228
G1 X98.795 Y91.703 E286.53889
G1 X99.013 Y91.485 E286.61590
G1 X99.839 Y91.485 E286.82251
G1 X100.057 Y91.703 E286.89952
G1 X100.884 Y91.703 E287.10613
G1 X101.101 Y91.485 E287.18313
G1 X101.928 Y91.485 E287.38974
G1 X102.146 Y91.703 E287.46675
G1 X102.972 Y91.703 E287.67336
G1 X103.190 Y91.485 E287.75037
G1 X104.016 Y91.485 E287.95698
G1 X104.234 Y91.703 E288.03398
G1 X105.061 Y91.703 E288.24059
G1 X105.278 Y91.485 E288.31760
G1 X106.105 Y91.485 E288.52421
G1 X106.323 Y91.703 E288.60122
G1 X107.149 Y91.703 E288.80783
G1 X107.367 Y91.485 E288.88483
G1 X108.193 Y91.485 E289.09144
G1 X108.411 Y91.703 E289.16845
G1 X109.241 Y91.700 E289.37596
G1 X109.241 Y92.533 E289.58438
G1 X108.411 Y92.530 E289.79189
G1 X108.193 Y92.747 E289.86890
G1 X107.367 Y92.747 E290.07551
G1 X107.149 Y92.530 E290.15251
G1 X106.323 Y92.530 E290.35912
G1 X106.105 Y92.747 E290.43613
G1 X105.278 Y92.747 E290.64274
G1 X105.061 Y92.530 E290.71975
G1 X104.234 Y92.530 E290.92636
G1 X104.016 Y92.747 E291.00336
G1 X103.190 Y92.747 E291.20997
G1 X102.972 Y92.530 E291.28698
G1 X102.146 Y92.530 E291.49359
G1 X101.928 Y92.747 E291.57060
G1 X101.101 Y92.747 E291.77721
G1 X100.884 Y92.530 E291.85421
G1 X100.057 Y92.530 E292.06082
G1 X99.839 Y92.747 E292.13783
G1 X99.013 Y92.747 E292.34444
G1 X98.795 Y92.530 E292.42145
G1 X97.969 Y92.530 E292.62806
G1 X97.751 Y92.747 E292.70506
G1 X96.924 Y92.747 E292.91167
G1 X96.707 Y92.530 E292.98868
G1 X95.880 Y92.530 E293.19529
G1 X95.662 Y92.747 E293.27230
G1 X94.836 Y92.747 E293.47891
G1 X94.618 Y92.530 E293.55591
G1 X93.792 Y92.530 E293.76252
G1 X93.574 Y92.747 E293.83953
G1 X92.747 Y92.747 E294.04614
G1 X92.530 Y92.530 E294.12315
G1 X91.703 Y92.530 E294.32976
G1 X91.485 Y92.747 E294.40676
G1 X90.759 Y92.747 E294.58839
G1 X90.759 Y93.574 E294.79500
G1 X91.485 Y93.574 E294.97662
G1 X91.703 Y93.792 E295.05363
G1 X92.530 Y93.792 E295.26024
G1 X92.747 Y93.574 E295.33725
G1 X93.574 Y93.574 E295.54386
G1 X93.792 Y93.792 E295.62086
G1 X94.618 Y93.792 E295.82747
G1 X94.836 Y93.574 E295.90448
G1 X95.662 Y93.574 E296.11109
G1 X95.880 Y93.792 E296.18810
G1 X96.707 Y93.792 E296.39471
G1 X96.924 Y93.574 E296.47171
G1 X97.751 Y93.574 E296.67832
G1 X97.969 Y93.792 E296.75533
G1 X98.795 Y93.792 E296.96194
G1 X99.013 Y93.574 E297.03895
G1 X99.839 Y93.574 E297.24556
G1 X100.057 Y93.792 E297.32256
G1 X100.884 Y93.792 E297.52917
G1 X101.101 Y93.574 E297.60618
G1 X101.928 Y93.574 E297.81279
G1 X102.146 Y93.792 E297.88980
G1 X102.972 Y93.792 E298.09641
G1 X103.190 Y93.574 E298.17341
G1 X104.016 Y93.574 E298.38002
G1 X104.234 Y93.792 E298.45703
G1 X105.061 Y93.792 E298.66364
G1 X105.278 Y93.574 E298.74065
G1 X106.105 Y93.574 E298.94726
G1 X106.323 Y93.792 E299.02427
G1 X107.149 Y93.792 E299.23088
G1 X107.367 Y93.574 E299.30788
G1 X108.193 Y93.574 E299.51449
G1 X108.411 Y93.792 E299.59150
G1 X109.241 Y93.788 E299.79901
G1 X109.241 Y94.622 E300.00742
G1 X108.411 Y94.618 E300.21494
G1 X108.193 Y94.836 E300.29194
G1 X107.367 Y94.836 E300.49855
G1 X107.149 Y94.618 E300.57556
G1 X106.323 Y94.618 E300.78217
G1 X106.105 Y94.836 E300.85918
G1 X105.278 Y94.836 E301.06579
G1 X105.061 Y94.618 E301.14279
G1 X104.234 Y94.618 E301.34940
G1 X104.016 Y94.836 E301.42641
G1 X103.190 Y94.836 E301.63302
G1 X102.972 Y94.618 E301.71003
G1 X102.146 Y94.618 E301.91664
G1 X101.928 Y94.836 E301.99364
G1 X101.101 Y94.836 E302.20025
G1 X100.884 Y94.618 E302.27726
G1 X100.057 Y94.618 E302.48387
G1 X99.839 Y94.836 E302.56088
G1 X99.013 Y94.836 E302.76749
G1 X98.795 Y94.618 E302.84450
G1 X97.969 Y94.618 E303.05110
G1 X97.751 Y94.836 E303.12811
G1 X96.924 Y94.836 E303.33472
G1 X96.707 Y94.618 E303.41173
G1 X95.880 Y94.618 E303.61834
G1 X95.662 Y94.836 E303.69535
G1 X94.836 Y94.836 E303.90195
G1 X94.618 Y94.618 E303.97896
G1 X93.792 Y94.618 E304.18557
G1 X93.574 Y94.836 E304.26258
G1 X92.747 Y94.836 E304.46919
G1 X92.530 Y94.618 E304.54620
G1 X91.703 Y94.618 E304.75280
G1 X91.485 Y94.836 E304.82981
G1 X90.759 Y94.836 E305.01144
G1 X90.759 Y95.662 E305.21805
G1 X91.485 Y95.662 E305.39967
G1 X91.703 Y95.880 E305.47668
G1 X92.530 Y95.880 E305.68329
G1 X92.747 Y95.662 E305.76030
G1 X93.574 Y95.662 E305.96691
G1 X93.792 Y95.880 E306.04391
G1 X94.618 Y95.880 E306.25052
G1 X94.836 Y95.662 E306.32753
G1 X95.662 Y95.662 E306.53414
G1 X95.880 Y95.880 E306.61115
G1 X96.707 Y95.880 E306.81776
G1 X96.924 Y95.662 E306.89476
G1 X97.751 Y95.662 E307.10137
G1 X97.969 Y95.880 E307.17838
G1 X98.795 Y95.880 E307.38499
G1 X99.013 Y95.662 E307.46200
G1 X99.839 Y95.662 E307.66861
G1 X100.057 Y95.880 E307.74561
G1 X100.884 Y95.880 E307.95222
G1 X101.101 Y95.662 E308.02923
G1 X101.928 Y95.662 E308.23584
G1 X102.146 Y95.880 E308.31285
G1 X102.972 Y95.880 E308.51946
G1 X103.190 Y95.662 E308.59646
G1 X104.016 Y95.662 E308.80307
G1 X104.234 Y95.880 E308.88008
G1 X105.061 Y95.880 E309.08669
G1 X105.278 Y95.662 E309.16370
G1 X106.105 Y95.662 E309.37031
G1 X106.323 Y95.880 E309.44731
G1 X107.149 Y95.880 E309.65392
G1 X107.367 Y95.662 E309.73093
G1 X108.193 Y95.662 E309.93754
G1 X108.411 Y95.880 E310.01455
G1 X109.241 Y95.877 E310.22206
G1 X109.241 Y96.710 E310.43047
G1 X108.411 Y96.707 E310.63799
G1 X108.193 Y96.924 E310.71499
G1 X107.367 Y96.924 E310.92160
G1 X107.149 Y96.707 E310.99861
G1 X106.323 Y96.707 E311.20522
G1 X106.105 Y96.924 E311.28223
G1 X105.278 Y96.924 E311.48884
G1 X105.061 Y96.707 E311.56584
G1 X104.234 Y96.707 E311.77245
G1 X104.016 Y96.924 E311.84946
G1 X103.190 Y96.924 E312.05607
G1 X102.972 Y96.707 E312.13308
G1 X102.146 Y96.707 E312.33969
G1 X101.928 Y96.924 E312.41669
G1 X101.101 Y96.924 E312.62330
G1 X100.884 Y96.707 E312.70031
G1 X100.057 Y96.707 E312.90692
G1 X99.839 Y96.924 E312.98393
G1 X99.013 Y96.924 E313.19054
G1 X98.795 Y96.707 E313.26754
G1 X97.969 Y96.707 E313.47415
G1 X97.751 Y96.924 E313.55116
G1 X96.924 Y96.924 E313.75777
G1 X96.707 Y96.707 E313.83478
G1 X95.880 Y96.707 E314.04139
G1 X95.662 Y96.924 E314.11839
G1 X94.836 Y96.924 E314.32500
G1 X94.618 Y96.707 E314.40201
G1 X93.792 Y96.707 E314.60862
G1 X93.574 Y96.924 E314.68563
G1 X92.747 Y96.924 E314.89224
G1 X92.530 Y96.707 E314.96924
G1 X91.703 Y96.707 E315.17585
G1 X91.485 Y96.924 E315.25286
G1 X90.759 Y96.924 E315.43449
G1 X90.759 Y97.751 E315.64110
G1 X91.485 Y97.751 E315.82272
G1 X91.703 Y97.969 E315.89973
G1 X92.530 Y97.969 E316.10634
G1 X92.747 Y97.751 E316.18335
G1 X93.574 Y97.751 E316.38996
G1 X93.792 Y97.969 E316.46696
G1 X94.618 Y97.969 E316.67357
G1 X94.836 Y97.751 E316.75058
G1 X95.662 Y97.751 E316.95719
G1 X95.880 Y97.969 E317.03420
G1 X96.707 Y97.969 E317.24081
G1 X96.924 Y97.751 E317.31781
G1 X97.751 Y97.751 E317.52442
G1 X97.969 Y97.969 E317.60143
G1 X98.795 Y97.969 E317.80804
G1 X99.013 Y97.751 E317.88505
G1 X99.839 Y97.751 E318.09166
G1 X100.057 Y97.969 E318.16866
G1 X100.884 Y97.969 E318.37527
G1 X101.101 Y97.751 E318.45228
G1 X101.928 Y97.751 E318.65889
G1 X102.146 Y97.969 E318.73590
G1 X102.972 Y97.969 E318.94251
G1 X103.190 Y97.751 E319.01951
G1 X104.016 Y97.751 E319.22612
G1 X104.234 Y97.969 E319.30313
G1 X105.061 Y97.969 E319.50974
G1 X105.278 Y97.751 E319.58675
G1 X106.105 Y97.751 E319.79336
G1 X106.323 Y97.969 E319.87036
G1 X107.149 Y97.969 E320.07697
G1 X107.367 Y97.751 E320.15398
G1 X108.193 Y97.751 E320.36059
G1 X108.411 Y97.969 E320.43760
G1 X109.241 Y97.965 E320.64511
G1 X109.241 Y98.799 E320.85352
G1 X108.411 Y98.795 E321.06104
G1 X108.193 Y99.013 E321.13804
G1 X107.367 Y99.013 E321.34465
G1 X107.149 Y98.795 E321.42166
G1 X106.323 Y98.795 E321.62827
G1 X106.105 Y99.013 E321.70528
G1 X105.278 Y99.013 E321.91189
G1 X105.061 Y98.795 E321.98889
G1 X104.234 Y98.795 E322.19550
G1 X104.016 Y99.013 E322.27251
G1 X103.190 Y99.013 E322.47912
G1 X102.972 Y98.795 E322.55613
G1 X102.146 Y98.795 E322.76274
G1 X101.928 Y99.013 E322.83974
G1 X101.101 Y99.013 E323.04635
G1 X100.884 Y98.795 E323.12336
G1 X100.057 Y98.795 E323.32997
G1 X99.839 Y99.013 E323.40698
G1 X99.013 Y99.013 E323.61359
G1 X98.795 Y98.795 E323.69059
G1 X97.969 Y98.795 E323.89720
G1 X97.751 Y99.013 E323.97421
G1 X96.924 Y99.013 E324.18082
G1 X96.707 Y98.795 E324.25783
G1 X95.880 Y98.795 E324.46444
G1 X95.662 Y99.013 E324.54144
G1 X94.836 Y99.013 E324.74805
G1 X94.618 Y98.795 E324.82506
G1 X93.792 Y98.795 E325.03167
G1 X93.574 Y99.013 E325.10868
G1 X92.747 Y99.013 E325.31529
G1 X92.530 Y98.795 E325.39229
G1 X91.703 Y98.795 E325.59890
G1 X91.485 Y99.013 E325.67591
G1 X90.759 Y99.013 E325.85754
G1 X90.759 Y99.839 E326.06415
G1 X91.485 Y99.839 E326.24577
G1 X91.703 Y100.057 E326.32278
G1 X92.530 Y100.057 E326.52939
G1 X92.747 Y99.839 E326.60640
G1 X93.574 Y99.839 E326.81301
G1 X93.792 Y100.057 E326.89001
G1 X94.618 Y100.057 E327.09662
G1 X94.836 Y99.839 E327.17363
G1 X95.662 Y99.839 E327.38024
G1 X95.880 Y100.057 E327.45725
G1 X96.707 Y100.057 E327.66386
G1 X96.924 Y99.839 E327.74086
G1 X97.751 Y99.839 E327.94747
G1 X97.969 Y100.057 E328.02448
G1 X98.795 Y100.057 E328.23109
G1 X99.013 Y99.839 E328.30810
G1 X99.839 Y99.839 E328.51471
G1 X100.057 Y100.057 E328.59171
G1 X100.884 Y100.057 E328.79832
G1 X101.101 Y99.839 E328.87533
G1 X101.928 Y99.839 E329.08194
G1 X102.146 Y100.057 E329.15895
G1 X102.972 Y100.057 E329.36556
G1 X103.190 Y99.839 E329.44256
G1 X104.016 Y99.839 E329.64917
G1 X104.234 Y100.057 E329.72618
G1 X105.061 Y100.057 E329.93279
G1 X105.278 Y99.839 E330.00980
G1 X106.105 Y99.839 E330.21641
G1 X106.323 Y100.057 E330.29341
G1 X107.149 Y100.057 E330.50002
G1 X107.367 Y99.839 E330.57703
G1 X108.193 Y99.839 E330.78364
G1 X108.411 Y100.057 E330.86065
G1 X109.241 Y100.054 E331.06816
G1 X109.241 Y100.887 E331.27657
G1 X108.411 Y100.884 E331.48409
G1 X108.193 Y101.101 E331.56109
G1 X107.367 Y101.101 E331.76770
G1 X107.149 Y100.884 E331.84471
G1 X106.323 Y100.884 E332.05132
G1 X106.105 Y101.101 E332.12833
G1 X105.278 Y101.101 E332.33494
G1 X105.061 Y100.884 E332.41194
G1 X104.234 Y100.884 E332.61855
G1 X104.016 Y101.101 E332.69556
G1 X103.190 Y101.101 E332.90217
G1 X102.972 Y100.884 E332.97918
G1 X102.146 Y100.884 E333.18579
G1 X101.928 Y101.101 E333.26279
G1 X101.101 Y101.101 E333.46940
G1 X100.884 Y100.884 E333.54641
G1 X100.057 Y100.884 E333.75302
G1 X99.839 Y101.101 E333.83003
G1 X99.013 Y101.101 E334.03664
G1 X98.795 Y100.884 E334.11364
G1 X97.969 Y100.884 E334.32025
G1 X97.751 Y101.101 E334.39726
G1 X96.924 Y101.101 E334.60387
G1 X96.707 Y100.884 E334.68088
G1 X95.880 Y100.884 E334.88749
G1 X95.662 Y101.101 E334.96449
G1 X94.836 Y101.101 E335.17110
G1 X94.618 Y100.884 E335.24811
G1 X93.792 Y100.884 E335.45472
G1 X93.574 Y101.101 E335.53173
G1 X92.747 Y101.101 E335.73834
G1 X92.530 Y100.884 E335.81534
G1 X91.703 Y100.884 E336.02195
G1 X91.485 Y101.101 E336.09896
G1 X90.759 Y101.101 E336.28058
G1 X90.759 Y101.928 E336.48719
G1 X91.485 Y101.928 E336.66882
G1 X91.703 Y102.146 E336.74583
G1 X92.530 Y102.146 E336.95244
G1 X92.747 Y101.928 E337.02944
G1 X93.574 Y101.928 E337.23605
G1 X93.792 Y102.146 E337.31306
G1 X94.618 Y102.146 E337.51967
G1 X94.836 Y101.928 E337.59668
G1 X95.662 Y101.928 E337.80329
G1 X95.880 Y102.146 E337.88029
G1 X96.707 Y102.146 E338.08690
G1 X96.924 Y101.928 E338.16391
G1 X97.751 Y101.928 E338.37052
G1 X97.969 Y102.146 E338.44753
G1 X98.795 Y102.146 E338.65414
G1 X99.013 Y101.928 E338.73114
G1 X99.839 Y101.928 E338.93775
G1 X100.057 Y102.146 E339.01476
G1 X100.884 Y102.146 E339.22137
G1 X101.101 Y101.928 E339.29838
G1 X101.928 Y101.928 E339.50499
G1 X102.146 Y102.146 E339.58199
G1 X102.972 Y102.146 E339.78860
G1 X103.190 Y101.928 E339.86561
G1 X104.016 Y101.928 E340.07222
G1 X104.234 Y102.146 E340.14923
G1 X105.061 Y102.146 E340.35584
G1 X105.278 Y101.928 E340.43284
G1 X106.105 Y101.928 E340.63945
G1 X106.323 Y102.146 E340.71646
G1 X107.149 Y102.146 E340.92307
G1 X107.367 Y101.928 E341.00008
G1 X108.193 Y101.928 E341.20669
G1 X108.411 Y102.146 E341.28369
G1 X109.241 Y102.142 E341.49121
G1 X109.241 Y102.976 E341.69962
G1 X108.411 Y102.972 E341.90713
G1 X108.193 Y103.190 E341.98414
G1 X107.367 Y103.190 E342.19075
G1 X107.149 Y102.972 E342.26776
G1 X106.323 Y102.972 E342.47437
G1 X106.105 Y103.190 E342.55137
G1 X105.278 Y103.190 E342.75798
G1 X105.061 Y102.972 E342.83499
G1 X104.234 Y102.972 E343.04160
G1 X104.016 Y103.190 E343.11861
G1 X103.190 Y103.190 E343.32522
G1 X102.972 Y102.972 E343.40222
G1 X102.146 Y102.972 E343.60883
G1 X101.928 Y103.190 E343.68584
G1 X101.101 Y103.190 E343.89245
G1 X100.884 Y102.972 E343.96946
G1 X100.057 Y102.972 E344.17607
G1 X99.839 Y103.190 E344.25307
G1 X99.013 Y103.190 E344.45968
G1 X98.795 Y102.972 E344.53669
G1 X97.969 Y102.972 E344.74330
G1 X97.751 Y103.190 E344.82031
G1 X96.924 Y103.190 E345.02692
G1 X96.707 Y102.972 E345.10392
G1 X95.880 Y102.972 E345.31053
G1 X95.662 Y103.190 E345.38754
G1 X94.836 Y103.190 E345.59415
G1 X94.618 Y102.972 E345.67116
G1 X93.792 Y102.972 E345.87777
G1 X93.574 Y103.190 E345.95477
G1 X92.747 Y103.190 E346.16138
G1 X92.530 Y102.972 E346.23839
G1 X91.703 Y102.972 E346.44500
G1 X91.485 Y103.190 E346.52201
G1 X90.759 Y103.190 E346.70363
G1 X90.759 Y104.016 E346.91024
G1 X91.485 Y104.016 E347.09187
G1 X91.703 Y104.234 E347.16888
G1 X92.530 Y104.234 E347.37549
G1 X92.747 Y104.016 E347.45249
G1 X93.574 Y104.016 E347.65910
G1 X93.792 Y104.234 E347.73611
G1 X94.618 Y104.234 E347.94272
G1 X94.836 Y104.016 E348.01973
G1 X95.662 Y104.016 E348.22634
G1 X95.880 Y104.234 E348.30334
G1 X96.707 Y104.234 E348.50995
G1 X96.924 Y104.016 E348.58696
G1 X97.751 Y104.016 E348.79357
G1 X97.969 Y104.234 E348.87058
G1 X98.795 Y104.234 E349.07719
G1 X99.013 Y104.016 E349.15419
G1 X99.839 Y104.016 E349.36080
G1 X100.057 Y104.234 E349.43781
G1 X100.884 Y104.234 E349.64442
G1 X101.101 Y104.016 E349.72143
G1 X101.928 Y104.016 E349.92804
G1 X102.146 Y104.234 E350.00504
G1 X102.972 Y104.234 E350.21165
G1 X103.190 Y104.016 E350.28866
G1 X104.016 Y104.016 E350.49527
G1 X104.234 Y104.234 E350.57228
G1 X105.061 Y104.234 E350.77889
G1 X105.278 Y104.016 E350.85589
G1 X106.105 Y104.016 E351.06250
G1 X106.323 Y104.234 E351.13951
G1 X107.149 Y104.234 E351.34612
G1 X107.367 Y104.016 E351.42313
G1 X108.193 Y104.016 E351.62974
G1 X108.411 Y104.234 E351.70674
G1 X109.241 Y104.231 E351.91426
G1 X109.241 Y105.064 E352.12267
G1 X108.411 Y105.061 E352.33018
G1 X108.193 Y105.278 E352.40719
G1 X107.367 Y105.278 E352.61380
G1 X107.149 Y105.061 E352.69081
G1 X106.323 Y105.061 E352.89742
G1 X106.105 Y105.278 E352.97442
G1 X105.278 Y105.278 E353.18103
G1 X105.061 Y105.061 E353.25804
G1 X104.234 Y105.061 E353.46465
G1 X104.016 Y105.278 E353.54166
G1 X103.190 Y105.278 E353.74827
G1 X102.972 Y105.061 E353.82527
G1 X102.146 Y105.061 E354.03188
G1 X101.928 Y105.278 E354.10889
G1 X101.101 Y105.278 E354.31550
G1 X100.884 Y105.061 E354.39251
G1 X100.057 Y105.061 E354.59912
G1 X99.839 Y105.278 E354.67612
G1 X99.013 Y105.278 E354.88273
G1 X98.795 Y105.061 E354.95974
G1 X97.969 Y105.061 E355.16635
G1 X97.751 Y105.278 E355.24336
G1 X96.924 Y105.278 E355.44997
G1 X96.707 Y105.061 E355.52697
G1 X95.880 Y105.061 E355.73358
G1 X95.662 Y105.278 E355.81059
G1 X94.836 Y105.278 E356.01720
G1 X94.618 Y105.061 E356.09421
G1 X93.792 Y105.061 E356.30082
G1 X93.574 Y105.278 E356.37782
G1 X92.747 Y105.278 E356.58443
G1 X92.530 Y105.061 E356.66144
G1 X91.703 Y105.061 E356.86805
G1 X91.485 Y105.278 E356.94506
G1 X90.759 Y105.278 E357.12668
G1 X90.759 Y106.105 E357.33329
G1 X91.485 Y106.105 E357.51492
G1 X91.703 Y106.323 E357.59193
G1 X92.530 Y106.323 E357.79854
G1 X92.747 Y106.105 E357.87554
G1 X93.574 Y106.105 E358.08215
G1 X93.792 Y106.323 E358.15916
G1 X94.618 Y106.323 E358.36577
G1 X94.836 Y106.105 E358.44278
G1 X95.662 Y106.105 E358.64939
G1 X95.880 Y106.323 E358.72639
G1 X96.707 Y106.323 E358.93300
G1 X96.924 Y106.105 E359.01001
G1 X97.751 Y106.105 E359.21662
G1 X97.969 Y106.323 E359.29363
G1 X98.795 Y106.323 E359.50024
G1 X99.013 Y106.105 E359.57724
G1 X99.839 Y106.105 E359.78385
G1 X100.057 Y106.323 E359.86086
G1 X100.884 Y106.323 E360.06747
G1 X101.101 Y106.105 E360.14448
G1 X101.928 Y106.105 E360.35109
G1 X102.146 Y106.323 E360.42809
G1 X102.972 Y106.323 E360.63470
G1 X103.190 Y106.105 E360.71171
G1 X104.016 Y106.105 E360.91832
G1 X104.234 Y106.323 E360.99533
G1 X105.061 Y106.323 E361.20194
G1 X105.278 Y106.105 E361.27894
G1 X106.105 Y106.105 E361.48555
G1 X106.323 Y106.323 E361.56256
G1 X107.149 Y106.323 E361.76917
G1 X107.367 Y106.105 E361.84618
G1 X108.193 Y106.105 E362.05279
G1 X108.411 Y106.323 E362.12979
G1 X109.241 Y106.319 E362.33731
G1 X109.241 Y107.153 E362.54572
G1 X108.411 Y107.149 E362.75323
G1 X108.193 Y107.367 E362.83024
G1 X107.367 Y107.367 E363.03685
G1 X107.149 Y107.149 E363.11386
G1 X106.323 Y107.149 E363.32047
G1 X106.105 Y107.367 E363.39747
G1 X105.278 Y107.367 E363.60408
G1 X105.061 Y107.149 E363.68109
G1 X104.234 Y107.149 E363.88770
G1 X104.016 Y107.367 E363.96471
G1 X103.190 Y107.367 E364.17132
G1 X102.972 Y107.149 E364.24832
G1 X102.146 Y107.149 E364.45493
G1 X101.928 Y107.367 E364.53194
G1 X101.101 Y107.367 E364.73855
G1 X100.884 Y107.149 E364.81556
G1 X100.057 Y107.149 E365.02217
G1 X99.839 Y107.367 E365.09917
G1 X99.013 Y107.367 E365.30578
G1 X98.795 Y107.149 E365.38279
G1 X97.969 Y107.149 E365.58940
G1 X97.751 Y107.367 E365.66641
G1 X96.924 Y107.367 E365.87302
G1 X96.707 Y107.149 E365.95002
G1 X95.880 Y107.149 E366.15663
G1 X95.662 Y107.367 E366.23364
G1 X94.836 Y107.367 E366.44025
G1 X94.618 Y107.149 E366.51726
G1 X93.792 Y107.149 E366.72387
G1 X93.574 Y107.367 E366.80087
G1 X92.747 Y107.367 E367.00748
G1 X92.530 Y107.149 E367.08449
G1 X91.703 Y107.149 E367.29110
G1 X91.485 Y107.367 E367.36811
G1 X90.759 Y107.367 E367.54973
G1 X90.759 Y108.193 F7800.000
G1 X91.485 Y108.193 E367.73136 F4453.229
G1 X91.703 Y108.411 E367.80836
G1 X92.530 Y108.411 E368.01497
G1 X92.747 Y108.193 E368.09198
G1 X93.574 Y108.193 E368.29859
G1 X93.792 Y108.411 E368.37560
G1 X94.618 Y108.411 E368.58221
G1 X94.836 Y108.193 E368.65921
G1 X95.662 Y108.193 E368.86582
G1 X95.880 Y108.411 E368.94283
G1 X96.707 Y108.411 E369.14944
G1 X96.924 Y108.193 E369.22645
G1 X97.751 Y108.193 E369.43306
G1 X97.969 Y108.411 E369.51006
G1 X98.795 Y108.411 E369.71667
G1 X99.013 Y108.193 E369.79368
G1 X99.839 Y108.193 E370.00029
G1 X100.057 Y108.411 E370.07730
G1 X100.884 Y108.411 E370.28391
G1 X101.101 Y108.193 E370.36091
G1 X101.928 Y108.193 E370.56752
G1 X102.146 Y108.411 E370.64453
G1 X102.972 Y108.411 E370.85114
G1 X103.190 Y108.193 E370.92815
G1 X104.016 Y108.193 E371.13476
G1 X104.234 Y108.411 E371.21176
G1 X105.061 Y108.411 E371.41837
G1 X105.278 Y108.193 E371.49538
G1 X106.105 Y108.193 E371.70199
G1 X106.323 Y108.411 E371.77900
G1 X107.149 Y108.411 E371.98561
G1 X107.367 Y108.193 E372.06261
G1 X108.193 Y108.193 E372.26922
G1 X108.411 Y108.411 E372.34623
G1 X109.241 Y108.408 E372.55374
G1 X109.241 Y109.241 E372.76216
G1 X91.700 Y109.241 E377.14756
G1 Z2.500 F7800.000
G1 X91.654 Y109.241 F7800.000
G1 X91.654 Y108.362 E377.36738 F4165.222
G1 X91.535 Y108.243 E377.40957
G1 X91.535 Y107.318 E377.64080
G1 X91.654 Y107.198 E377.68299
G1 X91.654 Y106.273 E377.91422
G1 X91.535 Y106.154 E377.95641
G1 X91.535 Y105.229 E378.18764
G1 X91.654 Y105.110 E378.22983
G1 X91.654 Y104.185 E378.46106
G1 X91.535 Y104.066 E378.50325
G1 X91.535 Y103.141 E378.73448
G1 X91.654 Y103.021 E378.77667
G1 X91.654 Y102.096 E379.00790
G1 X91.535 Y101.977 E379.05009
G1 X91.535 Y101.052 E379.28132
G1 X91.654 Y100.933 E379.32351
G1 X91.654 Y100.008 E379.55474
G1 X91.535 Y99.889 E379.59693
G1 X91.535 Y98.964 E379.82816
G1 X91.654 Y98.844 E379.87035
G1 X91.654 Y97.919 E380.10157
G1 X91.535 Y97.800 E380.14377
G1 X91.535 Y96.875 E380.37499
G1 X91.654 Y96.756 E380.41718
G1 X91.654 Y95.831 E380.64841
G1 X91.535 Y95.712 E380.69060
G1 X91.535 Y94.787 E380.92183
G1 X91.654 Y94.667 E380.96402
G1 X91.654 Y93.742 E381.19525
G1 X91.535 Y93.623 E381.23744
G1 X91.535 Y92.698 E381.46867
G1 X91.654 Y92.579 E381.51086
G1 X91.654 Y91.654 E381.74209
G1 X91.535 Y91.535 E381.78428
G1 X91.535 Y90.759 E381.97822
G1 X92.698 Y90.759 E382.26911
G1 X92.698 Y91.535 E382.46305
G1 X92.579 Y91.654 E382.50524
G1 X92.579 Y92.579 E382.73647
G1 X92.698 Y92.698 E382.77866
G1 X92.698 Y93.623 E383.00989
G1 X92.579 Y93.742 E383.05208
G1 X92.579 Y94.667 E383.28330
G1 X92.698 Y94.787 E383.32550
G1 X92.698 Y95.712 E383.55672
G1 X92.579 Y95.831 E383.59891
G1 X92.579 Y96.756 E383.83014
G1 X92.698 Y96.875 E383.87233
G1 X92.698 Y97.800 E384.10356
G1 X92.579 Y97.919 E384.14575
G1 X92.579 Y98.844 E384.37698
G1 X92.698 Y98.964 E384.41917
G1 X92.698 Y99.889 E384.65040
G1 X92.579 Y100.008 E384.69259
G1 X92.579 Y100.933 E384.92382
G1 X92.698 Y101.052 E384.96601
G1 X92.698 Y101.977 E385.19724
G1 X92.579 Y102.096 E385.23943
G1 X92.579 Y103.021 E385.47066
G1 X92.698 Y103.141 E385.51285
G1 X92.698 Y104.066 E385.74408
G1 X92.579 Y104.185 E385.78627
G1 X92.579 Y105.110 E386.01750
G1 X92.698 Y105.229 E386.05969
G1 X92.698 Y106.154 E386.29092
G1 X92.579 Y106.273 E386.33311
G1 X92.579 Y107.198 E386.56434
G1 X92.698 Y107.318 E386.60653
G1 X92.698 Y108.243 E386.83776
G1 X92.579 Y108.362 E386.87995
G1 X92.579 Y109.241 E387.09977
G1 X93.742 Y109.241 E387.39066
G1 X93.742 Y108.362 E387.61048
G1 X93.623 Y108.243 E387.65267
G1 X93.623 Y107.318 E387.88390
G1 X93.742 Y107.198 E387.92609
G1 X93.742 Y106.273 E388.15732
G1 X93.623 Y106.154 E388.19951
G1 X93.623 Y105.229 E388.43074
G1 X93.742 Y105.110 E388.47293
G1 X93.742 Y104.185 E388.70416
G1 X93.623 Y104.066 E388.74635
G1 X93.623 Y103.141 E388.97758
G1 X93.742 Y103.021 E389.01977
G1 X93.742 Y102.096 E389.25100
G1 X93.623 Y101.977 E389.29319
G1 X93.623 Y101.052 E389.52442
G1 X93.742 Y100.933 E389.56661
G1 X93.742 Y100.008 E389.79783
G1 X93.623 Y99.889 E389.84003
G1 X93.623 Y98.964 E390.07125
G1 X93.742 Y98.844 E390.11344
G1 X93.742 Y97.919 E390.34467
G1 X93.623 Y97.800 E390.38686
G1 X93.623 Y96.875 E390.61809
G1 X93.742 Y96.756 E390.66028
G1 X93.742 Y95.831 E390.89151
G1 X93.623 Y95.712 E390.93370
G1 X93.623 Y94.787 E391.16493
G1 X93.742 Y94.667 E391.20712
G1 X93.742 Y93.742 E391.43835
G1 X93.623 Y93.623 E391.48054
G1 X93.623 Y92.698 E391.71177
G1 X93.742 Y92.579 E391.75396
G1 X93.742 Y91.654 E391.98519
G1 X93.623 Y91.535 E392.02738
G1 X93.623 Y90.759 E392.22131
G1 X94.787 Y90.759 E392.51221
G1 X94.787 Y91.535 E392.70614
G1 X94.667 Y91.654 E392.74833
G1 X94.667 Y92.579 E392.97956
G1 X94.787 Y92.698 E393.02175
G1 X94.787 Y93.623 E393.25298
G1 X94.667 Y93.742 E393.29517
G1 X94.667 Y94.667 E393.52640
G1 X94.787 Y94.787 E393.56859
G1 X94.787 Y95.712 E393.79982
G1 X94.667 Y95.831 E393.84201
G1 X94.667 Y96.756 E394.07324
G1 X94.787 Y96.875 E394.11543
G1 X94.787 Y97.800 E394.34666
G1 X94.667 Y97.919 E394.38885
G1 X94.667 Y98.844 E394.62008
G1 X94.787 Y98.964 E394.66227
G1 X94.787 Y99.889 E394.89350
G1 X94.667 Y100.008 E394.93569
G1 X94.667 Y100.933 E395.16692
G1 X94.787 Y101.052 E395.20911
G1 X94.787 Y101.977 E395.44034
G1 X94.667 Y102.096 E395.48253
G1 X94.667 Y103.021 E395.71376
G1 X94.787 Y103.141 E395.75595
G1 X94.787 Y104.066 E395.98718
G1 X94.667 Y104.185 E396.02937
G1 X94.667 Y105.110 E396.26059
G1 X94.787 Y105.229 E396.30279
G1 X94.787 Y106.154 E396.53401
G1 X94.667 Y106.273 E396.57620
G1 X94.667 Y107.198 E396.80743
G1 X94.787 Y107.318 E396.84962
G1 X94.787 Y108.243 E397.08085
G1 X94.667 Y108.362 E397.12304
G1 X94.667 Y109.241 E397.34286
G1 X95.831 Y109.241 E397.63376
G1 X95.831 Y108.362 E397.85358
G1 X95.712 Y108.243 E397.89577
G1 X95.712 Y107.318 E398.12700
G1 X95.831 Y107.198 E398.16919
G1 X95.831 Y106.273 E398.40042
G1 X95.712 Y106.154 E398.44261
G1 X95.712 Y105.229 E398.67384
G1 X95.831 Y105.110 E398.71603
G1 X95.831 Y104.185 E398.94726
G1 X95.712 Y104.066 E398.98945
G1 X95.712 Y103.141 E399.22068
G1 X95.831 Y103.021 E399.26287
G1 X95.831 Y102.096 E399.49410
G1 X95.712 Y101.977 E399.53629
G1 X95.712 Y101.052 E399.76751
G1 X95.831 Y100.933 E399.80971
G1 X95.831 Y100.008 E400.04093
G1 X95.712 Y99.889 E400.08312
G1 X95.712 Y98.964 E400.31435
G1 X95.831 Y98.844 E400.35654
G1 X95.831 Y97.919 E400.58777
G1 X95.712 Y97.800 E400.62996
G1 X95.712 Y96.875 E400.86119
G1 X95.831 Y96.756 E400.90338
G1 X95.831 Y95.831 E401.13461
G1 X95.712 Y95.712 E401.17680
G1 X95.712 Y94.787 E401.40803
G1 X95.831 Y94.667 E401.45022
G1 X95.831 Y93.742 E401.68145
G1 X95.712 Y93.623 E401.72364
G1 X95.712 Y92.698 E401.95487
G1 X95.831 Y92.579 E401.99706
G1 X95.831 Y91.654 E402.22829
G1 X95.712 Y91.535 E402.27048
G1 X95.712 Y90.759 E402.46441
G1 X96.875 Y90.759 E402.75531
G1 X96.875 Y91.535 E402.94924
G1 X96.756 Y91.654 E402.99144
G1 X96.756 Y92.579 E403.22266
G1 X96.875 Y92.698 E403.26485
G1 X96.875 Y93.623 E403.49608
G1 X96.756 Y93.742 E403.53827
G1 X96.756 Y94.667 E403.76950
G1 X96.875 Y94.787 E403.81169
G1 X96.875 Y95.712 E404.04292
G1 X96.756 Y95.831 E404.08511
G1 X96.756 Y96.756 E404.31634
G1 X96.875 Y96.875 E404.35853
G1 X96.875 Y97.800 E404.58976
G1 X96.756 Y97.919 E404.63195
G1 X96.756 Y98.844 E404.86318
G1 X96.875 Y98.964 E404.90537
G1 X96.875 Y99.889 E405.13660
G1 X96.756 Y100.008 E405.17879
G1 X96.756 Y100.933 E405.41002
G1 X96.875 Y101.052 E405.45221
G1 X96.875 Y101.977 E405.68344
G1 X96.756 Y102.096 E405.72563
G1 X96.756 Y103.021 E405.95686
G1 X96.875 Y103.141 E405.99905
G1 X96.875 Y104.066 E406.23028
G1 X96.756 Y104.185 E406.27247
G1 X96.756 Y105.110 E406.50370
G1 X96.875 Y105.229 E406.54589
G1 X96.875 Y106.154 E406.77711
G1 X96.756 Y106.273 E406.81931
G1 X96.756 Y107.198 E407.05053
G1 X96.875 Y107.318 E407.09272
G1 X96.875 Y108.243 E407.32395
G1 X96.756 Y108.362 E407.36614
G1 X96.756 Y109.241 E407.58596
G1 X97.919 Y109.241 E407.87686
G1 X97.919 Y108.362 E408.09668
G1 X97.800 Y108.243 E408.13887
G1 X97.800 Y107.318 E408.37010
G1 X97.919 Y107.198 E408.41229
G1 X97.919 Y106.273 E408.64352
G1 X97.800 Y106.154 E408.68571
G1 X97.800 Y105.229 E408.91694
G1 X97.919 Y105.110 E408.95913
G1 X97.919 Y104.185 E409.19036
G1 X97.800 Y104.066 E409.23255
G1 X97.800 Y103.141 E409.46378
G1 X97.919 Y103.021 E409.50597
G1 X97.919 Y102.096 E409.73720
G1 X97.800 Y101.977 E409.77939
G1 X97.800 Y101.052 E410.01061
G1 X97.919 Y100.933 E410.05281
G1 X97.919 Y100.008 E410.28403
G1 X97.800 Y99.889 E410.32622
G1 X97.800 Y98.964 E410.55745
G1 X97.919 Y98.844 E410.59964
G1 X97.919 Y97.919 E410.83087
G1 X97.800 Y97.800 E410.87306
G1 X97.800 Y96.875 E411.10429
G1 X97.919 Y96.756 E411.14648
G1 X97.919 Y95.831 E411.37771
G1 X97.800 Y95.712 E411.41990
G1 X97.800 Y94.787 E411.65113
G1 X97.919 Y94.667 E411.69332
G1 X97.919 Y93.742 E411.92455
G1 X97.800 Y93.623 E411.96674
G1 X97.800 Y92.698 E412.19797
G1 X97.919 Y92.579 E412.24016
G1 X97.919 Y91.654 E412.47139
G1 X97.800 Y91.535 E412.51358
G1 X97.800 Y90.759 E412.70751
G1 X98.964 Y90.759 E412.99841
G1 X98.964 Y91.535 E413.19235
G1 X98.844 Y91.654 E413.23454
G1 X98.844 Y92.579 E413.46576
G1 X98.964 Y92.698 E413.50796
G1 X98.964 Y93.623 E413.73918
G1 X98.844 Y93.742 E413.78137
G1 X98.844 Y94.667 E414.01260
G1 X98.964 Y94.787 E414.05479
G1 X98.964 Y95.712 E414.28602
G1 X98.844 Y95.831 E414.32821
G1 X98.844 Y96.756 E414.55944
G1 X98.964 Y96.875 E414.60163
G1 X98.964 Y97.800 E414.83286
G1 X98.844 Y97.919 E414.87505
G1 X98.844 Y98.844 E415.10628
G1 X98.964 Y98.964 E415.14847
G1 X98.964 Y99.889 E415.37970
G1 X98.844 Y100.008 E415.42189
G1 X98.844 Y100.933 E415.65312
G1 X98.964 Y101.052 E415.69531
G1 X98.964 Y101.977 E415.92654
G1 X98.844 Y102.096 E415.96873
G1 X98.844 Y103.021 E416.19996
G1 X98.964 Y103.141 E416.24215
G1 X98.964 Y104.066 E416.47338
G1 X98.844 Y104.185 E416.51557
G1 X98.844 Y105.110 E416.74680
G1 X98.964 Y105.229 E416.78899
G1 X98.964 Y106.154 E417.02021
G1 X98.844 Y106.273 E417.06241
G1 X98.844 Y107.198 E417.29363
G1 X98.964 Y107.318 E417.33582
G1 X98.964 Y108.243 E417.56705
G1 X98.844 Y108.362 E417.60924
G1 X98.844 Y109.241 E417.82906
G1 X100.008 Y109.241 E418.11996
G1 X100.008 Y108.362 E418.33978
G1 X99.889 Y108.243 E418.38197
G1 X99.889 Y107.318 E418.61320
G1 X100.008 Y107.198 E418.65539
G1 X100.008 Y106.273 E418.88662
G1 X99.889 Y106.154 E418.92881
G1 X99.889 Y105.229 E419.16004
G1 X100.008 Y105.110 E419.20223
G1 X100.008 Y104.185 E419.43346
G1 X99.889 Y104.066 E419.47565
G1 X99.889 Y103.141 E419.70688
G1 X100.008 Y103.021 E419.74907
G1 X100.008 Y102.096 E419.98030
G1 X99.889 Y101.977 E420.02249
G1 X99.889 Y101.052 E420.25372
G1 X100.008 Y100.933 E420.29591
G1 X100.008 Y100.008 E420.52713
G1 X99.889 Y99.889 E420.56933
G1 X99.889 Y98.964 E420.80055
G1 X100.008 Y98.844 E420.84274
G1 X100.008 Y97.919 E421.07397
G1 X99.889 Y97.800 E421.11616
G1 X99.889 Y96.875 E421.34739
G1 X100.008 Y96.756 E421.38958
G1 X100.008 Y95.831 E421.62081
G1 X99.889 Y95.712 E421.66300
G1 X99.889 Y94.787 E421.89423
G1 X100.008 Y94.667 E421.93642
G1 X100.008 Y93.742 E422.16765
G1 X99.889 Y93.623 E422.20984
G1 X99.889 Y92.698 E422.44107
G1 X100.008 Y92.579 E422.48326
G1 X100.008 Y91.654 E422.71449
G1 X99.889 Y91.535 E422.75668
G1 X99.889 Y90.759 E422.95061
G1 X101.052 Y90.759 E423.24151
G1 X101.052 Y91.535 E423.43545
G1 X100.933 Y91.654 E423.47764
G1 X100.933 Y92.579 E423.70886
G1 X101.052 Y92.698 E423.75106
G1 X101.052 Y93.623 E423.98228
G1 X100.933 Y93.742 E424.02447
G1 X100.933 Y94.667 E424.25570
G1 X101.052 Y94.787 E424.29789
G1 X101.052 Y95.712 E424.52912
G1 X100.933 Y95.831 E424.57131
G1 X100.933 Y96.756 E424.80254
G1 X101.052 Y96.875 E424.84473
G1 X101.052 Y97.800 E425.07596
G1 X100.933 Y97.919 E425.11815
G1 X100.933 Y98.844 E425.34938
G1 X101.052 Y98.964 E425.39157
G1 X101.052 Y99.889 E425.62280
G1 X100.933 Y100.008 E425.66499
G1 X100.933 Y100.933 E425.89622
G1 X101.052 Y101.052 E425.93841
G1 X101.052 Y101.977 E426.16964
G1 X100.933 Y102.096 E426.21183
G1 X100.933 Y103.021 E426.44306
G1 X101.052 Y103.141 E426.48525
G1 X101.052 Y104.066 E426.71648
G1 X100.933 Y104.185 E426.75867
G1 X100.933 Y105.110 E426.98990
G1 X101.052 Y105.229 E427.03209
G1 X101.052 Y106.154 E427.26332
G1 X100.933 Y106.273 E427.30551
G1 X100.933 Y107.198 E427.53673
G1 X101.052 Y107.318 E427.57892
G1 X101.052 Y108.243 E427.81015
G1 X100.933 Y108.362 E427.85234
G1 X100.933 Y109.241 E428.07217
G1 X102.096 Y109.241 E428.36306
G1 X102.096 Y108.362 E428.58288
G1 X101.977 Y108.243 E428.62507
G1 X101.977 Y107.318 E428.85630
G1 X102.096 Y107.198 E428.89849
G1 X102.096 Y106.273 E429.12972
G1 X101.977 Y106.154 E429.17191
G1 X101.977 Y105.229 E429.40314
G1 X102.096 Y105.110 E429.44533
G1 X102.096 Y104.185 E429.67656
G1 X101.977 Y104.066 E429.71875
G1 X101.977 Y103.141 E429.94998
G1 X102.096 Y103.021 E429.99217
G1 X102.096 Y102.096 E430.22340
G1 X101.977 Y101.977 E430.26559
G1 X101.977 Y101.052 E430.49682
G1 X102.096 Y100.933 E430.53901
G1 X102.096 Y100.008 E430.77023
G1 X101.977 Y99.889 E430.81243
G1 X101.977 Y98.964 E431.04365
G1 X102.096 Y98.844 E431.08584
G1 X102.096 Y97.919 E431.31707
G1 X101.977 Y97.800 E431.35926
G1 X101.977 Y96.875 E431.59049
G1 X102.096 Y96.756 E431.63268
G1 X102.096 Y95.831 E431.86391
G1 X101.977 Y95.712 E431.90610
G1 X101.977 Y94.787 E432.13733
G1 X102.096 Y94.667 E432.17952
G1 X102.096 Y93.742 E432.41075
G1 X101.977 Y93.623 E432.45294
G1 X101.977 Y92.698 E432.68417
G1 X102.096 Y92.579 E432.72636
G1 X102.096 Y91.654 E432.95759
G1 X101.977 Y91.535 E432.99978
G1 X101.977 Y90.759 E433.19372
G1 X103.141 Y90.759 E433.48461
G1 X103.141 Y91.535 E433.67855
G1 X103.021 Y91.654 E433.72074
G1 X103.021 Y92.579 E433.95197
G1 X103.141 Y92.698 E433.99416
G1 X103.141 Y93.623 E434.22538
G1 X103.021 Y93.742 E434.26758
G1 X103.021 Y94.667 E434.49880
G1 X103.141 Y94.787 E434.54099
G1 X103.141 Y95.712 E434.77222
G1 X103.021 Y95.831 E434.81441
G1 X103.021 Y96.756 E435.04564
G1 X103.141 Y96.875 E435.08783
G1 X103.141 Y97.800 E435.31906
G1 X103.021 Y97.919 E435.36125
G1 X103.021 Y98.844 E435.59248
G1 X103.141 Y98.964 E435.63467
G1 X103.141 Y99.889 E435.86590
G1 X103.021 Y100.008 E435.90809
G1 X103.021 Y100.933 E436.13932
G1 X103.141 Y101.052 E436.18151
G1 X103.141 Y101.977 E436.41274
G1 X103.021 Y102.096 E436.45493
G1 X103.021 Y103.021 E436.68616
G1 X103.141 Y103.141 E436.72835
G1 X103.141 Y104.066 E436.95958
G1 X103.021 Y104.185 E437.00177
G1 X103.021 Y105.110 E437.23300
G1 X103.141 Y105.229 E437.27519
G1 X103.141 Y106.154 E437.50642
G1 X103.021 Y106.273 E437.54861
G1 X103.021 Y107.198 E437.77983
G1 X103.141 Y107.318 E437.82203
G1 X103.141 Y108.243 E438.05325
G1 X103.021 Y108.362 E438.09544
G1 X103.021 Y109.241 E438.31527
G1 X104.185 Y109.241 E438.60616
G1 X104.185 Y108.362 E438.82598
G1 X104.066 Y108.243 E438.86817
G1 X104.066 Y107.318 E439.09940
G1 X104.185 Y107.198 E439.14159
G1 X104.185 Y106.273 E439.37282
G1 X104.066 Y106.154 E439.41501
G1 X104.066 Y105.229 E439.64624
G1 X104.185 Y105.110 E439.68843
G1 X104.185 Y104.185 E439.91966
G1 X104.066 Y104.066 E439.96185
G1 X104.066 Y103.141 E440.19308
G1 X104.185 Y103.021 E440.23527
G1 X104.185 Y102.096 E440.46650
G1 X104.066 Y101.977 E440.50869
G1 X104.066 Y101.052 E440.73992
G1 X104.185 Y100.933 E440.78211
G1 X104.185 Y100.008 E441.01334
G1 X104.066 Y99.889 E441.05553
G1 X104.066 Y98.964 E441.28675
G1 X104.185 Y98.844 E441.32895
G1 X104.185 Y97.919 E441.56017
G1 X104.066 Y97.800 E441.60236
G1 X104.066 Y96.875 E441.83359
G1 X104.185 Y96.756 E441.87578
G1 X104.185 Y95.831 E442.10701
G1 X104.066 Y95.712 E442.14920
G1 X104.066 Y94.787 E442.38043
G1 X104.185 Y94.667 E442.42262
G1 X104.185 Y93.742 E442.65385
G1 X104.066 Y93.623 E442.69604
G1 X104.066 Y92.698 E442.92727
G1 X104.185 Y92.579 E442.96946
G1 X104.185 Y91.654 E443.20069
G1 X104.066 Y91.535 E443.24288
G1 X104.066 Y90.759 E443.43682
G1 X105.229 Y90.759 E443.72771
G1 X105.229 Y91.535 E443.92165
G1 X105.110 Y91.654 E443.96384
G1 X105.110 Y92.579 E444.19507
G1 X105.229 Y92.698 E444.23726
G1 X105.229 Y93.623 E444.46849
G1 X105.110 Y93.742 E444.51068
G1 X105.110 Y94.667 E444.74190
G1 X105.229 Y94.787 E444.78409
G1 X105.229 Y95.712 E445.01532
G1 X105.110 Y95.831 E445.05751
G1 X105.110 Y96.756 E445.28874
G1 X105.229 Y96.875 E445.33093
G1 X105.229 Y97.800 E445.56216
G1 X105.110 Y97.919 E445.60435
G1 X105.110 Y98.844 E445.83558
G1 X105.229 Y98.964 E445.87777
G1 X105.229 Y99.889 E446.10900
G1 X105.110 Y100.008 E446.15119
G1 X105.110 Y100.933 E446.38242
G1 X105.229 Y101.052 E446.42461
G1 X105.229 Y101.977 E446.65584
G1 X105.110 Y102.096 E446.69803
G1 X105.110 Y103.021 E446.92926
G1 X105.229 Y103.141 E446.97145
G1 X105.229 Y104.066 E447.20268
G1 X105.110 Y104.185 E447.24487
G1 X105.110 Y105.110 E447.47610
G1 X105.229 Y105.229 E447.51829
G1 X105.229 Y106.154 E447.74952
G1 X105.110 Y106.273 E447.79171
G1 X105.110 Y107.198 E448.02294
G1 X105.229 Y107.318 E448.06513
G1 X105.229 Y108.243 E448.29635
G1 X105.110 Y108.362 E448.33855
G1 X105.110 Y109.241 E448.55837
G1 X106.273 Y109.241 E448.84926
G1 X106.273 Y108.362 E449.06908
G1 X106.154 Y108.243 E449.11127
G1 X106.154 Y107.318 E449.34250
G1 X106.273 Y107.198 E449.38469
G1 X106.273 Y106.273 E449.61592
G1 X106.154 Y106.154 E449.65811
G1 X106.154 Y105.229 E449.88934
G1 X106.273 Y105.110 E449.93153
G1 X106.273 Y104.185 E450.16276
G1 X106.154 Y104.066 E450.20495
G1 X106.154 Y103.141 E450.43618
G1 X106.273 Y103.021 E450.47837
G1 X106.273 Y102.096 E450.70960
G1 X106.154 Y101.977 E450.75179
G1 X106.154 Y101.052 E450.98302
G1 X106.273 Y100.933 E451.02521
G1 X106.273 Y100.008 E451.25644
G1 X106.154 Y99.889 E451.29863
G1 X106.154 Y98.964 E451.52986
G1 X106.273 Y98.844 E451.57205
G1 X106.273 Y97.919 E451.80327
G1 X106.154 Y97.800 E451.84547
G1 X106.154 Y96.875 E452.07669
G1 X106.273 Y96.756 E452.11888
G1 X106.273 Y95.831 E452.35011
G1 X106.154 Y95.712 E452.39230
G1 X106.154 Y94.787 E452.62353
G1 X106.273 Y94.667 E452.66572
G1 X106.273 Y93.742 E452.89695
G1 X106.154 Y93.623 E452.93914
G1 X106.154 Y92.698 E453.17037
G1 X106.273 Y92.579 E453.21256
G1 X106.273 Y91.654 E453.44379
G1 X106.154 Y91.535 E453.48598
G1 X106.154 Y90.759 E453.67992
G1 X107.318 Y90.759 E453.97081
G1 X107.318 Y91.535 E454.16475
G1 X107.198 Y91.654 E454.20694
G1 X107.198 Y92.579 E454.43817
G1 X107.318 Y92.698 E454.48036
G1 X107.318 Y93.623 E454.71159
G1 X107.198 Y93.742 E454.75378
G1 X107.198 Y94.667 E454.98500
G1 X107.318 Y94.787 E455.02720
G1 X107.318 Y95.712 E455.25842
G1 X107.198 Y95.831 E455.30061
G1 X107.198 Y96.756 E455.53184
G1 X107.318 Y96.875 E455.57403
G1 X107.318 Y97.800 E455.80526
G1 X107.198 Y97.919 E455.84745
G1 X107.198 Y98.844 E456.07868
G1 X107.318 Y98.964 E456.12087
G1 X107.318 Y99.889 E456.35210
G1 X107.198 Y100.008 E456.39429
G1 X107.198 Y100.933 E456.62552
G1 X107.318 Y101.052 E456.66771
G1 X107.318 Y101.977 E456.89894
G1 X107.198 Y102.096 E456.94113
G1 X107.198 Y103.021 E457.17236
G1 X107.318 Y103.141 E457.21455
G1 X107.318 Y104.066 E457.44578
G1 X107.198 Y104.185 E457.48797
G1 X107.198 Y105.110 E457.71920
G1 X107.318 Y105.229 E457.76139
G1 X107.318 Y106.154 E457.99262
G1 X107.198 Y106.273 E458.03481
G1 X107.198 Y107.198 E458.26604
G1 X107.318 Y107.318 E458.30823
G1 X107.318 Y108.243 E458.53945
G1 X107.198 Y108.362 E458.58165
G1 X107.198 Y109.241 E458.80147
G1 X108.362 Y109.241 E459.09236
G1 X108.362 Y108.362 E459.31218
G1 X108.243 Y108.243 E459.35437
G1 X108.243 Y107.318 E459.58560
G1 X108.362 Y107.198 E459.62779
G1 X108.362 Y106.273 E459.85902
G1 X108.243 Y106.154 E459.90121
G1 X108.243 Y105.229 E460.13244
G1 X108.362 Y105.110 E460.17463
G1 X108.362 Y104.185 E460.40586
G1 X108.243 Y104.066 E460.44805
G1 X108.243 Y103.141 E460.67928
G1 X108.362 Y103.021 E460.72147
G1 X108.362 Y102.096 E460.95270
G1 X108.243 Y101.977 E460.99489
G1 X108.243 Y101.052 E461.22612
G1 X108.362 Y100.933 E461.26831
G1 X108.362 Y100.008 E461.49954
G1 X108.243 Y99.889 E461.54173
G1 X108.243 Y98.964 E461.77296
G1 X108.362 Y98.844 E461.81515
G1 X108.362 Y97.919 E462.04637
G1 X108.243 Y97.800 E462.08857
G1 X108.243 Y96.875 E462.31979
G1 X108.362 Y96.756 E462.36198
G1 X108.362 Y95.831 E462.59321
G1 X108.243 Y95.712 E462.63540
G1 X108.243 Y94.787 E462.86663
G1 X108.362 Y94.667 E462.90882
G1 X108.362 Y93.742 E463.14005
G1 X108.243 Y93.623 E463.18224
G1 X108.243 Y92.698 E463.41347
G1 X108.362 Y92.579 E463.45566
G1 X108.362 Y91.654 E463.68689
G1 X108.243 Y91.535 E463.72908
G1 X108.243 Y90.759 E463.92302
M106 S252.45
G1 Z3.000 F7800.000
G1 X91.803 Y90.759 F7800.000
G1 X91.822 Y90.778 E463.92987 F4800.000
G1 X92.410 Y90.778 E464.07682
G1 X92.430 Y90.759 E464.08368
G1 X93.892 Y90.759 E464.44916
G1 X93.911 Y90.778 E464.45602
G1 X94.499 Y90.778 E464.60296
G1 X94.518 Y90.759 E464.60982
G1 X95.980 Y90.759 E464.97530
G1 X95.999 Y90.778 E464.98216
G1 X96.587 Y90.778 E465.12910
G1 X96.607 Y90.759 E465.13596
G1 X98.069 Y90.759 E465.50144
G1 X98.088 Y90.778 E465.50830
G1 X98.676 Y90.778 E465.65524
G1 X98.695 Y90.759 E465.66210
G1 X100.157 Y90.759 E466.02758
G1 X100.176 Y90.778 E466.03444
G1 X100.764 Y90.778 E466.18138
G1 X100.784 Y90.759 E466.18824
G1 X102.246 Y90.759 E466.55372
G1 X102.265 Y90.778 E466.56058
G1 X102.853 Y90.778 E466.70752
G1 X102.872 Y90.759 E466.71438
G1 X104.334 Y90.759 E467.07986
G1 X104.353 Y90.778 E467.08672
G1 X104.941 Y90.778 E467.23367
G1 X104.961 Y90.759 E467.24052
G1 X106.423 Y90.759 E467.60601
G1 X106.442 Y90.778 E467.61286
G1 X107.030 Y90.778 E467.75981
G1 X107.049 Y90.759 E467.76667
G1 X108.511 Y90.759 E468.13215
G1 X108.530 Y90.778 E468.13900
G1 X109.118 Y90.778 E468.28595
G1 X109.138 Y90.759 E468.29281
G1 X109.241 Y91.489 E468.47716
G1 X109.118 Y91.366 E468.52063
G1 X108.530 Y91.366 E468.66757
G1 X108.074 Y91.822 E468.82896
G1 X107.486 Y91.822 E468.97590
G1 X107.030 Y91.366 E469.13729
G1 X106.442 Y91.366 E469.28423
G1 X105.985 Y91.822 E469.44562
G1 X105.398 Y91.822 E469.59256
G1 X104.941 Y91.366 E469.75395
G1 X104.353 Y91.366 E469.90090
G1 X103.897 Y91.822 E470.06228
G1 X103.309 Y91.822 E470.20923
G1 X102.853 Y91.366 E470.37061
G1 X102.265 Y91.366 E470.51756
G1 X101.808 Y91.822 E470.67895
G1 X101.221 Y91.822 E470.82589
G1 X100.764 Y91.366 E470.98728
G1 X100.176 Y91.366 E471.13422
G1 X99.720 Y91.822 E471.29561
G1 X99.132 Y91.822 E471.44255
