; generated by Slic3r 1.2.9 on 2019-08-09 at 13:48:37

; external perimeters extrusion width = 0.50mm
; perimeters extrusion width = 0.58mm
; infill extrusion width = 0.58mm
; solid infill extrusion width = 0.58mm
; top infill extrusion width = 0.58mm

M107
M104 S200 ; set temperature
G28 ; home all axes
G1 Z5 F5000 ; lift nozzle

M109 S200 ; wait for temperature to be reached
G21 ; set units to millimeters
G90 ; use absolute coordinates
M82 ; use absolute distances for extrusion
G92 E0
G1 Z0.400 F7800.000
G1 E-2.00000 F2400.00000
G92 E0
G1 X83.393 Y116.879 F7800.000
G1 E2.00000 F2400.00000
G1 X83.121 Y116.607 E2.14000 F1800.000
G1 X83.121 Y115.739 E2.45562
G1 X84.261 Y116.879 E3.04198
G1 X85.129 Y116.879 E3.35759
G1 X83.121 Y114.871 E4.39030
G1 X83.121 Y114.003 E4.70591
G1 X85.997 Y116.879 E6.18497
G1 X86.864 Y116.879 E6.50058
G1 X83.121 Y113.136 E8.42598
G1 X83.121 Y112.268 E8.74160
G1 X87.732 Y116.879 E11.11335
G1 X88.600 Y116.879 E11.42897
G1 X83.121 Y111.400 E14.24707
G1 X83.121 Y110.532 E14.56269
G1 X89.468 Y116.879 E17.82714
G1 X90.335 Y116.879 E18.14276
G1 X83.121 Y109.665 E21.85356
G1 X83.121 Y108.797 E22.16918
G1 X91.203 Y116.879 E26.32633
G1 X92.071 Y116.879 E26.64194
G1 X83.121 Y107.929 E31.24544
G1 X83.121 Y107.061 E31.56106
G1 X92.939 Y116.879 E36.61091
G1 X93.806 Y116.879 E36.92653
G1 X83.121 Y106.194 E42.42273
G1 X83.121 Y105.326 E42.73834
G1 X94.674 Y116.879 E48.68089
G1 X95.542 Y116.879 E48.99651
G1 X83.121 Y104.458 E55.38541
G1 X83.121 Y103.590 E55.70102
G1 X96.410 Y116.879 E62.53627
G1 X97.277 Y116.879 E62.85189
G1 X83.121 Y102.723 E70.13349
G1 X83.121 Y101.855 E70.44910
G1 X98.145 Y116.879 E78.17705
G1 X99.013 Y116.879 E78.49267
G1 X83.121 Y100.987 E86.66696
G1 X83.121 Y100.119 E86.98258
G1 X99.881 Y116.879 E95.60323
G1 X100.748 Y116.879 E95.91884
G1 X83.121 Y99.252 E104.98584
G1 X83.121 Y98.384 E105.30146
G1 X101.616 Y116.879 E114.81480
G1 X102.484 Y116.879 E115.13042
G1 X83.121 Y97.516 E125.09011
G1 X83.121 Y96.648 E125.40573
G1 X103.352 Y116.879 E135.81177
G1 X104.219 Y116.879 E136.12739
G1 X83.121 Y95.781 E146.97979
G1 X83.121 Y94.913 E147.29540
G1 X105.087 Y116.879 E158.59415
G1 X105.955 Y116.879 E158.90976
G1 X83.121 Y94.045 E170.65486
G1 X83.121 Y93.177 E170.97047
G1 X106.823 Y116.879 E183.16192
G1 X107.690 Y116.879 E183.47753
G1 X83.121 Y92.310 E196.11533
G1 X83.121 Y91.442 E196.43094
G1 X108.558 Y116.879 E209.51508
G1 X109.426 Y116.879 E209.83070
G1 X83.121 Y90.574 E223.36119
G1 X83.121 Y89.706 E223.67681
G1 X110.294 Y116.879 E237.65365
G1 X111.161 Y116.879 E237.96927
G1 X83.121 Y88.839 E252.39246
G1 X83.121 Y87.971 E252.70807
G1 X112.029 Y116.879 E267.57761
G1 X112.897 Y116.879 E267.89323
G1 X83.121 Y87.103 E283.20912
G1 X83.121 Y86.235 E283.52474
G1 X113.765 Y116.879 E299.28698
G1 X114.632 Y116.879 E299.60259
G1 X83.121 Y85.368 E315.81118
G1 X83.121 Y84.500 E316.12680
G1 X115.500 Y116.879 E332.78174
G1 X116.368 Y116.879 E333.09735
G1 X83.121 Y83.632 E350.19864
G1 X83.478 Y83.121 E350.42529
G1 X116.879 Y116.522 E367.60568
G1 X116.879 Y115.654 E367.92130
G1 X84.346 Y83.121 E384.65533
G1 X85.214 Y83.121 E384.97095
G1 X116.879 Y114.786 E401.25864
G1 X116.879 Y113.918 E401.57426
G1 X86.082 Y83.121 E417.41559
G1 X86.949 Y83.121 E417.73121
G1 X116.879 Y113.051 E433.12620
G1 X116.879 Y112.183 E433.44182
G1 X87.817 Y83.121 E448.39045
G1 X88.685 Y83.121 E448.70607
G1 X116.879 Y111.315 E463.20836
G1 X116.879 Y110.447 E463.52398
G1 X89.553 Y83.121 E477.57992
G1 X90.420 Y83.121 E477.89553
G1 X116.879 Y109.580 E491.50512
G1 X116.879 Y108.712 E491.82074
G1 X91.288 Y83.121 E504.98398
G1 X92.156 Y83.121 E505.29960
G1 X116.879 Y107.844 E518.01649
G1 X116.879 Y106.976 E518.33211
G1 X93.024 Y83.121 E530.60265
G1 X93.891 Y83.121 E530.91826
G1 X116.879 Y106.109 E542.74246
G1 X116.879 Y105.241 E543.05807
G1 X94.759 Y83.121 E554.43592
G1 X95.627 Y83.121 E554.75153
G1 X116.879 Y104.373 E565.68303
G1 X116.879 Y103.505 E565.99864
G1 X96.495 Y83.121 E576.48379
G1 X97.362 Y83.121 E576.79940
G1 X116.879 Y102.638 E586.83820
G1 X116.879 Y101.770 E587.15381
G1 X98.230 Y83.121 E596.74626
G1 X99.098 Y83.121 E597.06187
G1 X116.879 Y100.902 E606.20797
G1 X116.879 Y100.034 E606.52358
G1 X99.966 Y83.121 E615.22333
G1 X100.833 Y83.121 E615.53895
G1 X116.879 Y99.167 E623.79234
G1 X116.879 Y98.299 E624.10796
G1 X101.701 Y83.121 E631.91500
G1 X102.569 Y83.121 E632.23062
G1 X116.879 Y97.431 E639.59132
G1 X116.879 Y96.563 E639.90693
G1 X103.437 Y83.121 E646.82128
G1 X104.304 Y83.121 E647.13690
G1 X116.879 Y95.696 E653.60489
G1 X116.879 Y94.828 E653.92051
G1 X105.172 Y83.121 E659.94216
G1 X106.040 Y83.121 E660.25778
G1 X116.879 Y93.960 E665.83307
G1 X116.879 Y93.092 E666.14869
G1 X106.908 Y83.121 E671.27764
G1 X107.775 Y83.121 E671.59326
G1 X116.879 Y92.225 E676.27586
G1 X116.879 Y91.357 E676.59147
G1 X108.643 Y83.121 E680.82772
G1 X109.511 Y83.121 E681.14334
G1 X116.879 Y90.489 E684.93324
G1 X116.879 Y89.621 E685.24886
G1 X110.379 Y83.121 E688.59241
G1 X111.246 Y83.121 E688.90802
G1 X116.879 Y88.754 E691.80522
G1 X116.879 Y87.886 E692.12084
G1 X112.114 Y83.121 E694.57169
G1 X112.982 Y83.121 E694.88731
G1 X116.879 Y87.018 E696.89181
G1 X116.879 Y86.150 E697.20743
G1 X113.850 Y83.121 E698.76558
G1 X114.717 Y83.121 E699.08120
G1 X116.879 Y85.283 E700.19300
G1 X116.879 Y84.415 E700.50862
G1 X115.585 Y83.121 E701.17407
G1 X116.453 Y83.121 E701.48969
G1 X116.879 Y83.547 E701.70879
G1 Z0.800 F7800.000
G1 X116.453 Y116.879 F7800.000
G1 X116.879 Y116.453 E701.85939 F4800.000
G1 X116.879 Y115.585 E702.07633
G1 X115.585 Y116.879 E702.53372
G1 X114.717 Y116.879 E702.75066
G1 X116.879 Y114.717 E703.51485
G1 X116.879 Y113.850 E703.73179
G1 X113.850 Y116.879 E704.80278
G1 X112.982 Y116.879 E705.01972
G1 X116.879 Y112.982 E706.39750
G1 X116.879 Y112.114 E706.61444
G1 X112.114 Y116.879 E708.29902
G1 X111.246 Y116.879 E708.51596
G1 X116.879 Y111.246 E710.50733
G1 X116.879 Y110.379 E710.72427
G1 X110.379 Y116.879 E713.02244
G1 X109.511 Y116.879 E713.23938
G1 X116.879 Y109.511 E715.84435
G1 X116.879 Y108.643 E716.06129
G1 X108.643 Y116.879 E718.97305
G1 X107.775 Y116.879 E719.18999
G1 X116.879 Y107.775 E722.40855
G1 X116.879 Y106.908 E722.62549
G1 X106.908 Y116.879 E726.15084
G1 X106.040 Y116.879 E726.36778
G1 X116.879 Y106.040 E730.19993
G1 X116.879 Y105.172 E730.41687
G1 X105.172 Y116.879 E734.55582
G1 X104.304 Y116.879 E734.77276
G1 X116.879 Y104.304 E739.21850
G1 X116.879 Y103.437 E739.43544
G1 X103.437 Y116.879 E744.18798
G1 X102.569 Y116.879 E744.40492
G1 X116.879 Y102.569 E749.46426
G1 X116.879 Y101.701 E749.68120
G1 X101.701 Y116.879 E755.04733
G1 X100.833 Y116.879 E755.26427
G1 X116.879 Y100.833 E760.93720
G1 X116.879 Y99.966 E761.15414
G1 X99.966 Y116.879 E767.13386
G1 X99.098 Y116.879 E767.35080
G1 X116.879 Y99.098 E773.63732
G1 X116.879 Y98.230 E773.85426
G1 X98.230 Y116.879 E780.44758
G1 X97.362 Y116.879 E780.66451
G1 X116.879 Y97.362 E787.56463
G1 X116.879 Y96.495 E787.78157
G1 X96.495 Y116.879 E794.98848
G1 X95.627 Y116.879 E795.20541
G1 X116.879 Y95.627 E802.71912
G1 X116.879 Y94.759 E802.93606
G1 X94.759 Y116.879 E810.75656
G1 X93.891 Y116.879 E810.97350
G1 X116.879 Y93.891 E819.10080
G1 X116.879 Y93.024 E819.31774
G1 X93.024 Y116.879 E827.75183
G1 X92.156 Y116.879 E827.96877
G1 X116.879 Y92.156 E836.70966
G1 X116.879 Y91.288 E836.92660
G1 X91.288 Y116.879 E845.97428
G1 X90.420 Y116.879 E846.19122
G1 X116.879 Y90.420 E855.54570
G1 X116.879 Y89.553 E855.76264
G1 X89.553 Y116.879 E865.42392
G1 X88.685 Y116.879 E865.64086
G1 X116.879 Y88.685 E875.60894
G1 X116.879 Y87.817 E875.82587
G1 X87.817 Y116.879 E886.10074
G1 X86.949 Y116.879 E886.31768
G1 X116.879 Y86.949 E896.89935
G1 X116.879 Y86.082 E897.11629
G1 X86.082 Y116.879 E908.00475
G1 X85.214 Y116.879 E908.22169
G1 X116.879 Y85.214 E919.41695
G1 X116.879 Y84.346 E919.63389
G1 X84.346 Y116.879 E931.13594
G1 X83.478 Y116.879 E931.35288
G1 X116.879 Y83.478 E943.16173
G1 X116.368 Y83.121 E943.31752
G1 X83.121 Y116.368 E955.07201
G1 X83.121 Y115.500 E955.28895
G1 X115.500 Y83.121 E966.73663
G1 X114.632 Y83.121 E966.95357
G1 X83.121 Y114.632 E978.09447
G1 X83.121 Y113.765 E978.31140
G1 X113.765 Y83.121 E989.14550
G1 X112.897 Y83.121 E989.36244
G1 X83.121 Y112.897 E999.88974
G1 X83.121 Y112.029 E1000.10668
G1 X112.029 Y83.121 E1010.32718
G1 X111.161 Y83.121 E1010.54412
G1 X83.121 Y111.161 E1020.45783
G1 X83.121 Y110.294 E1020.67477
G1 X110.294 Y83.121 E1030.28168
G1 X109.426 Y83.121 E1030.49862
G1 X83.121 Y109.426 E1039.79873
G1 X83.121 Y108.558 E1040.01567
G1 X108.558 Y83.121 E1049.00899
G1 X107.690 Y83.121 E1049.22593
G1 X83.121 Y107.690 E1057.91245
G1 X83.121 Y106.823 E1058.12939
G1 X106.823 Y83.121 E1066.50912
G1 X105.955 Y83.121 E1066.72605
G1 X83.121 Y105.955 E1074.79899
G1 X83.121 Y105.087 E1075.01592
G1 X105.087 Y83.121 E1082.78206
G1 X104.219 Y83.121 E1082.99900
G1 X83.121 Y104.219 E1090.45834
G1 X83.121 Y103.352 E1090.67527
G1 X103.352 Y83.121 E1097.82782
G1 X102.484 Y83.121 E1098.04475
G1 X83.121 Y102.484 E1104.89050
G1 X83.121 Y101.616 E1105.10744
G1 X101.616 Y83.121 E1111.64639
G1 X100.748 Y83.121 E1111.86333
G1 X83.121 Y100.748 E1118.09548
G1 X83.121 Y99.881 E1118.31242
G1 X99.881 Y83.121 E1124.23778
G1 X99.013 Y83.121 E1124.45471
G1 X83.121 Y99.013 E1130.07328
G1 X83.121 Y98.145 E1130.29021
G1 X98.145 Y83.121 E1135.60198
G1 X97.277 Y83.121 E1135.81892
G1 X83.121 Y97.277 E1140.82389
G1 X83.121 Y96.410 E1141.04083
G1 X96.410 Y83.121 E1145.73900
G1 X95.542 Y83.121 E1145.95594
G1 X83.121 Y95.542 E1150.34731
G1 X83.121 Y94.674 E1150.56425
G1 X94.674 Y83.121 E1154.64883
G1 X93.806 Y83.121 E1154.86577
G1 X83.121 Y93.806 E1158.64356
G1 X83.121 Y92.939 E1158.86049
G1 X92.939 Y83.121 E1162.33148
G1 X92.071 Y83.121 E1162.54842
G1 X83.121 Y92.071 E1165.71261
G1 X83.121 Y91.203 E1165.92955
G1 X91.203 Y83.121 E1168.78695
G1 X90.335 Y83.121 E1169.00389
G1 X83.121 Y90.335 E1171.55449
G1 X83.121 Y89.468 E1171.77143
G1 X89.468 Y83.121 E1174.01523
G1 X88.600 Y83.121 E1174.23217
G1 X83.121 Y88.600 E1176.16918
G1 X83.121 Y87.732 E1176.38611
G1 X87.732 Y83.121 E1178.01632
G1 X86.864 Y83.121 E1178.23326
G1 X83.121 Y86.864 E1179.55668
G1 X83.121 Y85.997 E1179.77362
G1 X85.997 Y83.121 E1180.79024
G1 X85.129 Y83.121 E1181.00717
G1 X83.121 Y85.129 E1181.71700
G1 X83.121 Y84.261 E1181.93393
G1 X84.261 Y83.121 E1182.33696
G1 X83.393 Y83.121 E1182.55390
G1 X83.121 Y83.393 E1182.65013
G1 Z1.200 F7800.000
G1 X83.393 Y116.879 F7800.000
G1 X83.121 Y116.607 E1182.74636 F4800.000
G1 X83.121 Y115.739 E1182.96330
G1 X84.261 Y116.879 E1183.36633
G1 X85.129 Y116.879 E1183.58327
G1 X83.121 Y114.871 E1184.29309
G1 X83.121 Y114.003 E1184.51003
G1 X85.997 Y116.879 E1185.52665
G1 X86.864 Y116.879 E1185.74358
G1 X83.121 Y113.136 E1187.06700
G1 X83.121 Y112.268 E1187.28394
G1 X87.732 Y116.879 E1188.91415
G1 X88.600 Y116.879 E1189.13109
G1 X83.121 Y111.400 E1191.06810
G1 X83.121 Y110.532 E1191.28503
G1 X89.468 Y116.879 E1193.52884
G1 X90.335 Y116.879 E1193.74577
G1 X83.121 Y109.665 E1196.29638
G1 X83.121 Y108.797 E1196.51331
G1 X91.203 Y116.879 E1199.37071
G1 X92.071 Y116.879 E1199.58765
G1 X83.121 Y107.929 E1202.75184
G1 X83.121 Y107.061 E1202.96878
G1 X92.939 Y116.879 E1206.43977
G1 X93.806 Y116.879 E1206.65670
G1 X83.121 Y106.194 E1210.43449
G1 X83.121 Y105.326 E1210.65143
G1 X94.674 Y116.879 E1214.73601
G1 X95.542 Y116.879 E1214.95295
G1 X83.121 Y104.458 E1219.34432
G1 X83.121 Y103.590 E1219.56126
G1 X96.410 Y116.879 E1224.25944
G1 X97.277 Y116.879 E1224.47637
G1 X83.121 Y102.723 E1229.48134
G1 X83.121 Y101.855 E1229.69828
G1 X98.145 Y116.879 E1235.01005
G1 X99.013 Y116.879 E1235.22698
G1 X83.121 Y100.987 E1240.84555
G1 X83.121 Y100.119 E1241.06248
G1 X99.881 Y116.879 E1246.98784
G1 X100.748 Y116.879 E1247.20478
G1 X83.121 Y99.252 E1253.43693
G1 X83.121 Y98.384 E1253.65387
G1 X101.616 Y116.879 E1260.19282
G1 X102.484 Y116.879 E1260.40976
G1 X83.121 Y97.516 E1267.25550
G1 X83.121 Y96.648 E1267.47244
G1 X103.352 Y116.879 E1274.62499
G1 X104.219 Y116.879 E1274.84192
G1 X83.121 Y95.781 E1282.30126
G1 X83.121 Y94.913 E1282.51820
G1 X105.087 Y116.879 E1290.28433
G1 X105.955 Y116.879 E1290.50127
G1 X83.121 Y94.045 E1298.57420
G1 X83.121 Y93.177 E1298.79114
G1 X106.823 Y116.879 E1307.17087
G1 X107.690 Y116.879 E1307.38781
G1 X83.121 Y92.310 E1316.07433
G1 X83.121 Y91.442 E1316.29127
G1 X108.558 Y116.879 E1325.28459
G1 X109.426 Y116.879 E1325.50152
G1 X83.121 Y90.574 E1334.80164
G1 X83.121 Y89.706 E1335.01858
G1 X110.294 Y116.879 E1344.62549
G1 X111.161 Y116.879 E1344.84243
G1 X83.121 Y88.839 E1354.75613
G1 X83.121 Y87.971 E1354.97307
G1 X112.029 Y116.879 E1365.19358
G1 X112.897 Y116.879 E1365.41051
G1 X83.121 Y87.103 E1375.93781
G1 X83.121 Y86.235 E1376.15475
G1 X113.765 Y116.879 E1386.98885
G1 X114.632 Y116.879 E1387.20579
G1 X83.121 Y85.368 E1398.34668
G1 X83.121 Y84.500 E1398.56362
G1 X115.500 Y116.879 E1410.01130
G1 X116.368 Y116.879 E1410.22824
G1 X83.121 Y83.632 E1421.98273
G1 X83.478 Y83.121 E1422.13851
G1 X116.879 Y116.522 E1433.94737
G1 X116.879 Y115.654 E1434.16431
G1 X84.346 Y83.121 E1445.66636
G1 X85.214 Y83.121 E1445.88330
G1 X116.879 Y114.786 E1457.07856
G1 X116.879 Y113.918 E1457.29550
G1 X86.082 Y83.121 E1468.18396
G1 X86.949 Y83.121 E1468.40090
G1 X116.879 Y113.051 E1478.98257
G1 X116.879 Y112.183 E1479.19951
G1 X87.817 Y83.121 E1489.47438
G1 X88.685 Y83.121 E1489.69132
G1 X116.879 Y111.315 E1499.65939
G1 X116.879 Y110.447 E1499.87633
G1 X89.553 Y83.121 E1509.53761
G1 X90.420 Y83.121 E1509.75455
G1 X116.879 Y109.580 E1519.10903
G1 X116.879 Y108.712 E1519.32597
G1 X91.288 Y83.121 E1528.37366
G1 X92.156 Y83.121 E1528.59059
G1 X116.879 Y107.844 E1537.33148
G1 X116.879 Y106.976 E1537.54842
G1 X93.024 Y83.121 E1545.98252
G1 X93.891 Y83.121 E1546.19946
G1 X116.879 Y106.109 E1554.32675
G1 X116.879 Y105.241 E1554.54369
G1 X94.759 Y83.121 E1562.36419
G1 X95.627 Y83.121 E1562.58113
G1 X116.879 Y104.373 E1570.09484
G1 X116.879 Y103.505 E1570.31178
G1 X96.495 Y83.121 E1577.51869
G1 X97.362 Y83.121 E1577.73563
G1 X116.879 Y102.638 E1584.63574
G1 X116.879 Y101.770 E1584.85268
G1 X98.230 Y83.121 E1591.44600
G1 X99.098 Y83.121 E1591.66293
G1 X116.879 Y100.902 E1597.94946
G1 X116.879 Y100.034 E1598.16639
G1 X99.966 Y83.121 E1604.14612
G1 X100.833 Y83.121 E1604.36306
G1 X116.879 Y99.167 E1610.03599
G1 X116.879 Y98.299 E1610.25293
G1 X101.701 Y83.121 E1615.61906
G1 X102.569 Y83.121 E1615.83600
G1 X116.879 Y97.431 E1620.89533
G1 X116.879 Y96.563 E1621.11227
G1 X103.437 Y83.121 E1625.86481
G1 X104.304 Y83.121 E1626.08175
G1 X116.879 Y95.696 E1630.52750
G1 X116.879 Y94.828 E1630.74443
G1 X105.172 Y83.121 E1634.88338
G1 X106.040 Y83.121 E1635.10032
G1 X116.879 Y93.960 E1638.93247
G1 X116.879 Y93.092 E1639.14941
G1 X106.908 Y83.121 E1642.67477
G1 X107.775 Y83.121 E1642.89171
G1 X116.879 Y92.225 E1646.11027
G1 X116.879 Y91.357 E1646.32721
G1 X108.643 Y83.121 E1649.23897
G1 X109.511 Y83.121 E1649.45591
G1 X116.879 Y90.489 E1652.06088
G1 X116.879 Y89.621 E1652.27782
G1 X110.379 Y83.121 E1654.57599
G1 X111.246 Y83.121 E1654.79293
G1 X116.879 Y88.754 E1656.78430
G1 X116.879 Y87.886 E1657.00124
G1 X112.114 Y83.121 E1658.68582
G1 X112.982 Y83.121 E1658.90276
G1 X116.879 Y87.018 E1660.28054
G1 X116.879 Y86.150 E1660.49748
G1 X113.850 Y83.121 E1661.56847
G1 X114.717 Y83.121 E1661.78541
G1 X116.879 Y85.283 E1662.54960
G1 X116.879 Y84.415 E1662.76654
G1 X115.585 Y83.121 E1663.22393
G1 X116.453 Y83.121 E1663.44087
G1 X116.879 Y83.547 E1663.59147
M106 S196.35
G1 Z1.600 F7800.000
G1 X116.453 Y116.879 F7800.000
G1 X116.879 Y116.453 E1663.74207 F4800.000
G1 X116.879 Y115.585 E1663.95901
G1 X115.585 Y116.879 E1664.41640
G1 X114.717 Y116.879 E1664.63334
G1 X116.879 Y114.717 E1665.39753
G1 X116.879 Y113.850 E1665.61447
G1 X113.850 Y116.879 E1666.68546
G1 X112.982 Y116.879 E1666.90239
G1 X116.879 Y112.982 E1668.28018
G1 X116.879 Y112.114 E1668.49712
G1 X112.114 Y116.879 E1670.18170
G1 X111.246 Y116.879 E1670.39863
G1 X116.879 Y111.246 E1672.39001
G1 X116.879 Y110.379 E1672.60695
G1 X110.379 Y116.879 E1674.90512
G1 X109.511 Y116.879 E1675.12206
G1 X116.879 Y109.511 E1677.72703
G1 X116.879 Y108.643 E1677.94396
G1 X108.643 Y116.879 E1680.85573
G1 X107.775 Y116.879 E1681.07267
G1 X116.879 Y107.775 E1684.29123
G1 X116.879 Y106.908 E1684.50817
G1 X106.908 Y116.879 E1688.03352
G1 X106.040 Y116.879 E1688.25046
G1 X116.879 Y106.040 E1692.08261
G1 X116.879 Y105.172 E1692.29955
G1 X105.172 Y116.879 E1696.43850
G1 X104.304 Y116.879 E1696.65544
G1 X116.879 Y104.304 E1701.10118
G1 X116.879 Y103.437 E1701.31812
G1 X103.437 Y116.879 E1706.07066
G1 X102.569 Y116.879 E1706.28760
G1 X116.879 Y102.569 E1711.34694
G1 X116.879 Y101.701 E1711.56388
G1 X101.701 Y116.879 E1716.93001
G1 X100.833 Y116.879 E1717.14695
G1 X116.879 Y100.833 E1722.81988
G1 X116.879 Y99.966 E1723.03681
G1 X99.966 Y116.879 E1729.01654
G1 X99.098 Y116.879 E1729.23348
G1 X116.879 Y99.098 E1735.52000
G1 X116.879 Y98.230 E1735.73694
G1 X98.230 Y116.879 E1742.33026
G1 X97.362 Y116.879 E1742.54719
G1 X116.879 Y97.362 E1749.44731
G1 X116.879 Y96.495 E1749.66424
G1 X96.495 Y116.879 E1756.87116
G1 X95.627 Y116.879 E1757.08809
G1 X116.879 Y95.627 E1764.60180
G1 X116.879 Y94.759 E1764.81874
G1 X94.759 Y116.879 E1772.63924
G1 X93.891 Y116.879 E1772.85618
G1 X116.879 Y93.891 E1780.98348
G1 X116.879 Y93.024 E1781.20041
G1 X93.024 Y116.879 E1789.63451
G1 X92.156 Y116.879 E1789.85145
G1 X116.879 Y92.156 E1798.59234
G1 X116.879 Y91.288 E1798.80928
G1 X91.288 Y116.879 E1807.85696
G1 X90.420 Y116.879 E1808.07390
G1 X116.879 Y90.420 E1817.42838
G1 X116.879 Y89.553 E1817.64532
G1 X89.553 Y116.879 E1827.30660
G1 X88.685 Y116.879 E1827.52354
G1 X116.879 Y88.685 E1837.49161
G1 X116.879 Y87.817 E1837.70855
G1 X87.817 Y116.879 E1847.98342
G1 X86.949 Y116.879 E1848.20036
G1 X116.879 Y86.949 E1858.78203
G1 X116.879 Y86.082 E1858.99897
G1 X86.082 Y116.879 E1869.88743
G1 X85.214 Y116.879 E1870.10437
G1 X116.879 Y85.214 E1881.29963
G1 X116.879 Y84.346 E1881.51657
G1 X84.346 Y116.879 E1893.01862
G1 X83.478 Y116.879 E1893.23556
G1 X116.879 Y83.478 E1905.04441
G1 X116.368 Y83.121 E1905.20020
G1 X83.121 Y116.368 E1916.95469
G1 X83.121 Y115.500 E1917.17162
G1 X115.500 Y83.121 E1928.61931
G1 X114.632 Y83.121 E1928.83625
G1 X83.121 Y114.632 E1939.97714
G1 X83.121 Y113.765 E1940.19408
G1 X113.765 Y83.121 E1951.02818
G1 X112.897 Y83.121 E1951.24512
G1 X83.121 Y112.897 E1961.77242
G1 X83.121 Y112.029 E1961.98936
G1 X112.029 Y83.121 E1972.20986
G1 X111.161 Y83.121 E1972.42680
G1 X83.121 Y111.161 E1982.34051
G1 X83.121 Y110.294 E1982.55744
G1 X110.294 Y83.121 E1992.16436
G1 X109.426 Y83.121 E1992.38129
G1 X83.121 Y109.426 E2001.68141
G1 X83.121 Y108.558 E2001.89835
G1 X108.558 Y83.121 E2010.89167
G1 X107.690 Y83.121 E2011.10861
G1 X83.121 Y107.690 E2019.79513
G1 X83.121 Y106.823 E2020.01207
G1 X106.823 Y83.121 E2028.39179
G1 X105.955 Y83.121 E2028.60873
G1 X83.121 Y105.955 E2036.68166
G1 X83.121 Y105.087 E2036.89860
G1 X105.087 Y83.121 E2044.66474
G1 X104.219 Y83.121 E2044.88167
G1 X83.121 Y104.219 E2052.34101
G1 X83.121 Y103.352 E2052.55795
G1 X103.352 Y83.121 E2059.71049
G1 X102.484 Y83.121 E2059.92743
G1 X83.121 Y102.484 E2066.77318
G1 X83.121 Y101.616 E2066.99012
G1 X101.616 Y83.121 E2073.52907
G1 X100.748 Y83.121 E2073.74600
G1 X83.121 Y100.748 E2079.97816
G1 X83.121 Y99.881 E2080.19510
G1 X99.881 Y83.121 E2086.12046
G1 X99.013 Y83.121 E2086.33739
G1 X83.121 Y99.013 E2091.95596
G1 X83.121 Y98.145 E2092.17289
G1 X98.145 Y83.121 E2097.48466
G1 X97.277 Y83.121 E2097.70160
G1 X83.121 Y97.277 E2102.70657
G1 X83.121 Y96.410 E2102.92350
G1 X96.410 Y83.121 E2107.62168
G1 X95.542 Y83.121 E2107.83862
G1 X83.121 Y95.542 E2112.22999
G1 X83.121 Y94.674 E2112.44693
G1 X94.674 Y83.121 E2116.53151
G1 X93.806 Y83.121 E2116.74845
G1 X83.121 Y93.806 E2120.52624
G1 X83.121 Y92.939 E2120.74317
G1 X92.939 Y83.121 E2124.21416
G1 X92.071 Y83.121 E2124.43110
G1 X83.121 Y92.071 E2127.59529
G1 X83.121 Y91.203 E2127.81223
G1 X91.203 Y83.121 E2130.66963
G1 X90.335 Y83.121 E2130.88657
G1 X83.121 Y90.335 E2133.43717
G1 X83.121 Y89.468 E2133.65410
G1 X89.468 Y83.121 E2135.89791
G1 X88.600 Y83.121 E2136.11485
G1 X83.121 Y88.600 E2138.05185
G1 X83.121 Y87.732 E2138.26879
G1 X87.732 Y83.121 E2139.89900
G1 X86.864 Y83.121 E2140.11594
G1 X83.121 Y86.864 E2141.43936
G1 X83.121 Y85.997 E2141.65629
G1 X85.997 Y83.121 E2142.67291
G1 X85.129 Y83.121 E2142.88985
G1 X83.121 Y85.129 E2143.59968
G1 X83.121 Y84.261 E2143.81661
G1 X84.261 Y83.121 E2144.21964
G1 X83.393 Y83.121 E2144.43658
G1 X83.121 Y83.393 E2144.53281
G1 Z2.000 F7800.000
G1 X83.393 Y116.879 F7800.000
G1 X83.121 Y116.607 E2144.62904 F4800.000
G1 X83.121 Y115.739 E2144.84598
G1 X84.261 Y116.879 E2145.24901
G1 X85.129 Y116.879 E2145.46594
G1 X83.121 Y114.871 E2146.17577
G1 X83.121 Y114.003 E2146.39271
G1 X85.997 Y116.879 E2147.40932
G1 X86.864 Y116.879 E2147.62626
G1 X83.121 Y113.136 E2148.94968
G1 X83.121 Y112.268 E2149.16662
G1 X87.732 Y116.879 E2150.79683
G1 X88.600 Y116.879 E2151.01377
G1 X83.121 Y111.400 E2152.95077
G1 X83.121 Y110.532 E2153.16771
G1 X89.468 Y116.879 E2155.41152
G1 X90.335 Y116.879 E2155.62845
G1 X83.121 Y109.665 E2158.17905
G1 X83.121 Y108.797 E2158.39599
G1 X91.203 Y116.879 E2161.25339
G1 X92.071 Y116.879 E2161.47033
G1 X83.121 Y107.929 E2164.63452
G1 X83.121 Y107.061 E2164.85146
G1 X92.939 Y116.879 E2168.32245
G1 X93.806 Y116.879 E2168.53938
G1 X83.121 Y106.194 E2172.31717
G1 X83.121 Y105.326 E2172.53411
G1 X94.674 Y116.879 E2176.61869
G1 X95.542 Y116.879 E2176.83562
G1 X83.121 Y104.458 E2181.22700
G1 X83.121 Y103.590 E2181.44394
G1 X96.410 Y116.879 E2186.14211
G1 X97.277 Y116.879 E2186.35905
G1 X83.121 Y102.723 E2191.36402
G1 X83.121 Y101.855 E2191.58096
G1 X98.145 Y116.879 E2196.89272
G1 X99.013 Y116.879 E2197.10966
G1 X83.121 Y100.987 E2202.72822
G1 X83.121 Y100.119 E2202.94516
G1 X99.881 Y116.879 E2208.87052
G1 X100.748 Y116.879 E2209.08746
G1 X83.121 Y99.252 E2215.31961
G1 X83.121 Y98.384 E2215.53655
G1 X101.616 Y116.879 E2222.07550
G1 X102.484 Y116.879 E2222.29244
G1 X83.121 Y97.516 E2229.13818
G1 X83.121 Y96.648 E2229.35512
G1 X103.352 Y116.879 E2236.50766
G1 X104.219 Y116.879 E2236.72460
G1 X83.121 Y95.781 E2244.18394
G1 X83.121 Y94.913 E2244.40088
G1 X105.087 Y116.879 E2252.16701
G1 X105.955 Y116.879 E2252.38395
G1 X83.121 Y94.045 E2260.45688
G1 X83.121 Y93.177 E2260.67382
G1 X106.823 Y116.879 E2269.05355
G1 X107.690 Y116.879 E2269.27048
G1 X83.121 Y92.310 E2277.95701
G1 X83.121 Y91.442 E2278.17395
G1 X108.558 Y116.879 E2287.16726
G1 X109.426 Y116.879 E2287.38420
G1 X83.121 Y90.574 E2296.68432
G1 X83.121 Y89.706 E2296.90126
G1 X110.294 Y116.879 E2306.50817
G1 X111.161 Y116.879 E2306.72510
G1 X83.121 Y88.839 E2316.63881
G1 X83.121 Y87.971 E2316.85575
G1 X112.029 Y116.879 E2327.07625
G1 X112.897 Y116.879 E2327.29319
G1 X83.121 Y87.103 E2337.82049
G1 X83.121 Y86.235 E2338.03743
G1 X113.765 Y116.879 E2348.87153
G1 X114.632 Y116.879 E2349.08846
G1 X83.121 Y85.368 E2360.22936
G1 X83.121 Y84.500 E2360.44629
G1 X115.500 Y116.879 E2371.89398
G1 X116.368 Y116.879 E2372.11092
G1 X83.121 Y83.632 E2383.86541
G1 X83.478 Y83.121 E2384.02119
G1 X116.879 Y116.522 E2395.83005
G1 X116.879 Y115.654 E2396.04698
G1 X84.346 Y83.121 E2407.54904
G1 X85.214 Y83.121 E2407.76598
G1 X116.879 Y114.786 E2418.96124
G1 X116.879 Y113.918 E2419.17818
G1 X86.082 Y83.121 E2430.06664
G1 X86.949 Y83.121 E2430.28358
G1 X116.879 Y113.051 E2440.86525
G1 X116.879 Y112.183 E2441.08218
G1 X87.817 Y83.121 E2451.35706
G1 X88.685 Y83.121 E2451.57399
G1 X116.879 Y111.315 E2461.54207
G1 X116.879 Y110.447 E2461.75901
G1 X89.553 Y83.121 E2471.42029
G1 X90.420 Y83.121 E2471.63723
G1 X116.879 Y109.580 E2480.99171
G1 X116.879 Y108.712 E2481.20865
G1 X91.288 Y83.121 E2490.25633
G1 X92.156 Y83.121 E2490.47327
G1 X116.879 Y107.844 E2499.21416
G1 X116.879 Y106.976 E2499.43110
G1 X93.024 Y83.121 E2507.86520
G1 X93.891 Y83.121 E2508.08213
G1 X116.879 Y106.109 E2516.20943
G1 X116.879 Y105.241 E2516.42637
G1 X94.759 Y83.121 E2524.24687
G1 X95.627 Y83.121 E2524.46381
G1 X116.879 Y104.373 E2531.97752
G1 X116.879 Y103.505 E2532.19446
G1 X96.495 Y83.121 E2539.40137
G1 X97.362 Y83.121 E2539.61830
G1 X116.879 Y102.638 E2546.51842
G1 X116.879 Y101.770 E2546.73536
G1 X98.230 Y83.121 E2553.32867
G1 X99.098 Y83.121 E2553.54561
G1 X116.879 Y100.902 E2559.83213
G1 X116.879 Y100.034 E2560.04907
G1 X99.966 Y83.121 E2566.02880
G1 X100.833 Y83.121 E2566.24574
G1 X116.879 Y99.167 E2571.91867
G1 X116.879 Y98.299 E2572.13560
G1 X101.701 Y83.121 E2577.50174
G1 X102.569 Y83.121 E2577.71868
G1 X116.879 Y97.431 E2582.77801
G1 X116.879 Y96.563 E2582.99495
G1 X103.437 Y83.121 E2587.74749
G1 X104.304 Y83.121 E2587.96443
G1 X116.879 Y95.696 E2592.41018
G1 X116.879 Y94.828 E2592.62711
G1 X105.172 Y83.121 E2596.76606
G1 X106.040 Y83.121 E2596.98300
G1 X116.879 Y93.960 E2600.81515
G1 X116.879 Y93.092 E2601.03209
G1 X106.908 Y83.121 E2604.55745
G1 X107.775 Y83.121 E2604.77439
G1 X116.879 Y92.225 E2607.99295
G1 X116.879 Y91.357 E2608.20988
G1 X108.643 Y83.121 E2611.12165
G1 X109.511 Y83.121 E2611.33859
G1 X116.879 Y90.489 E2613.94356
G1 X116.879 Y89.621 E2614.16049
G1 X110.379 Y83.121 E2616.45867
G1 X111.246 Y83.121 E2616.67560
G1 X116.879 Y88.754 E2618.66698
G1 X116.879 Y87.886 E2618.88392
G1 X112.114 Y83.121 E2620.56850
G1 X112.982 Y83.121 E2620.78544
G1 X116.879 Y87.018 E2622.16322
G1 X116.879 Y86.150 E2622.38016
G1 X113.850 Y83.121 E2623.45115
G1 X114.717 Y83.121 E2623.66808
G1 X116.879 Y85.283 E2624.43228
G1 X116.879 Y84.415 E2624.64921
G1 X115.585 Y83.121 E2625.10661
G1 X116.453 Y83.121 E2625.32355
G1 X116.879 Y83.547 E2625.47415
G1 Z2.400 F7800.000
G1 X116.453 Y116.879 F7800.000
G1 X116.879 Y116.453 E2625.62475 F4800.000
G1 X116.879 Y115.585 E2625.84169
G1 X115.585 Y116.879 E2626.29908
G1 X114.717 Y116.879 E2626.51602
G1 X116.879 Y114.717 E2627.28021
G1 X116.879 Y113.850 E2627.49715
G1 X113.850 Y116.879 E2628.56814
G1 X112.982 Y116.879 E2628.78507
G1 X116.879 Y112.982 E2630.16286
G1 X116.879 Y112.114 E2630.37980
G1 X112.114 Y116.879 E2632.06438
G1 X111.246 Y116.879 E2632.28131
G1 X116.879 Y111.246 E2634.27269
G1 X116.879 Y110.379 E2634.48963
G1 X110.379 Y116.879 E2636.78780
G1 X109.511 Y116.879 E2637.00474
G1 X116.879 Y109.511 E2639.60971
G1 X116.879 Y108.643 E2639.82664
G1 X108.643 Y116.879 E2642.73841
G1 X107.775 Y116.879 E2642.95534
G1 X116.879 Y107.775 E2646.17391
G1 X116.879 Y106.908 E2646.39084
G1 X106.908 Y116.879 E2649.91620
G1 X106.040 Y116.879 E2650.13314
G1 X116.879 Y106.040 E2653.96529
G1 X116.879 Y105.172 E2654.18223
G1 X105.172 Y116.879 E2658.32118
G1 X104.304 Y116.879 E2658.53812
G1 X116.879 Y104.304 E2662.98386
G1 X116.879 Y103.437 E2663.20080
G1 X103.437 Y116.879 E2667.95334
G1 X102.569 Y116.879 E2668.17028
G1 X116.879 Y102.569 E2673.22962
G1 X116.879 Y101.701 E2673.44655
G1 X101.701 Y116.879 E2678.81269
G1 X100.833 Y116.879 E2679.02962
G1 X116.879 Y100.833 E2684.70255
G1 X116.879 Y99.966 E2684.91949
G1 X99.966 Y116.879 E2690.89922
G1 X99.098 Y116.879 E2691.11616
G1 X116.879 Y99.098 E2697.40268
G1 X116.879 Y98.230 E2697.61962
G1 X98.230 Y116.879 E2704.21293
G1 X97.362 Y116.879 E2704.42987
G1 X116.879 Y97.362 E2711.32999
G1 X116.879 Y96.495 E2711.54692
G1 X96.495 Y116.879 E2718.75383
G1 X95.627 Y116.879 E2718.97077
G1 X116.879 Y95.627 E2726.48448
G1 X116.879 Y94.759 E2726.70142
G1 X94.759 Y116.879 E2734.52192
G1 X93.891 Y116.879 E2734.73886
G1 X116.879 Y93.891 E2742.86615
G1 X116.879 Y93.024 E2743.08309
G1 X93.024 Y116.879 E2751.51719
G1 X92.156 Y116.879 E2751.73413
G1 X116.879 Y92.156 E2760.47502
G1 X116.879 Y91.288 E2760.69195
G1 X91.288 Y116.879 E2769.73964
G1 X90.420 Y116.879 E2769.95658
G1 X116.879 Y90.420 E2779.31106
G1 X116.879 Y89.553 E2779.52800
G1 X89.553 Y116.879 E2789.18928
G1 X88.685 Y116.879 E2789.40622
G1 X116.879 Y88.685 E2799.37429
G1 X116.879 Y87.817 E2799.59123
G1 X87.817 Y116.879 E2809.86610
G1 X86.949 Y116.879 E2810.08304
G1 X116.879 Y86.949 E2820.66471
G1 X116.879 Y86.082 E2820.88164
G1 X86.082 Y116.879 E2831.77011
G1 X85.214 Y116.879 E2831.98705
G1 X116.879 Y85.214 E2843.18231
G1 X116.879 Y84.346 E2843.39924
G1 X84.346 Y116.879 E2854.90130
G1 X83.478 Y116.879 E2855.11824
G1 X116.879 Y83.478 E2866.92709
G1 X116.368 Y83.121 E2867.08288
G1 X83.121 Y116.368 E2878.83736
G1 X83.121 Y115.500 E2879.05430
G1 X115.500 Y83.121 E2890.50199
G1 X114.632 Y83.121 E2890.71893
G1 X83.121 Y114.632 E2901.85982
G1 X83.121 Y113.765 E2902.07676
G1 X113.765 Y83.121 E2912.91086
G1 X112.897 Y83.121 E2913.12779
G1 X83.121 Y112.897 E2923.65510
G1 X83.121 Y112.029 E2923.87203
G1 X112.029 Y83.121 E2934.09254
G1 X111.161 Y83.121 E2934.30948
G1 X83.121 Y111.161 E2944.22318
G1 X83.121 Y110.294 E2944.44012
G1 X110.294 Y83.121 E2954.04703
G1 X109.426 Y83.121 E2954.26397
G1 X83.121 Y109.426 E2963.56409
G1 X83.121 Y108.558 E2963.78103
G1 X108.558 Y83.121 E2972.77435
G1 X107.690 Y83.121 E2972.99128
G1 X83.121 Y107.690 E2981.67781
G1 X83.121 Y106.823 E2981.89475
G1 X106.823 Y83.121 E2990.27447
G1 X105.955 Y83.121 E2990.49141
G1 X83.121 Y105.955 E2998.56434
G1 X83.121 Y105.087 E2998.78128
G1 X105.087 Y83.121 E3006.54741
G1 X104.219 Y83.121 E3006.76435
G1 X83.121 Y104.219 E3014.22369
G1 X83.121 Y103.352 E3014.44063
G1 X103.352 Y83.121 E3021.59317
G1 X102.484 Y83.121 E3021.81011
G1 X83.121 Y102.484 E3028.65586
G1 X83.121 Y101.616 E3028.87279
G1 X101.616 Y83.121 E3035.41175
G1 X100.748 Y83.121 E3035.62868
G1 X83.121 Y100.748 E3041.86084
G1 X83.121 Y99.881 E3042.07778
G1 X99.881 Y83.121 E3048.00313
G1 X99.013 Y83.121 E3048.22007
G1 X83.121 Y99.013 E3053.83863
G1 X83.121 Y98.145 E3054.05557
G1 X98.145 Y83.121 E3059.36734
G1 X97.277 Y83.121 E3059.58428
G1 X83.121 Y97.277 E3064.58924
G1 X83.121 Y96.410 E3064.80618
G1 X96.410 Y83.121 E3069.50436
G1 X95.542 Y83.121 E3069.72129
G1 X83.121 Y95.542 E3074.11267
G1 X83.121 Y94.674 E3074.32961
G1 X94.674 Y83.121 E3078.41419
G1 X93.806 Y83.121 E3078.63113
G1 X83.121 Y93.806 E3082.40891
G1 X83.121 Y92.939 E3082.62585
G1 X92.939 Y83.121 E3086.09684
G1 X92.071 Y83.121 E3086.31378
G1 X83.121 Y92.071 E3089.47797
G1 X83.121 Y91.203 E3089.69491
G1 X91.203 Y83.121 E3092.55231
G1 X90.335 Y83.121 E3092.76924
G1 X83.121 Y90.335 E3095.31984
G1 X83.121 Y89.468 E3095.53678
G1 X89.468 Y83.121 E3097.78059
G1 X88.600 Y83.121 E3097.99752
G1 X83.121 Y88.600 E3099.93453
G1 X83.121 Y87.732 E3100.15147
G1 X87.732 Y83.121 E3101.78168
G1 X86.864 Y83.121 E3101.99862
G1 X83.121 Y86.864 E3103.32204
G1 X83.121 Y85.997 E3103.53897
G1 X85.997 Y83.121 E3104.55559
G1 X85.129 Y83.121 E3104.77253
G1 X83.121 Y85.129 E3105.48235
G1 X83.121 Y84.261 E3105.69929
G1 X84.261 Y83.121 E3106.10232
G1 X83.393 Y83.121 E3106.31926
G1 X83.121 Y83.393 E3106.41549
G1 Z2.800 F7800.000
G1 X83.393 Y116.879 F7800.000
G1 X83.121 Y116.607 E3106.51172 F4800.000
G1 X83.121 Y115.739 E3106.72866
G1 X84.261 Y116.879 E3107.13168
G1 X85.129 Y116.879 E3107.34862
G1 X83.121 Y114.871 E3108.05845
G1 X83.121 Y114.003 E3108.27538
G1 X85.997 Y116.879 E3109.29200
G1 X86.864 Y116.879 E3109.50894
G1 X83.121 Y113.136 E3110.83236
G1 X83.121 Y112.268 E3111.04929
G1 X87.732 Y116.879 E3112.67951
G1 X88.600 Y116.879 E3112.89644
G1 X83.121 Y111.400 E3114.83345
G1 X83.121 Y110.532 E3115.05039
G1 X89.468 Y116.879 E3117.29419
G1 X90.335 Y116.879 E3117.51113
G1 X83.121 Y109.665 E3120.06173
G1 X83.121 Y108.797 E3120.27867
G1 X91.203 Y116.879 E3123.13607
G1 X92.071 Y116.879 E3123.35300
G1 X83.121 Y107.929 E3126.51720
G1 X83.121 Y107.061 E3126.73413
G1 X92.939 Y116.879 E3130.20512
G1 X93.806 Y116.879 E3130.42206
G1 X83.121 Y106.194 E3134.19985
G1 X83.121 Y105.326 E3134.41678
G1 X94.674 Y116.879 E3138.50137
G1 X95.542 Y116.879 E3138.71830
G1 X83.121 Y104.458 E3143.10968
G1 X83.121 Y103.590 E3143.32662
G1 X96.410 Y116.879 E3148.02479
G1 X97.277 Y116.879 E3148.24173
G1 X83.121 Y102.723 E3153.24670
G1 X83.121 Y101.855 E3153.46364
G1 X98.145 Y116.879 E3158.77540
G1 X99.013 Y116.879 E3158.99234
G1 X83.121 Y100.987 E3164.61090
G1 X83.121 Y100.119 E3164.82784
G1 X99.881 Y116.879 E3170.75320
G1 X100.748 Y116.879 E3170.97014
G1 X83.121 Y99.252 E3177.20229
G1 X83.121 Y98.384 E3177.41923
G1 X101.616 Y116.879 E3183.95818
G1 X102.484 Y116.879 E3184.17512
G1 X83.121 Y97.516 E3191.02086
G1 X83.121 Y96.648 E3191.23780
G1 X103.352 Y116.879 E3198.39034
G1 X104.219 Y116.879 E3198.60728
G1 X83.121 Y95.781 E3206.06662
G1 X83.121 Y94.913 E3206.28356
G1 X105.087 Y116.879 E3214.04969
G1 X105.955 Y116.879 E3214.26663
G1 X83.121 Y94.045 E3222.33956
G1 X83.121 Y93.177 E3222.55650
G1 X106.823 Y116.879 E3230.93622
G1 X107.690 Y116.879 E3231.15316
G1 X83.121 Y92.310 E3239.83969
G1 X83.121 Y91.442 E3240.05662
G1 X108.558 Y116.879 E3249.04994
G1 X109.426 Y116.879 E3249.26688
G1 X83.121 Y90.574 E3258.56700
G1 X83.121 Y89.706 E3258.78393
G1 X110.294 Y116.879 E3268.39085
G1 X111.161 Y116.879 E3268.60778
G1 X83.121 Y88.839 E3278.52149
G1 X83.121 Y87.971 E3278.73843
G1 X112.029 Y116.879 E3288.95893
G1 X112.897 Y116.879 E3289.17587
G1 X83.121 Y87.103 E3299.70317
G1 X83.121 Y86.235 E3299.92011
G1 X113.765 Y116.879 E3310.75420
G1 X114.632 Y116.879 E3310.97114
G1 X83.121 Y85.368 E3322.11203
G1 X83.121 Y84.500 E3322.32897
G1 X115.500 Y116.879 E3333.77666
G1 X116.368 Y116.879 E3333.99360
G1 X83.121 Y83.632 E3345.74808
G1 X83.478 Y83.121 E3345.90387
G1 X116.879 Y116.522 E3357.71272
G1 X116.879 Y115.654 E3357.92966
G1 X84.346 Y83.121 E3369.43172
G1 X85.214 Y83.121 E3369.64866
G1 X116.879 Y114.786 E3380.84392
G1 X116.879 Y113.918 E3381.06085
G1 X86.082 Y83.121 E3391.94932
G1 X86.949 Y83.121 E3392.16626
G1 X116.879 Y113.051 E3402.74792
G1 X116.879 Y112.183 E3402.96486
G1 X87.817 Y83.121 E3413.23973
G1 X88.685 Y83.121 E3413.45667
G1 X116.879 Y111.315 E3423.42475
G1 X116.879 Y110.447 E3423.64169
G1 X89.553 Y83.121 E3433.30297
G1 X90.420 Y83.121 E3433.51990
G1 X116.879 Y109.580 E3442.87439
G1 X116.879 Y108.712 E3443.09132
G1 X91.288 Y83.121 E3452.13901
G1 X92.156 Y83.121 E3452.35595
G1 X116.879 Y107.844 E3461.09684
G1 X116.879 Y106.976 E3461.31378
G1 X93.024 Y83.121 E3469.74787
G1 X93.891 Y83.121 E3469.96481
G1 X116.879 Y106.109 E3478.09211
G1 X116.879 Y105.241 E3478.30905
G1 X94.759 Y83.121 E3486.12955
G1 X95.627 Y83.121 E3486.34649
G1 X116.879 Y104.373 E3493.86020
G1 X116.879 Y103.505 E3494.07713
G1 X96.495 Y83.121 E3501.28405
G1 X97.362 Y83.121 E3501.50098
G1 X116.879 Y102.638 E3508.40110
G1 X116.879 Y101.770 E3508.61803
G1 X98.230 Y83.121 E3515.21135
G1 X99.098 Y83.121 E3515.42829
G1 X116.879 Y100.902 E3521.71481
G1 X116.879 Y100.034 E3521.93175
G1 X99.966 Y83.121 E3527.91148
G1 X100.833 Y83.121 E3528.12841
G1 X116.879 Y99.167 E3533.80134
G1 X116.879 Y98.299 E3534.01828
G1 X101.701 Y83.121 E3539.38442
G1 X102.569 Y83.121 E3539.60135
G1 X116.879 Y97.431 E3544.66069
G1 X116.879 Y96.563 E3544.87763
G1 X103.437 Y83.121 E3549.63017
G1 X104.304 Y83.121 E3549.84711
G1 X116.879 Y95.696 E3554.29285
G1 X116.879 Y94.828 E3554.50979
G1 X105.172 Y83.121 E3558.64874
G1 X106.040 Y83.121 E3558.86568
G1 X116.879 Y93.960 E3562.69783
G1 X116.879 Y93.092 E3562.91477
G1 X106.908 Y83.121 E3566.44013
G1 X107.775 Y83.121 E3566.65706
G1 X116.879 Y92.225 E3569.87563
G1 X116.879 Y91.357 E3570.09256
G1 X108.643 Y83.121 E3573.00433
G1 X109.511 Y83.121 E3573.22127
G1 X116.879 Y90.489 E3575.82623
G1 X116.879 Y89.621 E3576.04317
G1 X110.379 Y83.121 E3578.34134
G1 X111.246 Y83.121 E3578.55828
G1 X116.879 Y88.754 E3580.54966
G1 X116.879 Y87.886 E3580.76660
G1 X112.114 Y83.121 E3582.45118
G1 X112.982 Y83.121 E3582.66812
G1 X116.879 Y87.018 E3584.04590
G1 X116.879 Y86.150 E3584.26284
G1 X113.850 Y83.121 E3585.33383
G1 X114.717 Y83.121 E3585.55076
G1 X116.879 Y85.283 E3586.31496
G1 X116.879 Y84.415 E3586.53189
G1 X115.585 Y83.121 E3586.98929
G1 X116.453 Y83.121 E3587.20623
G1 X116.879 Y83.547 E3587.35683
G1 Z3.200 F7800.000
G1 X116.453 Y116.879 F7800.000
G1 X116.879 Y116.453 E3587.50743 F4800.000
G1 X116.879 Y115.585 E3587.72436
G1 X115.585 Y116.879 E3588.18176
G1 X114.717 Y116.879 E3588.39870
G1 X116.879 Y114.717 E3589.16289
G1 X116.879 Y113.850 E3589.37983
G1 X113.850 Y116.879 E3590.45081
G1 X112.982 Y116.879 E3590.66775
G1 X116.879 Y112.982 E3592.04554
G1 X116.879 Y112.114 E3592.26247
G1 X112.114 Y116.879 E3593.94705
G1 X111.246 Y116.879 E3594.16399
G1 X116.879 Y111.246 E3596.15537
G1 X116.879 Y110.379 E3596.37230
G1 X110.379 Y116.879 E3598.67048
G1 X109.511 Y116.879 E3598.88741
G1 X116.879 Y109.511 E3601.49238
G1 X116.879 Y108.643 E3601.70932
G1 X108.643 Y116.879 E3604.62109
G1 X107.775 Y116.879 E3604.83802
G1 X116.879 Y107.775 E3608.05658
G1 X116.879 Y106.908 E3608.27352
G1 X106.908 Y116.879 E3611.79888
G1 X106.040 Y116.879 E3612.01582
G1 X116.879 Y106.040 E3615.84797
G1 X116.879 Y105.172 E3616.06491
G1 X105.172 Y116.879 E3620.20386
G1 X104.304 Y116.879 E3620.42079
G1 X116.879 Y104.304 E3624.86654
G1 X116.879 Y103.437 E3625.08348
G1 X103.437 Y116.879 E3629.83602
G1 X102.569 Y116.879 E3630.05296
G1 X116.879 Y102.569 E3635.11229
G1 X116.879 Y101.701 E3635.32923
G1 X101.701 Y116.879 E3640.69537
G1 X100.833 Y116.879 E3640.91230
G1 X116.879 Y100.833 E3646.58523
G1 X116.879 Y99.966 E3646.80217
G1 X99.966 Y116.879 E3652.78190
G1 X99.098 Y116.879 E3652.99883
G1 X116.879 Y99.098 E3659.28536
G1 X116.879 Y98.230 E3659.50229
G1 X98.230 Y116.879 E3666.09561
G1 X97.362 Y116.879 E3666.31255
G1 X116.879 Y97.362 E3673.21266
G1 X116.879 Y96.495 E3673.42960
G1 X96.495 Y116.879 E3680.63651
G1 X95.627 Y116.879 E3680.85345
G1 X116.879 Y95.627 E3688.36716
G1 X116.879 Y94.759 E3688.58409
G1 X94.759 Y116.879 E3696.40460
G1 X93.891 Y116.879 E3696.62153
G1 X116.879 Y93.891 E3704.74883
G1 X116.879 Y93.024 E3704.96577
G1 X93.024 Y116.879 E3713.39987
G1 X92.156 Y116.879 E3713.61680
G1 X116.879 Y92.156 E3722.35769
G1 X116.879 Y91.288 E3722.57463
G1 X91.288 Y116.879 E3731.62232
G1 X90.420 Y116.879 E3731.83926
G1 X116.879 Y90.420 E3741.19374
G1 X116.879 Y89.553 E3741.41068
G1 X89.553 Y116.879 E3751.07196
G1 X88.685 Y116.879 E3751.28889
G1 X116.879 Y88.685 E3761.25697
G1 X116.879 Y87.817 E3761.47391
G1 X87.817 Y116.879 E3771.74878
G1 X86.949 Y116.879 E3771.96572
G1 X116.879 Y86.949 E3782.54739
G1 X116.879 Y86.082 E3782.76432
G1 X86.082 Y116.879 E3793.65279
G1 X85.214 Y116.879 E3793.86972
G1 X116.879 Y85.214 E3805.06498
G1 X116.879 Y84.346 E3805.28192
G1 X84.346 Y116.879 E3816.78398
G1 X83.478 Y116.879 E3817.00092
G1 X116.879 Y83.478 E3828.80977
G1 X116.368 Y83.121 E3828.96556
G1 X83.121 Y116.368 E3840.72004
G1 X83.121 Y115.500 E3840.93698
G1 X115.500 Y83.121 E3852.38467
G1 X114.632 Y83.121 E3852.60161
G1 X83.121 Y114.632 E3863.74250
G1 X83.121 Y113.765 E3863.95944
G1 X113.765 Y83.121 E3874.79354
G1 X112.897 Y83.121 E3875.01047
G1 X83.121 Y112.897 E3885.53777
G1 X83.121 Y112.029 E3885.75471
G1 X112.029 Y83.121 E3895.97522
G1 X111.161 Y83.121 E3896.19215
G1 X83.121 Y111.161 E3906.10586
G1 X83.121 Y110.294 E3906.32280
G1 X110.294 Y83.121 E3915.92971
G1 X109.426 Y83.121 E3916.14665
G1 X83.121 Y109.426 E3925.44677
G1 X83.121 Y108.558 E3925.66370
G1 X108.558 Y83.121 E3934.65703
G1 X107.690 Y83.121 E3934.87396
G1 X83.121 Y107.690 E3943.56049
G1 X83.121 Y106.823 E3943.77742
G1 X106.823 Y83.121 E3952.15715
G1 X105.955 Y83.121 E3952.37409
G1 X83.121 Y105.955 E3960.44702
G1 X83.121 Y105.087 E3960.66396
G1 X105.087 Y83.121 E3968.43009
G1 X104.219 Y83.121 E3968.64703
G1 X83.121 Y104.219 E3976.10637
G1 X83.121 Y103.352 E3976.32331
G1 X103.352 Y83.121 E3983.47585
G1 X102.484 Y83.121 E3983.69279
G1 X83.121 Y102.484 E3990.53854
G1 X83.121 Y101.616 E3990.75547
G1 X101.616 Y83.121 E3997.29442
G1 X100.748 Y83.121 E3997.51136
G1 X83.121 Y100.748 E4003.74352
G1 X83.121 Y99.881 E4003.96045
G1 X99.881 Y83.121 E4009.88581
G1 X99.013 Y83.121 E4010.10275
G1 X83.121 Y99.013 E4015.72131
G1 X83.121 Y98.145 E4015.93825
G1 X98.145 Y83.121 E4021.25002
G1 X97.277 Y83.121 E4021.46695
G1 X83.121 Y97.277 E4026.47192
G1 X83.121 Y96.410 E4026.68886
G1 X96.410 Y83.121 E4031.38703
G1 X95.542 Y83.121 E4031.60397
G1 X83.121 Y95.542 E4035.99535
G1 X83.121 Y94.674 E4036.21229
G1 X94.674 Y83.121 E4040.29687
G1 X93.806 Y83.121 E4040.51381
G1 X83.121 Y93.806 E4044.29159
G1 X83.121 Y92.939 E4044.50853
G1 X92.939 Y83.121 E4047.97952
G1 X92.071 Y83.121 E4048.19646
G1 X83.121 Y92.071 E4051.36065
G1 X83.121 Y91.203 E4051.57759
G1 X91.203 Y83.121 E4054.43498
G1 X90.335 Y83.121 E4054.65192
G1 X83.121 Y90.335 E4057.20252
G1 X83.121 Y89.468 E4057.41946
G1 X89.468 Y83.121 E4059.66326
G1 X88.600 Y83.121 E4059.88020
G1 X83.121 Y88.600 E4061.81721
G1 X83.121 Y87.732 E4062.03415
G1 X87.732 Y83.121 E4063.66436
G1 X86.864 Y83.121 E4063.88130
G1 X83.121 Y86.864 E4065.20471
G1 X83.121 Y85.997 E4065.42165
G1 X85.997 Y83.121 E4066.43827
G1 X85.129 Y83.121 E4066.65521
G1 X83.121 Y85.129 E4067.36503
G1 X83.121 Y84.261 E4067.58197
G1 X84.261 Y83.121 E4067.98500
G1 X83.393 Y83.121 E4068.20194
G1 X83.121 Y83.393 E4068.29817
G1 Z3.600 F7800.000
G1 X83.393 Y116.879 F7800.000
G1 X83.121 Y116.607 E4068.39440 F4800.000
G1 X83.121 Y115.739 E4068.61134
G1 X84.261 Y116.879 E4069.01436
G1 X85.129 Y116.879 E4069.23130
G1 X83.121 Y114.871 E4069.94112
G1 X83.121 Y114.003 E4070.15806
G1 X85.997 Y116.879 E4071.17468
G1 X86.864 Y116.879 E4071.39162
G1 X83.121 Y113.136 E4072.71503
G1 X83.121 Y112.268 E4072.93197
G1 X87.732 Y116.879 E4074.56219
G1 X88.600 Y116.879 E4074.77912
G1 X83.121 Y111.400 E4076.71613
G1 X83.121 Y110.532 E4076.93307
G1 X89.468 Y116.879 E4079.17687
G1 X90.335 Y116.879 E4079.39381
G1 X83.121 Y109.665 E4081.94441
G1 X83.121 Y108.797 E4082.16135
G1 X91.203 Y116.879 E4085.01875
G1 X92.071 Y116.879 E4085.23568
G1 X83.121 Y107.929 E4088.39988
G1 X83.121 Y107.061 E4088.61681
G1 X92.939 Y116.879 E4092.08780
G1 X93.806 Y116.879 E4092.30474
G1 X83.121 Y106.194 E4096.08253
G1 X83.121 Y105.326 E4096.29946
G1 X94.674 Y116.879 E4100.38404
G1 X95.542 Y116.879 E4100.60098
G1 X83.121 Y104.458 E4104.99236
G1 X83.121 Y103.590 E4105.20930
G1 X96.410 Y116.879 E4109.90747
G1 X97.277 Y116.879 E4110.12441
G1 X83.121 Y102.723 E4115.12938
G1 X83.121 Y101.855 E4115.34631
G1 X98.145 Y116.879 E4120.65808
G1 X99.013 Y116.879 E4120.87502
G1 X83.121 Y100.987 E4126.49358
G1 X83.121 Y100.119 E4126.71052
G1 X99.881 Y116.879 E4132.63588
G1 X100.748 Y116.879 E4132.85281
G1 X83.121 Y99.252 E4139.08497
G1 X83.121 Y98.384 E4139.30191
G1 X101.616 Y116.879 E4145.84086
G1 X102.484 Y116.879 E4146.05779
G1 X83.121 Y97.516 E4152.90354
G1 X83.121 Y96.648 E4153.12048
G1 X103.352 Y116.879 E4160.27302
G1 X104.219 Y116.879 E4160.48996
G1 X83.121 Y95.781 E4167.94930
G1 X83.121 Y94.913 E4168.16623
G1 X105.087 Y116.879 E4175.93237
G1 X105.955 Y116.879 E4176.14931
G1 X83.121 Y94.045 E4184.22224
G1 X83.121 Y93.177 E4184.43918
G1 X106.823 Y116.879 E4192.81890
G1 X107.690 Y116.879 E4193.03584
G1 X83.121 Y92.310 E4201.72236
G1 X83.121 Y91.442 E4201.93930
G1 X108.558 Y116.879 E4210.93262
G1 X109.426 Y116.879 E4211.14956
G1 X83.121 Y90.574 E4220.44967
G1 X83.121 Y89.706 E4220.66661
G1 X110.294 Y116.879 E4230.27352
G1 X111.161 Y116.879 E4230.49046
G1 X83.121 Y88.839 E4240.40417
G1 X83.121 Y87.971 E4240.62111
G1 X112.029 Y116.879 E4250.84161
G1 X112.897 Y116.879 E4251.05855
G1 X83.121 Y87.103 E4261.58585
G1 X83.121 Y86.235 E4261.80279
G1 X113.765 Y116.879 E4272.63688
G1 X114.632 Y116.879 E4272.85382
G1 X83.121 Y85.368 E4283.99471
G1 X83.121 Y84.500 E4284.21165
G1 X115.500 Y116.879 E4295.65934
G1 X116.368 Y116.879 E4295.87628
G1 X83.121 Y83.632 E4307.63076
G1 X83.478 Y83.121 E4307.78655
G1 X116.879 Y116.522 E4319.59540
G1 X116.879 Y115.654 E4319.81234
G1 X84.346 Y83.121 E4331.31440
G1 X85.214 Y83.121 E4331.53133
G1 X116.879 Y114.786 E4342.72660
G1 X116.879 Y113.918 E4342.94353
G1 X86.082 Y83.121 E4353.83200
G1 X86.949 Y83.121 E4354.04893
G1 X116.879 Y113.051 E4364.63060
G1 X116.879 Y112.183 E4364.84754
G1 X87.817 Y83.121 E4375.12241
G1 X88.685 Y83.121 E4375.33935
G1 X116.879 Y111.315 E4385.30743
G1 X116.879 Y110.447 E4385.52436
G1 X89.553 Y83.121 E4395.18564
G1 X90.420 Y83.121 E4395.40258
G1 X116.879 Y109.580 E4404.75707
G1 X116.879 Y108.712 E4404.97400
G1 X91.288 Y83.121 E4414.02169
G1 X92.156 Y83.121 E4414.23863
G1 X116.879 Y107.844 E4422.97952
G1 X116.879 Y106.976 E4423.19646
G1 X93.024 Y83.121 E4431.63055
G1 X93.891 Y83.121 E4431.84749
G1 X116.879 Y106.109 E4439.97479
G1 X116.879 Y105.241 E4440.19173
G1 X94.759 Y83.121 E4448.01223
G1 X95.627 Y83.121 E4448.22917
G1 X116.879 Y104.373 E4455.74287
G1 X116.879 Y103.505 E4455.95981
G1 X96.495 Y83.121 E4463.16672
G1 X97.362 Y83.121 E4463.38366
G1 X116.879 Y102.638 E4470.28378
G1 X116.879 Y101.770 E4470.50071
G1 X98.230 Y83.121 E4477.09403
G1 X99.098 Y83.121 E4477.31097
G1 X116.879 Y100.902 E4483.59749
G1 X116.879 Y100.034 E4483.81443
G1 X99.966 Y83.121 E4489.79416
G1 X100.833 Y83.121 E4490.01109
G1 X116.879 Y99.167 E4495.68402
G1 X116.879 Y98.299 E4495.90096
G1 X101.701 Y83.121 E4501.26709
G1 X102.569 Y83.121 E4501.48403
G1 X116.879 Y97.431 E4506.54337
G1 X116.879 Y96.563 E4506.76031
G1 X103.437 Y83.121 E4511.51285
G1 X104.304 Y83.121 E4511.72979
G1 X116.879 Y95.696 E4516.17553
G1 X116.879 Y94.828 E4516.39247
G1 X105.172 Y83.121 E4520.53142
G1 X106.040 Y83.121 E4520.74836
G1 X116.879 Y93.960 E4524.58051
G1 X116.879 Y93.092 E4524.79745
G1 X106.908 Y83.121 E4528.32281
G1 X107.775 Y83.121 E4528.53974
G1 X116.879 Y92.225 E4531.75830
G1 X116.879 Y91.357 E4531.97524
G1 X108.643 Y83.121 E4534.88701
G1 X109.511 Y83.121 E4535.10394
G1 X116.879 Y90.489 E4537.70891
G1 X116.879 Y89.621 E4537.92585
G1 X110.379 Y83.121 E4540.22402
G1 X111.246 Y83.121 E4540.44096
G1 X116.879 Y88.754 E4542.43234
G1 X116.879 Y87.886 E4542.64928
G1 X112.114 Y83.121 E4544.33386
G1 X112.982 Y83.121 E4544.55079
G1 X116.879 Y87.018 E4545.92858
G1 X116.879 Y86.150 E4546.14552
G1 X113.850 Y83.121 E4547.21650
G1 X114.717 Y83.121 E4547.43344
G1 X116.879 Y85.283 E4548.19763
G1 X116.879 Y84.415 E4548.41457
G1 X115.585 Y83.121 E4548.87197
G1 X116.453 Y83.121 E4549.08891
G1 X116.879 Y83.547 E4549.23951
G1 Z4.000 F7800.000
G1 X116.453 Y116.879 F7800.000
G1 X116.879 Y116.453 E4549.39010 F4800.000
G1 X116.879 Y115.585 E4549.60704
G1 X115.585 Y116.879 E4550.06444
G1 X114.717 Y116.879 E4550.28138
G1 X116.879 Y114.717 E4551.04557
G1 X116.879 Y113.850 E4551.26250
G1 X113.850 Y116.879 E4552.33349
G1 X112.982 Y116.879 E4552.55043
G1 X116.879 Y112.982 E4553.92821
G1 X116.879 Y112.114 E4554.14515
G1 X112.114 Y116.879 E4555.82973
G1 X111.246 Y116.879 E4556.04667
G1 X116.879 Y111.246 E4558.03805
G1 X116.879 Y110.379 E4558.25498
G1 X110.379 Y116.879 E4560.55316
G1 X109.511 Y116.879 E4560.77009
G1 X116.879 Y109.511 E4563.37506
G1 X116.879 Y108.643 E4563.59200
G1 X108.643 Y116.879 E4566.50376
G1 X107.775 Y116.879 E4566.72070
G1 X116.879 Y107.775 E4569.93926
G1 X116.879 Y106.908 E4570.15620
G1 X106.908 Y116.879 E4573.68156
G1 X106.040 Y116.879 E4573.89850
G1 X116.879 Y106.040 E4577.73065
G1 X116.879 Y105.172 E4577.94759
G1 X105.172 Y116.879 E4582.08654
G1 X104.304 Y116.879 E4582.30347
G1 X116.879 Y104.304 E4586.74922
G1 X116.879 Y103.437 E4586.96616
G1 X103.437 Y116.879 E4591.71870
G1 X102.569 Y116.879 E4591.93564
G1 X116.879 Y102.569 E4596.99497
G1 X116.879 Y101.701 E4597.21191
G1 X101.701 Y116.879 E4602.57804
G1 X100.833 Y116.879 E4602.79498
G1 X116.879 Y100.833 E4608.46791
G1 X116.879 Y99.966 E4608.68485
G1 X99.966 Y116.879 E4614.66458
G1 X99.098 Y116.879 E4614.88151
G1 X116.879 Y99.098 E4621.16803
G1 X116.879 Y98.230 E4621.38497
G1 X98.230 Y116.879 E4627.97829
G1 X97.362 Y116.879 E4628.19523
G1 X116.879 Y97.362 E4635.09534
G1 X116.879 Y96.495 E4635.31228
G1 X96.495 Y116.879 E4642.51919
G1 X95.627 Y116.879 E4642.73613
G1 X116.879 Y95.627 E4650.24984
G1 X116.879 Y94.759 E4650.46677
G1 X94.759 Y116.879 E4658.28728
G1 X93.891 Y116.879 E4658.50421
G1 X116.879 Y93.891 E4666.63151
G1 X116.879 Y93.024 E4666.84845
G1 X93.024 Y116.879 E4675.28254
G1 X92.156 Y116.879 E4675.49948
G1 X116.879 Y92.156 E4684.24037
G1 X116.879 Y91.288 E4684.45731
G1 X91.288 Y116.879 E4693.50500
G1 X90.420 Y116.879 E4693.72194
G1 X116.879 Y90.420 E4703.07642
G1 X116.879 Y89.553 E4703.29336
G1 X89.553 Y116.879 E4712.95464
G1 X88.685 Y116.879 E4713.17157
G1 X116.879 Y88.685 E4723.13965
G1 X116.879 Y87.817 E4723.35659
G1 X87.817 Y116.879 E4733.63146
G1 X86.949 Y116.879 E4733.84840
G1 X116.879 Y86.949 E4744.43006
G1 X116.879 Y86.082 E4744.64700
G1 X86.082 Y116.879 E4755.53547
G1 X85.214 Y116.879 E4755.75240
G1 X116.879 Y85.214 E4766.94766
G1 X116.879 Y84.346 E4767.16460
G1 X84.346 Y116.879 E4778.66666
G1 X83.478 Y116.879 E4778.88360
G1 X116.879 Y83.478 E4790.69245
G1 X116.368 Y83.121 E4790.84824
G1 X83.121 Y116.368 E4802.60272
G1 X83.121 Y115.500 E4802.81966
G1 X115.500 Y83.121 E4814.26735
G1 X114.632 Y83.121 E4814.48429
G1 X83.121 Y114.632 E4825.62518
G1 X83.121 Y113.765 E4825.84212
G1 X113.765 Y83.121 E4836.67621
G1 X112.897 Y83.121 E4836.89315
G1 X83.121 Y112.897 E4847.42045
G1 X83.121 Y112.029 E4847.63739
G1 X112.029 Y83.121 E4857.85790
G1 X111.161 Y83.121 E4858.07483
G1 X83.121 Y111.161 E4867.98854
G1 X83.121 Y110.294 E4868.20548
G1 X110.294 Y83.121 E4877.81239
G1 X109.426 Y83.121 E4878.02933
G1 X83.121 Y109.426 E4887.32945
G1 X83.121 Y108.558 E4887.54638
G1 X108.558 Y83.121 E4896.53970
G1 X107.690 Y83.121 E4896.75664
G1 X83.121 Y107.690 E4905.44316
G1 X83.121 Y106.823 E4905.66010
G1 X106.823 Y83.121 E4914.03983
G1 X105.955 Y83.121 E4914.25677
G1 X83.121 Y105.955 E4922.32970
G1 X83.121 Y105.087 E4922.54664
G1 X105.087 Y83.121 E4930.31277
G1 X104.219 Y83.121 E4930.52971
G1 X83.121 Y104.219 E4937.98905
G1 X83.121 Y103.352 E4938.20599
G1 X103.352 Y83.121 E4945.35853
G1 X102.484 Y83.121 E4945.57547
G1 X83.121 Y102.484 E4952.42121
G1 X83.121 Y101.616 E4952.63815
G1 X101.616 Y83.121 E4959.17710
G1 X100.748 Y83.121 E4959.39404
G1 X83.121 Y100.748 E4965.62619
G1 X83.121 Y99.881 E4965.84313
G1 X99.881 Y83.121 E4971.76849
G1 X99.013 Y83.121 E4971.98543
G1 X83.121 Y99.013 E4977.60399
G1 X83.121 Y98.145 E4977.82093
G1 X98.145 Y83.121 E4983.13269
G1 X97.277 Y83.121 E4983.34963
G1 X83.121 Y97.277 E4988.35460
G1 X83.121 Y96.410 E4988.57154
G1 X96.410 Y83.121 E4993.26971
G1 X95.542 Y83.121 E4993.48665
G1 X83.121 Y95.542 E4997.87803
G1 X83.121 Y94.674 E4998.09497
G1 X94.674 Y83.121 E5002.17955
G1 X93.806 Y83.121 E5002.39649
G1 X83.121 Y93.806 E5006.17427
G1 X83.121 Y92.939 E5006.39121
G1 X92.939 Y83.121 E5009.86220
G1 X92.071 Y83.121 E5010.07914
G1 X83.121 Y92.071 E5013.24333
G1 X83.121 Y91.203 E5013.46027
G1 X91.203 Y83.121 E5016.31766
G1 X90.335 Y83.121 E5016.53460
G1 X83.121 Y90.335 E5019.08520
G1 X83.121 Y89.468 E5019.30214
G1 X89.468 Y83.121 E5021.54594
G1 X88.600 Y83.121 E5021.76288
G1 X83.121 Y88.600 E5023.69989
G1 X83.121 Y87.732 E5023.91683
G1 X87.732 Y83.121 E5025.54704
G1 X86.864 Y83.121 E5025.76398
G1 X83.121 Y86.864 E5027.08739
G1 X83.121 Y85.997 E5027.30433
G1 X85.997 Y83.121 E5028.32095
G1 X85.129 Y83.121 E5028.53789
G1 X83.121 Y85.129 E5029.24771
G1 X83.121 Y84.261 E5029.46465
G1 X84.261 Y83.121 E5029.86768
G1 X83.393 Y83.121 E5030.08461
G1 X83.121 Y83.393 E5030.18084
G1 Z4.400 F7800.000
G1 X83.393 Y116.879 F7800.000
G1 X83.121 Y116.607 E5030.27708 F4800.000
G1 X83.121 Y115.739 E5030.49401
G1 X84.261 Y116.879 E5030.89704
G1 X85.129 Y116.879 E5031.11398
G1 X83.121 Y114.871 E5031.82380
G1 X83.121 Y114.003 E5032.04074
G1 X85.997 Y116.879 E5033.05736
G1 X86.864 Y116.879 E5033.27430
G1 X83.121 Y113.136 E5034.59771
G1 X83.121 Y112.268 E5034.81465
G1 X87.732 Y116.879 E5036.44486
G1 X88.600 Y116.879 E5036.66180
G1 X83.121 Y111.400 E5038.59881
G1 X83.121 Y110.532 E5038.81575
G1 X89.468 Y116.879 E5041.05955
G1 X90.335 Y116.879 E5041.27649
G1 X83.121 Y109.665 E5043.82709
G1 X83.121 Y108.797 E5044.04403
G1 X91.203 Y116.879 E5046.90142
G1 X92.071 Y116.879 E5047.11836
G1 X83.121 Y107.929 E5050.28255
G1 X83.121 Y107.061 E5050.49949
G1 X92.939 Y116.879 E5053.97048
G1 X93.806 Y116.879 E5054.18742
G1 X83.121 Y106.194 E5057.96520
G1 X83.121 Y105.326 E5058.18214
G1 X94.674 Y116.879 E5062.26672
G1 X95.542 Y116.879 E5062.48366
G1 X83.121 Y104.458 E5066.87504
G1 X83.121 Y103.590 E5067.09198
G1 X96.410 Y116.879 E5071.79015
G1 X97.277 Y116.879 E5072.00709
G1 X83.121 Y102.723 E5077.01206
G1 X83.121 Y101.855 E5077.22899
G1 X98.145 Y116.879 E5082.54076
G1 X99.013 Y116.879 E5082.75770
G1 X83.121 Y100.987 E5088.37626
G1 X83.121 Y100.119 E5088.59320
G1 X99.881 Y116.879 E5094.51855
G1 X100.748 Y116.879 E5094.73549
G1 X83.121 Y99.252 E5100.96765
G1 X83.121 Y98.384 E5101.18458
G1 X101.616 Y116.879 E5107.72353
G1 X102.484 Y116.879 E5107.94047
G1 X83.121 Y97.516 E5114.78622
G1 X83.121 Y96.648 E5115.00316
G1 X103.352 Y116.879 E5122.15570
G1 X104.219 Y116.879 E5122.37264
G1 X83.121 Y95.781 E5129.83198
G1 X83.121 Y94.913 E5130.04891
G1 X105.087 Y116.879 E5137.81505
G1 X105.955 Y116.879 E5138.03199
G1 X83.121 Y94.045 E5146.10492
G1 X83.121 Y93.177 E5146.32185
G1 X106.823 Y116.879 E5154.70158
G1 X107.690 Y116.879 E5154.91852
G1 X83.121 Y92.310 E5163.60504
G1 X83.121 Y91.442 E5163.82198
G1 X108.558 Y116.879 E5172.81530
G1 X109.426 Y116.879 E5173.03224
G1 X83.121 Y90.574 E5182.33235
G1 X83.121 Y89.706 E5182.54929
G1 X110.294 Y116.879 E5192.15620
G1 X111.161 Y116.879 E5192.37314
G1 X83.121 Y88.839 E5202.28685
G1 X83.121 Y87.971 E5202.50379
G1 X112.029 Y116.879 E5212.72429
G1 X112.897 Y116.879 E5212.94123
G1 X83.121 Y87.103 E5223.46853
G1 X83.121 Y86.235 E5223.68547
G1 X113.765 Y116.879 E5234.51956
G1 X114.632 Y116.879 E5234.73650
G1 X83.121 Y85.368 E5245.87739
G1 X83.121 Y84.500 E5246.09433
G1 X115.500 Y116.879 E5257.54202
G1 X116.368 Y116.879 E5257.75896
G1 X83.121 Y83.632 E5269.51344
G1 X83.478 Y83.121 E5269.66923
G1 X116.879 Y116.522 E5281.47808
G1 X116.879 Y115.654 E5281.69502
G1 X84.346 Y83.121 E5293.19708
G1 X85.214 Y83.121 E5293.41401
G1 X116.879 Y114.786 E5304.60927
G1 X116.879 Y113.918 E5304.82621
G1 X86.082 Y83.121 E5315.71468
G1 X86.949 Y83.121 E5315.93161
G1 X116.879 Y113.051 E5326.51328
G1 X116.879 Y112.183 E5326.73022
G1 X87.817 Y83.121 E5337.00509
G1 X88.685 Y83.121 E5337.22203
G1 X116.879 Y111.315 E5347.19010
G1 X116.879 Y110.447 E5347.40704
G1 X89.553 Y83.121 E5357.06832
G1 X90.420 Y83.121 E5357.28526
G1 X116.879 Y109.580 E5366.63974
G1 X116.879 Y108.712 E5366.85668
G1 X91.288 Y83.121 E5375.90437
G1 X92.156 Y83.121 E5376.12131
G1 X116.879 Y107.844 E5384.86220
G1 X116.879 Y106.976 E5385.07914
G1 X93.024 Y83.121 E5393.51323
G1 X93.891 Y83.121 E5393.73017
G1 X116.879 Y106.109 E5401.85747
G1 X116.879 Y105.241 E5402.07441
G1 X94.759 Y83.121 E5409.89491
G1 X95.627 Y83.121 E5410.11185
G1 X116.879 Y104.373 E5417.62555
G1 X116.879 Y103.505 E5417.84249
G1 X96.495 Y83.121 E5425.04940
G1 X97.362 Y83.121 E5425.26634
G1 X116.879 Y102.638 E5432.16645
G1 X116.879 Y101.770 E5432.38339
G1 X98.230 Y83.121 E5438.97671
G1 X99.098 Y83.121 E5439.19365
G1 X116.879 Y100.902 E5445.48017
G1 X116.879 Y100.034 E5445.69711
G1 X99.966 Y83.121 E5451.67683
G1 X100.833 Y83.121 E5451.89377
G1 X116.879 Y99.167 E5457.56670
G1 X116.879 Y98.299 E5457.78364
G1 X101.701 Y83.121 E5463.14977
G1 X102.569 Y83.121 E5463.36671
G1 X116.879 Y97.431 E5468.42605
G1 X116.879 Y96.563 E5468.64299
G1 X103.437 Y83.121 E5473.39553
G1 X104.304 Y83.121 E5473.61247
G1 X116.879 Y95.696 E5478.05821
G1 X116.879 Y94.828 E5478.27515
G1 X105.172 Y83.121 E5482.41410
G1 X106.040 Y83.121 E5482.63104
G1 X116.879 Y93.960 E5486.46319
G1 X116.879 Y93.092 E5486.68013
G1 X106.908 Y83.121 E5490.20548
G1 X107.775 Y83.121 E5490.42242
G1 X116.879 Y92.225 E5493.64098
G1 X116.879 Y91.357 E5493.85792
G1 X108.643 Y83.121 E5496.76968
G1 X109.511 Y83.121 E5496.98662
G1 X116.879 Y90.489 E5499.59159
G1 X116.879 Y89.621 E5499.80853
G1 X110.379 Y83.121 E5502.10670
G1 X111.246 Y83.121 E5502.32364
G1 X116.879 Y88.754 E5504.31502
G1 X116.879 Y87.886 E5504.53195
G1 X112.114 Y83.121 E5506.21653
G1 X112.982 Y83.121 E5506.43347
G1 X116.879 Y87.018 E5507.81126
G1 X116.879 Y86.150 E5508.02819
G1 X113.850 Y83.121 E5509.09918
G1 X114.717 Y83.121 E5509.31612
G1 X116.879 Y85.283 E5510.08031
G1 X116.879 Y84.415 E5510.29725
G1 X115.585 Y83.121 E5510.75465
G1 X116.453 Y83.121 E5510.97158
G1 X116.879 Y83.547 E5511.12218
G1 Z4.800 F7800.000
G1 X116.453 Y116.879 F7800.000
G1 X116.879 Y116.453 E5511.27278 F4800.000
G1 X116.879 Y115.585 E5511.48972
G1 X115.585 Y116.879 E5511.94712
G1 X114.717 Y116.879 E5512.16405
G1 X116.879 Y114.717 E5512.92825
G1 X116.879 Y113.850 E5513.14518
G1 X113.850 Y116.879 E5514.21617
G1 X112.982 Y116.879 E5514.43311
G1 X116.879 Y112.982 E5515.81089
G1 X116.879 Y112.114 E5516.02783
G1 X112.114 Y116.879 E5517.71241
G1 X111.246 Y116.879 E5517.92935
G1 X116.879 Y111.246 E5519.92072
G1 X116.879 Y110.379 E5520.13766
G1 X110.379 Y116.879 E5522.43583
G1 X109.511 Y116.879 E5522.65277
G1 X116.879 Y109.511 E5525.25774
G1 X116.879 Y108.643 E5525.47468
G1 X108.643 Y116.879 E5528.38644
G1 X107.775 Y116.879 E5528.60338
G1 X116.879 Y107.775 E5531.82194
G1 X116.879 Y106.908 E5532.03888
G1 X106.908 Y116.879 E5535.56424
G1 X106.040 Y116.879 E5535.78117
G1 X116.879 Y106.040 E5539.61333
G1 X116.879 Y105.172 E5539.83026
G1 X105.172 Y116.879 E5543.96921
G1 X104.304 Y116.879 E5544.18615
G1 X116.879 Y104.304 E5548.63190
G1 X116.879 Y103.437 E5548.84883
G1 X103.437 Y116.879 E5553.60138
G1 X102.569 Y116.879 E5553.81831
G1 X116.879 Y102.569 E5558.87765
G1 X116.879 Y101.701 E5559.09459
G1 X101.701 Y116.879 E5564.46072
G1 X100.833 Y116.879 E5564.67766
G1 X116.879 Y100.833 E5570.35059
G1 X116.879 Y99.966 E5570.56753
G1 X99.966 Y116.879 E5576.54725
G1 X99.098 Y116.879 E5576.76419
G1 X116.879 Y99.098 E5583.05071
G1 X116.879 Y98.230 E5583.26765
G1 X98.230 Y116.879 E5589.86097
G1 X97.362 Y116.879 E5590.07791
G1 X116.879 Y97.362 E5596.97802
G1 X116.879 Y96.495 E5597.19496
G1 X96.495 Y116.879 E5604.40187
G1 X95.627 Y116.879 E5604.61881
G1 X116.879 Y95.627 E5612.13251
G1 X116.879 Y94.759 E5612.34945
G1 X94.759 Y116.879 E5620.16995
G1 X93.891 Y116.879 E5620.38689
G1 X116.879 Y93.891 E5628.51419
G1 X116.879 Y93.024 E5628.73113
G1 X93.024 Y116.879 E5637.16522
G1 X92.156 Y116.879 E5637.38216
G1 X116.879 Y92.156 E5646.12305
G1 X116.879 Y91.288 E5646.33999
G1 X91.288 Y116.879 E5655.38768
G1 X90.420 Y116.879 E5655.60461
G1 X116.879 Y90.420 E5664.95910
G1 X116.879 Y89.553 E5665.17603
G1 X89.553 Y116.879 E5674.83731
G1 X88.685 Y116.879 E5675.05425
G1 X116.879 Y88.685 E5685.02233
G1 X116.879 Y87.817 E5685.23926
G1 X87.817 Y116.879 E5695.51414
G1 X86.949 Y116.879 E5695.73107
G1 X116.879 Y86.949 E5706.31274
G1 X116.879 Y86.082 E5706.52968
G1 X86.082 Y116.879 E5717.41814
G1 X85.214 Y116.879 E5717.63508
G1 X116.879 Y85.214 E5728.83034
G1 X116.879 Y84.346 E5729.04728
G1 X84.346 Y116.879 E5740.54934
G1 X83.478 Y116.879 E5740.76627
G1 X116.879 Y83.478 E5752.57513
G1 X116.368 Y83.121 E5752.73091
G1 X83.121 Y116.368 E5764.48540
G1 X83.121 Y115.500 E5764.70234
G1 X115.500 Y83.121 E5776.15003
G1 X114.632 Y83.121 E5776.36696
G1 X83.121 Y114.632 E5787.50786
G1 X83.121 Y113.765 E5787.72480
G1 X113.765 Y83.121 E5798.55889
G1 X112.897 Y83.121 E5798.77583
G1 X83.121 Y112.897 E5809.30313
G1 X83.121 Y112.029 E5809.52007
G1 X112.029 Y83.121 E5819.74057
G1 X111.161 Y83.121 E5819.95751
G1 X83.121 Y111.161 E5829.87122
G1 X83.121 Y110.294 E5830.08816
G1 X110.294 Y83.121 E5839.69507
G1 X109.426 Y83.121 E5839.91201
G1 X83.121 Y109.426 E5849.21212
G1 X83.121 Y108.558 E5849.42906
G1 X108.558 Y83.121 E5858.42238
G1 X107.690 Y83.121 E5858.63932
G1 X83.121 Y107.690 E5867.32584
G1 X83.121 Y106.823 E5867.54278
G1 X106.823 Y83.121 E5875.92251
G1 X105.955 Y83.121 E5876.13945
G1 X83.121 Y105.955 E5884.21238
G1 X83.121 Y105.087 E5884.42931
G1 X105.087 Y83.121 E5892.19545
G1 X104.219 Y83.121 E5892.41239
G1 X83.121 Y104.219 E5899.87173
G1 X83.121 Y103.352 E5900.08867
G1 X103.352 Y83.121 E5907.24121
G1 X102.484 Y83.121 E5907.45815
G1 X83.121 Y102.484 E5914.30389
G1 X83.121 Y101.616 E5914.52083
G1 X101.616 Y83.121 E5921.05978
G1 X100.748 Y83.121 E5921.27672
G1 X83.121 Y100.748 E5927.50887
G1 X83.121 Y99.881 E5927.72581
G1 X99.881 Y83.121 E5933.65117
G1 X99.013 Y83.121 E5933.86811
G1 X83.121 Y99.013 E5939.48667
G1 X83.121 Y98.145 E5939.70361
G1 X98.145 Y83.121 E5945.01537
G1 X97.277 Y83.121 E5945.23231
G1 X83.121 Y97.277 E5950.23728
G1 X83.121 Y96.410 E5950.45422
G1 X96.410 Y83.121 E5955.15239
G1 X95.542 Y83.121 E5955.36933
G1 X83.121 Y95.542 E5959.76071
G1 X83.121 Y94.674 E5959.97765
G1 X94.674 Y83.121 E5964.06223
G1 X93.806 Y83.121 E5964.27916
G1 X83.121 Y93.806 E5968.05695
G1 X83.121 Y92.939 E5968.27389
G1 X92.939 Y83.121 E5971.74488
G1 X92.071 Y83.121 E5971.96181
G1 X83.121 Y92.071 E5975.12601
G1 X83.121 Y91.203 E5975.34294
G1 X91.203 Y83.121 E5978.20034
G1 X90.335 Y83.121 E5978.41728
G1 X83.121 Y90.335 E5980.96788
G1 X83.121 Y89.468 E5981.18482
G1 X89.468 Y83.121 E5983.42862
G1 X88.600 Y83.121 E5983.64556
G1 X83.121 Y88.600 E5985.58257
G1 X83.121 Y87.732 E5985.79950
G1 X87.732 Y83.121 E5987.42972
G1 X86.864 Y83.121 E5987.64665
G1 X83.121 Y86.864 E5988.97007
G1 X83.121 Y85.997 E5989.18701
G1 X85.997 Y83.121 E5990.20363
G1 X85.129 Y83.121 E5990.42057
G1 X83.121 Y85.129 E5991.13039
G1 X83.121 Y84.261 E5991.34733
G1 X84.261 Y83.121 E5991.75035
G1 X83.393 Y83.121 E5991.96729
G1 X83.121 Y83.393 E5992.06352
G1 Z5.200 F7800.000
G1 X83.393 Y116.879 F7800.000
G1 X83.121 Y116.607 E5992.15975 F4800.000
G1 X83.121 Y115.739 E5992.37669
G1 X84.261 Y116.879 E5992.77972
G1 X85.129 Y116.879 E5992.99666
G1 X83.121 Y114.871 E5993.70648
G1 X83.121 Y114.003 E5993.92342
G1 X85.997 Y116.879 E5994.94004
G1 X86.864 Y116.879 E5995.15698
G1 X83.121 Y113.136 E5996.48039
G1 X83.121 Y112.268 E5996.69733
G1 X87.732 Y116.879 E5998.32754
G1 X88.600 Y116.879 E5998.54448
G1 X83.121 Y111.400 E6000.48149
G1 X83.121 Y110.532 E6000.69842
G1 X89.468 Y116.879 E6002.94223
G1 X90.335 Y116.879 E6003.15917
G1 X83.121 Y109.665 E6005.70977
G1 X83.121 Y108.797 E6005.92671
G1 X91.203 Y116.879 E6008.78410
G1 X92.071 Y116.879 E6009.00104
G1 X83.121 Y107.929 E6012.16523
G1 X83.121 Y107.061 E6012.38217
G1 X92.939 Y116.879 E6015.85316
G1 X93.806 Y116.879 E6016.07010
G1 X83.121 Y106.194 E6019.84788
G1 X83.121 Y105.326 E6020.06482
G1 X94.674 Y116.879 E6024.14940
G1 X95.542 Y116.879 E6024.36634
G1 X83.121 Y104.458 E6028.75772
G1 X83.121 Y103.590 E6028.97465
G1 X96.410 Y116.879 E6033.67283
G1 X97.277 Y116.879 E6033.88976
G1 X83.121 Y102.723 E6038.89473
G1 X83.121 Y101.855 E6039.11167
G1 X98.145 Y116.879 E6044.42344
G1 X99.013 Y116.879 E6044.64038
G1 X83.121 Y100.987 E6050.25894
G1 X83.121 Y100.119 E6050.47588
G1 X99.881 Y116.879 E6056.40123
G1 X100.748 Y116.879 E6056.61817
G1 X83.121 Y99.252 E6062.85033
G1 X83.121 Y98.384 E6063.06726
G1 X101.616 Y116.879 E6069.60621
G1 X102.484 Y116.879 E6069.82315
G1 X83.121 Y97.516 E6076.66890
G1 X83.121 Y96.648 E6076.88583
G1 X103.352 Y116.879 E6084.03838
G1 X104.219 Y116.879 E6084.25532
G1 X83.121 Y95.781 E6091.71465
G1 X83.121 Y94.913 E6091.93159
G1 X105.087 Y116.879 E6099.69773
G1 X105.955 Y116.879 E6099.91466
G1 X83.121 Y94.045 E6107.98760
G1 X83.121 Y93.177 E6108.20453
G1 X106.823 Y116.879 E6116.58426
G1 X107.690 Y116.879 E6116.80120
G1 X83.121 Y92.310 E6125.48772
G1 X83.121 Y91.442 E6125.70466
G1 X108.558 Y116.879 E6134.69798
G1 X109.426 Y116.879 E6134.91492
G1 X83.121 Y90.574 E6144.21503
G1 X83.121 Y89.706 E6144.43197
G1 X110.294 Y116.879 E6154.03888
G1 X111.161 Y116.879 E6154.25582
G1 X83.121 Y88.839 E6164.16953
G1 X83.121 Y87.971 E6164.38646
G1 X112.029 Y116.879 E6174.60697
G1 X112.897 Y116.879 E6174.82391
G1 X83.121 Y87.103 E6185.35121
G1 X83.121 Y86.235 E6185.56814
G1 X113.765 Y116.879 E6196.40224
G1 X114.632 Y116.879 E6196.61918
G1 X83.121 Y85.368 E6207.76007
G1 X83.121 Y84.500 E6207.97701
G1 X115.500 Y116.879 E6219.42470
G1 X116.368 Y116.879 E6219.64163
G1 X83.121 Y83.632 E6231.39612
G1 X83.478 Y83.121 E6231.55191
G1 X116.879 Y116.522 E6243.36076
G1 X116.879 Y115.654 E6243.57770
G1 X84.346 Y83.121 E6255.07975
G1 X85.214 Y83.121 E6255.29669
G1 X116.879 Y114.786 E6266.49195
G1 X116.879 Y113.918 E6266.70889
G1 X86.082 Y83.121 E6277.59735
G1 X86.949 Y83.121 E6277.81429
G1 X116.879 Y113.051 E6288.39596
G1 X116.879 Y112.183 E6288.61290
G1 X87.817 Y83.121 E6298.88777
G1 X88.685 Y83.121 E6299.10471
G1 X116.879 Y111.315 E6309.07278
G1 X116.879 Y110.447 E6309.28972
G1 X89.553 Y83.121 E6318.95100
G1 X90.420 Y83.121 E6319.16794
G1 X116.879 Y109.580 E6328.52242
G1 X116.879 Y108.712 E6328.73936
G1 X91.288 Y83.121 E6337.78705
G1 X92.156 Y83.121 E6338.00398
G1 X116.879 Y107.844 E6346.74488
G1 X116.879 Y106.976 E6346.96181
G1 X93.024 Y83.121 E6355.39591
G1 X93.891 Y83.121 E6355.61285
G1 X116.879 Y106.109 E6363.74015
G1 X116.879 Y105.241 E6363.95708
G1 X94.759 Y83.121 E6371.77759
G1 X95.627 Y83.121 E6371.99452
G1 X116.879 Y104.373 E6379.50823
G1 X116.879 Y103.505 E6379.72517
G1 X96.495 Y83.121 E6386.93208
G1 X97.362 Y83.121 E6387.14902
G1 X116.879 Y102.638 E6394.04913
G1 X116.879 Y101.770 E6394.26607
G1 X98.230 Y83.121 E6400.85939
G1 X99.098 Y83.121 E6401.07633
G1 X116.879 Y100.902 E6407.36285
G1 X116.879 Y100.034 E6407.57979
G1 X99.966 Y83.121 E6413.55951
G1 X100.833 Y83.121 E6413.77645
G1 X116.879 Y99.167 E6419.44938
G1 X116.879 Y98.299 E6419.66632
G1 X101.701 Y83.121 E6425.03245
G1 X102.569 Y83.121 E6425.24939
G1 X116.879 Y97.431 E6430.30873
G1 X116.879 Y96.563 E6430.52566
G1 X103.437 Y83.121 E6435.27821
G1 X104.304 Y83.121 E6435.49514
G1 X116.879 Y95.696 E6439.94089
G1 X116.879 Y94.828 E6440.15783
G1 X105.172 Y83.121 E6444.29678
G1 X106.040 Y83.121 E6444.51371
G1 X116.879 Y93.960 E6448.34587
G1 X116.879 Y93.092 E6448.56280
G1 X106.908 Y83.121 E6452.08816
G1 X107.775 Y83.121 E6452.30510
G1 X116.879 Y92.225 E6455.52366
G1 X116.879 Y91.357 E6455.74060
G1 X108.643 Y83.121 E6458.65236
G1 X109.511 Y83.121 E6458.86930
G1 X116.879 Y90.489 E6461.47427
G1 X116.879 Y89.621 E6461.69121
G1 X110.379 Y83.121 E6463.98938
G1 X111.246 Y83.121 E6464.20632
G1 X116.879 Y88.754 E6466.19769
G1 X116.879 Y87.886 E6466.41463
G1 X112.114 Y83.121 E6468.09921
G1 X112.982 Y83.121 E6468.31615
G1 X116.879 Y87.018 E6469.69393
G1 X116.879 Y86.150 E6469.91087
G1 X113.850 Y83.121 E6470.98186
G1 X114.717 Y83.121 E6471.19880
G1 X116.879 Y85.283 E6471.96299
G1 X116.879 Y84.415 E6472.17993
G1 X115.585 Y83.121 E6472.63732
G1 X116.453 Y83.121 E6472.85426
G1 X116.879 Y83.547 E6473.00486
G1 Z5.600 F7800.000
G1 X116.453 Y116.879 F7800.000
G1 X116.879 Y116.453 E6473.15546 F4800.000
G1 X116.879 Y115.585 E6473.37240
G1 X115.585 Y116.879 E6473.82979
G1 X114.717 Y116.879 E6474.04673
G1 X116.879 Y114.717 E6474.81092
G1 X116.879 Y113.850 E6475.02786
G1 X113.850 Y116.879 E6476.09885
G1 X112.982 Y116.879 E6476.31579
G1 X116.879 Y112.982 E6477.69357
G1 X116.879 Y112.114 E6477.91051
G1 X112.114 Y116.879 E6479.59509
G1 X111.246 Y116.879 E6479.81203
G1 X116.879 Y111.246 E6481.80340
G1 X116.879 Y110.379 E6482.02034
G1 X110.379 Y116.879 E6484.31851
G1 X109.511 Y116.879 E6484.53545
G1 X116.879 Y109.511 E6487.14042
G1 X116.879 Y108.643 E6487.35736
G1 X108.643 Y116.879 E6490.26912
G1 X107.775 Y116.879 E6490.48606
G1 X116.879 Y107.775 E6493.70462
G1 X116.879 Y106.908 E6493.92156
G1 X106.908 Y116.879 E6497.44691
G1 X106.040 Y116.879 E6497.66385
G1 X116.879 Y106.040 E6501.49601
G1 X116.879 Y105.172 E6501.71294
G1 X105.172 Y116.879 E6505.85189
G1 X104.304 Y116.879 E6506.06883
G1 X116.879 Y104.304 E6510.51458
G1 X116.879 Y103.437 E6510.73151
G1 X103.437 Y116.879 E6515.48405
G1 X102.569 Y116.879 E6515.70099
G1 X116.879 Y102.569 E6520.76033
G1 X116.879 Y101.701 E6520.97727
G1 X101.701 Y116.879 E6526.34340
G1 X100.833 Y116.879 E6526.56034
G1 X116.879 Y100.833 E6532.23327
G1 X116.879 Y99.966 E6532.45021
G1 X99.966 Y116.879 E6538.42993
G1 X99.098 Y116.879 E6538.64687
G1 X116.879 Y99.098 E6544.93339
G1 X116.879 Y98.230 E6545.15033
G1 X98.230 Y116.879 E6551.74365
G1 X97.362 Y116.879 E6551.96059
G1 X116.879 Y97.362 E6558.86070
G1 X116.879 Y96.495 E6559.07764
G1 X96.495 Y116.879 E6566.28455
G1 X95.627 Y116.879 E6566.50149
G1 X116.879 Y95.627 E6574.01519
G1 X116.879 Y94.759 E6574.23213
G1 X94.759 Y116.879 E6582.05263
G1 X93.891 Y116.879 E6582.26957
G1 X116.879 Y93.891 E6590.39687
G1 X116.879 Y93.024 E6590.61381
G1 X93.024 Y116.879 E6599.04790
G1 X92.156 Y116.879 E6599.26484
G1 X116.879 Y92.156 E6608.00573
G1 X116.879 Y91.288 E6608.22267
G1 X91.288 Y116.879 E6617.27035
G1 X90.420 Y116.879 E6617.48729
G1 X116.879 Y90.420 E6626.84178
G1 X116.879 Y89.553 E6627.05871
G1 X89.553 Y116.879 E6636.71999
G1 X88.685 Y116.879 E6636.93693
G1 X116.879 Y88.685 E6646.90501
G1 X116.879 Y87.817 E6647.12194
G1 X87.817 Y116.879 E6657.39681
G1 X86.949 Y116.879 E6657.61375
G1 X116.879 Y86.949 E6668.19542
G1 X116.879 Y86.082 E6668.41236
G1 X86.082 Y116.879 E6679.30082
G1 X85.214 Y116.879 E6679.51776
G1 X116.879 Y85.214 E6690.71302
G1 X116.879 Y84.346 E6690.92996
G1 X84.346 Y116.879 E6702.43201
G1 X83.478 Y116.879 E6702.64895
G1 X116.879 Y83.478 E6714.45780
G1 X116.368 Y83.121 E6714.61359
G1 X83.121 Y116.368 E6726.36808
G1 X83.121 Y115.500 E6726.58502
G1 X115.500 Y83.121 E6738.03271
G1 X114.632 Y83.121 E6738.24964
G1 X83.121 Y114.632 E6749.39054
G1 X83.121 Y113.765 E6749.60747
G1 X113.765 Y83.121 E6760.44157
G1 X112.897 Y83.121 E6760.65851
G1 X83.121 Y112.897 E6771.18581
G1 X83.121 Y112.029 E6771.40275
G1 X112.029 Y83.121 E6781.62325
G1 X111.161 Y83.121 E6781.84019
G1 X83.121 Y111.161 E6791.75390
G1 X83.121 Y110.294 E6791.97084
G1 X110.294 Y83.121 E6801.57775
G1 X109.426 Y83.121 E6801.79469
G1 X83.121 Y109.426 E6811.09480
G1 X83.121 Y108.558 E6811.31174
G1 X108.558 Y83.121 E6820.30506
G1 X107.690 Y83.121 E6820.52200
G1 X83.121 Y107.690 E6829.20852
G1 X83.121 Y106.823 E6829.42546
G1 X106.823 Y83.121 E6837.80519
G1 X105.955 Y83.121 E6838.02212
G1 X83.121 Y105.955 E6846.09506
G1 X83.121 Y105.087 E6846.31199
G1 X105.087 Y83.121 E6854.07813
G1 X104.219 Y83.121 E6854.29507
G1 X83.121 Y104.219 E6861.75441
G1 X83.121 Y103.352 E6861.97134
G1 X103.352 Y83.121 E6869.12389
G1 X102.484 Y83.121 E6869.34082
G1 X83.121 Y102.484 E6876.18657
G1 X83.121 Y101.616 E6876.40351
G1 X101.616 Y83.121 E6882.94246
G1 X100.748 Y83.121 E6883.15940
G1 X83.121 Y100.748 E6889.39155
G1 X83.121 Y99.881 E6889.60849
G1 X99.881 Y83.121 E6895.53385
G1 X99.013 Y83.121 E6895.75079
G1 X83.121 Y99.013 E6901.36935
G1 X83.121 Y98.145 E6901.58629
G1 X98.145 Y83.121 E6906.89805
G1 X97.277 Y83.121 E6907.11499
G1 X83.121 Y97.277 E6912.11996
G1 X83.121 Y96.410 E6912.33690
G1 X96.410 Y83.121 E6917.03507
G1 X95.542 Y83.121 E6917.25201
G1 X83.121 Y95.542 E6921.64339
G1 X83.121 Y94.674 E6921.86032
G1 X94.674 Y83.121 E6925.94490
G1 X93.806 Y83.121 E6926.16184
G1 X83.121 Y93.806 E6929.93963
G1 X83.121 Y92.939 E6930.15657
G1 X92.939 Y83.121 E6933.62755
G1 X92.071 Y83.121 E6933.84449
G1 X83.121 Y92.071 E6937.00869
G1 X83.121 Y91.203 E6937.22562
G1 X91.203 Y83.121 E6940.08302
G1 X90.335 Y83.121 E6940.29996
G1 X83.121 Y90.335 E6942.85056
G1 X83.121 Y89.468 E6943.06750
G1 X89.468 Y83.121 E6945.31130
G1 X88.600 Y83.121 E6945.52824
G1 X83.121 Y88.600 E6947.46525
G1 X83.121 Y87.732 E6947.68218
G1 X87.732 Y83.121 E6949.31240
G1 X86.864 Y83.121 E6949.52933
G1 X83.121 Y86.864 E6950.85275
G1 X83.121 Y85.997 E6951.06969
G1 X85.997 Y83.121 E6952.08631
G1 X85.129 Y83.121 E6952.30324
G1 X83.121 Y85.129 E6953.01307
G1 X83.121 Y84.261 E6953.23001
G1 X84.261 Y83.121 E6953.63303
G1 X83.393 Y83.121 E6953.84997
G1 X83.121 Y83.393 E6953.94620
G1 Z6.000 F7800.000
G1 X83.393 Y116.879 F7800.000
G1 X83.121 Y116.607 E6954.04243 F4800.000
G1 X83.121 Y115.739 E6954.25937
G1 X84.261 Y116.879 E6954.66240
G1 X85.129 Y116.879 E6954.87934
G1 X83.121 Y114.871 E6955.58916
G1 X83.121 Y114.003 E6955.80610
G1 X85.997 Y116.879 E6956.82272
G1 X86.864 Y116.879 E6957.03965
G1 X83.121 Y113.136 E6958.36307
G1 X83.121 Y112.268 E6958.58001
G1 X87.732 Y116.879 E6960.21022
G1 X88.600 Y116.879 E6960.42716
G1 X83.121 Y111.400 E6962.36417
G1 X83.121 Y110.532 E6962.58110
G1 X89.468 Y116.879 E6964.82491
G1 X90.335 Y116.879 E6965.04185
G1 X83.121 Y109.665 E6967.59245
G1 X83.121 Y108.797 E6967.80938
G1 X91.203 Y116.879 E6970.66678
G1 X92.071 Y116.879 E6970.88372
G1 X83.121 Y107.929 E6974.04791
G1 X83.121 Y107.061 E6974.26485
G1 X92.939 Y116.879 E6977.73584
G1 X93.806 Y116.879 E6977.95278
G1 X83.121 Y106.194 E6981.73056
G1 X83.121 Y105.326 E6981.94750
G1 X94.674 Y116.879 E6986.03208
G1 X95.542 Y116.879 E6986.24902
G1 X83.121 Y104.458 E6990.64039
G1 X83.121 Y103.590 E6990.85733
G1 X96.410 Y116.879 E6995.55551
G1 X97.277 Y116.879 E6995.77244
G1 X83.121 Y102.723 E7000.77741
G1 X83.121 Y101.855 E7000.99435
G1 X98.145 Y116.879 E7006.30612
G1 X99.013 Y116.879 E7006.52305
G1 X83.121 Y100.987 E7012.14162
G1 X83.121 Y100.119 E7012.35855
G1 X99.881 Y116.879 E7018.28391
G1 X100.748 Y116.879 E7018.50085
G1 X83.121 Y99.252 E7024.73300
G1 X83.121 Y98.384 E7024.94994
G1 X101.616 Y116.879 E7031.48889
G1 X102.484 Y116.879 E7031.70583
G1 X83.121 Y97.516 E7038.55158
G1 X83.121 Y96.648 E7038.76851
G1 X103.352 Y116.879 E7045.92106
G1 X104.219 Y116.879 E7046.13799
G1 X83.121 Y95.781 E7053.59733
G1 X83.121 Y94.913 E7053.81427
G1 X105.087 Y116.879 E7061.58041
G1 X105.955 Y116.879 E7061.79734
G1 X83.121 Y94.045 E7069.87027
G1 X83.121 Y93.177 E7070.08721
G1 X106.823 Y116.879 E7078.46694
G1 X107.690 Y116.879 E7078.68388
G1 X83.121 Y92.310 E7087.37040
G1 X83.121 Y91.442 E7087.58734
G1 X108.558 Y116.879 E7096.58066
G1 X109.426 Y116.879 E7096.79759
G1 X83.121 Y90.574 E7106.09771
G1 X83.121 Y89.706 E7106.31465
G1 X110.294 Y116.879 E7115.92156
G1 X111.161 Y116.879 E7116.13850
G1 X83.121 Y88.839 E7126.05221
G1 X83.121 Y87.971 E7126.26914
G1 X112.029 Y116.879 E7136.48965
G1 X112.897 Y116.879 E7136.70658
G1 X83.121 Y87.103 E7147.23388
G1 X83.121 Y86.235 E7147.45082
G1 X113.765 Y116.879 E7158.28492
G1 X114.632 Y116.879 E7158.50186
G1 X83.121 Y85.368 E7169.64275
G1 X83.121 Y84.500 E7169.85969
G1 X115.500 Y116.879 E7181.30737
G1 X116.368 Y116.879 E7181.52431
G1 X83.121 Y83.632 E7193.27880
G1 X83.478 Y83.121 E7193.43459
G1 X116.879 Y116.522 E7205.24344
G1 X116.879 Y115.654 E7205.46038
G1 X84.346 Y83.121 E7216.96243
G1 X85.214 Y83.121 E7217.17937
G1 X116.879 Y114.786 E7228.37463
G1 X116.879 Y113.918 E7228.59157
G1 X86.082 Y83.121 E7239.48003
G1 X86.949 Y83.121 E7239.69697
G1 X116.879 Y113.051 E7250.27864
G1 X116.879 Y112.183 E7250.49558
G1 X87.817 Y83.121 E7260.77045
G1 X88.685 Y83.121 E7260.98739
G1 X116.879 Y111.315 E7270.95546
G1 X116.879 Y110.447 E7271.17240
G1 X89.553 Y83.121 E7280.83368
G1 X90.420 Y83.121 E7281.05062
G1 X116.879 Y109.580 E7290.40510
G1 X116.879 Y108.712 E7290.62204
G1 X91.288 Y83.121 E7299.66973
G1 X92.156 Y83.121 E7299.88666
G1 X116.879 Y107.844 E7308.62755
G1 X116.879 Y106.976 E7308.84449
G1 X93.024 Y83.121 E7317.27859
G1 X93.891 Y83.121 E7317.49553
G1 X116.879 Y106.109 E7325.62282
G1 X116.879 Y105.241 E7325.83976
G1 X94.759 Y83.121 E7333.66027
G1 X95.627 Y83.121 E7333.87720
G1 X116.879 Y104.373 E7341.39091
G1 X116.879 Y103.505 E7341.60785
G1 X96.495 Y83.121 E7348.81476
G1 X97.362 Y83.121 E7349.03170
G1 X116.879 Y102.638 E7355.93181
G1 X116.879 Y101.770 E7356.14875
G1 X98.230 Y83.121 E7362.74207
G1 X99.098 Y83.121 E7362.95901
G1 X116.879 Y100.902 E7369.24553
G1 X116.879 Y100.034 E7369.46246
G1 X99.966 Y83.121 E7375.44219
G1 X100.833 Y83.121 E7375.65913
G1 X116.879 Y99.167 E7381.33206
G1 X116.879 Y98.299 E7381.54900
G1 X101.701 Y83.121 E7386.91513
G1 X102.569 Y83.121 E7387.13207
G1 X116.879 Y97.431 E7392.19141
G1 X116.879 Y96.563 E7392.40834
G1 X103.437 Y83.121 E7397.16088
G1 X104.304 Y83.121 E7397.37782
G1 X116.879 Y95.696 E7401.82357
G1 X116.879 Y94.828 E7402.04051
G1 X105.172 Y83.121 E7406.17945
G1 X106.040 Y83.121 E7406.39639
G1 X116.879 Y93.960 E7410.22855
G1 X116.879 Y93.092 E7410.44548
G1 X106.908 Y83.121 E7413.97084
G1 X107.775 Y83.121 E7414.18778
G1 X116.879 Y92.225 E7417.40634
G1 X116.879 Y91.357 E7417.62328
G1 X108.643 Y83.121 E7420.53504
G1 X109.511 Y83.121 E7420.75198
G1 X116.879 Y90.489 E7423.35695
G1 X116.879 Y89.621 E7423.57389
G1 X110.379 Y83.121 E7425.87206
G1 X111.246 Y83.121 E7426.08900
G1 X116.879 Y88.754 E7428.08037
G1 X116.879 Y87.886 E7428.29731
G1 X112.114 Y83.121 E7429.98189
G1 X112.982 Y83.121 E7430.19883
G1 X116.879 Y87.018 E7431.57661
G1 X116.879 Y86.150 E7431.79355
G1 X113.850 Y83.121 E7432.86454
G1 X114.717 Y83.121 E7433.08148
G1 X116.879 Y85.283 E7433.84567
G1 X116.879 Y84.415 E7434.06261
G1 X115.585 Y83.121 E7434.52000
G1 X116.453 Y83.121 E7434.73694
G1 X116.879 Y83.547 E7434.88754
G1 Z6.400 F7800.000
G1 X116.453 Y116.879 F7800.000
G1 X116.879 Y116.453 E7435.03814 F4800.000
G1 X116.879 Y115.585 E7435.25508
G1 X115.585 Y116.879 E7435.71247
G1 X114.717 Y116.879 E7435.92941
G1 X116.879 Y114.717 E7436.69360
G1 X116.879 Y113.850 E7436.91054
G1 X113.850 Y116.879 E7437.98153
G1 X112.982 Y116.879 E7438.19847
G1 X116.879 Y112.982 E7439.57625
G1 X116.879 Y112.114 E7439.79319
G1 X112.114 Y116.879 E7441.47777
G1 X111.246 Y116.879 E7441.69470
G1 X116.879 Y111.246 E7443.68608
G1 X116.879 Y110.379 E7443.90302
G1 X110.379 Y116.879 E7446.20119
G1 X109.511 Y116.879 E7446.41813
G1 X116.879 Y109.511 E7449.02310
G1 X116.879 Y108.643 E7449.24003
G1 X108.643 Y116.879 E7452.15180
G1 X107.775 Y116.879 E7452.36874
G1 X116.879 Y107.775 E7455.58730
G1 X116.879 Y106.908 E7455.80424
G1 X106.908 Y116.879 E7459.32959
G1 X106.040 Y116.879 E7459.54653
G1 X116.879 Y106.040 E7463.37868
G1 X116.879 Y105.172 E7463.59562
G1 X105.172 Y116.879 E7467.73457
G1 X104.304 Y116.879 E7467.95151
G1 X116.879 Y104.304 E7472.39725
G1 X116.879 Y103.437 E7472.61419
G1 X103.437 Y116.879 E7477.36673
G1 X102.569 Y116.879 E7477.58367
G1 X116.879 Y102.569 E7482.64301
G1 X116.879 Y101.701 E7482.85995
G1 X101.701 Y116.879 E7488.22608
G1 X100.833 Y116.879 E7488.44302
G1 X116.879 Y100.833 E7494.11595
G1 X116.879 Y99.966 E7494.33288
G1 X99.966 Y116.879 E7500.31261
G1 X99.098 Y116.879 E7500.52955
G1 X116.879 Y99.098 E7506.81607
G1 X116.879 Y98.230 E7507.03301
G1 X98.230 Y116.879 E7513.62633
G1 X97.362 Y116.879 E7513.84326
G1 X116.879 Y97.362 E7520.74338
G1 X116.879 Y96.495 E7520.96032
G1 X96.495 Y116.879 E7528.16723
G1 X95.627 Y116.879 E7528.38416
G1 X116.879 Y95.627 E7535.89787
G1 X116.879 Y94.759 E7536.11481
G1 X94.759 Y116.879 E7543.93531
G1 X93.891 Y116.879 E7544.15225
G1 X116.879 Y93.891 E7552.27955
G1 X116.879 Y93.024 E7552.49648
G1 X93.024 Y116.879 E7560.93058
G1 X92.156 Y116.879 E7561.14752
G1 X116.879 Y92.156 E7569.88841
G1 X116.879 Y91.288 E7570.10535
G1 X91.288 Y116.879 E7579.15303
G1 X90.420 Y116.879 E7579.36997
G1 X116.879 Y90.420 E7588.72445
G1 X116.879 Y89.553 E7588.94139
G1 X89.553 Y116.879 E7598.60267
G1 X88.685 Y116.879 E7598.81961
G1 X116.879 Y88.685 E7608.78768
G1 X116.879 Y87.817 E7609.00462
G1 X87.817 Y116.879 E7619.27949
G1 X86.949 Y116.879 E7619.49643
G1 X116.879 Y86.949 E7630.07810
G1 X116.879 Y86.082 E7630.29504
G1 X86.082 Y116.879 E7641.18350
G1 X85.214 Y116.879 E7641.40044
G1 X116.879 Y85.214 E7652.59570
G1 X116.879 Y84.346 E7652.81264
G1 X84.346 Y116.879 E7664.31469
G1 X83.478 Y116.879 E7664.53163
G1 X116.879 Y83.478 E7676.34048
G1 X116.368 Y83.121 E7676.49627
G1 X83.121 Y116.368 E7688.25076
G1 X83.121 Y115.500 E7688.46769
G1 X115.500 Y83.121 E7699.91538
G1 X114.632 Y83.121 E7700.13232
G1 X83.121 Y114.632 E7711.27321
G1 X83.121 Y113.765 E7711.49015
G1 X113.765 Y83.121 E7722.32425
G1 X112.897 Y83.121 E7722.54119
G1 X83.121 Y112.897 E7733.06849
G1 X83.121 Y112.029 E7733.28543
G1 X112.029 Y83.121 E7743.50593
G1 X111.161 Y83.121 E7743.72287
G1 X83.121 Y111.161 E7753.63658
G1 X83.121 Y110.294 E7753.85351
G1 X110.294 Y83.121 E7763.46043
G1 X109.426 Y83.121 E7763.67737
G1 X83.121 Y109.426 E7772.97748
G1 X83.121 Y108.558 E7773.19442
G1 X108.558 Y83.121 E7782.18774
G1 X107.690 Y83.121 E7782.40468
G1 X83.121 Y107.690 E7791.09120
G1 X83.121 Y106.823 E7791.30814
G1 X106.823 Y83.121 E7799.68787
G1 X105.955 Y83.121 E7799.90480
G1 X83.121 Y105.955 E7807.97773
G1 X83.121 Y105.087 E7808.19467
G1 X105.087 Y83.121 E7815.96081
G1 X104.219 Y83.121 E7816.17774
G1 X83.121 Y104.219 E7823.63708
G1 X83.121 Y103.352 E7823.85402
G1 X103.352 Y83.121 E7831.00656
G1 X102.484 Y83.121 E7831.22350
G1 X83.121 Y102.484 E7838.06925
G1 X83.121 Y101.616 E7838.28619
G1 X101.616 Y83.121 E7844.82514
G1 X100.748 Y83.121 E7845.04208
G1 X83.121 Y100.748 E7851.27423
G1 X83.121 Y99.881 E7851.49117
G1 X99.881 Y83.121 E7857.41653
G1 X99.013 Y83.121 E7857.63346
G1 X83.121 Y99.013 E7863.25203
G1 X83.121 Y98.145 E7863.46896
G1 X98.145 Y83.121 E7868.78073
G1 X97.277 Y83.121 E7868.99767
G1 X83.121 Y97.277 E7874.00264
G1 X83.121 Y96.410 E7874.21957
G1 X96.410 Y83.121 E7878.91775
G1 X95.542 Y83.121 E7879.13469
G1 X83.121 Y95.542 E7883.52606
G1 X83.121 Y94.674 E7883.74300
G1 X94.674 Y83.121 E7887.82758
G1 X93.806 Y83.121 E7888.04452
G1 X83.121 Y93.806 E7891.82231
G1 X83.121 Y92.939 E7892.03924
G1 X92.939 Y83.121 E7895.51023
G1 X92.071 Y83.121 E7895.72717
G1 X83.121 Y92.071 E7898.89136
G1 X83.121 Y91.203 E7899.10830
G1 X91.203 Y83.121 E7901.96570
G1 X90.335 Y83.121 E7902.18264
G1 X83.121 Y90.335 E7904.73324
G1 X83.121 Y89.468 E7904.95017
G1 X89.468 Y83.121 E7907.19398
G1 X88.600 Y83.121 E7907.41092
G1 X83.121 Y88.600 E7909.34792
G1 X83.121 Y87.732 E7909.56486
G1 X87.732 Y83.121 E7911.19507
G1 X86.864 Y83.121 E7911.41201
G1 X83.121 Y86.864 E7912.73543
G1 X83.121 Y85.997 E7912.95236
G1 X85.997 Y83.121 E7913.96898
G1 X85.129 Y83.121 E7914.18592
G1 X83.121 Y85.129 E7914.89575
G1 X83.121 Y84.261 E7915.11268
G1 X84.261 Y83.121 E7915.51571
G1 X83.393 Y83.121 E7915.73265
G1 X83.121 Y83.393 E7915.82888
G1 Z6.800 F7800.000
G1 X83.393 Y116.879 F7800.000
G1 X83.121 Y116.607 E7915.92511 F4800.000
G1 X83.121 Y115.739 E7916.14205
G1 X84.261 Y116.879 E7916.54508
G1 X85.129 Y116.879 E7916.76201
G1 X83.121 Y114.871 E7917.47184
G1 X83.121 Y114.003 E7917.68878
G1 X85.997 Y116.879 E7918.70540
G1 X86.864 Y116.879 E7918.92233
G1 X83.121 Y113.136 E7920.24575
G1 X83.121 Y112.268 E7920.46269
G1 X87.732 Y116.879 E7922.09290
G1 X88.600 Y116.879 E7922.30984
G1 X83.121 Y111.400 E7924.24684
G1 X83.121 Y110.532 E7924.46378
G1 X89.468 Y116.879 E7926.70759
G1 X90.335 Y116.879 E7926.92452
G1 X83.121 Y109.665 E7929.47512
G1 X83.121 Y108.797 E7929.69206
G1 X91.203 Y116.879 E7932.54946
G1 X92.071 Y116.879 E7932.76640
G1 X83.121 Y107.929 E7935.93059
G1 X83.121 Y107.061 E7936.14753
G1 X92.939 Y116.879 E7939.61852
G1 X93.806 Y116.879 E7939.83545
G1 X83.121 Y106.194 E7943.61324
G1 X83.121 Y105.326 E7943.83018
G1 X94.674 Y116.879 E7947.91476
G1 X95.542 Y116.879 E7948.13170
G1 X83.121 Y104.458 E7952.52307
G1 X83.121 Y103.590 E7952.74001
G1 X96.410 Y116.879 E7957.43818
G1 X97.277 Y116.879 E7957.65512
G1 X83.121 Y102.723 E7962.66009
G1 X83.121 Y101.855 E7962.87703
G1 X98.145 Y116.879 E7968.18879
G1 X99.013 Y116.879 E7968.40573
G1 X83.121 Y100.987 E7974.02429
G1 X83.121 Y100.119 E7974.24123
G1 X99.881 Y116.879 E7980.16659
G1 X100.748 Y116.879 E7980.38353
G1 X83.121 Y99.252 E7986.61568
G1 X83.121 Y98.384 E7986.83262
G1 X101.616 Y116.879 E7993.37157
G1 X102.484 Y116.879 E7993.58851
G1 X83.121 Y97.516 E8000.43425
G1 X83.121 Y96.648 E8000.65119
G1 X103.352 Y116.879 E8007.80373
G1 X104.219 Y116.879 E8008.02067
G1 X83.121 Y95.781 E8015.48001
G1 X83.121 Y94.913 E8015.69695
G1 X105.087 Y116.879 E8023.46308
G1 X105.955 Y116.879 E8023.68002
G1 X83.121 Y94.045 E8031.75295
G1 X83.121 Y93.177 E8031.96989
G1 X106.823 Y116.879 E8040.34962
G1 X107.690 Y116.879 E8040.56655
G1 X83.121 Y92.310 E8049.25308
G1 X83.121 Y91.442 E8049.47002
G1 X108.558 Y116.879 E8058.46334
G1 X109.426 Y116.879 E8058.68027
G1 X83.121 Y90.574 E8067.98039
G1 X83.121 Y89.706 E8068.19733
G1 X110.294 Y116.879 E8077.80424
G1 X111.161 Y116.879 E8078.02118
G1 X83.121 Y88.839 E8087.93488
G1 X83.121 Y87.971 E8088.15182
G1 X112.029 Y116.879 E8098.37232
G1 X112.897 Y116.879 E8098.58926
G1 X83.121 Y87.103 E8109.11656
G1 X83.121 Y86.235 E8109.33350
G1 X113.765 Y116.879 E8120.16760
G1 X114.632 Y116.879 E8120.38453
G1 X83.121 Y85.368 E8131.52543
G1 X83.121 Y84.500 E8131.74236
G1 X115.500 Y116.879 E8143.19005
G1 X116.368 Y116.879 E8143.40699
G1 X83.121 Y83.632 E8155.16148
G1 X83.478 Y83.121 E8155.31726
G1 X116.879 Y116.522 E8167.12612
G1 X116.879 Y115.654 E8167.34305
G1 X84.346 Y83.121 E8178.84511
G1 X85.214 Y83.121 E8179.06205
G1 X116.879 Y114.786 E8190.25731
G1 X116.879 Y113.918 E8190.47425
G1 X86.082 Y83.121 E8201.36271
G1 X86.949 Y83.121 E8201.57965
G1 X116.879 Y113.051 E8212.16132
G1 X116.879 Y112.183 E8212.37825
G1 X87.817 Y83.121 E8222.65313
G1 X88.685 Y83.121 E8222.87006
G1 X116.879 Y111.315 E8232.83814
G1 X116.879 Y110.447 E8233.05508
G1 X89.553 Y83.121 E8242.71636
G1 X90.420 Y83.121 E8242.93330
G1 X116.879 Y109.580 E8252.28778
G1 X116.879 Y108.712 E8252.50472
G1 X91.288 Y83.121 E8261.55240
G1 X92.156 Y83.121 E8261.76934
G1 X116.879 Y107.844 E8270.51023
G1 X116.879 Y106.976 E8270.72717
G1 X93.024 Y83.121 E8279.16127
G1 X93.891 Y83.121 E8279.37820
G1 X116.879 Y106.109 E8287.50550
G1 X116.879 Y105.241 E8287.72244
G1 X94.759 Y83.121 E8295.54294
G1 X95.627 Y83.121 E8295.75988
G1 X116.879 Y104.373 E8303.27359
G1 X116.879 Y103.505 E8303.49053
G1 X96.495 Y83.121 E8310.69744
G1 X97.362 Y83.121 E8310.91437
G1 X116.879 Y102.638 E8317.81449
G1 X116.879 Y101.770 E8318.03143
G1 X98.230 Y83.121 E8324.62475
G1 X99.098 Y83.121 E8324.84168
G1 X116.879 Y100.902 E8331.12821
G1 X116.879 Y100.034 E8331.34514
G1 X99.966 Y83.121 E8337.32487
G1 X100.833 Y83.121 E8337.54181
G1 X116.879 Y99.167 E8343.21474
G1 X116.879 Y98.299 E8343.43167
G1 X101.701 Y83.121 E8348.79781
G1 X102.569 Y83.121 E8349.01475
G1 X116.879 Y97.431 E8354.07408
G1 X116.879 Y96.563 E8354.29102
G1 X103.437 Y83.121 E8359.04356
G1 X104.304 Y83.121 E8359.26050
G1 X116.879 Y95.696 E8363.70625
G1 X116.879 Y94.828 E8363.92318
G1 X105.172 Y83.121 E8368.06213
G1 X106.040 Y83.121 E8368.27907
G1 X116.879 Y93.960 E8372.11122
G1 X116.879 Y93.092 E8372.32816
G1 X106.908 Y83.121 E8375.85352
G1 X107.775 Y83.121 E8376.07046
G1 X116.879 Y92.225 E8379.28902
G1 X116.879 Y91.357 E8379.50595
G1 X108.643 Y83.121 E8382.41772
G1 X109.511 Y83.121 E8382.63466
G1 X116.879 Y90.489 E8385.23963
G1 X116.879 Y89.621 E8385.45656
G1 X110.379 Y83.121 E8387.75474
G1 X111.246 Y83.121 E8387.97167
G1 X116.879 Y88.754 E8389.96305
G1 X116.879 Y87.886 E8390.17999
G1 X112.114 Y83.121 E8391.86457
G1 X112.982 Y83.121 E8392.08151
G1 X116.879 Y87.018 E8393.45929
G1 X116.879 Y86.150 E8393.67623
G1 X113.850 Y83.121 E8394.74722
G1 X114.717 Y83.121 E8394.96416
G1 X116.879 Y85.283 E8395.72835
G1 X116.879 Y84.415 E8395.94529
G1 X115.585 Y83.121 E8396.40268
G1 X116.453 Y83.121 E8396.61962
G1 X116.879 Y83.547 E8396.77022
G1 Z7.200 F7800.000
G1 X116.453 Y116.879 F7800.000
G1 X116.879 Y116.453 E8396.92082 F4800.000
G1 X116.879 Y115.585 E8397.13776
G1 X115.585 Y116.879 E8397.59515
G1 X114.717 Y116.879 E8397.81209
G1 X116.879 Y114.717 E8398.57628
G1 X116.879 Y113.850 E8398.79322
G1 X113.850 Y116.879 E8399.86421
G1 X112.982 Y116.879 E8400.08114
G1 X116.879 Y112.982 E8401.45893
G1 X116.879 Y112.114 E8401.67587
G1 X112.114 Y116.879 E8403.36045
G1 X111.246 Y116.879 E8403.57738
G1 X116.879 Y111.246 E8405.56876
G1 X116.879 Y110.379 E8405.78570
G1 X110.379 Y116.879 E8408.08387
G1 X109.511 Y116.879 E8408.30081
G1 X116.879 Y109.511 E8410.90578
G1 X116.879 Y108.643 E8411.12271
G1 X108.643 Y116.879 E8414.03448
G1 X107.775 Y116.879 E8414.25142
G1 X116.879 Y107.775 E8417.46998
G1 X116.879 Y106.908 E8417.68691
G1 X106.908 Y116.879 E8421.21227
G1 X106.040 Y116.879 E8421.42921
G1 X116.879 Y106.040 E8425.26136
G1 X116.879 Y105.172 E8425.47830
G1 X105.172 Y116.879 E8429.61725
G1 X104.304 Y116.879 E8429.83419
G1 X116.879 Y104.304 E8434.27993
G1 X116.879 Y103.437 E8434.49687
G1 X103.437 Y116.879 E8439.24941
G1 X102.569 Y116.879 E8439.46635
G1 X116.879 Y102.569 E8444.52569
G1 X116.879 Y101.701 E8444.74262
G1 X101.701 Y116.879 E8450.10876
G1 X100.833 Y116.879 E8450.32570
G1 X116.879 Y100.833 E8455.99863
G1 X116.879 Y99.966 E8456.21556
G1 X99.966 Y116.879 E8462.19529
G1 X99.098 Y116.879 E8462.41223
G1 X116.879 Y99.098 E8468.69875
G1 X116.879 Y98.230 E8468.91569
G1 X98.230 Y116.879 E8475.50900
G1 X97.362 Y116.879 E8475.72594
G1 X116.879 Y97.362 E8482.62606
G1 X116.879 Y96.495 E8482.84299
G1 X96.495 Y116.879 E8490.04990
G1 X95.627 Y116.879 E8490.26684
G1 X116.879 Y95.627 E8497.78055
G1 X116.879 Y94.759 E8497.99749
G1 X94.759 Y116.879 E8505.81799
G1 X93.891 Y116.879 E8506.03493
G1 X116.879 Y93.891 E8514.16223
G1 X116.879 Y93.024 E8514.37916
G1 X93.024 Y116.879 E8522.81326
G1 X92.156 Y116.879 E8523.03020
G1 X116.879 Y92.156 E8531.77109
G1 X116.879 Y91.288 E8531.98802
G1 X91.288 Y116.879 E8541.03571
G1 X90.420 Y116.879 E8541.25265
G1 X116.879 Y90.420 E8550.60713
G1 X116.879 Y89.553 E8550.82407
G1 X89.553 Y116.879 E8560.48535
G1 X88.685 Y116.879 E8560.70229
G1 X116.879 Y88.685 E8570.67036
G1 X116.879 Y87.817 E8570.88730
G1 X87.817 Y116.879 E8581.16217
G1 X86.949 Y116.879 E8581.37911
G1 X116.879 Y86.949 E8591.96078
G1 X116.879 Y86.082 E8592.17772
G1 X86.082 Y116.879 E8603.06618
G1 X85.214 Y116.879 E8603.28312
G1 X116.879 Y85.214 E8614.47838
G1 X116.879 Y84.346 E8614.69531
G1 X84.346 Y116.879 E8626.19737
G1 X83.478 Y116.879 E8626.41431
G1 X116.879 Y83.478 E8638.22316
G1 X116.368 Y83.121 E8638.37895
G1 X83.121 Y116.368 E8650.13344
G1 X83.121 Y115.500 E8650.35037
G1 X115.500 Y83.121 E8661.79806
G1 X114.632 Y83.121 E8662.01500
G1 X83.121 Y114.632 E8673.15589
G1 X83.121 Y113.765 E8673.37283
G1 X113.765 Y83.121 E8684.20693
G1 X112.897 Y83.121 E8684.42387
G1 X83.121 Y112.897 E8694.95117
G1 X83.121 Y112.029 E8695.16810
G1 X112.029 Y83.121 E8705.38861
G1 X111.161 Y83.121 E8705.60555
G1 X83.121 Y111.161 E8715.51926
G1 X83.121 Y110.294 E8715.73619
G1 X110.294 Y83.121 E8725.34311
G1 X109.426 Y83.121 E8725.56004
G1 X83.121 Y109.426 E8734.86016
G1 X83.121 Y108.558 E8735.07710
G1 X108.558 Y83.121 E8744.07042
G1 X107.690 Y83.121 E8744.28735
G1 X83.121 Y107.690 E8752.97388
G1 X83.121 Y106.823 E8753.19082
G1 X106.823 Y83.121 E8761.57054
G1 X105.955 Y83.121 E8761.78748
G1 X83.121 Y105.955 E8769.86041
G1 X83.121 Y105.087 E8770.07735
G1 X105.087 Y83.121 E8777.84349
G1 X104.219 Y83.121 E8778.06042
G1 X83.121 Y104.219 E8785.51976
G1 X83.121 Y103.352 E8785.73670
G1 X103.352 Y83.121 E8792.88924
G1 X102.484 Y83.121 E8793.10618
G1 X83.121 Y102.484 E8799.95193
G1 X83.121 Y101.616 E8800.16887
G1 X101.616 Y83.121 E8806.70782
G1 X100.748 Y83.121 E8806.92475
G1 X83.121 Y100.748 E8813.15691
G1 X83.121 Y99.881 E8813.37385
G1 X99.881 Y83.121 E8819.29920
G1 X99.013 Y83.121 E8819.51614
G1 X83.121 Y99.013 E8825.13470
G1 X83.121 Y98.145 E8825.35164
G1 X98.145 Y83.121 E8830.66341
G1 X97.277 Y83.121 E8830.88035
G1 X83.121 Y97.277 E8835.88532
G1 X83.121 Y96.410 E8836.10225
G1 X96.410 Y83.121 E8840.80043
G1 X95.542 Y83.121 E8841.01736
G1 X83.121 Y95.542 E8845.40874
G1 X83.121 Y94.674 E8845.62568
G1 X94.674 Y83.121 E8849.71026
G1 X93.806 Y83.121 E8849.92720
G1 X83.121 Y93.806 E8853.70498
G1 X83.121 Y92.939 E8853.92192
G1 X92.939 Y83.121 E8857.39291
G1 X92.071 Y83.121 E8857.60985
G1 X83.121 Y92.071 E8860.77404
G1 X83.121 Y91.203 E8860.99098
G1 X91.203 Y83.121 E8863.84838
G1 X90.335 Y83.121 E8864.06531
G1 X83.121 Y90.335 E8866.61591
G1 X83.121 Y89.468 E8866.83285
G1 X89.468 Y83.121 E8869.07666
G1 X88.600 Y83.121 E8869.29359
G1 X83.121 Y88.600 E8871.23060
G1 X83.121 Y87.732 E8871.44754
G1 X87.732 Y83.121 E8873.07775
G1 X86.864 Y83.121 E8873.29469
G1 X83.121 Y86.864 E8874.61811
G1 X83.121 Y85.997 E8874.83504
G1 X85.997 Y83.121 E8875.85166
G1 X85.129 Y83.121 E8876.06860
G1 X83.121 Y85.129 E8876.77842
G1 X83.121 Y84.261 E8876.99536
G1 X84.261 Y83.121 E8877.39839
G1 X83.393 Y83.121 E8877.61533
G1 X83.121 Y83.393 E8877.71156
G1 Z7.600 F7800.000
G1 X83.393 Y116.879 F7800.000
G1 X83.121 Y116.607 E8877.80779 F4800.000
G1 X83.121 Y115.739 E8878.02473
G1 X84.261 Y116.879 E8878.42776
G1 X85.129 Y116.879 E8878.64469
G1 X83.121 Y114.871 E8879.35452
G1 X83.121 Y114.003 E8879.57145
G1 X85.997 Y116.879 E8880.58807
G1 X86.864 Y116.879 E8880.80501
G1 X83.121 Y113.136 E8882.12843
G1 X83.121 Y112.268 E8882.34537
G1 X87.732 Y116.879 E8883.97558
G1 X88.600 Y116.879 E8884.19251
G1 X83.121 Y111.400 E8886.12952
G1 X83.121 Y110.532 E8886.34646
G1 X89.468 Y116.879 E8888.59026
G1 X90.335 Y116.879 E8888.80720
G1 X83.121 Y109.665 E8891.35780
G1 X83.121 Y108.797 E8891.57474
G1 X91.203 Y116.879 E8894.43214
G1 X92.071 Y116.879 E8894.64907
G1 X83.121 Y107.929 E8897.81327
G1 X83.121 Y107.061 E8898.03021
G1 X92.939 Y116.879 E8901.50119
G1 X93.806 Y116.879 E8901.71813
G1 X83.121 Y106.194 E8905.49592
G1 X83.121 Y105.326 E8905.71285
G1 X94.674 Y116.879 E8909.79744
G1 X95.542 Y116.879 E8910.01437
G1 X83.121 Y104.458 E8914.40575
G1 X83.121 Y103.590 E8914.62269
G1 X96.410 Y116.879 E8919.32086
G1 X97.277 Y116.879 E8919.53780
G1 X83.121 Y102.723 E8924.54277
G1 X83.121 Y101.855 E8924.75971
G1 X98.145 Y116.879 E8930.07147
G1 X99.013 Y116.879 E8930.28841
G1 X83.121 Y100.987 E8935.90697
G1 X83.121 Y100.119 E8936.12391
G1 X99.881 Y116.879 E8942.04927
G1 X100.748 Y116.879 E8942.26621
G1 X83.121 Y99.252 E8948.49836
G1 X83.121 Y98.384 E8948.71530
G1 X101.616 Y116.879 E8955.25425
G1 X102.484 Y116.879 E8955.47119
G1 X83.121 Y97.516 E8962.31693
G1 X83.121 Y96.648 E8962.53387
G1 X103.352 Y116.879 E8969.68641
G1 X104.219 Y116.879 E8969.90335
G1 X83.121 Y95.781 E8977.36269
G1 X83.121 Y94.913 E8977.57963
G1 X105.087 Y116.879 E8985.34576
G1 X105.955 Y116.879 E8985.56270
G1 X83.121 Y94.045 E8993.63563
G1 X83.121 Y93.177 E8993.85257
G1 X106.823 Y116.879 E9002.23230
G1 X107.690 Y116.879 E9002.44923
G1 X83.121 Y92.310 E9011.13576
G1 X83.121 Y91.442 E9011.35269
G1 X108.558 Y116.879 E9020.34601
G1 X109.426 Y116.879 E9020.56295
G1 X83.121 Y90.574 E9029.86307
G1 X83.121 Y89.706 E9030.08000
G1 X110.294 Y116.879 E9039.68692
G1 X111.161 Y116.879 E9039.90385
G1 X83.121 Y88.839 E9049.81756
G1 X83.121 Y87.971 E9050.03450
G1 X112.029 Y116.879 E9060.25500
G1 X112.897 Y116.879 E9060.47194
G1 X83.121 Y87.103 E9070.99924
G1 X83.121 Y86.235 E9071.21618
G1 X113.765 Y116.879 E9082.05028
G1 X114.632 Y116.879 E9082.26721
G1 X83.121 Y85.368 E9093.40811
G1 X83.121 Y84.500 E9093.62504
G1 X115.500 Y116.879 E9105.07273
G1 X116.368 Y116.879 E9105.28967
G1 X83.121 Y83.632 E9117.04415
G1 X83.478 Y83.121 E9117.19994
G1 X116.879 Y116.522 E9129.00880
G1 X116.879 Y115.654 E9129.22573
G1 X84.346 Y83.121 E9140.72779
G1 X85.214 Y83.121 E9140.94473
G1 X116.879 Y114.786 E9152.13999
G1 X116.879 Y113.918 E9152.35693
G1 X86.082 Y83.121 E9163.24539
G1 X86.949 Y83.121 E9163.46233
G1 X116.879 Y113.051 E9174.04400
G1 X116.879 Y112.183 E9174.26093
G1 X87.817 Y83.121 E9184.53581
G1 X88.685 Y83.121 E9184.75274
G1 X116.879 Y111.315 E9194.72082
G1 X116.879 Y110.447 E9194.93776
G1 X89.553 Y83.121 E9204.59904
G1 X90.420 Y83.121 E9204.81597
G1 X116.879 Y109.580 E9214.17046
G1 X116.879 Y108.712 E9214.38740
G1 X91.288 Y83.121 E9223.43508
G1 X92.156 Y83.121 E9223.65202
G1 X116.879 Y107.844 E9232.39291
G1 X116.879 Y106.976 E9232.60985
G1 X93.024 Y83.121 E9241.04394
G1 X93.891 Y83.121 E9241.26088
G1 X116.879 Y106.109 E9249.38818
G1 X116.879 Y105.241 E9249.60512
G1 X94.759 Y83.121 E9257.42562
G1 X95.627 Y83.121 E9257.64256
G1 X116.879 Y104.373 E9265.15627
G1 X116.879 Y103.505 E9265.37321
G1 X96.495 Y83.121 E9272.58012
G1 X97.362 Y83.121 E9272.79705
G1 X116.879 Y102.638 E9279.69717
G1 X116.879 Y101.770 E9279.91411
G1 X98.230 Y83.121 E9286.50742
G1 X99.098 Y83.121 E9286.72436
G1 X116.879 Y100.902 E9293.01088
G1 X116.879 Y100.034 E9293.22782
G1 X99.966 Y83.121 E9299.20755
G1 X100.833 Y83.121 E9299.42448
G1 X116.879 Y99.167 E9305.09742
G1 X116.879 Y98.299 E9305.31435
G1 X101.701 Y83.121 E9310.68049
G1 X102.569 Y83.121 E9310.89742
G1 X116.879 Y97.431 E9315.95676
G1 X116.879 Y96.563 E9316.17370
G1 X103.437 Y83.121 E9320.92624
G1 X104.304 Y83.121 E9321.14318
G1 X116.879 Y95.696 E9325.58892
G1 X116.879 Y94.828 E9325.80586
G1 X105.172 Y83.121 E9329.94481
G1 X106.040 Y83.121 E9330.16175
G1 X116.879 Y93.960 E9333.99390
G1 X116.879 Y93.092 E9334.21084
G1 X106.908 Y83.121 E9337.73620
G1 X107.775 Y83.121 E9337.95314
G1 X116.879 Y92.225 E9341.17170
G1 X116.879 Y91.357 E9341.38863
G1 X108.643 Y83.121 E9344.30040
G1 X109.511 Y83.121 E9344.51734
G1 X116.879 Y90.489 E9347.12230
G1 X116.879 Y89.621 E9347.33924
G1 X110.379 Y83.121 E9349.63742
G1 X111.246 Y83.121 E9349.85435
G1 X116.879 Y88.754 E9351.84573
G1 X116.879 Y87.886 E9352.06267
G1 X112.114 Y83.121 E9353.74725
G1 X112.982 Y83.121 E9353.96419
G1 X116.879 Y87.018 E9355.34197
G1 X116.879 Y86.150 E9355.55891
G1 X113.850 Y83.121 E9356.62990
G1 X114.717 Y83.121 E9356.84683
G1 X116.879 Y85.283 E9357.61103
G1 X116.879 Y84.415 E9357.82796
G1 X115.585 Y83.121 E9358.28536
G1 X116.453 Y83.121 E9358.50230
G1 X116.879 Y83.547 E9358.65290
G1 Z8.000 F7800.000
G1 X116.453 Y116.879 F7800.000
G1 X116.879 Y116.453 E9358.80350 F4800.000
G1 X116.879 Y115.585 E9359.02043
G1 X115.585 Y116.879 E9359.47783
G1 X114.717 Y116.879 E9359.69477
G1 X116.879 Y114.717 E9360.45896
G1 X116.879 Y113.850 E9360.67590
G1 X113.850 Y116.879 E9361.74688
G1 X112.982 Y116.879 E9361.96382
G1 X116.879 Y112.982 E9363.34161
G1 X116.879 Y112.114 E9363.55854
G1 X112.114 Y116.879 E9365.24312
G1 X111.246 Y116.879 E9365.46006
G1 X116.879 Y111.246 E9367.45144
G1 X116.879 Y110.379 E9367.66838
G1 X110.379 Y116.879 E9369.96655
G1 X109.511 Y116.879 E9370.18349
G1 X116.879 Y109.511 E9372.78845
G1 X116.879 Y108.643 E9373.00539
G1 X108.643 Y116.879 E9375.91716
G1 X107.775 Y116.879 E9376.13409
G1 X116.879 Y107.775 E9379.35265
G1 X116.879 Y106.908 E9379.56959
G1 X106.908 Y116.879 E9383.09495
G1 X106.040 Y116.879 E9383.31189
G1 X116.879 Y106.040 E9387.14404
G1 X116.879 Y105.172 E9387.36098
G1 X105.172 Y116.879 E9391.49993
G1 X104.304 Y116.879 E9391.71686
G1 X116.879 Y104.304 E9396.16261
G1 X116.879 Y103.437 E9396.37955
G1 X103.437 Y116.879 E9401.13209
G1 X102.569 Y116.879 E9401.34903
G1 X116.879 Y102.569 E9406.40837
G1 X116.879 Y101.701 E9406.62530
G1 X101.701 Y116.879 E9411.99144
G1 X100.833 Y116.879 E9412.20837
G1 X116.879 Y100.833 E9417.88130
G1 X116.879 Y99.966 E9418.09824
G1 X99.966 Y116.879 E9424.07797
G1 X99.098 Y116.879 E9424.29491
G1 X116.879 Y99.098 E9430.58143
G1 X116.879 Y98.230 E9430.79836
G1 X98.230 Y116.879 E9437.39168
G1 X97.362 Y116.879 E9437.60862
G1 X116.879 Y97.362 E9444.50873
G1 X116.879 Y96.495 E9444.72567
G1 X96.495 Y116.879 E9451.93258
G1 X95.627 Y116.879 E9452.14952
G1 X116.879 Y95.627 E9459.66323
G1 X116.879 Y94.759 E9459.88016
G1 X94.759 Y116.879 E9467.70067
G1 X93.891 Y116.879 E9467.91760
G1 X116.879 Y93.891 E9476.04490
G1 X116.879 Y93.024 E9476.26184
G1 X93.024 Y116.879 E9484.69594
G1 X92.156 Y116.879 E9484.91287
G1 X116.879 Y92.156 E9493.65377
G1 X116.879 Y91.288 E9493.87070
G1 X91.288 Y116.879 E9502.91839
G1 X90.420 Y116.879 E9503.13533
G1 X116.879 Y90.420 E9512.48981
G1 X116.879 Y89.553 E9512.70675
G1 X89.553 Y116.879 E9522.36803
G1 X88.685 Y116.879 E9522.58497
G1 X116.879 Y88.685 E9532.55304
G1 X116.879 Y87.817 E9532.76998
G1 X87.817 Y116.879 E9543.04485
G1 X86.949 Y116.879 E9543.26179
G1 X116.879 Y86.949 E9553.84346
G1 X116.879 Y86.082 E9554.06039
G1 X86.082 Y116.879 E9564.94886
G1 X85.214 Y116.879 E9565.16580
G1 X116.879 Y85.214 E9576.36106
G1 X116.879 Y84.346 E9576.57799
G1 X84.346 Y116.879 E9588.08005
G1 X83.478 Y116.879 E9588.29699
G1 X116.879 Y83.478 E9600.10584
G1 X116.368 Y83.121 E9600.26163
G1 X83.121 Y116.368 E9612.01611
G1 X83.121 Y115.500 E9612.23305
G1 X115.500 Y83.121 E9623.68074
G1 X114.632 Y83.121 E9623.89768
G1 X83.121 Y114.632 E9635.03857
G1 X83.121 Y113.765 E9635.25551
G1 X113.765 Y83.121 E9646.08961
G1 X112.897 Y83.121 E9646.30654
G1 X83.121 Y112.897 E9656.83384
G1 X83.121 Y112.029 E9657.05078
G1 X112.029 Y83.121 E9667.27129
G1 X111.161 Y83.121 E9667.48823
G1 X83.121 Y111.161 E9677.40193
G1 X83.121 Y110.294 E9677.61887
G1 X110.294 Y83.121 E9687.22578
G1 X109.426 Y83.121 E9687.44272
G1 X83.121 Y109.426 E9696.74284
G1 X83.121 Y108.558 E9696.95978
G1 X108.558 Y83.121 E9705.95310
G1 X107.690 Y83.121 E9706.17003
G1 X83.121 Y107.690 E9714.85656
G1 X83.121 Y106.823 E9715.07349
G1 X106.823 Y83.121 E9723.45322
G1 X105.955 Y83.121 E9723.67016
G1 X83.121 Y105.955 E9731.74309
G1 X83.121 Y105.087 E9731.96003
G1 X105.087 Y83.121 E9739.72616
G1 X104.219 Y83.121 E9739.94310
G1 X83.121 Y104.219 E9747.40244
G1 X83.121 Y103.352 E9747.61938
G1 X103.352 Y83.121 E9754.77192
G1 X102.484 Y83.121 E9754.98886
G1 X83.121 Y102.484 E9761.83461
G1 X83.121 Y101.616 E9762.05154
G1 X101.616 Y83.121 E9768.59049
G1 X100.748 Y83.121 E9768.80743
G1 X83.121 Y100.748 E9775.03959
G1 X83.121 Y99.881 E9775.25652
G1 X99.881 Y83.121 E9781.18188
G1 X99.013 Y83.121 E9781.39882
G1 X83.121 Y99.013 E9787.01738
G1 X83.121 Y98.145 E9787.23432
G1 X98.145 Y83.121 E9792.54609
G1 X97.277 Y83.121 E9792.76302
G1 X83.121 Y97.277 E9797.76799
G1 X83.121 Y96.410 E9797.98493
G1 X96.410 Y83.121 E9802.68311
G1 X95.542 Y83.121 E9802.90004
G1 X83.121 Y95.542 E9807.29142
G1 X83.121 Y94.674 E9807.50836
G1 X94.674 Y83.121 E9811.59294
G1 X93.806 Y83.121 E9811.80988
G1 X83.121 Y93.806 E9815.58766
G1 X83.121 Y92.939 E9815.80460
G1 X92.939 Y83.121 E9819.27559
G1 X92.071 Y83.121 E9819.49253
