; generated by Slic3r 1.2.9 on 2019-08-20 at 10:51:26

; external perimeters extrusion width = 0.50mm
; perimeters extrusion width = 0.58mm
; infill extrusion width = 0.58mm
; solid infill extrusion width = 0.58mm
; top infill extrusion width = 0.58mm

M107
M104 S200 ; set temperature
G28 ; home all axes
G1 Z5 F5000 ; lift nozzle

M109 S200 ; wait for temperature to be reached
G21 ; set units to millimeters
G90 ; use absolute coordinates
M82 ; use absolute distances for extrusion
G92 E0
G1 Z0.400 F7800.000
G1 E-2.00000 F2400.00000
G92 E0
G1 X104.879 Y79.167 F7800.000
G1 E2.00000 F2400.00000
G1 X104.333 Y78.621 E2.28048 F1800.000
G1 X103.176 Y78.621 E2.70130
G1 X104.879 Y80.324 E3.57692
G1 X104.879 Y81.481 E3.99774
G1 X102.019 Y78.621 E5.46849
G1 X100.862 Y78.621 E5.88931
G1 X104.879 Y82.638 E7.95519
G1 X104.879 Y83.795 E8.37601
G1 X99.705 Y78.621 E11.03702
G1 X98.548 Y78.621 E11.45784
G1 X104.879 Y84.952 E14.71399
G1 X104.879 Y86.109 E15.13481
G1 X97.391 Y78.621 E18.98609
G1 X96.234 Y78.621 E19.40691
G1 X104.879 Y87.266 E23.85332
G1 X104.879 Y88.423 E24.27414
G1 X95.121 Y78.665 E29.29313
G1 X95.121 Y79.822 E29.71395
G1 X104.879 Y89.580 E34.73293
G1 X104.879 Y90.737 E35.15375
G1 X95.121 Y80.979 E40.17273
G1 X95.121 Y82.136 E40.59355
G1 X104.879 Y91.894 E45.61254
G1 X104.879 Y93.051 E46.03336
G1 X95.121 Y83.293 E51.05234
G1 X95.121 Y84.450 E51.47316
G1 X104.879 Y94.208 E56.49214
G1 X104.879 Y95.365 E56.91296
G1 X95.121 Y85.607 E61.93195
G1 X95.121 Y86.764 E62.35277
G1 X104.879 Y96.522 E67.37175
G1 X104.879 Y97.679 E67.79257
G1 X95.121 Y87.921 E72.81155
G1 X95.121 Y89.078 E73.23237
G1 X104.879 Y98.836 E78.25136
G1 X104.879 Y99.993 E78.67218
G1 X95.121 Y90.235 E83.69116
G1 X95.121 Y91.392 E84.11198
G1 X104.879 Y101.150 E89.13096
G1 X104.879 Y102.307 E89.55179
G1 X95.121 Y92.549 E94.57077
G1 X95.121 Y93.706 E94.99159
G1 X104.879 Y103.464 E100.01057
G1 X104.879 Y104.621 E100.43139
G1 X95.121 Y94.863 E105.45037
G1 X95.121 Y96.020 E105.87120
G1 X104.879 Y105.778 E110.89018
G1 X104.879 Y106.935 E111.31100
G1 X95.121 Y97.177 E116.32998
G1 X95.121 Y98.334 E116.75080
G1 X104.879 Y108.092 E121.76978
G1 X104.879 Y109.249 E122.19061
G1 X95.121 Y99.491 E127.20959
G1 X95.121 Y100.648 E127.63041
G1 X104.879 Y110.406 E132.64939
G1 X104.879 Y111.563 E133.07021
G1 X95.121 Y101.805 E138.08919
G1 X95.121 Y102.962 E138.51002
G1 X104.879 Y112.720 E143.52900
G1 X104.879 Y113.877 E143.94982
G1 X95.121 Y104.119 E148.96880
G1 X95.121 Y105.276 E149.38962
G1 X104.879 Y115.034 E154.40860
G1 X104.879 Y116.191 E154.82943
G1 X95.121 Y106.433 E159.84841
G1 X95.121 Y107.590 E160.26923
G1 X104.879 Y117.348 E165.28821
G1 X104.879 Y118.505 E165.70903
G1 X95.121 Y108.747 E170.72802
G1 X95.121 Y109.904 E171.14884
G1 X104.879 Y119.662 E176.16782
G1 X104.879 Y120.819 E176.58864
G1 X95.121 Y111.061 E181.60762
G1 X95.121 Y112.218 E182.02845
G1 X104.282 Y121.379 E186.74040
G1 X103.125 Y121.379 E187.16123
G1 X95.121 Y113.375 E191.27805
G1 X95.121 Y114.532 E191.69887
G1 X101.968 Y121.379 E195.22057
G1 X100.811 Y121.379 E195.64139
G1 X95.121 Y115.689 E198.56795
G1 X95.121 Y116.846 E198.98877
G1 X99.654 Y121.379 E201.32020
G1 X98.497 Y121.379 E201.74102
G1 X95.121 Y118.003 E203.47731
G1 X95.121 Y119.160 E203.89814
G1 X97.340 Y121.379 E205.03930
G1 X96.183 Y121.379 E205.46012
G1 X95.121 Y120.317 E206.00615
G1 Z0.800 F7800.000
G1 X104.333 Y121.379 F7800.000
G1 X104.879 Y120.833 E206.19893 F4800.000
G1 X104.879 Y119.676 E206.48818
G1 X103.176 Y121.379 E207.09003
G1 X102.019 Y121.379 E207.37928
G1 X104.879 Y118.519 E208.39019
G1 X104.879 Y117.362 E208.67944
G1 X100.862 Y121.379 E210.09942
G1 X99.705 Y121.379 E210.38867
G1 X104.879 Y116.205 E212.21770
G1 X104.879 Y115.048 E212.50695
G1 X98.548 Y121.379 E214.74504
G1 X97.391 Y121.379 E215.03429
G1 X104.879 Y113.891 E217.68145
G1 X104.879 Y112.734 E217.97070
G1 X96.234 Y121.379 E221.02692
G1 X95.121 Y121.335 E221.30542
G1 X104.879 Y111.577 E224.75519
G1 X104.879 Y110.420 E225.04444
G1 X95.121 Y120.178 E228.49421
G1 X95.121 Y119.021 E228.78346
G1 X104.879 Y109.263 E232.23323
G1 X104.879 Y108.106 E232.52248
G1 X95.121 Y117.864 E235.97225
G1 X95.121 Y116.707 E236.26150
G1 X104.879 Y106.949 E239.71128
G1 X104.879 Y105.792 E240.00053
G1 X95.121 Y115.550 E243.45030
G1 X95.121 Y114.393 E243.73955
G1 X104.879 Y104.635 E247.18932
G1 X104.879 Y103.478 E247.47857
G1 X95.121 Y113.236 E250.92834
G1 X95.121 Y112.079 E251.21759
G1 X104.879 Y102.321 E254.66736
G1 X104.879 Y101.164 E254.95661
G1 X95.121 Y110.922 E258.40638
G1 X95.121 Y109.765 E258.69563
G1 X104.879 Y100.007 E262.14541
G1 X104.879 Y98.850 E262.43466
G1 X95.121 Y108.608 E265.88443
G1 X95.121 Y107.451 E266.17368
G1 X104.879 Y97.693 E269.62345
G1 X104.879 Y96.536 E269.91270
G1 X95.121 Y106.294 E273.36247
G1 X95.121 Y105.137 E273.65172
G1 X104.879 Y95.379 E277.10149
G1 X104.879 Y94.222 E277.39074
G1 X95.121 Y103.980 E280.84051
G1 X95.121 Y102.823 E281.12976
G1 X104.879 Y93.065 E284.57954
G1 X104.879 Y91.908 E284.86879
G1 X95.121 Y101.666 E288.31856
G1 X95.121 Y100.509 E288.60781
G1 X104.879 Y90.751 E292.05758
G1 X104.879 Y89.594 E292.34683
G1 X95.121 Y99.352 E295.79660
G1 X95.121 Y98.195 E296.08585
G1 X104.879 Y88.437 E299.53562
G1 X104.879 Y87.280 E299.82487
G1 X95.121 Y97.038 E303.27464
G1 X95.121 Y95.881 E303.56389
G1 X104.879 Y86.123 E307.01366
G1 X104.879 Y84.966 E307.30291
G1 X95.121 Y94.724 E310.75269
G1 X95.121 Y93.567 E311.04194
G1 X104.879 Y83.809 E314.49171
G1 X104.879 Y82.652 E314.78096
G1 X95.121 Y92.410 E318.23073
G1 X95.121 Y91.253 E318.51998
G1 X104.879 Y81.495 E321.96975
G1 X104.879 Y80.338 E322.25900
G1 X95.121 Y90.096 E325.70877
G1 X95.121 Y88.939 E325.99802
G1 X104.879 Y79.181 E329.44779
G1 X104.282 Y78.621 E329.65243
G1 X95.121 Y87.782 E332.89117
G1 X95.121 Y86.625 E333.18042
G1 X103.125 Y78.621 E336.01010
G1 X101.968 Y78.621 E336.29935
G1 X95.121 Y85.468 E338.71996
G1 X95.121 Y84.311 E339.00921
G1 X100.811 Y78.621 E341.02077
G1 X99.654 Y78.621 E341.31002
G1 X95.121 Y83.154 E342.91252
G1 X95.121 Y81.997 E343.20177
G1 X98.497 Y78.621 E344.39520
G1 X97.340 Y78.621 E344.68445
G1 X95.121 Y80.840 E345.46882
G1 X95.121 Y79.683 E345.75807
G1 X96.183 Y78.621 E346.13338
G1 Z1.200 F7800.000
G1 X104.879 Y79.167 F7800.000
G1 X104.333 Y78.621 E346.32617 F4800.000
G1 X103.176 Y78.621 E346.61542
G1 X104.879 Y80.324 E347.21727
G1 X104.879 Y81.481 E347.50652
G1 X102.019 Y78.621 E348.51743
G1 X100.862 Y78.621 E348.80668
G1 X104.879 Y82.638 E350.22665
G1 X104.879 Y83.795 E350.51590
G1 X99.705 Y78.621 E352.34493
G1 X98.548 Y78.621 E352.63418
G1 X104.879 Y84.952 E354.87228
G1 X104.879 Y86.109 E355.16153
G1 X97.391 Y78.621 E357.80869
G1 X96.234 Y78.621 E358.09794
G1 X104.879 Y87.266 E361.15415
G1 X104.879 Y88.423 E361.44340
G1 X95.121 Y78.665 E364.89317
G1 X95.121 Y79.822 E365.18243
G1 X104.879 Y89.580 E368.63220
G1 X104.879 Y90.737 E368.92145
G1 X95.121 Y80.979 E372.37122
G1 X95.121 Y82.136 E372.66047
G1 X104.879 Y91.894 E376.11024
G1 X104.879 Y93.051 E376.39949
G1 X95.121 Y83.293 E379.84926
G1 X95.121 Y84.450 E380.13851
G1 X104.879 Y94.208 E383.58828
G1 X104.879 Y95.365 E383.87753
G1 X95.121 Y85.607 E387.32730
G1 X95.121 Y86.764 E387.61655
G1 X104.879 Y96.522 E391.06633
G1 X104.879 Y97.679 E391.35558
G1 X95.121 Y87.921 E394.80535
G1 X95.121 Y89.078 E395.09460
G1 X104.879 Y98.836 E398.54437
G1 X104.879 Y99.993 E398.83362
G1 X95.121 Y90.235 E402.28339
G1 X95.121 Y91.392 E402.57264
G1 X104.879 Y101.150 E406.02241
G1 X104.879 Y102.307 E406.31166
G1 X95.121 Y92.549 E409.76144
G1 X95.121 Y93.706 E410.05069
G1 X104.879 Y103.464 E413.50046
G1 X104.879 Y104.621 E413.78971
G1 X95.121 Y94.863 E417.23948
G1 X95.121 Y96.020 E417.52873
G1 X104.879 Y105.778 E420.97850
G1 X104.879 Y106.935 E421.26775
G1 X95.121 Y97.177 E424.71752
G1 X95.121 Y98.334 E425.00677
G1 X104.879 Y108.092 E428.45654
G1 X104.879 Y109.249 E428.74579
G1 X95.121 Y99.491 E432.19557
G1 X95.121 Y100.648 E432.48482
G1 X104.879 Y110.406 E435.93459
G1 X104.879 Y111.563 E436.22384
G1 X95.121 Y101.805 E439.67361
G1 X95.121 Y102.962 E439.96286
G1 X104.879 Y112.720 E443.41263
G1 X104.879 Y113.877 E443.70188
G1 X95.121 Y104.119 E447.15165
G1 X95.121 Y105.276 E447.44090
G1 X104.879 Y115.034 E450.89067
G1 X104.879 Y116.191 E451.17992
G1 X95.121 Y106.433 E454.62970
G1 X95.121 Y107.590 E454.91895
G1 X104.879 Y117.348 E458.36872
G1 X104.879 Y118.505 E458.65797
G1 X95.121 Y108.747 E462.10774
G1 X95.121 Y109.904 E462.39699
G1 X104.879 Y119.662 E465.84676
G1 X104.879 Y120.819 E466.13601
G1 X95.121 Y111.061 E469.58578
G1 X95.121 Y112.218 E469.87503
G1 X104.282 Y121.379 E473.11377
G1 X103.125 Y121.379 E473.40302
G1 X95.121 Y113.375 E476.23270
G1 X95.121 Y114.532 E476.52195
G1 X101.968 Y121.379 E478.94257
G1 X100.811 Y121.379 E479.23182
G1 X95.121 Y115.689 E481.24338
G1 X95.121 Y116.846 E481.53263
G1 X99.654 Y121.379 E483.13512
G1 X98.497 Y121.379 E483.42437
G1 X95.121 Y118.003 E484.61781
G1 X95.121 Y119.160 E484.90706
G1 X97.340 Y121.379 E485.69143
G1 X96.183 Y121.379 E485.98068
G1 X95.121 Y120.317 E486.35599
M106 S247.35
G1 Z1.600 F7800.000
G1 X104.333 Y121.379 F7800.000
G1 X104.879 Y120.833 E486.54877 F4800.000
G1 X104.879 Y119.676 E486.83802
G1 X103.176 Y121.379 E487.43987
G1 X102.019 Y121.379 E487.72912
G1 X104.879 Y118.519 E488.74003
G1 X104.879 Y117.362 E489.02928
G1 X100.862 Y121.379 E490.44925
G1 X99.705 Y121.379 E490.73850
G1 X104.879 Y116.205 E492.56754
G1 X104.879 Y115.048 E492.85679
G1 X98.548 Y121.379 E495.09488
G1 X97.391 Y121.379 E495.38413
G1 X104.879 Y113.891 E498.03129
G1 X104.879 Y112.734 E498.32054
G1 X96.234 Y121.379 E501.37676
G1 X95.121 Y121.335 E501.65526
G1 X104.879 Y111.577 E505.10503
G1 X104.879 Y110.420 E505.39428
G1 X95.121 Y120.178 E508.84405
G1 X95.121 Y119.021 E509.13330
G1 X104.879 Y109.263 E512.58307
G1 X104.879 Y108.106 E512.87232
G1 X95.121 Y117.864 E516.32209
G1 X95.121 Y116.707 E516.61134
G1 X104.879 Y106.949 E520.06112
G1 X104.879 Y105.792 E520.35037
G1 X95.121 Y115.550 E523.80014
G1 X95.121 Y114.393 E524.08939
G1 X104.879 Y104.635 E527.53916
G1 X104.879 Y103.478 E527.82841
G1 X95.121 Y113.236 E531.27818
G1 X95.121 Y112.079 E531.56743
G1 X104.879 Y102.321 E535.01720
G1 X104.879 Y101.164 E535.30645
G1 X95.121 Y110.922 E538.75622
G1 X95.121 Y109.765 E539.04547
G1 X104.879 Y100.007 E542.49525
G1 X104.879 Y98.850 E542.78450
G1 X95.121 Y108.608 E546.23427
G1 X95.121 Y107.451 E546.52352
G1 X104.879 Y97.693 E549.97329
G1 X104.879 Y96.536 E550.26254
G1 X95.121 Y106.294 E553.71231
G1 X95.121 Y105.137 E554.00156
G1 X104.879 Y95.379 E557.45133
G1 X104.879 Y94.222 E557.74058
G1 X95.121 Y103.980 E561.19035
G1 X95.121 Y102.823 E561.47960
G1 X104.879 Y93.065 E564.92938
G1 X104.879 Y91.908 E565.21863
G1 X95.121 Y101.666 E568.66840
G1 X95.121 Y100.509 E568.95765
G1 X104.879 Y90.751 E572.40742
G1 X104.879 Y89.594 E572.69667
G1 X95.121 Y99.352 E576.14644
G1 X95.121 Y98.195 E576.43569
G1 X104.879 Y88.437 E579.88546
G1 X104.879 Y87.280 E580.17471
G1 X95.121 Y97.038 E583.62448
G1 X95.121 Y95.881 E583.91373
G1 X104.879 Y86.123 E587.36350
G1 X104.879 Y84.966 E587.65275
G1 X95.121 Y94.724 E591.10253
G1 X95.121 Y93.567 E591.39178
G1 X104.879 Y83.809 E594.84155
G1 X104.879 Y82.652 E595.13080
G1 X95.121 Y92.410 E598.58057
G1 X95.121 Y91.253 E598.86982
G1 X104.879 Y81.495 E602.31959
G1 X104.879 Y80.338 E602.60884
G1 X95.121 Y90.096 E606.05861
G1 X95.121 Y88.939 E606.34786
G1 X104.879 Y79.181 E609.79763
G1 X104.282 Y78.621 E610.00227
G1 X95.121 Y87.782 E613.24101
G1 X95.121 Y86.625 E613.53026
G1 X103.125 Y78.621 E616.35994
G1 X101.968 Y78.621 E616.64919
G1 X95.121 Y85.468 E619.06980
G1 X95.121 Y84.311 E619.35905
G1 X100.811 Y78.621 E621.37061
G1 X99.654 Y78.621 E621.65986
G1 X95.121 Y83.154 E623.26236
G1 X95.121 Y81.997 E623.55161
G1 X98.497 Y78.621 E624.74504
G1 X97.340 Y78.621 E625.03429
G1 X95.121 Y80.840 E625.81866
G1 X95.121 Y79.683 E626.10791
G1 X96.183 Y78.621 E626.48322
G1 Z2.000 F7800.000
G1 X104.879 Y79.167 F7800.000
G1 X104.333 Y78.621 E626.67601 F4800.000
G1 X103.176 Y78.621 E626.96526
G1 X104.879 Y80.324 E627.56711
G1 X104.879 Y81.481 E627.85636
G1 X102.019 Y78.621 E628.86727
G1 X100.862 Y78.621 E629.15652
G1 X104.879 Y82.638 E630.57649
G1 X104.879 Y83.795 E630.86574
G1 X99.705 Y78.621 E632.69477
G1 X98.548 Y78.621 E632.98402
G1 X104.879 Y84.952 E635.22212
G1 X104.879 Y86.109 E635.51137
G1 X97.391 Y78.621 E638.15852
G1 X96.234 Y78.621 E638.44778
G1 X104.879 Y87.266 E641.50399
G1 X104.879 Y88.423 E641.79324
G1 X95.121 Y78.665 E645.24301
G1 X95.121 Y79.822 E645.53226
G1 X104.879 Y89.580 E648.98204
G1 X104.879 Y90.737 E649.27129
G1 X95.121 Y80.979 E652.72106
G1 X95.121 Y82.136 E653.01031
G1 X104.879 Y91.894 E656.46008
G1 X104.879 Y93.051 E656.74933
G1 X95.121 Y83.293 E660.19910
G1 X95.121 Y84.450 E660.48835
G1 X104.879 Y94.208 E663.93812
G1 X104.879 Y95.365 E664.22737
G1 X95.121 Y85.607 E667.67714
G1 X95.121 Y86.764 E667.96639
G1 X104.879 Y96.522 E671.41617
G1 X104.879 Y97.679 E671.70542
G1 X95.121 Y87.921 E675.15519
G1 X95.121 Y89.078 E675.44444
G1 X104.879 Y98.836 E678.89421
G1 X104.879 Y99.993 E679.18346
G1 X95.121 Y90.235 E682.63323
G1 X95.121 Y91.392 E682.92248
G1 X104.879 Y101.150 E686.37225
G1 X104.879 Y102.307 E686.66150
G1 X95.121 Y92.549 E690.11127
G1 X95.121 Y93.706 E690.40053
G1 X104.879 Y103.464 E693.85030
G1 X104.879 Y104.621 E694.13955
G1 X95.121 Y94.863 E697.58932
G1 X95.121 Y96.020 E697.87857
G1 X104.879 Y105.778 E701.32834
G1 X104.879 Y106.935 E701.61759
G1 X95.121 Y97.177 E705.06736
G1 X95.121 Y98.334 E705.35661
G1 X104.879 Y108.092 E708.80638
G1 X104.879 Y109.249 E709.09563
G1 X95.121 Y99.491 E712.54540
G1 X95.121 Y100.648 E712.83465
G1 X104.879 Y110.406 E716.28443
G1 X104.879 Y111.563 E716.57368
G1 X95.121 Y101.805 E720.02345
G1 X95.121 Y102.962 E720.31270
G1 X104.879 Y112.720 E723.76247
G1 X104.879 Y113.877 E724.05172
G1 X95.121 Y104.119 E727.50149
G1 X95.121 Y105.276 E727.79074
G1 X104.879 Y115.034 E731.24051
G1 X104.879 Y116.191 E731.52976
G1 X95.121 Y106.433 E734.97954
G1 X95.121 Y107.590 E735.26879
G1 X104.879 Y117.348 E738.71856
G1 X104.879 Y118.505 E739.00781
G1 X95.121 Y108.747 E742.45758
G1 X95.121 Y109.904 E742.74683
G1 X104.879 Y119.662 E746.19660
G1 X104.879 Y120.819 E746.48585
G1 X95.121 Y111.061 E749.93562
G1 X95.121 Y112.218 E750.22487
G1 X104.282 Y121.379 E753.46361
G1 X103.125 Y121.379 E753.75286
G1 X95.121 Y113.375 E756.58254
G1 X95.121 Y114.532 E756.87179
G1 X101.968 Y121.379 E759.29241
G1 X100.811 Y121.379 E759.58166
G1 X95.121 Y115.689 E761.59322
G1 X95.121 Y116.846 E761.88247
G1 X99.654 Y121.379 E763.48496
G1 X98.497 Y121.379 E763.77421
G1 X95.121 Y118.003 E764.96765
G1 X95.121 Y119.160 E765.25690
G1 X97.340 Y121.379 E766.04127
G1 X96.183 Y121.379 E766.33052
G1 X95.121 Y120.317 E766.70583
G1 Z2.400 F7800.000
G1 X104.333 Y121.379 F7800.000
G1 X104.879 Y120.833 E766.89861 F4800.000
G1 X104.879 Y119.676 E767.18786
G1 X103.176 Y121.379 E767.78971
G1 X102.019 Y121.379 E768.07896
G1 X104.879 Y118.519 E769.08987
G1 X104.879 Y117.362 E769.37912
G1 X100.862 Y121.379 E770.79909
G1 X99.705 Y121.379 E771.08834
G1 X104.879 Y116.205 E772.91738
G1 X104.879 Y115.048 E773.20663
G1 X98.548 Y121.379 E775.44472
G1 X97.391 Y121.379 E775.73397
G1 X104.879 Y113.891 E778.38113
G1 X104.879 Y112.734 E778.67038
G1 X96.234 Y121.379 E781.72660
G1 X95.121 Y121.335 E782.00510
G1 X104.879 Y111.577 E785.45487
G1 X104.879 Y110.420 E785.74412
G1 X95.121 Y120.178 E789.19389
G1 X95.121 Y119.021 E789.48314
G1 X104.879 Y109.263 E792.93291
G1 X104.879 Y108.106 E793.22216
G1 X95.121 Y117.864 E796.67193
G1 X95.121 Y116.707 E796.96118
G1 X104.879 Y106.949 E800.41095
G1 X104.879 Y105.792 E800.70020
G1 X95.121 Y115.550 E804.14998
G1 X95.121 Y114.393 E804.43923
G1 X104.879 Y104.635 E807.88900
G1 X104.879 Y103.478 E808.17825
G1 X95.121 Y113.236 E811.62802
G1 X95.121 Y112.079 E811.91727
G1 X104.879 Y102.321 E815.36704
G1 X104.879 Y101.164 E815.65629
G1 X95.121 Y110.922 E819.10606
G1 X95.121 Y109.765 E819.39531
G1 X104.879 Y100.007 E822.84509
G1 X104.879 Y98.850 E823.13434
G1 X95.121 Y108.608 E826.58411
G1 X95.121 Y107.451 E826.87336
G1 X104.879 Y97.693 E830.32313
G1 X104.879 Y96.536 E830.61238
G1 X95.121 Y106.294 E834.06215
G1 X95.121 Y105.137 E834.35140
G1 X104.879 Y95.379 E837.80117
G1 X104.879 Y94.222 E838.09042
G1 X95.121 Y103.980 E841.54019
G1 X95.121 Y102.823 E841.82944
G1 X104.879 Y93.065 E845.27921
G1 X104.879 Y91.908 E845.56846
G1 X95.121 Y101.666 E849.01824
G1 X95.121 Y100.509 E849.30749
G1 X104.879 Y90.751 E852.75726
G1 X104.879 Y89.594 E853.04651
G1 X95.121 Y99.352 E856.49628
G1 X95.121 Y98.195 E856.78553
G1 X104.879 Y88.437 E860.23530
G1 X104.879 Y87.280 E860.52455
G1 X95.121 Y97.038 E863.97432
G1 X95.121 Y95.881 E864.26357
G1 X104.879 Y86.123 E867.71334
G1 X104.879 Y84.966 E868.00259
G1 X95.121 Y94.724 E871.45237
G1 X95.121 Y93.567 E871.74162
G1 X104.879 Y83.809 E875.19139
G1 X104.879 Y82.652 E875.48064
G1 X95.121 Y92.410 E878.93041
G1 X95.121 Y91.253 E879.21966
G1 X104.879 Y81.495 E882.66943
G1 X104.879 Y80.338 E882.95868
G1 X95.121 Y90.096 E886.40845
G1 X95.121 Y88.939 E886.69770
G1 X104.879 Y79.181 E890.14747
G1 X104.282 Y78.621 E890.35211
G1 X95.121 Y87.782 E893.59085
G1 X95.121 Y86.625 E893.88010
G1 X103.125 Y78.621 E896.70978
G1 X101.968 Y78.621 E896.99903
G1 X95.121 Y85.468 E899.41964
G1 X95.121 Y84.311 E899.70889
G1 X100.811 Y78.621 E901.72045
G1 X99.654 Y78.621 E902.00970
G1 X95.121 Y83.154 E903.61219
G1 X95.121 Y81.997 E903.90145
G1 X98.497 Y78.621 E905.09488
G1 X97.340 Y78.621 E905.38413
G1 X95.121 Y80.840 E906.16850
G1 X95.121 Y79.683 E906.45775
G1 X96.183 Y78.621 E906.83306
G1 Z2.800 F7800.000
G1 X104.879 Y79.167 F7800.000
G1 X104.333 Y78.621 E907.02585 F4800.000
G1 X103.176 Y78.621 E907.31510
G1 X104.879 Y80.324 E907.91695
G1 X104.879 Y81.481 E908.20620
G1 X102.019 Y78.621 E909.21711
G1 X100.862 Y78.621 E909.50636
G1 X104.879 Y82.638 E910.92633
G1 X104.879 Y83.795 E911.21558
G1 X99.705 Y78.621 E913.04461
G1 X98.548 Y78.621 E913.33386
G1 X104.879 Y84.952 E915.57196
G1 X104.879 Y86.109 E915.86121
G1 X97.391 Y78.621 E918.50836
G1 X96.234 Y78.621 E918.79761
G1 X104.879 Y87.266 E921.85383
G1 X104.879 Y88.423 E922.14308
G1 X95.121 Y78.665 E925.59285
G1 X95.121 Y79.822 E925.88210
G1 X104.879 Y89.580 E929.33188
G1 X104.879 Y90.737 E929.62113
G1 X95.121 Y80.979 E933.07090
G1 X95.121 Y82.136 E933.36015
G1 X104.879 Y91.894 E936.80992
G1 X104.879 Y93.051 E937.09917
G1 X95.121 Y83.293 E940.54894
G1 X95.121 Y84.450 E940.83819
G1 X104.879 Y94.208 E944.28796
G1 X104.879 Y95.365 E944.57721
G1 X95.121 Y85.607 E948.02698
G1 X95.121 Y86.764 E948.31623
G1 X104.879 Y96.522 E951.76601
G1 X104.879 Y97.679 E952.05526
G1 X95.121 Y87.921 E955.50503
G1 X95.121 Y89.078 E955.79428
G1 X104.879 Y98.836 E959.24405
G1 X104.879 Y99.993 E959.53330
G1 X95.121 Y90.235 E962.98307
G1 X95.121 Y91.392 E963.27232
G1 X104.879 Y101.150 E966.72209
G1 X104.879 Y102.307 E967.01134
G1 X95.121 Y92.549 E970.46111
G1 X95.121 Y93.706 E970.75036
G1 X104.879 Y103.464 E974.20014
G1 X104.879 Y104.621 E974.48939
G1 X95.121 Y94.863 E977.93916
G1 X95.121 Y96.020 E978.22841
G1 X104.879 Y105.778 E981.67818
G1 X104.879 Y106.935 E981.96743
G1 X95.121 Y97.177 E985.41720
G1 X95.121 Y98.334 E985.70645
G1 X104.879 Y108.092 E989.15622
G1 X104.879 Y109.249 E989.44547
G1 X95.121 Y99.491 E992.89524
G1 X95.121 Y100.648 E993.18449
G1 X104.879 Y110.406 E996.63427
G1 X104.879 Y111.563 E996.92352
G1 X95.121 Y101.805 E1000.37329
G1 X95.121 Y102.962 E1000.66254
G1 X104.879 Y112.720 E1004.11231
G1 X104.879 Y113.877 E1004.40156
G1 X95.121 Y104.119 E1007.85133
G1 X95.121 Y105.276 E1008.14058
G1 X104.879 Y115.034 E1011.59035
G1 X104.879 Y116.191 E1011.87960
G1 X95.121 Y106.433 E1015.32938
G1 X95.121 Y107.590 E1015.61863
G1 X104.879 Y117.348 E1019.06840
G1 X104.879 Y118.505 E1019.35765
G1 X95.121 Y108.747 E1022.80742
G1 X95.121 Y109.904 E1023.09667
G1 X104.879 Y119.662 E1026.54644
G1 X104.879 Y120.819 E1026.83569
G1 X95.121 Y111.061 E1030.28546
G1 X95.121 Y112.218 E1030.57471
G1 X104.282 Y121.379 E1033.81345
G1 X103.125 Y121.379 E1034.10270
G1 X95.121 Y113.375 E1036.93238
G1 X95.121 Y114.532 E1037.22163
G1 X101.968 Y121.379 E1039.64225
G1 X100.811 Y121.379 E1039.93150
G1 X95.121 Y115.689 E1041.94306
G1 X95.121 Y116.846 E1042.23231
G1 X99.654 Y121.379 E1043.83480
G1 X98.497 Y121.379 E1044.12405
G1 X95.121 Y118.003 E1045.31748
G1 X95.121 Y119.160 E1045.60673
G1 X97.340 Y121.379 E1046.39111
G1 X96.183 Y121.379 E1046.68036
G1 X95.121 Y120.317 E1047.05567
G1 Z3.200 F7800.000
G1 X104.333 Y121.379 F7800.000
G1 X104.879 Y120.833 E1047.24845 F4800.000
G1 X104.879 Y119.676 E1047.53770
G1 X103.176 Y121.379 E1048.13955
G1 X102.019 Y121.379 E1048.42880
G1 X104.879 Y118.519 E1049.43971
G1 X104.879 Y117.362 E1049.72896
G1 X100.862 Y121.379 E1051.14893
G1 X99.705 Y121.379 E1051.43818
G1 X104.879 Y116.205 E1053.26722
G1 X104.879 Y115.048 E1053.55647
G1 X98.548 Y121.379 E1055.79456
G1 X97.391 Y121.379 E1056.08381
G1 X104.879 Y113.891 E1058.73097
G1 X104.879 Y112.734 E1059.02022
G1 X96.234 Y121.379 E1062.07643
G1 X95.121 Y121.335 E1062.35494
G1 X104.879 Y111.577 E1065.80471
G1 X104.879 Y110.420 E1066.09396
G1 X95.121 Y120.178 E1069.54373
G1 X95.121 Y119.021 E1069.83298
G1 X104.879 Y109.263 E1073.28275
G1 X104.879 Y108.106 E1073.57200
G1 X95.121 Y117.864 E1077.02177
G1 X95.121 Y116.707 E1077.31102
G1 X104.879 Y106.949 E1080.76079
G1 X104.879 Y105.792 E1081.05004
G1 X95.121 Y115.550 E1084.49982
G1 X95.121 Y114.393 E1084.78907
G1 X104.879 Y104.635 E1088.23884
G1 X104.879 Y103.478 E1088.52809
G1 X95.121 Y113.236 E1091.97786
G1 X95.121 Y112.079 E1092.26711
G1 X104.879 Y102.321 E1095.71688
G1 X104.879 Y101.164 E1096.00613
G1 X95.121 Y110.922 E1099.45590
G1 X95.121 Y109.765 E1099.74515
G1 X104.879 Y100.007 E1103.19492
G1 X104.879 Y98.850 E1103.48418
G1 X95.121 Y108.608 E1106.93395
G1 X95.121 Y107.451 E1107.22320
G1 X104.879 Y97.693 E1110.67297
G1 X104.879 Y96.536 E1110.96222
G1 X95.121 Y106.294 E1114.41199
G1 X95.121 Y105.137 E1114.70124
G1 X104.879 Y95.379 E1118.15101
G1 X104.879 Y94.222 E1118.44026
G1 X95.121 Y103.980 E1121.89003
G1 X95.121 Y102.823 E1122.17928
G1 X104.879 Y93.065 E1125.62905
G1 X104.879 Y91.908 E1125.91830
G1 X95.121 Y101.666 E1129.36808
G1 X95.121 Y100.509 E1129.65733
G1 X104.879 Y90.751 E1133.10710
G1 X104.879 Y89.594 E1133.39635
G1 X95.121 Y99.352 E1136.84612
G1 X95.121 Y98.195 E1137.13537
G1 X104.879 Y88.437 E1140.58514
G1 X104.879 Y87.280 E1140.87439
G1 X95.121 Y97.038 E1144.32416
G1 X95.121 Y95.881 E1144.61341
G1 X104.879 Y86.123 E1148.06318
G1 X104.879 Y84.966 E1148.35243
G1 X95.121 Y94.724 E1151.80220
G1 X95.121 Y93.567 E1152.09145
G1 X104.879 Y83.809 E1155.54123
G1 X104.879 Y82.652 E1155.83048
G1 X95.121 Y92.410 E1159.28025
G1 X95.121 Y91.253 E1159.56950
G1 X104.879 Y81.495 E1163.01927
G1 X104.879 Y80.338 E1163.30852
G1 X95.121 Y90.096 E1166.75829
G1 X95.121 Y88.939 E1167.04754
G1 X104.879 Y79.181 E1170.49731
G1 X104.282 Y78.621 E1170.70195
G1 X95.121 Y87.782 E1173.94069
G1 X95.121 Y86.625 E1174.22994
G1 X103.125 Y78.621 E1177.05962
G1 X101.968 Y78.621 E1177.34887
G1 X95.121 Y85.468 E1179.76948
G1 X95.121 Y84.311 E1180.05873
G1 X100.811 Y78.621 E1182.07029
G1 X99.654 Y78.621 E1182.35954
G1 X95.121 Y83.154 E1183.96203
G1 X95.121 Y81.997 E1184.25128
G1 X98.497 Y78.621 E1185.44472
G1 X97.340 Y78.621 E1185.73397
G1 X95.121 Y80.840 E1186.51834
G1 X95.121 Y79.683 E1186.80759
G1 X96.183 Y78.621 E1187.18290
G1 Z3.600 F7800.000
G1 X104.879 Y79.167 F7800.000
G1 X104.333 Y78.621 E1187.37569 F4800.000
G1 X103.176 Y78.621 E1187.66494
G1 X104.879 Y80.324 E1188.26679
G1 X104.879 Y81.481 E1188.55604
G1 X102.019 Y78.621 E1189.56695
G1 X100.862 Y78.621 E1189.85620
G1 X104.879 Y82.638 E1191.27617
G1 X104.879 Y83.795 E1191.56542
G1 X99.705 Y78.621 E1193.39445
G1 X98.548 Y78.621 E1193.68370
G1 X104.879 Y84.952 E1195.92180
G1 X104.879 Y86.109 E1196.21105
G1 X97.391 Y78.621 E1198.85820
G1 X96.234 Y78.621 E1199.14745
G1 X104.879 Y87.266 E1202.20367
G1 X104.879 Y88.423 E1202.49292
G1 X95.121 Y78.665 E1205.94269
G1 X95.121 Y79.822 E1206.23194
G1 X104.879 Y89.580 E1209.68172
G1 X104.879 Y90.737 E1209.97097
G1 X95.121 Y80.979 E1213.42074
G1 X95.121 Y82.136 E1213.70999
G1 X104.879 Y91.894 E1217.15976
G1 X104.879 Y93.051 E1217.44901
G1 X95.121 Y83.293 E1220.89878
G1 X95.121 Y84.450 E1221.18803
G1 X104.879 Y94.208 E1224.63780
G1 X104.879 Y95.365 E1224.92705
G1 X95.121 Y85.607 E1228.37682
G1 X95.121 Y86.764 E1228.66607
G1 X104.879 Y96.522 E1232.11585
G1 X104.879 Y97.679 E1232.40510
G1 X95.121 Y87.921 E1235.85487
G1 X95.121 Y89.078 E1236.14412
G1 X104.879 Y98.836 E1239.59389
G1 X104.879 Y99.993 E1239.88314
G1 X95.121 Y90.235 E1243.33291
G1 X95.121 Y91.392 E1243.62216
G1 X104.879 Y101.150 E1247.07193
G1 X104.879 Y102.307 E1247.36118
G1 X95.121 Y92.549 E1250.81095
G1 X95.121 Y93.706 E1251.10020
G1 X104.879 Y103.464 E1254.54998
G1 X104.879 Y104.621 E1254.83923
G1 X95.121 Y94.863 E1258.28900
G1 X95.121 Y96.020 E1258.57825
G1 X104.879 Y105.778 E1262.02802
G1 X104.879 Y106.935 E1262.31727
G1 X95.121 Y97.177 E1265.76704
G1 X95.121 Y98.334 E1266.05629
G1 X104.879 Y108.092 E1269.50606
G1 X104.879 Y109.249 E1269.79531
G1 X95.121 Y99.491 E1273.24508
G1 X95.121 Y100.648 E1273.53433
G1 X104.879 Y110.406 E1276.98411
G1 X104.879 Y111.563 E1277.27336
G1 X95.121 Y101.805 E1280.72313
G1 X95.121 Y102.962 E1281.01238
G1 X104.879 Y112.720 E1284.46215
G1 X104.879 Y113.877 E1284.75140
G1 X95.121 Y104.119 E1288.20117
G1 X95.121 Y105.276 E1288.49042
G1 X104.879 Y115.034 E1291.94019
G1 X104.879 Y116.191 E1292.22944
G1 X95.121 Y106.433 E1295.67921
G1 X95.121 Y107.590 E1295.96846
G1 X104.879 Y117.348 E1299.41824
G1 X104.879 Y118.505 E1299.70749
G1 X95.121 Y108.747 E1303.15726
G1 X95.121 Y109.904 E1303.44651
G1 X104.879 Y119.662 E1306.89628
G1 X104.879 Y120.819 E1307.18553
G1 X95.121 Y111.061 E1310.63530
G1 X95.121 Y112.218 E1310.92455
G1 X104.282 Y121.379 E1314.16329
G1 X103.125 Y121.379 E1314.45254
G1 X95.121 Y113.375 E1317.28222
G1 X95.121 Y114.532 E1317.57147
G1 X101.968 Y121.379 E1319.99209
G1 X100.811 Y121.379 E1320.28134
G1 X95.121 Y115.689 E1322.29290
G1 X95.121 Y116.846 E1322.58215
G1 X99.654 Y121.379 E1324.18464
G1 X98.497 Y121.379 E1324.47389
G1 X95.121 Y118.003 E1325.66732
G1 X95.121 Y119.160 E1325.95657
G1 X97.340 Y121.379 E1326.74095
G1 X96.183 Y121.379 E1327.03020
G1 X95.121 Y120.317 E1327.40551
G1 Z4.000 F7800.000
G1 X104.333 Y121.379 F7800.000
G1 X104.879 Y120.833 E1327.59829 F4800.000
G1 X104.879 Y119.676 E1327.88754
G1 X103.176 Y121.379 E1328.48939
G1 X102.019 Y121.379 E1328.77864
G1 X104.879 Y118.519 E1329.78955
G1 X104.879 Y117.362 E1330.07880
G1 X100.862 Y121.379 E1331.49877
G1 X99.705 Y121.379 E1331.78802
G1 X104.879 Y116.205 E1333.61706
G1 X104.879 Y115.048 E1333.90631
G1 X98.548 Y121.379 E1336.14440
G1 X97.391 Y121.379 E1336.43365
G1 X104.879 Y113.891 E1339.08081
G1 X104.879 Y112.734 E1339.37006
G1 X96.234 Y121.379 E1342.42627
G1 X95.121 Y121.335 E1342.70478
G1 X104.879 Y111.577 E1346.15455
G1 X104.879 Y110.420 E1346.44380
G1 X95.121 Y120.178 E1349.89357
G1 X95.121 Y119.021 E1350.18282
G1 X104.879 Y109.263 E1353.63259
G1 X104.879 Y108.106 E1353.92184
G1 X95.121 Y117.864 E1357.37161
G1 X95.121 Y116.707 E1357.66086
G1 X104.879 Y106.949 E1361.11063
G1 X104.879 Y105.792 E1361.39988
G1 X95.121 Y115.550 E1364.84966
G1 X95.121 Y114.393 E1365.13891
G1 X104.879 Y104.635 E1368.58868
G1 X104.879 Y103.478 E1368.87793
G1 X95.121 Y113.236 E1372.32770
G1 X95.121 Y112.079 E1372.61695
G1 X104.879 Y102.321 E1376.06672
G1 X104.879 Y101.164 E1376.35597
G1 X95.121 Y110.922 E1379.80574
G1 X95.121 Y109.765 E1380.09499
G1 X104.879 Y100.007 E1383.54476
G1 X104.879 Y98.850 E1383.83401
G1 X95.121 Y108.608 E1387.28379
G1 X95.121 Y107.451 E1387.57304
G1 X104.879 Y97.693 E1391.02281
G1 X104.879 Y96.536 E1391.31206
G1 X95.121 Y106.294 E1394.76183
G1 X95.121 Y105.137 E1395.05108
G1 X104.879 Y95.379 E1398.50085
G1 X104.879 Y94.222 E1398.79010
G1 X95.121 Y103.980 E1402.23987
G1 X95.121 Y102.823 E1402.52912
G1 X104.879 Y93.065 E1405.97889
G1 X104.879 Y91.908 E1406.26814
G1 X95.121 Y101.666 E1409.71792
G1 X95.121 Y100.509 E1410.00717
G1 X104.879 Y90.751 E1413.45694
G1 X104.879 Y89.594 E1413.74619
G1 X95.121 Y99.352 E1417.19596
G1 X95.121 Y98.195 E1417.48521
G1 X104.879 Y88.437 E1420.93498
G1 X104.879 Y87.280 E1421.22423
G1 X95.121 Y97.038 E1424.67400
G1 X95.121 Y95.881 E1424.96325
G1 X104.879 Y86.123 E1428.41302
G1 X104.879 Y84.966 E1428.70227
G1 X95.121 Y94.724 E1432.15204
G1 X95.121 Y93.567 E1432.44129
G1 X104.879 Y83.809 E1435.89107
G1 X104.879 Y82.652 E1436.18032
G1 X95.121 Y92.410 E1439.63009
G1 X95.121 Y91.253 E1439.91934
G1 X104.879 Y81.495 E1443.36911
G1 X104.879 Y80.338 E1443.65836
G1 X95.121 Y90.096 E1447.10813
G1 X95.121 Y88.939 E1447.39738
G1 X104.879 Y79.181 E1450.84715
G1 X104.282 Y78.621 E1451.05179
G1 X95.121 Y87.782 E1454.29053
G1 X95.121 Y86.625 E1454.57978
G1 X103.125 Y78.621 E1457.40946
G1 X101.968 Y78.621 E1457.69871
G1 X95.121 Y85.468 E1460.11932
G1 X95.121 Y84.311 E1460.40857
G1 X100.811 Y78.621 E1462.42013
G1 X99.654 Y78.621 E1462.70938
G1 X95.121 Y83.154 E1464.31187
G1 X95.121 Y81.997 E1464.60112
G1 X98.497 Y78.621 E1465.79456
G1 X97.340 Y78.621 E1466.08381
G1 X95.121 Y80.840 E1466.86818
G1 X95.121 Y79.683 E1467.15743
G1 X96.183 Y78.621 E1467.53274
G1 Z4.400 F7800.000
G1 X104.879 Y79.167 F7800.000
G1 X104.333 Y78.621 E1467.72553 F4800.000
G1 X103.176 Y78.621 E1468.01478
G1 X104.879 Y80.324 E1468.61663
G1 X104.879 Y81.481 E1468.90588
G1 X102.019 Y78.621 E1469.91679
G1 X100.862 Y78.621 E1470.20604
G1 X104.879 Y82.638 E1471.62601
G1 X104.879 Y83.795 E1471.91526
G1 X99.705 Y78.621 E1473.74429
G1 X98.548 Y78.621 E1474.03354
G1 X104.879 Y84.952 E1476.27164
G1 X104.879 Y86.109 E1476.56089
G1 X97.391 Y78.621 E1479.20804
G1 X96.234 Y78.621 E1479.49729
G1 X104.879 Y87.266 E1482.55351
G1 X104.879 Y88.423 E1482.84276
G1 X95.121 Y78.665 E1486.29253
G1 X95.121 Y79.822 E1486.58178
G1 X104.879 Y89.580 E1490.03155
G1 X104.879 Y90.737 E1490.32080
G1 X95.121 Y80.979 E1493.77058
G1 X95.121 Y82.136 E1494.05983
G1 X104.879 Y91.894 E1497.50960
G1 X104.879 Y93.051 E1497.79885
G1 X95.121 Y83.293 E1501.24862
G1 X95.121 Y84.450 E1501.53787
G1 X104.879 Y94.208 E1504.98764
G1 X104.879 Y95.365 E1505.27689
G1 X95.121 Y85.607 E1508.72666
G1 X95.121 Y86.764 E1509.01591
G1 X104.879 Y96.522 E1512.46568
G1 X104.879 Y97.679 E1512.75493
G1 X95.121 Y87.921 E1516.20471
G1 X95.121 Y89.078 E1516.49396
G1 X104.879 Y98.836 E1519.94373
G1 X104.879 Y99.993 E1520.23298
G1 X95.121 Y90.235 E1523.68275
G1 X95.121 Y91.392 E1523.97200
G1 X104.879 Y101.150 E1527.42177
G1 X104.879 Y102.307 E1527.71102
G1 X95.121 Y92.549 E1531.16079
G1 X95.121 Y93.706 E1531.45004
G1 X104.879 Y103.464 E1534.89982
G1 X104.879 Y104.621 E1535.18907
G1 X95.121 Y94.863 E1538.63884
G1 X95.121 Y96.020 E1538.92809
G1 X104.879 Y105.778 E1542.37786
G1 X104.879 Y106.935 E1542.66711
G1 X95.121 Y97.177 E1546.11688
G1 X95.121 Y98.334 E1546.40613
G1 X104.879 Y108.092 E1549.85590
G1 X104.879 Y109.249 E1550.14515
G1 X95.121 Y99.491 E1553.59492
G1 X95.121 Y100.648 E1553.88417
G1 X104.879 Y110.406 E1557.33395
G1 X104.879 Y111.563 E1557.62320
G1 X95.121 Y101.805 E1561.07297
G1 X95.121 Y102.962 E1561.36222
G1 X104.879 Y112.720 E1564.81199
G1 X104.879 Y113.877 E1565.10124
G1 X95.121 Y104.119 E1568.55101
G1 X95.121 Y105.276 E1568.84026
G1 X104.879 Y115.034 E1572.29003
G1 X104.879 Y116.191 E1572.57928
G1 X95.121 Y106.433 E1576.02905
G1 X95.121 Y107.590 E1576.31830
G1 X104.879 Y117.348 E1579.76808
G1 X104.879 Y118.505 E1580.05733
G1 X95.121 Y108.747 E1583.50710
G1 X95.121 Y109.904 E1583.79635
G1 X104.879 Y119.662 E1587.24612
G1 X104.879 Y120.819 E1587.53537
G1 X95.121 Y111.061 E1590.98514
G1 X95.121 Y112.218 E1591.27439
G1 X104.282 Y121.379 E1594.51313
G1 X103.125 Y121.379 E1594.80238
G1 X95.121 Y113.375 E1597.63206
G1 X95.121 Y114.532 E1597.92131
G1 X101.968 Y121.379 E1600.34193
G1 X100.811 Y121.379 E1600.63118
G1 X95.121 Y115.689 E1602.64274
G1 X95.121 Y116.846 E1602.93199
G1 X99.654 Y121.379 E1604.53448
G1 X98.497 Y121.379 E1604.82373
G1 X95.121 Y118.003 E1606.01716
G1 X95.121 Y119.160 E1606.30641
G1 X97.340 Y121.379 E1607.09079
G1 X96.183 Y121.379 E1607.38004
G1 X95.121 Y120.317 E1607.75535
G1 Z4.800 F7800.000
G1 X104.333 Y121.379 F7800.000
G1 X104.879 Y120.833 E1607.94813 F4800.000
G1 X104.879 Y119.676 E1608.23738
G1 X103.176 Y121.379 E1608.83923
G1 X102.019 Y121.379 E1609.12848
G1 X104.879 Y118.519 E1610.13939
G1 X104.879 Y117.362 E1610.42864
G1 X100.862 Y121.379 E1611.84861
G1 X99.705 Y121.379 E1612.13786
G1 X104.879 Y116.205 E1613.96690
G1 X104.879 Y115.048 E1614.25615
G1 X98.548 Y121.379 E1616.49424
G1 X97.391 Y121.379 E1616.78349
G1 X104.879 Y113.891 E1619.43065
G1 X104.879 Y112.734 E1619.71990
G1 X96.234 Y121.379 E1622.77611
G1 X95.121 Y121.335 E1623.05461
G1 X104.879 Y111.577 E1626.50439
G1 X104.879 Y110.420 E1626.79364
G1 X95.121 Y120.178 E1630.24341
G1 X95.121 Y119.021 E1630.53266
G1 X104.879 Y109.263 E1633.98243
G1 X104.879 Y108.106 E1634.27168
G1 X95.121 Y117.864 E1637.72145
G1 X95.121 Y116.707 E1638.01070
G1 X104.879 Y106.949 E1641.46047
G1 X104.879 Y105.792 E1641.74972
G1 X95.121 Y115.550 E1645.19950
G1 X95.121 Y114.393 E1645.48875
G1 X104.879 Y104.635 E1648.93852
G1 X104.879 Y103.478 E1649.22777
G1 X95.121 Y113.236 E1652.67754
G1 X95.121 Y112.079 E1652.96679
G1 X104.879 Y102.321 E1656.41656
G1 X104.879 Y101.164 E1656.70581
G1 X95.121 Y110.922 E1660.15558
G1 X95.121 Y109.765 E1660.44483
G1 X104.879 Y100.007 E1663.89460
G1 X104.879 Y98.850 E1664.18385
G1 X95.121 Y108.608 E1667.63363
G1 X95.121 Y107.451 E1667.92288
G1 X104.879 Y97.693 E1671.37265
G1 X104.879 Y96.536 E1671.66190
G1 X95.121 Y106.294 E1675.11167
G1 X95.121 Y105.137 E1675.40092
G1 X104.879 Y95.379 E1678.85069
G1 X104.879 Y94.222 E1679.13994
G1 X95.121 Y103.980 E1682.58971
G1 X95.121 Y102.823 E1682.87896
G1 X104.879 Y93.065 E1686.32873
G1 X104.879 Y91.908 E1686.61798
G1 X95.121 Y101.666 E1690.06775
G1 X95.121 Y100.509 E1690.35700
G1 X104.879 Y90.751 E1693.80678
G1 X104.879 Y89.594 E1694.09603
G1 X95.121 Y99.352 E1697.54580
G1 X95.121 Y98.195 E1697.83505
G1 X104.879 Y88.437 E1701.28482
G1 X104.879 Y87.280 E1701.57407
G1 X95.121 Y97.038 E1705.02384
G1 X95.121 Y95.881 E1705.31309
G1 X104.879 Y86.123 E1708.76286
G1 X104.879 Y84.966 E1709.05211
G1 X95.121 Y94.724 E1712.50188
G1 X95.121 Y93.567 E1712.79113
G1 X104.879 Y83.809 E1716.24091
G1 X104.879 Y82.652 E1716.53016
G1 X95.121 Y92.410 E1719.97993
G1 X95.121 Y91.253 E1720.26918
G1 X104.879 Y81.495 E1723.71895
G1 X104.879 Y80.338 E1724.00820
G1 X95.121 Y90.096 E1727.45797
G1 X95.121 Y88.939 E1727.74722
G1 X104.879 Y79.181 E1731.19699
G1 X104.282 Y78.621 E1731.40162
G1 X95.121 Y87.782 E1734.64037
G1 X95.121 Y86.625 E1734.92962
G1 X103.125 Y78.621 E1737.75929
G1 X101.968 Y78.621 E1738.04854
G1 X95.121 Y85.468 E1740.46916
G1 X95.121 Y84.311 E1740.75841
G1 X100.811 Y78.621 E1742.76997
G1 X99.654 Y78.621 E1743.05922
G1 X95.121 Y83.154 E1744.66171
G1 X95.121 Y81.997 E1744.95096
G1 X98.497 Y78.621 E1746.14440
G1 X97.340 Y78.621 E1746.43365
G1 X95.121 Y80.840 E1747.21802
G1 X95.121 Y79.683 E1747.50727
G1 X96.183 Y78.621 E1747.88258
G1 Z5.200 F7800.000
G1 X104.879 Y79.167 F7800.000
G1 X104.333 Y78.621 E1748.07537 F4800.000
G1 X103.176 Y78.621 E1748.36462
G1 X104.879 Y80.324 E1748.96647
G1 X104.879 Y81.481 E1749.25572
G1 X102.019 Y78.621 E1750.26663
G1 X100.862 Y78.621 E1750.55588
G1 X104.879 Y82.638 E1751.97585
G1 X104.879 Y83.795 E1752.26510
G1 X99.705 Y78.621 E1754.09413
G1 X98.548 Y78.621 E1754.38338
G1 X104.879 Y84.952 E1756.62148
G1 X104.879 Y86.109 E1756.91073
G1 X97.391 Y78.621 E1759.55788
G1 X96.234 Y78.621 E1759.84713
G1 X104.879 Y87.266 E1762.90335
G1 X104.879 Y88.423 E1763.19260
G1 X95.121 Y78.665 E1766.64237
G1 X95.121 Y79.822 E1766.93162
G1 X104.879 Y89.580 E1770.38139
G1 X104.879 Y90.737 E1770.67064
G1 X95.121 Y80.979 E1774.12042
G1 X95.121 Y82.136 E1774.40967
G1 X104.879 Y91.894 E1777.85944
G1 X104.879 Y93.051 E1778.14869
G1 X95.121 Y83.293 E1781.59846
G1 X95.121 Y84.450 E1781.88771
G1 X104.879 Y94.208 E1785.33748
G1 X104.879 Y95.365 E1785.62673
G1 X95.121 Y85.607 E1789.07650
G1 X95.121 Y86.764 E1789.36575
G1 X104.879 Y96.522 E1792.81552
G1 X104.879 Y97.679 E1793.10477
G1 X95.121 Y87.921 E1796.55455
G1 X95.121 Y89.078 E1796.84380
G1 X104.879 Y98.836 E1800.29357
G1 X104.879 Y99.993 E1800.58282
G1 X95.121 Y90.235 E1804.03259
G1 X95.121 Y91.392 E1804.32184
G1 X104.879 Y101.150 E1807.77161
G1 X104.879 Y102.307 E1808.06086
G1 X95.121 Y92.549 E1811.51063
G1 X95.121 Y93.706 E1811.79988
G1 X104.879 Y103.464 E1815.24965
G1 X104.879 Y104.621 E1815.53890
G1 X95.121 Y94.863 E1818.98868
G1 X95.121 Y96.020 E1819.27793
G1 X104.879 Y105.778 E1822.72770
G1 X104.879 Y106.935 E1823.01695
G1 X95.121 Y97.177 E1826.46672
G1 X95.121 Y98.334 E1826.75597
G1 X104.879 Y108.092 E1830.20574
G1 X104.879 Y109.249 E1830.49499
G1 X95.121 Y99.491 E1833.94476
G1 X95.121 Y100.648 E1834.23401
G1 X104.879 Y110.406 E1837.68378
G1 X104.879 Y111.563 E1837.97303
G1 X95.121 Y101.805 E1841.42281
G1 X95.121 Y102.962 E1841.71206
G1 X104.879 Y112.720 E1845.16183
G1 X104.879 Y113.877 E1845.45108
G1 X95.121 Y104.119 E1848.90085
G1 X95.121 Y105.276 E1849.19010
G1 X104.879 Y115.034 E1852.63987
G1 X104.879 Y116.191 E1852.92912
G1 X95.121 Y106.433 E1856.37889
G1 X95.121 Y107.590 E1856.66814
G1 X104.879 Y117.348 E1860.11792
G1 X104.879 Y118.505 E1860.40717
G1 X95.121 Y108.747 E1863.85694
G1 X95.121 Y109.904 E1864.14619
G1 X104.879 Y119.662 E1867.59596
G1 X104.879 Y120.819 E1867.88521
G1 X95.121 Y111.061 E1871.33498
G1 X95.121 Y112.218 E1871.62423
G1 X104.282 Y121.379 E1874.86297
G1 X103.125 Y121.379 E1875.15222
G1 X95.121 Y113.375 E1877.98190
G1 X95.121 Y114.532 E1878.27115
G1 X101.968 Y121.379 E1880.69177
G1 X100.811 Y121.379 E1880.98102
G1 X95.121 Y115.689 E1882.99258
G1 X95.121 Y116.846 E1883.28183
G1 X99.654 Y121.379 E1884.88432
G1 X98.497 Y121.379 E1885.17357
G1 X95.121 Y118.003 E1886.36700
G1 X95.121 Y119.160 E1886.65625
G1 X97.340 Y121.379 E1887.44062
G1 X96.183 Y121.379 E1887.72987
G1 X95.121 Y120.317 E1888.10518
G1 Z5.600 F7800.000
G1 X104.333 Y121.379 F7800.000
G1 X104.879 Y120.833 E1888.29797 F4800.000
G1 X104.879 Y119.676 E1888.58722
G1 X103.176 Y121.379 E1889.18907
G1 X102.019 Y121.379 E1889.47832
G1 X104.879 Y118.519 E1890.48923
G1 X104.879 Y117.362 E1890.77848
G1 X100.862 Y121.379 E1892.19845
G1 X99.705 Y121.379 E1892.48770
G1 X104.879 Y116.205 E1894.31674
G1 X104.879 Y115.048 E1894.60599
G1 X98.548 Y121.379 E1896.84408
G1 X97.391 Y121.379 E1897.13333
G1 X104.879 Y113.891 E1899.78049
G1 X104.879 Y112.734 E1900.06974
G1 X96.234 Y121.379 E1903.12595
G1 X95.121 Y121.335 E1903.40445
G1 X104.879 Y111.577 E1906.85423
G1 X104.879 Y110.420 E1907.14348
G1 X95.121 Y120.178 E1910.59325
G1 X95.121 Y119.021 E1910.88250
G1 X104.879 Y109.263 E1914.33227
G1 X104.879 Y108.106 E1914.62152
G1 X95.121 Y117.864 E1918.07129
G1 X95.121 Y116.707 E1918.36054
G1 X104.879 Y106.949 E1921.81031
G1 X104.879 Y105.792 E1922.09956
G1 X95.121 Y115.550 E1925.54933
G1 X95.121 Y114.393 E1925.83859
G1 X104.879 Y104.635 E1929.28836
G1 X104.879 Y103.478 E1929.57761
G1 X95.121 Y113.236 E1933.02738
G1 X95.121 Y112.079 E1933.31663
G1 X104.879 Y102.321 E1936.76640
G1 X104.879 Y101.164 E1937.05565
G1 X95.121 Y110.922 E1940.50542
G1 X95.121 Y109.765 E1940.79467
G1 X104.879 Y100.007 E1944.24444
G1 X104.879 Y98.850 E1944.53369
G1 X95.121 Y108.608 E1947.98347
G1 X95.121 Y107.451 E1948.27272
G1 X104.879 Y97.693 E1951.72249
G1 X104.879 Y96.536 E1952.01174
G1 X95.121 Y106.294 E1955.46151
G1 X95.121 Y105.137 E1955.75076
G1 X104.879 Y95.379 E1959.20053
G1 X104.879 Y94.222 E1959.48978
G1 X95.121 Y103.980 E1962.93955
G1 X95.121 Y102.823 E1963.22880
G1 X104.879 Y93.065 E1966.67857
G1 X104.879 Y91.908 E1966.96782
G1 X95.121 Y101.666 E1970.41759
G1 X95.121 Y100.509 E1970.70684
G1 X104.879 Y90.751 E1974.15662
G1 X104.879 Y89.594 E1974.44587
G1 X95.121 Y99.352 E1977.89564
G1 X95.121 Y98.195 E1978.18489
G1 X104.879 Y88.437 E1981.63466
G1 X104.879 Y87.280 E1981.92391
G1 X95.121 Y97.038 E1985.37368
G1 X95.121 Y95.881 E1985.66293
G1 X104.879 Y86.123 E1989.11270
G1 X104.879 Y84.966 E1989.40195
G1 X95.121 Y94.724 E1992.85172
G1 X95.121 Y93.567 E1993.14097
G1 X104.879 Y83.809 E1996.59074
G1 X104.879 Y82.652 E1996.87999
G1 X95.121 Y92.410 E2000.32977
G1 X95.121 Y91.253 E2000.61902
G1 X104.879 Y81.495 E2004.06879
G1 X104.879 Y80.338 E2004.35804
G1 X95.121 Y90.096 E2007.80781
G1 X95.121 Y88.939 E2008.09706
G1 X104.879 Y79.181 E2011.54683
G1 X104.282 Y78.621 E2011.75146
G1 X95.121 Y87.782 E2014.99021
G1 X95.121 Y86.625 E2015.27946
G1 X103.125 Y78.621 E2018.10913
G1 X101.968 Y78.621 E2018.39838
G1 X95.121 Y85.468 E2020.81900
G1 X95.121 Y84.311 E2021.10825
G1 X100.811 Y78.621 E2023.11981
G1 X99.654 Y78.621 E2023.40906
G1 X95.121 Y83.154 E2025.01155
G1 X95.121 Y81.997 E2025.30080
G1 X98.497 Y78.621 E2026.49424
G1 X97.340 Y78.621 E2026.78349
G1 X95.121 Y80.840 E2027.56786
G1 X95.121 Y79.683 E2027.85711
G1 X96.183 Y78.621 E2028.23242
G1 Z6.000 F7800.000
G1 X104.879 Y79.167 F7800.000
G1 X104.333 Y78.621 E2028.42521 F4800.000
G1 X103.176 Y78.621 E2028.71446
G1 X104.879 Y80.324 E2029.31631
G1 X104.879 Y81.481 E2029.60556
G1 X102.019 Y78.621 E2030.61647
G1 X100.862 Y78.621 E2030.90572
G1 X104.879 Y82.638 E2032.32569
G1 X104.879 Y83.795 E2032.61494
G1 X99.705 Y78.621 E2034.44397
G1 X98.548 Y78.621 E2034.73322
G1 X104.879 Y84.952 E2036.97132
G1 X104.879 Y86.109 E2037.26057
G1 X97.391 Y78.621 E2039.90772
G1 X96.234 Y78.621 E2040.19697
G1 X104.879 Y87.266 E2043.25319
G1 X104.879 Y88.423 E2043.54244
G1 X95.121 Y78.665 E2046.99221
G1 X95.121 Y79.822 E2047.28146
G1 X104.879 Y89.580 E2050.73123
G1 X104.879 Y90.737 E2051.02048
G1 X95.121 Y80.979 E2054.47026
G1 X95.121 Y82.136 E2054.75951
G1 X104.879 Y91.894 E2058.20928
G1 X104.879 Y93.051 E2058.49853
G1 X95.121 Y83.293 E2061.94830
G1 X95.121 Y84.450 E2062.23755
G1 X104.879 Y94.208 E2065.68732
G1 X104.879 Y95.365 E2065.97657
G1 X95.121 Y85.607 E2069.42634
G1 X95.121 Y86.764 E2069.71559
G1 X104.879 Y96.522 E2073.16536
G1 X104.879 Y97.679 E2073.45461
G1 X95.121 Y87.921 E2076.90439
G1 X95.121 Y89.078 E2077.19364
G1 X104.879 Y98.836 E2080.64341
G1 X104.879 Y99.993 E2080.93266
G1 X95.121 Y90.235 E2084.38243
G1 X95.121 Y91.392 E2084.67168
G1 X104.879 Y101.150 E2088.12145
G1 X104.879 Y102.307 E2088.41070
G1 X95.121 Y92.549 E2091.86047
G1 X95.121 Y93.706 E2092.14972
G1 X104.879 Y103.464 E2095.59949
G1 X104.879 Y104.621 E2095.88874
G1 X95.121 Y94.863 E2099.33852
G1 X95.121 Y96.020 E2099.62777
G1 X104.879 Y105.778 E2103.07754
G1 X104.879 Y106.935 E2103.36679
G1 X95.121 Y97.177 E2106.81656
G1 X95.121 Y98.334 E2107.10581
G1 X104.879 Y108.092 E2110.55558
G1 X104.879 Y109.249 E2110.84483
G1 X95.121 Y99.491 E2114.29460
G1 X95.121 Y100.648 E2114.58385
G1 X104.879 Y110.406 E2118.03362
G1 X104.879 Y111.563 E2118.32287
G1 X95.121 Y101.805 E2121.77265
G1 X95.121 Y102.962 E2122.06190
G1 X104.879 Y112.720 E2125.51167
G1 X104.879 Y113.877 E2125.80092
G1 X95.121 Y104.119 E2129.25069
G1 X95.121 Y105.276 E2129.53994
G1 X104.879 Y115.034 E2132.98971
G1 X104.879 Y116.191 E2133.27896
G1 X95.121 Y106.433 E2136.72873
G1 X95.121 Y107.590 E2137.01798
G1 X104.879 Y117.348 E2140.46775
G1 X104.879 Y118.505 E2140.75701
G1 X95.121 Y108.747 E2144.20678
G1 X95.121 Y109.904 E2144.49603
G1 X104.879 Y119.662 E2147.94580
G1 X104.879 Y120.819 E2148.23505
G1 X95.121 Y111.061 E2151.68482
G1 X95.121 Y112.218 E2151.97407
G1 X104.282 Y121.379 E2155.21281
G1 X103.125 Y121.379 E2155.50206
G1 X95.121 Y113.375 E2158.33174
G1 X95.121 Y114.532 E2158.62099
G1 X101.968 Y121.379 E2161.04161
G1 X100.811 Y121.379 E2161.33086
G1 X95.121 Y115.689 E2163.34242
G1 X95.121 Y116.846 E2163.63167
G1 X99.654 Y121.379 E2165.23416
G1 X98.497 Y121.379 E2165.52341
G1 X95.121 Y118.003 E2166.71684
G1 X95.121 Y119.160 E2167.00609
G1 X97.340 Y121.379 E2167.79046
G1 X96.183 Y121.379 E2168.07971
G1 X95.121 Y120.317 E2168.45502
G1 Z6.400 F7800.000
G1 X104.333 Y121.379 F7800.000
G1 X104.879 Y120.833 E2168.64781 F4800.000
G1 X104.879 Y119.676 E2168.93706
G1 X103.176 Y121.379 E2169.53891
G1 X102.019 Y121.379 E2169.82816
G1 X104.879 Y118.519 E2170.83907
G1 X104.879 Y117.362 E2171.12832
G1 X100.862 Y121.379 E2172.54829
G1 X99.705 Y121.379 E2172.83754
G1 X104.879 Y116.205 E2174.66657
G1 X104.879 Y115.048 E2174.95582
G1 X98.548 Y121.379 E2177.19392
G1 X97.391 Y121.379 E2177.48317
G1 X104.879 Y113.891 E2180.13033
G1 X104.879 Y112.734 E2180.41958
G1 X96.234 Y121.379 E2183.47579
G1 X95.121 Y121.335 E2183.75429
G1 X104.879 Y111.577 E2187.20407
G1 X104.879 Y110.420 E2187.49332
G1 X95.121 Y120.178 E2190.94309
G1 X95.121 Y119.021 E2191.23234
G1 X104.879 Y109.263 E2194.68211
G1 X104.879 Y108.106 E2194.97136
G1 X95.121 Y117.864 E2198.42113
G1 X95.121 Y116.707 E2198.71038
G1 X104.879 Y106.949 E2202.16015
G1 X104.879 Y105.792 E2202.44940
G1 X95.121 Y115.550 E2205.89917
G1 X95.121 Y114.393 E2206.18842
G1 X104.879 Y104.635 E2209.63820
G1 X104.879 Y103.478 E2209.92745
G1 X95.121 Y113.236 E2213.37722
G1 X95.121 Y112.079 E2213.66647
G1 X104.879 Y102.321 E2217.11624
G1 X104.879 Y101.164 E2217.40549
G1 X95.121 Y110.922 E2220.85526
G1 X95.121 Y109.765 E2221.14451
G1 X104.879 Y100.007 E2224.59428
G1 X104.879 Y98.850 E2224.88353
G1 X95.121 Y108.608 E2228.33330
G1 X95.121 Y107.451 E2228.62256
G1 X104.879 Y97.693 E2232.07233
G1 X104.879 Y96.536 E2232.36158
G1 X95.121 Y106.294 E2235.81135
G1 X95.121 Y105.137 E2236.10060
G1 X104.879 Y95.379 E2239.55037
G1 X104.879 Y94.222 E2239.83962
G1 X95.121 Y103.980 E2243.28939
G1 X95.121 Y102.823 E2243.57864
G1 X104.879 Y93.065 E2247.02841
G1 X104.879 Y91.908 E2247.31766
G1 X95.121 Y101.666 E2250.76743
G1 X95.121 Y100.509 E2251.05668
G1 X104.879 Y90.751 E2254.50646
G1 X104.879 Y89.594 E2254.79571
G1 X95.121 Y99.352 E2258.24548
G1 X95.121 Y98.195 E2258.53473
G1 X104.879 Y88.437 E2261.98450
G1 X104.879 Y87.280 E2262.27375
G1 X95.121 Y97.038 E2265.72352
G1 X95.121 Y95.881 E2266.01277
G1 X104.879 Y86.123 E2269.46254
G1 X104.879 Y84.966 E2269.75179
G1 X95.121 Y94.724 E2273.20156
G1 X95.121 Y93.567 E2273.49081
G1 X104.879 Y83.809 E2276.94058
G1 X104.879 Y82.652 E2277.22983
G1 X95.121 Y92.410 E2280.67961
G1 X95.121 Y91.253 E2280.96886
G1 X104.879 Y81.495 E2284.41863
G1 X104.879 Y80.338 E2284.70788
G1 X95.121 Y90.096 E2288.15765
G1 X95.121 Y88.939 E2288.44690
G1 X104.879 Y79.181 E2291.89667
G1 X104.282 Y78.621 E2292.10130
G1 X95.121 Y87.782 E2295.34004
G1 X95.121 Y86.625 E2295.62929
G1 X103.125 Y78.621 E2298.45897
G1 X101.968 Y78.621 E2298.74822
G1 X95.121 Y85.468 E2301.16884
G1 X95.121 Y84.311 E2301.45809
G1 X100.811 Y78.621 E2303.46965
G1 X99.654 Y78.621 E2303.75890
G1 X95.121 Y83.154 E2305.36139
G1 X95.121 Y81.997 E2305.65064
G1 X98.497 Y78.621 E2306.84408
G1 X97.340 Y78.621 E2307.13333
G1 X95.121 Y80.840 E2307.91770
G1 X95.121 Y79.683 E2308.20695
G1 X96.183 Y78.621 E2308.58226
G1 Z6.800 F7800.000
G1 X104.879 Y79.167 F7800.000
G1 X104.333 Y78.621 E2308.77505 F4800.000
G1 X103.176 Y78.621 E2309.06430
G1 X104.879 Y80.324 E2309.66614
G1 X104.879 Y81.481 E2309.95539
G1 X102.019 Y78.621 E2310.96630
G1 X100.862 Y78.621 E2311.25556
G1 X104.879 Y82.638 E2312.67553
G1 X104.879 Y83.795 E2312.96478
G1 X99.705 Y78.621 E2314.79381
G1 X98.548 Y78.621 E2315.08306
G1 X104.879 Y84.952 E2317.32116
G1 X104.879 Y86.109 E2317.61041
G1 X97.391 Y78.621 E2320.25756
G1 X96.234 Y78.621 E2320.54681
G1 X104.879 Y87.266 E2323.60303
G1 X104.879 Y88.423 E2323.89228
G1 X95.121 Y78.665 E2327.34205
G1 X95.121 Y79.822 E2327.63130
G1 X104.879 Y89.580 E2331.08107
G1 X104.879 Y90.737 E2331.37032
G1 X95.121 Y80.979 E2334.82009
G1 X95.121 Y82.136 E2335.10935
G1 X104.879 Y91.894 E2338.55912
G1 X104.879 Y93.051 E2338.84837
G1 X95.121 Y83.293 E2342.29814
G1 X95.121 Y84.450 E2342.58739
G1 X104.879 Y94.208 E2346.03716
G1 X104.879 Y95.365 E2346.32641
G1 X95.121 Y85.607 E2349.77618
G1 X95.121 Y86.764 E2350.06543
G1 X104.879 Y96.522 E2353.51520
G1 X104.879 Y97.679 E2353.80445
G1 X95.121 Y87.921 E2357.25422
G1 X95.121 Y89.078 E2357.54348
G1 X104.879 Y98.836 E2360.99325
G1 X104.879 Y99.993 E2361.28250
G1 X95.121 Y90.235 E2364.73227
G1 X95.121 Y91.392 E2365.02152
G1 X104.879 Y101.150 E2368.47129
G1 X104.879 Y102.307 E2368.76054
G1 X95.121 Y92.549 E2372.21031
G1 X95.121 Y93.706 E2372.49956
G1 X104.879 Y103.464 E2375.94933
G1 X104.879 Y104.621 E2376.23858
G1 X95.121 Y94.863 E2379.68836
G1 X95.121 Y96.020 E2379.97761
G1 X104.879 Y105.778 E2383.42738
G1 X104.879 Y106.935 E2383.71663
G1 X95.121 Y97.177 E2387.16640
G1 X95.121 Y98.334 E2387.45565
G1 X104.879 Y108.092 E2390.90542
G1 X104.879 Y109.249 E2391.19467
G1 X95.121 Y99.491 E2394.64444
G1 X95.121 Y100.648 E2394.93369
G1 X104.879 Y110.406 E2398.38346
G1 X104.879 Y111.563 E2398.67271
G1 X95.121 Y101.805 E2402.12249
G1 X95.121 Y102.962 E2402.41174
G1 X104.879 Y112.720 E2405.86151
G1 X104.879 Y113.877 E2406.15076
G1 X95.121 Y104.119 E2409.60053
G1 X95.121 Y105.276 E2409.88978
G1 X104.879 Y115.034 E2413.33955
G1 X104.879 Y116.191 E2413.62880
G1 X95.121 Y106.433 E2417.07857
G1 X95.121 Y107.590 E2417.36782
G1 X104.879 Y117.348 E2420.81759
G1 X104.879 Y118.505 E2421.10685
G1 X95.121 Y108.747 E2424.55662
G1 X95.121 Y109.904 E2424.84587
G1 X104.879 Y119.662 E2428.29564
G1 X104.879 Y120.819 E2428.58489
G1 X95.121 Y111.061 E2432.03466
G1 X95.121 Y112.218 E2432.32391
G1 X104.282 Y121.379 E2435.56265
G1 X103.125 Y121.379 E2435.85190
G1 X95.121 Y113.375 E2438.68158
G1 X95.121 Y114.532 E2438.97083
G1 X101.968 Y121.379 E2441.39145
G1 X100.811 Y121.379 E2441.68070
G1 X95.121 Y115.689 E2443.69225
G1 X95.121 Y116.846 E2443.98151
G1 X99.654 Y121.379 E2445.58400
G1 X98.497 Y121.379 E2445.87325
G1 X95.121 Y118.003 E2447.06668
G1 X95.121 Y119.160 E2447.35593
G1 X97.340 Y121.379 E2448.14030
G1 X96.183 Y121.379 E2448.42955
G1 X95.121 Y120.317 E2448.80486
G1 Z7.200 F7800.000
G1 X104.333 Y121.379 F7800.000
G1 X104.879 Y120.833 E2448.99765 F4800.000
G1 X104.879 Y119.676 E2449.28690
G1 X103.176 Y121.379 E2449.88875
G1 X102.019 Y121.379 E2450.17800
G1 X104.879 Y118.519 E2451.18891
G1 X104.879 Y117.362 E2451.47816
G1 X100.862 Y121.379 E2452.89813
G1 X99.705 Y121.379 E2453.18738
G1 X104.879 Y116.205 E2455.01641
G1 X104.879 Y115.048 E2455.30566
G1 X98.548 Y121.379 E2457.54376
G1 X97.391 Y121.379 E2457.83301
G1 X104.879 Y113.891 E2460.48016
G1 X104.879 Y112.734 E2460.76942
G1 X96.234 Y121.379 E2463.82563
G1 X95.121 Y121.335 E2464.10413
G1 X104.879 Y111.577 E2467.55391
G1 X104.879 Y110.420 E2467.84316
G1 X95.121 Y120.178 E2471.29293
G1 X95.121 Y119.021 E2471.58218
G1 X104.879 Y109.263 E2475.03195
G1 X104.879 Y108.106 E2475.32120
G1 X95.121 Y117.864 E2478.77097
G1 X95.121 Y116.707 E2479.06022
G1 X104.879 Y106.949 E2482.50999
G1 X104.879 Y105.792 E2482.79924
G1 X95.121 Y115.550 E2486.24901
G1 X95.121 Y114.393 E2486.53826
G1 X104.879 Y104.635 E2489.98804
G1 X104.879 Y103.478 E2490.27729
G1 X95.121 Y113.236 E2493.72706
G1 X95.121 Y112.079 E2494.01631
G1 X104.879 Y102.321 E2497.46608
G1 X104.879 Y101.164 E2497.75533
G1 X95.121 Y110.922 E2501.20510
G1 X95.121 Y109.765 E2501.49435
G1 X104.879 Y100.007 E2504.94412
G1 X104.879 Y98.850 E2505.23337
G1 X95.121 Y108.608 E2508.68314
G1 X95.121 Y107.451 E2508.97239
G1 X104.879 Y97.693 E2512.42217
G1 X104.879 Y96.536 E2512.71142
G1 X95.121 Y106.294 E2516.16119
G1 X95.121 Y105.137 E2516.45044
G1 X104.879 Y95.379 E2519.90021
G1 X104.879 Y94.222 E2520.18946
G1 X95.121 Y103.980 E2523.63923
G1 X95.121 Y102.823 E2523.92848
G1 X104.879 Y93.065 E2527.37825
G1 X104.879 Y91.908 E2527.66750
G1 X95.121 Y101.666 E2531.11727
G1 X95.121 Y100.509 E2531.40652
G1 X104.879 Y90.751 E2534.85629
G1 X104.879 Y89.594 E2535.14554
G1 X95.121 Y99.352 E2538.59532
G1 X95.121 Y98.195 E2538.88457
G1 X104.879 Y88.437 E2542.33434
G1 X104.879 Y87.280 E2542.62359
G1 X95.121 Y97.038 E2546.07336
G1 X95.121 Y95.881 E2546.36261
G1 X104.879 Y86.123 E2549.81238
G1 X104.879 Y84.966 E2550.10163
G1 X95.121 Y94.724 E2553.55140
G1 X95.121 Y93.567 E2553.84065
G1 X104.879 Y83.809 E2557.29042
G1 X104.879 Y82.652 E2557.57967
G1 X95.121 Y92.410 E2561.02945
G1 X95.121 Y91.253 E2561.31870
G1 X104.879 Y81.495 E2564.76847
G1 X104.879 Y80.338 E2565.05772
G1 X95.121 Y90.096 E2568.50749
G1 X95.121 Y88.939 E2568.79674
G1 X104.879 Y79.181 E2572.24651
G1 X104.282 Y78.621 E2572.45114
G1 X95.121 Y87.782 E2575.68988
G1 X95.121 Y86.625 E2575.97913
G1 X103.125 Y78.621 E2578.80881
G1 X101.968 Y78.621 E2579.09806
G1 X95.121 Y85.468 E2581.51868
G1 X95.121 Y84.311 E2581.80793
G1 X100.811 Y78.621 E2583.81949
G1 X99.654 Y78.621 E2584.10874
G1 X95.121 Y83.154 E2585.71123
G1 X95.121 Y81.997 E2586.00048
G1 X98.497 Y78.621 E2587.19392
G1 X97.340 Y78.621 E2587.48317
G1 X95.121 Y80.840 E2588.26754
G1 X95.121 Y79.683 E2588.55679
G1 X96.183 Y78.621 E2588.93210
G1 Z7.600 F7800.000
G1 X104.879 Y79.167 F7800.000
G1 X104.333 Y78.621 E2589.12489 F4800.000
G1 X103.176 Y78.621 E2589.41414
G1 X104.879 Y80.324 E2590.01598
G1 X104.879 Y81.481 E2590.30523
G1 X102.019 Y78.621 E2591.31614
G1 X100.862 Y78.621 E2591.60539
G1 X104.879 Y82.638 E2593.02537
G1 X104.879 Y83.795 E2593.31462
G1 X99.705 Y78.621 E2595.14365
G1 X98.548 Y78.621 E2595.43290
G1 X104.879 Y84.952 E2597.67099
G1 X104.879 Y86.109 E2597.96025
G1 X97.391 Y78.621 E2600.60740
G1 X96.234 Y78.621 E2600.89665
G1 X104.879 Y87.266 E2603.95287
G1 X104.879 Y88.423 E2604.24212
G1 X95.121 Y78.665 E2607.69189
G1 X95.121 Y79.822 E2607.98114
G1 X104.879 Y89.580 E2611.43091
G1 X104.879 Y90.737 E2611.72016
G1 X95.121 Y80.979 E2615.16993
G1 X95.121 Y82.136 E2615.45918
G1 X104.879 Y91.894 E2618.90896
G1 X104.879 Y93.051 E2619.19821
G1 X95.121 Y83.293 E2622.64798
G1 X95.121 Y84.450 E2622.93723
G1 X104.879 Y94.208 E2626.38700
G1 X104.879 Y95.365 E2626.67625
G1 X95.121 Y85.607 E2630.12602
G1 X95.121 Y86.764 E2630.41527
G1 X104.879 Y96.522 E2633.86504
G1 X104.879 Y97.679 E2634.15429
G1 X95.121 Y87.921 E2637.60406
G1 X95.121 Y89.078 E2637.89331
G1 X104.879 Y98.836 E2641.34309
G1 X104.879 Y99.993 E2641.63234
G1 X95.121 Y90.235 E2645.08211
G1 X95.121 Y91.392 E2645.37136
G1 X104.879 Y101.150 E2648.82113
G1 X104.879 Y102.307 E2649.11038
G1 X95.121 Y92.549 E2652.56015
G1 X95.121 Y93.706 E2652.84940
G1 X104.879 Y103.464 E2656.29917
G1 X104.879 Y104.621 E2656.58842
G1 X95.121 Y94.863 E2660.03820
G1 X95.121 Y96.020 E2660.32745
G1 X104.879 Y105.778 E2663.77722
G1 X104.879 Y106.935 E2664.06647
G1 X95.121 Y97.177 E2667.51624
G1 X95.121 Y98.334 E2667.80549
G1 X104.879 Y108.092 E2671.25526
G1 X104.879 Y109.249 E2671.54451
G1 X95.121 Y99.491 E2674.99428
G1 X95.121 Y100.648 E2675.28353
G1 X104.879 Y110.406 E2678.73330
G1 X104.879 Y111.563 E2679.02255
G1 X95.121 Y101.805 E2682.47233
G1 X95.121 Y102.962 E2682.76158
G1 X104.879 Y112.720 E2686.21135
G1 X104.879 Y113.877 E2686.50060
G1 X95.121 Y104.119 E2689.95037
G1 X95.121 Y105.276 E2690.23962
G1 X104.879 Y115.034 E2693.68939
G1 X104.879 Y116.191 E2693.97864
G1 X95.121 Y106.433 E2697.42841
G1 X95.121 Y107.590 E2697.71766
G1 X104.879 Y117.348 E2701.16743
G1 X104.879 Y118.505 E2701.45668
G1 X95.121 Y108.747 E2704.90646
G1 X95.121 Y109.904 E2705.19571
G1 X104.879 Y119.662 E2708.64548
G1 X104.879 Y120.819 E2708.93473
G1 X95.121 Y111.061 E2712.38450
G1 X95.121 Y112.218 E2712.67375
G1 X104.282 Y121.379 E2715.91249
G1 X103.125 Y121.379 E2716.20174
G1 X95.121 Y113.375 E2719.03142
G1 X95.121 Y114.532 E2719.32067
G1 X101.968 Y121.379 E2721.74129
G1 X100.811 Y121.379 E2722.03054
G1 X95.121 Y115.689 E2724.04209
G1 X95.121 Y116.846 E2724.33134
G1 X99.654 Y121.379 E2725.93384
G1 X98.497 Y121.379 E2726.22309
G1 X95.121 Y118.003 E2727.41652
G1 X95.121 Y119.160 E2727.70577
G1 X97.340 Y121.379 E2728.49014
G1 X96.183 Y121.379 E2728.77939
G1 X95.121 Y120.317 E2729.15470
G1 Z8.000 F7800.000
G1 X104.333 Y121.379 F7800.000
G1 X104.879 Y120.833 E2729.34749 F4800.000
G1 X104.879 Y119.676 E2729.63674
G1 X103.176 Y121.379 E2730.23859
G1 X102.019 Y121.379 E2730.52784
G1 X104.879 Y118.519 E2731.53875
G1 X104.879 Y117.362 E2731.82800
G1 X100.862 Y121.379 E2733.24797
G1 X99.705 Y121.379 E2733.53722
G1 X104.879 Y116.205 E2735.36625
G1 X104.879 Y115.048 E2735.65550
G1 X98.548 Y121.379 E2737.89360
G1 X97.391 Y121.379 E2738.18285
G1 X104.879 Y113.891 E2740.83000
G1 X104.879 Y112.734 E2741.11925
G1 X96.234 Y121.379 E2744.17547
G1 X95.121 Y121.335 E2744.45397
G1 X104.879 Y111.577 E2747.90374
G1 X104.879 Y110.420 E2748.19299
G1 X95.121 Y120.178 E2751.64277
G1 X95.121 Y119.021 E2751.93202
G1 X104.879 Y109.263 E2755.38179
G1 X104.879 Y108.106 E2755.67104
G1 X95.121 Y117.864 E2759.12081
G1 X95.121 Y116.707 E2759.41006
G1 X104.879 Y106.949 E2762.85983
G1 X104.879 Y105.792 E2763.14908
G1 X95.121 Y115.550 E2766.59885
G1 X95.121 Y114.393 E2766.88810
G1 X104.879 Y104.635 E2770.33788
G1 X104.879 Y103.478 E2770.62713
G1 X95.121 Y113.236 E2774.07690
G1 X95.121 Y112.079 E2774.36615
G1 X104.879 Y102.321 E2777.81592
G1 X104.879 Y101.164 E2778.10517
G1 X95.121 Y110.922 E2781.55494
G1 X95.121 Y109.765 E2781.84419
G1 X104.879 Y100.007 E2785.29396
G1 X104.879 Y98.850 E2785.58321
G1 X95.121 Y108.608 E2789.03298
G1 X95.121 Y107.451 E2789.32223
G1 X104.879 Y97.693 E2792.77201
G1 X104.879 Y96.536 E2793.06126
G1 X95.121 Y106.294 E2796.51103
G1 X95.121 Y105.137 E2796.80028
G1 X104.879 Y95.379 E2800.25005
G1 X104.879 Y94.222 E2800.53930
G1 X95.121 Y103.980 E2803.98907
G1 X95.121 Y102.823 E2804.27832
G1 X104.879 Y93.065 E2807.72809
G1 X104.879 Y91.908 E2808.01734
G1 X95.121 Y101.666 E2811.46711
G1 X95.121 Y100.509 E2811.75636
G1 X104.879 Y90.751 E2815.20613
G1 X104.879 Y89.594 E2815.49538
G1 X95.121 Y99.352 E2818.94516
G1 X95.121 Y98.195 E2819.23441
G1 X104.879 Y88.437 E2822.68418
G1 X104.879 Y87.280 E2822.97343
G1 X95.121 Y97.038 E2826.42320
G1 X95.121 Y95.881 E2826.71245
G1 X104.879 Y86.123 E2830.16222
G1 X104.879 Y84.966 E2830.45147
G1 X95.121 Y94.724 E2833.90124
G1 X95.121 Y93.567 E2834.19049
G1 X104.879 Y83.809 E2837.64026
G1 X104.879 Y82.652 E2837.92951
G1 X95.121 Y92.410 E2841.37928
G1 X95.121 Y91.253 E2841.66854
G1 X104.879 Y81.495 E2845.11831
G1 X104.879 Y80.338 E2845.40756
G1 X95.121 Y90.096 E2848.85733
G1 X95.121 Y88.939 E2849.14658
G1 X104.879 Y79.181 E2852.59635
G1 X104.282 Y78.621 E2852.80098
G1 X95.121 Y87.782 E2856.03972
G1 X95.121 Y86.625 E2856.32897
G1 X103.125 Y78.621 E2859.15865
G1 X101.968 Y78.621 E2859.44790
G1 X95.121 Y85.468 E2861.86852
G1 X95.121 Y84.311 E2862.15777
G1 X100.811 Y78.621 E2864.16933
G1 X99.654 Y78.621 E2864.45858
G1 X95.121 Y83.154 E2866.06107
G1 X95.121 Y81.997 E2866.35032
G1 X98.497 Y78.621 E2867.54376
G1 X97.340 Y78.621 E2867.83301
G1 X95.121 Y80.840 E2868.61738
G1 X95.121 Y79.683 E2868.90663
G1 X96.183 Y78.621 E2869.28194
G1 Z8.400 F7800.000
G1 X104.879 Y79.167 F7800.000
G1 X104.333 Y78.621 E2869.47473 F4800.000
G1 X103.176 Y78.621 E2869.76398
G1 X104.879 Y80.324 E2870.36582
G1 X104.879 Y81.481 E2870.65507
G1 X102.019 Y78.621 E2871.66598
G1 X100.862 Y78.621 E2871.95523
G1 X104.879 Y82.638 E2873.37521
G1 X104.879 Y83.795 E2873.66446
G1 X99.705 Y78.621 E2875.49349
G1 X98.548 Y78.621 E2875.78274
G1 X104.879 Y84.952 E2878.02083
G1 X104.879 Y86.109 E2878.31008
G1 X97.391 Y78.621 E2880.95724
G1 X96.234 Y78.621 E2881.24649
G1 X104.879 Y87.266 E2884.30271
G1 X104.879 Y88.423 E2884.59196
G1 X95.121 Y78.665 E2888.04173
G1 X95.121 Y79.822 E2888.33098
G1 X104.879 Y89.580 E2891.78075
G1 X104.879 Y90.737 E2892.07000
G1 X95.121 Y80.979 E2895.51977
G1 X95.121 Y82.136 E2895.80902
G1 X104.879 Y91.894 E2899.25880
G1 X104.879 Y93.051 E2899.54805
G1 X95.121 Y83.293 E2902.99782
G1 X95.121 Y84.450 E2903.28707
G1 X104.879 Y94.208 E2906.73684
G1 X104.879 Y95.365 E2907.02609
G1 X95.121 Y85.607 E2910.47586
G1 X95.121 Y86.764 E2910.76511
G1 X104.879 Y96.522 E2914.21488
G1 X104.879 Y97.679 E2914.50413
G1 X95.121 Y87.921 E2917.95390
G1 X95.121 Y89.078 E2918.24315
G1 X104.879 Y98.836 E2921.69293
G1 X104.879 Y99.993 E2921.98218
G1 X95.121 Y90.235 E2925.43195
G1 X95.121 Y91.392 E2925.72120
G1 X104.879 Y101.150 E2929.17097
G1 X104.879 Y102.307 E2929.46022
G1 X95.121 Y92.549 E2932.90999
G1 X95.121 Y93.706 E2933.19924
G1 X104.879 Y103.464 E2936.64901
G1 X104.879 Y104.621 E2936.93826
G1 X95.121 Y94.863 E2940.38803
G1 X95.121 Y96.020 E2940.67729
G1 X104.879 Y105.778 E2944.12706
G1 X104.879 Y106.935 E2944.41631
G1 X95.121 Y97.177 E2947.86608
G1 X95.121 Y98.334 E2948.15533
G1 X104.879 Y108.092 E2951.60510
G1 X104.879 Y109.249 E2951.89435
G1 X95.121 Y99.491 E2955.34412
G1 X95.121 Y100.648 E2955.63337
G1 X104.879 Y110.406 E2959.08314
G1 X104.879 Y111.563 E2959.37239
G1 X95.121 Y101.805 E2962.82216
G1 X95.121 Y102.962 E2963.11142
G1 X104.879 Y112.720 E2966.56119
G1 X104.879 Y113.877 E2966.85044
G1 X95.121 Y104.119 E2970.30021
G1 X95.121 Y105.276 E2970.58946
G1 X104.879 Y115.034 E2974.03923
G1 X104.879 Y116.191 E2974.32848
G1 X95.121 Y106.433 E2977.77825
G1 X95.121 Y107.590 E2978.06750
G1 X104.879 Y117.348 E2981.51727
G1 X104.879 Y118.505 E2981.80652
G1 X95.121 Y108.747 E2985.25630
G1 X95.121 Y109.904 E2985.54555
G1 X104.879 Y119.662 E2988.99532
G1 X104.879 Y120.819 E2989.28457
G1 X95.121 Y111.061 E2992.73434
G1 X95.121 Y112.218 E2993.02359
G1 X104.282 Y121.379 E2996.26233
G1 X103.125 Y121.379 E2996.55158
G1 X95.121 Y113.375 E2999.38126
G1 X95.121 Y114.532 E2999.67051
G1 X101.968 Y121.379 E3002.09113
G1 X100.811 Y121.379 E3002.38038
G1 X95.121 Y115.689 E3004.39193
G1 X95.121 Y116.846 E3004.68118
G1 X99.654 Y121.379 E3006.28368
G1 X98.497 Y121.379 E3006.57293
G1 X95.121 Y118.003 E3007.76636
G1 X95.121 Y119.160 E3008.05561
G1 X97.340 Y121.379 E3008.83998
G1 X96.183 Y121.379 E3009.12923
G1 X95.121 Y120.317 E3009.50454
G1 Z8.800 F7800.000
G1 X104.333 Y121.379 F7800.000
G1 X104.879 Y120.833 E3009.69733 F4800.000
G1 X104.879 Y119.676 E3009.98658
G1 X103.176 Y121.379 E3010.58843
G1 X102.019 Y121.379 E3010.87768
G1 X104.879 Y118.519 E3011.88859
G1 X104.879 Y117.362 E3012.17784
G1 X100.862 Y121.379 E3013.59781
G1 X99.705 Y121.379 E3013.88706
G1 X104.879 Y116.205 E3015.71609
G1 X104.879 Y115.048 E3016.00534
G1 X98.548 Y121.379 E3018.24344
G1 X97.391 Y121.379 E3018.53269
G1 X104.879 Y113.891 E3021.17984
G1 X104.879 Y112.734 E3021.46909
G1 X96.234 Y121.379 E3024.52531
G1 X95.121 Y121.335 E3024.80381
G1 X104.879 Y111.577 E3028.25358
G1 X104.879 Y110.420 E3028.54283
G1 X95.121 Y120.178 E3031.99261
G1 X95.121 Y119.021 E3032.28186
G1 X104.879 Y109.263 E3035.73163
G1 X104.879 Y108.106 E3036.02088
G1 X95.121 Y117.864 E3039.47065
G1 X95.121 Y116.707 E3039.75990
G1 X104.879 Y106.949 E3043.20967
G1 X104.879 Y105.792 E3043.49892
G1 X95.121 Y115.550 E3046.94869
G1 X95.121 Y114.393 E3047.23794
G1 X104.879 Y104.635 E3050.68771
G1 X104.879 Y103.478 E3050.97696
G1 X95.121 Y113.236 E3054.42674
G1 X95.121 Y112.079 E3054.71599
G1 X104.879 Y102.321 E3058.16576
G1 X104.879 Y101.164 E3058.45501
G1 X95.121 Y110.922 E3061.90478
G1 X95.121 Y109.765 E3062.19403
G1 X104.879 Y100.007 E3065.64380
G1 X104.879 Y98.850 E3065.93305
G1 X95.121 Y108.608 E3069.38282
G1 X95.121 Y107.451 E3069.67207
G1 X104.879 Y97.693 E3073.12185
G1 X104.879 Y96.536 E3073.41110
G1 X95.121 Y106.294 E3076.86087
G1 X95.121 Y105.137 E3077.15012
G1 X104.879 Y95.379 E3080.59989
G1 X104.879 Y94.222 E3080.88914
G1 X95.121 Y103.980 E3084.33891
G1 X95.121 Y102.823 E3084.62816
G1 X104.879 Y93.065 E3088.07793
G1 X104.879 Y91.908 E3088.36718
G1 X95.121 Y101.666 E3091.81695
G1 X95.121 Y100.509 E3092.10620
G1 X104.879 Y90.751 E3095.55597
G1 X104.879 Y89.594 E3095.84522
G1 X95.121 Y99.352 E3099.29500
G1 X95.121 Y98.195 E3099.58425
G1 X104.879 Y88.437 E3103.03402
G1 X104.879 Y87.280 E3103.32327
G1 X95.121 Y97.038 E3106.77304
G1 X95.121 Y95.881 E3107.06229
G1 X104.879 Y86.123 E3110.51206
G1 X104.879 Y84.966 E3110.80131
G1 X95.121 Y94.724 E3114.25108
G1 X95.121 Y93.567 E3114.54033
G1 X104.879 Y83.809 E3117.99010
G1 X104.879 Y82.652 E3118.27935
G1 X95.121 Y92.410 E3121.72912
G1 X95.121 Y91.253 E3122.01837
G1 X104.879 Y81.495 E3125.46815
G1 X104.879 Y80.338 E3125.75740
G1 X95.121 Y90.096 E3129.20717
G1 X95.121 Y88.939 E3129.49642
G1 X104.879 Y79.181 E3132.94619
G1 X104.282 Y78.621 E3133.15082
G1 X95.121 Y87.782 E3136.38956
G1 X95.121 Y86.625 E3136.67881
G1 X103.125 Y78.621 E3139.50849
G1 X101.968 Y78.621 E3139.79774
G1 X95.121 Y85.468 E3142.21836
G1 X95.121 Y84.311 E3142.50761
G1 X100.811 Y78.621 E3144.51917
G1 X99.654 Y78.621 E3144.80842
G1 X95.121 Y83.154 E3146.41091
G1 X95.121 Y81.997 E3146.70016
G1 X98.497 Y78.621 E3147.89359
G1 X97.340 Y78.621 E3148.18285
G1 X95.121 Y80.840 E3148.96722
G1 X95.121 Y79.683 E3149.25647
G1 X96.183 Y78.621 E3149.63178
G1 Z9.200 F7800.000
G1 E3147.63178 F2400.00000
G92 E0
G1 X104.879 Y79.167 F7800.000
G1 E2.00000 F2400.00000
G1 X104.333 Y78.621 E2.19279 F4800.000
G1 X103.176 Y78.621 E2.48204
G1 X104.879 Y80.324 E3.08389
G1 X104.879 Y81.481 E3.37314
G1 X102.019 Y78.621 E4.38405
G1 X100.862 Y78.621 E4.67330
G1 X104.879 Y82.638 E6.09327
G1 X104.879 Y83.795 E6.38252
G1 X99.705 Y78.621 E8.21155
G1 X98.548 Y78.621 E8.50080
G1 X104.879 Y84.952 E10.73890
G1 X104.879 Y86.109 E11.02815
G1 X97.391 Y78.621 E13.67530
G1 X96.234 Y78.621 E13.96455
G1 X104.879 Y87.266 E17.02077
G1 X104.879 Y88.423 E17.31002
G1 X95.121 Y78.665 E20.75979
G1 X95.121 Y79.822 E21.04904
G1 X104.879 Y89.580 E24.49881
G1 X104.879 Y90.737 E24.78806
G1 X95.121 Y80.979 E28.23784
G1 X95.121 Y82.136 E28.52709
G1 X104.879 Y91.894 E31.97686
G1 X104.879 Y93.051 E32.26611
G1 X95.121 Y83.293 E35.71588
G1 X95.121 Y84.450 E36.00513
G1 X104.879 Y94.208 E39.45490
G1 X104.879 Y95.365 E39.74415
G1 X95.121 Y85.607 E43.19392
G1 X95.121 Y86.764 E43.48317
G1 X104.879 Y96.522 E46.93294
G1 X104.879 Y97.679 E47.22219
G1 X95.121 Y87.921 E50.67197
G1 X95.121 Y89.078 E50.96122
G1 X104.879 Y98.836 E54.41099
G1 X104.879 Y99.993 E54.70024
G1 X95.121 Y90.235 E58.15001
G1 X95.121 Y91.392 E58.43926
G1 X104.879 Y101.150 E61.88903
G1 X104.879 Y102.307 E62.17828
G1 X95.121 Y92.549 E65.62805
G1 X95.121 Y93.706 E65.91730
G1 X104.879 Y103.464 E69.36708
G1 X104.879 Y104.621 E69.65633
G1 X95.121 Y94.863 E73.10610
G1 X95.121 Y96.020 E73.39535
G1 X104.879 Y105.778 E76.84512
G1 X104.879 Y106.935 E77.13437
G1 X95.121 Y97.177 E80.58414
G1 X95.121 Y98.334 E80.87339
G1 X104.879 Y108.092 E84.32316
G1 X104.879 Y109.249 E84.61241
G1 X95.121 Y99.491 E88.06218
G1 X95.121 Y100.648 E88.35143
G1 X104.879 Y110.406 E91.80121
G1 X104.879 Y111.563 E92.09046
G1 X95.121 Y101.805 E95.54023
G1 X95.121 Y102.962 E95.82948
G1 X104.879 Y112.720 E99.27925
G1 X104.879 Y113.877 E99.56850
G1 X95.121 Y104.119 E103.01827
G1 X95.121 Y105.276 E103.30752
G1 X104.879 Y115.034 E106.75729
G1 X104.879 Y116.191 E107.04654
G1 X95.121 Y106.433 E110.49631
G1 X95.121 Y107.590 E110.78556
G1 X104.879 Y117.348 E114.23534
G1 X104.879 Y118.505 E114.52459
G1 X95.121 Y108.747 E117.97436
G1 X95.121 Y109.904 E118.26361
G1 X104.879 Y119.662 E121.71338
G1 X104.879 Y120.819 E122.00263
G1 X95.121 Y111.061 E125.45240
G1 X95.121 Y112.218 E125.74165
G1 X104.282 Y121.379 E128.98039
G1 X103.125 Y121.379 E129.26964
G1 X95.121 Y113.375 E132.09932
G1 X95.121 Y114.532 E132.38857
G1 X101.968 Y121.379 E134.80919
G1 X100.811 Y121.379 E135.09844
G1 X95.121 Y115.689 E137.11000
G1 X95.121 Y116.846 E137.39925
G1 X99.654 Y121.379 E139.00174
G1 X98.497 Y121.379 E139.29099
G1 X95.121 Y118.003 E140.48442
G1 X95.121 Y119.160 E140.77367
G1 X97.340 Y121.379 E141.55805
G1 X96.183 Y121.379 E141.84730
G1 X95.121 Y120.317 E142.22261
G1 E140.22261 F2400.00000
G92 E0
M107
M104 S0 ; turn off temperature
G28 X0  ; home X axis
M84     ; disable motors

; filament used = 3287.9mm (2.6cm3)

; avoid_crossing_perimeters = 0
; bed_shape = 0x0,200x0,200x200,0x200
; bed_temperature = 0
; before_layer_gcode = 
; bridge_acceleration = 0
; bridge_fan_speed = 100
; brim_width = 0
; complete_objects = 0
; cooling = 1
; default_acceleration = 0
; disable_fan_first_layers = 3
; duplicate_distance = 6
; end_gcode = M104 S0 ; turn off temperature\nG28 X0  ; home X axis\nM84     ; disable motors\n
; extruder_clearance_height = 20
; extruder_clearance_radius = 20
; extruder_offset = 0x0
; extrusion_axis = E
; extrusion_multiplier = 1
; fan_always_on = 0
; fan_below_layer_time = 60
; filament_colour = #FFFFFF
; filament_diameter = 1
; first_layer_acceleration = 0
; first_layer_bed_temperature = 0
; first_layer_extrusion_width = 200%
; first_layer_speed = 30
; first_layer_temperature = 200
; gcode_arcs = 0
; gcode_comments = 0
; gcode_flavor = reprap
; infill_acceleration = 0
; infill_first = 0
; layer_gcode = 
; max_fan_speed = 100
; max_print_speed = 80
; max_volumetric_speed = 0
; min_fan_speed = 35
; min_print_speed = 10
; min_skirt_length = 0
; notes = 
; nozzle_diameter = 0.5
; only_retract_when_crossing_perimeters = 1
; ooze_prevention = 0
; output_filename_format = [input_filename_base].gcode
; perimeter_acceleration = 0
; post_process = 
; pressure_advance = 0
; resolution = 0
; retract_before_travel = 2
; retract_layer_change = 0
; retract_length = 2
; retract_length_toolchange = 10
; retract_lift = 0
; retract_restart_extra = 0
; retract_restart_extra_toolchange = 0
; retract_speed = 40
; skirt_distance = 6
; skirt_height = 1
; skirts = 0
; slowdown_below_layer_time = 5
; spiral_vase = 0
; standby_temperature_delta = -5
; start_gcode = G28 ; home all axes\nG1 Z5 F5000 ; lift nozzle\n
; temperature = 200
; threads = 2
; toolchange_gcode = 
; travel_speed = 130
; use_firmware_retraction = 0
; use_relative_e_distances = 0
; use_volumetric_e = 0
; vibration_limit = 0
; wipe = 0
; z_offset = 0
; dont_support_bridges = 1
; extrusion_width = 0
; first_layer_height = 0.4
; infill_only_where_needed = 0
; interface_shells = 0
; layer_height = 0.4
; raft_layers = 0
; seam_position = aligned
; support_material = 0
; support_material_angle = 0
; support_material_contact_distance = 0.2
; support_material_enforce_layers = 0
; support_material_extruder = 1
; support_material_extrusion_width = 0
; support_material_interface_extruder = 1
; support_material_interface_layers = 3
; support_material_interface_spacing = 0
; support_material_interface_speed = 100%
; support_material_pattern = pillars
; support_material_spacing = 2.5
; support_material_speed = 60
; support_material_threshold = 0
; xy_size_compensation = 0
; bottom_solid_layers = 0
; bridge_flow_ratio = 1
; bridge_speed = 60
; external_fill_pattern = rectilinear
; external_perimeter_extrusion_width = 0
; external_perimeter_speed = 50%
; external_perimeters_first = 0
; extra_perimeters = 1
; fill_angle = 45
; fill_density = 60%
; fill_pattern = rectilinear
; gap_fill_speed = 20
; infill_every_layers = 1
; infill_extruder = 1
; infill_extrusion_width = 0
; infill_overlap = 15%
; infill_speed = 80
; overhangs = 1
; perimeter_extruder = 1
; perimeter_extrusion_width = 0
; perimeter_speed = 60
; perimeters = 0
; small_perimeter_speed = 15
; solid_infill_below_area = 70
; solid_infill_every_layers = 0
; solid_infill_extruder = 1
; solid_infill_extrusion_width = 0
; solid_infill_speed = 20
; thin_walls = 1
; top_infill_extrusion_width = 0
; top_solid_infill_speed = 15
; top_solid_layers = 0
