; generated by Slic3r 1.2.9 on 2019-06-17 at 16:32:08

; external perimeters extrusion width = 0.50mm
; perimeters extrusion width = 0.52mm
; infill extrusion width = 0.52mm
; solid infill extrusion width = 0.52mm
; top infill extrusion width = 0.52mm

M107
M104 S200 ; set temperature
G28 ; home all axes
G1 Z5 F5000 ; lift nozzle

M109 S200 ; wait for temperature to be reached
G21 ; set units to millimeters
G90 ; use absolute coordinates
M82 ; use absolute distances for extrusion
G92 E0
G1 Z0.500 F7800.000
G1 E-2.00000 F2400.00000
G92 E0
G1 X104.900 Y78.943 F7800.000
G1 E2.00000 F2400.00000
G1 X104.557 Y78.600 E2.27575 F1800.000
G1 X103.080 Y78.600 E3.11502
G1 X104.900 Y80.420 E4.57768
G1 X104.900 Y81.897 E5.41696
G1 X101.603 Y78.600 E8.06653
G1 X100.126 Y78.600 E8.90581
G1 X104.900 Y83.374 E12.74229
G1 X104.900 Y84.850 E13.58157
G1 X98.650 Y78.600 E18.60496
G1 X97.173 Y78.600 E19.44424
G1 X104.900 Y86.327 E25.65455
G1 X104.900 Y87.804 E26.49382
G1 X95.696 Y78.600 E33.89105
G1 X95.100 Y79.481 E34.49548
G1 X104.900 Y89.281 E42.37148
G1 X104.900 Y90.758 E43.21076
G1 X95.100 Y80.958 E51.08676
G1 X95.100 Y82.435 E51.92603
G1 X104.900 Y92.234 E59.80203
G1 X104.900 Y93.711 E60.64130
G1 X95.100 Y83.912 E68.51730
G1 X95.100 Y85.388 E69.35658
G1 X104.900 Y95.188 E77.23258
G1 X104.900 Y96.665 E78.07185
G1 X95.100 Y86.865 E85.94785
G1 X95.100 Y88.342 E86.78712
G1 X104.900 Y98.142 E94.66312
G1 X104.900 Y99.618 E95.50240
G1 X95.100 Y89.819 E103.37840
G1 X95.100 Y91.296 E104.21767
G1 X104.900 Y101.095 E112.09367
G1 X104.900 Y102.572 E112.93295
G1 X95.100 Y92.772 E120.80895
G1 X95.100 Y94.249 E121.64822
G1 X104.900 Y104.049 E129.52422
G1 X104.900 Y105.526 E130.36349
G1 X95.100 Y95.726 E138.23949
G1 X95.100 Y97.203 E139.07877
G1 X104.900 Y107.002 E146.95477
G1 X104.900 Y108.479 E147.79404
G1 X95.100 Y98.680 E155.67004
G1 X95.100 Y100.156 E156.50932
G1 X104.900 Y109.956 E164.38532
G1 X104.900 Y111.433 E165.22459
G1 X95.100 Y101.633 E173.10059
G1 X95.100 Y103.110 E173.93986
G1 X104.900 Y112.909 E181.81586
G1 X104.900 Y114.386 E182.65514
G1 X95.100 Y104.587 E190.53114
G1 X95.100 Y106.064 E191.37041
G1 X104.900 Y115.863 E199.24641
G1 X104.900 Y117.340 E200.08568
G1 X95.100 Y107.540 E207.96168
G1 X95.100 Y109.017 E208.80096
G1 X104.900 Y118.817 E216.67696
G1 X104.900 Y120.293 E217.51623
G1 X95.100 Y110.494 E225.39223
G1 X95.100 Y111.971 E226.23150
G1 X104.529 Y121.400 E233.80977
G1 X103.053 Y121.400 E234.64905
G1 X95.100 Y113.447 E241.04040
G1 X95.100 Y114.924 E241.87968
G1 X101.576 Y121.400 E247.08412
G1 X100.099 Y121.400 E247.92339
G1 X95.100 Y116.401 E251.94092
G1 X95.100 Y117.878 E252.78020
G1 X98.622 Y121.400 E255.61081
G1 X97.145 Y121.400 E256.45009
G1 X95.100 Y119.355 E258.09379
G1 X95.100 Y120.831 E258.93307
G1 X95.669 Y121.400 E259.38986
G1 Z1.000 F7800.000
G1 X104.557 Y121.400 F7800.000
G1 X104.900 Y121.057 E259.51888 F4800.000
G1 X104.900 Y119.580 E259.91158
G1 X103.080 Y121.400 E260.59597
G1 X101.603 Y121.400 E260.98867
G1 X104.900 Y118.103 E262.22842
G1 X104.900 Y116.626 E262.62112
G1 X100.126 Y121.400 E264.41624
G1 X98.650 Y121.400 E264.80894
G1 X104.900 Y115.150 E267.15941
G1 X104.900 Y113.673 E267.55212
G1 X97.173 Y121.400 E270.45796
G1 X95.696 Y121.400 E270.85066
G1 X104.900 Y112.196 E274.31186
G1 X104.900 Y110.719 E274.70456
G1 X95.100 Y120.519 E278.38979
G1 X95.100 Y119.042 E278.78249
G1 X104.900 Y109.242 E282.46771
G1 X104.900 Y107.766 E282.86042
G1 X95.100 Y117.565 E286.54564
G1 X95.100 Y116.088 E286.93834
G1 X104.900 Y106.289 E290.62357
G1 X104.900 Y104.812 E291.01627
G1 X95.100 Y114.612 E294.70150
G1 X95.100 Y113.135 E295.09420
G1 X104.900 Y103.335 E298.77942
G1 X104.900 Y101.858 E299.17212
G1 X95.100 Y111.658 E302.85735
G1 X95.100 Y110.181 E303.25005
G1 X104.900 Y100.382 E306.93528
G1 X104.900 Y98.905 E307.32798
G1 X95.100 Y108.704 E311.01320
G1 X95.100 Y107.228 E311.40590
G1 X104.900 Y97.428 E315.09113
G1 X104.900 Y95.951 E315.48383
G1 X95.100 Y105.751 E319.16906
G1 X95.100 Y104.274 E319.56176
G1 X104.900 Y94.474 E323.24698
G1 X104.900 Y92.998 E323.63968
G1 X95.100 Y102.797 E327.32491
G1 X95.100 Y101.320 E327.71761
G1 X104.900 Y91.521 E331.40284
G1 X104.900 Y90.044 E331.79554
G1 X95.100 Y99.844 E335.48076
G1 X95.100 Y98.367 E335.87346
G1 X104.900 Y88.567 E339.55869
G1 X104.900 Y87.091 E339.95139
G1 X95.100 Y96.890 E343.63662
G1 X95.100 Y95.413 E344.02932
G1 X104.900 Y85.614 E347.71454
G1 X104.900 Y84.137 E348.10724
G1 X95.100 Y93.936 E351.79247
G1 X95.100 Y92.460 E352.18517
G1 X104.900 Y82.660 E355.87039
G1 X104.900 Y81.183 E356.26310
G1 X95.100 Y90.983 E359.94832
G1 X95.100 Y89.506 E360.34102
G1 X104.900 Y79.707 E364.02625
G1 X104.529 Y78.600 E364.33650
G1 X95.100 Y88.029 E367.88241
G1 X95.100 Y86.553 E368.27511
G1 X103.053 Y78.600 E371.26567
G1 X101.576 Y78.600 E371.65837
G1 X95.100 Y85.076 E374.09356
G1 X95.100 Y83.599 E374.48626
G1 X100.099 Y78.600 E376.36608
G1 X98.622 Y78.600 E376.75878
G1 X95.100 Y82.122 E378.08325
G1 X95.100 Y80.645 E378.47595
G1 X97.145 Y78.600 E379.24505
G1 X95.669 Y78.600 E379.63775
G1 X95.100 Y79.169 E379.85148
G1 Z1.500 F7800.000
G1 X104.900 Y78.943 F7800.000
G1 X104.557 Y78.600 E379.98051 F4800.000
G1 X103.080 Y78.600 E380.37321
G1 X104.900 Y80.420 E381.05760
G1 X104.900 Y81.897 E381.45030
G1 X101.603 Y78.600 E382.69005
G1 X100.126 Y78.600 E383.08275
G1 X104.900 Y83.374 E384.87786
G1 X104.900 Y84.850 E385.27057
G1 X98.650 Y78.600 E387.62104
G1 X97.173 Y78.600 E388.01374
G1 X104.900 Y86.327 E390.91958
G1 X104.900 Y87.804 E391.31229
G1 X95.696 Y78.600 E394.77349
G1 X95.100 Y79.481 E395.05631
G1 X104.900 Y89.281 E398.74153
G1 X104.900 Y90.758 E399.13424
G1 X95.100 Y80.958 E402.81946
G1 X95.100 Y82.435 E403.21216
G1 X104.900 Y92.234 E406.89739
G1 X104.900 Y93.711 E407.29009
G1 X95.100 Y83.912 E410.97531
G1 X95.100 Y85.388 E411.36802
G1 X104.900 Y95.188 E415.05324
G1 X104.900 Y96.665 E415.44594
G1 X95.100 Y86.865 E419.13117
G1 X95.100 Y88.342 E419.52387
G1 X104.900 Y98.142 E423.20909
G1 X104.900 Y99.618 E423.60180
G1 X95.100 Y89.819 E427.28702
G1 X95.100 Y91.296 E427.67972
G1 X104.900 Y101.095 E431.36495
G1 X104.900 Y102.572 E431.75765
G1 X95.100 Y92.772 E435.44288
G1 X95.100 Y94.249 E435.83558
G1 X104.900 Y104.049 E439.52080
G1 X104.900 Y105.526 E439.91350
G1 X95.100 Y95.726 E443.59873
G1 X95.100 Y97.203 E443.99143
G1 X104.900 Y107.002 E447.67666
G1 X104.900 Y108.479 E448.06936
G1 X95.100 Y98.680 E451.75458
G1 X95.100 Y100.156 E452.14728
G1 X104.900 Y109.956 E455.83251
G1 X104.900 Y111.433 E456.22521
G1 X95.100 Y101.633 E459.91044
G1 X95.100 Y103.110 E460.30314
G1 X104.900 Y112.909 E463.98836
G1 X104.900 Y114.386 E464.38107
G1 X95.100 Y104.587 E468.06629
G1 X95.100 Y106.064 E468.45899
G1 X104.900 Y115.863 E472.14422
G1 X104.900 Y117.340 E472.53692
G1 X95.100 Y107.540 E476.22214
G1 X95.100 Y109.017 E476.61485
G1 X104.900 Y118.817 E480.30007
G1 X104.900 Y120.293 E480.69277
G1 X95.100 Y110.494 E484.37800
G1 X95.100 Y111.971 E484.77070
G1 X104.529 Y121.400 E488.31662
G1 X103.053 Y121.400 E488.70932
G1 X95.100 Y113.447 E491.69987
G1 X95.100 Y114.924 E492.09257
G1 X101.576 Y121.400 E494.52776
G1 X100.099 Y121.400 E494.92046
G1 X95.100 Y116.401 E496.80029
G1 X95.100 Y117.878 E497.19299
G1 X98.622 Y121.400 E498.51745
G1 X97.145 Y121.400 E498.91015
G1 X95.100 Y119.355 E499.67925
G1 X95.100 Y120.831 E500.07195
G1 X95.669 Y121.400 E500.28568
M106 S252.45
G1 Z2.000 F7800.000
G1 X104.557 Y121.400 F7800.000
G1 X104.900 Y121.057 E500.41471 F4800.000
G1 X104.900 Y119.580 E500.80741
G1 X103.080 Y121.400 E501.49180
G1 X101.603 Y121.400 E501.88450
G1 X104.900 Y118.103 E503.12425
G1 X104.900 Y116.626 E503.51695
G1 X100.126 Y121.400 E505.31206
G1 X98.650 Y121.400 E505.70476
G1 X104.900 Y115.150 E508.05524
G1 X104.900 Y113.673 E508.44794
G1 X97.173 Y121.400 E511.35378
G1 X95.696 Y121.400 E511.74648
G1 X104.900 Y112.196 E515.20769
G1 X104.900 Y110.719 E515.60039
G1 X95.100 Y120.519 E519.28561
G1 X95.100 Y119.042 E519.67832
G1 X104.900 Y109.242 E523.36354
G1 X104.900 Y107.766 E523.75624
G1 X95.100 Y117.565 E527.44147
G1 X95.100 Y116.088 E527.83417
G1 X104.900 Y106.289 E531.51940
G1 X104.900 Y104.812 E531.91210
G1 X95.100 Y114.612 E535.59732
G1 X95.100 Y113.135 E535.99002
G1 X104.900 Y103.335 E539.67525
G1 X104.900 Y101.858 E540.06795
G1 X95.100 Y111.658 E543.75318
G1 X95.100 Y110.181 E544.14588
G1 X104.900 Y100.382 E547.83110
G1 X104.900 Y98.905 E548.22380
G1 X95.100 Y108.704 E551.90903
G1 X95.100 Y107.228 E552.30173
G1 X104.900 Y97.428 E555.98696
G1 X104.900 Y95.951 E556.37966
G1 X95.100 Y105.751 E560.06488
G1 X95.100 Y104.274 E560.45758
G1 X104.900 Y94.474 E564.14281
G1 X104.900 Y92.998 E564.53551
G1 X95.100 Y102.797 E568.22074
G1 X95.100 Y101.320 E568.61344
G1 X104.900 Y91.521 E572.29866
G1 X104.900 Y90.044 E572.69136
G1 X95.100 Y99.844 E576.37659
G1 X95.100 Y98.367 E576.76929
G1 X104.900 Y88.567 E580.45452
G1 X104.900 Y87.091 E580.84722
G1 X95.100 Y96.890 E584.53244
G1 X95.100 Y95.413 E584.92514
G1 X104.900 Y85.614 E588.61037
G1 X104.900 Y84.137 E589.00307
G1 X95.100 Y93.936 E592.68830
G1 X95.100 Y92.460 E593.08100
G1 X104.900 Y82.660 E596.76622
G1 X104.900 Y81.183 E597.15892
G1 X95.100 Y90.983 E600.84415
G1 X95.100 Y89.506 E601.23685
G1 X104.900 Y79.707 E604.92207
G1 X104.529 Y78.600 E605.23232
G1 X95.100 Y88.029 E608.77824
G1 X95.100 Y86.553 E609.17094
G1 X103.053 Y78.600 E612.16149
G1 X101.576 Y78.600 E612.55419
G1 X95.100 Y85.076 E614.98938
G1 X95.100 Y83.599 E615.38208
G1 X100.099 Y78.600 E617.26191
G1 X98.622 Y78.600 E617.65461
G1 X95.100 Y82.122 E618.97907
G1 X95.100 Y80.645 E619.37177
G1 X97.145 Y78.600 E620.14087
G1 X95.669 Y78.600 E620.53357
G1 X95.100 Y79.169 E620.74731
G1 Z2.500 F7800.000
G1 X104.900 Y78.943 F7800.000
G1 X104.557 Y78.600 E620.87633 F4800.000
G1 X103.080 Y78.600 E621.26904
G1 X104.900 Y80.420 E621.95342
G1 X104.900 Y81.897 E622.34612
G1 X101.603 Y78.600 E623.58588
G1 X100.126 Y78.600 E623.97858
G1 X104.900 Y83.374 E625.77369
G1 X104.900 Y84.850 E626.16639
G1 X98.650 Y78.600 E628.51687
G1 X97.173 Y78.600 E628.90957
G1 X104.900 Y86.327 E631.81541
G1 X104.900 Y87.804 E632.20811
G1 X95.696 Y78.600 E635.66932
G1 X95.100 Y79.481 E635.95213
G1 X104.900 Y89.281 E639.63736
G1 X104.900 Y90.758 E640.03006
G1 X95.100 Y80.958 E643.71529
G1 X95.100 Y82.435 E644.10799
G1 X104.900 Y92.234 E647.79321
G1 X104.900 Y93.711 E648.18592
G1 X95.100 Y83.912 E651.87114
G1 X95.100 Y85.388 E652.26384
G1 X104.900 Y95.188 E655.94907
G1 X104.900 Y96.665 E656.34177
G1 X95.100 Y86.865 E660.02699
G1 X95.100 Y88.342 E660.41970
G1 X104.900 Y98.142 E664.10492
G1 X104.900 Y99.618 E664.49762
G1 X95.100 Y89.819 E668.18285
G1 X95.100 Y91.296 E668.57555
G1 X104.900 Y101.095 E672.26078
G1 X104.900 Y102.572 E672.65348
G1 X95.100 Y92.772 E676.33870
G1 X95.100 Y94.249 E676.73140
G1 X104.900 Y104.049 E680.41663
G1 X104.900 Y105.526 E680.80933
G1 X95.100 Y95.726 E684.49456
G1 X95.100 Y97.203 E684.88726
G1 X104.900 Y107.002 E688.57248
G1 X104.900 Y108.479 E688.96518
G1 X95.100 Y98.680 E692.65041
G1 X95.100 Y100.156 E693.04311
G1 X104.900 Y109.956 E696.72834
G1 X104.900 Y111.433 E697.12104
G1 X95.100 Y101.633 E700.80626
G1 X95.100 Y103.110 E701.19897
G1 X104.900 Y112.909 E704.88419
G1 X104.900 Y114.386 E705.27689
G1 X95.100 Y104.587 E708.96212
G1 X95.100 Y106.064 E709.35482
G1 X104.900 Y115.863 E713.04004
G1 X104.900 Y117.340 E713.43275
G1 X95.100 Y107.540 E717.11797
G1 X95.100 Y109.017 E717.51067
G1 X104.900 Y118.817 E721.19590
G1 X104.900 Y120.293 E721.58860
G1 X95.100 Y110.494 E725.27383
G1 X95.100 Y111.971 E725.66653
G1 X104.529 Y121.400 E729.21244
G1 X103.053 Y121.400 E729.60514
G1 X95.100 Y113.447 E732.59570
G1 X95.100 Y114.924 E732.98840
G1 X101.576 Y121.400 E735.42359
G1 X100.099 Y121.400 E735.81629
G1 X95.100 Y116.401 E737.69611
G1 X95.100 Y117.878 E738.08881
G1 X98.622 Y121.400 E739.41328
G1 X97.145 Y121.400 E739.80598
G1 X95.100 Y119.355 E740.57508
G1 X95.100 Y120.831 E740.96778
G1 X95.669 Y121.400 E741.18151
G1 Z3.000 F7800.000
G1 X104.557 Y121.400 F7800.000
G1 X104.900 Y121.057 E741.31054 F4800.000
G1 X104.900 Y119.580 E741.70324
G1 X103.080 Y121.400 E742.38762
G1 X101.603 Y121.400 E742.78032
G1 X104.900 Y118.103 E744.02007
G1 X104.900 Y116.626 E744.41278
G1 X100.126 Y121.400 E746.20789
G1 X98.650 Y121.400 E746.60059
G1 X104.900 Y115.150 E748.95107
G1 X104.900 Y113.673 E749.34377
G1 X97.173 Y121.400 E752.24961
G1 X95.696 Y121.400 E752.64231
G1 X104.900 Y112.196 E756.10351
G1 X104.900 Y110.719 E756.49622
G1 X95.100 Y120.519 E760.18144
G1 X95.100 Y119.042 E760.57414
G1 X104.900 Y109.242 E764.25937
G1 X104.900 Y107.766 E764.65207
G1 X95.100 Y117.565 E768.33730
G1 X95.100 Y116.088 E768.73000
G1 X104.900 Y106.289 E772.41522
G1 X104.900 Y104.812 E772.80792
G1 X95.100 Y114.612 E776.49315
G1 X95.100 Y113.135 E776.88585
G1 X104.900 Y103.335 E780.57108
G1 X104.900 Y101.858 E780.96378
G1 X95.100 Y111.658 E784.64900
G1 X95.100 Y110.181 E785.04170
G1 X104.900 Y100.382 E788.72693
G1 X104.900 Y98.905 E789.11963
G1 X95.100 Y108.704 E792.80486
G1 X95.100 Y107.228 E793.19756
G1 X104.900 Y97.428 E796.88278
G1 X104.900 Y95.951 E797.27548
G1 X95.100 Y105.751 E800.96071
G1 X95.100 Y104.274 E801.35341
G1 X104.900 Y94.474 E805.03864
G1 X104.900 Y92.998 E805.43134
G1 X95.100 Y102.797 E809.11656
G1 X95.100 Y101.320 E809.50926
G1 X104.900 Y91.521 E813.19449
G1 X104.900 Y90.044 E813.58719
G1 X95.100 Y99.844 E817.27242
G1 X95.100 Y98.367 E817.66512
G1 X104.900 Y88.567 E821.35034
G1 X104.900 Y87.091 E821.74304
G1 X95.100 Y96.890 E825.42827
G1 X95.100 Y95.413 E825.82097
G1 X104.900 Y85.614 E829.50620
G1 X104.900 Y84.137 E829.89890
G1 X95.100 Y93.936 E833.58412
G1 X95.100 Y92.460 E833.97682
G1 X104.900 Y82.660 E837.66205
G1 X104.900 Y81.183 E838.05475
G1 X95.100 Y90.983 E841.73998
G1 X95.100 Y89.506 E842.13268
G1 X104.900 Y79.707 E845.81790
G1 X104.529 Y78.600 E846.12815
G1 X95.100 Y88.029 E849.67407
G1 X95.100 Y86.553 E850.06677
G1 X103.053 Y78.600 E853.05732
G1 X101.576 Y78.600 E853.45002
G1 X95.100 Y85.076 E855.88521
G1 X95.100 Y83.599 E856.27791
G1 X100.099 Y78.600 E858.15774
G1 X98.622 Y78.600 E858.55044
G1 X95.100 Y82.122 E859.87490
G1 X95.100 Y80.645 E860.26760
G1 X97.145 Y78.600 E861.03670
G1 X95.669 Y78.600 E861.42940
G1 X95.100 Y79.169 E861.64314
G1 Z3.500 F7800.000
G1 X104.900 Y78.943 F7800.000
G1 X104.557 Y78.600 E861.77216 F4800.000
G1 X103.080 Y78.600 E862.16486
G1 X104.900 Y80.420 E862.84925
G1 X104.900 Y81.897 E863.24195
G1 X101.603 Y78.600 E864.48170
G1 X100.126 Y78.600 E864.87440
G1 X104.900 Y83.374 E866.66952
G1 X104.900 Y84.850 E867.06222
G1 X98.650 Y78.600 E869.41270
G1 X97.173 Y78.600 E869.80540
G1 X104.900 Y86.327 E872.71124
G1 X104.900 Y87.804 E873.10394
G1 X95.696 Y78.600 E876.56514
G1 X95.100 Y79.481 E876.84796
G1 X104.900 Y89.281 E880.53319
G1 X104.900 Y90.758 E880.92589
G1 X95.100 Y80.958 E884.61111
G1 X95.100 Y82.435 E885.00382
G1 X104.900 Y92.234 E888.68904
G1 X104.900 Y93.711 E889.08174
G1 X95.100 Y83.912 E892.76697
G1 X95.100 Y85.388 E893.15967
G1 X104.900 Y95.188 E896.84489
G1 X104.900 Y96.665 E897.23760
G1 X95.100 Y86.865 E900.92282
G1 X95.100 Y88.342 E901.31552
G1 X104.900 Y98.142 E905.00075
G1 X104.900 Y99.618 E905.39345
G1 X95.100 Y89.819 E909.07867
G1 X95.100 Y91.296 E909.47138
G1 X104.900 Y101.095 E913.15660
G1 X104.900 Y102.572 E913.54930
G1 X95.100 Y92.772 E917.23453
G1 X95.100 Y94.249 E917.62723
G1 X104.900 Y104.049 E921.31246
G1 X104.900 Y105.526 E921.70516
G1 X95.100 Y95.726 E925.39038
G1 X95.100 Y97.203 E925.78308
G1 X104.900 Y107.002 E929.46831
G1 X104.900 Y108.479 E929.86101
G1 X95.100 Y98.680 E933.54624
G1 X95.100 Y100.156 E933.93894
G1 X104.900 Y109.956 E937.62416
G1 X104.900 Y111.433 E938.01686
G1 X95.100 Y101.633 E941.70209
G1 X95.100 Y103.110 E942.09479
G1 X104.900 Y112.909 E945.78002
G1 X104.900 Y114.386 E946.17272
G1 X95.100 Y104.587 E949.85794
G1 X95.100 Y106.064 E950.25065
G1 X104.900 Y115.863 E953.93587
G1 X104.900 Y117.340 E954.32857
G1 X95.100 Y107.540 E958.01380
G1 X95.100 Y109.017 E958.40650
G1 X104.900 Y118.817 E962.09173
G1 X104.900 Y120.293 E962.48443
G1 X95.100 Y110.494 E966.16965
G1 X95.100 Y111.971 E966.56235
G1 X104.529 Y121.400 E970.10827
G1 X103.053 Y121.400 E970.50097
G1 X95.100 Y113.447 E973.49152
G1 X95.100 Y114.924 E973.88422
G1 X101.576 Y121.400 E976.31941
G1 X100.099 Y121.400 E976.71211
G1 X95.100 Y116.401 E978.59194
G1 X95.100 Y117.878 E978.98464
G1 X98.622 Y121.400 E980.30910
G1 X97.145 Y121.400 E980.70180
G1 X95.100 Y119.355 E981.47090
G1 X95.100 Y120.831 E981.86360
G1 X95.669 Y121.400 E982.07734
G1 Z4.000 F7800.000
G1 X104.557 Y121.400 F7800.000
G1 X104.900 Y121.057 E982.20636 F4800.000
G1 X104.900 Y119.580 E982.59906
G1 X103.080 Y121.400 E983.28345
G1 X101.603 Y121.400 E983.67615
G1 X104.900 Y118.103 E984.91590
G1 X104.900 Y116.626 E985.30860
G1 X100.126 Y121.400 E987.10372
G1 X98.650 Y121.400 E987.49642
G1 X104.900 Y115.150 E989.84689
G1 X104.900 Y113.673 E990.23960
G1 X97.173 Y121.400 E993.14544
G1 X95.696 Y121.400 E993.53814
G1 X104.900 Y112.196 E996.99934
G1 X104.900 Y110.719 E997.39204
G1 X95.100 Y120.519 E1001.07727
G1 X95.100 Y119.042 E1001.46997
G1 X104.900 Y109.242 E1005.15520
G1 X104.900 Y107.766 E1005.54790
G1 X95.100 Y117.565 E1009.23312
G1 X95.100 Y116.088 E1009.62582
G1 X104.900 Y106.289 E1013.31105
G1 X104.900 Y104.812 E1013.70375
G1 X95.100 Y114.612 E1017.38898
G1 X95.100 Y113.135 E1017.78168
G1 X104.900 Y103.335 E1021.46690
G1 X104.900 Y101.858 E1021.85960
G1 X95.100 Y111.658 E1025.54483
G1 X95.100 Y110.181 E1025.93753
G1 X104.900 Y100.382 E1029.62276
G1 X104.900 Y98.905 E1030.01546
G1 X95.100 Y108.704 E1033.70068
G1 X95.100 Y107.228 E1034.09338
G1 X104.900 Y97.428 E1037.77861
G1 X104.900 Y95.951 E1038.17131
G1 X95.100 Y105.751 E1041.85654
G1 X95.100 Y104.274 E1042.24924
G1 X104.900 Y94.474 E1045.93446
G1 X104.900 Y92.998 E1046.32716
G1 X95.100 Y102.797 E1050.01239
G1 X95.100 Y101.320 E1050.40509
G1 X104.900 Y91.521 E1054.09032
G1 X104.900 Y90.044 E1054.48302
G1 X95.100 Y99.844 E1058.16824
G1 X95.100 Y98.367 E1058.56094
G1 X104.900 Y88.567 E1062.24617
G1 X104.900 Y87.091 E1062.63887
G1 X95.100 Y96.890 E1066.32410
G1 X95.100 Y95.413 E1066.71680
G1 X104.900 Y85.614 E1070.40202
G1 X104.900 Y84.137 E1070.79472
G1 X95.100 Y93.936 E1074.47995
G1 X95.100 Y92.460 E1074.87265
G1 X104.900 Y82.660 E1078.55788
G1 X104.900 Y81.183 E1078.95058
G1 X95.100 Y90.983 E1082.63580
G1 X95.100 Y89.506 E1083.02850
G1 X104.900 Y79.707 E1086.71373
G1 X104.529 Y78.600 E1087.02398
G1 X95.100 Y88.029 E1090.56989
G1 X95.100 Y86.553 E1090.96259
G1 X103.053 Y78.600 E1093.95315
G1 X101.576 Y78.600 E1094.34585
G1 X95.100 Y85.076 E1096.78104
G1 X95.100 Y83.599 E1097.17374
G1 X100.099 Y78.600 E1099.05356
G1 X98.622 Y78.600 E1099.44626
G1 X95.100 Y82.122 E1100.77073
G1 X95.100 Y80.645 E1101.16343
G1 X97.145 Y78.600 E1101.93253
G1 X95.669 Y78.600 E1102.32523
G1 X95.100 Y79.169 E1102.53896
G1 Z4.500 F7800.000
G1 X104.900 Y78.943 F7800.000
G1 X104.557 Y78.600 E1102.66799 F4800.000
G1 X103.080 Y78.600 E1103.06069
G1 X104.900 Y80.420 E1103.74508
G1 X104.900 Y81.897 E1104.13778
G1 X101.603 Y78.600 E1105.37753
G1 X100.126 Y78.600 E1105.77023
G1 X104.900 Y83.374 E1107.56534
G1 X104.900 Y84.850 E1107.95805
G1 X98.650 Y78.600 E1110.30852
G1 X97.173 Y78.600 E1110.70122
G1 X104.900 Y86.327 E1113.60706
G1 X104.900 Y87.804 E1113.99977
G1 X95.696 Y78.600 E1117.46097
G1 X95.100 Y79.481 E1117.74379
G1 X104.900 Y89.281 E1121.42901
G1 X104.900 Y90.758 E1121.82172
G1 X95.100 Y80.958 E1125.50694
G1 X95.100 Y82.435 E1125.89964
G1 X104.900 Y92.234 E1129.58487
G1 X104.900 Y93.711 E1129.97757
G1 X95.100 Y83.912 E1133.66279
G1 X95.100 Y85.388 E1134.05550
G1 X104.900 Y95.188 E1137.74072
G1 X104.900 Y96.665 E1138.13342
G1 X95.100 Y86.865 E1141.81865
G1 X95.100 Y88.342 E1142.21135
G1 X104.900 Y98.142 E1145.89657
G1 X104.900 Y99.618 E1146.28928
G1 X95.100 Y89.819 E1149.97450
G1 X95.100 Y91.296 E1150.36720
G1 X104.900 Y101.095 E1154.05243
G1 X104.900 Y102.572 E1154.44513
G1 X95.100 Y92.772 E1158.13036
G1 X95.100 Y94.249 E1158.52306
G1 X104.900 Y104.049 E1162.20828
G1 X104.900 Y105.526 E1162.60098
G1 X95.100 Y95.726 E1166.28621
G1 X95.100 Y97.203 E1166.67891
G1 X104.900 Y107.002 E1170.36414
G1 X104.900 Y108.479 E1170.75684
G1 X95.100 Y98.680 E1174.44206
G1 X95.100 Y100.156 E1174.83477
G1 X104.900 Y109.956 E1178.51999
G1 X104.900 Y111.433 E1178.91269
G1 X95.100 Y101.633 E1182.59792
G1 X95.100 Y103.110 E1182.99062
G1 X104.900 Y112.909 E1186.67584
G1 X104.900 Y114.386 E1187.06855
G1 X95.100 Y104.587 E1190.75377
G1 X95.100 Y106.064 E1191.14647
G1 X104.900 Y115.863 E1194.83170
G1 X104.900 Y117.340 E1195.22440
G1 X95.100 Y107.540 E1198.90963
G1 X95.100 Y109.017 E1199.30233
G1 X104.900 Y118.817 E1202.98755
G1 X104.900 Y120.293 E1203.38025
G1 X95.100 Y110.494 E1207.06548
G1 X95.100 Y111.971 E1207.45818
G1 X104.529 Y121.400 E1211.00410
G1 X103.053 Y121.400 E1211.39680
G1 X95.100 Y113.447 E1214.38735
G1 X95.100 Y114.924 E1214.78005
G1 X101.576 Y121.400 E1217.21524
G1 X100.099 Y121.400 E1217.60794
G1 X95.100 Y116.401 E1219.48777
G1 X95.100 Y117.878 E1219.88047
G1 X98.622 Y121.400 E1221.20493
G1 X97.145 Y121.400 E1221.59763
G1 X95.100 Y119.355 E1222.36673
G1 X95.100 Y120.831 E1222.75943
G1 X95.669 Y121.400 E1222.97317
G1 Z5.000 F7800.000
G1 X104.557 Y121.400 F7800.000
G1 X104.900 Y121.057 E1223.10219 F4800.000
G1 X104.900 Y119.580 E1223.49489
G1 X103.080 Y121.400 E1224.17928
G1 X101.603 Y121.400 E1224.57198
G1 X104.900 Y118.103 E1225.81173
G1 X104.900 Y116.626 E1226.20443
G1 X100.126 Y121.400 E1227.99954
G1 X98.650 Y121.400 E1228.39224
G1 X104.900 Y115.150 E1230.74272
G1 X104.900 Y113.673 E1231.13542
G1 X97.173 Y121.400 E1234.04126
G1 X95.696 Y121.400 E1234.43396
G1 X104.900 Y112.196 E1237.89517
G1 X104.900 Y110.719 E1238.28787
G1 X95.100 Y120.519 E1241.97310
G1 X95.100 Y119.042 E1242.36580
G1 X104.900 Y109.242 E1246.05102
G1 X104.900 Y107.766 E1246.44372
G1 X95.100 Y117.565 E1250.12895
G1 X95.100 Y116.088 E1250.52165
G1 X104.900 Y106.289 E1254.20688
G1 X104.900 Y104.812 E1254.59958
G1 X95.100 Y114.612 E1258.28480
G1 X95.100 Y113.135 E1258.67750
G1 X104.900 Y103.335 E1262.36273
G1 X104.900 Y101.858 E1262.75543
G1 X95.100 Y111.658 E1266.44066
G1 X95.100 Y110.181 E1266.83336
G1 X104.900 Y100.382 E1270.51858
G1 X104.900 Y98.905 E1270.91129
G1 X95.100 Y108.704 E1274.59651
G1 X95.100 Y107.228 E1274.98921
G1 X104.900 Y97.428 E1278.67444
G1 X104.900 Y95.951 E1279.06714
G1 X95.100 Y105.751 E1282.75236
G1 X95.100 Y104.274 E1283.14507
G1 X104.900 Y94.474 E1286.83029
G1 X104.900 Y92.998 E1287.22299
G1 X95.100 Y102.797 E1290.90822
G1 X95.100 Y101.320 E1291.30092
G1 X104.900 Y91.521 E1294.98614
G1 X104.900 Y90.044 E1295.37885
G1 X95.100 Y99.844 E1299.06407
G1 X95.100 Y98.367 E1299.45677
G1 X104.900 Y88.567 E1303.14200
G1 X104.900 Y87.091 E1303.53470
G1 X95.100 Y96.890 E1307.21992
G1 X95.100 Y95.413 E1307.61262
G1 X104.900 Y85.614 E1311.29785
G1 X104.900 Y84.137 E1311.69055
G1 X95.100 Y93.936 E1315.37578
G1 X95.100 Y92.460 E1315.76848
G1 X104.900 Y82.660 E1319.45370
G1 X104.900 Y81.183 E1319.84640
G1 X95.100 Y90.983 E1323.53163
G1 X95.100 Y89.506 E1323.92433
G1 X104.900 Y79.707 E1327.60956
G1 X104.529 Y78.600 E1327.91980
G1 X95.100 Y88.029 E1331.46572
G1 X95.100 Y86.553 E1331.85842
G1 X103.053 Y78.600 E1334.84897
G1 X101.576 Y78.600 E1335.24167
G1 X95.100 Y85.076 E1337.67686
G1 X95.100 Y83.599 E1338.06956
G1 X100.099 Y78.600 E1339.94939
G1 X98.622 Y78.600 E1340.34209
G1 X95.100 Y82.122 E1341.66655
G1 X95.100 Y80.645 E1342.05925
G1 X97.145 Y78.600 E1342.82835
G1 X95.669 Y78.600 E1343.22105
G1 X95.100 Y79.169 E1343.43479
G1 Z5.500 F7800.000
G1 X104.900 Y78.943 F7800.000
G1 X104.557 Y78.600 E1343.56382 F4800.000
G1 X103.080 Y78.600 E1343.95652
G1 X104.900 Y80.420 E1344.64090
G1 X104.900 Y81.897 E1345.03361
G1 X101.603 Y78.600 E1346.27336
G1 X100.126 Y78.600 E1346.66606
G1 X104.900 Y83.374 E1348.46117
G1 X104.900 Y84.850 E1348.85387
G1 X98.650 Y78.600 E1351.20435
G1 X97.173 Y78.600 E1351.59705
G1 X104.900 Y86.327 E1354.50289
G1 X104.900 Y87.804 E1354.89559
G1 X95.696 Y78.600 E1358.35680
G1 X95.100 Y79.481 E1358.63962
G1 X104.900 Y89.281 E1362.32484
G1 X104.900 Y90.758 E1362.71754
G1 X95.100 Y80.958 E1366.40277
G1 X95.100 Y82.435 E1366.79547
G1 X104.900 Y92.234 E1370.48070
G1 X104.900 Y93.711 E1370.87340
G1 X95.100 Y83.912 E1374.55862
G1 X95.100 Y85.388 E1374.95132
G1 X104.900 Y95.188 E1378.63655
G1 X104.900 Y96.665 E1379.02925
G1 X95.100 Y86.865 E1382.71448
G1 X95.100 Y88.342 E1383.10718
G1 X104.900 Y98.142 E1386.79240
G1 X104.900 Y99.618 E1387.18510
G1 X95.100 Y89.819 E1390.87033
G1 X95.100 Y91.296 E1391.26303
G1 X104.900 Y101.095 E1394.94826
G1 X104.900 Y102.572 E1395.34096
G1 X95.100 Y92.772 E1399.02618
G1 X95.100 Y94.249 E1399.41888
G1 X104.900 Y104.049 E1403.10411
G1 X104.900 Y105.526 E1403.49681
G1 X95.100 Y95.726 E1407.18204
G1 X95.100 Y97.203 E1407.57474
G1 X104.900 Y107.002 E1411.25996
G1 X104.900 Y108.479 E1411.65267
G1 X95.100 Y98.680 E1415.33789
G1 X95.100 Y100.156 E1415.73059
G1 X104.900 Y109.956 E1419.41582
G1 X104.900 Y111.433 E1419.80852
G1 X95.100 Y101.633 E1423.49374
G1 X95.100 Y103.110 E1423.88645
G1 X104.900 Y112.909 E1427.57167
G1 X104.900 Y114.386 E1427.96437
G1 X95.100 Y104.587 E1431.64960
G1 X95.100 Y106.064 E1432.04230
G1 X104.900 Y115.863 E1435.72753
G1 X104.900 Y117.340 E1436.12023
G1 X95.100 Y107.540 E1439.80545
G1 X95.100 Y109.017 E1440.19815
G1 X104.900 Y118.817 E1443.88338
G1 X104.900 Y120.293 E1444.27608
G1 X95.100 Y110.494 E1447.96131
G1 X95.100 Y111.971 E1448.35401
G1 X104.529 Y121.400 E1451.89992
G1 X103.053 Y121.400 E1452.29262
G1 X95.100 Y113.447 E1455.28318
G1 X95.100 Y114.924 E1455.67588
G1 X101.576 Y121.400 E1458.11107
G1 X100.099 Y121.400 E1458.50377
G1 X95.100 Y116.401 E1460.38359
G1 X95.100 Y117.878 E1460.77629
G1 X98.622 Y121.400 E1462.10076
G1 X97.145 Y121.400 E1462.49346
G1 X95.100 Y119.355 E1463.26256
G1 X95.100 Y120.831 E1463.65526
G1 X95.669 Y121.400 E1463.86899
G1 Z6.000 F7800.000
G1 X104.557 Y121.400 F7800.000
G1 X104.900 Y121.057 E1463.99802 F4800.000
G1 X104.900 Y119.580 E1464.39072
G1 X103.080 Y121.400 E1465.07510
G1 X101.603 Y121.400 E1465.46781
G1 X104.900 Y118.103 E1466.70756
G1 X104.900 Y116.626 E1467.10026
G1 X100.126 Y121.400 E1468.89537
G1 X98.650 Y121.400 E1469.28807
G1 X104.900 Y115.150 E1471.63855
G1 X104.900 Y113.673 E1472.03125
G1 X97.173 Y121.400 E1474.93709
G1 X95.696 Y121.400 E1475.32979
G1 X104.900 Y112.196 E1478.79100
G1 X104.900 Y110.719 E1479.18370
G1 X95.100 Y120.519 E1482.86892
G1 X95.100 Y119.042 E1483.26162
G1 X104.900 Y109.242 E1486.94685
G1 X104.900 Y107.766 E1487.33955
G1 X95.100 Y117.565 E1491.02478
G1 X95.100 Y116.088 E1491.41748
G1 X104.900 Y106.289 E1495.10270
G1 X104.900 Y104.812 E1495.49540
G1 X95.100 Y114.612 E1499.18063
G1 X95.100 Y113.135 E1499.57333
G1 X104.900 Y103.335 E1503.25856
G1 X104.900 Y101.858 E1503.65126
G1 X95.100 Y111.658 E1507.33648
G1 X95.100 Y110.181 E1507.72919
G1 X104.900 Y100.382 E1511.41441
G1 X104.900 Y98.905 E1511.80711
G1 X95.100 Y108.704 E1515.49234
G1 X95.100 Y107.228 E1515.88504
G1 X104.900 Y97.428 E1519.57026
G1 X104.900 Y95.951 E1519.96297
G1 X95.100 Y105.751 E1523.64819
G1 X95.100 Y104.274 E1524.04089
G1 X104.900 Y94.474 E1527.72612
G1 X104.900 Y92.998 E1528.11882
G1 X95.100 Y102.797 E1531.80404
G1 X95.100 Y101.320 E1532.19675
G1 X104.900 Y91.521 E1535.88197
G1 X104.900 Y90.044 E1536.27467
G1 X95.100 Y99.844 E1539.95990
G1 X95.100 Y98.367 E1540.35260
G1 X104.900 Y88.567 E1544.03782
G1 X104.900 Y87.091 E1544.43052
G1 X95.100 Y96.890 E1548.11575
G1 X95.100 Y95.413 E1548.50845
G1 X104.900 Y85.614 E1552.19368
G1 X104.900 Y84.137 E1552.58638
G1 X95.100 Y93.936 E1556.27160
G1 X95.100 Y92.460 E1556.66430
G1 X104.900 Y82.660 E1560.34953
G1 X104.900 Y81.183 E1560.74223
G1 X95.100 Y90.983 E1564.42746
G1 X95.100 Y89.506 E1564.82016
G1 X104.900 Y79.707 E1568.50538
G1 X104.529 Y78.600 E1568.81563
G1 X95.100 Y88.029 E1572.36155
G1 X95.100 Y86.553 E1572.75425
G1 X103.053 Y78.600 E1575.74480
G1 X101.576 Y78.600 E1576.13750
G1 X95.100 Y85.076 E1578.57269
G1 X95.100 Y83.599 E1578.96539
G1 X100.099 Y78.600 E1580.84522
G1 X98.622 Y78.600 E1581.23792
G1 X95.100 Y82.122 E1582.56238
G1 X95.100 Y80.645 E1582.95508
G1 X97.145 Y78.600 E1583.72418
G1 X95.669 Y78.600 E1584.11688
G1 X95.100 Y79.169 E1584.33062
G1 Z6.500 F7800.000
G1 X104.900 Y78.943 F7800.000
G1 X104.557 Y78.600 E1584.45964 F4800.000
G1 X103.080 Y78.600 E1584.85234
G1 X104.900 Y80.420 E1585.53673
G1 X104.900 Y81.897 E1585.92943
G1 X101.603 Y78.600 E1587.16918
G1 X100.126 Y78.600 E1587.56188
G1 X104.900 Y83.374 E1589.35700
G1 X104.900 Y84.850 E1589.74970
G1 X98.650 Y78.600 E1592.10018
G1 X97.173 Y78.600 E1592.49288
G1 X104.900 Y86.327 E1595.39872
G1 X104.900 Y87.804 E1595.79142
G1 X95.696 Y78.600 E1599.25262
G1 X95.100 Y79.481 E1599.53544
G1 X104.900 Y89.281 E1603.22067
G1 X104.900 Y90.758 E1603.61337
G1 X95.100 Y80.958 E1607.29860
G1 X95.100 Y82.435 E1607.69130
G1 X104.900 Y92.234 E1611.37652
G1 X104.900 Y93.711 E1611.76922
G1 X95.100 Y83.912 E1615.45445
G1 X95.100 Y85.388 E1615.84715
G1 X104.900 Y95.188 E1619.53238
G1 X104.900 Y96.665 E1619.92508
G1 X95.100 Y86.865 E1623.61030
G1 X95.100 Y88.342 E1624.00300
G1 X104.900 Y98.142 E1627.68823
G1 X104.900 Y99.618 E1628.08093
G1 X95.100 Y89.819 E1631.76616
G1 X95.100 Y91.296 E1632.15886
G1 X104.900 Y101.095 E1635.84408
G1 X104.900 Y102.572 E1636.23678
G1 X95.100 Y92.772 E1639.92201
G1 X95.100 Y94.249 E1640.31471
G1 X104.900 Y104.049 E1643.99994
G1 X104.900 Y105.526 E1644.39264
G1 X95.100 Y95.726 E1648.07786
G1 X95.100 Y97.203 E1648.47056
G1 X104.900 Y107.002 E1652.15579
G1 X104.900 Y108.479 E1652.54849
G1 X95.100 Y98.680 E1656.23372
G1 X95.100 Y100.156 E1656.62642
G1 X104.900 Y109.956 E1660.31164
G1 X104.900 Y111.433 E1660.70435
G1 X95.100 Y101.633 E1664.38957
G1 X95.100 Y103.110 E1664.78227
G1 X104.900 Y112.909 E1668.46750
G1 X104.900 Y114.386 E1668.86020
G1 X95.100 Y104.587 E1672.54543
G1 X95.100 Y106.064 E1672.93813
G1 X104.900 Y115.863 E1676.62335
G1 X104.900 Y117.340 E1677.01605
G1 X95.100 Y107.540 E1680.70128
G1 X95.100 Y109.017 E1681.09398
G1 X104.900 Y118.817 E1684.77921
G1 X104.900 Y120.293 E1685.17191
G1 X95.100 Y110.494 E1688.85713
G1 X95.100 Y111.971 E1689.24983
G1 X104.529 Y121.400 E1692.79575
G1 X103.053 Y121.400 E1693.18845
G1 X95.100 Y113.447 E1696.17900
G1 X95.100 Y114.924 E1696.57170
G1 X101.576 Y121.400 E1699.00689
G1 X100.099 Y121.400 E1699.39959
G1 X95.100 Y116.401 E1701.27942
G1 X95.100 Y117.878 E1701.67212
G1 X98.622 Y121.400 E1702.99658
G1 X97.145 Y121.400 E1703.38928
G1 X95.100 Y119.355 E1704.15838
G1 X95.100 Y120.831 E1704.55108
G1 X95.669 Y121.400 E1704.76482
G1 Z7.000 F7800.000
G1 X104.557 Y121.400 F7800.000
G1 X104.900 Y121.057 E1704.89384 F4800.000
G1 X104.900 Y119.580 E1705.28654
G1 X103.080 Y121.400 E1705.97093
G1 X101.603 Y121.400 E1706.36363
G1 X104.900 Y118.103 E1707.60338
G1 X104.900 Y116.626 E1707.99608
G1 X100.126 Y121.400 E1709.79120
G1 X98.650 Y121.400 E1710.18390
G1 X104.900 Y115.150 E1712.53438
G1 X104.900 Y113.673 E1712.92708
G1 X97.173 Y121.400 E1715.83292
G1 X95.696 Y121.400 E1716.22562
G1 X104.900 Y112.196 E1719.68682
G1 X104.900 Y110.719 E1720.07952
G1 X95.100 Y120.519 E1723.76475
G1 X95.100 Y119.042 E1724.15745
G1 X104.900 Y109.242 E1727.84268
G1 X104.900 Y107.766 E1728.23538
G1 X95.100 Y117.565 E1731.92060
G1 X95.100 Y116.088 E1732.31330
G1 X104.900 Y106.289 E1735.99853
G1 X104.900 Y104.812 E1736.39123
G1 X95.100 Y114.612 E1740.07646
G1 X95.100 Y113.135 E1740.46916
G1 X104.900 Y103.335 E1744.15438
G1 X104.900 Y101.858 E1744.54708
G1 X95.100 Y111.658 E1748.23231
G1 X95.100 Y110.181 E1748.62501
G1 X104.900 Y100.382 E1752.31024
G1 X104.900 Y98.905 E1752.70294
G1 X95.100 Y108.704 E1756.38816
G1 X95.100 Y107.228 E1756.78087
G1 X104.900 Y97.428 E1760.46609
G1 X104.900 Y95.951 E1760.85879
G1 X95.100 Y105.751 E1764.54402
G1 X95.100 Y104.274 E1764.93672
G1 X104.900 Y94.474 E1768.62194
G1 X104.900 Y92.998 E1769.01465
G1 X95.100 Y102.797 E1772.69987
G1 X95.100 Y101.320 E1773.09257
G1 X104.900 Y91.521 E1776.77780
G1 X104.900 Y90.044 E1777.17050
G1 X95.100 Y99.844 E1780.85572
G1 X95.100 Y98.367 E1781.24843
G1 X104.900 Y88.567 E1784.93365
G1 X104.900 Y87.091 E1785.32635
G1 X95.100 Y96.890 E1789.01158
G1 X95.100 Y95.413 E1789.40428
G1 X104.900 Y85.614 E1793.08950
G1 X104.900 Y84.137 E1793.48220
G1 X95.100 Y93.936 E1797.16743
G1 X95.100 Y92.460 E1797.56013
G1 X104.900 Y82.660 E1801.24536
G1 X104.900 Y81.183 E1801.63806
G1 X95.100 Y90.983 E1805.32328
G1 X95.100 Y89.506 E1805.71598
G1 X104.900 Y79.707 E1809.40121
G1 X104.529 Y78.600 E1809.71146
G1 X95.100 Y88.029 E1813.25737
G1 X95.100 Y86.553 E1813.65007
G1 X103.053 Y78.600 E1816.64063
G1 X101.576 Y78.600 E1817.03333
G1 X95.100 Y85.076 E1819.46852
G1 X95.100 Y83.599 E1819.86122
G1 X100.099 Y78.600 E1821.74104
G1 X98.622 Y78.600 E1822.13374
G1 X95.100 Y82.122 E1823.45821
G1 X95.100 Y80.645 E1823.85091
G1 X97.145 Y78.600 E1824.62001
G1 X95.669 Y78.600 E1825.01271
G1 X95.100 Y79.169 E1825.22644
G1 Z7.500 F7800.000
G1 X104.900 Y78.943 F7800.000
G1 X104.557 Y78.600 E1825.35547 F4800.000
G1 X103.080 Y78.600 E1825.74817
G1 X104.900 Y80.420 E1826.43256
G1 X104.900 Y81.897 E1826.82526
G1 X101.603 Y78.600 E1828.06501
G1 X100.126 Y78.600 E1828.45771
G1 X104.900 Y83.374 E1830.25283
G1 X104.900 Y84.850 E1830.64553
G1 X98.650 Y78.600 E1832.99600
G1 X97.173 Y78.600 E1833.38870
G1 X104.900 Y86.327 E1836.29455
G1 X104.900 Y87.804 E1836.68725
G1 X95.696 Y78.600 E1840.14845
G1 X95.100 Y79.481 E1840.43127
G1 X104.900 Y89.281 E1844.11649
G1 X104.900 Y90.758 E1844.50920
G1 X95.100 Y80.958 E1848.19442
G1 X95.100 Y82.435 E1848.58712
G1 X104.900 Y92.234 E1852.27235
G1 X104.900 Y93.711 E1852.66505
G1 X95.100 Y83.912 E1856.35028
G1 X95.100 Y85.388 E1856.74298
G1 X104.900 Y95.188 E1860.42820
G1 X104.900 Y96.665 E1860.82090
G1 X95.100 Y86.865 E1864.50613
G1 X95.100 Y88.342 E1864.89883
G1 X104.900 Y98.142 E1868.58406
G1 X104.900 Y99.618 E1868.97676
G1 X95.100 Y89.819 E1872.66198
G1 X95.100 Y91.296 E1873.05468
G1 X104.900 Y101.095 E1876.73991
G1 X104.900 Y102.572 E1877.13261
G1 X95.100 Y92.772 E1880.81784
G1 X95.100 Y94.249 E1881.21054
G1 X104.900 Y104.049 E1884.89576
G1 X104.900 Y105.526 E1885.28846
G1 X95.100 Y95.726 E1888.97369
G1 X95.100 Y97.203 E1889.36639
G1 X104.900 Y107.002 E1893.05162
G1 X104.900 Y108.479 E1893.44432
G1 X95.100 Y98.680 E1897.12954
G1 X95.100 Y100.156 E1897.52225
G1 X104.900 Y109.956 E1901.20747
G1 X104.900 Y111.433 E1901.60017
G1 X95.100 Y101.633 E1905.28540
G1 X95.100 Y103.110 E1905.67810
G1 X104.900 Y112.909 E1909.36333
G1 X104.900 Y114.386 E1909.75603
G1 X95.100 Y104.587 E1913.44125
G1 X95.100 Y106.064 E1913.83395
G1 X104.900 Y115.863 E1917.51918
G1 X104.900 Y117.340 E1917.91188
G1 X95.100 Y107.540 E1921.59711
G1 X95.100 Y109.017 E1921.98981
G1 X104.900 Y118.817 E1925.67503
G1 X104.900 Y120.293 E1926.06773
G1 X95.100 Y110.494 E1929.75296
G1 X95.100 Y111.971 E1930.14566
G1 X104.529 Y121.400 E1933.69158
G1 X103.053 Y121.400 E1934.08428
G1 X95.100 Y113.447 E1937.07483
G1 X95.100 Y114.924 E1937.46753
G1 X101.576 Y121.400 E1939.90272
G1 X100.099 Y121.400 E1940.29542
G1 X95.100 Y116.401 E1942.17525
G1 X95.100 Y117.878 E1942.56795
G1 X98.622 Y121.400 E1943.89241
G1 X97.145 Y121.400 E1944.28511
G1 X95.100 Y119.355 E1945.05421
G1 X95.100 Y120.831 E1945.44691
G1 X95.669 Y121.400 E1945.66065
G1 Z8.000 F7800.000
G1 X104.557 Y121.400 F7800.000
G1 X104.900 Y121.057 E1945.78967 F4800.000
G1 X104.900 Y119.580 E1946.18237
G1 X103.080 Y121.400 E1946.86676
G1 X101.603 Y121.400 E1947.25946
G1 X104.900 Y118.103 E1948.49921
G1 X104.900 Y116.626 E1948.89191
G1 X100.126 Y121.400 E1950.68702
G1 X98.650 Y121.400 E1951.07973
G1 X104.900 Y115.150 E1953.43020
G1 X104.900 Y113.673 E1953.82290
G1 X97.173 Y121.400 E1956.72874
G1 X95.696 Y121.400 E1957.12145
G1 X104.900 Y112.196 E1960.58265
G1 X104.900 Y110.719 E1960.97535
G1 X95.100 Y120.519 E1964.66058
G1 X95.100 Y119.042 E1965.05328
G1 X104.900 Y109.242 E1968.73850
G1 X104.900 Y107.766 E1969.13120
G1 X95.100 Y117.565 E1972.81643
G1 X95.100 Y116.088 E1973.20913
G1 X104.900 Y106.289 E1976.89436
G1 X104.900 Y104.812 E1977.28706
G1 X95.100 Y114.612 E1980.97228
G1 X95.100 Y113.135 E1981.36498
G1 X104.900 Y103.335 E1985.05021
G1 X104.900 Y101.858 E1985.44291
G1 X95.100 Y111.658 E1989.12814
G1 X95.100 Y110.181 E1989.52084
G1 X104.900 Y100.382 E1993.20606
G1 X104.900 Y98.905 E1993.59877
G1 X95.100 Y108.704 E1997.28399
G1 X95.100 Y107.228 E1997.67669
G1 X104.900 Y97.428 E2001.36192
G1 X104.900 Y95.951 E2001.75462
G1 X95.100 Y105.751 E2005.43984
G1 X95.100 Y104.274 E2005.83255
G1 X104.900 Y94.474 E2009.51777
G1 X104.900 Y92.998 E2009.91047
G1 X95.100 Y102.797 E2013.59570
G1 X95.100 Y101.320 E2013.98840
G1 X104.900 Y91.521 E2017.67362
G1 X104.900 Y90.044 E2018.06633
G1 X95.100 Y99.844 E2021.75155
G1 X95.100 Y98.367 E2022.14425
G1 X104.900 Y88.567 E2025.82948
G1 X104.900 Y87.091 E2026.22218
G1 X95.100 Y96.890 E2029.90740
G1 X95.100 Y95.413 E2030.30010
G1 X104.900 Y85.614 E2033.98533
G1 X104.900 Y84.137 E2034.37803
G1 X95.100 Y93.936 E2038.06326
G1 X95.100 Y92.460 E2038.45596
G1 X104.900 Y82.660 E2042.14118
G1 X104.900 Y81.183 E2042.53388
G1 X95.100 Y90.983 E2046.21911
G1 X95.100 Y89.506 E2046.61181
G1 X104.900 Y79.707 E2050.29704
G1 X104.529 Y78.600 E2050.60728
G1 X95.100 Y88.029 E2054.15320
G1 X95.100 Y86.553 E2054.54590
G1 X103.053 Y78.600 E2057.53645
G1 X101.576 Y78.600 E2057.92915
G1 X95.100 Y85.076 E2060.36434
G1 X95.100 Y83.599 E2060.75704
G1 X100.099 Y78.600 E2062.63687
G1 X98.622 Y78.600 E2063.02957
G1 X95.100 Y82.122 E2064.35403
G1 X95.100 Y80.645 E2064.74674
G1 X97.145 Y78.600 E2065.51583
G1 X95.669 Y78.600 E2065.90854
G1 X95.100 Y79.169 E2066.12227
G1 Z8.500 F7800.000
G1 X104.900 Y78.943 F7800.000
G1 X104.557 Y78.600 E2066.25130 F4800.000
G1 X103.080 Y78.600 E2066.64400
G1 X104.900 Y80.420 E2067.32838
G1 X104.900 Y81.897 E2067.72109
G1 X101.603 Y78.600 E2068.96084
G1 X100.126 Y78.600 E2069.35354
G1 X104.900 Y83.374 E2071.14865
G1 X104.900 Y84.850 E2071.54135
G1 X98.650 Y78.600 E2073.89183
G1 X97.173 Y78.600 E2074.28453
G1 X104.900 Y86.327 E2077.19037
G1 X104.900 Y87.804 E2077.58307
G1 X95.696 Y78.600 E2081.04428
G1 X95.100 Y79.481 E2081.32710
G1 X104.900 Y89.281 E2085.01232
G1 X104.900 Y90.758 E2085.40502
G1 X95.100 Y80.958 E2089.09025
G1 X95.100 Y82.435 E2089.48295
G1 X104.900 Y92.234 E2093.16818
G1 X104.900 Y93.711 E2093.56088
G1 X95.100 Y83.912 E2097.24610
G1 X95.100 Y85.388 E2097.63880
G1 X104.900 Y95.188 E2101.32403
G1 X104.900 Y96.665 E2101.71673
G1 X95.100 Y86.865 E2105.40196
G1 X95.100 Y88.342 E2105.79466
G1 X104.900 Y98.142 E2109.47988
G1 X104.900 Y99.618 E2109.87258
G1 X95.100 Y89.819 E2113.55781
G1 X95.100 Y91.296 E2113.95051
G1 X104.900 Y101.095 E2117.63574
G1 X104.900 Y102.572 E2118.02844
G1 X95.100 Y92.772 E2121.71366
G1 X95.100 Y94.249 E2122.10636
G1 X104.900 Y104.049 E2125.79159
G1 X104.900 Y105.526 E2126.18429
G1 X95.100 Y95.726 E2129.86952
G1 X95.100 Y97.203 E2130.26222
G1 X104.900 Y107.002 E2133.94744
G1 X104.900 Y108.479 E2134.34015
G1 X95.100 Y98.680 E2138.02537
G1 X95.100 Y100.156 E2138.41807
G1 X104.900 Y109.956 E2142.10330
G1 X104.900 Y111.433 E2142.49600
G1 X95.100 Y101.633 E2146.18123
G1 X95.100 Y103.110 E2146.57393
G1 X104.900 Y112.909 E2150.25915
G1 X104.900 Y114.386 E2150.65185
G1 X95.100 Y104.587 E2154.33708
G1 X95.100 Y106.064 E2154.72978
G1 X104.900 Y115.863 E2158.41501
G1 X104.900 Y117.340 E2158.80771
G1 X95.100 Y107.540 E2162.49293
G1 X95.100 Y109.017 E2162.88563
G1 X104.900 Y118.817 E2166.57086
G1 X104.900 Y120.293 E2166.96356
G1 X95.100 Y110.494 E2170.64879
G1 X95.100 Y111.971 E2171.04149
G1 X104.529 Y121.400 E2174.58740
G1 X103.053 Y121.400 E2174.98010
G1 X95.100 Y113.447 E2177.97066
G1 X95.100 Y114.924 E2178.36336
G1 X101.576 Y121.400 E2180.79855
G1 X100.099 Y121.400 E2181.19125
G1 X95.100 Y116.401 E2183.07107
G1 X95.100 Y117.878 E2183.46377
G1 X98.622 Y121.400 E2184.78824
G1 X97.145 Y121.400 E2185.18094
G1 X95.100 Y119.355 E2185.95004
G1 X95.100 Y120.831 E2186.34274
G1 X95.669 Y121.400 E2186.55647
G1 Z9.000 F7800.000
G1 E2184.55647 F2400.00000
G92 E0
G1 X104.557 Y121.400 F7800.000
G1 E2.00000 F2400.00000
G1 X104.900 Y121.057 E2.12902 F4800.000
G1 X104.900 Y119.580 E2.52172
G1 X103.080 Y121.400 E3.20611
G1 X101.603 Y121.400 E3.59881
G1 X104.900 Y118.103 E4.83856
G1 X104.900 Y116.626 E5.23126
G1 X100.126 Y121.400 E7.02638
G1 X98.650 Y121.400 E7.41908
G1 X104.900 Y115.150 E9.76956
G1 X104.900 Y113.673 E10.16226
G1 X97.173 Y121.400 E13.06810
G1 X95.696 Y121.400 E13.46080
G1 X104.900 Y112.196 E16.92200
G1 X104.900 Y110.719 E17.31470
G1 X95.100 Y120.519 E20.99993
G1 X95.100 Y119.042 E21.39263
G1 X104.900 Y109.242 E25.07786
G1 X104.900 Y107.766 E25.47056
G1 X95.100 Y117.565 E29.15578
G1 X95.100 Y116.088 E29.54848
G1 X104.900 Y106.289 E33.23371
G1 X104.900 Y104.812 E33.62641
G1 X95.100 Y114.612 E37.31164
G1 X95.100 Y113.135 E37.70434
G1 X104.900 Y103.335 E41.38956
G1 X104.900 Y101.858 E41.78227
G1 X95.100 Y111.658 E45.46749
G1 X95.100 Y110.181 E45.86019
G1 X104.900 Y100.382 E49.54542
G1 X104.900 Y98.905 E49.93812
G1 X95.100 Y108.704 E53.62335
G1 X95.100 Y107.228 E54.01605
G1 X104.900 Y97.428 E57.70127
G1 X104.900 Y95.951 E58.09397
G1 X95.100 Y105.751 E61.77920
G1 X95.100 Y104.274 E62.17190
G1 X104.900 Y94.474 E65.85713
G1 X104.900 Y92.998 E66.24983
G1 X95.100 Y102.797 E69.93505
G1 X95.100 Y101.320 E70.32775
G1 X104.900 Y91.521 E74.01298
G1 X104.900 Y90.044 E74.40568
G1 X95.100 Y99.844 E78.09091
G1 X95.100 Y98.367 E78.48361
G1 X104.900 Y88.567 E82.16883
G1 X104.900 Y87.091 E82.56153
G1 X95.100 Y96.890 E86.24676
G1 X95.100 Y95.413 E86.63946
G1 X104.900 Y85.614 E90.32468
G1 X104.900 Y84.137 E90.71739
G1 X95.100 Y93.936 E94.40261
G1 X95.100 Y92.460 E94.79531
G1 X104.900 Y82.660 E98.48054
G1 X104.900 Y81.183 E98.87324
G1 X95.100 Y90.983 E102.55846
G1 X95.100 Y89.506 E102.95116
G1 X104.900 Y79.707 E106.63639
G1 X104.529 Y78.600 E106.94664
G1 X95.100 Y88.029 E110.49255
G1 X95.100 Y86.553 E110.88525
G1 X103.053 Y78.600 E113.87581
G1 X101.576 Y78.600 E114.26851
G1 X95.100 Y85.076 E116.70370
G1 X95.100 Y83.599 E117.09640
G1 X100.099 Y78.600 E118.97622
G1 X98.622 Y78.600 E119.36893
G1 X95.100 Y82.122 E120.69339
G1 X95.100 Y80.645 E121.08609
G1 X97.145 Y78.600 E121.85519
G1 X95.669 Y78.600 E122.24789
G1 X95.100 Y79.169 E122.46163
G1 E120.46163 F2400.00000
G92 E0
M107
M104 S0 ; turn off temperature
G28 X0  ; home X axis
M84     ; disable motors

; filament used = 2305.0mm (1.8cm3)

; avoid_crossing_perimeters = 0
; bed_shape = 0x0,200x0,200x200,0x200
; bed_temperature = 0
; before_layer_gcode = 
; bridge_acceleration = 0
; bridge_fan_speed = 100
; brim_width = 0
; complete_objects = 0
; cooling = 1
; default_acceleration = 0
; disable_fan_first_layers = 3
; duplicate_distance = 6
; end_gcode = M104 S0 ; turn off temperature\nG28 X0  ; home X axis\nM84     ; disable motors\n
; extruder_clearance_height = 20
; extruder_clearance_radius = 20
; extruder_offset = 0x0
; extrusion_axis = E
; extrusion_multiplier = 1
; fan_always_on = 0
; fan_below_layer_time = 60
; filament_colour = #FFFFFF
; filament_diameter = 1
; first_layer_acceleration = 0
; first_layer_bed_temperature = 0
; first_layer_extrusion_width = 200%
; first_layer_speed = 30
; first_layer_temperature = 200
; gcode_arcs = 0
; gcode_comments = 0
; gcode_flavor = reprap
; infill_acceleration = 0
; infill_first = 0
; layer_gcode = 
; max_fan_speed = 100
; max_print_speed = 80
; max_volumetric_speed = 0
; min_fan_speed = 35
; min_print_speed = 10
; min_skirt_length = 0
; notes = 
; nozzle_diameter = 0.5
; only_retract_when_crossing_perimeters = 1
; ooze_prevention = 0
; output_filename_format = [input_filename_base].gcode
; perimeter_acceleration = 0
; post_process = 
; pressure_advance = 0
; resolution = 0
; retract_before_travel = 2
; retract_layer_change = 0
; retract_length = 2
; retract_length_toolchange = 10
; retract_lift = 0
; retract_restart_extra = 0
; retract_restart_extra_toolchange = 0
; retract_speed = 40
; skirt_distance = 6
; skirt_height = 1
; skirts = 0
; slowdown_below_layer_time = 5
; spiral_vase = 0
; standby_temperature_delta = -5
; start_gcode = G28 ; home all axes\nG1 Z5 F5000 ; lift nozzle\n
; temperature = 200
; threads = 2
; toolchange_gcode = 
; travel_speed = 130
; use_firmware_retraction = 0
; use_relative_e_distances = 0
; use_volumetric_e = 0
; vibration_limit = 0
; wipe = 0
; z_offset = 0
; dont_support_bridges = 1
; extrusion_width = 0
; first_layer_height = 0.5
; infill_only_where_needed = 0
; interface_shells = 0
; layer_height = 0.5
; raft_layers = 0
; seam_position = aligned
; support_material = 0
; support_material_angle = 0
; support_material_contact_distance = 0.2
; support_material_enforce_layers = 0
; support_material_extruder = 1
; support_material_extrusion_width = 0
; support_material_interface_extruder = 1
; support_material_interface_layers = 3
; support_material_interface_spacing = 0
; support_material_interface_speed = 100%
; support_material_pattern = pillars
; support_material_spacing = 2.5
; support_material_speed = 60
; support_material_threshold = 0
; xy_size_compensation = 0
; bottom_solid_layers = 0
; bridge_flow_ratio = 1
; bridge_speed = 60
; external_fill_pattern = rectilinear
; external_perimeter_extrusion_width = 0
; external_perimeter_speed = 50%
; external_perimeters_first = 0
; extra_perimeters = 1
; fill_angle = 45
; fill_density = 40%
; fill_pattern = rectilinear
; gap_fill_speed = 20
; infill_every_layers = 1
; infill_extruder = 1
; infill_extrusion_width = 0
; infill_overlap = 15%
; infill_speed = 80
; overhangs = 1
; perimeter_extruder = 1
; perimeter_extrusion_width = 0
; perimeter_speed = 60
; perimeters = 0
; small_perimeter_speed = 15
; solid_infill_below_area = 70
; solid_infill_every_layers = 0
; solid_infill_extruder = 1
; solid_infill_extrusion_width = 0
; solid_infill_speed = 20
; thin_walls = 1
; top_infill_extrusion_width = 0
; top_solid_infill_speed = 15
; top_solid_layers = 0
