; generated by Slic3r 1.3.0 on 2019-11-27 at 11:11:42

; external perimeters extrusion width = 0.55mm (5.57mm^3/s)
; perimeters extrusion width = 0.58mm (11.78mm^3/s)
; infill extrusion width = 0.58mm (15.71mm^3/s)
; solid infill extrusion width = 0.58mm (3.93mm^3/s)
; top infill extrusion width = 0.58mm (2.95mm^3/s)

M107
M104 S205 ; set temperature
G28 ; home all axes
G1 Z5 F5000 ; lift nozzle

; Filament gcode

M109 S205 ; set temperature and wait for it to be reached
G21 ; set units to millimeters
G90 ; use absolute coordinates
M82 ; use absolute distances for extrusion
G92 E0
G1 Z0.300 F7800.000
G1 E-2.00000 F2400.00000
G92 E0
G1 X95.685 Y97.521 F7800.000
G1 E2.00000 F2400.00000
G1 F1326.58
G1 X95.267 Y97.939 E2.01374
G1 X95.113 Y98.141 E2.01963
G1 X95.014 Y98.319 E2.02438
G1 X94.900 Y98.592 E2.03125
G1 X94.742 Y99.239 E2.04672
G1 X96.852 Y97.129 E2.11608
G1 X97.618 Y97.137 E2.13388
G1 X94.675 Y100.080 E2.23060
G1 X94.675 Y100.595 E2.24257
G1 X94.697 Y100.833 E2.24812
G1 X98.386 Y97.144 E2.36938
G1 X99.180 Y97.124 E2.38783
G1 X94.811 Y101.493 E2.53142
G1 X94.897 Y101.816 E2.53920
G1 X95.004 Y102.074 E2.54568
G1 X99.905 Y97.174 E2.70674
G1 X100.173 Y97.245 E2.71319
G1 X100.328 Y97.314 E2.71715
G1 X100.456 Y97.397 E2.72069
G1 X95.323 Y102.530 E2.88941
G1 X95.483 Y102.656 E2.89415
G1 X95.693 Y102.756 E2.89956
G1 X95.833 Y102.794 E2.90293
G1 X100.805 Y97.823 E3.06633
G1 X101.063 Y98.338 E3.07974
G1 X96.531 Y102.871 E3.22872
G1 X97.316 Y102.860 E3.24696
G1 X102.741 Y97.435 E3.42526
G1 X102.928 Y97.433 E3.42961
G1 X103.268 Y97.500 E3.43767
G1 X103.398 Y97.553 E3.44093
G1 X98.091 Y102.859 E3.61534
G1 X98.851 Y102.874 E3.63300
G1 X103.891 Y97.834 E3.79863
G1 X104.145 Y98.007 E3.80577
G1 X104.382 Y97.648 E3.81577
G1 X104.466 Y97.565 E3.81850
G1 X104.581 Y97.497 E3.82161
G1 X104.707 Y97.459 E3.82467
G1 X104.849 Y97.454 E3.82797
G1 X105.003 Y97.496 E3.83169
G1 X100.753 Y101.746 E3.97138
G1 X101.141 Y102.133 E3.98411
G1 X104.524 Y98.750 E4.09530
G1 X104.668 Y99.380 E4.11032
G1 X101.618 Y102.430 E4.21058
G1 X101.740 Y102.483 E4.21368
G1 X102.122 Y102.565 E4.22275
G1 X102.257 Y102.566 E4.22589
G1 X104.677 Y100.146 E4.30542
G1 X104.485 Y101.005 E4.32587
G1 X104.576 Y101.021 E4.32802
G1 X103.339 Y102.258 E4.36869
G1 X103.730 Y101.995 E4.37966
G1 X103.992 Y102.379 E4.39047
G1 X105.159 Y101.212 E4.42883
G1 X105.212 Y101.261 E4.43050
G1 X105.286 Y101.383 E4.43382
G1 X105.320 Y101.488 E4.43639
G1 X105.327 Y101.661 E4.44042
G1 X105.289 Y101.805 E4.44387
G1 X105.211 Y101.935 E4.44739
G1 X104.791 Y102.354 E4.46118
G1 E2.46118 F2400.00000
G92 E0
G1 X104.325 Y98.949 F7800.000
G1 E2.00000 F2400.00000
G1 F1326.58
G1 X105.325 Y97.949 E2.03285
G1 X105.290 Y97.779 E2.03690
G1 X105.236 Y97.682 E2.03947
G1 X105.140 Y97.576 E2.04280
G1 X105.003 Y97.496 E2.04647
G1 E0.04647 F2400.00000
G92 E0
G1 X100.158 Y102.341 F7800.000
G1 E2.00000 F2400.00000
G1 F1326.58
G1 X100.328 Y102.269 E2.00429
G1 X100.469 Y102.178 E2.00820
G1 X100.581 Y102.077 E2.01170
G1 X100.783 Y101.805 E2.01957
G1 X100.875 Y101.624 E2.02428
G1 X99.742 Y102.758 E2.06153
M104 S200 ; set temperature
G1 Z0.700 F7800.000
G1 X101.036 Y98.766 F7800.000
G1 F1200
G1 X99.469 Y97.199 E2.12316
G1 X99.752 Y97.271 E2.13129
G1 X99.965 Y97.372 E2.13783
G1 X100.097 Y97.468 E2.14238
G1 X100.265 Y97.649 E2.14925
G1 X100.372 Y97.810 E2.15464
G1 X100.654 Y98.384 E2.17242
G1 X104.175 Y98.430 F7800.000
G1 F1200
G1 X103.793 Y98.048 E2.18745
G1 X103.754 Y98.118 E2.18966
G1 X103.625 Y97.988 E2.19476
G1 X103.589 Y97.975 E2.19583
G1 X103.594 Y97.957 E2.19634
G1 X103.554 Y97.917 E2.19791
G1 X103.483 Y97.892 E2.20000
G1 X103.494 Y97.866 E2.20078
G1 X103.202 Y97.669 E2.21058
G1 X102.871 Y97.535 E2.22050
G1 X102.519 Y97.469 E2.23047
G1 X104.602 Y99.553 E2.31241
G1 X104.646 Y99.727 E2.31742
G1 X104.684 Y100.190 E2.33033
G1 X104.672 Y100.318 E2.33389
G1 X101.879 Y97.524 E2.44378
G1 X101.765 Y97.549 E2.44701
G1 X101.388 Y97.729 E2.45862
G1 X104.581 Y100.922 E2.58421
G1 X104.531 Y101.116 E2.58979
G1 X104.505 Y101.117 E2.59052
G1 X104.495 Y101.245 E2.59410
G1 X104.471 Y101.248 E2.59476
G1 X104.476 Y101.308 E2.59641
G1 X104.434 Y101.451 E2.60058
G1 X104.489 Y101.456 E2.60211
G1 X104.461 Y101.496 E2.60347
G1 X101.010 Y98.045 E2.73920
G1 X100.672 Y98.403 E2.75287
G1 X104.195 Y101.926 E2.89145
G1 X103.970 Y101.999 E2.89804
G1 X103.981 Y102.040 E2.89923
G1 X103.862 Y102.078 E2.90271
G1 X103.880 Y102.127 E2.90415
G1 X103.776 Y102.202 E2.90770
G1 X98.731 Y97.156 E3.10616
G1 X98.051 Y97.172 E3.12506
G1 X103.319 Y102.440 E3.33227
G1 X102.909 Y102.531 E3.34396
G1 X102.714 Y102.530 E3.34937
G1 X97.354 Y97.170 E3.56021
G1 X96.644 Y97.155 E3.57995
G1 X101.740 Y102.251 E3.78040
G1 X101.587 Y102.149 E3.78554
G1 X101.042 Y101.602 E3.80699
G1 X100.830 Y102.036 E3.82041
G1 X95.996 Y97.202 E4.01055
G1 X95.729 Y97.271 E4.01822
G1 X95.491 Y97.392 E4.02564
G1 X100.556 Y102.457 E4.22487
G1 X100.438 Y102.566 E4.22933
G1 X100.295 Y102.658 E4.23407
G1 X100.132 Y102.728 E4.23900
G1 X95.150 Y97.747 E4.43495
G1 X94.980 Y98.072 E4.44517
G1 X94.928 Y98.219 E4.44951
G1 X99.540 Y102.831 E4.63091
G1 X99.312 Y102.847 E4.63727
G1 X98.851 Y102.838 E4.65009
G1 X94.783 Y98.770 E4.81009
G1 X94.708 Y99.389 E4.82744
G1 X98.142 Y102.823 E4.96253
G1 X97.462 Y102.839 E4.98144
G1 X94.704 Y100.080 E5.08993
G1 X94.737 Y100.556 E5.10319
G1 X94.785 Y100.856 E5.11164
G1 X96.765 Y102.837 E5.18954
G1 X96.354 Y102.795 E5.20105
G1 X96.110 Y102.729 E5.20806
G1 X95.898 Y102.628 E5.21460
G1 X95.764 Y102.530 E5.21922
G1 X95.375 Y102.142 E5.23451
G1 Z1.100 F7800.000
G1 X95.375 Y97.929 F7800.000
G1 F1200
G1 X95.757 Y97.548 E5.25010
G1 X95.935 Y97.410 E5.25660
G1 X96.143 Y97.312 E5.26323
G1 X96.384 Y97.247 E5.27044
G1 X96.823 Y97.204 E5.28317
G1 X94.820 Y99.206 E5.36495
G1 X94.779 Y99.462 E5.37243
G1 X94.747 Y100.001 E5.38801
G1 X97.537 Y97.211 E5.50193
G1 X98.247 Y97.222 E5.52244
G1 X94.760 Y100.709 E5.66482
G1 X94.854 Y101.337 E5.68317
G1 X98.984 Y97.207 E5.85185
G1 X99.346 Y97.200 E5.86230
G1 X99.682 Y97.231 E5.87203
G1 X95.022 Y101.891 E6.06232
G1 X95.180 Y102.210 E6.07261
G1 X95.283 Y102.351 E6.07765
G1 X100.252 Y97.383 E6.28057
G1 X100.443 Y97.507 E6.28716
G1 X100.633 Y97.723 E6.29546
G1 X95.698 Y102.658 E6.49701
G1 X96.002 Y102.753 E6.50621
G1 X96.288 Y102.789 E6.51455
G1 X100.884 Y98.193 E6.70224
G1 X101.029 Y98.503 E6.71210
G1 X101.537 Y97.968 E6.73343
G1 X101.829 Y97.764 E6.74371
G1 X102.178 Y97.621 E6.75460
G1 X97.004 Y102.795 E6.96588
G1 X97.745 Y102.776 E6.98726
G1 X102.960 Y97.561 E7.20025
G1 X103.324 Y97.636 E7.21098
G1 X103.525 Y97.718 E7.21724
G1 X98.451 Y102.792 E7.42446
G1 X98.907 Y102.802 E7.43764
G1 X99.180 Y102.785 E7.44552
G1 X103.952 Y98.012 E7.64043
G1 X104.021 Y98.065 E7.64294
G1 X104.272 Y98.413 E7.65534
G1 X100.912 Y101.774 E7.79258
G1 X101.154 Y102.033 E7.80281
G1 X101.278 Y102.130 E7.80735
G1 X104.503 Y98.905 E7.93904
G1 X104.604 Y99.272 E7.95004
G1 X104.637 Y99.493 E7.95647
G1 X101.759 Y102.370 E8.07397
G1 X102.139 Y102.449 E8.08516
G1 X102.401 Y102.450 E8.09274
G1 X104.618 Y100.233 E8.18325
G1 X104.543 Y100.596 E8.19394
G1 X104.420 Y100.946 E8.20466
G1 X104.232 Y101.279 E8.21569
G1 X104.027 Y101.546 E8.22542
G1 X103.643 Y101.929 E8.24108
M106 S252.45
G1 Z1.500 F7800.000
G1 E6.24108 F2400.00000
G92 E0
G1 X103.921 Y98.558 F7800.000
G1 E2.00000 F2400.00000
G1 F1200
G1 X103.538 Y98.174 E2.01527
G1 X103.267 Y97.967 E2.02488
G1 X102.917 Y97.808 E2.03574
G1 X102.519 Y97.728 E2.04718
G1 X102.389 Y97.729 E2.05084
G1 X104.527 Y99.867 E2.13605
G1 X104.555 Y100.111 E2.14298
G1 X104.524 Y100.569 E2.15591
G1 X101.767 Y97.812 E2.26581
G1 X101.429 Y97.959 E2.27621
G1 X101.303 Y98.052 E2.28062
G1 X104.374 Y101.123 E2.40302
G1 X104.204 Y101.472 E2.41396
G1 X104.123 Y101.576 E2.41768
G1 X100.946 Y98.399 E2.54431
G1 X100.649 Y98.733 E2.55689
G1 X100.357 Y98.012 E2.57881
G1 X100.259 Y97.836 E2.58447
G1 X100.107 Y97.636 E2.59157
G1 X99.933 Y97.486 E2.59804
G1 X99.794 Y97.407 E2.60256
G1 X99.568 Y97.326 E2.60930
G1 X99.315 Y97.278 E2.61657
G1 X99.106 Y97.264 E2.62247
G1 X103.776 Y101.933 E2.80858
G1 X103.665 Y102.022 E2.81256
G1 X103.320 Y102.183 E2.82328
G1 X98.405 Y97.267 E3.01918
G1 X97.715 Y97.282 E3.03863
G1 X102.707 Y102.273 E3.23759
G1 X102.603 Y102.277 E3.24052
G1 X102.233 Y102.218 E3.25109
G1 X102.033 Y102.151 E3.25703
G1 X101.696 Y101.967 E3.26785
G1 X100.941 Y101.212 E3.29794
G1 X100.645 Y100.872 E3.31064
G1 X100.633 Y100.904 E3.31158
G1 X96.992 Y97.263 E3.45669
G1 X96.291 Y97.266 E3.47645
G1 X100.818 Y101.793 E3.65688
G1 X100.760 Y101.942 E3.66139
G1 X100.574 Y102.253 E3.67161
G1 X95.719 Y97.398 E3.86509
G1 X95.592 Y97.458 E3.86905
G1 X95.415 Y97.594 E3.87535
G1 X95.322 Y97.705 E3.87943
G1 X100.197 Y102.581 E4.07375
G1 X100.069 Y102.637 E4.07772
G1 X99.827 Y102.701 E4.08477
G1 X99.638 Y102.726 E4.09014
G1 X95.062 Y98.150 E4.27250
G1 X94.961 Y98.441 E4.28119
G1 X94.900 Y98.693 E4.28847
G1 X98.950 Y102.742 E4.44985
G1 X98.223 Y102.719 E4.47035
G1 X94.811 Y99.307 E4.60633
G1 X94.792 Y99.993 E4.62565
G1 X97.532 Y102.733 E4.73487
G1 X96.835 Y102.741 E4.75451
G1 X94.874 Y100.779 E4.83267
G1 X94.962 Y101.179 E4.84421
G1 X95.064 Y101.472 E4.85295
G1 X95.154 Y101.665 E4.85894
G1 X95.298 Y101.892 E4.86652
G1 X95.795 Y102.405 E4.88667
M106 S255
G1 Z1.900 F7800.000
G1 E2.88667 F2400.00000
G92 E0
G1 X99.457 Y102.620 F7800.000
G1 E2.00000 F2400.00000
G1 F1106.78
G1 X100.787 Y101.290 E2.05378
G1 X101.049 Y100.313 E2.08270
G1 E0.08270 F2400.00000
G92 E0
G1 X103.497 Y101.438 F7800.000
G1 E2.00000 F2400.00000
G1 F1106.78
G1 X103.882 Y101.054 E2.01556
G1 X104.075 Y100.762 E2.02555
G1 X104.215 Y100.418 E2.03620
G1 X104.293 Y100.041 E2.04720
G1 X104.296 Y99.925 E2.05051
G1 X102.271 Y101.950 E2.13239
G1 X101.982 Y101.915 E2.14071
G1 X101.690 Y101.817 E2.14954
G1 X104.232 Y99.275 E2.25235
G1 X104.117 Y98.941 E2.26243
G1 X104.017 Y98.775 E2.26799
G1 X101.269 Y101.523 E2.37914
G1 X101.089 Y101.315 E2.38701
G1 X100.965 Y101.112 E2.39380
G1 X103.695 Y98.382 E2.50420
G1 X103.428 Y98.207 E2.51334
G1 X103.227 Y98.135 E2.51943
G1 X100.697 Y100.666 E2.62177
G1 X100.682 Y100.640 E2.62261
G1 X100.667 Y100.695 E2.62423
G1 X98.694 Y102.668 E2.70403
G1 X98.005 Y102.643 E2.72376
G1 X102.586 Y98.061 E2.90905
G1 X102.415 Y98.075 E2.91397
G1 X102.086 Y98.175 E2.92380
G1 X101.788 Y98.348 E2.93367
G1 X101.571 Y98.553 E2.94219
G1 X101.051 Y99.312 E2.96849
G1 X100.961 Y98.972 E2.97856
G1 X97.282 Y102.650 E3.12735
G1 X96.551 Y102.668 E3.14828
G1 X100.812 Y98.406 E3.32061
G1 X100.686 Y98.072 E3.33084
G1 X100.590 Y97.913 E3.33613
G1 X95.912 Y102.591 E3.52532
G1 X95.635 Y102.478 E3.53388
G1 X95.456 Y102.333 E3.54048
G1 X100.247 Y97.542 E3.73426
G1 X100.179 Y97.495 E3.73662
G1 X99.905 Y97.392 E3.74499
G1 X99.716 Y97.358 E3.75048
G1 X95.168 Y101.906 E3.93441
G1 X95.069 Y101.661 E3.94199
G1 X94.992 Y101.367 E3.95066
G1 X99.025 Y97.335 E4.11374
G1 X98.285 Y97.360 E4.13491
G1 X94.895 Y100.750 E4.27200
G1 X94.869 Y100.529 E4.27836
G1 X94.869 Y100.061 E4.29174
G1 X97.583 Y97.348 E4.40148
G1 X96.886 Y97.329 E4.42140
G1 X94.937 Y99.278 E4.50022
G1 X95.022 Y98.872 E4.51208
G1 X95.121 Y98.581 E4.52087
G1 X95.209 Y98.389 E4.52693
G1 X95.310 Y98.222 E4.53251
G1 X95.464 Y98.037 E4.53937
G1 X95.847 Y97.654 E4.55488
G1 Z2.300 F7800.000
G1 E2.55488 F2400.00000
G92 E0
G1 X95.533 Y101.875 F7800.000
G1 E2.00000 F2400.00000
G1 F933.85
G1 X95.917 Y102.259 E2.01527
G1 X96.039 Y102.359 E2.01974
G1 X96.176 Y102.434 E2.02411
G1 X96.390 Y102.505 E2.03048
G1 X96.775 Y102.552 E2.04140
G1 X96.916 Y102.547 E2.04536
G1 X95.057 Y100.688 E2.11941
G1 X95.003 Y100.279 E2.13101
G1 X94.999 Y99.918 E2.14117
G1 X97.603 Y102.522 E2.24487
G1 X98.299 Y102.507 E2.26447
G1 X95.021 Y99.230 E2.39500
G1 X95.061 Y98.841 E2.40599
G1 X95.110 Y98.607 E2.41272
G1 X99.039 Y102.536 E2.56920
G1 X99.469 Y102.552 E2.58132
G1 X99.733 Y102.519 E2.58881
G1 X95.298 Y98.084 E2.76546
G1 X95.420 Y97.875 E2.77228
G1 X95.607 Y97.682 E2.77984
G1 X100.247 Y102.322 E2.96466
G1 X100.353 Y102.232 E2.96859
G1 X100.498 Y102.042 E2.97531
G1 X100.559 Y101.923 E2.97907
G1 X96.112 Y97.476 E3.15619
G1 X96.535 Y97.446 E3.16813
G1 X96.804 Y97.457 E3.17571
G1 X100.747 Y101.400 E3.33274
G1 X100.803 Y101.154 E3.33984
G1 X100.849 Y100.790 E3.35016
G1 X97.551 Y97.492 E3.48150
G1 X98.248 Y97.478 E3.50113
G1 X100.881 Y100.111 E3.60598
G1 X100.816 Y99.335 E3.62790
G1 X98.931 Y97.450 E3.70298
G1 X99.345 Y97.471 E3.71467
G1 X99.688 Y97.567 E3.72470
G1 X99.862 Y97.670 E3.73038
G1 X100.248 Y98.056 E3.74575
G1 E1.74575 F2400.00000
G92 E0
G1 X101.503 Y100.733 F7800.000
G1 E2.00000 F2400.00000
G1 F933.85
G1 X101.886 Y101.116 E2.01526
G1 X102.111 Y101.302 E2.02347
G1 X102.451 Y101.440 E2.03380
G1 X102.240 Y101.215 E2.04249
G1 X102.468 Y100.994 E2.05144
G1 X101.083 Y99.608 E2.10663
G1 X101.106 Y99.500 E2.10975
G1 X101.183 Y99.311 E2.11549
G1 X101.314 Y99.136 E2.12165
G1 X103.420 Y101.242 E2.20552
G1 X103.550 Y101.126 E2.21042
G1 X103.640 Y101.016 E2.21444
G1 X103.734 Y100.852 E2.21975
G1 X101.641 Y98.760 E2.30309
G1 X101.870 Y98.624 E2.31059
G1 X102.118 Y98.549 E2.31787
G1 X103.893 Y100.308 E2.38825
G1 X103.579 Y99.290 F7800.000
G1 F933.85
G1 X103.197 Y98.908 E2.40346
G1 E0.40346 F2400.00000
G92 E0
G1 X102.087 Y100.612 F7800.000
G1 E2.00000 F2400.00000
G1 F933.85
G1 X102.200 Y100.503 E2.00444
G1 X102.544 Y100.838 E2.01796
G1 X102.432 Y100.957 E2.02259
G1 X102.926 Y101.452 E2.04229
G1 Z2.700 F7800.000
G1 E0.04229 F2400.00000
G92 E0
G1 X99.668 Y102.215 F7800.000
G1 E2.00000 F2400.00000
G1 F723.105
G1 X100.142 Y101.729 E2.01952
G1 X100.291 Y101.451 E2.02858
G1 X100.368 Y101.259 E2.03454
G1 X100.452 Y100.961 E2.04341
G1 X100.508 Y100.656 E2.05234
G1 X98.898 Y102.266 E2.11780
G1 X98.197 Y102.249 E2.13795
G1 X100.570 Y99.875 E2.23444
G1 X100.535 Y99.192 E2.25411
G1 X97.485 Y102.243 E2.37814
G1 X96.747 Y102.262 E2.39937
G1 X100.431 Y98.578 E2.54917
G1 X100.367 Y98.355 E2.55584
G1 X100.236 Y98.055 E2.56526
G1 X95.976 Y102.315 E2.73845
G1 X95.848 Y102.245 E2.74263
G1 X95.764 Y102.167 E2.74594
G1 X95.700 Y102.085 E2.74893
G1 X95.632 Y101.940 E2.75353
G1 X99.893 Y97.679 E2.92676
G1 X99.738 Y97.616 E2.93157
G1 X99.601 Y97.594 E2.93556
G1 X99.340 Y97.624 E2.94311
G1 X99.376 Y97.733 E2.94641
G1 X99.116 Y97.738 E2.95388
G1 X95.439 Y101.414 E3.10337
G1 X95.367 Y101.120 E3.11207
G1 X95.333 Y100.802 E3.12128
G1 X98.378 Y97.757 E3.24506
G1 X97.665 Y97.751 E3.26554
G1 X95.301 Y100.116 E3.36168
G1 X95.304 Y99.796 E3.37087
G1 X95.365 Y99.333 E3.38429
G1 X96.964 Y97.734 E3.44932
G1 X96.868 Y97.732 E3.45209
G1 X96.901 Y97.629 E3.45521
G1 X96.851 Y97.609 E3.45676
G1 X96.622 Y97.594 E3.46337
G1 X96.509 Y97.615 E3.46668
G1 X96.335 Y97.686 E3.47208
G1 X96.195 Y97.785 E3.47702
G1 X95.813 Y98.167 E3.49254
G1 E1.49254 F2400.00000
G92 E0
G1 X101.484 Y99.580 F7800.000
G1 E2.00000 F2400.00000
G1 F723.105
G1 X101.866 Y99.199 E2.01704
G1 X102.039 Y99.083 E2.02361
G1 X102.234 Y99.050 E2.02987
G1 X102.351 Y99.069 E2.03361
G1 X102.601 Y99.170 E2.04209
G1 X102.753 Y99.050 E2.04821
G1 X102.777 Y99.076 E2.04932
G1 X101.333 Y100.520 E2.11381
G1 X101.445 Y100.751 E2.12191
G1 X101.535 Y100.843 E2.12596
G1 X101.711 Y100.931 E2.13218
G1 X103.205 Y99.437 E2.19885
G1 X103.246 Y99.502 E2.20129
G1 X103.299 Y99.641 E2.20599
G1 X103.322 Y99.786 E2.21062
G1 X103.313 Y99.913 E2.21463
G1 X103.267 Y100.067 E2.21970
G1 X103.150 Y100.253 E2.22664
G1 X103.042 Y100.348 E2.23118
G1 X102.785 Y100.482 E2.24034
G1 X102.763 Y100.668 E2.24624
G1 X102.381 Y101.050 E2.26329
G1 Z3.100 F7800.000
G1 E0.26329 F2400.00000
G92 E0
G1 X99.760 Y100.786 F7800.000
G1 E2.00000 F2400.00000
G1 F600
G1 X98.669 Y99.694 E2.04302
G1 X98.680 Y99.812 E2.04633
G1 X98.647 Y100.083 E2.05392
G1 X98.323 Y100.045 E2.06299
G1 X100.162 Y101.884 E2.13544
G1 X100.071 Y102.065 E2.14110
G1 X99.960 Y102.178 E2.14552
G1 X99.831 Y102.249 E2.14961
G1 E0.14961 F2400.00000
G92 E0
G1 X100.106 Y99.042 F7800.000
G1 E2.00000 F2400.00000
G1 F600
G1 X98.840 Y97.776 E2.04990
G1 X98.773 Y97.810 E2.05200
G1 X98.632 Y97.955 E2.05762
G1 X98.537 Y98.169 E2.06416
G1 X99.739 Y99.372 E2.11154
G1 X99.712 Y99.391 E2.11246
G1 X99.825 Y99.873 E2.12624
G1 X99.849 Y100.178 E2.13475
G1 X97.994 Y98.324 E2.20782
G1 X97.740 Y98.307 E2.21492
G1 X97.309 Y98.334 E2.22697
G1 X98.908 Y99.933 E2.28999
G1 X98.549 Y99.966 E2.30003
G1 X98.568 Y100.188 E2.30624
G1 X98.558 Y100.280 E2.30881
G1 X96.030 Y97.752 E2.40845
G1 X95.903 Y97.822 E2.41249
G1 X95.792 Y97.935 E2.41690
G1 X95.700 Y98.118 E2.42262
G1 X99.831 Y102.249 E2.58542
G1 X99.765 Y102.286 E2.58753
G1 X99.614 Y102.321 E2.59184
G1 X99.458 Y102.317 E2.59617
G1 X99.272 Y102.260 E2.60161
G1 X99.110 Y102.152 E2.60703
G1 X99.011 Y102.038 E2.61122
G1 X98.837 Y101.648 E2.62313
G1 X98.551 Y101.666 E2.63109
G1 X96.101 Y99.216 E2.72766
G1 X96.042 Y99.466 E2.73483
G1 X96.015 Y99.826 E2.74488
G1 X97.865 Y101.676 E2.81780
G1 X97.399 Y101.647 E2.83082
G1 X97.326 Y101.834 E2.83641
G1 X96.126 Y100.633 E2.88372
G1 X95.882 Y100.799 E2.89195
G1 X95.756 Y100.960 E2.89762
G1 X97.024 Y102.228 E2.94761
G1 X96.891 Y102.292 E2.95174
G1 X96.736 Y102.322 E2.95613
G1 X96.578 Y102.313 E2.96054
G1 X96.425 Y102.265 E2.96502
G1 X96.284 Y102.179 E2.96962
G1 X95.832 Y101.732 E2.98734
G1 E0.98734 F2400.00000
G92 E0
G1 X99.614 Y97.854 F7800.000
G1 E2.00000 F2400.00000
G1 F600
G1 X99.996 Y98.236 E2.01505
G1 E0.01505 F2400.00000
G92 E0
G1 X101.645 Y99.939 F7800.000
G1 E2.00000 F2400.00000
G1 F600
G1 X102.243 Y100.537 E2.02819
G1 X102.457 Y99.918 F7800.000
G1 F600
G1 X102.075 Y99.536 E2.04619
G1 Z3.500 F7800.000
G1 E0.04619 F2400.00000
G92 E0
G1 X96.336 Y100.929 F7800.000
G1 E2.00000 F2400.00000
G1 F600
G1 X95.953 Y101.312 E2.01560
G1 X95.848 Y101.465 E2.02093
G1 X95.812 Y101.584 E2.02452
G1 X95.812 Y101.759 E2.02954
G1 X95.847 Y101.873 E2.03299
G1 X95.907 Y101.977 E2.03643
G1 X95.959 Y102.025 E2.03847
G1 X97.053 Y100.931 E2.08301
G1 X97.166 Y101.105 E2.08898
G1 X97.193 Y101.192 E2.09159
G1 X97.193 Y101.388 E2.09725
G1 X97.116 Y101.572 E2.10299
G1 X96.667 Y102.036 E2.12158
G1 E0.12158 F2400.00000
G92 E0
G1 X98.054 Y100.500 F7800.000
G1 E2.00000 F2400.00000
G1 F600
G1 X98.437 Y100.117 E2.01806
G1 X98.526 Y99.987 E2.02332
G1 X98.564 Y99.809 E2.02938
G1 X98.526 Y99.631 E2.03543
G1 X98.437 Y99.500 E2.04072
G1 X98.307 Y99.415 E2.04591
G1 X97.342 Y100.379 E2.09138
G1 X97.305 Y100.276 E2.09506
G1 X97.297 Y100.191 E2.09789
G1 X97.331 Y100.023 E2.10360
G1 X97.426 Y99.882 E2.10927
G1 X97.492 Y99.830 E2.11208
G1 X97.569 Y99.790 E2.11497
G1 X97.736 Y99.758 E2.12063
G1 X97.925 Y99.797 E2.12707
G1 X99.188 Y100.934 F7800.000
G1 F600
G1 X98.805 Y101.317 E2.14256
G1 X98.696 Y101.487 E2.14831
G1 X98.660 Y101.671 E2.15369
G1 X98.699 Y101.866 E2.15935
G1 X98.808 Y102.029 E2.16494
G1 X99.908 Y100.928 E2.20941
G1 X100.015 Y101.083 E2.21478
G1 X100.050 Y101.203 E2.21835
G1 X100.050 Y101.377 E2.22332
G1 X100.016 Y101.492 E2.22675
G1 X99.956 Y101.594 E2.23015
G1 X99.572 Y101.979 E2.24567
G1 E0.24567 F2400.00000
G92 E0
G1 X99.496 Y99.099 F7800.000
G1 E2.00000 F2400.00000
G1 F600
G1 X99.878 Y98.716 E2.01551
G1 X100.000 Y98.561 E2.02116
G1 X100.041 Y98.456 E2.02439
G1 X100.056 Y98.282 E2.02939
G1 X100.031 Y98.166 E2.03280
G1 X99.979 Y98.058 E2.03624
G1 X99.904 Y97.974 E2.03945
G1 X98.813 Y99.066 E2.08366
G1 X98.728 Y98.963 E2.08747
G1 X98.688 Y98.873 E2.09030
G1 X98.664 Y98.776 E2.09316
G1 X98.677 Y98.581 E2.09874
G1 X98.719 Y98.477 E2.10195
G1 X98.834 Y98.329 E2.10734
G1 X99.217 Y97.946 E2.12285
G1 E0.12285 F2400.00000
G92 E0
G1 X96.647 Y99.093 F7800.000
G1 E2.00000 F2400.00000
G1 F600
G1 X97.097 Y98.639 E2.01825
G1 X97.149 Y98.554 E2.02111
G1 X97.202 Y98.361 E2.02680
G1 X97.199 Y98.273 E2.02933
G1 X97.137 Y98.083 E2.03503
G1 X97.054 Y97.972 E2.03899
G1 X95.954 Y99.072 E2.08343
G1 X95.848 Y98.917 E2.08879
G1 X95.809 Y98.787 E2.09266
G1 X95.809 Y98.633 E2.09706
G1 X95.847 Y98.508 E2.10078
G1 X95.907 Y98.406 E2.10418
G1 X96.291 Y98.021 E2.11970
G1 Z3.900 F7800.000
G1 E0.11970 F2400.00000
G92 E0
G1 X96.498 Y101.122 F7800.000
G1 E2.00000 F2400.00000
G1 F600
G1 X96.879 Y101.504 E2.01526
G1 X96.523 Y101.854 F7800.000
G1 F600
G1 X96.141 Y101.472 E2.03054
G1 E0.03054 F2400.00000
G92 E0
G1 X98.984 Y101.458 F7800.000
G1 E2.00000 F2400.00000
G1 F600
G1 X99.367 Y101.841 E2.01528
G1 X99.739 Y101.507 F7800.000
G1 F600
G1 X99.357 Y101.125 E2.03053
G1 E0.03053 F2400.00000
G92 E0
G1 X99.371 Y98.885 F7800.000
G1 E2.00000 F2400.00000
G1 F600
G1 X98.989 Y98.502 E2.01529
G1 X99.354 Y98.161 F7800.000
G1 F600
G1 X99.736 Y98.543 E2.03055
G1 E0.03055 F2400.00000
G92 E0
G1 X96.876 Y98.539 F7800.000
G1 E2.00000 F2400.00000
G1 F600
G1 X96.494 Y98.157 E2.01529
G1 X96.134 Y98.505 F7800.000
G1 F600
G1 X96.516 Y98.887 E2.03060
G1 E0.03060 F2400.00000
G92 E0
M107
; Filament-specific end gcode 
;END gcode for filament

M104 S0 ; turn off temperature
G28 X0  ; home X axis
M84     ; disable motors

M140 S0 ; set bed temperature
; filament used = 20.2mm (0.1cm3)
; total filament cost = 0.0

; avoid_crossing_perimeters = 0
; bed_shape = 0x0,200x0,200x200,0x200
; bed_temperature = 0
; before_layer_gcode = 
; between_objects_gcode = 
; bridge_acceleration = 0
; bridge_fan_speed = 100
; brim_connections_width = 0
; brim_width = 0
; complete_objects = 0
; cooling = 1
; default_acceleration = 0
; disable_fan_first_layers = 3
; duplicate_distance = 6
; end_filament_gcode = "; Filament-specific end gcode \n;END gcode for filament\n"
; end_gcode = M104 S0 ; turn off temperature\nG28 X0  ; home X axis\nM84     ; disable motors\n
; extruder_clearance_height = 20
; extruder_clearance_radius = 20
; extruder_offset = 0x0
; extrusion_axis = E
; extrusion_multiplier = 1
; fan_always_on = 0
; fan_below_layer_time = 60
; filament_colour = #FFFFFF
; filament_cost = 0
; filament_density = 0
; filament_diameter = 3
; filament_max_volumetric_speed = 0
; filament_notes = ""
; first_layer_acceleration = 0
; first_layer_bed_temperature = 0
; first_layer_extrusion_width = 200%
; first_layer_speed = 30
; first_layer_temperature = 205
; gcode_arcs = 0
; gcode_comments = 0
; gcode_flavor = reprap
; has_heatbed = 1
; infill_acceleration = 0
; infill_first = 0
; interior_brim_width = 0
; layer_gcode = 
; max_fan_speed = 100
; max_layer_height = 0.3
; max_print_speed = 80
; max_volumetric_speed = 0
; min_fan_speed = 35
; min_layer_height = 0.15
; min_print_speed = 10
; min_skirt_length = 0
; notes = 
; nozzle_diameter = 0.5
; only_retract_when_crossing_perimeters = 1
; ooze_prevention = 0
; output_filename_format = [input_filename_base].gcode
; perimeter_acceleration = 0
; post_process = 
; pressure_advance = 0
; printer_notes = 
; resolution = 0
; retract_before_travel = 2
; retract_layer_change = 0
; retract_length = 2
; retract_length_toolchange = 10
; retract_lift = 0
; retract_lift_above = 0
; retract_lift_below = 0
; retract_restart_extra = 0
; retract_restart_extra_toolchange = 0
; retract_speed = 40
; skirt_distance = 6
; skirt_height = 1
; skirts = 0
; slowdown_below_layer_time = 5
; spiral_vase = 0
; standby_temperature_delta = -5
; start_filament_gcode = "; Filament gcode\n"
; start_gcode = G28 ; home all axes\nG1 Z5 F5000 ; lift nozzle\n
; temperature = 200
; threads = 8
; toolchange_gcode = 
; travel_speed = 130
; use_firmware_retraction = 0
; use_relative_e_distances = 0
; use_set_and_wait_bed = 0
; use_set_and_wait_extruder = 0
; use_volumetric_e = 0
; vibration_limit = 0
; wipe = 0
; z_offset = 0
; z_steps_per_mm = 0
; adaptive_slicing = 0
; adaptive_slicing_quality = 75%
; dont_support_bridges = 1
; extrusion_width = 0
; first_layer_height = 0.3
; infill_only_where_needed = 0
; interface_shells = 0
; layer_height = 0.4
; match_horizontal_surfaces = 0
; raft_layers = 0
; regions_overlap = 0
; seam_position = aligned
; sequential_print_priority = 0
; support_material = 0
; support_material_angle = 0
; support_material_buildplate_only = 0
; support_material_contact_distance = 0.2
; support_material_enforce_layers = 0
; support_material_extruder = 1
; support_material_extrusion_width = 0
; support_material_interface_extruder = 1
; support_material_interface_extrusion_width = 0
; support_material_interface_layers = 3
; support_material_interface_spacing = 0
; support_material_interface_speed = 100%
; support_material_max_layers = 0
; support_material_pattern = pillars
; support_material_spacing = 2.5
; support_material_speed = 60
; support_material_threshold = 60%
; xy_size_compensation = 0
; bottom_infill_pattern = rectilinear
; bottom_solid_layers = 0
; bridge_flow_ratio = 1
; bridge_speed = 60
; external_perimeter_extrusion_width = 0
; external_perimeter_speed = 50%
; external_perimeters_first = 0
; extra_perimeters = 1
; fill_angle = 45
; fill_density = 90%
; fill_gaps = 1
; fill_pattern = rectilinear
; gap_fill_speed = 20
; infill_every_layers = 1
; infill_extruder = 1
; infill_extrusion_width = 0
; infill_overlap = 55%
; infill_speed = 80
; overhangs = 1
; perimeter_extruder = 1
; perimeter_extrusion_width = 0
; perimeter_speed = 60
; perimeters = 0
; small_perimeter_speed = 15
; solid_infill_below_area = 70
; solid_infill_every_layers = 0
; solid_infill_extruder = 1
; solid_infill_extrusion_width = 0
; solid_infill_speed = 20
; thin_walls = 1
; top_infill_extrusion_width = 0
; top_infill_pattern = rectilinear
; top_solid_infill_speed = 15
; top_solid_layers = 0
