; generated by Slic3r 1.3.0 on 2019-11-11 at 10:40:46

; external perimeters extrusion width = 0.55mm (4.37mm^3/s)
; perimeters extrusion width = 0.70mm (11.44mm^3/s)
; infill extrusion width = 0.63mm (13.45mm^3/s)
; solid infill extrusion width = 0.70mm (3.81mm^3/s)
; top infill extrusion width = 0.70mm (2.86mm^3/s)

M107
M104 S205 ; set temperature
G28 ; home all axes
G1 Z5 F5000 ; lift nozzle

; Filament gcode

M109 S205 ; set temperature and wait for it to be reached
G21 ; set units to millimeters
G90 ; use absolute coordinates
M82 ; use absolute distances for extrusion
G92 E0
G1 Z0.300 F7800.000
G1 E-2.00000 F2400.00000
G92 E0
G1 X96.992 Y93.097 F7800.000
G1 E2.00000 F2400.00000
G1 F1800
G1 X96.877 Y93.212 E2.00370
G1 X97.419 Y92.671 E2.02111
G1 X97.579 Y92.624 E2.02492
G1 X97.755 Y92.612 E2.02891
G1 X97.988 Y92.635 E2.03424
G1 X98.118 Y92.689 E2.03744
G1 X98.200 Y92.777 E2.04019
G1 X98.233 Y92.848 E2.04195
G1 X96.586 Y94.495 E2.09489
G1 X96.516 Y95.555 E2.11906
G1 X98.439 Y93.632 E2.18089
G1 X98.491 Y93.971 E2.18867
G1 X98.540 Y94.523 E2.20128
G1 X96.515 Y96.548 E2.26637
G1 X96.514 Y96.833 E2.27286
G1 X96.556 Y97.223 E2.28178
G1 X96.607 Y97.447 E2.28698
G1 X98.574 Y95.479 E2.35023
G1 X98.582 Y95.735 E2.35604
G1 X99.522 Y95.523 E2.37796
G1 X96.947 Y98.097 E2.46073
G1 X96.920 Y98.830 E2.47740
G1 X96.458 Y98.961 E2.48831
G1 X96.305 Y98.740 E2.49443
G1 X95.535 Y99.510 E2.51918
G1 X95.731 Y100.033 E2.53188
G1 X95.828 Y100.208 E2.53643
G1 X100.560 Y95.476 E2.68855
G1 X100.814 Y95.505 E2.69438
G1 X101.392 Y95.635 E2.70783
G1 X96.264 Y100.763 E2.87267
G1 X96.324 Y100.788 E2.87414
G1 X96.393 Y100.785 E2.87572
G1 X96.679 Y100.596 E2.88351
G1 X97.006 Y101.011 E2.89554
G1 X103.440 Y94.578 E3.10237
G1 X103.468 Y95.541 E3.12429
G1 X94.972 Y104.037 E3.39742
G1 X94.996 Y104.191 E3.40095
G1 X95.106 Y104.490 E3.40820
G1 X95.254 Y104.746 E3.41492
G1 X103.447 Y96.553 E3.67831
G1 X103.434 Y96.719 E3.68209
G1 X103.340 Y97.164 E3.69243
G1 X103.409 Y97.582 E3.70206
G1 X95.723 Y105.268 E3.94916
G1 X96.287 Y105.695 E3.96524
G1 X103.487 Y98.496 E4.19668
G1 X103.499 Y98.726 E4.20192
G1 X103.956 Y98.857 E4.21273
G1 X104.226 Y98.463 E4.22358
G1 X104.347 Y98.328 E4.22770
G1 X104.429 Y98.281 E4.22985
G1 X104.511 Y98.290 E4.23171
G1 X104.534 Y98.302 E4.23230
G1 X104.531 Y98.442 E4.23549
G1 X96.964 Y106.009 E4.47875
G1 X97.450 Y106.193 E4.49056
G1 X97.705 Y106.259 E4.49654
G1 X102.887 Y101.077 E4.66313
G1 X103.558 Y101.397 E4.68003
G1 X98.523 Y106.433 E4.84191
G1 X98.925 Y106.495 E4.85117
G1 X99.423 Y106.523 E4.86252
G1 X104.157 Y101.790 E5.01468
G1 X104.365 Y101.966 E5.02090
G1 X104.651 Y102.286 E5.03065
G1 X100.425 Y106.512 E5.16650
G1 X101.263 Y106.406 E5.18569
G1 X101.603 Y106.325 E5.19364
G1 X104.993 Y102.935 E5.30262
G1 X105.052 Y103.245 E5.30978
G1 X105.047 Y103.544 E5.31658
G1 X104.984 Y103.835 E5.32334
G1 X104.913 Y104.007 E5.32758
G1 X102.935 Y105.984 E5.39114
G1 X103.177 Y106.274 E5.39972
G1 X102.995 Y106.611 E5.40843
G1 X102.991 Y106.766 E5.41195
G1 X103.035 Y106.875 E5.41462
G1 X104.146 Y105.764 E5.45034
G1 X104.353 Y105.771 E5.45504
G1 X104.608 Y105.855 E5.46114
G1 X104.791 Y105.988 E5.46628
G1 X104.841 Y106.061 E5.46828
G1 X103.696 Y107.205 E5.50509
G1 E3.50509 F2400.00000
G92 E0
G1 X103.178 Y100.786 F7800.000
G1 E2.00000 F2400.00000
G1 F1800
G1 X103.986 Y99.978 E2.02599
G1 X104.162 Y99.671 E2.03403
G1 X104.332 Y99.259 E2.04415
G1 X104.480 Y98.757 E2.05605
G1 X104.531 Y98.442 E2.06332
G1 E0.06332 F2400.00000
G92 E0
G1 X101.413 Y95.614 F7800.000
G1 E2.00000 F2400.00000
G1 F1800
G1 X103.344 Y93.683 E2.06206
G1 X103.227 Y93.102 E2.07552
G1 X103.149 Y92.887 E2.08073
G1 X101.476 Y94.559 E2.13449
G1 X101.534 Y94.055 E2.14604
G1 X101.667 Y93.456 E2.15998
G1 X101.714 Y93.331 E2.16302
G1 X102.404 Y92.641 E2.18520
G1 E0.18520 F2400.00000
G92 E0
G1 X96.714 Y105.268 F7800.000
G1 E2.00000 F2400.00000
G1 F1800
G1 X96.778 Y105.315 E2.00181
G1 X96.603 Y105.780 E2.01311
G1 X96.219 Y105.763 E2.02184
G1 X95.078 Y106.904 E2.05855
G1 X95.763 Y107.210 F7800.000
G1 F1800
G1 X96.886 Y106.087 E2.09465
G1 X96.941 Y106.237 E2.09827
G1 X96.942 Y106.295 E2.09959
G1 X96.882 Y106.469 E2.10378
G1 X96.815 Y106.554 E2.10623
G1 X96.702 Y106.645 E2.10952
G1 X96.580 Y106.710 E2.11267
G1 X96.435 Y106.758 E2.11615
G1 X96.189 Y106.784 E2.12176
M104 S200 ; set temperature
G1 Z0.600 F7800.000
G1 X95.556 Y106.457 F7800.000
G1 F2074.72
G1 X95.472 Y106.595 E2.12560
G1 X95.450 Y106.731 E2.12888
G1 X95.489 Y106.877 E2.13247
G1 X95.580 Y107.002 E2.13615
G1 X95.722 Y107.111 E2.14042
G1 X95.915 Y107.193 E2.14540
G1 X96.129 Y107.231 E2.15059
G1 X96.326 Y107.228 E2.15526
G1 X95.090 Y105.992 E2.19684
G1 X95.224 Y105.877 E2.20103
G1 X95.408 Y105.788 E2.20589
G1 X95.613 Y105.741 E2.21091
G1 X95.827 Y105.737 E2.21598
G1 X96.938 Y106.848 E2.25337
G1 X96.964 Y106.717 E2.25656
G1 X96.942 Y106.595 E2.25951
G1 X96.733 Y106.287 E2.26836
G1 X97.014 Y105.933 E2.27911
G1 X95.053 Y103.972 E2.34511
G1 X94.963 Y103.700 E2.35192
G1 X94.925 Y103.444 E2.35809
G1 X94.930 Y103.190 E2.36413
G1 X94.985 Y102.913 E2.37083
G1 X98.430 Y106.359 E2.48676
G1 X99.022 Y106.470 E2.50109
G1 X99.597 Y106.535 E2.51487
G1 X95.326 Y102.263 E2.65860
G1 X95.564 Y101.996 E2.66712
G1 X95.821 Y101.768 E2.67530
G1 X100.604 Y106.551 E2.83624
G1 X101.054 Y106.518 E2.84697
G1 X101.506 Y106.461 E2.85779
G1 X96.419 Y101.374 E3.02895
G1 X97.095 Y101.059 E3.04670
G1 X102.322 Y106.286 E3.22257
G1 X103.061 Y106.034 E3.24116
G1 X95.361 Y98.334 E3.50028
G1 X95.366 Y98.267 E3.50187
G1 X95.404 Y98.219 E3.50332
G1 X95.526 Y98.280 E3.50657
G1 X95.641 Y98.397 E3.51046
G1 X95.990 Y98.931 E3.52565
G1 X96.481 Y98.796 E3.53775
G1 X96.482 Y98.464 E3.54565
G1 X103.728 Y105.710 E3.78947
G1 X104.061 Y105.484 E3.79904
G1 X104.300 Y105.292 E3.80635
G1 X96.551 Y97.542 E4.06712
G1 X96.627 Y97.153 E4.07655
G1 X96.546 Y96.839 E4.08427
G1 X96.503 Y96.503 E4.09233
G1 X104.768 Y104.768 E4.37045
G1 X104.840 Y104.651 E4.37372
G1 X104.980 Y104.356 E4.38149
G1 X105.057 Y104.066 E4.38863
G1 X96.488 Y95.497 E4.67696
G1 X96.518 Y94.536 E4.69983
G1 X103.016 Y101.034 E4.91848
G1 X103.283 Y100.661 E4.92940
G1 X103.562 Y100.813 E4.93697
G1 X103.638 Y100.806 E4.93878
G1 X103.727 Y100.754 E4.94123
G1 X98.582 Y95.609 E5.11435
G1 X99.012 Y95.510 E5.12484
G1 X99.418 Y95.454 E5.13461
G1 X104.161 Y100.197 E5.29421
G1 X104.185 Y100.161 E5.29523
G1 X104.249 Y100.202 E5.29702
G1 X104.420 Y99.808 E5.30724
G1 X104.336 Y99.782 E5.30935
G1 X104.427 Y99.472 E5.31704
G1 X104.091 Y99.135 E5.32836
G1 X103.989 Y99.293 E5.33283
G1 X103.510 Y99.156 E5.34469
G1 X103.492 Y98.537 E5.35942
G1 X100.455 Y95.499 E5.46163
G1 X100.853 Y95.586 E5.47132
G1 X101.383 Y95.734 E5.48443
G1 X101.386 Y95.440 E5.49144
G1 X103.399 Y97.452 E5.55917
G1 X103.469 Y97.040 E5.56912
G1 X103.493 Y96.555 E5.58066
G1 X101.417 Y94.480 E5.65051
G1 X101.518 Y93.589 E5.67183
G1 X103.484 Y95.555 E5.73799
G1 X103.415 Y94.495 E5.76326
G1 X101.727 Y92.807 E5.82006
G1 X101.816 Y92.681 E5.82374
G1 X102.014 Y92.558 E5.82929
G1 X102.395 Y92.558 E5.83836
G1 X102.586 Y92.676 E5.84370
G1 X103.080 Y93.170 E5.86032
G1 E3.86032 F2400.00000
G92 E0
G1 X98.527 Y94.563 F7800.000
G1 E2.00000 F2400.00000
G1 F2074.72
G1 X96.813 Y92.848 E2.05770
G1 X96.707 Y93.171 E2.06577
G1 X96.614 Y93.641 E2.07718
G1 X98.589 Y95.616 E2.14362
G1 X98.595 Y96.201 E2.15754
G1 X99.047 Y96.074 E2.16873
G1 E0.16873 F2400.00000
G92 E0
G1 X98.272 Y93.316 F7800.000
G1 E2.00000 F2400.00000
G1 F2074.72
G1 X97.534 Y92.578 E2.02484
G1 X97.713 Y92.696 E2.02994
G1 X97.806 Y92.851 E2.03425
G1 E0.03425 F2400.00000
G92 E0
G1 X95.579 Y99.544 F7800.000
G1 E2.00000 F2400.00000
G1 F2074.72
G1 X96.843 Y100.807 E2.04251
G1 E0.04251 F2400.00000
G92 E0
G1 X102.596 Y105.569 F7800.000
G1 E2.00000 F2400.00000
G1 F2074.72
G1 X102.842 Y105.468 E2.00633
G1 X103.157 Y105.848 E2.01810
G1 X103.046 Y106.019 E2.02294
G1 X104.259 Y107.232 E2.06375
G1 X104.901 Y106.883 F7800.000
G1 F2074.72
G1 X103.752 Y105.734 E2.10240
G1 X103.922 Y105.753 E2.10648
G1 X104.095 Y105.804 E2.11077
G1 X104.238 Y105.877 E2.11459
G1 X104.348 Y105.967 E2.11797
G1 X104.425 Y106.066 E2.12094
G1 X104.470 Y106.182 E2.12393
G1 X104.473 Y106.306 E2.12688
G1 X104.435 Y106.417 E2.12967
G1 Z0.900 F7800.000
G1 X103.477 Y107.424 F7800.000
G1 F2326.42
G1 X105.044 Y105.857 E2.18240
G1 X104.985 Y105.788 E2.18457
G1 X104.766 Y105.646 E2.19078
G1 X104.395 Y105.515 E2.20013
G1 X102.833 Y107.078 E2.25271
G1 X102.765 Y107.000 E2.25516
G1 X102.695 Y106.829 E2.25956
G1 X102.673 Y106.246 E2.27343
G1 X105.341 Y103.579 E2.36320
G1 X105.353 Y103.196 E2.37231
G1 X105.305 Y102.928 E2.37879
G1 X105.223 Y102.705 E2.38443
G1 X101.354 Y106.574 E2.51461
G1 X101.058 Y106.631 E2.52180
G1 X100.228 Y106.709 E2.54163
G1 X104.846 Y102.092 E2.69701
G1 X104.555 Y101.794 E2.70692
G1 X104.332 Y101.614 E2.71372
G1 X99.241 Y106.705 E2.88503
G1 X98.347 Y106.608 E2.90642
G1 X103.694 Y101.262 E3.08633
G1 X103.079 Y100.969 E3.10253
G1 X103.328 Y100.636 E3.11243
G1 X97.539 Y106.426 E3.30724
G1 X96.771 Y106.202 E3.32625
G1 X96.776 Y106.779 E3.33999
G1 X96.747 Y106.896 E3.34285
G1 X96.678 Y107.029 E3.34641
G1 X96.578 Y107.147 E3.35010
G1 X96.417 Y107.271 E3.35492
G1 X96.247 Y107.356 E3.35947
G1 X96.044 Y107.418 E3.36450
G1 X95.819 Y107.448 E3.36991
G1 X95.544 Y107.429 E3.37647
G1 X104.710 Y98.263 E3.68488
G1 X104.275 Y98.169 E3.69545
G1 X103.812 Y98.417 E3.70796
G1 X103.796 Y98.186 E3.71346
G1 X94.872 Y107.110 E4.01373
G1 X94.764 Y106.960 E4.01814
G1 X94.715 Y106.819 E4.02167
G1 X94.706 Y106.676 E4.02510
G1 X94.737 Y106.535 E4.02854
G1 X94.805 Y106.404 E4.03203
G1 X94.905 Y106.286 E4.03572
G1 X95.064 Y106.163 E4.04051
G1 X95.265 Y106.066 E4.04582
G1 X95.996 Y105.854 E4.06393
G1 X95.543 Y105.448 E4.07840
G1 X103.727 Y97.264 E4.35378
G1 X103.653 Y96.832 E4.36422
G1 X103.663 Y96.337 E4.37600
G1 X95.056 Y104.944 E4.66563
G1 X94.888 Y104.698 E4.67271
G1 X94.766 Y104.446 E4.67938
G1 X94.719 Y104.290 E4.68326
G1 X103.649 Y95.360 E4.98375
G1 X103.608 Y94.410 E5.00636
G1 X96.773 Y101.245 E5.23634
G1 X96.522 Y100.890 E5.24668
G1 X96.181 Y100.924 E5.25483
G1 X96.130 Y100.897 E5.25621
G1 X101.641 Y95.386 E5.44164
G1 X100.789 Y95.247 E5.46218
G1 X95.706 Y100.330 E5.63320
G1 X95.519 Y99.930 E5.64370
G1 X95.413 Y99.631 E5.65124
G1 X96.556 Y98.489 E5.68968
G1 X96.108 Y98.168 E5.70279
G1 X96.070 Y98.170 E5.70368
G1 X95.817 Y98.236 E5.70990
G1 X95.192 Y98.862 E5.73094
G1 X95.176 Y98.747 E5.73369
G1 X95.352 Y98.701 E5.73801
G1 X96.181 Y98.863 F7800.000
G1 F2326.42
G1 X99.806 Y95.238 E5.85999
G1 X99.657 Y95.248 E5.86357
G1 X98.761 Y95.394 E5.88515
G1 X98.757 Y95.297 E5.88747
G1 X96.249 Y97.805 E5.97186
G1 X96.325 Y97.300 E5.98401
G1 X96.311 Y96.752 E5.99706
G1 X98.712 Y94.351 E6.07785
G1 X98.614 Y93.458 E6.09923
G1 X96.337 Y95.735 E6.17584
G1 X96.382 Y94.699 E6.20052
G1 X98.407 Y92.673 E6.26867
G1 X98.377 Y92.626 E6.27001
G1 X98.310 Y92.585 E6.27188
G1 X98.165 Y92.557 E6.27538
G1 X97.533 Y92.556 E6.29042
G1 X96.536 Y93.553 E6.32397
G1 X96.659 Y93.155 E6.33387
G1 X96.697 Y93.095 E6.33556
G1 X96.777 Y93.046 E6.33779
G1 X96.857 Y93.029 E6.33974
G1 X97.068 Y93.022 E6.34477
G1 E4.34477 F2400.00000
G92 E0
G1 X101.218 Y95.809 F7800.000
G1 E2.00000 F2400.00000
G1 F2326.42
G1 X103.511 Y93.516 E2.07715
G1 X103.468 Y93.194 E2.08487
G1 X103.391 Y92.874 E2.09271
G1 X103.327 Y92.708 E2.09693
G1 X101.271 Y94.765 E2.16613
G1 X101.370 Y93.859 E2.18782
G1 X101.420 Y93.624 E2.19352
G1 X102.495 Y92.550 E2.22968
G1 E0.22968 F2400.00000
G92 E0
G1 X104.710 Y98.263 F7800.000
G1 E2.00000 F2400.00000
G1 F2326.42
G1 X104.742 Y98.274 E2.00082
G1 X104.714 Y98.495 E2.00611
G1 X104.587 Y98.955 E2.01746
G1 X104.407 Y99.460 E2.03022
G1 X104.324 Y99.640 E2.03493
G1 X103.055 Y100.909 E2.07764
G1 X97.238 Y100.780 F7800.000
G1 F2326.42
G1 X97.380 Y100.971 E2.08331
G1 X96.744 Y101.274 E2.10008
G1 X94.725 Y103.293 E2.16801
M106 S255
G1 Z1.200 F7800.000
G1 E0.16801 F2400.00000
G92 E0
G1 X95.521 Y106.422 F7800.000
G1 E2.00000 F2400.00000
G1 F2160.95
G1 X95.425 Y106.570 E2.00420
G1 X95.395 Y106.732 E2.00812
G1 X95.438 Y106.892 E2.01206
G1 X95.536 Y107.027 E2.01603
G1 X95.689 Y107.145 E2.02062
G1 X95.895 Y107.232 E2.02595
G1 X96.124 Y107.273 E2.03149
G1 X96.364 Y107.265 E2.03719
G1 X95.055 Y105.957 E2.08123
G1 X95.188 Y105.845 E2.08536
G1 X95.362 Y105.758 E2.08998
G1 X95.578 Y105.703 E2.09527
G1 X95.781 Y105.692 E2.10013
G1 X96.978 Y106.888 E2.14038
G1 X97.016 Y106.761 E2.14353
G1 X97.008 Y106.626 E2.14675
G1 X96.808 Y106.218 E2.15758
G1 X97.053 Y105.972 E2.16583
G1 X94.967 Y103.887 E2.23601
G1 X94.897 Y103.630 E2.24234
G1 X94.872 Y103.380 E2.24832
G1 X94.889 Y103.118 E2.25457
G1 X94.945 Y102.874 E2.26053
G1 X98.472 Y106.400 E2.37919
G1 X99.144 Y106.525 E2.39546
G1 X99.128 Y106.619 E2.39772
G1 X99.738 Y106.675 E2.41229
G1 X95.295 Y102.232 E2.56180
G1 X95.506 Y101.995 E2.56935
G1 X95.794 Y101.740 E2.57850
G1 X100.730 Y106.676 E2.74461
G1 X101.337 Y106.620 E2.75911
G1 X101.321 Y106.525 E2.76139
G1 X101.533 Y106.488 E2.76651
G1 X96.393 Y101.348 E2.93949
G1 X97.068 Y101.032 E2.95723
G1 X102.348 Y106.312 E3.13488
G1 X103.088 Y106.061 E3.15348
G1 X95.321 Y98.295 E3.41482
G1 X95.336 Y98.236 E3.41626
G1 X95.477 Y98.202 E3.41972
G1 X95.580 Y98.278 E3.42277
G1 X95.675 Y98.384 E3.42616
G1 X95.949 Y98.795 E3.43791
G1 X96.431 Y98.659 E3.44982
G1 X96.434 Y98.416 E3.45560
G1 X103.897 Y105.879 E3.70674
G1 X103.840 Y105.687 E3.71152
G1 X104.329 Y105.320 E3.72606
G1 X96.503 Y97.494 E3.98942
G1 X96.568 Y97.134 E3.99812
G1 X96.502 Y96.844 E4.00518
G1 X96.460 Y96.460 E4.01439
G1 X104.800 Y104.800 E4.29504
G1 X104.885 Y104.666 E4.29882
G1 X105.022 Y104.382 E4.30632
G1 X105.100 Y104.109 E4.31308
G1 X96.360 Y95.369 E4.60717
G1 X96.395 Y94.412 E4.62994
G1 X103.063 Y101.080 E4.85431
G1 X103.304 Y100.754 E4.86396
G1 X103.578 Y100.843 E4.87083
G1 X103.652 Y100.844 E4.87260
G1 X103.752 Y100.779 E4.87543
G1 X98.547 Y95.574 E5.05055
G1 X98.976 Y95.475 E5.06102
G1 X99.380 Y95.416 E5.07074
G1 X104.228 Y100.264 E5.23387
G1 X104.360 Y99.997 E5.24097
G1 X104.521 Y99.566 E5.25192
G1 X104.065 Y99.110 E5.26726
G1 X104.027 Y99.165 E5.26885
G1 X103.559 Y99.026 E5.28047
G1 X103.545 Y98.590 E5.29086
G1 X100.405 Y95.450 E5.39652
G1 X100.811 Y95.532 E5.40637
G1 X101.350 Y95.676 E5.41964
G1 X101.354 Y95.408 E5.42601
G1 X103.438 Y97.492 E5.49614
G1 X103.504 Y97.107 E5.50542
G1 X103.528 Y96.591 E5.51772
G1 X101.294 Y94.357 E5.59289
G1 X101.318 Y94.073 E5.59968
G1 X101.415 Y94.085 E5.60199
G1 X101.487 Y93.559 E5.61462
G1 X103.619 Y95.691 E5.68635
G1 X103.567 Y94.647 E5.71120
G1 X101.695 Y92.776 E5.77417
G1 X101.765 Y92.673 E5.77714
G1 X101.901 Y92.562 E5.78129
G1 X102.469 Y92.558 E5.79481
G1 X103.201 Y93.290 E5.81944
G1 E3.81944 F2400.00000
G92 E0
G1 X98.344 Y93.389 F7800.000
G1 E2.00000 F2400.00000
G1 F2160.95
G1 X97.512 Y92.557 E2.02798
G1 X97.004 Y92.564 E2.04007
G1 X96.857 Y92.687 E2.04463
G1 X96.781 Y92.817 E2.04821
G1 X98.676 Y94.712 E2.11199
G1 X98.712 Y95.366 E2.12756
G1 X98.616 Y95.386 E2.12989
G1 X98.621 Y95.647 E2.13610
G1 X96.584 Y93.611 E2.20463
G1 X96.520 Y94.084 E2.21599
G1 X96.426 Y94.072 E2.21824
G1 X96.395 Y94.412 E2.22637
G1 E0.22637 F2400.00000
G92 E0
G1 X95.562 Y99.527 F7800.000
G1 E2.00000 F2400.00000
G1 F2160.95
G1 X96.866 Y100.830 E2.04386
G1 X102.623 Y105.596 F7800.000
G1 F2160.95
G1 X102.828 Y105.517 E2.04909
G1 X103.082 Y105.799 E2.05814
G1 X103.000 Y105.973 E2.06271
G1 X104.298 Y107.271 E2.10638
G1 X104.939 Y106.921 F7800.000
G1 F2160.95
G1 X103.708 Y105.690 E2.14780
G1 X103.910 Y105.707 E2.15262
G1 X104.100 Y105.758 E2.15729
G1 X104.256 Y105.834 E2.16143
G1 X104.392 Y105.941 E2.16554
G1 X104.483 Y106.063 E2.16915
G1 X104.527 Y106.192 E2.17240
G1 X104.525 Y106.326 E2.17559
G1 X104.474 Y106.456 E2.17891
G1 E0.17891 F2400.00000
G92 E0
G1 X104.781 Y102.799 F7800.000
G1 E2.00000 F2400.00000
G1 F2160.95
G1 X103.658 Y101.676 E2.03779
G1 X104.029 Y101.995 E2.04942
G1 X104.316 Y102.334 E2.05999
G1 Z1.500 F7800.000
G1 X101.810 Y106.119 F7800.000
G1 F2469.76
G1 X104.787 Y103.141 E2.16017
G1 X104.686 Y102.779 E2.16914
G1 X104.500 Y102.437 E2.17839
G1 X100.584 Y106.354 E2.31017
G1 X100.078 Y106.390 E2.32222
G1 X99.553 Y106.393 E2.33472
