; generated by Slic3r 1.2.9 on 2019-09-24 at 15:15:18

; external perimeters extrusion width = 0.50mm
; perimeters extrusion width = 0.58mm
; infill extrusion width = 0.58mm
; solid infill extrusion width = 0.58mm
; top infill extrusion width = 0.58mm

M107
M104 S200 ; set temperature
G28 ; home all axes
G1 Z5 F5000 ; lift nozzle

M109 S200 ; wait for temperature to be reached
G21 ; set units to millimeters
G90 ; use absolute coordinates
M82 ; use absolute distances for extrusion
G92 E0
G1 Z0.400 F7800.000
G1 E-2.00000 F2400.00000
G92 E0
G1 X99.267 Y95.843 F7800.000
G1 E2.00000 F2400.00000
G1 X100.986 Y97.561 E2.88392 F755.693
G1 X101.347 Y97.922 F7800.000
G1 X104.554 Y101.129 E4.53363 F755.693
G1 X104.663 Y99.504 E5.12631
G1 X102.668 Y97.508 E6.15290
G1 X104.446 Y97.550 F7800.000
G1 X105.332 Y98.437 E6.60886 F755.693
G1 E4.60886 F2400.00000
G92 E0
G1 X105.350 Y101.926 F7800.000
G1 E2.00000 F2400.00000
G1 X104.557 Y101.133 E2.40785 F755.693
G1 X103.828 Y102.139 E2.85987
G1 X98.886 Y97.197 E5.40192
G1 X97.540 Y102.793 F7800.000
G1 X94.841 Y100.094 E6.79048 F755.693
G1 X95.003 Y98.520 E7.36576
G1 X100.899 Y104.416 E10.39860
G1 X101.333 Y103.115 E10.89764
G1 X94.650 Y96.432 E14.33507
G1 X95.418 Y95.464 E14.78437
G1 X102.425 Y102.472 E18.38873
G1 E16.38873 F2400.00000
G92 E0
G1 X96.921 Y103.909 F7800.000
G1 E2.00000 F2400.00000
G1 X95.301 Y102.290 E2.83306 F755.693
G1 X94.652 Y103.376 E3.29340
G1 X95.846 Y104.570 E3.90736
G1 Z0.800 F7800.000
G1 X96.284 Y104.343 F7800.000
G1 X96.763 Y103.864 E4.07814 F742.733
G1 X96.902 Y103.026 E4.29233
G1 X95.459 Y104.469 E4.80664
G1 X95.024 Y104.204 E4.93503
G1 X96.311 Y102.916 E5.39395
G1 X95.735 Y102.793 E5.54248
G1 X94.753 Y103.774 E5.89245
G1 X94.935 Y102.893 E6.11942
G1 X95.366 Y102.462 E6.27288
G1 E4.27288 F2400.00000
G92 E0
G1 X99.172 Y103.177 F7800.000
G1 E2.00000 F2400.00000
G1 X99.434 Y102.915 E2.11877 F742.733
G1 X100.329 Y102.912 E2.40581
G1 X99.247 Y103.993 E2.89666
G1 X99.714 Y104.418 E3.09897
G1 X101.245 Y102.887 E3.79361
G1 X101.174 Y103.848 E4.10277
G1 X100.694 Y104.328 E4.32062
G1 E2.32062 F2400.00000
G92 E0
G1 X100.868 Y101.346 F7800.000
G1 E2.00000 F2400.00000
G1 X103.920 Y98.294 E3.13088 F3600.000
G1 X103.454 Y97.966 E3.28032
G1 X98.707 Y102.713 E5.03925
G1 X99.560 Y102.654 E5.26328
G1 X100.869 Y101.346 E5.74815
G1 X101.306 Y101.703 E5.89613
G1 X104.272 Y98.737 E6.99510
G1 X104.487 Y99.317 E7.15712
G1 X101.780 Y102.024 E8.16012
G1 X102.426 Y102.172 E8.33383
G1 X104.547 Y100.051 E9.11983
G1 X104.115 Y101.278 F7800.000
G1 X103.541 Y101.852 E9.33250 F3600.000
G1 X100.869 Y98.962 F7800.000
G1 X97.115 Y102.716 E10.72352 F3600.000
G1 X96.379 Y102.657 E10.91689
G1 X100.856 Y98.180 E12.57585
G1 X100.512 Y97.729 E12.72440
G1 X95.731 Y102.510 E14.49609
G1 X95.383 Y102.064 E14.64442
G1 X100.100 Y97.346 E16.39260
G1 X99.310 Y97.343 E16.59983
G1 X95.096 Y101.556 E18.16126
G1 X94.957 Y100.901 E18.33687
G1 X98.567 Y97.291 E19.67450
G1 X97.772 Y97.291 E19.88283
G1 X94.908 Y100.155 E20.94401
G1 X94.963 Y99.305 E21.16711
G1 X96.924 Y97.344 E21.89400
G1 X96.126 Y97.347 E22.10311
G1 X95.718 Y97.755 E22.25427
G1 X97.920 Y102.705 F7800.000
G1 X102.799 Y97.826 E24.06227 F3600.000
G1 E22.06227 F2400.00000
G92 E0
G1 X100.692 Y97.537 F7800.000
G1 E2.00000 F2400.00000
G1 X101.171 Y97.058 E2.17072 F742.733
G1 X101.303 Y96.226 E2.38288
G1 X100.326 Y97.203 E2.73092
G1 X99.744 Y97.086 E2.88067
G1 X101.029 Y95.801 E3.33869
G1 X100.602 Y95.528 E3.46634
G1 X99.160 Y96.969 E3.98010
G1 X99.283 Y96.147 E4.18964
G1 X99.748 Y95.682 E4.35540
G1 E2.35540 F2400.00000
G92 E0
G1 X96.622 Y97.085 F7800.000
G1 E2.00000 F2400.00000
G1 X96.884 Y96.823 E2.11886 F742.733
G1 X96.807 Y96.008 E2.38153
G1 X95.237 Y97.578 E3.09434
G1 X94.807 Y97.116 E3.29684
G1 X96.341 Y95.582 E3.99336
G1 X95.376 Y95.656 E4.30410
G1 X94.893 Y96.139 E4.52373
G1 Z1.200 F7800.000
G1 X94.845 Y96.530 F7800.000
G1 X100.549 Y102.233 E6.59019 F1200.000
G1 X100.815 Y101.788 F7800.000
G1 X95.011 Y95.985 E8.69257 F1200.000
G1 X95.406 Y95.668 E8.82219
G1 X96.759 Y97.021 E9.31220
G1 X97.074 Y97.336 F7800.000
G1 X101.005 Y101.268 E10.73661 F1200.000
G1 X102.637 Y102.188 F7800.000
G1 X97.802 Y97.353 E12.48818 F1200.000
G1 X98.502 Y97.341 E12.66746
G1 X103.273 Y102.113 E14.39607
G1 X103.753 Y101.881 E14.53256
G1 X99.197 Y97.326 E16.18297
G1 X100.517 Y97.934 F7800.000
G1 X99.263 Y96.680 E16.63718 F1200.000
G1 X99.355 Y96.061 E16.79753
G1 X100.768 Y97.474 E17.30936
G1 X101.118 Y97.112 E17.43823
G1 X99.716 Y95.710 E17.94615
G1 X100.363 Y95.646 E18.11273
G1 X101.182 Y96.465 E18.40927
G1 E16.40927 F2400.00000
G92 E0
G1 X101.100 Y98.517 F7800.000
G1 E2.00000 F2400.00000
G1 X104.112 Y101.529 E3.09136 F1200.000
G1 X104.370 Y101.076 E3.22500
G1 X101.451 Y98.156 E4.28277
G1 X101.923 Y97.917 E4.41835
G1 X104.529 Y100.523 E5.36247
G1 X104.543 Y99.825 E5.54114
G1 X102.528 Y97.811 E6.27107
G1 X103.552 Y98.124 E6.54551
G1 X104.142 Y98.713 E6.75909
G1 E4.75909 F2400.00000
G92 E0
G1 X99.264 Y103.083 F7800.000
G1 E2.00000 F2400.00000
G1 X100.544 Y104.363 E2.46392 F1200.000
G1 E0.46392 F2400.00000
G92 E0
G1 X98.841 Y102.660 F7800.000
G1 E2.00000 F2400.00000
G1 X95.055 Y98.873 E3.37187 F1200.000
G1 X95.206 Y98.313 E3.52050
G1 X100.986 Y104.094 E5.61469
G1 X101.205 Y103.601 E5.75279
G1 X95.444 Y97.841 E7.83972
G1 E5.83972 F2400.00000
G92 E0
G1 X96.669 Y96.220 F7800.000
G1 E2.00000 F2400.00000
G1 X96.208 Y95.759 E2.16708 F1200.000
G1 E0.16708 F2400.00000
G92 E0
G1 X95.079 Y101.032 F7800.000
G1 E2.00000 F2400.00000
G1 X96.724 Y102.677 E2.59597 F1200.000
G1 X97.422 Y102.664 E2.77488
G1 X94.971 Y100.212 E3.66301
G1 X94.971 Y99.502 E3.84509
G1 X98.116 Y102.646 E4.98426
G1 X95.675 Y102.340 F7800.000
G1 X96.818 Y103.482 E5.39819 F1200.000
G1 X96.649 Y104.024 E5.54372
G1 X95.203 Y102.578 E6.06757
G1 X94.901 Y102.988 E6.19788
G1 X96.245 Y104.332 E6.68493
G1 X95.409 Y104.207 E6.90153
G1 X94.985 Y103.784 E7.05494
M106 S255
G1 Z1.600 F7800.000
G1 X95.121 Y103.178 F7800.000
G1 X95.599 Y102.701 E7.50636 F600.000
G1 X96.548 Y103.597 E8.37906
G1 X96.014 Y104.132 E8.88437
G1 E6.88437 F2400.00000
G92 E0
G1 X98.360 Y102.718 F7800.000
G1 E2.00000 F2400.00000
G1 X102.946 Y98.132 E6.33437 F600.000
G1 X100.958 Y98.264 F7800.000
G1 X96.491 Y102.732 E10.55687 F600.000
G1 X95.262 Y102.105 E11.47878
G1 X100.070 Y97.296 E16.02315
G1 X98.210 Y97.301 E17.26620
G1 X94.906 Y100.605 E20.38926
G1 X95.349 Y98.306 E21.95411
G1 X96.169 Y97.486 E22.72867
G1 X95.760 Y97.599 F7800.000
G1 X96.674 Y96.686 E23.59202 F600.000
G1 E21.59202 F2400.00000
G92 E0
G1 X100.309 Y97.444 F7800.000
G1 E2.00000 F2400.00000
G1 X101.081 Y96.672 E2.72976 F600.000
G1 E0.72976 F2400.00000
G92 E0
G1 X101.407 Y101.527 F7800.000
G1 E2.00000 F2400.00000
G1 X104.113 Y98.821 E4.55745 F600.000
G1 X104.034 Y100.755 E5.85123
G1 X103.164 Y101.626 E6.67359
G1 E4.67359 F2400.00000
G92 E0
G1 X100.111 Y102.578 F7800.000
G1 E2.00000 F2400.00000
G1 X99.595 Y103.094 E2.48785 F600.000
G1 X99.657 Y103.964 E3.07073
G1 X100.789 Y102.832 E4.14115
G1 X100.907 Y103.646 E4.69112
G1 X100.498 Y104.055 E5.07785
G1 Z2.000 F7800.000
G1 E3.07785 F2400.00000
G92 E0
G1 X96.170 Y103.394 F7800.000
G1 E2.00000 F2400.00000
G1 X95.826 Y103.051 E2.12190 F784.382
G1 X95.482 Y103.404 E2.24575
G1 X95.822 Y103.744 E2.36650
G1 E0.36650 F2400.00000
G92 E0
G1 X100.225 Y103.746 F7800.000
G1 E2.00000 F2400.00000
G1 X99.881 Y103.402 E2.12224 F784.382
G1 X100.227 Y103.050 E2.24623
G1 X100.578 Y103.401 E2.37102
G1 E0.37102 F2400.00000
G92 E0
G1 X101.933 Y100.854 F7800.000
G1 E2.00000 F2400.00000
G1 X101.516 Y100.437 E2.18848 F784.382
G1 X101.452 Y99.484 E2.49403
G1 X102.891 Y100.924 E3.14532
G1 X103.392 Y100.536 E3.34787
G1 X101.941 Y99.086 E4.00401
G1 X102.920 Y99.176 E4.31837
G1 X103.353 Y99.609 E4.51428
G1 E2.51428 F2400.00000
G92 E0
G1 X100.578 Y96.601 F7800.000
G1 E2.00000 F2400.00000
G1 X100.227 Y96.250 E2.12479 F784.382
G1 X99.881 Y96.602 E2.24877
G1 X100.225 Y96.946 E2.37102
G1 X100.345 Y98.280 F7800.000
G1 X99.885 Y97.820 E2.54306 F784.382
G1 X99.036 Y97.705 E2.76937
G1 X100.646 Y99.315 E3.37108
G1 X100.693 Y100.095 E3.57766
G1 X98.334 Y97.737 E4.45903
G1 X97.603 Y97.739 E4.65238
G1 X100.656 Y100.792 E5.79331
G1 X100.557 Y101.426 E5.96300
G1 X96.836 Y97.706 E7.35326
G1 X96.144 Y97.747 E7.53650
G1 X100.335 Y101.938 E9.10260
G1 X99.906 Y102.243 E9.24163
G1 X95.720 Y98.057 E10.80595
G1 X95.502 Y98.572 E10.95388
G1 X99.224 Y102.295 E12.34480
G1 X98.457 Y102.262 E12.54756
G1 X95.393 Y99.197 E13.69266
G1 X95.356 Y99.894 E13.87691
G1 X97.726 Y102.264 E14.76257
G1 X97.015 Y102.287 E14.95038
G1 X95.401 Y100.673 E15.55340
G1 X95.699 Y101.705 E15.83701
G1 X96.173 Y102.178 E16.01395
G1 E14.01395 F2400.00000
G92 E0
G1 X95.822 Y96.944 F7800.000
G1 E2.00000 F2400.00000
G1 X95.482 Y96.604 E2.12075 F784.382
G1 X95.826 Y96.251 E2.24460
G1 X96.170 Y96.594 E2.36650
G1 Z2.400 F7800.000
G1 E0.36650 F2400.00000
G92 E0
G1 X97.008 Y98.705 F7800.000
G1 E2.00000 F2400.00000
G1 X96.536 Y99.176 E2.18509 F600.000
G1 X96.283 Y100.201 E2.47842
G1 X98.032 Y98.451 E3.16569
G1 X98.744 Y98.511 E3.36394
G1 X96.428 Y100.827 E4.27335
G1 X96.768 Y101.258 E4.42587
G1 X99.290 Y98.737 E5.41618
G1 X99.629 Y99.168 E5.56871
G1 X97.308 Y101.489 E6.48050
G1 X98.022 Y101.546 E6.67947
G1 X99.774 Y99.795 E7.36750
G1 X99.493 Y100.847 E7.67006
G1 X99.040 Y101.300 E7.84775
G1 E5.84775 F2400.00000
G92 E0
G1 X101.854 Y99.951 F7800.000
G1 E2.00000 F2400.00000
G1 X102.209 Y99.595 E2.13588 F600.000
G1 X102.469 Y100.085 E2.28587
G1 X102.142 Y100.413 E2.41094
G1 E0.41094 F2400.00000
G92 E0
M107
M104 S0 ; turn off temperature
G28 X0  ; home X axis
M84     ; disable motors

; filament used = 140.5mm (0.1cm3)

; avoid_crossing_perimeters = 0
; bed_shape = 0x0,200x0,200x200,0x200
; bed_temperature = 0
; before_layer_gcode = 
; bridge_acceleration = 0
; bridge_fan_speed = 100
; brim_width = 0
; complete_objects = 0
; cooling = 1
; default_acceleration = 0
; disable_fan_first_layers = 3
; duplicate_distance = 6
; end_gcode = M104 S0 ; turn off temperature\nG28 X0  ; home X axis\nM84     ; disable motors\n
; extruder_clearance_height = 20
; extruder_clearance_radius = 20
; extruder_offset = 0x0
; extrusion_axis = E
; extrusion_multiplier = 1
; fan_always_on = 0
; fan_below_layer_time = 60
; filament_colour = #FFFFFF
; filament_diameter = 1
; first_layer_acceleration = 0
; first_layer_bed_temperature = 0
; first_layer_extrusion_width = 200%
; first_layer_speed = 30
; first_layer_temperature = 200
; gcode_arcs = 0
; gcode_comments = 0
; gcode_flavor = reprap
; infill_acceleration = 0
; infill_first = 0
; layer_gcode = 
; max_fan_speed = 100
; max_print_speed = 80
; max_volumetric_speed = 0
; min_fan_speed = 35
; min_print_speed = 10
; min_skirt_length = 0
; notes = 
; nozzle_diameter = 0.5
; only_retract_when_crossing_perimeters = 1
; ooze_prevention = 0
; output_filename_format = [input_filename_base].gcode
; perimeter_acceleration = 0
; post_process = 
; pressure_advance = 0
; resolution = 0
; retract_before_travel = 2
; retract_layer_change = 0
; retract_length = 2
; retract_length_toolchange = 10
; retract_lift = 0
; retract_restart_extra = 0
; retract_restart_extra_toolchange = 0
; retract_speed = 40
; skirt_distance = 6
; skirt_height = 1
; skirts = 0
; slowdown_below_layer_time = 5
; spiral_vase = 0
; standby_temperature_delta = -5
; start_gcode = G28 ; home all axes\nG1 Z5 F5000 ; lift nozzle\n
; temperature = 200
; threads = 2
; toolchange_gcode = 
; travel_speed = 130
; use_firmware_retraction = 0
; use_relative_e_distances = 0
; use_volumetric_e = 0
; vibration_limit = 0
; wipe = 0
; z_offset = 0
; dont_support_bridges = 1
; extrusion_width = 0
; first_layer_height = 0.4
; infill_only_where_needed = 0
; interface_shells = 0
; layer_height = 0.4
; raft_layers = 0
; seam_position = aligned
; support_material = 0
; support_material_angle = 0
; support_material_contact_distance = 0.2
; support_material_enforce_layers = 0
; support_material_extruder = 1
; support_material_extrusion_width = 0
; support_material_interface_extruder = 1
; support_material_interface_layers = 3
; support_material_interface_spacing = 0
; support_material_interface_speed = 100%
; support_material_pattern = pillars
; support_material_spacing = 2.5
; support_material_speed = 60
; support_material_threshold = 0
; xy_size_compensation = 0
; bottom_solid_layers = 0
; bridge_flow_ratio = 1
; bridge_speed = 60
; external_fill_pattern = rectilinear
; external_perimeter_extrusion_width = 0
; external_perimeter_speed = 50%
; external_perimeters_first = 0
; extra_perimeters = 1
; fill_angle = 45
; fill_density = 40%
; fill_pattern = rectilinear
; gap_fill_speed = 20
; infill_every_layers = 1
; infill_extruder = 1
; infill_extrusion_width = 0
; infill_overlap = 15%
; infill_speed = 80
; overhangs = 1
; perimeter_extruder = 1
; perimeter_extrusion_width = 0
; perimeter_speed = 60
; perimeters = 0
; small_perimeter_speed = 15
; solid_infill_below_area = 70
; solid_infill_every_layers = 0
; solid_infill_extruder = 1
; solid_infill_extrusion_width = 0
; solid_infill_speed = 20
; thin_walls = 1
; top_infill_extrusion_width = 0
; top_solid_infill_speed = 15
; top_solid_layers = 0
