; generated by Slic3r 1.2.9 on 2019-08-13 at 14:01:47

; external perimeters extrusion width = 0.50mm
; perimeters extrusion width = 0.72mm
; infill extrusion width = 0.72mm
; solid infill extrusion width = 0.72mm
; top infill extrusion width = 0.72mm

M107
M104 S200 ; set temperature
G28 ; home all axes
G1 Z5 F5000 ; lift nozzle

M109 S200 ; wait for temperature to be reached
G21 ; set units to millimeters
G90 ; use absolute coordinates
M82 ; use absolute distances for extrusion
G92 E0
G1 Z0.300 F7800.000
G1 E-2.00000 F2400.00000
G92 E0
G1 X97.545 Y94.950 F7800.000
G1 E2.00000 F2400.00000
G1 X97.172 Y94.577 E2.11138 F600.000
G1 X96.685 Y94.871 E2.23158
G1 X96.342 Y94.528 E2.33380
G1 X96.036 Y95.004 E2.45317
G1 X95.699 Y94.667 E2.55375
G1 X95.166 Y94.915 E2.67791
G1 X95.505 Y95.254 E2.77896
G1 X95.063 Y95.594 E2.89660
G1 X94.732 Y95.263 E2.99556
G1 X94.355 Y95.668 E3.11231
G1 X94.707 Y96.020 E3.21732
G1 X94.450 Y96.544 E3.34059
G1 X94.082 Y96.176 E3.45022
G1 X93.950 Y96.825 E3.59006
G1 X94.352 Y97.227 E3.71001
G1 X94.341 Y97.998 E3.87282
G1 X94.998 Y98.655 E4.06895
G1 X96.115 Y98.990 E4.31504
G1 X96.506 Y99.382 E4.43193
G1 X97.073 Y99.167 E4.55993
G1 X97.431 Y99.525 E4.66670
G1 X97.806 Y99.118 E4.78347
G1 X98.159 Y99.471 E4.88884
G1 X98.378 Y98.909 E5.01621
G1 X98.746 Y99.277 E5.12608
G1 X99.201 Y98.950 E5.24430
G1 X98.830 Y98.579 E5.35511
G1 X99.169 Y98.137 E5.47277
G1 X99.574 Y98.542 E5.59358
G1 X99.805 Y97.991 E5.71969
G1 X99.382 Y97.569 E5.84572
G1 X99.867 Y97.272 E5.96572
G1 X99.403 Y96.807 E6.10436
G1 X99.282 Y95.905 F7800.000
G1 X98.703 Y95.326 E6.27744 F600.000
G1 Z0.600 F7800.000
G1 X99.618 Y96.009 F7800.000
G1 X99.326 Y96.302 E6.41700 F600.000
G1 X99.996 Y96.881 E6.71642
G1 X99.637 Y97.241 E6.88802
G1 X99.684 Y98.444 E7.29474
G1 X99.006 Y99.122 E7.61868
G1 E5.61868 F2400.00000
G92 E0
G1 X94.586 Y97.407 F7800.000
G1 E2.00000 F2400.00000
G1 X94.195 Y97.799 E2.18685 F600.000
G1 X94.161 Y97.679 F7800.000
G1 X94.553 Y97.287 E2.37397 F600.000
G1 X94.385 Y96.251 F7800.000
G1 X94.821 Y95.815 E2.58235 F600.000
G1 X95.257 Y95.350 F7800.000
G1 X95.656 Y94.951 E2.77300 F600.000
G1 Z0.900 F7800.000
G1 X95.685 Y95.398 F7800.000
G1 X95.376 Y95.089 E2.89872 F600.000
G1 X94.813 Y95.591 E3.11581
G1 X95.124 Y95.902 E3.24249
G1 X94.711 Y96.554 E3.46459
G1 X94.398 Y96.242 E3.59169
G1 X94.292 Y96.884 F7800.000
G1 X94.604 Y97.196 E3.71872 F600.000
G1 E1.71872 F2400.00000
G92 E0
G1 X98.126 Y99.315 F7800.000
G1 E2.00000 F2400.00000
G1 X98.439 Y99.628 E2.12721 F600.000
G1 X99.148 Y99.403 E2.34125
G1 X98.815 Y99.070 E2.47698
G1 X99.336 Y98.658 E2.66821
G1 X99.683 Y99.005 E2.80947
G1 X100.076 Y98.464 E3.00179
G1 X99.693 Y98.081 E3.15757
G1 X100.230 Y97.685 E3.34965
G1 X99.842 Y97.297 E3.50733
G1 X99.491 Y96.012 E3.89059
G1 X99.855 Y96.376 E4.03874
M106 S255
G1 Z1.200 F7800.000
G1 X99.591 Y96.248 F7800.000
G1 X99.883 Y95.956 E4.19961 F600.000
G1 X100.239 Y96.552 E4.46963
G1 X99.911 Y96.880 E4.65001
G1 X100.410 Y97.333 E4.91210
G1 X100.037 Y97.706 E5.11672
G1 X100.071 Y98.624 E5.47410
G1 X99.413 Y99.282 E5.83603
G1 E3.83603 F2400.00000
G92 E0
G1 X94.512 Y97.807 F7800.000
G1 E2.00000 F2400.00000
G1 X94.814 Y97.505 E2.16603 F600.000
G1 X94.863 Y96.016 E2.74534
G1 X95.372 Y95.507 E3.02515
G1 Z1.500 F7800.000
G1 X95.901 Y95.547 F7800.000
G1 X95.588 Y95.234 E3.15180 F600.000
G1 X95.042 Y95.748 E3.36627
G1 X95.361 Y96.067 E3.49565
G1 X94.990 Y96.756 E3.71942
G1 X94.655 Y96.420 E3.85514
G1 X94.593 Y97.417 E4.14102
G1 X94.904 Y97.729 E4.26720
G1 E2.26720 F2400.00000
G92 E0
G1 X98.468 Y99.513 F7800.000
G1 E2.00000 F2400.00000
G1 X98.755 Y99.800 E2.11622 F600.000
G1 X98.473 Y99.504 F7800.000
G1 X98.784 Y99.815 E2.24214 F600.000
G1 X99.507 Y99.591 E2.45878
G1 X99.176 Y99.260 E2.59278
G1 X99.714 Y98.851 E2.78620
G1 X100.055 Y99.191 E2.92402
G1 X100.446 Y98.636 E3.11853
G1 X100.078 Y98.268 E3.26743
G1 X100.603 Y97.846 E3.46022
G1 X100.229 Y97.471 E3.61187
G1 X99.919 Y96.214 E3.98230
G1 X100.269 Y96.564 E4.12405
G1 Z1.800 F7800.000
G1 X100.372 Y96.263 F7800.000
G1 X100.080 Y96.556 E4.26872 F600.000
G1 X100.745 Y97.187 E4.58948
G1 X100.397 Y97.534 E4.76164
G1 X100.399 Y98.828 E5.21423
G1 X99.776 Y99.451 E5.52258
G1 E3.52258 F2400.00000
G92 E0
G1 X95.113 Y96.721 F7800.000
G1 E2.00000 F2400.00000
G1 X94.693 Y97.141 E2.20776 F600.000
G1 X95.558 Y95.736 F7800.000
G1 X95.984 Y95.310 E2.41862 F600.000
G1 Z2.100 F7800.000
G1 X95.929 Y95.880 F7800.000
G1 X95.578 Y95.529 E2.58510 F600.000
G1 X95.026 Y96.220 E2.88198
G1 X95.402 Y96.596 E3.06065
G1 X94.803 Y97.239 E3.35589
G1 X95.160 Y97.597 E3.52552
G1 E1.52552 F2400.00000
G92 E0
G1 X98.965 Y99.647 F7800.000
G1 E2.00000 F2400.00000
G1 X99.277 Y99.959 E2.14804 F600.000
G1 X99.745 Y99.312 E2.41605
G1 X100.069 Y99.636 E2.56987
G1 X100.623 Y99.076 E2.83449
G1 X100.283 Y98.736 E2.99592
G1 X100.908 Y98.246 E3.26247
G1 X100.566 Y97.904 E3.42495
G1 X100.427 Y96.651 E3.84833
G1 X100.745 Y96.969 E3.99933
G1 X100.652 Y96.729 F7800.000
G1 X100.252 Y96.328 E4.18963 F600.000
G1 Z2.400 F7800.000
G1 X100.902 Y96.803 F7800.000
G1 X100.609 Y97.096 E4.30092 F600.000
G1 X101.077 Y97.615 E4.48818
G1 X100.743 Y97.948 E4.61476
G1 X100.679 Y98.999 E4.89706
G1 X100.046 Y99.631 E5.13704
G1 X99.805 Y99.621 F7800.000
G1 X99.488 Y99.938 E5.25733 F600.000
G1 E3.25733 F2400.00000
G92 E0
G1 X94.970 Y97.644 F7800.000
G1 E2.00000 F2400.00000
G1 X95.285 Y97.329 E2.11958 F600.000
G1 X95.428 Y96.193 E2.42663
G1 X95.881 Y95.740 E2.59865
G1 Z2.700 F7800.000
G1 X96.067 Y96.179 F7800.000
G1 X95.625 Y95.737 E2.97372 F600.000
G1 X95.005 Y97.342 E4.00773
G1 X95.454 Y97.792 E4.38998
G1 X95.923 Y99.012 F7800.000
G1 X96.468 Y99.557 E4.85350 F600.000
G1 X97.777 Y99.829 E5.65718
G1 X98.084 Y100.137 E5.91840
G1 X99.938 Y99.510 F7800.000
G1 X100.264 Y99.836 E6.19520 F600.000
G1 X100.122 Y99.382 F7800.000
G1 X100.461 Y99.721 E6.48378 F600.000
G1 X101.063 Y98.900 E7.09592
G1 X100.712 Y98.549 E7.39421
G1 X100.863 Y97.276 E8.16443
G1 X101.201 Y97.614 E8.45131
G1 X101.284 Y97.421 F7800.000
G1 X100.602 Y96.739 E9.03082 F600.000
G1 Z3.000 F7800.000
G1 X101.350 Y97.921 F7800.000
G1 X101.009 Y98.263 E9.16892 F600.000
G1 X101.287 Y98.322 F7800.000
G1 X100.937 Y98.672 E9.31047 F600.000
G1 X101.158 Y98.694 F7800.000
G1 X100.798 Y99.054 E9.45633 F600.000
G1 X100.926 Y99.072 F7800.000
G1 X100.598 Y99.400 E9.58894 F600.000
G1 E7.58894 F2400.00000
G92 E0
G1 X98.072 Y100.289 F7800.000
G1 E2.00000 F2400.00000
G1 X98.373 Y99.989 E2.12159 F600.000
G1 X97.439 Y99.863 E2.39094
G1 X97.104 Y100.198 E2.52648
G1 X96.697 Y99.547 E2.74623
G1 X96.357 Y99.887 E2.88387
G1 X95.784 Y99.401 E3.09868
G1 X96.108 Y99.077 E3.22974
G1 X95.697 Y98.429 E3.44912
G1 X95.380 Y98.746 E3.57721
G1 X95.207 Y97.584 F7800.000
G1 X95.546 Y97.245 E3.71433 F600.000
G1 Z3.300 F7800.000
G1 X95.810 Y97.280 F7800.000
G1 X95.290 Y96.760 E4.09401 F600.000
G1 X96.022 Y95.580 E4.81102
G1 X96.543 Y96.101 E5.19139
G1 E3.19139 F2400.00000
G92 E0
G1 X95.564 Y99.147 F7800.000
G1 E2.00000 F2400.00000
G1 X96.187 Y99.769 E2.45480 F600.000
G1 X98.140 Y99.966 F7800.000
G1 X98.662 Y100.487 E2.83554 F600.000
G1 X98.482 Y100.385 F7800.000
G1 X98.187 Y100.090 E3.05142 F600.000
G1 Z3.600 F7800.000
G1 X98.091 Y100.550 F7800.000
G1 X98.396 Y100.246 E3.16358 F600.000
G1 X97.478 Y100.200 E3.40278
G1 X97.142 Y100.536 E3.52648
G1 X96.753 Y99.962 E3.70699
G1 X96.416 Y100.299 E3.83099
G1 X95.829 Y99.922 E4.01240
G1 X96.159 Y99.593 E4.13360
G1 X95.697 Y99.091 E4.31102
G1 X95.366 Y99.422 E4.43286
G1 X95.108 Y98.716 E4.62841
G1 X95.422 Y98.403 E4.74367
G1 X95.830 Y96.571 F7800.000
G1 X96.204 Y96.197 E4.88122 F600.000
G1 Z3.900 F7800.000
G1 X96.703 Y95.349 F7800.000
G1 X97.199 Y95.845 E5.18495 F600.000
G1 E3.18495 F2400.00000
G92 E0
G1 X95.375 Y99.433 F7800.000
G1 E2.00000 F2400.00000
G1 X96.028 Y100.086 E2.39973 F600.000
G1 X97.924 Y100.378 F7800.000
G1 X98.219 Y100.674 E2.58082 F600.000
G1 E0.58082 F2400.00000
G92 E0
G1 X101.043 Y98.716 F7800.000
G1 E2.00000 F2400.00000
G1 X101.540 Y99.212 E2.30417 F600.000
G1 X101.669 Y98.867 F7800.000
G1 X101.171 Y98.369 E2.60918 F600.000
G1 Z4.200 F7800.000
G1 X101.735 Y97.870 F7800.000
G1 X101.429 Y98.177 E2.73938 F600.000
G1 X101.488 Y99.229 E3.05562
G1 X100.910 Y99.807 E3.30100
G1 X97.818 Y100.841 F7800.000
G1 X98.123 Y100.536 E3.43033 F600.000
G1 X97.230 Y100.472 E3.69909
G1 X96.879 Y100.823 E3.84789
G1 X96.519 Y100.227 E4.05702
G1 X96.176 Y100.570 E4.20269
G1 X95.596 Y100.193 E4.41027
G1 X95.935 Y99.854 E4.55432
G1 X95.481 Y99.351 E4.75763
G1 X95.152 Y99.681 E4.89759
G1 X94.901 Y98.974 E5.12253
G1 X95.215 Y98.660 E5.25573
G1 E3.25573 F2400.00000
G92 E0
G1 X97.179 Y95.718 F7800.000
G1 E2.00000 F2400.00000
G1 X97.554 Y95.343 E2.15917 F600.000
G1 Z4.500 F7800.000
G1 X97.692 Y95.254 F7800.000
G1 X98.076 Y95.638 E2.33853 F600.000
G1 E0.33853 F2400.00000
G92 E0
G1 X101.866 Y97.944 F7800.000
G1 E2.00000 F2400.00000
G1 X101.546 Y97.624 E2.14966 F600.000
G1 X101.492 Y98.794 E2.53657
G1 X101.962 Y99.264 E2.75612
G1 X101.459 Y99.984 E3.04639
G1 X101.012 Y99.537 E3.25528
G1 X100.547 Y100.295 E3.54917
G1 X100.221 Y99.969 E3.70139
G1 E1.70139 F2400.00000
G92 E0
G1 X98.218 Y100.921 F7800.000
G1 E2.00000 F2400.00000
G1 X97.923 Y100.627 E2.13759 F600.000
G1 X97.377 Y101.025 E2.36088
G1 X96.993 Y100.641 E2.54028
G1 X95.804 Y100.396 E2.94121
G1 X95.166 Y99.757 E3.23968
G1 Z4.800 F7800.000
G1 X94.996 Y98.900 F7800.000
G1 X94.680 Y99.216 E3.39025 F600.000
G1 X94.919 Y99.980 E3.65973
G1 X95.257 Y99.641 E3.82098
G1 X95.726 Y100.174 E4.06013
G1 X95.379 Y100.522 E4.22575
G1 X95.980 Y100.922 E4.46919
G1 X96.342 Y100.561 E4.64124
G1 X96.742 Y101.163 E4.88470
G1 X97.107 Y100.798 E5.05842
G1 X98.101 Y100.806 E5.39332
G1 X97.794 Y101.113 E5.53950
G1 E3.53950 F2400.00000
G92 E0
G1 X99.816 Y100.507 F7800.000
G1 E2.00000 F2400.00000
G1 X100.170 Y100.154 E2.16832 F600.000
G1 X101.357 Y100.214 F7800.000
G1 X101.991 Y99.579 E2.47060 F600.000
G1 X101.798 Y98.526 E2.83145
G1 X102.254 Y98.069 E3.04893
G1 X101.497 Y97.580 E3.35273
G1 X101.812 Y97.264 E3.50302
G1 E1.50302 F2400.00000
G92 E0
G1 X98.666 Y95.289 F7800.000
G1 E2.00000 F2400.00000
G1 X98.270 Y95.685 E2.18856 F600.000
G1 Z5.100 F7800.000
G1 X99.346 Y95.780 F7800.000
G1 X99.006 Y95.440 E2.34309 F600.000
G1 X98.262 Y95.888 E2.62269
G1 X97.890 Y95.515 E2.79240
G1 X97.429 Y96.247 E3.07070
G1 X97.098 Y95.916 E3.22129
G1 E1.22129 F2400.00000
G92 E0
G1 X101.396 Y96.909 F7800.000
G1 E2.00000 F2400.00000
G1 X102.099 Y97.611 E2.31976 F600.000
G1 X102.085 Y98.642 F7800.000
G1 X102.541 Y99.099 E2.52759 F600.000
G1 X101.849 Y99.452 E2.77775
G1 X102.286 Y99.889 E2.97679
G1 X101.774 Y100.422 E3.21476
G1 X101.353 Y100.001 E3.40612
G1 X101.012 Y100.706 E3.65799
G1 X100.601 Y100.295 E3.84507
G1 X99.872 Y100.610 E4.10099
G1 X99.531 Y100.269 E4.25639
G1 X98.067 Y101.222 F7800.000
G1 X97.772 Y100.928 E4.39037 F600.000
G1 X97.214 Y101.360 E4.61776
G1 X96.837 Y100.983 E4.78958
G1 X95.581 Y100.719 E5.20251
G1 X94.934 Y100.071 E5.49747
G1 Z5.400 F7800.000
G1 X94.781 Y99.233 F7800.000
G1 X94.466 Y99.548 E5.76609 F600.000
G1 X94.710 Y100.330 E6.25968
G1 X95.053 Y99.987 E6.55174
G1 X95.539 Y100.526 E6.98947
G1 X95.188 Y100.877 E7.28858
G1 X95.815 Y101.276 E7.73646
G1 X96.174 Y100.917 E8.04244
G1 X96.610 Y101.507 E8.48450
G1 X96.970 Y101.146 E8.79153
G1 X98.057 Y101.085 E9.44809
G1 X97.750 Y101.392 E9.71044
G1 E7.71044 F2400.00000
G92 E0
G1 X100.112 Y100.869 F7800.000
G1 E2.00000 F2400.00000
G1 X100.483 Y100.498 E2.31632 F600.000
G1 X101.709 Y100.529 F7800.000
G1 X102.409 Y99.829 E2.91357 F600.000
G1 X102.319 Y98.662 E3.61893
G1 X102.727 Y98.254 E3.96671
G1 X101.988 Y97.736 E4.51071
G1 X102.351 Y97.373 E4.82031
G1 X101.720 Y96.748 E5.35610
G1 X101.383 Y97.084 E5.64289
G1 X99.772 Y96.187 F7800.000
G1 X100.164 Y95.795 E5.97777 F600.000
G1 X97.941 Y95.786 E7.31784
G1 X97.490 Y96.238 E7.70289
G1 Z5.700 F7800.000
G1 X97.457 Y96.479 F7800.000
G1 X97.112 Y96.133 E7.98242 F600.000
G1 X97.756 Y96.095 F7800.000
G1 X98.120 Y96.460 E8.27716 F600.000
G1 X99.653 Y95.874 E9.21634
G1 X100.016 Y96.237 E9.50995
G1 E7.50995 F2400.00000
G92 E0
G1 X102.463 Y97.613 F7800.000
G1 E2.00000 F2400.00000
G1 X102.029 Y97.179 E2.35127 F600.000
G1 X102.535 Y98.763 E3.30280
G1 X102.957 Y99.186 E3.64475
G1 X102.313 Y99.621 E4.08952
G1 X102.732 Y100.040 E4.42882
G1 X102.239 Y100.626 E4.86703
G1 X101.834 Y100.221 E5.19439
G1 X101.124 Y100.590 E5.65242
G1 X101.503 Y100.969 E5.95895
G1 X100.458 Y101.003 E6.55708
G1 X100.102 Y100.647 E6.84524
G1 X100.067 Y100.632 F7800.000
G1 X100.415 Y100.980 E7.12694 F600.000
G1 E5.12694 F2400.00000
G92 E0
G1 X97.946 Y101.528 F7800.000
G1 E2.00000 F2400.00000
G1 X97.652 Y101.234 E2.23798 F600.000
G1 X97.069 Y101.698 E2.66439
G1 X96.696 Y101.325 E2.96629
G1 X95.403 Y101.079 E3.71944
G1 X94.713 Y100.389 E4.27794
G1 Z6.000 F7800.000
G1 X94.557 Y99.491 F7800.000
G1 X94.241 Y99.807 E4.45149 F600.000
G1 X94.470 Y100.621 E4.78007
G1 X94.812 Y100.279 E4.96799
G1 X95.298 Y100.836 E5.25528
G1 X94.956 Y101.179 E5.44342
G1 X95.584 Y101.594 E5.73592
G1 X95.938 Y101.240 E5.93074
G1 X96.384 Y101.837 E6.22039
G1 X96.743 Y101.478 E6.41764
G1 X97.851 Y101.414 E6.84862
G1 X97.541 Y101.724 E7.01895
G1 E5.01895 F2400.00000
G92 E0
G1 X102.127 Y100.744 F7800.000
G1 E2.00000 F2400.00000
G1 X102.784 Y100.086 E2.36117 F600.000
G1 X102.730 Y99.019 E2.77640
G1 X103.131 Y98.617 E2.99677
G1 X102.529 Y98.098 E3.30572
G1 X102.857 Y97.770 E3.48601
G1 E1.48601 F2400.00000
G92 E0
G1 X99.523 Y96.361 F7800.000
G1 E2.00000 F2400.00000
G1 X99.878 Y96.006 E2.19521 F600.000
G1 X98.353 Y96.093 E2.78868
G1 X97.952 Y96.494 E3.00894
G1 X97.750 Y96.233 F7800.000
G1 X97.295 Y96.688 E3.25898 F600.000
G1 Z6.300 F7800.000
G1 X97.493 Y96.395 F7800.000
G1 X97.882 Y96.784 E3.45689 F600.000
G1 X98.140 Y96.473 F7800.000
G1 X98.524 Y96.858 E3.65281 F600.000
G1 X99.099 Y96.099 E3.99536
G1 X99.474 Y96.475 E4.18661
G1 E2.18661 F2400.00000
G92 E0
G1 X103.126 Y98.359 F7800.000
G1 E2.00000 F2400.00000
G1 X102.781 Y98.014 E2.17565 F600.000
G1 X102.890 Y99.286 E2.63517
G1 X103.321 Y99.717 E2.85443
G1 X102.553 Y100.112 E3.16517
G1 X102.984 Y100.543 E3.38442
G1 X102.328 Y101.049 E3.68287
G1 X101.932 Y100.653 E3.88455
G1 X101.371 Y101.255 E4.18073
G1 X101.023 Y100.907 E4.35766
G1 E2.35766 F2400.00000
G92 E0
G1 X97.706 Y101.869 F7800.000
G1 E2.00000 F2400.00000
G1 X97.412 Y101.575 E2.14967 F600.000
G1 X96.856 Y102.049 E2.41275
G1 X96.464 Y101.657 E2.61226
G1 X95.191 Y101.414 E3.07886
G1 X94.541 Y100.764 E3.40954
G1 Z6.600 F7800.000
G1 X94.342 Y99.842 F7800.000
G1 X94.027 Y100.157 E3.54618 F600.000
G1 X94.248 Y100.977 E3.80662
G1 X94.605 Y100.620 E3.96134
G1 X95.092 Y101.175 E4.18763
G1 X94.716 Y101.551 E4.35081
G1 X95.336 Y101.973 E4.58071
G1 X95.733 Y101.576 E4.75284
G1 X96.145 Y102.205 E4.98353
G1 X96.538 Y101.812 E5.15392
G1 X97.636 Y101.756 E5.49090
G1 X97.318 Y102.074 E5.62870
G1 E3.62870 F2400.00000
G92 E0
G1 X101.133 Y101.354 F7800.000
G1 E2.00000 F2400.00000
G1 X101.464 Y101.023 E2.14357 F600.000
G1 X102.653 Y100.951 F7800.000
G1 X103.237 Y100.367 E2.39687 F600.000
G1 X103.117 Y99.370 E2.70454
G1 X103.540 Y98.947 E2.88807
G1 X102.935 Y98.435 E3.13096
G1 X103.263 Y98.107 E3.27321
G1 E1.27321 F2400.00000
G92 E0
G1 X98.990 Y96.653 F7800.000
G1 E2.00000 F2400.00000
G1 X99.353 Y96.291 E2.15723 F600.000
G1 X97.929 Y96.579 E2.60237
G1 X97.517 Y96.991 E2.78129
G1 X96.701 Y96.672 E3.04984
G1 X96.333 Y97.041 E3.20955
G1 Z6.900 F7800.000
G1 X96.147 Y96.795 F7800.000
G1 X96.652 Y97.300 E3.79789 F600.000
G1 X98.790 Y96.388 E5.71184
G1 X99.294 Y96.893 E6.29932
G1 E4.29932 F2400.00000
G92 E0
G1 X103.503 Y98.562 F7800.000
G1 E2.00000 F2400.00000
G1 X103.086 Y98.145 E2.48565 F600.000
G1 X103.199 Y99.888 E3.92463
G1 X103.739 Y100.428 E4.55284
G1 X102.993 Y101.313 E5.50596
G1 X102.484 Y100.803 E6.09924
G1 X101.580 Y101.530 E7.05444
G1 X101.169 Y101.119 E7.53338
G1 E5.53338 F2400.00000
G92 E0
G1 X97.708 Y102.122 F7800.000
G1 E2.00000 F2400.00000
G1 X97.415 Y101.829 E2.34155 F600.000
G1 X96.772 Y102.420 E3.06086
G1 X96.372 Y102.021 E3.52648
G1 X94.986 Y101.868 E4.67505
G1 X94.303 Y101.185 E5.47067
G1 Z7.200 F7800.000
G1 X94.106 Y100.182 F7800.000
G1 X93.791 Y100.498 E5.77750 F600.000
G1 X94.002 Y101.363 E6.38990
G1 X94.364 Y101.002 E6.74108
G1 X94.856 Y101.586 E7.26641
G1 X94.478 Y101.964 E7.63381
G1 X95.117 Y102.402 E8.16623
G1 X95.519 Y102.000 E8.55689
G1 X95.965 Y102.630 E9.08788
G1 X96.373 Y102.223 E9.48394
G1 X97.687 Y101.985 E10.40227
G1 X97.354 Y102.319 E10.72617
G1 E8.72617 F2400.00000
G92 E0
G1 X101.411 Y101.653 F7800.000
G1 E2.00000 F2400.00000
G1 X101.781 Y101.284 E2.35886 F600.000
G1 X103.146 Y101.305 F7800.000
G1 X103.747 Y100.704 E2.94319 F600.000
G1 X103.549 Y99.515 E3.77176
G1 X103.979 Y99.085 E4.18974
G1 X103.215 Y98.462 E4.86745
G1 X103.553 Y98.124 E5.19595
G1 E3.19595 F2400.00000
G92 E0
G1 X99.621 Y96.411 F7800.000
G1 E2.00000 F2400.00000
G1 X99.167 Y96.865 E2.44149 F600.000
G1 E0.44149 F2400.00000
G92 E0
G1 X96.521 Y96.966 F7800.000
G1 E2.00000 F2400.00000
G1 X96.072 Y97.415 E2.43659 F600.000
G1 Z7.500 F7800.000
G1 X95.918 Y97.122 F7800.000
G1 X96.436 Y97.640 E2.95272 F600.000
G1 X97.674 Y97.163 E3.88821
G1 X98.219 Y97.708 E4.43144
G1 X98.814 Y97.738 F7800.000
G1 X98.243 Y97.167 E5.00042 F600.000
G1 X98.784 Y97.708 E5.53993
G1 X99.955 Y96.269 E6.84811
G1 X100.489 Y96.803 E7.38052
G1 E5.38052 F2400.00000
G92 E0
G1 X103.343 Y98.142 F7800.000
G1 E2.00000 F2400.00000
G1 X103.902 Y98.701 E2.55793 F600.000
G1 E0.55793 F2400.00000
G92 E0
G1 X104.181 Y101.010 F7800.000
G1 E2.00000 F2400.00000
G1 X103.743 Y100.571 E2.43758 F600.000
G1 X102.742 Y101.243 E3.28717
G1 X103.280 Y101.780 E3.82315
G1 X101.632 Y101.805 E4.98483
G1 X101.215 Y101.388 E5.40110
G1 E3.40110 F2400.00000
G92 E0
G1 X97.559 Y102.476 F7800.000
G1 E2.00000 F2400.00000
G1 X97.266 Y102.184 E2.29194 F600.000
G1 X96.606 Y102.831 E2.94407
G1 X96.220 Y102.445 E3.32899
G1 X94.757 Y102.291 E4.36616
G1 X94.065 Y101.599 E5.05581
G1 Z7.800 F7800.000
G1 X93.868 Y100.597 F7800.000
G1 X93.550 Y100.915 E5.28241 F600.000
G1 X93.762 Y101.784 E5.73326
G1 X94.128 Y101.418 E5.99420
G1 X94.621 Y102.004 E6.38083
G1 X94.245 Y102.381 E6.64947
G1 X94.883 Y102.823 E7.04104
G1 X95.284 Y102.422 E7.32672
G1 X95.735 Y103.052 E7.71720
G1 X96.139 Y102.648 E8.00567
G1 X97.484 Y102.384 E8.69637
G1 X97.150 Y102.717 E8.93417
G1 E6.93417 F2400.00000
G92 E0
G1 X101.932 Y102.008 F7800.000
G1 E2.00000 F2400.00000
G1 X102.323 Y101.618 E2.27831 F600.000
G1 X103.682 Y101.719 F7800.000
G1 X104.320 Y101.080 E2.73358 F600.000
G1 X104.038 Y99.902 E3.34417
G1 X104.466 Y99.475 E3.64899
G1 X103.691 Y98.790 E4.17038
G1 X104.030 Y98.451 E4.41206
G1 E2.41206 F2400.00000
G92 E0
G1 X100.899 Y96.436 F7800.000
G1 E2.00000 F2400.00000
G1 X100.440 Y96.894 E2.32671 F600.000
G1 E0.32671 F2400.00000
G92 E0
G1 X98.084 Y97.384 F7800.000
G1 E2.00000 F2400.00000
G1 X97.567 Y97.901 E2.36867 F600.000
G1 X96.319 Y97.282 E3.07079
G1 X95.845 Y97.757 E3.40923
G1 Z8.100 F7800.000
G1 X95.838 Y97.426 F7800.000
G1 X96.337 Y97.926 E3.78238 F600.000
G1 X98.830 Y98.463 E5.12957
G1 X98.228 Y97.861 E5.57969
G1 X99.178 Y96.855 E6.31041
G1 X99.745 Y97.422 E6.73445
G1 X100.822 Y96.543 E7.46859
G1 X101.328 Y97.049 E7.84625
G1 E5.84625 F2400.00000
G92 E0
G1 X103.940 Y98.689 F7800.000
G1 E2.00000 F2400.00000
G1 X104.480 Y99.229 E2.40326 F600.000
G1 X104.794 Y100.240 F7800.000
G1 X104.367 Y99.812 E2.72289 F600.000
G1 X103.992 Y101.047 E3.40440
G1 X104.666 Y101.721 E3.90832
G1 X103.586 Y102.251 E4.54361
G1 X103.028 Y101.692 E4.96113
G1 X101.820 Y102.094 E5.63327
G1 X101.405 Y101.679 E5.94320
G1 E3.94320 F2400.00000
G92 E0
G1 X97.298 Y102.908 F7800.000
G1 E2.00000 F2400.00000
G1 X97.005 Y102.615 E2.21859 F600.000
G1 X96.361 Y103.259 E2.69974
G1 X95.972 Y102.870 E2.99054
G1 X94.477 Y102.663 E3.78777
G1 X93.843 Y102.029 E4.26144
G1 Z8.400 F7800.000
G1 X93.627 Y100.903 F7800.000
G1 X93.309 Y101.221 E4.57295 F600.000
G1 X93.491 Y102.138 E5.21881
G1 X93.856 Y101.772 E5.57574
G1 X94.343 Y102.385 E6.11628
G1 X93.950 Y102.778 E6.50048
G1 X94.564 Y103.262 E7.04123
G1 X95.004 Y102.822 E7.47172
G1 X95.424 Y103.501 E8.02351
G1 X95.859 Y103.066 E8.44918
G1 X97.189 Y102.835 E9.38211
G1 X96.847 Y103.177 E9.71668
G1 E7.71668 F2400.00000
G92 E0
G1 X97.727 Y98.516 F7800.000
G1 E2.00000 F2400.00000
G1 X98.273 Y97.970 E2.53376 F600.000
G1 X96.078 Y97.607 E4.07193
G1 X95.561 Y98.123 E4.57653
G1 E2.57653 F2400.00000
G92 E0
G1 X100.907 Y97.362 F7800.000
G1 E2.00000 F2400.00000
G1 X101.694 Y96.575 E2.76907 F600.000
G1 E0.76907 F2400.00000
G92 E0
G1 X104.614 Y99.018 F7800.000
G1 E2.00000 F2400.00000
G1 X104.266 Y99.366 E2.34050 F600.000
G1 X105.075 Y100.155 E3.12154
G1 X104.570 Y100.660 E3.61548
G1 X105.041 Y101.787 E4.45950
G1 X104.467 Y102.361 E5.02111
G1 X103.237 Y101.992 F7800.000
G1 X102.760 Y102.469 E5.48730 F600.000
G1 Z8.700 F7800.000
G1 X101.720 Y101.997 F7800.000
G1 X102.166 Y102.444 E5.87996 F600.000
G1 X104.080 Y102.967 E7.11447
G1 X103.316 Y102.203 E7.78676
G1 X104.365 Y101.862 E8.47319
G1 X105.356 Y102.853 E9.34515
G1 X105.702 Y101.808 E10.02976
G1 X104.842 Y100.948 E10.78625
G1 X104.501 Y99.216 E11.88456
G1 X104.963 Y99.678 E12.29099
G1 E10.29099 F2400.00000
G92 E0
G1 X101.733 Y97.345 F7800.000
G1 E2.00000 F2400.00000
G1 X101.231 Y96.844 E2.44105 F600.000
G1 X99.937 Y97.854 E3.46206
G1 X99.344 Y97.260 E3.98426
G1 X98.431 Y98.651 E5.01921
G1 X98.956 Y99.175 E5.48066
G1 X99.084 Y99.289 F7800.000
G1 X98.649 Y98.854 E5.86373 F600.000
G1 X98.447 Y100.238 E6.73393
G1 X98.882 Y100.673 E7.11653
G1 X98.484 Y98.919 F7800.000
G1 X97.601 Y98.035 E7.89378 F600.000
G1 X97.743 Y98.405 F7800.000
G1 X97.009 Y97.671 E8.53997 F600.000
G1 E6.53997 F2400.00000
G92 E0
G1 X97.073 Y103.324 F7800.000
G1 E2.00000 F2400.00000
G1 X96.778 Y103.030 E2.25891 F600.000
G1 X96.122 Y103.752 E2.86580
G1 X95.660 Y103.290 E3.27237
G1 X94.369 Y103.377 E4.07723
G1 X93.668 Y102.675 E4.69445
G1 Z9.000 F7800.000
G1 X93.387 Y101.322 F7800.000
G1 X93.069 Y101.640 E4.91615 F600.000
G1 X93.183 Y102.631 E5.40779
G1 X93.596 Y102.218 E5.69568
G1 X94.047 Y102.871 E6.08698
G1 X93.587 Y103.332 E6.40806
G1 X94.172 Y103.850 E6.79373
G1 X94.686 Y103.337 E7.15199
G1 X95.000 Y104.127 E7.57124
G1 X95.553 Y103.575 E7.95627
G1 X96.964 Y103.268 E8.66833
G1 X96.618 Y103.614 E8.90986
G1 E6.90986 F2400.00000
G92 E0
G1 X98.767 Y100.350 F7800.000
G1 E2.00000 F2400.00000
G1 X99.225 Y99.892 E2.31922 F600.000
G1 X98.476 Y98.816 E2.96551
G1 X97.977 Y99.316 E3.31351
G1 X96.977 Y98.490 E3.95259
G1 X97.486 Y97.981 E4.30725
G1 X95.468 Y98.174 E5.30659
G1 X94.993 Y98.649 E5.63752
G1 E3.63752 F2400.00000
G92 E0
G1 X101.460 Y97.553 F7800.000
G1 E2.00000 F2400.00000
G1 X102.026 Y96.988 E2.39442 F600.000
G1 E0.39442 F2400.00000
G92 E0
G1 X104.738 Y99.727 F7800.000
G1 E2.00000 F2400.00000
G1 X105.085 Y99.380 E2.24203 F600.000
G1 X105.611 Y100.245 E2.74137
G1 X105.154 Y100.702 E3.05961
G1 X106.002 Y101.245 E3.55617
G1 X105.240 Y102.007 E4.08756
G1 X105.967 Y102.672 E4.57309
G1 X105.383 Y103.257 E4.98065
G1 X104.675 Y102.573 F7800.000
G1 X103.907 Y103.341 E5.51594 F600.000
G1 X103.351 Y102.505 E6.01062
G1 X102.894 Y102.962 E6.32870
G1 X102.263 Y102.201 E6.81584
G1 X101.931 Y102.534 E7.04769
G1 Z9.300 F7800.000
G1 E5.04769 F2400.00000
G92 E0
G1 X97.048 Y103.645 F7800.000
G1 E2.00000 F2400.00000
G1 X96.749 Y103.346 E2.14975 F600.000
G1 X96.048 Y103.756 E2.43733
G1 X96.431 Y104.139 E2.62908
G1 X95.622 Y104.442 E2.93472
G1 X95.075 Y103.895 E3.20869
G1 X94.096 Y104.028 E3.55838
G1 X93.409 Y103.341 E3.90248
G1 X93.262 Y102.082 E4.35107
G1 X92.917 Y101.737 E4.52393
G1 E2.52393 F2400.00000
G92 E0
G1 X94.885 Y98.499 F7800.000
G1 E2.00000 F2400.00000
G1 X95.233 Y98.847 E2.17428 F600.000
G1 X95.801 Y98.104 E2.50535
G1 X96.222 Y98.525 E2.71622
G1 X97.474 Y98.466 E3.15999
G1 X98.186 Y99.178 E3.51656
G1 E1.51656 F2400.00000
G92 E0
G1 X99.624 Y100.608 F7800.000
G1 E2.00000 F2400.00000
G1 X99.281 Y100.264 E2.14375 F600.000
G1 X99.497 Y99.387 E2.41076
G1 X99.057 Y98.946 E2.59498
G1 X99.801 Y98.596 E2.83794
G1 X99.364 Y98.160 E3.02037
G1 X99.910 Y97.611 E3.24897
G1 X100.328 Y98.029 E3.42373
G1 X100.669 Y97.276 E3.66803
G1 X101.058 Y97.665 E3.83056
G1 X101.725 Y97.238 E4.06459
G1 X102.057 Y97.570 E4.20346
G1 X102.206 Y97.586 F7800.000
G1 X101.868 Y97.248 E4.34469 F600.000
G1 E2.34469 F2400.00000
G92 E0
G1 X105.009 Y99.524 F7800.000
G1 E2.00000 F2400.00000
G1 X105.387 Y99.901 E2.15767 F600.000
G1 X105.723 Y101.210 F7800.000
G1 X106.413 Y101.900 E2.44618 F600.000
G1 X105.740 Y102.199 E2.66395
G1 X106.272 Y102.731 E2.88629
G1 X106.101 Y103.532 F7800.000
G1 X105.378 Y102.809 E3.18856 F600.000
G1 X104.701 Y103.105 E3.40671
G1 X105.432 Y103.835 E3.71188
G1 X104.285 Y103.660 E4.05454
G1 X103.604 Y102.979 E4.33936
G1 X102.419 Y102.767 E4.69493
G1 X102.093 Y102.440 E4.83126
G1 Z9.600 F7800.000
G1 E2.83126 F2400.00000
G92 E0
G1 X98.163 Y100.922 F7800.000
G1 E2.00000 F2400.00000
G1 X98.489 Y100.596 E2.13141 F600.000
G1 X97.991 Y100.038 E2.34441
G1 X98.356 Y99.673 E2.49139
G1 X97.968 Y99.006 E2.71134
G1 X97.584 Y99.390 E2.86612
G1 X96.988 Y98.931 E3.08055
G1 X97.390 Y98.529 E3.24259
G1 X96.579 Y98.285 E3.48401
G1 X96.164 Y98.700 E3.65100
G1 X95.141 Y98.667 E3.94272
G1 X94.792 Y99.016 E4.08336
G1 E2.08336 F2400.00000
G92 E0
G1 X93.109 Y101.758 F7800.000
G1 E2.00000 F2400.00000
G1 X92.790 Y102.077 E2.12852 F600.000
G1 X93.216 Y102.602 E2.32130
G1 X92.825 Y102.993 E2.47885
G1 X93.092 Y103.678 E2.68825
G1 X93.538 Y103.232 E2.86800
G1 X94.002 Y103.720 E3.05981
G1 X93.529 Y104.193 E3.25044
G1 X94.079 Y104.594 E3.44449
G1 X94.599 Y104.075 E3.65403
G1 X94.838 Y104.786 E3.86809
G1 X95.396 Y104.228 E4.09294
G1 X96.427 Y104.149 F7800.000
G1 X97.002 Y103.575 E4.32439 F600.000
G1 E2.32439 F2400.00000
G92 E0
G1 X99.635 Y100.911 F7800.000
G1 E2.00000 F2400.00000
G1 X99.937 Y100.609 E2.13784 F600.000
G1 X99.296 Y100.055 E2.41116
G1 X99.695 Y99.657 E2.59284
G1 X99.657 Y98.500 E2.96643
G1 X100.331 Y97.826 E3.27399
G1 X101.634 Y97.718 E3.69585
G1 X101.985 Y97.367 E3.85599
G1 E1.85599 F2400.00000
G92 E0
G1 X105.672 Y100.666 F7800.000
G1 E2.00000 F2400.00000
G1 X106.081 Y100.256 E2.18685 F600.000
G1 X106.638 Y101.448 F7800.000
G1 X106.181 Y101.905 E2.39548 F600.000
G1 X106.842 Y102.201 E2.62925
G1 X106.181 Y102.863 E2.93133
G1 X106.644 Y103.355 E3.14973
G1 X106.165 Y103.835 E3.36866
G1 X105.537 Y103.506 F7800.000
G1 X104.849 Y104.194 E3.68273 F600.000
G1 X104.567 Y103.519 E3.91874
G1 X104.094 Y103.992 E4.13458
G1 X103.452 Y103.678 E4.36539
G1 X103.847 Y103.282 E4.54585
G1 X103.197 Y102.976 E4.77782
G1 X102.851 Y103.322 E4.93562
G1 X102.271 Y102.945 E5.15880
G1 X102.564 Y102.652 E5.29228
G1 Z9.900 F7800.000
G1 E3.29228 F2400.00000
G92 E0
G1 X97.951 Y99.606 F7800.000
G1 E2.00000 F2400.00000
G1 X97.214 Y98.869 E2.37333 F600.000
G1 X95.975 Y98.956 E2.81826
G1 X95.534 Y98.515 E3.04166
G1 X94.982 Y99.290 E3.38228
G1 X94.612 Y98.919 E3.56974
G1 E1.56974 F2400.00000
G92 E0
G1 X92.635 Y102.297 F7800.000
G1 E2.00000 F2400.00000
G1 X92.966 Y102.628 E2.16767 F600.000
G1 X93.139 Y103.986 E2.65789
G1 X93.827 Y104.674 E3.00645
G1 X94.887 Y104.549 E3.38877
G1 X95.410 Y105.073 E3.65408
G1 X96.231 Y104.710 E3.97572
G1 X95.869 Y104.347 E4.15940
G1 X96.569 Y103.862 E4.46434
G1 X96.861 Y104.154 E4.61221
G1 E2.61221 F2400.00000
G92 E0
G1 X100.175 Y101.114 F7800.000
G1 E2.00000 F2400.00000
G1 X99.842 Y100.780 E2.12338 F600.000
G1 X99.923 Y99.893 E2.35662
G1 X99.492 Y99.462 E2.51610
G1 X99.692 Y98.693 E2.72400
G1 X100.124 Y99.124 E2.88371
G1 X100.522 Y98.554 E3.06579
G1 X100.112 Y98.144 E3.21746
G1 X100.678 Y97.741 E3.39924
G1 X101.079 Y98.142 E3.54772
G1 X101.440 Y97.534 E3.73277
G1 X101.815 Y97.909 E3.87165
G1 X102.510 Y97.635 E4.06710
G1 X102.833 Y97.958 E4.18670
G1 E2.18670 F2400.00000
G92 E0
G1 X105.683 Y99.990 F7800.000
G1 E2.00000 F2400.00000
G1 X106.064 Y100.371 E2.14120 F600.000
G1 E0.14120 F2400.00000
G92 E0
G1 X106.836 Y102.284 F7800.000
G1 E2.00000 F2400.00000
G1 X107.156 Y102.604 E2.11840 F600.000
G1 X106.425 Y103.246 F7800.000
G1 X106.719 Y103.540 E2.22708 F600.000
G1 X106.318 Y103.968 F7800.000
G1 X106.011 Y103.662 E2.34042 F600.000
G1 X105.353 Y103.931 E2.52649
G1 X105.928 Y104.506 E2.73936
G1 X104.924 Y104.430 E3.00289
G1 X104.369 Y103.874 E3.20839
G1 X102.896 Y103.329 F7800.000
G1 X102.537 Y102.969 E3.34144 F600.000
G1 E1.34144 F2400.00000
G92 E0
M107
M104 S0 ; turn off temperature
G28 X0  ; home X axis
M84     ; disable motors

; filament used = 205.7mm (0.2cm3)

; avoid_crossing_perimeters = 0
; bed_shape = 0x0,200x0,200x200,0x200
; bed_temperature = 0
; before_layer_gcode = 
; bridge_acceleration = 0
; bridge_fan_speed = 100
; brim_width = 0
; complete_objects = 0
; cooling = 1
; default_acceleration = 0
; disable_fan_first_layers = 3
; duplicate_distance = 6
; end_gcode = M104 S0 ; turn off temperature\nG28 X0  ; home X axis\nM84     ; disable motors\n
; extruder_clearance_height = 20
; extruder_clearance_radius = 20
; extruder_offset = 0x0
; extrusion_axis = E
; extrusion_multiplier = 1
; fan_always_on = 0
; fan_below_layer_time = 60
; filament_colour = #FFFFFF
; filament_diameter = 1
; first_layer_acceleration = 0
; first_layer_bed_temperature = 0
; first_layer_extrusion_width = 200%
; first_layer_speed = 30
; first_layer_temperature = 200
; gcode_arcs = 0
; gcode_comments = 0
; gcode_flavor = reprap
; infill_acceleration = 0
; infill_first = 0
; layer_gcode = 
; max_fan_speed = 100
; max_print_speed = 80
; max_volumetric_speed = 0
; min_fan_speed = 35
; min_print_speed = 10
; min_skirt_length = 0
; notes = 
; nozzle_diameter = 0.5
; only_retract_when_crossing_perimeters = 1
; ooze_prevention = 0
; output_filename_format = [input_filename_base].gcode
; perimeter_acceleration = 0
; post_process = 
; pressure_advance = 0
; resolution = 0
; retract_before_travel = 2
; retract_layer_change = 0
; retract_length = 2
; retract_length_toolchange = 10
; retract_lift = 0
; retract_restart_extra = 0
; retract_restart_extra_toolchange = 0
; retract_speed = 40
; skirt_distance = 6
; skirt_height = 1
; skirts = 0
; slowdown_below_layer_time = 5
; spiral_vase = 0
; standby_temperature_delta = -5
; start_gcode = G28 ; home all axes\nG1 Z5 F5000 ; lift nozzle\n
; temperature = 200
; threads = 2
; toolchange_gcode = 
; travel_speed = 130
; use_firmware_retraction = 0
; use_relative_e_distances = 0
; use_volumetric_e = 0
; vibration_limit = 0
; wipe = 0
; z_offset = 0
; dont_support_bridges = 1
; extrusion_width = 0
; first_layer_height = 0.3
; infill_only_where_needed = 0
; interface_shells = 0
; layer_height = 0.3
; raft_layers = 0
; seam_position = aligned
; support_material = 0
; support_material_angle = 0
; support_material_contact_distance = 0.2
; support_material_enforce_layers = 0
; support_material_extruder = 1
; support_material_extrusion_width = 0
; support_material_interface_extruder = 1
; support_material_interface_layers = 3
; support_material_interface_spacing = 0
; support_material_interface_speed = 100%
; support_material_pattern = pillars
; support_material_spacing = 2.5
; support_material_speed = 60
; support_material_threshold = 0
; xy_size_compensation = 0
; bottom_solid_layers = 0
; bridge_flow_ratio = 1
; bridge_speed = 60
; external_fill_pattern = rectilinear
; external_perimeter_extrusion_width = 0
; external_perimeter_speed = 50%
; external_perimeters_first = 0
; extra_perimeters = 1
; fill_angle = 45
; fill_density = 60%
; fill_pattern = rectilinear
; gap_fill_speed = 20
; infill_every_layers = 1
; infill_extruder = 1
; infill_extrusion_width = 0
; infill_overlap = 15%
; infill_speed = 80
; overhangs = 1
; perimeter_extruder = 1
; perimeter_extrusion_width = 0
; perimeter_speed = 60
; perimeters = 0
; small_perimeter_speed = 15
; solid_infill_below_area = 70
; solid_infill_every_layers = 0
; solid_infill_extruder = 1
; solid_infill_extrusion_width = 0
; solid_infill_speed = 20
; thin_walls = 1
; top_infill_extrusion_width = 0
; top_solid_infill_speed = 15
; top_solid_layers = 0
