; generated by Slic3r 1.3.0 on 2019-09-26 at 18:04:54

; external perimeters extrusion width = 0.55mm (4.37mm^3/s)
; perimeters extrusion width = 0.70mm (11.44mm^3/s)
; infill extrusion width = 0.63mm (13.45mm^3/s)
; solid infill extrusion width = 0.70mm (3.81mm^3/s)
; top infill extrusion width = 0.70mm (2.86mm^3/s)

M107
M104 S205 ; set temperature
G28 ; home all axes
G1 Z5 F5000 ; lift nozzle

; Filament gcode

M109 S205 ; set temperature and wait for it to be reached
G21 ; set units to millimeters
G90 ; use absolute coordinates
M82 ; use absolute distances for extrusion
G92 E0
G1 Z0.300 F7800.000
G1 E-2.00000 F2400.00000
G92 E0
G1 X89.533 Y104.279 F7800.000
G1 E2.00000 F2400.00000
G1 F1800
G1 X96.856 Y100.788 E2.18442
G1 X97.181 Y101.341 E2.19901
G1 X89.301 Y106.942 E2.41879
G1 X88.895 Y106.503 E2.43238
G1 X89.254 Y106.010 E2.44625
G1 X89.445 Y105.610 E2.45633
G1 X89.511 Y105.395 E2.46143
G1 X89.578 Y104.952 E2.47162
G1 X89.578 Y104.727 E2.47673
G1 X89.541 Y104.354 E2.48525
G1 X89.377 Y103.805 F7800.000
G1 X89.788 Y103.321 F7800.000
G1 F1800
G1 X90.097 Y102.731 E2.50041
G1 X90.479 Y103.235 E2.51479
G1 X89.948 Y103.488 E2.52817
G1 X89.840 Y103.375 E2.53173
G1 E0.53173 F2400.00000
G92 E0
G1 X88.017 Y106.343 F7800.000
G1 E2.00000 F2400.00000
G1 F1800
G1 X89.270 Y107.697 E2.04192
G1 X88.993 Y107.812 E2.04874
G1 X88.534 Y107.963 E2.05972
G1 X87.805 Y108.133 E2.07674
G1 X87.607 Y108.158 E2.08127
G1 X87.529 Y107.774 E2.09019
G1 X87.529 Y107.439 E2.09779
G1 X87.555 Y107.268 E2.10172
G1 X87.597 Y107.101 E2.10565
G1 X87.728 Y106.791 E2.11329
G1 X87.976 Y106.406 E2.12370
G1 E0.12370 F2400.00000
G92 E0
G1 X90.178 Y106.975 F7800.000
G1 E2.00000 F2400.00000
G1 F1800
G1 X95.628 Y103.101 E2.15200
G1 X95.820 Y103.321 E2.15862
G1 X95.323 Y103.847 E2.17506
G1 X94.854 Y104.301 E2.18990
G1 X94.367 Y104.735 E2.20473
G1 X93.870 Y105.141 E2.21932
G1 X93.493 Y105.408 E2.22981
G1 X91.980 Y106.364 E2.27049
G1 X90.969 Y106.921 E2.29674
G1 X90.329 Y107.229 E2.31290
G1 X90.217 Y107.040 E2.31791
G1 E0.31791 F2400.00000
G92 E0
G1 X97.556 Y99.864 F7800.000
G1 E2.00000 F2400.00000
G1 F1800
G1 X97.242 Y99.330 E2.01408
G1 X97.112 Y98.883 E2.02467
G1 X97.405 Y98.921 E2.03139
G1 X98.035 Y98.838 E2.04585
G1 X97.589 Y99.797 E2.06989
G1 X96.611 Y99.080 F7800.000
G1 F1800
G1 X96.151 Y99.135 E2.08043
G1 X96.572 Y98.587 E2.09614
G1 X96.722 Y98.226 E2.10502
G1 X96.951 Y98.321 E2.11065
G1 X97.405 Y98.381 E2.12106
G1 X97.859 Y98.321 E2.13147
G1 X98.282 Y98.146 E2.14188
G1 X98.645 Y97.867 E2.15229
G1 X98.870 Y97.574 E2.16069
G1 X99.115 Y97.719 E2.16718
G1 X98.292 Y99.582 E2.21348
G1 X98.003 Y100.168 E2.22832
G1 X97.574 Y100.951 E2.24863
G1 X97.069 Y100.093 E2.27128
G1 X96.925 Y100.161 E2.27489
G1 X96.632 Y99.152 E2.29878
G1 E0.29878 F2400.00000
G92 E0
G1 X99.446 Y96.970 F7800.000
G1 E2.00000 F2400.00000
G1 F1800
G1 X99.368 Y97.147 E2.00439
G1 X99.100 Y97.071 E2.01072
G1 X99.158 Y96.627 E2.02091
G1 X99.141 Y96.492 E2.02399
G1 X100.004 Y96.283 E2.04418
G1 X100.859 Y96.491 E2.06419
G1 X100.842 Y96.625 E2.06728
G1 X100.900 Y97.070 E2.07747
G1 X100.632 Y97.145 E2.08380
G1 X100.554 Y96.968 E2.08819
G1 X100.116 Y98.313 E2.12034
G1 X99.883 Y98.313 E2.12565
G1 X99.469 Y97.041 E2.15605
G1 E0.15605 F2400.00000
G92 E0
G1 X101.965 Y98.836 F7800.000
G1 E2.00000 F2400.00000
G1 F1800
G1 X102.595 Y98.919 E2.01446
G1 X102.888 Y98.881 E2.02118
G1 X102.758 Y99.328 E2.03176
G1 X102.444 Y99.862 E2.04585
G1 X101.995 Y98.905 E2.06989
G1 X103.389 Y99.078 F7800.000
G1 F1800
G1 X103.075 Y100.159 E2.09549
G1 X102.931 Y100.091 E2.09910
G1 X102.426 Y100.949 E2.12174
G1 X101.997 Y100.166 E2.14206
G1 X101.708 Y99.581 E2.15690
G1 X100.885 Y97.717 E2.20320
G1 X101.130 Y97.572 E2.20968
G1 X101.345 Y97.852 E2.21770
G1 X101.714 Y98.142 E2.22837
G1 X102.141 Y98.319 E2.23890
G1 X102.595 Y98.379 E2.24931
G1 X103.055 Y98.319 E2.25983
G1 X103.278 Y98.223 E2.26536
G1 X103.428 Y98.585 E2.27427
G1 X103.849 Y99.133 E2.28999
G1 X103.463 Y99.087 E2.29881
G1 X103.144 Y100.786 F7800.000
G1 F1800
G1 X110.467 Y104.278 E2.48323
G1 X110.422 Y104.725 E2.49347
G1 X110.422 Y104.950 E2.49857
G1 X110.489 Y105.393 E2.50876
G1 X110.555 Y105.608 E2.51387
G1 X110.746 Y106.008 E2.52395
G1 X111.105 Y106.501 E2.53781
G1 X110.699 Y106.940 E2.55140
G1 X102.819 Y101.339 E2.77118
G1 X103.106 Y100.850 E2.78407
G1 X103.144 Y100.286 F7800.000
G1 E0.78407 F2400.00000
G92 E0
G1 X106.779 Y97.714 F7800.000
G1 E2.00000 F2400.00000
G1 F1800
G1 X106.721 Y97.226 E2.01115
G1 X106.652 Y97.061 E2.01523
G1 X107.529 Y96.745 E2.03641
G1 X107.667 Y96.964 E2.04229
G1 X107.358 Y97.266 E2.05212
G1 X107.055 Y97.519 E2.06108
G1 X106.840 Y97.670 E2.06705
G1 E0.06705 F2400.00000
G92 E0
G1 X103.517 Y95.125 F7800.000
G1 E2.00000 F2400.00000
G1 F1800
G1 X103.049 Y94.931 E2.01150
G1 X102.595 Y94.871 E2.02191
G1 X101.816 Y94.974 E2.03977
G1 X103.704 Y91.829 E2.12316
G1 X103.989 Y91.799 E2.12965
G1 X104.826 Y91.783 E2.14870
G1 X104.889 Y92.006 E2.15397
G1 X104.360 Y92.365 E2.16850
G1 X103.898 Y92.899 E2.18457
G1 X103.589 Y93.535 E2.20064
G1 X103.461 Y94.200 E2.21603
G1 X103.512 Y95.050 E2.23538
G1 E0.23538 F2400.00000
G92 E0
G1 X98.184 Y94.976 F7800.000
G1 E2.00000 F2400.00000
G1 F1800
G1 X97.405 Y94.873 E2.01786
G1 X96.968 Y94.931 E2.02788
G1 X96.479 Y95.126 E2.03983
G1 X96.544 Y94.231 E2.06022
G1 X96.411 Y93.537 E2.07629
G1 X96.102 Y92.901 E2.09235
G1 X95.640 Y92.367 E2.10842
G1 X95.112 Y92.009 E2.12293
G1 X95.183 Y91.781 E2.12836
G1 X95.782 Y91.788 E2.14197
G1 X96.299 Y91.836 E2.15377
G1 X98.145 Y94.911 E2.23531
G1 E0.23531 F2400.00000
G92 E0
G1 X93.348 Y97.061 F7800.000
G1 E2.00000 F2400.00000
G1 F1800
G1 X93.281 Y97.223 E2.00400
G1 X93.216 Y97.714 E2.01525
G1 X92.946 Y97.522 E2.02278
G1 X92.642 Y97.268 E2.03178
G1 X92.331 Y96.963 E2.04170
G1 X92.517 Y96.736 E2.04838
G1 X92.627 Y96.811 E2.05142
G1 X93.277 Y97.036 E2.06707
G1 E0.06707 F2400.00000
G92 E0
G1 X109.521 Y103.233 F7800.000
G1 E2.00000 F2400.00000
G1 F1800
G1 X109.903 Y102.729 E2.01439
G1 X110.212 Y103.319 E2.02954
G1 X110.052 Y103.486 E2.03481
G1 X109.588 Y103.265 E2.04648
G1 E0.04648 F2400.00000
G92 E0
G1 X109.822 Y106.973 F7800.000
G1 E2.00000 F2400.00000
G1 F1800
G1 X109.671 Y107.227 E2.00671
G1 X109.031 Y106.919 E2.02287
G1 X108.020 Y106.362 E2.04912
G1 X107.365 Y105.962 E2.06656
G1 X106.507 Y105.406 E2.08980
G1 X106.130 Y105.139 E2.10029
G1 X105.633 Y104.733 E2.11488
G1 X105.146 Y104.299 E2.12972
G1 X104.677 Y103.845 E2.14456
G1 X104.180 Y103.320 E2.16099
G1 X104.372 Y103.100 E2.16762
G1 X109.760 Y106.930 E2.31791
G1 X110.730 Y107.695 F7800.000
G1 F1800
G1 X111.983 Y106.341 E2.35983
G1 X112.272 Y106.790 E2.37195
G1 X112.403 Y107.099 E2.37959
G1 X112.445 Y107.267 E2.38352
G1 X112.479 Y107.590 E2.39090
G1 X112.442 Y107.964 E2.39945
G1 X112.394 Y108.157 E2.40397
G1 X112.195 Y108.131 E2.40852
G1 X111.466 Y107.961 E2.42554
G1 X110.800 Y107.724 E2.44163
G1 E0.44163 F2400.00000
G92 E0
G1 X109.127 Y102.866 F7800.000
G1 E2.00000 F2400.00000
G1 F1800
G1 X109.465 Y102.421 E2.01269
G1 X109.091 Y101.951 E2.02634
G1 X109.002 Y101.804 E2.03024
G1 X108.850 Y101.463 E2.03874
G1 X108.759 Y101.107 E2.04709
G1 X108.730 Y100.744 E2.05536
G1 X108.750 Y100.266 E2.06624
G1 X105.784 Y99.907 E2.13417
G1 X105.802 Y99.605 E2.14105
G1 X109.176 Y99.606 E2.21775
G1 X109.604 Y100.730 E2.24509
G1 X110.169 Y102.026 E2.27724
G1 X110.476 Y102.668 E2.29342
G1 X111.131 Y103.920 E2.32553
G1 X111.483 Y104.537 E2.34167
G1 X111.848 Y105.145 E2.35780
G1 X112.740 Y106.527 E2.39519
G1 X112.837 Y106.728 E2.40026
G1 X112.971 Y107.160 E2.41054
G1 X113.016 Y107.603 E2.42066
G1 X112.971 Y108.056 E2.43101
G1 X112.915 Y108.280 E2.43627
G1 X112.719 Y108.738 E2.44759
G1 X112.100 Y108.659 E2.46177
G1 X111.322 Y108.477 E2.47995
G1 X110.820 Y108.313 E2.49194
G1 X109.848 Y107.907 E2.51589
G1 X108.785 Y107.395 E2.54271
G1 X107.751 Y106.825 E2.56955
G1 X107.080 Y106.415 E2.58743
G1 X106.206 Y105.849 E2.61109
G1 X105.806 Y105.566 E2.62225
G1 X105.286 Y105.141 E2.63751
G1 X104.781 Y104.692 E2.65287
G1 X104.296 Y104.221 E2.66823
G1 X103.832 Y103.731 E2.68358
G1 X103.411 Y103.246 E2.69817
G1 X102.968 Y102.692 E2.71431
G1 X102.570 Y102.146 E2.72966
G1 X102.196 Y101.584 E2.74501
G1 X101.846 Y101.006 E2.76037
G1 X101.522 Y100.413 E2.77573
G1 X101.223 Y99.807 E2.79108
G1 X100.630 Y98.466 E2.82442
G1 X100.116 Y100.045 E2.86217
G1 X99.883 Y100.045 E2.86747
G1 X99.370 Y98.468 E2.90518
G1 X98.777 Y99.809 E2.93852
G1 X98.478 Y100.415 E2.95387
G1 X98.154 Y101.007 E2.96923
G1 X97.804 Y101.585 E2.98459
G1 X97.430 Y102.148 E2.99994
G1 X97.032 Y102.694 E3.01530
G1 X96.611 Y103.222 E3.03066
G1 X96.168 Y103.732 E3.04601
G1 X95.704 Y104.223 E3.06137
G1 X95.219 Y104.693 E3.07673
G1 X94.714 Y105.143 E3.09208
G1 X94.194 Y105.567 E3.10735
G1 X93.794 Y105.851 E3.11851
G1 X92.920 Y106.417 E3.14216
G1 X92.249 Y106.827 E3.16004
G1 X91.215 Y107.397 E3.18689
G1 X90.152 Y107.909 E3.21371
G1 X89.180 Y108.315 E3.23766
G1 X88.678 Y108.479 E3.24965
G1 X87.900 Y108.661 E3.26783
G1 X87.281 Y108.740 E3.28201
G1 X87.087 Y108.288 E3.29317
G1 X86.996 Y107.842 E3.30352
G1 X86.984 Y107.611 E3.30879
G1 X87.029 Y107.162 E3.31905
G1 X87.163 Y106.729 E3.32934
G1 X87.260 Y106.529 E3.33441
G1 X88.152 Y105.146 E3.37180
G1 X88.517 Y104.539 E3.38793
G1 X88.869 Y103.922 E3.40407
G1 X89.525 Y102.668 E3.43622
G1 X90.121 Y101.384 E3.46841
G1 X90.642 Y100.107 E3.49977
G1 X90.826 Y99.608 E3.51186
G1 X94.198 Y99.607 E3.58851
G1 X94.216 Y99.909 E3.59539
G1 X91.260 Y100.267 E3.66308
G1 X91.263 Y100.927 E3.67809
G1 X91.202 Y101.295 E3.68658
G1 X91.153 Y101.459 E3.69047
G1 X90.998 Y101.806 E3.69911
G1 X90.909 Y101.953 E3.70301
G1 X90.535 Y102.423 E3.71666
G1 X90.873 Y102.868 E3.72935
G1 X96.390 Y100.237 E3.86828
G1 X96.224 Y99.666 E3.88180
G1 X94.786 Y99.840 E3.91473
G1 X94.885 Y98.962 E3.93482
G1 X95.341 Y98.902 E3.94529
G1 X95.644 Y98.776 E3.95275
G1 X95.905 Y98.577 E3.96020
G1 X96.104 Y98.317 E3.96766
G1 X96.230 Y98.014 E3.97512
G1 X96.273 Y97.688 E3.98257
G1 X96.246 Y97.485 E3.98724
G1 X96.474 Y97.390 E3.99285
G1 X96.538 Y97.474 E3.99525
G1 X96.796 Y97.677 E4.00272
G1 X97.090 Y97.799 E4.00996
G1 X97.405 Y97.841 E4.01716
G1 X97.719 Y97.799 E4.02437
G1 X98.011 Y97.678 E4.03157
G1 X98.263 Y97.485 E4.03877
G1 X98.456 Y97.234 E4.04597
G1 X98.577 Y96.941 E4.05317
G1 X98.618 Y96.627 E4.06038
G1 X98.577 Y96.313 E4.06758
G1 X98.456 Y96.020 E4.07478
G1 X98.271 Y95.780 E4.08167
G1 X98.013 Y95.577 E4.08913
G1 X97.719 Y95.455 E4.09638
G1 X97.405 Y95.413 E4.10358
G1 X97.104 Y95.453 E4.11047
G1 X96.799 Y95.575 E4.11793
G1 X96.546 Y95.769 E4.12518
G1 X96.354 Y96.020 E4.13238
G1 X96.232 Y96.313 E4.13958
G1 X96.193 Y96.613 E4.14647
G1 X96.217 Y96.819 E4.15119
G1 X95.990 Y96.912 E4.15676
G1 X95.905 Y96.800 E4.15996
G1 X95.644 Y96.600 E4.16741
G1 X95.341 Y96.475 E4.17487
G1 X94.799 Y96.403 E4.18732
G1 X95.461 Y95.830 E4.20723
G1 X95.779 Y95.362 E4.22009
G1 X95.964 Y94.827 E4.23296
G1 X96.005 Y94.263 E4.24582
G1 X95.898 Y93.707 E4.25868
G1 X95.651 Y93.198 E4.27154
G1 X95.281 Y92.770 E4.28440
G1 X94.813 Y92.453 E4.29726
G1 X94.278 Y92.268 E4.31013
G1 X93.714 Y92.227 E4.32299
G1 X93.184 Y92.328 E4.33525
G1 X92.651 Y92.579 E4.34865
G1 X92.221 Y92.950 E4.36156
G1 X91.904 Y93.419 E4.37442
G1 X91.718 Y93.953 E4.38728
G1 X91.679 Y94.491 E4.39955
G1 X91.783 Y95.072 E4.41294
G1 X92.031 Y95.582 E4.42585
G1 X92.401 Y96.010 E4.43871
G1 X92.870 Y96.328 E4.45157
G1 X93.404 Y96.513 E4.46443
G1 X93.968 Y96.554 E4.47730
G1 X94.377 Y96.476 E4.48675
G1 X93.928 Y97.060 E4.50351
G1 X93.803 Y97.363 E4.51096
G1 X93.760 Y97.688 E4.51842
G1 X93.803 Y98.014 E4.52587
G1 X93.928 Y98.317 E4.53333
G1 X94.064 Y98.493 E4.53839
G1 X93.915 Y98.688 E4.54396
G1 X93.352 Y98.425 E4.55810
G1 X92.976 Y98.200 E4.56806
G1 X92.619 Y97.947 E4.57802
G1 X92.283 Y97.666 E4.58797
G1 X91.970 Y97.359 E4.59793
G1 X91.682 Y97.029 E4.60789
G1 X91.420 Y96.678 E4.61785
G1 X91.199 Y96.326 E4.62729
G1 X90.986 Y95.923 E4.63766
G1 X90.833 Y95.525 E4.64735
G1 X90.782 Y95.334 E4.65183
G1 X90.721 Y94.928 E4.66117
G1 X90.720 Y94.501 E4.67089
G1 X90.781 Y94.090 E4.68034
G1 X90.902 Y93.693 E4.68976
G1 X91.134 Y93.216 E4.70182
G1 X91.301 Y92.953 E4.70890
G1 X91.482 Y92.714 E4.71572
G1 X91.704 Y92.465 E4.72329
G1 X91.933 Y92.248 E4.73047
G1 X92.180 Y92.050 E4.73766
G1 X92.442 Y91.874 E4.74485
G1 X92.704 Y91.727 E4.75167
G1 X93.007 Y91.588 E4.75924
G1 X93.304 Y91.480 E4.76642
G1 X93.609 Y91.398 E4.77361
G1 X94.389 Y91.286 E4.79153
G1 X95.101 Y91.244 E4.80773
G1 X95.810 Y91.252 E4.82386
G1 X96.618 Y91.328 E4.84232
G1 X99.357 Y95.889 E4.96324
G1 X100.004 Y95.732 E4.97839
G1 X100.643 Y95.887 E4.99335
G1 X103.383 Y91.324 E5.11433
G1 X103.951 Y91.264 E5.12733
G1 X104.672 Y91.240 E5.14373
G1 X105.613 Y91.284 E5.16512
G1 X106.077 Y91.339 E5.17576
G1 X106.391 Y91.396 E5.18301
G1 X106.696 Y91.479 E5.19020
G1 X106.994 Y91.586 E5.19739
G1 X107.282 Y91.717 E5.20458
G1 X107.558 Y91.872 E5.21177
G1 X107.820 Y92.049 E5.21896
G1 X108.067 Y92.246 E5.22615
G1 X108.297 Y92.464 E5.23334
G1 X108.508 Y92.699 E5.24053
G1 X108.699 Y92.951 E5.24772
G1 X108.869 Y93.218 E5.25491
G1 X109.013 Y93.494 E5.26199
G1 X109.165 Y93.886 E5.27156
G1 X109.257 Y94.292 E5.28102
G1 X109.287 Y94.707 E5.29048
G1 X109.257 Y95.122 E5.29994
G1 X109.165 Y95.528 E5.30940
G1 X109.013 Y95.921 E5.31898
G1 X108.813 Y96.305 E5.32882
G1 X108.580 Y96.676 E5.33878
G1 X108.318 Y97.028 E5.34874
G1 X108.030 Y97.357 E5.35870
G1 X107.717 Y97.664 E5.36865
G1 X107.381 Y97.944 E5.37860
G1 X107.005 Y98.210 E5.38908
G1 X106.648 Y98.423 E5.39853
G1 X106.085 Y98.687 E5.41266
G1 X105.936 Y98.491 E5.41824
G1 X106.072 Y98.315 E5.42330
G1 X106.197 Y98.012 E5.43075
G1 X106.238 Y97.701 E5.43788
G1 X106.198 Y97.363 E5.44561
G1 X106.072 Y97.058 E5.45311
G1 X105.921 Y96.862 E5.45873
G1 X105.921 Y96.560 E5.46560
G1 X106.598 Y96.511 E5.48102
G1 X107.152 Y96.311 E5.49442
G1 X107.599 Y96.008 E5.50669
G1 X107.969 Y95.581 E5.51955
G1 X108.216 Y95.071 E5.53241
G1 X108.322 Y94.516 E5.54527
G1 X108.282 Y93.951 E5.55813
G1 X108.096 Y93.417 E5.57100
G1 X107.779 Y92.949 E5.58386
G1 X107.351 Y92.578 E5.59672
G1 X106.842 Y92.332 E5.60958
G1 X106.286 Y92.225 E5.62244
G1 X105.748 Y92.264 E5.63471
G1 X105.189 Y92.450 E5.64811
G1 X104.719 Y92.769 E5.66101
G1 X104.349 Y93.196 E5.67387
G1 X104.102 Y93.706 E5.68674
G1 X104.000 Y94.235 E5.69900
G1 X104.035 Y94.824 E5.71240
G1 X104.221 Y95.360 E5.72530
G1 X104.539 Y95.828 E5.73817
G1 X105.201 Y96.402 E5.75808
G1 X104.673 Y96.471 E5.77020
G1 X104.357 Y96.597 E5.77793
G1 X104.095 Y96.798 E5.78543
G1 X104.012 Y96.907 E5.78853
G1 X103.784 Y96.812 E5.79414
G1 X103.807 Y96.639 E5.79811
G1 X103.768 Y96.313 E5.80558
G1 X103.646 Y96.018 E5.81282
G1 X103.462 Y95.778 E5.81971
G1 X103.204 Y95.575 E5.82717
G1 X102.909 Y95.453 E5.83442
G1 X102.595 Y95.412 E5.84162
G1 X102.295 Y95.451 E5.84851
G1 X101.990 Y95.573 E5.85597
G1 X101.737 Y95.767 E5.86322
G1 X101.544 Y96.018 E5.87042
G1 X101.423 Y96.311 E5.87762
G1 X101.382 Y96.625 E5.88482
G1 X101.423 Y96.939 E5.89203
G1 X101.544 Y97.232 E5.89923
G1 X101.729 Y97.472 E5.90612
G1 X101.987 Y97.675 E5.91358
G1 X102.281 Y97.797 E5.92083
G1 X102.595 Y97.839 E5.92803
G1 X102.911 Y97.797 E5.93527
G1 X103.213 Y97.668 E5.94274
G1 X103.454 Y97.483 E5.94963
G1 X103.526 Y97.388 E5.95234
G1 X103.754 Y97.483 E5.95795
G1 X103.729 Y97.672 E5.96230
G1 X103.769 Y98.010 E5.97003
G1 X103.896 Y98.315 E5.97752
G1 X104.095 Y98.575 E5.98498
G1 X104.356 Y98.775 E5.99243
G1 X104.659 Y98.900 E5.99989
G1 X105.115 Y98.960 E6.01037
G1 X105.214 Y99.838 E6.03045
G1 X103.776 Y99.664 E6.06339
G1 X103.610 Y100.235 E6.07690
G1 X109.059 Y102.833 E6.21413
G1 X109.536 Y103.153 F7800.000
G1 E4.21413 F2400.00000
G92 E0
G1 X100.000 Y92.873 F7800.000
G1 E2.00000 F2400.00000
G1 F1800
G1 X100.000 Y93.304 E2.00974
G1 F1800
G1 X100.000 Y94.166 E2.03276
G1 F1800
G1 X100.000 Y95.028 E2.05934
G1 E0.05934 F2400.00000
G92 E0
G1 X100.363 Y100.519 F7800.000
G1 E2.00000 F2400.00000
G1 F1800
G1 X100.467 Y101.042 E2.00752
G1 X100.607 Y101.550 E2.01494
G1 X100.809 Y102.137 E2.02368
G1 X101.054 Y102.707 E2.03242
G1 X101.307 Y103.220 E2.04047
G1 X101.658 Y103.814 E2.05019
G1 E0.05019 F2400.00000
G92 E0
G1 X98.342 Y103.816 F7800.000
G1 E2.00000 F2400.00000
G1 F1800
G1 X98.678 Y103.250 E2.00872
G1 X99.111 Y102.342 E2.02205
G1 X99.297 Y101.847 E2.02906
G1 X99.479 Y101.252 E2.03732
G1 X99.638 Y100.519 E2.04726
G1 E0.04726 F2400.00000
G92 E0
G1 X97.534 Y101.455 F7800.000
G1 E2.00000 F2400.00000
G1 F1800
G1 X97.356 Y101.638 E2.00055
G1 F1800
G1 X97.179 Y101.820 E2.00205
G1 F1800
G1 X96.996 Y102.005 E2.00455
G1 F1800
G1 X96.807 Y102.192 E2.00806
G1 F1800
G1 X96.618 Y102.379 E2.01254
G1 F1800
G1 X96.395 Y102.590 E2.01885
G1 F1800
G1 X96.171 Y102.802 E2.02628
G1 X96.182 Y103.308 E2.03850
G1 E0.03850 F2400.00000
G92 E0
G1 X94.129 Y104.538 F7800.000
G1 E2.00000 F2400.00000
G1 F1800
G1 X93.675 Y104.885 E2.00105
G1 X92.607 Y105.621 E2.00344
G1 E0.00344 F2400.00000
G92 E0
G1 X90.842 Y103.269 F7800.000
G1 E2.00000 F2400.00000
G1 F1800
G1 X96.733 Y100.460 E2.02703
G1 X95.941 Y98.969 F7800.000
G1 F1800
G1 X95.462 Y99.321 E2.03379
G1 X95.108 Y99.367 E2.03784
G1 X95.289 Y99.509 F7800.000
G1 F1800
G1 X95.926 Y98.937 E2.03931
G1 E0.03931 F2400.00000
G92 E0
G1 X98.160 Y98.520 F7800.000
G1 E2.00000 F2400.00000
G1 F1800
G1 X98.427 Y98.449 E2.00066
G1 X98.527 Y98.338 E2.00102
G1 E0.00102 F2400.00000
G92 E0
G1 X99.039 Y96.242 F7800.000
G1 E2.00000 F2400.00000
G1 F1800
G1 X98.830 Y95.827 E2.00555
G1 X98.593 Y95.475 E2.01062
G1 X98.084 Y95.233 E2.01736
G1 X98.020 Y95.256 F7800.000
G1 F1800
G1 X98.823 Y95.521 E2.01896
G1 X97.217 Y94.628 F7800.000
G1 F1800
G1 X97.028 Y94.043 E2.03207
G1 F1800
G1 X96.934 Y93.797 E2.03678
G1 F1800
G1 X96.840 Y93.551 E2.04046
G1 F1800
G1 X96.779 Y93.398 E2.04211
G1 F1800
G1 X96.409 Y92.714 E2.04820
G1 F1800
G1 X96.246 Y92.486 E2.04957
G1 F1800
G1 X95.946 Y92.072 E2.05353
G1 X94.881 Y91.850 F7800.000
G1 F1800
G1 X94.433 Y91.788 E2.06268
G1 F1800
G1 X94.169 Y91.787 E2.06725
G1 F1800
G1 X93.850 Y91.798 E2.07192
G1 F1800
G1 X93.701 Y91.806 E2.07365
G1 X93.426 Y91.868 E2.07694
G1 F1800
G1 X93.080 Y91.967 E2.08018
G1 F1800
G1 X92.468 Y92.278 E2.08455
G1 F1800
G1 X91.958 Y92.711 E2.08738
G1 X91.771 Y92.951 E2.08867
G1 F1800
G1 X91.570 Y93.235 E2.09103
G1 X91.483 Y93.411 E2.09236
G1 F1800
G1 X91.292 Y93.887 E2.09730
G1 F1800
G1 X91.236 Y94.192 E2.10117
G1 F1800
G1 X91.200 Y94.536 E2.10632
G1 X91.216 Y94.716 E2.10903
G1 F1800
G1 X91.283 Y95.199 E2.11774
G1 X91.336 Y95.362 E2.12080
G1 F1800
G1 X91.560 Y95.850 E2.13192
G1 X91.687 Y96.045 E2.13673
G1 F1800
G1 X91.987 Y96.442 E2.14842
G1 X92.446 Y96.399 E2.15923
G1 X93.490 Y97.928 F7800.000
G1 F1800
G1 X93.494 Y98.127 E2.15972
G1 X93.599 Y98.249 E2.16011
G1 E0.16011 F2400.00000
G92 E0
G1 X91.703 Y99.909 F7800.000
G1 E2.00000 F2400.00000
G1 F1800
G1 X90.985 Y99.952 E2.00134
G1 X90.962 Y100.100 F7800.000
G1 F1800
G1 X90.919 Y100.335 E2.00174
G1 F1800
G1 X90.876 Y100.557 E2.00296
G1 F1800
G1 X90.832 Y100.779 E2.00504
G1 F1800
G1 X90.769 Y101.038 E2.00848
G1 F1800
G1 X90.691 Y101.287 E2.01262
G1 X90.566 Y101.580 E2.01764
G1 X90.382 Y101.891 E2.02335
G1 F1800
G1 X90.119 Y102.318 E2.03002
G1 X89.315 Y104.087 F7800.000
G1 F1800
G1 X88.870 Y105.233 E2.06614
G1 F1800
G1 X88.664 Y105.637 E2.08078
G1 X88.266 Y106.218 E2.10344
G1 E0.10344 F2400.00000
G92 E0
G1 X95.793 Y96.158 F7800.000
G1 E2.00000 F2400.00000
G1 F1800
G1 X95.898 Y95.971 E2.00286
G1 F1800
G1 X96.090 Y95.663 E2.00676
G1 X96.468 Y95.452 F7800.000
G1 F1800
G1 X95.711 Y95.939 E2.00842
G1 E0.00842 F2400.00000
G92 E0
G1 X100.961 Y96.240 F7800.000
G1 E2.00000 F2400.00000
G1 F1800
G1 X101.170 Y95.825 E2.00552
G1 X101.407 Y95.473 E2.01056
G1 X101.888 Y95.235 E2.01693
G1 X101.982 Y95.254 F7800.000
G1 F1800
G1 X101.180 Y95.513 E2.01821
G1 X102.783 Y94.626 F7800.000
G1 F1800
G1 X102.937 Y94.134 E2.02889
G1 F1800
G1 X103.027 Y93.898 E2.03331
G1 F1800
G1 X103.117 Y93.662 E2.03678
G1 F1800
G1 X103.207 Y93.426 E2.03930
G1 F1800
G1 X103.591 Y92.712 E2.04446
G1 X103.755 Y92.483 E2.04624
G1 F1800
G1 X104.058 Y92.064 E2.05101
G1 X105.124 Y91.851 F7800.000
G1 F1800
G1 X105.347 Y91.820 E2.05559
G1 F1800
G1 X105.623 Y91.784 E2.06047
G1 F1800
G1 X106.010 Y91.789 E2.06606
G1 F1800
G1 X106.291 Y91.804 E2.06934
G1 F1800
G1 X106.849 Y91.942 E2.07452
G1 F1800
G1 X107.113 Y92.049 E2.07628
G1 X107.553 Y92.291 E2.07936
G1 X108.043 Y92.710 E2.08332
G1 X108.220 Y92.936 E2.08508
G1 F1800
G1 X108.430 Y93.234 E2.08820
G1 X108.521 Y93.419 E2.08997
G1 F1800
G1 X108.706 Y93.885 E2.09542
G1 F1800
G1 X108.761 Y94.190 E2.09965
G1 F1800
G1 X108.798 Y94.517 E2.10511
G1 X108.790 Y94.707 E2.10828
G1 F1800
G1 X108.746 Y95.046 E2.11494
G1 X108.657 Y95.374 E2.12155
G1 F1800
G1 X108.441 Y95.848 E2.13310
G1 X108.326 Y96.025 E2.13777
G1 F1800
G1 X108.021 Y96.421 E2.15025
G1 F1800
G1 X107.791 Y96.389 E2.15554
G1 F1800
G1 X107.561 Y96.357 E2.15998
G1 X106.506 Y97.956 F7800.000
G1 F1800
G1 X106.500 Y98.132 E2.16036
G1 X106.401 Y98.247 E2.16070
G1 X104.892 Y99.365 F7800.000
G1 F1800
G1 X104.538 Y99.319 E2.16471
G1 X104.059 Y98.968 E2.17139
G1 X104.074 Y98.936 F7800.000
G1 F1800
G1 X104.711 Y99.508 E2.17307
G1 X103.267 Y100.458 F7800.000
G1 F1800
G1 X109.158 Y103.267 E2.20010
G1 X109.960 Y102.212 F7800.000
G1 F1800
G1 X109.801 Y102.195 E2.20152
G1 X109.722 Y102.063 E2.20288
G1 F1800
G1 X109.566 Y101.804 E2.20657
G1 F1800
G1 X109.437 Y101.576 E2.21064
G1 X109.316 Y101.301 E2.21531
G1 X109.191 Y100.902 E2.22180
G1 F1800
G1 X109.023 Y100.159 E2.23133
G1 X109.021 Y99.951 F7800.000
G1 F1800
G1 X108.297 Y99.907 E2.23382
G1 E0.23382 F2400.00000
G92 E0
G1 X110.741 Y104.228 F7800.000
G1 E2.00000 F2400.00000
G1 F1800
G1 X111.130 Y105.231 E2.03287
G1 F1800
G1 X111.336 Y105.635 E2.04815
G1 X111.734 Y106.216 E2.07180
G1 E0.07180 F2400.00000
G92 E0
G1 X107.393 Y105.619 F7800.000
G1 E2.00000 F2400.00000
G1 F1800
G1 X106.325 Y104.883 E2.00235
G1 X105.871 Y104.536 E2.00338
G1 E0.00338 F2400.00000
G92 E0
G1 X104.075 Y103.032 F7800.000
G1 E2.00000 F2400.00000
G1 F1800
G1 X103.728 Y102.704 E2.01238
G1 F1800
G1 X103.381 Y102.376 E2.02302
G1 F1800
G1 X103.192 Y102.190 E2.02797
G1 F1800
G1 X103.004 Y102.003 E2.03196
G1 F1800
G1 X102.821 Y101.819 E2.03493
G1 F1800
G1 X102.644 Y101.636 E2.03690
G1 F1800
G1 X102.466 Y101.453 E2.03792
G1 E0.03792 F2400.00000
G92 E0
G1 X101.840 Y98.518 F7800.000
G1 E2.00000 F2400.00000
G1 F1800
G1 X101.573 Y98.447 E2.00046
G1 X101.480 Y98.333 E2.00070
G1 E0.00070 F2400.00000
G92 E0
G1 X104.207 Y96.156 F7800.000
G1 E2.00000 F2400.00000
G1 F1800
G1 X104.024 Y95.824 E2.00532
G1 F1800
G1 X103.909 Y95.660 E2.00742
G1 X103.537 Y95.457 F7800.000
G1 F1800
G1 X104.305 Y95.961 E2.00942
M104 S200 ; set temperature
G1 Z0.600 F7800.000
G1 E0.00942 F2400.00000
G92 E0
G1 X97.148 Y101.334 F7800.000
G1 E2.00000 F2400.00000
G1 F900
G1 X89.304 Y106.909 E2.19834
G1 X88.927 Y106.501 E2.20979
G1 X89.275 Y106.023 E2.22197
G1 X89.469 Y105.618 E2.23122
G1 X89.535 Y105.401 E2.23589
G1 X89.603 Y104.953 E2.24524
G1 X89.603 Y104.726 E2.24992
G1 X89.560 Y104.294 E2.25886
G1 X96.846 Y100.820 E2.42523
G1 X97.110 Y101.269 E2.43596
G1 X97.541 Y101.643 F7800.000
G1 X95.401 Y103.263 F7800.000
G1 F900
G1 X95.628 Y103.524 E2.44529
G1 X94.854 Y104.301 E2.47486
G1 X94.367 Y104.735 E2.49247
G1 X93.870 Y105.141 E2.50978
G1 X93.493 Y105.408 E2.52223
G1 X92.635 Y105.964 E2.54981
G1 X91.980 Y106.364 E2.57051
G1 X90.969 Y106.921 E2.60165
G1 X90.624 Y107.087 E2.61200
G1 X90.445 Y106.785 E2.62145
G1 X95.340 Y103.307 E2.78343
G1 E0.78343 F2400.00000
G92 E0
G1 X90.479 Y103.235 F7800.000
G1 E2.00000 F2400.00000
G1 F900
G1 X90.010 Y103.459 E2.01403
G1 X89.819 Y103.261 E2.02145
G1 X90.097 Y102.731 E2.03758
G1 X90.434 Y103.175 E2.05263
G1 X90.881 Y102.836 F7800.000
G1 F900
G1 X90.567 Y102.423 E2.06332
G1 X90.929 Y101.967 E2.07533
G1 X91.020 Y101.818 E2.07893
G1 X91.174 Y101.473 E2.08671
G1 X91.267 Y101.107 E2.09449
G1 X91.288 Y100.934 E2.09808
G1 X91.285 Y100.289 E2.11139
G1 X96.206 Y99.693 E2.21354
G1 X96.360 Y100.224 E2.22492
G1 X90.948 Y102.804 E2.34848
G1 X90.471 Y103.123 F7800.000
G1 E0.34848 F2400.00000
G92 E0
G1 X93.216 Y97.714 F7800.000
G1 E2.00000 F2400.00000
G1 F900
G1 X92.946 Y97.522 E2.00894
G1 X92.642 Y97.268 E2.01962
G1 X92.426 Y97.056 E2.02780
G1 X92.586 Y96.796 E2.03604
G1 X93.304 Y97.046 E2.05654
G1 X93.226 Y97.640 E2.07270
G1 E0.07270 F2400.00000
G92 E0
G1 X97.262 Y99.041 F7800.000
G1 E2.00000 F2400.00000
G1 F900
G1 X97.872 Y98.960 E2.01660
G1 X97.548 Y99.654 E2.03724
G1 X97.334 Y99.290 E2.04862
G1 X97.283 Y99.113 E2.05360
G1 X96.611 Y99.080 F7800.000
G1 F900
G1 X96.151 Y99.135 E2.06610
G1 X96.818 Y98.266 E2.09566
G1 X96.951 Y98.321 E2.09953
G1 X97.405 Y98.381 E2.11188
G1 X97.859 Y98.321 E2.12423
G1 X98.282 Y98.146 E2.13658
G1 X98.645 Y97.867 E2.14893
G1 X98.734 Y97.751 E2.15287
G1 X99.025 Y97.924 E2.16200
G1 X98.292 Y99.582 E2.21091
G1 X98.003 Y100.168 E2.22852
G1 X97.574 Y100.951 E2.25263
G1 X97.069 Y100.093 E2.27950
G1 X96.925 Y100.161 E2.28379
G1 X96.632 Y99.152 E2.31214
G1 X99.861 Y98.246 F7800.000
G1 F900
G1 X99.446 Y96.970 E2.34834
G1 X99.124 Y96.890 E2.35730
G1 X99.177 Y96.484 E2.36835
G1 X100.004 Y96.283 E2.39130
G1 X100.823 Y96.482 E2.41402
G1 X100.876 Y96.888 E2.42508
G1 X100.554 Y96.968 E2.43404
G1 X100.138 Y98.246 E2.47029
G1 X99.936 Y98.246 E2.47574
G1 X102.128 Y98.959 F7800.000
G1 F900
G1 X102.738 Y99.039 E2.49234
G1 X102.666 Y99.288 E2.49934
G1 X102.452 Y99.652 E2.51072
G1 X102.158 Y99.027 E2.52934
G1 X103.389 Y99.078 F7800.000
G1 F900
G1 X103.075 Y100.159 E2.55972
G1 X102.931 Y100.091 E2.56401
G1 X102.426 Y100.949 E2.59088
G1 X101.997 Y100.166 E2.61499
G1 X101.708 Y99.581 E2.63259
G1 X100.975 Y97.922 E2.68151
G1 X101.266 Y97.749 E2.69063
G1 X101.355 Y97.865 E2.69458
G1 X101.718 Y98.144 E2.70693
G1 X102.141 Y98.319 E2.71928
G1 X102.595 Y98.379 E2.73163
G1 X103.049 Y98.319 E2.74398
G1 X103.278 Y98.224 E2.75067
G1 X103.428 Y98.585 E2.76120
G1 X103.849 Y99.133 E2.77985
G1 X103.463 Y99.087 E2.79033
G1 X103.794 Y99.692 F7800.000
G1 F900
G1 X108.725 Y100.288 E2.89270
G1 X108.704 Y100.735 E2.90193
G1 X108.734 Y101.111 E2.90970
G1 X108.826 Y101.471 E2.91736
G1 X108.980 Y101.816 E2.92514
G1 X109.071 Y101.965 E2.92874
G1 X109.433 Y102.422 E2.94075
G1 X109.119 Y102.834 E2.95144
G1 X103.640 Y100.222 E3.07654
G1 X103.773 Y99.764 E3.08637
G1 X103.663 Y99.209 F7800.000
G1 X103.154 Y100.818 F7800.000
G1 F900
G1 X110.440 Y104.293 E3.25274
G1 X110.397 Y104.724 E3.26168
G1 X110.397 Y104.951 E3.26636
G1 X110.465 Y105.400 E3.27571
G1 X110.531 Y105.616 E3.28039
G1 X110.725 Y106.021 E3.28963
G1 X111.073 Y106.499 E3.30182
G1 X110.696 Y106.907 E3.31326
G1 X102.852 Y101.332 E3.51160
G1 X103.116 Y100.883 E3.52234
G1 X103.154 Y100.318 F7800.000
G1 E1.52234 F2400.00000
G92 E0
G1 X106.772 Y97.720 F7800.000
G1 E2.00000 F2400.00000
G1 F900
G1 X106.725 Y97.235 E2.01316
G1 X106.652 Y97.059 E2.01830
G1 X107.414 Y96.795 E2.04005
G1 X107.574 Y97.054 E2.04829
G1 X107.358 Y97.266 E2.05647
G1 X107.054 Y97.520 E2.06715
G1 X106.833 Y97.677 E2.07446
G1 X103.521 Y95.126 F7800.000
G1 F900
G1 X103.049 Y94.931 E2.08822
G1 X102.595 Y94.871 E2.10057
G1 X101.816 Y94.974 E2.12177
G1 X103.704 Y91.829 E2.22072
G1 X103.988 Y91.799 E2.22842
G1 X104.740 Y91.774 E2.24871
G1 X104.829 Y92.047 E2.25645
G1 X104.360 Y92.365 E2.27173
G1 X103.868 Y92.933 E2.29201
G1 X103.588 Y93.544 E2.31014
G1 X103.456 Y94.230 E2.32897
G1 X103.515 Y95.051 E2.35120
G1 E0.35120 F2400.00000
G92 E0
G1 X98.184 Y94.976 F7800.000
G1 E2.00000 F2400.00000
G1 F900
G1 X97.405 Y94.873 E2.02119
G1 X97.000 Y94.926 E2.03220
G1 X96.480 Y95.122 E2.04719
G1 X96.544 Y94.231 E2.07127
G1 X96.411 Y93.537 E2.09034
G1 X96.102 Y92.901 E2.10941
G1 X95.640 Y92.367 E2.12847
G1 X95.176 Y92.052 E2.14360
G1 X95.261 Y91.781 E2.15125
G1 X95.782 Y91.788 E2.16531
G1 X96.299 Y91.836 E2.17931
G1 X98.145 Y94.911 E2.27608
G1 E0.27608 F2400.00000
G92 E0
G1 X88.017 Y106.343 F7800.000
G1 E2.00000 F2400.00000
G1 F900
G1 X89.270 Y107.697 E2.04975
G1 X88.993 Y107.812 E2.05784
G1 X88.534 Y107.963 E2.07087
G1 X87.805 Y108.133 E2.09107
G1 X87.609 Y108.158 E2.09638
G1 X87.528 Y107.785 E2.10669
G1 X87.529 Y107.439 E2.11601
G1 X87.555 Y107.268 E2.12067
G1 X87.597 Y107.101 E2.12533
G1 X87.728 Y106.791 E2.13439
G1 X87.976 Y106.406 E2.14676
G1 E0.14676 F2400.00000
G92 E0
G1 X104.372 Y103.523 F7800.000
G1 E2.00000 F2400.00000
G1 F900
G1 X104.599 Y103.261 E2.00933
G1 X109.555 Y106.783 E2.17333
G1 X109.376 Y107.085 E2.18279
G1 X109.031 Y106.919 E2.19313
G1 X108.020 Y106.362 E2.22428
G1 X107.365 Y105.962 E2.24498
G1 X106.507 Y105.406 E2.27256
G1 X106.132 Y105.140 E2.28494
G1 X105.146 Y104.299 E2.31992
G1 X104.424 Y103.577 E2.34746
G1 X110.730 Y107.695 F7800.000
G1 F900
G1 X111.983 Y106.341 E2.39721
G1 X112.272 Y106.790 E2.41159
G1 X112.403 Y107.099 E2.42066
G1 X112.445 Y107.267 E2.42532
G1 X112.479 Y107.591 E2.43411
G1 X112.445 Y107.943 E2.44366
G1 X112.394 Y108.157 E2.44959
G1 X112.195 Y108.131 E2.45499
G1 X111.466 Y107.961 E2.47518
G1 X110.800 Y107.724 E2.49427
G1 E0.49427 F2400.00000
G92 E0
G1 X110.181 Y103.259 F7800.000
G1 E2.00000 F2400.00000
G1 F900
G1 X109.990 Y103.457 E2.00741
G1 X109.521 Y103.233 E2.02145
G1 X109.903 Y102.729 E2.03852
G1 X110.146 Y103.192 E2.05263
G1 E0.05263 F2400.00000
G92 E0
G1 X105.210 Y99.580 F7800.000
G1 E2.00000 F2400.00000
G1 F1800
G1 X109.194 Y99.581 E2.08209
G1 X109.627 Y100.720 E2.10721
G1 X110.192 Y102.016 E2.13635
G1 X110.499 Y102.657 E2.15100
G1 X111.153 Y103.908 E2.18009
G1 X111.504 Y104.524 E2.19471
G1 X111.869 Y105.131 E2.20932
G1 X112.762 Y106.514 E2.24324
G1 X112.860 Y106.718 E2.24790
G1 X112.996 Y107.155 E2.25732
G1 X113.041 Y107.604 E2.26662
G1 X113.000 Y108.036 E2.27558
G1 X112.939 Y108.289 E2.28093
G1 X112.861 Y108.502 E2.28562
G1 X112.734 Y108.765 E2.29163
G1 X112.096 Y108.684 E2.30489
G1 X111.315 Y108.501 E2.32142
G1 X110.812 Y108.336 E2.33233
G1 X109.838 Y107.930 E2.35408
G1 X108.774 Y107.417 E2.37842
G1 X107.738 Y106.847 E2.40278
G1 X106.192 Y105.870 E2.44048
G1 X105.791 Y105.586 E2.45060
G1 X105.193 Y105.092 E2.46660
G1 X104.764 Y104.710 E2.47843
G1 X104.278 Y104.239 E2.49238
G1 X103.813 Y103.747 E2.50632
G1 X102.948 Y102.707 E2.53422
G1 X102.550 Y102.160 E2.54815
G1 X102.175 Y101.597 E2.56210
G1 X101.825 Y101.018 E2.57605
G1 X101.499 Y100.425 E2.58999
G1 X101.200 Y99.818 E2.60394
G1 X100.633 Y98.536 E2.63283
G1 X100.130 Y100.084 E2.66638
G1 X99.870 Y100.086 E2.67174
G1 X99.367 Y98.538 E2.70529
G1 X98.800 Y99.820 E2.73418
G1 X98.501 Y100.427 E2.74813
G1 X98.175 Y101.020 E2.76207
G1 X97.825 Y101.599 E2.77602
G1 X97.450 Y102.162 E2.78996
G1 X97.052 Y102.709 E2.80391
G1 X96.630 Y103.238 E2.81786
G1 X96.187 Y103.749 E2.83180
G1 X95.722 Y104.241 E2.84575
G1 X95.236 Y104.712 E2.85969
G1 X94.731 Y105.162 E2.87364
G1 X94.209 Y105.587 E2.88751
G1 X93.808 Y105.872 E2.89765
G1 X92.934 Y106.438 E2.91912
G1 X92.262 Y106.849 E2.93535
G1 X91.226 Y107.419 E2.95971
G1 X90.162 Y107.932 E2.98405
G1 X89.188 Y108.338 E3.00580
G1 X88.685 Y108.503 E3.01672
G1 X87.904 Y108.686 E3.03325
G1 X87.264 Y108.767 E3.04655
G1 X87.071 Y108.316 E3.05665
G1 X87.004 Y108.065 E3.06201
G1 X86.970 Y107.840 E3.06669
G1 X86.970 Y107.383 E3.07612
G1 X87.004 Y107.157 E3.08084
G1 X87.140 Y106.720 E3.09026
G1 X87.238 Y106.516 E3.09492
G1 X88.131 Y105.133 E3.12884
G1 X88.496 Y104.526 E3.14345
G1 X88.847 Y103.910 E3.15807
G1 X89.502 Y102.657 E3.18720
G1 X90.098 Y101.374 E3.21636
G1 X90.593 Y100.164 E3.24331
G1 X90.808 Y99.583 E3.25608
G1 X94.790 Y99.582 E3.33814
G1 X94.866 Y98.900 E3.35228
G1 X95.016 Y98.920 E3.35540
G1 X95.335 Y98.878 E3.36202
G1 X95.632 Y98.755 E3.36864
G1 X95.887 Y98.559 E3.37527
G1 X96.439 Y97.840 E3.39395
G1 X96.228 Y97.840 E3.39831
G1 X96.247 Y97.688 E3.40145
G1 X96.203 Y97.351 E3.40846
G1 X96.410 Y97.266 E3.41307
G1 X96.564 Y97.467 E3.41830
G1 X96.810 Y97.656 E3.42470
G1 X97.097 Y97.775 E3.43109
G1 X97.405 Y97.815 E3.43749
G1 X97.712 Y97.775 E3.44388
G1 X97.999 Y97.656 E3.45027
G1 X98.245 Y97.467 E3.45667
G1 X98.434 Y97.221 E3.46306
G1 X98.553 Y96.935 E3.46946
G1 X98.593 Y96.627 E3.47585
G1 X98.553 Y96.319 E3.48224
G1 X98.434 Y96.033 E3.48864
G1 X98.270 Y95.819 E3.49420
G1 X98.003 Y95.600 E3.50131
G1 X97.712 Y95.479 E3.50780
G1 X97.405 Y95.439 E3.51419
G1 X97.137 Y95.474 E3.51976
G1 X96.814 Y95.595 E3.52686
G1 X96.564 Y95.787 E3.53336
G1 X96.375 Y96.033 E3.53975
G1 X96.257 Y96.319 E3.54614
G1 X96.221 Y96.587 E3.55170
G1 X96.257 Y96.954 E3.55930
G1 X96.053 Y97.034 E3.56382
G1 X95.887 Y96.818 E3.56944
G1 X95.632 Y96.622 E3.57607
G1 X95.335 Y96.499 E3.58269
G1 X94.942 Y96.448 E3.59085
G1 X94.908 Y96.234 E3.59532
G1 X95.019 Y96.179 E3.59788
G1 X95.442 Y95.814 E3.60940
G1 X95.756 Y95.351 E3.62093
G1 X95.939 Y94.822 E3.63245
G1 X95.980 Y94.265 E3.64398
G1 X95.874 Y93.715 E3.65550
G1 X95.630 Y93.212 E3.66703
G1 X95.264 Y92.789 E3.67856
G1 X94.801 Y92.476 E3.69008
G1 X94.273 Y92.292 E3.70161
G1 X93.715 Y92.252 E3.71313
G1 X93.166 Y92.357 E3.72466
G1 X92.663 Y92.601 E3.73618
G1 X92.240 Y92.967 E3.74771
G1 X91.926 Y93.430 E3.75924
G1 X91.743 Y93.958 E3.77076
G1 X91.703 Y94.516 E3.78229
G1 X91.808 Y95.065 E3.79381
G1 X92.052 Y95.569 E3.80534
G1 X92.418 Y95.991 E3.81686
G1 X92.881 Y96.305 E3.82839
G1 X93.409 Y96.489 E3.83991
G1 X93.966 Y96.529 E3.85143
G1 X94.216 Y96.482 E3.85667
G1 X94.310 Y96.692 E3.86141
G1 X94.146 Y96.818 E3.86569
G1 X93.950 Y97.073 E3.87231
G1 X93.827 Y97.370 E3.87893
G1 X93.785 Y97.688 E3.88556
G1 X93.827 Y98.007 E3.89218
G1 X93.950 Y98.304 E3.89880
G1 X94.166 Y98.585 E3.90610
G1 X94.031 Y98.762 E3.91068
G1 X93.734 Y98.643 E3.91727
G1 X93.340 Y98.447 E3.92634
G1 X92.962 Y98.221 E3.93541
G1 X92.604 Y97.966 E3.94448
G1 X92.266 Y97.684 E3.95355
G1 X91.952 Y97.377 E3.96262
G1 X91.662 Y97.045 E3.97169
G1 X91.400 Y96.692 E3.98076
G1 X91.202 Y96.377 E3.98843
G1 X90.963 Y95.932 E3.99882
G1 X90.811 Y95.538 E4.00754
G1 X90.717 Y95.123 E4.01630
G1 X90.695 Y94.924 E4.02043
G1 X90.694 Y94.532 E4.02850
G1 X90.757 Y94.083 E4.03785
G1 X90.879 Y93.684 E4.04646
G1 X91.112 Y93.204 E4.05746
G1 X91.281 Y92.939 E4.06393
G1 X91.473 Y92.685 E4.07049
G1 X91.685 Y92.448 E4.07705
G1 X91.917 Y92.229 E4.08361
G1 X92.431 Y91.852 E4.09675
G1 X92.707 Y91.697 E4.10329
G1 X92.997 Y91.565 E4.10985
G1 X93.296 Y91.457 E4.11641
G1 X93.603 Y91.374 E4.12297
G1 X94.387 Y91.261 E4.13929
G1 X95.100 Y91.219 E4.15401
G1 X95.811 Y91.227 E4.16867
G1 X96.633 Y91.304 E4.18568
G1 X99.369 Y95.860 E4.29521
G1 X99.833 Y95.748 E4.30505
G1 X99.863 Y95.274 E4.31483
G1 X100.137 Y95.274 E4.32046
G1 X100.167 Y95.746 E4.33020
G1 X100.631 Y95.858 E4.34005
G1 X103.368 Y91.301 E4.44962
G1 X103.950 Y91.239 E4.46167
G1 X104.697 Y91.215 E4.47708
G1 X105.614 Y91.259 E4.49602
G1 X106.081 Y91.314 E4.50570
G1 X106.397 Y91.372 E4.51231
G1 X106.704 Y91.455 E4.51887
G1 X107.003 Y91.563 E4.52544
G1 X107.293 Y91.695 E4.53200
G1 X107.571 Y91.851 E4.53856
G1 X107.835 Y92.028 E4.54512
G1 X108.083 Y92.227 E4.55168
G1 X108.315 Y92.446 E4.55824
G1 X108.527 Y92.683 E4.56480
G1 X108.719 Y92.937 E4.57137
G1 X108.890 Y93.206 E4.57793
G1 X109.036 Y93.483 E4.58440
G1 X109.189 Y93.879 E4.59314
G1 X109.282 Y94.289 E4.60180
G1 X109.313 Y94.707 E4.61045
G1 X109.282 Y95.126 E4.61910
G1 X109.189 Y95.536 E4.62776
G1 X109.036 Y95.932 E4.63651
G1 X108.834 Y96.317 E4.64548
G1 X108.600 Y96.690 E4.65455
G1 X108.338 Y97.043 E4.66362
G1 X108.048 Y97.375 E4.67268
G1 X107.734 Y97.682 E4.68175
G1 X107.396 Y97.965 E4.69082
G1 X107.038 Y98.219 E4.69989
G1 X106.660 Y98.445 E4.70896
G1 X106.266 Y98.641 E4.71803
G1 X105.969 Y98.760 E4.72462
G1 X105.834 Y98.583 E4.72921
G1 X106.050 Y98.302 E4.73650
G1 X106.173 Y98.005 E4.74312
G1 X106.209 Y97.728 E4.74888
G1 X106.175 Y97.372 E4.75625
G1 X106.050 Y97.071 E4.76297
G1 X105.880 Y96.849 E4.76873
G1 X105.677 Y96.683 E4.77414
G1 X105.773 Y96.478 E4.77880
G1 X106.034 Y96.527 E4.78427
G1 X106.591 Y96.487 E4.79579
G1 X107.119 Y96.303 E4.80731
G1 X107.582 Y95.990 E4.81884
G1 X107.948 Y95.567 E4.83036
G1 X108.192 Y95.063 E4.84189
G1 X108.297 Y94.514 E4.85341
G1 X108.257 Y93.957 E4.86494
G1 X108.074 Y93.428 E4.87647
G1 X107.760 Y92.965 E4.88799
G1 X107.337 Y92.599 E4.89952
G1 X106.834 Y92.355 E4.91104
G1 X106.285 Y92.250 E4.92257
G1 X105.889 Y92.279 E4.93074
G1 X105.727 Y92.290 E4.93409
G1 X105.199 Y92.474 E4.94562
G1 X104.736 Y92.787 E4.95715
G1 X104.344 Y93.240 E4.96948
G1 X104.125 Y93.716 E4.98028
G1 X104.020 Y94.263 E4.99175
G1 X104.061 Y94.820 E5.00328
G1 X104.244 Y95.349 E5.01480
G1 X104.558 Y95.812 E5.02633
G1 X104.981 Y96.178 E5.03785
G1 X105.092 Y96.232 E5.04041
G1 X105.058 Y96.446 E5.04488
G1 X104.707 Y96.492 E5.05217
G1 X104.372 Y96.618 E5.05954
G1 X104.113 Y96.816 E5.06627
G1 X103.948 Y97.031 E5.07185
G1 X103.742 Y96.945 E5.07646
G1 X103.784 Y96.625 E5.08312
G1 X103.743 Y96.318 E5.08951
G1 X103.625 Y96.031 E5.09591
G1 X103.436 Y95.785 E5.10230
G1 X103.190 Y95.596 E5.10869
G1 X102.903 Y95.477 E5.11509
G1 X102.595 Y95.437 E5.12148
G1 X102.328 Y95.472 E5.12704
G1 X102.005 Y95.593 E5.13415
G1 X101.755 Y95.785 E5.14064
G1 X101.566 Y96.031 E5.14704
G1 X101.447 Y96.318 E5.15343
G1 X101.407 Y96.625 E5.15983
G1 X101.447 Y96.933 E5.16622
G1 X101.566 Y97.219 E5.17261
G1 X101.755 Y97.465 E5.17901
G1 X102.001 Y97.654 E5.18540
G1 X102.288 Y97.773 E5.19180
G1 X102.595 Y97.814 E5.19819
G1 X102.903 Y97.773 E5.20458
G1 X103.190 Y97.654 E5.21098
G1 X103.436 Y97.465 E5.21737
G1 X103.590 Y97.264 E5.22261
G1 X103.797 Y97.349 E5.22722
G1 X103.758 Y97.645 E5.23336
G1 X103.793 Y98.001 E5.24073
G1 X103.917 Y98.302 E5.24745
G1 X104.113 Y98.557 E5.25407
G1 X104.368 Y98.753 E5.26070
G1 X104.665 Y98.876 E5.26732
G1 X104.984 Y98.918 E5.27395
G1 X105.134 Y98.898 E5.27706
G1 X105.202 Y99.505 E5.28966
G1 X105.265 Y100.077 F7800.000
G1 E3.28966 F2400.00000
G92 E0
G1 X100.000 Y92.873 F7800.000
G1 E2.00000 F2400.00000
G1 F1800
G1 X100.000 Y93.936 E2.02615
G1 F1800
G1 X100.000 Y94.999 E2.05661
G1 X100.365 Y100.531 F7800.000
G1 F1800
G1 X100.467 Y101.042 E2.06398
G1 X100.607 Y101.550 E2.07143
G1 X100.809 Y102.137 E2.08021
G1 X101.054 Y102.707 E2.08898
G1 X101.292 Y103.190 E2.09660
G1 X101.658 Y103.814 E2.10682
G1 E0.10682 F2400.00000
G92 E0
G1 X98.342 Y103.816 F7800.000
G1 E2.00000 F2400.00000
G1 F1800
G1 X98.686 Y103.237 E2.00870
G1 X99.098 Y102.373 E2.02108
G1 X99.297 Y101.848 E2.02834
G1 X99.490 Y101.210 E2.03696
G1 X99.633 Y100.532 E2.04591
G1 E0.04591 F2400.00000
G92 E0
G1 X97.540 Y101.448 F7800.000
G1 E2.00000 F2400.00000
G1 F1200
G1 X97.360 Y101.634 E2.00085
G1 F1200
G1 X97.181 Y101.819 E2.00266
G1 F1200
G1 X96.996 Y102.005 E2.00545
G1 F1200
G1 X96.807 Y102.192 E2.00925
G1 F1200
G1 X96.618 Y102.379 E2.01401
G1 F1200
G1 X96.379 Y102.605 E2.02114
G1 F1200
G1 X96.141 Y102.831 E2.02955
G1 F1200
G1 X95.724 Y103.209 E2.04606
G1 E0.04606 F2400.00000
G92 E0
G1 X96.722 Y100.465 F7800.000
G1 E2.00000 F2400.00000
G1 F1200
G1 X90.853 Y103.264 E2.03383
G1 X90.126 Y102.306 F7800.000
G1 F1200
G1 X90.256 Y102.097 E2.03692
G1 F1200
G1 X90.514 Y101.678 E2.04455
G1 X90.685 Y101.303 E2.05093
G1 X90.780 Y101.016 E2.05562
G1 X91.035 Y100.037 E2.07130
G1 E0.07130 F2400.00000
G92 E0
G1 X92.293 Y96.739 F7800.000
G1 E2.00000 F2400.00000
G1 F1200
G1 X91.973 Y96.425 E2.01153
G1 X91.811 Y96.212 E2.01844
G1 F1200
G1 X91.598 Y95.913 E2.02711
G1 F1200
G1 X91.481 Y95.694 E2.03219
G1 X91.305 Y95.268 E2.04166
G1 F1200
G1 X91.251 Y95.034 E2.04591
G1 X91.199 Y94.575 E2.05404
G1 F1200
G1 X91.264 Y94.039 E2.06213
G1 F1200
G1 X91.302 Y93.850 E2.06442
G1 X91.393 Y93.628 E2.06727
G1 F1200
G1 X91.555 Y93.262 E2.07108
G1 F1200
G1 X91.947 Y92.724 E2.07586
G1 X92.170 Y92.520 E2.07802
G1 X92.467 Y92.281 E2.08076
G1 X93.055 Y91.974 E2.08552
G1 F1200
G1 X93.426 Y91.868 E2.08941
G1 F1200
G1 X93.701 Y91.806 E2.09300
G1 X93.850 Y91.798 E2.09490
G1 F1200
G1 X94.169 Y91.787 E2.09988
G1 F1200
G1 X94.433 Y91.788 E2.10475
G1 F1200
G1 X94.943 Y91.859 E2.11606
G1 X95.985 Y92.126 F7800.000
G1 F1200
G1 X96.408 Y92.709 E2.11813
G1 X96.415 Y92.725 F7800.000
G1 F1200
G1 X96.782 Y93.404 E2.12091
G1 F1200
G1 X96.838 Y93.547 E2.12180
G1 F1200
G1 X96.934 Y93.797 E2.12440
G1 F1200
G1 X97.029 Y94.047 E2.12807
G1 F1200
G1 X97.203 Y94.579 E2.13753
G1 X98.081 Y95.245 F7800.000
G1 F1200
G1 X98.611 Y95.501 E2.14510
G1 X98.831 Y95.829 E2.15018
G1 X99.033 Y96.230 E2.15597
G1 X98.855 Y95.549 F7800.000
G1 F1200
G1 X98.056 Y95.278 E2.15761
G1 X96.464 Y95.465 F7800.000
G1 F1200
G1 X95.684 Y95.956 E2.15967
G1 X95.898 Y95.971 F7800.000
G1 F1200
G1 X95.793 Y96.158 E2.16276
G1 X95.898 Y95.971 F7800.000
G1 F1200
G1 X96.077 Y95.681 E2.16676
G1 X96.885 Y98.701 F7800.000
G1 F1200
G1 X97.125 Y98.701 E2.16729
G1 X95.889 Y98.957 F7800.000
G1 F1200
G1 X95.250 Y99.527 E2.16873
G1 X95.096 Y99.369 F7800.000
G1 F1200
G1 X95.428 Y99.327 E2.17281
G1 X95.884 Y99.023 E2.17948
G1 X100.967 Y96.228 F7800.000
G1 F1200
G1 X101.169 Y95.827 E2.18477
G1 X101.389 Y95.499 E2.18941
G1 X101.894 Y95.246 E2.19604
G1 X101.942 Y95.278 F7800.000
G1 F1200
G1 X101.155 Y95.531 E2.19715
G1 X102.797 Y94.577 F7800.000
G1 F1200
G1 X102.923 Y94.170 E2.20436
G1 F1200
G1 X103.017 Y93.924 E2.20797
G1 F1200
G1 X103.111 Y93.678 E2.21056
G1 F1200
G1 X103.205 Y93.431 E2.21212
G1 F1200
G1 X103.528 Y92.818 E2.21372
G1 X103.592 Y92.708 F7800.000
G1 F1200
G1 X103.950 Y92.214 E2.21606
G1 X104.146 Y92.112 E2.21691
G1 X105.062 Y91.859 F7800.000
G1 F1200
G1 X105.571 Y91.786 E2.22722
G1 F1200
G1 X105.854 Y91.785 E2.23205
G1 X105.854 Y91.785 F7800.000
G1 F1200
G1 X106.150 Y91.796 E2.23626
G1 F1200
G1 X106.299 Y91.805 E2.23788
G1 X106.574 Y91.866 E2.24095
G1 F1200
G1 X106.945 Y91.972 E2.24411
G1 F1200
G1 X107.554 Y92.292 E2.24800
G1 X108.053 Y92.722 E2.25171
G1 F1200
G1 X108.445 Y93.260 E2.25697
G1 F1200
G1 X108.629 Y93.668 E2.26205
G1 F1200
G1 X108.736 Y94.017 E2.26702
G1 F1200
G1 X108.798 Y94.573 E2.27606
G1 F1200
G1 X108.746 Y95.046 E2.28531
G1 X108.695 Y95.266 E2.28970
G1 F1200
G1 X108.517 Y95.697 E2.29987
G1 X108.403 Y95.912 E2.30520
G1 F1200
G1 X108.209 Y96.184 E2.31339
G1 F1200
G1 X108.027 Y96.423 E2.32147
G1 X107.707 Y96.737 E2.33350
G1 E0.33350 F2400.00000
G92 E0
G1 X108.183 Y99.900 F7800.000
G1 E2.00000 F2400.00000
G1 F1200
G1 X109.035 Y99.952 E2.00383
G1 X109.014 Y100.117 F7800.000
G1 F1200
G1 X109.191 Y100.903 E2.01475
G1 F1200
G1 X109.316 Y101.301 E2.02195
G1 X109.488 Y101.674 E2.02903
G1 F1200
G1 X109.686 Y102.003 E2.03460
G1 F1200
G1 X109.785 Y102.168 E2.03657
G1 X109.812 Y102.171 E2.03685
G1 F1200
G1 X109.962 Y102.188 E2.03779
G1 X109.147 Y103.262 F7800.000
G1 F1200
G1 X103.278 Y100.463 E2.07162
G1 X102.460 Y101.446 F7800.000
G1 F1200
G1 X102.640 Y101.632 E2.07295
G1 F1200
G1 X102.819 Y101.817 E2.07523
G1 F1200
G1 X103.003 Y102.003 E2.07849
G1 F1200
G1 X103.192 Y102.189 E2.08274
G1 F1200
G1 X103.380 Y102.375 E2.08796
G1 F1200
G1 X103.602 Y102.584 E2.09504
G1 F1200
G1 X103.824 Y102.793 E2.10320
G1 F1200
G1 X104.276 Y103.207 E2.12120
G1 E0.12120 F2400.00000
G92 E0
G1 X104.750 Y99.525 F7800.000
G1 E2.00000 F2400.00000
G1 F1200
G1 X104.111 Y98.955 E2.00164
G1 X104.116 Y99.021 F7800.000
G1 F1200
G1 X104.572 Y99.325 E2.00839
G1 X104.904 Y99.367 E2.01250
G1 X103.131 Y98.700 F7800.000
G1 F1200
G1 X102.875 Y98.700 E2.01314
G1 X104.207 Y96.156 F7800.000
G1 F1200
G1 X104.025 Y95.825 E2.01883
G1 F1200
G1 X103.935 Y95.695 E2.02065
G1 X103.573 Y95.491 F7800.000
G1 F1200
G1 X104.349 Y96.002 E2.02231
G1 E0.02231 F2400.00000
G92 E0
G1 X110.731 Y104.203 F7800.000
G1 E2.00000 F2400.00000
G1 F1200
G1 X111.130 Y105.231 E2.03488
G1 F1200
G1 X111.336 Y105.635 E2.05064
G1 X111.727 Y106.205 E2.07460
G1 E0.07460 F2400.00000
G92 E0
G1 X89.308 Y104.104 F7800.000
G1 E2.00000 F2400.00000
G1 F1200
G1 X88.870 Y105.233 E2.03688
G1 F1200
G1 X88.664 Y105.637 E2.05200
G1 X88.273 Y106.207 E2.07498
G1 Z0.900 F7800.000
G1 E0.07498 F2400.00000
G92 E0
G1 X97.148 Y101.334 F7800.000
G1 E2.00000 F2400.00000
G1 F900
G1 X89.304 Y106.909 E2.19834
G1 X88.927 Y106.501 E2.20979
G1 X89.275 Y106.023 E2.22197
G1 X89.469 Y105.618 E2.23122
G1 X89.535 Y105.401 E2.23589
G1 X89.603 Y104.953 E2.24524
G1 X89.603 Y104.726 E2.24992
G1 X89.560 Y104.294 E2.25886
G1 X96.846 Y100.820 E2.42523
G1 X97.110 Y101.269 E2.43596
G1 X97.566 Y101.608 F7800.000
G1 X96.360 Y100.224 F7800.000
G1 F900
G1 X90.881 Y102.836 E2.56107
G1 X90.567 Y102.423 E2.57176
G1 X90.929 Y101.967 E2.58376
G1 X91.020 Y101.818 E2.58737
G1 X91.176 Y101.468 E2.59526
G1 X91.226 Y101.301 E2.59886
G1 X91.288 Y100.929 E2.60663
G1 X91.285 Y100.289 E2.61982
G1 X96.206 Y99.693 E2.72198
G1 X96.339 Y100.152 E2.73181
G1 X96.691 Y100.599 F7800.000
G1 X93.214 Y97.730 F7800.000
G1 F900
G1 X92.638 Y97.264 E2.75182
G1 X92.426 Y97.056 E2.75982
G1 X92.586 Y96.796 E2.76806
G1 X93.304 Y97.046 E2.78856
G1 X93.224 Y97.656 E2.80516
G1 E0.80516 F2400.00000
G92 E0
G1 X97.262 Y99.041 F7800.000
G1 E2.00000 F2400.00000
G1 F900
G1 X97.872 Y98.960 E2.01660
G1 X97.548 Y99.654 E2.03724
G1 X97.334 Y99.290 E2.04862
G1 X97.283 Y99.113 E2.05360
G1 X96.611 Y99.080 F7800.000
G1 F900
G1 X96.151 Y99.135 E2.06610
G1 X96.572 Y98.587 E2.08476
G1 X96.722 Y98.226 E2.09528
G1 X96.951 Y98.321 E2.10197
G1 X97.405 Y98.381 E2.11433
G1 X97.859 Y98.321 E2.12668
G1 X98.282 Y98.146 E2.13903
G1 X98.645 Y97.867 E2.15138
G1 X98.734 Y97.751 E2.15532
G1 X99.025 Y97.924 E2.16445
G1 X98.292 Y99.582 E2.21336
G1 X98.003 Y100.168 E2.23097
G1 X97.574 Y100.951 E2.25508
G1 X97.069 Y100.093 E2.28195
G1 X96.925 Y100.161 E2.28624
G1 X96.632 Y99.152 E2.31459
G1 X99.861 Y98.246 F7800.000
G1 F900
G1 X99.446 Y96.970 E2.35079
G1 X99.124 Y96.890 E2.35975
G1 X99.177 Y96.484 E2.37080
G1 X100.004 Y96.283 E2.39375
G1 X100.823 Y96.482 E2.41648
G1 X100.885 Y96.956 E2.42937
G1 X100.569 Y97.046 E2.43825
G1 X100.545 Y96.994 E2.43978
G1 X100.138 Y98.246 E2.47528
G1 X99.936 Y98.246 E2.48073
G1 X102.131 Y98.959 F7800.000
G1 F900
G1 X102.738 Y99.039 E2.49726
G1 X102.666 Y99.288 E2.50426
G1 X102.447 Y99.660 E2.51588
G1 X102.162 Y99.027 E2.53460
G1 X103.389 Y99.078 F7800.000
G1 F900
G1 X103.075 Y100.159 E2.56497
G1 X102.931 Y100.091 E2.56926
G1 X102.426 Y100.949 E2.59613
G1 X101.997 Y100.166 E2.62024
G1 X101.782 Y99.732 E2.63330
G1 X100.949 Y97.889 E2.68786
G1 X101.194 Y97.705 E2.69610
G1 X101.698 Y98.136 E2.71398
G1 X102.141 Y98.319 E2.72693
G1 X102.595 Y98.379 E2.73929
G1 X103.049 Y98.319 E2.75164
G1 X103.278 Y98.224 E2.75833
G1 X103.428 Y98.585 E2.76885
G1 X103.849 Y99.133 E2.78751
G1 X103.463 Y99.087 E2.79799
G1 X103.794 Y99.692 F7800.000
G1 F900
G1 X108.721 Y100.288 E2.90027
G1 X108.706 Y100.784 E2.91051
G1 X108.734 Y101.110 E2.91726
G1 X108.826 Y101.471 E2.92493
G1 X108.980 Y101.816 E2.93271
G1 X109.071 Y101.965 E2.93631
G1 X109.433 Y102.422 E2.94832
G1 X109.119 Y102.834 E2.95901
G1 X103.640 Y100.222 E3.08411
G1 X103.773 Y99.764 E3.09395
G1 X103.663 Y99.209 F7800.000
G1 X103.154 Y100.818 F7800.000
G1 F900
G1 X110.440 Y104.293 E3.26032
G1 X110.397 Y104.724 E3.26926
G1 X110.397 Y104.951 E3.27393
G1 X110.465 Y105.400 E3.28328
G1 X110.531 Y105.616 E3.28796
G1 X110.725 Y106.021 E3.29721
G1 X111.073 Y106.499 E3.30939
G1 X110.696 Y106.907 E3.32084
G1 X102.852 Y101.332 E3.51917
G1 X103.116 Y100.883 E3.52991
G1 X103.154 Y100.318 F7800.000
G1 E1.52991 F2400.00000
G92 E0
G1 X106.783 Y97.706 F7800.000
G1 E2.00000 F2400.00000
G1 F900
G1 X106.696 Y97.044 E2.01801
G1 X107.414 Y96.795 E2.03851
G1 X107.574 Y97.054 E2.04675
G1 X107.358 Y97.266 E2.05493
G1 X107.059 Y97.516 E2.06543
G1 X106.845 Y97.663 E2.07244
G1 X103.521 Y95.126 F7800.000
G1 F900
G1 X103.049 Y94.931 E2.08621
G1 X102.595 Y94.871 E2.09856
G1 X101.816 Y94.974 E2.11975
G1 X103.704 Y91.829 E2.21870
G1 X103.988 Y91.799 E2.22638
G1 X104.739 Y91.775 E2.24667
G1 X104.827 Y92.048 E2.25440
G1 X104.360 Y92.365 E2.26963
G1 X103.898 Y92.899 E2.28870
G1 X103.589 Y93.535 E2.30777
G1 X103.456 Y94.230 E2.32683
G1 X103.515 Y95.051 E2.34907
G1 E0.34907 F2400.00000
G92 E0
G1 X98.184 Y94.976 F7800.000
G1 E2.00000 F2400.00000
G1 F900
G1 X97.405 Y94.873 E2.02119
G1 X97.031 Y94.922 E2.03135
G1 X96.480 Y95.118 E2.04713
G1 X96.544 Y94.231 E2.07110
G1 X96.411 Y93.537 E2.09017
G1 X96.102 Y92.901 E2.10924
G1 X95.640 Y92.367 E2.12831
G1 X95.177 Y92.053 E2.14338
G1 X95.263 Y91.782 E2.15105
G1 X95.840 Y91.791 E2.16662
G1 X96.298 Y91.835 E2.17903
G1 X98.145 Y94.911 E2.27583
G1 E0.27583 F2400.00000
G92 E0
G1 X95.401 Y103.263 F7800.000
G1 E2.00000 F2400.00000
G1 F900
G1 X95.628 Y103.524 E2.00933
G1 X94.854 Y104.301 E2.03890
G1 X94.367 Y104.735 E2.05650
G1 X93.870 Y105.141 E2.07382
G1 X93.493 Y105.408 E2.08626
G1 X92.635 Y105.964 E2.11385
G1 X91.980 Y106.364 E2.13455
G1 X90.969 Y106.921 E2.16569
G1 X90.624 Y107.087 E2.17603
G1 X90.445 Y106.785 E2.18549
G1 X95.340 Y103.307 E2.34747
G1 E0.34747 F2400.00000
G92 E0
G1 X90.479 Y103.235 F7800.000
G1 E2.00000 F2400.00000
G1 F900
G1 X90.010 Y103.459 E2.01403
G1 X89.819 Y103.261 E2.02145
G1 X90.097 Y102.731 E2.03758
G1 X90.434 Y103.175 E2.05263
G1 X88.017 Y106.343 F7800.000
G1 F900
G1 X89.270 Y107.697 E2.10238
G1 X88.993 Y107.812 E2.11047
G1 X88.534 Y107.963 E2.12351
G1 X87.805 Y108.133 E2.14370
G1 X87.606 Y108.159 E2.14911
G1 X87.531 Y107.802 E2.15892
G1 X87.529 Y107.471 E2.16786
G1 X87.557 Y107.260 E2.17360
G1 X87.597 Y107.101 E2.17803
G1 X87.728 Y106.791 E2.18710
G1 X87.976 Y106.406 E2.19946
G1 E0.19946 F2400.00000
G92 E0
G1 X104.372 Y103.523 F7800.000
G1 E2.00000 F2400.00000
G1 F900
G1 X104.599 Y103.261 E2.00933
G1 X109.555 Y106.783 E2.17333
G1 X109.376 Y107.085 E2.18279
G1 X109.031 Y106.919 E2.19313
G1 X108.020 Y106.362 E2.22428
G1 X107.365 Y105.962 E2.24498
G1 X106.507 Y105.406 E2.27256
G1 X106.130 Y105.139 E2.28500
G1 X105.633 Y104.733 E2.30232
G1 X105.146 Y104.299 E2.31993
G1 X104.424 Y103.577 E2.34747
G1 X110.730 Y107.695 F7800.000
G1 F900
G1 X111.983 Y106.341 E2.39722
G1 X112.272 Y106.790 E2.41160
G1 X112.403 Y107.099 E2.42066
G1 X112.445 Y107.267 E2.42533
G1 X112.480 Y107.610 E2.43464
G1 X112.471 Y107.783 E2.43931
G1 X112.394 Y108.157 E2.44961
G1 X112.195 Y108.131 E2.45501
G1 X111.466 Y107.961 E2.47520
G1 X110.800 Y107.724 E2.49430
G1 E0.49430 F2400.00000
G92 E0
G1 X110.180 Y103.259 F7800.000
G1 E2.00000 F2400.00000
G1 F900
G1 X109.989 Y103.456 E2.00741
G1 X109.521 Y103.233 E2.02142
G1 X109.904 Y102.729 E2.03850
G1 X110.145 Y103.192 E2.05261
G1 E0.05261 F2400.00000
G92 E0
G1 X105.210 Y99.580 F7800.000
G1 E2.00000 F2400.00000
G1 F1800
G1 X109.194 Y99.581 E2.08209
G1 X109.627 Y100.720 E2.10721
G1 X110.119 Y101.855 E2.13272
G1 X110.498 Y102.656 E2.15098
G1 X111.070 Y103.753 E2.17646
G1 X111.504 Y104.524 E2.19470
G1 X111.869 Y105.131 E2.20931
G1 X112.762 Y106.514 E2.24324
G1 X112.860 Y106.718 E2.24790
G1 X112.939 Y106.933 E2.25262
G1 X113.030 Y107.381 E2.26204
G1 X113.030 Y107.839 E2.27147
G1 X112.939 Y108.287 E2.28090
G1 X112.861 Y108.502 E2.28562
G1 X112.734 Y108.765 E2.29163
G1 X112.096 Y108.684 E2.30489
G1 X111.315 Y108.501 E2.32142
G1 X110.812 Y108.336 E2.33233
G1 X109.838 Y107.930 E2.35408
G1 X108.774 Y107.417 E2.37842
G1 X107.738 Y106.847 E2.40279
G1 X107.066 Y106.436 E2.41902
G1 X106.192 Y105.870 E2.44048
G1 X105.791 Y105.586 E2.45063
G1 X105.269 Y105.160 E2.46450
G1 X104.764 Y104.710 E2.47844
G1 X104.278 Y104.239 E2.49239
G1 X103.482 Y103.366 E2.51675
G1 X102.947 Y102.706 E2.53424
G1 X102.550 Y102.160 E2.54816
G1 X102.175 Y101.597 E2.56211
G1 X101.825 Y101.018 E2.57605
G1 X101.276 Y99.971 E2.60042
G1 X100.631 Y98.544 E2.63269
G1 X100.130 Y100.084 E2.66606
G1 X99.870 Y100.086 E2.67141
G1 X99.367 Y98.538 E2.70496
G1 X98.800 Y99.820 E2.73386
G1 X98.501 Y100.427 E2.74780
G1 X98.175 Y101.020 E2.76175
G1 X97.825 Y101.599 E2.77569
G1 X97.450 Y102.162 E2.78964
G1 X97.052 Y102.709 E2.80358
G1 X96.630 Y103.238 E2.81753
G1 X96.187 Y103.749 E2.83147
G1 X95.722 Y104.241 E2.84542
G1 X95.236 Y104.712 E2.85936
G1 X94.731 Y105.162 E2.87331
G1 X94.209 Y105.587 E2.88718
G1 X93.808 Y105.872 E2.89732
G1 X92.934 Y106.438 E2.91879
G1 X92.262 Y106.849 E2.93502
G1 X91.226 Y107.419 E2.95938
G1 X90.162 Y107.932 E2.98372
G1 X89.188 Y108.338 E3.00547
G1 X88.685 Y108.503 E3.01639
G1 X87.904 Y108.686 E3.03292
G1 X87.266 Y108.767 E3.04618
G1 X87.139 Y108.504 E3.05219
G1 X87.061 Y108.289 E3.05691
G1 X86.971 Y107.846 E3.06621
G1 X86.968 Y107.437 E3.07466
G1 X87.005 Y107.154 E3.08053
G1 X87.140 Y106.720 E3.08991
G1 X87.238 Y106.516 E3.09456
G1 X88.131 Y105.133 E3.12849
G1 X88.496 Y104.526 E3.14309
G1 X88.847 Y103.910 E3.15771
G1 X89.502 Y102.657 E3.18684
G1 X90.098 Y101.374 E3.21600
G1 X90.632 Y100.065 E3.24513
G1 X90.809 Y99.583 E3.25573
G1 X94.790 Y99.582 E3.33777
G1 X94.866 Y98.900 E3.35191
G1 X95.016 Y98.920 E3.35503
G1 X95.335 Y98.878 E3.36165
G1 X95.632 Y98.755 E3.36828
G1 X95.887 Y98.559 E3.37490
G1 X96.083 Y98.304 E3.38152
G1 X96.205 Y98.007 E3.38815
G1 X96.247 Y97.688 E3.39477
G1 X96.203 Y97.351 E3.40178
G1 X96.410 Y97.266 E3.40639
G1 X96.524 Y97.414 E3.41025
G1 X96.804 Y97.653 E3.41783
G1 X97.097 Y97.775 E3.42438
G1 X97.405 Y97.815 E3.43077
G1 X97.712 Y97.775 E3.43717
G1 X97.999 Y97.656 E3.44356
G1 X98.245 Y97.467 E3.44996
G1 X98.434 Y97.221 E3.45635
G1 X98.553 Y96.935 E3.46274
G1 X98.593 Y96.627 E3.46914
G1 X98.553 Y96.319 E3.47553
G1 X98.434 Y96.033 E3.48193
G1 X98.245 Y95.787 E3.48832
G1 X97.999 Y95.598 E3.49471
G1 X97.712 Y95.479 E3.50111
G1 X97.405 Y95.439 E3.50750
G1 X97.163 Y95.470 E3.51252
G1 X96.816 Y95.593 E3.52011
G1 X96.564 Y95.787 E3.52665
G1 X96.375 Y96.033 E3.53305
G1 X96.257 Y96.319 E3.53944
G1 X96.225 Y96.561 E3.54446
G1 X96.256 Y96.956 E3.55264
G1 X96.053 Y97.034 E3.55712
G1 X95.887 Y96.818 E3.56275
G1 X95.632 Y96.622 E3.56937
G1 X95.335 Y96.499 E3.57600
G1 X94.942 Y96.448 E3.58416
G1 X94.908 Y96.234 E3.58863
G1 X95.019 Y96.179 E3.59118
G1 X95.442 Y95.814 E3.60271
G1 X95.756 Y95.351 E3.61424
G1 X95.939 Y94.822 E3.62576
G1 X95.980 Y94.265 E3.63729
G1 X95.874 Y93.715 E3.64881
G1 X95.630 Y93.212 E3.66034
G1 X95.264 Y92.789 E3.67186
G1 X94.801 Y92.476 E3.68339
G1 X94.273 Y92.292 E3.69492
G1 X93.715 Y92.252 E3.70644
G1 X93.166 Y92.357 E3.71797
G1 X92.663 Y92.601 E3.72949
G1 X92.240 Y92.967 E3.74102
G1 X91.926 Y93.430 E3.75254
G1 X91.743 Y93.958 E3.76407
G1 X91.703 Y94.516 E3.77559
G1 X91.808 Y95.065 E3.78712
G1 X92.052 Y95.569 E3.79865
G1 X92.418 Y95.991 E3.81017
G1 X92.881 Y96.305 E3.82170
G1 X93.409 Y96.489 E3.83322
G1 X93.967 Y96.529 E3.84475
G1 X94.217 Y96.481 E3.84999
G1 X94.311 Y96.691 E3.85474
G1 X94.146 Y96.818 E3.85903
G1 X93.950 Y97.073 E3.86566
G1 X93.827 Y97.370 E3.87228
G1 X93.785 Y97.688 E3.87890
G1 X93.827 Y98.007 E3.88553
G1 X93.950 Y98.304 E3.89215
G1 X94.166 Y98.585 E3.89944
G1 X94.031 Y98.762 E3.90403
G1 X93.734 Y98.643 E3.91062
G1 X93.340 Y98.447 E3.91969
G1 X92.962 Y98.221 E3.92876
G1 X92.696 Y98.032 E3.93549
G1 X92.264 Y97.683 E3.94694
G1 X91.952 Y97.377 E3.95596
G1 X91.662 Y97.045 E3.96503
G1 X91.467 Y96.783 E3.97176
G1 X91.165 Y96.317 E3.98320
G1 X90.964 Y95.934 E3.99213
G1 X90.809 Y95.533 E4.00099
G1 X90.758 Y95.339 E4.00512
G1 X90.701 Y94.974 E4.01273
G1 X90.695 Y94.498 E4.02255
G1 X90.757 Y94.084 E4.03117
G1 X90.879 Y93.684 E4.03979
G1 X91.112 Y93.204 E4.05079
G1 X91.281 Y92.939 E4.05727
G1 X91.473 Y92.685 E4.06383
G1 X91.685 Y92.448 E4.07039
G1 X91.917 Y92.229 E4.07695
G1 X92.165 Y92.030 E4.08351
G1 X92.429 Y91.852 E4.09007
G1 X92.707 Y91.697 E4.09663
G1 X92.997 Y91.565 E4.10320
G1 X93.296 Y91.457 E4.10976
G1 X93.603 Y91.374 E4.11632
G1 X94.387 Y91.261 E4.13263
G1 X95.100 Y91.219 E4.14735
G1 X95.871 Y91.231 E4.16326
G1 X96.633 Y91.304 E4.17903
G1 X99.369 Y95.860 E4.28856
G1 X99.833 Y95.748 E4.29841
G1 X99.863 Y95.274 E4.30818
G1 X100.137 Y95.274 E4.31381
G1 X100.167 Y95.746 E4.32355
G1 X100.631 Y95.858 E4.33340
G1 X103.368 Y91.301 E4.44297
G1 X103.949 Y91.239 E4.45502
G1 X104.721 Y91.215 E4.47093
G1 X105.614 Y91.259 E4.48937
G1 X106.081 Y91.314 E4.49905
G1 X106.397 Y91.372 E4.50566
G1 X106.704 Y91.455 E4.51223
G1 X107.003 Y91.563 E4.51879
G1 X107.293 Y91.695 E4.52535
G1 X107.571 Y91.851 E4.53191
G1 X107.835 Y92.028 E4.53847
G1 X108.083 Y92.227 E4.54503
G1 X108.315 Y92.446 E4.55159
G1 X108.527 Y92.683 E4.55816
G1 X108.719 Y92.937 E4.56472
G1 X108.890 Y93.206 E4.57128
G1 X109.036 Y93.483 E4.57775
G1 X109.189 Y93.879 E4.58649
G1 X109.282 Y94.289 E4.59515
G1 X109.313 Y94.707 E4.60380
G1 X109.282 Y95.126 E4.61245
G1 X109.189 Y95.536 E4.62111
G1 X109.036 Y95.932 E4.62986
G1 X108.834 Y96.317 E4.63883
G1 X108.600 Y96.690 E4.64790
G1 X108.338 Y97.043 E4.65697
G1 X108.048 Y97.375 E4.66604
G1 X107.734 Y97.682 E4.67511
G1 X107.398 Y97.963 E4.68413
G1 X106.940 Y98.277 E4.69557
G1 X106.660 Y98.445 E4.70231
G1 X106.266 Y98.641 E4.71137
G1 X105.969 Y98.760 E4.71797
G1 X105.834 Y98.583 E4.72255
G1 X106.050 Y98.302 E4.72984
G1 X106.173 Y98.005 E4.73647
G1 X106.215 Y97.687 E4.74309
G1 X106.173 Y97.368 E4.74972
G1 X106.050 Y97.071 E4.75634
G1 X105.854 Y96.816 E4.76296
G1 X105.689 Y96.689 E4.76726
G1 X105.783 Y96.479 E4.77201
G1 X106.033 Y96.527 E4.77725
G1 X106.591 Y96.487 E4.78877
G1 X107.119 Y96.303 E4.80030
G1 X107.582 Y95.990 E4.81182
G1 X107.948 Y95.567 E4.82335
G1 X108.192 Y95.063 E4.83488
G1 X108.297 Y94.514 E4.84640
G1 X108.257 Y93.957 E4.85793
G1 X108.074 Y93.428 E4.86945
G1 X107.760 Y92.965 E4.88098
G1 X107.337 Y92.599 E4.89250
G1 X106.834 Y92.355 E4.90403
G1 X106.285 Y92.250 E4.91556
G1 X105.727 Y92.290 E4.92708
G1 X105.199 Y92.474 E4.93861
G1 X104.736 Y92.787 E4.95013
G1 X104.370 Y93.210 E4.96166
G1 X104.126 Y93.714 E4.97318
G1 X104.020 Y94.263 E4.98471
G1 X104.061 Y94.820 E4.99623
G1 X104.244 Y95.349 E5.00776
G1 X104.558 Y95.812 E5.01929
G1 X104.981 Y96.178 E5.03081
G1 X105.092 Y96.232 E5.03337
G1 X105.058 Y96.446 E5.03784
G1 X104.686 Y96.495 E5.04557
G1 X104.370 Y96.619 E5.05256
G1 X104.113 Y96.816 E5.05923
G1 X103.948 Y97.031 E5.06482
G1 X103.742 Y96.945 E5.06943
G1 X103.784 Y96.625 E5.07609
G1 X103.743 Y96.318 E5.08248
G1 X103.625 Y96.031 E5.08887
G1 X103.436 Y95.785 E5.09527
G1 X103.190 Y95.596 E5.10166
G1 X102.903 Y95.477 E5.10806
G1 X102.595 Y95.437 E5.11445
G1 X102.354 Y95.469 E5.11947
G1 X102.007 Y95.591 E5.12706
G1 X101.755 Y95.785 E5.13360
G1 X101.566 Y96.031 E5.14000
G1 X101.447 Y96.318 E5.14639
G1 X101.407 Y96.625 E5.15278
G1 X101.447 Y96.933 E5.15918
G1 X101.566 Y97.219 E5.16557
G1 X101.714 Y97.413 E5.17059
G1 X101.994 Y97.652 E5.17818
G1 X102.288 Y97.773 E5.18472
G1 X102.595 Y97.814 E5.19112
G1 X102.903 Y97.773 E5.19751
G1 X103.190 Y97.654 E5.20391
G1 X103.436 Y97.465 E5.21030
G1 X103.590 Y97.264 E5.21553
G1 X103.797 Y97.349 E5.22014
G1 X103.753 Y97.687 E5.22715
G1 X103.794 Y98.005 E5.23377
G1 X103.917 Y98.302 E5.24040
G1 X104.113 Y98.557 E5.24702
G1 X104.368 Y98.753 E5.25365
G1 X104.665 Y98.876 E5.26027
G1 X104.984 Y98.918 E5.26689
G1 X105.134 Y98.898 E5.27001
G1 X105.202 Y99.505 E5.28261
G1 X105.265 Y100.077 F7800.000
G1 E3.28261 F2400.00000
G92 E0
G1 X100.000 Y92.873 F7800.000
G1 E2.00000 F2400.00000
G1 F1800
G1 X100.000 Y93.936 E2.02615
G1 F1800
G1 X100.000 Y94.999 E2.05661
G1 X100.365 Y100.531 F7800.000
G1 F1800
G1 X100.467 Y101.042 E2.06401
G1 X100.607 Y101.550 E2.07149
G1 X100.809 Y102.137 E2.08030
G1 X101.053 Y102.707 E2.08910
G1 X101.277 Y103.161 E2.09628
G1 X101.658 Y103.814 E2.10701
G1 E0.10701 F2400.00000
G92 E0
G1 X98.342 Y103.816 F7800.000
G1 E2.00000 F2400.00000
G1 F1800
G1 X98.685 Y103.237 E2.00873
G1 X98.947 Y102.709 E2.01637
G1 X99.191 Y102.136 E2.02445
G1 X99.343 Y101.707 E2.03037
G1 X99.498 Y101.179 E2.03750
G1 X99.633 Y100.533 E2.04607
G1 E0.04607 F2400.00000
G92 E0
G1 X97.540 Y101.448 F7800.000
G1 E2.00000 F2400.00000
G1 F1200
G1 X97.360 Y101.634 E2.00085
G1 F1200
G1 X97.181 Y101.819 E2.00266
G1 F1200
G1 X96.996 Y102.005 E2.00545
G1 F1200
G1 X96.807 Y102.192 E2.00925
G1 F1200
G1 X96.618 Y102.379 E2.01401
G1 F1200
G1 X96.379 Y102.605 E2.02114
G1 F1200
G1 X96.141 Y102.831 E2.02955
G1 F1200
G1 X95.724 Y103.209 E2.04606
G1 E0.04606 F2400.00000
G92 E0
G1 X96.722 Y100.465 F7800.000
G1 E2.00000 F2400.00000
G1 F1200
G1 X90.853 Y103.264 E2.03383
G1 X90.126 Y102.306 F7800.000
G1 F1200
G1 X90.385 Y101.887 E2.04094
G1 F1200
G1 X90.566 Y101.580 E2.04697
G1 X90.691 Y101.287 E2.05233
G1 X90.769 Y101.038 E2.05675
G1 F1200
G1 X90.833 Y100.773 E2.06055
G1 F1200
G1 X90.879 Y100.539 E2.06295
G1 F1200
G1 X90.924 Y100.305 E2.06440
G1 F1200
G1 X90.969 Y100.060 E2.06493
G1 X90.971 Y99.953 F7800.000
G1 F1200
G1 X91.817 Y99.902 E2.06718
G1 E0.06718 F2400.00000
G92 E0
G1 X92.293 Y96.739 F7800.000
G1 E2.00000 F2400.00000
G1 F1200
G1 X91.976 Y96.429 E2.01154
G1 X91.822 Y96.223 E2.01825
G1 F1200
G1 X91.597 Y95.914 E2.02710
G1 F1200
G1 X91.483 Y95.698 E2.03209
G1 X91.302 Y95.270 E2.04162
G1 F1200
G1 X91.237 Y94.930 E2.04772
G1 X91.201 Y94.575 E2.05400
G1 F1200
G1 X91.264 Y94.040 E2.06207
G1 F1200
G1 X91.302 Y93.850 E2.06438
G1 X91.393 Y93.628 E2.06723
G1 F1200
G1 X91.555 Y93.262 E2.07104
G1 F1200
G1 X91.947 Y92.724 E2.07582
G1 X92.170 Y92.520 E2.07799
G1 X92.466 Y92.280 E2.08072
G1 X93.055 Y91.974 E2.08548
G1 F1200
G1 X93.426 Y91.868 E2.08937
G1 F1200
G1 X93.701 Y91.806 E2.09296
G1 X93.850 Y91.798 E2.09486
G1 F1200
G1 X94.169 Y91.787 E2.09984
G1 F1200
G1 X94.433 Y91.788 E2.10471
G1 F1200
G1 X94.945 Y91.859 E2.11608
G1 X95.983 Y92.124 F7800.000
G1 F1200
G1 X96.408 Y92.709 E2.11816
G1 X96.415 Y92.725 F7800.000
G1 F1200
G1 X96.782 Y93.404 E2.12094
G1 F1200
G1 X96.838 Y93.547 E2.12183
G1 F1200
G1 X96.934 Y93.797 E2.12443
G1 F1200
G1 X97.029 Y94.047 E2.12810
G1 F1200
G1 X97.203 Y94.579 E2.13756
G1 X98.056 Y95.278 F7800.000
G1 F1200
G1 X98.850 Y95.541 E2.13906
G1 X99.033 Y96.230 F7800.000
G1 F1200
G1 X98.831 Y95.829 E2.14485
G1 X98.611 Y95.500 E2.14993
G1 X98.106 Y95.248 E2.15719
G1 X96.481 Y95.452 F7800.000
G1 F1200
G1 X95.700 Y95.932 E2.15959
G1 X95.898 Y95.971 F7800.000
G1 F1200
G1 X95.793 Y96.158 E2.16268
G1 X95.898 Y95.971 F7800.000
G1 F1200
G1 X96.083 Y95.673 E2.16681
G1 X96.869 Y98.701 F7800.000
G1 F1200
G1 X97.125 Y98.701 E2.16745
G1 X95.889 Y98.957 F7800.000
G1 F1200
G1 X95.250 Y99.527 E2.16889
G1 X95.096 Y99.369 F7800.000
G1 F1200
G1 X95.428 Y99.327 E2.17296
G1 X95.884 Y99.023 E2.17964
G1 X100.674 Y97.506 F7800.000
G1 F1200
G1 X100.990 Y97.349 E2.18266
G1 F1200
G1 X101.180 Y97.258 E2.18372
G1 X101.210 Y97.282 E2.18391
G1 F1200
G1 X101.295 Y97.380 E2.18415
G1 X100.967 Y96.228 F7800.000
G1 F1200
G1 X101.169 Y95.827 E2.18944
G1 X101.389 Y95.499 E2.19409
G1 X101.894 Y95.246 E2.20071
G1 X101.939 Y95.278 F7800.000
G1 F1200
G1 X101.158 Y95.526 E2.20171
G1 X102.797 Y94.577 F7800.000
G1 F1200
G1 X102.923 Y94.170 E2.20892
G1 F1200
G1 X103.018 Y93.920 E2.21259
G1 F1200
G1 X103.114 Y93.670 E2.21519
G1 F1200
G1 X103.210 Y93.420 E2.21673
G1 F1200
G1 X103.585 Y92.723 E2.21849
G1 X103.592 Y92.708 F7800.000
G1 F1200
G1 X103.950 Y92.214 E2.22084
G1 X104.145 Y92.112 E2.22169
G1 X105.061 Y91.859 F7800.000
G1 F1200
G1 X105.570 Y91.786 E2.23203
G1 F1200
G1 X105.802 Y91.784 E2.23599
G1 X105.802 Y91.784 F7800.000
G1 F1200
G1 X106.150 Y91.796 E2.24093
G1 F1200
G1 X106.299 Y91.805 E2.24255
G1 X106.574 Y91.866 E2.24562
G1 F1200
G1 X106.945 Y91.972 E2.24878
G1 F1200
G1 X107.554 Y92.292 E2.25267
G1 X108.053 Y92.722 E2.25638
G1 F1200
G1 X108.445 Y93.260 E2.26164
G1 F1200
G1 X108.629 Y93.668 E2.26672
G1 F1200
G1 X108.736 Y94.017 E2.27169
G1 F1200
G1 X108.798 Y94.573 E2.28073
G1 F1200
G1 X108.746 Y95.046 E2.28998
G1 X108.695 Y95.266 E2.29437
G1 F1200
G1 X108.517 Y95.697 E2.30455
G1 X108.403 Y95.912 E2.30987
G1 F1200
G1 X108.209 Y96.184 E2.31806
G1 F1200
G1 X108.027 Y96.423 E2.32614
G1 X107.707 Y96.737 E2.33817
G1 E0.33817 F2400.00000
G92 E0
G1 X108.183 Y99.900 F7800.000
G1 E2.00000 F2400.00000
G1 F1200
G1 X109.035 Y99.952 E2.00383
G1 X109.007 Y100.101 F7800.000
G1 F1200
G1 X109.191 Y100.902 E2.01502
G1 F1200
G1 X109.316 Y101.301 E2.02220
G1 X109.488 Y101.674 E2.02927
G1 F1200
G1 X109.634 Y101.918 E2.03351
G1 F1200
G1 X109.872 Y102.306 E2.03889
G1 X109.147 Y103.262 F7800.000
G1 F1200
G1 X103.278 Y100.463 E2.07271
G1 X102.460 Y101.446 F7800.000
G1 F1200
G1 X102.550 Y101.539 E2.07314
G1 F1200
G1 X102.729 Y101.724 E2.07494
G1 F1200
G1 X102.909 Y101.910 E2.07770
G1 F1200
G1 X103.097 Y102.096 E2.08147
G1 F1200
G1 X103.285 Y102.281 E2.08619
G1 F1200
G1 X103.500 Y102.488 E2.09263
G1 F1200
G1 X103.743 Y102.716 E2.10108
G1 F1200
G1 X104.276 Y103.207 E2.12237
G1 E0.12237 F2400.00000
G92 E0
G1 X104.750 Y99.525 F7800.000
G1 E2.00000 F2400.00000
G1 F1200
G1 X104.111 Y98.955 E2.00164
G1 X104.116 Y99.021 F7800.000
G1 F1200
G1 X104.572 Y99.325 E2.00839
G1 X104.904 Y99.367 E2.01250
G1 X103.131 Y98.700 F7800.000
G1 F1200
G1 X102.875 Y98.700 E2.01314
G1 X104.207 Y96.156 F7800.000
G1 F1200
G1 X104.087 Y95.940 E2.01687
G1 F1200
G1 X103.935 Y95.695 E2.02052
G1 X103.573 Y95.491 F7800.000
G1 F1200
G1 X104.349 Y96.002 E2.02218
G1 E0.02218 F2400.00000
G92 E0
G1 X110.731 Y104.203 F7800.000
G1 E2.00000 F2400.00000
G1 F1200
G1 X111.130 Y105.231 E2.03488
G1 F1200
G1 X111.336 Y105.635 E2.05064
G1 X111.727 Y106.205 E2.07460
G1 E0.07460 F2400.00000
G92 E0
G1 X89.308 Y104.104 F7800.000
G1 E2.00000 F2400.00000
G1 F1200
G1 X88.870 Y105.233 E2.03688
G1 F1200
G1 X88.664 Y105.637 E2.05200
G1 X88.273 Y106.207 E2.07498
M106 S209.1
G1 Z1.200 F7800.000
G1 E0.07498 F2400.00000
G92 E0
G1 X97.148 Y101.334 F7800.000
G1 E2.00000 F2400.00000
G1 F900
G1 X89.304 Y106.909 E2.19834
G1 X88.927 Y106.501 E2.20979
G1 X89.275 Y106.023 E2.22197
G1 X89.469 Y105.618 E2.23122
G1 X89.535 Y105.401 E2.23589
G1 X89.603 Y104.953 E2.24524
G1 X89.603 Y104.726 E2.24992
G1 X89.560 Y104.294 E2.25886
G1 X96.846 Y100.820 E2.42523
G1 X97.110 Y101.269 E2.43596
G1 X97.571 Y101.600 F7800.000
G1 X95.387 Y103.273 F7800.000
G1 F900
G1 X95.614 Y103.532 E2.44524
G1 X95.319 Y103.850 E2.45694
G1 X94.854 Y104.301 E2.47442
G1 X94.367 Y104.735 E2.49203
G1 X93.870 Y105.141 E2.50935
G1 X93.493 Y105.408 E2.52179
G1 X92.635 Y105.964 E2.54937
G1 X91.980 Y106.364 E2.57007
G1 X90.969 Y106.921 E2.60122
G1 X90.624 Y107.087 E2.61156
G1 X90.445 Y106.785 E2.62102
G1 X95.326 Y103.317 E2.78254
G1 E0.78254 F2400.00000
G92 E0
G1 X96.360 Y100.224 F7800.000
G1 E2.00000 F2400.00000
G1 F900
G1 X90.881 Y102.836 E2.12511
G1 X90.567 Y102.423 E2.13579
G1 X90.929 Y101.967 E2.14780
G1 X91.020 Y101.818 E2.15140
G1 X91.175 Y101.471 E2.15924
G1 X91.241 Y101.233 E2.16431
G1 X91.288 Y100.930 E2.17064
G1 X91.285 Y100.289 E2.18386
G1 X96.206 Y99.693 E2.28601
G1 X96.339 Y100.152 E2.29584
G1 X96.697 Y100.593 F7800.000
G1 X93.216 Y97.714 F7800.000
G1 F900
G1 X92.946 Y97.522 E2.30478
G1 X92.642 Y97.268 E2.31546
G1 X92.426 Y97.056 E2.32364
G1 X92.586 Y96.796 E2.33188
G1 X93.304 Y97.046 E2.35238
G1 X93.226 Y97.640 E2.36854
G1 E0.36854 F2400.00000
G92 E0
G1 X97.262 Y99.041 F7800.000
G1 E2.00000 F2400.00000
G1 F900
G1 X97.872 Y98.960 E2.01660
G1 X97.548 Y99.654 E2.03724
G1 X97.334 Y99.290 E2.04862
G1 X97.283 Y99.113 E2.05360
G1 X96.611 Y99.080 F7800.000
G1 F900
G1 X96.151 Y99.135 E2.06610
G1 X96.572 Y98.587 E2.08476
G1 X96.722 Y98.226 E2.09528
G1 X96.951 Y98.321 E2.10197
G1 X97.405 Y98.381 E2.11433
G1 X97.859 Y98.321 E2.12668
G1 X98.282 Y98.146 E2.13903
G1 X98.645 Y97.867 E2.15138
G1 X98.734 Y97.751 E2.15532
G1 X99.025 Y97.924 E2.16445
G1 X98.292 Y99.582 E2.21336
G1 X98.003 Y100.168 E2.23097
G1 X97.574 Y100.951 E2.25508
G1 X97.069 Y100.093 E2.28195
G1 X96.925 Y100.161 E2.28624
G1 X96.632 Y99.152 E2.31459
G1 X99.861 Y98.246 F7800.000
G1 F900
G1 X99.446 Y96.970 E2.35079
G1 X99.124 Y96.890 E2.35975
G1 X99.177 Y96.484 E2.37080
G1 X100.004 Y96.283 E2.39374
G1 X100.823 Y96.482 E2.41647
G1 X100.888 Y96.975 E2.42990
G1 X100.572 Y97.066 E2.43876
G1 X100.543 Y97.002 E2.44064
G1 X100.138 Y98.246 E2.47593
G1 X99.936 Y98.246 E2.48138
G1 X102.132 Y98.959 F7800.000
G1 F900
G1 X102.738 Y99.039 E2.49788
G1 X102.666 Y99.288 E2.50488
G1 X102.449 Y99.657 E2.51642
G1 X102.163 Y99.027 E2.53507
G1 X103.389 Y99.078 F7800.000
G1 F900
G1 X103.075 Y100.159 E2.56545
G1 X102.931 Y100.091 E2.56973
G1 X102.424 Y100.953 E2.59672
G1 X101.808 Y99.783 E2.63241
G1 X100.945 Y97.886 E2.68861
G1 X101.237 Y97.711 E2.69779
G1 X101.355 Y97.865 E2.70305
G1 X101.718 Y98.144 E2.71540
G1 X102.141 Y98.319 E2.72775
G1 X102.595 Y98.379 E2.74010
G1 X103.049 Y98.319 E2.75245
G1 X103.278 Y98.224 E2.75914
G1 X103.428 Y98.585 E2.76967
G1 X103.849 Y99.133 E2.78832
G1 X103.463 Y99.087 E2.79880
G1 X103.794 Y99.692 F7800.000
G1 F900
G1 X108.725 Y100.288 E2.90117
G1 X108.704 Y100.735 E2.91040
G1 X108.734 Y101.111 E2.91817
G1 X108.826 Y101.471 E2.92583
G1 X108.980 Y101.816 E2.93361
G1 X109.071 Y101.965 E2.93721
G1 X109.433 Y102.422 E2.94922
G1 X109.119 Y102.834 E2.95990
G1 X103.640 Y100.222 E3.08501
G1 X103.773 Y99.764 E3.09484
G1 X103.663 Y99.209 F7800.000
G1 X103.154 Y100.818 F7800.000
G1 F900
G1 X110.440 Y104.293 E3.26121
G1 X110.397 Y104.724 E3.27015
G1 X110.397 Y104.951 E3.27483
G1 X110.465 Y105.400 E3.28418
G1 X110.531 Y105.616 E3.28885
G1 X110.725 Y106.021 E3.29810
G1 X111.073 Y106.499 E3.31029
G1 X110.696 Y106.907 E3.32173
G1 X102.852 Y101.332 E3.52007
G1 X103.116 Y100.883 E3.53081
G1 X103.154 Y100.318 F7800.000
G1 E1.53081 F2400.00000
G92 E0
G1 X106.784 Y97.712 F7800.000
G1 E2.00000 F2400.00000
G1 F900
G1 X106.696 Y97.044 E2.01819
G1 X107.414 Y96.795 E2.03869
G1 X107.574 Y97.054 E2.04692
G1 X107.358 Y97.266 E2.05510
G1 X106.845 Y97.669 E2.07269
G1 X103.521 Y95.126 F7800.000
G1 F900
G1 X103.049 Y94.931 E2.08645
G1 X102.595 Y94.871 E2.09880
G1 X101.816 Y94.974 E2.12000
G1 X103.704 Y91.829 E2.21895
G1 X103.987 Y91.799 E2.22662
G1 X104.738 Y91.776 E2.24688
G1 X104.826 Y92.049 E2.25460
G1 X104.360 Y92.365 E2.26980
G1 X103.898 Y92.899 E2.28886
G1 X103.589 Y93.535 E2.30793
G1 X103.456 Y94.230 E2.32700
G1 X103.515 Y95.051 E2.34923
G1 E0.34923 F2400.00000
G92 E0
G1 X98.184 Y94.976 F7800.000
G1 E2.00000 F2400.00000
G1 F900
G1 X97.405 Y94.873 E2.02119
G1 X96.951 Y94.933 E2.03355
G1 X96.479 Y95.128 E2.04731
G1 X96.544 Y94.231 E2.07157
G1 X96.411 Y93.537 E2.09063
G1 X96.102 Y92.901 E2.10970
G1 X95.640 Y92.367 E2.12877
G1 X95.176 Y92.052 E2.14389
G1 X95.261 Y91.781 E2.15154
G1 X95.782 Y91.788 E2.16560
G1 X96.299 Y91.836 E2.17961
G1 X98.145 Y94.911 E2.27637
G1 E0.27637 F2400.00000
G92 E0
G1 X90.097 Y102.731 F7800.000
G1 E2.00000 F2400.00000
G1 F900
G1 X90.479 Y103.235 E2.01707
G1 X90.010 Y103.459 E2.03111
G1 X89.819 Y103.261 E2.03852
G1 X90.062 Y102.797 E2.05263
G1 X88.017 Y106.343 F7800.000
G1 F900
G1 X89.270 Y107.697 E2.10238
G1 X88.993 Y107.812 E2.11047
G1 X88.534 Y107.963 E2.12351
G1 X87.805 Y108.133 E2.14370
G1 X87.606 Y108.159 E2.14911
G1 X87.531 Y107.801 E2.15896
G1 X87.528 Y107.493 E2.16727
G1 X87.557 Y107.258 E2.17366
G1 X87.657 Y106.939 E2.18269
G1 X87.728 Y106.791 E2.18710
G1 X87.976 Y106.406 E2.19946
G1 E0.19946 F2400.00000
G92 E0
G1 X104.393 Y103.533 F7800.000
G1 E2.00000 F2400.00000
G1 F900
G1 X104.620 Y103.276 E2.00925
G1 X109.555 Y106.783 E2.17257
G1 X109.376 Y107.085 E2.18203
G1 X109.031 Y106.919 E2.19237
G1 X108.020 Y106.362 E2.22352
G1 X107.365 Y105.962 E2.24422
G1 X106.507 Y105.406 E2.27180
G1 X106.130 Y105.139 E2.28424
G1 X105.633 Y104.733 E2.30156
G1 X105.146 Y104.299 E2.31917
G1 X104.682 Y103.850 E2.33658
G1 X104.443 Y103.588 E2.34613
G1 X110.730 Y107.695 F7800.000
G1 F900
G1 X111.983 Y106.341 E2.39588
G1 X112.272 Y106.790 E2.41027
G1 X112.403 Y107.099 E2.41933
G1 X112.445 Y107.267 E2.42399
G1 X112.479 Y107.594 E2.43286
G1 X112.452 Y107.900 E2.44117
G1 X112.394 Y108.157 E2.44826
G1 X112.195 Y108.131 E2.45366
G1 X111.466 Y107.961 E2.47385
G1 X110.800 Y107.724 E2.49294
G1 E0.49294 F2400.00000
G92 E0
G1 X110.181 Y103.259 F7800.000
G1 E2.00000 F2400.00000
G1 F900
G1 X109.990 Y103.457 E2.00741
G1 X109.521 Y103.233 E2.02145
G1 X109.903 Y102.729 E2.03852
G1 X110.146 Y103.192 E2.05263
G1 E0.05263 F2400.00000
G92 E0
G1 X105.210 Y99.580 F7800.000
G1 E2.00000 F2400.00000
G1 F1800
G1 X109.194 Y99.581 E2.08209
G1 X109.627 Y100.720 E2.10721
G1 X110.090 Y101.791 E2.13126
G1 X110.498 Y102.656 E2.15098
G1 X111.153 Y103.908 E2.18009
G1 X111.504 Y104.524 E2.19471
G1 X111.869 Y105.131 E2.20932
G1 X112.762 Y106.514 E2.24324
G1 X112.860 Y106.718 E2.24790
G1 X112.996 Y107.155 E2.25732
G1 X113.041 Y107.604 E2.26664
G1 X113.007 Y107.988 E2.27458
G1 X112.938 Y108.290 E2.28097
G1 X112.861 Y108.502 E2.28561
G1 X112.734 Y108.765 E2.29163
G1 X112.096 Y108.684 E2.30488
G1 X111.315 Y108.501 E2.32141
G1 X110.812 Y108.336 E2.33233
G1 X109.838 Y107.930 E2.35408
G1 X108.774 Y107.417 E2.37842
G1 X107.738 Y106.847 E2.40278
G1 X107.066 Y106.436 E2.41901
G1 X106.192 Y105.870 E2.44048
G1 X105.791 Y105.586 E2.45062
G1 X105.269 Y105.160 E2.46449
G1 X104.764 Y104.710 E2.47844
G1 X104.280 Y104.240 E2.49233
G1 X103.524 Y103.414 E2.51541
G1 X102.947 Y102.706 E2.53424
G1 X102.550 Y102.160 E2.54816
G1 X102.175 Y101.597 E2.56210
G1 X101.826 Y101.020 E2.57600
G1 X101.304 Y100.029 E2.59907
G1 X100.630 Y98.547 E2.63264
G1 X100.130 Y100.084 E2.66595
G1 X99.870 Y100.086 E2.67131
G1 X99.367 Y98.538 E2.70486
G1 X98.800 Y99.820 E2.73375
G1 X98.501 Y100.427 E2.74770
G1 X98.175 Y101.020 E2.76164
G1 X97.825 Y101.599 E2.77559
G1 X97.450 Y102.162 E2.78953
G1 X97.053 Y102.707 E2.80343
G1 X96.341 Y103.571 E2.82650
G1 X95.721 Y104.242 E2.84534
G1 X95.236 Y104.712 E2.85925
G1 X94.731 Y105.162 E2.87320
G1 X94.209 Y105.587 E2.88707
G1 X93.808 Y105.872 E2.89721
G1 X92.934 Y106.438 E2.91868
G1 X92.262 Y106.849 E2.93491
G1 X91.226 Y107.419 E2.95927
G1 X90.162 Y107.932 E2.98361
G1 X89.188 Y108.338 E3.00536
G1 X88.685 Y108.503 E3.01628
G1 X87.904 Y108.686 E3.03281
G1 X87.266 Y108.767 E3.04606
G1 X87.139 Y108.504 E3.05208
G1 X87.061 Y108.289 E3.05680
G1 X86.971 Y107.846 E3.06611
G1 X86.967 Y107.461 E3.07405
G1 X87.005 Y107.153 E3.08044
G1 X87.140 Y106.720 E3.08979
G1 X87.238 Y106.516 E3.09445
G1 X88.131 Y105.133 E3.12837
G1 X88.496 Y104.526 E3.14298
G1 X88.847 Y103.910 E3.15760
G1 X89.502 Y102.657 E3.18673
G1 X90.098 Y101.374 E3.21589
G1 X90.632 Y100.065 E3.24502
G1 X90.809 Y99.583 E3.25562
G1 X94.790 Y99.582 E3.33766
G1 X94.866 Y98.900 E3.35180
G1 X95.016 Y98.920 E3.35492
G1 X95.335 Y98.878 E3.36154
G1 X95.632 Y98.755 E3.36816
G1 X95.887 Y98.559 E3.37479
G1 X96.083 Y98.304 E3.38141
G1 X96.205 Y98.007 E3.38804
G1 X96.247 Y97.688 E3.39466
G1 X96.203 Y97.351 E3.40167
G1 X96.410 Y97.266 E3.40628
G1 X96.564 Y97.467 E3.41151
G1 X96.810 Y97.656 E3.41791
G1 X97.097 Y97.775 E3.42430
G1 X97.405 Y97.815 E3.43069
G1 X97.712 Y97.775 E3.43709
G1 X97.999 Y97.656 E3.44348
G1 X98.245 Y97.467 E3.44988
G1 X98.434 Y97.221 E3.45627
G1 X98.553 Y96.935 E3.46266
G1 X98.593 Y96.627 E3.46906
G1 X98.553 Y96.319 E3.47545
G1 X98.434 Y96.033 E3.48185
G1 X98.245 Y95.787 E3.48824
G1 X97.999 Y95.598 E3.49463
G1 X97.712 Y95.479 E3.50103
G1 X97.405 Y95.439 E3.50742
G1 X97.097 Y95.479 E3.51382
G1 X96.810 Y95.598 E3.52021
G1 X96.564 Y95.787 E3.52661
G1 X96.375 Y96.033 E3.53300
G1 X96.257 Y96.319 E3.53939
G1 X96.216 Y96.627 E3.54579
G1 X96.258 Y96.947 E3.55245
G1 X96.052 Y97.033 E3.55705
G1 X95.887 Y96.818 E3.56264
G1 X95.632 Y96.622 E3.56926
G1 X95.335 Y96.499 E3.57589
G1 X94.942 Y96.448 E3.58405
G1 X94.908 Y96.234 E3.58852
G1 X95.019 Y96.179 E3.59107
G1 X95.442 Y95.814 E3.60260
G1 X95.756 Y95.351 E3.61413
G1 X95.939 Y94.822 E3.62565
G1 X95.980 Y94.265 E3.63718
G1 X95.874 Y93.715 E3.64870
G1 X95.630 Y93.212 E3.66023
G1 X95.264 Y92.789 E3.67175
G1 X94.801 Y92.476 E3.68328
G1 X94.273 Y92.292 E3.69480
G1 X93.715 Y92.252 E3.70633
G1 X93.166 Y92.357 E3.71786
G1 X92.663 Y92.601 E3.72938
G1 X92.240 Y92.967 E3.74091
G1 X91.926 Y93.430 E3.75243
G1 X91.743 Y93.958 E3.76396
G1 X91.703 Y94.516 E3.77548
G1 X91.808 Y95.065 E3.78701
G1 X92.052 Y95.569 E3.79853
G1 X92.418 Y95.991 E3.81006
G1 X92.881 Y96.305 E3.82159
G1 X93.409 Y96.489 E3.83311
G1 X93.967 Y96.529 E3.84464
G1 X94.217 Y96.481 E3.84988
G1 X94.311 Y96.691 E3.85463
G1 X94.146 Y96.818 E3.85892
G1 X93.950 Y97.073 E3.86555
G1 X93.827 Y97.370 E3.87217
G1 X93.785 Y97.688 E3.87879
G1 X93.827 Y98.007 E3.88542
G1 X93.950 Y98.304 E3.89204
G1 X94.166 Y98.585 E3.89933
G1 X94.031 Y98.762 E3.90392
G1 X93.734 Y98.643 E3.91051
G1 X93.340 Y98.447 E3.91958
G1 X92.962 Y98.221 E3.92865
G1 X92.604 Y97.966 E3.93772
G1 X92.266 Y97.684 E3.94679
G1 X91.952 Y97.377 E3.95585
G1 X91.662 Y97.045 E3.96492
G1 X91.400 Y96.692 E3.97399
G1 X91.250 Y96.454 E3.97979
G1 X90.963 Y95.931 E3.99208
G1 X90.809 Y95.533 E4.00088
G1 X90.757 Y95.339 E4.00502
G1 X90.704 Y94.996 E4.01217
G1 X90.696 Y94.497 E4.02245
G1 X90.757 Y94.084 E4.03106
G1 X90.879 Y93.684 E4.03969
G1 X91.112 Y93.204 E4.05068
G1 X91.281 Y92.939 E4.05716
G1 X91.473 Y92.685 E4.06372
G1 X91.683 Y92.451 E4.07019
G1 X92.080 Y92.099 E4.08113
G1 X92.432 Y91.851 E4.09001
G1 X92.707 Y91.697 E4.09651
G1 X92.997 Y91.565 E4.10307
G1 X93.296 Y91.457 E4.10963
G1 X93.603 Y91.374 E4.11619
G1 X94.387 Y91.261 E4.13251
G1 X95.100 Y91.219 E4.14723
G1 X95.811 Y91.227 E4.16189
G1 X96.633 Y91.304 E4.17891
G1 X99.369 Y95.860 E4.28843
G1 X99.833 Y95.748 E4.29828
G1 X99.863 Y95.274 E4.30806
G1 X100.137 Y95.274 E4.31369
G1 X100.167 Y95.746 E4.32343
G1 X100.631 Y95.858 E4.33328
G1 X103.368 Y91.301 E4.44284
G1 X103.949 Y91.239 E4.45489
G1 X104.745 Y91.215 E4.47130
G1 X105.614 Y91.259 E4.48924
G1 X106.081 Y91.314 E4.49892
G1 X106.397 Y91.372 E4.50554
G1 X106.704 Y91.455 E4.51210
G1 X107.003 Y91.563 E4.51866
G1 X107.293 Y91.695 E4.52522
G1 X107.571 Y91.851 E4.53178
G1 X107.835 Y92.028 E4.53834
G1 X108.083 Y92.227 E4.54490
G1 X108.315 Y92.446 E4.55147
G1 X108.527 Y92.683 E4.55803
G1 X108.719 Y92.937 E4.56459
G1 X108.890 Y93.206 E4.57115
G1 X109.036 Y93.483 E4.57762
G1 X109.189 Y93.879 E4.58637
G1 X109.282 Y94.289 E4.59502
G1 X109.313 Y94.707 E4.60367
G1 X109.282 Y95.126 E4.61233
G1 X109.189 Y95.536 E4.62098
G1 X109.036 Y95.932 E4.62973
G1 X108.834 Y96.317 E4.63870
G1 X108.600 Y96.690 E4.64777
G1 X108.338 Y97.043 E4.65684
G1 X108.048 Y97.375 E4.66591
G1 X107.734 Y97.682 E4.67498
G1 X107.396 Y97.965 E4.68405
G1 X107.038 Y98.219 E4.69311
G1 X106.660 Y98.445 E4.70218
G1 X106.266 Y98.641 E4.71125
G1 X105.969 Y98.760 E4.71785
G1 X105.834 Y98.583 E4.72243
G1 X106.050 Y98.302 E4.72972
G1 X106.173 Y98.005 E4.73635
G1 X106.215 Y97.687 E4.74297
G1 X106.173 Y97.368 E4.74959
G1 X106.050 Y97.071 E4.75622
G1 X105.854 Y96.816 E4.76284
G1 X105.689 Y96.689 E4.76713
G1 X105.783 Y96.479 E4.77188
G1 X106.033 Y96.527 E4.77713
G1 X106.591 Y96.487 E4.78865
G1 X107.119 Y96.303 E4.80018
G1 X107.582 Y95.990 E4.81170
G1 X107.948 Y95.567 E4.82323
G1 X108.192 Y95.063 E4.83475
G1 X108.297 Y94.514 E4.84628
G1 X108.257 Y93.957 E4.85780
G1 X108.074 Y93.428 E4.86933
G1 X107.760 Y92.965 E4.88086
G1 X107.337 Y92.599 E4.89238
G1 X106.834 Y92.355 E4.90391
G1 X106.285 Y92.250 E4.91543
G1 X105.727 Y92.290 E4.92696
G1 X105.199 Y92.474 E4.93848
G1 X104.736 Y92.787 E4.95001
G1 X104.370 Y93.210 E4.96154
G1 X104.126 Y93.714 E4.97306
G1 X104.020 Y94.263 E4.98459
G1 X104.061 Y94.820 E4.99611
G1 X104.244 Y95.349 E5.00764
G1 X104.558 Y95.812 E5.01916
G1 X104.981 Y96.178 E5.03069
G1 X105.092 Y96.232 E5.03324
G1 X105.058 Y96.446 E5.03771
G1 X104.665 Y96.497 E5.04588
G1 X104.368 Y96.620 E5.05250
G1 X104.113 Y96.816 E5.05912
G1 X103.948 Y97.031 E5.06471
G1 X103.742 Y96.945 E5.06932
G1 X103.784 Y96.625 E5.07598
G1 X103.743 Y96.318 E5.08237
G1 X103.625 Y96.031 E5.08876
G1 X103.436 Y95.785 E5.09516
G1 X103.190 Y95.596 E5.10155
G1 X102.903 Y95.477 E5.10795
G1 X102.595 Y95.437 E5.11434
G1 X102.288 Y95.477 E5.12073
G1 X102.001 Y95.596 E5.12713
G1 X101.755 Y95.785 E5.13352
G1 X101.566 Y96.031 E5.13992
G1 X101.447 Y96.318 E5.14631
G1 X101.407 Y96.625 E5.15270
G1 X101.447 Y96.933 E5.15910
G1 X101.566 Y97.219 E5.16549
G1 X101.755 Y97.465 E5.17189
G1 X102.001 Y97.654 E5.17828
G1 X102.288 Y97.773 E5.18468
G1 X102.595 Y97.814 E5.19107
G1 X102.903 Y97.773 E5.19746
G1 X103.190 Y97.654 E5.20386
G1 X103.436 Y97.465 E5.21025
G1 X103.590 Y97.264 E5.21549
G1 X103.797 Y97.349 E5.22010
G1 X103.753 Y97.687 E5.22710
G1 X103.795 Y98.005 E5.23373
G1 X103.917 Y98.302 E5.24035
G1 X104.113 Y98.557 E5.24697
G1 X104.368 Y98.753 E5.25360
G1 X104.665 Y98.876 E5.26022
G1 X104.984 Y98.918 E5.26685
G1 X105.134 Y98.898 E5.26996
G1 X105.202 Y99.505 E5.28256
G1 X105.265 Y100.077 F7800.000
G1 E3.28256 F2400.00000
G92 E0
G1 X100.000 Y92.873 F7800.000
G1 E2.00000 F2400.00000
G1 F1800
G1 X100.000 Y93.936 E2.02615
G1 F1800
G1 X100.000 Y94.999 E2.05661
G1 X100.365 Y100.531 F7800.000
G1 F1800
G1 X100.467 Y101.042 E2.06416
G1 X100.607 Y101.550 E2.07178
G1 X100.809 Y102.137 E2.08077
G1 X101.162 Y102.938 E2.09344
G1 X101.658 Y103.814 E2.10801
G1 E0.10801 F2400.00000
G92 E0
G1 X98.342 Y103.816 F7800.000
G1 E2.00000 F2400.00000
G1 F1800
G1 X98.678 Y103.250 E2.00857
G1 X99.076 Y102.429 E2.02045
G1 X99.347 Y101.694 E2.03066
G1 X99.506 Y101.149 E2.03806
G1 X99.634 Y100.533 E2.04625
G1 E0.04625 F2400.00000
G92 E0
G1 X97.540 Y101.448 F7800.000
G1 E2.00000 F2400.00000
G1 F1200
G1 X97.360 Y101.634 E2.00085
G1 F1200
G1 X97.181 Y101.819 E2.00266
G1 F1200
G1 X96.997 Y102.004 E2.00544
G1 F1200
G1 X96.810 Y102.189 E2.00918
G1 F1200
G1 X96.623 Y102.374 E2.01387
G1 F1200
G1 X96.259 Y102.713 E2.02459
G1 F1200
G1 X95.896 Y103.051 E2.03722
G1 F1200
G1 X95.714 Y103.221 E2.04450
G1 E0.04450 F2400.00000
G92 E0
G1 X96.722 Y100.465 F7800.000
G1 E2.00000 F2400.00000
G1 F1200
G1 X90.853 Y103.264 E2.03383
G1 X90.126 Y102.306 F7800.000
G1 F1200
G1 X90.256 Y102.097 E2.03692
G1 F1200
G1 X90.566 Y101.580 E2.04682
G1 X90.688 Y101.295 E2.05189
G1 X90.778 Y101.010 E2.05680
G1 F1200
G1 X90.833 Y100.776 E2.06018
G1 F1200
G1 X90.878 Y100.541 E2.06260
G1 F1200
G1 X90.924 Y100.306 E2.06406
G1 F1200
G1 X90.969 Y100.060 E2.06459
G1 X90.971 Y99.953 F7800.000
G1 F1200
G1 X91.817 Y99.902 E2.06684
G1 E0.06684 F2400.00000
G92 E0
G1 X92.293 Y96.739 F7800.000
G1 E2.00000 F2400.00000
G1 F1200
G1 X91.973 Y96.425 E2.01153
G1 X91.765 Y96.151 E2.02039
G1 F1200
G1 X91.599 Y95.912 E2.02706
G1 F1200
G1 X91.479 Y95.691 E2.03221
G1 X91.302 Y95.270 E2.04157
G1 F1200
G1 X91.240 Y94.950 E2.04731
G1 X91.201 Y94.575 E2.05396
G1 F1200
G1 X91.264 Y94.040 E2.06203
G1 F1200
G1 X91.302 Y93.850 E2.06434
G1 X91.393 Y93.628 E2.06719
G1 F1200
G1 X91.555 Y93.262 E2.07100
G1 F1200
G1 X91.950 Y92.720 E2.07581
G1 X92.317 Y92.398 E2.07932
G1 X92.640 Y92.180 E2.08211
G1 X93.055 Y91.974 E2.08544
G1 F1200
G1 X93.426 Y91.868 E2.08933
G1 F1200
G1 X93.701 Y91.806 E2.09292
G1 X93.850 Y91.798 E2.09482
G1 F1200
G1 X94.169 Y91.787 E2.09980
G1 F1200
G1 X94.433 Y91.788 E2.10466
G1 F1200
G1 X94.943 Y91.859 E2.11598
G1 X95.985 Y92.126 F7800.000
G1 F1200
G1 X96.408 Y92.709 E2.11805
G1 X96.415 Y92.725 F7800.000
G1 F1200
G1 X96.782 Y93.404 E2.12083
G1 F1200
G1 X96.838 Y93.547 E2.12171
G1 F1200
G1 X96.934 Y93.797 E2.12432
G1 F1200
G1 X97.029 Y94.047 E2.12798
G1 F1200
G1 X97.203 Y94.579 E2.13745
G1 X98.056 Y95.278 F7800.000
G1 F1200
G1 X98.850 Y95.541 E2.13895
G1 X99.033 Y96.230 F7800.000
G1 F1200
G1 X98.831 Y95.829 E2.14473
G1 X98.611 Y95.500 E2.14982
G1 X98.106 Y95.248 E2.15707
G1 X96.427 Y95.493 F7800.000
G1 F1200
G1 X95.651 Y96.004 E2.15852
G1 X95.793 Y96.158 F7800.000
G1 F1200
G1 X95.898 Y95.971 E2.16161
G1 F1200
G1 X96.065 Y95.697 E2.16536
G1 X96.869 Y98.701 F7800.000
G1 F1200
G1 X97.125 Y98.701 E2.16599
G1 X95.889 Y98.957 F7800.000
G1 F1200
G1 X95.250 Y99.527 E2.16743
G1 X95.096 Y99.369 F7800.000
G1 F1200
G1 X95.428 Y99.327 E2.17151
G1 X95.884 Y99.023 E2.17818
G1 X100.671 Y97.515 F7800.000
G1 F1200
G1 X101.276 Y97.252 E2.18365
G1 X100.967 Y96.228 F7800.000
G1 F1200
G1 X101.169 Y95.827 E2.18893
G1 X101.389 Y95.499 E2.19358
G1 X101.894 Y95.246 E2.20021
G1 X101.944 Y95.277 F7800.000
G1 F1200
G1 X101.150 Y95.539 E2.20151
G1 X102.797 Y94.577 F7800.000
G1 F1200
G1 X102.962 Y94.068 E2.20991
G1 F1200
G1 X103.040 Y93.864 E2.21262
G1 X103.040 Y93.864 F7800.000
G1 F1200
G1 X103.125 Y93.642 E2.21478
G1 F1200
G1 X103.210 Y93.420 E2.21610
G1 F1200
G1 X103.585 Y92.723 E2.21785
G1 X103.592 Y92.708 F7800.000
G1 F1200
G1 X103.950 Y92.214 E2.22021
G1 X104.145 Y92.112 E2.22106
G1 X105.059 Y91.859 F7800.000
G1 F1200
G1 X105.570 Y91.786 E2.23144
G1 F1200
G1 X105.898 Y91.786 E2.23703
G1 F1200
G1 X106.150 Y91.796 E2.24062
G1 F1200
G1 X106.299 Y91.805 E2.24224
G1 X106.574 Y91.866 E2.24531
G1 F1200
G1 X106.945 Y91.972 E2.24847
G1 F1200
G1 X107.554 Y92.292 E2.25235
G1 X108.053 Y92.722 E2.25607
G1 F1200
G1 X108.445 Y93.260 E2.26132
G1 F1200
G1 X108.629 Y93.668 E2.26640
G1 F1200
G1 X108.736 Y94.017 E2.27137
G1 F1200
G1 X108.798 Y94.573 E2.28041
G1 F1200
G1 X108.746 Y95.046 E2.28967
G1 X108.695 Y95.266 E2.29406
G1 F1200
G1 X108.517 Y95.697 E2.30423
G1 X108.403 Y95.912 E2.30956
G1 F1200
G1 X108.209 Y96.184 E2.31774
G1 F1200
G1 X108.027 Y96.423 E2.32583
G1 X107.707 Y96.736 E2.33786
G1 E0.33786 F2400.00000
G92 E0
G1 X108.183 Y99.900 F7800.000
G1 E2.00000 F2400.00000
G1 F1200
G1 X109.035 Y99.952 E2.00383
G1 X109.014 Y100.117 F7800.000
G1 F1200
G1 X109.191 Y100.901 E2.01472
G1 F1200
G1 X109.316 Y101.301 E2.02163
G1 X109.437 Y101.576 E2.02660
G1 X109.578 Y101.826 E2.03135
G1 F1200
G1 X109.873 Y102.306 E2.03839
G1 X109.147 Y103.262 F7800.000
G1 F1200
G1 X103.278 Y100.463 E2.07222
G1 X102.460 Y101.446 F7800.000
G1 F1200
G1 X102.550 Y101.539 E2.07265
G1 F1200
G1 X102.729 Y101.724 E2.07445
G1 F1200
G1 X102.909 Y101.910 E2.07721
G1 F1200
G1 X103.097 Y102.095 E2.08097
G1 F1200
G1 X103.285 Y102.281 E2.08568
G1 F1200
G1 X103.505 Y102.492 E2.09229
G1 F1200
G1 X103.758 Y102.729 E2.10117
G1 F1200
G1 X104.012 Y102.967 E2.11143
G1 X104.001 Y103.520 E2.12778
G1 E0.12778 F2400.00000
G92 E0
G1 X104.750 Y99.525 F7800.000
G1 E2.00000 F2400.00000
G1 F1200
G1 X104.111 Y98.955 E2.00164
G1 X104.116 Y99.021 F7800.000
G1 F1200
G1 X104.572 Y99.325 E2.00839
G1 X104.904 Y99.367 E2.01250
G1 X103.131 Y98.700 F7800.000
G1 F1200
G1 X102.875 Y98.700 E2.01314
G1 X104.207 Y96.157 F7800.000
G1 F1200
G1 X104.064 Y95.897 E2.01761
G1 X104.064 Y95.897 F7800.000
G1 F1200
G1 X103.935 Y95.695 E2.02054
G1 X103.573 Y95.491 F7800.000
G1 F1200
G1 X104.349 Y96.002 E2.02220
G1 E0.02220 F2400.00000
G92 E0
G1 X110.731 Y104.203 F7800.000
G1 E2.00000 F2400.00000
G1 F1200
G1 X111.130 Y105.231 E2.03488
G1 F1200
G1 X111.336 Y105.635 E2.05064
G1 X111.727 Y106.205 E2.07460
G1 E0.07460 F2400.00000
G92 E0
G1 X89.308 Y104.104 F7800.000
G1 E2.00000 F2400.00000
G1 F1200
G1 X88.870 Y105.233 E2.03688
G1 F1200
G1 X88.664 Y105.637 E2.05200
G1 X88.273 Y106.207 E2.07498
G1 Z1.500 F7800.000
G1 E0.07498 F2400.00000
G92 E0
G1 X97.148 Y101.334 F7800.000
G1 E2.00000 F2400.00000
G1 F900
G1 X89.304 Y106.909 E2.19834
G1 X88.927 Y106.501 E2.20979
G1 X89.275 Y106.023 E2.22197
G1 X89.469 Y105.618 E2.23122
G1 X89.535 Y105.401 E2.23589
G1 X89.603 Y104.953 E2.24524
G1 X89.603 Y104.726 E2.24992
G1 X89.560 Y104.294 E2.25886
G1 X96.846 Y100.820 E2.42523
G1 X97.110 Y101.269 E2.43596
G1 X97.576 Y101.592 F7800.000
G1 X95.401 Y103.263 F7800.000
G1 F900
G1 X95.628 Y103.524 E2.44529
G1 X94.854 Y104.301 E2.47486
G1 X94.367 Y104.735 E2.49247
G1 X93.870 Y105.141 E2.50978
G1 X93.493 Y105.408 E2.52223
G1 X92.635 Y105.964 E2.54981
G1 X91.980 Y106.364 E2.57051
G1 X90.969 Y106.921 E2.60165
G1 X90.624 Y107.087 E2.61200
G1 X90.445 Y106.785 E2.62145
G1 X95.340 Y103.307 E2.78343
G1 E0.78343 F2400.00000
G92 E0
G1 X96.360 Y100.224 F7800.000
G1 E2.00000 F2400.00000
G1 F900
G1 X90.881 Y102.836 E2.12511
G1 X90.567 Y102.423 E2.13579
G1 X90.929 Y101.967 E2.14780
G1 X91.020 Y101.818 E2.15140
G1 X91.176 Y101.468 E2.15930
G1 X91.226 Y101.301 E2.16289
G1 X91.288 Y100.929 E2.17067
G1 X91.285 Y100.289 E2.18386
G1 X96.206 Y99.693 E2.28601
G1 X96.339 Y100.152 E2.29585
G1 X96.700 Y100.590 F7800.000
G1 X93.215 Y97.722 F7800.000
G1 F900
G1 X92.635 Y97.261 E2.31584
G1 X92.426 Y97.056 E2.32374
G1 X92.586 Y96.796 E2.33198
G1 X93.304 Y97.046 E2.35248
G1 X93.225 Y97.648 E2.36887
G1 E0.36887 F2400.00000
G92 E0
G1 X97.262 Y99.041 F7800.000
G1 E2.00000 F2400.00000
G1 F900
G1 X97.872 Y98.960 E2.01660
G1 X97.548 Y99.654 E2.03724
G1 X97.334 Y99.290 E2.04862
G1 X97.283 Y99.113 E2.05360
G1 X96.611 Y99.080 F7800.000
G1 F900
G1 X96.151 Y99.135 E2.06610
G1 X96.572 Y98.587 E2.08476
G1 X96.722 Y98.226 E2.09528
G1 X96.951 Y98.321 E2.10197
G1 X97.405 Y98.381 E2.11433
G1 X97.859 Y98.321 E2.12668
G1 X98.282 Y98.146 E2.13903
G1 X98.645 Y97.867 E2.15138
G1 X98.734 Y97.751 E2.15532
G1 X99.025 Y97.924 E2.16445
G1 X98.292 Y99.582 E2.21336
G1 X98.003 Y100.168 E2.23097
G1 X97.574 Y100.951 E2.25508
G1 X97.069 Y100.093 E2.28195
G1 X96.925 Y100.161 E2.28624
G1 X96.632 Y99.152 E2.31459
G1 X99.861 Y98.246 F7800.000
G1 F900
G1 X99.446 Y96.970 E2.35079
G1 X99.124 Y96.890 E2.35975
G1 X99.177 Y96.484 E2.37080
G1 X100.004 Y96.283 E2.39375
G1 X100.823 Y96.482 E2.41647
G1 X100.876 Y96.888 E2.42753
G1 X100.554 Y96.968 E2.43649
G1 X100.138 Y98.246 E2.47274
G1 X99.936 Y98.246 E2.47819
G1 X102.128 Y98.959 F7800.000
G1 F900
G1 X102.738 Y99.039 E2.49479
G1 X102.666 Y99.288 E2.50179
G1 X102.452 Y99.652 E2.51317
G1 X102.158 Y99.027 E2.53179
G1 X103.389 Y99.078 F7800.000
G1 F900
G1 X103.075 Y100.159 E2.56217
G1 X102.931 Y100.091 E2.56645
G1 X102.426 Y100.949 E2.59332
G1 X101.997 Y100.166 E2.61744
G1 X101.708 Y99.581 E2.63504
G1 X100.975 Y97.922 E2.68395
G1 X101.266 Y97.749 E2.69308
G1 X101.355 Y97.865 E2.69703
G1 X101.718 Y98.144 E2.70938
G1 X102.141 Y98.319 E2.72173
G1 X102.595 Y98.379 E2.73408
G1 X103.049 Y98.319 E2.74643
G1 X103.278 Y98.224 E2.75312
G1 X103.428 Y98.585 E2.76365
G1 X103.849 Y99.133 E2.78230
G1 X103.463 Y99.087 E2.79278
G1 X103.794 Y99.692 F7800.000
G1 F900
G1 X108.719 Y100.287 E2.89502
G1 X108.707 Y100.824 E2.90608
G1 X108.734 Y101.110 E2.91199
G1 X108.826 Y101.471 E2.91968
G1 X108.980 Y101.816 E2.92746
G1 X109.071 Y101.965 E2.93106
G1 X109.433 Y102.422 E2.94307
G1 X109.119 Y102.834 E2.95376
G1 X103.640 Y100.222 E3.07886
G1 X103.773 Y99.764 E3.08870
G1 X103.663 Y99.209 F7800.000
G1 X103.154 Y100.818 F7800.000
G1 F900
G1 X110.440 Y104.293 E3.25507
G1 X110.397 Y104.724 E3.26401
G1 X110.397 Y104.951 E3.26868
G1 X110.465 Y105.400 E3.27803
G1 X110.531 Y105.616 E3.28271
G1 X110.725 Y106.021 E3.29196
G1 X111.073 Y106.499 E3.30414
G1 X110.696 Y106.907 E3.31559
G1 X102.852 Y101.332 E3.51392
G1 X103.116 Y100.883 E3.52466
G1 X103.154 Y100.318 F7800.000
G1 E1.52466 F2400.00000
G92 E0
G1 X106.784 Y97.712 F7800.000
G1 E2.00000 F2400.00000
G1 F900
G1 X106.696 Y97.044 E2.01819
G1 X107.414 Y96.795 E2.03869
G1 X107.574 Y97.054 E2.04692
G1 X107.358 Y97.266 E2.05510
G1 X106.845 Y97.669 E2.07269
G1 X103.521 Y95.126 F7800.000
G1 F900
G1 X103.049 Y94.931 E2.08645
G1 X102.595 Y94.871 E2.09880
G1 X101.816 Y94.974 E2.12000
G1 X103.704 Y91.829 E2.21895
G1 X103.987 Y91.799 E2.22660
G1 X104.737 Y91.777 E2.24685
G1 X104.825 Y92.050 E2.25457
G1 X104.360 Y92.365 E2.26972
G1 X103.898 Y92.899 E2.28879
G1 X103.589 Y93.535 E2.30786
G1 X103.456 Y94.230 E2.32692
G1 X103.515 Y95.051 E2.34915
G1 E0.34915 F2400.00000
G92 E0
G1 X98.184 Y94.976 F7800.000
G1 E2.00000 F2400.00000
G1 F900
G1 X97.405 Y94.873 E2.02119
G1 X96.951 Y94.933 E2.03355
G1 X96.479 Y95.128 E2.04731
G1 X96.544 Y94.231 E2.07156
G1 X96.411 Y93.537 E2.09063
G1 X96.102 Y92.901 E2.10970
G1 X95.640 Y92.367 E2.12877
G1 X95.176 Y92.052 E2.14389
G1 X95.261 Y91.781 E2.15154
G1 X95.782 Y91.788 E2.16560
G1 X96.299 Y91.836 E2.17961
G1 X98.145 Y94.911 E2.27637
G1 E0.27637 F2400.00000
G92 E0
G1 X90.097 Y102.731 F7800.000
G1 E2.00000 F2400.00000
G1 F900
G1 X90.479 Y103.235 E2.01707
G1 X90.010 Y103.459 E2.03111
G1 X89.819 Y103.261 E2.03852
G1 X90.062 Y102.797 E2.05263
G1 X88.017 Y106.343 F7800.000
G1 F900
G1 X89.270 Y107.697 E2.10238
G1 X88.993 Y107.812 E2.11047
G1 X88.534 Y107.963 E2.12351
G1 X87.805 Y108.133 E2.14370
G1 X87.614 Y108.157 E2.14888
G1 X87.528 Y107.785 E2.15920
G1 X87.529 Y107.439 E2.16852
G1 X87.555 Y107.268 E2.17318
G1 X87.597 Y107.101 E2.17785
G1 X87.728 Y106.791 E2.18691
G1 X87.976 Y106.406 E2.19927
G1 E0.19927 F2400.00000
G92 E0
G1 X104.391 Y103.532 F7800.000
G1 E2.00000 F2400.00000
G1 F900
G1 X104.618 Y103.275 E2.00926
G1 X109.555 Y106.783 E2.17265
G1 X109.376 Y107.085 E2.18210
G1 X109.031 Y106.919 E2.19245
G1 X108.020 Y106.362 E2.22359
G1 X107.365 Y105.962 E2.24429
G1 X106.507 Y105.406 E2.27187
G1 X106.130 Y105.139 E2.28432
G1 X105.633 Y104.733 E2.30163
G1 X105.146 Y104.299 E2.31924
G1 X104.682 Y103.849 E2.33667
G1 X104.442 Y103.587 E2.34626
G1 X110.730 Y107.695 F7800.000
G1 F900
G1 X111.983 Y106.341 E2.39601
G1 X112.272 Y106.790 E2.41039
G1 X112.403 Y107.099 E2.41946
G1 X112.445 Y107.267 E2.42412
G1 X112.479 Y107.595 E2.43303
G1 X112.455 Y107.879 E2.44071
G1 X112.393 Y108.157 E2.44839
G1 X112.195 Y108.131 E2.45378
G1 X111.466 Y107.961 E2.47397
G1 X110.800 Y107.724 E2.49306
G1 E0.49306 F2400.00000
G92 E0
G1 X110.181 Y103.259 F7800.000
G1 E2.00000 F2400.00000
G1 F900
G1 X109.990 Y103.457 E2.00741
G1 X109.521 Y103.233 E2.02145
G1 X109.903 Y102.729 E2.03852
G1 X110.146 Y103.192 E2.05263
G1 E0.05263 F2400.00000
G92 E0
G1 X105.210 Y99.580 F7800.000
G1 E2.00000 F2400.00000
G1 F1800
G1 X109.194 Y99.581 E2.08209
G1 X109.627 Y100.720 E2.10721
G1 X110.192 Y102.016 E2.13635
G1 X110.499 Y102.657 E2.15100
G1 X111.153 Y103.908 E2.18009
G1 X111.504 Y104.524 E2.19471
G1 X111.869 Y105.131 E2.20932
G1 X112.762 Y106.514 E2.24324
G1 X112.860 Y106.718 E2.24790
G1 X112.996 Y107.155 E2.25732
G1 X113.041 Y107.605 E2.26665
G1 X113.011 Y107.964 E2.27407
G1 X112.938 Y108.291 E2.28098
G1 X112.861 Y108.502 E2.28561
G1 X112.734 Y108.765 E2.29163
G1 X112.096 Y108.684 E2.30488
G1 X111.315 Y108.501 E2.32141
G1 X110.812 Y108.336 E2.33233
G1 X109.838 Y107.930 E2.35408
G1 X108.774 Y107.417 E2.37842
G1 X107.738 Y106.847 E2.40278
G1 X107.066 Y106.436 E2.41901
G1 X106.192 Y105.870 E2.44048
G1 X105.791 Y105.586 E2.45062
G1 X105.269 Y105.160 E2.46449
G1 X104.764 Y104.710 E2.47844
G1 X104.280 Y104.240 E2.49234
G1 X103.569 Y103.466 E2.51400
G1 X102.948 Y102.707 E2.53420
G1 X102.344 Y101.850 E2.55583
G1 X101.824 Y101.016 E2.57607
G1 X101.499 Y100.425 E2.58998
G1 X101.200 Y99.818 E2.60393
G1 X100.633 Y98.536 E2.63282
G1 X100.130 Y100.084 E2.66638
G1 X99.870 Y100.086 E2.67173
G1 X99.367 Y98.538 E2.70528
G1 X98.800 Y99.820 E2.73417
G1 X98.501 Y100.427 E2.74812
G1 X98.175 Y101.020 E2.76207
G1 X97.825 Y101.599 E2.77601
G1 X97.450 Y102.162 E2.78996
G1 X97.052 Y102.709 E2.80390
G1 X96.630 Y103.238 E2.81785
G1 X96.187 Y103.749 E2.83179
G1 X95.722 Y104.241 E2.84574
G1 X95.236 Y104.712 E2.85968
G1 X94.731 Y105.162 E2.87363
G1 X94.209 Y105.587 E2.88750
G1 X93.808 Y105.872 E2.89764
G1 X92.934 Y106.438 E2.91911
G1 X92.262 Y106.849 E2.93534
G1 X91.226 Y107.419 E2.95970
G1 X90.162 Y107.932 E2.98404
G1 X89.188 Y108.338 E3.00579
G1 X88.685 Y108.503 E3.01671
G1 X87.904 Y108.686 E3.03324
G1 X87.264 Y108.767 E3.04653
G1 X87.096 Y108.385 E3.05513
G1 X87.003 Y108.063 E3.06204
G1 X86.970 Y107.840 E3.06667
G1 X86.970 Y107.383 E3.07610
G1 X87.004 Y107.157 E3.08082
G1 X87.140 Y106.720 E3.09025
G1 X87.238 Y106.516 E3.09490
G1 X88.131 Y105.133 E3.12883
G1 X88.496 Y104.526 E3.14343
G1 X88.847 Y103.910 E3.15805
G1 X89.502 Y102.657 E3.18718
G1 X90.097 Y101.375 E3.21631
G1 X90.374 Y100.720 E3.23096
G1 X90.806 Y99.583 E3.25605
G1 X94.790 Y99.582 E3.33814
G1 X94.866 Y98.900 E3.35229
G1 X95.016 Y98.920 E3.35540
G1 X95.335 Y98.878 E3.36203
G1 X95.632 Y98.755 E3.36865
G1 X95.887 Y98.559 E3.37527
G1 X96.083 Y98.304 E3.38190
G1 X96.205 Y98.007 E3.38852
G1 X96.247 Y97.688 E3.39515
G1 X96.203 Y97.351 E3.40215
G1 X96.410 Y97.266 E3.40676
G1 X96.564 Y97.467 E3.41200
G1 X96.810 Y97.656 E3.41839
G1 X97.097 Y97.775 E3.42479
G1 X97.405 Y97.815 E3.43118
G1 X97.712 Y97.775 E3.43757
G1 X97.999 Y97.656 E3.44397
G1 X98.245 Y97.467 E3.45036
G1 X98.434 Y97.221 E3.45676
G1 X98.553 Y96.935 E3.46315
G1 X98.593 Y96.627 E3.46954
G1 X98.553 Y96.319 E3.47594
G1 X98.434 Y96.033 E3.48233
G1 X98.245 Y95.787 E3.48873
G1 X97.999 Y95.598 E3.49512
G1 X97.712 Y95.479 E3.50152
G1 X97.405 Y95.439 E3.50791
G1 X97.097 Y95.479 E3.51430
G1 X96.810 Y95.598 E3.52070
G1 X96.564 Y95.787 E3.52709
G1 X96.375 Y96.033 E3.53349
G1 X96.257 Y96.319 E3.53988
G1 X96.216 Y96.627 E3.54627
G1 X96.258 Y96.947 E3.55293
G1 X96.052 Y97.033 E3.55754
G1 X95.887 Y96.818 E3.56313
G1 X95.632 Y96.622 E3.56975
G1 X95.335 Y96.499 E3.57637
G1 X94.942 Y96.448 E3.58454
G1 X94.908 Y96.234 E3.58901
G1 X95.019 Y96.179 E3.59156
G1 X95.442 Y95.814 E3.60309
G1 X95.756 Y95.351 E3.61461
G1 X95.939 Y94.822 E3.62614
G1 X95.980 Y94.265 E3.63766
G1 X95.874 Y93.715 E3.64919
G1 X95.630 Y93.212 E3.66071
G1 X95.264 Y92.789 E3.67224
G1 X94.801 Y92.476 E3.68377
G1 X94.273 Y92.292 E3.69529
G1 X93.715 Y92.252 E3.70682
G1 X93.166 Y92.357 E3.71834
G1 X92.663 Y92.601 E3.72987
G1 X92.240 Y92.967 E3.74139
G1 X91.926 Y93.430 E3.75292
G1 X91.743 Y93.958 E3.76445
G1 X91.703 Y94.516 E3.77597
G1 X91.808 Y95.065 E3.78750
G1 X92.052 Y95.569 E3.79902
G1 X92.418 Y95.991 E3.81055
G1 X92.881 Y96.305 E3.82207
G1 X93.409 Y96.489 E3.83360
G1 X93.967 Y96.529 E3.84512
G1 X94.217 Y96.481 E3.85037
G1 X94.311 Y96.691 E3.85511
G1 X94.146 Y96.818 E3.85941
G1 X93.950 Y97.073 E3.86603
G1 X93.827 Y97.370 E3.87266
G1 X93.785 Y97.688 E3.87928
G1 X93.827 Y98.007 E3.88590
G1 X93.950 Y98.304 E3.89253
G1 X94.166 Y98.585 E3.89982
G1 X94.031 Y98.762 E3.90440
G1 X93.734 Y98.643 E3.91100
G1 X93.340 Y98.447 E3.92007
G1 X92.962 Y98.221 E3.92914
G1 X92.264 Y97.682 E3.94733
G1 X91.952 Y97.377 E3.95633
G1 X91.662 Y97.045 E3.96540
G1 X91.400 Y96.692 E3.97446
G1 X90.963 Y95.931 E3.99256
G1 X90.809 Y95.533 E4.00135
G1 X90.757 Y95.338 E4.00550
G1 X90.705 Y95.013 E4.01229
G1 X90.694 Y94.504 E4.02277
G1 X90.757 Y94.084 E4.03153
G1 X90.879 Y93.684 E4.04015
G1 X91.112 Y93.204 E4.05115
G1 X91.281 Y92.939 E4.05762
G1 X91.473 Y92.685 E4.06419
G1 X91.685 Y92.448 E4.07075
G1 X91.917 Y92.229 E4.07731
G1 X92.163 Y92.032 E4.08382
G1 X92.511 Y91.807 E4.09234
G1 X93.001 Y91.563 E4.10363
G1 X93.296 Y91.457 E4.11010
G1 X93.603 Y91.374 E4.11666
G1 X93.919 Y91.316 E4.12327
G1 X94.387 Y91.261 E4.13298
G1 X95.100 Y91.219 E4.14771
G1 X95.811 Y91.227 E4.16237
G1 X96.633 Y91.304 E4.17938
G1 X99.369 Y95.860 E4.28891
G1 X99.833 Y95.748 E4.29875
G1 X99.863 Y95.274 E4.30853
G1 X100.137 Y95.274 E4.31416
G1 X100.167 Y95.746 E4.32390
G1 X100.631 Y95.858 E4.33375
G1 X103.368 Y91.301 E4.44331
G1 X103.949 Y91.239 E4.45536
G1 X104.769 Y91.216 E4.47227
G1 X105.614 Y91.259 E4.48971
G1 X106.081 Y91.314 E4.49940
G1 X106.393 Y91.371 E4.50594
G1 X106.838 Y91.503 E4.51550
G1 X107.296 Y91.697 E4.52576
G1 X107.571 Y91.851 E4.53224
G1 X107.835 Y92.028 E4.53880
G1 X108.083 Y92.227 E4.54536
G1 X108.315 Y92.446 E4.55193
G1 X108.527 Y92.683 E4.55849
G1 X108.719 Y92.937 E4.56505
G1 X108.890 Y93.206 E4.57161
G1 X109.036 Y93.483 E4.57808
G1 X109.189 Y93.879 E4.58682
G1 X109.282 Y94.289 E4.59548
G1 X109.313 Y94.707 E4.60413
G1 X109.282 Y95.126 E4.61278
G1 X109.189 Y95.536 E4.62144
G1 X109.036 Y95.932 E4.63019
G1 X108.834 Y96.317 E4.63916
G1 X108.600 Y96.690 E4.64823
G1 X108.338 Y97.043 E4.65730
G1 X108.048 Y97.375 E4.66637
G1 X107.734 Y97.682 E4.67544
G1 X107.396 Y97.965 E4.68450
G1 X107.038 Y98.219 E4.69357
G1 X106.660 Y98.445 E4.70264
G1 X106.266 Y98.641 E4.71171
G1 X105.969 Y98.760 E4.71831
G1 X105.834 Y98.583 E4.72289
G1 X106.050 Y98.302 E4.73018
G1 X106.173 Y98.005 E4.73681
G1 X106.215 Y97.687 E4.74343
G1 X106.173 Y97.368 E4.75005
G1 X106.050 Y97.071 E4.75668
G1 X105.854 Y96.816 E4.76330
G1 X105.689 Y96.689 E4.76759
G1 X105.783 Y96.479 E4.77234
G1 X106.033 Y96.527 E4.77758
G1 X106.591 Y96.487 E4.78911
G1 X107.119 Y96.303 E4.80064
G1 X107.582 Y95.990 E4.81216
G1 X107.948 Y95.567 E4.82369
G1 X108.192 Y95.063 E4.83521
G1 X108.297 Y94.514 E4.84674
G1 X108.257 Y93.957 E4.85826
G1 X108.074 Y93.428 E4.86979
G1 X107.760 Y92.965 E4.88132
G1 X107.337 Y92.599 E4.89284
G1 X106.834 Y92.355 E4.90437
G1 X106.285 Y92.250 E4.91589
G1 X105.981 Y92.272 E4.92216
G1 X105.727 Y92.290 E4.92742
G1 X105.199 Y92.474 E4.93894
G1 X104.736 Y92.787 E4.95047
G1 X104.370 Y93.210 E4.96199
G1 X104.126 Y93.714 E4.97352
G1 X104.020 Y94.263 E4.98505
G1 X104.061 Y94.820 E4.99657
G1 X104.244 Y95.349 E5.00810
G1 X104.558 Y95.812 E5.01962
G1 X104.981 Y96.178 E5.03115
G1 X105.092 Y96.232 E5.03370
G1 X105.058 Y96.446 E5.03817
G1 X104.665 Y96.497 E5.04634
G1 X104.368 Y96.620 E5.05296
G1 X104.113 Y96.816 E5.05958
G1 X103.948 Y97.031 E5.06517
G1 X103.742 Y96.945 E5.06978
G1 X103.784 Y96.625 E5.07643
G1 X103.743 Y96.318 E5.08283
G1 X103.625 Y96.031 E5.08922
G1 X103.436 Y95.785 E5.09562
G1 X103.190 Y95.596 E5.10201
G1 X102.903 Y95.477 E5.10841
G1 X102.595 Y95.437 E5.11480
G1 X102.288 Y95.477 E5.12119
G1 X102.001 Y95.596 E5.12759
G1 X101.755 Y95.785 E5.13398
G1 X101.566 Y96.031 E5.14038
G1 X101.447 Y96.318 E5.14677
G1 X101.407 Y96.625 E5.15316
G1 X101.447 Y96.933 E5.15956
G1 X101.566 Y97.219 E5.16595
G1 X101.755 Y97.465 E5.17235
G1 X102.001 Y97.654 E5.17874
G1 X102.288 Y97.773 E5.18513
G1 X102.595 Y97.814 E5.19153
G1 X102.903 Y97.773 E5.19792
G1 X103.190 Y97.654 E5.20432
G1 X103.436 Y97.465 E5.21071
G1 X103.590 Y97.264 E5.21595
G1 X103.797 Y97.349 E5.22055
G1 X103.753 Y97.687 E5.22756
G1 X103.794 Y98.005 E5.23419
G1 X103.917 Y98.302 E5.24081
G1 X104.113 Y98.557 E5.24743
G1 X104.368 Y98.753 E5.25406
G1 X104.665 Y98.876 E5.26068
G1 X104.984 Y98.918 E5.26731
G1 X105.134 Y98.898 E5.27042
G1 X105.202 Y99.505 E5.28302
G1 X105.265 Y100.077 F7800.000
G1 E3.28302 F2400.00000
G92 E0
G1 X100.000 Y92.873 F7800.000
G1 E2.00000 F2400.00000
G1 F1800
G1 X100.000 Y93.936 E2.02615
G1 F1800
G1 X100.000 Y94.999 E2.05661
G1 X100.365 Y100.531 F7800.000
G1 F1800
G1 X100.467 Y101.042 E2.06416
G1 X100.607 Y101.550 E2.07178
