%
(Header)
(Generated by gcodetools from Inkscape.)
(Using default header. To add your own header create file "header" in the output dir.)
M3
(Header end.)
G21 (All units in mm)

(Start cutting path id: path4274)
(Change tool to Cone cutter)

G00 Z0.000000
G00 X15.752702 Y0.512452

G01 Z-1.000000 F100.0(Penetrate)
G02 X14.993784 Y0.687708 Z-1.000000 I0.203552 J2.612263 F400.000000
G02 X14.261793 Y1.101277 Z-1.000000 I1.121344 J2.839282
G02 X13.948310 Y1.403123 Z-1.000000 I1.160650 J1.519105
G02 X13.649087 Y1.843280 Z-1.000000 I2.204972 J1.820746
G02 X13.558417 Y2.027950 Z-1.000000 I1.899127 J1.047031
G02 X13.499599 Y2.188200 Z-1.000000 I1.370302 J0.593877
G02 X13.469272 Y2.354799 Z-1.000000 I0.708946 J0.215112
G02 X13.463459 Y2.738981 Z-1.000000 I3.805272 J0.249715
G02 X13.533466 Y3.324509 Z-1.000000 I3.523007 J-0.124269
G02 X13.646304 Y3.628503 Z-1.000000 I1.044157 J-0.214637
G02 X13.805987 Y3.866893 Z-1.000000 I1.528791 J-0.851370
G02 X13.990229 Y4.060586 Z-1.000000 I1.188296 J-0.945840
G03 X14.049534 Y4.129332 Z-1.000000 I-0.220123 J0.249848
G01 X14.047469 Y4.148896 Z-1.000000
G01 X14.023622 Y4.161119 Z-1.000000
G03 X13.782594 Y4.192166 Z-1.000000 I-0.579419 J-3.547158
G02 X13.537908 Y4.215881 Z-1.000000 I4.815128 J50.955937
G02 X13.092539 Y4.260706 Z-1.000000 I17.147190 J172.604122
G01 X12.647226 Y4.306106 Z-1.000000
G01 X12.576916 Y4.238826 Z-1.000000
G02 X12.428745 Y4.147602 Z-1.000000 I-0.286507 J0.299416
G02 X12.286914 Y4.136128 Z-1.000000 I-0.092514 J0.261246
G02 X12.057252 Y4.256915 Z-1.000000 I0.076805 J0.424766
G02 X11.979259 Y4.446297 Z-1.000000 I0.190932 J0.189382
G03 X11.969979 Y4.535734 Z-1.000000 I-0.435632 J-0.000000
G01 X11.956459 Y4.554996 Z-1.000000
G03 X11.932279 Y4.565958 Z-1.000000 I-0.053744 J-0.086403
G03 X11.763100 Y4.613796 Z-1.000000 I-1.329350 J-4.378127
G02 X11.595404 Y4.666997 Z-1.000000 I0.438860 J1.674237
G02 X11.142581 Y4.845981 Z-1.000000 I4.645784 J12.415979
G03 X10.447833 Y5.103975 Z-1.000000 I-3.635169 J-8.724671
G03 X9.518322 Y5.377673 Z-1.000000 I-5.026660 J-15.355899
G03 X9.124932 Y5.450469 Z-1.000000 I-0.691606 J-2.638118
G03 X8.026419 Y5.541799 Z-1.000000 I-2.264560 J-20.585837
G03 X7.747402 Y5.537413 Z-1.000000 I-0.109121 J-1.935079
G03 X7.674856 Y5.510859 Z-1.000000 I0.013019 J-0.147948
G02 X7.244595 Y5.310892 Z-1.000000 I-0.768083 J1.089785
G02 X6.580523 Y5.224221 Z-1.000000 I-0.673075 J2.569691
G02 X6.185900 Y5.271065 Z-1.000000 I-0.005473 J1.639508
G02 X5.972821 Y5.372721 Z-1.000000 I0.137306 J0.561950
G02 X5.881301 Y5.506290 Z-1.000000 I0.156175 J0.205148
G02 X5.905261 Y5.606512 Z-1.000000 I0.100323 J0.028991
G03 X5.902356 Y5.680400 Z-1.000000 I-0.038064 J0.035505
G03 X5.733165 Y5.764154 Z-1.000000 I-0.229180 J-0.250197
G03 X5.107056 Y5.846349 Z-1.000000 I-1.183083 J-6.586195
G03 X4.067296 Y5.903290 Z-1.000000 I-1.514288 J-18.129835
G02 X3.178967 Y5.933539 Z-1.000000 I1.455229 J55.795185
G02 X2.979130 Y5.949010 Z-1.000000 I0.119355 J2.840053
G03 X2.239753 Y6.017063 Z-1.000000 I-2.010361 J-17.791344
G03 X1.280040 Y6.069923 Z-1.000000 I-2.129177 J-29.918405
G02 X0.694106 Y6.092882 Z-1.000000 I78.031017 J1998.963393
G02 X0.578232 Y6.097533 Z-1.000000 I2.809073 J71.423696
G02 X0.475176 Y6.123581 Z-1.000000 I0.010605 J0.258838
G02 X0.420004 Y6.174793 Z-1.000000 I0.056991 J0.116725
G02 X0.398764 Y6.248009 Z-1.000000 I0.135010 J0.078855
G02 X0.414704 Y6.321595 Z-1.000000 I0.152432 J0.005501
G03 X0.435801 Y6.399794 Z-1.000000 I-0.183129 J0.091353
G03 X0.465134 Y7.104543 Z-1.000000 I-15.487900 J0.997600
G02 X0.538069 Y7.850481 Z-1.000000 I4.772186 J-0.090072
G02 X0.613619 Y7.939143 Z-1.000000 I0.113494 J-0.020191
G03 X0.673057 Y7.969747 Z-1.000000 I-0.078928 J0.226313
G01 X0.682389 Y7.987773 Z-1.000000
G01 X0.691671 Y8.003146 Z-1.000000
G02 X0.729259 Y8.012433 Z-1.000000 I0.037588 J-0.071427
G02 X0.768473 Y8.004818 Z-1.000000 I-0.000000 J-0.104779
G01 X0.776129 Y7.993473 Z-1.000000
G03 X0.810038 Y7.932998 Z-1.000000 I0.070881 J-0.000000
G03 X0.975348 Y7.871691 Z-1.000000 I0.239024 J0.390984
G03 X1.116171 Y7.862971 Z-1.000000 I0.113998 J0.699509
G03 X1.408941 Y7.888121 Z-1.000000 I-0.116293 J3.070358
G02 X1.839324 Y7.918729 Z-1.000000 I0.459671 J-3.422336
G02 X4.024817 Y7.910301 Z-1.000000 I0.751209 J-88.567610
G01 X4.988349 Y7.894701 Z-1.000000
G01 X4.919959 Y8.087972 Z-1.000000
G03 X4.844889 Y8.277258 Z-1.000000 I-2.566335 J-0.908253
G03 X4.818903 Y8.317334 Z-1.000000 I-0.136914 J-0.060318
G02 X4.764547 Y8.470543 Z-1.000000 I0.156755 J0.141861
G02 X4.837503 Y8.663591 Z-1.000000 I0.340292 J-0.018292
G02 X4.994899 Y8.816265 Z-1.000000 I0.655167 J-0.517964
G02 X5.312976 Y9.016506 Z-1.000000 I1.462578 J-1.970509
G01 X5.405036 Y9.065046 Z-1.000000
G01 X5.039976 Y9.066046 Z-1.000000
G02 X4.055933 Y9.149865 Z-1.000000 I0.017369 J6.022205
G02 X3.201915 Y9.376027 Z-1.000000 I0.801122 J4.750670
G02 X2.414737 Y9.750674 Z-1.000000 I1.603678 J4.383817
G02 X1.799581 Y10.212305 Z-1.000000 I1.860805 J3.120342
G02 X1.589264 Y10.468698 Z-1.000000 I0.845885 J0.908327
G02 X1.462931 Y10.757715 Z-1.000000 I0.955537 J0.589799
G03 X1.409797 Y10.875618 Z-1.000000 I-0.410947 J-0.114271
G01 X1.373691 Y10.895231 Z-1.000000
G02 X1.173660 Y10.946424 Z-1.000000 I-0.000000 J0.416396
G02 X0.999181 Y11.100356 Z-1.000000 I0.254025 J0.463783
G02 X0.967517 Y11.169441 Z-1.000000 I0.157847 J0.114144
G02 X0.952691 Y11.295896 Z-1.000000 I0.531852 J0.126455
G02 X1.034354 Y11.496559 Z-1.000000 I0.287367 J-0.000000
G02 X1.687780 Y12.049448 Z-1.000000 I3.211046 J-3.132374
G03 X1.979193 Y12.259627 Z-1.000000 I-5.646664 J8.136227
G03 X2.157038 Y12.401011 Z-1.000000 I-2.373743 J3.168433
G02 X3.098509 Y13.075719 Z-1.000000 I4.756532 J-5.642946
G02 X3.778472 Y13.380150 Z-1.000000 I1.578293 J-2.613618
G03 X4.103400 Y13.524584 Z-1.000000 I-0.438311 J1.423768
G03 X4.362067 Y13.728318 Z-1.000000 I-0.654440 J1.096965
G02 X4.698107 Y13.988860 Z-1.000000 I1.113751 J-1.089510
G02 X5.102034 Y14.154583 Z-1.000000 I0.819928 J-1.423340
G02 X5.383680 Y14.207194 Z-1.000000 I0.508760 J-1.943409
G02 X5.627692 Y14.214393 Z-1.000000 I0.164860 J-1.448899
G02 X6.131634 Y14.093939 Z-1.000000 I-0.078376 J-1.442300
G02 X6.555399 Y13.805711 Z-1.000000 I-0.569733 J-1.293277
G03 X6.733857 Y13.654579 Z-1.000000 I1.069381 J1.081806
G01 X6.773316 Y13.648243 Z-1.000000
G03 X6.815798 Y13.666443 Z-1.000000 I-0.070200 J0.222543
G03 X7.001987 Y13.774250 Z-1.000000 I-2.485063 J4.506517
G02 X7.309362 Y13.936351 Z-1.000000 I1.492516 J-2.457636
G02 X7.842536 Y14.154504 Z-1.000000 I3.256849 J-7.199220
G03 X8.170596 Y14.275166 Z-1.000000 I-115.346741 J314.115047
G03 X8.264411 Y14.309923 Z-1.000000 I-9.419560 J25.568987
G02 X9.002126 Y14.522559 Z-1.000000 I1.764576 J-4.735965
G02 X10.115973 Y14.694133 Z-1.000000 I2.212670 J-10.663200
G02 X11.034686 Y14.746620 Z-1.000000 I1.055324 J-10.405354
G02 X11.838629 Y14.716643 Z-1.000000 I0.104433 J-7.994563
G02 X12.781323 Y14.582510 Z-1.000000 I-0.775682 J-8.831287
G02 X13.462970 Y14.395704 Z-1.000000 I-0.946707 J-4.791533
G03 X13.632345 Y14.338314 Z-1.000000 I2.255576 J6.378191
G03 X13.933927 Y14.243032 Z-1.000000 I6.534168 J20.156816
G02 X14.234433 Y14.145197 Z-1.000000 I-2.866975 J-9.316463
G02 X14.332364 Y14.106134 Z-1.000000 I-0.352758 J-1.026667
G03 X14.428978 Y14.063446 Z-1.000000 I1.822135 J3.993286
G03 X14.580817 Y13.999910 Z-1.000000 I4.194969 J9.811983
G02 X15.155375 Y13.718564 Z-1.000000 I-1.815870 J-4.435676
G02 X15.674344 Y13.370688 Z-1.000000 I-2.279912 J-3.962264
G02 X16.585047 Y12.562126 Z-1.000000 I-5.556903 J-7.176033
G02 X16.666754 Y12.362672 Z-1.000000 I-0.202591 J-0.199454
G01 X16.669094 Y12.353869 Z-1.000000
G03 X16.760504 Y12.198830 Z-1.000000 I5.925369 J3.389109
G02 X16.847986 Y12.042653 Z-1.000000 I-2.165762 J-1.315738
G02 X16.855214 Y12.014794 Z-1.000000 I-0.058261 J-0.029982
G03 X16.862892 Y11.987438 Z-1.000000 I0.059409 J0.001919
G03 X16.919664 Y11.900901 Z-1.000000 I0.686507 J0.388488
G03 X16.983211 Y11.816765 Z-1.000000 I61.239526 J46.187560
G03 X17.095907 Y11.667876 Z-1.000000 I216.187497 J163.517860
G02 X17.228276 Y11.460713 Z-1.000000 I-1.230763 J-0.932276
G02 X17.450812 Y11.000699 Z-1.000000 I-5.890379 J-3.133365
G03 X17.493155 Y10.907571 Z-1.000000 I3.243209 J1.418432
G03 X17.605761 Y10.672574 Z-1.000000 I20.806141 J9.825381
G02 X17.715727 Y10.436472 Z-1.000000 I-7.038358 J-3.421826
G02 X17.778102 Y10.285855 Z-1.000000 I-2.797934 J-1.246928
G03 X17.930798 Y9.935769 Z-1.000000 I3.940713 J1.510469
G03 X18.025607 Y9.781949 Z-1.000000 I0.847719 J0.416373
G02 X18.064449 Y9.721845 Z-1.000000 I-0.383908 J-0.290699
G02 X18.300464 Y9.278043 Z-1.000000 I-20.835271 J-11.364922
G03 X18.418644 Y9.056977 Z-1.000000 I8.717545 J4.518194
G03 X18.474839 Y8.961636 Z-1.000000 I1.677254 J0.924364
G02 X18.662468 Y8.625970 Z-1.000000 I-3.140945 J-1.975982
G02 X18.682376 Y8.540534 Z-1.000000 I-0.173370 J-0.085436
G01 X18.684893 Y8.530271 Z-1.000000
G03 X18.808512 Y8.298739 Z-1.000000 I12.319070 J6.428614
G02 X19.045166 Y7.788727 Z-1.000000 I-3.774841 J-2.061496
G02 X19.318097 Y6.981168 Z-1.000000 I-9.221480 J-3.566494
G02 X19.403427 Y6.494138 Z-1.000000 I-2.175400 J-0.632132
G02 X19.438569 Y5.104162 Z-1.000000 I-17.876760 J-1.147397
G01 X19.429469 Y4.434188 Z-1.000000
G01 X19.846926 Y4.264539 Z-1.000000
G03 X20.265703 Y4.098318 Z-1.000000 I10.387007 J25.558428
G03 X20.604226 Y3.971081 Z-1.000000 I6.432468 J16.600035
G02 X20.941085 Y3.840405 Z-1.000000 I-2.985954 J-8.196748
G02 X21.112094 Y3.761876 Z-1.000000 I-0.902502 J-2.190809
G03 X21.281178 Y3.680908 Z-1.000000 I1.796012 J3.533522
G03 X21.301820 Y3.676476 Z-1.000000 I0.020642 J0.045861
G02 X21.365613 Y3.640986 Z-1.000000 I0.000000 J-0.075078
G02 X21.401100 Y3.516499 Z-1.000000 I-0.200602 J-0.124487
G02 X21.388229 Y3.445466 Z-1.000000 I-0.202437 J-0.000000
G02 X21.307350 Y3.266320 Z-1.000000 I-1.404894 J0.526432
G03 X21.220863 Y3.088581 Z-1.000000 I2.375422 J-1.265779
G03 X21.213600 Y3.054179 Z-1.000000 I0.077841 J-0.034402
G02 X21.207575 Y3.019354 Z-1.000000 I-0.103654 J0.000000
G02 X21.165550 Y2.919485 Z-1.000000 I-0.917143 J0.327156
G03 X21.127417 Y2.818610 Z-1.000000 I0.524161 J-0.255790
G03 X21.115820 Y2.738976 Z-1.000000 I0.313079 J-0.086255
G02 X21.104065 Y2.659345 Z-1.000000 I-0.320707 J0.006660
G02 X21.063430 Y2.551476 Z-1.000000 I-0.632310 J0.176606
G01 X21.012730 Y2.446007 Z-1.000000
G01 X20.834907 Y2.450107 Z-1.000000
G02 X20.658775 Y2.467157 Z-1.000000 I0.027416 J1.201468
G02 X20.273230 Y2.546587 Z-1.000000 I1.010861 J5.882050
G03 X19.692777 Y2.667283 Z-1.000000 I-2.228796 J-9.262629
G03 X19.244846 Y2.727234 Z-1.000000 I-0.957447 J-5.450346
G01 X19.092503 Y2.741324 Z-1.000000
G01 X19.040653 Y2.640541 Z-1.000000
G03 X18.990822 Y2.538817 Z-1.000000 I2.557374 J-1.315827
G03 X18.944603 Y2.434290 Z-1.000000 I2.659166 J-1.238300
G02 X18.893209 Y2.332993 Z-1.000000 I-0.721282 J0.302264
G02 X18.810472 Y2.211633 Z-1.000000 I-1.120630 J0.675104
G03 X18.722800 Y2.092810 Z-1.000000 I3.086243 J-2.368913
G03 X18.569961 Y1.872393 Z-1.000000 I10.511302 J-7.451799
G02 X18.247246 Y1.451708 Z-1.000000 I-3.753709 J2.545413
G02 X18.005200 Y1.219113 Z-1.000000 I-1.375310 J1.188957
G02 X17.398069 Y0.832506 Z-1.000000 I-2.120182 J2.659530
G02 X16.701878 Y0.571738 Z-1.000000 I-1.614127 J3.249626
G02 X16.305793 Y0.508197 Z-1.000000 I-0.525607 J2.010102
G02 X15.752659 Y0.512448 Z-1.000000 I-0.246279 J3.942925
G01 X15.752702 Y0.512452 Z-1.000000
G00 Z0.000000

(End cutting path id: path4274)


(Start cutting path id: path4274)
(Change tool to Cone cutter)

G00 Z0.000000
G00 X15.752702 Y0.512452

G01 Z-1.000000 F100.0(Penetrate)
G02 X14.993784 Y0.687708 Z-1.000000 I0.203552 J2.612263 F400.000000
G02 X14.261793 Y1.101277 Z-1.000000 I1.121344 J2.839282
G02 X13.948310 Y1.403123 Z-1.000000 I1.160650 J1.519105
G02 X13.649087 Y1.843280 Z-1.000000 I2.204972 J1.820746
G02 X13.558417 Y2.027950 Z-1.000000 I1.899127 J1.047031
G02 X13.499599 Y2.188200 Z-1.000000 I1.370302 J0.593877
G02 X13.469272 Y2.354799 Z-1.000000 I0.708946 J0.215112
G02 X13.463459 Y2.738981 Z-1.000000 I3.805272 J0.249715
G02 X13.533466 Y3.324509 Z-1.000000 I3.523007 J-0.124269
G02 X13.646304 Y3.628503 Z-1.000000 I1.044157 J-0.214637
G02 X13.805987 Y3.866893 Z-1.000000 I1.528791 J-0.851370
G02 X13.990229 Y4.060586 Z-1.000000 I1.188296 J-0.945840
G03 X14.049534 Y4.129332 Z-1.000000 I-0.220123 J0.249848
G01 X14.047469 Y4.148896 Z-1.000000
G01 X14.023622 Y4.161119 Z-1.000000
G03 X13.782594 Y4.192166 Z-1.000000 I-0.579419 J-3.547158
G02 X13.537908 Y4.215881 Z-1.000000 I4.815128 J50.955937
G02 X13.092539 Y4.260706 Z-1.000000 I17.147190 J172.604122
G01 X12.647226 Y4.306106 Z-1.000000
G01 X12.576916 Y4.238826 Z-1.000000
G02 X12.428745 Y4.147602 Z-1.000000 I-0.286507 J0.299416
G02 X12.286914 Y4.136128 Z-1.000000 I-0.092514 J0.261246
G02 X12.057252 Y4.256915 Z-1.000000 I0.076805 J0.424766
G02 X11.979259 Y4.446297 Z-1.000000 I0.190932 J0.189382
G03 X11.969979 Y4.535734 Z-1.000000 I-0.435632 J-0.000000
G01 X11.956459 Y4.554996 Z-1.000000
G03 X11.932279 Y4.565958 Z-1.000000 I-0.053744 J-0.086403
G03 X11.763100 Y4.613796 Z-1.000000 I-1.329350 J-4.378127
G02 X11.595404 Y4.666997 Z-1.000000 I0.438860 J1.674237
G02 X11.142581 Y4.845981 Z-1.000000 I4.645784 J12.415979
G03 X10.447833 Y5.103975 Z-1.000000 I-3.635169 J-8.724671
G03 X9.518322 Y5.377673 Z-1.000000 I-5.026660 J-15.355899
G03 X9.124932 Y5.450469 Z-1.000000 I-0.691606 J-2.638118
G03 X8.026419 Y5.541799 Z-1.000000 I-2.264560 J-20.585837
G03 X7.747402 Y5.537413 Z-1.000000 I-0.109121 J-1.935079
G03 X7.674856 Y5.510859 Z-1.000000 I0.013019 J-0.147948
G02 X7.244595 Y5.310892 Z-1.000000 I-0.768083 J1.089785
G02 X6.580523 Y5.224221 Z-1.000000 I-0.673075 J2.569691
G02 X6.185900 Y5.271065 Z-1.000000 I-0.005473 J1.639508
G02 X5.972821 Y5.372721 Z-1.000000 I0.137306 J0.561950
G02 X5.881301 Y5.506290 Z-1.000000 I0.156175 J0.205148
G02 X5.905261 Y5.606512 Z-1.000000 I0.100323 J0.028991
G03 X5.902356 Y5.680400 Z-1.000000 I-0.038064 J0.035505
G03 X5.733165 Y5.764154 Z-1.000000 I-0.229180 J-0.250197
G03 X5.107056 Y5.846349 Z-1.000000 I-1.183083 J-6.586195
G03 X4.067296 Y5.903290 Z-1.000000 I-1.514288 J-18.129835
G02 X3.178967 Y5.933539 Z-1.000000 I1.455229 J55.795185
G02 X2.979130 Y5.949010 Z-1.000000 I0.119355 J2.840053
G03 X2.239753 Y6.017063 Z-1.000000 I-2.010361 J-17.791344
G03 X1.280040 Y6.069923 Z-1.000000 I-2.129177 J-29.918405
G02 X0.694106 Y6.092882 Z-1.000000 I78.031017 J1998.963393
G02 X0.578232 Y6.097533 Z-1.000000 I2.809073 J71.423696
G02 X0.475176 Y6.123581 Z-1.000000 I0.010605 J0.258838
G02 X0.420004 Y6.174793 Z-1.000000 I0.056991 J0.116725
G02 X0.398764 Y6.248009 Z-1.000000 I0.135010 J0.078855
G02 X0.414704 Y6.321595 Z-1.000000 I0.152432 J0.005501
G03 X0.435801 Y6.399794 Z-1.000000 I-0.183129 J0.091353
G03 X0.465134 Y7.104543 Z-1.000000 I-15.487900 J0.997600
G02 X0.538069 Y7.850481 Z-1.000000 I4.772186 J-0.090072
G02 X0.613619 Y7.939143 Z-1.000000 I0.113494 J-0.020191
G03 X0.673057 Y7.969747 Z-1.000000 I-0.078928 J0.226313
G01 X0.682389 Y7.987773 Z-1.000000
G01 X0.691671 Y8.003146 Z-1.000000
G02 X0.729259 Y8.012433 Z-1.000000 I0.037588 J-0.071427
G02 X0.768473 Y8.004818 Z-1.000000 I-0.000000 J-0.104779
G01 X0.776129 Y7.993473 Z-1.000000
G03 X0.810038 Y7.932998 Z-1.000000 I0.070881 J-0.000000
G03 X0.975348 Y7.871691 Z-1.000000 I0.239024 J0.390984
G03 X1.116171 Y7.862971 Z-1.000000 I0.113998 J0.699509
G03 X1.408941 Y7.888121 Z-1.000000 I-0.116293 J3.070358
G02 X1.839324 Y7.918729 Z-1.000000 I0.459671 J-3.422336
G02 X4.024817 Y7.910301 Z-1.000000 I0.751209 J-88.567610
G01 X4.988349 Y7.894701 Z-1.000000
G01 X4.919959 Y8.087972 Z-1.000000
G03 X4.844889 Y8.277258 Z-1.000000 I-2.566335 J-0.908253
G03 X4.818903 Y8.317334 Z-1.000000 I-0.136914 J-0.060318
G02 X4.764547 Y8.470543 Z-1.000000 I0.156755 J0.141861
G02 X4.837503 Y8.663591 Z-1.000000 I0.340292 J-0.018292
G02 X4.994899 Y8.816265 Z-1.000000 I0.655167 J-0.517964
G02 X5.312976 Y9.016506 Z-1.000000 I1.462578 J-1.970509
G01 X5.405036 Y9.065046 Z-1.000000
G01 X5.039976 Y9.066046 Z-1.000000
G02 X4.055933 Y9.149865 Z-1.000000 I0.017369 J6.022205
G02 X3.201915 Y9.376027 Z-1.000000 I0.801122 J4.750670
G02 X2.414737 Y9.750674 Z-1.000000 I1.603678 J4.383817
G02 X1.799581 Y10.212305 Z-1.000000 I1.860805 J3.120342
G02 X1.589264 Y10.468698 Z-1.000000 I0.845885 J0.908327
G02 X1.462931 Y10.757715 Z-1.000000 I0.955537 J0.589799
G03 X1.409797 Y10.875618 Z-1.000000 I-0.410947 J-0.114271
G01 X1.373691 Y10.895231 Z-1.000000
G02 X1.173660 Y10.946424 Z-1.000000 I-0.000000 J0.416396
G02 X0.999181 Y11.100356 Z-1.000000 I0.254025 J0.463783
G02 X0.967517 Y11.169441 Z-1.000000 I0.157847 J0.114144
G02 X0.952691 Y11.295896 Z-1.000000 I0.531852 J0.126455
G02 X1.034354 Y11.496559 Z-1.000000 I0.287367 J-0.000000
G02 X1.687780 Y12.049448 Z-1.000000 I3.211046 J-3.132374
G03 X1.979193 Y12.259627 Z-1.000000 I-5.646664 J8.136227
G03 X2.157038 Y12.401011 Z-1.000000 I-2.373743 J3.168433
G02 X3.098509 Y13.075719 Z-1.000000 I4.756532 J-5.642946
G02 X3.778472 Y13.380150 Z-1.000000 I1.578293 J-2.613618
G03 X4.103400 Y13.524584 Z-1.000000 I-0.438311 J1.423768
G03 X4.362067 Y13.728318 Z-1.000000 I-0.654440 J1.096965
G02 X4.698107 Y13.988860 Z-1.000000 I1.113751 J-1.089510
G02 X5.102034 Y14.154583 Z-1.000000 I0.819928 J-1.423340
G02 X5.383680 Y14.207194 Z-1.000000 I0.508760 J-1.943409
G02 X5.627692 Y14.214393 Z-1.000000 I0.164860 J-1.448899
G02 X6.131634 Y14.093939 Z-1.000000 I-0.078376 J-1.442300
G02 X6.555399 Y13.805711 Z-1.000000 I-0.569733 J-1.293277
G03 X6.733857 Y13.654579 Z-1.000000 I1.069381 J1.081806
G01 X6.773316 Y13.648243 Z-1.000000
G03 X6.815798 Y13.666443 Z-1.000000 I-0.070200 J0.222543
G03 X7.001987 Y13.774250 Z-1.000000 I-2.485063 J4.506517
G02 X7.309362 Y13.936351 Z-1.000000 I1.492516 J-2.457636
G02 X7.842536 Y14.154504 Z-1.000000 I3.256849 J-7.199220
G03 X8.170596 Y14.275166 Z-1.000000 I-115.346741 J314.115047
G03 X8.264411 Y14.309923 Z-1.000000 I-9.419560 J25.568987
G02 X9.002126 Y14.522559 Z-1.000000 I1.764576 J-4.735965
G02 X10.115973 Y14.694133 Z-1.000000 I2.212670 J-10.663200
G02 X11.034686 Y14.746620 Z-1.000000 I1.055324 J-10.405354
G02 X11.838629 Y14.716643 Z-1.000000 I0.104433 J-7.994563
G02 X12.781323 Y14.582510 Z-1.000000 I-0.775682 J-8.831287
G02 X13.462970 Y14.395704 Z-1.000000 I-0.946707 J-4.791533
G03 X13.632345 Y14.338314 Z-1.000000 I2.255576 J6.378191
G03 X13.933927 Y14.243032 Z-1.000000 I6.534168 J20.156816
G02 X14.234433 Y14.145197 Z-1.000000 I-2.866975 J-9.316463
G02 X14.332364 Y14.106134 Z-1.000000 I-0.352758 J-1.026667
G03 X14.428978 Y14.063446 Z-1.000000 I1.822135 J3.993286
G03 X14.580817 Y13.999910 Z-1.000000 I4.194969 J9.811983
G02 X15.155375 Y13.718564 Z-1.000000 I-1.815870 J-4.435676
G02 X15.674344 Y13.370688 Z-1.000000 I-2.279912 J-3.962264
G02 X16.585047 Y12.562126 Z-1.000000 I-5.556903 J-7.176033
G02 X16.666754 Y12.362672 Z-1.000000 I-0.202591 J-0.199454
G01 X16.669094 Y12.353869 Z-1.000000
G03 X16.760504 Y12.198830 Z-1.000000 I5.925369 J3.389109
G02 X16.847986 Y12.042653 Z-1.000000 I-2.165762 J-1.315738
G02 X16.855214 Y12.014794 Z-1.000000 I-0.058261 J-0.029982
G03 X16.862892 Y11.987438 Z-1.000000 I0.059409 J0.001919
G03 X16.919664 Y11.900901 Z-1.000000 I0.686507 J0.388488
G03 X16.983211 Y11.816765 Z-1.000000 I61.239526 J46.187560
G03 X17.095907 Y11.667876 Z-1.000000 I216.187497 J163.517860
G02 X17.228276 Y11.460713 Z-1.000000 I-1.230763 J-0.932276
G02 X17.450812 Y11.000699 Z-1.000000 I-5.890379 J-3.133365
G03 X17.493155 Y10.907571 Z-1.000000 I3.243209 J1.418432
G03 X17.605761 Y10.672574 Z-1.000000 I20.806141 J9.825381
G02 X17.715727 Y10.436472 Z-1.000000 I-7.038358 J-3.421826
G02 X17.778102 Y10.285855 Z-1.000000 I-2.797934 J-1.246928
G03 X17.930798 Y9.935769 Z-1.000000 I3.940713 J1.510469
G03 X18.025607 Y9.781949 Z-1.000000 I0.847719 J0.416373
G02 X18.064449 Y9.721845 Z-1.000000 I-0.383908 J-0.290699
G02 X18.300464 Y9.278043 Z-1.000000 I-20.835271 J-11.364922
G03 X18.418644 Y9.056977 Z-1.000000 I8.717545 J4.518194
G03 X18.474839 Y8.961636 Z-1.000000 I1.677254 J0.924364
G02 X18.662468 Y8.625970 Z-1.000000 I-3.140945 J-1.975982
G02 X18.682376 Y8.540534 Z-1.000000 I-0.173370 J-0.085436
G01 X18.684893 Y8.530271 Z-1.000000
G03 X18.808512 Y8.298739 Z-1.000000 I12.319070 J6.428614
G02 X19.045166 Y7.788727 Z-1.000000 I-3.774841 J-2.061496
G02 X19.318097 Y6.981168 Z-1.000000 I-9.221480 J-3.566494
G02 X19.403427 Y6.494138 Z-1.000000 I-2.175400 J-0.632132
G02 X19.438569 Y5.104162 Z-1.000000 I-17.876760 J-1.147397
G01 X19.429469 Y4.434188 Z-1.000000
G01 X19.846926 Y4.264539 Z-1.000000
G03 X20.265703 Y4.098318 Z-1.000000 I10.387007 J25.558428
G03 X20.604226 Y3.971081 Z-1.000000 I6.432468 J16.600035
G02 X20.941085 Y3.840405 Z-1.000000 I-2.985954 J-8.196748
G02 X21.112094 Y3.761876 Z-1.000000 I-0.902502 J-2.190809
G03 X21.281178 Y3.680908 Z-1.000000 I1.796012 J3.533522
G03 X21.301820 Y3.676476 Z-1.000000 I0.020642 J0.045861
G02 X21.365613 Y3.640986 Z-1.000000 I0.000000 J-0.075078
G02 X21.401100 Y3.516499 Z-1.000000 I-0.200602 J-0.124487
G02 X21.388229 Y3.445466 Z-1.000000 I-0.202437 J-0.000000
G02 X21.307350 Y3.266320 Z-1.000000 I-1.404894 J0.526432
G03 X21.220863 Y3.088581 Z-1.000000 I2.375422 J-1.265779
G03 X21.213600 Y3.054179 Z-1.000000 I0.077841 J-0.034402
G02 X21.207575 Y3.019354 Z-1.000000 I-0.103654 J0.000000
G02 X21.165550 Y2.919485 Z-1.000000 I-0.917143 J0.327156
G03 X21.127417 Y2.818610 Z-1.000000 I0.524161 J-0.255790
G03 X21.115820 Y2.738976 Z-1.000000 I0.313079 J-0.086255
G02 X21.104065 Y2.659345 Z-1.000000 I-0.320707 J0.006660
G02 X21.063430 Y2.551476 Z-1.000000 I-0.632310 J0.176606
G01 X21.012730 Y2.446007 Z-1.000000
G01 X20.834907 Y2.450107 Z-1.000000
G02 X20.658775 Y2.467157 Z-1.000000 I0.027416 J1.201468
G02 X20.273230 Y2.546587 Z-1.000000 I1.010861 J5.882050
G03 X19.692777 Y2.667283 Z-1.000000 I-2.228796 J-9.262629
G03 X19.244846 Y2.727234 Z-1.000000 I-0.957447 J-5.450346
G01 X19.092503 Y2.741324 Z-1.000000
G01 X19.040653 Y2.640541 Z-1.000000
G03 X18.990822 Y2.538817 Z-1.000000 I2.557374 J-1.315827
G03 X18.944603 Y2.434290 Z-1.000000 I2.659166 J-1.238300
G02 X18.893209 Y2.332993 Z-1.000000 I-0.721282 J0.302264
G02 X18.810472 Y2.211633 Z-1.000000 I-1.120630 J0.675104
G03 X18.722800 Y2.092810 Z-1.000000 I3.086243 J-2.368913
G03 X18.569961 Y1.872393 Z-1.000000 I10.511302 J-7.451799
G02 X18.247246 Y1.451708 Z-1.000000 I-3.753709 J2.545413
G02 X18.005200 Y1.219113 Z-1.000000 I-1.375310 J1.188957
G02 X17.398069 Y0.832506 Z-1.000000 I-2.120182 J2.659530
G02 X16.701878 Y0.571738 Z-1.000000 I-1.614127 J3.249626
G02 X16.305793 Y0.508197 Z-1.000000 I-0.525607 J2.010102
G02 X15.752659 Y0.512448 Z-1.000000 I-0.246279 J3.942925
G01 X15.752702 Y0.512452 Z-1.000000
G00 Z0.000000

(End cutting path id: path4274)


(Start cutting path id: path4274)
(Change tool to Cone cutter)

G00 Z0.000000
G00 X15.869887 Y0.897068

G01 Z-1.000000 F100.0(Penetrate)
G03 X15.849653 Y1.080340 Z-1.000000 I-0.840142 J-0.000000 F400.000000
G03 X15.752588 Y1.421815 Z-1.000000 I-3.038787 J-0.679253
G02 X15.713051 Y1.570017 Z-1.000000 I0.990496 J0.343619
G02 X15.714578 Y1.622220 Z-1.000000 I0.119302 J0.022634
G01 X15.700281 Y1.657617 Z-1.000000
G03 X15.582052 Y1.704770 Z-1.000000 I-0.190457 J-0.305744
G02 X15.437646 Y1.739431 Z-1.000000 I0.442367 J2.161154
G02 X15.313471 Y1.778870 Z-1.000000 I0.452565 J1.640117
G01 X15.190649 Y1.823140 Z-1.000000
G01 X15.176839 Y1.759570 Z-1.000000
G02 X15.161317 Y1.696445 Z-1.000000 I-1.174397 J0.255304
G02 X15.118019 Y1.545569 Z-1.000000 I-6.690447 J1.838360
G03 X15.081158 Y1.393944 Z-1.000000 I1.433230 J-0.428722
G03 X15.073009 Y1.306718 Z-1.000000 I0.462763 J-0.087226
G02 X15.063652 Y1.223512 Z-1.000000 I-0.374608 J-0.000000
G01 X15.049569 Y1.203813 Z-1.000000
G01 X15.034503 Y1.184631 Z-1.000000
G03 X15.026129 Y1.132113 Z-1.000000 I0.160497 J-0.052518
G02 X15.015114 Y1.085376 Z-1.000000 I-0.104660 J-0.000000
G01 X14.996829 Y1.073413 Z-1.000000
G01 X14.991696 Y1.030139 Z-1.000000
G03 X15.623782 Y0.888099 Z-1.000000 I1.386863 J4.694180
G03 X15.848373 Y0.874797 Z-1.000000 I0.181594 J1.163403
G01 X15.869875 Y0.897099 Z-1.000000
G01 X15.869887 Y0.897068 Z-1.000000
G00 Z0.000000

(End cutting path id: path4274)


(Start cutting path id: path4274)
(Change tool to Cone cutter)

G00 Z0.000000
G00 X15.869887 Y0.897068

G01 Z-1.000000 F100.0(Penetrate)
G03 X15.849653 Y1.080340 Z-1.000000 I-0.840142 J-0.000000 F400.000000
G03 X15.752588 Y1.421815 Z-1.000000 I-3.038787 J-0.679253
G02 X15.713051 Y1.570017 Z-1.000000 I0.990496 J0.343619
G02 X15.714578 Y1.622220 Z-1.000000 I0.119302 J0.022634
G01 X15.700281 Y1.657617 Z-1.000000
G03 X15.582052 Y1.704770 Z-1.000000 I-0.190457 J-0.305744
G02 X15.437646 Y1.739431 Z-1.000000 I0.442367 J2.161154
G02 X15.313471 Y1.778870 Z-1.000000 I0.452565 J1.640117
G01 X15.190649 Y1.823140 Z-1.000000
G01 X15.176839 Y1.759570 Z-1.000000
G02 X15.161317 Y1.696445 Z-1.000000 I-1.174397 J0.255304
G02 X15.118019 Y1.545569 Z-1.000000 I-6.690447 J1.838360
G03 X15.081158 Y1.393944 Z-1.000000 I1.433230 J-0.428722
G03 X15.073009 Y1.306718 Z-1.000000 I0.462763 J-0.087226
G02 X15.063652 Y1.223512 Z-1.000000 I-0.374608 J-0.000000
G01 X15.049569 Y1.203813 Z-1.000000
G01 X15.034503 Y1.184631 Z-1.000000
G03 X15.026129 Y1.132113 Z-1.000000 I0.160497 J-0.052518
G02 X15.015114 Y1.085376 Z-1.000000 I-0.104660 J-0.000000
G01 X14.996829 Y1.073413 Z-1.000000
G01 X14.991696 Y1.030139 Z-1.000000
G03 X15.623782 Y0.888099 Z-1.000000 I1.386863 J4.694180
G03 X15.848373 Y0.874797 Z-1.000000 I0.181594 J1.163403
G01 X15.869875 Y0.897099 Z-1.000000
G01 X15.869887 Y0.897068 Z-1.000000
G00 Z0.000000

(End cutting path id: path4274)


(Start cutting path id: path4274)
(Change tool to Cone cutter)

G00 Z0.000000
G00 X15.932287 Y0.916708

G01 Z-1.000000 F100.0(Penetrate)
G01 X15.926152 Y0.916707 Z-1.000000 F400.000000
G03 X15.920467 Y0.887408 Z-1.000000 I0.072664 J-0.029299
G03 X15.926149 Y0.858112 Z-1.000000 I0.078367 J-0.000000
G01 X15.932287 Y0.858108 Z-1.000000
G03 X15.937974 Y0.887403 Z-1.000000 I-0.072607 J0.029295
G03 X15.932287 Y0.916698 Z-1.000000 I-0.078294 J-0.000000
G01 X15.932287 Y0.916708 Z-1.000000
G00 Z0.000000

(End cutting path id: path4274)


(Start cutting path id: path4274)
(Change tool to Cone cutter)

G00 Z0.000000
G00 X15.932287 Y0.916708

G01 Z-1.000000 F100.0(Penetrate)
G01 X15.926152 Y0.916707 Z-1.000000 F400.000000
G03 X15.920467 Y0.887408 Z-1.000000 I0.072664 J-0.029299
G03 X15.926149 Y0.858112 Z-1.000000 I0.078367 J-0.000000
G01 X15.932287 Y0.858108 Z-1.000000
G03 X15.937974 Y0.887403 Z-1.000000 I-0.072607 J0.029295
G03 X15.932287 Y0.916698 Z-1.000000 I-0.078294 J-0.000000
G01 X15.932287 Y0.916708 Z-1.000000
G00 Z0.000000

(End cutting path id: path4274)


(Start cutting path id: path4274)
(Change tool to Cone cutter)

G00 Z0.000000
G00 X16.064093 Y1.086637

G01 Z-1.000000 F100.0(Penetrate)
G02 X16.069182 Y1.139146 Z-1.000000 I0.281872 J-0.000818 F400.000000
G01 X16.074213 Y1.139047 Z-1.000000
G02 X16.078970 Y1.074367 Z-1.000000 I-0.416797 J-0.063169
G02 X16.073894 Y1.021859 Z-1.000000 I-0.284677 J0.001021
G01 X16.068854 Y1.021964 Z-1.000000
G02 X16.064094 Y1.086639 Z-1.000000 I0.419117 J0.063359
G01 X16.064093 Y1.086637 Z-1.000000
G00 Z0.000000

(End cutting path id: path4274)


(Start cutting path id: path4274)
(Change tool to Cone cutter)

G00 Z0.000000
G00 X16.064093 Y1.086637

G01 Z-1.000000 F100.0(Penetrate)
G02 X16.069182 Y1.139146 Z-1.000000 I0.281872 J-0.000818 F400.000000
G01 X16.074213 Y1.139047 Z-1.000000
G02 X16.078970 Y1.074367 Z-1.000000 I-0.416797 J-0.063169
G02 X16.073894 Y1.021859 Z-1.000000 I-0.284677 J0.001021
G01 X16.068854 Y1.021964 Z-1.000000
G02 X16.064094 Y1.086639 Z-1.000000 I0.419117 J0.063359
G01 X16.064093 Y1.086637 Z-1.000000
G00 Z0.000000

(End cutting path id: path4274)


(Start cutting path id: path4274)
(Change tool to Cone cutter)

G00 Z0.000000
G00 X16.103223 Y1.110077

G01 Z-1.000000 F100.0(Penetrate)
G03 X16.097256 Y1.226882 Z-1.000000 I-1.621963 J-0.024311 F400.000000
G03 X16.083293 Y1.337585 Z-1.000000 I-1.449232 J-0.126553
G02 X16.075189 Y1.432883 Z-1.000000 I0.601697 J0.099159
G01 X16.082651 Y1.437075 Z-1.000000
G02 X16.184160 Y1.275327 Z-1.000000 I-0.113838 J-0.184168
G02 X16.125531 Y1.025339 Z-1.000000 I-0.389411 J-0.040542
G01 X16.114604 Y1.027031 Z-1.000000
G02 X16.103231 Y1.110079 Z-1.000000 I0.335107 J0.088195
G01 X16.103223 Y1.110077 Z-1.000000
G00 Z0.000000

(End cutting path id: path4274)


(Start cutting path id: path4274)
(Change tool to Cone cutter)

G00 Z0.000000
G00 X16.103223 Y1.110077

G01 Z-1.000000 F100.0(Penetrate)
G03 X16.097256 Y1.226882 Z-1.000000 I-1.621963 J-0.024311 F400.000000
G03 X16.083293 Y1.337585 Z-1.000000 I-1.449232 J-0.126553
G02 X16.075189 Y1.432883 Z-1.000000 I0.601697 J0.099159
G01 X16.082651 Y1.437075 Z-1.000000
G02 X16.184160 Y1.275327 Z-1.000000 I-0.113838 J-0.184168
G02 X16.125531 Y1.025339 Z-1.000000 I-0.389411 J-0.040542
G01 X16.114604 Y1.027031 Z-1.000000
G02 X16.103231 Y1.110079 Z-1.000000 I0.335107 J0.088195
G01 X16.103223 Y1.110077 Z-1.000000
G00 Z0.000000

(End cutting path id: path4274)


(Start cutting path id: path4274)
(Change tool to Cone cutter)

G00 Z0.000000
G00 X15.799574 Y1.637583

G01 Z-1.000000 F100.0(Penetrate)
G02 X15.826036 Y1.728151 Z-1.000000 I0.168219 J-0.000000 F400.000000
G02 X15.874344 Y1.754613 Z-1.000000 I0.048308 J-0.030864
G01 X15.880890 Y1.745874 Z-1.000000
G02 X15.861754 Y1.711693 Z-1.000000 I-0.084113 J0.024642
G03 X15.833771 Y1.669044 Z-1.000000 I0.122523 J-0.110894
G01 X15.836244 Y1.655443 Z-1.000000
G01 X15.838697 Y1.643417 Z-1.000000
G01 X15.824574 Y1.626663 Z-1.000000
G01 X15.807516 Y1.625446 Z-1.000000
G01 X15.799574 Y1.637573 Z-1.000000
G01 X15.799574 Y1.637583 Z-1.000000
G00 Z0.000000

(End cutting path id: path4274)


(Start cutting path id: path4274)
(Change tool to Cone cutter)

G00 Z0.000000
G00 X15.799574 Y1.637583

G01 Z-1.000000 F100.0(Penetrate)
G02 X15.826036 Y1.728151 Z-1.000000 I0.168219 J-0.000000 F400.000000
G02 X15.874344 Y1.754613 Z-1.000000 I0.048308 J-0.030864
G01 X15.880890 Y1.745874 Z-1.000000
G02 X15.861754 Y1.711693 Z-1.000000 I-0.084113 J0.024642
G03 X15.833771 Y1.669044 Z-1.000000 I0.122523 J-0.110894
G01 X15.836244 Y1.655443 Z-1.000000
G01 X15.838697 Y1.643417 Z-1.000000
G01 X15.824574 Y1.626663 Z-1.000000
G01 X15.807516 Y1.625446 Z-1.000000
G01 X15.799574 Y1.637573 Z-1.000000
G01 X15.799574 Y1.637583 Z-1.000000
G00 Z0.000000

(End cutting path id: path4274)


(Start cutting path id: path4274)
(Change tool to Cone cutter)

G00 Z0.000000
G00 X15.916761 Y1.814403

G01 Z-1.000000 F100.0(Penetrate)
G02 X15.950719 Y1.865254 Z-1.000000 I0.055052 J0.000000 F400.000000
G02 X16.109368 Y1.894303 Z-1.000000 I0.146769 J-0.353813
G01 X16.111606 Y1.887270 Z-1.000000
G02 X16.047338 Y1.847433 Z-1.000000 I-0.247387 J0.327343
G02 X15.930169 Y1.803961 Z-1.000000 I-0.259968 J0.521048
G01 X15.916757 Y1.814403 Z-1.000000
G01 X15.916761 Y1.814403 Z-1.000000
G00 Z0.000000

(End cutting path id: path4274)


(Start cutting path id: path4274)
(Change tool to Cone cutter)

G00 Z0.000000
G00 X15.916761 Y1.814403

G01 Z-1.000000 F100.0(Penetrate)
G02 X15.950719 Y1.865254 Z-1.000000 I0.055052 J0.000000 F400.000000
G02 X16.109368 Y1.894303 Z-1.000000 I0.146769 J-0.353813
G01 X16.111606 Y1.887270 Z-1.000000
G02 X16.047338 Y1.847433 Z-1.000000 I-0.247387 J0.327343
G02 X15.930169 Y1.803961 Z-1.000000 I-0.259968 J0.521048
G01 X15.916757 Y1.814403 Z-1.000000
G01 X15.916761 Y1.814403 Z-1.000000
G00 Z0.000000

(End cutting path id: path4274)


(Start cutting path id: path4274)
(Change tool to Cone cutter)

G00 Z0.000000
G00 X15.863785 Y2.047119

G01 Z-1.000000 F100.0(Penetrate)
G03 X16.294753 Y2.243123 Z-1.000000 I-0.372791 J1.391484 F400.000000
G03 X16.703926 Y2.611973 Z-1.000000 I-1.088182 J1.618519
G03 X16.947808 Y2.964444 Z-1.000000 I-1.826682 J1.524530
G03 X17.000208 Y3.135385 Z-1.000000 I-0.360287 J0.203943
G03 X16.977606 Y3.197254 Z-1.000000 I-0.078757 J0.006292
G03 X16.866830 Y3.270151 Z-1.000000 I-0.227613 J-0.225271
G03 X16.726832 Y3.323748 Z-1.000000 I-3.517345 J-8.977871
G01 X16.720345 Y3.324921 Z-1.000000
G01 X16.716862 Y3.321659 Z-1.000000
G03 X16.713045 Y3.213593 Z-1.000000 I1.774755 J-0.116781
G02 X16.672642 Y2.976144 Z-1.000000 I-0.740332 J0.003808
G02 X16.536074 Y2.700166 Z-1.000000 I-1.143937 J0.394301
G02 X16.395281 Y2.519941 Z-1.000000 I-1.252562 J0.833408
G02 X16.273683 Y2.412369 Z-1.000000 I-0.560310 J0.510851
G02 X16.137210 Y2.323977 Z-1.000000 I-1.114875 J1.571763
G01 X16.112029 Y2.317109 Z-1.000000
G03 X16.085841 Y2.312046 Z-1.000000 I-0.000000 J-0.070256
G03 X15.971403 Y2.260619 Z-1.000000 I0.579429 J-1.442421
G02 X15.616463 Y2.129953 Z-1.000000 I-0.769460 J1.542744
G02 X15.385055 Y2.115375 Z-1.000000 I-0.155781 J0.628884
G01 X15.346395 Y2.083153 Z-1.000000
G03 X15.379655 Y2.031275 Z-1.000000 I0.051888 J-0.003335
G03 X15.556311 Y2.001516 Z-1.000000 I0.161883 J0.421766
G03 X15.863805 Y2.047125 Z-1.000000 I-0.044468 J1.359168
G01 X15.863785 Y2.047119 Z-1.000000
G00 Z0.000000

(End cutting path id: path4274)


(Start cutting path id: path4274)
(Change tool to Cone cutter)

G00 Z0.000000
G00 X15.863785 Y2.047119

G01 Z-1.000000 F100.0(Penetrate)
G03 X16.294753 Y2.243123 Z-1.000000 I-0.372791 J1.391484 F400.000000
G03 X16.703926 Y2.611973 Z-1.000000 I-1.088182 J1.618519
G03 X16.947808 Y2.964444 Z-1.000000 I-1.826682 J1.524530
G03 X17.000208 Y3.135385 Z-1.000000 I-0.360287 J0.203943
G03 X16.977606 Y3.197254 Z-1.000000 I-0.078757 J0.006292
G03 X16.866830 Y3.270151 Z-1.000000 I-0.227613 J-0.225271
G03 X16.726832 Y3.323748 Z-1.000000 I-3.517345 J-8.977871
G01 X16.720345 Y3.324921 Z-1.000000
G01 X16.716862 Y3.321659 Z-1.000000
G03 X16.713045 Y3.213593 Z-1.000000 I1.774755 J-0.116781
G02 X16.672642 Y2.976144 Z-1.000000 I-0.740332 J0.003808
G02 X16.536074 Y2.700166 Z-1.000000 I-1.143937 J0.394301
G02 X16.395281 Y2.519941 Z-1.000000 I-1.252562 J0.833408
G02 X16.273683 Y2.412369 Z-1.000000 I-0.560310 J0.510851
G02 X16.137210 Y2.323977 Z-1.000000 I-1.114875 J1.571763
G01 X16.112029 Y2.317109 Z-1.000000
G03 X16.085841 Y2.312046 Z-1.000000 I-0.000000 J-0.070256
G03 X15.971403 Y2.260619 Z-1.000000 I0.579429 J-1.442421
G02 X15.616463 Y2.129953 Z-1.000000 I-0.769460 J1.542744
G02 X15.385055 Y2.115375 Z-1.000000 I-0.155781 J0.628884
G01 X15.346395 Y2.083153 Z-1.000000
G03 X15.379655 Y2.031275 Z-1.000000 I0.051888 J-0.003335
G03 X15.556311 Y2.001516 Z-1.000000 I0.161883 J0.421766
G03 X15.863805 Y2.047125 Z-1.000000 I-0.044468 J1.359168
G01 X15.863785 Y2.047119 Z-1.000000
G00 Z0.000000

(End cutting path id: path4274)


(Start cutting path id: path4274)
(Change tool to Cone cutter)

G00 Z0.000000
G00 X15.650754 Y2.425326

G01 Z-1.000000 F100.0(Penetrate)
G03 X15.769951 Y2.490528 Z-1.000000 I-0.656113 J1.341006 F400.000000
G01 X15.776104 Y2.501496 Z-1.000000
G01 X15.769403 Y2.511395 Z-1.000000
G03 X15.640731 Y2.556096 Z-1.000000 I-0.525223 J-1.304317
G02 X15.513516 Y2.610162 Z-1.000000 I0.168131 J0.572307
G02 X15.400530 Y2.692987 Z-1.000000 I0.303364 J0.532311
G03 X15.288058 Y2.766179 Z-1.000000 I-0.269185 J-0.290638
G03 X15.203379 Y2.777907 Z-1.000000 I-0.063604 J-0.147664
G02 X15.119042 Y2.789055 Z-1.000000 I-0.021462 J0.162222
G02 X15.025358 Y2.851957 Z-1.000000 I0.110810 J0.266253
G02 X14.944632 Y2.941451 Z-1.000000 I0.883475 J0.878074
G02 X14.926068 Y2.973363 Z-1.000000 I0.090440 J0.073967
G01 X14.909548 Y2.984698 Z-1.000000
G01 X14.887648 Y2.973363 Z-1.000000
G03 X14.865550 Y2.885524 Z-1.000000 I0.102494 J-0.072484
G03 X14.929528 Y2.633519 Z-1.000000 I1.026669 J0.126523
G01 X14.994038 Y2.469457 Z-1.000000
G01 X15.090288 Y2.476657 Z-1.000000
G02 X15.183461 Y2.468873 Z-1.000000 I0.022224 J-0.295495
G02 X15.299696 Y2.425017 Z-1.000000 I-0.125256 J-0.507941
G03 X15.470117 Y2.383404 Z-1.000000 I0.170117 J0.326916
G03 X15.650749 Y2.425299 Z-1.000000 I-0.000340 J0.411813
G01 X15.650754 Y2.425326 Z-1.000000
G00 Z0.000000

(End cutting path id: path4274)


(Start cutting path id: path4274)
(Change tool to Cone cutter)

G00 Z0.000000
G00 X15.650754 Y2.425326

G01 Z-1.000000 F100.0(Penetrate)
G03 X15.769951 Y2.490528 Z-1.000000 I-0.656113 J1.341006 F400.000000
G01 X15.776104 Y2.501496 Z-1.000000
G01 X15.769403 Y2.511395 Z-1.000000
G03 X15.640731 Y2.556096 Z-1.000000 I-0.525223 J-1.304317
G02 X15.513516 Y2.610162 Z-1.000000 I0.168131 J0.572307
G02 X15.400530 Y2.692987 Z-1.000000 I0.303364 J0.532311
G03 X15.288058 Y2.766179 Z-1.000000 I-0.269185 J-0.290638
G03 X15.203379 Y2.777907 Z-1.000000 I-0.063604 J-0.147664
G02 X15.119042 Y2.789055 Z-1.000000 I-0.021462 J0.162222
G02 X15.025358 Y2.851957 Z-1.000000 I0.110810 J0.266253
G02 X14.944632 Y2.941451 Z-1.000000 I0.883475 J0.878074
G02 X14.926068 Y2.973363 Z-1.000000 I0.090440 J0.073967
G01 X14.909548 Y2.984698 Z-1.000000
G01 X14.887648 Y2.973363 Z-1.000000
G03 X14.865550 Y2.885524 Z-1.000000 I0.102494 J-0.072484
G03 X14.929528 Y2.633519 Z-1.000000 I1.026669 J0.126523
G01 X14.994038 Y2.469457 Z-1.000000
G01 X15.090288 Y2.476657 Z-1.000000
G02 X15.183461 Y2.468873 Z-1.000000 I0.022224 J-0.295495
G02 X15.299696 Y2.425017 Z-1.000000 I-0.125256 J-0.507941
G03 X15.470117 Y2.383404 Z-1.000000 I0.170117 J0.326916
G03 X15.650749 Y2.425299 Z-1.000000 I-0.000340 J0.411813
G01 X15.650754 Y2.425326 Z-1.000000
G00 Z0.000000

(End cutting path id: path4274)


(Start cutting path id: path4274)
(Change tool to Cone cutter)

G00 Z0.000000
G00 X15.309284 Y2.353246

G01 Z-1.000000 F100.0(Penetrate)
G03 X15.179481 Y2.397550 Z-1.000000 I-0.271554 J-0.583300 F400.000000
G03 X15.076845 Y2.405756 Z-1.000000 I-0.079944 J-0.353953
G02 X14.983961 Y2.422846 Z-1.000000 I-0.012264 J0.194308
G02 X14.927184 Y2.473806 Z-1.000000 I0.052681 J0.115802
G02 X14.889142 Y2.550786 Z-1.000000 I0.487579 J0.288843
G02 X14.871394 Y2.612197 Z-1.000000 I0.291657 J0.117559
G03 X14.855975 Y2.674582 Z-1.000000 I-0.512693 J-0.093616
G03 X14.839274 Y2.714341 Z-1.000000 I-0.219907 J-0.068987
G02 X14.768917 Y2.969526 Z-1.000000 I0.529185 J0.283192
G02 X14.821074 Y3.104236 Z-1.000000 I0.178505 J0.008339
G02 X14.906622 Y3.117858 Z-1.000000 I0.052165 J-0.052165
G02 X14.991815 Y3.017586 Z-1.000000 I-0.077003 J-0.151751
G03 X15.011279 Y2.976041 Z-1.000000 I0.169310 J0.053991
G03 X15.064995 Y2.902919 Z-1.000000 I0.580040 J0.369810
G03 X15.169474 Y2.841599 Z-1.000000 I0.138762 J0.116762
G03 X15.291348 Y2.859349 Z-1.000000 I0.035428 J0.184028
G01 X15.327468 Y2.869669 Z-1.000000
G01 X15.326931 Y2.853851 Z-1.000000
G03 X15.425638 Y2.747446 Z-1.000000 I0.799274 J0.642463
G03 X15.687584 Y2.575359 Z-1.000000 I0.629907 J0.673419
G03 X15.765219 Y2.599662 Z-1.000000 I0.024790 J0.056962
G01 X15.782008 Y2.616206 Z-1.000000
G01 X15.802339 Y2.621802 Z-1.000000
G01 X15.812844 Y2.614578 Z-1.000000
G01 X15.811339 Y2.598362 Z-1.000000
G01 X15.812567 Y2.583700 Z-1.000000
G01 X15.832009 Y2.574922 Z-1.000000
G02 X15.863238 Y2.567879 Z-1.000000 I0.000000 J-0.072759
G01 X15.881779 Y2.551272 Z-1.000000
G02 X15.897097 Y2.453604 Z-1.000000 I-0.108539 J-0.067058
G01 X15.854649 Y2.441767 Z-1.000000
G01 X15.842238 Y2.444206 Z-1.000000
G03 X15.691024 Y2.373217 Z-1.000000 I0.776782 J-1.851168
G02 X15.489611 Y2.318259 Z-1.000000 I-0.227086 J0.435687
G02 X15.309332 Y2.353247 Z-1.000000 I-0.019862 J0.379606
G01 X15.309284 Y2.353246 Z-1.000000
G00 Z0.000000

(End cutting path id: path4274)


(Start cutting path id: path4274)
(Change tool to Cone cutter)

G00 Z0.000000
G00 X15.309284 Y2.353246

G01 Z-1.000000 F100.0(Penetrate)
G03 X15.179481 Y2.397550 Z-1.000000 I-0.271554 J-0.583300 F400.000000
G03 X15.076845 Y2.405756 Z-1.000000 I-0.079944 J-0.353953
G02 X14.983961 Y2.422846 Z-1.000000 I-0.012264 J0.194308
G02 X14.927184 Y2.473806 Z-1.000000 I0.052681 J0.115802
G02 X14.889142 Y2.550786 Z-1.000000 I0.487579 J0.288843
G02 X14.871394 Y2.612197 Z-1.000000 I0.291657 J0.117559
G03 X14.855975 Y2.674582 Z-1.000000 I-0.512693 J-0.093616
G03 X14.839274 Y2.714341 Z-1.000000 I-0.219907 J-0.068987
G02 X14.768917 Y2.969526 Z-1.000000 I0.529185 J0.283192
G02 X14.821074 Y3.104236 Z-1.000000 I0.178505 J0.008339
G02 X14.906622 Y3.117858 Z-1.000000 I0.052165 J-0.052165
G02 X14.991815 Y3.017586 Z-1.000000 I-0.077003 J-0.151751
G03 X15.011279 Y2.976041 Z-1.000000 I0.169310 J0.053991
G03 X15.064995 Y2.902919 Z-1.000000 I0.580040 J0.369810
G03 X15.169474 Y2.841599 Z-1.000000 I0.138762 J0.116762
G03 X15.291348 Y2.859349 Z-1.000000 I0.035428 J0.184028
G01 X15.327468 Y2.869669 Z-1.000000
G01 X15.326931 Y2.853851 Z-1.000000
G03 X15.425638 Y2.747446 Z-1.000000 I0.799274 J0.642463
G03 X15.687584 Y2.575359 Z-1.000000 I0.629907 J0.673419
G03 X15.765219 Y2.599662 Z-1.000000 I0.024790 J0.056962
G01 X15.782008 Y2.616206 Z-1.000000
G01 X15.802339 Y2.621802 Z-1.000000
G01 X15.812844 Y2.614578 Z-1.000000
G01 X15.811339 Y2.598362 Z-1.000000
G01 X15.812567 Y2.583700 Z-1.000000
G01 X15.832009 Y2.574922 Z-1.000000
G02 X15.863238 Y2.567879 Z-1.000000 I0.000000 J-0.072759
G01 X15.881779 Y2.551272 Z-1.000000
G02 X15.897097 Y2.453604 Z-1.000000 I-0.108539 J-0.067058
G01 X15.854649 Y2.441767 Z-1.000000
G01 X15.842238 Y2.444206 Z-1.000000
G03 X15.691024 Y2.373217 Z-1.000000 I0.776782 J-1.851168
G02 X15.489611 Y2.318259 Z-1.000000 I-0.227086 J0.435687
G02 X15.309332 Y2.353247 Z-1.000000 I-0.019862 J0.379606
G01 X15.309284 Y2.353246 Z-1.000000
G00 Z0.000000

(End cutting path id: path4274)


(Start cutting path id: path4274)
(Change tool to Cone cutter)

G00 Z0.000000
G00 X15.369237 Y1.963929

G01 Z-1.000000 F100.0(Penetrate)
G02 X15.259022 Y2.015911 Z-1.000000 I0.397457 J0.985541 F400.000000
G02 X15.207005 Y2.052159 Z-1.000000 I0.137288 J0.252459
G03 X15.183197 Y2.064682 Z-1.000000 I-0.038052 J-0.043452
G01 X15.179095 Y2.059259 Z-1.000000
G01 X15.174722 Y2.055344 Z-1.000000
G02 X15.101095 Y2.116819 Z-1.000000 I0.477984 J0.647291
G02 X15.011287 Y2.213248 Z-1.000000 I0.693444 J0.735866
G01 X15.002695 Y2.237358 Z-1.000000
G01 X15.038672 Y2.272481 Z-1.000000
G02 X15.140209 Y2.234058 Z-1.000000 I-0.003933 J-0.163767
G03 X15.215790 Y2.195936 Z-1.000000 I0.118356 J0.140666
G03 X15.380998 Y2.176448 Z-1.000000 I0.165208 J0.690539
G03 X15.723580 Y2.221324 Z-1.000000 I0.000000 J1.330071
G03 X15.984638 Y2.337357 Z-1.000000 I-0.234203 J0.878612
G02 X16.042841 Y2.368478 Z-1.000000 I0.211861 J-0.326241
G02 X16.085258 Y2.380617 Z-1.000000 I0.068613 J-0.159572
G03 X16.387121 Y2.523635 Z-1.000000 I-0.087804 J0.575399
G03 X16.437362 Y2.697935 Z-1.000000 I-0.114919 J0.127516
G01 X16.440126 Y2.709721 Z-1.000000
G01 X16.453122 Y2.715515 Z-1.000000
G03 X16.521030 Y2.751870 Z-1.000000 I-0.000000 J0.081600
G03 X16.557380 Y2.871987 Z-1.000000 I-0.180284 J0.120117
G01 X16.565499 Y2.895417 Z-1.000000
G02 X16.590120 Y2.913557 Z-1.000000 I0.045258 J-0.035648
G01 X16.608765 Y2.930870 Z-1.000000
G01 X16.607630 Y2.950747 Z-1.000000
G01 X16.603559 Y2.974602 Z-1.000000
G02 X16.620520 Y3.009247 Z-1.000000 I0.079770 J-0.017578
G03 X16.636119 Y3.046365 Z-1.000000 I-0.053323 J0.044245
G03 X16.632760 Y3.127715 Z-1.000000 I-0.281605 J0.029118
G02 X16.631017 Y3.191758 Z-1.000000 I0.199872 J0.037485
G01 X16.641860 Y3.196905 Z-1.000000
G01 X16.656155 Y3.200601 Z-1.000000
G03 X16.666790 Y3.241475 Z-1.000000 I-0.073225 J0.040874
G03 X16.657277 Y3.291945 Z-1.000000 I-0.138641 J-0.000000
G01 X16.643350 Y3.301455 Z-1.000000
G01 X16.619151 Y3.329265 Z-1.000000
G02 X16.656610 Y3.396485 Z-1.000000 I0.105453 J-0.014718
G02 X16.694829 Y3.409033 Z-1.000000 I0.035029 J-0.042216
G02 X16.756220 Y3.390685 Z-1.000000 I-0.008092 J-0.138958
G03 X16.820934 Y3.358485 Z-1.000000 I0.294570 J0.510884
G03 X16.912886 Y3.324375 Z-1.000000 I0.423362 J1.000284
G02 X17.079647 Y3.238769 Z-1.000000 I-0.174868 J-0.545874
G02 X17.111368 Y3.177060 Z-1.000000 I-0.046815 J-0.063072
G01 X17.102266 Y3.151954 Z-1.000000
G01 X17.087728 Y3.149730 Z-1.000000
G01 X17.077698 Y3.145205 Z-1.000000
G03 X17.079428 Y3.100740 Z-1.000000 I0.106824 J-0.018110
G02 X17.081646 Y3.055666 Z-1.000000 I-0.112026 J-0.028103
G01 X17.072028 Y3.051190 Z-1.000000
G01 X17.061335 Y3.047139 Z-1.000000
G03 X17.059398 Y3.009010 Z-1.000000 I0.077003 J-0.023025
G02 X17.053038 Y2.957849 Z-1.000000 I-0.082259 J-0.015749
G02 X17.003278 Y2.888698 Z-1.000000 I-0.207414 J0.096771
G01 X16.965618 Y2.842008 Z-1.000000
G01 X16.976570 Y2.830861 Z-1.000000
G02 X16.907028 Y2.744648 Z-1.000000 I-0.347417 J0.209084
G01 X16.850768 Y2.679858 Z-1.000000
G01 X16.865436 Y2.664379 Z-1.000000
G02 X16.768718 Y2.551483 Z-1.000000 I-0.450251 J0.287850
G02 X16.741186 Y2.535624 Z-1.000000 I-0.052862 J0.059942
G01 X16.737268 Y2.540973 Z-1.000000
G01 X16.697778 Y2.506703 Z-1.000000
G03 X16.635066 Y2.423274 Z-1.000000 I0.427500 J-0.386628
G01 X16.635068 Y2.405301 Z-1.000000
G01 X16.635154 Y2.395507 Z-1.000000
G01 X16.627568 Y2.392691 Z-1.000000
G01 X16.613415 Y2.391964 Z-1.000000
G01 X16.608248 Y2.383991 Z-1.000000
G02 X16.567954 Y2.288997 Z-1.000000 I-0.132121 J0.000000
G02 X16.502714 Y2.281961 Z-1.000000 I-0.037143 J0.038424
G01 X16.486657 Y2.281434 Z-1.000000
G03 X16.395426 Y2.205231 Z-1.000000 I0.465026 J-0.649451
G02 X16.328557 Y2.148896 Z-1.000000 I-0.433832 J0.447102
G01 X16.323786 Y2.153011 Z-1.000000
G01 X16.321064 Y2.157509 Z-1.000000
G01 X16.311076 Y2.153011 Z-1.000000
G02 X16.277484 Y2.121845 Z-1.000000 I-0.174881 J0.154807
G02 X16.256606 Y2.111621 Z-1.000000 I-0.036412 J0.047928
G03 X16.233491 Y2.104672 Z-1.000000 I0.093140 J-0.351741
G03 X15.995464 Y2.023631 Z-1.000000 I13.584908 J-40.290533
G02 X15.578929 Y1.933480 Z-1.000000 I-0.588408 J1.711327
G02 X15.369323 Y1.963891 Z-1.000000 I-0.042452 J0.444955
G01 X15.369237 Y1.963929 Z-1.000000
G00 Z0.000000

(End cutting path id: path4274)


(Start cutting path id: path4274)
(Change tool to Cone cutter)

G00 Z0.000000
G00 X15.369237 Y1.963929

G01 Z-1.000000 F100.0(Penetrate)
G02 X15.259022 Y2.015911 Z-1.000000 I0.397457 J0.985541 F400.000000
G02 X15.207005 Y2.052159 Z-1.000000 I0.137288 J0.252459
G03 X15.183197 Y2.064682 Z-1.000000 I-0.038052 J-0.043452
G01 X15.179095 Y2.059259 Z-1.000000
G01 X15.174722 Y2.055344 Z-1.000000
G02 X15.101095 Y2.116819 Z-1.000000 I0.477984 J0.647291
G02 X15.011287 Y2.213248 Z-1.000000 I0.693444 J0.735866
G01 X15.002695 Y2.237358 Z-1.000000
G01 X15.038672 Y2.272481 Z-1.000000
G02 X15.140209 Y2.234058 Z-1.000000 I-0.003933 J-0.163767
G03 X15.215790 Y2.195936 Z-1.000000 I0.118356 J0.140666
G03 X15.380998 Y2.176448 Z-1.000000 I0.165208 J0.690539
G03 X15.723580 Y2.221324 Z-1.000000 I0.000000 J1.330071
G03 X15.984638 Y2.337357 Z-1.000000 I-0.234203 J0.878612
G02 X16.042841 Y2.368478 Z-1.000000 I0.211861 J-0.326241
G02 X16.085258 Y2.380617 Z-1.000000 I0.068613 J-0.159572
G03 X16.387121 Y2.523635 Z-1.000000 I-0.087804 J0.575399
G03 X16.437362 Y2.697935 Z-1.000000 I-0.114919 J0.127516
G01 X16.440126 Y2.709721 Z-1.000000
G01 X16.453122 Y2.715515 Z-1.000000
G03 X16.521030 Y2.751870 Z-1.000000 I-0.000000 J0.081600
G03 X16.557380 Y2.871987 Z-1.000000 I-0.180284 J0.120117
G01 X16.565499 Y2.895417 Z-1.000000
G02 X16.590120 Y2.913557 Z-1.000000 I0.045258 J-0.035648
G01 X16.608765 Y2.930870 Z-1.000000
G01 X16.607630 Y2.950747 Z-1.000000
G01 X16.603559 Y2.974602 Z-1.000000
G02 X16.620520 Y3.009247 Z-1.000000 I0.079770 J-0.017578
G03 X16.636119 Y3.046365 Z-1.000000 I-0.053323 J0.044245
G03 X16.632760 Y3.127715 Z-1.000000 I-0.281605 J0.029118
G02 X16.631017 Y3.191758 Z-1.000000 I0.199872 J0.037485
G01 X16.641860 Y3.196905 Z-1.000000
G01 X16.656155 Y3.200601 Z-1.000000
G03 X16.666790 Y3.241475 Z-1.000000 I-0.073225 J0.040874
G03 X16.657277 Y3.291945 Z-1.000000 I-0.138641 J-0.000000
G01 X16.643350 Y3.301455 Z-1.000000
G01 X16.619151 Y3.329265 Z-1.000000
G02 X16.656610 Y3.396485 Z-1.000000 I0.105453 J-0.014718
G02 X16.694829 Y3.409033 Z-1.000000 I0.035029 J-0.042216
G02 X16.756220 Y3.390685 Z-1.000000 I-0.008092 J-0.138958
G03 X16.820934 Y3.358485 Z-1.000000 I0.294570 J0.510884
G03 X16.912886 Y3.324375 Z-1.000000 I0.423362 J1.000284
G02 X17.079647 Y3.238769 Z-1.000000 I-0.174868 J-0.545874
G02 X17.111368 Y3.177060 Z-1.000000 I-0.046815 J-0.063072
G01 X17.102266 Y3.151954 Z-1.000000
G01 X17.087728 Y3.149730 Z-1.000000
G01 X17.077698 Y3.145205 Z-1.000000
G03 X17.079428 Y3.100740 Z-1.000000 I0.106824 J-0.018110
G02 X17.081646 Y3.055666 Z-1.000000 I-0.112026 J-0.028103
G01 X17.072028 Y3.051190 Z-1.000000
G01 X17.061335 Y3.047139 Z-1.000000
G03 X17.059398 Y3.009010 Z-1.000000 I0.077003 J-0.023025
G02 X17.053038 Y2.957849 Z-1.000000 I-0.082259 J-0.015749
G02 X17.003278 Y2.888698 Z-1.000000 I-0.207414 J0.096771
G01 X16.965618 Y2.842008 Z-1.000000
G01 X16.976570 Y2.830861 Z-1.000000
G02 X16.907028 Y2.744648 Z-1.000000 I-0.347417 J0.209084
G01 X16.850768 Y2.679858 Z-1.000000
G01 X16.865436 Y2.664379 Z-1.000000
G02 X16.768718 Y2.551483 Z-1.000000 I-0.450251 J0.287850
G02 X16.741186 Y2.535624 Z-1.000000 I-0.052862 J0.059942
G01 X16.737268 Y2.540973 Z-1.000000
G01 X16.697778 Y2.506703 Z-1.000000
G03 X16.635066 Y2.423274 Z-1.000000 I0.427500 J-0.386628
G01 X16.635068 Y2.405301 Z-1.000000
G01 X16.635154 Y2.395507 Z-1.000000
G01 X16.627568 Y2.392691 Z-1.000000
G01 X16.613415 Y2.391964 Z-1.000000
G01 X16.608248 Y2.383991 Z-1.000000
G02 X16.567954 Y2.288997 Z-1.000000 I-0.132121 J0.000000
G02 X16.502714 Y2.281961 Z-1.000000 I-0.037143 J0.038424
G01 X16.486657 Y2.281434 Z-1.000000
G03 X16.395426 Y2.205231 Z-1.000000 I0.465026 J-0.649451
G02 X16.328557 Y2.148896 Z-1.000000 I-0.433832 J0.447102
G01 X16.323786 Y2.153011 Z-1.000000
G01 X16.321064 Y2.157509 Z-1.000000
G01 X16.311076 Y2.153011 Z-1.000000
G02 X16.277484 Y2.121845 Z-1.000000 I-0.174881 J0.154807
G02 X16.256606 Y2.111621 Z-1.000000 I-0.036412 J0.047928
G03 X16.233491 Y2.104672 Z-1.000000 I0.093140 J-0.351741
G03 X15.995464 Y2.023631 Z-1.000000 I13.584908 J-40.290533
G02 X15.578929 Y1.933480 Z-1.000000 I-0.588408 J1.711327
G02 X15.369323 Y1.963891 Z-1.000000 I-0.042452 J0.444955
G01 X15.369237 Y1.963929 Z-1.000000
G00 Z0.000000

(End cutting path id: path4274)


(Start cutting path id: path4274)
(Change tool to Cone cutter)

G00 Z0.000000
G00 X14.611207 Y2.016064

G01 Z-1.000000 F100.0(Penetrate)
G01 X14.720246 Y2.172062 Z-1.000000 F400.000000
G01 X14.617348 Y2.325509 Z-1.000000
G01 X14.514451 Y2.478956 Z-1.000000
G01 X14.421241 Y2.377833 Z-1.000000
G03 X14.333274 Y2.272594 Z-1.000000 I1.040462 J-0.959088
G03 X14.210988 Y2.099971 Z-1.000000 I2.685212 J-2.031821
G01 X14.093947 Y1.923233 Z-1.000000
G01 X14.153727 Y1.821337 Z-1.000000
G03 X14.216659 Y1.721583 Z-1.000000 I1.579344 J0.926638
G03 X14.283596 Y1.629473 Z-1.000000 I1.411797 J0.955584
G01 X14.353676 Y1.539503 Z-1.000000
G01 X14.427916 Y1.699784 Z-1.000000
G02 X14.509162 Y1.856042 Z-1.000000 I1.746950 J-0.809074
G02 X14.611199 Y2.016063 Z-1.000000 I1.936634 J-1.122345
G01 X14.611207 Y2.016064 Z-1.000000
G00 Z0.000000

(End cutting path id: path4274)


(Start cutting path id: path4274)
(Change tool to Cone cutter)

G00 Z0.000000
G00 X14.611207 Y2.016064

G01 Z-1.000000 F100.0(Penetrate)
G01 X14.720246 Y2.172062 Z-1.000000 F400.000000
G01 X14.617348 Y2.325509 Z-1.000000
G01 X14.514451 Y2.478956 Z-1.000000
G01 X14.421241 Y2.377833 Z-1.000000
G03 X14.333274 Y2.272594 Z-1.000000 I1.040462 J-0.959088
G03 X14.210988 Y2.099971 Z-1.000000 I2.685212 J-2.031821
G01 X14.093947 Y1.923233 Z-1.000000
G01 X14.153727 Y1.821337 Z-1.000000
G03 X14.216659 Y1.721583 Z-1.000000 I1.579344 J0.926638
G03 X14.283596 Y1.629473 Z-1.000000 I1.411797 J0.955584
G01 X14.353676 Y1.539503 Z-1.000000
G01 X14.427916 Y1.699784 Z-1.000000
G02 X14.509162 Y1.856042 Z-1.000000 I1.746950 J-0.809074
G02 X14.611199 Y2.016063 Z-1.000000 I1.936634 J-1.122345
G01 X14.611207 Y2.016064 Z-1.000000
G00 Z0.000000

(End cutting path id: path4274)


(Start cutting path id: path4274)
(Change tool to Cone cutter)

G00 Z0.000000
G00 X14.510512 Y1.707723

G01 Z-1.000000 F100.0(Penetrate)
G02 X14.538241 Y1.750178 Z-1.000000 I0.256970 J-0.137556 F400.000000
G01 X14.547322 Y1.754593 Z-1.000000
G01 X14.550952 Y1.749789 Z-1.000000
G02 X14.533952 Y1.707723 Z-1.000000 I-0.203588 J0.057807
G02 X14.506223 Y1.665268 Z-1.000000 I-0.256970 J0.137556
G01 X14.497142 Y1.660853 Z-1.000000
G01 X14.493512 Y1.665657 Z-1.000000
G02 X14.510512 Y1.707723 Z-1.000000 I0.203588 J-0.057807
G01 X14.510512 Y1.707723 Z-1.000000
G00 Z0.000000

(End cutting path id: path4274)


(Start cutting path id: path4274)
(Change tool to Cone cutter)

G00 Z0.000000
G00 X14.510512 Y1.707723

G01 Z-1.000000 F100.0(Penetrate)
G02 X14.538241 Y1.750178 Z-1.000000 I0.256970 J-0.137556 F400.000000
G01 X14.547322 Y1.754593 Z-1.000000
G01 X14.550952 Y1.749789 Z-1.000000
G02 X14.533952 Y1.707723 Z-1.000000 I-0.203588 J0.057807
G02 X14.506223 Y1.665268 Z-1.000000 I-0.256970 J0.137556
G01 X14.497142 Y1.660853 Z-1.000000
G01 X14.493512 Y1.665657 Z-1.000000
G02 X14.510512 Y1.707723 Z-1.000000 I0.203588 J-0.057807
G01 X14.510512 Y1.707723 Z-1.000000
G00 Z0.000000

(End cutting path id: path4274)


(Start cutting path id: path4274)
(Change tool to Cone cutter)

G00 Z0.000000
G00 X14.074585 Y2.021759

G01 Z-1.000000 F100.0(Penetrate)
G01 X14.073751 Y2.050580 Z-1.000000 F400.000000
G01 X14.090665 Y2.072259 Z-1.000000
G01 X14.101026 Y2.071701 Z-1.000000
G01 X14.102595 Y2.062959 Z-1.000000
G03 X14.094342 Y2.040632 Z-1.000000 I0.051033 J-0.031553
G01 X14.098395 Y2.035899 Z-1.000000
G03 X14.178372 Y2.088954 Z-1.000000 I0.000000 J0.086808
G03 X14.163895 Y2.191131 Z-1.000000 I-0.092445 J0.039016
G01 X14.164174 Y2.194734 Z-1.000000
G01 X14.167995 Y2.194831 Z-1.000000
G01 X14.186618 Y2.195741 Z-1.000000
G03 X14.302292 Y2.327939 Z-1.000000 I-0.873420 J0.880956
G02 X14.420907 Y2.472629 Z-1.000000 I1.927417 J-1.459116
G02 X14.467136 Y2.513850 Z-1.000000 I0.198177 J-0.175717
G03 X14.495458 Y2.557780 Z-1.000000 I-0.039707 J0.056694
G03 X14.491046 Y2.641274 Z-1.000000 I-0.174101 J0.032664
G02 X14.468826 Y2.733514 Z-1.000000 I0.829193 J0.248544
G02 X14.463636 Y2.790528 Z-1.000000 I0.310566 J0.057014
G03 X14.414146 Y2.869795 Z-1.000000 I-0.088225 J-0.000000
G03 X14.251936 Y2.893976 Z-1.000000 I-0.119302 J-0.244140
G03 X14.036709 Y2.828276 Z-1.000000 I0.129477 J-0.809534
G03 X13.956344 Y2.756994 Z-1.000000 I0.078551 J-0.169505
G03 X13.907487 Y2.595092 Z-1.000000 I0.279353 J-0.172623
G01 X13.949644 Y2.551535 Z-1.000000
G01 X13.959420 Y2.542630 Z-1.000000
G02 X13.956244 Y2.481225 Z-1.000000 I-0.212026 J-0.019819
G03 X13.951271 Y2.418394 Z-1.000000 I0.263508 J-0.052470
G01 X13.959044 Y2.410915 Z-1.000000
G01 X13.974001 Y2.416097 Z-1.000000
G03 X14.122776 Y2.539821 Z-1.000000 I-2.236096 J2.840141
G01 X14.145561 Y2.539674 Z-1.000000
G01 X14.145626 Y2.519231 Z-1.000000
G03 X14.007431 Y2.358846 Z-1.000000 I0.597063 J-0.654184
G03 X13.984285 Y2.278997 Z-1.000000 I0.113378 J-0.076145
G03 X14.024272 Y2.022041 Z-1.000000 I1.026894 J0.028213
G01 X14.068155 Y1.989043 Z-1.000000
G01 X14.076794 Y1.996159 Z-1.000000
G01 X14.074555 Y2.021833 Z-1.000000
G01 X14.074585 Y2.021759 Z-1.000000
G00 Z0.000000

(End cutting path id: path4274)


(Start cutting path id: path4274)
(Change tool to Cone cutter)

G00 Z0.000000
G00 X14.074585 Y2.021759

G01 Z-1.000000 F100.0(Penetrate)
G01 X14.073751 Y2.050580 Z-1.000000 F400.000000
G01 X14.090665 Y2.072259 Z-1.000000
G01 X14.101026 Y2.071701 Z-1.000000
G01 X14.102595 Y2.062959 Z-1.000000
G03 X14.094342 Y2.040632 Z-1.000000 I0.051033 J-0.031553
G01 X14.098395 Y2.035899 Z-1.000000
G03 X14.178372 Y2.088954 Z-1.000000 I0.000000 J0.086808
G03 X14.163895 Y2.191131 Z-1.000000 I-0.092445 J0.039016
G01 X14.164174 Y2.194734 Z-1.000000
G01 X14.167995 Y2.194831 Z-1.000000
G01 X14.186618 Y2.195741 Z-1.000000
G03 X14.302292 Y2.327939 Z-1.000000 I-0.873420 J0.880956
G02 X14.420907 Y2.472629 Z-1.000000 I1.927417 J-1.459116
G02 X14.467136 Y2.513850 Z-1.000000 I0.198177 J-0.175717
G03 X14.495458 Y2.557780 Z-1.000000 I-0.039707 J0.056694
G03 X14.491046 Y2.641274 Z-1.000000 I-0.174101 J0.032664
G02 X14.468826 Y2.733514 Z-1.000000 I0.829193 J0.248544
G02 X14.463636 Y2.790528 Z-1.000000 I0.310566 J0.057014
G03 X14.414146 Y2.869795 Z-1.000000 I-0.088225 J-0.000000
G03 X14.251936 Y2.893976 Z-1.000000 I-0.119302 J-0.244140
G03 X14.036709 Y2.828276 Z-1.000000 I0.129477 J-0.809534
G03 X13.956344 Y2.756994 Z-1.000000 I0.078551 J-0.169505
G03 X13.907487 Y2.595092 Z-1.000000 I0.279353 J-0.172623
G01 X13.949644 Y2.551535 Z-1.000000
G01 X13.959420 Y2.542630 Z-1.000000
G02 X13.956244 Y2.481225 Z-1.000000 I-0.212026 J-0.019819
G03 X13.951271 Y2.418394 Z-1.000000 I0.263508 J-0.052470
G01 X13.959044 Y2.410915 Z-1.000000
G01 X13.974001 Y2.416097 Z-1.000000
G03 X14.122776 Y2.539821 Z-1.000000 I-2.236096 J2.840141
G01 X14.145561 Y2.539674 Z-1.000000
G01 X14.145626 Y2.519231 Z-1.000000
G03 X14.007431 Y2.358846 Z-1.000000 I0.597063 J-0.654184
G03 X13.984285 Y2.278997 Z-1.000000 I0.113378 J-0.076145
G03 X14.024272 Y2.022041 Z-1.000000 I1.026894 J0.028213
G01 X14.068155 Y1.989043 Z-1.000000
G01 X14.076794 Y1.996159 Z-1.000000
G01 X14.074555 Y2.021833 Z-1.000000
G01 X14.074585 Y2.021759 Z-1.000000
G00 Z0.000000

(End cutting path id: path4274)


(Start cutting path id: path4274)
(Change tool to Cone cutter)

G00 Z0.000000
G00 X13.887191 Y1.619843

G01 Z-1.000000 F100.0(Penetrate)
G01 X13.842541 Y1.672573 Z-1.000000 F400.000000
G01 X13.895271 Y1.627923 Z-1.000000
G02 X13.944176 Y1.575504 Z-1.000000 I-0.197544 J-0.233324
G01 X13.939921 Y1.567103 Z-1.000000
G01 X13.933200 Y1.569884 Z-1.000000
G02 X13.887191 Y1.619833 Z-1.000000 I0.573106 J0.574063
G01 X13.887191 Y1.619843 Z-1.000000
G00 Z0.000000

(End cutting path id: path4274)


(Start cutting path id: path4274)
(Change tool to Cone cutter)

G00 Z0.000000
G00 X13.887191 Y1.619843

G01 Z-1.000000 F100.0(Penetrate)
G01 X13.842541 Y1.672573 Z-1.000000 F400.000000
G01 X13.895271 Y1.627923 Z-1.000000
G02 X13.944176 Y1.575504 Z-1.000000 I-0.197544 J-0.233324
G01 X13.939921 Y1.567103 Z-1.000000
G01 X13.933200 Y1.569884 Z-1.000000
G02 X13.887191 Y1.619833 Z-1.000000 I0.573106 J0.574063
G01 X13.887191 Y1.619843 Z-1.000000
G00 Z0.000000

(End cutting path id: path4274)


(Start cutting path id: path4274)
(Change tool to Cone cutter)

G00 Z0.000000
G00 X14.041762 Y1.434559

G01 Z-1.000000 F100.0(Penetrate)
G01 X14.038982 Y1.441279 Z-1.000000 F400.000000
G03 X13.989032 Y1.487299 Z-1.000000 I-0.575380 J-0.574398
G01 X13.936302 Y1.531949 Z-1.000000
G01 X13.980952 Y1.479219 Z-1.000000
G03 X14.033371 Y1.430314 Z-1.000000 I0.233324 J0.197544
G01 X14.041772 Y1.434569 Z-1.000000
G01 X14.041762 Y1.434559 Z-1.000000
G00 Z0.000000

(End cutting path id: path4274)


(Start cutting path id: path4274)
(Change tool to Cone cutter)

G00 Z0.000000
G00 X14.041762 Y1.434559

G01 Z-1.000000 F100.0(Penetrate)
G01 X14.038982 Y1.441279 Z-1.000000 F400.000000
G03 X13.989032 Y1.487299 Z-1.000000 I-0.575380 J-0.574398
G01 X13.936302 Y1.531949 Z-1.000000
G01 X13.980952 Y1.479219 Z-1.000000
G03 X14.033371 Y1.430314 Z-1.000000 I0.233324 J0.197544
G01 X14.041772 Y1.434569 Z-1.000000
G01 X14.041762 Y1.434559 Z-1.000000
G00 Z0.000000

(End cutting path id: path4274)


(Start cutting path id: path4274)
(Change tool to Cone cutter)

G00 Z0.000000
G00 X14.954973 Y1.155915

G01 Z-1.000000 F100.0(Penetrate)
G03 X14.972146 Y1.190823 Z-1.000000 I-0.064116 J0.053220 F400.000000
G01 X14.968173 Y1.214505 Z-1.000000
G01 X14.969447 Y1.229820 Z-1.000000
G01 X14.989593 Y1.238965 Z-1.000000
G01 X15.015638 Y1.249461 Z-1.000000
G01 X15.026133 Y1.274125 Z-1.000000
G01 X15.017960 Y1.301115 Z-1.000000
G01 X15.002693 Y1.309285 Z-1.000000
G01 X14.986314 Y1.316345 Z-1.000000
G01 X14.979253 Y1.334105 Z-1.000000
G01 X14.986713 Y1.345548 Z-1.000000
G01 X15.002693 Y1.344445 Z-1.000000
G01 X15.015970 Y1.348187 Z-1.000000
G03 X15.026133 Y1.390685 Z-1.000000 I-0.083772 J0.042498
G02 X15.033457 Y1.449917 Z-1.000000 I0.243193 J-0.000000
G02 X15.063263 Y1.538553 Z-1.000000 I0.579279 J-0.145470
G03 X15.091607 Y1.627790 Z-1.000000 I-0.453067 J0.193024
G03 X15.108393 Y1.747906 Z-1.000000 I-0.807398 J0.174066
G03 X15.090851 Y1.856943 Z-1.000000 I-0.247204 J0.016159
G03 X15.039783 Y1.917467 Z-1.000000 I-0.117914 J-0.047686
G02 X14.964882 Y1.967236 Z-1.000000 I0.719376 J1.163875
G02 X14.874245 Y2.035486 Z-1.000000 I1.263499 J1.772269
G03 X14.765608 Y2.090462 Z-1.000000 I-0.187857 J-0.236393
G01 X14.722041 Y2.076866 Z-1.000000
G03 X14.591625 Y1.895708 Z-1.000000 I1.119870 J-0.943721
G01 X14.604037 Y1.883369 Z-1.000000
G01 X14.611138 Y1.879024 Z-1.000000
G02 X14.600337 Y1.837459 Z-1.000000 I-0.123529 J0.009914
G02 X14.571260 Y1.798816 Z-1.000000 I-0.101987 J0.046480
G01 X14.557687 Y1.800929 Z-1.000000
G01 X14.543986 Y1.802260 Z-1.000000
G03 X14.502767 Y1.741389 Z-1.000000 I0.180428 J-0.166571
G03 X14.472438 Y1.658148 Z-1.000000 I0.418979 J-0.199804
G01 X14.475647 Y1.636875 Z-1.000000
G01 X14.481409 Y1.615014 Z-1.000000
G02 X14.472247 Y1.551445 Z-1.000000 I-0.315214 J0.012987
G01 X14.453448 Y1.527161 Z-1.000000
G01 X14.438017 Y1.532785 Z-1.000000
G01 X14.426687 Y1.539783 Z-1.000000
G01 X14.418377 Y1.530985 Z-1.000000
G03 X14.446623 Y1.457376 Z-1.000000 I0.100916 J-0.003499
G03 X14.730647 Y1.207300 Z-1.000000 I1.674666 J1.615671
G03 X14.889654 Y1.133833 Z-1.000000 I0.253791 J0.340482
G03 X14.954940 Y1.155940 Z-1.000000 I0.014679 J0.064106
G01 X14.954973 Y1.155915 Z-1.000000
G00 Z0.000000

(End cutting path id: path4274)


(Start cutting path id: path4274)
(Change tool to Cone cutter)

G00 Z0.000000
G00 X14.954973 Y1.155915

G01 Z-1.000000 F100.0(Penetrate)
G03 X14.972146 Y1.190823 Z-1.000000 I-0.064116 J0.053220 F400.000000
G01 X14.968173 Y1.214505 Z-1.000000
G01 X14.969447 Y1.229820 Z-1.000000
G01 X14.989593 Y1.238965 Z-1.000000
G01 X15.015638 Y1.249461 Z-1.000000
G01 X15.026133 Y1.274125 Z-1.000000
G01 X15.017960 Y1.301115 Z-1.000000
G01 X15.002693 Y1.309285 Z-1.000000
G01 X14.986314 Y1.316345 Z-1.000000
G01 X14.979253 Y1.334105 Z-1.000000
G01 X14.986713 Y1.345548 Z-1.000000
G01 X15.002693 Y1.344445 Z-1.000000
G01 X15.015970 Y1.348187 Z-1.000000
G03 X15.026133 Y1.390685 Z-1.000000 I-0.083772 J0.042498
G02 X15.033457 Y1.449917 Z-1.000000 I0.243193 J-0.000000
G02 X15.063263 Y1.538553 Z-1.000000 I0.579279 J-0.145470
G03 X15.091607 Y1.627790 Z-1.000000 I-0.453067 J0.193024
G03 X15.108393 Y1.747906 Z-1.000000 I-0.807398 J0.174066
G03 X15.090851 Y1.856943 Z-1.000000 I-0.247204 J0.016159
G03 X15.039783 Y1.917467 Z-1.000000 I-0.117914 J-0.047686
G02 X14.964882 Y1.967236 Z-1.000000 I0.719376 J1.163875
G02 X14.874245 Y2.035486 Z-1.000000 I1.263499 J1.772269
G03 X14.765608 Y2.090462 Z-1.000000 I-0.187857 J-0.236393
G01 X14.722041 Y2.076866 Z-1.000000
G03 X14.591625 Y1.895708 Z-1.000000 I1.119870 J-0.943721
G01 X14.604037 Y1.883369 Z-1.000000
G01 X14.611138 Y1.879024 Z-1.000000
G02 X14.600337 Y1.837459 Z-1.000000 I-0.123529 J0.009914
G02 X14.571260 Y1.798816 Z-1.000000 I-0.101987 J0.046480
G01 X14.557687 Y1.800929 Z-1.000000
G01 X14.543986 Y1.802260 Z-1.000000
G03 X14.502767 Y1.741389 Z-1.000000 I0.180428 J-0.166571
G03 X14.472438 Y1.658148 Z-1.000000 I0.418979 J-0.199804
G01 X14.475647 Y1.636875 Z-1.000000
G01 X14.481409 Y1.615014 Z-1.000000
G02 X14.472247 Y1.551445 Z-1.000000 I-0.315214 J0.012987
G01 X14.453448 Y1.527161 Z-1.000000
G01 X14.438017 Y1.532785 Z-1.000000
G01 X14.426687 Y1.539783 Z-1.000000
G01 X14.418377 Y1.530985 Z-1.000000
G03 X14.446623 Y1.457376 Z-1.000000 I0.100916 J-0.003499
G03 X14.730647 Y1.207300 Z-1.000000 I1.674666 J1.615671
G03 X14.889654 Y1.133833 Z-1.000000 I0.253791 J0.340482
G03 X14.954940 Y1.155940 Z-1.000000 I0.014679 J0.064106
G01 X14.954973 Y1.155915 Z-1.000000
G00 Z0.000000

(End cutting path id: path4274)


(Start cutting path id: path4274)
(Change tool to Cone cutter)

G00 Z0.000000
G00 X14.804987 Y2.614924

G01 Z-1.000000 F100.0(Penetrate)
G01 X14.807789 Y2.628024 Z-1.000000 F400.000000
G01 X14.818107 Y2.628044 Z-1.000000
G02 X14.836912 Y2.599120 Z-1.000000 I-0.057566 J-0.058000
G01 X14.834107 Y2.586014 Z-1.000000
G01 X14.823805 Y2.585993 Z-1.000000
G02 X14.804987 Y2.614924 Z-1.000000 I0.057524 J0.058001
G01 X14.804987 Y2.614924 Z-1.000000
G00 Z0.000000

(End cutting path id: path4274)


(Start cutting path id: path4274)
(Change tool to Cone cutter)

G00 Z0.000000
G00 X14.804987 Y2.614924

G01 Z-1.000000 F100.0(Penetrate)
G01 X14.807789 Y2.628024 Z-1.000000 F400.000000
G01 X14.818107 Y2.628044 Z-1.000000
G02 X14.836912 Y2.599120 Z-1.000000 I-0.057566 J-0.058000
G01 X14.834107 Y2.586014 Z-1.000000
G01 X14.823805 Y2.585993 Z-1.000000
G02 X14.804987 Y2.614924 Z-1.000000 I0.057524 J0.058001
G01 X14.804987 Y2.614924 Z-1.000000
G00 Z0.000000

(End cutting path id: path4274)


(Start cutting path id: path4274)
(Change tool to Cone cutter)

G00 Z0.000000
G00 X14.713636 Y2.801485

G01 Z-1.000000 F100.0(Penetrate)
G02 X14.671966 Y2.946931 Z-1.000000 I0.110290 J0.110290 F400.000000
G02 X14.764166 Y3.020235 Z-1.000000 I0.092200 J-0.021331
G01 X14.797462 Y2.989441 Z-1.000000
G02 X14.779076 Y2.829668 Z-1.000000 I-0.418801 J-0.032749
G02 X14.747661 Y2.794965 Z-1.000000 I-0.053698 J0.017040
G01 X14.713646 Y2.801488 Z-1.000000
G01 X14.713636 Y2.801485 Z-1.000000
G00 Z0.000000

(End cutting path id: path4274)


(Start cutting path id: path4274)
(Change tool to Cone cutter)

G00 Z0.000000
G00 X14.713636 Y2.801485

G01 Z-1.000000 F100.0(Penetrate)
G02 X14.671966 Y2.946931 Z-1.000000 I0.110290 J0.110290 F400.000000
G02 X14.764166 Y3.020235 Z-1.000000 I0.092200 J-0.021331
G01 X14.797462 Y2.989441 Z-1.000000
G02 X14.779076 Y2.829668 Z-1.000000 I-0.418801 J-0.032749
G02 X14.747661 Y2.794965 Z-1.000000 I-0.053698 J0.017040
G01 X14.713646 Y2.801488 Z-1.000000
G01 X14.713636 Y2.801485 Z-1.000000
G00 Z0.000000

(End cutting path id: path4274)


(Start cutting path id: path4274)
(Change tool to Cone cutter)

G00 Z0.000000
G00 X14.760406 Y2.908907

G01 Z-1.000000 F100.0(Penetrate)
G01 X14.754271 Y2.908906 Z-1.000000 F400.000000
G03 X14.748586 Y2.879607 Z-1.000000 I0.072664 J-0.029299
G03 X14.754268 Y2.850311 Z-1.000000 I0.078367 J-0.000000
G01 X14.760406 Y2.850307 Z-1.000000
G03 X14.766093 Y2.879602 Z-1.000000 I-0.072607 J0.029295
G03 X14.760406 Y2.908897 Z-1.000000 I-0.078294 J0.000000
G01 X14.760406 Y2.908907 Z-1.000000
G00 Z0.000000

(End cutting path id: path4274)


(Start cutting path id: path4274)
(Change tool to Cone cutter)

G00 Z0.000000
G00 X14.760406 Y2.908907

G01 Z-1.000000 F100.0(Penetrate)
G01 X14.754271 Y2.908906 Z-1.000000 F400.000000
G03 X14.748586 Y2.879607 Z-1.000000 I0.072664 J-0.029299
G03 X14.754268 Y2.850311 Z-1.000000 I0.078367 J-0.000000
G01 X14.760406 Y2.850307 Z-1.000000
G03 X14.766093 Y2.879602 Z-1.000000 I-0.072607 J0.029295
G03 X14.760406 Y2.908897 Z-1.000000 I-0.078294 J0.000000
G01 X14.760406 Y2.908907 Z-1.000000
G00 Z0.000000

(End cutting path id: path4274)


(Start cutting path id: path4274)
(Change tool to Cone cutter)

G00 Z0.000000
G00 X15.023600 Y3.119847

G01 Z-1.000000 F100.0(Penetrate)
G03 X14.995014 Y3.141441 Z-1.000000 I-0.084417 J-0.082030 F400.000000
G01 X14.990970 Y3.137427 Z-1.000000
G01 X14.988388 Y3.129851 Z-1.000000
G01 X14.978010 Y3.131527 Z-1.000000
G03 X14.907747 Y3.156959 Z-1.000000 I-0.065131 J-0.070164
G03 X14.801248 Y3.122027 Z-1.000000 I0.011544 J-0.215004
G02 X14.744291 Y3.104797 Z-1.000000 I-0.057750 J0.088151
G02 X14.704028 Y3.121298 Z-1.000000 I-0.000424 J0.056338
G02 X14.689331 Y3.159930 Z-1.000000 I0.035689 J0.035689
G02 X14.709028 Y3.206948 Z-1.000000 I0.076651 J-0.004477
G03 X14.740173 Y3.249259 Z-1.000000 I-0.192802 J0.174538
G01 X14.737148 Y3.254558 Z-1.000000
G01 X14.734643 Y3.259853 Z-1.000000
G02 X14.826338 Y3.363254 Z-1.000000 I1.387260 J-1.137859
G02 X14.937374 Y3.440333 Z-1.000000 I0.245691 J-0.235414
G02 X15.007584 Y3.441354 Z-1.000000 I0.036339 J-0.084332
G02 X15.121600 Y3.368691 Z-1.000000 I-0.132260 J-0.333313
G01 X15.135372 Y3.320613 Z-1.000000
G01 X15.137451 Y3.295877 Z-1.000000
G01 X15.148022 Y3.292643 Z-1.000000
G01 X15.158420 Y3.287364 Z-1.000000
G02 X15.154822 Y3.204783 Z-1.000000 I-0.341713 J-0.026479
G02 X15.093894 Y3.111822 Z-1.000000 I-0.135645 J0.022457
G02 X15.023525 Y3.119783 Z-1.000000 I-0.030334 J0.046857
G01 X15.023600 Y3.119847 Z-1.000000
G00 Z0.000000

(End cutting path id: path4274)


(Start cutting path id: path4274)
(Change tool to Cone cutter)

G00 Z0.000000
G00 X15.023600 Y3.119847

G01 Z-1.000000 F100.0(Penetrate)
G03 X14.995014 Y3.141441 Z-1.000000 I-0.084417 J-0.082030 F400.000000
G01 X14.990970 Y3.137427 Z-1.000000
G01 X14.988388 Y3.129851 Z-1.000000
G01 X14.978010 Y3.131527 Z-1.000000
G03 X14.907747 Y3.156959 Z-1.000000 I-0.065131 J-0.070164
G03 X14.801248 Y3.122027 Z-1.000000 I0.011544 J-0.215004
G02 X14.744291 Y3.104797 Z-1.000000 I-0.057750 J0.088151
G02 X14.704028 Y3.121298 Z-1.000000 I-0.000424 J0.056338
G02 X14.689331 Y3.159930 Z-1.000000 I0.035689 J0.035689
G02 X14.709028 Y3.206948 Z-1.000000 I0.076651 J-0.004477
G03 X14.740173 Y3.249259 Z-1.000000 I-0.192802 J0.174538
G01 X14.737148 Y3.254558 Z-1.000000
G01 X14.734643 Y3.259853 Z-1.000000
G02 X14.826338 Y3.363254 Z-1.000000 I1.387260 J-1.137859
G02 X14.937374 Y3.440333 Z-1.000000 I0.245691 J-0.235414
G02 X15.007584 Y3.441354 Z-1.000000 I0.036339 J-0.084332
G02 X15.121600 Y3.368691 Z-1.000000 I-0.132260 J-0.333313
G01 X15.135372 Y3.320613 Z-1.000000
G01 X15.137451 Y3.295877 Z-1.000000
G01 X15.148022 Y3.292643 Z-1.000000
G01 X15.158420 Y3.287364 Z-1.000000
G02 X15.154822 Y3.204783 Z-1.000000 I-0.341713 J-0.026479
G02 X15.093894 Y3.111822 Z-1.000000 I-0.135645 J0.022457
G02 X15.023525 Y3.119783 Z-1.000000 I-0.030334 J0.046857
G01 X15.023600 Y3.119847 Z-1.000000
G00 Z0.000000

(End cutting path id: path4274)


(Start cutting path id: path4274)
(Change tool to Cone cutter)

G00 Z0.000000
G00 X15.069060 Y3.248753

G01 Z-1.000000 F100.0(Penetrate)
G03 X14.997155 Y3.359315 Z-1.000000 I-0.206060 J-0.055350 F400.000000
G03 X14.928058 Y3.362769 Z-1.000000 I-0.036917 J-0.045656
G03 X14.876156 Y3.320681 Z-1.000000 I0.180854 J-0.276069
G03 X14.817712 Y3.252999 Z-1.000000 I0.416769 J-0.418962
G03 X14.801452 Y3.212707 Z-1.000000 I0.069768 J-0.051582
G01 X14.811512 Y3.205749 Z-1.000000
G02 X14.934851 Y3.234105 Z-1.000000 I0.113825 J-0.212679
G02 X15.039259 Y3.196749 Z-1.000000 I-0.007302 J-0.184994
G03 X15.085099 Y3.163130 Z-1.000000 I1.149577 J1.519409
G01 X15.088729 Y3.161589 Z-1.000000
G01 X15.069089 Y3.248729 Z-1.000000
G01 X15.069060 Y3.248753 Z-1.000000
G00 Z0.000000

(End cutting path id: path4274)


(Start cutting path id: path4274)
(Change tool to Cone cutter)

G00 Z0.000000
G00 X15.069060 Y3.248753

G01 Z-1.000000 F100.0(Penetrate)
G03 X14.997155 Y3.359315 Z-1.000000 I-0.206060 J-0.055350 F400.000000
G03 X14.928058 Y3.362769 Z-1.000000 I-0.036917 J-0.045656
G03 X14.876156 Y3.320681 Z-1.000000 I0.180854 J-0.276069
G03 X14.817712 Y3.252999 Z-1.000000 I0.416769 J-0.418962
G03 X14.801452 Y3.212707 Z-1.000000 I0.069768 J-0.051582
G01 X14.811512 Y3.205749 Z-1.000000
G02 X14.934851 Y3.234105 Z-1.000000 I0.113825 J-0.212679
G02 X15.039259 Y3.196749 Z-1.000000 I-0.007302 J-0.184994
G03 X15.085099 Y3.163130 Z-1.000000 I1.149577 J1.519409
G01 X15.088729 Y3.161589 Z-1.000000
G01 X15.069089 Y3.248729 Z-1.000000
G01 X15.069060 Y3.248753 Z-1.000000
G00 Z0.000000

(End cutting path id: path4274)


(Start cutting path id: path4274)
(Change tool to Cone cutter)

G00 Z0.000000
G00 X15.262356 Y3.479226

G01 Z-1.000000 F100.0(Penetrate)
G01 X15.269222 Y3.494889 Z-1.000000 F400.000000
G01 X15.276516 Y3.493386 Z-1.000000
G02 X15.281530 Y3.464086 Z-1.000000 I-0.065348 J-0.026263
G01 X15.274716 Y3.448466 Z-1.000000
G01 X15.267405 Y3.449969 Z-1.000000
G02 X15.262406 Y3.479226 Z-1.000000 I0.065937 J0.026323
G01 X15.262356 Y3.479226 Z-1.000000
G00 Z0.000000

(End cutting path id: path4274)


(Start cutting path id: path4274)
(Change tool to Cone cutter)

G00 Z0.000000
G00 X15.262356 Y3.479226

G01 Z-1.000000 F100.0(Penetrate)
G01 X15.269222 Y3.494889 Z-1.000000 F400.000000
G01 X15.276516 Y3.493386 Z-1.000000
G02 X15.281530 Y3.464086 Z-1.000000 I-0.065348 J-0.026263
G01 X15.274716 Y3.448466 Z-1.000000
G01 X15.267405 Y3.449969 Z-1.000000
G02 X15.262406 Y3.479226 Z-1.000000 I0.065937 J0.026323
G01 X15.262356 Y3.479226 Z-1.000000
G00 Z0.000000

(End cutting path id: path4274)


(Start cutting path id: path4274)
(Change tool to Cone cutter)

G00 Z0.000000
G00 X15.237064 Y3.545426

G01 Z-1.000000 F100.0(Penetrate)
G01 X15.239801 Y3.552311 Z-1.000000 F400.000000
G02 X15.272224 Y3.582716 Z-1.000000 I0.266771 J-0.251982
G02 X15.299426 Y3.594947 Z-1.000000 I0.035667 J-0.042961
G01 X15.307384 Y3.588116 Z-1.000000
G01 X15.299960 Y3.569420 Z-1.000000
G02 X15.272224 Y3.550826 Z-1.000000 I-0.054632 J0.051508
G02 X15.240527 Y3.542451 Z-1.000000 I-0.054797 J0.143212
G01 X15.237064 Y3.545426 Z-1.000000
G01 X15.237064 Y3.545426 Z-1.000000
G00 Z0.000000

(End cutting path id: path4274)


(Start cutting path id: path4274)
(Change tool to Cone cutter)

G00 Z0.000000
G00 X15.237064 Y3.545426

G01 Z-1.000000 F100.0(Penetrate)
G01 X15.239801 Y3.552311 Z-1.000000 F400.000000
G02 X15.272224 Y3.582716 Z-1.000000 I0.266771 J-0.251982
G02 X15.299426 Y3.594947 Z-1.000000 I0.035667 J-0.042961
G01 X15.307384 Y3.588116 Z-1.000000
G01 X15.299960 Y3.569420 Z-1.000000
G02 X15.272224 Y3.550826 Z-1.000000 I-0.054632 J0.051508
G02 X15.240527 Y3.542451 Z-1.000000 I-0.054797 J0.143212
G01 X15.237064 Y3.545426 Z-1.000000
G01 X15.237064 Y3.545426 Z-1.000000
G00 Z0.000000

(End cutting path id: path4274)


(Start cutting path id: path4274)
(Change tool to Cone cutter)

G00 Z0.000000
G00 X15.160364 Y3.541726

G01 Z-1.000000 F100.0(Penetrate)
G02 X15.143408 Y3.578482 Z-1.000000 I0.042368 J0.041834 F400.000000
G01 X15.155564 Y3.597886 Z-1.000000
G01 X15.195335 Y3.589331 Z-1.000000
G02 X15.209714 Y3.543206 Z-1.000000 I-0.037285 J-0.036926
G01 X15.192921 Y3.528712 Z-1.000000
G01 X15.160414 Y3.541706 Z-1.000000
G01 X15.160364 Y3.541726 Z-1.000000
G00 Z0.000000

(End cutting path id: path4274)


(Start cutting path id: path4274)
(Change tool to Cone cutter)

G00 Z0.000000
G00 X15.160364 Y3.541726

G01 Z-1.000000 F100.0(Penetrate)
G02 X15.143408 Y3.578482 Z-1.000000 I0.042368 J0.041834 F400.000000
G01 X15.155564 Y3.597886 Z-1.000000
G01 X15.195335 Y3.589331 Z-1.000000
G02 X15.209714 Y3.543206 Z-1.000000 I-0.037285 J-0.036926
G01 X15.192921 Y3.528712 Z-1.000000
G01 X15.160414 Y3.541706 Z-1.000000
G01 X15.160364 Y3.541726 Z-1.000000
G00 Z0.000000

(End cutting path id: path4274)


(Start cutting path id: path4274)
(Change tool to Cone cutter)

G00 Z0.000000
G00 X14.860990 Y3.614656

G01 Z-1.000000 F100.0(Penetrate)
G03 X14.940742 Y3.678622 Z-1.000000 I-0.038943 J0.130253 F400.000000
G03 X15.046044 Y3.946016 Z-1.000000 I-0.937898 J0.523784
G02 X15.109272 Y4.081613 Z-1.000000 I0.374341 J-0.092012
G02 X15.167577 Y4.112133 Z-1.000000 I0.060190 J-0.044035
G03 X15.261474 Y4.130704 Z-1.000000 I-0.007120 J0.282661
G01 X15.260507 Y4.147673 Z-1.000000
G03 X15.055602 Y4.166184 Z-1.000000 I-0.159289 J-0.619880
G03 X14.774662 Y4.112913 Z-1.000000 I0.087995 J-1.231507
G03 X14.302616 Y3.890199 Z-1.000000 I0.568365 J-1.816270
G01 X14.323007 Y3.818038 Z-1.000000
G02 X14.505158 Y3.771432 Z-1.000000 I-0.011396 J-0.423790
G02 X14.684062 Y3.632907 Z-1.000000 I-0.281133 J-0.547873
G03 X14.741653 Y3.603419 Z-1.000000 I0.066770 J0.059421
G03 X14.860990 Y3.614647 Z-1.000000 I0.031495 J0.305047
G01 X14.860990 Y3.614656 Z-1.000000
G00 Z0.000000

(End cutting path id: path4274)


(Start cutting path id: path4274)
(Change tool to Cone cutter)

G00 Z0.000000
G00 X14.860990 Y3.614656

G01 Z-1.000000 F100.0(Penetrate)
G03 X14.940742 Y3.678622 Z-1.000000 I-0.038943 J0.130253 F400.000000
G03 X15.046044 Y3.946016 Z-1.000000 I-0.937898 J0.523784
G02 X15.109272 Y4.081613 Z-1.000000 I0.374341 J-0.092012
G02 X15.167577 Y4.112133 Z-1.000000 I0.060190 J-0.044035
G03 X15.261474 Y4.130704 Z-1.000000 I-0.007120 J0.282661
G01 X15.260507 Y4.147673 Z-1.000000
G03 X15.055602 Y4.166184 Z-1.000000 I-0.159289 J-0.619880
G03 X14.774662 Y4.112913 Z-1.000000 I0.087995 J-1.231507
G03 X14.302616 Y3.890199 Z-1.000000 I0.568365 J-1.816270
G01 X14.323007 Y3.818038 Z-1.000000
G02 X14.505158 Y3.771432 Z-1.000000 I-0.011396 J-0.423790
G02 X14.684062 Y3.632907 Z-1.000000 I-0.281133 J-0.547873
G03 X14.741653 Y3.603419 Z-1.000000 I0.066770 J0.059421
G03 X14.860990 Y3.614647 Z-1.000000 I0.031495 J0.305047
G01 X14.860990 Y3.614656 Z-1.000000
G00 Z0.000000

(End cutting path id: path4274)


(Start cutting path id: path4274)
(Change tool to Cone cutter)

G00 Z0.000000
G00 X15.143314 Y3.882926

G01 Z-1.000000 F100.0(Penetrate)
G01 X15.147691 Y3.900419 Z-1.000000 F400.000000
G02 X15.177724 Y3.947376 Z-1.000000 I0.312779 J-0.166967
G01 X15.199791 Y3.955223 Z-1.000000
G01 X15.212884 Y3.938776 Z-1.000000
G03 X15.223370 Y3.902421 Z-1.000000 I0.071690 J0.000988
G01 X15.237064 Y3.899146 Z-1.000000
G01 X15.253053 Y3.900255 Z-1.000000
G01 X15.260504 Y3.888806 Z-1.000000
G01 X15.250614 Y3.873875 Z-1.000000
G02 X15.201914 Y3.863986 Z-1.000000 I-0.048700 J0.114966
G02 X15.151329 Y3.871950 Z-1.000000 I0.000000 J0.164641
G01 X15.143324 Y3.882946 Z-1.000000
G01 X15.143314 Y3.882926 Z-1.000000
G00 Z0.000000

(End cutting path id: path4274)


(Start cutting path id: path4274)
(Change tool to Cone cutter)

G00 Z0.000000
G00 X15.143314 Y3.882926

G01 Z-1.000000 F100.0(Penetrate)
G01 X15.147691 Y3.900419 Z-1.000000 F400.000000
G02 X15.177724 Y3.947376 Z-1.000000 I0.312779 J-0.166967
G01 X15.199791 Y3.955223 Z-1.000000
G01 X15.212884 Y3.938776 Z-1.000000
G03 X15.223370 Y3.902421 Z-1.000000 I0.071690 J0.000988
G01 X15.237064 Y3.899146 Z-1.000000
G01 X15.253053 Y3.900255 Z-1.000000
G01 X15.260504 Y3.888806 Z-1.000000
G01 X15.250614 Y3.873875 Z-1.000000
G02 X15.201914 Y3.863986 Z-1.000000 I-0.048700 J0.114966
G02 X15.151329 Y3.871950 Z-1.000000 I0.000000 J0.164641
G01 X15.143324 Y3.882946 Z-1.000000
G01 X15.143314 Y3.882926 Z-1.000000
G00 Z0.000000

(End cutting path id: path4274)


(Start cutting path id: path4274)
(Change tool to Cone cutter)

G00 Z0.000000
G00 X15.340626 Y3.074887

G01 Z-1.000000 F100.0(Penetrate)
G03 X15.352043 Y3.118167 Z-1.000000 I-0.429757 J0.136518 F400.000000
G03 X15.354256 Y3.139337 Z-1.000000 I-0.100171 J0.021170
G01 X15.360829 Y3.154290 Z-1.000000
G01 X15.377696 Y3.160857 Z-1.000000
G01 X15.393325 Y3.142467 Z-1.000000
G02 X15.364066 Y3.077447 Z-1.000000 I-0.136426 J0.022298
G01 X15.346390 Y3.067818 Z-1.000000
G01 X15.340626 Y3.074847 Z-1.000000
G01 X15.340626 Y3.074887 Z-1.000000
G00 Z0.000000

(End cutting path id: path4274)


(Start cutting path id: path4274)
(Change tool to Cone cutter)

G00 Z0.000000
G00 X15.340626 Y3.074887

G01 Z-1.000000 F100.0(Penetrate)
G03 X15.352043 Y3.118167 Z-1.000000 I-0.429757 J0.136518 F400.000000
G03 X15.354256 Y3.139337 Z-1.000000 I-0.100171 J0.021170
G01 X15.360829 Y3.154290 Z-1.000000
G01 X15.377696 Y3.160857 Z-1.000000
G01 X15.393325 Y3.142467 Z-1.000000
G02 X15.364066 Y3.077447 Z-1.000000 I-0.136426 J0.022298
G01 X15.346390 Y3.067818 Z-1.000000
G01 X15.340626 Y3.074847 Z-1.000000
G01 X15.340626 Y3.074887 Z-1.000000
G00 Z0.000000

(End cutting path id: path4274)


(Start cutting path id: path4274)
(Change tool to Cone cutter)

G00 Z0.000000
G00 X15.974391 Y2.646794

G01 Z-1.000000 F100.0(Penetrate)
G01 X15.967100 Y2.670859 Z-1.000000 F400.000000
G01 X15.972991 Y2.685854 Z-1.000000
G01 X15.981164 Y2.685737 Z-1.000000
G01 X15.987061 Y2.670904 Z-1.000000
G01 X15.995956 Y2.663350 Z-1.000000
G01 X16.021801 Y2.676604 Z-1.000000
G02 X16.058518 Y2.708511 Z-1.000000 I0.246789 J-0.246918
G02 X16.086251 Y2.725154 Z-1.000000 I0.092704 J-0.123044
G01 X16.093672 Y2.738819 Z-1.000000
G01 X16.082151 Y2.754144 Z-1.000000
G02 X16.050920 Y2.773130 Z-1.000000 I0.061794 J0.136830
G02 X15.993191 Y2.824454 Z-1.000000 I0.409323 J0.518530
G03 X15.934474 Y2.870920 Z-1.000000 I-0.228830 J-0.228830
G03 X15.903971 Y2.879584 Z-1.000000 I-0.030503 J-0.049363
G02 X15.876527 Y2.886232 Z-1.000000 I0.000000 J0.059970
G01 X15.869851 Y2.897164 Z-1.000000
G01 X15.878082 Y2.906016 Z-1.000000
G02 X16.001582 Y2.906564 Z-1.000000 I0.065876 J-0.929522
G03 X16.109702 Y2.912533 Z-1.000000 I0.028732 J0.461779
G01 X16.115973 Y2.926484 Z-1.000000
G01 X16.120130 Y2.934366 Z-1.000000
G02 X16.148303 Y2.927984 Z-1.000000 I0.002518 J-0.054263
G02 X16.199629 Y2.850380 Z-1.000000 I-0.046206 J-0.086334
G02 X16.163103 Y2.762622 Z-1.000000 I-0.101795 J-0.009112
G03 X16.139131 Y2.731875 Z-1.000000 I0.058163 J-0.070066
G01 X16.140063 Y2.714482 Z-1.000000
G01 X16.129860 Y2.659407 Z-1.000000
G02 X16.018393 Y2.621782 Z-1.000000 I-0.111467 J0.146303
G02 X15.993500 Y2.628360 Z-1.000000 I0.000000 J0.050392
G02 X15.974383 Y2.646782 Z-1.000000 I0.026482 J0.046611
G01 X15.974391 Y2.646794 Z-1.000000
G00 Z0.000000

(End cutting path id: path4274)


(Start cutting path id: path4274)
(Change tool to Cone cutter)

G00 Z0.000000
G00 X15.974391 Y2.646794

G01 Z-1.000000 F100.0(Penetrate)
G01 X15.967100 Y2.670859 Z-1.000000 F400.000000
G01 X15.972991 Y2.685854 Z-1.000000
G01 X15.981164 Y2.685737 Z-1.000000
G01 X15.987061 Y2.670904 Z-1.000000
G01 X15.995956 Y2.663350 Z-1.000000
G01 X16.021801 Y2.676604 Z-1.000000
G02 X16.058518 Y2.708511 Z-1.000000 I0.246789 J-0.246918
G02 X16.086251 Y2.725154 Z-1.000000 I0.092704 J-0.123044
G01 X16.093672 Y2.738819 Z-1.000000
G01 X16.082151 Y2.754144 Z-1.000000
G02 X16.050920 Y2.773130 Z-1.000000 I0.061794 J0.136830
G02 X15.993191 Y2.824454 Z-1.000000 I0.409323 J0.518530
G03 X15.934474 Y2.870920 Z-1.000000 I-0.228830 J-0.228830
G03 X15.903971 Y2.879584 Z-1.000000 I-0.030503 J-0.049363
G02 X15.876527 Y2.886232 Z-1.000000 I0.000000 J0.059970
G01 X15.869851 Y2.897164 Z-1.000000
G01 X15.878082 Y2.906016 Z-1.000000
G02 X16.001582 Y2.906564 Z-1.000000 I0.065876 J-0.929522
G03 X16.109702 Y2.912533 Z-1.000000 I0.028732 J0.461779
G01 X16.115973 Y2.926484 Z-1.000000
G01 X16.120130 Y2.934366 Z-1.000000
G02 X16.148303 Y2.927984 Z-1.000000 I0.002518 J-0.054263
G02 X16.199629 Y2.850380 Z-1.000000 I-0.046206 J-0.086334
G02 X16.163103 Y2.762622 Z-1.000000 I-0.101795 J-0.009112
G03 X16.139131 Y2.731875 Z-1.000000 I0.058163 J-0.070066
G01 X16.140063 Y2.714482 Z-1.000000
G01 X16.129860 Y2.659407 Z-1.000000
G02 X16.018393 Y2.621782 Z-1.000000 I-0.111467 J0.146303
G02 X15.993500 Y2.628360 Z-1.000000 I0.000000 J0.050392
G02 X15.974383 Y2.646782 Z-1.000000 I0.026482 J0.046611
G01 X15.974391 Y2.646794 Z-1.000000
G00 Z0.000000

(End cutting path id: path4274)


(Start cutting path id: path4274)
(Change tool to Cone cutter)

G00 Z0.000000
G00 X16.216762 Y3.048356

G01 Z-1.000000 F100.0(Penetrate)
G03 X16.232868 Y3.081467 Z-1.000000 I-0.039862 J0.039862 F400.000000
G03 X16.244882 Y3.281390 Z-1.000000 I-1.657412 J0.199923
G03 X16.176571 Y3.681696 Z-1.000000 I-1.207061 J0.000000
G03 X16.027772 Y3.898984 Z-1.000000 I-0.478870 J-0.168338
G01 X15.933822 Y3.979404 Z-1.000000
G01 X15.870792 Y3.892384 Z-1.000000
G02 X15.689033 Y3.690848 Z-1.000000 I-1.029783 J0.745999
G02 X15.454551 Y3.519861 Z-1.000000 I-0.969567 J1.083339
G03 X15.383788 Y3.454714 Z-1.000000 I0.114496 J-0.195371
G01 X15.385541 Y3.421681 Z-1.000000
G02 X15.472329 Y3.288189 Z-1.000000 I-0.422682 J-0.369757
G02 X15.494892 Y3.185903 Z-1.000000 I-0.220564 J-0.102286
G01 X15.516389 Y3.152717 Z-1.000000
G03 X15.705830 Y3.091403 Z-1.000000 I0.377078 J0.841733
G02 X15.810971 Y3.068108 Z-1.000000 I-0.827711 J-3.984690
G02 X15.893330 Y3.047263 Z-1.000000 I-0.585990 J-2.488430
G03 X16.137170 Y3.015235 Z-1.000000 I0.240739 J0.888600
G03 X16.216767 Y3.048363 Z-1.000000 I-0.000381 J0.113103
G01 X16.216762 Y3.048356 Z-1.000000
G00 Z0.000000

(End cutting path id: path4274)


(Start cutting path id: path4274)
(Change tool to Cone cutter)

G00 Z0.000000
G00 X16.216762 Y3.048356

G01 Z-1.000000 F100.0(Penetrate)
G03 X16.232868 Y3.081467 Z-1.000000 I-0.039862 J0.039862 F400.000000
G03 X16.244882 Y3.281390 Z-1.000000 I-1.657412 J0.199923
G03 X16.176571 Y3.681696 Z-1.000000 I-1.207061 J0.000000
G03 X16.027772 Y3.898984 Z-1.000000 I-0.478870 J-0.168338
G01 X15.933822 Y3.979404 Z-1.000000
G01 X15.870792 Y3.892384 Z-1.000000
G02 X15.689033 Y3.690848 Z-1.000000 I-1.029783 J0.745999
G02 X15.454551 Y3.519861 Z-1.000000 I-0.969567 J1.083339
G03 X15.383788 Y3.454714 Z-1.000000 I0.114496 J-0.195371
G01 X15.385541 Y3.421681 Z-1.000000
G02 X15.472329 Y3.288189 Z-1.000000 I-0.422682 J-0.369757
G02 X15.494892 Y3.185903 Z-1.000000 I-0.220564 J-0.102286
G01 X15.516389 Y3.152717 Z-1.000000
G03 X15.705830 Y3.091403 Z-1.000000 I0.377078 J0.841733
G02 X15.810971 Y3.068108 Z-1.000000 I-0.827711 J-3.984690
G02 X15.893330 Y3.047263 Z-1.000000 I-0.585990 J-2.488430
G03 X16.137170 Y3.015235 Z-1.000000 I0.240739 J0.888600
G03 X16.216767 Y3.048363 Z-1.000000 I-0.000381 J0.113103
G01 X16.216762 Y3.048356 Z-1.000000
G00 Z0.000000

(End cutting path id: path4274)


(Start cutting path id: path4274)
(Change tool to Cone cutter)

G00 Z0.000000
G00 X16.552564 Y2.334686

G01 Z-1.000000 F100.0(Penetrate)
G01 X16.552064 Y2.342992 Z-1.000000 F400.000000
G01 X16.543764 Y2.343486 Z-1.000000
G03 X16.505791 Y2.309831 Z-1.000000 I0.260243 J-0.331887
G01 X16.502744 Y2.302476 Z-1.000000
G01 X16.511874 Y2.297499 Z-1.000000
G03 X16.552604 Y2.334646 Z-1.000000 I-0.089956 J0.139535
G01 X16.552564 Y2.334686 Z-1.000000
G00 Z0.000000

(End cutting path id: path4274)


(Start cutting path id: path4274)
(Change tool to Cone cutter)

G00 Z0.000000
G00 X16.552564 Y2.334686

G01 Z-1.000000 F100.0(Penetrate)
G01 X16.552064 Y2.342992 Z-1.000000 F400.000000
G01 X16.543764 Y2.343486 Z-1.000000
G03 X16.505791 Y2.309831 Z-1.000000 I0.260243 J-0.331887
G01 X16.502744 Y2.302476 Z-1.000000
G01 X16.511874 Y2.297499 Z-1.000000
G03 X16.552604 Y2.334646 Z-1.000000 I-0.089956 J0.139535
G01 X16.552564 Y2.334686 Z-1.000000
G00 Z0.000000

(End cutting path id: path4274)


(Start cutting path id: path4274)
(Change tool to Cone cutter)

G00 Z0.000000
G00 X17.018323 Y3.406833

G01 Z-1.000000 F100.0(Penetrate)
G02 X16.938427 Y3.440561 Z-1.000000 I0.250065 J0.703864 F400.000000
G02 X16.819104 Y3.504923 Z-1.000000 I0.806586 J1.638138
G03 X16.700690 Y3.571290 Z-1.000000 I-1.640768 J-2.788700
G03 X16.660901 Y3.589293 Z-1.000000 I-0.158281 J-0.296845
G02 X16.633184 Y3.613962 Z-1.000000 I0.018051 J0.048187
G02 X16.619461 Y3.669903 Z-1.000000 I0.110424 J0.056742
G03 X16.587027 Y3.782855 Z-1.000000 I-0.217866 J-0.001428
G03 X16.396524 Y4.031314 Z-1.000000 I-1.315920 J-0.811701
G03 X16.142493 Y4.252902 Z-1.000000 I-1.253906 J-1.181086
G03 X16.039438 Y4.285873 Z-1.000000 I-0.103055 J-0.144571
G02 X16.018628 Y4.289765 Z-1.000000 I0.000000 J0.057585
G02 X15.942078 Y4.323603 Z-1.000000 I0.325558 J0.839992
G03 X15.731739 Y4.394063 Z-1.000000 I-0.356104 J-0.713865
G03 X15.299312 Y4.443054 Z-1.000000 I-0.560933 J-3.018241
G03 X14.803336 Y4.421076 Z-1.000000 I-0.120778 J-2.881689
G03 X14.514611 Y4.340101 Z-1.000000 I0.136882 J-1.043297
G01 X14.384450 Y4.282541 Z-1.000000
G01 X14.113497 Y4.329381 Z-1.000000
G03 X13.413583 Y4.432540 Z-1.000000 I-2.425562 J-14.030976
G03 X13.125472 Y4.450014 Z-1.000000 I-0.287308 J-2.353233
G02 X12.908378 Y4.467466 Z-1.000000 I-0.000503 J1.352708
G02 X12.861800 Y4.492804 Z-1.000000 I0.012823 J0.079054
G02 X12.841869 Y4.540191 Z-1.000000 I0.057556 J0.052093
G01 X12.858200 Y4.552164 Z-1.000000
G01 X12.885010 Y4.550887 Z-1.000000
G01 X12.893360 Y4.561864 Z-1.000000
G01 X12.901697 Y4.578641 Z-1.000000
G02 X12.940120 Y4.597304 Z-1.000000 I0.066151 J-0.087305
G03 X12.979786 Y4.617445 Z-1.000000 I-0.026281 J0.100886
G03 X13.001360 Y4.647264 Z-1.000000 I-0.045347 J0.055523
G02 X13.020661 Y4.681988 Z-1.000000 I0.133445 J-0.051449
G02 X13.087160 Y4.760817 Z-1.000000 I0.761156 J-0.574634
G03 X13.150315 Y4.842193 Z-1.000000 I-0.395883 J0.372434
G03 X13.225184 Y4.978488 Z-1.000000 I-1.046822 J0.663749
G02 X13.300434 Y5.114995 Z-1.000000 I1.098845 J-0.516747
G02 X13.406457 Y5.262520 Z-1.000000 I1.389872 J-0.887011
G03 X13.503286 Y5.405812 Z-1.000000 I-0.801852 J0.646209
G01 X13.502667 Y5.434422 Z-1.000000
G02 X13.498603 Y5.525692 Z-1.000000 I0.079742 J0.049276
G02 X13.649399 Y5.727264 Z-1.000000 I0.636357 J-0.318867
G01 X13.653621 Y5.724272 Z-1.000000
G02 X13.610549 Y5.638464 Z-1.000000 I-0.839297 J0.367575
G03 X13.552570 Y5.524055 Z-1.000000 I1.138839 J-0.649026
G03 X13.537269 Y5.474401 Z-1.000000 I0.196209 J-0.087646
G01 X13.545217 Y5.462093 Z-1.000000
G01 X13.562229 Y5.468101 Z-1.000000
G03 X13.588861 Y5.516156 Z-1.000000 I-0.157676 J0.118793
G03 X13.596499 Y5.557371 Z-1.000000 I-0.107387 J0.041215
G01 X13.606901 Y5.582489 Z-1.000000
G01 X13.623559 Y5.584431 Z-1.000000
G01 X13.632825 Y5.585511 Z-1.000000
G01 X13.633899 Y5.594771 Z-1.000000
G01 X13.630770 Y5.614234 Z-1.000000
G01 X13.640399 Y5.621831 Z-1.000000
G03 X13.694233 Y5.655232 Z-1.000000 I-0.000000 J0.060084
G03 X13.694949 Y5.731885 Z-1.000000 I-0.078818 J0.039066
G01 X13.695579 Y5.735957 Z-1.000000
G02 X13.816186 Y5.860791 Z-1.000000 I4.688813 J-4.409367
G03 X13.954354 Y6.025685 Z-1.000000 I-0.907143 J0.900447
G03 X13.981180 Y6.095268 Z-1.000000 I-0.125612 J0.088389
G01 X13.986952 Y6.109725 Z-1.000000
G02 X14.015950 Y6.142138 Z-1.000000 I0.190586 J-0.141330
G01 X14.029051 Y6.142676 Z-1.000000
G01 X14.033120 Y6.128608 Z-1.000000
G01 X14.046431 Y6.075128 Z-1.000000
G03 X14.205859 Y5.970064 Z-1.000000 I0.405477 J0.441793
G02 X14.311304 Y5.922554 Z-1.000000 I-44.066049 J-97.941375
G02 X14.405078 Y5.880174 Z-1.000000 I-35.586547 J-78.867805
G02 X14.498313 Y5.836650 Z-1.000000 I-1.817867 J-4.015819
G02 X14.888188 Y5.647748 Z-1.000000 I-33.930284 J-70.525324
G03 X15.278800 Y5.463183 Z-1.000000 I7.549124 J15.471325
G03 X15.303690 Y5.457763 Z-1.000000 I0.024890 J0.054435
G02 X15.328743 Y5.452856 Z-1.000000 I-0.000000 J-0.066406
G02 X15.505042 Y5.375733 Z-1.000000 I-1.422219 J-3.491191
G03 X15.680721 Y5.295799 Z-1.000000 I3.761947 J8.034993
G01 X15.690649 Y5.293703 Z-1.000000
G01 X15.700535 Y5.291565 Z-1.000000
G02 X15.967124 Y5.168235 Z-1.000000 I-8.283725 J-18.255824
G03 X16.581165 Y4.910700 Z-1.000000 I3.265559 J6.925286
G03 X17.030078 Y4.775849 Z-1.000000 I1.313913 J3.559321
G01 X17.170703 Y4.742919 Z-1.000000
G01 X17.190043 Y4.555419 Z-1.000000
G02 X17.213845 Y4.040428 Z-1.000000 I-4.530329 J-0.467427
G02 X17.181443 Y3.730722 Z-1.000000 I-1.662278 J0.017361
G03 X17.154852 Y3.594340 Z-1.000000 I12.044962 J-2.419280
G03 X17.136793 Y3.494648 Z-1.000000 I6.459236 J-1.221531
G02 X17.116198 Y3.396643 Z-1.000000 I-1.377865 J0.238385
G01 X17.109953 Y3.386265 Z-1.000000
G01 X17.099337 Y3.383479 Z-1.000000
G02 X17.018383 Y3.406855 Z-1.000000 I0.155611 J0.690759
G01 X17.018323 Y3.406833 Z-1.000000
G00 Z0.000000

(End cutting path id: path4274)


(Start cutting path id: path4274)
(Change tool to Cone cutter)

G00 Z0.000000
G00 X17.018323 Y3.406833

G01 Z-1.000000 F100.0(Penetrate)
G02 X16.938427 Y3.440561 Z-1.000000 I0.250065 J0.703864 F400.000000
G02 X16.819104 Y3.504923 Z-1.000000 I0.806586 J1.638138
G03 X16.700690 Y3.571290 Z-1.000000 I-1.640768 J-2.788700
G03 X16.660901 Y3.589293 Z-1.000000 I-0.158281 J-0.296845
G02 X16.633184 Y3.613962 Z-1.000000 I0.018051 J0.048187
G02 X16.619461 Y3.669903 Z-1.000000 I0.110424 J0.056742
G03 X16.587027 Y3.782855 Z-1.000000 I-0.217866 J-0.001428
G03 X16.396524 Y4.031314 Z-1.000000 I-1.315920 J-0.811701
G03 X16.142493 Y4.252902 Z-1.000000 I-1.253906 J-1.181086
G03 X16.039438 Y4.285873 Z-1.000000 I-0.103055 J-0.144571
G02 X16.018628 Y4.289765 Z-1.000000 I0.000000 J0.057585
G02 X15.942078 Y4.323603 Z-1.000000 I0.325558 J0.839992
G03 X15.731739 Y4.394063 Z-1.000000 I-0.356104 J-0.713865
G03 X15.299312 Y4.443054 Z-1.000000 I-0.560933 J-3.018241
G03 X14.803336 Y4.421076 Z-1.000000 I-0.120778 J-2.881689
G03 X14.514611 Y4.340101 Z-1.000000 I0.136882 J-1.043297
G01 X14.384450 Y4.282541 Z-1.000000
G01 X14.113497 Y4.329381 Z-1.000000
G03 X13.413583 Y4.432540 Z-1.000000 I-2.425562 J-14.030976
G03 X13.125472 Y4.450014 Z-1.000000 I-0.287308 J-2.353233
G02 X12.908378 Y4.467466 Z-1.000000 I-0.000503 J1.352708
G02 X12.861800 Y4.492804 Z-1.000000 I0.012823 J0.079054
G02 X12.841869 Y4.540191 Z-1.000000 I0.057556 J0.052093
G01 X12.858200 Y4.552164 Z-1.000000
G01 X12.885010 Y4.550887 Z-1.000000
G01 X12.893360 Y4.561864 Z-1.000000
G01 X12.901697 Y4.578641 Z-1.000000
G02 X12.940120 Y4.597304 Z-1.000000 I0.066151 J-0.087305
G03 X12.979786 Y4.617445 Z-1.000000 I-0.026281 J0.100886
G03 X13.001360 Y4.647264 Z-1.000000 I-0.045347 J0.055523
G02 X13.020661 Y4.681988 Z-1.000000 I0.133445 J-0.051449
G02 X13.087160 Y4.760817 Z-1.000000 I0.761156 J-0.574634
G03 X13.150315 Y4.842193 Z-1.000000 I-0.395883 J0.372434
G03 X13.225184 Y4.978488 Z-1.000000 I-1.046822 J0.663749
G02 X13.300434 Y5.114995 Z-1.000000 I1.098845 J-0.516747
G02 X13.406457 Y5.262520 Z-1.000000 I1.389872 J-0.887011
G03 X13.503286 Y5.405812 Z-1.000000 I-0.801852 J0.646209
G01 X13.502667 Y5.434422 Z-1.000000
G02 X13.498603 Y5.525692 Z-1.000000 I0.079742 J0.049276
G02 X13.649399 Y5.727264 Z-1.000000 I0.636357 J-0.318867
G01 X13.653621 Y5.724272 Z-1.000000
G02 X13.610549 Y5.638464 Z-1.000000 I-0.839297 J0.367575
G03 X13.552570 Y5.524055 Z-1.000000 I1.138839 J-0.649026
G03 X13.537269 Y5.474401 Z-1.000000 I0.196209 J-0.087646
G01 X13.545217 Y5.462093 Z-1.000000
G01 X13.562229 Y5.468101 Z-1.000000
G03 X13.588861 Y5.516156 Z-1.000000 I-0.157676 J0.118793
G03 X13.596499 Y5.557371 Z-1.000000 I-0.107387 J0.041215
G01 X13.606901 Y5.582489 Z-1.000000
G01 X13.623559 Y5.584431 Z-1.000000
G01 X13.632825 Y5.585511 Z-1.000000
G01 X13.633899 Y5.594771 Z-1.000000
G01 X13.630770 Y5.614234 Z-1.000000
G01 X13.640399 Y5.621831 Z-1.000000
G03 X13.694233 Y5.655232 Z-1.000000 I-0.000000 J0.060084
G03 X13.694949 Y5.731885 Z-1.000000 I-0.078818 J0.039066
G01 X13.695579 Y5.735957 Z-1.000000
G02 X13.816186 Y5.860791 Z-1.000000 I4.688813 J-4.409367
G03 X13.954354 Y6.025685 Z-1.000000 I-0.907143 J0.900447
G03 X13.981180 Y6.095268 Z-1.000000 I-0.125612 J0.088389
G01 X13.986952 Y6.109725 Z-1.000000
G02 X14.015950 Y6.142138 Z-1.000000 I0.190586 J-0.141330
G01 X14.029051 Y6.142676 Z-1.000000
G01 X14.033120 Y6.128608 Z-1.000000
G01 X14.046431 Y6.075128 Z-1.000000
G03 X14.205859 Y5.970064 Z-1.000000 I0.405477 J0.441793
G02 X14.311304 Y5.922554 Z-1.000000 I-44.066049 J-97.941375
G02 X14.405078 Y5.880174 Z-1.000000 I-35.586547 J-78.867805
G02 X14.498313 Y5.836650 Z-1.000000 I-1.817867 J-4.015819
G02 X14.888188 Y5.647748 Z-1.000000 I-33.930284 J-70.525324
G03 X15.278800 Y5.463183 Z-1.000000 I7.549124 J15.471325
G03 X15.303690 Y5.457763 Z-1.000000 I0.024890 J0.054435
G02 X15.328743 Y5.452856 Z-1.000000 I-0.000000 J-0.066406
G02 X15.505042 Y5.375733 Z-1.000000 I-1.422219 J-3.491191
G03 X15.680721 Y5.295799 Z-1.000000 I3.761947 J8.034993
G01 X15.690649 Y5.293703 Z-1.000000
G01 X15.700535 Y5.291565 Z-1.000000
G02 X15.967124 Y5.168235 Z-1.000000 I-8.283725 J-18.255824
G03 X16.581165 Y4.910700 Z-1.000000 I3.265559 J6.925286
G03 X17.030078 Y4.775849 Z-1.000000 I1.313913 J3.559321
G01 X17.170703 Y4.742919 Z-1.000000
G01 X17.190043 Y4.555419 Z-1.000000
G02 X17.213845 Y4.040428 Z-1.000000 I-4.530329 J-0.467427
G02 X17.181443 Y3.730722 Z-1.000000 I-1.662278 J0.017361
G03 X17.154852 Y3.594340 Z-1.000000 I12.044962 J-2.419280
G03 X17.136793 Y3.494648 Z-1.000000 I6.459236 J-1.221531
G02 X17.116198 Y3.396643 Z-1.000000 I-1.377865 J0.238385
G01 X17.109953 Y3.386265 Z-1.000000
G01 X17.099337 Y3.383479 Z-1.000000
G02 X17.018383 Y3.406855 Z-1.000000 I0.155611 J0.690759
G01 X17.018323 Y3.406833 Z-1.000000
G00 Z0.000000

(End cutting path id: path4274)


(Start cutting path id: path4274)
(Change tool to Cone cutter)

G00 Z0.000000
G00 X17.099753 Y3.623755

G01 Z-1.000000 F100.0(Penetrate)
G03 X17.152863 Y3.979878 Z-1.000000 I-1.727781 J0.439693 F400.000000
G03 X17.138923 Y4.458463 Z-1.000000 I-3.149007 J0.147772
G03 X17.111285 Y4.688112 Z-1.000000 I-7.865910 J-0.830165
G01 X17.106593 Y4.697593 Z-1.000000
G01 X17.097169 Y4.702675 Z-1.000000
G03 X17.017473 Y4.716043 Z-1.000000 I-0.218203 J-1.056585
G02 X16.937951 Y4.733317 Z-1.000000 I0.061935 J0.476793
G02 X16.701916 Y4.813213 Z-1.000000 I1.320944 J4.291057
G03 X16.467287 Y4.899170 Z-1.000000 I-14.590835 J-39.464137
G03 X16.303478 Y4.957834 Z-1.000000 I-6.898154 J-19.003812
G02 X16.141580 Y5.021005 Z-1.000000 I0.893849 J2.529861
G02 X15.898206 Y5.131297 Z-1.000000 I2.493289 J5.825422
G03 X15.656228 Y5.243462 Z-1.000000 I-4.588474 J-9.581843
G01 X15.640393 Y5.246898 Z-1.000000
G01 X15.624637 Y5.250273 Z-1.000000
G02 X15.511366 Y5.304038 Z-1.000000 I0.965194 J2.179650
G03 X15.397319 Y5.357109 Z-1.000000 I-0.837654 J-1.651009
G03 X15.312147 Y5.388628 Z-1.000000 I-0.376783 J-0.887317
G02 X15.227739 Y5.421936 Z-1.000000 I0.200339 J0.631299
G02 X14.908947 Y5.580615 Z-1.000000 I4.388928 J9.217087
G03 X14.286563 Y5.895027 Z-1.000000 I-13.967088 J-26.874829
G03 X14.251992 Y5.903054 Z-1.000000 I-0.034571 J-0.070438
G02 X14.230187 Y5.907446 Z-1.000000 I-0.000000 J0.056324
G02 X14.146190 Y5.947484 Z-1.000000 I0.381149 J0.907752
G03 X14.022356 Y5.963502 Z-1.000000 I-0.082980 J-0.154829
G03 X13.907185 Y5.890324 Z-1.000000 I0.048779 J-0.203991
G03 X13.848906 Y5.781119 Z-1.000000 I0.265487 J-0.211835
G03 X13.829505 Y5.645241 Z-1.000000 I0.397940 J-0.126142
G02 X13.821306 Y5.595670 Z-1.000000 I-0.134556 J-0.003207
G01 X13.810935 Y5.594491 Z-1.000000
G01 X13.794892 Y5.598622 Z-1.000000
G01 X13.777675 Y5.576881 Z-1.000000
G03 X13.778759 Y5.546765 Z-1.000000 I0.050918 J-0.013245
G01 X13.789185 Y5.543011 Z-1.000000
G01 X13.800013 Y5.541012 Z-1.000000
G01 X13.802625 Y5.525461 Z-1.000000
G02 X13.786259 Y5.500524 Z-1.000000 I-0.055525 J0.018601
G01 X13.766385 Y5.492901 Z-1.000000
G03 X13.743284 Y5.487693 Z-1.000000 I0.000000 J-0.053840
G03 X13.721465 Y5.471561 Z-1.000000 I0.030321 J-0.063831
G01 X13.722453 Y5.466671 Z-1.000000
G01 X13.731265 Y5.467061 Z-1.000000
G01 X13.743245 Y5.453800 Z-1.000000
G02 X13.630111 Y5.326452 Z-1.000000 I-0.674077 J0.484912
G03 X13.510451 Y5.201171 Z-1.000000 I0.879015 J-0.959364
G03 X13.493095 Y5.162389 Z-1.000000 I0.060037 J-0.050142
G02 X13.479704 Y5.125653 Z-1.000000 I-0.095696 J0.014073
G01 X13.465355 Y5.117469 Z-1.000000
G03 X13.177378 Y4.971203 Z-1.000000 I0.006784 J-0.369984
G03 X13.034160 Y4.549511 Z-1.000000 I0.560781 J-0.425622
G01 X13.044818 Y4.530481 Z-1.000000
G03 X13.086730 Y4.517711 Z-1.000000 I0.046151 J0.076310
G03 X13.139459 Y4.515167 Z-1.000000 I40.494879 J835.233722
G02 X13.303527 Y4.507221 Z-1.000000 I-18.084596 J-374.868508
G02 X13.466901 Y4.492940 Z-1.000000 I-0.103854 J-2.129719
G02 X13.760558 Y4.449481 Z-1.000000 I-0.874685 J-6.924208
G03 X14.392374 Y4.373504 Z-1.000000 I1.098095 J6.466578
G03 X14.503674 Y4.396521 Z-1.000000 I0.014873 J0.208688
G02 X14.663972 Y4.458597 Z-1.000000 I0.362367 J-0.697725
G02 X14.932433 Y4.510553 Z-1.000000 I0.511409 J-1.922954
G02 X15.104831 Y4.521136 Z-1.000000 I0.172665 J-1.403269
G02 X15.307433 Y4.510624 Z-1.000000 I0.000368 J-1.950613
G02 X15.968821 Y4.369172 Z-1.000000 I-0.328758 J-3.154139
G02 X16.320668 Y4.177616 Z-1.000000 I-0.347387 J-1.056984
G02 X16.586552 Y3.906477 Z-1.000000 I-1.034493 J-1.280376
G02 X16.679802 Y3.714881 Z-1.000000 I-0.409424 J-0.317759
G03 X16.784245 Y3.565581 Z-1.000000 I0.247874 J0.062219
G03 X17.044818 Y3.467374 Z-1.000000 I0.334969 J0.493983
G01 X17.054290 Y3.473245 Z-1.000000
G03 X17.099808 Y3.623727 Z-1.000000 I-1.664245 J0.585522
G01 X17.099753 Y3.623755 Z-1.000000
G00 Z0.000000

(End cutting path id: path4274)


(Start cutting path id: path4274)
(Change tool to Cone cutter)

G00 Z0.000000
G00 X17.099753 Y3.623755

G01 Z-1.000000 F100.0(Penetrate)
G03 X17.152863 Y3.979878 Z-1.000000 I-1.727781 J0.439693 F400.000000
G03 X17.138923 Y4.458463 Z-1.000000 I-3.149007 J0.147772
G03 X17.111285 Y4.688112 Z-1.000000 I-7.865910 J-0.830165
G01 X17.106593 Y4.697593 Z-1.000000
G01 X17.097169 Y4.702675 Z-1.000000
G03 X17.017473 Y4.716043 Z-1.000000 I-0.218203 J-1.056585
G02 X16.937951 Y4.733317 Z-1.000000 I0.061935 J0.476793
G02 X16.701916 Y4.813213 Z-1.000000 I1.320944 J4.291057
G03 X16.467287 Y4.899170 Z-1.000000 I-14.590835 J-39.464137
G03 X16.303478 Y4.957834 Z-1.000000 I-6.898154 J-19.003812
G02 X16.141580 Y5.021005 Z-1.000000 I0.893849 J2.529861
G02 X15.898206 Y5.131297 Z-1.000000 I2.493289 J5.825422
G03 X15.656228 Y5.243462 Z-1.000000 I-4.588474 J-9.581843
G01 X15.640393 Y5.246898 Z-1.000000
G01 X15.624637 Y5.250273 Z-1.000000
G02 X15.511366 Y5.304038 Z-1.000000 I0.965194 J2.179650
G03 X15.397319 Y5.357109 Z-1.000000 I-0.837654 J-1.651009
G03 X15.312147 Y5.388628 Z-1.000000 I-0.376783 J-0.887317
G02 X15.227739 Y5.421936 Z-1.000000 I0.200339 J0.631299
G02 X14.908947 Y5.580615 Z-1.000000 I4.388928 J9.217087
G03 X14.286563 Y5.895027 Z-1.000000 I-13.967088 J-26.874829
G03 X14.251992 Y5.903054 Z-1.000000 I-0.034571 J-0.070438
G02 X14.230187 Y5.907446 Z-1.000000 I-0.000000 J0.056324
G02 X14.146190 Y5.947484 Z-1.000000 I0.381149 J0.907752
