; generated by Slic3r 1.3.0 on 2020-10-05 at 15:32:32

; external perimeters extrusion width = 0.55mm (4.37mm^3/s)
; perimeters extrusion width = 0.70mm (11.44mm^3/s)
; infill extrusion width = 0.63mm (13.45mm^3/s)
; solid infill extrusion width = 0.70mm (3.81mm^3/s)
; top infill extrusion width = 0.70mm (2.86mm^3/s)

M107
M104 S205 ; set temperature
G28 ; home all axes
G1 Z5 F5000 ; lift nozzle

; Filament gcode

M109 S205 ; set temperature and wait for it to be reached
G21 ; set units to millimeters
G90 ; use absolute coordinates
M82 ; use absolute distances for extrusion
G92 E0
G1 Z0.300 F7800.000
G1 E-2.00000 F2400.00000
G92 E0
G1 X89.530 Y89.067 F7800.000
G1 E2.00000 F2400.00000
G1 F1800
G1 X89.956 Y88.641 E2.01371
G1 X90.485 Y89.031 F7800.000
G1 F1800
G1 X90.059 Y89.457 E2.02741
G1 X90.497 Y89.043 F7800.000
G1 F1800
G1 X90.071 Y89.469 E2.04112
G1 X90.301 Y89.928 E2.05280
G1 X89.969 Y90.325 E2.06455
G1 X89.705 Y90.400 E2.07079
G1 X89.425 Y90.521 E2.07773
G1 X89.236 Y90.645 E2.08286
G1 X89.334 Y90.620 E2.08515
G1 X89.790 Y90.396 E2.09670
G1 X89.942 Y90.397 E2.10014
G1 X91.050 Y89.289 E2.13578
G1 X91.281 Y89.286 E2.14103
G1 X91.400 Y89.323 E2.14386
G1 X91.656 Y89.482 E2.15071
G1 X90.390 Y90.748 E2.19143
G1 X90.457 Y90.925 E2.19572
G1 X90.472 Y91.026 E2.19805
G1 X90.442 Y91.310 E2.20455
G1 X90.451 Y91.486 E2.20854
G1 X90.502 Y91.226 E2.21455
G1 X90.636 Y90.867 E2.22327
G1 X91.095 Y90.644 E2.23488
G1 X91.548 Y90.137 E2.25032
G1 X91.773 Y90.164 E2.25548
G1 X92.750 Y89.187 E2.28690
G1 X93.062 Y89.066 E2.29449
G1 X93.930 Y88.805 E2.31512
G1 X92.514 Y90.222 E2.36066
G1 X93.347 Y90.188 E2.37961
G1 X94.971 Y88.563 E2.43184
G1 X95.936 Y88.398 E2.45409
G1 X94.240 Y90.094 E2.50862
G1 X95.185 Y89.948 E2.53037
G1 X96.840 Y88.292 E2.58359
G1 X97.302 Y88.252 E2.59412
G1 X97.685 Y88.246 E2.60283
G1 X96.216 Y89.716 E2.65007
G1 X96.558 Y89.638 E2.65806
G1 X96.902 Y89.829 E2.66699
G1 X98.686 Y88.044 E2.72436
G1 X98.784 Y88.094 E2.72686
G1 X98.893 Y88.207 E2.73042
G1 X99.059 Y88.470 E2.73750
G1 X97.005 Y90.524 E2.80352
G1 X96.955 Y90.775 E2.80933
G1 X96.913 Y91.415 E2.82392
G1 X99.287 Y89.041 E2.90025
G1 X99.361 Y89.312 E2.90664
G1 X99.428 Y89.699 E2.91556
G1 X96.942 Y92.185 E2.99548
G1 E0.99548 F2400.00000
G92 E0
G1 X101.023 Y90.501 F7800.000
G1 E2.00000 F2400.00000
G1 F1800
G1 X100.989 Y90.483 E2.00086
G1 X100.734 Y90.156 E2.01030
G1 X100.863 Y90.409 E2.01677
G1 X100.904 Y90.619 E2.02163
G1 X101.449 Y90.075 E2.03913
G1 X101.790 Y90.257 E2.04792
G1 X102.024 Y90.298 E2.05333
G1 X100.829 Y91.494 E2.09178
G1 X101.050 Y91.597 E2.09733
G1 X101.105 Y91.759 E2.10121
G1 X101.147 Y91.975 E2.10620
G1 X102.592 Y90.530 E2.15266
G1 X102.974 Y90.502 E2.16136
G1 X103.403 Y90.518 E2.17112
G1 X102.482 Y91.438 E2.20072
G1 X103.009 Y91.710 E2.21420
G1 X104.120 Y90.600 E2.24991
G1 X104.787 Y90.732 E2.26537
G1 X103.572 Y91.946 E2.30442
G1 X104.161 Y92.156 E2.31864
G1 X105.429 Y90.888 E2.35940
G1 X106.045 Y91.071 E2.37401
G1 X104.774 Y92.342 E2.41488
G1 X105.150 Y92.452 E2.42379
G1 X105.126 Y92.789 E2.43149
G1 X106.646 Y91.269 E2.48035
G1 X106.755 Y91.306 E2.48297
G1 X107.124 Y91.203 E2.49167
G1 X107.430 Y91.069 E2.49928
G1 X107.711 Y91.003 E2.50583
G1 X104.552 Y94.162 E2.60740
G1 X105.928 Y95.183 F7800.000
G1 F1800
G1 X107.391 Y93.720 E2.65441
G1 X107.548 Y93.477 E2.66099
G1 X107.714 Y93.144 E2.66946
G1 X107.853 Y92.807 E2.67775
G1 X107.992 Y92.320 E2.68927
G1 E0.68927 F2400.00000
G92 E0
G1 X112.621 Y101.272 F7800.000
G1 E2.00000 F2400.00000
G1 F1800
G1 X111.099 Y102.794 E2.04893
G1 X111.530 Y103.163 F7800.000
G1 F1800
G1 X111.458 Y102.742 E2.05863
G1 X112.316 Y102.269 E2.08089
G1 X112.353 Y102.339 E2.08270
G1 X113.066 Y101.626 E2.10563
G1 X113.401 Y102.090 E2.11864
G1 X112.695 Y102.796 E2.14135
G1 X111.956 Y102.736 F7800.000
G1 F1800
G1 X111.231 Y103.461 E2.16465
G1 X111.301 Y103.590 E2.16798
G1 X111.571 Y103.920 E2.17768
G1 X112.302 Y103.189 E2.20118
G1 X112.437 Y103.277 E2.20484
G1 X112.678 Y103.371 E2.21073
G1 X112.876 Y103.414 E2.21532
G1 X112.031 Y104.259 E2.24248
G1 X112.255 Y104.362 E2.24809
G1 X112.497 Y104.421 E2.25374
G1 X112.653 Y104.436 E2.25731
G1 X114.888 Y102.201 E2.32916
G1 X114.837 Y102.520 E2.33648
G1 X114.666 Y103.028 E2.34866
G1 X114.493 Y103.346 E2.35690
G1 X114.361 Y103.521 E2.36190
G1 X113.783 Y104.105 E2.38057
G1 X113.522 Y102.768 F7800.000
G1 F1800
G1 X114.920 Y101.370 E2.42549
G1 X114.857 Y100.825 E2.43797
G1 X114.819 Y100.672 E2.44155
G1 X113.802 Y101.689 E2.47424
G1 X113.739 Y101.284 E2.48356
G1 X113.665 Y101.027 E2.48964
G1 X114.643 Y100.049 E2.52109
G1 X114.497 Y99.658 E2.53058
G1 X114.396 Y99.497 E2.53489
G1 X113.433 Y100.460 E2.56583
G1 X113.234 Y100.141 E2.57438
G1 X113.093 Y100.002 E2.57890
G1 X114.043 Y99.051 E2.60946
G1 X113.676 Y98.738 E2.62042
G1 X113.603 Y98.693 E2.62238
G1 X112.593 Y99.702 E2.65485
G1 X111.960 Y99.537 E2.66972
G1 X113.087 Y98.410 E2.70596
G1 X112.915 Y98.323 E2.71034
G1 X112.523 Y98.175 E2.71986
G1 X111.261 Y99.437 E2.76044
G1 X110.505 Y99.394 E2.77765
G1 X111.854 Y98.045 E2.82103
G1 X111.160 Y97.940 E2.83699
G1 X109.682 Y99.418 E2.88450
G1 X109.582 Y99.444 E2.88684
G1 X109.036 Y99.495 E2.89931
G1 X108.810 Y99.549 E2.90459
G1 X108.705 Y99.596 E2.90721
G1 X110.470 Y97.831 E2.96395
G1 X109.997 Y97.722 E2.97497
G1 X109.805 Y97.697 E2.97938
G1 X106.252 Y101.250 E3.09361
G1 X105.120 Y101.583 E3.12042
G1 X109.163 Y97.540 E3.25038
G1 X108.854 Y97.374 E3.25834
G1 X108.668 Y97.236 E3.26361
G1 X103.242 Y102.663 E3.43806
G1 X103.024 Y102.553 E3.44360
G1 X102.229 Y103.031 E3.46469
G1 X101.986 Y103.119 E3.47057
G1 X108.262 Y96.844 E3.67233
G1 X107.889 Y96.417 E3.68520
G1 X100.607 Y103.700 E3.91931
G1 X99.742 Y104.100 E3.94098
G1 X99.204 Y104.304 E3.95405
G1 X107.492 Y96.015 E4.22051
G1 X107.313 Y95.857 E4.22594
G1 X107.019 Y95.689 E4.23364
G1 X94.914 Y107.794 E4.62279
G1 X94.945 Y107.383 E4.63216
G1 X95.045 Y106.864 E4.64416
G1 X106.427 Y95.482 E5.01009
G1 X106.165 Y94.946 E5.02366
G1 X95.626 Y105.484 E5.36247
G1 X96.000 Y104.883 E5.37858
G1 X96.030 Y104.564 E5.38585
G1 X96.102 Y104.398 E5.38997
G1 X96.014 Y104.298 E5.39300
G1 X107.992 Y92.320 E5.77807
G1 X108.074 Y91.879 E5.78825
G1 X108.092 Y91.605 E5.79451
G1 X108.079 Y91.434 E5.79841
G1 X95.562 Y103.951 E6.20080
G1 X95.223 Y103.767 E6.20957
G1 X95.014 Y103.700 E6.21456
G1 X103.981 Y94.732 E6.50286
G1 X103.784 Y94.699 E6.50740
G1 X103.347 Y94.568 E6.51778
G1 X93.736 Y104.179 E6.82675
G1 X93.241 Y104.258 E6.83816
G1 X92.849 Y104.267 E6.84707
G1 X102.785 Y94.331 E7.16652
G1 X102.247 Y94.071 E7.18012
G1 X92.095 Y104.222 E7.50647
G1 X91.399 Y104.119 E7.52247
G1 X101.721 Y93.797 E7.85431
G1 X101.183 Y93.536 E7.86790
G1 X90.737 Y103.982 E8.20374
G1 X90.100 Y103.820 E8.21868
G1 X100.642 Y93.278 E8.55759
G1 X100.076 Y93.046 E8.57151
G1 X89.491 Y103.630 E8.91179
G1 X88.923 Y103.400 E8.92573
G1 X99.509 Y92.814 E9.26605
G1 X99.407 Y92.772 E9.26854
G1 X99.365 Y92.643 E9.27164
G1 X99.247 Y92.572 E9.27476
G1 X99.211 Y92.313 E9.28072
G1 X88.392 Y103.131 E9.62851
G1 X87.885 Y102.840 E9.64181
G1 X99.379 Y91.346 E10.01133
G1 X99.418 Y91.152 E10.01583
G1 X99.471 Y91.036 E10.01872
G1 X99.447 Y90.952 E10.02072
G1 X99.467 Y90.459 E10.03194
G1 X87.420 Y102.506 E10.41924
G1 X86.990 Y102.137 E10.43212
G1 X95.808 Y93.319 E10.71559
G1 X95.614 Y93.422 E10.72059
G1 X95.167 Y93.518 E10.73098
G1 X94.964 Y93.364 E10.73677
G1 X86.634 Y101.694 E11.00457
G1 X86.510 Y101.521 E11.00942
G1 X86.339 Y101.190 E11.01787
G1 X94.451 Y93.078 E11.27867
G1 X94.320 Y93.027 E11.28187
G1 X93.803 Y92.927 E11.29383
G1 X86.142 Y100.588 E11.54014
G1 X86.084 Y100.363 E11.54543
G1 X86.019 Y99.913 E11.55577
G1 X93.018 Y92.913 E11.78078
G1 X92.602 Y92.936 E11.79025
G1 X92.128 Y93.004 E11.80113
G1 X85.978 Y99.155 E11.99886
G1 X85.979 Y98.355 E12.01704
G1 X91.144 Y93.190 E12.18309
G1 X90.875 Y93.247 E12.18934
G1 X90.039 Y93.495 E12.20915
G1 X86.042 Y97.493 E12.33766
G1 X86.096 Y97.166 E12.34518
G1 X86.182 Y96.824 E12.35321
G1 X86.356 Y96.379 E12.36406
G1 X88.550 Y94.185 E12.43460
G1 E10.43460 F2400.00000
G92 E0
G1 X88.695 Y109.220 F7800.000
G1 E2.00000 F2400.00000
G1 F1800
G1 X88.236 Y109.679 E2.01475
G1 X88.425 Y109.937 E2.02201
G1 X88.334 Y110.380 E2.03229
G1 X89.065 Y109.649 E2.05579
G1 X89.185 Y109.739 E2.05919
G1 X89.473 Y109.814 E2.06596
G1 X89.607 Y109.906 E2.06966
G1 X88.379 Y111.134 E2.10913
G1 X88.472 Y111.488 E2.11746
G1 X88.301 Y111.896 E2.12752
G1 X88.265 Y112.047 E2.13103
G1 X88.312 Y112.000 E2.13253
G1 X88.430 Y111.659 E2.14073
G1 X88.595 Y111.339 E2.14892
G1 X88.783 Y111.253 E2.15363
G1 X88.965 Y111.224 E2.15781
G1 X89.113 Y111.155 E2.16152
G1 X89.269 Y111.008 E2.16638
G1 X89.394 Y110.776 E2.17237
G1 X89.642 Y110.670 E2.17851
G1 X90.375 Y109.937 E2.20207
G1 X90.603 Y109.754 E2.20871
G1 X91.083 Y109.448 E2.22166
G1 X91.593 Y109.169 E2.23487
G1 X92.259 Y108.852 E2.25164
G1 X90.532 Y110.579 E2.30716
G1 X91.190 Y110.464 E2.32236
G1 X91.530 Y110.380 E2.33030
G1 X93.589 Y108.321 E2.39650
G1 X94.329 Y108.072 E2.41426
G1 X94.759 Y107.949 E2.42443
G1 X92.662 Y110.046 E2.49183
G1 X93.940 Y109.567 E2.52285
G1 X98.037 Y105.470 E2.65456
G1 X97.931 Y105.846 E2.66342
G1 X97.745 Y106.357 E2.67578
G1 X97.568 Y106.738 E2.68533
G1 X95.395 Y108.911 E2.75520
G1 E0.75520 F2400.00000
G92 E0
G1 X98.716 Y106.389 F7800.000
G1 E2.00000 F2400.00000
G1 F1800
G1 X98.656 Y106.326 E2.00198
G1 X98.701 Y106.404 E2.00403
G1 X99.142 Y105.963 E2.01821
G1 X99.354 Y106.196 E2.02538
G1 X99.488 Y106.416 E2.03123
G1 X99.455 Y106.450 E2.03231
G1 X99.597 Y106.809 E2.04109
G1 X99.403 Y107.055 E2.04821
G1 X99.145 Y107.243 E2.05548
G1 X98.812 Y107.256 E2.06305
G1 X98.606 Y107.298 E2.06782
G1 X98.121 Y107.784 E2.08344
G1 X98.514 Y107.711 E2.09254
G1 X98.870 Y107.781 E2.10078
G1 X98.889 Y107.814 E2.10165
G1 X99.940 Y106.763 E2.13542
G1 X100.130 Y106.819 E2.13992
G1 X100.472 Y107.030 E2.14906
G1 X99.113 Y108.389 E2.19277
G1 X99.135 Y108.555 E2.19657
G1 X98.983 Y108.930 E2.20576
G1 X98.934 Y109.140 E2.21066
G1 X98.990 Y109.042 E2.21321
G1 X99.142 Y108.596 E2.22392
G1 X99.424 Y108.295 E2.23331
G1 X99.725 Y108.210 E2.24040
G1 X99.966 Y108.046 E2.24703
G1 X100.248 Y107.934 E2.25394
G1 X100.342 Y107.959 E2.25615
G1 X101.331 Y106.970 E2.28794
G1 X102.260 Y106.840 E2.30927
G1 X100.988 Y108.112 E2.35019
G1 X101.686 Y108.213 E2.36623
G1 X103.104 Y106.795 E2.41182
G1 X103.895 Y106.803 E2.42979
G1 X102.430 Y108.268 E2.47689
G1 X103.222 Y108.274 F7800.000
G1 F1800
G1 X104.126 Y107.370 E2.50595
G1 X104.397 Y107.814 E2.51775
G1 X103.649 Y107.848 E2.53477
G1 X104.997 Y108.097 F7800.000
G1 F1800
G1 X106.431 Y106.664 E2.58086
G1 X106.464 Y106.152 E2.59250
G1 X106.453 Y105.843 E2.59954
G1 X104.648 Y107.648 E2.65757
G1 X104.402 Y107.468 E2.66450
G1 X104.243 Y107.571 E2.66880
G1 X103.829 Y107.667 E2.67846
G1 X106.352 Y105.144 E2.75957
G1 X106.178 Y104.520 E2.77430
G1 X104.075 Y106.623 E2.84190
G1 X103.869 Y106.030 E2.85617
G1 X105.945 Y103.954 E2.92290
G1 X105.689 Y103.411 E2.93655
G1 X103.724 Y105.376 E2.99973
G1 X103.659 Y104.873 E3.01126
G1 X103.650 Y104.651 E3.01630
G1 X105.396 Y102.905 E3.07243
G1 X105.067 Y102.435 E3.08547
G1 X103.629 Y103.873 E3.13172
G1 X103.670 Y103.207 E3.14690
G1 X103.642 Y103.061 E3.15029
G1 X104.796 Y101.908 E3.18736
G1 E1.18736 F2400.00000
G92 E0
G1 X88.760 Y109.954 F7800.000
G1 E2.00000 F2400.00000
G1 F1800
G1 X88.730 Y110.101 E2.00343
G1 X88.567 Y110.147 E2.00728
G1 X87.955 Y110.759 E2.02694
M104 S200 ; set temperature
G1 Z0.600 F7800.000
G1 E0.02694 F2400.00000
G92 E0
G1 X87.217 Y102.426 F7800.000
G1 E2.00000 F2400.00000
G1 F4800
G1 X86.752 Y101.961 E2.01565
G1 X86.438 Y101.606 E2.02692
G1 X86.307 Y101.427 E2.03220
G1 X86.129 Y101.117 E2.04071
G1 X85.894 Y100.606 E2.05408
G1 X85.719 Y100.127 E2.06621
G1 X89.204 Y103.613 E2.18348
G1 X89.973 Y103.883 E2.20287
G1 X90.401 Y104.008 E2.21348
G1 X85.427 Y99.034 E2.38083
G1 X85.368 Y98.670 E2.38961
G1 X85.352 Y98.365 E2.39689
G1 X85.368 Y98.174 E2.40145
G1 X91.496 Y104.302 E2.60767
G1 X92.145 Y104.462 E2.62358
G1 X92.531 Y104.536 E2.63292
G1 X85.465 Y97.470 E2.87069
G1 X85.635 Y96.839 E2.88623
G1 X93.468 Y104.672 E3.14979
G1 X94.018 Y104.663 E3.16289
G1 X94.223 Y104.626 E3.16785
G1 X85.839 Y96.241 E3.44999
G1 X86.084 Y95.686 E3.46444
G1 X94.768 Y104.369 E3.75663
G1 X94.977 Y104.189 E3.76319
G1 X95.171 Y103.971 E3.77014
G1 X86.377 Y95.177 E4.06602
G1 X86.750 Y94.749 E4.07953
G1 X95.278 Y103.277 E4.36651
G1 X95.460 Y103.214 E4.37110
G1 X95.444 Y103.443 E4.37657
G1 X95.933 Y103.932 E4.39303
G1 E2.39303 F2400.00000
G92 E0
G1 X95.582 Y106.785 F7800.000
G1 E2.00000 F2400.00000
G1 F4800
G1 X96.383 Y107.587 E2.02698
G1 X96.577 Y107.547 E2.03169
G1 X96.821 Y107.440 E2.03804
G1 X96.945 Y107.347 E2.04170
G1 X95.567 Y105.970 E2.08805
G1 X95.592 Y105.836 E2.09129
G1 X95.765 Y105.366 E2.10319
G1 X97.314 Y106.915 E2.15530
G1 X97.502 Y106.606 E2.16392
G1 X97.596 Y106.396 E2.16938
G1 X96.045 Y104.845 E2.22156
G1 X96.290 Y104.452 E2.23258
G1 X96.312 Y104.311 E2.23598
G1 X97.812 Y105.811 E2.28646
G1 X97.975 Y105.172 E2.30213
G1 X87.177 Y94.375 E2.66546
G1 X87.660 Y94.057 E2.67922
G1 X98.370 Y104.767 E3.03960
G1 X98.391 Y104.746 E3.04030
G1 X99.067 Y104.829 E3.05648
G1 X99.231 Y104.826 E3.06039
G1 X88.191 Y93.787 E3.43186
G1 X88.755 Y93.549 E3.44642
G1 X99.963 Y104.758 E3.82357
G1 X100.593 Y104.586 E3.83910
G1 X89.347 Y93.340 E4.21752
G1 X89.960 Y93.152 E4.23278
G1 X101.164 Y104.357 E4.60979
G1 X101.708 Y104.098 E4.62410
G1 X101.658 Y104.049 E4.62575
G1 X101.459 Y104.094 E4.63060
G1 X101.279 Y103.670 E4.64155
G1 X90.587 Y92.978 E5.00132
G1 X91.225 Y92.815 E5.01698
G1 X102.231 Y103.821 E5.38733
G1 X102.749 Y103.538 E5.40138
G1 X91.880 Y92.669 E5.76710
G1 X92.558 Y92.546 E5.78350
G1 X103.257 Y103.244 E6.14351
G1 X103.520 Y103.092 E6.15073
G1 X103.510 Y103.039 E6.15201
G1 X103.757 Y102.943 E6.15832
G1 X93.307 Y92.493 E6.50993
G1 X93.726 Y92.534 E6.51994
G1 X94.036 Y92.639 E6.52773
G1 X94.158 Y92.702 E6.53099
G1 X94.426 Y92.898 E6.53890
G1 X94.532 Y93.008 E6.54255
G1 X94.366 Y93.208 E6.54873
G1 X94.552 Y93.366 E6.55454
G1 X94.652 Y93.514 E6.55879
G1 X95.043 Y93.428 E6.56832
G1 X105.368 Y103.753 E6.91575
G1 X104.885 Y103.020 E6.93664
G1 X104.881 Y102.836 E6.94102
G1 X104.818 Y102.722 E6.94411
G1 X104.859 Y102.443 E6.95084
G1 X95.598 Y93.182 E7.26245
G1 X96.170 Y92.952 E7.27710
G1 X105.283 Y102.066 E7.58376
G1 X105.793 Y101.774 E7.59773
G1 X96.770 Y92.751 E7.90135
G1 X96.980 Y92.685 E7.90659
G1 X97.089 Y92.433 E7.91311
G1 X97.156 Y92.336 E7.91591
G1 X106.304 Y101.485 E8.22375
G1 X106.817 Y101.196 E8.23775
G1 X97.178 Y91.557 E8.56208
G1 X97.185 Y91.084 E8.57336
G1 X97.224 Y90.802 E8.58012
G1 X97.881 Y91.459 E8.60224
G1 X97.932 Y91.332 E8.60550
G1 X98.247 Y91.356 E8.61300
G1 X98.505 Y91.630 E8.62196
G1 X98.286 Y91.864 E8.62960
G1 X99.174 Y92.752 E8.65946
G1 X99.027 Y92.275 E8.67134
G1 X99.090 Y91.867 E8.68116
G1 X97.382 Y90.159 E8.73864
G1 X97.535 Y89.861 E8.74662
G1 X97.646 Y89.724 E8.75082
G1 X97.702 Y89.678 E8.75253
G1 X99.132 Y91.108 E8.80067
G1 X98.742 Y92.320 F7800.000
G1 F4800
G1 X107.347 Y100.925 E9.09023
G1 X107.873 Y100.650 E9.10435
G1 X99.672 Y92.449 E9.38032
G1 X100.232 Y92.620 E9.39426
G1 X100.963 Y92.939 E9.41323
G1 X108.329 Y100.305 E9.66107
G1 X108.689 Y99.864 E9.67462
G1 X102.710 Y93.884 E9.87581
G1 X103.725 Y94.470 E9.90369
G1 X103.766 Y94.582 E9.90654
G1 X104.172 Y94.545 E9.91623
G1 X109.041 Y99.415 E10.08009
G1 X109.109 Y99.328 E10.08270
G1 X109.377 Y99.138 E10.09051
G1 X109.525 Y99.098 E10.09418
G1 X107.167 Y96.739 E10.17354
G1 X107.159 Y96.762 E10.17410
G1 X107.099 Y96.672 E10.17667
G1 X106.783 Y96.356 E10.18731
G1 X106.682 Y96.306 E10.18999
G1 X106.505 Y96.262 E10.19433
G1 X106.148 Y96.061 E10.20408
G1 X106.019 Y95.591 E10.21567
G1 X104.612 Y94.184 E10.26301
G1 X104.859 Y93.630 E10.27744
G1 X106.316 Y95.087 E10.32646
G1 X106.467 Y94.931 E10.33164
G1 X106.683 Y94.653 E10.34001
G1 X105.159 Y93.129 E10.39130
G1 X105.515 Y92.684 E10.40486
G1 X107.003 Y94.172 E10.45492
G1 X107.104 Y93.995 E10.45978
G1 X107.241 Y93.609 E10.46952
G1 X105.969 Y92.337 E10.51232
G1 X106.085 Y92.270 E10.51551
G1 X106.207 Y92.232 E10.51855
G1 X106.523 Y92.207 E10.52610
G1 X106.628 Y92.217 E10.52861
G1 X106.668 Y92.235 E10.52964
G1 X107.134 Y92.701 E10.54533
G1 E8.54533 F2400.00000
G92 E0
G1 X109.525 Y99.098 F7800.000
G1 E2.00000 F2400.00000
G1 F4800
G1 X109.658 Y99.062 E2.00327
G1 X109.838 Y99.045 E2.00757
G1 X110.286 Y99.057 E2.01822
G1 X109.351 Y98.122 E2.04968
G1 X109.839 Y98.121 E2.06129
G1 X110.210 Y98.180 E2.07025
G1 X111.116 Y99.086 E2.10072
G1 X111.929 Y99.098 E2.12006
G1 X111.187 Y98.356 E2.14501
G1 X112.078 Y98.582 E2.16689
G1 X112.289 Y98.678 E2.17240
G1 X112.335 Y98.703 E2.17364
G1 X112.861 Y99.229 E2.19134
G1 E0.19134 F2400.00000
G92 E0
G1 X105.914 Y105.100 F7800.000
G1 E2.00000 F2400.00000
G1 F4800
G1 X103.863 Y103.049 E2.06902
G1 X103.859 Y103.846 E2.08799
G1 X106.015 Y106.002 E2.16054
G1 X105.969 Y106.290 E2.16746
G1 X105.935 Y106.394 E2.17007
G1 X105.815 Y106.603 E2.17581
G1 X103.979 Y104.768 E2.23756
G1 Z0.900 F7800.000
G1 X104.652 Y104.437 F7800.000
G1 F4800
G1 X105.118 Y103.971 E2.25323
G1 X105.128 Y103.922 E2.25442
G1 X105.092 Y103.692 E2.25996
G1 X104.945 Y103.331 E2.26922
G1 X104.255 Y104.021 E2.29243
G1 X104.238 Y103.627 E2.30181
G1 X103.973 Y103.491 E2.30890
G1 X104.864 Y102.600 E2.33890
G1 X104.622 Y102.843 F7800.000
G1 F4800
G1 X107.158 Y100.306 E2.42424
G1 X107.323 Y99.957 E2.43343
G1 X107.451 Y99.363 E2.44790
G1 X107.480 Y99.299 E2.44957
G1 X107.478 Y99.174 E2.45254
G1 X103.364 Y103.288 E2.59098
G1 X103.320 Y103.270 E2.59211
G1 X103.316 Y103.336 E2.59368
G1 X102.995 Y103.657 E2.60448
G1 X102.562 Y103.856 E2.61584
G1 X101.598 Y104.242 E2.64054
G1 X107.747 Y98.093 E2.84745
G1 X107.611 Y97.913 E2.85280
G1 X107.456 Y97.571 E2.86174
G1 X100.458 Y104.570 E3.09723
G1 X100.010 Y104.616 E3.10793
G1 X99.644 Y104.571 E3.11671
G1 X107.320 Y96.895 E3.37498
G1 X107.284 Y96.691 E3.37991
G1 X107.233 Y96.544 E3.38363
G1 X107.107 Y96.296 E3.39025
G1 X99.006 Y104.397 E3.66286
G1 X98.372 Y104.219 E3.67852
G1 X106.807 Y95.784 E3.96234
G1 X106.678 Y95.585 E3.96798
G1 X106.454 Y95.324 E3.97616
G1 X97.686 Y104.093 E4.27122
G1 X97.587 Y104.156 E4.27401
G1 X97.387 Y104.199 E4.27887
G1 X97.217 Y104.461 E4.28631
G1 X97.205 Y104.574 E4.28901
G1 X96.763 Y105.015 E4.30386
G1 X96.822 Y104.905 E4.30683
G1 X97.106 Y104.513 E4.31835
G1 X97.098 Y103.894 E4.33309
G1 X97.079 Y103.887 E4.33356
G1 X106.103 Y94.863 E4.63721
G1 X105.912 Y94.601 E4.64493
G1 X105.952 Y94.601 E4.64588
G1 X105.862 Y94.537 E4.64851
G1 X105.910 Y94.349 E4.65311
G1 X105.863 Y94.291 E4.65490
G1 X96.478 Y103.676 E4.97073
G1 X95.886 Y103.456 E4.98575
G1 X105.077 Y94.265 E5.29500
G1 X104.980 Y94.266 E5.29730
G1 X104.506 Y94.023 E5.30997
G1 X95.311 Y103.218 E5.61936
G1 X95.250 Y103.193 E5.62094
G1 X94.753 Y103.487 E5.63468
G1 X94.460 Y103.936 E5.64745
G1 X94.205 Y104.248 E5.65702
G1 X93.970 Y104.479 E5.66487
G1 X93.777 Y104.626 E5.67064
G1 X93.522 Y104.765 E5.67754
G1 X93.355 Y104.827 E5.68178
G1 X93.045 Y104.887 E5.68930
G1 X92.825 Y104.892 E5.69455
G1 X103.969 Y93.748 E6.06954
G1 X103.411 Y93.493 E6.08412
G1 X92.112 Y104.792 E6.46432
G1 X91.466 Y104.626 E6.48020
G1 X102.851 Y93.242 E6.86328
G1 X102.267 Y93.013 E6.87819
G1 X90.842 Y104.438 E7.26264
G1 X90.218 Y104.250 E7.27815
G1 X101.679 Y92.789 E7.66380
G1 X101.034 Y92.622 E7.67966
G1 X89.594 Y104.062 E8.06461
G1 X88.983 Y103.860 E8.07991
G1 X100.269 Y92.574 E8.45968
G1 X100.145 Y92.587 E8.46265
G1 X99.172 Y92.859 E8.48670
G1 X88.378 Y103.653 E8.84991
G1 X87.792 Y103.427 E8.86485
G1 X98.537 Y92.682 E9.22639
G1 X98.439 Y92.415 E9.23316
G1 X98.477 Y92.038 E9.24218
G1 X98.468 Y91.939 E9.24454
G1 X97.665 Y92.742 E9.27156
G1 X97.662 Y92.655 E9.27362
G1 X97.714 Y92.345 E9.28111
G1 X97.989 Y92.371 E9.28769
G1 X98.003 Y92.404 E9.28853
G1 E7.28853 F2400.00000
G92 E0
G1 X93.258 Y92.275 F7800.000
G1 E2.00000 F2400.00000
G1 F4800
G1 X92.709 Y92.824 E2.01846
G1 E0.01846 F2400.00000
G92 E0
G1 X86.552 Y94.919 F7800.000
G1 E2.00000 F2400.00000
G1 F4800
G1 X87.017 Y94.454 E2.01565
G1 X87.366 Y94.185 E2.02613
G1 X87.756 Y93.965 E2.03678
G1 X88.377 Y93.692 E2.05292
G1 X88.719 Y93.565 E2.06161
G1 X85.827 Y96.457 E2.15891
G1 X85.345 Y97.751 E2.19179
G1 X89.952 Y93.144 E2.34681
G1 X91.124 Y92.785 E2.37597
G1 X85.098 Y98.811 E2.57875
G1 X85.150 Y99.266 E2.58964
G1 X85.214 Y99.506 E2.59557
G1 X92.264 Y92.457 E2.83278
G1 X92.576 Y92.377 E2.84043
G1 X92.547 Y92.621 E2.84627
G1 X92.983 Y92.550 E2.85679
G1 X85.420 Y100.113 E3.11126
G1 X85.645 Y100.701 E3.12624
G1 X93.953 Y92.393 E3.40579
G1 X94.198 Y92.519 E3.41237
G1 X94.447 Y92.710 E3.41984
G1 X85.869 Y101.289 E3.70848
G1 X86.093 Y101.877 E3.72346
G1 X94.840 Y93.129 E4.01780
G1 X94.978 Y93.307 E4.02315
G1 X95.169 Y93.613 E4.03172
G1 X86.335 Y102.447 E4.32899
G1 X86.498 Y102.661 E4.33540
G1 X86.735 Y102.860 E4.34274
G1 X95.669 Y93.925 E4.64337
G1 X95.755 Y93.960 E4.64558
G1 X96.903 Y93.503 E4.67498
G1 X87.232 Y103.174 E5.00041
M106 S255
G1 Z1.200 F7800.000
G1 X87.091 Y102.514 F7800.000
G1 F4004.37
G1 X87.565 Y102.987 E5.01634
G1 X87.706 Y103.090 E5.02051
G1 X88.030 Y103.257 E5.02918
G1 X88.516 Y103.429 E5.04145
G1 X88.641 Y103.494 E5.04480
G1 X88.817 Y103.518 E5.04902
G1 X88.881 Y103.635 E5.05219
G1 X89.250 Y103.874 E5.06267
G1 X86.513 Y101.136 E5.15478
G1 X86.212 Y100.036 E5.18192
G1 X90.080 Y103.904 E5.31207
G1 X90.395 Y103.967 E5.31971
G1 X90.717 Y103.761 E5.32882
G1 X90.717 Y104.066 E5.33609
G1 X91.193 Y104.219 E5.34798
G1 X85.968 Y98.994 E5.52380
G1 X85.905 Y98.484 E5.53601
G1 X85.911 Y98.138 E5.54426
G1 X92.396 Y104.622 E5.76245
G1 X92.543 Y104.609 E5.76598
G1 X93.003 Y104.431 E5.77771
G1 X86.019 Y97.447 E6.01270
G1 X86.175 Y96.804 E6.02845
G1 X93.528 Y104.157 E6.27586
G1 X93.854 Y103.929 E6.28533
G1 X93.984 Y103.814 E6.28946
G1 X86.344 Y96.174 E6.54654
G1 X86.517 Y95.549 E6.56198
G1 X94.383 Y103.414 E6.82666
G1 X94.522 Y103.258 E6.83164
G1 X94.733 Y102.965 E6.84022
G1 X86.708 Y94.940 E7.11027
G1 X86.898 Y94.421 E7.12341
G1 X86.937 Y94.370 E7.12494
G1 X95.037 Y102.471 E7.39751
G1 X95.317 Y101.952 E7.41154
G1 X87.373 Y94.007 E7.67885
G1 X87.562 Y93.913 E7.68389
G1 X87.944 Y93.780 E7.69352
G1 X95.729 Y101.565 E7.95548
G1 X95.857 Y101.488 E7.95902
G1 X96.640 Y101.677 E7.97819
G1 X88.472 Y93.509 E8.25305
G1 X88.580 Y93.452 E8.25594
G1 X88.661 Y93.359 E8.25890
G1 X88.787 Y93.292 E8.26229
G1 X88.922 Y93.253 E8.26562
G1 X89.012 Y93.250 E8.26777
G1 X98.585 Y102.823 E8.58988
G1 X98.780 Y102.933 E8.59522
G1 X99.017 Y103.027 E8.60129
G1 X99.448 Y103.129 E8.61181
G1 X99.722 Y103.160 E8.61838
G1 X89.802 Y93.241 E8.95216
G1 X90.413 Y93.053 E8.96736
G1 X100.734 Y103.374 E9.31464
G1 X100.993 Y103.415 E9.32090
G1 X101.217 Y103.416 E9.32622
G1 X101.528 Y103.369 E9.33370
G1 X97.579 Y99.420 E9.46659
G1 X97.521 Y99.539 E9.46974
G1 X97.220 Y99.493 E9.47699
G1 X96.966 Y99.221 E9.48585
G1 X97.173 Y99.014 E9.49281
G1 X91.012 Y92.854 E9.70010
G1 X91.592 Y92.634 E9.71485
G1 X102.138 Y103.180 E10.06971
G1 X102.341 Y103.105 E10.07486
G1 X102.688 Y102.931 E10.08409
G1 X95.428 Y95.671 E10.32839
G1 X96.077 Y95.521 E10.34424
G1 X103.206 Y102.651 E10.58414
G1 X103.686 Y102.332 E10.59785
G1 X96.677 Y95.322 E10.83373
G1 X97.018 Y95.165 E10.84268
G1 X97.205 Y95.052 E10.84788
G1 X104.132 Y101.979 E11.08096
G1 X104.339 Y101.813 E11.08726
G1 X104.556 Y101.604 E11.09444
G1 X97.660 Y94.707 E11.32650
G1 X97.962 Y94.454 E11.33590
G1 X98.108 Y94.357 E11.34006
G1 X104.961 Y101.210 E11.57066
G1 X105.337 Y100.787 E11.58412
G1 X98.659 Y94.109 E11.80882
G1 X99.080 Y94.023 E11.81904
G1 X99.344 Y93.995 E11.82535
G1 X105.690 Y100.341 E12.03889
G1 X106.018 Y99.871 E12.05255
G1 X100.012 Y93.864 E12.25466
G1 X100.346 Y93.777 E12.26289
G1 X100.700 Y93.753 E12.27132
G1 X106.156 Y99.210 E12.45492
G1 X106.172 Y98.797 E12.46475
G1 X106.549 Y98.803 E12.47371
G1 X101.765 Y94.019 E12.63468
G1 X102.569 Y94.415 E12.65601
G1 X103.160 Y94.794 E12.67271
G1 X103.736 Y95.238 E12.69002
G1 X104.366 Y95.821 E12.71044
G1 X104.835 Y96.290 E12.72622
G1 E10.72622 F2400.00000
G92 E0
G1 X106.084 Y98.338 F7800.000
G1 E2.00000 F2400.00000
G1 F4004.37
G1 X106.256 Y98.341 E2.00410
G1 X106.257 Y98.512 E2.00817
G1 X106.732 Y98.986 E2.02413
G1 X106.361 Y99.415 F7800.000
G1 F4004.37
G1 X105.836 Y98.889 E2.04182
G1 X105.950 Y98.896 E2.04455
G1 X105.896 Y98.950 E2.04636
G1 E0.04636 F2400.00000
G92 E0
G1 X95.148 Y95.391 F7800.000
G1 E2.00000 F2400.00000
G1 F4004.37
G1 X92.450 Y92.694 E2.09076
G1 X92.765 Y92.842 E2.09905
G1 X93.229 Y93.122 E2.11194
G1 X93.594 Y93.414 E2.12304
G1 X93.932 Y93.761 E2.13457
G1 X94.244 Y94.164 E2.14672
G1 X94.514 Y94.594 E2.15878
G1 X94.682 Y94.926 E2.16764
G1 Z1.500 F7800.000
G1 E0.16764 F2400.00000
G92 E0
G1 X88.703 Y92.995 F7800.000
G1 E2.00000 F2400.00000
G1 F2492.02
G1 X88.237 Y93.461 E2.01569
G1 X88.058 Y93.695 E2.02270
G1 X87.989 Y93.838 E2.02648
G1 X87.788 Y94.557 E2.04424
G1 X87.657 Y94.441 E2.04841
G1 X87.599 Y94.520 E2.05075
G1 X87.451 Y94.857 E2.05950
G1 X87.352 Y95.152 E2.06691
G1 X89.766 Y92.739 E2.14811
G1 X89.888 Y92.780 E2.15119
G1 X90.115 Y92.928 E2.15761
G1 X90.244 Y93.068 E2.16215
G1 X87.176 Y96.136 E2.26539
G1 X87.123 Y96.996 E2.28589
G1 X90.778 Y93.341 E2.40888
G1 X91.065 Y93.292 E2.41580
G1 X91.745 Y93.125 E2.43246
G1 X91.799 Y93.127 E2.43376
G1 X87.070 Y97.856 E2.59288
G1 X87.018 Y98.716 E2.61338
G1 X92.317 Y93.416 E2.79170
G1 X92.857 Y93.684 E2.80604
G1 X87.045 Y99.496 E3.00161
G1 X87.099 Y100.248 E3.01956
G1 X93.376 Y93.972 E3.23077
G1 X93.539 Y94.077 E3.23537
G1 X93.836 Y94.319 E3.24450
G1 X87.139 Y101.016 E3.46984
G1 X87.201 Y101.761 E3.48763
G1 X94.233 Y94.730 E3.72424
G1 X94.579 Y95.190 E3.73795
G1 X87.338 Y102.431 E3.98159
G1 X87.383 Y102.596 E3.98565
G1 X87.557 Y103.020 E3.99655
G1 X94.873 Y95.704 E4.24273
G1 X95.113 Y96.271 E4.25738
G1 X87.950 Y103.434 E4.49839
G1 X88.090 Y103.503 E4.50210
G1 X87.940 Y103.653 E4.50712
G1 X88.010 Y103.844 E4.51197
G1 X88.135 Y104.056 E4.51782
G1 X95.295 Y96.896 E4.75873
G1 X95.372 Y97.221 E4.76668
G1 X95.419 Y97.580 E4.77527
G1 X88.589 Y104.409 E5.00509
G1 X88.908 Y104.488 E5.01291
G1 X89.167 Y104.472 E5.01908
G1 X89.415 Y104.391 E5.02530
G1 X95.466 Y98.339 E5.22892
G1 X95.436 Y99.023 E5.24521
G1 X95.410 Y99.203 E5.24953
G1 X90.709 Y103.903 E5.40770
G1 X91.242 Y104.035 E5.42075
G1 X91.341 Y104.038 E5.42311
G1 X91.459 Y103.961 E5.42645
G1 X95.179 Y100.240 E5.55165
G1 X95.068 Y100.568 E5.55988
G1 X94.840 Y101.069 E5.57298
G1 X94.510 Y101.617 E5.58820
G1 X94.208 Y102.008 E5.59996
G1 X93.404 Y102.823 E5.62718
G1 E3.62718 F2400.00000
G92 E0
G1 X97.476 Y98.205 F7800.000
G1 E2.00000 F2400.00000
G1 F2492.02
G1 X97.010 Y98.671 E2.01567
G1 X96.960 Y98.802 E2.01900
G1 X96.967 Y98.875 E2.02074
G1 X97.023 Y98.968 E2.02332
G1 X97.142 Y98.988 E2.02618
G1 X97.237 Y99.034 E2.02871
G1 X97.368 Y99.140 E2.03270
G1 X100.487 Y96.020 E2.13768
G1 X100.601 Y95.969 E2.14064
G1 X100.728 Y95.880 E2.14433
G1 X100.976 Y95.653 E2.15233
G1 X101.157 Y95.943 E2.16047
G1 X101.266 Y95.973 E2.16316
G1 X101.266 Y96.033 E2.16459
G1 X101.293 Y96.041 E2.16526
G1 X97.781 Y99.553 E2.28344
G1 X98.162 Y99.998 E2.29738
G1 X99.214 Y98.946 E2.33279
G1 X99.065 Y98.604 E2.34167
G1 X99.560 Y98.372 E2.35469
G1 X99.636 Y98.525 E2.35873
G1 X101.936 Y96.224 E2.43613
G1 X102.556 Y96.431 E2.45167
G1 X98.536 Y100.451 E2.58692
G1 X98.623 Y100.481 E2.58911
G1 X98.852 Y100.482 E2.59456
G1 X98.971 Y100.506 E2.59744
G1 X99.098 Y100.552 E2.60066
G1 X99.190 Y100.623 E2.60343
G1 X100.395 Y99.419 E2.64395
G1 X100.462 Y99.162 E2.65025
G1 X100.615 Y99.198 E2.65400
G1 X103.102 Y96.712 E2.73767
G1 X103.627 Y97.013 E2.75208
G1 X101.393 Y99.247 E2.82724
G1 X101.386 Y99.313 E2.82884
G1 X101.326 Y99.314 E2.83025
G1 X99.664 Y100.975 E2.88617
G1 X100.212 Y101.254 E2.90079
G1 X104.133 Y97.334 E3.03272
G1 X104.615 Y97.678 E3.04682
G1 X101.287 Y101.006 E3.15879
G1 X101.869 Y100.822 E3.17331
G1 X102.401 Y100.593 E3.18709
G1 X102.700 Y100.420 E3.19530
G1 X105.057 Y98.062 E3.27464
G1 X104.884 Y98.258 E3.28088
G1 X105.111 Y98.607 E3.29077
G1 X105.366 Y98.571 E3.29689
G1 X104.863 Y99.082 E3.31395
G1 Z1.800 F7800.000
G1 E1.31395 F2400.00000
G92 E0
G1 X93.691 Y95.646 F7800.000
G1 E2.00000 F2400.00000
G1 F1146.79
G1 X93.220 Y95.176 E2.01585
G1 X93.032 Y95.016 E2.02174
G1 X92.801 Y94.882 E2.02808
G1 X92.705 Y94.793 E2.03119
G1 X92.520 Y94.681 E2.03634
G1 X92.118 Y94.558 E2.04634
G1 X91.983 Y94.474 E2.05012
G1 X91.633 Y94.400 E2.05863
G1 X94.530 Y97.297 E2.15611
G1 X94.590 Y97.703 E2.16588
G1 X94.625 Y98.204 E2.17783
G1 X90.507 Y94.087 E2.31639
G1 X90.200 Y93.994 E2.32402
G1 X89.468 Y93.860 E2.34173
G1 X94.635 Y99.027 E2.51560
G1 X94.598 Y99.802 E2.53405
G1 X88.714 Y93.918 E2.73203
G1 X88.673 Y93.977 E2.73374
G1 X88.609 Y94.265 E2.74078
G1 X88.645 Y94.660 E2.75021
G1 X94.493 Y100.509 E2.94700
G1 X94.298 Y101.126 E2.96240
G1 X88.923 Y95.751 E3.14328
G1 X89.029 Y96.239 E3.15517
G1 X89.059 Y96.699 E3.16612
G1 X94.002 Y101.642 E3.33247
G1 X93.895 Y101.775 E3.33653
G1 X93.605 Y102.057 E3.34616
G1 X88.981 Y97.433 E3.50174
G1 X88.872 Y98.136 E3.51867
G1 X93.130 Y102.394 E3.66195
G1 X93.018 Y102.469 E3.66515
G1 X92.723 Y102.605 E3.67288
G1 X92.566 Y102.642 E3.67672
G1 X88.934 Y99.011 E3.79892
G1 X89.029 Y99.589 E3.81287
G1 X89.055 Y99.944 E3.82132
G1 X91.930 Y102.818 E3.91805
G1 X91.293 Y102.993 E3.93376
G1 X88.985 Y100.686 E4.01142
G1 X88.820 Y101.333 E4.02732
G1 X90.663 Y103.175 E4.08930
G1 X89.976 Y103.300 E4.10592
G1 X88.657 Y101.982 E4.15027
G1 X88.608 Y102.423 E4.16081
G1 X88.621 Y102.546 E4.16376
G1 X88.716 Y102.819 E4.17065
G1 X88.777 Y102.909 E4.17322
G1 X89.352 Y103.489 E4.19266
G1 E2.19266 F2400.00000
G92 E0
G1 X100.161 Y98.201 F7800.000
G1 E2.00000 F2400.00000
G1 F1146.79
G1 X101.177 Y99.218 E2.03421
G1 X101.410 Y98.499 F7800.000
G1 F1146.79
G1 X100.945 Y98.034 E2.04987
G1 X99.602 Y98.834 F7800.000
G1 F1146.79
G1 X99.137 Y98.369 E2.06552
G1 X98.885 Y98.925 F7800.000
G1 F1146.79
G1 X98.419 Y98.459 E2.08119
G1 Z2.100 F7800.000
G1 E0.08119 F2400.00000
G92 E0
G1 X92.507 Y99.137 F7800.000
G1 E2.00000 F2400.00000
G1 F600
G1 X92.973 Y98.672 E2.01568
G1 X93.046 Y98.564 E2.01877
G1 X93.081 Y98.457 E2.02144
G1 X93.074 Y98.220 E2.02709
G1 X92.994 Y98.060 E2.03134
G1 X92.923 Y97.997 E2.03360
G1 X92.795 Y97.942 E2.03692
G1 X92.762 Y97.936 E2.03771
G1 X91.449 Y99.249 E2.08189
G1 X91.392 Y99.232 E2.08331
G1 X91.252 Y99.137 E2.08733
G1 X91.145 Y98.990 E2.09166
G1 X91.108 Y98.851 E2.09508
G1 X91.130 Y98.682 E2.09913
G1 X91.197 Y98.562 E2.10241
G1 X91.720 Y98.032 E2.12013
G1 E0.12013 F2400.00000
G92 E0
M107
; Filament-specific end gcode 
;END gcode for filament

M104 S0 ; turn off temperature
G28 X0  ; home X axis
M84     ; disable motors

M140 S0 ; set bed temperature
; filament used = 50.8mm (0.4cm3)
; total filament cost = 0.0

; avoid_crossing_perimeters = 0
; bed_shape = 0x0,200x0,200x200,0x200
; bed_temperature = 0
; before_layer_gcode = 
; between_objects_gcode = 
; bridge_acceleration = 0
; bridge_fan_speed = 100
; brim_connections_width = 0
; brim_width = 0
; complete_objects = 0
; cooling = 1
; default_acceleration = 0
; disable_fan_first_layers = 3
; duplicate_distance = 6
; end_filament_gcode = "; Filament-specific end gcode \n;END gcode for filament\n"
; end_gcode = M104 S0 ; turn off temperature\nG28 X0  ; home X axis\nM84     ; disable motors\n
; extruder_clearance_height = 20
; extruder_clearance_radius = 20
; extruder_offset = 0x0
; extrusion_axis = E
; extrusion_multiplier = 1
; fan_always_on = 0
; fan_below_layer_time = 60
; filament_colour = #FFFFFF
; filament_cost = 0
; filament_density = 0
; filament_diameter = 3
; filament_max_volumetric_speed = 0
; filament_notes = ""
; first_layer_acceleration = 0
; first_layer_bed_temperature = 0
; first_layer_extrusion_width = 200%
; first_layer_speed = 30
; first_layer_temperature = 205
; gcode_arcs = 0
; gcode_comments = 0
; gcode_flavor = reprap
; has_heatbed = 1
; infill_acceleration = 0
; infill_first = 0
; interior_brim_width = 0
; layer_gcode = 
; max_fan_speed = 100
; max_layer_height = 0.3
; max_print_speed = 80
; max_volumetric_speed = 0
; min_fan_speed = 35
; min_layer_height = 0.15
; min_print_speed = 10
; min_skirt_length = 0
; notes = 
; nozzle_diameter = 0.5
; only_retract_when_crossing_perimeters = 1
; ooze_prevention = 0
; output_filename_format = [input_filename_base].gcode
; perimeter_acceleration = 0
; post_process = 
; pressure_advance = 0
; printer_notes = 
; resolution = 0
; retract_before_travel = 2
; retract_layer_change = 0
; retract_length = 2
; retract_length_toolchange = 10
; retract_lift = 0
; retract_lift_above = 0
; retract_lift_below = 0
; retract_restart_extra = 0
; retract_restart_extra_toolchange = 0
; retract_speed = 40
; skirt_distance = 6
; skirt_height = 1
; skirts = 0
; slowdown_below_layer_time = 5
; spiral_vase = 0
; standby_temperature_delta = -5
; start_filament_gcode = "; Filament gcode\n"
; start_gcode = G28 ; home all axes\nG1 Z5 F5000 ; lift nozzle\n
; temperature = 200
; threads = 8
; toolchange_gcode = 
; travel_speed = 130
; use_firmware_retraction = 0
; use_relative_e_distances = 0
; use_set_and_wait_bed = 0
; use_set_and_wait_extruder = 0
; use_volumetric_e = 0
; vibration_limit = 0
; wipe = 0
; z_offset = 0
; z_steps_per_mm = 0
; adaptive_slicing = 0
; adaptive_slicing_quality = 75%
; dont_support_bridges = 1
; extrusion_width = 0
; first_layer_height = 0.3
; infill_only_where_needed = 0
; interface_shells = 0
; layer_height = 0.3
; match_horizontal_surfaces = 0
; raft_layers = 0
; regions_overlap = 0
; seam_position = aligned
; sequential_print_priority = 0
; support_material = 0
; support_material_angle = 0
; support_material_buildplate_only = 0
; support_material_contact_distance = 0.2
; support_material_enforce_layers = 0
; support_material_extruder = 1
; support_material_extrusion_width = 0
; support_material_interface_extruder = 1
; support_material_interface_extrusion_width = 0
; support_material_interface_layers = 3
; support_material_interface_spacing = 0
; support_material_interface_speed = 100%
; support_material_max_layers = 0
; support_material_pattern = pillars
; support_material_spacing = 2.5
; support_material_speed = 60
; support_material_threshold = 60%
; xy_size_compensation = 0
; bottom_infill_pattern = rectilinear
; bottom_solid_layers = 0
; bridge_flow_ratio = 1
; bridge_speed = 60
; external_perimeter_extrusion_width = 0
; external_perimeter_speed = 50%
; external_perimeters_first = 0
; extra_perimeters = 1
; fill_angle = 45
; fill_density = 100%
; fill_gaps = 1
; fill_pattern = rectilinear
; gap_fill_speed = 20
; infill_every_layers = 1
; infill_extruder = 1
; infill_extrusion_width = 0
; infill_overlap = 55%
; infill_speed = 80
; overhangs = 1
; perimeter_extruder = 1
; perimeter_extrusion_width = 0
; perimeter_speed = 60
; perimeters = 0
; small_perimeter_speed = 15
; solid_infill_below_area = 70
; solid_infill_every_layers = 0
; solid_infill_extruder = 1
; solid_infill_extrusion_width = 0
; solid_infill_speed = 20
; thin_walls = 1
; top_infill_extrusion_width = 0
; top_infill_pattern = rectilinear
; top_solid_infill_speed = 15
; top_solid_layers = 0
