; generated by Slic3r 1.3.0 on 2020-03-03 at 15:31:40

; external perimeters extrusion width = 0.55mm (6.64mm^3/s)
; perimeters extrusion width = 0.52mm (12.53mm^3/s)
; infill extrusion width = 0.52mm (16.71mm^3/s)
; solid infill extrusion width = 0.52mm (4.18mm^3/s)
; top infill extrusion width = 0.52mm (3.13mm^3/s)

M107
M104 S205 ; set temperature
G28 ; home all axes
G1 Z5 F5000 ; lift nozzle

; Filament gcode

M109 S205 ; set temperature and wait for it to be reached
G21 ; set units to millimeters
G90 ; use absolute coordinates
M82 ; use absolute distances for extrusion
G92 E0
G1 Z0.500 F7800.000
M104 S200 ; set temperature
G1 Z1.000 F7800.000
G1 E-2.00000 F2400.00000
G92 E0
G1 X100.008 Y95.790 F7800.000
G1 E2.00000 F2400.00000

G1 F3600
G1 X100.471 Y95.522 E2.01633

G1 X101.104 Y95.821 F7800.000

G1 F3600
G1 X101.094 Y95.805 E2.01689
G1 X101.072 Y95.839 E2.01813
G1 X101.565 Y95.554 E2.03552
G1 X101.860 Y96.047 E2.05307
G1 X100.803 Y96.657 E2.09036
G1 X100.985 Y97.216 E2.10830
G1 X102.246 Y96.487 E2.15280
G1 X102.295 Y96.566 E2.15562
G1 X102.226 Y96.714 E2.16062
G1 X102.167 Y97.113 E2.17296
G1 X102.128 Y97.205 E2.17599
G1 X101.629 Y97.507 E2.19384

G1 X100.196 Y97.008 F7800.000

G1 F3600
G1 X100.256 Y97.269 E2.20202
G1 X100.289 Y97.275 E2.20304
G1 X100.431 Y97.204 E2.20790
G1 X100.650 Y97.048 E2.21611
G1 X100.771 Y96.935 E2.22117
G1 X100.944 Y96.576 E2.23334
G1 X99.735 Y97.274 E2.27598

G1 X99.633 Y96.670 F7800.000

G1 F3600
G1 X101.485 Y95.600 E2.34133
G1 X101.510 Y95.607 E2.34212
G1 X101.533 Y95.573 E2.34336

G1 Z1.500 F7800.000
G1 E0.34336 F2400.00000
G92 E0
G1 X98.378 Y99.613 F7800.000
G1 E2.00000 F2400.00000

G1 F3600
G1 X97.252 Y100.740 E2.06585

G1 X97.747 Y101.178 F7800.000

G1 F3600
G1 X97.371 Y101.554 E2.08786

G1 E0.08786 F2400.00000
G92 E0
G1 X99.727 Y97.197 F7800.000
G1 E2.00000 F2400.00000

G1 F3600
G1 X100.810 Y97.052 E2.04518
G1 X100.653 Y97.151 E2.05288
G1 X100.445 Y97.196 E2.06169
G1 X100.337 Y97.182 E2.06616
G1 X100.255 Y97.126 E2.07027

G1 X101.881 Y98.240 F7800.000

G1 F3600
G1 X102.409 Y98.169 E2.09232
G1 X102.470 Y98.114 E2.09568
G1 X102.517 Y98.016 E2.10020
G1 X102.552 Y97.878 E2.10605
G1 X102.569 Y97.716 E2.11281
G1 X102.541 Y97.485 E2.12243
G1 X101.048 Y97.686 E2.18472
G1 X100.948 Y97.518 E2.19278
G1 X101.029 Y97.498 E2.19623
G1 X100.937 Y97.047 E2.21525
G1 X100.908 Y97.039 E2.21650
G1 X102.468 Y96.829 E2.28155
G1 X102.459 Y96.704 E2.28671
G1 X102.382 Y96.540 E2.29421
G1 X102.067 Y96.217 E2.31288
G1 X99.560 Y96.554 E2.41745
G1 X99.624 Y96.321 E2.42744
G1 X99.705 Y96.182 E2.43410
G1 X99.939 Y95.909 E2.44897
G1 X100.052 Y95.822 E2.45484
G1 X100.947 Y95.701 E2.49220
G1 X100.939 Y95.805 E2.49649
G1 X101.532 Y95.623 E2.52212
G1 X101.674 Y95.604 E2.52805

M106 S255
G1 Z2.000 F7800.000
G1 E0.52805 F2400.00000
G92 E0
G1 X98.730 Y98.838 F7800.000
G1 E2.00000 F2400.00000
M106 S255

G1 F3600
G1 X98.592 Y99.352 E2.01502
G1 X98.704 Y99.626 E2.02337
G1 X98.978 Y100.055 E2.03772
G1 X99.293 Y98.876 E2.07217
G1 X99.413 Y98.910 E2.07567
G1 X99.607 Y99.036 E2.08220
G1 X99.709 Y99.160 E2.08672
G1 X99.752 Y99.260 E2.08979
G1 X99.599 Y99.875 E2.10766
M106 S255

G1 X98.824 Y100.658 F7800.000
M106 S255

G1 F3600
G1 X98.448 Y100.281 E2.12646
G1 X97.063 Y99.724 E2.17917
G1 X97.046 Y99.747 E2.18017
G1 X98.461 Y101.162 E2.25084
G1 X98.333 Y101.430 E2.26132
G1 X98.217 Y101.786 E2.27454
G1 X96.769 Y100.338 E2.34686
G1 X96.698 Y100.672 E2.35892
G1 X96.652 Y101.089 E2.37373
G1 X97.968 Y102.405 E2.43942
G1 X97.859 Y102.541 E2.44558
G1 X97.739 Y102.640 E2.45108
G1 X97.598 Y102.705 E2.45654
G1 X97.505 Y102.714 E2.45986
G1 X97.409 Y102.690 E2.46335
G1 X97.307 Y102.612 E2.46788
G1 X96.930 Y102.234 E2.48672
M106 S255

G1 E0.48672 F2400.00000
G92 E0
G1 X99.841 Y96.779 F7800.000
G1 E2.00000 F2400.00000
M106 S255

G1 F3600
G1 X100.007 Y96.192 E2.02441
G1 X100.210 Y95.887 E2.03904
G1 X100.445 Y95.675 E2.05170
G1 X100.634 Y95.536 E2.06106
G1 X100.774 Y95.468 E2.06731
G1 X100.868 Y95.456 E2.07109
G1 X100.296 Y97.594 E2.15956
G1 X100.427 Y97.621 E2.16494
G1 X100.623 Y97.618 E2.17274
G1 X100.991 Y97.509 E2.18809
G1 X101.517 Y95.547 E2.26930
G1 X101.548 Y95.530 E2.27073
G1 X102.055 Y96.050 E2.29976
G1 X101.490 Y98.159 E2.38702
G1 X101.704 Y98.360 E2.39879
G1 X101.559 Y98.524 E2.40754
G1 X101.773 Y98.907 E2.42509
G1 X101.911 Y99.097 E2.43445
G1 X102.501 Y96.895 E2.52557
G1 X102.612 Y97.102 E2.53495
G1 X102.746 Y97.490 E2.55135
G1 X102.799 Y97.721 E2.56084
G1 X102.817 Y97.968 E2.57075
G1 X102.762 Y98.432 E2.58943
G1 X102.623 Y98.950 E2.61084
M106 S255

G1 Z2.500 F7800.000
G1 E0.61084 F2400.00000
G92 E0
G1 X99.306 Y100.310 F7800.000
G1 E2.00000 F2400.00000
M106 S255

G1 F3600
G1 X100.436 Y99.319 E2.05245
G1 X100.399 Y99.220 E2.05612
G1 X100.301 Y99.071 E2.06236
G1 X100.113 Y98.907 E2.07104
G1 X100.031 Y98.861 E2.07431
G1 X96.431 Y102.022 E2.24149
G1 X96.438 Y101.483 E2.26029
G1 X96.501 Y101.148 E2.27217
G1 X99.352 Y98.646 E2.40456
G1 X98.981 Y98.671 E2.41755
G1 X98.640 Y98.753 E2.42978
G1 X98.327 Y98.876 E2.44151
G1 X98.027 Y99.042 E2.45348
G1 X97.668 Y99.312 E2.46915
G1 X97.268 Y99.663 E2.48772
M106 S255

G1 X98.305 Y101.189 F7800.000
M106 S255

G1 F3600
G1 X96.544 Y102.734 E2.56949
G1 X96.709 Y103.063 E2.58230
G1 X96.876 Y103.255 E2.59120
G1 X98.337 Y101.974 E2.65900
G1 X98.384 Y102.470 E2.67642
G1 X98.361 Y102.603 E2.68111
G1 X98.286 Y102.784 E2.68795
G1 X98.131 Y102.966 E2.69627
G1 X97.730 Y103.318 E2.71493
M106 S255

G1 E0.71493 F2400.00000
G92 E0
G1 X102.305 Y100.871 F7800.000
G1 E2.00000 F2400.00000
M106 S255

G1 F3600
G1 X102.748 Y100.478 E2.01962
G1 X102.858 Y100.327 E2.02581
G1 X102.983 Y100.113 E2.03402
G1 X103.161 Y99.673 E2.04975
G1 X103.269 Y99.232 E2.06479
G1 X102.036 Y100.314 E2.11917
G1 X101.852 Y99.682 E2.14099
G1 X103.289 Y98.421 E2.20435
G1 X103.282 Y98.366 E2.20618
G1 X103.070 Y97.820 E2.22558
G1 X101.666 Y99.052 E2.28746
G1 X101.472 Y98.429 E2.30908
G1 X102.739 Y97.318 E2.36491
G1 X102.580 Y97.077 E2.37448
G1 X102.344 Y96.871 E2.38485
G1 X101.321 Y97.769 E2.42994
G1 X101.113 Y97.641 E2.43802
G1 X100.862 Y97.880 E2.44950
G1 X100.742 Y97.874 E2.45348
G1 X100.537 Y97.800 E2.46070
G1 X100.443 Y97.746 E2.46429
G1 X101.890 Y96.477 E2.52808
G1 X101.347 Y96.160 E2.54890
G1 X100.209 Y97.159 E2.59909
G1 X100.185 Y97.102 E2.60112
G1 X99.928 Y97.206 E2.61030
G1 X99.884 Y96.992 E2.61756
G1 X99.888 Y96.888 E2.62098
G1 X99.984 Y96.645 E2.62964
G1 X100.121 Y96.456 E2.63740
G1 X100.652 Y95.976 E2.66111
M106 S255

G1 Z3.000 F7800.000
G1 E0.66111 F2400.00000
G92 E0
G1 X99.143 Y99.038 F7800.000
G1 E2.00000 F2400.00000
M106 S255

G1 F3600
G1 X99.277 Y98.523 E2.01754
G1 X99.452 Y98.505 E2.02335
G1 X99.793 Y98.553 E2.03470
G1 X99.876 Y98.582 E2.03759
G1 X99.641 Y99.488 E2.06843
G1 X100.152 Y99.887 E2.08980
G1 X100.405 Y98.911 E2.12303
G1 X100.475 Y98.974 E2.12615
G1 X100.643 Y99.223 E2.13605
G1 X100.756 Y99.492 E2.14566
G1 X100.790 Y99.624 E2.15016
G1 X100.796 Y99.770 E2.15498
G1 X100.663 Y100.286 E2.17255
M106 S255

G1 X98.831 Y100.408 F7800.000
M106 S255

G1 F3600
G1 X99.411 Y99.363 E2.20599
G1 X98.971 Y99.019 E2.22163
G1 X97.997 Y100.774 E2.27779
G1 X97.656 Y100.784 E2.28735
G1 X97.637 Y101.300 E2.30182
G1 X97.702 Y101.307 E2.30364
M106 S255

G1 X97.960 Y100.842 F7800.000
M106 S255

G1 F3600
G1 X96.623 Y103.252 E2.38077
G1 X96.873 Y103.602 E2.39280
G1 X96.997 Y103.716 E2.39750
G1 X97.853 Y102.172 E2.44692
G1 X98.377 Y102.365 E2.46255
G1 X97.444 Y104.047 E2.51636
G1 X97.721 Y104.108 E2.52428
G1 X98.028 Y104.132 E2.53290
G1 X98.808 Y102.726 E2.57788
G1 X98.907 Y102.786 E2.58114
G1 X99.052 Y102.975 E2.58781
G1 X99.120 Y103.149 E2.59302
G1 X99.123 Y103.227 E2.59522
G1 X99.097 Y103.341 E2.59849
G1 X98.800 Y103.877 E2.61563
M106 S255

G1 E0.61563 F2400.00000
G92 E0
G1 X96.419 Y102.482 F7800.000
G1 E2.00000 F2400.00000
M106 S255

G1 F3600
G1 X98.493 Y98.743 E2.11963
G1 X98.338 Y98.809 E2.12434
G1 X97.959 Y99.052 E2.13695
G1 X97.632 Y99.338 E2.14909
G1 X97.367 Y99.657 E2.16070
G1 X96.904 Y100.471 E2.18690
M106 S255

G1 E0.18690 F2400.00000
G92 E0
G1 X100.542 Y96.528 F7800.000
G1 E2.00000 F2400.00000
M106 S255

G1 F3600
G1 X100.408 Y97.045 E2.01752
G1 X100.393 Y97.302 E2.02595
G1 X100.430 Y97.445 E2.03082
G1 X100.514 Y97.625 E2.03732
G1 X100.601 Y97.762 E2.04262
G1 X100.781 Y97.972 E2.05170
G1 X101.309 Y95.932 E2.12080
G1 X101.386 Y95.927 E2.12332
G1 X101.611 Y95.974 E2.13085
G1 X101.878 Y96.103 E2.14056
G1 X101.280 Y98.409 E2.21862
G1 X101.638 Y98.586 E2.23173
G1 X101.816 Y98.705 E2.23874
G1 X102.375 Y96.550 E2.31172
G1 X102.644 Y96.853 E2.32501
G1 X102.831 Y97.153 E2.33659
G1 X102.104 Y99.958 E2.43158
G1 X102.423 Y100.123 E2.44335
G1 X102.221 Y100.549 E2.45880
G1 X102.273 Y100.696 E2.46392
G1 X102.031 Y100.783 E2.47237
G1 X102.037 Y101.328 E2.49023
G1 X101.992 Y101.787 E2.50533
G1 X102.162 Y102.100 E2.51700
G1 X103.221 Y98.012 E2.65540
G1 X103.309 Y98.319 E2.66586
G1 X103.401 Y98.821 E2.68260
G1 X103.410 Y99.361 E2.70030
G1 X103.375 Y99.747 E2.71300
G1 X103.127 Y100.741 E2.74657
M106 S255

G1 Z3.500 F7800.000
G1 E0.74657 F2400.00000
G92 E0
G1 X101.443 Y102.161 F7800.000
G1 E2.00000 F2400.00000
M106 S255

G1 F3600
G1 X103.412 Y101.126 E2.07042
G1 X103.552 Y100.706 E2.08440
G1 X103.609 Y100.343 E2.09604
G1 X101.832 Y101.278 E2.15958
G1 X102.071 Y100.472 E2.18616
G1 X103.688 Y99.622 E2.24397
G1 X103.685 Y99.505 E2.24766
G1 X103.572 Y99.003 E2.26394
G1 X102.321 Y99.662 E2.30869
G1 X102.057 Y99.599 E2.31726
G1 X101.995 Y99.536 E2.32005
G1 X101.816 Y99.247 E2.33079
G1 X103.454 Y98.386 E2.38936
G1 X103.299 Y98.010 E2.40222
G1 X103.203 Y97.838 E2.40844
G1 X101.728 Y98.614 E2.46118
G1 X101.330 Y98.361 E2.47611
G1 X101.279 Y98.435 E2.47896
G1 X101.151 Y98.238 E2.48640
G1 X102.876 Y97.331 E2.54805
G1 X102.629 Y97.006 E2.56096
G1 X102.473 Y96.863 E2.56765
G1 X100.866 Y97.709 E2.62511
G1 X100.760 Y97.403 E2.63534
G1 X100.756 Y97.169 E2.64274
G1 X100.777 Y97.082 E2.64558
G1 X101.252 Y96.826 E2.66266
M106 S255

G1 E0.66266 F2400.00000
G92 E0
G1 X100.047 Y98.736 F7800.000
G1 E2.00000 F2400.00000
M106 S255

G1 F3600
G1 X99.575 Y98.983 E2.01685
G1 X99.222 Y99.829 E2.04583
G1 X100.679 Y99.063 E2.09789
G1 X100.848 Y99.112 E2.10346
G1 X101.009 Y99.330 E2.11204
G1 X101.094 Y99.504 E2.11817
G1 X99.555 Y100.313 E2.17316
G1 X99.591 Y100.383 E2.17566
G1 X99.745 Y100.239 E2.18234
G1 X100.078 Y100.483 E2.19538
G1 X100.071 Y100.520 E2.19659
G1 X100.279 Y100.592 E2.20355
G1 X101.213 Y100.101 E2.23691
G1 X101.214 Y100.213 E2.24046
G1 X101.171 Y100.483 E2.24910
G1 X101.073 Y100.704 E2.25675
G1 X100.940 Y100.887 E2.26393
G1 X100.316 Y101.232 E2.28648
M106 S255

G1 E0.28648 F2400.00000
G92 E0
G1 X98.242 Y99.768 F7800.000
G1 E2.00000 F2400.00000
M106 S255

G1 F3600
G1 X97.258 Y100.285 E2.03518
G1 X97.156 Y100.504 E2.04282
G1 X97.127 Y100.497 E2.04378
G1 X96.992 Y100.713 E2.05184
G1 X96.810 Y101.070 E2.06451
G1 X96.749 Y101.232 E2.06999
G1 X97.994 Y100.577 E2.11450
G1 X98.013 Y101.247 E2.13570
G1 X96.472 Y102.057 E2.19077
G1 X96.424 Y102.276 E2.19787
G1 X96.409 Y102.532 E2.20599
G1 X96.420 Y102.764 E2.21333
G1 X98.141 Y101.859 E2.27487
G1 X98.177 Y101.923 E2.27718
G1 X98.147 Y101.941 E2.27827
G1 X98.361 Y102.423 E2.29496
G1 X96.581 Y103.359 E2.35859
G1 X96.708 Y103.570 E2.36639
G1 X96.957 Y103.840 E2.37802
G1 X98.559 Y102.998 E2.43527
G1 X98.575 Y103.016 E2.43603
G1 X98.759 Y103.017 E2.44184
G1 X98.873 Y102.993 E2.44552
G1 X99.001 Y102.906 E2.45043
G1 X99.256 Y102.943 E2.45859
G1 X99.491 Y103.021 E2.46643
G1 X99.656 Y103.033 E2.47166
G1 X99.728 Y103.063 E2.47411
G1 X97.492 Y104.239 E2.55404
G1 X97.747 Y104.344 E2.56278
G1 X98.115 Y104.427 E2.57472
G1 X98.384 Y104.449 E2.58326
G1 X102.990 Y102.027 E2.74791
G1 X102.790 Y102.334 E2.75952
G1 X102.542 Y102.613 E2.77132
G1 X102.094 Y103.058 E2.79131
G1 X101.900 Y103.220 E2.79930
G1 X101.625 Y103.408 E2.80982
G1 X100.778 Y103.870 E2.84037
M106 S255

G1 E0.84037 F2400.00000
G92 E0
G1 X98.633 Y99.354 F7800.000
G1 E2.00000 F2400.00000
M106 S255

G1 F3600
G1 X98.441 Y99.476 E2.00940
G1 X99.094 Y99.569 E2.03667
G1 X98.151 Y99.129 E2.07971
G1 X98.638 Y98.888 E2.10220
G1 X98.960 Y98.779 E2.11627
G1 X99.443 Y99.004 E2.13828
M106 S255

G1 Z4.000 F7800.000
G1 E0.13828 F2400.00000
G92 E0
G1 X102.045 Y97.335 F7800.000
G1 E2.00000 F2400.00000
M106 S255

G1 F3600
G1 X101.573 Y97.584 E2.02004
G1 X101.554 Y97.612 E2.02131
G1 X101.535 Y97.727 E2.02569
G1 X101.545 Y97.892 E2.03188
G1 X101.584 Y98.088 E2.03938
G1 X101.690 Y97.917 E2.04692
G1 X101.984 Y98.080 E2.05955
G1 X102.688 Y97.710 E2.08940
G1 X102.847 Y97.866 E2.09777
G1 X103.115 Y98.198 E2.11378
G1 X102.644 Y98.446 E2.13376
M106 S255

G1 X102.497 Y98.460 F7800.000
M106 S255

G1 F3600
G1 X101.846 Y98.962 E2.16154
G1 X101.931 Y99.293 E2.17311
G1 X101.979 Y99.619 E2.18422
G1 X102.050 Y99.564 E2.18724
G1 X101.984 Y99.526 E2.18982
G1 X102.116 Y99.276 E2.19935
G1 X102.353 Y99.057 E2.21026
G1 X102.519 Y99.202 E2.21772
G1 X103.069 Y98.778 E2.24120
G1 X103.434 Y98.980 E2.25530
G1 X103.504 Y99.202 E2.26316
G1 X102.322 Y100.114 E2.31360
G1 X102.191 Y100.420 E2.32485
G1 X102.116 Y100.371 E2.32786
G1 X102.053 Y100.503 E2.33281
G1 X102.025 Y100.492 E2.33383
G1 X102.026 Y100.590 E2.33715
G1 X102.046 Y100.594 E2.33784
G1 X102.001 Y100.974 E2.35074
G1 X101.961 Y101.153 E2.35695
G1 X103.597 Y99.890 E2.42679
G1 X103.578 Y100.429 E2.44500
G1 X103.543 Y100.692 E2.45398
G1 X101.863 Y101.988 E2.52568
M106 S255

G1 X101.442 Y103.832 F7800.000
M106 S255

G1 F3600
G1 X102.073 Y103.331 E2.55291
G1 X102.559 Y102.842 E2.57621
G1 X102.759 Y102.583 E2.58727
G1 X102.947 Y102.278 E2.59937
G1 X103.231 Y101.692 E2.62139
G1 X99.425 Y104.629 E2.78387
G1 X98.936 Y104.665 E2.80043
G1 X98.459 Y104.614 E2.81665
G1 X100.468 Y103.064 E2.90239
G1 X100.137 Y103.150 E2.91391
G1 X99.974 Y103.124 E2.91950
G1 X99.723 Y103.126 E2.92798
G1 X99.485 Y103.063 E2.93631
G1 X97.736 Y104.412 E3.01095
G1 X97.204 Y104.063 E3.03246
G1 X98.865 Y102.782 E3.10333
G1 X98.515 Y102.573 E3.11708
G1 X98.478 Y102.530 E3.11901
G1 X98.283 Y102.471 E3.12591
G1 X96.835 Y103.588 E3.18772
G1 X96.731 Y103.287 E3.19849
G1 X96.694 Y102.937 E3.21038
G1 X97.923 Y101.988 E3.26286
G1 X97.516 Y101.595 E3.28201
G1 X97.456 Y101.590 E3.28405
G1 X97.034 Y101.915 E3.30204
M106 S255

G1 X98.129 Y101.429 F7800.000
M106 S255

G1 F3600
G1 X97.719 Y101.085 E3.32064
G1 X97.730 Y100.916 E3.32653
G1 X98.070 Y100.953 E3.33841
G1 X98.120 Y100.630 E3.34976
G1 X98.880 Y101.261 E3.38407
M106 S255

G1 X98.221 Y100.714 F7800.000
M106 S255

G1 F3600
G1 X97.389 Y100.024 E3.42163
M106 S255

G1 X98.185 Y99.893 F7800.000
M106 S255

G1 F3600
G1 X98.594 Y100.232 E3.44013
M106 S255

G1 X99.844 Y99.067 F7800.000
M106 S255

G1 F3600
G1 X99.372 Y99.315 E3.45604
G1 X99.846 Y99.708 E3.47444
G1 X100.860 Y99.174 E3.50869
G1 X101.085 Y99.408 E3.51836
G1 X100.818 Y99.839 E3.53352
G1 X100.346 Y100.087 E3.54943
M106 S255

G1 X100.767 Y100.532 F7800.000
M106 S255

G1 F3600
G1 X101.316 Y100.108 E3.57813
M106 S255

G1 X100.838 Y101.311 F7800.000
M106 S255

G1 F3600
G1 X100.416 Y101.636 E3.60014
M106 S255

G1 Z4.500 F7800.000
G1 X101.462 Y101.921 F7800.000
M106 S255

G1 F3600
G1 X101.976 Y101.716 E3.61913
M106 S255

G1 X100.778 Y102.845 F7800.000
M106 S255

G1 F3600
G1 X103.144 Y101.902 E3.70652
G1 X103.299 Y101.496 E3.72142
G1 X103.376 Y101.158 E3.73334
G1 X101.482 Y101.913 E3.80332
G1 X101.818 Y101.400 E3.82438
G1 X101.986 Y101.060 E3.83739
G1 X103.430 Y100.484 E3.89070
G1 X103.398 Y100.163 E3.90178
G1 X103.335 Y99.870 E3.91207
G1 X102.247 Y100.304 E3.95228
G1 X102.391 Y99.818 E3.96966
G1 X102.522 Y99.542 E3.98015
G1 X103.017 Y99.345 E3.99842
M106 S255

G1 E1.99842 F2400.00000
G92 E0
G1 X100.713 Y104.175 F7800.000
G1 E2.00000 F2400.00000
M106 S255

G1 F3600
G1 X101.209 Y103.978 E2.01830
G1 X101.104 Y103.875 E2.02334
G1 X101.450 Y103.494 E2.04099
G1 X101.712 Y103.686 E2.05212
G1 X101.933 Y103.543 E2.06113
G1 X102.294 Y103.212 E2.07797
G1 X102.543 Y102.866 E2.09259
G1 X102.618 Y102.814 E2.09572
G1 X102.635 Y102.757 E2.09775
G1 X98.360 Y104.461 E2.25566
G1 X98.242 Y104.440 E2.25977
G1 X97.992 Y104.342 E2.26899
G1 X97.757 Y104.226 E2.27796
G1 X97.594 Y104.114 E2.28474
G1 X100.745 Y102.858 E2.40113
G1 X100.465 Y102.779 E2.41113
G1 X100.089 Y102.873 E2.42443
G1 X99.694 Y102.915 E2.43804
G1 X99.653 Y103.197 E2.44781
G1 X99.069 Y102.955 E2.46949
G1 X98.889 Y102.946 E2.47568
G1 X97.221 Y103.611 E2.53728
G1 X97.179 Y103.497 E2.54144
G1 X97.157 Y103.359 E2.54625
G1 X97.161 Y103.173 E2.55262
G1 X97.209 Y102.964 E2.55999
G1 X97.944 Y102.671 E2.58716
M106 S255

G1 X98.181 Y102.159 F7800.000
M106 S255

G1 F3600
G1 X99.487 Y101.639 E2.62977
G1 X99.200 Y101.501 E2.63943
G1 X99.106 Y101.419 E2.64319
G1 X99.001 Y101.262 E2.64893
G1 X99.002 Y101.237 E2.64966
G1 X98.976 Y101.226 E2.65051
G1 X97.356 Y101.872 E2.70333
G1 X97.274 Y101.794 E2.70678
G1 X97.088 Y101.510 E2.71705
G1 X97.039 Y101.383 E2.72119
G1 X98.932 Y100.628 E2.78291
G1 X98.957 Y100.488 E2.78723
G1 X99.104 Y100.503 E2.79169
G1 X98.918 Y100.192 E2.80266
G1 X99.188 Y99.939 E2.81387
G1 X99.116 Y99.939 E2.81605
G1 X96.954 Y100.801 E2.88657
G1 X97.014 Y100.310 E2.90155
G1 X97.082 Y100.134 E2.90727
G1 X97.577 Y99.936 E2.92340
M106 S255

G1 X99.398 Y101.674 F7800.000
M106 S255

G1 F3600
G1 X100.174 Y101.365 E2.94871
G1 X100.214 Y101.428 E2.95096
G1 X100.369 Y101.287 E2.95729
M106 S255

G1 X99.752 Y102.149 F7800.000
M106 S255

G1 F3600
G1 X100.614 Y101.789 E2.98561
G1 X100.876 Y101.602 E2.99536
G1 X101.144 Y101.321 E3.00712
G1 X101.251 Y101.150 E3.01322
G1 X101.260 Y100.932 E3.01983
G1 X99.874 Y101.484 E3.06501
G1 X100.035 Y101.327 E3.07183
G1 X100.181 Y100.998 E3.08274
G1 X99.881 Y100.866 E3.09268
G1 X101.384 Y100.267 E3.14169
M106 S255

G1 E1.14169 F2400.00000
G92 E0
G1 X99.253 Y99.363 F7800.000
G1 E2.00000 F2400.00000
M106 S255

G1 F3600
G1 X98.783 Y99.612 E2.02200
M106 S255

G1 X98.630 Y98.946 F7800.000
M106 S255

G1 F3600
G1 X97.559 Y99.512 E2.07211
M106 S255

G1 Z5.000 F7800.000
G1 E0.07211 F2400.00000
G92 E0
G1 X98.218 Y103.330 F7800.000
G1 E2.00000 F2400.00000
M106 S255

G1 F3600
G1 X98.379 Y103.927 E2.02091
G1 X98.491 Y104.073 E2.02711
G1 X98.686 Y104.203 E2.03504
G1 X99.110 Y104.331 E2.05002
G1 X98.763 Y103.040 E2.09524
G1 X99.367 Y102.968 E2.11580
G1 X99.740 Y104.358 E2.16444
G1 X100.350 Y104.310 E2.18514
G1 X99.951 Y102.823 E2.23719
G1 X100.524 Y102.637 E2.25756
G1 X100.930 Y104.153 E2.31063
G1 X101.058 Y104.081 E2.31559
G1 X101.183 Y103.916 E2.32259
G1 X101.368 Y103.884 E2.32892
G1 X101.460 Y103.803 E2.33307
G1 X101.080 Y102.385 E2.38272
G1 X101.606 Y102.024 E2.40429
G1 X101.986 Y103.443 E2.45393
G1 X102.148 Y103.293 E2.46140
G1 X102.325 Y103.084 E2.47067
G1 X102.455 Y102.868 E2.47919
G1 X102.103 Y101.557 E2.52508
G1 X102.496 Y101.144 E2.54435
G1 X102.596 Y101.069 E2.54856
G1 X102.734 Y101.584 E2.56660
M106 S255

G1 X101.045 Y100.823 F7800.000
M106 S255

G1 F3600
G1 X100.874 Y100.216 E2.59008
G1 X100.796 Y100.081 E2.59592
G1 X100.749 Y100.029 E2.59852
G1 X100.702 Y100.014 E2.60036
G1 X100.644 Y100.071 E2.60337
G1 X100.348 Y100.651 E2.62764
G1 X100.726 Y102.062 E2.68206
G1 X100.511 Y102.289 E2.69372
G1 X100.189 Y102.488 E2.70781
G1 X99.846 Y101.209 E2.75712
G1 X99.600 Y101.225 E2.76631
G1 X99.324 Y101.182 E2.77672
G1 X99.197 Y101.216 E2.78163
G1 X99.589 Y102.680 E2.83811
G1 X99.486 Y102.703 E2.84204
G1 X99.399 Y102.476 E2.85111
G1 X98.915 Y102.594 E2.86966
G1 X98.481 Y100.976 E2.93207
M106 S255

G1 X98.619 Y101.490 F7800.000
M106 S255

G1 F3600
G1 X98.408 Y101.490 E2.93994
G1 X98.472 Y101.339 E2.94606
G1 X98.435 Y101.319 E2.94761
G1 X98.531 Y101.163 E2.95444
G1 X97.990 Y99.142 E3.03239
G1 X98.069 Y99.087 E3.03599
G1 X98.333 Y98.965 E3.04682
G1 X98.673 Y99.262 E3.06365
G1 X99.120 Y100.930 E3.12799
M106 S255

G1 X99.669 Y100.548 F7800.000
M106 S255

G1 F3600
G1 X99.329 Y99.278 E3.17698
G1 X99.630 Y99.023 E3.19166
G1 X99.697 Y99.084 E3.19506
G1 X99.783 Y99.222 E3.20112
G1 X99.797 Y99.265 E3.20280
G1 X99.779 Y99.486 E3.21105
G1 X99.746 Y99.761 E3.22136
G1 X99.702 Y99.934 E3.22802
G1 X99.627 Y100.004 E3.23183
G1 X99.531 Y100.033 E3.23556
M106 S255

G1 X97.625 Y100.210 F7800.000
M106 S255

G1 F3600
G1 X97.477 Y99.659 E3.25680
M106 S255

G1 X97.333 Y101.550 F7800.000
M106 S255

G1 F3600
G1 X97.195 Y101.036 E3.27663
G1 X97.178 Y100.669 E3.29030
G1 X97.213 Y100.350 E3.30228
G1 X97.292 Y100.067 E3.31322
G1 X97.411 Y99.792 E3.32435
G1 X97.444 Y100.075 E3.33497
G1 X97.547 Y100.176 E3.34033
G1 X97.581 Y100.279 E3.34437
G1 X97.640 Y100.268 E3.34662
G1 X98.250 Y102.543 E3.43437
M106 S255

G1 Z5.500 F7800.000
G1 X98.272 Y102.287 F7800.000
M106 S255

G1 F3600
G1 X98.468 Y102.422 E3.44421
G1 X98.763 Y102.541 E3.45733
G1 X98.874 Y102.568 E3.46207
G1 X97.790 Y102.062 E3.51153
G1 X97.719 Y102.013 E3.51511
G1 X97.544 Y101.811 E3.52616
G1 X97.419 Y101.570 E3.53737
G1 X97.368 Y101.315 E3.54815
G1 X97.376 Y101.141 E3.55534
G1 X98.308 Y101.576 E3.59784
M106 S255

G1 X98.178 Y101.515 F7800.000
M106 S255

G1 F3600
G1 X100.092 Y102.407 E3.68517
G1 X100.268 Y102.301 E3.69368
G1 X100.528 Y102.081 E3.70774
G1 X100.639 Y101.934 E3.71536
G1 X99.801 Y101.543 E3.75359
G1 X100.022 Y101.382 E3.76491
G1 X100.372 Y101.081 E3.78399
G1 X100.855 Y101.306 E3.80599
M106 S255

G1 X100.294 Y100.466 F7800.000
M106 S255

G1 F3600
G1 X98.454 Y99.608 E3.88771
G1 X98.389 Y99.651 E3.89085
G1 X98.343 Y99.900 E3.90106
G1 X98.447 Y99.957 E3.90584
G1 X98.399 Y100.087 E3.91141
G1 X98.558 Y100.147 E3.91824
G1 X98.796 Y100.276 E3.92912
G1 X98.906 Y100.364 E3.93482
G1 X99.079 Y100.575 E3.94578
G1 X99.217 Y100.683 E3.95285
G1 X99.710 Y100.913 E3.97472
M106 S255

G1 X100.186 Y99.696 F7800.000
M106 S255

G1 F3600
G1 X99.703 Y99.471 E3.99614
M106 S255

G1 Z6.000 F7800.000
G1 X100.125 Y100.324 F7800.000
M106 S255

G1 F3600
G1 X100.032 Y100.848 E4.01604
M106 S255

G1 X99.283 Y101.471 F7800.000
M106 S255

G1 F3600
G1 X99.573 Y99.825 E4.07850
G1 X99.446 Y99.844 E4.08330
G1 X98.965 Y99.992 E4.10211
G1 X99.242 Y99.990 E4.11248
G1 X99.245 Y100.246 E4.12202
G1 X99.303 Y100.289 E4.12473
G1 X99.247 Y100.369 E4.12839
G1 X99.248 Y100.537 E4.13468
G1 X99.125 Y100.539 E4.13930
G1 X98.989 Y100.729 E4.14802
G1 X98.797 Y100.597 E4.15675
G1 X98.669 Y101.325 E4.18440
G1 X98.500 Y101.273 E4.19100
G1 X98.359 Y101.196 E4.19701
G1 X98.206 Y101.058 E4.20469
G1 X98.107 Y100.922 E4.21098
G1 X98.206 Y100.323 E4.23369
M106 S255

G1 Z6.500 F7800.000
G1 X98.263 Y100.975 F7800.000
G1 F600
G1 X98.609 Y100.636 E4.24902
G1 X98.765 Y100.595 E4.25411
G1 X99.283 Y100.588 E4.27049
G1 X98.557 Y101.313 E4.30294
G1 X99.237 Y101.265 F7800.000
G1 F600
G1 X99.572 Y100.931 E4.31792
G1 X99.562 Y100.941 E4.31836
G1 E2.31836 F2400.00000
G92 E0
M107
; Filament-specific end gcode 
;END gcode for filament

M104 S0 ; turn off temperature
G28 X0  ; home X axis
M84     ; disable motors

M140 S0 ; set bed temperature
; filament used = 12.4mm (0.1cm3)
; total filament cost = 0.0

; avoid_crossing_perimeters = 0
; bed_shape = 0x0,200x0,200x200,0x200
; bed_temperature = 0
; before_layer_gcode = 
; between_objects_gcode = 
; bridge_acceleration = 0
; bridge_fan_speed = 100
; brim_connections_width = 0
; brim_width = 0
; complete_objects = 0
; cooling = 1
; default_acceleration = 0
; disable_fan_first_layers = 3
; duplicate_distance = 6
; end_filament_gcode = "; Filament-specific end gcode \n;END gcode for filament\n"
; end_gcode = M104 S0 ; turn off temperature\nG28 X0  ; home X axis\nM84     ; disable motors\n
; extruder_clearance_height = 20
; extruder_clearance_radius = 20
; extruder_offset = 0x0
; extrusion_axis = E
; extrusion_multiplier = 1
; fan_always_on = 0
; fan_below_layer_time = 60
; filament_colour = #FFFFFF
; filament_cost = 0
; filament_density = 0
; filament_diameter = 3
; filament_max_volumetric_speed = 0
; filament_notes = ""
; first_layer_acceleration = 0
; first_layer_bed_temperature = 0
; first_layer_extrusion_width = 200%
; first_layer_speed = 30
; first_layer_temperature = 205
; gcode_arcs = 0
; gcode_comments = 0
; gcode_flavor = reprap
; has_heatbed = 1
; infill_acceleration = 0
; infill_first = 0
; interior_brim_width = 0
; layer_gcode = 
; max_fan_speed = 100
; max_layer_height = 0.3
; max_print_speed = 80
; max_volumetric_speed = 0
; min_fan_speed = 35
; min_layer_height = 0.15
; min_print_speed = 10
; min_skirt_length = 0
; notes = 
; nozzle_diameter = 0.5
; only_retract_when_crossing_perimeters = 1
; ooze_prevention = 0
; output_filename_format = [input_filename_base].gcode
; perimeter_acceleration = 0
; post_process = 
; pressure_advance = 0
; printer_notes = 
; resolution = 0
; retract_before_travel = 2
; retract_layer_change = 0
; retract_length = 2
; retract_length_toolchange = 10
; retract_lift = 0
; retract_lift_above = 0
; retract_lift_below = 0
; retract_restart_extra = 0
; retract_restart_extra_toolchange = 0
; retract_speed = 40
; skirt_distance = 6
; skirt_height = 1
; skirts = 0
; slowdown_below_layer_time = 5
; spiral_vase = 0
; standby_temperature_delta = -5
; start_filament_gcode = "; Filament gcode\n"
; start_gcode = G28 ; home all axes\nG1 Z5 F5000 ; lift nozzle\n
; temperature = 200
; threads = 8
; toolchange_gcode = 
; travel_speed = 130
; use_firmware_retraction = 0
; use_relative_e_distances = 0
; use_set_and_wait_bed = 0
; use_set_and_wait_extruder = 0
; use_volumetric_e = 0
; vibration_limit = 0
; wipe = 0
; z_offset = 0
; z_steps_per_mm = 0
; adaptive_slicing = 0
; adaptive_slicing_quality = 75%
; dont_support_bridges = 1
; extrusion_width = 0
; first_layer_height = 0.5
; infill_only_where_needed = 0
; interface_shells = 0
; layer_height = 0.5
; match_horizontal_surfaces = 0
; raft_layers = 0
; regions_overlap = 0
; seam_position = aligned
; sequential_print_priority = 0
; support_material = 0
; support_material_angle = 0
; support_material_buildplate_only = 0
; support_material_contact_distance = 0.2
; support_material_enforce_layers = 0
; support_material_extruder = 1
; support_material_extrusion_width = 0
; support_material_interface_extruder = 1
; support_material_interface_extrusion_width = 0
; support_material_interface_layers = 3
; support_material_interface_spacing = 0
; support_material_interface_speed = 100%
; support_material_max_layers = 0
; support_material_pattern = pillars
; support_material_spacing = 2.5
; support_material_speed = 60
; support_material_threshold = 60%
; xy_size_compensation = 0
; bottom_infill_pattern = rectilinear
; bottom_solid_layers = 3
; bridge_flow_ratio = 1
; bridge_speed = 60
; external_perimeter_extrusion_width = 0
; external_perimeter_speed = 50%
; external_perimeters_first = 0
; extra_perimeters = 1
; fill_angle = 45
; fill_density = 40%
; fill_gaps = 1
; fill_pattern = rectilinear
; gap_fill_speed = 20
; infill_every_layers = 1
; infill_extruder = 1
; infill_extrusion_width = 0
; infill_overlap = 55%
; infill_speed = 80
; overhangs = 1
; perimeter_extruder = 1
; perimeter_extrusion_width = 0
; perimeter_speed = 60
; perimeters = 0
; small_perimeter_speed = 15
; solid_infill_below_area = 70
; solid_infill_every_layers = 0
; solid_infill_extruder = 1
; solid_infill_extrusion_width = 0
; solid_infill_speed = 20
; thin_walls = 1
; top_infill_extrusion_width = 0
; top_infill_pattern = rectilinear
; top_solid_infill_speed = 15
; top_solid_layers = 3
