; generated by Slic3r 1.3.0 on 2020-03-03 at 17:35:07

; external perimeters extrusion width = 0.55mm (6.64mm^3/s)
; perimeters extrusion width = 0.52mm (12.53mm^3/s)
; infill extrusion width = 0.52mm (16.71mm^3/s)
; solid infill extrusion width = 0.52mm (4.18mm^3/s)
; top infill extrusion width = 0.52mm (3.13mm^3/s)

M107
M104 S205 ; set temperature
G28 ; home all axes
G1 Z5 F5000 ; lift nozzle

; Filament gcode

M109 S205 ; set temperature and wait for it to be reached
G21 ; set units to millimeters
G90 ; use absolute coordinates
M82 ; use absolute distances for extrusion
G92 E0
G1 Z0.700 F7800.000
G1 E-2.00000 F2400.00000
G92 E0
G1 X97.792 Y104.402 F7800.000
G1 E2.00000 F2400.00000
G1 F600
G1 X97.919 Y104.471 E2.00739
G1 F600
G1 X97.997 Y104.537 E2.01180
G1 F600
G1 X98.068 Y104.618 E2.01551
G1 F600
G1 X98.130 Y104.709 E2.01833
G1 F600
G1 X98.228 Y104.890 E2.02215
G1 F600
G1 X98.248 Y104.957 E2.02401
G1 F600
G1 X98.264 Y105.020 E2.02630
G1 F600
G1 X98.272 Y105.078 E2.02887
G1 F600
G1 X98.278 Y105.136 E2.03186
G1 F600
G1 X98.283 Y105.199 E2.03556
G1 F600
G1 X98.282 Y105.260 E2.03973
G1 F600
G1 X98.276 Y105.316 E2.04397
G1 F600
G1 X98.259 Y105.378 E2.04930
G1 F600
G1 X98.233 Y105.447 E2.05607
G1 F600
G1 X98.206 Y105.517 E2.06370
G1 E0.06370 F2400.00000
G92 E0
G1 X103.985 Y99.203 F7800.000
G1 E2.00000 F2400.00000
G1 F600
G1 X103.871 Y96.552 E2.24657
G1 F600
G1 X103.854 Y96.483 E2.25269
G1 F600
G1 X103.850 Y96.437 E2.25628
G1 F600
G1 X103.849 Y96.386 E2.25984
G1 F600
G1 X103.855 Y96.336 E2.26304
G1 F600
G1 X103.971 Y96.002 E2.28223
G1 X103.964 Y96.000 F7800.000
G1 F600
G1 X103.887 Y97.764 E2.50319
G1 X103.781 Y98.379 E2.58122
G1 F600
G1 X103.742 Y98.550 E2.60188
G1 F600
G1 X103.710 Y98.639 E2.61257
G1 F600
G1 X103.675 Y98.711 E2.62114
G1 F600
G1 X103.289 Y99.362 E2.69683
G1 X103.857 Y99.272 F7800.000
G1 F600
G1 X103.914 Y95.987 E3.06763
M104 S200 ; set temperature
G1 Z1.200 F7800.000
G1 X102.236 Y95.173 F7800.000

G1 F3600
G1 X101.899 Y95.354 E3.07826
G1 X101.606 Y95.147 E3.08822
G1 X101.146 Y94.910 E3.10259
G1 X100.921 Y94.846 E3.10909
G1 X100.560 Y94.786 E3.11926
G1 X100.231 Y94.783 E3.12839
G1 X99.643 Y94.861 E3.14488
G1 X99.308 Y94.972 E3.15469
G1 X98.879 Y95.209 E3.16831
G1 X98.553 Y95.353 E3.17819
G1 X98.165 Y95.606 E3.19106
G1 X97.995 Y95.784 E3.19791
G1 X97.881 Y95.972 E3.20402
G1 X97.681 Y96.434 E3.21800
G1 X97.521 Y96.709 E3.22684
G1 X97.307 Y97.205 E3.24183
G1 X96.993 Y98.424 E3.27681
G1 X96.953 Y98.876 E3.28940
G1 X97.003 Y100.099 E3.32342
G1 X97.011 Y100.803 E3.34296
G1 X97.075 Y101.170 E3.35333
G1 X97.190 Y101.455 E3.36185
G1 X97.458 Y101.966 E3.37789
G1 X97.852 Y102.793 E3.40334
G1 X98.049 Y103.105 E3.41358
G1 X98.403 Y103.588 E3.43023
G1 X98.671 Y104.067 E3.44546
G1 X98.810 Y104.523 E3.45871
G1 X98.819 Y104.824 E3.46707

G1 F600
G1 X98.822 Y104.925 E3.47022
G1 X98.900 Y104.937 E3.47272

G1 F3600
G1 X99.172 Y104.980 E3.48035

G1 F600
G1 X99.368 Y105.011 E3.48656
G1 X99.493 Y104.654 E3.49842
G1 X99.665 Y104.490 E3.50586
G1 X99.883 Y104.334 E3.51426
G1 X100.217 Y104.154 E3.52614
G1 X100.389 Y104.133 E3.53156
G1 X100.489 Y104.161 E3.53482
G1 X100.618 Y104.260 E3.53989
G1 X100.692 Y104.369 E3.54401
G1 X100.745 Y104.478 E3.54781
G1 X100.787 Y104.729 E3.55579
G1 X100.789 Y104.932 E3.56214
G1 X100.749 Y105.244 E3.57199
G1 X100.613 Y105.768 E3.58894

G1 F3600
G1 X100.536 Y106.065 E3.59749
G1 X100.369 Y106.441 E3.60889
G1 X100.158 Y106.762 E3.61957
G1 X100.001 Y106.883 E3.62507
G1 X99.758 Y106.939 E3.63201
G1 X99.534 Y106.911 E3.63827
G1 X99.310 Y106.760 E3.64579
G1 X99.075 Y106.686 E3.65263
G1 X98.684 Y106.938 E3.66556
G1 X98.448 Y106.649 E3.67592

G1 F600
G1 X98.246 Y106.401 E3.68592
G1 X97.820 Y105.810 E3.70874
G1 X97.428 Y105.451 E3.72539
G1 X97.294 Y105.300 E3.73172
G1 X97.196 Y105.131 E3.73783
G1 X97.186 Y104.894 E3.74527

G1 F3600
G1 X97.189 Y104.563 E3.75446
G1 X97.157 Y104.346 E3.76057
G1 X96.840 Y103.671 E3.78128
G1 X96.412 Y102.647 E3.81210
G1 X96.177 Y101.742 E3.83806
G1 X96.023 Y101.230 E3.85291
G1 X95.898 Y100.611 E3.87045
G1 X95.830 Y100.128 E3.88402
G1 X95.790 Y99.617 E3.89825
G1 X95.782 Y98.951 E3.91675
G1 X95.822 Y98.287 E3.93523
G1 X95.906 Y97.777 E3.94958
G1 X96.024 Y97.299 E3.96327
G1 X96.392 Y96.342 E3.99175
G1 X96.512 Y96.140 E3.99828
G1 X97.244 Y95.115 E4.03326
G1 X97.518 Y94.803 E4.04480
G1 X97.840 Y94.526 E4.05660
G1 X98.245 Y94.244 E4.07030
G1 X98.601 Y94.049 E4.08157
G1 X98.955 Y93.889 E4.09237
G1 X99.478 Y93.723 E4.10761
G1 X100.217 Y93.567 E4.12860
G1 X100.391 Y93.540 E4.13349
G1 X101.056 Y93.534 E4.15196
G1 X101.472 Y93.589 E4.16361
G1 X102.458 Y93.813 E4.19170
G1 X102.720 Y93.894 E4.19931
G1 X102.955 Y94.001 E4.20649
G1 X103.595 Y94.367 E4.22697
G1 X103.937 Y94.655 E4.23938
G1 X104.162 Y94.928 E4.24922
G1 X104.535 Y95.495 E4.26805
G1 X104.748 Y96.002 E4.28333
G1 X104.835 Y96.343 E4.29311
G1 X104.903 Y96.809 E4.30620
G1 X104.913 Y97.430 E4.32345
G1 X104.877 Y97.763 E4.33275

G1 F600
G1 X104.724 Y98.469 E4.35538

G1 F3600
G1 X104.645 Y98.787 E4.36447
G1 X104.460 Y99.283 E4.37918
G1 X104.393 Y99.417 E4.38334
G1 X103.989 Y99.992 E4.40287
G1 X103.779 Y100.211 E4.41130
G1 X103.538 Y100.395 E4.41972
G1 X102.983 Y100.684 E4.43710
G1 X102.693 Y100.790 E4.44569
G1 X102.405 Y100.856 E4.45389
G1 X102.087 Y100.897 E4.46280
G1 X101.716 Y100.831 E4.47325
G1 X101.546 Y100.762 E4.47834
G1 X101.349 Y100.593 E4.48557
G1 X101.450 Y100.403 E4.49155
G1 X102.239 Y99.439 E4.52615
G1 X102.382 Y99.224 E4.53332
G1 X102.589 Y98.848 E4.54523
G1 X102.755 Y98.443 E4.55742
G1 X102.797 Y98.281 E4.56205
G1 X102.876 Y97.594 E4.58128
G1 X102.872 Y97.324 E4.58878
G1 X102.725 Y96.561 E4.61036
G1 X102.479 Y96.124 E4.62428
G1 X102.263 Y95.811 E4.63484
G1 X102.221 Y95.686 E4.63852
G1 X102.234 Y95.248 E4.65068

G1 Z1.700 F7800.000
G1 E2.65068 F2400.00000
G92 E0
G1 X98.854 Y105.236 F7800.000
G1 E2.00000 F2400.00000
G1 F662.657
G1 X99.404 Y104.437 E2.03037
G1 X99.639 Y104.246 E2.03985
G1 X100.034 Y104.140 E2.05265
G1 X100.274 Y104.154 E2.06017
G1 X100.431 Y104.230 E2.06565
G1 X100.595 Y104.401 E2.07307
G1 X100.680 Y104.569 E2.07896
G1 X100.733 Y104.894 E2.08929
G1 X100.689 Y105.524 E2.10906
G1 X100.557 Y106.236 E2.13173
G1 X100.375 Y106.715 E2.14779
G1 X100.258 Y106.896 E2.15452
G1 X100.038 Y107.011 E2.16230
G1 X99.867 Y107.026 E2.16768
G1 X99.610 Y106.965 E2.17595
G1 X99.136 Y106.678 E2.19329
G1 X98.812 Y106.671 E2.20345
G1 X98.676 Y107.124 E2.21828
G1 X98.455 Y106.838 E2.22958
G1 X97.795 Y105.840 E2.26706
G1 X97.246 Y105.340 E2.29031
G1 X97.077 Y105.134 E2.29865
G1 X96.971 Y104.881 E2.30725
G1 X96.932 Y104.522 E2.31856
G1 X96.867 Y104.316 E2.32533
G1 X96.741 Y104.106 E2.33300
G1 X96.437 Y103.694 E2.34903
G1 X96.141 Y103.173 E2.36779
G1 X95.989 Y102.844 E2.37914
G1 X95.751 Y102.200 E2.40063

G1 F3600
G1 X95.638 Y101.892 E2.40975
G1 X95.447 Y101.233 E2.42880
G1 X95.336 Y100.712 E2.44362
G1 X95.250 Y100.050 E2.46214
G1 X95.237 Y99.756 E2.47033
G1 X95.257 Y98.943 E2.49290

G1 F662.657
G1 X95.310 Y98.449 E2.50848
G1 X95.476 Y97.536 E2.53753
G1 X95.553 Y97.226 E2.54754
G1 X95.665 Y96.898 E2.55838
G1 X95.832 Y96.500 E2.57189
G1 X96.089 Y95.957 E2.59072
G1 X96.313 Y95.562 E2.60492
G1 X96.536 Y95.233 E2.61740
G1 X96.865 Y94.839 E2.63346
G1 X97.300 Y94.402 E2.65276
G1 X97.663 Y94.082 E2.66792
G1 X98.053 Y93.810 E2.68279
G1 X98.519 Y93.554 E2.69945
G1 X99.000 Y93.344 E2.71589
G1 X99.362 Y93.228 E2.72779
G1 X99.891 Y93.105 E2.74480
G1 X100.282 Y93.076 E2.75708
G1 X101.148 Y93.074 E2.78422
G1 X101.738 Y93.130 E2.80277
G1 X101.998 Y93.175 E2.81103

G1 F3600
G1 X102.180 Y93.218 E2.81623

G1 F662.657
G1 X102.486 Y93.314 E2.82624
G1 X102.996 Y93.524 E2.84352
G1 X103.389 Y93.740 E2.85757
G1 X103.693 Y93.965 E2.86941
G1 X103.975 Y94.240 E2.88175
G1 X104.369 Y94.725 E2.90133
G1 X104.627 Y95.099 E2.91554
G1 X104.772 Y95.369 E2.92514
G1 X104.941 Y95.788 E2.93929
G1 X105.019 Y96.120 E2.94998
G1 X105.085 Y96.548 E2.96354
G1 X105.112 Y96.999 E2.97768
G1 X105.071 Y97.786 E3.00234
G1 X105.019 Y98.212 E3.01580
G1 X104.910 Y98.660 E3.03025
G1 X104.759 Y99.161 E3.04661
G1 X104.573 Y99.602 E3.06160
G1 X104.244 Y100.137 E3.08127
G1 X104.063 Y100.335 E3.08967
G1 X103.750 Y100.614 E3.10281
G1 X103.430 Y100.839 E3.11506
G1 X103.190 Y100.964 E3.12354
G1 X102.744 Y101.140 E3.13853
G1 X102.343 Y101.255 E3.15161
G1 X102.012 Y101.323 E3.16219
G1 X101.833 Y101.336 E3.16781
G1 X101.440 Y101.298 E3.18018

G1 F3600
G1 X101.148 Y101.243 E3.18844
G1 X100.925 Y101.176 E3.19488
G1 X100.536 Y100.974 E3.20706
G1 X100.232 Y100.726 E3.21798
G1 X100.116 Y100.569 E3.22339
G1 X100.031 Y100.388 E3.22894
G1 X99.977 Y100.134 E3.23615
G1 X99.988 Y100.008 E3.23968
G1 X100.745 Y99.868 E3.26105
G1 X101.292 Y99.681 E3.27710
G1 X101.435 Y99.606 E3.28160

G1 F662.657
G1 X101.734 Y99.413 E3.29273
G1 X102.648 Y98.634 E3.33035
G1 X102.646 Y98.597 E3.33151
G1 X102.683 Y98.582 E3.33276
G1 X102.739 Y98.349 E3.34027
G1 X102.751 Y97.931 E3.35338
G1 X102.870 Y97.445 E3.36905
G1 X102.901 Y97.071 E3.38080
G1 X102.827 Y96.814 E3.38918
G1 X102.681 Y96.677 E3.39544
G1 X102.584 Y96.301 E3.40759
G1 X102.635 Y96.280 E3.40931
G1 X102.428 Y96.048 E3.41902
G1 X102.166 Y95.599 E3.43531
G1 X102.119 Y95.706 E3.43899
G1 X101.887 Y95.710 E3.44625
G1 X101.410 Y95.334 E3.46527
G1 X101.279 Y95.109 E3.47343
G1 X100.874 Y95.010 E3.48648
G1 X100.777 Y95.189 E3.49284
G1 X100.205 Y95.090 E3.51101
G1 X99.705 Y95.140 E3.52675
G1 X99.466 Y95.211 E3.53455
G1 X98.953 Y95.458 E3.55238
G1 X98.763 Y95.625 E3.56031
G1 X98.713 Y95.589 E3.56225
G1 X98.403 Y95.917 E3.57640
G1 X98.259 Y96.021 E3.58195
G1 X98.095 Y96.196 E3.58944
G1 X97.959 Y96.414 E3.59750
G1 X97.794 Y96.800 E3.61064
G1 X97.563 Y97.174 E3.62442
G1 X97.415 Y97.499 E3.63559
G1 X97.304 Y97.860 E3.64741
G1 X97.197 Y98.536 E3.66885
G1 X97.169 Y98.974 E3.68259
G1 X97.193 Y99.385 E3.69549
G1 X97.259 Y99.855 E3.71035
G1 X97.257 Y100.316 E3.72480
G1 X97.338 Y100.715 E3.73754
G1 X97.514 Y101.378 E3.75901
G1 X97.933 Y102.453 E3.79513
G1 X98.440 Y103.344 E3.82723
G1 X98.600 Y103.681 E3.83892
G1 X98.741 Y103.895 E3.84695
G1 X98.722 Y104.050 E3.85186
G1 X98.846 Y105.161 E3.88686
M106 S255
G1 Z2.200 F7800.000
G1 E1.88686 F2400.00000
G92 E0
G1 X102.151 Y99.937 F7800.000
G1 E2.00000 F2400.00000
G1 F736.626
G1 X102.541 Y99.139 E2.02783
G1 X102.611 Y98.844 E2.03730
G1 X102.579 Y98.753 E2.04032
G1 X102.642 Y98.638 E2.04443
G1 X102.593 Y98.432 E2.05105
G1 X102.730 Y98.243 E2.05835
G1 X102.750 Y98.173 E2.06063
G1 X102.839 Y98.036 E2.06575
G1 X102.899 Y97.860 E2.07157
G1 X102.908 Y97.666 E2.07766
G1 X102.807 Y97.257 E2.09083
G1 X102.963 Y97.083 E2.09816
G1 X102.863 Y96.764 E2.10862
G1 X102.963 Y96.608 E2.11445
G1 X102.996 Y96.398 E2.12108
G1 X102.924 Y96.159 E2.12890
G1 X102.517 Y95.351 E2.15726
G1 X102.465 Y95.436 E2.16038
G1 X102.158 Y95.296 E2.17094
G1 X101.810 Y95.473 E2.18318
G1 X101.739 Y95.420 E2.18595
G1 X101.418 Y95.362 E2.19616
G1 X100.646 Y95.125 E2.22145
G1 X99.823 Y95.217 E2.24739
G1 X99.099 Y95.403 E2.27080
G1 X98.902 Y95.428 E2.27702
G1 X98.709 Y95.563 E2.28439
G1 X98.597 Y95.727 E2.29061
G1 X98.067 Y96.232 E2.31355
G1 X97.718 Y96.614 E2.32974
G1 X97.465 Y97.076 E2.34625
G1 X97.257 Y97.652 E2.36540
G1 X97.156 Y98.391 E2.38877
G1 X97.114 Y99.028 E2.40876
G1 X97.174 Y100.242 E2.44684
G1 X97.515 Y101.448 E2.48609
G1 X97.852 Y102.257 E2.51353
G1 X98.181 Y102.895 E2.53599
G1 X98.320 Y103.326 E2.55017
G1 X98.460 Y103.645 E2.56108
G1 X98.706 Y103.832 E2.57074
G1 X98.924 Y103.849 E2.57761
G1 X99.306 Y103.809 E2.58962
M106 S255

G1 F3600
G1 X99.333 Y103.811 E2.59037
M106 S255

G1 F736.626
G1 X99.662 Y103.854 E2.60076
G1 X99.977 Y103.957 E2.61115
G1 X100.198 Y104.071 E2.61893
G1 X100.403 Y104.240 E2.62727
G1 X100.570 Y104.496 E2.63681
G1 X100.640 Y104.741 E2.64481
G1 X100.664 Y104.967 E2.65191
G1 X100.644 Y105.384 E2.66498
G1 X100.604 Y105.571 E2.67098
G1 X100.531 Y105.787 E2.67812
G1 X100.273 Y106.359 E2.69776
G1 X100.197 Y106.484 E2.70236
G1 X100.038 Y106.641 E2.70935
G1 X99.902 Y106.709 E2.71413
G1 X99.673 Y106.748 E2.72139
G1 X99.541 Y106.742 E2.72554
G1 X99.412 Y106.713 E2.72967
G1 X98.991 Y106.542 E2.74390
G1 X98.746 Y106.620 E2.75195
G1 X98.559 Y106.897 E2.76243
G1 X98.417 Y106.809 E2.76765
G1 X98.304 Y106.705 E2.77247
G1 X98.153 Y106.506 E2.78031
G1 X97.885 Y106.068 E2.79637
G1 X97.709 Y105.830 E2.80564
G1 X97.187 Y105.341 E2.82805
G1 X97.050 Y105.183 E2.83459
G1 X96.886 Y104.916 E2.84441
G1 X96.685 Y104.426 E2.86100
G1 X96.361 Y104.025 E2.87716
G1 X95.925 Y103.304 E2.90353
G1 X95.766 Y102.986 E2.91465
G1 X95.457 Y102.187 E2.94147
G1 X95.141 Y101.116 E2.97645
G1 X95.041 Y100.416 E2.99858
G1 X94.980 Y100.111 E3.00833
G1 X94.955 Y99.594 E3.02455
G1 X95.011 Y98.729 E3.05168
G1 X95.059 Y98.291 E3.06549
G1 X95.186 Y97.690 E3.08473
G1 X95.322 Y97.173 E3.10145
G1 X95.436 Y96.875 E3.11146
G1 X95.867 Y95.903 E3.14475
G1 X96.067 Y95.533 E3.15792
G1 X96.207 Y95.323 E3.16582
G1 X96.947 Y94.448 E3.20170
G1 X97.400 Y94.060 E3.22039
G1 X98.029 Y93.615 E3.24450
G1 X98.281 Y93.489 E3.25333
G1 X98.933 Y93.225 E3.27537
G1 X99.440 Y93.067 E3.29199
G1 X100.183 Y92.961 E3.31549
G1 X100.638 Y92.929 E3.32980
G1 X101.196 Y92.974 E3.34732
G1 X101.517 Y92.951 E3.35740
G1 X101.794 Y92.958 E3.36607
G1 X102.114 Y93.015 E3.37626
G1 X102.651 Y93.192 E3.39395
G1 X103.061 Y93.365 E3.40788
G1 X103.676 Y93.746 E3.43054
G1 X103.796 Y93.850 E3.43551
G1 X104.010 Y94.116 E3.44621
G1 X104.275 Y94.359 E3.45746
G1 X104.421 Y94.534 E3.46460
G1 X104.696 Y94.954 E3.48033
G1 X104.870 Y95.296 E3.49234
G1 X104.982 Y95.610 E3.50277
G1 X105.129 Y96.278 E3.52421
G1 X105.162 Y96.575 E3.53357
G1 X105.157 Y97.082 E3.54945
G1 X105.119 Y97.460 E3.56134
G1 X105.092 Y98.058 E3.58009
G1 X104.942 Y98.836 E3.60489
G1 X104.684 Y99.602 E3.63019
G1 X104.425 Y100.071 E3.64697
G1 X104.139 Y100.411 E3.66089
G1 X103.806 Y100.718 E3.67507
G1 X103.605 Y100.875 E3.68305
G1 X103.377 Y101.013 E3.69139
G1 X102.873 Y101.244 E3.70875
G1 X102.396 Y101.416 E3.72464
G1 X102.053 Y101.495 E3.73567
G1 X101.760 Y101.525 E3.74490
G1 X101.322 Y101.530 E3.75859
G1 X101.090 Y101.510 E3.76591
G1 X100.723 Y101.412 E3.77780
G1 X100.246 Y101.223 E3.79384
G1 X99.897 Y100.987 E3.80705
G1 X99.578 Y100.669 E3.82116
M106 S255

G1 F3600
G1 X99.436 Y100.480 E3.82772
G1 X99.216 Y100.114 E3.83957
G1 X99.056 Y99.744 E3.85079
G1 X98.998 Y99.405 E3.86034
G1 X99.006 Y99.127 E3.86807
G1 X99.069 Y98.785 E3.87771
G1 X99.240 Y98.858 E3.88287
G1 X99.375 Y98.958 E3.88756
G1 X99.732 Y99.283 E3.90097
G1 X99.929 Y99.377 E3.90703
G1 X100.158 Y99.439 E3.91361
M106 S255

G1 F736.626
G1 X100.720 Y99.554 E3.93159
G1 X100.906 Y99.660 E3.93828
G1 X101.094 Y99.707 E3.94436
G1 X101.175 Y99.679 E3.94705
G1 X101.317 Y99.755 E3.95208
G1 X101.702 Y99.742 E3.96415
G1 X101.952 Y99.383 E3.97786
G1 X102.126 Y99.867 E3.99396
G1 Z2.700 F7800.000
G1 X100.636 Y99.879 F7800.000
G1 F773.456
G1 X101.039 Y99.456 E4.01227
G1 X101.753 Y99.254 E4.03551
G1 X102.082 Y99.084 E4.04711
G1 X102.274 Y98.932 E4.05478
G1 X102.380 Y98.812 E4.05978
G1 X102.489 Y98.664 E4.06554
G1 X102.700 Y98.293 E4.07892
G1 X102.844 Y97.938 E4.09091
G1 X102.894 Y97.553 E4.10307
G1 X102.878 Y97.071 E4.11817
G1 X102.782 Y96.587 E4.13362
G1 X102.693 Y96.333 E4.14205
G1 X102.343 Y95.614 E4.16710
G1 X102.081 Y95.400 E4.17768
G1 X101.600 Y95.131 E4.19493
G1 X101.299 Y95.018 E4.20501
G1 X100.625 Y94.917 E4.22634
G1 X100.161 Y94.925 E4.24088
G1 X99.899 Y94.960 E4.24915
G1 X99.317 Y95.141 E4.26824
G1 X98.941 Y95.381 E4.28219
G1 X98.759 Y95.392 E4.28791
G1 X98.492 Y95.494 E4.29688
G1 X98.249 Y95.678 E4.30640
G1 X98.064 Y95.963 E4.31705
G1 X97.958 Y96.038 E4.32111
G1 X97.371 Y96.584 E4.34623
G1 X97.189 Y96.839 E4.35602
G1 X97.255 Y96.937 E4.35972
G1 X97.038 Y97.229 E4.37111
G1 X96.957 Y97.316 E4.37483
G1 X96.602 Y97.588 E4.38883
G1 X96.781 Y97.847 E4.39867
G1 X96.536 Y98.140 E4.41064
G1 X96.745 Y98.382 E4.42065
G1 X96.672 Y99.031 E4.44110
G1 X96.671 Y99.275 E4.44877
G1 X96.768 Y99.969 E4.47070
G1 X96.866 Y100.408 E4.48477
G1 X97.132 Y101.076 E4.50730
G1 X97.209 Y101.334 E4.51573
G1 X97.282 Y101.490 E4.52113
G1 X97.415 Y102.044 E4.53896
G1 X97.509 Y102.235 E4.54564
G1 X97.562 Y102.280 E4.54782
G1 X97.624 Y102.602 E4.55806
G1 X97.705 Y102.765 E4.56376
G1 X97.700 Y103.063 E4.57312
G1 X97.807 Y103.537 E4.58834
G1 X98.350 Y103.488 E4.60541
G1 X98.413 Y102.917 E4.62338
G1 X98.791 Y103.083 E4.63631
M106 S255

G1 F3600
G1 X99.193 Y103.284 E4.64879
M106 S255

G1 F773.456
G1 X99.534 Y103.474 E4.66102
G1 X99.838 Y103.703 E4.67294
G1 X100.118 Y103.958 E4.68480
G1 X100.308 Y104.162 E4.69354
G1 X100.395 Y104.305 E4.69877
G1 X100.491 Y104.530 E4.70642
G1 X100.547 Y104.889 E4.71781
G1 X100.547 Y105.034 E4.72236
G1 X100.512 Y105.270 E4.72982
G1 X100.405 Y105.575 E4.73994
G1 X100.274 Y105.801 E4.74814
G1 X100.113 Y106.020 E4.75665
G1 X99.846 Y106.298 E4.76870
G1 X99.658 Y106.415 E4.77566
G1 X99.388 Y106.502 E4.78452
G1 X99.257 Y106.498 E4.78862
G1 X98.913 Y106.387 E4.79997
G1 X98.669 Y106.351 E4.80767
G1 X98.473 Y106.411 E4.81411
G1 X98.207 Y106.625 E4.82479
G1 X98.090 Y106.510 E4.82991
G1 X97.734 Y105.928 E4.85126
G1 X97.056 Y105.211 E4.88217
G1 X96.911 Y105.015 E4.88982
G1 X96.652 Y104.603 E4.90505
G1 X96.323 Y104.187 E4.92164
G1 X96.106 Y103.852 E4.93415
G1 X95.843 Y103.374 E4.95122
G1 X95.693 Y103.053 E4.96234
G1 X95.381 Y102.288 E4.98820
G1 X95.218 Y101.835 E5.00328
G1 X95.164 Y101.627 E5.01002
G1 X95.032 Y100.951 E5.03156
G1 X94.986 Y100.593 E5.04289
G1 X94.878 Y100.199 E5.05565
G1 X94.838 Y99.961 E5.06322
G1 X94.864 Y99.184 E5.08757
G1 X94.952 Y98.358 E5.11358
G1 X95.054 Y97.829 E5.13044
G1 X95.134 Y97.577 E5.13875
G1 X95.234 Y97.140 E5.15277
G1 X95.446 Y96.656 E5.16933
G1 X95.709 Y95.972 E5.19227
G1 X95.882 Y95.645 E5.20383
G1 X95.978 Y95.489 E5.20958
G1 X96.208 Y95.261 E5.21973
G1 X96.309 Y95.040 E5.22732
G1 X96.478 Y94.874 E5.23474
G1 X96.699 Y94.609 E5.24556
G1 X96.973 Y94.383 E5.25669
G1 X97.272 Y94.077 E5.27008
G1 X97.329 Y94.039 E5.27222
G1 X97.732 Y93.917 E5.28541
G1 X97.809 Y93.813 E5.28946
G1 X97.953 Y93.874 E5.29438
G1 X98.193 Y93.519 E5.30780
G1 X98.280 Y93.445 E5.31137
G1 X98.519 Y93.339 E5.31955
G1 X99.319 Y93.080 E5.34591
G1 X100.317 Y92.922 E5.37752
G1 X100.664 Y92.954 E5.38844
G1 X101.114 Y92.954 E5.40252
G1 X101.467 Y92.902 E5.41371
G1 X101.675 Y92.898 E5.42021
G1 X102.081 Y92.958 E5.43307
G1 X102.613 Y93.135 E5.45063
G1 X102.873 Y93.257 E5.45962
G1 X103.278 Y93.532 E5.47497
G1 X103.664 Y93.740 E5.48869
G1 X103.780 Y93.823 E5.49316
G1 X104.211 Y94.257 E5.51231
G1 X104.347 Y94.434 E5.51931
G1 X104.615 Y94.865 E5.53520
G1 X104.764 Y95.148 E5.54521
G1 X104.897 Y95.487 E5.55660
G1 X104.965 Y95.886 E5.56927
G1 X105.068 Y96.316 E5.58313
G1 X105.092 Y96.521 E5.58961
G1 X105.085 Y96.935 E5.60256
G1 X104.991 Y98.093 E5.63894
G1 X104.855 Y98.829 E5.66237
G1 X104.630 Y99.581 E5.68697
G1 X104.466 Y99.927 E5.69895
G1 X104.232 Y100.258 E5.71164
G1 X104.009 Y100.517 E5.72234
G1 X103.782 Y100.714 E5.73175
G1 X103.417 Y100.979 E5.74587
G1 X103.152 Y101.138 E5.75557
G1 X102.634 Y101.382 E5.77350
G1 X102.121 Y101.540 E5.79029
G1 X101.722 Y101.608 E5.80297
G1 X101.335 Y101.635 E5.81513
G1 X100.982 Y101.610 E5.82622
G1 X100.530 Y101.495 E5.84080
G1 X100.192 Y101.358 E5.85224
G1 X99.917 Y101.221 E5.86186
G1 X99.750 Y101.110 E5.86812
G1 X99.370 Y100.803 E5.88344
G1 X99.068 Y100.461 E5.89770
G1 X98.788 Y100.045 E5.91342
G1 X98.665 Y99.796 E5.92211
G1 X98.553 Y99.434 E5.93398
G1 X98.487 Y99.032 E5.94673
M106 S255

G1 F3600
G1 X98.470 Y98.812 E5.95288
G1 X98.480 Y98.534 E5.96061
G1 X98.599 Y98.041 E5.97468
G1 X98.757 Y97.734 E5.98427
G1 X98.884 Y97.579 E5.98985
G1 X99.039 Y97.447 E5.99550
G1 X99.148 Y97.385 E5.99897
G1 X99.258 Y97.357 E6.00214
G1 X99.393 Y97.372 E6.00592
G1 X99.484 Y97.453 E6.00932
G1 X99.521 Y97.525 E6.01153
G1 X99.720 Y98.562 E6.04087
M106 S255

G1 F773.456
G1 X99.793 Y98.918 E6.05225
G1 X99.783 Y99.162 E6.05992
G1 X99.949 Y99.405 E6.06911
G1 X100.178 Y99.563 E6.07784
G1 X100.318 Y99.712 E6.08422
G1 X100.569 Y99.844 E6.09312
G1 Z3.200 F7800.000
G1 E4.09312 F2400.00000
G92 E0
G1 X96.871 Y102.107 F7800.000
G1 E2.00000 F2400.00000
G1 F600
G1 X96.414 Y102.427 E2.01747
G1 X96.042 Y102.016 E2.03484
G1 X95.936 Y101.756 E2.04364
G1 X96.180 Y101.529 E2.05406
G1 X96.436 Y101.508 E2.06209
G1 X96.667 Y101.656 E2.07071
G1 X96.840 Y102.039 E2.08385
G1 E0.08385 F2400.00000
G92 E0
G1 X99.733 Y98.018 F7800.000
G1 E2.00000 F2400.00000
G1 F819.941
G1 X99.765 Y98.266 E2.00781
G1 X99.900 Y98.446 E2.01487
G1 X99.956 Y98.470 E2.01676
G1 X100.319 Y98.892 E2.03418
M106 S255

G1 F3600
G1 X100.588 Y99.087 E2.04342
M106 S255

G1 F819.941
G1 X100.748 Y99.181 E2.04924
G1 X101.002 Y99.253 E2.05750
G1 X101.282 Y99.279 E2.06630
G1 X101.644 Y99.260 E2.07765
G1 X102.011 Y99.185 E2.08940
G1 X102.282 Y99.053 E2.09882
G1 X102.554 Y98.821 E2.11003
G1 X102.749 Y98.575 E2.11987
G1 X102.909 Y98.252 E2.13114
G1 X103.024 Y97.816 E2.14527
G1 X103.064 Y97.396 E2.15848
G1 X103.052 Y97.158 E2.16593
G1 X103.004 Y96.888 E2.17453
G1 X102.911 Y96.617 E2.18349
G1 X102.636 Y96.061 E2.20292
G1 X102.412 Y95.692 E2.21643
G1 X102.268 Y95.553 E2.22271
G1 X101.876 Y95.313 E2.23710
G1 X101.611 Y95.194 E2.24621
G1 X101.324 Y95.103 E2.25563
G1 X100.994 Y95.055 E2.26605
G1 X100.512 Y95.042 E2.28118
G1 X100.189 Y95.061 E2.29129
G1 X99.323 Y95.267 E2.31918
G1 X98.735 Y95.528 E2.33931
G1 X98.485 Y95.662 E2.34820
G1 X98.106 Y95.964 E2.36339
G1 X97.503 Y96.658 E2.39216
G1 X97.213 Y97.119 E2.40923
G1 X96.983 Y97.571 E2.42512
G1 X96.776 Y98.345 E2.45019
G1 X96.748 Y98.721 E2.46199
G1 X96.766 Y99.426 E2.48409
G1 X96.811 Y99.784 E2.49538
G1 X96.974 Y100.469 E2.51743
G1 X97.145 Y100.844 E2.53034
G1 X97.552 Y101.506 E2.55467
G1 X97.853 Y101.877 E2.56963
G1 X98.092 Y102.121 E2.58034
M106 S255

G1 F3600
G1 X98.367 Y102.402 E2.59125
M106 S255

G1 F819.941
G1 X98.484 Y102.521 E2.59648
G1 X99.448 Y103.304 E2.63538
G1 X99.664 Y103.500 E2.64449
G1 X99.922 Y103.790 E2.65666
G1 X100.214 Y104.269 E2.67421
G1 X100.261 Y104.404 E2.67870
G1 X100.302 Y104.626 E2.68575
G1 X100.304 Y104.887 E2.69396
G1 X100.274 Y105.046 E2.69900
G1 X100.156 Y105.326 E2.70853
G1 X99.939 Y105.656 E2.72089
G1 X99.563 Y106.016 E2.73721
G1 X99.327 Y106.173 E2.74606
G1 X99.206 Y106.206 E2.75000
G1 X98.993 Y106.210 E2.75665
G1 X98.794 Y106.155 E2.76314
G1 X98.385 Y105.966 E2.77723
G1 X98.244 Y105.934 E2.78176
G1 X98.026 Y105.948 E2.78861
G1 X97.632 Y105.664 E2.80383
G1 X97.380 Y105.434 E2.81451
G1 X96.932 Y104.961 E2.83490
G1 X96.331 Y104.179 E2.86579
G1 X95.999 Y103.639 E2.88564
G1 X95.746 Y103.128 E2.90350
G1 X95.396 Y102.329 E2.93080
G1 X95.226 Y101.879 E2.94587
G1 X95.131 Y101.544 E2.95679
G1 X94.904 Y100.202 E2.99940
G1 X94.871 Y99.873 E3.00976
G1 X94.886 Y99.459 E3.02272
G1 X94.928 Y99.236 E3.02983
G1 X95.015 Y99.075 E3.03556
G1 X94.953 Y98.917 E3.04089
G1 X94.936 Y98.775 E3.04535
G1 X94.955 Y98.460 E3.05525
G1 X95.045 Y97.919 E3.07240
G1 X95.284 Y97.040 E3.10093
G1 X95.397 Y96.737 E3.11106
G1 X95.665 Y96.123 E3.13204
G1 X95.882 Y95.711 E3.14662
G1 X96.213 Y95.170 E3.16648
G1 X96.378 Y94.967 E3.17468
G1 X96.720 Y94.620 E3.18993
G1 X97.308 Y94.143 E3.21363
G1 X97.575 Y94.014 E3.22295
G1 X97.766 Y93.887 E3.23012
G1 X98.086 Y93.721 E3.24140
G1 X98.301 Y93.574 E3.24956
G1 X98.629 Y93.426 E3.26083
G1 X99.160 Y93.265 E3.27821
G1 X99.665 Y93.162 E3.29433
G1 X100.422 Y93.042 E3.31833
G1 X100.930 Y93.009 E3.33429
G1 X101.599 Y93.018 E3.35524
G1 X101.987 Y93.066 E3.36748
G1 X102.565 Y93.232 E3.38632
G1 X102.849 Y93.344 E3.39586
G1 X103.105 Y93.492 E3.40513
G1 X103.535 Y93.830 E3.42224
G1 X103.973 Y94.251 E3.44128
G1 X104.141 Y94.470 E3.44992
G1 X104.345 Y94.790 E3.46182
G1 X104.536 Y95.184 E3.47553
G1 X104.653 Y95.548 E3.48751
G1 X104.763 Y96.092 E3.50487
G1 X104.801 Y96.471 E3.51681
G1 X104.806 Y96.929 E3.53114
G1 X104.765 Y97.687 E3.55491
G1 X104.703 Y98.312 E3.57457
G1 X104.620 Y98.802 E3.59013
G1 X104.516 Y99.165 E3.60197
G1 X104.355 Y99.619 E3.61704
G1 X104.258 Y99.822 E3.62409
G1 X104.113 Y100.056 E3.63272
G1 X103.849 Y100.406 E3.64644
G1 X103.675 Y100.578 E3.65410
G1 X103.306 Y100.887 E3.66919
G1 X103.062 Y101.053 E3.67843
G1 X102.653 Y101.265 E3.69282
G1 X102.340 Y101.384 E3.70333
G1 X101.973 Y101.488 E3.71529
G1 X101.577 Y101.544 E3.72778
G1 X101.061 Y101.569 E3.74396
G1 X100.767 Y101.543 E3.75321
G1 X100.285 Y101.442 E3.76865
G1 X100.000 Y101.326 E3.77826
G1 X99.707 Y101.171 E3.78866
G1 X99.379 Y100.957 E3.80092
G1 X99.119 Y100.750 E3.81133
G1 X98.925 Y100.558 E3.81986
G1 X98.706 Y100.279 E3.83098
G1 X98.568 Y100.069 E3.83885
G1 X98.427 Y99.792 E3.84859
G1 X98.302 Y99.433 E3.86048
G1 X98.249 Y99.189 E3.86831
G1 X98.190 Y98.578 E3.88754
G1 X98.202 Y98.320 E3.89563
G1 X98.259 Y97.985 E3.90625
G1 X98.353 Y97.655 E3.91702
G1 X98.469 Y97.391 E3.92603
G1 X98.754 Y97.003 E3.94109
M106 S255

G1 F3600
G1 X99.011 Y96.742 E3.95127
G1 X99.139 Y96.646 E3.95573
G1 X99.299 Y96.561 E3.96074
G1 X99.558 Y96.487 E3.96823
G1 X100.132 Y96.438 E3.98423
G1 X100.400 Y96.454 E3.99170
G1 X100.643 Y96.512 E3.99864
G1 X101.080 Y96.701 E4.01185
G1 X100.572 Y96.870 E4.02671
G1 X100.400 Y96.963 E4.03213
G1 X100.263 Y97.082 E4.03717
G1 X100.122 Y97.283 E4.04400
G1 X100.046 Y97.443 E4.04891
M106 S255

G1 F819.941
G1 X99.764 Y97.950 E4.06709
G1 Z3.700 F7800.000
G1 X99.752 Y97.558 F7800.000
G1 F815.317
G1 X99.939 Y98.019 E4.08268
G1 X100.199 Y98.554 E4.10130
G1 X100.516 Y98.939 E4.11693
G1 X100.743 Y99.127 E4.12615
G1 X100.996 Y99.259 E4.13509
G1 X101.353 Y99.377 E4.14685
G1 X101.678 Y99.428 E4.15715
G1 X102.042 Y99.407 E4.16858
G1 X102.493 Y99.298 E4.18311
G1 X102.907 Y99.293 E4.19607
G1 X103.244 Y99.152 E4.20750
G1 X103.434 Y98.971 E4.21572
G1 X103.525 Y98.796 E4.22190
G1 X103.590 Y98.532 E4.23042
G1 X103.606 Y98.201 E4.24078
G1 X103.654 Y97.887 E4.25074
G1 X103.667 Y97.642 E4.25841
G1 X103.633 Y97.387 E4.26646
G1 X103.445 Y96.656 E4.29010
G1 X103.332 Y96.389 E4.29919
G1 X103.055 Y95.931 E4.31597
G1 X102.800 Y95.592 E4.32922
G1 X102.604 Y95.389 E4.33807
G1 X102.345 Y95.212 E4.34790
G1 X101.691 Y94.923 E4.37029
G1 X101.320 Y94.810 E4.38244
G1 X100.990 Y94.760 E4.39288
G1 X100.664 Y94.765 E4.40310
G1 X100.502 Y94.794 E4.40825
G1 X100.319 Y94.861 E4.41436
G1 X99.962 Y94.863 E4.42552
G1 X99.787 Y94.890 E4.43108
G1 X99.334 Y95.002 E4.44569
G1 X98.866 Y95.165 E4.46121
G1 X98.397 Y95.379 E4.47735
G1 X98.088 Y95.574 E4.48878
G1 X97.827 Y95.786 E4.49932
G1 X97.560 Y96.072 E4.51157
G1 X97.198 Y96.546 E4.53025
G1 X96.937 Y96.978 E4.54605
G1 X96.755 Y97.392 E4.56021
G1 X96.646 Y97.763 E4.57233
G1 X96.572 Y98.437 E4.59354
G1 X96.575 Y98.796 E4.60479
G1 X96.647 Y99.486 E4.62652
G1 X96.718 Y99.854 E4.63825
G1 X96.944 Y100.538 E4.66083
G1 X97.414 Y101.321 E4.68940
G1 X97.589 Y101.547 E4.69838
G1 X98.049 Y102.066 E4.72007
G1 X99.063 Y103.083 E4.76503
G1 X99.462 Y103.532 E4.78386
G1 X99.703 Y103.867 E4.79677
G1 X99.808 Y104.065 E4.80379
G1 X99.896 Y104.311 E4.81199
G1 X99.923 Y104.454 E4.81654
G1 X99.906 Y104.731 E4.82522
G1 X99.845 Y104.935 E4.83190
G1 X99.690 Y105.229 E4.84231
G1 X99.558 Y105.384 E4.84869
G1 X99.061 Y105.742 E4.86787
G1 X98.948 Y105.797 E4.87180
G1 X98.723 Y105.843 E4.87900
G1 X98.516 Y105.814 E4.88555
G1 X98.345 Y105.749 E4.89128
G1 X97.840 Y105.479 E4.90920
G1 X97.686 Y105.377 E4.91498
G1 X97.088 Y104.889 E4.93917
G1 X96.916 Y104.713 E4.94687
G1 X96.726 Y104.477 E4.95635
G1 X96.241 Y103.795 E4.98255
G1 X95.808 Y102.998 E5.01095
G1 X95.618 Y102.587 E5.02515
G1 X95.353 Y101.903 E5.04812
G1 X95.229 Y101.405 E5.06419
G1 X95.169 Y101.073 E5.07475
G1 X95.147 Y100.505 E5.09254
G1 X95.066 Y99.915 E5.11119
G1 X95.052 Y99.611 E5.12071
G1 X95.121 Y98.791 E5.14647
G1 X95.223 Y98.172 E5.16614
G1 X95.537 Y96.955 E5.20550
G1 X95.602 Y96.761 E5.21188
G1 X95.981 Y95.967 E5.23946
G1 X96.122 Y95.732 E5.24803
G1 X96.588 Y95.146 E5.27146
G1 X96.790 Y94.932 E5.28068
G1 X97.060 Y94.694 E5.29196
G1 X97.431 Y94.432 E5.30618
G1 X97.697 Y94.280 E5.31578
G1 X98.522 Y93.881 E5.34447
G1 X98.993 Y93.696 E5.36032
G1 X99.282 Y93.618 E5.36971
G1 X99.749 Y93.547 E5.38449
G1 X100.546 Y93.369 E5.41006
G1 X100.965 Y93.326 E5.42327
G1 X101.398 Y93.320 E5.43680
G1 X101.779 Y93.358 E5.44881
G1 X102.034 Y93.409 E5.45695
G1 X102.382 Y93.527 E5.46844
G1 X102.784 Y93.725 E5.48249
G1 X103.152 Y93.989 E5.49665
G1 X103.454 Y94.289 E5.51000
G1 X103.610 Y94.483 E5.51781
G1 X103.777 Y94.753 E5.52774
G1 X103.998 Y95.286 E5.54581
G1 X104.112 Y95.654 E5.55786
G1 X104.151 Y95.941 E5.56693
G1 X104.199 Y96.570 E5.58670
G1 X104.200 Y97.332 E5.61054
G1 X104.164 Y98.248 E5.63925
G1 X104.124 Y98.517 E5.64778
G1 X103.853 Y99.638 E5.68389
G1 X103.700 Y99.962 E5.69511
G1 X103.558 Y100.175 E5.70314
G1 X103.347 Y100.420 E5.71323
G1 X103.082 Y100.659 E5.72442
G1 X102.718 Y100.917 E5.73841
G1 X102.502 Y101.043 E5.74624
G1 X102.187 Y101.168 E5.75685
G1 X101.686 Y101.315 E5.77319
G1 X101.397 Y101.353 E5.78230
G1 X100.683 Y101.366 E5.80468
G1 X100.381 Y101.328 E5.81420
G1 X100.051 Y101.249 E5.82485
G1 X99.751 Y101.133 E5.83490
G1 X99.207 Y100.837 E5.85432
G1 X98.816 Y100.508 E5.87030
G1 X98.629 Y100.279 E5.87957
G1 X98.300 Y99.743 E5.89927
G1 X98.175 Y99.464 E5.90882
G1 X97.992 Y98.659 E5.93470
G1 X97.974 Y98.264 E5.94706
G1 X97.994 Y98.020 E5.95472
G1 X98.121 Y97.437 E5.97341
G1 X98.250 Y97.096 E5.98484
G1 X98.500 Y96.711 E5.99921
G1 X98.736 Y96.443 E6.01039
G1 X98.927 Y96.277 E6.01832
G1 X99.100 Y96.159 E6.02487
G1 X99.468 Y95.968 E6.03786
M106 S255

G1 F3600
G1 X99.666 Y95.866 E6.04405
G1 X99.872 Y95.794 E6.05010
G1 X100.052 Y95.760 E6.05519
G1 X100.706 Y95.694 E6.07345
G1 X101.008 Y95.696 E6.08185
G1 X101.645 Y95.886 E6.10031
G1 X101.916 Y95.998 E6.10845
G1 X102.027 Y96.063 E6.11202
M106 S255

G1 F815.317
G1 X102.134 Y96.126 E6.11593
G1 X102.239 Y96.226 E6.12045
G1 X102.428 Y96.503 E6.13094
G1 X102.634 Y96.888 E6.14462
G1 X102.685 Y97.059 E6.15022
G1 X102.677 Y97.211 E6.15499
G1 X102.596 Y97.450 E6.16289
G1 X102.484 Y97.939 E6.17860
G1 X102.434 Y98.090 E6.18359
G1 X102.398 Y98.111 E6.18490
M106 S255

G1 F3600
G1 X102.213 Y98.214 E6.19076
G1 X102.117 Y98.247 E6.19360
G1 X101.901 Y98.253 E6.19959
G1 X101.799 Y98.211 E6.20268
G1 X101.707 Y98.055 E6.20769
G1 X101.557 Y97.622 E6.22042
G1 X101.413 Y97.418 E6.22736
G1 X101.209 Y97.258 E6.23456
M106 S255

G1 F815.317
G1 X100.710 Y97.057 E6.25141
G1 X100.515 Y97.039 E6.25753
G1 X100.319 Y97.108 E6.26406
G1 X100.131 Y97.210 E6.27075
G1 X99.865 Y97.258 E6.27923
G1 X99.778 Y97.488 E6.28691
G1 Z4.200 F7800.000
G1 E4.28691 F2400.00000
G92 E0
G1 X95.809 Y99.160 F7800.000
G1 E2.00000 F2400.00000
G1 F600
G1 X96.135 Y99.903 E2.02540
G1 X96.676 Y100.865 E2.05997
G1 X97.357 Y101.705 E2.09383
G1 X98.629 Y103.061 E2.15205
G1 X99.031 Y103.556 E2.17202
G1 X99.176 Y103.795 E2.18078
G1 X99.236 Y103.965 E2.18640
G1 X99.275 Y104.177 E2.19316
G1 X99.284 Y104.349 E2.19854
G1 X99.255 Y104.601 E2.20650
G1 X99.213 Y104.699 E2.20985
G1 X99.036 Y104.942 E2.21926
G1 X98.909 Y105.052 E2.22453
G1 X98.770 Y105.134 E2.22958
G1 X98.522 Y105.200 E2.23761
G1 X98.400 Y105.213 E2.24144
G1 X98.202 Y105.200 E2.24766
G1 X97.915 Y105.120 E2.25699
G1 X97.473 Y104.863 E2.27298
G1 X97.049 Y104.499 E2.29050
G1 X96.452 Y103.706 E2.32159
G1 X96.327 Y103.513 E2.32878
G1 X96.203 Y103.264 E2.33750
G1 X95.877 Y102.446 E2.36508
G1 X95.738 Y101.992 E2.37992
G1 X95.569 Y101.230 E2.40436
G1 X95.558 Y101.051 E2.40998
G1 X95.592 Y100.012 E2.44255
G1 X95.670 Y99.711 E2.45229
G1 X95.692 Y99.526 E2.45811
G1 X95.786 Y99.232 E2.46779
G1 E0.46779 F2400.00000
G92 E0
G1 X100.874 Y96.737 F7800.000
G1 E2.00000 F2400.00000
G1 F650.718
G1 X100.697 Y96.855 E2.00667
G1 X100.449 Y97.209 E2.02019
G1 X100.118 Y97.630 E2.03696
G1 X100.014 Y98.101 E2.05208
G1 X99.871 Y98.340 E2.06080
G1 X99.800 Y98.526 E2.06703
G1 X99.796 Y98.720 E2.07312
G1 X99.851 Y98.901 E2.07903
G1 X100.012 Y99.151 E2.08834
G1 X100.175 Y99.335 E2.09603
G1 X100.614 Y99.684 E2.11361
G1 X100.884 Y99.810 E2.12294
G1 X101.439 Y100.010 E2.14139
G1 X101.866 Y100.189 E2.15589
G1 X102.521 Y100.327 E2.17685
G1 X102.006 Y100.634 E2.19562
G1 X101.479 Y100.867 E2.21365
G1 X101.184 Y100.964 E2.22337
G1 X100.885 Y101.012 E2.23287
G1 X100.510 Y101.022 E2.24462
G1 X100.036 Y100.966 E2.25955
G1 X99.795 Y100.901 E2.26736
G1 X99.454 Y100.771 E2.27879
G1 X99.193 Y100.625 E2.28817
G1 X98.991 Y100.479 E2.29596
G1 X98.661 Y100.156 E2.31043
G1 X98.292 Y99.641 E2.33027
G1 X98.138 Y99.307 E2.34179
G1 X98.023 Y98.914 E2.35461
G1 X97.969 Y98.637 E2.36343
G1 X97.933 Y98.085 E2.38078
G1 X98.033 Y97.345 E2.40415
G1 X98.159 Y97.000 E2.41566
G1 X98.289 Y96.720 E2.42531
G1 X98.425 Y96.487 E2.43376
G1 X98.681 Y96.131 E2.44749
G1 X98.811 Y95.982 E2.45372
G1 X98.922 Y95.875 E2.45850
G1 X99.343 Y95.563 E2.47492
G1 X99.622 Y95.403 E2.48501
G1 X99.993 Y95.279 E2.49724
G1 X100.465 Y95.183 E2.51232
G1 X100.669 Y95.172 E2.51874
G1 X101.211 Y95.205 E2.53572
G1 X101.508 Y95.261 E2.54519
G1 X101.736 Y95.327 E2.55264
G1 X102.211 Y95.528 E2.56880
G1 X102.373 Y95.629 E2.57477
G1 X102.620 Y95.823 E2.58461
G1 X102.975 Y96.204 E2.60090
G1 X103.242 Y96.623 E2.61646
G1 X103.394 Y97.008 E2.62942
G1 X103.430 Y97.204 E2.63566
G1 X103.447 Y97.455 E2.64353
G1 X103.403 Y97.783 E2.65390
G1 X103.284 Y98.101 E2.66451
G1 X103.084 Y98.284 E2.67304
M106 S255

G1 F3600
G1 X103.008 Y98.380 E2.67642
G1 X102.811 Y98.715 E2.68721
G1 X102.619 Y98.767 E2.69274
M106 S255

G1 F650.718
G1 X102.403 Y98.826 E2.69975
G1 X102.095 Y98.994 E2.71074
G1 X101.904 Y98.943 E2.71693
G1 X101.841 Y98.902 E2.71928
M106 S255

G1 F3600
G1 X101.390 Y98.610 E2.73421
G1 X100.956 Y98.582 E2.74628
G1 X101.061 Y98.063 E2.76099
G1 X101.146 Y98.008 E2.76382
M106 S255

G1 F650.718
G1 X101.251 Y97.939 E2.76774
G1 X101.392 Y97.663 E2.77744
G1 X101.391 Y97.470 E2.78350
G1 X101.329 Y97.208 E2.79194
G1 X101.319 Y97.036 E2.79732
G1 X101.178 Y96.785 E2.80636
G1 X100.948 Y96.749 E2.81364
G1 Z4.700 F7800.000
G1 E0.81364 F2400.00000
G92 E0
G1 X96.861 Y102.237 F7800.000
G1 E2.00000 F2400.00000
G1 F600
G1 X97.213 Y102.466 E2.01315
G1 X97.727 Y102.945 E2.03515
G1 X98.002 Y103.247 E2.04794
G1 X98.111 Y103.398 E2.05379
G1 X98.236 Y103.664 E2.06297
G1 X98.277 Y103.860 E2.06925
G1 X98.284 Y104.014 E2.07409
G1 X98.253 Y104.125 E2.07767
G1 X98.132 Y104.246 E2.08302
G1 X97.939 Y104.315 E2.08946
G1 X97.858 Y104.309 E2.09200
G1 X97.695 Y104.255 E2.09739
G1 X97.256 Y103.894 E2.11518
G1 X97.016 Y103.561 E2.12804
G1 X96.762 Y103.068 E2.14539
G1 X96.663 Y102.769 E2.15524
G1 X96.618 Y102.485 E2.16427
G1 X96.634 Y102.176 E2.17396
G1 X96.789 Y102.217 E2.17897
G1 E0.17897 F2400.00000
G92 E0
G1 X99.488 Y96.964 F7800.000
G1 E2.00000 F2400.00000
G1 F600
G1 X99.362 Y97.087 E2.00553
G1 X99.246 Y97.329 E2.01393
G1 X99.204 Y97.499 E2.01942
G1 X99.159 Y98.054 E2.03685
G1 X99.070 Y98.540 E2.05232
G1 X99.061 Y98.803 E2.06057
G1 X99.099 Y99.056 E2.06857
G1 X99.185 Y99.339 E2.07784
G1 X99.460 Y99.830 E2.09544
G1 X99.566 Y100.191 E2.10724
G1 X99.189 Y100.056 E2.11977
G1 X98.855 Y99.865 E2.13180
G1 X98.583 Y99.588 E2.14398
G1 X98.426 Y99.364 E2.15254
G1 X98.249 Y99.030 E2.16437
G1 X98.118 Y98.577 E2.17915
G1 X98.053 Y97.976 E2.19807
G1 X98.062 Y97.677 E2.20744
G1 X98.089 Y97.510 E2.21274
G1 X98.233 Y97.006 E2.22915
G1 X98.377 Y96.657 E2.24097
G1 X98.627 Y96.236 E2.25629
G1 X98.988 Y95.807 E2.27386
G1 X99.387 Y95.484 E2.28993
G1 X99.771 Y95.247 E2.30407
G1 X100.267 Y95.068 E2.32058
G1 X100.675 Y94.983 E2.33362
G1 X101.180 Y94.964 E2.34946
G1 X101.656 Y95.020 E2.36446
G1 X102.105 Y95.170 E2.37927
G1 X102.396 Y95.312 E2.38941
G1 X102.623 Y95.464 E2.39798
G1 X102.915 Y95.718 E2.41009
G1 X103.281 Y96.148 E2.42779
G1 X103.448 Y96.434 E2.43816
G1 X103.572 Y96.709 E2.44758
G1 X103.678 Y97.030 E2.45820
G1 X103.740 Y97.510 E2.47335
G1 X103.730 Y97.874 E2.48475
G1 X103.696 Y98.147 E2.49337
G1 X103.625 Y98.418 E2.50212
G1 X103.563 Y98.563 E2.50706
M106 S255

G1 F3600
G1 X103.354 Y99.051 E2.52183
G1 X103.217 Y99.290 E2.52948
G1 X103.144 Y99.382 E2.53273
G1 X103.038 Y99.472 E2.53658
G1 X102.937 Y99.521 E2.53971
M106 S255

G1 F600
G1 X102.828 Y99.574 E2.54352
G1 X102.788 Y99.615 E2.54530
G1 X102.674 Y99.612 E2.54886
M106 S255

G1 F3600
G1 X102.618 Y99.611 E2.55040
G1 X102.605 Y99.645 E2.55140
G1 X101.916 Y99.543 E2.57078
G1 X101.233 Y99.379 E2.59027
M106 S255

G1 F600
G1 X101.070 Y99.340 E2.59553
G1 X100.747 Y99.187 E2.60673
G1 X100.528 Y99.021 E2.61533
G1 X100.345 Y98.793 E2.62447
G1 X100.303 Y98.706 E2.62750
G1 X100.272 Y98.592 E2.63118
G1 X100.369 Y98.528 E2.63483
M106 S255

G1 F3600
G1 X100.444 Y98.478 E2.63732
M106 S255

G1 F600
G1 X100.634 Y98.351 E2.64450
G1 X100.744 Y98.250 E2.64917
G1 X100.844 Y98.108 E2.65459
G1 X100.968 Y97.699 E2.66799
G1 X101.160 Y97.833 E2.67535
G1 X101.356 Y97.860 E2.68154
G1 X102.130 Y97.620 E2.70691
G1 X101.387 Y97.173 E2.73407
G1 X101.077 Y97.149 E2.74380
G1 X101.048 Y97.099 E2.74563
G1 X100.787 Y97.039 E2.75401
G1 X100.515 Y97.049 E2.76252
G1 X100.181 Y96.912 E2.77382
G1 X100.014 Y96.871 E2.77921
G1 X99.805 Y96.858 E2.78577
G1 X99.640 Y96.891 E2.79104
G1 X99.556 Y96.931 E2.79396
G1 Z5.200 F7800.000
G1 X100.413 Y96.137 F7800.000
G1 F600
G1 X100.205 Y96.121 E2.80049
G1 X99.873 Y96.224 E2.81136
G1 X99.379 Y96.538 E2.82970
G1 X99.085 Y96.793 E2.84188
G1 X98.841 Y97.112 E2.85447
G1 X98.658 Y97.442 E2.86629
G1 X98.444 Y97.363 E2.87342
G1 X98.522 Y96.981 E2.88562
G1 X98.673 Y96.577 E2.89912
G1 X98.783 Y96.378 E2.90623
G1 X99.096 Y95.918 E2.92366
G1 X99.361 Y95.670 E2.93503
G1 X99.805 Y95.368 E2.95184
G1 X100.255 Y95.182 E2.96711
G1 X100.577 Y95.091 E2.97757
G1 X100.938 Y95.043 E2.98897
G1 X101.193 Y95.044 E2.99695
G1 X101.655 Y95.106 E3.01156
G1 X102.111 Y95.222 E3.02629
G1 X102.617 Y95.490 E3.04422
G1 X102.929 Y95.741 E3.05677
G1 X103.187 Y96.025 E3.06879
G1 X103.501 Y96.514 E3.08699
G1 X103.655 Y96.920 E3.10059
G1 X103.788 Y97.555 E3.12088
G1 X103.800 Y97.833 E3.12960
G1 X103.693 Y98.532 E3.15177
G1 X103.531 Y98.979 E3.16665
G1 X103.412 Y99.208 E3.17472
G1 X103.180 Y99.506 E3.18655
G1 X102.895 Y99.780 E3.19892
G1 X102.749 Y99.886 E3.20458
G1 X102.473 Y100.016 E3.21411
G1 X102.190 Y100.110 E3.22347
M106 S255

G1 F3600
G1 X101.876 Y100.177 E3.23240
G1 X101.392 Y100.191 E3.24584
G1 X101.159 Y100.171 E3.25234
G1 X100.339 Y99.874 E3.27656
G1 X100.209 Y99.801 E3.28069
G1 X100.114 Y99.694 E3.28468
G1 X100.046 Y99.537 E3.28944
G1 X99.941 Y99.181 E3.29975
G1 X99.622 Y98.798 E3.31358
G1 X99.585 Y98.683 E3.31695
M106 S255

G1 F600
G1 X99.596 Y98.497 E3.32276
G1 X99.635 Y98.383 E3.32654
M106 S255

G1 F3600
G1 X99.710 Y98.207 E3.33186
G1 X100.260 Y97.795 E3.35096
G1 X100.400 Y97.752 E3.35502
M106 S255

G1 F600
G1 X100.659 Y97.719 E3.36318
G1 X100.901 Y97.641 E3.37114
G1 X101.293 Y97.788 E3.38427
G1 X101.833 Y97.715 E3.40132
G1 X101.616 Y97.229 E3.41797
G1 X101.358 Y97.011 E3.42854
G1 X101.189 Y96.989 E3.43388
G1 X101.160 Y96.898 E3.43686
G1 X100.853 Y96.461 E3.45359
G1 X100.601 Y96.222 E3.46445
G1 X100.481 Y96.168 E3.46859
G1 Z5.700 F7800.000
G1 X100.947 Y98.048 F7800.000
G1 F600
G1 X101.327 Y98.002 E3.48059
G1 X101.560 Y97.923 E3.48827
G1 X101.871 Y97.759 E3.49929
G1 X102.012 Y97.617 E3.50557
G1 X102.103 Y97.435 E3.51194
G1 X102.105 Y97.143 E3.52107
G1 X102.020 Y96.793 E3.53236
G1 X101.885 Y96.565 E3.54065
G1 X101.361 Y96.010 E3.56453
G1 X101.156 Y95.849 E3.57272
G1 X100.970 Y95.752 E3.57927
G1 X100.713 Y95.668 E3.58775
G1 X100.699 Y95.469 E3.59401
G1 X101.084 Y95.361 E3.60654
G1 X101.432 Y95.347 E3.61742
G1 X101.910 Y95.422 E3.63258
G1 X102.231 Y95.539 E3.64330
G1 X102.474 Y95.683 E3.65213
G1 X102.822 Y95.972 E3.66631
G1 X102.942 Y96.103 E3.67187
G1 X103.254 Y96.560 E3.68919
G1 X103.388 Y96.869 E3.69973
G1 X103.494 Y97.279 E3.71301
G1 X103.545 Y97.619 E3.72376
G1 X103.566 Y98.052 E3.73735
G1 X103.532 Y98.428 E3.74917
G1 X103.494 Y98.634 E3.75572
G1 X103.349 Y99.067 E3.77002
G1 X103.129 Y99.397 E3.78244
G1 X102.844 Y99.729 E3.79614
G1 X102.462 Y100.004 E3.81089
G1 X101.882 Y100.275 E3.83093
G1 X101.297 Y100.311 E3.84931
G1 X100.937 Y100.276 E3.86061
G1 X100.753 Y100.229 E3.86656
G1 X100.167 Y99.987 E3.88640
G1 X99.878 Y99.816 E3.89692
G1 X99.545 Y99.485 E3.91164
G1 X99.380 Y99.270 E3.92013
G1 X99.260 Y99.076 E3.92725
G1 X99.161 Y98.805 E3.93630
G1 X99.086 Y98.369 E3.95016
M106 S255

G1 F3600
G1 X99.074 Y98.246 E3.95358
G1 X99.151 Y98.005 E3.96060
G1 X99.220 Y97.677 E3.96993
G1 X99.310 Y97.478 E3.97599
G1 X99.731 Y97.257 E3.98918
G1 X99.993 Y97.072 E3.99810
G1 X100.124 Y97.011 E4.00212
G1 X100.309 Y97.235 E4.01018
M106 S255

G1 F600
G1 X100.520 Y97.530 E4.02154
G1 X100.704 Y97.873 E4.03372
G1 X100.886 Y98.004 E4.04075
G1 Z6.200 F7800.000
G1 X102.025 Y98.398 F7800.000
G1 F600
G1 X102.205 Y98.356 E4.04653
G1 X102.418 Y98.237 E4.05417
G1 X102.577 Y98.095 E4.06085
G1 X102.910 Y97.700 E4.07702
G1 X102.926 Y98.208 E4.09292
G1 X102.889 Y98.657 E4.10704
G1 X102.832 Y98.923 E4.11556
G1 X102.791 Y99.030 E4.11915
G1 X102.693 Y99.200 E4.12529
G1 X102.520 Y99.400 E4.13357
G1 X102.238 Y99.623 E4.14483
G1 X101.907 Y99.800 E4.15660
G1 X101.551 Y99.914 E4.16829
G1 X101.112 Y99.967 E4.18212
G1 X100.768 Y99.957 E4.19292
G1 X100.453 Y99.872 E4.20312
G1 X100.185 Y99.760 E4.21221
G1 X99.718 Y99.470 E4.22943
G1 X99.506 Y99.295 E4.23803
G1 X99.317 Y99.058 E4.24755
G1 X99.158 Y98.767 E4.25793
G1 X99.036 Y98.389 E4.27036
G1 X99.005 Y98.033 E4.28156
G1 X99.040 Y97.638 E4.29396
G1 X99.178 Y97.278 E4.30605
G1 X99.374 Y96.961 E4.31772
G1 X99.635 Y96.683 E4.32967
M106 S255

G1 F3600
G1 X99.758 Y96.551 E4.33467
G1 X100.036 Y96.399 E4.34348
G1 X100.339 Y96.315 E4.35221
G1 X100.470 Y96.333 E4.35589
G1 X100.823 Y96.483 E4.36653
G1 X101.234 Y96.820 E4.38130
G1 X101.457 Y97.051 E4.39024
G1 X101.258 Y97.467 E4.40305
M106 S255

G1 F600
G1 X101.211 Y97.566 E4.40646
G1 X101.216 Y97.692 E4.41043
G1 X101.255 Y97.870 E4.41612
G1 X101.392 Y97.994 E4.42191
G1 X101.652 Y98.341 E4.43549
G1 X101.951 Y98.387 E4.44496
G1 Z6.700 F7800.000
G1 X101.888 Y97.786 F7800.000
G1 F600
G1 X101.859 Y97.925 E4.44940
G1 X101.540 Y97.965 E4.45948
G1 X101.191 Y98.060 E4.47079
G1 X100.887 Y98.215 E4.48148
G1 X100.466 Y98.610 E4.49956
G1 X100.393 Y98.657 E4.50230
G1 X100.304 Y98.687 E4.50522
G1 X100.140 Y98.682 E4.51035
G1 X99.988 Y98.627 E4.51543
G1 X99.819 Y98.520 E4.52167
G1 X99.633 Y98.347 E4.52966
G1 X99.550 Y98.243 E4.53381
G1 X99.398 Y97.892 E4.54577
G1 X99.367 Y97.661 E4.55306
G1 X99.387 Y97.403 E4.56119
G1 X99.439 Y97.217 E4.56722
G1 X99.560 Y96.920 E4.57726
G1 X99.655 Y96.781 E4.58254
G1 X99.824 Y96.611 E4.59005
G1 X99.997 Y96.485 E4.59676
G1 X100.244 Y96.363 E4.60538
G1 X100.464 Y96.306 E4.61251
G1 X100.702 Y96.287 E4.61997
G1 X100.976 Y96.300 E4.62856
G1 X101.423 Y96.417 E4.64302
G1 X101.652 Y96.555 E4.65141
G1 X101.895 Y96.859 E4.66359
G1 X101.982 Y97.035 E4.66973
M106 S255

G1 F3600
G1 X102.032 Y97.177 E4.67392
G1 X102.014 Y97.384 E4.67969
G1 X101.910 Y97.714 E4.68931
M106 S255

G1 Z7.200 F7800.000
G1 X101.721 Y97.476 F7800.000
G1 F600
G1 X101.535 Y97.493 E4.69517
G1 X100.812 Y97.306 E4.71856
G1 X100.623 Y97.213 E4.72514
G1 X100.566 Y97.158 E4.72763
G1 X100.521 Y97.070 E4.73072
G1 X100.556 Y96.757 E4.74058
G1 X100.627 Y96.691 E4.74361
G1 X100.769 Y96.623 E4.74855
G1 X100.935 Y96.581 E4.75392
G1 X101.051 Y96.579 E4.75755
G1 X101.459 Y96.706 E4.77092
G1 X101.681 Y96.872 E4.77960
G1 X101.722 Y96.929 E4.78180
G1 X101.814 Y97.158 E4.78953
G1 X101.845 Y97.309 E4.79436
G1 X101.782 Y97.434 E4.79876
G1 E2.79876 F2400.00000
G92 E0
M107
; Filament-specific end gcode 
;END gcode for filament

M104 S0 ; turn off temperature
G28 X0  ; home X axis
M84     ; disable motors

M140 S0 ; set bed temperature
; filament used = 17.3mm (0.1cm3)
; total filament cost = 0.0

; avoid_crossing_perimeters = 0
; bed_shape = 0x0,200x0,200x200,0x200
; bed_temperature = 0
; before_layer_gcode = 
; between_objects_gcode = 
; bridge_acceleration = 0
; bridge_fan_speed = 100
; brim_connections_width = 0
; brim_width = 0
; complete_objects = 0
; cooling = 1
; default_acceleration = 0
; disable_fan_first_layers = 3
; duplicate_distance = 6
; end_filament_gcode = "; Filament-specific end gcode \n;END gcode for filament\n"
; end_gcode = M104 S0 ; turn off temperature\nG28 X0  ; home X axis\nM84     ; disable motors\n
; extruder_clearance_height = 20
; extruder_clearance_radius = 20
; extruder_offset = 0x0
; extrusion_axis = E
; extrusion_multiplier = 1
; fan_always_on = 0
; fan_below_layer_time = 60
; filament_colour = #FFFFFF
; filament_cost = 0
; filament_density = 0
; filament_diameter = 3
; filament_max_volumetric_speed = 0
; filament_notes = ""
; first_layer_acceleration = 0
; first_layer_bed_temperature = 0
; first_layer_extrusion_width = 200%
; first_layer_speed = 30
; first_layer_temperature = 205
; gcode_arcs = 0
; gcode_comments = 0
; gcode_flavor = reprap
; has_heatbed = 1
; infill_acceleration = 0
; infill_first = 0
; interior_brim_width = 0
; layer_gcode = 
; max_fan_speed = 100
; max_layer_height = 0.3
; max_print_speed = 80
; max_volumetric_speed = 0
; min_fan_speed = 35
; min_layer_height = 0.15
; min_print_speed = 10
; min_skirt_length = 0
; notes = 
; nozzle_diameter = 0.5
; only_retract_when_crossing_perimeters = 1
; ooze_prevention = 0
; output_filename_format = [input_filename_base].gcode
; perimeter_acceleration = 0
; post_process = 
; pressure_advance = 0
; printer_notes = 
; resolution = 0
; retract_before_travel = 2
; retract_layer_change = 0
; retract_length = 2
; retract_length_toolchange = 10
; retract_lift = 0
; retract_lift_above = 0
; retract_lift_below = 0
; retract_restart_extra = 0
; retract_restart_extra_toolchange = 0
; retract_speed = 40
; skirt_distance = 6
; skirt_height = 1
; skirts = 0
; slowdown_below_layer_time = 5
; spiral_vase = 0
; standby_temperature_delta = -5
; start_filament_gcode = "; Filament gcode\n"
; start_gcode = G28 ; home all axes\nG1 Z5 F5000 ; lift nozzle\n
; temperature = 200
; threads = 8
; toolchange_gcode = 
; travel_speed = 130
; use_firmware_retraction = 0
; use_relative_e_distances = 0
; use_set_and_wait_bed = 0
; use_set_and_wait_extruder = 0
; use_volumetric_e = 0
; vibration_limit = 0
; wipe = 0
; z_offset = 0
; z_steps_per_mm = 0
; adaptive_slicing = 0
; adaptive_slicing_quality = 75%
; dont_support_bridges = 1
; extrusion_width = 0
; first_layer_height = 0.7
; infill_only_where_needed = 0
; interface_shells = 0
; layer_height = 0.7
; match_horizontal_surfaces = 0
; raft_layers = 0
; regions_overlap = 0
; seam_position = aligned
; sequential_print_priority = 0
; support_material = 0
; support_material_angle = 0
; support_material_buildplate_only = 0
; support_material_contact_distance = 0.2
; support_material_enforce_layers = 0
; support_material_extruder = 1
; support_material_extrusion_width = 0
; support_material_interface_extruder = 1
; support_material_interface_extrusion_width = 0
; support_material_interface_layers = 3
; support_material_interface_spacing = 0
; support_material_interface_speed = 100%
; support_material_max_layers = 0
; support_material_pattern = pillars
; support_material_spacing = 2.5
; support_material_speed = 60
; support_material_threshold = 60%
; xy_size_compensation = 0
; bottom_infill_pattern = rectilinear
; bottom_solid_layers = 0
; bridge_flow_ratio = 1
; bridge_speed = 60
; external_perimeter_extrusion_width = 0
; external_perimeter_speed = 50%
; external_perimeters_first = 0
; extra_perimeters = 1
; fill_angle = 45
; fill_density = 0%
; fill_gaps = 1
; fill_pattern = stars
; gap_fill_speed = 20
; infill_every_layers = 1
; infill_extruder = 1
; infill_extrusion_width = 0
; infill_overlap = 55%
; infill_speed = 80
; overhangs = 1
; perimeter_extruder = 1
; perimeter_extrusion_width = 0
; perimeter_speed = 60
; perimeters = 1
; small_perimeter_speed = 15
; solid_infill_below_area = 70
; solid_infill_every_layers = 0
; solid_infill_extruder = 1
; solid_infill_extrusion_width = 0
; solid_infill_speed = 20
; thin_walls = 1
; top_infill_extrusion_width = 0
; top_infill_pattern = rectilinear
; top_solid_infill_speed = 15
; top_solid_layers = 0
