; generated by Slic3r 1.3.0 on 2020-03-03 at 16:43:37

; external perimeters extrusion width = 0.55mm (6.64mm^3/s)
; perimeters extrusion width = 0.52mm (12.53mm^3/s)
; infill extrusion width = 0.52mm (16.71mm^3/s)
; solid infill extrusion width = 0.52mm (4.18mm^3/s)
; top infill extrusion width = 0.52mm (3.13mm^3/s)

M107
M104 S205 ; set temperature
G28 ; home all axes
G1 Z5 F5000 ; lift nozzle

; Filament gcode

M109 S205 ; set temperature and wait for it to be reached
G21 ; set units to millimeters
G90 ; use absolute coordinates
M82 ; use absolute distances for extrusion
G92 E0
G1 Z1.000 F7800.000
M104 S200 ; set temperature
G1 Z1.500 F7800.000
G1 E-2.00000 F2400.00000
G92 E0
G1 X98.065 Y100.643 F7800.000
G1 E2.00000 F2400.00000

G1 F3600
G1 X97.687 Y100.266 E2.01627
G1 X97.225 Y99.854 E2.03512
G1 X96.934 Y100.093 E2.04660
G1 X96.826 Y100.216 E2.05157
G1 X97.832 Y101.221 E2.09491
G1 X97.764 Y101.530 E2.10454
G1 X97.722 Y101.922 E2.11656
G1 X96.505 Y100.706 E2.16899
G1 X96.429 Y100.873 E2.17460
G1 X96.297 Y101.309 E2.18848
G1 X97.756 Y102.768 E2.25134
G1 X97.820 Y103.248 E2.26610
G1 X97.805 Y103.628 E2.27768
G1 X96.267 Y102.091 E2.34394
G1 X96.346 Y102.565 E2.35860
G1 X96.429 Y102.809 E2.36645
G1 X96.630 Y103.220 E2.38038
G1 X96.762 Y103.397 E2.38712
G1 X97.139 Y103.773 E2.40334

G1 E0.40334 F2400.00000
G92 E0
G1 X102.576 Y101.691 F7800.000
G1 E2.00000 F2400.00000

G1 F3600
G1 X103.059 Y101.466 E2.01566
G1 X103.081 Y101.439 E2.01669
G1 X103.213 Y101.130 E2.02660
G1 X103.283 Y100.739 E2.03828
G1 X102.413 Y101.145 E2.06654
G1 X102.384 Y101.077 E2.06870
G1 X102.285 Y100.581 E2.08357
G1 X103.314 Y100.101 E2.11699
G1 X103.253 Y99.507 E2.13456
G1 X102.092 Y100.048 E2.17224
G1 X101.862 Y99.533 E2.18885
G1 X103.163 Y98.926 E2.23109
G1 X103.114 Y98.674 E2.23862
G1 X103.022 Y98.369 E2.24801
G1 X101.632 Y99.017 E2.29312
G1 X101.493 Y98.746 E2.30208
G1 X101.341 Y98.530 E2.30985
G1 X102.818 Y97.841 E2.35778
G1 X102.727 Y97.623 E2.36474
G1 X102.567 Y97.335 E2.37442
G1 X100.949 Y98.090 E2.42693
G1 X100.546 Y97.655 E2.44438
G1 X102.286 Y96.843 E2.50087
G1 X102.094 Y96.557 E2.51102
G1 X101.938 Y96.383 E2.51789
G1 X100.106 Y97.237 E2.57736
G1 X99.814 Y97.007 E2.58829
G1 X99.632 Y96.835 E2.59566
G1 X101.515 Y95.957 E2.65677
G1 X101.211 Y95.688 E2.66870
G1 X101.109 Y95.524 E2.67440
G1 X99.301 Y96.367 E2.73309
G1 X99.019 Y95.875 E2.74976
G1 X100.801 Y95.044 E2.80759
G1 X100.717 Y94.986 E2.81060
G1 X100.159 Y94.720 E2.82876
G1 X97.500 Y95.961 E2.91510
G1 X97.473 Y95.851 E2.91841
G1 X97.432 Y95.369 E2.93264
G1 X99.671 Y94.325 E3.00532
G1 X99.462 Y94.154 E3.01326
G1 X99.402 Y94.341 E3.01905
G1 X99.173 Y94.283 E3.02601
G1 X99.179 Y94.329 E3.02738
G1 X99.154 Y94.341 E3.02819
G1 X99.143 Y94.405 E3.03011
G1 X99.085 Y94.374 E3.03203
G1 X98.613 Y94.603 E3.04747
G1 X98.580 Y94.345 E3.05511
G1 X98.469 Y94.330 E3.05841
G1 X98.218 Y94.380 E3.06595
G1 X97.735 Y94.605 E3.08160

G1 X98.126 Y96.291 F7800.000

G1 F3600
G1 X98.171 Y96.388 E3.08472
G1 X98.230 Y96.457 E3.08741
G1 X98.360 Y96.553 E3.09214
G1 X98.463 Y96.589 E3.09536
G1 X98.561 Y96.588 E3.09825
G1 X98.693 Y96.540 E3.10238
G1 X98.969 Y96.342 E3.11239
G1 X99.050 Y96.252 E3.11592
G1 X99.396 Y95.699 E3.13511
G1 X97.644 Y96.516 E3.19198

G1 Z2.000 F7800.000
G1 X97.716 Y95.097 F7800.000

G1 F3600
G1 X98.114 Y95.851 E3.21736
G1 X98.170 Y95.924 E3.22009
G1 X98.155 Y95.927 E3.22055
G1 X98.688 Y96.936 E3.25452
G1 X98.868 Y96.940 E3.25987
G1 X99.209 Y96.873 E3.27022
G1 X99.129 Y96.754 E3.27448
G1 X99.231 Y96.748 E3.27751
G1 X98.027 Y94.472 E3.35412
G1 X98.228 Y94.343 E3.36121
G1 X98.351 Y94.318 E3.36496
G1 X98.350 Y94.481 E3.36982
G1 X98.649 Y94.434 E3.37883
G1 X99.884 Y96.768 E3.45740
G1 X99.956 Y96.799 E3.45974
G1 X100.067 Y96.888 E3.46398
G1 X100.366 Y97.290 E3.47890
G1 X100.660 Y97.022 E3.49073
G1 X99.091 Y94.057 E3.59054
G1 X99.101 Y94.029 E3.59143
G1 X99.381 Y94.253 E3.60210
G1 X99.442 Y94.168 E3.60523
G1 X99.745 Y94.436 E3.61726
G1 X100.020 Y94.598 E3.62677
G1 X103.729 Y101.612 E3.86284
G1 X103.770 Y101.384 E3.86974
G1 X103.786 Y101.134 E3.87718
G1 X103.756 Y100.449 E3.89758
G1 X101.105 Y95.436 E4.06632
G1 X101.352 Y95.611 E4.07535
G1 X101.845 Y96.081 E4.09561
G1 X102.039 Y96.296 E4.10423
G1 X102.488 Y96.914 E4.12695
G1 X102.970 Y97.749 E4.15565
G1 X103.221 Y98.223 E4.17159

G1 X101.683 Y98.956 F7800.000

G1 F3600
G1 X100.767 Y97.224 E4.22990
G1 X100.872 Y97.208 E4.23309
G1 X100.625 Y96.892 E4.24501
G1 X100.562 Y96.414 E4.25938
G1 X100.411 Y96.551 E4.26546

G1 E2.26546 F2400.00000
G92 E0
G1 X99.713 Y100.087 F7800.000
G1 E2.00000 F2400.00000

G1 F3600
G1 X99.259 Y99.232 E2.02879
G1 X99.150 Y99.145 E2.03296
G1 X99.042 Y99.091 E2.03654
G1 X98.805 Y99.009 E2.04401
G1 X98.469 Y98.949 E2.05417
G1 X99.203 Y100.336 E2.10087
G1 X98.970 Y100.474 E2.10891
G1 X98.730 Y100.656 E2.11789
G1 X97.867 Y99.025 E2.17279
G1 X97.640 Y99.092 E2.17984
G1 X97.342 Y99.246 E2.18982
G1 X98.330 Y101.113 E2.25268
G1 X97.997 Y101.698 E2.27269
G1 X96.881 Y99.587 E2.34372
G1 X96.751 Y99.696 E2.34876
G1 X96.466 Y100.017 E2.36153
G1 X98.026 Y102.966 E2.46079
G1 X98.261 Y103.473 E2.47744
G1 X98.340 Y103.619 E2.48235
G1 X98.399 Y103.672 E2.48472
G1 X98.787 Y104.406 E2.50944
G1 X98.746 Y104.536 E2.51350
G1 X98.852 Y104.529 E2.51667

G1 E0.51667 F2400.00000
G92 E0
G1 X96.394 Y103.522 F7800.000
G1 E2.00000 F2400.00000

G1 F3600
G1 X96.798 Y104.262 E2.02507
G1 X97.125 Y104.672 E2.04069
G1 X97.267 Y104.803 E2.04644
G1 X97.646 Y105.054 E2.05996
G1 X97.922 Y105.198 E2.06923
G1 X95.986 Y101.538 E2.19244
G1 X96.000 Y101.173 E2.20330
G1 X96.136 Y100.607 E2.22063
G1 X98.621 Y105.305 E2.37877
G1 X99.037 Y105.342 E2.39122
G1 X99.273 Y105.325 E2.39825
G1 X98.603 Y104.058 E2.44090
G1 X99.093 Y104.013 E2.45553
G1 X99.257 Y104.080 E2.46079
G1 X99.876 Y105.251 E2.50022
G1 X100.178 Y105.214 E2.50928
G1 X100.459 Y105.139 E2.51791
G1 X99.974 Y104.223 E2.54873
G1 X100.375 Y104.143 E2.56087
G1 X100.543 Y104.084 E2.56617
G1 X101.021 Y104.988 E2.59661
G1 X101.550 Y104.775 E2.61358
G1 X101.031 Y103.794 E2.64663
G1 X101.283 Y103.585 E2.65636
G1 X101.457 Y103.385 E2.66425
G1 X102.054 Y104.514 E2.70224
G1 X102.388 Y104.263 E2.71466
G1 X102.505 Y104.152 E2.71945
G1 X101.848 Y102.910 E2.76127
G1 X101.973 Y102.729 E2.76782
G1 X102.051 Y102.555 E2.77349
G1 X102.093 Y102.348 E2.77978
G1 X102.093 Y102.159 E2.78539
G1 X102.911 Y103.706 E2.83746
G1 X103.127 Y103.373 E2.84929
G1 X103.245 Y103.124 E2.85747
G1 X102.197 Y101.143 E2.92416
G1 X102.181 Y100.733 E2.93636
G1 X102.137 Y100.358 E2.94760
G1 X102.079 Y100.074 E2.95623
G1 X101.891 Y99.534 E2.97325
G1 X101.714 Y99.155 E2.98570
G1 X101.622 Y98.842 E2.99540
G1 X103.538 Y102.464 E3.11731

M106 S255
G1 Z2.500 F7800.000
G1 X103.793 Y102.783 F7800.000
M106 S255

G1 F3600
G1 X102.533 Y100.872 E3.18603
G1 X102.332 Y101.062 E3.19435
G1 X102.207 Y100.964 E3.19912
G1 X102.163 Y101.346 E3.21065
G1 X103.527 Y103.414 E3.28502
G1 X103.356 Y103.730 E3.29581
G1 X103.204 Y103.960 E3.30407
G1 X102.070 Y102.240 E3.36592
G1 X102.066 Y102.506 E3.37389
G1 X101.784 Y102.509 E3.38238
G1 X101.999 Y102.672 E3.39051
G1 X101.831 Y102.912 E3.39931
G1 X102.843 Y104.448 E3.45452
G1 X102.432 Y104.858 E3.47197
G1 X101.308 Y103.154 E3.53325
G1 X101.216 Y103.214 E3.53653
G1 X101.065 Y103.363 E3.54292
G1 X100.862 Y103.513 E3.55049
G1 X101.976 Y105.202 E3.61122
G1 X101.843 Y105.292 E3.61605
G1 X101.477 Y105.481 E3.62840
G1 X100.316 Y103.720 E3.69173
G1 X100.145 Y103.729 E3.69688
G1 X99.982 Y103.940 E3.70487
G1 X99.867 Y103.856 E3.70915
G1 X99.751 Y103.898 E3.71285
G1 X100.934 Y105.691 E3.77734
G1 X100.345 Y105.835 E3.79551
G1 X98.938 Y103.700 E3.87225
G1 X98.685 Y103.628 E3.88016
G1 X98.648 Y103.650 E3.88143
G1 X98.449 Y103.546 E3.88819
G1 X98.416 Y103.584 E3.88969
G1 X98.318 Y103.479 E3.89401
G1 X98.155 Y103.394 E3.89953
G1 X98.193 Y103.343 E3.90143
G1 X98.022 Y103.158 E3.90897
G1 X98.117 Y103.058 E3.91311
G1 X97.951 Y102.842 E3.92128
G1 X97.877 Y102.691 E3.92634
G1 X97.513 Y102.573 E3.93783
G1 X99.719 Y105.920 E4.05816
G1 X99.445 Y105.931 E4.06641
G1 X99.027 Y105.905 E4.07898
G1 X95.854 Y101.093 E4.25198
G1 X95.828 Y101.505 E4.26437
G1 X95.836 Y101.941 E4.27744
G1 X95.860 Y102.137 E4.28340
G1 X98.219 Y105.715 E4.41205
G1 X97.853 Y105.528 E4.42439
G1 X97.387 Y105.214 E4.44127
G1 X97.199 Y105.056 E4.44864
G1 X96.956 Y104.805 E4.45913
G1 X96.514 Y104.164 E4.48249
M106 S255

G1 E2.48249 F2400.00000
G92 E0
G1 X95.854 Y101.093 F7800.000
G1 E2.00000 F2400.00000
M106 S255

G1 F3600
G1 X95.929 Y100.723 E2.01133
G1 X96.068 Y100.383 E2.02238
G1 X97.675 Y102.819 E2.10999
G1 X97.675 Y102.729 E2.11271
G1 X97.737 Y102.520 E2.11924
G1 X97.737 Y102.301 E2.12583
G1 X97.642 Y102.372 E2.12940
G1 X97.730 Y101.868 E2.14473
G1 X96.401 Y99.853 E2.21721
G1 X96.812 Y99.440 E2.23468
G1 X97.945 Y101.158 E2.29646
G1 X98.229 Y100.957 E2.30693
G1 X98.314 Y101.068 E2.31112
G1 X98.339 Y100.721 E2.32155
G1 X97.262 Y99.088 E2.38027
G1 X97.546 Y98.929 E2.39004
G1 X97.775 Y98.831 E2.39752
G1 X98.866 Y100.485 E2.45701
G1 X99.281 Y100.607 E2.46998
G1 X99.605 Y100.571 E2.47978
G1 X98.364 Y98.688 E2.54747
G1 X98.896 Y98.711 E2.56347
G1 X99.090 Y98.754 E2.56942
G1 X100.367 Y100.692 E2.63908
M106 S255

G1 E0.63908 F2400.00000
G92 E0
G1 X102.438 Y100.728 F7800.000
G1 E2.00000 F2400.00000
M106 S255

G1 F3600
G1 X102.460 Y100.894 E2.00503
G1 X102.525 Y100.860 E2.00725
G1 X102.145 Y100.284 E2.02797
G1 X102.025 Y99.653 E2.04723
G1 X101.754 Y98.775 E2.07481
G1 X101.643 Y98.557 E2.08215
G1 X101.129 Y97.707 E2.11200
G1 X103.966 Y102.011 E2.26675
M106 S255

G1 E0.26675 F2400.00000
G92 E0
G1 X103.029 Y97.483 F7800.000
G1 E2.00000 F2400.00000
M106 S255

G1 F3600
G1 X102.734 Y97.036 E2.01607
G1 X102.314 Y96.477 E2.03706
G1 X101.719 Y95.805 E2.06401
G1 X101.392 Y95.509 E2.07725
G1 X100.722 Y95.019 E2.10217
G1 X103.999 Y99.990 E2.28090
G1 X104.050 Y100.291 E2.29006
G1 X104.078 Y101.144 E2.31570
G1 X99.631 Y94.400 E2.55820
G1 X99.477 Y94.287 E2.56395
G1 X99.423 Y94.360 E2.56668
G1 X99.285 Y94.444 E2.57153
G1 X99.122 Y94.482 E2.57655
G1 X98.998 Y94.475 E2.58028
G1 X100.472 Y96.711 E2.66070
G1 X100.148 Y96.811 E2.67089
G1 X100.193 Y97.148 E2.68111
G1 X100.187 Y97.262 E2.68454
G1 X100.154 Y97.263 E2.68554
G1 X98.371 Y94.559 E2.78275
G1 X98.220 Y94.715 E2.78925
G1 X98.009 Y95.045 E2.80103
G1 X99.431 Y97.203 E2.87859
G1 X99.306 Y97.182 E2.88240
G1 X98.905 Y97.046 E2.89511
G1 X98.504 Y96.831 E2.90877
G1 X97.873 Y95.874 E2.94317
M106 S255

G1 E0.94317 F2400.00000
G92 E0
G1 X100.179 Y96.267 F7800.000
G1 E2.00000 F2400.00000
M106 S255

G1 F3600
G1 X100.419 Y96.193 E2.00752
G1 X100.565 Y96.597 E2.02041
G1 X100.605 Y96.907 E2.02979
G1 X101.229 Y97.859 E2.06396
M106 S255

G1 Z3.000 F7800.000
G1 X102.128 Y98.466 F7800.000
M106 S255

G1 F3600
G1 X101.862 Y98.927 E2.08003
G1 X102.154 Y99.403 E2.09687
G1 X102.229 Y99.435 E2.09933
G1 X102.747 Y98.537 E2.13062
G1 X103.366 Y98.607 E2.14943
G1 X102.759 Y99.660 E2.18614
G1 X103.288 Y99.885 E2.20351
G1 X103.893 Y98.837 E2.24005
G1 X104.084 Y99.650 E2.26525
G1 X103.818 Y100.111 E2.28132
M106 S255

G1 X104.083 Y100.745 F7800.000
M106 S255

G1 F3600
G1 X103.945 Y101.259 E2.30333
M106 S255

G1 X103.382 Y100.812 F7800.000
M106 S255

G1 F3600
G1 X103.589 Y100.038 E2.33646
G1 X102.976 Y99.777 E2.36402
G1 X102.818 Y100.365 E2.38921
G1 X102.592 Y100.186 E2.40113
G1 X102.838 Y100.291 E2.41217
M106 S255

G1 X103.267 Y101.509 F7800.000
M106 S255

G1 F3600
G1 X103.824 Y101.249 E2.43759
M106 S255

G1 X104.165 Y101.818 F7800.000
M106 S255

G1 F3600
G1 X103.682 Y102.043 E2.45959
M106 S255

G1 E0.45959 F2400.00000
G92 E0
G1 X100.817 Y101.647 F7800.000
G1 E2.00000 F2400.00000
M106 S255

G1 F3600
G1 X100.882 Y101.119 E2.01766
M106 S255

G1 X100.250 Y101.367 F7800.000
M106 S255

G1 F3600
G1 X100.318 Y100.827 E2.03573
G1 X100.727 Y100.823 E2.04932
G1 X100.716 Y100.287 E2.06710
G1 X100.385 Y100.286 E2.07808
G1 X100.464 Y99.649 E2.09937
G1 X99.887 Y99.452 E2.11958
G1 X99.756 Y100.508 E2.15488
G1 X99.353 Y100.436 E2.16848
G1 X99.314 Y100.590 E2.17376
G1 X99.291 Y100.563 E2.17497
G1 X99.140 Y100.626 E2.18037
G1 X99.311 Y99.254 E2.22623
G1 X98.734 Y99.057 E2.24644
G1 X98.554 Y100.513 E2.29512
G1 X98.490 Y100.472 E2.29765
G1 X98.386 Y100.869 E2.31126
G1 X98.305 Y100.875 E2.31394
G1 X98.259 Y100.839 E2.31589
G1 X98.244 Y100.880 E2.31735
G1 X98.129 Y100.889 E2.32117
G1 X98.134 Y101.181 E2.33085
G1 X98.100 Y101.275 E2.33419
G1 X98.019 Y101.390 E2.33884
G1 X97.970 Y101.351 E2.34094
G1 X97.836 Y101.450 E2.34647
G1 X98.158 Y98.860 E2.43308
G1 X97.908 Y98.774 E2.44185
G1 X97.545 Y98.958 E2.45535
G1 X97.219 Y101.582 E2.54308
G1 X96.667 Y101.189 E2.56556
G1 X96.876 Y99.504 E2.62191
G1 X96.719 Y99.678 E2.62969
G1 X96.434 Y100.062 E2.64556
G1 X96.237 Y100.463 E2.66039
G1 X96.103 Y100.890 E2.67524
G1 X96.037 Y101.418 E2.69289
M106 S255

G1 X96.377 Y102.104 F7800.000
M106 S255

G1 F3600
G1 X96.895 Y101.984 E2.70793
G1 X97.673 Y102.373 E2.73247
G1 X96.013 Y102.757 E2.78060
G1 X95.888 Y102.980 E2.78781
G1 X95.959 Y103.338 E2.79812
G1 X98.225 Y102.814 E2.86382
G1 X98.316 Y103.108 E2.87253
G1 X98.360 Y103.090 E2.87388
G1 X98.447 Y103.331 E2.88111
G1 X96.082 Y103.878 E2.94967
G1 X96.187 Y104.137 E2.95756
G1 X96.337 Y104.388 E2.96582
G1 X98.782 Y103.822 E3.03671
G1 X98.905 Y104.008 E3.04299
G1 X99.056 Y104.120 E3.04831
G1 X99.271 Y104.192 E3.05472
G1 X99.495 Y104.226 E3.06111
G1 X96.660 Y104.882 E3.14330
M106 S255

G1 X97.169 Y105.333 F7800.000
M106 S255

G1 F3600
G1 X97.804 Y105.186 E3.16171
G1 X97.769 Y105.262 E3.16408
G1 X97.688 Y105.213 E3.16676
M106 S255

G1 X99.588 Y105.911 F7800.000
M106 S255

G1 F3600
G1 X100.859 Y105.603 E3.20371
G1 X101.648 Y105.307 E3.22750
G1 X101.948 Y105.159 E3.23696
G1 X102.195 Y104.996 E3.24532
G1 X102.387 Y104.844 E3.25222
G1 X102.368 Y104.822 E3.25305
G1 X102.641 Y104.636 E3.26237
G1 X97.881 Y105.737 E3.40036
G1 X97.807 Y105.699 E3.40270
G1 X97.868 Y105.590 E3.40625
G1 X97.297 Y105.304 E3.42430
G1 X103.307 Y103.913 E3.59853
G1 X103.383 Y103.829 E3.60172
G1 X103.546 Y103.576 E3.61023
G1 X103.707 Y103.251 E3.62046
G1 X100.362 Y104.025 E3.71741
G1 X100.449 Y103.933 E3.72098
G1 X100.600 Y103.848 E3.72589
G1 X100.675 Y103.779 E3.72876
G1 X100.813 Y103.842 E3.73305
G1 X101.024 Y103.801 E3.73911
G1 X101.126 Y103.757 E3.74225
G1 X101.352 Y103.530 E3.75130
G1 X101.518 Y103.408 E3.75711
G1 X101.783 Y103.128 E3.76801
G1 X103.930 Y102.631 E3.83025
G1 X103.984 Y102.512 E3.83395
G1 X103.680 Y102.120 E3.84797
G1 X102.071 Y102.492 E3.89462
G1 X102.428 Y101.841 E3.91561
G1 X103.305 Y101.638 E3.94103
M106 S255

G1 E1.94103 F2400.00000
G92 E0
G1 X100.143 Y99.390 F7800.000
G1 E2.00000 F2400.00000
M106 S255

G1 F3600
G1 X100.658 Y99.252 E2.02201
G1 X100.572 Y99.176 E2.02675
G1 X100.268 Y98.991 E2.04148
G1 X99.899 Y98.847 E2.05783
G1 X99.749 Y98.812 E2.06420
G1 X99.024 Y99.007 E2.09525
G1 X98.608 Y98.864 E2.11342
G1 X98.940 Y98.882 E2.12719
G1 X99.235 Y98.950 E2.13969
M106 S255

G1 E0.13969 F2400.00000
G92 E0
G1 X98.615 Y95.754 F7800.000
G1 E2.00000 F2400.00000
M106 S255

G1 F3600
G1 X98.100 Y95.891 E2.01931
G1 X98.076 Y96.030 E2.02440
G1 X98.103 Y96.277 E2.03342
G1 X98.216 Y96.504 E2.04260
G1 X100.469 Y95.900 E2.12716
G1 X100.786 Y95.973 E2.13894
G1 X101.523 Y96.260 E2.16762
G1 X98.805 Y96.989 E2.26960
G1 X98.984 Y97.088 E2.27699
G1 X99.319 Y97.226 E2.29015
G1 X99.339 Y97.106 E2.29457
G1 X99.858 Y97.137 E2.31340
G1 X99.855 Y97.243 E2.31723
G1 X100.429 Y96.718 E2.34544
G1 X100.491 Y97.180 E2.36235
G1 X102.277 Y96.702 E2.42938
G1 X102.364 Y96.755 E2.43309
G1 X102.853 Y97.190 E2.45682
G1 X100.557 Y97.805 E2.54297
G1 X100.707 Y97.895 E2.54928
G1 X100.732 Y97.870 E2.55057
G1 X101.076 Y98.154 E2.56674
G1 X101.079 Y98.137 E2.56736
G1 X101.528 Y98.188 E2.58375
G1 X103.336 Y97.704 E2.65157
G1 X103.728 Y98.242 E2.67570
G1 X103.214 Y98.380 E2.69500
M106 S255

G1 X101.189 Y95.509 F7800.000
M106 S255

G1 F3600
G1 X100.737 Y95.226 E2.71102
M106 S255

G1 X100.017 Y95.448 F7800.000
M106 S255

G1 F3600
G1 X98.855 Y94.722 E2.75225
G1 X98.748 Y94.764 E2.75571
G1 X98.588 Y94.889 E2.76181
G1 X98.404 Y95.112 E2.77053
G1 X98.855 Y95.394 E2.78654
M106 S255

G1 Z3.500 F7800.000
G1 X99.430 Y96.859 F7800.000
M106 S255

G1 F3600
G1 X99.872 Y97.160 E2.80162
G1 X100.564 Y97.552 E2.82403
G1 X101.341 Y98.038 E2.84985
G1 X101.547 Y98.186 E2.85700
G1 X101.917 Y98.523 E2.87108
G1 X102.841 Y98.507 E2.89713
G1 X98.698 Y95.693 E3.03824
G1 X98.798 Y95.480 E3.04487
G1 X98.895 Y95.347 E3.04950
G1 X99.015 Y95.239 E3.05405
G1 X103.426 Y98.235 E3.20425
M106 S255

G1 X102.575 Y96.988 F7800.000
M106 S255

G1 F3600
G1 X102.135 Y96.689 E3.21925
M106 S255

G1 E1.21925 F2400.00000
G92 E0
G1 X101.952 Y99.128 F7800.000
G1 E2.00000 F2400.00000
M106 S255

G1 F3600
G1 X102.274 Y98.705 E2.02151
G1 X103.105 Y98.691 E2.05512
G1 X102.265 Y99.795 E2.11120
G1 X102.417 Y100.276 E2.13157
G1 X102.475 Y100.599 E2.14483
G1 X103.808 Y98.845 E2.23387
G1 X104.011 Y99.657 E2.26772
G1 X102.791 Y101.263 E2.34924
G1 X103.339 Y101.356 E2.37172
G1 X103.231 Y101.763 E2.38872
G1 X104.118 Y100.596 E2.44794
G1 X104.136 Y101.042 E2.46600
G1 X104.056 Y101.757 E2.49505
G1 X103.734 Y102.180 E2.51657
M106 S255

G1 X103.056 Y101.696 F7800.000
M106 S255

G1 F3600
G1 X102.571 Y101.476 E2.53859
G1 X102.285 Y101.427 E2.55060
G1 X102.190 Y101.802 E2.56657
G1 X102.162 Y101.802 E2.56773
G1 X102.124 Y101.891 E2.57172
G1 X104.005 Y102.744 E2.65710
G1 X103.903 Y103.030 E2.66967
G1 X103.792 Y103.265 E2.68040
G1 X102.101 Y102.498 E2.75716
G1 X102.205 Y102.849 E2.77233
G1 X101.657 Y102.758 E2.79531
G1 X101.560 Y102.871 E2.80144
G1 X103.498 Y103.749 E2.88941
G1 X103.402 Y103.915 E2.89733
G1 X103.239 Y104.053 E2.90616
G1 X103.128 Y104.199 E2.91375
G1 X101.139 Y103.297 E3.00405
G1 X101.075 Y103.311 E3.00677
G1 X100.643 Y103.611 E3.02850
G1 X100.618 Y103.609 E3.02957
G1 X100.648 Y103.652 E3.03177
G1 X100.598 Y103.669 E3.03396
G1 X102.769 Y104.654 E3.13255
G1 X102.718 Y104.717 E3.13588
G1 X102.290 Y105.055 E3.15843
G1 X100.009 Y104.020 E3.26200
G1 X99.852 Y104.408 E3.27928
G1 X99.659 Y104.166 E3.29209
G1 X99.513 Y104.192 E3.29821
G1 X99.503 Y104.140 E3.30040
G1 X99.439 Y104.190 E3.30378
G1 X99.400 Y104.177 E3.30549
G1 X99.358 Y104.293 E3.31058
G1 X98.982 Y104.172 E3.32690
G1 X101.683 Y105.397 E3.44947
G1 X101.291 Y105.595 E3.46761
G1 X100.941 Y105.679 E3.48248
G1 X96.259 Y103.555 E3.69507
G1 X96.351 Y103.852 E3.70795
G1 X96.554 Y104.307 E3.72852
G1 X100.201 Y105.961 E3.89409
G1 X99.990 Y105.996 E3.90294
G1 X99.694 Y106.012 E3.91516
G1 X99.184 Y105.960 E3.93636
G1 X98.876 Y105.860 E3.94974
G1 X98.532 Y105.795 E3.96423
G1 X98.341 Y105.735 E3.97254
G1 X97.854 Y105.514 E3.99463
M106 S255

G1 X98.739 Y104.062 F7800.000
M106 S255

G1 F3600
G1 X98.773 Y103.859 E4.00314
G1 X98.751 Y103.853 E4.00410
G1 X98.602 Y104.000 E4.01275
G1 X99.224 Y104.282 E4.04096
M106 S255

G1 E2.04096 F2400.00000
G92 E0
G1 X99.869 Y102.085 F7800.000
G1 E2.00000 F2400.00000
M106 S255

G1 F3600
G1 X100.834 Y102.523 E2.04384
G1 X101.114 Y102.426 E2.05605
G1 X101.286 Y102.297 E2.06494
G1 X101.448 Y102.076 E2.07629
G1 X100.526 Y101.658 E2.11815
G1 X100.204 Y101.289 E2.13838
G1 X100.118 Y101.359 E2.14296
G1 X100.285 Y101.087 E2.15613
G1 X101.214 Y101.245 E2.19506
G1 X101.699 Y101.465 E2.21708
M106 S255

G1 E0.21708 F2400.00000
G92 E0
G1 X99.297 Y100.608 F7800.000
G1 E2.00000 F2400.00000
M106 S255

G1 F3600
G1 X98.451 Y100.225 E2.03838
G1 X97.902 Y100.593 E2.06573
G1 X98.539 Y100.882 E2.09467
G1 X98.246 Y101.050 E2.10864
G1 X98.014 Y101.262 E2.12163
G1 X97.353 Y100.962 E2.15165
G1 X96.803 Y101.331 E2.17900
G1 X97.866 Y101.813 E2.22722
G1 X97.859 Y102.053 E2.23715
G1 X97.731 Y102.075 E2.24251
G1 X97.786 Y102.394 E2.25590
G1 X96.254 Y101.699 E2.32545
G1 X96.030 Y101.850 E2.33658
G1 X96.059 Y102.229 E2.35231
G1 X97.906 Y103.066 E2.43612
G1 X98.117 Y103.344 E2.45055
G1 X98.250 Y103.239 E2.45757
G1 X98.150 Y103.369 E2.46435
G1 X98.716 Y103.793 E2.49359
G1 X98.753 Y104.068 E2.50506
G1 X96.135 Y102.881 E2.62393
G1 X96.259 Y103.555 E2.65226
M106 S255

G1 E0.65226 F2400.00000
G92 E0
G1 X100.990 Y100.141 F7800.000
G1 E2.00000 F2400.00000
M106 S255

G1 F3600
G1 X101.313 Y99.717 E2.01996
G1 X101.227 Y99.543 E2.02724
G1 X101.034 Y99.316 E2.03841
G1 X100.910 Y99.203 E2.04466
G1 X99.926 Y100.499 E2.10567
G1 X99.862 Y100.521 E2.10820
G1 X99.672 Y100.362 E2.11745
G1 X100.001 Y99.358 E2.15707
G1 X100.323 Y98.934 E2.17703
M106 S255

G1 X99.889 Y99.033 F7800.000
M106 S255

G1 F3600
G1 X99.449 Y98.734 E2.19820
M106 S255

G1 X99.679 Y99.675 F7800.000
M106 S255

G1 F3600
G1 X98.356 Y98.776 E2.26180
G1 X97.948 Y98.908 E2.27888
G1 X97.677 Y99.023 E2.29056
G1 X97.619 Y99.059 E2.29329
G1 X98.827 Y99.880 E2.35140
G1 X98.247 Y100.269 E2.37919
G1 X97.043 Y99.451 E2.43708
G1 X96.642 Y99.892 E2.46079
G1 X97.260 Y100.258 E2.48937
G1 X97.226 Y100.360 E2.49364
G1 X97.667 Y100.659 E2.51481
M106 S255

G1 Z4.000 F7800.000
G1 X97.097 Y100.072 F7800.000
M106 S255

G1 F3600
G1 X97.511 Y100.463 E2.53389
G1 X97.614 Y100.414 E2.53773
G1 X97.806 Y100.733 E2.55022
G1 X98.040 Y100.553 E2.56012
G1 X98.228 Y100.493 E2.56673
G1 X98.398 Y100.476 E2.57245
G1 X97.499 Y99.628 E2.61389
G1 X97.994 Y99.271 E2.63434
G1 X99.402 Y100.600 E2.69927
M106 S255

G1 X98.985 Y101.854 F7800.000
M106 S255

G1 F3600
G1 X98.244 Y101.154 E2.73344
G1 X98.187 Y101.185 E2.73559
G1 X98.097 Y101.291 E2.74024
G1 X97.914 Y101.668 E2.75428
G1 X99.873 Y103.515 E2.84454
G1 X99.187 Y103.463 E2.86759
G1 X99.072 Y103.438 E2.87154
G1 X98.574 Y102.914 E2.89578
G1 X98.477 Y103.022 E2.90067
G1 X98.000 Y102.573 E2.92263
M106 S255

G1 X97.086 Y102.174 F7800.000
M106 S255

G1 F3600
G1 X96.688 Y101.799 E2.94097
G1 X96.672 Y101.905 E2.94458
G1 X96.736 Y102.602 E2.96803
G1 X98.620 Y104.380 E3.05489
G1 X98.353 Y104.288 E3.06438
G1 X98.172 Y104.526 E3.07440
G1 X98.187 Y104.729 E3.08121
G1 X96.851 Y103.469 E3.14277
G1 X96.967 Y103.999 E3.16096
G1 X97.044 Y104.206 E3.16838
G1 X97.204 Y104.475 E3.17889
G1 X97.472 Y104.808 E3.19320
G1 X97.631 Y104.962 E3.20064
M106 S255

M106 S255

G1 F3600
G1 X98.025 Y105.334 E3.21877
G1 X98.358 Y105.552 E3.23214
G1 X98.675 Y105.714 E3.24406
G1 X98.920 Y105.811 E3.25289
G1 X99.142 Y105.868 E3.26057
G1 X99.411 Y105.884 E3.26961
G1 X97.997 Y104.549 E3.33478
G1 X98.337 Y104.527 E3.34619
G1 X98.341 Y104.116 E3.35998
G1 X100.155 Y105.828 E3.44359
G1 X100.219 Y105.815 E3.44577
G1 X100.761 Y105.641 E3.46485
G1 X98.978 Y103.959 E3.54702
G1 X99.324 Y103.989 E3.55864
G1 X99.337 Y104.125 E3.56323
G1 X99.870 Y104.043 E3.58133
G1 X100.698 Y104.824 E3.61946
G1 X100.811 Y104.424 E3.63338
G1 X101.117 Y104.462 E3.64371
G1 X100.336 Y103.725 E3.67971
G1 X100.545 Y103.675 E3.68691
G1 X100.616 Y103.806 E3.69188
G1 X100.978 Y103.573 E3.70631
G1 X102.268 Y104.789 E3.76575
G1 X102.674 Y104.414 E3.78428
G1 X101.392 Y103.205 E3.84336
G1 X101.828 Y102.859 E3.86203
G1 X103.038 Y104.001 E3.91780
G1 X103.358 Y103.545 E3.93647
G1 X102.197 Y102.449 E3.99002
G1 X102.498 Y101.975 E4.00884
G1 X103.613 Y103.027 E4.06024
G1 X103.778 Y102.425 E4.08117
G1 X102.752 Y101.457 E4.12848
G1 X102.865 Y101.151 E4.13939
G1 X102.932 Y100.869 E4.14913
G1 X103.847 Y101.732 E4.19128
G1 X103.822 Y101.152 E4.21074
G1 X103.763 Y100.895 E4.21957
G1 X102.975 Y100.151 E4.25590
G1 X102.931 Y99.704 E4.27097
G1 X102.808 Y99.236 E4.28720
G1 X103.508 Y99.897 E4.31947
G1 X103.470 Y99.774 E4.32378
G1 X103.400 Y99.650 E4.32855
G1 X103.199 Y99.166 E4.34612
G1 X103.111 Y98.863 E4.35671
G1 X103.016 Y98.674 E4.36378
G1 X101.102 Y96.869 E4.45199
G1 X101.608 Y96.588 E4.47138
G1 X101.995 Y96.954 E4.48926
M106 S255

G1 E2.48926 F2400.00000
G92 E0
G1 X100.902 Y99.543 F7800.000
G1 E2.00000 F2400.00000
M106 S255

G1 F3600
G1 X101.289 Y99.909 E2.01784
M106 S255

G1 X101.878 Y101.288 F7800.000
M106 S255

G1 F3600
G1 X99.305 Y98.860 E2.13646
G1 X99.060 Y98.872 E2.14468
G1 X98.853 Y98.910 E2.15173
G1 X98.571 Y98.992 E2.16156
G1 X101.809 Y102.047 E2.31079
G1 X101.647 Y102.419 E2.32441
G1 X101.521 Y102.598 E2.33176
G1 X99.819 Y100.993 E2.41020
G1 X99.935 Y101.262 E2.42001
G1 X100.066 Y101.714 E2.43582
G1 X100.066 Y102.028 E2.44634
G1 X100.050 Y102.035 E2.44691
G1 X101.081 Y103.008 E2.49443
G1 X100.930 Y103.118 E2.50071
G1 X100.523 Y103.305 E2.51572
G1 X99.245 Y102.100 E2.57461
M106 S255

G1 E0.57461 F2400.00000
G92 E0
G1 X100.761 Y105.641 F7800.000
G1 E2.00000 F2400.00000
M106 S255

G1 F3600
G1 X101.296 Y105.389 E2.01985
G1 X100.465 Y104.605 E2.05815
G1 X100.748 Y104.718 E2.06836
G1 X100.902 Y104.429 E2.07934
G1 X100.896 Y104.253 E2.08526
G1 X101.797 Y105.103 E2.12682
M106 S255

G1 E0.12682 F2400.00000
G92 E0
G1 X101.359 Y96.534 F7800.000
G1 E2.00000 F2400.00000
G1 F600
G1 X101.684 Y96.209 E2.01630
G1 X101.296 Y95.889 E2.03416
G1 X100.113 Y97.072 E2.09344
G1 X99.954 Y96.946 E2.10062
G1 X99.748 Y96.728 E2.11126
G1 X100.832 Y95.644 E2.16560
G1 X100.568 Y95.560 E2.17543
G1 X100.367 Y95.552 E2.18255
G1 X100.255 Y95.574 E2.18658
G1 X100.112 Y95.656 E2.19243
G1 X99.644 Y96.123 E2.21589
G1 X99.773 Y95.994 E2.22238
G1 Z4.500 F7800.000
G1 E0.22238 F2400.00000
G92 E0
G1 X100.562 Y104.833 F7800.000
G1 E2.00000 F2400.00000
M106 S255

G1 F3600
G1 X100.492 Y104.306 E2.02101
G1 X99.847 Y104.350 E2.04655
G1 X99.972 Y105.300 E2.08435
G1 X99.686 Y105.389 E2.09616
G1 X99.331 Y105.377 E2.11021
G1 X99.191 Y104.321 E2.15222
G1 X98.540 Y104.327 E2.17791
G1 X98.610 Y104.855 E2.19891
M106 S255

G1 X98.005 Y103.548 F7800.000
M106 S255

G1 F3600
G1 X97.921 Y102.907 E2.21811
G1 X98.266 Y102.636 E2.23113
G1 X97.950 Y102.219 E2.24667
G1 X97.839 Y102.289 E2.25055
M106 S255

G1 X97.220 Y101.926 F7800.000
M106 S255

G1 F3600
G1 X97.290 Y102.460 E2.26652
G1 X97.423 Y102.850 E2.27874
G1 X97.587 Y103.140 E2.28862
G1 X97.839 Y103.411 E2.29961
G1 X97.721 Y103.265 E2.30518
G1 X97.593 Y103.016 E2.31349
G1 X97.909 Y102.816 E2.32458
G1 X97.597 Y100.458 E2.39514
G1 X98.034 Y100.367 E2.40838
G1 X98.156 Y100.358 E2.41200
G1 X98.272 Y101.241 E2.43843
G1 X98.276 Y101.056 E2.44394
G1 X98.589 Y101.044 E2.45322
G1 X98.825 Y101.100 E2.46044
G1 X98.722 Y100.319 E2.48381
G1 X98.969 Y100.316 E2.49113
G1 X99.130 Y100.351 E2.49601
G1 X99.309 Y100.436 E2.50190
G1 X99.422 Y101.289 E2.52743
M106 S255

G1 X98.941 Y101.976 F7800.000
M106 S255

G1 F3600
G1 X98.772 Y100.693 E2.56582
G1 X98.707 Y101.087 E2.57765
G1 X98.246 Y101.044 E2.59138
M106 S255

M106 S255

G1 F3600
G1 X98.570 Y103.494 E2.66469
G1 X98.647 Y103.385 E2.66866
G1 X98.844 Y103.509 E2.67556
G1 X99.066 Y103.579 E2.68247
G1 X98.962 Y103.978 E2.69470
G1 X98.987 Y103.984 E2.69546
G1 X99.208 Y103.999 E2.70204
G1 X98.967 Y102.172 E2.75671
G1 X99.212 Y102.067 E2.76462
G1 X99.450 Y102.035 E2.77174
G1 X99.449 Y102.049 E2.77215
G1 X99.524 Y102.062 E2.77441
G1 X99.764 Y103.881 E2.82883
G1 X99.985 Y103.846 E2.83545
G1 X99.974 Y103.782 E2.83736
G1 X100.306 Y103.658 E2.84789
G1 X100.047 Y101.696 E2.90658
G1 X100.196 Y101.724 E2.91107
G1 X100.407 Y101.722 E2.91733
G1 X100.607 Y101.605 E2.92419
G1 X100.855 Y103.480 E2.98029
G1 X101.220 Y103.259 E2.99296
G1 X101.371 Y103.060 E3.00037
G1 X100.913 Y99.591 E3.10416
G1 X101.096 Y99.744 E3.11125
G1 X101.217 Y99.881 E3.11666
G1 X101.357 Y100.093 E3.12419
G1 X101.550 Y100.494 E3.13741
G1 X101.634 Y100.777 E3.14617
G1 X101.731 Y101.461 E3.16666
M106 S255

G1 X100.420 Y100.189 F7800.000
M106 S255

G1 F3600
G1 X100.307 Y99.332 E3.19229
M106 S255

G1 Z5.000 F7800.000
G1 E1.19229 F2400.00000
G92 E0
G1 X101.233 Y101.335 F7800.000
G1 E2.00000 F2400.00000
M106 S255

G1 F3600
G1 X101.082 Y101.069 E2.00891
G1 X101.081 Y101.400 E2.01855
G1 X101.063 Y101.510 E2.02178
G1 X101.604 Y100.954 E2.04434
G1 X101.669 Y101.168 E2.05087
G1 X101.715 Y101.646 E2.06482
G1 X100.949 Y102.433 E2.09676
M106 S255

G1 X100.678 Y103.518 F7800.000
M106 S255

G1 F3600
G1 X101.050 Y103.135 E2.11230
G1 X101.378 Y102.733 E2.12738
G1 X101.457 Y102.595 E2.13200
G1 X101.147 Y102.598 E2.14104
G1 X101.118 Y102.259 E2.15093
G1 X99.271 Y104.159 E2.22800
G1 X99.098 Y104.158 E2.23304
G1 X98.554 Y104.091 E2.24898
G1 X100.303 Y102.292 E2.32199
G1 X100.088 Y102.289 E2.32826
G1 X99.626 Y102.183 E2.34205
G1 X98.009 Y103.846 E2.40953
G1 X97.859 Y103.763 E2.41452
G1 X97.635 Y103.593 E2.42269
G1 X97.552 Y103.510 E2.42610
G1 X99.056 Y101.962 E2.48888
M106 S255

G1 X99.182 Y101.833 F7800.000
M106 S255

G1 F3600
G1 X100.226 Y100.759 E2.53246
G1 X100.268 Y100.407 E2.54278
G1 X100.088 Y100.096 E2.55324
G1 X97.198 Y103.068 E2.67384
G1 X97.043 Y102.774 E2.68352
G1 X96.958 Y102.509 E2.69161
G1 X99.751 Y99.637 E2.80815
G1 X99.596 Y99.577 E2.81296
G1 X99.074 Y99.527 E2.82822
G1 X97.056 Y101.603 E2.91244
G1 X97.080 Y101.147 E2.92573
G1 X96.959 Y101.137 E2.92925
G1 X96.998 Y101.027 E2.93265
G1 X97.129 Y101.119 E2.93732
G1 X97.492 Y100.850 E2.95046
G1 X97.306 Y100.540 E2.96098
G1 X97.679 Y100.156 E2.97657
M106 S255

G1 X97.427 Y101.221 F7800.000
M106 S255

G1 F3600
G1 X97.423 Y101.303 E2.97895
G1 X97.350 Y101.300 E2.98108
G1 X96.851 Y101.813 E3.00188
M106 S255

G1 Z5.500 F7800.000
G1 X97.822 Y103.248 F7800.000
M106 S255

G1 F3600
G1 X98.229 Y103.606 E3.01837
G1 X98.393 Y103.726 E3.02457
G1 X98.582 Y103.828 E3.03111
G1 X98.961 Y103.955 E3.04327
G1 X99.379 Y104.004 E3.05609
G1 X99.529 Y103.987 E3.06070
G1 X99.400 Y103.873 E3.06594
G1 X99.165 Y103.929 E3.07327
G1 X98.864 Y103.913 E3.08247
G1 X98.862 Y103.400 E3.09810
G1 X96.991 Y101.752 E3.17405
G1 X96.960 Y101.524 E3.18106
G1 X96.956 Y101.250 E3.18942
G1 X96.991 Y100.988 E3.19747
G1 X100.219 Y103.831 E3.32850
G1 X100.314 Y103.795 E3.33159
G1 X100.583 Y103.628 E3.34122
G1 X100.719 Y103.507 E3.34678
G1 X100.414 Y103.238 E3.35919
G1 X100.241 Y103.235 E3.36444
G1 X100.021 Y103.191 E3.37128
G1 X99.881 Y103.132 E3.37592
G1 X99.551 Y102.932 E3.38765
G1 X99.235 Y102.845 E3.39765
G1 X99.042 Y102.737 E3.40440
G1 X98.933 Y102.627 E3.40910
G1 X98.852 Y102.466 E3.41459
G1 X98.807 Y102.295 E3.41997
G1 X98.826 Y102.026 E3.42818
G1 X98.684 Y101.905 E3.43386
G1 X98.641 Y101.911 E3.43521
G1 X98.574 Y101.617 E3.44438
G1 X97.216 Y100.422 E3.49948
G1 X97.273 Y100.332 E3.50269
G1 X97.587 Y99.984 E3.51699
G1 X99.351 Y101.538 E3.58860
G1 X99.549 Y101.488 E3.59483
G1 X99.723 Y101.558 E3.60053
G1 X99.823 Y101.642 E3.60451
G1 X100.097 Y101.475 E3.61431
G1 X100.400 Y101.728 E3.62631
G1 X100.309 Y101.961 E3.63392
G1 X100.329 Y101.972 E3.63461
G1 X100.511 Y101.794 E3.64235
G1 X98.075 Y99.649 E3.74123
G1 X98.501 Y99.521 E3.75479
G1 X98.761 Y99.489 E3.76276
G1 X100.851 Y101.330 E3.84759
M106 S255

G1 X100.517 Y100.272 F7800.000
M106 S255

G1 F3600
G1 X100.118 Y99.920 E3.86381
M106 S255

G1 E1.86381 F2400.00000
G92 E0
G1 X100.014 Y102.886 F7800.000
G1 E2.00000 F2400.00000
M106 S255

G1 F3600
G1 X100.277 Y102.840 E2.00813
G1 X100.654 Y102.685 E2.02054
G1 X101.063 Y103.045 E2.03714
M106 S255

G1 Z6.000 F7800.000
G1 X100.788 Y101.775 F7800.000
M106 S255

G1 F3600
G1 X100.856 Y101.245 E2.05517
G1 X100.863 Y100.959 E2.06483
G1 X100.843 Y100.824 E2.06946
G1 X100.796 Y100.667 E2.07496
G1 X100.654 Y100.405 E2.08504
G1 X100.454 Y100.179 E2.09521
G1 X100.390 Y100.135 E2.09783
G1 X100.068 Y102.682 E2.18445
G1 X99.817 Y102.626 E2.19312
G1 X99.486 Y102.491 E2.20518
G1 X99.810 Y99.928 E2.29232
G1 X99.746 Y99.918 E2.29453
G1 X99.369 Y99.925 E2.30725
G1 X99.202 Y99.950 E2.31295
G1 X98.974 Y101.753 E2.37427
G1 X98.899 Y101.673 E2.37798
G1 X98.843 Y101.298 E2.39076
G1 X98.468 Y101.343 E2.40351
G1 X98.416 Y101.370 E2.40545
G1 X98.566 Y100.186 E2.44572
G1 X98.315 Y100.350 E2.45583
G1 X98.052 Y100.632 E2.46884
G1 X97.929 Y100.826 E2.47662
G1 X97.846 Y101.090 E2.48594
G1 X97.779 Y101.618 E2.50389
M106 S255

G1 Z6.500 F7800.000
G1 X98.377 Y101.772 F7800.000
M106 S255

G1 F3600
G1 X98.475 Y101.828 E2.50856
G1 X98.916 Y101.759 E2.52702
G1 X98.943 Y101.928 E2.53409
G1 X99.141 Y101.817 E2.54348
G1 X99.411 Y102.294 E2.56613
G1 X99.346 Y102.331 E2.56921
G1 X100.007 Y102.713 E2.60078
G1 X100.297 Y102.611 E2.61349
G1 X100.429 Y102.527 E2.61996
G1 X100.559 Y102.399 E2.62752
G1 X100.615 Y102.302 E2.63214
G1 X98.927 Y101.327 E2.71275
G1 X99.372 Y101.148 E2.73259
G1 X99.563 Y101.097 E2.74075
G1 X99.748 Y101.091 E2.74839
G1 X99.910 Y101.132 E2.75531
G1 X100.380 Y101.404 E2.77776
M106 S255

G1 Z7.000 F7800.000
G1 E0.77776 F2400.00000
G92 E0
M107
; Filament-specific end gcode 
;END gcode for filament

M104 S0 ; turn off temperature
G28 X0  ; home X axis
M84     ; disable motors

M140 S0 ; set bed temperature
; filament used = 21.4mm (0.2cm3)
; total filament cost = 0.0

; avoid_crossing_perimeters = 0
; bed_shape = 0x0,200x0,200x200,0x200
; bed_temperature = 0
; before_layer_gcode = 
; between_objects_gcode = 
; bridge_acceleration = 0
; bridge_fan_speed = 100
; brim_connections_width = 0
; brim_width = 0
; complete_objects = 0
; cooling = 1
; default_acceleration = 0
; disable_fan_first_layers = 3
; duplicate_distance = 6
; end_filament_gcode = "; Filament-specific end gcode \n;END gcode for filament\n"
; end_gcode = M104 S0 ; turn off temperature\nG28 X0  ; home X axis\nM84     ; disable motors\n
; extruder_clearance_height = 20
; extruder_clearance_radius = 20
; extruder_offset = 0x0
; extrusion_axis = E
; extrusion_multiplier = 1
; fan_always_on = 0
; fan_below_layer_time = 60
; filament_colour = #FFFFFF
; filament_cost = 0
; filament_density = 0
; filament_diameter = 3
; filament_max_volumetric_speed = 0
; filament_notes = ""
; first_layer_acceleration = 0
; first_layer_bed_temperature = 0
; first_layer_extrusion_width = 200%
; first_layer_speed = 30
; first_layer_temperature = 205
; gcode_arcs = 0
; gcode_comments = 0
; gcode_flavor = reprap
; has_heatbed = 1
; infill_acceleration = 0
; infill_first = 0
; interior_brim_width = 0
; layer_gcode = 
; max_fan_speed = 100
; max_layer_height = 0.3
; max_print_speed = 80
; max_volumetric_speed = 0
; min_fan_speed = 35
; min_layer_height = 0.15
; min_print_speed = 10
; min_skirt_length = 0
; notes = 
; nozzle_diameter = 0.5
; only_retract_when_crossing_perimeters = 1
; ooze_prevention = 0
; output_filename_format = [input_filename_base].gcode
; perimeter_acceleration = 0
; post_process = 
; pressure_advance = 0
; printer_notes = 
; resolution = 0
; retract_before_travel = 2
; retract_layer_change = 0
; retract_length = 2
; retract_length_toolchange = 10
; retract_lift = 0
; retract_lift_above = 0
; retract_lift_below = 0
; retract_restart_extra = 0
; retract_restart_extra_toolchange = 0
; retract_speed = 40
; skirt_distance = 6
; skirt_height = 1
; skirts = 0
; slowdown_below_layer_time = 5
; spiral_vase = 0
; standby_temperature_delta = -5
; start_filament_gcode = "; Filament gcode\n"
; start_gcode = G28 ; home all axes\nG1 Z5 F5000 ; lift nozzle\n
; temperature = 200
; threads = 8
; toolchange_gcode = 
; travel_speed = 130
; use_firmware_retraction = 0
; use_relative_e_distances = 0
; use_set_and_wait_bed = 0
; use_set_and_wait_extruder = 0
; use_volumetric_e = 0
; vibration_limit = 0
; wipe = 0
; z_offset = 0
; z_steps_per_mm = 0
; adaptive_slicing = 0
; adaptive_slicing_quality = 75%
; dont_support_bridges = 1
; extrusion_width = 0
; first_layer_height = 1
; infill_only_where_needed = 0
; interface_shells = 0
; layer_height = 1
; match_horizontal_surfaces = 0
; raft_layers = 0
; regions_overlap = 0
; seam_position = aligned
; sequential_print_priority = 0
; support_material = 0
; support_material_angle = 0
; support_material_buildplate_only = 0
; support_material_contact_distance = 0.2
; support_material_enforce_layers = 0
; support_material_extruder = 1
; support_material_extrusion_width = 0
; support_material_interface_extruder = 1
; support_material_interface_extrusion_width = 0
; support_material_interface_layers = 3
; support_material_interface_spacing = 0
; support_material_interface_speed = 100%
; support_material_max_layers = 0
; support_material_pattern = pillars
; support_material_spacing = 2.5
; support_material_speed = 60
; support_material_threshold = 60%
; xy_size_compensation = 0
; bottom_infill_pattern = rectilinear
; bottom_solid_layers = 3
; bridge_flow_ratio = 1
; bridge_speed = 60
; external_perimeter_extrusion_width = 0
; external_perimeter_speed = 50%
; external_perimeters_first = 0
; extra_perimeters = 1
; fill_angle = 45
; fill_density = 5%
; fill_gaps = 1
; fill_pattern = stars
; gap_fill_speed = 20
; infill_every_layers = 1
; infill_extruder = 1
; infill_extrusion_width = 0
; infill_overlap = 55%
; infill_speed = 80
; overhangs = 1
; perimeter_extruder = 1
; perimeter_extrusion_width = 0
; perimeter_speed = 60
; perimeters = 0
; small_perimeter_speed = 15
; solid_infill_below_area = 70
; solid_infill_every_layers = 0
; solid_infill_extruder = 1
; solid_infill_extrusion_width = 0
; solid_infill_speed = 20
; thin_walls = 1
; top_infill_extrusion_width = 0
; top_infill_pattern = rectilinear
; top_solid_infill_speed = 15
; top_solid_layers = 3
