; generated by Slic3r 1.3.0 on 2020-03-11 at 15:50:11

; external perimeters extrusion width = 0.55mm (5.57mm^3/s)
; perimeters extrusion width = 0.58mm (11.78mm^3/s)
; infill extrusion width = 0.58mm (15.71mm^3/s)
; solid infill extrusion width = 0.58mm (3.93mm^3/s)
; top infill extrusion width = 0.58mm (2.95mm^3/s)

M107
M104 S205 ; set temperature
G28 ; home all axes
G1 Z5 F5000 ; lift nozzle

; Filament gcode

M109 S205 ; set temperature and wait for it to be reached
G21 ; set units to millimeters
G90 ; use absolute coordinates
M82 ; use absolute distances for extrusion
G92 E0
G1 Z0.400 F7800.000
G1 E-2.00000 F2400.00000
G92 E0
G1 X100.966 Y92.092 F7800.000
G1 E2.00000 F2400.00000
G1 F925.404
G1 X92.899 Y100.159 E2.46103
G1 X92.909 Y100.395 E2.47058
G1 X93.022 Y101.198 E2.50334
G1 X93.223 Y101.983 E2.53611
G1 X93.430 Y102.552 E2.56057
G1 X93.603 Y102.926 E2.57722
G1 X103.731 Y92.798 E3.15605
G1 X104.224 Y93.047 E3.17837
G1 X104.735 Y93.371 E3.20283
G1 X105.217 Y93.737 E3.22728
G1 X105.760 Y94.240 E3.25720
G1 X95.049 Y104.951 E3.86934
G1 X95.591 Y105.439 E3.89881
G1 X96.078 Y105.798 E3.92326
G1 X96.593 Y106.115 E3.94771
G1 X97.106 Y106.365 E3.97077
G1 X107.177 Y96.294 E4.54633
G1 X107.337 Y96.654 E4.56224
G1 X107.535 Y97.226 E4.58670
G1 X107.726 Y98.014 E4.61947
G1 X107.828 Y98.818 E4.65224
G1 X107.836 Y99.106 E4.66386
G1 X99.916 Y107.026 E5.11654
M104 S200 ; set temperature
G1 Z0.800 F7800.000
G1 E3.11654 F2400.00000
G92 E0
G1 X102.845 Y106.474 F7800.000
G1 E2.00000 F2400.00000
G1 F600
G1 X102.463 Y106.092 E2.01598
G1 X102.854 Y105.743 E2.03149
G1 X103.381 Y106.270 E2.05355
G1 X103.884 Y106.034 F7800.000
G1 F600
G1 X103.502 Y105.652 E2.06953
G1 E0.06953 F2400.00000
G92 E0
G1 X107.519 Y99.313 F7800.000
G1 E2.00000 F2400.00000
G1 F600
G1 X107.667 Y99.670 E2.01288
G1 X107.661 Y99.455 E2.02003
G1 X107.137 Y98.931 E2.04474
G1 X106.975 Y98.616 E2.05656
G1 X107.084 Y98.589 E2.06031
G1 X107.181 Y98.142 E2.07555
G1 X107.563 Y98.524 E2.09355
G1 X107.374 Y100.432 F7800.000
G1 F1436.5
G1 X99.259 Y92.317 E2.41234
G1 X98.741 Y92.394 E2.42689
G1 X98.166 Y92.537 E2.44335
G1 X97.416 Y92.805 E2.46547
G1 X96.653 Y93.182 E2.48911
G1 X106.734 Y103.263 E2.88510
G1 X106.428 Y103.767 E2.90150
G1 X105.941 Y104.398 E2.92362
G1 X105.535 Y104.832 E2.94013
G1 X105.206 Y105.128 E2.95241
G1 X105.192 Y105.104 E2.95320
G1 X105.132 Y105.132 E2.95503
G1 X94.983 Y94.983 E3.35371
G1 X94.840 Y95.403 E3.36604
G1 X94.749 Y95.810 E3.37763
G1 X94.701 Y96.224 E3.38921
G1 X94.682 Y96.713 E3.40278
G1 X94.220 Y96.502 E3.41690
G1 X93.931 Y96.789 E3.42819
G1 X93.657 Y97.128 E3.44031
G1 X102.583 Y106.054 E3.79094
G1 X102.084 Y106.403 E3.80786
G1 X101.714 Y106.598 E3.81947
G1 X101.225 Y106.802 E3.83420
G1 X101.232 Y106.828 E3.83494
G1 X100.506 Y106.863 E3.85512
G1 X99.882 Y106.824 E3.87247
G1 X93.092 Y100.034 E4.13922
G1 X106.463 Y96.050 F7800.000
G1 F1436.5
G1 X106.156 Y95.510 E4.15647
G1 X105.688 Y94.866 E4.17859
G1 X105.294 Y94.423 E4.19506
G1 X104.709 Y93.880 E4.21722
G1 X104.236 Y93.521 E4.23372
G1 X103.790 Y93.239 E4.24837
G1 X103.781 Y93.264 E4.24911
G1 X103.643 Y93.230 E4.25306
G1 X106.845 Y96.432 E4.37883
G1 E2.37883 F2400.00000
G92 E0
G1 X94.754 Y95.635 F7800.000
G1 E2.00000 F2400.00000
G1 F600
G1 X94.373 Y95.253 E2.01695
G1 X94.247 Y95.426 E2.02366
G1 X94.067 Y95.732 E2.03479
G1 X94.621 Y96.286 E2.05940
G1 X94.613 Y96.356 E2.06160
G1 X94.512 Y96.314 E2.06504
G1 X94.168 Y96.617 E2.07942
G1 X93.786 Y96.235 E2.09637
G1 E0.09637 F2400.00000
G92 E0
G1 X101.236 Y92.339 F7800.000
G1 E2.00000 F2400.00000
G1 F600
G1 X101.656 Y92.759 E2.01978
G1 X102.308 Y92.578 F7800.000
G1 F600
G1 X102.690 Y92.959 E2.03778
G1 Z1.200 F7800.000
G1 E0.03778 F2400.00000
G92 E0
G1 X104.097 Y94.586 F7800.000
G1 E2.00000 F2400.00000
G1 F600
G1 X103.715 Y94.968 E2.01562
G1 X103.807 Y95.090 E2.02005
G1 X104.060 Y95.346 E2.03046
G1 X104.632 Y94.774 E2.05386
G1 X104.866 Y94.934 E2.06208
G1 X105.041 Y95.087 E2.06881
G1 X104.424 Y95.704 E2.09404
G1 X104.797 Y96.055 E2.10884
G1 X105.367 Y95.484 E2.13218
G1 X105.376 Y95.498 E2.13265
G1 X105.531 Y95.827 E2.14319
G1 X105.571 Y96.003 E2.14840
G1 X105.189 Y96.385 E2.16403
G1 E0.16403 F2400.00000
G92 E0
G1 X105.838 Y101.810 F7800.000
G1 E2.00000 F2400.00000
G1 F600
G1 X105.814 Y101.638 E2.00580
G1 X105.729 Y101.758 E2.01068
G1 X105.555 Y102.093 E2.02328
G1 X106.220 Y101.429 E2.05461
G1 X106.206 Y101.662 E2.06239
G1 X106.166 Y101.894 E2.07025
G1 X106.061 Y102.201 E2.08107
G1 X105.962 Y102.405 E2.08862
G1 X105.843 Y102.599 E2.09621
G1 X105.707 Y102.771 E2.10352
G1 X105.244 Y103.237 E2.12542
G1 E0.12542 F2400.00000
G92 E0
G1 X100.118 Y105.695 F7800.000
G1 E2.00000 F2400.00000
G1 F600
G1 X100.500 Y105.313 E2.01662
G1 X100.354 Y105.268 E2.02133
G1 X99.857 Y105.188 E2.03681
G1 X99.186 Y105.859 E2.06600
G1 X98.843 Y105.803 E2.07670
G1 X98.561 Y105.715 E2.08578
G1 X99.182 Y105.093 E2.11279
G1 X98.627 Y105.030 E2.12998
G1 X98.474 Y105.033 E2.13469
G1 X98.092 Y105.415 E2.15130
G1 X100.079 Y106.863 F7800.000
G1 F2202.17
G1 X105.548 Y101.394 E2.36613
G1 X104.884 Y102.784 E2.40892
G1 X104.785 Y103.131 E2.41893
G1 X104.816 Y103.441 E2.42760
G1 X105.065 Y103.631 E2.43628
G1 X105.373 Y103.604 E2.44487
G1 X105.698 Y103.439 E2.45501
G1 X105.974 Y103.202 E2.46510
G1 X106.248 Y102.876 E2.47693
G1 X106.456 Y102.519 E2.48842
G1 X106.608 Y102.134 E2.49990
G1 X106.694 Y101.717 E2.51173
G1 X106.709 Y101.355 E2.52181
G1 X106.638 Y100.997 E2.53195
G1 X106.468 Y100.738 E2.54054
G1 X106.258 Y100.684 E2.54657
G1 X107.272 Y99.670 E2.58639
G1 X107.034 Y99.054 E2.60473
G1 X106.582 Y98.283 E2.62956
G1 X107.050 Y98.181 E2.64284
G1 X107.103 Y97.916 E2.65036
G1 X107.140 Y97.500 E2.66195
G1 X107.134 Y97.082 E2.67359
G1 X107.107 Y96.809 E2.68119
G1 X107.038 Y96.433 E2.69181
G1 X98.523 Y104.948 E3.02630
G1 X98.267 Y104.920 E3.03345
G1 X97.910 Y104.931 E3.04338
G1 X97.627 Y105.048 E3.05187
G1 X97.509 Y105.332 E3.06044
G1 X97.616 Y105.618 E3.06891
G1 X97.727 Y105.744 E3.07357
G1 X97.240 Y106.231 E3.09271
G1 X96.952 Y106.095 E3.10156
G1 X96.924 Y106.145 E3.10313
G1 X96.474 Y105.764 E3.11952
G1 X96.285 Y105.566 E3.12712
G1 X96.019 Y105.235 E3.13892
G1 X95.797 Y104.892 E3.15027
G1 X95.618 Y104.519 E3.16175
G1 X95.938 Y104.160 E3.17513
G1 X95.869 Y104.131 E3.17722
G1 X104.394 Y95.606 E3.51211
G1 X105.139 Y96.301 E3.54041
G1 X105.434 Y96.502 E3.55033
G1 X105.731 Y96.573 E3.55882
G1 X105.995 Y96.413 E3.56739
G1 X106.075 Y96.119 E3.57587
G1 X106.041 Y95.825 E3.58409
G1 X105.992 Y95.658 E3.58892
G1 X105.881 Y95.399 E3.59676
G1 X105.735 Y95.149 E3.60478
G1 X105.567 Y94.930 E3.61246
G1 X105.322 Y94.678 E3.62221
G1 X105.627 Y94.373 E3.63420
G1 X105.244 Y94.010 E3.64887
G1 X104.628 Y93.522 E3.67070
G1 X104.657 Y93.478 E3.67215
G1 X104.182 Y93.282 E3.68643
G1 X103.643 Y93.141 E3.70190
G1 X103.419 Y93.110 E3.70817
G1 X94.990 Y101.539 E4.03930
G1 X94.988 Y101.346 E4.04466
G1 X94.916 Y100.874 E4.05790
G1 X94.663 Y99.525 E4.09604
G1 X94.539 Y99.186 E4.10605
G1 X94.331 Y98.954 E4.11472
G1 X94.110 Y98.948 E4.12088
G1 X98.919 Y94.139 E4.30982
G1 X99.057 Y94.059 E4.31425
G1 X99.340 Y93.841 E4.32417
G1 X99.496 Y93.562 E4.33303
G1 X100.600 Y92.458 E4.37641
G1 X100.218 Y92.840 F7800.000
G1 F2202.17
G1 X99.902 Y92.754 E4.38553
G1 X99.494 Y92.686 E4.39701
G1 X99.035 Y92.658 E4.40979
G1 X99.042 Y92.718 E4.41146
G1 X98.356 Y92.866 E4.43095
G1 X97.787 Y93.042 E4.44751
G1 X97.416 Y93.186 E4.45856
G1 X96.876 Y93.440 E4.47512
G1 X96.360 Y93.738 E4.49168
G1 X95.872 Y94.070 E4.50809
G1 X95.839 Y94.029 E4.50953
G1 X95.679 Y94.203 E4.51610
G1 X95.427 Y94.535 E4.52767
G1 X95.279 Y94.764 E4.53524
G1 X95.083 Y95.135 E4.54690
G1 X94.974 Y95.386 E4.55451
G1 X94.842 Y95.781 E4.56607
G1 X94.729 Y96.330 E4.58165
G1 X94.666 Y97.101 E4.60314
G1 X94.227 Y96.889 E4.61669
G1 X93.929 Y97.174 E4.62816
G1 X93.667 Y97.496 E4.63969
G1 X93.439 Y97.845 E4.65126
G1 X93.248 Y98.212 E4.66274
G1 X93.081 Y98.637 E4.67544
G1 X93.140 Y98.648 E4.67710
G1 X93.068 Y99.350 E4.69668
G1 X93.061 Y99.997 E4.71465
G1 X94.027 Y99.031 E4.75260
G1 X93.943 Y99.308 E4.76064
G1 X93.887 Y99.725 E4.77234
G1 X93.908 Y100.146 E4.78405
G1 X93.991 Y100.551 E4.79552
G1 X94.141 Y100.946 E4.80728
G1 X94.359 Y101.307 E4.81899
G1 X94.471 Y101.439 E4.82379
G1 X94.676 Y101.620 E4.83140
G1 X94.843 Y101.686 E4.83638
G1 X93.807 Y102.722 E4.87707
G1 E2.87707 F2400.00000
G92 E0
G1 X96.732 Y94.899 F7800.000
G1 E2.00000 F2400.00000
G1 F600
G1 X97.830 Y93.801 E2.05176
G1 X98.526 Y93.939 F7800.000
G1 F600
G1 X98.908 Y93.557 E2.06976
G1 E0.06976 F2400.00000
G92 E0
G1 X94.140 Y99.519 F7800.000
G1 E2.00000 F2400.00000
G1 F600
G1 X94.522 Y99.137 E2.01708
G1 X94.571 Y99.275 E2.02171
G1 X94.673 Y99.777 E2.03791
G1 X94.011 Y100.439 E2.06754
G1 X94.081 Y100.799 E2.07913
G1 X94.178 Y101.063 E2.08803
G1 X94.793 Y100.447 E2.11558
G1 X94.879 Y101.004 E2.13340
G1 X94.881 Y101.150 E2.13803
G1 X94.499 Y101.532 E2.15512
M106 S239.7
G1 Z1.600 F7800.000
G1 E0.15512 F2400.00000
G92 E0
G1 X94.941 Y98.412 F7800.000
G1 E2.00000 F2400.00000
G1 F4800
G1 X101.509 Y104.980 E2.25800
G1 X102.040 Y104.855 E2.27315
G1 X102.514 Y104.693 E2.28706
G1 X102.764 Y104.587 E2.29461
G1 X103.245 Y104.336 E2.30969
G1 X103.476 Y104.193 E2.31724
G1 X103.890 Y103.890 E2.33149
G1 X96.030 Y96.030 E2.64027
G1 X96.225 Y95.800 E2.64864
G1 X96.609 Y95.417 E2.66372
G1 X97.030 Y95.074 E2.67880
G1 X97.349 Y94.853 E2.68957
G1 X97.319 Y94.794 E2.69141
G1 X97.941 Y94.470 E2.71090
G1 X105.446 Y101.975 E3.00574
G1 E1.00574 F2400.00000
G92 E0
G1 X105.799 Y98.857 F7800.000
G1 E2.00000 F2400.00000
G1 F4800
G1 X101.064 Y94.122 E2.18599
G1 X101.416 Y94.193 E2.19595
G1 X101.897 Y94.332 E2.20987
G1 X102.382 Y94.525 E2.22437
G1 X102.626 Y94.644 E2.23191
G1 X103.094 Y94.919 E2.24699
G1 X103.589 Y95.284 E2.26408
G1 X103.638 Y95.236 E2.26597
G1 X104.226 Y95.812 E2.28885
G1 X104.181 Y95.853 E2.29057
G1 X104.620 Y96.445 E2.31102
G1 X104.895 Y96.913 E2.32611
G1 X105.014 Y97.157 E2.33365
G1 X105.120 Y97.407 E2.34120
G1 X105.282 Y97.881 E2.35511
G1 X105.417 Y98.475 E2.37203
G1 X105.654 Y97.435 F7800.000
G1 F1200
G1 X107.003 Y98.785 E2.42626
G1 X107.077 Y98.470 E2.43547
G1 X107.278 Y98.515 E2.44132
G1 X107.406 Y98.478 E2.44512
G1 X105.444 Y96.516 E2.52398
G1 X105.613 Y96.413 E2.52959
G1 X105.694 Y96.119 E2.53826
G1 X105.687 Y96.049 E2.54027
G1 X107.599 Y97.960 E2.61711
G1 X107.467 Y99.248 F7800.000
G1 F1200
G1 X106.862 Y98.644 E2.64140
G1 X106.546 Y98.724 E2.65069
G1 X106.575 Y98.600 E2.65431
G1 X106.326 Y98.818 E2.66372
G1 X107.796 Y100.288 E2.72279
G1 X107.823 Y100.401 E2.72611
G1 X107.889 Y101.091 E2.74581
G1 X105.980 Y99.183 E2.82253
G1 X105.961 Y99.874 E2.84219
G1 X107.860 Y101.772 E2.91849
G1 X107.815 Y102.133 E2.92882
G1 X107.754 Y102.377 E2.93597
G1 X105.873 Y100.495 E3.01161
G1 X105.834 Y100.673 E3.01679
G1 X106.086 Y100.738 E3.02418
G1 X106.256 Y100.997 E3.03297
G1 X106.330 Y101.367 E3.04370
G1 X106.318 Y101.651 E3.05178
G1 X107.589 Y102.923 E3.10290
G1 X107.472 Y103.233 E3.11233
G1 X107.375 Y103.419 E3.11828
G1 X106.192 Y102.235 E3.16584
G1 X106.074 Y102.519 E3.17456
G1 X105.965 Y102.719 E3.18105
G1 X107.119 Y103.873 E3.22741
G1 X106.935 Y104.146 E3.23677
G1 X106.820 Y104.284 E3.24188
G1 X105.663 Y103.127 E3.28836
G1 X105.490 Y103.298 E3.29529
G1 X105.284 Y103.458 E3.30269
G1 X106.484 Y104.658 E3.35094
G1 X106.115 Y105.000 E3.36523
G1 X104.742 Y103.627 E3.42041
G1 X104.683 Y103.631 E3.42209
G1 X104.434 Y103.441 E3.43098
G1 X104.422 Y103.328 E3.43423
G1 X104.076 Y103.671 E3.44808
G1 X105.703 Y105.298 E3.51347
G1 X105.256 Y105.562 E3.52821
G1 X103.686 Y103.992 E3.59132
G1 X103.266 Y104.282 E3.60583
G1 X104.764 Y105.779 E3.66601
G1 X104.225 Y105.951 E3.68208
G1 X102.814 Y104.540 E3.73878
G1 X102.326 Y104.762 E3.75402
G1 X103.170 Y105.606 E3.78793
G1 X103.141 Y105.608 E3.78876
G1 X103.362 Y105.972 E3.80087
G1 X103.088 Y106.234 E3.81166
G1 X101.798 Y104.944 E3.86352
G1 X101.223 Y105.079 E3.88031
G1 X102.690 Y106.547 E3.93929
G1 X102.250 Y106.817 E3.95396
G1 X100.685 Y105.253 E4.01686
G1 X100.703 Y105.397 E4.02098
G1 X100.529 Y105.632 E4.02930
G1 X100.424 Y105.702 E4.03288
G1 X101.775 Y107.052 E4.08716
G1 X101.247 Y107.234 E4.10303
G1 X99.922 Y105.910 E4.15628
G1 X99.653 Y105.961 E4.16408
G1 X99.276 Y105.974 E4.17478
G1 X100.666 Y107.364 E4.23064
G1 X100.100 Y107.425 E4.24683
G1 X100.016 Y107.424 E4.24923
G1 X98.381 Y105.789 E4.31492
G1 X97.900 Y105.309 F7800.000
G1 F1200
G1 X96.182 Y103.590 E4.38400
G1 X95.898 Y103.880 E4.39554
G1 X95.720 Y103.839 E4.40072
G1 X99.265 Y107.384 E4.54322
G1 X98.670 Y107.272 E4.56043
G1 X98.332 Y107.161 E4.57056
G1 X95.470 Y104.299 E4.68559
G1 X95.277 Y104.550 E4.69460
G1 X95.419 Y104.798 E4.70274
G1 X95.673 Y105.158 E4.71526
G1 X95.857 Y105.382 E4.72347
G1 X96.538 Y106.078 E4.75116
G1 E2.75116 F2400.00000
G92 E0
G1 X93.308 Y102.137 F7800.000
G1 E2.00000 F2400.00000
G1 F1200
G1 X93.560 Y102.592 E2.01478
G1 X93.721 Y102.829 E2.02292
G1 X93.993 Y103.174 E2.03541
G1 X94.187 Y103.386 E2.04356
G1 X94.733 Y103.868 E2.06428
G1 X95.094 Y104.117 E2.07673
G1 X95.515 Y104.344 E2.09033
G1 X92.926 Y101.755 E2.19437
G1 X92.840 Y101.574 E2.20009
G1 X92.637 Y101.029 E2.21661
G1 X92.550 Y100.669 E2.22714
G1 X95.861 Y103.979 E2.36020
G1 X95.929 Y103.679 E2.36895
G1 X96.368 Y103.776 E2.38172
G1 X92.435 Y99.843 E2.53980
G1 X92.436 Y99.318 E2.55472
G1 X92.456 Y99.154 E2.55942
G1 X93.922 Y100.620 E2.61834
G1 X93.887 Y100.252 E2.62884
G1 X93.908 Y99.895 E2.63901
G1 X92.555 Y98.543 E2.69338
G1 X92.644 Y98.181 E2.70396
G1 X92.715 Y97.992 E2.70970
G1 X94.062 Y99.340 E2.76388
G1 X94.167 Y99.149 E2.77005
G1 X94.389 Y98.956 E2.77842
G1 X92.922 Y97.489 E2.83738
G1 X93.176 Y97.033 E2.85222
G1 X94.841 Y98.698 E2.91915
G1 X94.976 Y98.123 E2.93594
G1 X93.468 Y96.615 E2.99655
G1 X93.730 Y96.310 E3.00797
G1 X93.953 Y96.389 E3.01471
G1 X95.158 Y97.594 E3.06315
G1 X95.381 Y97.106 E3.07840
G1 X94.248 Y95.973 E3.12393
G1 X94.330 Y95.521 E3.13700
G1 X94.370 Y95.386 E3.14101
G1 X95.639 Y96.654 E3.19199
G1 X95.929 Y96.234 E3.20650
G1 X94.550 Y94.855 E3.26195
G1 X94.779 Y94.373 E3.27710
G1 X96.250 Y95.845 E3.33625
G1 X96.604 Y95.489 E3.35052
G1 X95.051 Y93.936 E3.41294
G1 X95.360 Y93.534 E3.42734
G1 X96.619 Y94.793 E3.47794
G1 X96.725 Y94.556 E3.48534
G1 X96.879 Y94.343 E3.49280
G1 X95.704 Y93.168 E3.54004
G1 X96.090 Y92.843 E3.55437
G1 X97.237 Y93.990 E3.60048
G1 X97.669 Y93.712 E3.61508
G1 X96.512 Y92.555 E3.66158
G1 X96.629 Y92.478 E3.66556
G1 X96.970 Y92.303 E3.67646
G1 X98.177 Y93.510 E3.72498
G1 X98.429 Y93.457 E3.73230
G1 X98.711 Y93.431 E3.74035
G1 X98.711 Y93.387 E3.74161
G1 X98.780 Y93.403 E3.74362
G1 X97.477 Y92.100 E3.79600
G1 X98.034 Y91.947 E3.81242
G1 X100.047 Y93.959 E3.89331
G1 X100.738 Y93.940 E3.91297
G1 X98.655 Y91.857 E3.99671
G1 X99.053 Y91.838 E4.00804
G1 X99.362 Y91.854 E4.01682
G1 X101.528 Y94.020 E4.10389
G1 X101.912 Y94.097 E4.11502
G1 X102.485 Y94.267 E4.13202
G1 X100.200 Y91.982 E4.22386
G1 X100.411 Y92.034 E4.23003
G1 X100.827 Y92.175 E4.24250
G1 X101.088 Y92.292 E4.25064
G1 X101.076 Y92.746 E4.26355
G1 X101.604 Y92.676 E4.27871
G1 X103.606 Y94.677 E4.35915
G1 X103.671 Y94.560 E4.36295
G1 X103.962 Y94.468 E4.37162
G1 X104.115 Y94.476 E4.37598
G1 X102.257 Y92.618 E4.45065
G1 X102.606 Y92.615 E4.46057
G1 X103.008 Y92.659 E4.47207
G1 X107.556 Y97.207 E4.65489
G1 X107.526 Y96.982 E4.66135
G1 X107.430 Y96.558 E4.67370
G1 X107.332 Y96.273 E4.68227
G1 X103.929 Y92.869 E4.81908
G1 X104.428 Y93.068 E4.83436
G1 X104.936 Y93.344 E4.85079
G1 X105.407 Y93.678 E4.86720
G1 X105.833 Y94.063 E4.88352
G1 X106.217 Y94.447 E4.89896
M106 S242.25
G1 Z2.000 F7800.000
G1 E2.89896 F2400.00000
G92 E0
G1 X104.682 Y96.528 F7800.000
G1 E2.00000 F2400.00000
G1 F1200
G1 X104.299 Y96.911 E2.01617
G1 X104.590 Y97.388 E2.03283
G1 X105.199 Y96.779 E2.05853
G1 X105.450 Y97.295 E2.07566
G1 X104.832 Y97.913 E2.10174
G1 X105.020 Y98.492 E2.11992
G1 X105.652 Y97.861 E2.14658
G1 X105.728 Y98.123 E2.15474
G1 X105.797 Y98.483 E2.16568
G1 X105.143 Y99.137 E2.19327
G1 X105.174 Y99.501 E2.20417
G1 X105.179 Y99.869 E2.21514
G1 X105.869 Y99.178 E2.24427
G1 X105.869 Y99.616 E2.25732
G1 X105.835 Y99.980 E2.26826
G1 X105.082 Y100.733 E2.30002
G1 X104.928 Y101.317 E2.31805
G1 X104.704 Y101.879 E2.33610
G1 X105.460 Y101.122 E2.36803
G1 X105.301 Y101.551 E2.38168
G1 X105.091 Y101.984 E2.39605
G1 X104.841 Y102.390 E2.41027
G1 X104.552 Y102.772 E2.42456
G1 X103.855 Y103.495 E2.45453
G1 X103.368 Y103.997 F7800.000
G1 F1200
G1 X103.751 Y103.614 E2.47068
G1 X103.795 Y103.436 E2.47615
G1 X103.850 Y103.455 E2.47787
G1 X103.687 Y103.271 E2.48520
G1 X103.234 Y103.595 E2.50182
G1 X102.791 Y103.845 E2.51701
G1 X101.839 Y104.797 E2.55717
G1 X101.416 Y104.919 E2.57033
G1 X100.890 Y105.016 E2.58628
G1 X101.658 Y104.249 E2.61868
G1 X101.290 Y104.317 E2.62983
G1 X100.812 Y104.365 E2.64417
G1 X100.117 Y105.061 E2.67353
G1 X99.923 Y105.061 E2.67930
G1 X99.434 Y105.014 E2.69397
G1 X100.098 Y104.350 E2.72198
G1 X99.467 Y104.252 E2.74103
G1 X98.829 Y104.890 E2.76795
G1 X98.451 Y104.780 E2.77970
G1 X98.279 Y104.711 E2.78524
G1 X98.900 Y104.090 E2.81146
G1 X98.385 Y103.876 E2.82812
G1 X97.774 Y104.487 E2.85389
G1 X97.484 Y104.336 E2.86363
G1 X97.310 Y104.222 E2.86985
G1 X97.914 Y103.617 E2.89535
G1 X97.484 Y103.318 E2.91098
G1 X96.884 Y103.919 E2.93632
G1 X96.494 Y103.580 E2.95174
G1 X96.895 Y103.178 E2.96869
G1 E0.96869 F2400.00000
G92 E0
G1 X101.543 Y94.457 F7800.000
G1 E2.00000 F2400.00000
G1 F1200
G1 X101.161 Y94.839 E2.01611
G1 X101.751 Y94.995 E2.03432
G1 X102.190 Y94.555 E2.05288
G1 X102.771 Y94.721 E2.07089
G1 X102.284 Y95.207 E2.09141
G1 X102.770 Y95.467 E2.10786
G1 X103.296 Y94.942 E2.13002
G1 X103.772 Y95.211 E2.14636
G1 X103.214 Y95.770 E2.16994
G1 X103.616 Y96.113 E2.18573
G1 X104.206 Y95.523 E2.21063
G1 X104.334 Y95.630 E2.21560
G1 X104.580 Y95.894 E2.22639
G1 X104.199 Y96.276 E2.24251
G1 E0.24251 F2400.00000
G92 E0
G1 X107.106 Y98.568 F7800.000
G1 E2.00000 F2400.00000
G1 F1200
G1 X106.724 Y98.950 E2.01642
G1 X106.686 Y99.046 E2.01956
G1 X106.649 Y99.052 E2.02072
G1 X106.897 Y99.471 E2.03555
G1 X107.735 Y98.634 E2.07157
G1 X107.937 Y99.127 E2.08778
G1 X107.103 Y99.962 E2.12368
G1 X107.248 Y100.511 E2.14096
G1 X108.091 Y99.669 E2.17718
G1 X108.195 Y100.260 E2.19543
G1 X107.321 Y101.134 E2.23300
G1 X107.320 Y101.557 E2.24585
G1 X107.294 Y101.857 E2.25501
G1 X108.220 Y100.930 E2.29485
G1 X108.212 Y101.265 E2.30503
G1 X108.153 Y101.693 E2.31816
G1 X107.093 Y102.753 E2.36375
G1 E0.36375 F2400.00000
G92 E0
G1 X106.388 Y104.849 F7800.000
G1 E2.00000 F2400.00000
G1 F1200
G1 X106.772 Y104.464 E2.01654
G1 X107.160 Y104.012 E2.03465
G1 X107.495 Y103.519 E2.05278
G1 X107.770 Y102.991 E2.07088
G1 X107.906 Y102.635 E2.08245
G1 X104.401 Y106.140 E2.23316
G1 X103.818 Y106.316 E2.25166
G1 X103.696 Y106.150 E2.25795
G1 X104.658 Y105.187 E2.29932
G1 X104.289 Y105.285 E2.31094
G1 X103.798 Y105.352 E2.32600
G1 X103.395 Y105.756 E2.34335
G1 X103.386 Y105.736 E2.34401
G1 X103.416 Y105.734 E2.34491
G1 X103.091 Y106.351 F7800.000
G1 F1200
G1 X103.474 Y105.968 E2.36140
G1 X103.388 Y105.722 E2.36930
G1 X103.187 Y105.537 E2.37761
G1 X101.277 Y107.447 E2.45972
G1 X100.878 Y107.579 E2.47251
G1 X100.309 Y107.698 E2.49018
G1 X101.399 Y106.608 E2.53706
G1 X100.897 Y106.757 E2.55297
G1 X100.452 Y106.838 E2.56674
G1 X99.538 Y107.752 E2.60604
G1 X99.102 Y107.742 E2.61931
G1 X98.860 Y107.712 E2.62671
G1 X99.701 Y106.871 E2.66288
G1 X99.056 Y106.799 E2.68262
G1 X98.259 Y107.596 E2.71689
G1 X98.079 Y107.555 E2.72249
G1 X97.711 Y107.426 E2.73435
G1 X98.484 Y106.654 E2.76756
G1 X97.968 Y106.452 E2.78439
G1 X97.207 Y107.213 E2.81713
G1 X97.034 Y107.122 E2.82306
G1 X97.550 Y106.841 E2.84091
G1 X97.112 Y106.591 E2.85626
G1 X97.504 Y106.199 E2.87312
G1 X97.082 Y105.903 E2.88878
G1 X96.326 Y106.659 E2.92130
G1 X95.941 Y106.327 E2.93677
G1 X96.704 Y105.563 E2.96959
G1 X96.370 Y105.180 E2.98505
G1 X95.584 Y105.966 E3.01886
G1 X95.269 Y105.564 E3.03440
G1 X96.081 Y104.752 E3.06932
G1 X95.853 Y104.271 E3.08550
G1 X95.415 Y104.700 E3.10414
G1 X95.344 Y104.242 F7800.000
G1 F1200
G1 X95.725 Y103.860 E3.12056
G1 X95.698 Y103.756 E3.12383
G1 X95.723 Y103.732 E3.12488
G1 X95.295 Y103.549 E3.13904
G1 X94.475 Y104.369 E3.17433
G1 X94.047 Y104.055 E3.19046
G1 X94.832 Y103.270 E3.22421
G1 X94.421 Y102.940 E3.24025
G1 X93.658 Y103.703 E3.27306
G1 X93.302 Y103.317 E3.28902
G1 X94.057 Y102.562 E3.32147
G1 X93.737 Y102.140 E3.33757
G1 X92.985 Y102.893 E3.36992
G1 X92.864 Y102.712 E3.37653
G1 X92.710 Y102.425 E3.38642
G1 X93.465 Y101.671 E3.41885
G1 X93.242 Y101.152 E3.43602
G1 X92.473 Y101.921 E3.46909
G1 X92.318 Y101.491 E3.48301
G1 X92.288 Y101.365 E3.48694
G1 X93.079 Y100.573 E3.52098
G1 X92.991 Y99.919 E3.54104
G1 X92.155 Y100.755 E3.57699
G1 X92.103 Y100.066 E3.59801
G1 X93.010 Y99.159 E3.63701
G1 X93.048 Y98.843 E3.64670
G1 X93.219 Y98.208 E3.66669
G1 X92.156 Y99.271 E3.71241
G1 X92.196 Y98.980 E3.72135
G1 X92.383 Y98.303 E3.74272
G1 X94.338 Y96.348 E3.82678
G1 X94.184 Y96.488 E3.83312
G1 X93.961 Y96.262 E3.84277
G1 X93.750 Y96.194 E3.84951
G1 X93.368 Y96.576 E3.86593
G1 X94.083 Y96.226 F7800.000
G1 F1200
G1 X95.031 Y95.278 E3.90671
G1 X95.160 Y94.878 E3.91947
G1 X95.345 Y94.460 E3.93337
G1 X95.572 Y94.066 E3.94722
G1 X95.805 Y93.744 E3.95929
G1 X94.114 Y95.435 E4.03199
G1 X94.295 Y94.973 E4.04705
G1 X94.556 Y94.467 E4.06436
G1 X94.819 Y94.062 E4.07905
G1 X95.095 Y93.711 E4.09263
G1 X95.506 Y93.283 E4.11069
G1 X95.511 Y93.278 F7800.000
G1 F1200
G1 X95.893 Y92.896 E4.12711
G1 X96.351 Y92.517 E4.14521
G1 X96.852 Y92.191 E4.16337
G1 X97.246 Y91.988 E4.17685
G1 X97.767 Y91.782 E4.19388
G1 X96.170 Y93.379 E4.26254
G1 X96.575 Y93.093 E4.27761
G1 X96.968 Y92.875 E4.29127
G1 X97.381 Y92.697 E4.30494
G1 X97.725 Y92.584 E4.31594
G1 X98.751 Y91.558 E4.36007
G1 X98.970 Y91.525 E4.36680
G1 X99.559 Y91.510 E4.38472
G1 X98.646 Y92.423 E4.42399
G1 X98.999 Y92.412 E4.43474
G1 X99.286 Y92.425 E4.44349
G1 X99.286 Y92.409 E4.44399
G1 X99.401 Y92.428 E4.44751
G1 X100.253 Y91.575 E4.48418
G1 X100.610 Y91.635 E4.49519
G1 X100.877 Y91.712 E4.50362
G1 X100.036 Y92.553 E4.53978
G1 X100.600 Y92.748 E4.55795
G1 X101.445 Y91.903 E4.59427
G1 X101.469 Y91.913 E4.59504
G1 X101.470 Y92.186 E4.60334
G1 X101.344 Y92.427 E4.61160
G1 X101.471 Y92.495 E4.61600
G1 X101.471 Y92.556 E4.61786
G1 X101.494 Y92.560 E4.61856
G1 X101.477 Y92.632 E4.62082
G1 X101.095 Y93.014 E4.63724
G1 X102.076 Y92.306 F7800.000
G1 F1200
G1 X101.694 Y92.688 E4.65367
G1 X101.619 Y92.939 E4.66162
G1 X101.676 Y93.219 E4.67031
G1 X101.441 Y93.271 E4.67760
G1 X101.521 Y93.330 E4.68061
G1 X101.513 Y93.374 E4.68197
G1 X101.797 Y93.302 E4.69087
G1 X102.827 Y92.273 E4.73513
G1 X103.130 Y92.285 E4.74437
G1 X103.488 Y92.328 E4.75534
G1 X102.593 Y93.224 E4.79384
G1 X102.925 Y93.238 E4.80396
G1 X103.254 Y93.280 E4.81403
G1 X104.082 Y92.452 E4.84965
G1 X104.413 Y92.551 E4.86017
G1 X104.616 Y92.634 E4.86685
G1 X103.834 Y93.417 E4.90050
G1 X104.353 Y93.615 E4.91740
G1 X105.112 Y92.855 E4.95006
G1 X105.568 Y93.116 E4.96604
G1 X104.822 Y93.863 E4.99812
G1 X105.248 Y94.154 E5.01380
G1 X105.986 Y93.416 E5.04556
G1 X106.364 Y93.755 E5.06100
G1 X105.631 Y94.488 E5.09251
G1 X105.974 Y94.862 E5.10794
G1 X106.708 Y94.128 E5.13948
G1 X107.023 Y94.530 E5.15501
G1 X106.277 Y95.276 E5.18708
G1 X106.535 Y95.735 E5.20309
G1 X107.294 Y94.976 E5.23573
G1 X107.530 Y95.458 E5.25203
G1 X106.746 Y96.241 E5.28572
G1 X106.899 Y96.805 E5.30350
G1 X107.716 Y95.989 E5.33862
G1 X107.860 Y96.561 E5.35658
G1 X106.976 Y97.446 E5.39460
G1 X106.971 Y97.868 E5.40746
G1 X106.933 Y98.205 E5.41776
G1 X107.936 Y97.202 E5.46089
G1 X107.945 Y97.632 E5.47397
G1 X107.925 Y97.930 E5.48305
G1 X107.543 Y98.312 E5.49948
G1 E3.49948 F2400.00000
G92 E0
G1 X97.132 Y106.571 F7800.000
G1 E2.00000 F2400.00000
G1 F1200
G1 X97.182 Y106.601 E2.00177
G1 X97.182 Y106.521 E2.00421
G1 X96.750 Y106.953 E2.02278
G1 E0.02278 F2400.00000
G92 E0
G1 X99.295 Y104.176 F7800.000
G1 E2.00000 F2400.00000
G1 F4800
G1 X104.984 Y98.484 E2.22355
G1 X104.807 Y97.844 E2.24201
G1 X104.538 Y97.237 E2.26046
G1 X104.182 Y96.675 E2.27892
G1 X103.788 Y96.212 E2.29582
G1 X97.021 Y102.979 E2.56163
G1 X96.692 Y102.625 E2.57506
G1 X96.125 Y102.606 E2.59080
G1 X95.883 Y102.313 E2.60135
G1 X95.611 Y101.918 E2.61466
G1 X95.433 Y101.606 E2.62465
G1 X95.270 Y101.259 E2.63530
G1 X101.565 Y94.964 E2.88259
G1 X101.218 Y94.898 E2.89240
G1 X100.777 Y94.855 E2.90471
G1 X100.334 Y94.855 E2.91701
G1 X99.893 Y94.898 E2.92932
G1 X99.458 Y94.985 E2.94164
G1 X99.034 Y95.113 E2.95395
G1 X98.625 Y95.283 E2.96625
G1 X98.255 Y95.472 E2.97781
G1 X98.010 Y95.048 E2.99142
G1 X97.522 Y95.536 E3.01059
G1 X97.527 Y95.385 E3.01480
G1 X97.820 Y95.142 E3.02535
G1 X98.159 Y94.899 E3.03694
G1 X97.906 Y95.152 E3.04687
G1 X97.586 Y95.356 E3.05742
G1 X97.628 Y95.430 E3.05979
G1 X97.904 Y95.154 F7800.000
G1 F4800
G1 X97.884 Y95.720 E3.07552
G1 X97.442 Y96.095 E3.09161
G1 X97.065 Y96.500 E3.10699
G1 X96.682 Y97.044 E3.12545
G1 X96.427 Y97.535 E3.14084
G1 X96.268 Y97.949 E3.15314
G1 X96.150 Y98.372 E3.16536
G1 X96.074 Y98.812 E3.17777
G1 X96.029 Y99.300 E3.19136
G1 X95.455 Y99.276 E3.20733
G1 X95.457 Y98.805 E3.22042
G1 X95.501 Y98.279 E3.23507
G1 X95.606 Y97.726 E3.25071
G1 X95.588 Y97.726 E3.25119
G1 X95.713 Y97.345 E3.26232
G1 X95.211 Y97.847 E3.28201
G1 E1.28201 F2400.00000
G92 E0
G1 X98.231 Y94.827 F7800.000
G1 E2.00000 F2400.00000
G1 F4800
G1 X98.655 Y94.403 E2.01665
G1 X98.833 Y94.332 E2.02197
G1 X99.314 Y94.193 E2.03589
G1 X99.940 Y94.086 E2.05352
G1 X99.509 Y94.203 E2.06593
G1 X99.136 Y94.337 E2.07692
G1 X98.658 Y94.558 E2.09157
G1 X98.288 Y94.770 E2.10341
G1 X100.067 Y94.541 F7800.000
G1 F1200
G1 X100.557 Y94.051 E2.12652
G1 X101.057 Y94.384 F7800.000
G1 F1200
G1 X100.675 Y94.766 E2.14452
M106 S234.6
G1 Z2.400 F7800.000
G1 X100.835 Y93.761 F7800.000
G1 F1200
G1 X101.413 Y94.339 E2.17176
G1 X102.060 Y94.405 E2.19347
G1 X102.385 Y94.478 E2.20456
G1 X101.770 Y93.863 E2.23355
G1 X102.248 Y93.984 E2.24999
G1 X102.587 Y94.104 E2.26197
G1 X102.912 Y94.247 E2.27384
G1 X103.085 Y94.345 E2.28044
G1 X103.467 Y94.727 E2.29845
G1 X103.827 Y96.634 F7800.000
G1 F1200
G1 X103.209 Y96.021 E2.32747
G1 X102.771 Y95.672 E2.34613
G1 X102.207 Y95.333 E2.36809
G1 X101.695 Y95.114 E2.38664
G1 X101.572 Y95.078 E2.39090
G1 X102.160 Y95.666 E2.41859
G1 X101.717 Y95.530 E2.43403
G1 X101.242 Y95.446 E2.45012
G1 X100.676 Y94.881 E2.47677
G1 X100.509 Y94.862 E2.48238
G1 X99.952 Y94.855 E2.50094
G1 X100.539 Y95.442 E2.52861
G1 X100.299 Y95.484 E2.53672
G1 X99.984 Y95.586 E2.54775
G1 X99.331 Y94.932 E2.57858
G1 X98.774 Y95.075 E2.59771
G1 X99.545 Y95.845 E2.63402
G1 X99.325 Y96.061 E2.64428
G1 X99.132 Y96.131 E2.65113
G1 X98.273 Y95.272 E2.69161
G1 X97.805 Y95.502 E2.70901
G1 X98.658 Y96.356 E2.74923
G1 X98.234 Y96.630 E2.76607
G1 X97.404 Y95.800 E2.80521
G1 X97.031 Y96.126 E2.82171
G1 X97.856 Y96.951 E2.86062
G1 X97.523 Y97.317 E2.87710
G1 X96.697 Y96.490 E2.91606
G1 X96.403 Y96.895 E2.93273
G1 X97.235 Y97.727 E2.97198
G1 X96.996 Y98.187 E2.98925
G1 X96.145 Y97.336 E3.02938
G1 X96.002 Y97.636 E3.04045
G1 X95.937 Y97.826 E3.04717
G1 X96.812 Y98.702 E3.08843
G1 X96.697 Y99.285 E3.10825
G1 X95.779 Y98.367 E3.15153
G1 X95.707 Y98.704 E3.16302
G1 X95.682 Y98.968 E3.17189
G1 X96.582 Y99.869 E3.21433
G1 X96.554 Y100.191 E3.22511
G1 X96.564 Y100.549 E3.23705
G1 X95.429 Y99.414 E3.29054
G1 X95.811 Y99.796 F7800.000
G1 F1200
G1 X95.463 Y99.790 E3.30213
G1 X95.454 Y99.439 E3.31382
G1 X94.885 Y98.870 E3.34065
G1 X94.940 Y98.227 E3.36218
G1 X95.487 Y98.774 E3.38798
G1 X95.589 Y98.177 E3.40816
G1 X95.067 Y97.655 E3.43280
G1 X95.243 Y97.132 E3.45117
G1 X95.744 Y97.633 E3.47478
G1 E1.47478 F2400.00000
G92 E0
G1 X97.404 Y95.800 F7800.000
G1 E2.00000 F2400.00000
G1 F1200
G1 X97.502 Y95.715 E2.00434
G1 X97.520 Y95.217 E2.02094
G1 X98.157 Y95.855 E2.05100
G1 X98.060 Y95.261 F7800.000
G1 F1200
G1 X97.956 Y95.349 E2.05554
G1 X97.968 Y95.364 E2.05617
G1 X98.085 Y95.285 E2.06084
G1 X97.679 Y94.879 E2.07998
G1 X98.159 Y94.527 E2.09985
G1 X98.601 Y94.968 E2.12065
G1 X98.912 Y94.791 E2.13259
G1 X98.912 Y94.816 E2.13340
G1 X99.171 Y94.706 E2.14279
G1 X98.696 Y94.230 E2.16519
G1 X99.073 Y94.068 E2.17890
G1 X99.295 Y93.997 E2.18666
G1 X99.677 Y94.379 E2.20467
G1 E0.20467 F2400.00000
G92 E0
G1 X104.845 Y98.351 F7800.000
G1 E2.00000 F2400.00000
G1 F1200
G1 X104.032 Y97.538 E2.03831
G1 X104.166 Y97.945 E2.05261
G1 X104.285 Y98.489 E2.07117
G1 X105.040 Y99.245 E2.10677
G1 X105.071 Y99.744 E2.12345
G1 X105.058 Y99.961 E2.13070
G1 X104.201 Y99.104 E2.17107
G1 E0.17107 F2400.00000
G92 E0
G1 X104.648 Y101.647 F7800.000
G1 E2.00000 F2400.00000
G1 F1200
G1 X104.184 Y101.183 E2.02189
G1 X103.883 Y101.581 E2.03851
G1 X104.403 Y102.101 E2.06301
G1 X104.247 Y102.347 E2.07272
G1 X104.117 Y102.514 E2.07977
G1 X103.583 Y101.979 E2.10496
G1 X103.280 Y102.375 E2.12158
G1 X103.793 Y102.888 E2.14572
G1 X103.430 Y103.223 E2.16220
G1 X102.940 Y102.734 E2.18528
G1 X102.546 Y103.038 E2.20188
G1 X103.029 Y103.521 E2.22463
G1 X102.971 Y103.562 E2.22698
G1 X102.588 Y103.779 E2.24166
G1 X102.093 Y103.283 E2.26502
G1 X101.815 Y103.388 E2.27490
G1 X101.568 Y103.457 E2.28347
G1 X102.098 Y103.987 E2.30845
G1 X101.760 Y104.099 E2.32031
G1 X101.556 Y104.144 E2.32727
G1 X100.951 Y103.539 E2.35580
G1 X100.539 Y103.527 E2.36954
G1 X100.190 Y103.476 E2.38131
G1 X100.955 Y104.242 E2.41738
G1 X100.445 Y104.261 E2.43441
G1 X100.262 Y104.248 E2.44051
G1 X99.121 Y103.106 E2.49432
G1 X98.686 Y102.956 E2.50964
G1 X98.279 Y102.758 E2.52474
G1 X97.859 Y102.487 E2.54141
G1 X97.510 Y102.194 E2.55657
G1 X99.434 Y104.118 E2.64726
G1 X98.930 Y103.960 E2.66484
G1 X98.626 Y103.830 E2.67587
G1 X98.240 Y103.623 E2.69047
G1 X95.142 Y100.524 E2.83654
G1 X95.233 Y100.789 E2.84588
G1 X95.433 Y101.223 E2.86179
G1 X95.742 Y101.736 E2.88175
G1 X96.092 Y102.173 E2.90043
G1 X96.474 Y102.555 E2.91842
G1 X97.328 Y102.012 F7800.000
G1 F1200
G1 X96.948 Y101.532 E2.93884
G1 X96.657 Y101.341 E2.95045
G1 X97.710 Y102.394 E3.00010
G1 X96.710 Y101.394 F7800.000
G1 F1200
G1 X94.934 Y99.618 E3.08385
G1 X94.966 Y99.872 E3.09239
G1 X95.077 Y100.337 E3.10831
G1 X95.142 Y100.524 E3.11493
G1 E1.11493 F2400.00000
G92 E0
G1 X97.217 Y101.220 F7800.000
G1 E2.00000 F2400.00000
M106 S255

G1 F3600
G1 X96.812 Y100.816 E2.01638
G1 X96.701 Y100.216 E2.03383
G1 X96.680 Y99.895 E2.04304
G1 X99.856 Y103.072 E2.17161
G1 X100.163 Y103.208 E2.18121
G1 X100.406 Y103.291 E2.18856
G1 X100.651 Y103.353 E2.19579
G1 X100.975 Y103.402 E2.20516
G1 X96.777 Y99.204 E2.37505
G1 X96.897 Y98.536 E2.39449
G1 X101.729 Y103.368 E2.59007
G1 X102.048 Y103.287 E2.59947
G1 X102.327 Y103.177 E2.60806
G1 X97.102 Y97.952 E2.81954
G1 X97.387 Y97.449 E2.83609
G1 X102.818 Y102.880 E3.05589
G1 X103.032 Y102.697 E3.06395
G1 X103.223 Y102.496 E3.07188
G1 X97.742 Y97.015 E3.29370
G1 X98.162 Y96.647 E3.30969
G1 X103.566 Y102.051 E3.52842
G1 X103.906 Y101.602 E3.54453
G1 X98.650 Y96.347 E3.75723
G1 X98.932 Y96.221 E3.76605
G1 X99.215 Y96.123 E3.77463
G1 X104.245 Y101.153 E3.97820
G1 X104.533 Y100.771 E3.99188
G1 X103.819 Y100.647 E4.01260
G1 X103.943 Y100.063 E4.02971
G1 X99.633 Y95.753 E4.20415
G1 X99.940 Y95.620 E4.21371
G1 X100.232 Y95.563 E4.22223
G1 X104.081 Y99.412 E4.37800
G1 X104.169 Y98.993 E4.39025
G1 X104.099 Y98.642 E4.40050
G1 X101.072 Y95.614 E4.52302
G1 X101.363 Y95.686 E4.53162
G1 X101.680 Y95.797 E4.54122
G1 X101.935 Y95.914 E4.54924
G1 X102.204 Y96.067 E4.55810
G1 X102.608 Y96.371 E4.57258
G1 X103.198 Y96.952 E4.59628
M106 S234.6

G1 E2.59628 F2400.00000
G92 E0
G1 X103.390 Y106.393 F7800.000
G1 E2.00000 F2400.00000
G1 F1200
G1 X103.000 Y106.003 E2.01634
G1 X102.597 Y106.339 E2.03186
G1 X103.193 Y106.936 E2.05681
G1 X102.748 Y107.229 E2.07259
G1 X102.155 Y106.636 E2.09738
G1 X101.671 Y106.892 E2.11356
G1 X102.264 Y107.485 E2.13835
G1 X101.745 Y107.704 E2.15503
G1 X101.143 Y107.102 E2.18021
G1 X100.560 Y107.259 E2.19805
G1 X101.173 Y107.872 E2.22370
G1 X101.127 Y107.884 E2.22512
G1 X100.540 Y107.978 E2.24270
G1 X99.914 Y107.352 E2.26889
G1 X99.590 Y107.367 E2.27848
G1 X99.179 Y107.356 E2.29063
G1 X99.835 Y108.012 E2.31807
G1 X99.454 Y108.002 E2.32934
G1 X99.034 Y107.950 E2.34186
G1 X98.308 Y107.224 E2.37225
G1 X97.590 Y106.998 E2.39449
G1 X97.121 Y106.776 E2.40985
G1 X98.025 Y107.680 E2.44767
G1 X97.831 Y107.613 E2.45374
G1 X97.277 Y107.351 E2.47186
G1 X96.885 Y107.117 E2.48538
G1 X96.510 Y106.848 E2.49903
G1 X96.051 Y106.445 E2.51708
G1 X95.667 Y106.061 E2.53316
G1 E0.53316 F2400.00000
G92 E0
G1 X104.382 Y106.543 F7800.000
G1 E2.00000 F2400.00000
G1 F1200
G1 X104.000 Y106.161 E2.01509
G1 X103.799 Y105.896 E2.02439
G1 X104.298 Y105.760 E2.03886
G1 X104.913 Y106.375 E2.06316
G1 X105.398 Y106.170 E2.07787
G1 X104.802 Y105.565 E2.10162
G1 X105.264 Y105.328 E2.11614
G1 X105.852 Y105.916 E2.13938
G1 X106.266 Y105.632 E2.15342
G1 X105.688 Y105.054 E2.17627
G1 X106.078 Y104.745 E2.19017
G1 X106.652 Y105.320 E2.21288
G1 X107.009 Y104.977 E2.22669
G1 X106.438 Y104.397 E2.24946
G1 X106.755 Y104.025 E2.26312
G1 X107.328 Y104.598 E2.28578
G1 X107.616 Y104.187 E2.29981
G1 X107.043 Y103.614 E2.32245
G1 X107.294 Y103.167 E2.33680
G1 X107.871 Y103.744 E2.35958
G1 X108.006 Y103.483 E2.36779
G1 X108.090 Y103.265 E2.37434
G1 X107.506 Y102.680 E2.39745
G1 X107.672 Y102.147 E2.41305
G1 X108.270 Y102.746 E2.43670
G1 X108.403 Y102.179 E2.45295
G1 X107.785 Y101.562 E2.47737
G1 X107.832 Y100.910 E2.49564
G1 X108.476 Y101.555 E2.52113
G1 X108.493 Y101.108 E2.53361
G1 X108.473 Y100.853 E2.54077
G1 X107.781 Y100.161 E2.56814
G1 X107.706 Y99.749 E2.57985
G1 X107.566 Y99.247 E2.59442
G1 X108.363 Y100.044 E2.62593
G1 X108.032 Y99.014 F7800.000
G1 F1200
G1 X107.650 Y98.633 E2.64102
G1 X107.528 Y97.287 F7800.000
G1 F1200
G1 X108.213 Y97.972 E2.67149
G1 X108.196 Y97.437 E2.68834
G1 X108.157 Y97.130 E2.69808
G1 X107.424 Y96.397 E2.73068
G1 X107.276 Y95.838 E2.74886
G1 X107.021 Y95.208 E2.77024
G1 X107.904 Y96.091 E2.80953
G1 E0.80953 F2400.00000
G92 E0
G1 X106.737 Y94.138 F7800.000
G1 E2.00000 F2400.00000
G1 F1200
G1 X105.913 Y93.331 E2.03629
G1 X105.680 Y93.142 E2.04572
G1 X105.306 Y92.878 E2.06011
G1 X104.774 Y92.576 E2.07937
G1 X104.212 Y92.334 E2.09860
G1 X104.120 Y92.306 E2.10163
G1 X105.003 Y93.190 E2.14091
G1 X104.479 Y92.972 E2.15876
G1 X103.814 Y92.787 E2.18048
G1 X103.083 Y92.056 E2.21299
G1 X102.408 Y92.000 E2.23429
G1 X102.249 Y92.008 E2.23931
G1 X102.924 Y92.682 E2.26933
G1 X102.614 Y92.682 E2.27908
G1 X102.171 Y92.716 E2.29304
G1 X101.789 Y92.334 E2.31003
G1 E0.31003 F2400.00000
G92 E0
G1 X105.219 Y96.902 F7800.000
G1 E2.00000 F2400.00000
G1 F1200
G1 X104.836 Y96.519 E2.01611
G1 X104.815 Y96.535 E2.01690
G1 X105.065 Y96.923 E2.03065
G1 X105.252 Y97.271 E2.04242
G1 X105.414 Y97.632 E2.05420
G1 X105.532 Y97.960 E2.06456
G1 X106.139 Y98.567 E2.09012
G1 X106.310 Y99.258 E2.11132
G1 X106.335 Y99.506 E2.11876
G1 X105.753 Y98.925 E2.14325
G1 X105.790 Y99.297 E2.15439
G1 X105.801 Y99.716 E2.16687
G1 X106.366 Y100.281 E2.19068
G1 X106.288 Y100.947 E2.21064
G1 X105.746 Y100.405 E2.23347
G1 X105.619 Y101.022 E2.25223
G1 X106.072 Y101.476 E2.27132
G1 X105.989 Y101.448 E2.27394
G1 X106.001 Y101.404 E2.27529
G1 X106.137 Y101.540 F7800.000
G1 F1200
G1 X105.718 Y101.121 E2.29293
G1 X105.511 Y101.658 E2.31007
G1 X105.926 Y102.074 E2.32755
G1 X105.773 Y102.390 E2.33802
G1 X105.668 Y102.560 E2.34396
G1 X105.267 Y102.158 E2.36086
G1 X104.985 Y102.620 E2.37698
G1 X105.367 Y103.002 E2.39305
G1 X103.667 Y104.026 F7800.000
G1 F1200
G1 X103.284 Y103.644 E2.40982
G1 X102.816 Y103.950 E2.42716
G1 X103.247 Y104.381 E2.44605
G1 X102.939 Y104.582 E2.45746
G1 X102.763 Y104.671 E2.46357
G1 X102.304 Y104.212 E2.48370
G1 X101.743 Y104.426 E2.50229
G1 X102.234 Y104.917 E2.52380
G1 X101.955 Y105.021 E2.53302
G1 X101.646 Y105.103 E2.54295
G1 X101.125 Y104.582 E2.56576
G1 X100.599 Y104.657 E2.58223
G1 X100.606 Y104.837 E2.58784
G1 X100.987 Y105.219 E2.60457
G1 E0.60457 F2400.00000
G92 E0
G1 X93.348 Y103.396 F7800.000
G1 E2.00000 F2400.00000
G1 F1200
G1 X94.179 Y104.201 E2.03856
G1 X94.673 Y104.574 E2.05919
G1 X94.936 Y104.736 E2.06949
G1 X95.211 Y104.537 E2.08079
G1 X94.611 Y104.164 E2.10434
G1 X94.070 Y103.726 E2.12752
G1 X93.685 Y103.299 E2.14669
G1 X93.490 Y103.051 E2.15719
G1 X93.256 Y102.705 E2.17115
G1 X93.029 Y102.293 E2.18680
G1 X92.151 Y101.415 E2.22819
G1 X92.061 Y101.165 E2.23705
G1 X91.920 Y100.569 E2.25747
G1 X91.890 Y100.372 E2.26412
G1 X92.604 Y101.085 E2.29775
G1 X92.523 Y100.596 E2.31427
G1 X92.493 Y100.191 E2.32781
G1 X91.844 Y99.543 E2.35838
G1 X91.851 Y99.203 E2.36971
G1 X91.895 Y98.811 E2.38287
G1 X92.522 Y99.437 E2.41238
G1 X92.639 Y98.771 E2.43491
G1 X92.035 Y98.167 E2.46339
G1 X92.119 Y97.858 E2.47408
G1 X92.188 Y97.684 E2.48031
G1 X92.443 Y97.793 E2.48956
G1 X92.825 Y98.175 E2.50757
G1 X92.502 Y96.978 F7800.000
G1 F1200
G1 X93.099 Y97.575 E2.53570
G1 X93.416 Y97.059 E2.55588
G1 X92.819 Y96.462 E2.58404
G1 X92.890 Y96.358 E2.58822
G1 X93.081 Y96.116 E2.59852
G1 X93.402 Y96.212 E2.60971
G1 X93.784 Y96.594 E2.62771
G1 X93.693 Y95.562 F7800.000
G1 F1200
G1 X94.075 Y95.944 E2.64303
G1 X94.155 Y96.003 E2.64582
G1 X94.368 Y96.038 E2.65194
G1 X94.466 Y95.628 E2.66388
G1 X93.851 Y95.013 E2.68853
G1 X93.967 Y94.677 E2.69859
G1 X94.049 Y94.503 E2.70403
G1 X94.649 Y95.102 E2.72803
G1 X94.875 Y94.621 E2.74310
G1 X94.285 Y94.032 E2.76670
G1 X94.556 Y93.594 E2.78126
G1 X95.140 Y94.178 E2.80464
G1 X95.443 Y93.773 E2.81896
G1 X94.867 Y93.197 E2.84202
G1 X95.209 Y92.832 E2.85620
G1 X95.780 Y93.403 E2.87905
G1 X96.152 Y93.067 E2.89324
G1 X95.582 Y92.497 E2.91605
G1 X95.831 Y92.294 E2.92514
G1 X95.986 Y92.193 E2.93039
G1 X96.558 Y92.765 E2.95330
G1 X97.002 Y92.501 E2.96792
G1 X96.423 Y91.922 E2.99110
G1 X96.887 Y91.691 E3.00579
G1 X97.485 Y92.277 E3.02950
G1 X98.012 Y92.096 E3.04528
G1 X97.414 Y91.498 E3.06925
G1 X97.977 Y91.353 E3.08572
G1 X98.592 Y91.968 E3.11036
G1 X99.237 Y91.905 E3.12871
G1 X98.595 Y91.263 E3.15444
G1 X99.208 Y91.241 E3.17184
G1 X99.286 Y91.247 E3.17404
G1 X99.974 Y91.934 E3.20159
G1 X100.340 Y91.987 E3.21208
G1 X100.860 Y92.112 E3.22721
G1 X100.082 Y91.335 E3.25835
G1 X100.635 Y91.463 E3.27440
G1 X101.072 Y91.617 E3.28755
G1 X101.454 Y91.999 E3.30285
M106 S247.35
G1 Z2.800 F7800.000
G1 E1.30285 F2400.00000
G92 E0
G1 X94.933 Y105.702 F7800.000
G1 E2.00000 F2400.00000
G1 F1200
G1 X94.842 Y105.566 E2.00545
G1 X94.763 Y105.690 E2.01033
G1 X94.838 Y105.797 E2.01468
G1 X95.315 Y105.321 E2.03714
G1 X95.519 Y105.609 E2.04893
G1 X95.678 Y105.791 E2.05697
G1 X95.294 Y106.174 E2.07506
G1 E0.07506 F2400.00000
G92 E0
G1 X98.005 Y105.204 F7800.000
G1 E2.00000 F2400.00000
G1 F1200
G1 X98.387 Y104.822 E2.01562
G1 X98.435 Y104.687 E2.01975
G1 X97.990 Y104.496 E2.03374
G1 X97.518 Y104.968 E2.05307
G1 X97.075 Y104.689 E2.06821
G1 X97.522 Y104.242 E2.08649
G1 X97.088 Y103.953 E2.10156
G1 X96.667 Y104.374 E2.11879
G1 X96.305 Y104.033 E2.13316
G1 X96.306 Y104.012 E2.13377
G1 X96.687 Y103.631 E2.14938
G1 E0.14938 F2400.00000
G92 E0
G1 X101.898 Y105.167 F7800.000
G1 E2.00000 F2400.00000
G1 F1200
G1 X101.795 Y105.199 E2.00310
G1 X101.811 Y105.254 E2.00474
G1 X102.279 Y104.786 E2.02391
G1 X102.776 Y104.598 E2.03926
G1 X103.159 Y104.416 E2.05153
G1 X103.647 Y104.131 E2.06788
G1 X103.994 Y103.885 E2.08016
G1 X103.993 Y103.905 E2.08071
G1 X103.611 Y104.287 E2.09636
G1 X102.657 Y102.709 F7800.000
G1 F1200
G1 X103.269 Y102.081 E2.12203
G1 X103.794 Y101.337 E2.14867
G1 X104.004 Y101.080 E2.15840
G1 X104.336 Y100.758 E2.17193
G1 X104.830 Y100.363 E2.19044
G1 X104.869 Y100.300 E2.19260
G1 X104.771 Y100.166 E2.19748
G1 X103.980 Y100.805 E2.22725
G1 X104.017 Y100.618 E2.23284
G1 X101.241 Y103.394 E2.34774
G1 X101.002 Y103.427 E2.35478
G1 X100.493 Y103.410 E2.36970
G1 X103.710 Y100.193 E2.50284
G1 X103.740 Y100.162 F7800.000
G1 F1200
G1 X104.179 Y99.724 E2.52098
G1 X104.214 Y99.329 E2.53259
G1 X104.210 Y98.961 E2.54336
G1 X99.898 Y103.273 E2.72187
G1 X99.386 Y103.054 E2.73817
G1 X104.124 Y98.316 E2.93428
G1 X104.074 Y98.076 E2.94146
G1 X103.960 Y97.748 E2.95161
G1 X98.974 Y102.734 E3.15801
G1 X98.974 Y102.439 E3.16666
G1 X98.710 Y102.267 E3.17587
G1 X103.729 Y97.248 E3.38360
G1 X103.674 Y97.142 E3.38709
G1 X103.436 Y96.809 E3.39907
G1 X97.943 Y102.302 E3.62643
G1 X97.773 Y102.148 E3.63316
G1 X97.580 Y101.934 E3.64159
G1 X103.088 Y96.426 E3.86959
G1 X102.846 Y96.217 E3.87895
G1 X102.679 Y96.104 E3.88486
G1 X97.255 Y101.528 E4.10937
G1 X97.033 Y101.364 E4.11746
G1 X96.874 Y101.177 E4.12462
G1 X102.213 Y95.838 E4.34561
G1 X101.926 Y95.721 E4.35467
G1 X101.673 Y95.647 E4.36240
G1 X96.690 Y100.630 E4.56866
G1 X96.663 Y100.207 E4.58105
G1 X96.698 Y99.890 E4.59039
G1 X101.042 Y95.546 E4.77020
G1 X100.678 Y95.540 E4.78087
G1 X100.411 Y95.581 E4.78875
G1 X100.214 Y95.643 E4.79482
G1 X98.923 Y96.934 E4.84824
G1 X98.977 Y96.832 E4.85160
G1 X98.721 Y96.683 E4.86028
G1 X98.913 Y96.606 E4.86633
G1 X99.067 Y96.684 E4.87138
G1 X99.121 Y96.523 E4.87634
G1 X99.228 Y96.480 E4.87973
G1 X99.453 Y96.246 E4.88921
G1 X99.694 Y96.085 E4.89769
G1 X99.832 Y96.025 E4.90211
G1 E2.90211 F2400.00000
G92 E0
G1 X97.894 Y97.231 F7800.000
G1 E2.00000 F2400.00000
G1 F1200
G1 X98.276 Y96.849 E2.01580
G1 X98.617 Y96.578 E2.02854
G1 X98.783 Y96.480 E2.03417
G1 X98.708 Y96.612 E2.03861
G1 X98.984 Y96.873 E2.04972
G1 X96.867 Y98.989 E2.13732
G1 E0.13732 F2400.00000
G92 E0
G1 X99.356 Y102.353 F7800.000
G1 E2.00000 F2400.00000
G1 F1200
G1 X99.356 Y102.468 E2.00337
G1 X99.253 Y102.455 E2.00640
G1 X98.848 Y102.861 E2.02317
G1 E0.02317 F2400.00000
G92 E0
G1 X94.857 Y104.405 F7800.000
G1 E2.00000 F2400.00000
G1 F1200
G1 X94.475 Y104.787 E2.01764
G1 X93.985 Y104.461 F7800.000
G1 F1200
G1 X94.368 Y104.078 E2.03530
G1 E0.03530 F2400.00000
G92 E0
G1 X104.772 Y103.828 F7800.000
G1 E2.00000 F2400.00000
G1 F1200
G1 X105.154 Y103.446 E2.01539
G1 X105.809 Y102.080 F7800.000
G1 F1200
G1 X106.191 Y101.698 E2.03079
G1 E0.03079 F2400.00000
G92 E0
G1 X106.078 Y98.299 F7800.000
G1 E2.00000 F2400.00000
G1 F1200
G1 X106.460 Y97.917 E2.01540
G1 X106.384 Y97.695 E2.02207
G1 X106.250 Y97.415 E2.03093
G1 X105.781 Y97.884 E2.04984
G1 X105.558 Y97.394 E2.06517
G1 X106.003 Y96.949 E2.08310
G1 X105.721 Y96.519 E2.09776
G1 X105.300 Y96.941 E2.11475
G1 X105.008 Y96.520 E2.12934
G1 X105.390 Y96.139 E2.14473
G1 X104.567 Y95.380 F7800.000
G1 F1200
G1 X104.949 Y94.998 E2.16273
G1 X104.950 Y94.975 E2.16348
G1 X104.588 Y94.636 E2.18003
G1 X104.166 Y95.058 E2.19989
G1 X103.732 Y94.768 E2.21728
G1 X104.175 Y94.325 E2.23815
G1 X103.921 Y94.147 E2.24851
G1 X103.731 Y94.046 E2.25567
G1 X103.263 Y94.514 E2.27773
G1 X102.820 Y94.323 E2.29381
G1 X102.870 Y94.184 E2.29872
G1 X103.252 Y93.802 E2.31673
G1 E0.31673 F2400.00000
G92 E0
G1 X99.096 Y94.187 F7800.000
G1 E2.00000 F2400.00000
G1 F1200
G1 X99.478 Y93.805 E2.01801
G1 X99.478 Y93.649 E2.02323
G1 X99.201 Y93.748 E2.03303
G1 X98.615 Y94.027 E2.05468
G1 X98.088 Y94.362 E2.07548
G1 X97.493 Y94.957 E2.10351
G1 X97.261 Y95.125 E2.11307
G1 X97.262 Y95.106 E2.11372
G1 X97.706 Y94.744 E2.13283
G1 X96.446 Y95.219 F7800.000
G1 F1200
G1 X96.059 Y95.606 E2.14838
G1 X95.445 Y96.931 F7800.000
G1 F1200
G1 X95.064 Y97.312 E2.16374
G1 E0.16374 F2400.00000
G92 E0
G1 X95.178 Y100.711 F7800.000
G1 E2.00000 F2400.00000
G1 F1200
G1 X94.796 Y101.093 E2.01537
G1 X95.000 Y101.601 E2.03095
G1 X95.474 Y101.127 E2.05004
G1 X95.697 Y101.616 E2.06534
G1 X95.249 Y102.064 E2.08337
G1 X95.281 Y102.125 E2.08531
G1 X95.534 Y102.491 E2.09799
G1 X95.955 Y102.070 E2.11497
G1 X96.247 Y102.490 E2.12952
G1 X95.865 Y102.872 E2.14489
G1 E0.14489 F2400.00000
G92 E0
G1 X100.434 Y91.704 F7800.000
G1 E2.00000 F2400.00000
G1 F1200
G1 X100.919 Y91.219 E2.02285
G1 X101.449 Y91.523 F7800.000
G1 F1200
G1 X101.067 Y91.905 E2.04085
G1 E0.04085 F2400.00000
G92 E0
G1 X108.168 Y98.638 F7800.000
G1 E2.00000 F2400.00000
G1 F1200
G1 X107.758 Y99.048 E2.01931
G1 X108.081 Y99.559 F7800.000
G1 F1200
G1 X108.462 Y99.177 E2.03731
M106 S249.9
G1 Z3.200 F7800.000
G1 E0.03731 F2400.00000
G92 E0
G1 X103.277 Y105.031 F7800.000
G1 E2.00000 F2400.00000
G1 F1200
G1 X102.895 Y104.649 E2.01580
G1 X102.396 Y104.881 E2.03188
G1 X102.868 Y105.353 E2.05140
G1 X102.354 Y105.569 E2.06771
G1 X101.856 Y105.072 E2.08828
G1 X101.271 Y105.217 E2.10591
G1 X101.794 Y105.740 E2.12755
G1 X101.176 Y105.853 E2.14592
G1 X100.630 Y105.307 E2.16847
G1 X99.919 Y105.327 E2.18927
G1 X100.491 Y105.898 E2.21290
G1 X99.875 Y105.870 E2.23093
G1 X99.702 Y105.840 E2.23604
G1 X99.106 Y105.244 E2.26070
G1 X98.591 Y105.134 E2.27611
G1 X98.121 Y104.990 E2.29045
G1 X98.749 Y105.618 E2.31641
G1 X98.555 Y105.559 E2.32234
G1 X97.934 Y105.286 E2.34217
G1 X97.351 Y104.937 E2.36205
G1 X96.917 Y104.517 E2.37970
G1 E0.37970 F2400.00000
G92 E0
G1 X100.300 Y103.126 F7800.000
G1 E2.00000 F2400.00000
G1 F1200
G1 X100.682 Y103.508 E2.01538
G1 X100.896 Y103.552 E2.02160
G1 X101.154 Y103.571 E2.02897
G1 X101.448 Y103.562 E2.03736
G1 X100.975 Y103.089 E2.05641
G1 X101.273 Y103.027 E2.06509
G1 X101.543 Y102.944 E2.07311
G1 X102.043 Y103.445 E2.09327
G1 X102.264 Y103.376 E2.09986
G1 X102.546 Y103.236 E2.10884
G1 X102.033 Y102.723 E2.12952
G1 X102.459 Y102.436 E2.14414
G1 X102.974 Y102.952 E2.16489
G1 X103.006 Y102.928 E2.16603
G1 X103.331 Y102.597 E2.17925
G1 X102.828 Y102.094 E2.19951
G1 X103.145 Y101.699 E2.21394
G1 X103.633 Y102.187 E2.23358
G1 X103.923 Y101.765 E2.24816
G1 X103.431 Y101.273 E2.26800
G1 X103.518 Y101.145 E2.27241
G1 X103.739 Y100.869 E2.28248
G1 X104.239 Y101.369 E2.30264
G1 X104.614 Y101.032 E2.31701
G1 X104.103 Y100.521 E2.33761
G1 X104.480 Y100.186 E2.35198
G1 X104.862 Y100.568 E2.36738
G1 X103.676 Y99.639 F7800.000
G1 F1200
G1 X104.177 Y100.140 E2.39025
G1 X104.212 Y99.885 E2.39857
G1 X104.309 Y99.897 E2.40174
G1 X104.325 Y99.481 E2.41519
G1 X103.692 Y98.848 E2.44410
G1 X103.620 Y98.334 E2.46088
G1 X103.474 Y97.823 E2.47805
G1 X104.216 Y98.565 E2.51196
G1 X102.807 Y99.499 F7800.000
G1 F1200
G1 X100.413 Y97.105 E2.62130
G1 X100.291 Y97.093 E2.62524
G1 X99.838 Y97.115 E2.63991
G1 X99.734 Y97.140 E2.64337
G1 X102.785 Y100.191 E2.78276
G1 X102.698 Y100.513 E2.79355
G1 X102.604 Y100.724 E2.80100
G1 X99.162 Y97.282 E2.95825
G1 X99.131 Y97.316 E2.95975
G1 X99.003 Y97.194 E2.96544
G1 X98.973 Y97.211 E2.96655
G1 X99.062 Y97.350 E2.97190
G1 X98.757 Y97.591 E2.98444
G1 X102.331 Y101.166 E3.14771
G1 X102.245 Y101.270 E3.15209
G1 X101.971 Y101.519 E3.16405
G1 X98.398 Y97.946 E3.32725
G1 X98.123 Y98.385 E3.34398
G1 X101.535 Y101.798 E3.49985
G1 X101.219 Y101.923 E3.51084
G1 X100.997 Y101.973 E3.51820
G1 X97.951 Y98.927 E3.65734
G1 X97.901 Y99.260 E3.66821
G1 X97.918 Y99.608 E3.67947
G1 X100.317 Y102.007 E3.78906
G1 X99.898 Y101.925 E3.80284
G1 X99.481 Y101.752 E3.81744
G1 X99.198 Y101.573 E3.82825
G1 X99.033 Y101.437 E3.83514
G1 X98.649 Y101.053 E3.85268
G1 X96.829 Y100.958 F7800.000
G1 F1200
G1 X97.297 Y101.414 E3.87379
G1 X97.202 Y101.174 E3.88213
G1 X97.145 Y100.960 E3.88930
G1 X97.089 Y100.503 E3.90415
G1 X96.521 Y99.936 E3.93006
G1 X96.554 Y99.468 E3.94522
G1 X96.599 Y99.299 E3.95086
G1 X97.132 Y99.832 E3.97523
G1 X97.193 Y99.558 E3.98431
G1 X97.284 Y99.269 E3.99408
G1 X96.775 Y98.760 E4.01733
G1 X97.040 Y98.310 E4.03419
G1 X97.511 Y98.782 E4.05574
G1 X97.799 Y98.355 E4.07237
G1 X97.372 Y97.928 E4.09188
G1 X97.608 Y97.701 E4.10245
G1 X97.757 Y97.598 E4.10829
G1 X98.139 Y97.980 E4.12573
G1 X99.317 Y96.895 F7800.000
G1 F1200
G1 X98.936 Y96.513 E4.14317
G1 X99.163 Y96.043 E4.16006
G1 X99.210 Y95.981 E4.16257
G1 X99.754 Y96.524 E4.18739
G1 X99.852 Y96.408 E4.19231
G1 X100.160 Y96.124 E4.20582
G1 X100.206 Y96.169 E4.20790
G1 X99.641 Y95.605 E4.23367
G1 X99.941 Y95.479 E4.24415
G1 X100.268 Y95.424 E4.25486
G1 X100.890 Y96.047 E4.28331
G1 X101.408 Y96.101 E4.30012
G1 X101.877 Y96.226 E4.31579
G1 X101.142 Y95.491 E4.34938
G1 X101.337 Y95.530 E4.35583
G1 X101.751 Y95.669 E4.36994
G1 X102.065 Y95.816 E4.38113
G1 X102.421 Y96.033 E4.39461
G1 X102.714 Y96.263 E4.40661
G1 X103.345 Y96.887 E4.43530
G1 X102.086 Y98.064 F7800.000
G1 F1200
G1 X101.704 Y97.682 E4.45274
G1 E2.45274 F2400.00000
G92 E0
G1 X104.333 Y94.500 F7800.000
G1 E2.00000 F2400.00000
G1 F1200
G1 X103.951 Y94.118 E2.01577
G1 X103.675 Y93.924 E2.02560
G1 X103.074 Y93.604 E2.04548
G1 X102.484 Y93.380 E2.06391
G1 X103.119 Y94.015 E2.09013
G1 X102.664 Y93.877 E2.10400
G1 X102.139 Y93.765 E2.11967
G1 X101.537 Y93.163 E2.14451
G1 X101.250 Y93.128 E2.15297
G1 X100.762 Y93.117 E2.16720
G1 X101.329 Y93.684 E2.19060
G1 X100.620 Y93.703 E2.21131
G1 X100.075 Y93.159 E2.23380
G1 X99.457 Y93.270 E2.25211
G1 X99.981 Y93.794 E2.27372
G1 X99.397 Y93.939 E2.29128
G1 X98.900 Y93.442 E2.31180
G1 X98.391 Y93.663 E2.32797
G1 X98.858 Y94.130 E2.34724
G1 X98.360 Y94.361 E2.36327
G1 X97.978 Y93.979 E2.37904
G1 E0.37904 F2400.00000
G92 E0
G1 X106.230 Y97.192 F7800.000
G1 E2.00000 F2400.00000
G1 F1200
G1 X105.848 Y96.810 E2.01503
G1 X105.772 Y96.856 E2.01752
G1 X106.017 Y97.389 E2.03383
G1 X106.175 Y97.831 E2.04690
G1 X106.785 Y98.441 E2.07088
G1 X106.803 Y98.491 E2.07237
G1 X106.952 Y99.153 E2.09123
G1 X106.969 Y99.321 E2.09592
G1 X106.383 Y98.735 E2.11896
G1 X106.429 Y99.108 E2.12942
G1 X106.450 Y99.496 E2.14023
G1 X107.018 Y100.065 E2.16258
G1 X107.015 Y100.369 E2.17104
G1 X106.973 Y100.714 E2.18072
G1 X106.428 Y100.170 E2.20215
G1 X106.342 Y100.779 E2.21925
G1 X106.868 Y101.305 E2.23994
G1 X106.716 Y101.847 E2.25562
G1 X106.206 Y101.338 E2.27567
G1 X106.029 Y101.855 E2.29088
G1 X106.518 Y102.344 E2.31011
G1 X106.282 Y102.803 E2.32446
G1 X105.814 Y102.335 E2.34287
G1 X105.566 Y102.782 E2.35708
G1 X105.947 Y103.164 E2.37210
G1 E0.37210 F2400.00000
G92 E0
G1 X95.406 Y102.200 F7800.000
G1 E2.00000 F2400.00000
G1 F1200
G1 X94.988 Y101.762 E2.01684
G1 X94.737 Y101.281 E2.03194
G1 X94.535 Y100.778 E2.04703
G1 X94.475 Y100.574 E2.05293
G1 X95.080 Y101.179 E2.07672
G1 X94.969 Y100.776 E2.08834
G1 X94.872 Y100.276 E2.10253
G1 X94.283 Y99.687 E2.12568
G1 X94.232 Y98.941 E2.14647
G1 X94.805 Y99.514 E2.16899
G1 X94.827 Y98.841 E2.18772
G1 X94.276 Y98.290 E2.20937
G1 X94.378 Y97.700 E2.22601
G1 X94.913 Y98.232 E2.24698
G1 X95.049 Y97.673 E2.26298
G1 X94.539 Y97.163 E2.28301
G1 X94.573 Y97.051 E2.28628
G1 X94.741 Y96.670 E2.29785
G1 X95.226 Y97.155 E2.31694
G1 X95.441 Y96.675 E2.33156
G1 X94.977 Y96.211 E2.34981
G1 X95.234 Y95.795 E2.36342
G1 X95.307 Y95.846 E2.36590
G1 X95.689 Y96.228 E2.38093
G1 Z3.600 F7800.000
G1 E0.38093 F2400.00000
G92 E0
G1 X96.071 Y104.419 F7800.000
G1 E2.00000 F2400.00000
G1 F1200
G1 X96.453 Y104.038 E2.01581
G1 X96.862 Y104.360 E2.03105
G1 X96.436 Y104.785 E2.04869
G1 X96.852 Y105.101 E2.06397
G1 X97.304 Y104.649 E2.08267
G1 X97.779 Y104.906 E2.09846
G1 X97.310 Y105.375 E2.11785
G1 X97.460 Y105.464 E2.12297
G1 X97.802 Y105.615 E2.13389
G1 X98.288 Y105.128 E2.15404
G1 X98.842 Y105.306 E2.17106
G1 X98.332 Y105.816 E2.19219
G1 X98.777 Y105.950 E2.20580
G1 X98.907 Y105.973 E2.20966
G1 X99.440 Y105.440 E2.23172
G1 X99.961 Y105.518 E2.24716
G1 X100.094 Y105.517 E2.25103
G1 X99.537 Y106.074 E2.27406
G1 X100.030 Y106.103 E2.28850
G1 X100.251 Y106.092 E2.29498
G1 X100.821 Y105.521 E2.31858
G1 X101.197 Y105.491 E2.32962
G1 X101.652 Y105.422 E2.34310
G1 X101.066 Y106.008 E2.36738
G1 X101.427 Y105.945 E2.37812
G1 X102.052 Y105.753 E2.39727
G1 X102.665 Y105.140 E2.42263
G1 X103.099 Y104.960 E2.43637
G1 X103.507 Y104.753 E2.44978
G1 X104.204 Y104.313 E2.47391
G1 X104.213 Y104.324 E2.47432
G1 X103.830 Y104.707 E2.49016
G1 E0.49016 F2400.00000
G92 E0
G1 X100.840 Y101.343 F7800.000
G1 E2.00000 F2400.00000
G1 F1200
G1 X101.224 Y100.960 E2.01697
G1 X101.352 Y100.775 E2.02400
G1 X101.471 Y100.505 E2.03324
G1 X101.523 Y100.279 E2.04048
G1 X101.541 Y99.983 E2.04975
G1 X101.630 Y99.771 E2.05696
G1 X100.485 Y100.917 E2.10763
G1 X99.948 Y100.878 E2.12446
G1 X99.794 Y100.826 E2.12957
G1 X101.278 Y99.342 E2.19524
G1 X101.347 Y99.398 E2.19801
G1 X101.657 Y99.017 E2.21336
G1 X101.627 Y98.993 E2.21457
G1 X101.819 Y98.801 E2.22305
G1 X101.437 Y99.183 F7800.000
G1 F1200
G1 X101.446 Y99.130 E2.22473
G1 X101.464 Y99.156 E2.22571
G1 X101.965 Y98.654 E2.24790
G1 X102.116 Y98.833 E2.25522
G1 X102.299 Y99.103 E2.26540
G1 X101.779 Y99.623 E2.28839
G1 E0.28839 F2400.00000
G92 E0
G1 X99.507 Y98.768 F7800.000
G1 E2.00000 F2400.00000
G1 F1200
G1 X99.123 Y99.152 E2.01701
G1 X98.929 Y99.375 E2.02625
G1 X98.746 Y99.685 E2.03751
G1 X98.647 Y99.966 E2.04684
G1 X98.605 Y100.259 E2.05609
G1 X98.616 Y100.440 E2.06175
G1 X100.875 Y98.182 E2.16164
G1 X101.129 Y98.198 E2.16963
G1 X101.363 Y98.256 E2.17715
G1 X101.514 Y98.324 E2.18234
G1 X99.289 Y100.549 E2.28077
G1 X99.327 Y100.511 F7800.000
G1 F1200
G1 X98.828 Y101.010 E2.30285
G1 X99.006 Y101.234 E2.31180
G1 X99.212 Y101.408 E2.32022
G1 X99.727 Y100.893 E2.34302
G1 X100.019 Y101.050 E2.35339
G1 X100.277 Y101.125 E2.36179
G1 X99.736 Y101.665 E2.38570
G1 E0.38570 F2400.00000
G92 E0
G1 X100.438 Y103.632 F7800.000
G1 E2.00000 F2400.00000
G1 F1200
G1 X100.305 Y103.628 E2.00447
G1 X100.419 Y103.652 E2.00836
G1 X100.820 Y103.250 E2.02728
G1 X101.284 Y103.223 E2.04277
G1 X101.785 Y103.119 E2.05982
G1 X101.244 Y103.660 E2.08532
G1 X102.902 Y102.834 F7800.000
G1 F1200
G1 X103.284 Y102.452 E2.10332
G1 E0.10332 F2400.00000
G92 E0
G1 X105.173 Y104.074 F7800.000
G1 E2.00000 F2400.00000
G1 F1200
G1 X105.888 Y103.341 E2.03072
G1 X106.227 Y102.894 E2.04757
G1 X106.519 Y102.418 E2.06436
G1 X106.766 Y101.909 E2.08134
G1 X106.871 Y101.626 E2.09039
G1 X106.234 Y102.263 E2.11744
G1 X106.410 Y101.740 E2.13401
G1 X106.537 Y101.209 E2.15039
G1 X107.143 Y100.603 E2.17613
G1 X107.205 Y100.141 E2.19012
G1 X107.218 Y99.778 E2.20103
G1 X106.644 Y100.353 E2.22541
G1 X106.639 Y99.607 E2.24779
G1 X107.192 Y99.055 E2.27125
G1 X107.083 Y98.413 E2.29078
G1 X106.558 Y98.938 E2.31308
G1 X106.418 Y98.328 E2.33189
G1 X106.916 Y97.829 E2.35304
G1 X106.862 Y97.651 E2.35863
G1 X106.706 Y97.290 E2.37046
G1 X106.230 Y97.765 E2.39065
G1 X106.000 Y97.245 E2.40773
G1 X106.454 Y96.791 E2.42701
G1 X106.440 Y96.765 E2.42790
G1 X106.160 Y96.336 E2.44329
G1 X105.733 Y96.762 E2.46142
G1 X105.430 Y96.315 E2.47763
G1 X105.813 Y95.932 E2.49387
G1 E0.49387 F2400.00000
G92 E0
G1 X96.078 Y94.932 F7800.000
G1 E2.00000 F2400.00000
G1 F1200
G1 X95.554 Y95.457 E2.02226
G1 X95.279 Y95.777 E2.03494
G1 X95.028 Y96.116 E2.04763
G1 X94.803 Y96.473 E2.06031
G1 X94.606 Y96.843 E2.07289
G1 X94.388 Y97.373 E2.09013
G1 X94.995 Y96.766 E2.11592
G1 X94.984 Y96.789 E2.11668
G1 X95.005 Y96.789 E2.11731
G1 X94.845 Y97.270 E2.13255
G1 X94.719 Y97.793 E2.14871
G1 X94.120 Y98.393 E2.17420
G1 X94.049 Y98.871 E2.18872
G1 X94.037 Y99.226 E2.19941
G1 X94.612 Y98.652 E2.22382
G1 X94.616 Y99.399 E2.24627
G1 X94.069 Y99.945 E2.26949
G1 X94.084 Y100.135 E2.27522
G1 X94.156 Y100.548 E2.28781
G1 X94.169 Y100.597 E2.28933
G1 X94.697 Y100.069 E2.31178
G1 X94.836 Y100.680 E2.33063
G1 X94.339 Y101.177 E2.35177
G1 X94.548 Y101.719 E2.36921
G1 X95.024 Y101.243 E2.38943
G1 X95.254 Y101.764 E2.40654
G1 X94.801 Y102.218 E2.42581
G1 X94.815 Y102.246 E2.42675
G1 X95.099 Y102.670 E2.44210
G1 X95.522 Y102.247 E2.46006
G1 X95.825 Y102.696 E2.47631
G1 X95.442 Y103.078 E2.49257
G1 E0.49257 F2400.00000
G92 E0
G1 X96.814 Y101.474 F7800.000
G1 E2.00000 F2400.00000
G1 F1200
G1 X97.195 Y101.092 E2.01576
G1 X97.084 Y100.818 E2.02438
G1 X96.999 Y100.455 E2.03526
G1 X96.495 Y100.959 E2.05607
G1 X96.447 Y100.792 E2.06115
G1 X96.404 Y100.506 E2.06956
G1 X96.397 Y100.224 E2.07779
G1 X96.982 Y99.639 E2.10194
G1 X97.027 Y99.347 E2.11055
G1 X97.097 Y99.062 E2.11912
G1 X97.201 Y98.763 E2.12836
G1 X97.356 Y98.432 E2.13901
G1 X96.641 Y99.147 E2.16851
G1 X96.773 Y98.884 E2.17711
G1 X96.903 Y98.678 E2.18420
G1 X97.100 Y98.420 E2.19368
G1 X97.455 Y98.062 E2.20839
G1 X97.714 Y97.862 E2.21794
G1 X97.468 Y98.111 E2.22817
G1 X97.288 Y98.328 E2.23640
G1 X96.974 Y98.814 E2.25327
G1 E0.25327 F2400.00000
G92 E0
G1 X99.651 Y95.773 F7800.000
G1 E2.00000 F2400.00000
G1 F1200
G1 X99.266 Y96.159 E2.01590
G1 X99.139 Y96.322 E2.02193
G1 X99.036 Y96.501 E2.02796
G1 X98.900 Y96.805 E2.03767
G1 X99.062 Y96.955 E2.04410
G1 X99.254 Y96.542 E2.05740
G1 X99.450 Y96.286 E2.06682
G1 X99.610 Y96.155 E2.07282
G1 X99.782 Y96.058 E2.07859
G1 X99.963 Y95.991 E2.08421
G1 X100.213 Y95.941 E2.09166
G1 X100.846 Y95.307 E2.11779
G1 X101.316 Y95.339 E2.13153
G1 X101.505 Y95.378 E2.13716
G1 X100.922 Y95.961 E2.16119
G1 X101.229 Y96.020 E2.17031
G1 X101.510 Y96.102 E2.17885
G1 X102.075 Y95.537 E2.20218
G1 X102.574 Y95.767 E2.21821
G1 X102.019 Y96.322 E2.24113
G1 X102.462 Y96.608 E2.25652
G1 X103.012 Y96.058 E2.27921
G1 X103.396 Y96.404 E2.29428
G1 X102.846 Y96.954 E2.31698
G1 X103.172 Y97.357 E2.33211
G1 X103.724 Y96.805 E2.35490
G1 X103.896 Y97.070 E2.36413
G1 X103.994 Y97.264 E2.37047
G1 X103.440 Y97.818 E2.39334
G1 X103.644 Y98.343 E2.40978
G1 X104.210 Y97.778 E2.43312
G1 X104.355 Y98.319 E2.44948
G1 X104.360 Y98.356 E2.45058
G1 X103.775 Y98.941 E2.47470
G1 X103.808 Y99.284 E2.48477
G1 X103.813 Y99.632 E2.49493
G1 X104.422 Y99.023 E2.52006
G1 X104.428 Y99.201 E2.52525
G1 X104.376 Y99.799 E2.54276
G1 X103.994 Y100.181 E2.55852
G1 E0.55852 F2400.00000
G92 E0
G1 X104.802 Y94.973 F7800.000
G1 E2.00000 F2400.00000
G1 F1200
G1 X105.200 Y94.574 E2.01649
G1 X104.818 Y94.226 E2.03161
G1 X104.393 Y94.651 E2.04920
G1 X103.951 Y94.361 E2.06465
G1 X104.396 Y93.917 E2.08302
G1 X104.162 Y93.753 E2.09137
G1 X103.944 Y93.637 E2.09859
G1 X103.477 Y94.104 E2.11792
G1 X102.966 Y93.885 E2.13420
G1 X103.461 Y93.390 E2.15468
G1 X102.930 Y93.190 E2.17129
G1 X102.415 Y93.705 E2.19261
G1 X101.817 Y93.571 E2.21052
G1 X102.347 Y93.041 E2.23243
G1 X102.061 Y92.978 E2.24099
G1 X101.721 Y92.936 E2.25103
G1 X101.164 Y93.493 E2.27407
G1 X100.437 Y93.489 E2.29533
G1 X101.013 Y92.913 E2.31914
G1 X100.525 Y92.943 E2.33344
G1 X100.193 Y93.001 E2.34329
G1 X99.607 Y93.588 E2.36755
G1 X99.161 Y93.689 E2.38092
G1 X98.596 Y93.868 E2.39828
G1 X99.209 Y93.255 E2.42364
G1 X99.029 Y93.320 E2.42924
G1 X98.391 Y93.623 E2.44989
G1 X97.798 Y94.000 E2.47046
G1 X97.427 Y94.306 E2.48453
G1 X97.045 Y94.688 E2.50033
G1 Z4.000 F7800.000
G1 E0.50033 F2400.00000
G92 E0
G1 X96.341 Y104.567 F7800.000
G1 E2.00000 F2400.00000
G1 F1200
G1 X95.959 Y104.185 E2.01514
G1 X95.960 Y104.158 E2.01591
G1 X96.383 Y104.490 E2.03100
G1 X96.774 Y104.751 E2.04418
G1 X97.184 Y104.982 E2.05737
G1 X97.691 Y105.216 E2.07302
G1 X98.334 Y105.859 E2.09854
G1 X99.121 Y106.109 E2.12170
G1 X99.319 Y106.143 E2.12732
G1 X98.713 Y105.537 E2.15134
G1 X99.112 Y105.614 E2.16273
G1 X99.545 Y105.668 E2.17496
G1 X100.126 Y106.249 E2.19801
G1 X100.410 Y106.266 E2.20598
G1 X100.822 Y106.245 E2.21757
G1 X100.269 Y105.691 E2.23952
G1 X100.920 Y105.642 E2.25783
G1 X101.451 Y106.173 E2.27890
G1 X101.847 Y106.104 E2.29016
G1 X102.029 Y106.050 E2.29549
G1 X101.516 Y105.537 E2.31585
G1 X102.067 Y105.387 E2.33187
G1 X102.559 Y105.879 E2.35134
G1 X103.049 Y105.668 E2.36631
G1 X102.579 Y105.198 E2.38494
G1 X103.057 Y104.975 E2.39972
G1 X103.504 Y105.422 E2.41746
G1 X103.924 Y105.141 E2.43162
G1 X103.503 Y104.720 E2.44832
G1 X103.919 Y104.436 E2.46246
G1 X104.301 Y104.818 E2.47760
G1 E0.47760 F2400.00000
G92 E0
G1 X101.492 Y100.138 F7800.000
G1 E2.00000 F2400.00000
G1 F1200
G1 X100.860 Y99.507 E2.02886
G1 X100.815 Y99.565 E2.03123
G1 X100.906 Y99.732 E2.03738
G1 X100.968 Y99.994 E2.04607
G1 X100.969 Y100.192 E2.05249
G1 X100.935 Y100.389 E2.05896
G1 X101.465 Y100.919 E2.08320
G1 X101.438 Y101.010 E2.08625
G1 X101.297 Y101.268 E2.09576
G1 X101.159 Y101.422 E2.10244
G1 X100.648 Y100.910 E2.12583
G1 X100.491 Y101.055 E2.13273
G1 X100.288 Y101.127 E2.13969
G1 X100.087 Y101.158 E2.14626
G1 X100.640 Y101.710 E2.17152
G1 X100.441 Y101.733 E2.17800
G1 X100.137 Y101.695 E2.18789
G1 X99.857 Y101.593 E2.19754
G1 X99.596 Y101.441 E2.20730
G1 X99.369 Y101.248 E2.21691
G1 X99.368 Y101.247 F7800.000
G1 F1200
G1 X98.986 Y100.865 E2.23437
G1 X98.799 Y100.630 E2.24407
G1 X98.659 Y100.353 E2.25413
G1 X98.594 Y100.113 E2.26216
G1 X98.580 Y99.878 E2.26979
G1 X98.608 Y99.679 E2.27627
G1 X99.157 Y100.228 E2.30139
G1 X99.216 Y99.924 E2.31138
G1 X99.355 Y99.618 E2.32228
G1 X98.835 Y99.097 E2.34608
G1 X98.872 Y99.031 E2.34855
G1 X99.061 Y98.800 E2.35819
G1 X99.212 Y98.666 E2.36471
G1 X99.725 Y99.179 E2.38817
G1 X99.969 Y99.000 E2.39798
G1 X100.223 Y98.870 E2.40721
G1 X99.696 Y98.343 E2.43129
G1 X99.921 Y98.250 E2.43915
G1 X100.213 Y98.178 E2.44889
G1 X100.331 Y98.169 E2.45271
G1 X100.891 Y98.730 E2.47833
G1 X101.608 Y98.638 F7800.000
G1 F1200
G1 X101.989 Y99.019 E2.49579
G1 E0.49579 F2400.00000
G92 E0
G1 X105.005 Y100.596 F7800.000
G1 E2.00000 F2400.00000
G1 F1200
G1 X104.623 Y100.214 E2.01624
G1 X104.245 Y100.586 E2.03219
G1 X104.758 Y101.100 E2.05399
G1 X104.393 Y101.484 E2.06994
G1 X103.893 Y100.985 E2.09117
G1 X103.585 Y101.427 E2.10737
G1 X104.073 Y101.915 E2.12811
G1 X103.778 Y102.372 E2.14442
G1 X103.288 Y101.881 E2.16527
G1 X102.949 Y102.294 E2.18130
G1 X103.456 Y102.800 E2.20283
G1 X103.215 Y103.048 E2.21322
G1 X103.071 Y103.166 E2.21880
G1 X102.555 Y102.650 E2.24073
G1 X102.101 Y102.947 E2.25702
G1 X102.618 Y103.463 E2.27896
G1 X102.276 Y103.619 E2.29024
G1 X102.083 Y103.680 E2.29631
G1 X101.579 Y103.176 E2.31773
G1 X101.234 Y103.275 E2.32851
G1 X100.973 Y103.320 E2.33648
G1 X101.444 Y103.791 E2.35651
G1 X101.186 Y103.797 E2.36428
G1 X100.908 Y103.777 E2.37263
G1 X100.632 Y103.730 E2.38106
G1 X100.250 Y103.348 E2.39729
G1 E0.39729 F2400.00000
G92 E0
G1 X105.662 Y104.172 F7800.000
G1 E2.00000 F2400.00000
G1 F1200
G1 X105.280 Y103.790 E2.01624
G1 X105.611 Y103.370 E2.03234
G1 X106.036 Y103.795 E2.05043
G1 X106.356 Y103.363 E2.06659
G1 X105.909 Y102.916 E2.08559
G1 X106.174 Y102.429 E2.10226
G1 X106.640 Y102.895 E2.12208
G1 X106.796 Y102.618 E2.13167
G1 X106.889 Y102.393 E2.13898
G1 X106.400 Y101.904 E2.15980
G1 X106.585 Y101.337 E2.17772
G1 X107.099 Y101.851 E2.19958
G1 X107.260 Y101.261 E2.21797
G1 X106.722 Y100.723 E2.24086
G1 X106.802 Y100.051 E2.26120
G1 X107.358 Y100.607 E2.28482
G1 X107.368 Y100.535 E2.28699
G1 X107.382 Y99.879 E2.30672
G1 X106.807 Y99.304 E2.33119
G1 X106.775 Y98.920 E2.34276
G1 X106.704 Y98.450 E2.35707
G1 X107.293 Y99.039 E2.38211
G1 X107.191 Y98.529 E2.39776
G1 X107.020 Y98.014 E2.41407
G1 X106.415 Y97.409 E2.43980
G1 X106.232 Y96.968 E2.45416
G1 X106.018 Y96.546 E2.46838
G1 X105.776 Y96.144 E2.48252
G1 X105.558 Y95.832 E2.49396
G1 X105.590 Y95.833 E2.49493
G1 X105.973 Y96.216 E2.51121
G1 X105.296 Y94.830 F7800.000
G1 F1200
G1 X104.567 Y94.119 E2.53973
G1 X104.227 Y93.854 E2.55181
G1 X103.868 Y93.616 E2.56388
G1 X103.225 Y93.273 E2.58431
G1 X102.909 Y93.143 E2.59389
G1 X103.557 Y93.792 E2.61960
G1 X103.058 Y93.611 E2.63449
G1 X102.537 Y93.472 E2.64960
G1 X101.932 Y92.867 E2.67356
G1 X101.708 Y92.817 E2.68000
G1 X101.126 Y92.762 E2.69637
G1 X101.707 Y93.342 E2.71938
G1 X100.983 Y93.319 E2.73966
G1 X100.423 Y92.758 E2.76188
G1 X100.125 Y92.781 E2.77025
G1 X99.802 Y92.838 E2.77945
G1 X100.333 Y93.369 E2.80049
G1 X99.737 Y93.474 E2.81744
G1 X99.226 Y92.962 E2.83770
G1 X98.692 Y93.129 E2.85337
G1 X99.186 Y93.623 E2.87296
G1 X98.675 Y93.812 E2.88824
G1 X98.208 Y93.345 E2.90676
G1 X97.749 Y93.587 E2.92129
G1 X98.198 Y94.035 E2.93906
G1 X97.752 Y94.290 E2.95344
G1 X97.326 Y93.864 E2.97034
G1 X96.955 Y94.169 E2.98380
G1 X96.954 Y94.192 E2.98445
G1 X97.336 Y94.574 E2.99959
G1 X95.975 Y95.220 F7800.000
G1 F1200
G1 X95.593 Y94.838 E3.01582
G1 X95.561 Y94.837 E3.01678
G1 X95.219 Y95.215 E3.03211
G1 X95.644 Y95.640 E3.05019
G1 X95.346 Y96.093 E3.06649
G1 X94.894 Y95.642 E3.08570
G1 X94.611 Y96.109 E3.10212
G1 X95.082 Y96.580 E3.12215
G1 X94.856 Y97.106 E3.13934
G1 X94.363 Y96.613 E3.16029
G1 X94.155 Y97.156 E3.17778
G1 X94.671 Y97.672 E3.19971
G1 X94.533 Y98.285 E3.21862
G1 X94.001 Y97.753 E3.24125
G1 X93.964 Y97.902 E3.24585
G1 X93.897 Y98.400 E3.26098
G1 X94.453 Y98.956 E3.28462
G1 X94.448 Y99.703 E3.30705
G1 X93.872 Y99.126 E3.33156
G1 X93.904 Y99.627 E3.34665
G1 X93.964 Y99.970 E3.35710
G1 X94.550 Y100.556 E3.38201
G1 X94.653 Y101.013 E3.39611
G1 X94.838 Y101.595 E3.41446
G1 X94.225 Y100.982 E3.44051
G1 X94.406 Y101.433 E3.45513
G1 X94.673 Y101.945 E3.47248
G1 X95.078 Y102.548 E3.49430
G1 X95.286 Y102.795 E3.50401
G1 X95.668 Y103.177 E3.52024
G1 E1.52024 F2400.00000
G92 E0
G1 X96.631 Y101.050 F7800.000
G1 E2.00000 F2400.00000
G1 F1200
G1 X97.105 Y101.523 E2.01885
G1 X97.018 Y101.326 E2.02491
G1 X96.922 Y100.996 E2.03458
G1 X96.860 Y100.500 E2.04864
G1 X96.292 Y99.933 E2.07121
G1 X96.294 Y99.719 E2.07723
G1 X96.370 Y99.233 E2.09108
G1 X96.910 Y99.773 E2.11257
G1 X96.992 Y99.425 E2.12263
G1 X97.080 Y99.165 E2.13034
G1 X96.574 Y98.660 E2.15046
G1 X96.717 Y98.392 E2.15900
G1 X96.865 Y98.172 E2.16644
G1 X97.333 Y98.641 E2.18509
G1 X97.654 Y98.184 E2.20080
G1 X97.233 Y97.763 E2.21756
G1 X97.439 Y97.564 E2.22563
G1 X97.650 Y97.402 E2.23310
G1 X98.032 Y97.784 E2.24829
G1 X98.870 Y96.342 F7800.000
G1 F1200
G1 X99.411 Y96.867 E2.26949
G1 X99.637 Y96.406 E2.28395
G1 X99.105 Y95.874 E2.30513
G1 X99.119 Y95.849 E2.30592
G1 X99.250 Y95.685 E2.31183
G1 X99.449 Y95.515 E2.31920
G1 X99.983 Y96.049 E2.34046
G1 X100.250 Y95.916 E2.34883
G1 X100.490 Y95.853 E2.35583
G1 X99.922 Y95.285 E2.37844
G1 X100.217 Y95.227 E2.38689
G1 X100.556 Y95.215 E2.39643
G1 X101.180 Y95.839 E2.42126
G1 X101.640 Y95.919 E2.43442
G1 X102.116 Y96.072 E2.44848
G1 X101.378 Y95.334 E2.47785
G1 X101.830 Y95.482 E2.49121
G1 X102.159 Y95.634 E2.50142
G1 X102.507 Y95.844 E2.51285
G1 X102.837 Y96.099 E2.52460
G1 X103.481 Y96.733 E2.55002
G1 X104.352 Y98.308 F7800.000
G1 F1200
G1 X103.611 Y97.567 E2.57951
G1 X103.778 Y98.063 E2.59422
G1 X103.871 Y98.530 E2.60764
G1 X104.502 Y99.162 E2.63275
G1 X104.515 Y99.565 E2.64411
G1 X104.497 Y99.859 E2.65241
G1 X103.909 Y99.271 E2.67582
G1 Z4.400 F7800.000
G1 E0.67582 F2400.00000
G92 E0
G1 X104.041 Y104.919 F7800.000
G1 E2.00000 F2400.00000
G1 F1200
G1 X104.423 Y104.536 E2.01547
G1 X104.402 Y104.529 E2.01611
G1 X104.063 Y104.767 E2.02795
G1 X103.652 Y105.015 E2.04167
G1 X103.224 Y105.231 E2.05537
G1 X102.861 Y105.385 E2.06666
G1 X102.251 Y105.995 E2.09130
G1 X102.063 Y106.070 E2.09708
G1 X101.497 Y106.235 E2.11396
G1 X101.253 Y106.278 E2.12102
G1 X101.843 Y105.688 E2.14488
G1 X101.386 Y105.768 E2.15814
G1 X101.009 Y105.808 E2.16900
G1 X100.436 Y106.380 E2.19213
G1 X100.026 Y106.401 E2.20386
G1 X99.719 Y106.383 E2.21266
G1 X100.277 Y105.825 E2.23521
G1 X99.618 Y105.769 E2.25410
G1 X99.083 Y106.305 E2.27576
G1 X98.708 Y106.241 E2.28662
G1 X98.496 Y106.177 E2.29294
G1 X99.015 Y105.658 E2.31392
G1 X98.457 Y105.502 E2.33048
G1 X97.952 Y106.007 E2.35090
G1 X97.456 Y105.788 E2.36639
G1 X97.935 Y105.310 E2.38574
G1 X97.454 Y105.076 E2.40102
G1 X96.996 Y105.534 E2.41954
G1 X96.561 Y105.254 E2.43432
G1 X97.002 Y104.814 E2.45213
G1 X96.580 Y104.522 E2.46681
G1 X96.161 Y104.940 E2.48373
G1 X95.794 Y104.593 E2.49818
G1 X96.176 Y104.211 E2.51362
G1 E0.51362 F2400.00000
G92 E0
G1 X99.715 Y101.712 F7800.000
G1 E2.00000 F2400.00000
G1 F1200
G1 X100.257 Y101.170 E2.02479
G1 X100.055 Y101.116 E2.03154
G1 X99.834 Y101.015 E2.03941
G1 X99.799 Y101.015 E2.04053
G1 X99.694 Y100.925 E2.04500
G1 X99.173 Y101.446 E2.06881
G1 X98.960 Y101.266 E2.07782
G1 X98.776 Y101.035 E2.08735
G1 X99.298 Y100.513 E2.11121
G1 X99.190 Y100.308 E2.11871
G1 X99.154 Y100.179 E2.12304
G1 X99.124 Y99.880 E2.13276
G1 X98.557 Y100.447 E2.15868
G1 X98.545 Y100.260 E2.16474
G1 X98.588 Y99.957 E2.17461
G1 X98.692 Y99.664 E2.18465
G1 X98.844 Y99.396 E2.19462
G1 X99.036 Y99.161 E2.20444
G1 X99.419 Y98.777 E2.22197
G1 X98.742 Y100.261 F7800.000
G1 F1200
G1 X98.785 Y99.979 E2.23119
G1 X98.874 Y99.738 E2.23950
G1 X99.038 Y99.465 E2.24978
G1 X99.236 Y99.236 E2.25957
G1 X99.470 Y99.041 E2.26941
G1 X99.736 Y98.884 E2.27939
G1 X100.020 Y98.772 E2.28927
G1 X100.292 Y98.712 E2.29826
G1 X100.883 Y98.121 E2.32526
G1 X101.152 Y98.136 E2.33397
G1 X101.392 Y98.196 E2.34199
G1 X101.546 Y98.265 E2.34744
G1 X101.019 Y98.792 E2.37152
G1 X101.276 Y98.937 E2.38105
G1 X101.489 Y99.130 E2.39034
G1 X102.013 Y98.606 E2.41427
G1 X102.172 Y98.795 E2.42225
G1 X102.358 Y99.069 E2.43294
G1 X101.834 Y99.592 E2.45686
G1 X101.154 Y100.273 F7800.000
G1 F1200
G1 X101.063 Y99.976 E2.46690
G1 X100.943 Y99.782 E2.47427
G1 X100.822 Y99.938 E2.48065
G1 X100.939 Y100.177 E2.48926
G1 X100.984 Y100.443 E2.49796
G1 X101.536 Y99.891 E2.52318
G1 X101.558 Y100.056 E2.52857
G1 X101.534 Y100.355 E2.53825
G1 X101.449 Y100.644 E2.54798
G1 X101.305 Y100.907 E2.55767
G1 X100.720 Y101.514 E2.58490
G1 E0.58490 F2400.00000
G92 E0
G1 X100.515 Y103.829 F7800.000
G1 E2.00000 F2400.00000
G1 F1200
G1 X100.251 Y103.820 E2.00882
G1 X100.484 Y103.860 E2.01669
G1 X100.897 Y103.447 E2.03618
G1 X101.446 Y103.400 E2.05453
G1 X101.876 Y103.301 E2.06926
G1 X101.320 Y103.857 E2.09546
G1 X102.890 Y103.120 F7800.000
G1 F1200
G1 X103.271 Y102.738 E2.11346
G1 E0.11346 F2400.00000
G92 E0
G1 X105.333 Y104.338 F7800.000
G1 E2.00000 F2400.00000
G1 F1200
G1 X106.115 Y103.534 E2.03306
G1 X106.555 Y102.939 E2.05486
G1 X106.918 Y102.295 E2.07665
G1 X107.113 Y101.822 E2.09174
G1 X106.478 Y102.456 E2.11818
G1 X106.650 Y101.976 E2.13322
G1 X106.804 Y101.394 E2.15095
G1 X107.412 Y100.787 E2.17628
G1 X107.503 Y100.165 E2.19480
G1 X107.510 Y99.951 E2.20109
G1 X106.931 Y100.531 E2.22524
G1 X106.947 Y99.779 E2.24741
G1 X107.497 Y99.228 E2.27034
G1 X107.467 Y98.837 E2.28190
G1 X107.414 Y98.575 E2.28980
G1 X106.886 Y99.103 E2.31182
G1 X106.768 Y98.484 E2.33037
G1 X107.276 Y97.976 E2.35156
G1 X107.093 Y97.423 E2.36873
G1 X106.602 Y97.914 E2.38917
G1 X106.395 Y97.384 E2.40593
G1 X106.861 Y96.918 E2.42536
G1 X106.593 Y96.449 E2.44126
G1 X106.152 Y96.891 E2.45966
G1 X105.876 Y96.431 E2.47547
G1 X106.292 Y96.014 E2.49284
G1 X105.968 Y95.621 E2.50785
G1 X105.949 Y95.621 E2.50841
G1 X105.568 Y96.002 E2.52432
G1 E0.52432 F2400.00000
G92 E0
G1 X95.579 Y95.009 F7800.000
G1 E2.00000 F2400.00000
G1 F1200
G1 X95.547 Y95.041 E2.00131
G1 X95.961 Y94.627 E2.01823
G1 X95.980 Y94.627 E2.01877
G1 X95.628 Y95.053 E2.03474
G1 X95.266 Y95.581 E2.05325
G1 X95.030 Y95.999 E2.06714
G1 X94.790 Y96.520 E2.08373
G1 X94.157 Y97.154 E2.10963
G1 X94.009 Y97.540 E2.12158
G1 X93.849 Y98.184 E2.14079
G1 X94.461 Y97.573 E2.16580
G1 X94.385 Y97.968 E2.17744
G1 X94.328 Y98.428 E2.19084
G1 X93.746 Y99.010 E2.21464
G1 X93.731 Y99.435 E2.22695
G1 X93.750 Y99.729 E2.23546
G1 X94.307 Y99.172 E2.25821
G1 X94.360 Y99.842 E2.27764
G1 X93.830 Y100.372 E2.29931
G1 X93.897 Y100.756 E2.31059
G1 X93.959 Y100.966 E2.31692
G1 X94.470 Y100.454 E2.33785
G1 X94.627 Y101.020 E2.35483
G1 X94.138 Y101.510 E2.37486
G1 X94.283 Y101.872 E2.38615
G1 X94.357 Y102.013 E2.39075
G1 X94.825 Y101.546 E2.40987
G1 X95.058 Y102.035 E2.42556
G1 X94.613 Y102.480 E2.44373
G1 X94.903 Y102.912 E2.45880
G1 X95.323 Y102.492 E2.47598
G1 X95.619 Y102.919 E2.49100
G1 X95.237 Y103.301 E2.50662
G1 E0.50662 F2400.00000
G92 E0
G1 X96.638 Y101.551 F7800.000
G1 E2.00000 F2400.00000
G1 F1200
G1 X97.020 Y101.169 E2.01516
G1 X96.892 Y100.859 E2.02457
G1 X96.830 Y100.624 E2.03141
G1 X96.341 Y101.113 E2.05081
G1 X96.252 Y100.825 E2.05928
G1 X96.211 Y100.507 E2.06826
G1 X96.764 Y99.954 E2.09021
G1 X96.791 Y99.544 E2.10176
G1 X96.878 Y99.104 E2.11434
G1 X96.249 Y99.733 E2.13930
G1 X96.366 Y99.295 E2.15202
G1 X96.465 Y99.052 E2.15940
G1 X96.631 Y98.739 E2.16934
G1 X96.773 Y98.526 E2.17652
G1 X96.986 Y98.261 E2.18606
G1 X97.372 Y97.875 E2.20140
G1 E0.20140 F2400.00000
G92 E0
G1 X99.239 Y95.985 F7800.000
G1 E2.00000 F2400.00000
G1 F1200
G1 X99.769 Y95.468 E2.02080
G1 X100.034 Y95.303 E2.02956
G1 X100.316 Y95.199 E2.03800
G1 X100.602 Y95.145 E2.04616
G1 X100.788 Y95.138 E2.05138
G1 X100.173 Y95.753 E2.07576
G1 X100.542 Y95.731 E2.08611
G1 X100.871 Y95.756 E2.09539
G1 X101.443 Y95.185 E2.11808
G1 X101.803 Y95.258 E2.12841
G1 X102.004 Y95.325 E2.13436
G1 X101.452 Y95.877 E2.15627
G1 X101.961 Y96.070 E2.17154
G1 X102.506 Y95.525 E2.19317
G1 X102.949 Y95.783 E2.20757
G1 X102.409 Y96.323 E2.22903
G1 X102.802 Y96.632 E2.24305
G1 X103.338 Y96.096 E2.26432
G1 X103.536 Y96.287 E2.27205
G1 X103.677 Y96.458 E2.27828
G1 X103.144 Y96.991 E2.29945
G1 X103.435 Y97.401 E2.31357
G1 X103.974 Y96.862 E2.33497
G1 X104.219 Y97.319 E2.34951
G1 X103.673 Y97.865 E2.37118
G1 X103.854 Y98.386 E2.38667
G1 X104.411 Y97.829 E2.40880
G1 X104.515 Y98.252 E2.42104
G1 X104.536 Y98.405 E2.42537
G1 X103.966 Y98.975 E2.44799
G1 X103.993 Y99.323 E2.45779
G1 X103.993 Y99.650 E2.46697
G1 X104.589 Y99.054 E2.49065
G1 X104.565 Y99.625 E2.50669
G1 X104.537 Y99.807 E2.51187
G1 X104.155 Y100.189 E2.52703
G1 E0.52703 F2400.00000
G92 E0
G1 X105.107 Y94.843 F7800.000
G1 E2.00000 F2400.00000
G1 F1200
G1 X105.499 Y94.450 E2.01601
G1 X105.129 Y94.099 E2.03074
G1 X104.712 Y94.516 E2.04775
G1 X104.288 Y94.219 E2.06270
G1 X104.724 Y93.783 E2.08047
G1 X104.298 Y93.488 E2.09543
G1 X103.834 Y93.952 E2.11437
G1 X103.347 Y93.717 E2.12996
G1 X103.827 Y93.237 E2.14954
G1 X103.330 Y93.013 E2.16528
G1 X102.825 Y93.518 E2.18588
G1 X102.264 Y93.358 E2.20273
G1 X102.787 Y92.834 E2.22410
G1 X102.197 Y92.703 E2.24154
G1 X101.656 Y93.244 E2.26363
G1 X100.993 Y93.185 E2.28284
G1 X101.551 Y92.627 E2.30562
G1 X100.837 Y92.620 E2.32624
G1 X100.256 Y93.201 E2.34996
G1 X99.869 Y93.243 E2.36120
G1 X99.414 Y93.322 E2.37453
G1 X100.004 Y92.732 E2.39861
G1 X99.760 Y92.775 E2.40576
G1 X99.052 Y92.991 E2.42711
G1 X99.001 Y93.013 E2.42872
G1 X98.386 Y93.629 E2.45384
G1 X97.887 Y93.848 E2.46957
G1 X97.464 Y94.075 E2.48343
G1 X97.059 Y94.332 E2.49728
G1 X96.743 Y94.565 E2.50861
G1 X97.126 Y94.167 E2.52456
G1 Z4.800 F7800.000
G1 E0.52456 F2400.00000
G92 E0
G1 X101.031 Y98.660 F7800.000
G1 E2.00000 F2400.00000
G1 F1200
G1 X100.450 Y98.078 E2.02387
G1 X100.217 Y98.096 E2.03067
G1 X99.909 Y98.172 E2.03987
G1 X99.844 Y98.198 E2.04190
G1 X100.382 Y98.736 E2.06398
G1 X100.111 Y98.843 E2.07245
G1 X99.889 Y98.969 E2.07985
G1 X99.368 Y98.448 E2.10124
G1 X99.292 Y98.496 E2.10387
G1 X98.977 Y98.783 E2.11623
G1 X99.499 Y99.305 E2.13766
G1 X99.349 Y99.497 E2.14474
G1 X99.211 Y99.742 E2.15292
G1 X98.682 Y99.213 E2.17465
G1 X98.544 Y99.569 E2.18572
G1 X98.515 Y99.772 E2.19170
G1 X99.083 Y100.340 E2.21503
G1 X99.114 Y100.568 E2.22170
G1 X99.182 Y100.764 E2.22773
G1 X99.280 Y100.939 E2.23353
G1 X99.400 Y101.095 E2.23926
G1 X99.541 Y101.234 E2.24502
G1 X99.746 Y101.387 E2.25244
G1 X100.099 Y101.553 E2.26375
G1 X100.339 Y101.597 E2.27086
G1 X100.529 Y101.786 E2.27865
G1 X100.427 Y101.798 E2.28164
G1 X100.111 Y101.759 E2.29087
G1 X99.818 Y101.652 E2.29993
G1 X99.546 Y101.492 E2.30911
G1 X99.308 Y101.291 E2.31817
G1 X98.924 Y100.907 E2.33391
G1 X99.958 Y101.215 F7800.000
G1 F1200
G1 X100.140 Y101.214 E2.33920
G1 X100.286 Y101.186 E2.34352
G1 X100.434 Y101.130 E2.34813
G1 X100.535 Y101.066 E2.35159
G1 X101.052 Y101.583 E2.37282
G1 X101.108 Y101.545 E2.37479
G1 X101.314 Y101.315 E2.38377
G1 X101.384 Y101.189 E2.38794
G1 X100.865 Y100.671 E2.40923
G1 X100.961 Y100.412 E2.41726
G1 X100.999 Y100.079 E2.42698
G1 X101.558 Y100.638 E2.44993
G1 X102.056 Y98.958 F7800.000
G1 F1200
G1 X101.674 Y98.576 E2.46561
G1 E0.46561 F2400.00000
G92 E0
G1 X105.110 Y100.612 F7800.000
G1 E2.00000 F2400.00000
G1 F1200
G1 X104.727 Y100.230 E2.01529
G1 X104.577 Y100.425 E2.02226
G1 X104.564 Y100.419 E2.02265
G1 X104.397 Y100.606 E2.02975
G1 X104.900 Y101.110 E2.04988
G1 X104.569 Y101.486 E2.06405
G1 X104.072 Y100.989 E2.08394
G1 X103.791 Y101.414 E2.09836
G1 X104.274 Y101.898 E2.11771
G1 X104.001 Y102.331 E2.13221
G1 X103.515 Y101.845 E2.15167
G1 X103.215 Y102.252 E2.16597
G1 X103.710 Y102.747 E2.18578
G1 X103.530 Y102.976 E2.19400
G1 X103.378 Y103.123 E2.19997
G1 X102.869 Y102.613 E2.22035
G1 X102.473 Y102.924 E2.23459
G1 X102.992 Y103.443 E2.25533
G1 X102.781 Y103.577 E2.26239
G1 X102.541 Y103.699 E2.27002
G1 X102.025 Y103.183 E2.29065
G1 X101.515 Y103.380 E2.30612
G1 X102.015 Y103.880 E2.32612
G1 X101.694 Y103.942 E2.33536
G1 X101.404 Y103.967 E2.34361
G1 X100.929 Y103.501 E2.36243
G1 X100.639 Y103.524 E2.37066
G1 X100.239 Y103.517 E2.38198
G1 X100.621 Y103.899 E2.39726
G1 E0.39726 F2400.00000
G92 E0
G1 X105.413 Y104.040 F7800.000
G1 E2.00000 F2400.00000
G1 F1200
G1 X105.796 Y104.422 E2.01577
G1 X106.149 Y104.047 E2.03082
G1 X105.731 Y103.628 E2.04808
G1 X106.029 Y103.198 E2.06337
G1 X106.468 Y103.637 E2.08148
G1 X106.568 Y103.508 E2.08624
G1 X106.759 Y103.198 E2.09685
G1 X106.297 Y102.736 E2.11589
G1 X106.533 Y102.243 E2.13184
G1 X107.014 Y102.724 E2.15169
G1 X107.146 Y102.453 E2.16050
G1 X107.234 Y102.215 E2.16789
G1 X106.732 Y101.713 E2.18861
G1 X106.892 Y101.144 E2.20586
G1 X107.411 Y101.662 E2.22726
G1 X107.548 Y101.071 E2.24498
G1 X107.006 Y100.528 E2.26737
G1 X107.067 Y99.860 E2.28695
G1 X107.622 Y100.415 E2.30986
G1 X107.638 Y99.957 E2.32325
G1 X107.617 Y99.681 E2.33132
G1 X107.044 Y99.108 E2.35495
G1 X107.003 Y98.731 E2.36603
G1 X106.920 Y98.255 E2.38012
G1 X107.508 Y98.843 E2.40440
G1 X107.432 Y98.465 E2.41566
G1 X107.220 Y97.826 E2.43529
G1 X106.607 Y97.213 E2.46059
G1 X106.388 Y96.714 E2.47649
G1 X106.157 Y96.284 E2.49074
G1 X105.894 Y95.872 E2.50499
G1 X105.652 Y95.542 E2.51693
G1 X106.049 Y95.926 E2.53303
G1 X105.528 Y94.700 F7800.000
G1 F1200
G1 X104.957 Y94.129 E2.55731
G1 X104.616 Y93.836 E2.57082
G1 X103.996 Y93.401 E2.59356
G1 X103.329 Y93.046 E2.61630
G1 X102.980 Y92.902 E2.62763
G1 X103.628 Y93.551 E2.65519
G1 X103.133 Y93.373 E2.67101
G1 X102.544 Y93.217 E2.68933
G1 X101.940 Y92.613 E2.71500
G1 X101.744 Y92.570 E2.72102
G1 X101.301 Y92.516 E2.73443
G1 X101.086 Y92.511 E2.74090
G1 X101.663 Y93.088 E2.76540
G1 X100.895 Y93.071 E2.78847
G1 X100.338 Y92.514 E2.81215
G1 X100.097 Y92.533 E2.81943
G1 X99.679 Y92.606 E2.83218
G1 X100.206 Y93.134 E2.85460
G1 X99.576 Y93.254 E2.87389
G1 X99.071 Y92.749 E2.89537
G1 X98.630 Y92.883 E2.90921
G1 X98.508 Y92.938 E2.91323
G1 X98.994 Y93.424 E2.93388
G1 X98.455 Y93.635 E2.95130
G1 X97.989 Y93.169 E2.97110
G1 X97.940 Y93.191 E2.97272
G1 X97.509 Y93.441 E2.98768
G1 X97.952 Y93.884 E3.00650
G1 X97.483 Y94.166 E3.02295
G1 X97.069 Y93.752 E3.04056
G1 X96.665 Y94.084 E3.05627
G1 X97.047 Y94.481 E3.07280
G1 X95.901 Y94.926 F7800.000
G1 F1200
G1 X95.503 Y94.543 E3.08908
G1 X95.148 Y94.909 E3.10411
G1 X95.566 Y95.327 E3.12154
G1 X95.260 Y95.758 E3.13712
G1 X94.820 Y95.318 E3.15546
G1 X94.528 Y95.762 E3.17113
G1 X94.986 Y96.221 E3.19024
G1 X94.745 Y96.716 E3.20648
G1 X94.262 Y96.233 E3.22661
G1 X94.042 Y96.750 E3.24316
G1 X94.539 Y97.247 E3.26390
G1 X94.374 Y97.819 E3.28144
G1 X93.858 Y97.303 E3.30295
G1 X93.748 Y97.707 E3.31530
G1 X93.719 Y97.900 E3.32106
G1 X94.256 Y98.437 E3.34344
G1 X94.194 Y99.112 E3.36342
G1 X93.634 Y98.552 E3.38676
G1 X93.617 Y99.054 E3.40155
G1 X93.635 Y99.289 E3.40852
G1 X94.208 Y99.862 E3.43240
G1 X94.252 Y100.279 E3.44476
G1 X94.328 Y100.719 E3.45790
G1 X93.739 Y100.130 E3.48242
G1 X93.823 Y100.546 E3.49491
G1 X94.024 Y101.152 E3.51372
G1 X94.634 Y101.762 E3.53916
G1 X94.797 Y102.149 E3.55155
G1 X95.018 Y102.585 E3.56595
G1 X95.270 Y103.003 E3.58034
G1 X95.551 Y103.401 E3.59468
G1 X95.139 Y103.004 E3.61154
G1 X96.092 Y104.673 F7800.000
G1 F1200
G1 X95.710 Y104.291 E3.62732
G1 X95.723 Y104.283 E3.62776
G1 X96.237 Y104.693 E3.64698
G1 X96.644 Y104.964 E3.66125
G1 X97.069 Y105.204 E3.67553
G1 X97.596 Y105.447 E3.69249
G1 X98.239 Y106.090 E3.71905
G1 X99.064 Y106.352 E3.74435
G1 X99.267 Y106.387 E3.75036
G1 X98.661 Y105.782 E3.77538
G1 X99.073 Y105.861 E3.78761
G1 X99.527 Y105.917 E3.80100
G1 X100.108 Y106.498 E3.82500
G1 X100.407 Y106.516 E3.83376
G1 X100.834 Y106.494 E3.84625
G1 X100.281 Y105.941 E3.86910
G1 X100.959 Y105.889 E3.88897
G1 X101.490 Y106.419 E3.91090
G1 X101.905 Y106.347 E3.92323
G1 X102.093 Y106.292 E3.92893
G1 X101.580 Y105.779 E3.95013
G1 X102.153 Y105.622 E3.96751
G1 X102.644 Y106.113 E3.98779
G1 X103.155 Y105.894 E4.00405
G1 X102.686 Y105.425 E4.02345
G1 X103.183 Y105.191 E4.03949
G1 X103.630 Y105.638 E4.05796
G1 X104.067 Y105.345 E4.07334
G1 X103.646 Y104.925 E4.09072
G1 X104.071 Y104.634 E4.10575
G1 X104.476 Y105.024 E4.12217
G1 E2.12217 F2400.00000
G92 E0
G1 X104.066 Y99.272 F7800.000
G1 E2.00000 F2400.00000
G1 F1200
G1 X104.644 Y99.850 E2.02376
G1 X104.661 Y99.347 E2.03838
G1 X104.644 Y99.123 E2.04492
G1 X104.032 Y98.511 E2.07008
G1 X103.929 Y97.985 E2.08565
G1 X103.778 Y97.531 E2.09956
G1 X104.490 Y98.242 E2.12880
G1 X103.586 Y96.612 F7800.000
G1 F1200
G1 X102.933 Y95.970 E2.15545
G1 X102.637 Y95.738 E2.16638
G1 X102.231 Y95.492 E2.18018
G1 X101.891 Y95.335 E2.19106
G1 X101.433 Y95.185 E2.20508
G1 X102.144 Y95.896 E2.23433
G1 X101.689 Y95.755 E2.24817
G1 X101.191 Y95.670 E2.26286
G1 X100.583 Y95.062 E2.28787
G1 X100.223 Y95.074 E2.29832
G1 X99.925 Y95.131 E2.30714
G1 X100.482 Y95.688 E2.33005
G1 X100.247 Y95.750 E2.33713
G1 X99.959 Y95.891 E2.34645
G1 X99.433 Y95.365 E2.36808
G1 X99.227 Y95.535 E2.37584
G1 X99.091 Y95.699 E2.38205
G1 X99.072 Y95.730 E2.38310
G1 X99.598 Y96.256 E2.40473
G1 X99.359 Y96.725 E2.42001
G1 X98.823 Y96.208 E2.44166
G1 X97.909 Y97.674 F7800.000
G1 F1200
G1 X97.527 Y97.292 E2.45736
G1 X97.307 Y97.462 E2.46543
G1 X97.151 Y97.613 E2.47174
G1 X97.566 Y98.028 E2.48880
G1 X97.267 Y98.425 E2.50326
G1 X96.812 Y97.970 E2.52196
G1 X96.556 Y98.327 E2.53472
G1 X96.527 Y98.382 E2.53653
G1 X97.017 Y98.872 E2.55665
G1 X96.824 Y99.376 E2.57234
G1 X96.303 Y98.854 E2.59378
G1 X96.208 Y99.151 E2.60283
G1 X96.155 Y99.403 E2.61032
G1 X96.706 Y99.954 E2.63295
G1 X96.682 Y100.276 E2.64234
G1 X96.693 Y100.638 E2.65288
G1 X96.121 Y100.065 E2.67641
G1 X96.172 Y100.455 E2.68784
G1 X96.252 Y100.727 E2.69606
G1 X96.356 Y100.946 E2.70312
G1 X96.517 Y101.158 E2.71085
G1 X96.899 Y101.540 E2.72655
M106 S239.7
G1 Z5.200 F7800.000
G1 E0.72655 F2400.00000
G92 E0
G1 X96.528 Y108.082 F7800.000
G1 E2.00000 F2400.00000
G1 F1200
G1 X96.146 Y108.464 E2.01668
G1 X96.511 Y108.871 E2.03358
G1 X97.030 Y108.352 E2.05626
G1 X97.571 Y108.584 E2.07443
G1 X96.968 Y109.186 E2.10076
G1 X97.158 Y109.277 E2.10728
G1 X97.522 Y109.404 E2.11918
G1 X98.154 Y108.772 E2.14681
G1 X98.787 Y108.911 E2.16683
G1 X98.125 Y109.573 E2.19575
G1 X98.540 Y109.659 E2.20884
G1 X98.790 Y109.681 E2.21658
G1 X99.482 Y108.989 E2.24683
G1 X100.256 Y108.986 E2.27077
G1 X99.542 Y109.701 E2.30197
G1 X100.143 Y109.641 E2.32061
G1 X100.437 Y109.578 E2.32991
G1 X101.145 Y108.870 E2.36086
G1 X101.602 Y108.761 E2.37537
G1 X102.150 Y108.583 E2.39315
G1 X102.166 Y108.621 E2.39443
G1 X101.784 Y109.004 E2.41113
G1 E0.41113 F2400.00000
G92 E0
G1 X104.273 Y104.999 F7800.000
G1 E2.00000 F2400.00000
G1 F1200
G1 X104.656 Y104.601 E2.01659
G1 X104.316 Y104.852 E2.02927
G1 X103.898 Y105.118 E2.04414
G1 X103.323 Y105.423 E2.06367
G1 X102.943 Y105.580 E2.07600
G1 X102.334 Y106.189 E2.10184
G1 X102.133 Y106.270 E2.10835
G1 X101.546 Y106.441 E2.12668
G1 X101.287 Y106.486 E2.13458
G1 X101.876 Y105.897 E2.15958
G1 X101.415 Y105.977 E2.17362
G1 X101.002 Y106.021 E2.18607
G1 X100.431 Y106.592 E2.21030
G1 X100.024 Y106.613 E2.22252
G1 X99.681 Y106.592 E2.23284
G1 X100.238 Y106.035 E2.25647
G1 X99.800 Y106.010 E2.26965
G1 X99.550 Y105.973 E2.27720
G1 X99.016 Y106.508 E2.29988
G1 X98.660 Y106.446 E2.31072
G1 X98.404 Y106.370 E2.31873
G1 X98.921 Y105.853 E2.34065
G1 X98.339 Y105.685 E2.35882
G1 X97.837 Y106.187 E2.38010
G1 X97.317 Y105.957 E2.39716
G1 X97.798 Y105.476 E2.41758
G1 X97.294 Y105.230 E2.43440
G1 X96.839 Y105.686 E2.45373
G1 X96.569 Y105.525 E2.46315
G1 X96.389 Y105.385 E2.46998
G1 X96.824 Y104.951 E2.48841
G1 X96.385 Y104.640 E2.50454
G1 X95.968 Y105.057 E2.52226
G1 X95.595 Y104.696 E2.53785
G1 X95.977 Y104.298 E2.55440
G1 E0.55440 F2400.00000
G92 E0
G1 X99.794 Y101.815 F7800.000
G1 E2.00000 F2400.00000
G1 F1200
G1 X100.350 Y101.260 E2.02229
G1 X100.056 Y101.205 E2.03077
G1 X99.806 Y101.094 E2.03855
G1 X99.280 Y101.619 E2.05966
G1 X99.127 Y101.529 E2.06469
G1 X98.876 Y101.314 E2.07410
G1 X99.403 Y100.787 E2.09526
G1 X99.234 Y100.578 E2.10288
G1 X99.118 Y100.362 E2.10985
G1 X98.589 Y100.891 E2.13109
G1 X98.528 Y100.769 E2.13495
G1 X98.459 Y100.513 E2.14249
G1 X98.447 Y100.323 E2.14789
G1 X99.046 Y99.724 E2.17196
G1 X98.966 Y99.095 F7800.000
G1 F1200
G1 X99.347 Y98.713 E2.18730
G1 X99.643 Y98.451 E2.19851
G1 X99.983 Y98.240 E2.20987
G1 X100.282 Y98.116 E2.21908
G1 X100.601 Y98.037 E2.22840
G1 X100.744 Y98.026 E2.23247
G1 X100.120 Y98.650 E2.25751
G1 X100.511 Y98.600 E2.26870
G1 X100.847 Y98.632 E2.27829
G1 X101.398 Y98.082 E2.30039
G1 X101.684 Y98.202 E2.30921
G1 X101.865 Y98.324 E2.31542
G1 X101.337 Y98.852 E2.33664
G1 X101.534 Y99.026 E2.34409
G1 X101.692 Y99.207 E2.35092
G1 X102.224 Y98.675 E2.37228
G1 X102.515 Y99.094 E2.38676
G1 X101.983 Y99.626 E2.40813
G1 X101.414 Y99.486 F7800.000
G1 F1200
G1 X100.897 Y100.002 E2.42889
G1 X100.997 Y100.263 E2.43683
G1 X101.016 Y100.593 E2.44622
G1 X101.588 Y100.021 E2.46918
G1 X101.569 Y100.386 E2.47954
G1 X101.479 Y100.690 E2.48856
G1 X101.327 Y100.968 E2.49754
G1 X100.733 Y101.586 E2.52191
G1 E0.52191 F2400.00000
G92 E0
G1 X100.579 Y103.978 F7800.000
G1 E2.00000 F2400.00000
G1 F1200
G1 X100.227 Y103.968 E2.01174
G1 X100.539 Y104.018 E2.02226
G1 X100.961 Y103.596 E2.04217
G1 X101.489 Y103.547 E2.05984
G1 X101.953 Y103.437 E2.07572
G1 X101.399 Y103.991 E2.10181
G1 X102.991 Y103.232 F7800.000
G1 F1200
G1 X103.580 Y102.643 E2.12959
G1 X103.373 Y102.851 E2.13936
G1 E0.13936 F2400.00000
G92 E0
G1 X105.436 Y104.538 F7800.000
G1 E2.00000 F2400.00000
G1 F1200
G1 X106.176 Y103.787 E2.02951
G1 X106.648 Y103.181 E2.05101
G1 X106.966 Y102.663 E2.06802
G1 X107.276 Y101.999 E2.08853
G1 X106.629 Y102.646 E2.11414
G1 X106.801 Y102.196 E2.12759
G1 X106.973 Y101.602 E2.14491
G1 X107.581 Y100.994 E2.16898
G1 X107.632 Y100.791 E2.17483
G1 X107.708 Y100.168 E2.19238
G1 X107.122 Y100.754 E2.21555
G1 X107.162 Y100.014 E2.23627
G1 X107.730 Y99.446 E2.25875
G1 X107.669 Y98.808 E2.27668
G1 X107.128 Y99.349 E2.29807
G1 X107.039 Y98.739 E2.31533
G1 X107.555 Y98.222 E2.33575
G1 X107.484 Y97.909 E2.34475
G1 X107.404 Y97.675 E2.35168
G1 X106.905 Y98.174 E2.37143
G1 X106.731 Y97.648 E2.38693
G1 X107.208 Y97.171 E2.40580
G1 X106.983 Y96.697 E2.42049
G1 X106.524 Y97.156 E2.43866
G1 X106.285 Y96.695 E2.45318
G1 X106.716 Y96.264 E2.47026
G1 X106.545 Y95.994 E2.47920
G1 X106.428 Y95.853 E2.48433
G1 X106.018 Y96.263 E2.50059
G1 X105.723 Y95.858 E2.51460
G1 X106.105 Y95.477 E2.52972
G1 E0.52972 F2400.00000
G92 E0
G1 X109.848 Y100.703 F7800.000
G1 E2.00000 F2400.00000
G1 F1200
G1 X109.435 Y101.117 E2.01949
G1 X109.439 Y101.478 E2.03155
G1 X109.411 Y101.973 E2.04807
G1 X110.027 Y101.357 E2.07712
G1 X110.029 Y101.737 E2.08979
G1 X109.978 Y102.240 E2.10663
G1 X109.238 Y102.980 E2.14151
G1 X109.001 Y103.728 E2.16766
G1 X108.743 Y104.308 E2.18882
G1 X109.745 Y103.306 E2.23605
G1 X109.622 Y103.657 E2.24843
G1 X109.397 Y104.142 E2.26626
G1 X109.020 Y104.756 E2.29028
G1 X108.689 Y105.176 E2.30811
G1 X107.937 Y105.947 E2.34401
G1 E0.34401 F2400.00000
G92 E0
G1 X98.309 Y90.328 F7800.000
G1 E2.00000 F2400.00000
G1 F1200
G1 X98.690 Y89.946 E2.01800
G1 X97.304 Y90.499 F7800.000
G1 F1200
G1 X98.002 Y89.802 E2.05089
G1 X97.926 Y89.787 E2.05345
G1 X97.569 Y89.845 E2.06552
G1 X96.967 Y90.003 E2.08623
G1 X95.978 Y90.992 E2.13288
G1 X95.528 Y91.241 E2.15003
G1 X95.226 Y91.436 E2.16201
G1 X94.939 Y91.645 E2.17383
G1 X94.531 Y91.986 E2.19156
G1 X94.032 Y92.489 E2.21519
G1 X93.696 Y92.901 E2.23290
G1 X93.466 Y93.226 E2.24618
G1 X93.437 Y93.209 E2.24731
G1 X93.591 Y92.695 E2.26520
G1 X94.019 Y92.118 E2.28914
G1 X95.092 Y91.045 E2.33972
G1 E0.33972 F2400.00000
G92 E0
G1 X96.982 Y94.013 F7800.000
G1 E2.00000 F2400.00000
G1 F1200
G1 X96.599 Y94.409 E2.01654
G1 X96.939 Y94.158 E2.02923
G1 X97.357 Y93.893 E2.04409
G1 X97.786 Y93.661 E2.05869
G1 X98.315 Y93.430 E2.07602
G1 X98.930 Y92.814 E2.10213
G1 X98.978 Y92.793 E2.10371
G1 X99.711 Y92.569 E2.12667
G1 X99.970 Y92.524 E2.13457
G1 X99.381 Y93.113 E2.15957
G1 X99.917 Y93.015 E2.17591
G1 X100.254 Y92.990 E2.18605
G1 X100.835 Y92.409 E2.21070
G1 X101.576 Y92.417 E2.23294
G1 X101.018 Y92.975 E2.25662
G1 X101.705 Y93.037 E2.27732
G1 X102.245 Y92.497 E2.30022
G1 X102.859 Y92.634 E2.31906
G1 X102.335 Y93.158 E2.34128
G1 X102.917 Y93.325 E2.35944
G1 X103.415 Y92.827 E2.38058
G1 X103.613 Y92.897 E2.38688
G1 X103.934 Y93.058 E2.39764
G1 X103.457 Y93.534 E2.41785
G1 X103.961 Y93.780 E2.43466
G1 X104.422 Y93.319 E2.45423
G1 X104.870 Y93.621 E2.47043
G1 X104.431 Y94.060 E2.48903
G1 X104.870 Y94.371 E2.50516
G1 X105.285 Y93.955 E2.52278
G1 X105.660 Y94.313 E2.53833
G1 X105.278 Y94.712 E2.55492
G1 E0.55492 F2400.00000
G92 E0
G1 X108.556 Y95.062 F7800.000
G1 E2.00000 F2400.00000
G1 F1200
G1 X108.938 Y94.680 E2.01563
G1 X108.868 Y94.027 E2.03464
G1 X108.321 Y94.574 E2.05700
G1 X108.054 Y94.117 E2.07230
G1 X108.649 Y93.522 E2.09665
G1 X108.401 Y93.125 E2.11020
G1 X108.367 Y93.081 E2.11181
G1 X107.757 Y93.691 E2.13678
G1 X107.431 Y93.294 E2.15165
G1 X108.050 Y92.675 E2.17700
G1 X107.705 Y92.308 E2.19158
G1 X107.076 Y92.926 E2.21710
G1 X106.692 Y92.586 E2.23193
G1 X107.312 Y91.966 E2.25732
G1 X106.890 Y91.665 E2.27232
G1 X106.279 Y92.276 E2.29735
G1 X105.836 Y91.996 E2.31252
G1 X106.427 Y91.405 E2.33672
G1 X106.233 Y91.297 E2.34315
G1 X105.937 Y91.172 E2.35245
G1 X105.362 Y91.747 E2.37600
G1 X104.854 Y91.532 E2.39197
G1 X105.404 Y90.981 E2.41450
G1 X105.229 Y90.925 E2.41982
G1 X104.729 Y90.933 E2.43430
G1 X104.347 Y91.315 E2.44993
G1 E0.44993 F2400.00000
G92 E0
G1 X99.220 Y95.853 F7800.000
G1 E2.00000 F2400.00000
G1 F1200
G1 X99.755 Y95.335 E2.02156
G1 X100.027 Y95.170 E2.03076
G1 X100.316 Y95.065 E2.03965
G1 X100.610 Y95.010 E2.04831
G1 X100.795 Y95.002 E2.05366
G1 X100.191 Y95.606 E2.07838
G1 X100.560 Y95.585 E2.08908
G1 X100.908 Y95.612 E2.09918
G1 X101.471 Y95.049 E2.12223
G1 X101.751 Y95.101 E2.13046
G1 X102.051 Y95.192 E2.13954
G1 X101.508 Y95.736 E2.16178
G1 X102.032 Y95.934 E2.17801
G1 X102.570 Y95.396 E2.20004
G1 X103.023 Y95.666 E2.21530
G1 X102.494 Y96.196 E2.23696
G1 X102.900 Y96.513 E2.25187
G1 X103.427 Y95.985 E2.27347
G1 X103.781 Y96.355 E2.28827
G1 X103.253 Y96.883 E2.30988
G1 X103.553 Y97.306 E2.32489
G1 X104.084 Y96.775 E2.34661
G1 X104.335 Y97.248 E2.36208
G1 X103.799 Y97.783 E2.38400
G1 X103.986 Y98.320 E2.40044
G1 X104.531 Y97.775 E2.42273
G1 X104.601 Y98.014 E2.42993
G1 X104.664 Y98.365 E2.44025
G1 X104.103 Y98.926 E2.46323
G1 X104.131 Y99.285 E2.47364
G1 X104.132 Y99.620 E2.48335
G1 X104.718 Y99.034 E2.50736
G1 X104.703 Y99.518 E2.52138
G1 X104.662 Y99.813 E2.52999
G1 X104.280 Y100.195 E2.54563
G1 E0.54563 F2400.00000
G92 E0
G1 X97.468 Y97.568 F7800.000
G1 E2.00000 F2400.00000
G1 F1200
G1 X96.860 Y98.182 E2.02501
G1 X96.637 Y98.461 E2.03533
G1 X96.490 Y98.682 E2.04302
G1 X96.319 Y99.007 E2.05364
G1 X96.137 Y99.520 E2.06940
G1 X96.098 Y99.707 E2.07490
G1 X96.727 Y99.078 E2.10061
G1 X96.638 Y99.533 E2.11401
G1 X96.610 Y99.964 E2.12651
G1 X96.058 Y100.516 E2.14910
G1 X96.102 Y100.848 E2.15880
G1 X96.195 Y101.148 E2.16789
G1 X96.683 Y100.660 E2.18786
G1 X96.783 Y101.001 E2.19814
G1 X96.885 Y101.227 E2.20531
G1 X96.503 Y101.609 E2.22094
G1 E0.22094 F2400.00000
G92 E0
G1 X95.150 Y103.534 F7800.000
G1 E2.00000 F2400.00000
G1 F1200
G1 X95.532 Y103.152 E2.01513
G1 X95.237 Y102.747 E2.02916
G1 X94.821 Y103.163 E2.04564
G1 X94.538 Y102.746 E2.05975
G1 X94.970 Y102.314 E2.07685
G1 X94.731 Y101.853 E2.09139
G1 X94.276 Y102.308 E2.10941
G1 X94.041 Y101.843 E2.12399
G1 X94.523 Y101.361 E2.14309
G1 X94.350 Y100.834 E2.15862
G1 X93.853 Y101.331 E2.17829
G1 X93.770 Y101.100 E2.18516
G1 X93.699 Y100.785 E2.19420
G1 X94.215 Y100.269 E2.21464
G1 X94.126 Y99.658 E2.23193
G1 X93.586 Y100.199 E2.25334
G1 X93.525 Y99.560 E2.27131
G1 X94.093 Y98.992 E2.29381
G1 X94.133 Y98.251 E2.31458
G1 X93.548 Y98.836 E2.33776
G1 X93.623 Y98.219 E2.35517
G1 X93.675 Y98.009 E2.36124
G1 X94.284 Y97.401 E2.38533
G1 X94.454 Y96.814 E2.40245
G1 X94.630 Y96.354 E2.41623
G1 X93.982 Y97.002 E2.44188
G1 X94.288 Y96.349 E2.46208
G1 X94.697 Y95.701 E2.48355
G1 X94.978 Y95.340 E2.49634
G1 X95.285 Y94.999 E2.50919
G1 X95.675 Y94.609 E2.52464
G1 E0.52464 F2400.00000
G92 E0
G1 X90.639 Y98.611 F7800.000
G1 E2.00000 F2400.00000
G1 F1200
G1 X91.021 Y98.229 E2.01630
G1 X90.933 Y98.693 E2.03057
G1 X90.883 Y99.121 E2.04357
G1 X90.178 Y99.826 E2.07368
G1 X90.168 Y100.591 E2.09677
G1 X90.863 Y99.896 E2.12644
G1 X90.924 Y100.590 E2.14747
G1 X90.245 Y101.269 E2.17646
G1 X90.394 Y101.873 E2.19527
G1 X91.046 Y101.221 E2.22311
G1 X91.219 Y101.803 E2.24143
G1 X90.597 Y102.426 E2.26802
G1 X90.754 Y102.775 E2.27959
G1 X90.845 Y102.932 E2.28507
G1 X91.435 Y102.342 E2.31024
G1 X91.688 Y102.844 E2.32720
G1 X91.124 Y103.408 E2.35129
G1 X91.447 Y103.839 E2.36756
G1 X91.975 Y103.311 E2.39009
G1 X92.295 Y103.746 E2.40639
G1 X91.912 Y104.129 E2.42275
G1 Z5.600 F7800.000
G1 E0.42275 F2400.00000
G92 E0
G1 X98.825 Y100.975 F7800.000
G1 E2.00000 F2400.00000
G1 F1200
G1 X99.208 Y101.358 E2.01690
G1 X99.464 Y101.575 E2.02736
G1 X99.756 Y101.747 E2.03792
G1 X100.070 Y101.861 E2.04832
G1 X100.405 Y101.902 E2.05883
G1 X100.518 Y101.889 E2.06240
G1 X100.322 Y101.693 E2.07107
G1 X99.983 Y101.620 E2.08187
G1 X99.680 Y101.468 E2.09245
G1 X99.459 Y101.303 E2.10104
G1 X99.307 Y101.153 E2.10768
G1 X99.140 Y100.927 E2.11645
G1 X99.045 Y100.731 E2.12323
G1 X98.986 Y100.518 E2.13012
G1 X98.968 Y100.339 E2.13575
G1 X98.389 Y99.760 E2.16125
G1 X98.419 Y99.549 E2.16789
G1 X98.570 Y99.162 E2.18084
G1 X99.108 Y99.699 E2.20453
G1 X99.254 Y99.442 E2.21375
G1 X99.419 Y99.231 E2.22209
G1 X98.889 Y98.701 E2.24545
G1 X99.224 Y98.396 E2.25959
G1 X99.309 Y98.343 E2.26271
G1 X99.838 Y98.872 E2.28602
G1 X100.067 Y98.741 E2.29423
G1 X100.367 Y98.622 E2.30431
G1 X99.820 Y98.075 E2.32842
G1 X99.890 Y98.046 E2.33078
G1 X100.222 Y97.964 E2.34144
G1 X100.469 Y97.945 E2.34916
G1 X101.065 Y98.540 E2.37539
G1 X101.781 Y98.477 F7800.000
G1 F1200
G1 X102.163 Y98.859 E2.39223
G1 X101.605 Y100.639 F7800.000
G1 F1200
G1 X101.042 Y100.076 E2.41704
G1 X101.018 Y100.381 E2.42660
G1 X100.905 Y100.718 E2.43767
G1 X101.426 Y101.239 E2.46063
G1 X101.342 Y101.392 E2.46606
G1 X101.076 Y101.668 E2.47802
G1 X100.555 Y101.147 E2.50099
G1 X100.436 Y101.220 E2.50534
G1 X100.282 Y101.280 E2.51049
G1 X100.127 Y101.310 E2.51542
G1 X99.940 Y101.311 E2.52124
G1 E0.52124 F2400.00000
G92 E0
G1 X100.608 Y104.030 F7800.000
G1 E2.00000 F2400.00000
G1 F1200
G1 X100.227 Y103.648 E2.01568
G1 X100.549 Y103.659 E2.02506
G1 X100.939 Y103.634 E2.03639
G1 X101.401 Y104.096 E2.05537
G1 X101.525 Y104.093 E2.05899
G1 X102.043 Y104.012 E2.07420
G1 X101.542 Y103.512 E2.09475
G1 X102.068 Y103.312 E2.11108
G1 X102.583 Y103.827 E2.13223
G1 X103.018 Y103.589 E2.14664
G1 X103.048 Y103.566 E2.14773
G1 X102.530 Y103.048 E2.16897
G1 X102.938 Y102.730 E2.18399
G1 X103.451 Y103.243 E2.20505
G1 X103.622 Y103.071 E2.21209
G1 X103.793 Y102.859 E2.22000
G1 X103.295 Y102.361 E2.24046
G1 X103.604 Y101.944 E2.25553
G1 X104.086 Y102.426 E2.27534
G1 X104.365 Y101.980 E2.29064
G1 X103.881 Y101.496 E2.31051
G1 X104.164 Y101.053 E2.32577
G1 X104.657 Y101.546 E2.34600
G1 X104.982 Y101.145 E2.36099
G1 X104.477 Y100.640 E2.38171
G1 X104.809 Y100.246 E2.39668
G1 X105.191 Y100.628 E2.41238
G1 X104.188 Y99.268 F7800.000
G1 F1200
G1 X104.760 Y99.840 E2.43648
G1 X104.776 Y99.318 E2.45205
G1 X104.759 Y99.094 E2.45874
G1 X104.155 Y98.491 E2.48417
G1 X104.069 Y98.020 E2.49843
G1 X103.903 Y97.494 E2.51489
G1 X104.600 Y98.191 E2.54428
G1 X103.535 Y96.380 F7800.000
G1 F1200
G1 X103.150 Y95.996 E2.56049
G1 X102.860 Y95.745 E2.57194
G1 X102.542 Y95.523 E2.58349
G1 X102.204 Y95.336 E2.59501
G1 X101.850 Y95.184 E2.60649
G1 X101.483 Y95.074 E2.61789
G1 X102.175 Y95.765 E2.64703
G1 X101.727 Y95.628 E2.66100
G1 X101.206 Y95.541 E2.67675
G1 X100.606 Y94.942 E2.70201
G1 X100.573 Y94.939 E2.70303
G1 X100.231 Y94.953 E2.71322
G1 X99.929 Y95.010 E2.72236
G1 X100.481 Y95.562 E2.74563
G1 X100.148 Y95.661 E2.75600
G1 X99.944 Y95.769 E2.76288
G1 X99.421 Y95.247 E2.78492
G1 X99.212 Y95.416 E2.79295
G1 X99.071 Y95.581 E2.79940
G1 X99.048 Y95.618 E2.80071
G1 X99.571 Y96.141 E2.82275
G1 X99.319 Y96.615 E2.83876
G1 X98.786 Y96.101 E2.86083
G1 X97.762 Y97.637 F7800.000
G1 F1200
G1 X97.380 Y97.255 E2.87692
G1 X96.995 Y97.575 E2.89185
G1 X97.420 Y98.000 E2.90974
G1 X97.122 Y98.407 E2.92478
G1 X96.663 Y97.948 E2.94410
G1 X96.432 Y98.277 E2.95608
G1 X96.382 Y98.372 E2.95928
G1 X96.873 Y98.863 E2.97998
G1 X96.683 Y99.379 E2.99634
G1 X96.159 Y98.854 E3.01845
G1 X96.075 Y99.128 E3.02699
G1 X96.016 Y99.416 E3.03575
G1 X96.568 Y99.968 E3.05903
G1 X96.547 Y100.276 E3.06822
G1 X96.561 Y100.666 E3.07986
G1 X95.990 Y100.095 E3.10393
G1 X96.040 Y100.476 E3.11538
G1 X96.123 Y100.757 E3.12413
G1 X96.232 Y100.987 E3.13171
G1 X96.400 Y101.210 E3.14003
G1 X96.782 Y101.592 E3.15613
G1 E1.15613 F2400.00000
G92 E0
G1 X105.859 Y104.597 F7800.000
G1 E2.00000 F2400.00000
G1 F1200
G1 X105.477 Y104.216 E2.01515
G1 X105.797 Y103.835 E2.02911
G1 X106.212 Y104.250 E2.04557
G1 X106.522 Y103.858 E2.05958
G1 X106.092 Y103.429 E2.07663
G1 X106.360 Y102.995 E2.09092
G1 X106.814 Y103.449 E2.10895
G1 X107.075 Y103.009 E2.12331
G1 X106.599 Y102.533 E2.14220
G1 X106.807 Y102.040 E2.15722
G1 X107.304 Y102.537 E2.17695
G1 X107.494 Y102.026 E2.19225
G1 X106.981 Y101.513 E2.21261
G1 X107.117 Y100.947 E2.22893
G1 X107.642 Y101.472 E2.24976
G1 X107.713 Y101.188 E2.25799
G1 X107.750 Y100.880 E2.26670
G1 X107.208 Y100.338 E2.28820
G1 X107.244 Y99.673 E2.30688
G1 X107.808 Y100.237 E2.32926
G1 X107.813 Y99.799 E2.34154
G1 X107.784 Y99.511 E2.34966
G1 X107.208 Y98.935 E2.37251
G1 X107.156 Y98.541 E2.38366
G1 X107.067 Y98.093 E2.39648
G1 X107.657 Y98.683 E2.41990
G1 X107.563 Y98.268 E2.43186
G1 X107.363 Y97.687 E2.44908
G1 X106.741 Y97.066 E2.47373
G1 X106.551 Y96.640 E2.48683
G1 X106.311 Y96.194 E2.50105
G1 X106.042 Y95.770 E2.51512
G1 X105.784 Y95.420 E2.52732
G1 X106.180 Y95.803 E2.54279
G1 E0.54279 F2400.00000
G92 E0
G1 X110.039 Y101.631 F7800.000
G1 E2.00000 F2400.00000
G1 F1200
G1 X109.658 Y101.249 E2.01664
G1 X109.602 Y101.963 E2.03873
G1 X110.270 Y102.631 E2.06783
G1 X110.316 Y102.898 E2.07616
G1 X110.348 Y103.293 E2.08836
G1 X110.341 Y103.472 E2.09390
G1 X109.484 Y102.615 E2.13124
G1 X109.312 Y103.214 E2.15043
G1 X110.232 Y104.133 E2.19048
G1 X110.022 Y104.613 E2.20664
G1 X109.989 Y104.660 E2.20839
G1 X109.096 Y103.767 E2.24730
G1 X108.838 Y104.279 E2.26497
G1 X109.631 Y105.072 E2.29952
G1 X109.210 Y105.421 E2.31637
G1 X108.543 Y104.755 E2.34543
G1 X108.214 Y105.195 E2.36238
G1 X108.738 Y105.720 E2.38522
G1 X108.234 Y105.985 E2.40279
G1 X107.852 Y105.603 E2.41943
G1 E0.41943 F2400.00000
G92 E0
G1 X108.107 Y92.247 F7800.000
G1 E2.00000 F2400.00000
G1 F1200
G1 X107.724 Y91.863 E2.01808
G1 X107.282 Y91.471 E2.03775
G1 X107.029 Y91.326 E2.04747
G1 X106.665 Y91.177 E2.06059
G1 X106.285 Y91.076 E2.07370
G1 X106.067 Y91.040 E2.08105
G1 X108.742 Y93.715 E2.20714
G1 X108.862 Y94.371 E2.22936
G1 X108.568 Y93.877 E2.24849
G1 X108.252 Y93.432 E2.26670
G1 X107.898 Y93.015 E2.28492
G1 X107.509 Y92.631 E2.30315
G1 X107.089 Y92.281 E2.32137
G1 X106.640 Y91.969 E2.33958
G1 X106.169 Y91.696 E2.35774
G1 X105.644 Y91.450 E2.37707
G1 X105.131 Y90.937 E2.40123
G1 E0.40123 F2400.00000
G92 E0
G1 X105.720 Y94.639 F7800.000
G1 E2.00000 F2400.00000
G1 F1200
G1 X105.078 Y93.997 E2.02574
G1 X104.727 Y93.696 E2.03887
G1 X104.090 Y93.249 E2.06095
G1 X103.403 Y92.883 E2.08303
G1 X103.153 Y92.780 E2.09069
G1 X103.801 Y93.429 E2.11669
G1 X103.345 Y93.254 E2.13053
G1 X102.744 Y93.080 E2.14830
G1 X102.139 Y92.475 E2.17257
G1 X101.772 Y92.393 E2.18321
G1 X101.316 Y92.338 E2.19625
G1 X101.292 Y92.337 E2.19693
G1 X101.884 Y92.929 E2.22066
G1 X101.135 Y92.888 E2.24193
G1 X100.567 Y92.321 E2.26470
G1 X100.535 Y92.320 E2.26561
G1 X99.920 Y92.382 E2.28314
G1 X100.460 Y92.923 E2.30481
G1 X99.842 Y93.013 E2.32253
G1 X99.310 Y92.490 E2.34372
G1 X98.773 Y92.653 E2.35964
G1 X99.270 Y93.150 E2.37957
G1 X98.737 Y93.326 E2.39549
G1 X98.263 Y92.852 E2.41451
G1 X97.779 Y93.077 E2.42965
G1 X98.239 Y93.537 E2.44809
G1 X97.772 Y93.779 E2.46301
G1 X97.335 Y93.342 E2.48054
G1 X96.924 Y93.640 E2.49494
G1 X97.335 Y94.050 E2.51141
G1 X96.925 Y94.349 E2.52580
G1 X96.543 Y93.967 E2.54112
G1 E0.54112 F2400.00000
G92 E0
G1 X93.610 Y92.266 F7800.000
G1 E2.00000 F2400.00000
G1 F1200
G1 X93.991 Y92.647 E2.01556
G1 X94.317 Y92.253 E2.03030
G1 X93.811 Y91.747 E2.05090
G1 X94.040 Y91.255 E2.06653
G1 X94.670 Y91.886 E2.09224
G1 X95.051 Y91.547 E2.10693
G1 X94.300 Y90.796 E2.13753
G1 X94.451 Y90.583 E2.14505
G1 X94.618 Y90.393 E2.15233
G1 X95.461 Y91.236 E2.18669
G1 X95.901 Y90.956 E2.20172
G1 X95.019 Y90.074 E2.23767
G1 X95.376 Y89.864 E2.24961
G1 X95.490 Y89.825 E2.25308
G1 X96.373 Y90.708 E2.28905
G1 X96.880 Y90.494 E2.30489
G1 X96.092 Y89.707 E2.33698
G1 X96.597 Y89.689 E2.35152
G1 X96.812 Y89.707 E2.35775
G1 X97.425 Y90.319 E2.38271
G1 X97.630 Y89.805 F7800.000
G1 F1200
G1 X98.012 Y90.186 E2.39827
G1 E0.39827 F2400.00000
G92 E0
G1 X95.778 Y94.795 F7800.000
G1 E2.00000 F2400.00000
G1 F1200
G1 X95.379 Y94.412 E2.01551
G1 X95.044 Y94.761 E2.02910
G1 X95.457 Y95.175 E2.04553
G1 X95.163 Y95.582 E2.05962
G1 X94.730 Y95.149 E2.07679
G1 X94.441 Y95.561 E2.09092
G1 X94.895 Y96.016 E2.10895
G1 X94.656 Y96.478 E2.12355
G1 X94.183 Y96.004 E2.14235
