; generated by Slic3r 1.3.0 on 2020-03-10 at 16:38:08

; external perimeters extrusion width = 0.55mm (6.64mm^3/s)
; perimeters extrusion width = 0.52mm (12.53mm^3/s)
; infill extrusion width = 0.52mm (16.71mm^3/s)
; solid infill extrusion width = 0.52mm (4.18mm^3/s)
; top infill extrusion width = 0.52mm (3.13mm^3/s)

M107
M104 S205 ; set temperature
G28 ; home all axes
G1 Z5 F5000 ; lift nozzle

; Filament gcode

M109 S205 ; set temperature and wait for it to be reached
G21 ; set units to millimeters
G90 ; use absolute coordinates
M82 ; use absolute distances for extrusion
G92 E0
G1 Z0.300 F7800.000
G1 E-2.00000 F2400.00000
G92 E0
G1 X82.972 Y92.362 F7800.000
G1 E2.00000 F2400.00000
G1 F1800
G1 X80.389 Y94.945 E2.08304
G1 X80.389 Y95.042 E2.08524
G1 X80.362 Y95.120 E2.08712
G1 X80.362 Y95.456 E2.09475
G1 X80.389 Y95.572 E2.09746
G1 X80.400 Y95.815 E2.10299
G1 X83.749 Y92.466 E2.21067
G1 X83.868 Y92.476 E2.21338
G1 X83.889 Y92.505 E2.21418
G1 X83.948 Y92.510 E2.21554
G1 X83.981 Y92.554 E2.21679
G1 X84.065 Y92.556 E2.21872
G1 X84.083 Y92.581 E2.21941
G1 X84.143 Y92.586 E2.22078
G1 X84.167 Y92.619 E2.22170
G1 X84.227 Y92.624 E2.22306
G1 X84.248 Y92.655 E2.22391
G1 X84.344 Y92.665 E2.22610
G1 X84.390 Y92.706 E2.22749
G1 X80.527 Y96.569 E2.35166
G1 X80.614 Y96.975 E2.36110
G1 X80.692 Y97.183 E2.36616
G1 X80.697 Y97.280 E2.36836
G1 X84.911 Y93.065 E2.50384
G1 X84.937 Y93.099 E2.50481
G1 X84.973 Y93.099 E2.50564
G1 X85.118 Y93.202 E2.50966
G1 X85.220 Y93.333 E2.51344
G1 X85.240 Y93.333 E2.51389
G1 X85.377 Y93.481 E2.51848
G1 X80.927 Y97.931 E2.66154
G1 X81.033 Y98.163 E2.66735
G1 X81.033 Y98.210 E2.66842
G1 X81.133 Y98.447 E2.67426
G1 X81.197 Y98.542 E2.67685
G1 X85.778 Y93.961 E2.82411
G1 X85.885 Y94.111 E2.82830
G1 X85.916 Y94.188 E2.83019
G1 X86.015 Y94.330 E2.83412
G1 X86.018 Y94.366 E2.83496
G1 X86.114 Y94.505 E2.83880
G1 X81.488 Y99.131 E2.98752
G1 X81.577 Y99.256 E2.99101
G1 X81.608 Y99.334 E2.99291
G1 X81.842 Y99.658 E3.00201
G1 X86.420 Y95.081 E3.14917
G1 X86.716 Y95.665 E3.16407
G1 X82.228 Y100.154 E3.30838
G1 X82.253 Y100.189 E3.30936
G1 X82.279 Y100.189 E3.30995
G1 X82.393 Y100.343 E3.31430
G1 X82.415 Y100.343 E3.31482
G1 X82.474 Y100.421 E3.31704
G1 X82.503 Y100.421 E3.31768
G1 X82.625 Y100.588 E3.32240
G1 X82.654 Y100.609 E3.32320
G1 X87.013 Y96.250 E3.46333
G1 X87.311 Y96.833 E3.47821
G1 X83.180 Y100.963 E3.61099
G1 X83.281 Y101.039 E3.61387
G1 X83.400 Y101.042 E3.61658
G1 X83.427 Y101.078 E3.61760
G1 X83.483 Y101.079 E3.61889
G1 X83.511 Y101.117 E3.61995
G1 X83.624 Y101.119 E3.62251
G1 X83.651 Y101.156 E3.62356
G1 X83.794 Y101.161 E3.62683
G1 X83.832 Y101.192 E3.62794
G1 X87.639 Y97.385 E3.75033
G1 X87.977 Y97.851 E3.76340
G1 X88.004 Y97.851 E3.76402
G1 X88.025 Y97.880 E3.76484
G1 X84.675 Y101.230 E3.87254
G1 X85.026 Y101.231 E3.88052
G1 X85.084 Y101.267 E3.88206
G1 X85.516 Y101.270 E3.89189
G1 X88.526 Y98.260 E3.98863
G1 X88.656 Y98.369 E3.99249
G1 X88.747 Y98.379 E3.99457
G1 X88.777 Y98.420 E3.99572
G1 X88.863 Y98.424 E3.99768
G1 X88.886 Y98.456 E3.99858
G1 X89.001 Y98.461 E4.00120
G1 X89.156 Y98.511 E4.00490
G1 X86.250 Y101.417 E4.09834
G1 X86.341 Y101.425 E4.10041
G1 X86.399 Y101.461 E4.10197
G1 X86.585 Y101.467 E4.10619
G1 X86.610 Y101.501 E4.10715
G1 X86.724 Y101.505 E4.10975
G1 X86.749 Y101.540 E4.11072
G1 X86.942 Y101.606 E4.11537
G1 X89.829 Y98.719 E4.20816
G1 X90.113 Y98.737 E4.21464
G1 X90.149 Y98.773 E4.21579
G1 X90.648 Y98.771 E4.22715
G1 X90.680 Y98.749 E4.22801
G1 X87.556 Y101.873 E4.32845
G1 X87.935 Y102.155 E4.33920
G1 X87.981 Y102.155 E4.34025
G1 X88.051 Y102.232 E4.34260
G1 X88.078 Y102.232 E4.34321
G1 X92.653 Y97.657 E4.49028
G1 X92.458 Y98.151 E4.50234
G1 X92.458 Y98.584 E4.51221
G1 X92.606 Y98.584 E4.51558
G1 X88.545 Y102.646 E4.64616
G1 X88.625 Y102.747 E4.64909
G1 X88.764 Y102.864 E4.65322
G1 X88.846 Y102.906 E4.65531
G1 X88.904 Y102.980 E4.65744
G1 X89.015 Y103.057 E4.66052
G1 X93.610 Y98.462 E4.80822
G1 X93.658 Y98.460 E4.80933
G1 X93.715 Y98.425 E4.81085
G1 X93.826 Y98.421 E4.81338
G1 X93.885 Y98.385 E4.81494
G1 X94.049 Y98.372 E4.81868
G1 X94.068 Y98.345 E4.81944
G1 X94.214 Y98.335 E4.82277
G1 X94.236 Y98.306 E4.82359
G1 X94.382 Y98.296 E4.82692
G1 X94.402 Y98.268 E4.82772
G1 X94.441 Y98.267 E4.82860
G1 X94.499 Y98.231 E4.83014
G1 X94.581 Y98.228 E4.83202
G1 X94.634 Y98.194 E4.83345
G1 X94.802 Y98.151 E4.83739
G1 X89.596 Y103.357 E5.00475
G1 X89.687 Y103.368 E5.00685
G1 X89.711 Y103.401 E5.00778
G1 X89.846 Y103.432 E5.01091
G1 X89.878 Y103.476 E5.01215
G1 X89.967 Y103.484 E5.01418
G1 X89.997 Y103.526 E5.01535
G1 X90.057 Y103.536 E5.01673
G1 X90.159 Y103.675 E5.02065
G1 X96.043 Y97.791 E5.20981
G1 X96.076 Y97.765 E5.21076
G1 X96.161 Y97.763 E5.21270
G1 X96.188 Y97.727 E5.21373
G1 X96.420 Y97.650 E5.21930
G1 X96.585 Y97.639 E5.22306
G1 X96.606 Y97.610 E5.22387
G1 X96.751 Y97.603 E5.22717
G1 X96.773 Y97.572 E5.22802
G1 X96.814 Y97.571 E5.22894
G1 X96.870 Y97.536 E5.23045
G1 X96.975 Y97.534 E5.23284
G1 X97.061 Y97.496 E5.23498
G1 X97.224 Y97.490 E5.23869
G1 X90.431 Y104.283 E5.45706
G1 X90.720 Y104.875 E5.47204
G1 X98.258 Y97.338 E5.71436
G1 X98.340 Y97.335 E5.71622
G1 X98.362 Y97.304 E5.71709
G1 X98.681 Y97.302 E5.72433
G1 X98.738 Y97.266 E5.72587
G1 X99.213 Y97.264 E5.73666
G1 X91.160 Y105.316 E5.99553
G1 X91.179 Y105.316 E5.99596
G1 X91.375 Y105.535 E6.00265
G1 X91.429 Y105.546 E6.00390
G1 X91.607 Y105.750 E6.01006
G1 X92.438 Y104.919 E6.03678
G1 X92.115 Y104.472 E6.04932
G1 X92.889 Y104.468 E6.06693
G1 X100.131 Y97.226 E6.29973
G1 X100.488 Y97.220 E6.30785
G1 X100.511 Y97.189 E6.30872
G1 X100.557 Y97.189 E6.30978
G1 X100.578 Y97.219 E6.31061
G1 X101.010 Y97.228 E6.32042
G1 X93.571 Y104.667 E6.55957
G1 X93.626 Y104.700 E6.56102
G1 X93.709 Y104.704 E6.56292
G1 X93.766 Y104.740 E6.56446
G1 X93.952 Y104.748 E6.56869
G1 X93.977 Y104.782 E6.56964
G1 X94.289 Y104.830 E6.57681
G1 X103.672 Y95.447 E6.87848
G1 X103.783 Y95.518 E6.88147
G1 X103.839 Y95.594 E6.88361
G1 X103.923 Y95.635 E6.88572
G1 X103.999 Y95.705 E6.88808
G1 X104.091 Y95.834 E6.89168
G1 X104.099 Y95.901 E6.89322
G1 X95.024 Y104.976 E7.18496
G1 X95.285 Y104.977 E7.19090
G1 X95.312 Y105.015 E7.19196
G1 X95.733 Y105.018 E7.20153
G1 X95.759 Y105.053 E7.20251
G1 X95.828 Y105.053 E7.20408
G1 X103.928 Y96.953 E7.46448
G1 X103.930 Y97.228 E7.47074
G1 X104.227 Y97.230 E7.47749
G1 X104.287 Y97.267 E7.47909
G1 X104.399 Y97.272 E7.48164
G1 X104.457 Y97.305 E7.48316
G1 X96.747 Y105.015 E7.73103
G1 X96.811 Y105.015 E7.73250
G1 X96.839 Y104.977 E7.73356
G1 X97.062 Y104.977 E7.73865
G1 X97.089 Y104.940 E7.73969
G1 X97.321 Y104.938 E7.74497
G1 X97.522 Y104.899 E7.74962
G1 X97.648 Y104.861 E7.75261
G1 X97.675 Y104.824 E7.75366
G1 X97.787 Y104.823 E7.75621
G1 X97.812 Y104.789 E7.75716
G1 X97.855 Y104.788 E7.75814
G1 X105.120 Y97.522 E7.99171
G1 X105.187 Y97.537 E7.99327
G1 X105.206 Y97.563 E7.99401
G1 X105.353 Y97.574 E7.99735
G1 X105.375 Y97.604 E7.99821
G1 X105.625 Y97.616 E8.00389
G1 X105.682 Y97.651 E8.00540
G1 X105.773 Y97.653 E8.00749
G1 X105.797 Y97.687 E8.00842
G1 X105.836 Y97.688 E8.00930
G1 X99.254 Y104.269 E8.22089
G1 X99.315 Y104.215 E8.22273
G1 X99.396 Y104.215 E8.22459
G1 X99.525 Y104.156 E8.22781
G1 X99.572 Y104.090 E8.22965
G1 X99.629 Y104.090 E8.23093
G1 X99.657 Y104.050 E8.23205
G1 X99.707 Y104.050 E8.23317
G1 X99.786 Y103.987 E8.23546
G1 X99.845 Y103.982 E8.23681
G1 X99.869 Y103.948 E8.23776
G1 X99.928 Y103.943 E8.23910
G1 X100.100 Y103.863 E8.24340
G1 X100.449 Y103.643 E8.25278
G1 X100.476 Y103.605 E8.25386
G1 X100.567 Y103.592 E8.25595
G1 X100.590 Y103.561 E8.25680
G1 X100.694 Y103.547 E8.25920
G1 X100.803 Y103.484 E8.26206
G1 X100.886 Y103.472 E8.26396
G1 X101.002 Y103.403 E8.26703
G1 X106.561 Y97.844 E8.44575
G1 X106.685 Y97.848 E8.44856
G1 X106.740 Y97.882 E8.45004
G1 X106.822 Y97.886 E8.45192
G1 X106.916 Y97.922 E8.45420
G1 X106.940 Y97.955 E8.45512
G1 X107.088 Y97.962 E8.45850
G1 X107.122 Y97.996 E8.45959
G1 X107.259 Y98.027 E8.46278
G1 X101.793 Y103.492 E8.63848
G1 X103.501 Y102.665 F7800.000
G1 F1800
G1 X103.502 Y102.611 E8.63970
G1 X103.527 Y102.565 E8.64091
G1 X103.530 Y102.309 E8.64672
G1 X103.555 Y102.283 E8.64755
G1 X103.583 Y101.884 E8.65664
G1 X103.758 Y101.884 E8.66062
G1 X103.846 Y101.763 E8.66402
G1 X103.877 Y101.763 E8.66473
G1 X103.948 Y101.686 E8.66711
G1 X103.996 Y101.668 E8.66828
G1 X104.054 Y101.591 E8.67047
G1 X104.138 Y101.549 E8.67259
G1 X104.246 Y101.414 E8.67654
G1 X104.294 Y101.404 E8.67764
G1 X104.501 Y101.203 E8.68421
G1 X104.724 Y101.047 E8.69039
G1 X104.784 Y100.971 E8.69259
G1 X104.863 Y100.931 E8.69462
G1 X104.974 Y100.798 E8.69856
G1 X105.030 Y100.798 E8.69984
G1 X105.518 Y100.435 E8.71365
G1 X105.567 Y100.426 E8.71478
G1 X105.767 Y100.282 E8.72039
G1 X105.831 Y100.272 E8.72186
G1 X105.889 Y100.243 E8.72332
G1 X105.917 Y100.204 E8.72443
G1 X105.970 Y100.196 E8.72564
G1 X107.934 Y98.233 E8.78877
G1 X107.963 Y98.258 E8.78964
G1 X108.076 Y98.270 E8.79224
G1 X108.112 Y98.306 E8.79340
G1 X108.297 Y98.344 E8.79769
G1 X108.332 Y98.380 E8.79885
G1 X108.428 Y98.387 E8.80103
G1 X108.454 Y98.422 E8.80202
G1 X108.569 Y98.428 E8.80464
G1 X108.594 Y98.453 E8.80545
G1 X107.020 Y100.027 E8.85605
G1 X107.202 Y100.029 E8.86017
G1 X107.261 Y100.064 E8.86173
G1 X107.511 Y100.072 E8.86743
G1 X107.545 Y100.106 E8.86852
G1 X107.765 Y100.163 E8.87369
G1 X109.307 Y98.622 E8.92325
G1 X109.397 Y98.625 E8.92531
G1 X109.457 Y98.660 E8.92689
G1 X109.673 Y98.663 E8.93180
G1 X110.082 Y98.661 E8.94110
G1 X110.141 Y98.626 E8.94266
G1 X110.185 Y98.625 E8.94364
G1 X108.423 Y100.386 E9.00028
G1 X108.561 Y100.432 E9.00359
G1 X108.661 Y100.489 E9.00621
G1 X108.799 Y100.497 E9.00935
G1 X108.824 Y100.532 E9.01032
G1 X108.911 Y100.567 E9.01246
G1 X108.995 Y100.572 E9.01437
G1 X109.086 Y100.605 E9.01656
G1 X111.601 Y98.089 E9.09744
G1 X111.844 Y97.917 E9.10419
G1 X111.932 Y97.897 E9.10625
G1 X112.037 Y97.804 E9.10945
G1 X112.145 Y97.740 E9.11231
G1 X112.182 Y97.740 E9.11313
G1 X112.249 Y97.663 E9.11547
G1 X112.313 Y97.663 E9.11691
G1 X112.410 Y97.554 E9.12022
G1 X112.461 Y97.546 E9.12140
G1 X112.522 Y97.477 E9.12350
G1 X112.694 Y97.353 E9.12831
G1 X112.740 Y97.353 E9.12938
G1 X112.823 Y97.258 E9.13223
G1 X113.240 Y96.989 E9.14352
G1 X113.287 Y96.979 E9.14461
G1 X113.394 Y96.908 E9.14753
G1 X113.465 Y96.894 E9.14917
G1 X113.516 Y96.835 E9.15095
G1 X113.601 Y96.820 E9.15290
G1 X113.765 Y96.720 E9.15727
G1 X113.866 Y96.705 E9.15960
G1 X110.169 Y100.403 E9.27848
G1 E7.27848 F2400.00000
G92 E0
G1 X113.495 Y97.076 F7800.000
G1 E2.00000 F2400.00000
G1 F1800
G1 X113.444 Y97.127 E2.00162
G1 X113.932 Y96.643 E2.01724
G1 X114.035 Y96.628 E2.01960
G1 X114.093 Y96.570 E2.02146
G1 X114.228 Y96.553 E2.02457
G1 X114.311 Y96.495 E2.02685
G1 X114.476 Y96.480 E2.03062
G1 X114.494 Y96.455 E2.03131
G1 X114.588 Y96.419 E2.03360
G1 X114.779 Y96.406 E2.03797
G1 X114.799 Y96.379 E2.03873
G1 X114.893 Y96.377 E2.04086
G1 X114.949 Y96.342 E2.04237
G1 X115.113 Y96.339 E2.04610
G1 X113.156 Y98.296 E2.10902
G1 X113.269 Y98.245 E2.11185
G1 X113.404 Y98.213 E2.11501
G1 X113.505 Y98.147 E2.11775
G1 X113.603 Y98.141 E2.11998
G1 X113.629 Y98.106 E2.12097
G1 X113.780 Y98.099 E2.12442
G1 X113.813 Y98.066 E2.12548
G1 X113.963 Y98.060 E2.12889
G1 X113.997 Y98.027 E2.12997
G1 X114.313 Y98.020 E2.13717
G1 X115.985 Y96.348 E2.19092
G1 X116.161 Y96.415 E2.19520
G1 X116.228 Y96.475 E2.19725
G1 X116.290 Y96.483 E2.19866
G1 X116.430 Y96.591 E2.20266
G1 X116.485 Y96.599 E2.20393
G1 X116.562 Y96.652 E2.20606
G1 X115.193 Y98.021 E2.25008
G1 X115.551 Y98.032 E2.25823
G1 X115.573 Y98.062 E2.25909
G1 X115.664 Y98.066 E2.26115
G1 X115.723 Y98.101 E2.26272
G1 X115.892 Y98.119 E2.26659
G1 X115.939 Y98.156 E2.26794
G1 X117.069 Y97.026 E2.30428
G1 X117.164 Y97.153 E2.30788
G1 X117.228 Y97.153 E2.30935
G1 X117.261 Y97.176 E2.31026
G1 X117.367 Y97.309 E2.31412
G1 X117.480 Y97.366 E2.31700
G1 X117.546 Y97.430 E2.31909
G1 X116.500 Y98.476 E2.35271
G1 X116.540 Y98.521 E2.35408
G1 X116.592 Y98.521 E2.35528
G1 X116.696 Y98.653 E2.35908
G1 X116.813 Y98.712 E2.36207
G1 X116.925 Y98.851 E2.36613
G1 X116.985 Y98.872 E2.36757
G1 X118.002 Y97.855 E2.40028
G1 X118.058 Y97.929 E2.40239
G1 X118.122 Y97.946 E2.40391
G1 X118.211 Y98.065 E2.40728
G1 X118.241 Y98.076 E2.40802
G1 X118.450 Y98.287 E2.41477
G1 X117.452 Y99.286 E2.44688
G1 X117.559 Y99.421 E2.45081
G1 X117.856 Y99.645 E2.45927
G1 X117.935 Y99.684 E2.46125
G1 X118.870 Y98.748 E2.49133
G1 X118.904 Y98.775 E2.49229
G1 X118.925 Y98.853 E2.49415
G1 X118.990 Y98.881 E2.49576
G1 X119.102 Y98.998 E2.49943
G1 X119.269 Y99.230 E2.50595
G1 X118.507 Y99.993 E2.53047
G1 E0.53047 F2400.00000
G92 E0
G1 X105.741 Y103.949 F7800.000
G1 E2.00000 F2400.00000
G1 F1800
G1 X105.592 Y104.376 E2.01028
G1 X105.454 Y104.597 E2.01620
G1 X105.710 Y104.290 E2.02529
G1 X105.741 Y104.277 E2.02606
G1 X105.820 Y104.173 E2.02903
G1 X106.099 Y103.894 E2.03801
G1 X106.189 Y103.771 E2.04146
G1 X106.275 Y103.600 E2.04580
G1 X106.292 Y103.488 E2.04839
G1 X106.335 Y103.460 E2.04955
G1 X106.371 Y103.320 E2.05284
G1 X105.315 Y104.376 E2.08679
G1 E0.08679 F2400.00000
G92 E0
G1 X103.928 Y102.239 F7800.000
G1 E2.00000 F2400.00000
G1 F1800
G1 X100.293 Y105.873 E2.11684
G1 X100.257 Y105.962 E2.11901
G1 X100.256 Y106.132 E2.12288
G1 X100.233 Y106.164 E2.12378
G1 X100.343 Y106.484 E2.13146
G1 X100.437 Y106.610 E2.13505
G1 X103.785 Y103.263 E2.24268
G1 X103.658 Y103.614 E2.25116
G1 X103.522 Y103.879 E2.25795
G1 X103.314 Y104.363 E2.26991
G1 X103.323 Y104.606 E2.27543
G1 X101.018 Y106.911 E2.34953
G1 X101.035 Y106.927 E2.35007
G1 X101.096 Y106.927 E2.35147
G1 X101.115 Y106.905 E2.35212
G1 X101.229 Y106.897 E2.35472
G1 X101.247 Y106.876 E2.35534
G1 X101.307 Y106.867 E2.35671
G1 X101.413 Y106.805 E2.35951
G1 X101.495 Y106.789 E2.36141
G1 X101.554 Y106.741 E2.36314
G1 X101.712 Y106.680 E2.36700
G1 X101.813 Y106.606 E2.36984
G1 X101.900 Y106.594 E2.37184
G1 X101.937 Y106.557 E2.37304
G1 X102.046 Y106.551 E2.37552
G1 X102.081 Y106.516 E2.37664
G1 X102.288 Y106.509 E2.38135
G1 X103.774 Y105.035 E2.42892
G1 X103.843 Y105.131 E2.43161
G1 X103.948 Y104.986 E2.43568
G1 X104.028 Y105.040 E2.43786
G1 X104.065 Y105.091 E2.43930
G1 X104.227 Y105.099 E2.44299
G1 X104.291 Y105.138 E2.44469
G1 X104.552 Y105.138 E2.45061
G1 X103.094 Y106.596 E2.49747
G1 X103.284 Y106.651 E2.50197
G1 X103.396 Y106.741 E2.50523
G1 X103.447 Y106.741 E2.50641
G1 X103.630 Y106.941 E2.51256
G1 X105.125 Y105.446 E2.56062
G1 X105.128 Y105.617 E2.56452
G1 X105.184 Y105.707 E2.56693
G1 X105.307 Y105.880 E2.57176
G1 X105.391 Y105.922 E2.57388
G1 X105.423 Y105.966 E2.57511
G1 X105.478 Y105.974 E2.57638
G1 X104.861 Y106.591 E2.59619
G1 X104.896 Y106.562 E2.59722
G1 X105.197 Y106.554 E2.60407
G1 X105.261 Y106.592 E2.60577
G1 X105.425 Y106.606 E2.60950
G1 X105.447 Y106.636 E2.61035
G1 X105.565 Y106.647 E2.61305
G1 X105.591 Y106.682 E2.61404
G1 X105.645 Y106.688 E2.61527
G1 X106.229 Y106.104 E2.63406
G1 X106.473 Y106.106 E2.63960
G1 X106.492 Y106.132 E2.64034
G1 X106.678 Y106.141 E2.64459
G1 X107.074 Y106.140 E2.65359
G1 X106.245 Y106.969 E2.68027
G1 X105.594 Y107.620 F7800.000
G1 F1800
G1 X105.142 Y108.072 E2.69482
G1 X105.142 Y108.109 E2.69567
G1 X105.478 Y108.617 E2.70950
G1 X106.093 Y108.001 E2.72928
G1 X106.167 Y108.065 E2.73149
G1 X106.214 Y108.065 E2.73256
G1 X106.279 Y108.105 E2.73430
G1 X106.334 Y108.181 E2.73644
G1 X106.419 Y108.220 E2.73856
G1 X106.476 Y108.298 E2.74075
G1 X106.501 Y108.298 E2.74132
G1 X106.561 Y108.415 E2.74431
G1 X105.809 Y109.167 E2.76849
G1 X103.864 Y109.350 F7800.000
G1 F1800
G1 X103.838 Y109.437 E2.77054
G1 X103.838 Y109.589 E2.77400
G1 X103.911 Y109.791 E2.77888
G1 X103.935 Y109.758 E2.77981
G1 X103.963 Y109.758 E2.78046
G1 X104.063 Y109.642 E2.78393
G1 X104.124 Y109.535 E2.78672
G1 X104.209 Y109.314 E2.79211
G1 X104.209 Y109.224 E2.79416
G1 X104.235 Y109.188 E2.79517
G1 X104.263 Y109.071 E2.79790
G1 X104.263 Y108.951 E2.80063
G1 X103.437 Y109.776 E2.82717
G1 E0.82717 F2400.00000
G92 E0
G1 X103.916 Y107.536 F7800.000
G1 E2.00000 F2400.00000
G1 F1800
G1 X105.245 Y106.207 E2.04273
G1 X105.072 Y106.445 E2.04939
G1 X105.070 Y106.583 E2.05253
G1 X105.072 Y106.811 E2.05772
G1 X105.234 Y107.086 E2.06499
G1 X105.050 Y106.948 E2.07022
G1 X104.747 Y106.937 E2.07712
G1 X104.613 Y106.949 E2.08017
G1 X104.395 Y107.111 E2.08634
G1 X104.342 Y107.182 E2.08836
G1 X104.342 Y107.110 E2.09001
G1 E0.09001 F2400.00000
G92 E0
G1 X95.265 Y110.901 F7800.000
G1 E2.00000 F2400.00000
G1 F1800
G1 X95.920 Y110.246 E2.02106
G1 X95.920 Y110.216 E2.02176
G1 X95.837 Y110.104 E2.02492
G1 X95.673 Y110.074 E2.02871
G1 X95.640 Y110.028 E2.03001
G1 X95.579 Y110.022 E2.03141
G1 X95.554 Y109.988 E2.03236
G1 X95.493 Y109.981 E2.03377
G1 X95.388 Y109.897 E2.03682
G1 X94.939 Y110.346 E2.05125
G1 X94.891 Y110.299 E2.05279
G1 X94.962 Y110.324 E2.05449
G1 X94.268 Y110.136 F7800.000
G1 F1800
G1 X94.882 Y109.523 E2.07423
G1 X94.799 Y109.403 E2.07754
G1 X94.751 Y109.281 E2.08051
G1 X94.746 Y108.914 E2.08886
G1 X94.818 Y108.737 E2.09321
G1 X94.895 Y108.628 E2.09624
G1 X93.629 Y109.895 E2.13696
G1 X93.495 Y109.710 E2.14213
G1 X93.467 Y109.710 E2.14278
G1 X93.412 Y109.638 E2.14484
G1 X93.028 Y109.644 E2.15359
G1 X92.916 Y109.727 E2.15675
G1 X94.515 Y108.127 E2.20818
G1 X94.453 Y108.041 E2.21061
G1 X94.227 Y107.535 E2.22320
G1 X93.246 Y108.516 E2.25475
G1 X93.019 Y108.125 E2.26503
G1 X93.001 Y108.033 E2.26717
G1 X92.944 Y108.004 E2.26862
G1 X92.923 Y107.958 E2.26977
G1 X93.959 Y106.921 E2.30310
G1 X93.770 Y106.230 E2.31939
G1 X92.576 Y107.424 E2.35776
G1 X92.413 Y107.168 E2.36464
G1 X92.361 Y106.994 E2.36877
G1 X92.308 Y106.967 E2.37013
G1 X92.281 Y106.910 E2.37156
G1 X92.276 Y106.843 E2.37309
G1 X93.475 Y105.644 E2.41164
G1 X93.447 Y105.575 E2.41333
G1 X93.280 Y105.333 E2.42001
G1 X93.242 Y105.313 E2.42099
G1 X93.224 Y105.226 E2.42302
G1 X93.150 Y105.088 E2.42657
G1 X91.962 Y106.276 E2.46476
G1 X91.930 Y106.195 E2.46675
G1 X91.607 Y105.750 E2.47925
G1 E0.47925 F2400.00000
G92 E0
G1 X94.515 Y108.127 F7800.000
G1 E2.00000 F2400.00000
G1 F1800
G1 X94.624 Y108.276 E2.00418
G1 X94.795 Y108.416 E2.00921
G1 X95.023 Y108.416 E2.01438
G1 X95.158 Y108.331 E2.01801
G1 X95.282 Y108.202 E2.02208
G1 X95.431 Y107.998 E2.02782
G1 X95.454 Y107.998 E2.02835
G1 X95.612 Y107.784 E2.03441
G1 X95.698 Y107.723 E2.03679
G1 X95.698 Y107.825 E2.03912
G1 X94.624 Y108.900 E2.07365
G1 E0.07365 F2400.00000
G92 E0
G1 X92.536 Y110.107 F7800.000
G1 E2.00000 F2400.00000
G1 F1800
G1 X92.629 Y110.105 E2.00211
G1 X92.632 Y110.069 E2.00294
G1 X92.733 Y109.910 E2.00722
G1 X92.110 Y110.533 E2.02724
G1 X93.508 Y111.778 F7800.000
G1 F1800
G1 X94.014 Y111.271 E2.04352
G1 X93.989 Y111.415 E2.04683
G1 X93.981 Y111.897 E2.05780
G1 X93.911 Y111.884 E2.05943
G1 X93.854 Y111.772 E2.06228
G1 X93.856 Y111.548 E2.06736
G1 X93.926 Y111.407 E2.07095
G1 X93.934 Y111.351 E2.07222
G1 E0.07222 F2400.00000
G92 E0
G1 X90.549 Y98.880 F7800.000
G1 E2.00000 F2400.00000
G1 F1800
G1 X93.310 Y96.119 E2.08877
G1 X93.491 Y95.581 E2.10166
G1 X93.494 Y95.515 E2.10316
G1 X93.601 Y95.200 E2.11073
G1 X93.605 Y95.081 E2.11343
G1 X93.627 Y95.041 E2.11448
G1 X93.627 Y94.921 E2.11720
G1 X91.173 Y97.375 E2.19608
G1 X91.348 Y96.856 E2.20852
G1 X91.454 Y96.673 E2.21332
G1 X91.598 Y96.356 E2.22125
G1 X91.673 Y96.244 E2.22430
G1 X91.710 Y96.123 E2.22719
G1 X91.878 Y95.789 E2.23569
G1 X93.519 Y94.148 E2.28842
G1 X93.331 Y93.455 E2.30475
G1 X91.978 Y94.809 E2.34827
G1 X91.930 Y94.697 E2.35103
G1 X91.759 Y94.458 E2.35771
G1 X91.579 Y94.326 E2.36278
G1 X93.701 Y92.204 E2.43099
G1 X93.467 Y92.218 E2.43631
G1 X93.290 Y92.189 E2.44039
G1 X93.105 Y91.919 E2.44783
G1 X91.751 Y93.273 E2.49137
G1 X91.748 Y93.011 E2.49732
G1 X91.728 Y92.930 E2.49922
G1 X91.572 Y92.571 E2.50812
G1 X92.210 Y91.934 E2.52862
G1 X91.992 Y91.640 E2.53693
G1 X91.895 Y91.368 E2.54350
G1 X91.218 Y92.045 E2.56526
G1 X91.040 Y91.730 E2.57346
G1 X90.971 Y91.528 E2.57833
G1 X90.926 Y91.456 E2.58026
G1 X91.648 Y90.734 E2.60347
G1 X92.673 Y90.589 F7800.000
G1 F1800
G1 X93.261 Y90.001 E2.62239
G1 X93.261 Y90.220 E2.62736
G1 X93.132 Y90.976 E2.64481
G1 X93.127 Y90.426 E2.65733
G1 X93.102 Y90.347 E2.65920
G1 X93.099 Y90.163 E2.66339
G1 E0.66339 F2400.00000
G92 E0
G1 X93.701 Y92.204 F7800.000
G1 E2.00000 F2400.00000
G1 F1800
G1 X93.945 Y92.040 E2.00669
G1 X93.988 Y91.982 E2.00832
G1 X94.022 Y91.967 E2.00917
G1 X94.240 Y91.681 E2.01736
G1 X94.375 Y91.650 E2.02051
G1 X94.700 Y91.647 E2.02789
G1 X94.762 Y91.711 E2.02991
G1 X94.789 Y91.767 E2.03133
G1 X94.798 Y91.878 E2.03387
G1 X94.779 Y92.007 E2.03682
G1 X94.015 Y92.771 E2.06140
G1 X92.177 Y92.847 F7800.000
G1 F1800
G1 X92.176 Y92.961 E2.06399
G1 X92.108 Y93.068 E2.06687
G1 X92.088 Y93.174 E2.06932
G1 X92.009 Y93.208 E2.07128
G1 X91.845 Y93.355 E2.07629
G1 X91.771 Y93.368 E2.07799
G1 X91.699 Y93.413 E2.07992
G1 X91.610 Y93.415 E2.08196
G1 X90.579 Y94.445 E2.11508
G1 E0.11508 F2400.00000
G92 E0
G1 X100.277 Y96.200 F7800.000
G1 E2.00000 F2400.00000
G1 F1800
G1 X100.798 Y96.559 E2.01440
G1 X102.509 Y94.848 E2.06939
G1 X102.606 Y94.930 E2.07228
G1 X102.745 Y94.975 E2.07561
G1 X102.852 Y95.030 E2.07834
G1 X102.879 Y95.062 E2.07929
G1 X103.097 Y95.102 E2.08433
G1 X103.115 Y95.124 E2.08496
G1 X101.304 Y96.935 E2.14318
G1 E0.14318 F2400.00000
G92 E0
G1 X104.456 Y94.663 F7800.000
G1 E2.00000 F2400.00000
G1 F1800
G1 X105.240 Y93.880 E2.02519
G1 X105.239 Y93.854 E2.02578
G1 X105.167 Y93.647 E2.03076
G1 X105.123 Y93.620 E2.03193
G1 X104.984 Y93.432 E2.03724
G1 X104.894 Y93.345 E2.04010
G1 X104.203 Y94.035 E2.06229
G1 X104.165 Y93.918 E2.06508
G1 X104.067 Y93.739 E2.06971
G1 X103.879 Y93.478 E2.07703
G1 X104.523 Y92.835 E2.09772
G1 X104.154 Y92.322 E2.11207
G1 X102.490 Y93.986 E2.16558
G1 X102.113 Y94.114 E2.17464
G1 X101.965 Y94.254 E2.17925
G1 X101.823 Y94.312 E2.18274
G1 X101.823 Y94.473 E2.18639
G1 X101.772 Y94.595 E2.18940
G1 X101.770 Y94.706 E2.19192
G1 X100.277 Y96.200 E2.23994
G1 X100.195 Y96.095 E2.24295
G1 X100.167 Y96.095 E2.24358
G1 X100.139 Y96.056 E2.24469
G1 X100.105 Y96.056 E2.24545
G1 X99.930 Y95.883 E2.25105
G1 X99.837 Y95.758 E2.25459
G1 X103.857 Y91.738 E2.38382
G1 X103.787 Y91.542 E2.38856
G1 X103.791 Y91.080 E2.39905
G1 X103.908 Y90.806 E2.40583
G1 X99.467 Y95.248 E2.54863
G1 X99.356 Y95.018 E2.55443
G1 X99.310 Y94.776 E2.56002
G1 X99.285 Y94.732 E2.56117
G1 X99.285 Y94.548 E2.56535
G1 X100.908 Y92.925 E2.61754
G1 X100.955 Y92.916 E2.61861
G1 X100.996 Y92.859 E2.62020
G1 X101.067 Y92.844 E2.62185
G1 X101.130 Y92.783 E2.62386
G1 X101.207 Y92.767 E2.62563
G1 X101.266 Y92.710 E2.62750
G1 X101.369 Y92.690 E2.62990
G1 X101.419 Y92.622 E2.63182
G1 X101.875 Y92.297 E2.64455
G1 X101.936 Y92.297 E2.64593
G1 X102.005 Y92.194 E2.64874
G1 X102.212 Y91.983 E2.65548
G1 X102.358 Y91.772 E2.66131
G1 X102.358 Y91.529 E2.66683
G1 X102.338 Y91.496 E2.66773
G1 X103.174 Y90.659 E2.69462
G1 X103.089 Y90.234 E2.70447
G1 X103.058 Y90.187 E2.70576
G1 X103.058 Y90.080 E2.70819
G1 X103.027 Y90.022 E2.70967
G1 X103.023 Y89.930 E2.71178
G1 X102.345 Y90.608 E2.73358
G1 X102.302 Y90.379 E2.73888
G1 X102.248 Y90.235 E2.74236
G1 X102.236 Y90.027 E2.74709
G1 X102.216 Y90.011 E2.74768
G1 X102.185 Y89.886 E2.75059
G1 X102.876 Y89.196 E2.77278
G1 X102.862 Y89.168 E2.77348
G1 X102.857 Y88.889 E2.77983
G1 X102.834 Y88.815 E2.78159
G1 X102.829 Y88.580 E2.78693
G1 X102.794 Y88.396 E2.79119
G1 X102.058 Y89.133 E2.81487
G1 X102.024 Y88.546 E2.82824
G1 X102.093 Y88.551 E2.82982
G1 X102.119 Y88.580 E2.83070
G1 X102.234 Y88.592 E2.83333
G1 X102.302 Y88.636 E2.83518
G1 X102.349 Y88.710 E2.83716
G1 X102.349 Y88.789 E2.83895
G1 X102.368 Y88.823 E2.83983
G1 E0.83983 F2400.00000
G92 E0
G1 X104.686 Y89.148 F7800.000
G1 E2.00000 F2400.00000
G1 F1800
G1 X104.629 Y88.990 E2.00382
G1 X104.528 Y88.847 E2.00779
G1 X104.511 Y88.854 E2.00821
G1 X104.500 Y89.141 E2.01475
G1 X104.475 Y89.186 E2.01592
G1 X104.475 Y89.264 E2.01769
G1 X104.403 Y89.431 E2.02181
G1 X105.112 Y88.722 E2.04461
G1 X105.205 Y89.015 E2.05160
G1 X105.210 Y89.136 E2.05436
G1 X105.231 Y89.175 E2.05535
G1 X105.207 Y89.323 E2.05877
G1 X105.137 Y89.527 E2.06366
G1 X105.048 Y89.667 E2.06744
G1 X104.464 Y90.251 E2.08622
G1 X104.415 Y90.300 F7800.000
G1 F1800
G1 X104.747 Y89.991 E2.09653
G1 X104.804 Y89.914 E2.09871
G1 X104.844 Y89.914 E2.09961
G1 X104.860 Y89.854 E2.10101
G1 X103.988 Y90.726 E2.12903
G1 E0.12903 F2400.00000
G92 E0
G1 X101.293 Y91.660 F7800.000
G1 E2.00000 F2400.00000
G1 F1800
G1 X102.022 Y90.930 E2.02345
G1 X101.994 Y90.927 E2.02411
G1 X101.964 Y90.887 E2.02526
G1 X101.807 Y90.778 E2.02959
G1 X101.643 Y90.535 E2.03626
G1 X101.547 Y90.525 E2.03847
G1 X100.832 Y91.239 E2.06143
G1 X100.808 Y91.057 E2.06561
G1 X100.847 Y91.057 E2.06651
G1 X100.979 Y90.973 E2.07006
G1 X101.120 Y90.951 E2.07330
M104 S200 ; set temperature
G1 Z0.800 F7800.000
G1 X100.872 Y90.859 F7800.000
G1 F1200
G1 X101.582 Y91.570 E2.10891
G1 X102.074 Y91.352 F7800.000
G1 F1200
G1 X101.749 Y91.027 E2.12520
G1 X102.796 Y89.491 F7800.000
G1 F1200
G1 X102.140 Y88.835 E2.15810
G1 X102.641 Y88.626 F7800.000
G1 F1200
G1 X102.316 Y88.302 E2.17439
G1 E0.17439 F2400.00000
G92 E0
G1 X104.911 Y88.866 F7800.000
G1 E2.00000 F2400.00000
G1 F1200
G1 X104.582 Y88.536 E2.01652
G1 X104.553 Y88.730 E2.02345
G1 X104.456 Y89.049 E2.03529
G1 X105.140 Y89.733 E2.06957
G1 X105.029 Y89.978 E2.07911
G1 X104.947 Y90.093 E2.08410
G1 X104.905 Y90.137 E2.08626
G1 X104.243 Y89.475 E2.11942
G1 X103.997 Y89.821 E2.13448
G1 X104.250 Y90.120 E2.14836
G1 X104.575 Y90.445 E2.16465
G1 E0.16465 F2400.00000
G92 E0
G1 X104.804 Y93.644 F7800.000
G1 E2.00000 F2400.00000
G1 F1200
G1 X104.478 Y93.319 E2.01632
G1 X104.174 Y93.572 E2.03037
G1 X104.266 Y93.815 E2.03959
G1 X105.183 Y94.732 E2.08557
G1 X105.125 Y94.817 E2.08920
G1 X105.030 Y94.860 E2.09290
G1 X104.923 Y94.783 E2.09757
G1 X104.792 Y94.629 E2.10472
G1 X104.724 Y94.512 E2.10952
G1 X104.591 Y94.140 E2.12353
G1 E0.12353 F2400.00000
G92 E0
G1 X105.990 Y103.665 F7800.000
G1 E2.00000 F2400.00000
G1 F1200
G1 X105.665 Y103.340 E2.01629
G1 X105.525 Y103.605 E2.02693
G1 X105.446 Y103.830 E2.03537
G1 X105.948 Y104.332 E2.06056
G1 X105.599 Y104.692 E2.07833
G1 X105.262 Y104.354 E2.09524
G1 X105.391 Y106.142 F7800.000
G1 F1200
G1 X105.832 Y106.582 E2.11735
G1 X106.443 Y106.882 E2.14149
G1 X106.908 Y107.061 E2.15914
G1 X107.023 Y107.065 E2.16325
G1 X106.145 Y106.186 E2.20731
G1 X106.356 Y106.211 E2.21487
G1 X106.693 Y106.189 E2.22684
G1 X106.875 Y106.219 E2.23336
G1 X107.245 Y106.578 E2.25165
G1 E0.25165 F2400.00000
G92 E0
G1 X106.389 Y108.548 F7800.000
G1 E2.00000 F2400.00000
G1 F1200
G1 X106.063 Y108.222 E2.01636
G1 X105.869 Y108.073 E2.02502
G1 X105.870 Y108.285 E2.03257
G1 X105.893 Y108.397 E2.03660
G1 X105.615 Y108.484 E2.04690
G1 X106.482 Y109.350 E2.09032
G1 X106.393 Y109.411 E2.09414
G1 X106.366 Y109.381 E2.09557
G1 X106.359 Y109.323 E2.09766
G1 X106.237 Y109.305 E2.10201
G1 X106.127 Y109.153 E2.10868
G1 X106.124 Y109.116 E2.10998
G1 X106.045 Y109.002 E2.11489
G1 X106.042 Y108.962 E2.11632
G1 X105.940 Y108.808 E2.12285
G1 X104.157 Y108.492 F7800.000
G1 F1200
G1 X103.832 Y108.167 E2.13915
G1 X103.651 Y108.667 E2.15802
G1 X104.247 Y109.264 E2.18791
G1 X104.238 Y109.565 E2.19860
G1 X104.154 Y109.851 E2.20918
G1 X103.500 Y109.197 E2.24196
G1 X103.456 Y109.375 E2.24845
G1 X103.431 Y109.565 E2.25524
G1 X103.445 Y109.739 E2.26144
G1 X103.513 Y109.891 E2.26735
G1 X103.837 Y110.216 E2.28364
G1 E0.28364 F2400.00000
G92 E0
G1 X95.671 Y108.082 F7800.000
G1 E2.00000 F2400.00000
G1 F1200
G1 X95.346 Y107.757 E2.01630
G1 X95.205 Y107.885 E2.02307
G1 X95.054 Y108.089 E2.03204
G1 X95.491 Y108.526 E2.05395
G1 X95.089 Y108.747 E2.07024
G1 X94.764 Y108.422 E2.08653
G1 E0.08653 F2400.00000
G92 E0
G1 X93.145 Y109.732 F7800.000
G1 E2.00000 F2400.00000
G1 F1200
G1 X92.820 Y109.407 E2.01629
G1 X92.445 Y109.441 E2.02964
G1 X92.247 Y109.543 E2.03754
G1 X92.801 Y110.097 E2.06533
G1 X92.582 Y110.494 E2.08142
G1 X92.522 Y110.527 E2.08382
G1 X91.935 Y109.940 E2.11328
G1 E0.11328 F2400.00000
G92 E0
G1 X93.952 Y111.464 F7800.000
G1 E2.00000 F2400.00000
G1 F1200
G1 X93.627 Y111.139 E2.01629
G1 X93.490 Y111.711 E2.03714
G1 X93.915 Y112.136 E2.05847
G1 X93.908 Y112.242 E2.06222
G1 X93.830 Y112.164 E2.06614
G1 X93.815 Y112.035 E2.07071
G1 E0.07071 F2400.00000
G92 E0
G1 X91.595 Y93.830 F7800.000
G1 E2.00000 F2400.00000
G1 F1200
G1 X91.270 Y93.505 E2.01629
G1 X90.667 Y93.552 E2.03774
G1 X91.184 Y94.069 E2.06365
G1 X91.135 Y94.037 E2.06572
G1 X90.903 Y94.385 E2.08058
G1 X90.750 Y94.285 E2.08706
G1 X90.424 Y93.960 E2.10339
G1 E0.10339 F2400.00000
G92 E0
G1 X92.077 Y92.308 F7800.000
G1 E2.00000 F2400.00000
G1 F1200
G1 X91.085 Y91.316 E2.04973
G1 X91.563 Y91.085 F7800.000
G1 F1200
G1 X91.238 Y90.760 E2.06602
G1 X93.072 Y90.786 F7800.000
G1 F1200
G1 X93.101 Y91.120 E2.07790
G1 X93.153 Y90.867 E2.08704
G1 X92.747 Y90.461 E2.10741
G1 X92.715 Y90.064 E2.12152
G1 X92.743 Y89.748 E2.13275
G1 X93.069 Y90.074 E2.14906
G1 E0.14906 F2400.00000
G92 E0
G1 X94.324 Y91.808 F7800.000
G1 E2.00000 F2400.00000
G1 F1200
G1 X94.649 Y92.133 E2.01629
G1 X94.446 Y92.638 F7800.000
G1 F1200
G1 X93.756 Y91.948 E2.05087
G1 X93.620 Y92.102 E2.05814
G1 X93.421 Y92.259 E2.06715
G1 X93.374 Y92.275 E2.06890
G1 X93.876 Y92.777 E2.09406
G1 X93.750 Y92.837 E2.09901
G1 X93.750 Y92.719 E2.10322
G1 X93.630 Y92.624 E2.10865
G1 X93.699 Y92.600 E2.11123
G1 X93.243 Y93.243 F7800.000
G1 F4800
G1 X92.329 Y92.329 E2.14941
G1 X92.286 Y92.351 E2.15084
G1 X92.019 Y92.369 E2.15875
G1 X91.987 Y92.386 E2.15981
G1 X91.962 Y92.525 E2.16399
G1 X91.967 Y92.623 E2.16690
G1 X93.154 Y93.810 E2.21650
G1 X93.205 Y94.101 E2.22522
G1 X93.380 Y94.693 E2.24346
G1 X91.874 Y93.187 E2.30638
G1 X91.694 Y93.616 E2.32014
G1 X91.794 Y93.763 E2.32538
G1 X93.456 Y95.425 E2.39482
G1 X93.444 Y95.505 E2.39722
G1 X93.318 Y95.943 E2.41070
G1 X92.207 Y94.833 E2.45712
G1 X92.174 Y95.149 E2.46651
G1 X92.097 Y95.379 E2.47368
G1 X93.149 Y96.431 E2.51765
G1 X92.962 Y96.901 E2.53258
G1 X91.902 Y95.840 E2.57689
G1 X91.687 Y96.281 E2.59140
G1 X92.767 Y97.361 E2.63651
G1 X92.565 Y97.816 E2.65121
G1 X91.480 Y96.731 E2.69652
G1 X91.423 Y96.886 E2.70140
G1 X91.314 Y97.221 E2.71180
G1 X92.373 Y98.281 E2.75609
G1 X92.261 Y98.613 E2.76647
G1 X92.268 Y98.725 E2.76978
G1 X92.251 Y98.814 E2.77245
G1 X91.147 Y97.711 E2.81855
G1 X90.962 Y98.182 E2.83350
G1 X97.378 Y104.598 E3.10161
G1 X96.775 Y104.651 E3.11951
G1 X90.713 Y98.589 E3.37280
G1 X90.386 Y98.918 E3.38651
G1 X96.118 Y104.651 E3.62603
G1 X95.397 Y104.586 E3.64743
G1 X89.952 Y99.141 E3.87492
G1 X89.684 Y99.130 E3.88287
G1 X89.458 Y99.094 E3.88964
G1 X89.161 Y99.007 E3.89876
G1 X94.608 Y104.453 E4.12636
G1 X93.740 Y104.242 E4.15275
G1 X88.179 Y98.680 E4.38514
G1 E2.38514 F2400.00000
G92 E0
G1 X85.874 Y95.063 F7800.000
G1 E2.00000 F2400.00000
G1 F4800
G1 X83.795 Y92.984 E2.08686
G1 X83.420 Y92.832 E2.09881
G1 X82.876 Y92.722 E2.11521
G1 X86.615 Y96.460 E2.27144
G1 X87.046 Y97.321 E2.29987
G1 X87.351 Y97.852 E2.31796
G1 X82.271 Y92.772 E2.53023
G1 X82.073 Y92.814 E2.53619
G1 X81.784 Y92.942 E2.54553
G1 X92.889 Y104.047 E3.00956
G1 X92.799 Y104.040 E3.01225
G1 X92.596 Y104.269 E3.02129
G1 X92.624 Y104.438 E3.02634
G1 X81.398 Y93.212 E3.49541
G1 X81.080 Y93.551 E3.50913
G1 X92.855 Y105.325 E4.00113
G1 X93.080 Y105.753 E4.01541
G1 X93.478 Y106.420 E4.03837
G1 X93.602 Y106.729 E4.04820
G1 X90.430 Y103.557 E4.18077
G1 X90.650 Y104.063 E4.19709
G1 X90.885 Y104.496 E4.21165
G1 X91.717 Y105.227 E4.24439
G1 X91.975 Y105.535 E4.25625
G1 X92.196 Y105.896 E4.26874
G1 X92.262 Y106.046 E4.27358
G1 X93.911 Y107.695 E4.34248
G1 X94.087 Y108.138 E4.35659
G1 X94.232 Y108.432 E4.36625
G1 X94.404 Y108.709 E4.37589
G1 X94.560 Y108.900 E4.38319
G1 X94.598 Y108.984 E4.38590
G1 X94.591 Y109.031 E4.38730
G1 X93.213 Y107.653 E4.44488
G1 X93.511 Y108.256 E4.46477
G1 X93.550 Y108.539 E4.47321
G1 X93.543 Y108.639 E4.47617
G1 X94.542 Y109.638 E4.51791
G1 X94.534 Y109.800 E4.52271
G1 X94.508 Y109.834 E4.52396
G1 X94.274 Y109.957 E4.53178
G1 X94.136 Y109.745 E4.53923
G1 X93.879 Y109.443 E4.55095
G1 X93.836 Y109.337 E4.55432
G1 X93.868 Y108.964 E4.56539
G1 E2.56539 F2400.00000
G92 E0
G1 X97.378 Y104.598 F7800.000
G1 E2.00000 F2400.00000
G1 F4800
G1 X97.929 Y104.493 E2.01658
G1 X92.412 Y98.975 E2.24713
G1 X92.977 Y98.884 E2.26404
G1 X98.440 Y104.348 E2.49235
G1 X98.924 Y104.175 E2.50752
G1 X93.516 Y98.767 E2.73348
G1 X94.045 Y98.639 E2.74953
G1 X99.389 Y103.983 E2.97283
G1 X99.838 Y103.776 E2.98745
G1 X94.560 Y98.498 E3.20800
G1 X95.064 Y98.346 E3.22356
G1 X100.277 Y103.559 E3.44137
G1 X100.698 Y103.323 E3.45562
G1 X95.562 Y98.187 E3.67023
G1 X96.072 Y98.041 E3.68590
G1 X101.159 Y103.128 E3.89847
G1 X101.620 Y102.932 E3.91325
G1 X96.596 Y97.909 E4.12316
G1 X97.147 Y97.803 E4.13974
G1 X102.176 Y102.833 E4.34989
G1 E2.34989 F2400.00000
G92 E0
G1 X100.752 Y106.003 F7800.000
G1 E2.00000 F2400.00000
G1 F4800
G1 X100.754 Y106.107 E2.00307
G1 X100.793 Y106.227 E2.00678
G1 X100.841 Y106.335 E2.01028
G1 X100.917 Y106.425 E2.01375
G1 X101.112 Y106.574 E2.02102
G1 X101.273 Y106.636 E2.02613
G1 X101.402 Y106.653 E2.02996
G1 X100.427 Y105.678 E2.07069
G1 X100.462 Y105.491 E2.07632
G1 X100.592 Y105.187 E2.08609
G1 X101.904 Y106.498 E2.14090
G1 X102.380 Y106.318 E2.15594
G1 X100.861 Y104.799 E2.21941
G1 X101.183 Y104.465 E2.23312
G1 X102.948 Y106.229 E2.30687
G1 X103.077 Y106.225 E2.31069
G1 X103.349 Y106.278 E2.31889
G1 X103.652 Y106.398 E2.32851
G1 X103.891 Y106.562 E2.33707
G1 X104.090 Y106.771 E2.34559
G1 X104.200 Y106.911 E2.35087
G1 X104.365 Y107.195 E2.36057
G1 X104.411 Y107.216 E2.36208
G1 X104.542 Y107.167 E2.36619
G1 X101.512 Y104.138 E2.49277
G1 X101.779 Y103.748 E2.50672
G1 X104.910 Y106.879 E2.63755
G1 X105.081 Y106.394 E2.65274
G1 X104.383 Y105.696 E2.68190
G1 X104.299 Y105.699 E2.68439
G1 X104.060 Y105.653 E2.69157
G1 X103.635 Y105.455 E2.70545
G1 X103.378 Y105.309 E2.71419
G1 X103.224 Y105.107 E2.72169
G1 X103.177 Y104.927 E2.72719
G1 X103.190 Y104.663 E2.73498
G1 X103.228 Y104.541 E2.73878
G1 X101.962 Y103.275 E2.79166
G1 X102.002 Y103.097 E2.79704
G1 X102.020 Y102.690 E2.80907
G1 X101.894 Y102.550 E2.81466
G1 X103.431 Y104.087 E2.87891
G1 X103.628 Y103.628 E2.89367
G1 X97.727 Y97.727 E3.14025
G1 X98.321 Y97.665 E3.15789
G1 X103.764 Y103.107 E3.38531
G1 X103.806 Y102.493 E3.40349
G1 X98.935 Y97.622 E3.60703
G1 X99.565 Y97.596 E3.62567
G1 X103.877 Y101.908 E3.80582
G1 X103.913 Y101.751 E3.81057
G1 X103.998 Y101.587 E3.81603
G1 X104.111 Y101.485 E3.82051
G1 X100.215 Y97.590 E3.98327
G1 X100.873 Y97.591 E4.00269
G1 X104.453 Y101.171 E4.15227
G1 X104.803 Y100.865 E4.16602
G1 X101.462 Y97.524 E4.30565
G1 X101.669 Y97.486 E4.31189
G1 X101.872 Y97.278 E4.32048
G1 X105.157 Y100.563 E4.45774
G1 X105.530 Y100.279 E4.47158
G1 X99.460 Y94.209 E4.72522
G1 X99.504 Y93.967 E4.73250
G1 X99.624 Y93.717 E4.74068
G1 X105.935 Y100.028 E5.00438
G1 X106.367 Y99.803 E5.01876
G1 X104.308 Y97.745 E5.10476
G1 X104.841 Y97.916 E5.12128
G1 X105.212 Y97.992 E5.13246
G1 X106.890 Y99.671 E5.20261
G1 X107.035 Y99.641 E5.20698
G1 X107.534 Y99.658 E5.22171
G1 X106.064 Y98.187 E5.28314
G1 X106.972 Y98.439 E5.31097
G1 X108.393 Y99.860 E5.37036
G1 X109.098 Y100.119 E5.39255
G1 X109.372 Y100.183 E5.40087
G1 X107.933 Y98.744 E5.46102
G1 X108.131 Y98.791 E5.46703
G1 X108.594 Y98.950 E5.48152
G1 X108.827 Y98.981 E5.48844
G1 X110.037 Y100.192 E5.53902
G1 X110.312 Y100.105 E5.54753
G1 X110.506 Y100.004 E5.55399
G1 X109.544 Y99.043 E5.59415
G1 X110.119 Y98.961 E5.61132
G1 X110.901 Y99.743 E5.64398
G1 X111.267 Y99.453 E5.65778
G1 X110.608 Y98.793 E5.68533
G1 X110.908 Y98.675 E5.69485
G1 X111.054 Y98.584 E5.69997
G1 X111.634 Y99.164 E5.72420
G1 X111.985 Y98.858 E5.73795
G1 X111.471 Y98.344 E5.75941
G1 X111.872 Y98.088 E5.77344
G1 X112.357 Y98.574 E5.79374
G1 X112.746 Y98.306 E5.80769
G1 X112.262 Y97.822 E5.82791
G1 X112.652 Y97.556 E5.84187
G1 X113.168 Y98.072 E5.86345
G1 X113.625 Y97.873 E5.87818
G1 X113.058 Y97.306 E5.90187
G1 X113.490 Y97.081 E5.91625
G1 X114.134 Y97.725 E5.94316
G1 X114.696 Y97.631 E5.96001
G1 X113.949 Y96.884 E5.99121
G1 X114.283 Y96.793 E6.00143
G1 X114.477 Y96.756 E6.00728
G1 X115.340 Y97.618 E6.04332
G1 X115.812 Y97.643 E6.05729
G1 X116.100 Y97.722 E6.06612
G1 X115.073 Y96.695 E6.10904
G1 X115.448 Y96.692 E6.12011
G1 X115.603 Y96.731 E6.12483
G1 X115.954 Y96.919 E6.13659
G1 X118.232 Y99.197 E6.23178
G1 E4.23178 F2400.00000
G92 E0
G1 X103.638 Y91.824 F7800.000
G1 E2.00000 F2400.00000
G1 F4800
G1 X102.527 Y90.713 E2.04643
G1 X102.401 Y90.946 E2.05427
G1 X102.260 Y91.102 E2.06048
G1 X103.928 Y92.770 E2.13014
G1 X103.973 Y92.850 E2.13286
G1 X104.023 Y93.025 E2.13823
G1 X103.990 Y93.047 E2.13940
G1 X103.930 Y93.038 E2.14118
G1 X103.683 Y93.181 E2.14963
G1 X102.085 Y91.584 E2.21638
G1 X102.084 Y91.748 E2.22122
G1 X102.060 Y91.858 E2.22457
G1 X102.011 Y92.011 E2.22932
G1 X101.953 Y92.108 E2.23264
G1 X103.337 Y93.491 E2.29044
G1 X103.060 Y93.665 E2.30009
G1 X102.914 Y93.725 E2.30476
G1 X101.650 Y92.462 E2.35754
G1 X101.275 Y92.743 E2.37140
G1 X102.437 Y93.905 E2.41996
G1 X102.356 Y93.949 E2.42271
G1 X102.202 Y94.121 E2.42952
G1 X102.132 Y94.256 E2.43401
G1 X100.861 Y92.985 E2.48713
G1 X100.427 Y93.207 E2.50154
G1 X102.088 Y94.868 E2.57097
G1 X102.098 Y94.938 E2.57306
G1 X102.215 Y95.194 E2.58137
G1 X102.333 Y95.348 E2.58708
G1 X102.541 Y95.497 E2.59463
G1 X102.831 Y95.612 E2.60388
G1 X103.905 Y96.685 E2.64872
G1 X103.743 Y97.179 E2.66410
G1 X99.984 Y93.421 E2.82115
G1 X99.873 Y93.465 E2.82468
G1 X99.724 Y93.576 E2.83016
G1 X99.624 Y93.717 E2.83528
G1 E0.83528 F2400.00000
G92 E0
G1 X103.309 Y90.838 F7800.000
G1 E2.00000 F2400.00000
G1 F4800
G1 X103.348 Y90.734 E2.00329
G1 X103.285 Y90.768 E2.00539
G1 X103.235 Y90.764 E2.00687
G1 X103.634 Y91.163 E2.02354
G1 E0.02354 F2400.00000
G92 E0
G1 X89.725 Y102.852 F7800.000
G1 E2.00000 F2400.00000
G1 F4800
G1 X80.839 Y93.966 E2.37129
G1 X80.793 Y94.052 E2.37418
G1 X80.709 Y94.318 E2.38241
G1 X80.681 Y94.465 E2.38683
G1 X87.500 Y101.284 E2.67175
G1 X87.076 Y101.146 E2.68494
G1 X86.589 Y101.028 E2.69975
G1 X80.652 Y95.092 E2.94779
G1 X80.671 Y95.386 E2.95651
G1 X80.740 Y95.836 E2.96994
G1 X85.802 Y100.898 E3.18146
G1 X85.094 Y100.847 E3.20242
G1 X80.932 Y96.685 E3.37632
G1 X81.153 Y97.383 E3.39795
G1 X81.275 Y97.684 E3.40753
G1 X84.412 Y100.821 E3.53861
G1 X84.123 Y100.796 E3.54717
G1 X83.818 Y100.702 E3.55659
G1 X83.426 Y100.491 E3.56975
G1 X82.201 Y99.266 E3.62095
G1 Z1.300 F7800.000
G1 E1.62095 F2400.00000
G92 E0
G1 X82.140 Y93.575 F7800.000
G1 E2.00000 F2400.00000
G1 F4800
G1 X82.012 Y93.617 E2.00398
G1 X81.645 Y93.869 E2.01713
G1 X81.569 Y93.940 E2.02019
G1 X81.284 Y94.253 E2.03270
G1 X81.089 Y94.626 E2.04516
G1 X82.465 Y93.250 E2.10266
G1 X82.636 Y93.145 E2.10859
G1 X82.839 Y93.069 E2.11499
G1 X83.081 Y93.036 E2.12223
G1 X83.307 Y93.064 E2.12895
G1 X80.990 Y95.381 E2.22577
G1 X81.054 Y95.974 E2.24338
G1 X83.780 Y93.248 E2.35730
G1 X84.030 Y93.421 E2.36630
G1 X84.182 Y93.503 E2.37137
G1 X81.161 Y96.523 E2.49757
G1 X81.265 Y97.075 E2.51417
G1 X84.569 Y93.771 E2.65223
G1 X84.915 Y94.082 E2.66596
G1 X81.396 Y97.601 E2.81299
G1 X81.577 Y98.076 E2.82800
G1 X85.213 Y94.441 E2.97989
G1 X85.486 Y94.823 E2.99379
G1 X81.808 Y98.501 E3.14748
G1 X81.919 Y98.650 E3.15295
G1 X82.108 Y98.858 E3.16126
G1 X85.729 Y95.237 E3.31255
G1 X85.956 Y95.666 E3.32689
G1 X82.404 Y99.219 E3.47533
G1 X82.707 Y99.571 E3.48908
G1 X86.179 Y96.100 E3.63414
G1 X86.401 Y96.534 E3.64854
G1 X83.035 Y99.900 E3.78919
G1 X83.162 Y100.018 E3.79431
G1 X83.415 Y100.177 E3.80313
G1 X86.620 Y96.971 E3.93708
G1 X86.845 Y97.402 E3.95145
G1 X83.917 Y100.331 E4.07383
G1 X84.543 Y100.361 E4.09234
G1 X87.086 Y97.818 E4.19861
G1 X87.159 Y97.946 E4.20295
G1 X87.357 Y98.203 E4.21255
G1 X85.158 Y100.403 E4.30445
G1 X85.756 Y100.460 E4.32222
G1 X87.653 Y98.563 E4.40148
G1 X87.930 Y98.837 E4.41297
G1 X87.994 Y98.879 E4.41524
G1 X86.310 Y100.563 E4.48560
G1 X86.838 Y100.692 E4.50164
G1 X88.403 Y99.127 E4.56703
G1 X88.879 Y99.307 E4.58208
G1 X87.328 Y100.857 E4.64688
G1 X87.785 Y101.057 E4.66160
G1 X89.377 Y99.465 E4.72813
G1 X89.924 Y99.574 E4.74462
G1 X88.169 Y101.329 E4.81795
G1 E2.81795 F2400.00000
G92 E0
G1 X92.139 Y103.267 F7800.000
G1 E2.00000 F2400.00000
G1 F4800
G1 X90.974 Y104.432 E2.04868
G1 X91.040 Y104.547 E2.05261
G1 X91.142 Y104.656 E2.05701
G1 X91.291 Y104.771 E2.06257
G1 X92.165 Y103.897 E2.09907
G1 X92.293 Y104.425 E2.11512
G1 X91.694 Y105.025 E2.14017
G1 E0.14017 F2400.00000
G92 E0
G1 X96.483 Y104.174 F7800.000
G1 E2.00000 F2400.00000
G1 F4800
G1 X102.788 Y97.868 E2.26347
G1 X102.492 Y97.930 E2.27240
G1 X102.021 Y97.979 E2.28639
G1 X95.821 Y104.179 E2.54546
G1 X95.215 Y104.129 E2.56343
G1 X101.285 Y98.059 E2.81706
G1 X100.622 Y98.066 E2.83666
G1 X94.641 Y104.046 E3.08655
G1 X94.093 Y103.938 E3.10306
G1 X99.963 Y98.068 E3.34835
G1 X99.281 Y98.094 E3.36853
G1 X93.572 Y103.803 E3.60709
G1 X93.062 Y103.656 E3.62275
G1 X98.575 Y98.144 E3.85309
G1 X97.834 Y98.228 E3.87512
G1 X92.556 Y103.505 E4.09563
G1 X92.365 Y103.443 E4.10160
G1 X92.018 Y103.388 E4.11198
G1 X97.046 Y98.360 E4.32207
G1 X96.704 Y98.434 E4.33240
G1 X96.161 Y98.588 E4.34909
G1 X90.767 Y103.982 E4.57448
G1 X90.558 Y103.534 E4.58908
G1 X95.205 Y98.888 E4.78323
G1 X94.299 Y99.138 E4.81100
G1 X90.380 Y103.057 E4.97474
G1 X90.284 Y102.810 E4.98257
G1 X90.103 Y102.677 E4.98920
G1 X93.447 Y99.333 E5.12894
G1 X92.654 Y99.470 E5.15273
G1 X89.652 Y102.471 E5.27814
G1 X89.454 Y102.383 E5.28455
G1 X89.240 Y102.227 E5.29237
G1 X91.965 Y99.503 E5.40620
G1 X91.950 Y99.503 E5.40664
G1 X91.758 Y99.196 E5.41734
G1 X91.741 Y99.070 E5.42109
G1 X88.880 Y101.931 E5.54064
G1 X88.524 Y101.631 E5.55440
G1 X91.905 Y98.249 E5.69570
G1 X92.338 Y97.161 E5.73031
G1 X91.527 Y97.972 E5.76420
G1 X91.626 Y97.731 E5.77191
G1 X91.646 Y97.527 E5.77795
G1 X91.784 Y97.143 E5.79002
G1 X91.855 Y96.987 E5.79509
G1 X92.771 Y96.071 E5.83336
G1 X92.890 Y95.789 E5.84239
G1 X93.117 Y95.069 E5.86471
G1 X92.416 Y95.770 E5.89401
G1 X92.454 Y95.655 E5.89758
G1 X92.510 Y95.277 E5.90886
G1 X92.511 Y95.018 E5.91652
G1 X93.059 Y94.470 E5.93941
G1 X92.962 Y94.139 E5.94961
G1 X92.932 Y93.941 E5.95553
G1 X92.395 Y94.478 E5.97796
G1 X92.216 Y94.001 E5.99301
G1 X92.854 Y93.363 E6.01966
G1 E4.01966 F2400.00000
G92 E0
G1 X99.980 Y94.113 F7800.000
G1 E2.00000 F2400.00000
G1 F4800
G1 X100.305 Y93.788 E2.01358
G1 X100.566 Y93.590 E2.02327
G1 X100.918 Y93.396 E2.03515
G1 X101.608 Y93.142 E2.05686
G1 X99.829 Y94.921 E2.13120
G1 X99.885 Y95.057 E2.13558
G1 X100.064 Y95.341 E2.14549
G1 X103.478 Y91.928 E2.28812
G1 X103.510 Y92.046 E2.29174
G1 X103.525 Y92.221 E2.29695
G1 X103.501 Y92.489 E2.30490
G1 X103.438 Y92.624 E2.30927
G1 X102.791 Y93.271 E2.33632
G1 X102.217 Y92.532 F7800.000
G1 F4800
G1 X103.328 Y91.421 E2.38276
G1 E0.38276 F2400.00000
G92 E0
G1 X101.857 Y94.205 F7800.000
G1 E2.00000 F2400.00000
G1 F4800
G1 X100.356 Y95.706 E2.06272
G1 X100.751 Y95.968 E2.07671
G1 X101.927 Y94.792 E2.12585
G1 X102.073 Y95.141 E2.13703
G1 X102.150 Y95.225 E2.14040
G1 X101.174 Y96.200 E2.18116
G1 X101.582 Y96.449 E2.19527
G1 X102.510 Y95.521 E2.23404
G1 X102.884 Y95.602 E2.24534
G1 X103.030 Y95.657 E2.24996
G1 X101.914 Y96.774 E2.29662
G1 X102.210 Y97.133 E2.31040
G1 X103.398 Y95.946 E2.36001
G1 X103.516 Y96.134 E2.36658
G1 X103.547 Y96.328 E2.37238
G1 X103.532 Y96.468 E2.37655
G1 X102.487 Y97.513 E2.42021
G1 X102.701 Y97.682 E2.42826
G1 X102.684 Y97.973 E2.43687
G1 X103.090 Y97.566 E2.45386
G1 X103.103 Y97.778 E2.46011
G1 X103.306 Y97.867 E2.46666
G1 X103.381 Y97.932 E2.46958
G1 X97.218 Y104.095 E2.72709
G1 X97.763 Y103.978 E2.74357
G1 X98.105 Y103.864 E2.75422
G1 X103.947 Y98.022 E2.99830
G1 X104.455 Y98.170 E3.01395
G1 X99.206 Y103.419 E3.23328
G1 X99.698 Y103.193 E3.24928
G1 X100.352 Y102.828 E3.27138
G1 X100.521 Y102.760 E3.27679
G1 X104.953 Y98.328 E3.46198
G1 X105.479 Y98.459 E3.47798
G1 X101.661 Y102.277 E3.63751
G1 X101.963 Y102.127 E3.64748
G1 X102.305 Y102.032 E3.65796
G1 X102.437 Y102.157 E3.66335
G1 X106.024 Y98.570 E3.81324
G1 X106.553 Y98.698 E3.82931
G1 X105.853 Y99.398 E3.85856
G1 E1.85856 F2400.00000
G92 E0
G1 X103.554 Y101.697 F7800.000
G1 E2.00000 F2400.00000
G1 F4800
G1 X102.461 Y102.790 E2.04566
G1 X102.407 Y103.146 E2.05631
G1 X102.254 Y103.653 E2.07194
G1 X103.531 Y102.376 E2.12527
G1 X103.515 Y102.694 E2.13466
G1 X103.482 Y102.911 E2.14114
G1 X103.401 Y103.163 E2.14897
G1 X100.884 Y105.679 E2.25412
G1 X100.837 Y105.825 E2.25864
G1 X100.846 Y105.999 E2.26379
G1 X100.884 Y106.136 E2.26799
G1 X100.988 Y106.232 E2.27218
G1 X102.943 Y104.277 E2.35386
G1 X102.938 Y104.665 E2.36531
G1 X102.968 Y104.908 E2.37255
G1 X101.785 Y106.092 E2.42201
G1 X103.081 Y105.325 F7800.000
G1 F1200
G1 X103.406 Y105.000 E2.43613
G1 X103.824 Y105.216 E2.45058
G1 X102.805 Y106.235 E2.49484
G1 X103.024 Y106.278 E2.50171
G1 X103.296 Y106.378 E2.51059
G1 X104.173 Y105.501 E2.54870
G1 X104.249 Y105.849 E2.55967
G1 X104.482 Y105.825 E2.56686
G1 X103.653 Y106.654 E2.60284
G1 X103.834 Y106.855 E2.61116
G1 X103.931 Y107.010 E2.61676
G1 X105.039 Y105.901 E2.66491
G1 X105.081 Y106.063 E2.67005
G1 X104.860 Y106.715 E2.69119
G1 X104.534 Y107.040 E2.70532
G1 X104.306 Y106.001 F7800.000
G1 F1200
G1 X104.907 Y105.400 E2.73146
G1 X104.887 Y105.352 E2.73305
G1 X104.299 Y105.374 E2.75114
G1 X103.874 Y105.800 E2.76962
G1 X103.845 Y105.810 E2.77057
G1 X103.848 Y105.826 E2.77107
G1 E0.77107 F2400.00000
G92 E0
G1 X102.002 Y102.996 F7800.000
G1 E2.00000 F2400.00000
G1 F1200
G1 X102.327 Y102.671 E2.01412
G1 X102.406 Y102.210 E2.02850
G1 X101.988 Y102.412 E2.04277
G1 X101.605 Y102.794 E2.05939
G1 X100.569 Y103.232 E2.09396
G1 X100.963 Y102.839 E2.11107
G1 X100.856 Y102.881 E2.11459
G1 X100.212 Y103.240 E2.13724
G1 X99.749 Y103.454 E2.15293
G1 X99.352 Y103.850 E2.17014
G1 X99.067 Y103.982 E2.17980
G1 X98.330 Y104.274 E2.20417
G1 X98.723 Y103.881 E2.22125
G1 X98.206 Y104.054 E2.23801
G1 X97.878 Y104.128 E2.24833
G1 X97.491 Y104.515 E2.26515
G1 X97.125 Y104.590 E2.27662
G1 X96.790 Y104.618 E2.28697
G1 X97.166 Y104.242 E2.30330
G1 X96.533 Y104.276 E2.32277
G1 X96.154 Y104.655 E2.33922
G1 X95.574 Y104.637 E2.35706
G1 X95.948 Y104.262 E2.37333
G1 X95.404 Y104.208 E2.39013
G1 X95.032 Y104.580 E2.40629
G1 X94.515 Y104.499 E2.42237
G1 X94.883 Y104.131 E2.43835
G1 X94.382 Y104.033 E2.45403
G1 X94.019 Y104.396 E2.46977
G1 X93.549 Y104.268 E2.48476
G1 X93.902 Y103.915 E2.50012
G1 X93.438 Y103.781 E2.51498
G1 X93.078 Y104.140 E2.53061
G1 X92.708 Y104.040 E2.54240
G1 X92.572 Y104.048 E2.54659
G1 X92.973 Y103.647 E2.56404
G1 X92.611 Y103.532 E2.57572
G1 X92.506 Y103.516 E2.57899
G1 X92.181 Y103.841 E2.59310
G1 X92.848 Y104.984 F7800.000
G1 F1200
G1 X92.429 Y105.402 E2.61128
G1 X91.688 Y105.526 F7800.000
G1 F1200
G1 X92.013 Y105.201 E2.62540
G1 X92.220 Y105.235 E2.63183
G1 X92.263 Y105.272 E2.63359
G1 X92.419 Y105.322 E2.63861
G1 X92.470 Y105.362 E2.64060
G1 X91.973 Y105.859 E2.66219
G1 X92.206 Y106.243 E2.67602
G1 X93.059 Y105.391 E2.71307
G1 X93.261 Y105.725 E2.72507
G1 X93.290 Y105.777 E2.72691
G1 X92.409 Y106.659 E2.76523
G1 X92.528 Y106.903 E2.77359
G1 X92.627 Y107.058 E2.77924
G1 X93.514 Y106.171 E2.81778
G1 X93.527 Y106.194 E2.81857
G1 X93.672 Y106.631 E2.83274
G1 X92.868 Y107.435 E2.86765
G1 X93.110 Y107.812 E2.88139
G1 X93.803 Y107.118 E2.91151
G1 X93.981 Y107.558 E2.92609
G1 X93.334 Y108.205 E2.95422
G1 X93.488 Y108.525 E2.96514
G1 X93.520 Y108.637 E2.96871
G1 X94.172 Y107.985 E2.99705
G1 X94.399 Y108.376 E3.01094
G1 X93.526 Y109.249 E3.04887
G1 X93.515 Y109.301 E3.05052
G1 X93.521 Y109.385 E3.05310
G1 X93.555 Y109.443 E3.05516
G1 X93.739 Y109.654 E3.06376
G1 X94.583 Y108.810 E3.10044
G1 X94.534 Y109.467 E3.12067
G1 X94.170 Y109.840 E3.13669
G1 E1.13669 F2400.00000
G92 E0
G1 X89.953 Y103.108 F7800.000
G1 E2.00000 F2400.00000
G1 F1200
G1 X90.278 Y102.783 E2.01412
G1 X90.262 Y102.744 E2.01541
G1 X89.855 Y102.549 E2.02927
G1 X89.506 Y102.898 E2.04442
G1 X89.262 Y102.784 E2.05269
G1 X89.097 Y102.652 E2.05921
G1 X89.426 Y102.323 E2.07351
G1 X89.061 Y102.031 E2.08785
G1 X88.732 Y102.360 E2.10214
G1 X88.381 Y102.055 E2.11643
G1 X88.705 Y101.731 E2.13055
G1 X88.111 Y101.822 F7800.000
G1 F1200
G1 X88.436 Y101.497 E2.14466
G1 X88.098 Y101.230 E2.15789
G1 X87.765 Y101.563 E2.17235
G1 X87.635 Y101.472 E2.17724
G1 X87.363 Y101.360 E2.18627
G1 X87.715 Y101.008 E2.20156
G1 X87.278 Y100.840 E2.21594
G1 X86.919 Y101.199 E2.23156
G1 X86.442 Y101.071 E2.24673
G1 X86.806 Y100.707 E2.26254
G1 X86.407 Y100.614 E2.27513
G1 X86.311 Y100.598 E2.27813
G1 X85.941 Y100.967 E2.29418
G1 X85.410 Y100.893 E2.31065
G1 X85.784 Y100.519 E2.32689
G1 X85.222 Y100.476 E2.34422
G1 X84.847 Y100.851 E2.36050
G1 X84.490 Y100.838 E2.37149
G1 X84.269 Y100.824 E2.37828
G1 X84.651 Y100.443 E2.39485
G1 X84.077 Y100.411 E2.41250
G1 X83.719 Y100.769 E2.42807
G1 X83.494 Y100.702 E2.43530
G1 X83.282 Y100.602 E2.44250
G1 X83.620 Y100.263 E2.45721
G1 X83.245 Y100.034 E2.47073
G1 X82.920 Y100.359 E2.48485
G1 E0.48485 F2400.00000
G92 E0
G1 X88.177 Y98.485 F7800.000
G1 E2.00000 F2400.00000
G1 F1200
G1 X87.849 Y98.814 E2.01427
G1 X88.190 Y99.048 E2.02700
G1 X88.287 Y99.084 E2.03017
G1 X88.640 Y98.731 E2.04550
G1 X89.160 Y98.920 E2.06250
G1 X88.804 Y99.276 E2.07799
G1 X89.089 Y99.371 E2.08722
G1 X89.362 Y99.427 E2.09579
G1 X89.714 Y99.075 E2.11107
G1 X90.017 Y99.129 E2.12054
G1 X90.352 Y99.146 E2.13083
G1 X90.026 Y99.472 E2.14499
G1 E0.14499 F2400.00000
G92 E0
G1 X92.220 Y98.656 F7800.000
G1 E2.00000 F2400.00000
G1 F1200
G1 X91.895 Y98.981 E2.01412
G1 X91.827 Y99.315 E2.02458
G1 X91.853 Y99.404 E2.02743
G1 X92.074 Y99.412 E2.03422
G1 X92.508 Y98.978 E2.05307
G1 X92.785 Y98.977 E2.06159
G1 X93.191 Y98.904 E2.07427
G1 X92.803 Y99.292 E2.09111
G1 X93.577 Y99.127 E2.11541
G1 X93.966 Y98.738 E2.13233
G1 X94.789 Y98.524 E2.15844
G1 X94.398 Y98.915 E2.17540
G1 X94.701 Y98.831 E2.18506
G1 X95.272 Y98.650 E2.20346
G1 X95.663 Y98.259 E2.22045
G1 X96.528 Y98.004 E2.24815
G1 X96.138 Y98.393 E2.26508
G1 X96.926 Y98.214 E2.28990
G1 X97.311 Y97.829 E2.30665
G1 X98.008 Y97.741 E2.32824
G1 X97.632 Y98.117 E2.34460
G1 X98.313 Y98.045 E2.36566
G1 X98.696 Y97.663 E2.38226
G1 X99.342 Y97.625 E2.40217
G1 X98.968 Y98.000 E2.41846
G1 X99.601 Y97.975 E2.43795
G1 X99.979 Y97.598 E2.45433
G1 X100.587 Y97.599 E2.47301
G1 X100.211 Y97.975 E2.48934
G1 X100.790 Y97.979 E2.50714
G1 X100.818 Y97.977 E2.50800
G1 X101.204 Y97.591 E2.52475
G1 X101.600 Y97.560 E2.53697
G1 X101.900 Y97.503 E2.54636
G1 X101.495 Y97.909 E2.56396
G1 X101.935 Y97.468 F7800.000
G1 F1200
G1 X101.863 Y97.368 E2.56778
G1 X101.907 Y97.497 E2.57198
G1 X102.260 Y97.144 E2.58735
G1 X102.419 Y97.379 E2.59608
G1 X102.522 Y97.491 E2.60075
G1 X102.197 Y97.816 E2.61487
G1 X103.694 Y97.246 F7800.000
G1 F1200
G1 X103.369 Y97.571 E2.62899
G1 X103.316 Y97.682 E2.63278
G1 X103.191 Y97.828 E2.63867
G1 X103.249 Y97.871 E2.64092
G1 X103.625 Y97.923 E2.65257
G1 X103.992 Y97.556 E2.66850
G1 X104.457 Y97.699 E2.68346
G1 X104.104 Y98.052 E2.69880
G1 X104.569 Y98.196 E2.71374
G1 X104.923 Y97.841 E2.72913
G1 X105.406 Y97.966 E2.74447
G1 X105.044 Y98.329 E2.76022
G1 X105.545 Y98.436 E2.77596
G1 X105.913 Y98.068 E2.79195
G1 X106.400 Y98.190 E2.80737
G1 X106.040 Y98.549 E2.82298
G1 X106.522 Y98.676 E2.83827
G1 X106.878 Y98.320 E2.85375
G1 X107.342 Y98.463 E2.86869
G1 X106.985 Y98.821 E2.88424
G1 X107.114 Y98.869 E2.88849
G1 X107.134 Y98.905 E2.88976
G1 X107.413 Y99.001 E2.89882
G1 X107.807 Y98.607 E2.91596
G1 X108.275 Y98.748 E2.93096
G1 X107.879 Y99.144 E2.94817
G1 X107.847 Y99.784 F7800.000
G1 F1200
G1 X108.299 Y99.940 E2.96286
G1 X108.781 Y99.458 E2.98382
G1 X109.067 Y99.643 E2.99429
G1 X109.172 Y99.675 E2.99766
G1 X108.743 Y100.104 E3.01632
G1 X109.229 Y100.227 F7800.000
G1 F1200
G1 X109.950 Y99.506 E3.04766
G1 X110.521 Y99.543 F7800.000
G1 F1200
G1 X109.943 Y100.121 E3.07278
G1 E1.07278 F2400.00000
G92 E0
G1 X106.354 Y99.452 F7800.000
G1 E2.00000 F2400.00000
G1 F1200
G1 X105.972 Y99.834 E2.01659
G1 X106.435 Y99.691 E2.03148
G1 X106.774 Y99.640 E2.04200
G1 X107.176 Y99.239 E2.05947
G1 X107.785 Y99.238 E2.07818
G1 X107.348 Y99.675 E2.09717
G1 X107.556 Y99.701 E2.10361
G1 X107.847 Y99.784 E2.11292
G1 X108.742 Y98.889 E2.15177
G1 X108.917 Y98.949 E2.15748
G1 X109.239 Y99.000 E2.16749
G1 X108.773 Y99.466 E2.18773
G1 X109.141 Y99.547 E2.19930
G1 X109.146 Y99.701 E2.20405
G1 X109.802 Y99.045 E2.23256
G1 X110.502 Y98.953 E2.25425
G1 X109.943 Y99.512 E2.27852
G1 X109.966 Y99.514 E2.27923
G1 X110.196 Y99.867 E2.29219
G1 X111.577 Y98.487 E2.35218
G1 X111.847 Y98.326 E2.36185
G1 X113.128 Y97.447 E2.40957
G1 X113.337 Y97.335 E2.41685
G1 X112.264 Y98.408 E2.46348
G1 X112.878 Y98.052 E2.48529
G1 X113.469 Y97.812 E2.50490
G1 X114.436 Y96.845 E2.54691
G1 X114.952 Y96.725 E2.56318
G1 X115.175 Y96.714 E2.57005
G1 X114.244 Y97.645 E2.61052
G1 X114.615 Y97.600 E2.62202
G1 X114.891 Y97.606 E2.63051
G1 X115.798 Y96.699 E2.66990
G1 X115.931 Y96.733 E2.67411
G1 X116.214 Y96.891 E2.68408
G1 X115.463 Y97.642 E2.71669
G1 X115.953 Y97.761 E2.73216
G1 X116.581 Y97.132 E2.75948
G1 X116.935 Y97.387 E2.77287
G1 X116.372 Y97.950 E2.79734
G1 X116.734 Y98.196 E2.81080
G1 X117.264 Y97.667 E2.83380
G1 X117.590 Y97.949 E2.84705
G1 X117.065 Y98.473 E2.86985
G1 X117.376 Y98.771 E2.88307
G1 X117.898 Y98.249 E2.90574
G1 X118.210 Y98.545 E2.91896
G1 X117.710 Y99.046 E2.94070
G1 X118.055 Y99.308 E2.95404
G1 X118.501 Y98.863 E2.97339
G1 X118.675 Y99.045 E2.98114
G1 X118.776 Y99.196 E2.98672
G1 X118.451 Y99.521 E3.00084
G1 E1.00084 F2400.00000
G92 E0
G1 X103.284 Y91.377 F7800.000
G1 E2.00000 F2400.00000
G1 F1200
G1 X103.609 Y91.052 E2.01412
G1 X103.616 Y90.915 E2.01833
G1 X103.673 Y90.734 E2.02416
G1 X103.609 Y90.768 E2.02638
G1 X103.305 Y90.741 E2.03574
G1 X102.960 Y91.086 E2.05072
G1 X102.651 Y91.055 E2.06027
G1 X102.492 Y91.113 E2.06547
G1 X102.594 Y90.838 E2.07451
G1 X102.919 Y90.513 E2.08863
G1 E0.08863 F2400.00000
G92 E0
G1 X92.924 Y93.217 F7800.000
G1 E2.00000 F2400.00000
G1 F1200
G1 X93.249 Y92.892 E2.01412
G1 X93.328 Y92.622 E2.02275
G1 X93.329 Y92.593 E2.02366
G1 X93.260 Y92.512 E2.02693
G1 X93.146 Y92.441 E2.03103
G1 X93.074 Y92.359 E2.03441
G1 X92.623 Y92.809 E2.05398
G1 X92.329 Y92.724 E2.06339
G1 X92.113 Y92.854 E2.07114
G1 X91.959 Y93.065 E2.07915
G1 X91.981 Y92.743 E2.08907
G1 X92.354 Y92.369 E2.10530
G1 E0.10530 F2400.00000
G92 E0
G1 X84.482 Y93.752 F7800.000
G1 E2.00000 F2400.00000
G1 F1200
G1 X84.807 Y93.428 E2.01412
G1 X84.619 Y93.271 E2.02165
G1 X84.395 Y93.131 E2.02976
G1 X84.063 Y93.463 E2.04418
G1 X83.930 Y93.386 E2.04890
G1 X84.070 Y93.456 E2.05370
G1 E0.05370 F2400.00000
G92 E0
G1 X104.499 Y94.011 F7800.000
G1 E2.00000 F2400.00000
G1 F1200
G1 X104.467 Y93.984 E2.00147
G1 X104.466 Y94.043 E2.00359
G1 X104.823 Y93.686 E2.02153
G1 X104.960 Y93.812 E2.02812
G1 X105.026 Y93.919 E2.03257
G1 X105.045 Y94.079 E2.03828
G1 X105.014 Y94.204 E2.04287
G1 X104.688 Y94.530 E2.05921
M106 S237.15
G1 Z1.800 F7800.000
G1 E0.05921 F2400.00000
G92 E0
G1 X105.303 Y99.396 F7800.000
G1 E2.00000 F2400.00000
G1 F4800
G1 X104.739 Y98.832 E2.02359
G1 X103.805 Y98.554 E2.05236
G1 X104.924 Y99.673 E2.09909
G1 X104.561 Y99.967 E2.11288
G1 X103.017 Y98.423 E2.17740
G1 X102.341 Y98.403 E2.19739
G1 X104.204 Y100.266 E2.27524
G1 X103.854 Y100.573 E2.28899
G1 X101.732 Y98.450 E2.37766
G1 X101.144 Y98.519 E2.39515
G1 X103.510 Y100.884 E2.49399
G1 X103.408 Y100.970 E2.49793
G1 X103.118 Y101.149 E2.50799
G1 X100.507 Y98.538 E2.61710
G1 X99.850 Y98.537 E2.63650
G1 X102.705 Y101.392 E2.75580
G1 X102.280 Y101.623 E2.77010
G1 X99.211 Y98.554 E2.89833
G1 X98.592 Y98.592 E2.91664
G1 X101.844 Y101.844 E3.05249
G1 X101.389 Y102.046 E3.06718
G1 X97.990 Y98.647 E3.20920
G1 X97.405 Y98.717 E3.22663
G1 X100.926 Y102.238 E3.37375
G1 X100.468 Y102.437 E3.38850
G1 X96.842 Y98.811 E3.53999
G1 X96.309 Y98.934 E3.55616
G1 X100.046 Y102.672 E3.71232
G1 X99.605 Y102.887 E3.72683
G1 X95.802 Y99.084 E3.88575
G1 X95.300 Y99.238 E3.90126
G1 X99.156 Y103.094 E4.06236
G1 X98.688 Y103.283 E4.07725
G1 X94.799 Y99.393 E4.23978
G1 X94.284 Y99.535 E4.25555
G1 X98.202 Y103.453 E4.41926
G1 X97.682 Y103.589 E4.43513
G1 X93.760 Y99.667 E4.59904
G1 X93.225 Y99.788 E4.61525
G1 X97.115 Y103.678 E4.77778
G1 X96.883 Y103.696 E4.78467
G1 X96.491 Y103.711 E4.79625
G1 X92.669 Y99.889 E4.95593
G1 X92.103 Y99.979 E4.97287
G1 X95.805 Y103.682 E5.12756
G1 X95.050 Y103.583 E5.15006
G1 X91.514 Y100.047 E5.29781
G1 X91.306 Y100.057 E5.30396
G1 X91.273 Y100.039 E5.30508
G1 X91.034 Y100.028 E5.31214
G1 X90.913 Y99.930 E5.31675
G1 X90.782 Y99.902 E5.32070
G1 X90.727 Y99.916 E5.32239
G1 X94.221 Y103.410 E5.46840
G1 X93.302 Y103.148 E5.49663
G1 X90.235 Y100.080 E5.62480
G1 X89.546 Y100.048 E5.64517
G1 X92.344 Y102.846 E5.76207
G1 X91.871 Y102.715 E5.77657
G1 X91.710 Y102.651 E5.78168
G1 X91.564 Y102.662 E5.78601
G1 X91.473 Y102.631 E5.78885
G1 X88.673 Y99.831 E5.90585
G1 X87.893 Y99.542 E5.93043
G1 X87.444 Y99.245 E5.94634
G1 X87.142 Y98.956 E5.95867
G1 X90.324 Y102.138 E6.09161
G1 X89.974 Y101.983 E6.10289
G1 X89.841 Y101.901 E6.10752
G1 X88.736 Y100.975 E6.15011
G1 X88.158 Y100.574 E6.17091
G1 X88.065 Y100.536 E6.17388
G1 X81.654 Y94.124 E6.44177
G1 X81.541 Y94.242 E6.44660
G1 X81.394 Y94.521 E6.45590
G1 X87.058 Y100.185 E6.69260
G1 X86.226 Y100.009 E6.71775
G1 X81.338 Y95.121 E6.92199
G1 X81.357 Y95.379 E6.92964
G1 X81.433 Y95.873 E6.94440
G1 X85.492 Y99.931 E7.11398
G1 X84.788 Y99.884 E7.13481
G1 X81.372 Y96.468 E7.27755
G1 X81.379 Y96.708 E7.28465
G1 X81.441 Y97.068 E7.29543
G1 X81.351 Y97.090 E7.29816
G1 X81.355 Y97.108 E7.29870
G1 X84.056 Y99.808 E7.41153
G1 X83.872 Y99.743 E7.41728
G1 X83.610 Y99.563 E7.42667
G1 X83.387 Y99.362 E7.43554
G1 X82.812 Y98.709 E7.46126
G1 X82.739 Y98.715 E7.46343
G1 X82.693 Y98.682 E7.46512
G1 X82.491 Y98.670 E7.47108
G1 X82.278 Y98.501 E7.47911
G1 X82.064 Y98.220 E7.48956
G1 X82.002 Y98.259 E7.49172
G1 X81.871 Y98.015 E7.49989
G1 X81.742 Y97.673 E7.51071
G1 X81.680 Y97.433 E7.51803
G1 E5.51803 F2400.00000
G92 E0
G1 X81.654 Y94.124 F7800.000
G1 E2.00000 F2400.00000
G1 F4800
G1 X81.914 Y93.855 E2.01107
G1 X81.958 Y93.773 E2.01382
G1 X87.345 Y99.159 E2.23888
G1 X86.915 Y98.598 E2.25977
G1 X86.532 Y97.945 E2.28213
G1 X86.277 Y97.435 E2.29898
G1 X82.215 Y93.373 E2.46872
G1 X82.312 Y93.286 E2.47257
G1 X82.460 Y93.205 E2.47756
G1 X82.666 Y93.167 E2.48374
G1 X85.584 Y96.085 E2.60568
G1 E0.60568 F2400.00000
G92 E0
G1 X88.027 Y99.237 F7800.000
G1 E2.00000 F2400.00000
G1 F1200
G1 X88.037 Y99.247 E2.00040
G1 X87.671 Y98.881 E2.01598
G1 X88.001 Y99.098 E2.02788
G1 X88.776 Y99.383 E2.05275
G1 X89.163 Y99.770 E2.06924
G1 X89.422 Y99.855 E2.07745
G1 X89.959 Y99.964 E2.09398
G1 X89.564 Y99.569 E2.11081
G1 X90.126 Y99.614 E2.12781
G1 X90.172 Y99.575 E2.12961
G1 X90.592 Y99.987 E2.14734
G1 X90.902 Y99.848 E2.15757
G1 X91.018 Y99.818 E2.16118
G1 X90.473 Y99.273 E2.18441
G1 X90.764 Y98.962 E2.19725
G1 X91.761 Y99.959 E2.23973
G1 X92.304 Y99.900 E2.25618
G1 X91.911 Y99.506 E2.27295
G1 X92.066 Y99.512 E2.27762
G1 X92.457 Y99.450 E2.28956
G1 X92.825 Y99.818 E2.30523
G1 X93.338 Y99.729 E2.32094
G1 X92.970 Y99.361 E2.33663
G1 X93.469 Y99.257 E2.35198
G1 X93.833 Y99.622 E2.36752
G1 X94.320 Y99.506 E2.38258
G1 X93.956 Y99.142 E2.39808
G1 X94.430 Y99.014 E2.41289
G1 X94.793 Y99.376 E2.42832
G1 X95.260 Y99.241 E2.44297
G1 X94.901 Y98.882 E2.45825
G1 X95.363 Y98.742 E2.47280
G1 X95.718 Y99.097 E2.48791
G1 X96.178 Y98.955 E2.50242
G1 X95.826 Y98.602 E2.51745
G1 X96.288 Y98.462 E2.53200
G1 X96.648 Y98.822 E2.54734
G1 X97.142 Y98.714 E2.56259
G1 X96.776 Y98.348 E2.57821
G1 X96.970 Y98.305 E2.58419
G1 X97.295 Y98.264 E2.59405
G1 X97.661 Y98.630 E2.60965
G1 X98.198 Y98.565 E2.62595
G1 X97.829 Y98.196 E2.64166
G1 X98.371 Y98.135 E2.65808
G1 X98.746 Y98.511 E2.67409
G1 X99.309 Y98.471 E2.69109
G1 X98.933 Y98.095 E2.70710
G1 X99.512 Y98.071 E2.72455
G1 X99.890 Y98.449 E2.74064
G1 X100.489 Y98.446 E2.75870
G1 X100.112 Y98.070 E2.77473
G1 X100.717 Y98.072 E2.79294
G1 X101.095 Y98.450 E2.80904
G1 X101.156 Y98.451 E2.81089
G1 X101.652 Y98.405 E2.82591
G1 X101.278 Y98.031 E2.84185
G1 X101.815 Y97.966 E2.85815
G1 X102.187 Y98.337 E2.87400
G1 X102.392 Y98.312 E2.88021
G1 X102.762 Y98.310 E2.89135
G1 X102.338 Y97.886 E2.90940
G1 X102.675 Y97.850 E2.91960
G1 X102.685 Y97.630 E2.92625
G1 X103.100 Y98.045 E2.94394
G1 X103.077 Y97.680 E2.95496
G1 X103.202 Y97.545 E2.96050
G1 X99.783 Y94.126 E3.10622
G1 X99.857 Y93.925 E3.11267
G1 X100.019 Y93.759 E3.11963
G1 X103.423 Y97.163 E3.26467
G1 X103.502 Y96.944 E3.27169
G1 X103.541 Y96.679 E3.27975
G1 X102.768 Y95.906 E3.31268
G1 X102.484 Y95.837 E3.32151
G1 X102.391 Y95.782 E3.32476
G1 X102.115 Y95.516 E3.33631
G1 X102.073 Y95.466 E3.33829
G1 X101.907 Y95.045 E3.35190
G1 X100.378 Y93.516 E3.41706
G1 X100.593 Y93.396 E3.42449
G1 X100.785 Y93.321 E3.43069
G1 X100.962 Y93.498 E3.43826
G1 X101.253 Y93.559 E3.44721
G1 X101.386 Y93.826 E3.45619
G1 X101.325 Y93.861 E3.45831
G1 X101.864 Y94.400 E3.48126
G1 X101.872 Y94.234 E3.48626
G1 X101.965 Y93.898 E3.49677
G1 X101.225 Y93.158 E3.52829
G1 X101.338 Y93.125 E3.53185
G1 X101.577 Y93.010 E3.53983
G1 X101.633 Y92.964 E3.54202
G1 X102.236 Y93.567 E3.56772
G1 X102.285 Y93.513 E3.56991
G1 X102.693 Y93.422 E3.58253
G1 X101.948 Y92.677 E3.61428
G1 X102.119 Y92.438 E3.62313
G1 X102.177 Y92.303 E3.62756
G1 X103.135 Y93.261 E3.66838
G1 X103.204 Y93.229 E3.67067
G1 X103.407 Y93.015 E3.67956
G1 X103.434 Y92.958 E3.68147
G1 X102.330 Y91.853 E3.72854
G1 X102.411 Y91.506 E3.73929
G1 X102.467 Y91.388 E3.74321
G1 X103.514 Y92.436 E3.78785
G1 X103.202 Y91.521 F7800.000
G1 F1200
G1 X102.877 Y91.196 E3.80170
G1 E1.80170 F2400.00000
G92 E0
G1 X100.065 Y95.010 F7800.000
G1 E2.00000 F2400.00000
G1 F1200
G1 X100.934 Y95.880 E2.03705
G1 E0.03705 F2400.00000
G92 E0
G1 X102.875 Y97.820 F7800.000
G1 E2.00000 F2400.00000
G1 F1200
G1 X103.386 Y98.332 E2.02181
G1 X104.099 Y98.442 E2.04352
G1 X103.700 Y98.043 E2.06050
G1 X104.571 Y98.312 E2.08797
G1 X104.956 Y98.696 E2.10436
G1 X105.457 Y99.800 F7800.000
G1 F1200
G1 X105.122 Y100.050 E2.11695
G1 X105.463 Y99.805 E2.12957
G1 X105.132 Y99.475 E2.14364
G1 X105.463 Y99.203 E2.15654
G1 X105.835 Y99.575 E2.17241
G1 X106.233 Y99.371 E2.18589
G1 X105.362 Y98.501 E2.22298
G1 X106.151 Y98.687 E2.24739
G1 X106.700 Y99.236 E2.27079
G1 X105.055 Y100.105 F7800.000
G1 F1200
G1 X104.730 Y99.780 E2.28463
G1 X104.398 Y100.053 E2.29757
G1 X104.726 Y100.381 E2.31154
G1 X104.486 Y100.586 E2.32105
G1 X104.400 Y100.659 E2.32446
G1 X104.068 Y100.327 E2.33861
G1 X103.749 Y100.612 E2.35150
G1 X104.076 Y100.939 E2.36543
G1 X103.757 Y101.225 E2.37833
G1 X103.432 Y100.900 E2.39221
G1 X103.321 Y100.990 E2.39650
G1 X103.071 Y101.143 E2.40535
G1 X103.546 Y101.618 E2.42558
G1 X103.520 Y101.674 E2.42744
G1 X103.555 Y101.940 E2.43553
G1 X103.547 Y102.224 E2.44407
G1 X102.694 Y101.371 E2.48043
G1 X102.306 Y101.587 E2.49382
G1 X103.525 Y102.806 E2.54578
G1 X103.515 Y103.019 E2.55219
G1 X103.451 Y103.336 E2.56195
G1 X102.479 Y102.364 E2.60337
G1 X102.390 Y102.879 E2.61912
G1 X103.274 Y103.764 E2.65681
G1 X103.085 Y104.179 E2.67055
G1 X102.253 Y103.347 E2.70599
G1 X102.158 Y103.601 E2.71416
G1 X102.071 Y103.769 E2.71987
G1 X102.942 Y104.640 E2.75699
G1 X102.939 Y104.989 E2.76748
G1 X102.972 Y105.275 E2.77616
G1 X101.838 Y104.141 E2.82449
G1 X101.566 Y104.473 E2.83742
G1 X102.891 Y105.798 E2.89390
G1 X102.858 Y105.858 E2.89598
G1 X102.799 Y105.894 E2.89804
G1 X102.485 Y105.996 E2.90800
G1 X101.281 Y104.792 E2.95931
G1 X101.103 Y104.980 E2.96710
G1 X101.014 Y105.130 E2.97236
G1 X102.009 Y106.125 E3.01474
G1 X101.549 Y106.269 E3.02926
G1 X100.840 Y105.561 E3.05946
G1 E1.05946 F2400.00000
G92 E0
G1 X102.257 Y102.142 F7800.000
G1 E2.00000 F2400.00000
G1 F1200
G1 X101.907 Y101.792 E2.01492
G1 X101.498 Y101.988 E2.02856
G1 X101.850 Y102.340 E2.04356
G1 X101.424 Y102.518 E2.05749
G1 X101.076 Y102.170 E2.07229
G1 X100.646 Y102.345 E2.08627
G1 X100.997 Y102.695 E2.10121
G1 X100.579 Y102.882 E2.11499
G1 X100.236 Y102.538 E2.12964
G1 X99.848 Y102.755 E2.14302
G1 X100.191 Y103.099 E2.15766
G1 X100.023 Y103.193 E2.16348
G1 X99.789 Y103.300 E2.17124
G1 X99.438 Y102.949 E2.18621
G1 X99.024 Y103.140 E2.19993
G1 X99.375 Y103.491 E2.21489
G1 X98.951 Y103.671 E2.22878
G1 X98.597 Y103.317 E2.24385
G1 X98.152 Y103.476 E2.25810
G1 X98.509 Y103.834 E2.27333
G1 X98.056 Y103.984 E2.28774
G1 X97.690 Y103.619 E2.30331
G1 X97.192 Y103.725 E2.31867
G1 X97.557 Y104.090 E2.33426
G1 X97.024 Y104.162 E2.35046
G1 X96.647 Y103.784 E2.36656
G1 X96.061 Y103.802 E2.38422
G1 X96.440 Y104.182 E2.40041
G1 X96.061 Y104.178 E2.41185
G1 X95.807 Y104.154 E2.41952
G1 X95.425 Y103.771 E2.43582
G1 X94.730 Y103.681 E2.45692
G1 X95.118 Y104.069 E2.47344
G1 X94.423 Y103.939 E2.49473
G1 X94.372 Y103.926 E2.49633
G1 X93.983 Y103.537 E2.51291
G1 X93.147 Y103.306 E2.53903
G1 X93.537 Y103.696 E2.55564
G1 X92.679 Y103.443 E2.58257
G1 X92.280 Y103.044 E2.59957
G1 X91.764 Y102.877 E2.61592
G1 X91.421 Y102.789 E2.62659
G1 X92.162 Y103.530 E2.65814
G1 X92.070 Y103.762 E2.66566
G1 X92.127 Y104.100 E2.67599
G1 X90.667 Y102.639 E2.73823
G1 X90.869 Y102.841 F7800.000
G1 F1200
G1 X90.457 Y102.446 E2.75544
G1 X89.449 Y102.025 E2.78835
G1 X89.810 Y102.387 E2.80374
G1 X89.710 Y102.340 E2.80705
G1 X88.700 Y101.495 E2.84673
G1 X89.439 Y102.118 E2.87585
G1 X89.774 Y102.350 E2.88813
G1 X88.564 Y101.382 F7800.000
G1 F1200
G1 X88.146 Y100.974 E2.90575
G1 X87.634 Y100.619 E2.92451
G1 X87.105 Y100.404 E2.94173
G1 X86.903 Y100.342 E2.94808
G1 X87.292 Y100.730 E2.96464
G1 X86.467 Y100.525 E2.99027
G1 X86.079 Y100.138 E3.00679
G1 X85.361 Y100.040 E3.02861
G1 X85.743 Y100.422 E3.04488
G1 X85.074 Y100.373 E3.06510
G1 X84.691 Y99.991 E3.08139
G1 X84.034 Y99.954 E3.10123
G1 X84.416 Y100.336 E3.11754
G1 X84.137 Y100.321 E3.12598
G1 X83.777 Y100.200 E3.13743
G1 X83.487 Y100.018 E3.14774
G1 X83.026 Y99.567 E3.16716
G1 E1.16716 F2400.00000
G92 E0
G1 X92.235 Y99.831 F7800.000
G1 E2.00000 F2400.00000
G1 F1200
G1 X91.945 Y99.820 E2.00876
G1 X91.758 Y99.521 E2.01940
G1 X91.732 Y99.328 E2.02526
G1 X91.047 Y98.642 E2.05446
G1 X91.276 Y98.269 E2.06766
G1 X91.830 Y98.824 E2.09130
G1 X91.982 Y98.373 E2.10564
G1 X91.450 Y97.840 E2.12832
G1 X91.623 Y97.412 E2.14225
G1 X92.148 Y97.936 E2.16459
G1 X92.326 Y97.512 E2.17844
G1 X91.745 Y96.931 E2.20323
G1 X91.803 Y96.772 E2.20832
G1 X91.939 Y96.523 E2.21688
G1 X92.515 Y97.099 E2.24141
G1 X92.608 Y96.883 E2.24848
G1 X92.672 Y96.653 E2.25568
G1 X92.153 Y96.134 E2.27779
G1 X92.324 Y95.703 E2.29177
G1 X92.844 Y96.223 E2.31393
G1 X93.003 Y95.779 E2.32813
G1 X92.465 Y95.242 E2.35101
G1 X92.510 Y94.955 E2.35975
G1 X92.520 Y94.694 E2.36761
G1 X93.132 Y95.306 E2.39368
G1 X93.139 Y95.282 E2.39444
G1 X93.120 Y95.038 E2.40182
G1 X92.993 Y94.564 E2.41659
G1 X92.277 Y93.849 E2.44708
G1 X92.174 Y93.513 E2.45767
G1 X92.230 Y93.199 E2.46728
G1 X92.857 Y93.827 E2.49403
G1 E0.49403 F2400.00000
G92 E0
G1 X91.363 Y104.544 F7800.000
G1 E2.00000 F2400.00000
G1 F1200
G1 X91.374 Y104.555 E2.00049
G1 X91.038 Y104.219 E2.01483
G1 X90.985 Y104.136 E2.01780
G1 X90.490 Y103.067 E2.05329
G1 X92.317 Y104.893 E2.13112
M106 S234.6
G1 Z2.300 F7800.000
G1 E0.13112 F2400.00000
G92 E0
G1 X100.974 Y95.395 F7800.000
G1 E2.00000 F2400.00000
G1 F1200
G1 X101.440 Y94.906 E2.02396
G1 X101.474 Y94.507 E2.03813
G1 X101.441 Y94.220 E2.04840
G1 X100.497 Y95.163 E2.09571
G1 X100.432 Y95.064 E2.09992
G1 X100.358 Y94.738 E2.11177
G1 X100.429 Y94.523 E2.11981
G1 X101.070 Y93.882 E2.15195
G1 E0.15195 F2400.00000
G92 E0
G1 X105.125 Y99.268 F7800.000
G1 E2.00000 F2400.00000
G1 F1200
G1 X105.451 Y98.942 E2.01368
G1 X105.307 Y98.889 E2.01824
G1 X104.986 Y98.813 E2.02801
G1 X104.371 Y99.429 E2.05385
G1 X104.199 Y99.344 E2.05953
G1 X104.014 Y99.675 E2.07079
G1 X104.075 Y99.725 E2.07313
G1 X102.442 Y101.358 E2.14168
G1 X102.021 Y101.592 E2.15597
G1 X101.240 Y101.966 E2.18168
G1 X104.525 Y98.681 E2.31955
G1 X104.068 Y98.546 E2.33372
G1 X100.217 Y102.396 E2.49533
G1 X99.603 Y102.738 E2.51620
G1 X99.007 Y103.013 E2.53568
G1 X103.563 Y98.457 E2.72690
G1 X103.370 Y98.424 E2.73270
G1 X103.020 Y98.407 E2.74311
G1 X98.027 Y103.399 E2.95266
G1 X97.507 Y103.559 E2.96881
G1 X97.214 Y103.619 E2.97767
G1 X102.428 Y98.405 E3.19651
G1 X101.750 Y98.490 E3.21680
G1 X96.546 Y103.694 E3.43522
G1 X95.938 Y103.708 E3.45327
G1 X101.103 Y98.543 E3.67004
G1 X100.512 Y98.541 E3.68759
G1 X95.384 Y103.669 E3.90280
G1 X94.857 Y103.602 E3.91856
G1 X99.916 Y98.544 E4.13086
G1 X99.291 Y98.575 E4.14941
G1 X94.356 Y103.510 E4.35656
G1 X93.871 Y103.401 E4.37130
G1 X98.656 Y98.617 E4.57211
G1 X97.995 Y98.685 E4.59184
G1 X93.411 Y103.269 E4.78424
G1 X92.955 Y103.131 E4.79836
G1 X97.305 Y98.781 E4.98091
G1 X96.743 Y98.904 E4.99798
G1 X96.522 Y98.971 E5.00483
G1 X92.500 Y102.992 E5.17363
G1 X92.045 Y102.854 E5.18775
G1 X95.669 Y99.230 E5.33986
G1 X94.832 Y99.474 E5.36571
G1 X91.590 Y102.716 E5.50182
G1 X91.384 Y102.654 E5.50819
G1 X91.239 Y102.662 E5.51250
G1 X91.099 Y102.614 E5.51691
G1 X94.034 Y99.679 E5.64012
G1 X93.280 Y99.840 E5.66301
G1 X90.694 Y102.425 E5.77154
G1 X90.276 Y102.250 E5.78499
G1 X92.566 Y99.960 E5.88110
G1 X91.890 Y100.042 E5.90129
G1 X89.857 Y102.075 E5.98663
G1 X89.649 Y101.983 E5.99337
G1 X89.474 Y101.865 E5.99965
G1 X91.332 Y100.007 E6.07764
G1 X91.238 Y99.930 E6.08125
G1 X91.107 Y99.902 E6.08522
G1 X90.705 Y100.077 E6.09824
G1 X90.668 Y100.078 E6.09933
G1 X89.151 Y101.595 E6.16301
G1 X88.828 Y101.324 E6.17551
G1 X90.087 Y100.066 E6.22834
G1 X89.909 Y100.056 E6.23362
G1 X89.572 Y99.987 E6.24383
G1 X88.505 Y101.054 E6.28862
G1 X88.166 Y100.800 E6.30120
G1 X89.101 Y99.865 E6.34044
G1 X88.661 Y99.711 E6.35427
G1 X88.173 Y100.199 E6.37475
G1 X88.160 Y100.052 E6.37915
G1 X87.688 Y100.090 E6.39320
G1 X88.232 Y99.547 E6.41601
G1 X87.872 Y99.314 E6.42874
G1 X86.943 Y100.242 E6.46773
G1 X86.469 Y100.124 E6.48225
G1 X87.553 Y99.039 E6.52776
G1 X87.365 Y98.861 E6.53544
G1 X87.267 Y98.732 E6.54025
G1 X85.977 Y100.022 E6.59437
G1 X85.452 Y99.953 E6.61008
G1 X87.009 Y98.396 E6.67542
G1 X86.776 Y98.036 E6.68816
G1 X84.902 Y99.910 E6.76683
G1 X84.341 Y99.877 E6.78349
G1 X86.557 Y97.662 E6.87649
G1 X86.354 Y97.272 E6.88954
G1 X83.795 Y99.831 E6.99694
G1 X83.547 Y99.743 E7.00474
G1 X83.388 Y99.644 E7.01030
G1 X86.152 Y96.880 E7.12632
G1 X85.951 Y96.488 E7.13940
G1 X83.070 Y99.368 E7.26031
G1 X82.794 Y99.051 E7.27279
G1 X85.749 Y96.096 E7.39683
G1 X85.548 Y95.704 E7.40991
G1 X82.514 Y98.738 E7.53726
G1 X82.487 Y98.709 E7.53844
G1 X82.414 Y98.715 E7.54062
G1 X82.375 Y98.687 E7.54204
G1 X82.303 Y98.681 E7.54420
G1 X82.324 Y98.546 E7.54824
G1 X82.144 Y98.514 E7.55368
G1 X85.340 Y95.319 E7.68780
G1 X85.112 Y94.953 E7.70058
G1 X81.795 Y98.270 E7.83981
G1 X81.656 Y98.022 E7.84825
G1 X81.600 Y97.872 E7.85300
G1 X84.855 Y94.617 E7.98964
G1 X84.560 Y94.318 E8.00209
G1 X81.454 Y97.425 E8.13248
G1 X81.408 Y97.234 E8.13831
G1 X81.376 Y96.909 E8.14799
G1 X84.233 Y94.052 E8.26790
G1 X84.161 Y93.994 E8.27065
G1 X83.982 Y93.710 E8.28061
G1 X81.442 Y96.250 E8.38724
G1 X81.362 Y95.736 E8.40266
G1 X83.708 Y93.390 E8.50113
G1 X83.660 Y93.347 E8.50305
G1 X83.390 Y93.206 E8.51211
G1 X83.317 Y93.188 E8.51433
G1 X81.332 Y95.173 E8.59764
G1 X81.346 Y94.998 E8.60286
G1 X81.401 Y94.822 E8.60834
G1 X81.541 Y94.568 E8.61694
G1 X81.926 Y94.157 E8.63364
G1 X81.945 Y94.164 E8.63423
G1 X82.065 Y93.892 E8.64306
G1 X82.234 Y93.678 E8.65116
G1 X82.560 Y93.351 E8.66486
G1 E6.66486 F2400.00000
G92 E0
G1 X86.943 Y100.242 F7800.000
G1 E2.00000 F2400.00000
G1 F1200
G1 X87.386 Y100.393 E2.01389
G1 X87.859 Y99.919 E2.03375
G1 X88.198 Y100.174 E2.04632
G1 X87.809 Y100.564 E2.06268
M106 S244.8
G1 Z2.800 F7800.000
G1 X88.747 Y100.377 F7800.000
G1 F1200
G1 X89.074 Y100.705 E2.07643
G1 X89.967 Y101.458 E2.11107
G1 X90.167 Y101.581 E2.11803
G1 X90.795 Y101.833 E2.13811
G1 X90.279 Y101.317 E2.15977
G1 X90.279 Y101.124 E2.16547
G1 X90.392 Y101.087 E2.16901
G1 X90.342 Y100.787 E2.17804
G1 X91.713 Y102.158 E2.23553
G1 X92.583 Y102.435 E2.26261
G1 X90.712 Y100.563 E2.34110
G1 X91.286 Y100.544 E2.35813
G1 X93.443 Y102.701 E2.44861
G1 X94.280 Y102.946 E2.47447
G1 X91.822 Y100.488 E2.57757
G1 X92.347 Y100.420 E2.59328
G1 X95.023 Y103.096 E2.70552
G1 X95.714 Y103.194 E2.72621
G1 X92.853 Y100.333 E2.84621
G1 X93.350 Y100.237 E2.86124
G1 X96.340 Y103.227 E2.98665
G1 X96.918 Y103.212 E3.00378
G1 X93.834 Y100.128 E3.13313
G1 X94.308 Y100.009 E3.14763
G1 X97.455 Y103.156 E3.27964
G1 X97.939 Y103.047 E3.29435
G1 X94.773 Y99.881 E3.42715
G1 X95.232 Y99.747 E3.44133
G1 X98.383 Y102.898 E3.57349
G1 X98.816 Y102.738 E3.58719
G1 X95.686 Y99.608 E3.71847
G1 X96.140 Y99.470 E3.73256
G1 X99.226 Y102.555 E3.86197
G1 X99.635 Y102.372 E3.87528
G1 X96.608 Y99.344 E4.00228
G1 X97.103 Y99.246 E4.01725
G1 X100.030 Y102.173 E4.14002
G1 X100.411 Y101.962 E4.15296
G1 X97.618 Y99.168 E4.27011
G1 X98.147 Y99.104 E4.28592
G1 X100.825 Y101.782 E4.39822
G1 X101.243 Y101.608 E4.41167
G1 X98.695 Y99.059 E4.51856
G1 X99.257 Y99.028 E4.53525
G1 X101.659 Y101.431 E4.63602
G1 X102.051 Y101.230 E4.64908
G1 X99.834 Y99.013 E4.74205
G1 X100.435 Y99.021 E4.75988
G1 X102.440 Y101.026 E4.84398
G1 X102.818 Y100.810 E4.85686
G1 X101.012 Y99.005 E4.93259
G1 X101.550 Y98.950 E4.94863
G1 X103.185 Y100.584 E5.01718
G1 X103.512 Y100.319 E5.02969
G1 X102.077 Y98.884 E5.08990
G1 X102.666 Y98.880 E5.10736
G1 X103.822 Y100.036 E5.15588
G1 X104.140 Y99.761 E5.16834
G1 X103.334 Y98.954 E5.20215
G1 X103.904 Y99.066 E5.21939
G1 X104.125 Y99.153 E5.22643
G1 X104.450 Y99.478 E5.24006
G1 E3.24006 F2400.00000
G92 E0
G1 X90.614 Y101.059 F7800.000
G1 E2.00000 F2400.00000
G1 F1200
G1 X90.125 Y100.569 E2.02052
G1 X89.590 Y100.539 E2.03641
G1 X89.479 Y100.516 E2.03978
G1 X90.034 Y101.071 E2.06307
G1 X89.848 Y101.077 E2.06858
G1 X90.253 Y101.463 E2.08517
G1 X90.604 Y101.680 E2.09741
G1 X90.604 Y101.641 E2.09857
G1 E0.09857 F2400.00000
G92 E0
G1 X84.845 Y95.572 F7800.000
G1 E2.00000 F2400.00000
G1 F1200
G1 X82.563 Y93.290 E2.09559
G1 X82.399 Y93.349 E2.10075
G1 X82.204 Y93.513 E2.10831
G1 X85.580 Y96.900 E2.24999
G1 X86.202 Y98.114 E2.29041
G1 X82.087 Y93.998 E2.46285
G1 X82.080 Y94.142 E2.46710
G1 X82.035 Y94.268 E2.47108
G1 X81.915 Y94.419 E2.47679
G1 X87.237 Y99.741 E2.69979
G1 X86.480 Y99.576 E2.72276
G1 X81.688 Y94.785 E2.92352
G1 X81.678 Y95.157 E2.93455
G1 X81.715 Y95.404 E2.94196
G1 X85.794 Y99.483 E3.11286
G1 X85.151 Y99.432 E3.13196
G1 X81.737 Y96.018 E3.27501
G1 X81.553 Y96.185 E3.28236
G1 X81.481 Y96.354 E3.28782
G1 X84.524 Y99.397 E3.41532
G1 X84.241 Y99.384 E3.42370
G1 X83.983 Y99.292 E3.43181
G1 X83.635 Y99.024 E3.44484
G1 X82.899 Y98.226 E3.47699
G1 X82.818 Y98.284 E3.47993
G1 X81.514 Y96.980 E3.53457
G1 X81.651 Y97.445 E3.54893
G1 X81.753 Y97.677 E3.55645
G1 X81.930 Y97.977 E3.56676
G1 X82.431 Y98.489 E3.58799
G1 E1.58799 F2400.00000
G92 E0
G1 X83.726 Y93.860 F7800.000
G1 E2.00000 F2400.00000
G1 F1200
G1 X83.401 Y93.535 E2.01361
M106 S252.45
G1 Z3.300 F7800.000
G1 E0.01361 F2400.00000
G92 E0
G1 X90.652 Y101.387 F7800.000
G1 E2.00000 F2400.00000
G1 F1200
G1 X90.977 Y101.062 E2.01389
G1 X91.620 Y101.024 E2.03335
G1 X91.089 Y101.554 E2.05604
G1 X91.542 Y101.706 E2.07047
G1 X92.309 Y100.939 E2.10327
G1 X93.014 Y100.839 E2.12478
G1 X91.996 Y101.856 E2.16828
G1 X92.451 Y102.006 E2.18274
G1 X93.763 Y100.694 E2.23883
G1 X94.549 Y100.512 E2.26323
G1 X92.909 Y102.153 E2.33336
G1 X93.376 Y102.289 E2.34809
G1 X95.383 Y100.283 E2.43387
G1 X96.254 Y100.016 E2.46141
G1 X93.844 Y102.426 E2.56443
G1 X94.323 Y102.552 E2.57940
G1 X97.084 Y99.790 E2.69746
G1 X97.820 Y99.659 E2.72003
G1 X94.835 Y102.644 E2.84764
G1 X95.373 Y102.710 E2.86404
G1 X98.508 Y99.575 E2.99807
G1 X99.165 Y99.522 E3.01800
G1 X95.928 Y102.759 E3.15639
G1 X96.548 Y102.744 E3.17512
G1 X99.798 Y99.494 E3.31406
G1 X100.413 Y99.483 E3.33266
G1 X97.245 Y102.651 E3.46809
G1 X97.615 Y102.565 E3.47955
G1 X98.122 Y102.378 E3.49591
G1 X101.008 Y99.492 E3.61929
G1 X101.657 Y99.448 E3.63896
G1 X99.159 Y101.946 E3.74575
G1 X99.413 Y101.829 E3.75418
G1 X100.036 Y101.483 E3.77572
G1 X100.363 Y101.346 E3.78645
G1 X102.342 Y99.368 E3.87104
G1 X102.961 Y99.352 E3.88978
G1 X102.785 Y99.528 E3.89730
G1 X102.674 Y99.954 E3.91060
G1 X102.410 Y99.903 E3.91873
G1 X101.454 Y100.860 E3.95961
G1 X102.944 Y99.974 F7800.000
G1 F1200
G1 X103.269 Y99.649 E3.97350
G1 E1.97350 F2400.00000
G92 E0
G1 X85.944 Y99.031 F7800.000
G1 E2.00000 F2400.00000
G1 F1200
G1 X86.269 Y98.706 E2.01436
G1 X86.051 Y98.299 E2.02877
G1 X85.349 Y99.001 E2.05980
G1 X84.769 Y98.957 E2.07796
G1 X85.416 Y98.309 E2.10655
G1 X85.433 Y98.570 E2.11473
G1 X85.716 Y98.568 E2.12356
G1 X85.901 Y98.426 E2.13084
G1 X85.780 Y98.131 E2.14078
G1 X85.569 Y98.157 E2.14742
G1 X85.835 Y97.890 E2.15920
G1 X85.622 Y97.479 E2.17367
G1 X84.175 Y98.926 E2.23758
G1 X83.982 Y98.917 E2.24363
G1 X83.783 Y98.849 E2.25021
G1 X83.692 Y98.784 E2.25367
G1 X85.409 Y97.068 E2.32950
G1 X85.196 Y96.656 E2.34396
G1 X83.371 Y98.482 E2.42459
G1 X83.080 Y98.148 E2.43842
G1 X84.983 Y96.245 E2.52246
G1 X84.764 Y95.840 E2.53685
G1 X82.820 Y97.783 E2.62270
G1 X82.605 Y97.563 E2.63230
G1 X82.300 Y97.725 E2.64309
G1 X82.202 Y98.167 E2.65724
G1 X82.147 Y98.278 E2.66111
G1 X81.971 Y98.060 E2.66984
G1 X81.954 Y98.025 E2.67106
G1 X84.513 Y95.466 E2.78407
G1 X84.379 Y95.294 E2.79089
G1 X84.211 Y95.143 E2.79793
G1 X81.752 Y97.602 E2.90654
G1 X81.642 Y97.244 E2.91825
G1 X81.620 Y97.111 E2.92247
G1 X82.345 Y96.385 E2.95451
G1 X82.512 Y96.348 E2.95985
G1 X82.519 Y96.211 E2.96414
G1 X83.882 Y94.848 E3.02437
G1 X83.762 Y94.740 E3.02943
G1 X83.740 Y94.537 E3.03581
G1 X83.778 Y94.328 E3.04243
G1 X82.121 Y95.984 E3.11560
G1 X82.029 Y95.452 E3.13247
G1 X82.432 Y95.049 E3.15029
G1 X82.684 Y95.246 E3.16025
G1 X82.938 Y94.968 E3.17200
G1 X82.759 Y94.722 E3.18149
G1 X83.732 Y93.750 E3.22446
G1 X83.656 Y93.662 E3.22807
G1 X83.501 Y93.554 E3.23398
G1 X83.359 Y93.498 E3.23875
G1 X82.263 Y94.594 E3.28716
G1 X82.203 Y94.375 E3.29425
G1 X82.188 Y94.236 E3.29861
G1 X82.202 Y94.092 E3.30313
G1 X82.231 Y94.019 E3.30560
G1 X82.302 Y93.931 E3.30912
G1 X82.628 Y93.605 E3.32352
M106 S255
G1 Z3.800 F7800.000
G1 X83.216 Y93.893 F7800.000
G1 F658.994
G1 X83.541 Y94.218 E3.33978
G1 X83.443 Y94.828 F7800.000
G1 F658.994
G1 X82.452 Y93.836 E3.38940
G1 X82.416 Y93.861 E3.39092
G1 X82.342 Y93.969 E3.39557
G1 X82.348 Y94.080 E3.39950
G1 X82.395 Y94.197 E3.40395
G1 X82.537 Y94.417 E3.41323
G1 X82.648 Y94.518 E3.41853
G1 X82.671 Y94.595 E3.42137
G1 X82.813 Y94.768 E3.42929
G1 X82.760 Y94.852 E3.43279
G1 X84.663 Y96.755 E3.52800
G1 X85.318 Y98.018 E3.57836
G1 X85.390 Y98.189 E3.58491
G1 X82.867 Y95.666 E3.71116
G1 X82.870 Y95.708 E3.71264
G1 X82.495 Y95.737 E3.72593
G1 X82.619 Y96.126 E3.74039
G1 X84.971 Y98.478 E3.85807
G1 X84.419 Y98.454 E3.87760
G1 X84.238 Y98.403 E3.88425
G1 X84.075 Y98.289 E3.89128
G1 X83.748 Y97.962 E3.90765
G1 E1.90765 F2400.00000
G92 E0
G1 X82.851 Y95.650 F7800.000
G1 E2.00000 F2400.00000
G1 F658.994
G1 X82.417 Y95.216 E2.02171
G1 E0.02171 F2400.00000
G92 E0
G1 X93.208 Y101.641 F7800.000
G1 E2.00000 F2400.00000
G1 F658.994
G1 X92.883 Y101.317 E2.01390
G1 X93.361 Y101.190 E2.02886
G1 X94.096 Y101.925 E2.06031
G1 X94.475 Y102.038 E2.07228
G1 X94.909 Y102.134 E2.08573
G1 X93.855 Y101.079 E2.13083
G1 X94.341 Y100.961 E2.14597
G1 X95.602 Y102.222 E2.19991
G1 X96.141 Y102.290 E2.21634
G1 X96.272 Y102.287 E2.22030
G1 X94.816 Y100.830 E2.28259
G1 X95.286 Y100.696 E2.29739
G1 X96.859 Y102.269 E2.36470
G1 X97.292 Y102.238 E2.37781
G1 X97.405 Y102.211 E2.38136
G1 X95.753 Y100.558 E2.45206
G1 X96.211 Y100.411 E2.46662
G1 X97.893 Y102.093 E2.53857
G1 X98.338 Y101.933 E2.55287
G1 X96.684 Y100.280 E2.62359
G1 X97.185 Y100.176 E2.63907
G1 X98.777 Y101.768 E2.70717
G1 X99.193 Y101.579 E2.72098
G1 X97.722 Y100.109 E2.78389
G1 X98.259 Y100.041 E2.80026
G1 X99.608 Y101.390 E2.85798
G1 X99.999 Y101.176 E2.87146
G1 X98.820 Y99.997 E2.92189
G1 X99.396 Y99.968 E2.93932
G1 X100.401 Y100.973 E2.98234
G1 X100.828 Y100.795 E2.99632
G1 X99.985 Y99.952 E3.03239
G1 X100.376 Y99.977 E3.04424
G1 X100.608 Y99.970 E3.05125
G1 X101.255 Y100.617 E3.07894
G1 X101.653 Y100.410 E3.09250
G1 X101.180 Y99.938 E3.11272
G1 X101.727 Y99.880 E3.12935
G1 X102.052 Y100.205 E3.14325
G1 Z4.300 F7800.000
G1 E1.14325 F2400.00000
G92 E0
G1 X99.449 Y100.777 F7800.000
G1 E2.00000 F2400.00000
G1 F600
G1 X99.774 Y100.452 E2.01456
G1 X99.478 Y100.449 E2.02391
G1 X99.118 Y100.474 E2.03533
G1 X98.230 Y101.363 E2.07511
G1 X97.515 Y101.624 E2.09922
G1 X97.275 Y101.684 E2.10702
G1 X98.424 Y100.536 E2.15845
G1 X97.700 Y100.627 E2.18154
G1 X96.534 Y101.793 E2.23375
G1 X95.880 Y101.814 E2.25447
G1 X96.915 Y100.779 E2.30079
G1 X95.993 Y101.068 E2.33138
G1 X95.303 Y101.758 E2.36227
G1 X94.755 Y101.673 E2.37983
G1 X95.080 Y101.348 E2.39438
G1 E0.39438 F2400.00000
G92 E0
G1 X84.505 Y97.972 F7800.000
G1 E2.00000 F2400.00000
G1 F600
G1 X84.830 Y97.646 E2.01414
G1 X84.652 Y97.210 E2.02859
G1 X84.190 Y97.673 E2.04867
G1 X84.106 Y97.204 E2.06331
G1 X84.056 Y97.192 E2.06488
G1 X84.437 Y96.812 E2.08140
G1 X84.214 Y96.421 E2.09523
G1 X83.410 Y97.225 E2.13016
G1 X83.184 Y96.859 E2.14336
G1 X83.178 Y96.843 E2.14388
G1 X83.965 Y96.056 E2.17807
G1 X83.637 Y95.770 E2.19143
G1 X82.996 Y96.411 E2.21927
G1 X82.871 Y96.053 E2.23093
G1 X82.863 Y95.931 E2.23469
G1 X83.188 Y95.605 E2.24880
G1 X83.410 Y97.225 F7800.000
G1 F600
G1 X83.661 Y97.587 E2.26235
G1 X84.031 Y97.218 E2.27840
G1 X84.120 Y97.237 E2.28120
G1 X84.439 Y97.424 E2.29254
G1 X83.965 Y97.897 E2.31310
G1 Z4.800 F7800.000
G1 E0.31310 F2400.00000
G92 E0
M107
; Filament-specific end gcode 
;END gcode for filament

M104 S0 ; turn off temperature
G28 X0  ; home X axis
M84     ; disable motors

M140 S0 ; set bed temperature
; filament used = 69.3mm (0.5cm3)
; total filament cost = 0.0

; avoid_crossing_perimeters = 0
; bed_shape = 0x0,200x0,200x200,0x200
; bed_temperature = 0
; before_layer_gcode = 
; between_objects_gcode = 
; bridge_acceleration = 0
; bridge_fan_speed = 100
; brim_connections_width = 0
; brim_width = 0
; complete_objects = 0
; cooling = 1
; default_acceleration = 0
; disable_fan_first_layers = 3
; duplicate_distance = 6
; end_filament_gcode = "; Filament-specific end gcode \n;END gcode for filament\n"
; end_gcode = M104 S0 ; turn off temperature\nG28 X0  ; home X axis\nM84     ; disable motors\n
; extruder_clearance_height = 20
; extruder_clearance_radius = 20
; extruder_offset = 0x0
; extrusion_axis = E
; extrusion_multiplier = 1
; fan_always_on = 0
; fan_below_layer_time = 60
; filament_colour = #FFFFFF
; filament_cost = 0
; filament_density = 0
; filament_diameter = 3
; filament_max_volumetric_speed = 0
; filament_notes = ""
; first_layer_acceleration = 0
; first_layer_bed_temperature = 0
; first_layer_extrusion_width = 200%
; first_layer_speed = 30
; first_layer_temperature = 205
; gcode_arcs = 0
; gcode_comments = 0
; gcode_flavor = reprap
; has_heatbed = 1
; infill_acceleration = 0
; infill_first = 0
; interior_brim_width = 0
; layer_gcode = 
; max_fan_speed = 100
; max_layer_height = 0.3
; max_print_speed = 80
; max_volumetric_speed = 0
; min_fan_speed = 35
; min_layer_height = 0.15
; min_print_speed = 10
; min_skirt_length = 0
; notes = 
; nozzle_diameter = 0.5
; only_retract_when_crossing_perimeters = 1
; ooze_prevention = 0
; output_filename_format = [input_filename_base].gcode
; perimeter_acceleration = 0
; post_process = 
; pressure_advance = 0
; printer_notes = 
; resolution = 0
; retract_before_travel = 2
; retract_layer_change = 0
; retract_length = 2
; retract_length_toolchange = 10
; retract_lift = 0
; retract_lift_above = 0
; retract_lift_below = 0
; retract_restart_extra = 0
; retract_restart_extra_toolchange = 0
; retract_speed = 40
; skirt_distance = 6
; skirt_height = 1
; skirts = 0
; slowdown_below_layer_time = 5
; spiral_vase = 0
; standby_temperature_delta = -5
; start_filament_gcode = "; Filament gcode\n"
; start_gcode = G28 ; home all axes\nG1 Z5 F5000 ; lift nozzle\n
; temperature = 200
; threads = 8
; toolchange_gcode = 
; travel_speed = 130
; use_firmware_retraction = 0
; use_relative_e_distances = 0
; use_set_and_wait_bed = 0
; use_set_and_wait_extruder = 0
; use_volumetric_e = 0
; vibration_limit = 0
; wipe = 0
; z_offset = 0
; z_steps_per_mm = 0
; adaptive_slicing = 0
; adaptive_slicing_quality = 75%
; dont_support_bridges = 1
; extrusion_width = 0
; first_layer_height = 0.3
; infill_only_where_needed = 0
; interface_shells = 0
; layer_height = 0.5
; match_horizontal_surfaces = 0
; raft_layers = 0
; regions_overlap = 0
; seam_position = aligned
; sequential_print_priority = 0
; support_material = 0
; support_material_angle = 0
; support_material_buildplate_only = 0
; support_material_contact_distance = 0.2
; support_material_enforce_layers = 0
; support_material_extruder = 1
; support_material_extrusion_width = 0
; support_material_interface_extruder = 1
; support_material_interface_extrusion_width = 0
; support_material_interface_layers = 3
; support_material_interface_spacing = 0
; support_material_interface_speed = 100%
; support_material_max_layers = 0
; support_material_pattern = pillars
; support_material_spacing = 2.5
; support_material_speed = 60
; support_material_threshold = 60%
; xy_size_compensation = 0
; bottom_infill_pattern = rectilinear
; bottom_solid_layers = 0
; bridge_flow_ratio = 1
; bridge_speed = 60
; external_perimeter_extrusion_width = 0
; external_perimeter_speed = 50%
; external_perimeters_first = 0
; extra_perimeters = 1
; fill_angle = 45
; fill_density = 90%
; fill_gaps = 1
; fill_pattern = rectilinear
; gap_fill_speed = 20
; infill_every_layers = 1
; infill_extruder = 1
; infill_extrusion_width = 0
; infill_overlap = 55%
; infill_speed = 80
; overhangs = 1
; perimeter_extruder = 1
; perimeter_extrusion_width = 0
; perimeter_speed = 60
; perimeters = 0
; small_perimeter_speed = 15
; solid_infill_below_area = 70
; solid_infill_every_layers = 0
; solid_infill_extruder = 1
; solid_infill_extrusion_width = 0
; solid_infill_speed = 20
; thin_walls = 1
; top_infill_extrusion_width = 0
; top_infill_pattern = rectilinear
; top_solid_infill_speed = 15
; top_solid_layers = 0
