; generated by Slic3r 1.3.0 on 2020-10-08 at 11:31:43

; external perimeters extrusion width = 0.55mm (5.57mm^3/s)
; perimeters extrusion width = 0.58mm (11.78mm^3/s)
; infill extrusion width = 0.58mm (15.71mm^3/s)
; solid infill extrusion width = 0.58mm (3.93mm^3/s)
; top infill extrusion width = 0.58mm (2.95mm^3/s)

M107
M104 S205 ; set temperature
G28 ; home all axes
G1 Z5 F5000 ; lift nozzle

; Filament gcode

M109 S205 ; set temperature and wait for it to be reached
G21 ; set units to millimeters
G90 ; use absolute coordinates
M82 ; use absolute distances for extrusion
G92 E0
G1 Z0.400 F7800.000
G1 E-2.00000 F2400.00000
G92 E0
G1 X96.022 Y94.479 F7800.000
G1 E2.00000 F2400.00000
G1 F1217.58
G1 X95.467 Y95.035 E2.03367
G1 X95.467 Y96.106 E2.07954
G1 X97.093 Y94.479 E2.17809
G1 X98.164 Y94.479 E2.22396
G1 X95.467 Y97.176 E2.38739
G1 X95.467 Y98.247 E2.43326
G1 X98.200 Y95.514 E2.59887
G1 X98.200 Y96.585 E2.64474
G1 X95.467 Y99.318 E2.81034
G1 X95.467 Y100.389 E2.85622
G1 X98.200 Y97.656 E3.02182
G1 X98.200 Y98.365 E3.05221
G1 X98.559 Y98.367 E3.06761
G1 X95.467 Y101.459 E3.25498
G1 X95.467 Y102.530 E3.30086
G1 X97.644 Y100.353 E3.43280
G1 X97.644 Y100.305 E3.43484
G1 X97.692 Y100.305 E3.43687
G1 X99.624 Y98.373 E3.55393
G1 X100.688 Y98.379 E3.59955
G1 X98.762 Y100.305 E3.71624
G1 X99.826 Y100.312 E3.76181
G1 X101.670 Y98.468 E3.87355
G1 X102.038 Y98.534 E3.88955
G1 X102.525 Y98.684 E3.91138
G1 X100.692 Y100.517 E4.02241
G1 X101.009 Y100.701 E4.03810
G1 X101.144 Y100.810 E4.04553
G1 X101.303 Y100.976 E4.05542
G1 X103.239 Y99.041 E4.17268
G1 X103.532 Y99.247 E4.18805
G1 X103.819 Y99.531 E4.20536
G1 X101.654 Y101.696 E4.33652
G1 X101.704 Y102.001 E4.34976
G1 X101.713 Y102.227 E4.35945
G1 X101.702 Y102.465 E4.36967
G1 X101.651 Y102.770 E4.38291
G1 X104.237 Y100.184 E4.53961
G1 X104.388 Y100.571 E4.55740
G1 X104.482 Y101.010 E4.57664
G1 X99.973 Y105.518 E4.84983
G1 X100.428 Y105.505 E4.86933
G1 X100.853 Y105.466 E4.88760
G1 X101.151 Y105.412 E4.90058
G1 X104.518 Y102.045 E5.10457
G1 X104.427 Y102.621 E5.12953
G1 X104.337 Y102.924 E5.14309
G1 X104.209 Y103.228 E5.15721
G1 X103.956 Y103.641 E5.17797
G1 X103.743 Y103.890 E5.19202
G1 X103.185 Y104.449 E5.22585
G1 E3.22585 F2400.00000
G92 E0
G1 X98.900 Y105.521 F7800.000
G1 E2.00000 F2400.00000
G1 F1217.58
G1 X100.936 Y103.485 E2.12336
G1 X100.625 Y103.550 E2.13699
G1 X100.396 Y103.575 E2.14685
G1 X99.768 Y103.583 E2.17379
G1 X97.830 Y105.521 E2.29122
G1 X96.759 Y105.521 E2.33709
G1 X98.697 Y103.583 E2.45452
G1 X98.200 Y103.583 E2.47584
G1 X98.200 Y103.009 E2.50040
G1 X95.688 Y105.521 E2.65257
G1 X95.467 Y105.521 E2.66207
G1 X95.467 Y104.672 E2.69844
G1 X98.200 Y101.939 E2.86404
G1 X98.200 Y100.868 E2.90992
G1 X95.467 Y103.601 E3.07552
G1 X95.467 Y102.530 E3.12140
M104 S200 ; set temperature
G1 Z0.800 F7800.000
G1 X95.442 Y105.164 F7800.000
G1 F1200
G1 X95.824 Y105.545 E3.13689
G1 X96.540 Y105.545 E3.15743
G1 X95.442 Y104.447 E3.20197
G1 X95.442 Y103.730 E3.22252
G1 X97.257 Y105.545 E3.29611
G1 X97.973 Y105.545 E3.31666
G1 X95.442 Y103.014 E3.41931
G1 X95.442 Y102.297 E3.43985
G1 X98.690 Y105.545 E3.57156
G1 X99.406 Y105.545 E3.59210
G1 X95.442 Y101.581 E3.75286
G1 X95.442 Y100.864 E3.77340
G1 X98.224 Y103.647 E3.88624
G1 X98.224 Y102.930 E3.90678
G1 X95.442 Y100.148 E4.01961
G1 X95.442 Y99.431 E4.04016
G1 X98.224 Y102.214 E4.15299
G1 X98.224 Y101.497 E4.17353
G1 X95.442 Y98.715 E4.28636
G1 X95.442 Y97.998 E4.30691
G1 X98.224 Y100.781 E4.41974
G1 X98.224 Y100.330 E4.43267
G1 X98.490 Y100.330 E4.44029
G1 X95.442 Y97.282 E4.56389
G1 X95.442 Y96.565 E4.58443
G1 X99.207 Y100.330 E4.73709
G1 X98.316 Y98.723 F7800.000
G1 F1200
G1 X98.224 Y98.723 E4.73973
G1 X98.224 Y98.631 E4.74235
G1 X95.442 Y95.848 E4.85519
G1 X95.442 Y95.132 E4.87573
G1 X98.224 Y97.915 E4.98856
G1 X98.224 Y97.198 E5.00911
G1 X95.481 Y94.455 E5.12035
G1 X96.197 Y94.455 E5.14090
G1 X98.224 Y96.482 E5.22309
G1 X98.224 Y95.765 E5.24363
G1 X96.914 Y94.455 E5.29677
G1 X97.630 Y94.455 E5.31732
G1 X98.224 Y95.048 E5.34140
G1 X97.935 Y98.341 F7800.000
G1 F1200
G1 X99.923 Y100.330 E5.42203
G1 X100.363 Y100.343 E5.43465
G1 X100.705 Y100.395 E5.44455
G1 X98.655 Y98.345 E5.52766
G1 X99.375 Y98.349 E5.54831
G1 X104.380 Y103.353 E5.75124
G1 X104.446 Y103.129 E5.75793
G1 X104.513 Y102.770 E5.76841
G1 X100.095 Y98.352 E5.94754
G1 X100.444 Y98.354 E5.95755
G1 X100.849 Y98.389 E5.96920
G1 X104.556 Y102.097 E6.11952
G1 X104.537 Y101.686 E6.13129
G1 X104.476 Y101.300 E6.14252
G1 X101.732 Y98.556 E6.25376
G1 X102.164 Y98.686 E6.26668
G1 X102.696 Y98.939 E6.28358
G1 X102.916 Y99.079 E6.29105
G1 X103.163 Y99.270 E6.30001
G1 X103.575 Y99.682 E6.31672
G1 E4.31672 F2400.00000
G92 E0
G1 X104.160 Y103.850 F7800.000
G1 E2.00000 F2400.00000
G1 F1200
G1 X101.652 Y101.342 E2.10167
G1 X101.688 Y101.758 E2.11364
G1 X101.667 Y102.074 E2.12272
G1 X103.871 Y104.278 E2.21207
G1 X103.709 Y104.465 E2.21916
G1 X103.518 Y104.641 E2.22663
G1 X101.504 Y102.628 E2.30826
G1 X101.380 Y102.837 E2.31524
G1 X101.202 Y103.042 E2.32303
G1 X103.095 Y104.935 E2.39977
G1 X102.615 Y105.171 E2.41512
G1 X100.780 Y103.336 E2.48951
G1 X100.545 Y103.433 E2.49679
G1 X100.237 Y103.510 E2.50589
G1 X102.077 Y105.349 E2.58046
G1 X101.474 Y105.463 E2.59805
G1 X99.568 Y103.558 E2.67530
G1 X98.852 Y103.558 E2.69584
G1 X100.824 Y105.530 E2.77583
G1 X100.123 Y105.545 E2.79594
G1 X98.135 Y103.558 E2.87654
G1 Z1.200 F7800.000
G1 X98.744 Y105.545 F7800.000
G1 F1200
G1 X100.826 Y103.464 E2.95907
G1 X100.468 Y103.534 E2.96930
G1 X100.031 Y103.558 E2.98156
G1 X98.043 Y105.545 E3.06036
G1 X97.343 Y105.545 E3.08000
G1 X99.331 Y103.558 E3.15880
G1 X98.630 Y103.558 E3.17844
G1 X96.642 Y105.545 E3.25724
G1 X95.942 Y105.545 E3.27688
G1 X98.224 Y103.263 E3.36737
G1 X98.224 Y102.562 E3.38701
G1 X95.442 Y105.345 E3.49733
G1 X95.442 Y104.644 E3.51696
G1 X98.224 Y101.862 E3.62728
G1 X98.224 Y101.161 E3.64692
G1 X95.442 Y103.944 E3.75724
G1 X95.442 Y103.243 E3.77687
G1 X103.299 Y104.493 F7800.000
G1 F1200
G1 X103.683 Y104.109 E3.79211
G1 X103.960 Y103.793 E3.80387
G1 X104.096 Y103.594 E3.81063
G1 X104.271 Y103.262 E3.82117
G1 X104.442 Y102.761 E3.83599
G1 X104.472 Y102.619 E3.84007
G1 X101.761 Y105.331 E3.94756
G1 X101.461 Y105.406 E3.95622
G1 X100.895 Y105.496 E3.97228
G1 X104.556 Y101.835 E4.11739
G1 X104.517 Y101.173 E4.13598
G1 X100.154 Y105.536 E4.30894
G1 X99.445 Y105.545 E4.32884
G1 X104.398 Y100.592 E4.52523
G1 X104.196 Y100.094 E4.54030
G1 X101.629 Y102.661 E4.64207
G1 X101.684 Y102.294 E4.65246
G1 X101.678 Y101.911 E4.66320
G1 X103.923 Y99.666 E4.75219
G1 X103.725 Y99.439 E4.76063
G1 X103.579 Y99.309 E4.76611
G1 X101.541 Y101.347 E4.84689
G1 X101.443 Y101.154 E4.85296
G1 X101.269 Y100.919 E4.86116
G1 X103.180 Y99.008 E4.93694
G1 X102.725 Y98.762 E4.95144
G1 X100.880 Y100.607 E5.02457
G1 X100.644 Y100.492 E5.03193
G1 X100.378 Y100.408 E5.03974
G1 X102.203 Y98.584 E5.11207
G1 X101.895 Y98.493 E5.12106
G1 X101.638 Y98.448 E5.12839
G1 X99.755 Y100.331 E5.20304
G1 X99.056 Y100.330 E5.22263
G1 X101.014 Y98.371 E5.30027
G1 X100.335 Y98.350 E5.31932
G1 X98.355 Y100.330 E5.39781
G1 X97.843 Y100.330 E5.41218
G1 X97.843 Y100.842 E5.42655
G1 X95.442 Y103.243 E5.52173
G1 X95.442 Y102.543 E5.54136
G1 X99.637 Y98.347 E5.70769
G1 X98.940 Y98.344 E5.72725
G1 X95.442 Y101.842 E5.86592
G1 X95.442 Y101.142 E5.88556
G1 X98.242 Y98.341 E5.99657
G1 X98.224 Y98.341 E5.99707
G1 X98.224 Y97.658 E6.01621
G1 X95.442 Y100.441 E6.12653
G1 X95.442 Y99.740 E6.14616
G1 X98.224 Y96.958 E6.25648
G1 X98.224 Y96.257 E6.27612
G1 X95.442 Y99.040 E6.38643
G1 X95.442 Y98.339 E6.40607
G1 X98.224 Y95.557 E6.51639
G1 X98.224 Y94.856 E6.53603
G1 X95.442 Y97.639 E6.64634
G1 X95.442 Y96.938 E6.66598
G1 X97.925 Y94.455 E6.76444
G1 X97.225 Y94.455 E6.78408
G1 X95.442 Y96.238 E6.85477
G1 X95.442 Y95.537 E6.87441
G1 X96.524 Y94.455 E6.91732
G1 X95.824 Y94.455 E6.93696
G1 X95.442 Y94.836 E6.95210
M106 S247.35
G1 Z1.600 F7800.000
G1 X98.224 Y95.048 F7800.000
G1 F1200
G1 X97.630 Y94.455 E6.97618
G1 X96.914 Y94.455 E6.99673
G1 X98.224 Y95.765 E7.04987
G1 X98.224 Y96.482 E7.07041
G1 X96.197 Y94.455 E7.15260
G1 X95.481 Y94.455 E7.17315
G1 X98.224 Y97.198 E7.28439
G1 X98.224 Y97.915 E7.30494
G1 X95.442 Y95.132 E7.41777
G1 X95.442 Y95.848 E7.43831
G1 X98.224 Y98.631 E7.55115
G1 X98.224 Y98.723 E7.55377
G1 X98.316 Y98.723 E7.55641
G1 X97.935 Y98.341 F7800.000
G1 F1200
G1 X99.923 Y100.330 E7.63704
G1 X100.363 Y100.343 E7.64966
G1 X100.705 Y100.395 E7.65956
G1 X98.655 Y98.345 E7.74267
G1 X99.375 Y98.349 E7.76332
G1 X104.380 Y103.353 E7.96625
G1 X104.446 Y103.129 E7.97294
G1 X104.513 Y102.770 E7.98342
G1 X100.095 Y98.352 E8.16256
G1 X100.444 Y98.354 E8.17256
G1 X100.849 Y98.389 E8.18421
G1 X104.556 Y102.097 E8.33453
G1 X104.537 Y101.686 E8.34630
G1 X104.476 Y101.300 E8.35753
G1 X101.732 Y98.556 E8.46877
G1 X102.164 Y98.686 E8.48169
G1 X102.696 Y98.939 E8.49859
G1 X102.916 Y99.079 E8.50606
G1 X103.163 Y99.270 E8.51502
G1 X103.575 Y99.682 E8.53173
G1 E6.53173 F2400.00000
G92 E0
G1 X104.160 Y103.850 F7800.000
G1 E2.00000 F2400.00000
G1 F1200
G1 X101.652 Y101.342 E2.10167
G1 X101.688 Y101.758 E2.11364
G1 X101.667 Y102.074 E2.12272
G1 X103.871 Y104.278 E2.21207
G1 X103.709 Y104.465 E2.21916
G1 X103.518 Y104.641 E2.22663
G1 X101.504 Y102.628 E2.30826
G1 X101.380 Y102.837 E2.31524
G1 X101.202 Y103.042 E2.32303
G1 X103.095 Y104.935 E2.39977
G1 X102.615 Y105.171 E2.41512
G1 X100.780 Y103.336 E2.48951
G1 X100.545 Y103.433 E2.49679
G1 X100.237 Y103.510 E2.50589
G1 X102.077 Y105.349 E2.58046
G1 X101.474 Y105.463 E2.59805
G1 X99.568 Y103.558 E2.67530
G1 X98.852 Y103.558 E2.69584
G1 X100.824 Y105.530 E2.77583
G1 X100.123 Y105.545 E2.79594
G1 X98.135 Y103.558 E2.87654
G1 X95.442 Y105.164 F7800.000
G1 F1200
G1 X95.824 Y105.545 E2.89203
G1 X96.540 Y105.545 E2.91257
G1 X95.442 Y104.447 E2.95712
G1 X95.442 Y103.730 E2.97766
G1 X97.257 Y105.545 E3.05126
G1 X97.973 Y105.545 E3.07180
G1 X95.442 Y103.014 E3.17445
G1 X95.442 Y102.297 E3.19500
G1 X98.690 Y105.545 E3.32670
G1 X99.406 Y105.545 E3.34724
G1 X95.442 Y101.581 E3.50800
G1 X95.442 Y100.864 E3.52855
G1 X98.224 Y103.647 E3.64138
G1 X98.224 Y102.930 E3.66192
G1 X95.442 Y100.148 E3.77476
G1 X95.442 Y99.431 E3.79530
G1 X98.224 Y102.214 E3.90813
G1 X98.224 Y101.497 E3.92868
G1 X95.442 Y98.715 E4.04151
G1 X95.442 Y97.998 E4.06205
G1 X98.224 Y100.781 E4.17488
G1 X98.224 Y100.330 E4.18781
G1 X98.490 Y100.330 E4.19543
G1 X95.442 Y97.282 E4.31903
G1 X95.442 Y96.565 E4.33958
G1 X99.207 Y100.330 E4.49223
G1 Z2.000 F7800.000
G1 E2.49223 F2400.00000
G92 E0
G1 X95.442 Y103.243 F7800.000
G1 E2.00000 F2400.00000
G1 F1200
G1 X95.442 Y103.943 E2.01964
G1 X98.224 Y101.161 E2.12995
G1 X98.224 Y101.861 E2.14958
G1 X95.442 Y104.644 E2.25990
G1 X95.442 Y105.344 E2.27953
G1 X98.224 Y102.562 E2.38984
G1 X98.224 Y103.262 E2.40948
G1 X95.941 Y105.545 E2.49999
G1 X96.642 Y105.545 E2.51963
G1 X98.629 Y103.558 E2.59842
G1 X99.330 Y103.558 E2.61806
G1 X97.342 Y105.545 E2.69685
G1 X98.043 Y105.545 E2.71649
G1 X100.031 Y103.558 E2.79529
G1 X100.489 Y103.532 E2.80817
G1 X100.827 Y103.462 E2.81783
G1 X98.743 Y105.545 E2.90041
G1 E0.90041 F2400.00000
G92 E0
G1 X103.352 Y104.439 F7800.000
G1 E2.00000 F2400.00000
G1 F1200
G1 X103.737 Y104.055 E2.01525
G1 X103.960 Y103.794 E2.02487
G1 X104.222 Y103.366 E2.03893
G1 X104.356 Y103.049 E2.04858
G1 X104.466 Y102.625 E2.06086
G1 X101.766 Y105.325 E2.16790
G1 X101.636 Y105.366 E2.17173
G1 X100.895 Y105.495 E2.19281
G1 X104.555 Y101.836 E2.33788
G1 X104.540 Y101.335 E2.35192
G1 X104.518 Y101.172 E2.35653
G1 X100.149 Y105.541 E2.52971
G1 X99.444 Y105.545 E2.54949
G1 X104.396 Y100.593 E2.74581
G1 X104.196 Y100.093 E2.76091
G1 X101.629 Y102.660 E2.86268
G1 X101.681 Y102.329 E2.87207
G1 X101.677 Y101.911 E2.88380
G1 X103.920 Y99.668 E2.97270
G1 X103.579 Y99.309 E2.98659
G1 X101.540 Y101.347 E3.06741
G1 X101.402 Y101.090 E3.07561
G1 X101.269 Y100.918 E3.08169
G1 X103.178 Y99.010 E3.15736
G1 X103.072 Y98.936 E3.16098
G1 X102.719 Y98.768 E3.17193
G1 X100.880 Y100.607 E3.24483
G1 X100.672 Y100.504 E3.25134
G1 X100.377 Y100.409 E3.26001
G1 X102.204 Y98.582 E3.33242
G1 X101.977 Y98.512 E3.33907
G1 X101.635 Y98.451 E3.34882
G1 X99.754 Y100.332 E3.42339
G1 X99.055 Y100.330 E3.44298
G1 X101.016 Y98.370 E3.52068
G1 X100.332 Y98.353 E3.53986
G1 X98.355 Y100.330 E3.61823
G1 X97.843 Y100.330 E3.63258
G1 X97.843 Y100.842 E3.64694
G1 X95.442 Y103.243 E3.74212
G1 X95.442 Y102.542 E3.76175
G1 X99.635 Y98.349 E3.92799
G1 X98.939 Y98.345 E3.94751
G1 X95.442 Y101.842 E4.08614
G1 X95.442 Y101.141 E4.10578
G1 X98.242 Y98.341 E4.21679
G1 X98.224 Y98.341 E4.21728
G1 X98.224 Y97.658 E4.23642
G1 X95.442 Y100.441 E4.34673
G1 X95.442 Y99.740 E4.36637
G1 X98.224 Y96.958 E4.47668
G1 X98.224 Y96.257 E4.49632
G1 X95.442 Y99.040 E4.60663
G1 X95.442 Y98.339 E4.62627
G1 X98.224 Y95.556 E4.73658
G1 X98.224 Y94.856 E4.75621
G1 X95.442 Y97.639 E4.86653
G1 X95.442 Y96.938 E4.88616
G1 X97.925 Y94.455 E4.98462
G1 X97.225 Y94.455 E5.00425
G1 X95.442 Y96.238 E5.07494
G1 X95.442 Y95.537 E5.09457
G1 X96.524 Y94.455 E5.13748
G1 X95.824 Y94.455 E5.15712
G1 X95.442 Y94.836 E5.17226
G1 E3.17226 F2400.00000
G92 E0
M107
; Filament-specific end gcode 
;END gcode for filament

M104 S0 ; turn off temperature
G28 X0  ; home X axis
M84     ; disable motors

M140 S0 ; set bed temperature
; filament used = 20.6mm (0.1cm3)
; total filament cost = 0.0

; avoid_crossing_perimeters = 0
; bed_shape = 0x0,200x0,200x200,0x200
; bed_temperature = 0
; before_layer_gcode = 
; between_objects_gcode = 
; bridge_acceleration = 0
; bridge_fan_speed = 100
; brim_connections_width = 0
; brim_width = 0
; complete_objects = 0
; cooling = 1
; default_acceleration = 0
; disable_fan_first_layers = 3
; duplicate_distance = 6
; end_filament_gcode = "; Filament-specific end gcode \n;END gcode for filament\n"
; end_gcode = M104 S0 ; turn off temperature\nG28 X0  ; home X axis\nM84     ; disable motors\n
; extruder_clearance_height = 20
; extruder_clearance_radius = 20
; extruder_offset = 0x0
; extrusion_axis = E
; extrusion_multiplier = 1
; fan_always_on = 0
; fan_below_layer_time = 60
; filament_colour = #FFFFFF
; filament_cost = 0
; filament_density = 0
; filament_diameter = 3
; filament_max_volumetric_speed = 0
; filament_notes = ""
; first_layer_acceleration = 0
; first_layer_bed_temperature = 0
; first_layer_extrusion_width = 200%
; first_layer_speed = 30
; first_layer_temperature = 205
; gcode_arcs = 0
; gcode_comments = 0
; gcode_flavor = reprap
; has_heatbed = 1
; infill_acceleration = 0
; infill_first = 0
; interior_brim_width = 0
; layer_gcode = 
; max_fan_speed = 100
; max_layer_height = 0.3
; max_print_speed = 80
; max_volumetric_speed = 0
; min_fan_speed = 35
; min_layer_height = 0.15
; min_print_speed = 10
; min_skirt_length = 0
; notes = 
; nozzle_diameter = 0.5
; only_retract_when_crossing_perimeters = 1
; ooze_prevention = 0
; output_filename_format = [input_filename_base].gcode
; perimeter_acceleration = 0
; post_process = 
; pressure_advance = 0
; printer_notes = 
; resolution = 0
; retract_before_travel = 2
; retract_layer_change = 0
; retract_length = 2
; retract_length_toolchange = 10
; retract_lift = 0
; retract_lift_above = 0
; retract_lift_below = 0
; retract_restart_extra = 0
; retract_restart_extra_toolchange = 0
; retract_speed = 40
; skirt_distance = 6
; skirt_height = 1
; skirts = 0
; slowdown_below_layer_time = 5
; spiral_vase = 0
; standby_temperature_delta = -5
; start_filament_gcode = "; Filament gcode\n"
; start_gcode = G28 ; home all axes\nG1 Z5 F5000 ; lift nozzle\n
; temperature = 200
; threads = 8
; toolchange_gcode = 
; travel_speed = 130
; use_firmware_retraction = 0
; use_relative_e_distances = 0
; use_set_and_wait_bed = 0
; use_set_and_wait_extruder = 0
; use_volumetric_e = 0
; vibration_limit = 0
; wipe = 0
; z_offset = 0
; z_steps_per_mm = 0
; adaptive_slicing = 0
; adaptive_slicing_quality = 75%
; dont_support_bridges = 1
; extrusion_width = 0
; first_layer_height = 0.4
; infill_only_where_needed = 0
; interface_shells = 0
; layer_height = 0.4
; match_horizontal_surfaces = 0
; raft_layers = 0
; regions_overlap = 0
; seam_position = aligned
; sequential_print_priority = 0
; support_material = 0
; support_material_angle = 0
; support_material_buildplate_only = 0
; support_material_contact_distance = 0.2
; support_material_enforce_layers = 0
; support_material_extruder = 1
; support_material_extrusion_width = 0
; support_material_interface_extruder = 1
; support_material_interface_extrusion_width = 0
; support_material_interface_layers = 3
; support_material_interface_spacing = 0
; support_material_interface_speed = 100%
; support_material_max_layers = 0
; support_material_pattern = pillars
; support_material_spacing = 2.5
; support_material_speed = 60
; support_material_threshold = 60%
; xy_size_compensation = 0
; bottom_infill_pattern = rectilinear
; bottom_solid_layers = 0
; bridge_flow_ratio = 1
; bridge_speed = 60
; external_perimeter_extrusion_width = 0
; external_perimeter_speed = 50%
; external_perimeters_first = 0
; extra_perimeters = 1
; fill_angle = 45
; fill_density = 80%
; fill_gaps = 1
; fill_pattern = rectilinear
; gap_fill_speed = 20
; infill_every_layers = 1
; infill_extruder = 1
; infill_extrusion_width = 0
; infill_overlap = 55%
; infill_speed = 80
; overhangs = 1
; perimeter_extruder = 1
; perimeter_extrusion_width = 0
; perimeter_speed = 60
; perimeters = 0
; small_perimeter_speed = 15
; solid_infill_below_area = 70
; solid_infill_every_layers = 0
; solid_infill_extruder = 1
; solid_infill_extrusion_width = 0
; solid_infill_speed = 20
; thin_walls = 1
; top_infill_extrusion_width = 0
; top_infill_pattern = rectilinear
; top_solid_infill_speed = 15
; top_solid_layers = 0
