; generated by Slic3r 1.3.0 on 2020-10-29 at 12:20:25

; external perimeters extrusion width = 0.55mm (5.57mm^3/s)
; perimeters extrusion width = 0.58mm (11.78mm^3/s)
; infill extrusion width = 0.58mm (15.71mm^3/s)
; solid infill extrusion width = 0.58mm (3.93mm^3/s)
; top infill extrusion width = 0.58mm (2.95mm^3/s)

M107
M104 S205 ; set temperature
G28 ; home all axes
G1 Z5 F5000 ; lift nozzle

; Filament gcode

M109 S205 ; set temperature and wait for it to be reached
G21 ; set units to millimeters
G90 ; use absolute coordinates
M82 ; use absolute distances for extrusion
G92 E0
G1 Z0.400 F7800.000
G1 E-2.00000 F2400.00000
G92 E0
G1 X94.105 Y92.011 F7800.000
G1 E2.00000 F2400.00000
G1 F1800
G1 X93.511 Y92.605 E2.03394
G1 X93.511 Y93.762 E2.08070
G1 X95.262 Y92.011 E2.18076
G1 X96.419 Y92.011 E2.22752
G1 X93.511 Y94.919 E2.39371
G1 X93.511 Y96.076 E2.44047
G1 X97.234 Y92.353 E2.65323
G1 X97.234 Y93.510 E2.69999
G1 X93.511 Y97.233 E2.91276
G1 X93.511 Y98.390 E2.95952
G1 X97.234 Y94.667 E3.17229
G1 X97.234 Y95.824 E3.21904
G1 X93.511 Y99.547 E3.43181
G1 X93.511 Y100.704 E3.47857
G1 X97.234 Y96.981 E3.69134
G1 X97.234 Y98.138 E3.73810
G1 X93.511 Y101.861 E3.95086
G1 X93.511 Y103.018 E3.99762
G1 X97.741 Y98.788 E4.23937
G1 X98.898 Y98.788 E4.28613
G1 X93.511 Y104.175 E4.59401
G1 X93.511 Y105.332 E4.64076
G1 X97.234 Y101.609 E4.85353
G1 X97.234 Y102.766 E4.90029
G1 X93.511 Y106.489 E5.11306
G1 X93.511 Y107.646 E5.15982
G1 X97.234 Y103.923 E5.37258
G1 X97.234 Y105.080 E5.41934
G1 X94.325 Y107.989 E5.58559
G1 X95.482 Y107.989 E5.63235
G1 X97.234 Y106.237 E5.73247
G1 X97.234 Y107.394 E5.77922
G1 X96.639 Y107.989 E5.81322
G1 E3.81322 F2400.00000
G92 E0
G1 X99.271 Y101.886 F7800.000
G1 E2.00000 F2400.00000
G1 F1800
G1 X102.369 Y98.788 E2.17705
G1 X101.212 Y98.788 E2.22381
G1 X98.114 Y101.886 E2.40087
G1 X96.957 Y101.886 E2.44763
G1 X100.055 Y98.788 E2.62468
G1 X98.898 Y98.788 E2.67144
G1 E0.67144 F2400.00000
G92 E0
G1 X103.361 Y92.011 F7800.000
G1 E2.00000 F2400.00000
G1 F1800
G1 X102.766 Y92.606 E2.03399
G1 X102.766 Y93.763 E2.08075
G1 X104.518 Y92.011 E2.18087
G1 X105.675 Y92.011 E2.22763
G1 X102.766 Y94.920 E2.39388
G1 X102.766 Y96.077 E2.44063
G1 X106.489 Y92.354 E2.65340
G1 X106.489 Y93.511 E2.70016
G1 X102.766 Y97.234 E2.91293
G1 X102.766 Y98.391 E2.95969
G1 X106.489 Y94.668 E3.17245
G1 X106.489 Y95.825 E3.21921
G1 X100.428 Y101.886 E3.56561
G1 X101.585 Y101.886 E3.61236
G1 X106.489 Y96.982 E3.89263
G1 X106.489 Y98.139 E3.93939
G1 X102.742 Y101.886 E4.15353
G1 X102.766 Y101.886 E4.15450
G1 X102.766 Y103.019 E4.20029
G1 X106.489 Y99.296 E4.41306
G1 X106.489 Y100.453 E4.45982
G1 X102.766 Y104.176 E4.67258
G1 X102.766 Y105.333 E4.71934
G1 X106.489 Y101.610 E4.93211
G1 X106.489 Y102.767 E4.97887
G1 X102.766 Y106.490 E5.19164
G1 X102.766 Y107.647 E5.23839
G1 X106.489 Y103.924 E5.45116
G1 X106.489 Y105.081 E5.49792
G1 X103.581 Y107.989 E5.66411
G1 X104.738 Y107.989 E5.71087
G1 X106.489 Y106.238 E5.81093
G1 X106.489 Y107.395 E5.85769
G1 X105.895 Y107.989 E5.89163
M104 S200 ; set temperature