; generated by Slic3r 1.3.0 on 2019-10-17 at 14:41:47

; external perimeters extrusion width = 0.55mm (5.57mm^3/s)
; perimeters extrusion width = 0.58mm (11.78mm^3/s)
; infill extrusion width = 0.58mm (15.71mm^3/s)
; solid infill extrusion width = 0.58mm (3.93mm^3/s)
; top infill extrusion width = 0.58mm (2.95mm^3/s)

M107
M104 S205 ; set temperature
G28 ; home all axes
G1 Z5 F5000 ; lift nozzle

; Filament gcode

M109 S205 ; set temperature and wait for it to be reached
G21 ; set units to millimeters
G90 ; use absolute coordinates
M82 ; use absolute distances for extrusion
G92 E0
G1 Z0.400 F7800.000
G1 E-2.00000 F2400.00000
G92 E0
G1 X98.387 Y95.550 F7800.000
G1 E2.00000 F2400.00000
G1 F1052.34
G1 X98.650 Y95.426 E2.01172
G1 X98.854 Y95.735 E2.02670
G1 X98.377 Y96.162 E2.05258
G1 X97.921 Y96.699 E2.08106
G1 X97.667 Y97.097 E2.10014
G1 X97.438 Y97.552 E2.12072
G1 X97.199 Y98.238 E2.15008
G1 X97.091 Y98.712 E2.16972
G1 X97.018 Y99.228 E2.19078
G1 X96.985 Y99.720 E2.21071
G1 X96.984 Y100.265 E2.23274
G1 X97.053 Y101.048 E2.26449
G1 X97.144 Y101.537 E2.28458
G1 X97.270 Y101.998 E2.30390
G1 X97.450 Y102.474 E2.32446
G1 X97.764 Y103.068 E2.35162
G1 X98.066 Y103.493 E2.37268
G1 X98.562 Y104.015 E2.40178
G1 X98.902 Y104.269 E2.41895
G1 X98.688 Y104.604 E2.43502
G1 X98.176 Y104.329 E2.45851
G1 X97.784 Y104.060 E2.47774
G1 X97.423 Y103.750 E2.49699
G1 X97.082 Y103.386 E2.51711
G1 X96.805 Y103.014 E2.53585
G1 X96.569 Y102.612 E2.55469
G1 X96.374 Y102.176 E2.57401
G1 X96.219 Y101.703 E2.59411
G1 X96.101 Y101.160 E2.61657
G1 X96.032 Y100.600 E2.63936
G1 X96.009 Y99.996 E2.66380
G1 X96.034 Y99.374 E2.68897
G1 X96.101 Y98.833 E2.71100
G1 X96.217 Y98.301 E2.73300
G1 X96.378 Y97.813 E2.75378
G1 X96.567 Y97.392 E2.77242
G1 X96.811 Y96.975 E2.79195
G1 X97.082 Y96.614 E2.81019
G1 X97.261 Y96.412 E2.82108
G1 X97.619 Y96.074 E2.84097
G1 X97.978 Y95.800 E2.85923
G1 X98.323 Y95.589 E2.87560
G1 E0.87560 F2400.00000
G92 E0
G1 X104.706 Y94.912 F7800.000
G1 E2.00000 F2400.00000
G1 F1052.34
G1 X104.706 Y96.426 E2.06118
G1 X104.198 Y96.170 E2.08416
G1 X103.784 Y95.997 E2.10229
G1 X103.085 Y95.782 E2.13186
G1 X102.357 Y95.655 E2.16170
G1 X101.631 Y95.617 E2.19109
G1 X101.207 Y95.636 E2.20824
G1 X100.799 Y95.689 E2.22490
G1 X100.199 Y95.844 E2.24992
G1 X99.840 Y95.991 E2.26561
G1 X99.491 Y96.183 E2.28171
G1 X99.172 Y96.409 E2.29750
G1 X98.889 Y96.662 E2.31282
G1 X98.496 Y97.124 E2.33735
G1 X98.288 Y97.450 E2.35298
G1 X98.097 Y97.831 E2.37019
G1 X97.887 Y98.436 E2.39606
G1 X97.794 Y98.842 E2.41289
G1 X97.729 Y99.302 E2.43170
G1 X97.699 Y99.745 E2.44962
G1 X97.699 Y100.235 E2.46942
G1 X97.761 Y100.951 E2.49849
G1 X97.840 Y101.376 E2.51597
G1 X97.950 Y101.776 E2.53273
G1 X98.102 Y102.179 E2.55014
G1 X98.374 Y102.692 E2.57358
G1 X98.619 Y103.038 E2.59071
G1 X99.038 Y103.479 E2.61531
G1 X99.492 Y103.819 E2.63821
G1 X99.856 Y104.016 E2.65496
G1 X100.391 Y104.217 E2.67803
G1 X100.811 Y104.313 E2.69545
G1 X101.420 Y104.378 E2.72021
G1 X101.915 Y104.378 E2.74019
G1 X102.570 Y104.316 E2.76681
G1 X103.070 Y104.221 E2.78736
G1 X103.547 Y104.087 E2.80737
G1 X104.201 Y103.829 E2.83578
G1 X104.706 Y103.572 E2.85870
G1 X104.706 Y105.088 E2.91993
G1 X104.488 Y105.192 E2.92971
G1 X103.902 Y105.420 E2.95512
G1 X103.453 Y105.559 E2.97412
G1 X102.800 Y105.707 E3.00119
G1 X102.330 Y105.776 E3.02036
G1 X101.847 Y105.817 E3.03997
G1 X101.401 Y105.829 E3.05798
G1 X100.685 Y105.803 E3.08696
G1 X100.050 Y105.730 E3.11277
G1 X99.419 Y105.604 E3.13880
G1 X98.863 Y105.438 E3.16223
G1 X98.313 Y105.214 E3.18623
G1 X97.804 Y104.940 E3.20960
G1 X97.348 Y104.627 E3.23194
G1 X96.928 Y104.266 E3.25431
G1 X96.533 Y103.845 E3.27764
G1 X96.209 Y103.410 E3.29959
G1 X95.933 Y102.940 E3.32161
G1 X95.707 Y102.434 E3.34401
G1 X95.529 Y101.891 E3.36709
G1 X95.396 Y101.280 E3.39235
G1 X95.320 Y100.658 E3.41769
G1 X95.294 Y99.996 E3.44447
G1 X95.321 Y99.315 E3.47198
G1 X95.396 Y98.712 E3.49654
G1 X95.527 Y98.113 E3.52133
G1 X95.711 Y97.554 E3.54510
G1 X95.931 Y97.064 E3.56683
G1 X96.216 Y96.579 E3.58955
G1 X96.528 Y96.161 E3.61062
G1 X96.748 Y95.914 E3.62399
G1 X97.155 Y95.530 E3.64663
G1 X97.573 Y95.210 E3.66791
G1 X98.048 Y94.920 E3.69038
G1 X98.585 Y94.667 E3.71439
G1 X99.137 Y94.473 E3.73800
G1 X99.728 Y94.327 E3.76262
G1 X100.360 Y94.228 E3.78845
G1 X101.033 Y94.178 E3.81573
G1 X101.617 Y94.174 E3.83935
G1 X102.351 Y94.226 E3.86910
G1 X102.782 Y94.290 E3.88670
G1 X103.246 Y94.387 E3.90583
G1 X103.657 Y94.500 E3.92305
G1 X104.102 Y94.651 E3.94204
G1 X104.638 Y94.880 E3.96563
G1 X104.400 Y95.307 F7800.000
G1 X104.349 Y95.839 F7800.000
G1 F1052.34
G1 X104.023 Y95.357 E3.98427
G1 X103.452 Y95.166 E4.00355
G1 X103.080 Y95.069 E4.01586
G1 F1052.34
G1 X102.274 Y94.936 E4.04445
G1 X101.617 Y94.896 E4.06746
G1 X101.128 Y94.908 E4.08458
G1 F1052.34
G1 X100.632 Y94.959 E4.10349
G1 F1052.34
G1 X99.978 Y95.087 E4.13108
G1 F1052.34
G1 X99.699 Y95.171 E4.14405
G1 F1052.34
G1 X99.513 Y95.232 E4.15354
G1 X99.401 Y95.634 E4.17369
G1 F1052.34
G1 X99.346 Y95.831 E4.18255
G1 E2.18255 F2400.00000
G92 E0
G1 X97.213 Y97.108 F7800.000
G1 E2.00000 F2400.00000
G1 F1052.34
G1 X97.051 Y97.393 E2.00040
G1 F1052.34
G1 X96.758 Y98.117 E2.00392
G1 F1052.34
G1 X96.629 Y98.622 E2.00814
G1 X96.542 Y99.174 E2.01266
G1 X96.503 Y99.708 E2.01700
G1 X96.502 Y100.280 E2.02164
G1 X96.580 Y101.118 E2.02846
G1 X96.688 Y101.637 E2.03275
G1 X96.847 Y102.140 E2.03702
G1 F1052.34
G1 X97.069 Y102.642 E2.03990
G1 F1052.34
G1 X97.225 Y102.906 E2.04046
G1 E0.04046 F2400.00000
G92 E0
G1 X99.376 Y104.191 F7800.000
G1 E2.00000 F2400.00000
G1 F1052.34
G1 X99.433 Y104.384 E2.00838
G1 F1052.34
G1 X99.552 Y104.783 E2.02728
G1 X100.140 Y104.954 E2.05502
G1 F1052.34
G1 X100.429 Y105.007 E2.06750
G1 F1052.34
G1 X100.741 Y105.057 E2.07991
G1 X101.362 Y105.102 E2.10438
G1 F1052.34
G1 X101.965 Y105.090 E2.12592
G1 X102.653 Y105.016 E2.15063
G1 F1052.34
G1 X103.243 Y104.894 E2.17013
G1 X103.675 Y104.768 E2.18468
G1 X104.349 Y104.509 E2.20806
M104 S200 ; set temperature
G1 Z0.800 F7800.000
G1 E0.20806 F2400.00000
G92 E0
G1 X98.314 Y96.041 F7800.000
G1 E2.00000 F2400.00000
G1 F776.122
G1 X97.811 Y96.630 E2.02151
G1 X97.570 Y97.006 E2.03392
G1 X97.318 Y97.502 E2.04935
G1 X97.062 Y98.250 E2.07133
G1 X96.963 Y98.693 E2.08392
G1 X96.886 Y99.249 E2.09952
G1 X96.857 Y99.698 E2.11203
G1 X96.855 Y100.256 E2.12753
G1 X96.931 Y101.112 E2.15139
G1 X97.022 Y101.583 E2.16471
G1 X97.144 Y102.027 E2.17750
G1 X97.334 Y102.532 E2.19250
G1 X97.642 Y103.117 E2.21087
G1 X98.039 Y103.661 E2.22957
G1 X98.323 Y103.951 E2.24084
G1 X98.151 Y104.155 E2.24828
G1 X97.858 Y103.953 E2.25816
G1 X97.518 Y103.661 E2.27062
G1 X97.162 Y103.279 E2.28512
G1 X96.903 Y102.928 E2.29724
G1 X96.681 Y102.546 E2.30952
G1 X96.496 Y102.132 E2.32213
G1 X96.349 Y101.685 E2.33520
G1 X96.224 Y101.113 E2.35146
G1 X96.160 Y100.577 E2.36643
G1 X96.138 Y99.998 E2.38255
G1 X96.165 Y99.360 E2.40029
G1 X96.225 Y98.876 E2.41381
G1 X96.343 Y98.334 E2.42924
G1 X96.507 Y97.838 E2.44375
G1 X96.673 Y97.468 E2.45502
G1 X96.923 Y97.040 E2.46877
G1 X97.144 Y96.742 E2.47907
G1 X97.398 Y96.458 E2.48966
G1 X97.737 Y96.145 E2.50247
G1 X98.134 Y95.849 E2.51623
G1 X98.262 Y95.986 E2.52146
G1 X104.354 Y95.855 F7800.000
G1 F3104.49
G1 X103.985 Y95.697 E2.53259
G1 X103.588 Y95.556 E2.54431
G1 X103.173 Y95.441 E2.55628
G1 X102.371 Y95.302 E2.57886
G1 X101.935 Y95.270 E2.59102
G1 X101.434 Y95.268 E2.60495
G1 X100.769 Y95.336 E2.62350
G1 X100.375 Y95.423 E2.63470
G1 X100.046 Y95.525 E2.64428
G1 X99.687 Y95.673 E2.65508
G1 X99.291 Y95.891 E2.66762
G1 X98.942 Y96.141 E2.67955
G1 X98.657 Y96.395 E2.69016
G1 X98.206 Y96.923 E2.70945
G1 X97.996 Y97.250 E2.72024
G1 X97.772 Y97.693 E2.73404
G1 X97.535 Y98.383 E2.75430
G1 X97.447 Y98.780 E2.76558
G1 X97.375 Y99.299 E2.78014
G1 X97.347 Y99.715 E2.79174
G1 X97.346 Y100.235 E2.80617
G1 X97.418 Y101.043 E2.82871
G1 X97.500 Y101.471 E2.84081
G1 X97.611 Y101.874 E2.85243
G1 X97.783 Y102.330 E2.86596
G1 X98.060 Y102.857 E2.88249
G1 X98.414 Y103.343 E2.89920
G1 X98.832 Y103.768 E2.91575
G1 X99.305 Y104.118 E2.93210
G1 X99.733 Y104.349 E2.94562
G1 X100.285 Y104.554 E2.96198
G1 X100.772 Y104.665 E2.97584
G1 X101.389 Y104.730 E2.99308
G1 X101.962 Y104.729 E3.00898
G1 X102.545 Y104.675 E3.02525
G1 X103.137 Y104.568 E3.04198
G1 X103.684 Y104.414 E3.05774
G1 X104.354 Y104.148 E3.07776
G1 X104.354 Y104.868 E3.09774
G1 X103.829 Y105.072 E3.11338
G1 X103.356 Y105.220 E3.12715
G1 X102.761 Y105.355 E3.14410
G1 X102.279 Y105.427 E3.15764
G1 X101.780 Y105.467 E3.17153
G1 X101.284 Y105.475 E3.18533
G1 X100.683 Y105.449 E3.20203
G1 X100.123 Y105.385 E3.21769
G1 X99.492 Y105.258 E3.23555
G1 X99.010 Y105.115 E3.24953
G1 X98.468 Y104.897 E3.26575
G1 X97.972 Y104.628 E3.28144
G1 X97.558 Y104.343 E3.29539
G1 X97.177 Y104.016 E3.30934
G1 X96.783 Y103.593 E3.32539
G1 X96.492 Y103.198 E3.33902
G1 X96.243 Y102.770 E3.35277
G1 X96.037 Y102.309 E3.36681
G1 X95.874 Y101.814 E3.38128
G1 X95.740 Y101.194 E3.39890
G1 X95.670 Y100.616 E3.41507
G1 X95.647 Y99.997 E3.43228
G1 X95.675 Y99.319 E3.45113
G1 X95.741 Y98.794 E3.46583
G1 X95.868 Y98.204 E3.48258
G1 X96.049 Y97.659 E3.49853
G1 X96.236 Y97.242 E3.51123
G1 X96.513 Y96.770 E3.52645
G1 X96.763 Y96.432 E3.53810
G1 X97.047 Y96.113 E3.54998
G1 X97.422 Y95.767 E3.56416
G1 X97.828 Y95.465 E3.57821
G1 X98.266 Y95.204 E3.59236
G1 X98.739 Y94.986 E3.60684
G1 X99.249 Y94.808 E3.62185
G1 X99.799 Y94.672 E3.63757
G1 X100.389 Y94.580 E3.65417
G1 X101.022 Y94.531 E3.67181
G1 X101.570 Y94.526 E3.68703
G1 X102.339 Y94.580 E3.70843
G1 X102.706 Y94.635 E3.71875
G1 X103.529 Y94.830 E3.74223
G1 X103.991 Y94.986 E3.75578
G1 X104.354 Y95.133 E3.76666
G1 X104.354 Y95.780 E3.78463
G1 X104.831 Y96.656 F7800.000
G1 F1800
G1 X104.599 Y96.513 E3.79180
G1 X104.203 Y96.310 E3.80348
G1 X103.811 Y96.142 E3.81468
G1 X103.444 Y96.012 E3.82492
G1 X103.068 Y95.907 E3.83517
G1 X102.313 Y95.777 E3.85528
G1 X101.916 Y95.748 E3.86574
G1 X101.457 Y95.745 E3.87780
G1 X100.845 Y95.808 E3.89395
G1 X100.498 Y95.885 E3.90330
G1 X100.208 Y95.975 E3.91126
G1 X99.894 Y96.104 E3.92020
G1 X99.546 Y96.296 E3.93061
G1 X99.241 Y96.514 E3.94049
G1 X98.999 Y96.730 E3.94899
G1 X98.590 Y97.209 E3.96552
G1 X98.411 Y97.488 E3.97423
G1 X98.213 Y97.879 E3.98577
G1 X97.996 Y98.513 E4.00337
G1 X97.917 Y98.865 E4.01283
G1 X97.850 Y99.348 E4.02563
G1 X97.825 Y99.732 E4.03575
G1 X97.823 Y100.215 E4.04842
G1 X97.892 Y100.977 E4.06853
G1 X97.966 Y101.363 E4.07885
G1 X98.066 Y101.727 E4.08876
G1 X98.219 Y102.134 E4.10020
G1 X98.466 Y102.604 E4.11414
G1 X98.780 Y103.033 E4.12809
G1 X99.146 Y103.407 E4.14184
G1 X99.561 Y103.714 E4.15541
G1 X99.931 Y103.913 E4.16642
G1 X100.422 Y104.095 E4.18020
G1 X100.851 Y104.193 E4.19174
G1 X101.414 Y104.253 E4.20662
G1 X101.939 Y104.251 E4.22042
G1 X102.480 Y104.202 E4.23469
G1 X103.030 Y104.102 E4.24935
G1 X103.530 Y103.961 E4.26302
G1 X104.144 Y103.717 E4.28037
G1 X104.831 Y103.366 E4.30062
G1 X104.831 Y105.166 E4.34788
G1 X104.480 Y105.331 E4.35807
G1 X103.987 Y105.523 E4.37197
G1 X103.480 Y105.681 E4.38591
G1 X102.849 Y105.825 E4.40292
G1 X102.333 Y105.902 E4.41662
G1 X101.803 Y105.944 E4.43058
G1 X101.277 Y105.953 E4.44440
G1 X100.646 Y105.925 E4.46101
G1 X100.049 Y105.857 E4.47679
G1 X99.377 Y105.722 E4.49477
G1 X98.852 Y105.567 E4.50915
G1 X98.265 Y105.329 E4.52580
G1 X97.722 Y105.036 E4.54201
G1 X97.266 Y104.722 E4.55654
G1 X96.846 Y104.361 E4.57109
G1 X96.415 Y103.899 E4.58769
G1 X96.092 Y103.461 E4.60198
G1 X95.818 Y102.988 E4.61633
G1 X95.591 Y102.481 E4.63092
G1 X95.413 Y101.939 E4.64590
G1 X95.268 Y101.273 E4.66380
G1 X95.194 Y100.653 E4.68020
G1 X95.169 Y99.996 E4.69749
G1 X95.199 Y99.280 E4.71632
G1 X95.269 Y98.714 E4.73130
G1 X95.407 Y98.078 E4.74837
G1 X95.603 Y97.486 E4.76476
G1 X95.811 Y97.023 E4.77809
G1 X96.114 Y96.506 E4.79383
G1 X96.392 Y96.131 E4.80610
G1 X96.706 Y95.778 E4.81850
G1 X97.117 Y95.399 E4.83318
G1 X97.562 Y95.067 E4.84777
G1 X98.043 Y94.781 E4.86246
G1 X98.560 Y94.542 E4.87741
G1 X99.113 Y94.350 E4.89281
G1 X99.704 Y94.204 E4.90880
G1 X100.333 Y94.105 E4.92553
G1 X101.002 Y94.054 E4.94313
G1 X101.585 Y94.048 E4.95845
G1 X102.390 Y94.105 E4.97966
G1 X102.791 Y94.164 E4.99029
G1 X103.299 Y94.272 E5.00394
G1 X103.668 Y94.373 E5.01399
G1 X104.157 Y94.538 E5.02755
G1 X104.831 Y94.834 E5.04687
G1 X104.831 Y96.581 E5.09277
G1 X104.649 Y96.453 F7800.000
G1 X104.108 Y95.390 F7800.000
G1 F1034.83
G1 X103.686 Y95.236 E5.09520
G1 X103.104 Y95.075 E5.09845
G1 X102.420 Y94.951 E5.10220
G1 X101.945 Y94.912 E5.10476
G1 F1034.83
G1 X101.409 Y94.898 E5.10978
G1 X100.698 Y94.949 E5.11645
G1 F1034.83
G1 X100.083 Y95.063 E5.12514
G1 F1034.83
G1 X99.689 Y95.174 E5.13231
G1 F1034.83
G1 X99.389 Y95.278 E5.13908
G1 F1034.83
G1 X98.996 Y95.454 E5.14970
G1 F1034.83
G1 X98.677 Y95.636 E5.16001
G1 F1034.83
G1 X98.414 Y95.789 E5.16946
G1 X97.051 Y97.392 F7800.000
G1 F1034.83
G1 X96.951 Y97.611 E5.17011
G1 X96.744 Y98.165 E5.17170
G1 F1034.83
G1 X96.627 Y98.636 E5.17465
G1 X96.537 Y99.210 E5.17817
G1 X96.504 Y99.689 E5.18109
G1 X96.502 Y100.276 E5.18465
G1 X96.572 Y101.054 E5.18939
G1 X96.677 Y101.595 E5.19273
G1 X96.801 Y102.014 E5.19538
G1 X96.956 Y102.405 E5.19793
G1 F1034.83
G1 X97.140 Y102.772 E5.19890
G1 X98.430 Y104.205 F7800.000
G1 F1034.83
G1 X99.007 Y104.550 E5.21844
G1 F1034.83
G1 X99.352 Y104.703 E5.22797
G1 F1034.83
G1 X99.553 Y104.785 E5.23243
G1 X99.879 Y104.880 E5.23939
G1 F1034.83
G1 X100.176 Y104.963 E5.24410
G1 X100.443 Y105.010 E5.24825
G1 F1034.83
G1 X100.714 Y105.055 E5.25155
G1 X101.289 Y105.098 E5.25847
G1 F1034.83
G1 X101.974 Y105.090 E5.26418
G1 X102.588 Y105.025 E5.26933
G1 F1034.83
G1 X103.267 Y104.888 E5.27290
G1 X103.786 Y104.731 E5.27569
G1 X104.108 Y104.605 E5.27748
G1 Z1.200 F7800.000
G1 E3.27748 F2400.00000
G92 E0
G1 X98.321 Y96.040 F7800.000
G1 E2.00000 F2400.00000
G1 F778.351
G1 X98.009 Y96.377 E2.01274
G1 X97.787 Y96.667 E2.02289
G1 X97.586 Y96.979 E2.03322
G1 X97.332 Y97.474 E2.04866
G1 X97.192 Y97.831 E2.05932
G1 X97.045 Y98.318 E2.07344
G1 X96.963 Y98.697 E2.08422
G1 X96.880 Y99.305 E2.10126
G1 X96.853 Y100.205 E2.12626
G1 X96.880 Y100.671 E2.13925
G1 X96.945 Y101.199 E2.15402
G1 X97.135 Y102.006 E2.17704
G1 X97.418 Y102.714 E2.19824
G1 X97.741 Y103.269 E2.21608
G1 X98.130 Y103.766 E2.23360
G1 X98.297 Y103.928 E2.24006
G1 X98.124 Y104.138 E2.24759
G1 X97.854 Y103.950 E2.25673
G1 X97.517 Y103.661 E2.26905
G1 X97.220 Y103.348 E2.28105
G1 X96.889 Y102.907 E2.29636
G1 X96.677 Y102.539 E2.30816
G1 X96.496 Y102.134 E2.32048
G1 X96.351 Y101.694 E2.33336
G1 X96.242 Y101.216 E2.34698
G1 X96.171 Y100.697 E2.36152
G1 X96.140 Y100.139 E2.37705
G1 X96.154 Y99.502 E2.39475
G1 X96.213 Y98.956 E2.41000
G1 X96.292 Y98.533 E2.42196
G1 X96.398 Y98.145 E2.43311
G1 X96.587 Y97.647 E2.44791
G1 X96.823 Y97.198 E2.46201
G1 X97.079 Y96.824 E2.47460
G1 X97.363 Y96.493 E2.48672
G1 X97.687 Y96.185 E2.49913
G1 X98.157 Y95.841 E2.51531
G1 X98.273 Y95.982 E2.52036
G1 X104.354 Y95.866 F7800.000
G1 F3113.4
G1 X103.840 Y95.640 E2.53595
G1 X103.211 Y95.450 E2.55421
G1 X102.843 Y95.372 E2.56464
G1 X102.313 Y95.296 E2.57950
G1 X101.473 Y95.267 E2.60288
G1 X101.082 Y95.294 E2.61376
G1 X100.657 Y95.357 E2.62568
G1 X100.303 Y95.442 E2.63580
G1 X99.961 Y95.556 E2.64581
G1 X99.587 Y95.724 E2.65721
G1 X99.275 Y95.901 E2.66716
G1 X98.933 Y96.149 E2.67891
G1 X98.688 Y96.366 E2.68798
G1 X98.385 Y96.693 E2.70038
G1 X98.189 Y96.949 E2.70934
G1 X98.011 Y97.225 E2.71844
G1 X97.780 Y97.676 E2.73253
G1 X97.656 Y97.992 E2.74196
G1 X97.521 Y98.441 E2.75499
G1 X97.446 Y98.782 E2.76469
G1 X97.370 Y99.345 E2.78047
G1 X97.345 Y100.198 E2.80417
G1 X97.369 Y100.627 E2.81611
G1 X97.429 Y101.113 E2.82969
G1 X97.604 Y101.858 E2.85095
G1 X97.861 Y102.499 E2.87013
G1 X98.149 Y102.994 E2.88604
G1 X98.496 Y103.438 E2.90170
G1 X98.863 Y103.794 E2.91591
G1 X99.308 Y104.121 E2.93125
G1 X99.757 Y104.360 E2.94538
G1 X100.282 Y104.553 E2.96090
G1 X100.792 Y104.668 E2.97542
G1 X101.377 Y104.730 E2.99177
G1 X101.992 Y104.727 E3.00884
G1 X102.470 Y104.685 E3.02220
G1 X103.125 Y104.571 E3.04065
G1 X103.708 Y104.405 E3.05749
G1 X104.354 Y104.148 E3.07679
G1 X104.354 Y104.861 E3.09658
G1 X103.872 Y105.057 E3.11101
G1 X103.349 Y105.222 E3.12625
G1 X102.840 Y105.340 E3.14076
G1 X102.477 Y105.401 E3.15098
G1 X101.943 Y105.458 E3.16590
G1 X101.398 Y105.476 E3.18107
G1 X100.845 Y105.460 E3.19643
G1 X100.136 Y105.387 E3.21621
G1 X99.481 Y105.256 E3.23478
G1 X99.040 Y105.126 E3.24755
G1 X98.473 Y104.899 E3.26451
G1 X97.955 Y104.618 E3.28087
G1 X97.553 Y104.339 E3.29447
G1 X97.178 Y104.018 E3.30818
G1 X96.844 Y103.665 E3.32168
G1 X96.479 Y103.178 E3.33860
G1 X96.239 Y102.762 E3.35192
G1 X96.038 Y102.311 E3.36564
G1 X95.877 Y101.826 E3.37985
G1 X95.758 Y101.304 E3.39472
G1 X95.682 Y100.744 E3.41041
G1 X95.649 Y100.147 E3.42702
G1 X95.664 Y99.470 E3.44583
G1 X95.727 Y98.884 E3.46219
G1 X95.813 Y98.423 E3.47523
G1 X95.930 Y97.993 E3.48760
G1 X96.139 Y97.445 E3.50389
G1 X96.402 Y96.944 E3.51960
G1 X96.689 Y96.525 E3.53373
G1 X97.007 Y96.154 E3.54729
G1 X97.368 Y95.812 E3.56111
G1 X97.761 Y95.509 E3.57489
G1 X98.185 Y95.247 E3.58873
G1 X98.642 Y95.026 E3.60285
G1 X99.135 Y94.843 E3.61744
G1 X99.665 Y94.701 E3.63269
G1 X100.237 Y94.600 E3.64881
G1 X100.752 Y94.546 E3.66321
G1 X101.540 Y94.526 E3.68509
G1 X102.364 Y94.583 E3.70804
G1 X103.198 Y94.739 E3.73160
G1 X103.998 Y94.990 E3.75490
G1 X104.354 Y95.148 E3.76571
G1 X104.354 Y95.791 E3.78356
G1 X104.831 Y96.644 F7800.000
G1 F1800
G1 X104.412 Y96.413 E3.79612
G1 X103.674 Y96.089 E3.81730
G1 X103.092 Y95.913 E3.83328
G1 X102.759 Y95.842 E3.84220
G1 X102.271 Y95.772 E3.85516
G1 X101.481 Y95.745 E3.87593
G1 X101.133 Y95.769 E3.88508
G1 X100.749 Y95.826 E3.89530
G1 X100.435 Y95.902 E3.90378
G1 X100.135 Y96.002 E3.91208
G1 X99.803 Y96.150 E3.92162
G1 X99.534 Y96.303 E3.92975
G1 X99.231 Y96.522 E3.93956
G1 X99.022 Y96.707 E3.94690
G1 X98.751 Y97.001 E3.95741
G1 X98.426 Y97.463 E3.97225
G1 X98.216 Y97.873 E3.98434
G1 X98.108 Y98.148 E3.99211
G1 X97.984 Y98.561 E4.00343
G1 X97.917 Y98.865 E4.01162
G1 X97.847 Y99.385 E4.02538
G1 X97.823 Y100.192 E4.04658
G1 X97.845 Y100.584 E4.05692
G1 X97.900 Y101.028 E4.06867
G1 X98.061 Y101.713 E4.08715
G1 X98.291 Y102.289 E4.10343
G1 X98.545 Y102.725 E4.11669
G1 X98.852 Y103.118 E4.12978
G1 X99.172 Y103.428 E4.14149
G1 X99.563 Y103.715 E4.15424
G1 X99.953 Y103.923 E4.16584
G1 X100.418 Y104.094 E4.17884
G1 X100.870 Y104.196 E4.19102
G1 X101.401 Y104.252 E4.20505
G1 X101.970 Y104.250 E4.21999
G1 X102.408 Y104.211 E4.23155
G1 X103.018 Y104.105 E4.24782
G1 X103.554 Y103.953 E4.26245
G1 X104.140 Y103.720 E4.27900
G1 X104.831 Y103.365 E4.29942
G1 X104.831 Y105.165 E4.34670
G1 X104.423 Y105.355 E4.35853
G1 X104.031 Y105.508 E4.36958
G1 X103.475 Y105.683 E4.38488
G1 X102.934 Y105.809 E4.39948
G1 X102.542 Y105.874 E4.40992
G1 X101.977 Y105.934 E4.42485
G1 X101.399 Y105.954 E4.44004
G1 X100.813 Y105.937 E4.45543
G1 X100.065 Y105.859 E4.47519
G1 X99.366 Y105.720 E4.49389
G1 X98.883 Y105.577 E4.50712
G1 X98.270 Y105.332 E4.52448
G1 X97.705 Y105.025 E4.54136
G1 X97.261 Y104.717 E4.55555
G1 X96.849 Y104.364 E4.56980
G1 X96.478 Y103.974 E4.58394
G1 X96.080 Y103.441 E4.60143
G1 X95.813 Y102.980 E4.61542
G1 X95.592 Y102.484 E4.62968
G1 X95.417 Y101.954 E4.64434
G1 X95.288 Y101.389 E4.65955
G1 X95.206 Y100.789 E4.67545
G1 X95.171 Y100.154 E4.69215
G1 X95.187 Y99.439 E4.71095
G1 X95.254 Y98.815 E4.72744
G1 X95.348 Y98.316 E4.74077
G1 X95.476 Y97.845 E4.75359
G1 X95.703 Y97.249 E4.77036
G1 X95.992 Y96.698 E4.78669
G1 X96.310 Y96.234 E4.80146
G1 X96.660 Y95.824 E4.81563
G1 X97.057 Y95.448 E4.82999
G1 X97.489 Y95.116 E4.84430
G1 X97.955 Y94.828 E4.85867
G1 X98.455 Y94.586 E4.87327
G1 X98.990 Y94.388 E4.88826
G1 X99.561 Y94.235 E4.90380
G1 X100.170 Y94.126 E4.92004
G1 X100.722 Y94.069 E4.93460
G1 X101.550 Y94.048 E4.95637
G1 X102.416 Y94.108 E4.97916
G1 X102.777 Y94.162 E4.98875
G1 X103.319 Y94.277 E5.00330
G1 X104.167 Y94.542 E5.02666
G1 X104.831 Y94.838 E5.04574
G1 X104.831 Y96.569 E5.09121
G1 X104.484 Y96.315 F7800.000
G1 X104.108 Y95.399 F7800.000
G1 F1037.8
G1 X103.880 Y95.303 E5.09235
G1 X103.298 Y95.124 E5.09518
G1 X102.900 Y95.030 E5.09707
G1 F1037.8
G1 X102.325 Y94.939 E5.10150
G1 X101.532 Y94.897 E5.10755
G1 X101.035 Y94.918 E5.11133
G1 F1037.8
G1 X100.295 Y95.014 E5.12030
G1 F1037.8
G1 X99.993 Y95.086 E5.12497
G1 F1037.8
G1 X99.570 Y95.215 E5.13306
G1 F1037.8
G1 X99.145 Y95.386 E5.14340
G1 F1037.8
G1 X98.857 Y95.529 E5.15202
G1 F1037.8
G1 X98.429 Y95.785 E5.16749
G1 X97.166 Y97.189 F7800.000
G1 F1037.8
G1 X97.069 Y97.353 E5.16751
G1 X96.896 Y97.732 E5.16756
G1 F1037.8
G1 X96.717 Y98.250 E5.16933
G1 F1037.8
G1 X96.623 Y98.641 E5.17191
G1 X96.531 Y99.270 E5.17598
G1 X96.499 Y100.205 E5.18197
G1 X96.524 Y100.663 E5.18490
G1 X96.587 Y101.153 E5.18806
G1 X96.684 Y101.601 E5.19100
G1 X96.829 Y102.097 E5.19431
G1 F1037.8
G1 X97.127 Y102.750 E5.19678
G1 X98.401 Y104.188 F7800.000
G1 F1037.8
G1 X99.014 Y104.552 E5.21741
G1 F1037.8
G1 X99.379 Y104.714 E5.22740
G1 F1037.8
G1 X99.579 Y104.795 E5.23183
G1 X99.872 Y104.878 E5.23806
G1 F1037.8
G1 X100.173 Y104.962 E5.24282
G1 X100.459 Y105.011 E5.24725
G1 F1037.8
G1 X100.871 Y105.070 E5.25207
G1 X101.351 Y105.102 E5.25766
G1 F1037.8
G1 X101.918 Y105.093 E5.26229
G1 X102.429 Y105.047 E5.26649
G1 F1037.8
G1 X103.258 Y104.890 E5.27088
G1 X103.761 Y104.740 E5.27360
G1 X104.108 Y104.606 E5.27554
M106 S255
G1 Z1.600 F7800.000
G1 E3.27554 F2400.00000
G92 E0
G1 X98.324 Y96.037 F7800.000
G1 E2.00000 F2400.00000
G1 F778.543
G1 X97.980 Y96.412 E2.01413
G1 X97.597 Y96.959 E2.03267
G1 X97.335 Y97.469 E2.04861
G1 X97.203 Y97.797 E2.05843
G1 X97.036 Y98.353 E2.07455
G1 X96.961 Y98.709 E2.08467
G1 X96.878 Y99.331 E2.10208
G1 X96.853 Y100.192 E2.12601
G1 X96.877 Y100.637 E2.13840
G1 X96.950 Y101.232 E2.15504
G1 X97.133 Y101.998 E2.17693
G1 X97.417 Y102.712 E2.19827
G1 X97.759 Y103.297 E2.21710
G1 X98.138 Y103.775 E2.23402
G1 X98.296 Y103.928 E2.24014
G1 X98.123 Y104.138 E2.24770
G1 X97.850 Y103.948 E2.25694
G1 X97.519 Y103.664 E2.26905
G1 X97.213 Y103.343 E2.28138
G1 X96.892 Y102.912 E2.29630
G1 X96.674 Y102.534 E2.30842
G1 X96.497 Y102.135 E2.32054
G1 X96.353 Y101.703 E2.33319
G1 X96.245 Y101.234 E2.34655
G1 X96.173 Y100.727 E2.36080
G1 X96.140 Y100.181 E2.37598
G1 X96.152 Y99.539 E2.39382
G1 X96.190 Y99.121 E2.40546
G1 X96.298 Y98.508 E2.42276
G1 X96.393 Y98.160 E2.43279
G1 X96.588 Y97.646 E2.44806
G1 X96.832 Y97.184 E2.46255
G1 X97.088 Y96.812 E2.47512
G1 X97.369 Y96.487 E2.48705
G1 X97.689 Y96.184 E2.49928
G1 X98.160 Y95.839 E2.51551
G1 X98.276 Y95.980 E2.52057
G1 X104.354 Y95.850 F7800.000
G1 F3114.17
G1 X103.818 Y95.633 E2.53663
G1 X103.225 Y95.454 E2.55382
G1 X102.895 Y95.381 E2.56322
G1 X102.289 Y95.293 E2.58024
G1 X101.486 Y95.266 E2.60256
G1 X101.116 Y95.290 E2.61284
G1 X100.622 Y95.363 E2.62673
G1 X99.995 Y95.542 E2.64483
G1 X99.559 Y95.737 E2.65811
G1 X99.265 Y95.908 E2.66755
G1 X98.926 Y96.155 E2.67919
G1 X98.703 Y96.351 E2.68745
G1 X98.357 Y96.726 E2.70161
G1 X98.023 Y97.205 E2.71784
G1 X97.782 Y97.673 E2.73246
G1 X97.667 Y97.960 E2.74103
G1 X97.512 Y98.475 E2.75598
G1 X97.445 Y98.793 E2.76501
G1 X97.368 Y99.370 E2.78119
G1 X97.344 Y100.186 E2.80386
G1 X97.366 Y100.594 E2.81521
G1 X97.434 Y101.145 E2.83062
G1 X97.602 Y101.850 E2.85075
G1 X97.859 Y102.496 E2.87008
G1 X98.166 Y103.019 E2.88692
G1 X98.502 Y103.444 E2.90197
G1 X98.882 Y103.811 E2.91664
G1 X99.311 Y104.122 E2.93137
G1 X99.775 Y104.368 E2.94595
G1 X100.279 Y104.552 E2.96086
G1 X100.806 Y104.671 E2.97587
G1 X101.368 Y104.729 E2.99155
G1 X102.032 Y104.726 E3.01001
G1 X102.754 Y104.645 E3.03017
G1 X103.414 Y104.496 E3.04899
G1 X104.018 Y104.291 E3.06670
G1 X104.354 Y104.147 E3.07684
G1 X104.354 Y104.860 E3.09664
G1 X103.905 Y105.045 E3.11012
G1 X103.346 Y105.222 E3.12641
G1 X102.822 Y105.344 E3.14136
G1 X101.964 Y105.456 E3.16540
G1 X101.396 Y105.476 E3.18117
G1 X100.880 Y105.462 E3.19551
G1 X100.149 Y105.388 E3.21594
G1 X99.472 Y105.253 E3.23510
G1 X99.062 Y105.133 E3.24696
G1 X98.477 Y104.900 E3.26447
G1 X97.943 Y104.611 E3.28133
G1 X97.549 Y104.336 E3.29466
G1 X97.181 Y104.020 E3.30815
G1 X96.844 Y103.666 E3.32173
G1 X96.477 Y103.175 E3.33876
G1 X96.236 Y102.757 E3.35217
G1 X96.039 Y102.313 E3.36566
G1 X95.880 Y101.836 E3.37961
G1 X95.762 Y101.324 E3.39421
G1 X95.685 Y100.776 E3.40959
G1 X95.649 Y100.192 E3.42585
G1 X95.661 Y99.512 E3.44472
G1 X95.703 Y99.056 E3.45744
G1 X95.819 Y98.401 E3.47593
G1 X95.926 Y98.008 E3.48725
G1 X96.140 Y97.444 E3.50401
G1 X96.411 Y96.930 E3.52015
G1 X96.699 Y96.511 E3.53426
G1 X97.013 Y96.147 E3.54762
G1 X97.369 Y95.810 E3.56124
G1 X97.756 Y95.512 E3.57480
G1 X98.173 Y95.254 E3.58844
G1 X98.623 Y95.034 E3.60233
G1 X99.107 Y94.852 E3.61669
G1 X99.615 Y94.712 E3.63134
G1 X100.172 Y94.608 E3.64707
G1 X100.764 Y94.545 E3.66361
G1 X101.512 Y94.525 E3.68440
G1 X102.370 Y94.584 E3.70828
G1 X103.215 Y94.743 E3.73217
G1 X104.006 Y94.993 E3.75522
G1 X104.354 Y95.148 E3.76579
G1 X104.354 Y95.775 E3.78320
G1 X104.831 Y96.644 F7800.000
G1 F1800
G1 X104.100 Y96.263 E3.80486
G1 X103.659 Y96.084 E3.81737
G1 X103.105 Y95.916 E3.83257
G1 X102.809 Y95.851 E3.84052
G1 X102.246 Y95.770 E3.85546
G1 X101.493 Y95.744 E3.87526
G1 X101.167 Y95.765 E3.88384
G1 X100.723 Y95.831 E3.89563
G1 X100.159 Y95.992 E3.91103
G1 X99.777 Y96.163 E3.92203
G1 X99.526 Y96.309 E3.92966
G1 X99.225 Y96.528 E3.93943
G1 X99.037 Y96.693 E3.94600
G1 X98.725 Y97.032 E3.95811
G1 X98.436 Y97.445 E3.97134
G1 X98.217 Y97.871 E3.98394
G1 X98.118 Y98.117 E3.99089
G1 X97.975 Y98.593 E4.00395
G1 X97.916 Y98.874 E4.01148
G1 X97.844 Y99.409 E4.02566
G1 X97.822 Y100.180 E4.04592
G1 X97.842 Y100.552 E4.05571
G1 X97.904 Y101.060 E4.06914
G1 X98.058 Y101.705 E4.08657
G1 X98.290 Y102.286 E4.10299
G1 X98.561 Y102.749 E4.11709
G1 X98.856 Y103.123 E4.12960
G1 X99.190 Y103.444 E4.14175
G1 X99.564 Y103.716 E4.15392
G1 X99.970 Y103.931 E4.16597
G1 X100.414 Y104.093 E4.17840
G1 X100.884 Y104.199 E4.19104
G1 X101.391 Y104.252 E4.20445
G1 X102.004 Y104.248 E4.22055
G1 X102.674 Y104.174 E4.23825
G1 X103.285 Y104.036 E4.25469
G1 X103.847 Y103.845 E4.27028
G1 X104.147 Y103.716 E4.27887
G1 X104.831 Y103.363 E4.29908
G1 X104.831 Y105.165 E4.34639
G1 X104.380 Y105.374 E4.35945
G1 X104.064 Y105.496 E4.36836
G1 X103.472 Y105.683 E4.38466
G1 X102.907 Y105.814 E4.39990
G1 X102.003 Y105.932 E4.42383
G1 X101.398 Y105.954 E4.43974
G1 X100.850 Y105.939 E4.45415
G1 X100.078 Y105.861 E4.47453
G1 X99.358 Y105.718 E4.49380
G1 X98.906 Y105.585 E4.50616
G1 X98.274 Y105.333 E4.52405
G1 X97.692 Y105.018 E4.54144
G1 X97.257 Y104.714 E4.55537
G1 X96.852 Y104.367 E4.56938
G1 X96.484 Y103.981 E4.58339
G1 X96.073 Y103.431 E4.60143
G1 X95.810 Y102.973 E4.61529
G1 X95.593 Y102.486 E4.62931
G1 X95.420 Y101.965 E4.64371
G1 X95.292 Y101.412 E4.65864
G1 X95.209 Y100.824 E4.67423
G1 X95.172 Y100.202 E4.69059
G1 X95.184 Y99.487 E4.70939
G1 X95.229 Y98.993 E4.72240
G1 X95.352 Y98.296 E4.74099
G1 X95.471 Y97.860 E4.75287
G1 X95.704 Y97.247 E4.77010
G1 X96.002 Y96.682 E4.78686
G1 X96.321 Y96.219 E4.80163
G1 X96.667 Y95.817 E4.81558
G1 X97.059 Y95.447 E4.82973
G1 X97.484 Y95.119 E4.84383
G1 X97.942 Y94.835 E4.85798
G1 X98.433 Y94.595 E4.87235
G1 X98.959 Y94.397 E4.88710
G1 X99.508 Y94.246 E4.90204
G1 X100.103 Y94.135 E4.91794
G1 X100.732 Y94.068 E4.93457
G1 X101.517 Y94.048 E4.95518
G1 X102.430 Y94.110 E4.97922
G1 X102.767 Y94.160 E4.98817
G1 X103.337 Y94.281 E5.00347
G1 X104.176 Y94.546 E5.02659
G1 X104.831 Y94.838 E5.04544
G1 X104.831 Y96.569 E5.09089
G1 X104.498 Y96.328 F7800.000
G1 X104.108 Y95.397 F7800.000
G1 F1038.06
G1 X103.888 Y95.305 E5.09204
G1 X103.314 Y95.128 E5.09493
G1 X102.953 Y95.041 E5.09672
G1 F1038.06
G1 X102.325 Y94.938 E5.10162
G1 X102.024 Y94.917 E5.10394
G1 X101.486 Y94.896 E5.10808
G1 X101.071 Y94.915 E5.11128
G1 F1038.06
G1 X100.380 Y95.002 E5.11965
G1 F1038.06
G1 X99.828 Y95.127 E5.12850
G1 F1038.06
G1 X99.532 Y95.228 E5.13460
G1 F1038.06
G1 X99.125 Y95.394 E5.14467
G1 F1038.06
G1 X98.840 Y95.538 E5.15329
G1 F1038.06
G1 X98.433 Y95.784 E5.16803
G1 X97.168 Y97.186 F7800.000
G1 F1038.06
G1 X97.072 Y97.347 E5.16804
G1 X96.910 Y97.698 E5.16807
G1 F1038.06
G1 X96.710 Y98.273 E5.17007
G1 F1038.06
G1 X96.623 Y98.647 E5.17252
G1 X96.527 Y99.297 E5.17672
G1 X96.497 Y100.192 E5.18244
G1 X96.526 Y100.691 E5.18564
G1 X96.590 Y101.170 E5.18872
G1 X96.686 Y101.610 E5.19160
G1 X96.826 Y102.090 E5.19479
G1 F1038.06
G1 X97.131 Y102.761 E5.19738
G1 X98.400 Y104.188 F7800.000
G1 F1038.06
G1 X99.019 Y104.555 E5.21812
G1 F1038.06
G1 X99.399 Y104.722 E5.22844
G1 F1038.06
G1 X99.584 Y104.797 E5.23250
G1 X99.874 Y104.879 E5.23861
G1 F1038.06
G1 X100.171 Y104.961 E5.24330
G1 X100.473 Y105.012 E5.24796
G1 F1038.06
G1 X100.751 Y105.057 E5.25122
G1 F1038.06
G1 X101.356 Y105.102 E5.25650
G1 X102.047 Y105.084 E5.26251
G1 F1038.06
G1 X102.759 Y104.998 E5.26662
G1 X103.255 Y104.888 E5.26952
G1 X103.510 Y104.818 E5.27103
G1 X104.108 Y104.611 E5.27465
G1 Z2.000 F7800.000
G1 E3.27465 F2400.00000
G92 E0
G1 X98.306 Y96.055 F7800.000
G1 E2.00000 F2400.00000
G1 F776.515
G1 X98.019 Y96.365 E2.01174
G1 X97.790 Y96.663 E2.02219
G1 X97.582 Y96.986 E2.03286
G1 X97.331 Y97.476 E2.04814
G1 X97.188 Y97.842 E2.05907
G1 X97.048 Y98.307 E2.07254
G1 X96.963 Y98.696 E2.08361
G1 X96.881 Y99.296 E2.10044
G1 X96.853 Y100.209 E2.12581
G1 X96.881 Y100.683 E2.13899
G1 X96.940 Y101.166 E2.15250
G1 X97.025 Y101.596 E2.16468
G1 X97.145 Y102.031 E2.17721
G1 X97.419 Y102.715 E2.19769
G1 X97.735 Y103.260 E2.21520
G1 X98.127 Y103.764 E2.23293
G1 X98.311 Y103.942 E2.24004
G1 X98.131 Y104.152 E2.24773
G1 X97.725 Y103.846 E2.26186
G1 X97.322 Y103.463 E2.27731
G1 X97.047 Y103.133 E2.28923
G1 X96.806 Y102.774 E2.30124
G1 X96.606 Y102.391 E2.31324
G1 X96.401 Y101.862 E2.32901
G1 X96.279 Y101.402 E2.34221
G1 X96.193 Y100.896 E2.35646
G1 X96.146 Y100.349 E2.37171
G1 X96.142 Y99.743 E2.38857
G1 X96.191 Y99.113 E2.40611
G1 X96.293 Y98.532 E2.42250
G1 X96.399 Y98.141 E2.43376
G1 X96.590 Y97.640 E2.44864
G1 X96.758 Y97.310 E2.45892
G1 X97.020 Y96.903 E2.47239
G1 X97.295 Y96.566 E2.48447
G1 X97.613 Y96.251 E2.49690
G1 X97.961 Y95.971 E2.50931
G1 X98.139 Y95.856 E2.51519
G1 X98.258 Y95.997 E2.52032
G1 X104.354 Y95.866 F7800.000
G1 F3106.06
G1 X103.843 Y95.642 E2.53580
G1 X103.192 Y95.445 E2.55469
G1 X102.346 Y95.300 E2.57854
G1 X101.948 Y95.271 E2.58963
G1 X101.457 Y95.267 E2.60326
G1 X101.070 Y95.295 E2.61404
G1 X100.664 Y95.356 E2.62544
G1 X100.303 Y95.442 E2.63577
G1 X99.955 Y95.559 E2.64596
G1 X99.596 Y95.719 E2.65688
G1 X99.279 Y95.899 E2.66701
G1 X98.935 Y96.147 E2.67878
G1 X98.683 Y96.370 E2.68813
G1 X98.394 Y96.682 E2.69994
G1 X98.191 Y96.946 E2.70919
G1 X98.008 Y97.231 E2.71860
G1 X97.780 Y97.677 E2.73252
G1 X97.652 Y98.003 E2.74223
G1 X97.524 Y98.430 E2.75463
G1 X97.447 Y98.782 E2.76463
G1 X97.371 Y99.337 E2.78019
G1 X97.345 Y100.202 E2.80424
G1 X97.370 Y100.638 E2.81637
G1 X97.425 Y101.088 E2.82897
G1 X97.503 Y101.483 E2.84014
G1 X97.610 Y101.874 E2.85140
G1 X97.861 Y102.499 E2.87012
G1 X98.143 Y102.985 E2.88572
G1 X98.494 Y103.435 E2.90158
G1 X98.856 Y103.789 E2.91564
G1 X99.307 Y104.120 E2.93118
G1 X99.751 Y104.357 E2.94516
G1 X100.283 Y104.553 E2.96089
G1 X100.787 Y104.667 E2.97525
G1 X101.380 Y104.730 E2.99182
G1 X101.984 Y104.728 E3.00860
G1 X102.489 Y104.683 E3.02268
G1 X103.128 Y104.570 E3.04070
G1 X103.702 Y104.407 E3.05727
G1 X104.354 Y104.148 E3.07675
G1 X104.354 Y104.862 E3.09657
G1 X103.601 Y105.148 E3.11894
G1 X103.031 Y105.300 E3.13532
G1 X102.528 Y105.394 E3.14955
G1 X101.673 Y105.472 E3.17338
G1 X101.114 Y105.472 E3.18892
G1 X100.394 Y105.421 E3.20897
G1 X99.725 Y105.312 E3.22779
G1 X99.258 Y105.195 E3.24116
G1 X98.675 Y104.989 E3.25834
G1 X98.274 Y104.800 E3.27064
G1 X97.797 Y104.515 E3.28609
G1 X97.407 Y104.221 E3.29967
G1 X96.963 Y103.799 E3.31668
G1 X96.653 Y103.428 E3.33011
G1 X96.384 Y103.025 E3.34358
G1 X96.158 Y102.594 E3.35707
G1 X95.934 Y102.014 E3.37437
G1 X95.799 Y101.507 E3.38893
G1 X95.705 Y100.959 E3.40438
G1 X95.655 Y100.372 E3.42074
G1 X95.651 Y99.725 E3.43870
G1 X95.703 Y99.052 E3.45747
G1 X95.813 Y98.425 E3.47515
G1 X95.932 Y97.988 E3.48771
G1 X96.141 Y97.441 E3.50398
G1 X96.331 Y97.065 E3.51568
G1 X96.623 Y96.613 E3.53062
G1 X96.932 Y96.235 E3.54418
G1 X97.286 Y95.884 E3.55804
G1 X97.674 Y95.572 E3.57187
G1 X98.114 Y95.288 E3.58641
G1 X98.567 Y95.059 E3.60052
G1 X99.056 Y94.869 E3.61510
G1 X99.583 Y94.720 E3.63031
G1 X100.149 Y94.612 E3.64630
G1 X100.752 Y94.546 E3.66317
G1 X101.478 Y94.525 E3.68333
G1 X102.347 Y94.581 E3.70753
G1 X102.696 Y94.633 E3.71732
G1 X103.205 Y94.740 E3.73177
G1 X104.000 Y94.990 E3.75493
G1 X104.354 Y95.133 E3.76552
G1 X104.354 Y95.791 E3.78379
G1 X104.831 Y96.644 F7800.000
G1 F1800
G1 X104.408 Y96.411 E3.79647
G1 X103.678 Y96.090 E3.81743
G1 X103.083 Y95.910 E3.83376
G1 X102.288 Y95.774 E3.85493
G1 X101.929 Y95.748 E3.86439
G1 X101.473 Y95.745 E3.87638
G1 X101.122 Y95.770 E3.88560
G1 X100.755 Y95.825 E3.89535
G1 X100.434 Y95.902 E3.90402
G1 X100.128 Y96.004 E3.91250
G1 X99.812 Y96.146 E3.92160
G1 X99.537 Y96.302 E3.92990
G1 X99.234 Y96.520 E3.93972
G1 X99.018 Y96.712 E3.94731
G1 X98.760 Y96.991 E3.95729
G1 X98.422 Y97.469 E3.97267
G1 X98.216 Y97.873 E3.98459
G1 X98.104 Y98.159 E3.99264
G1 X97.986 Y98.550 E4.00338
G1 X97.917 Y98.865 E4.01185
G1 X97.847 Y99.376 E4.02540
G1 X97.823 Y100.195 E4.04692
G1 X97.846 Y100.595 E4.05744
G1 X97.897 Y101.013 E4.06849
G1 X97.968 Y101.374 E4.07814
G1 X98.064 Y101.721 E4.08761
G1 X98.292 Y102.290 E4.10370
G1 X98.540 Y102.717 E4.11668
G1 X98.851 Y103.116 E4.12997
G1 X99.166 Y103.423 E4.14153
G1 X99.563 Y103.715 E4.15447
G1 X99.947 Y103.920 E4.16592
G1 X100.419 Y104.094 E4.17912
G1 X100.865 Y104.195 E4.19113
G1 X101.404 Y104.252 E4.20538
G1 X101.962 Y104.250 E4.22003
G1 X102.426 Y104.209 E4.23227
G1 X103.021 Y104.104 E4.24814
G1 X103.548 Y103.955 E4.26252
G1 X104.141 Y103.719 E4.27928
G1 X104.831 Y103.365 E4.29965
G1 X104.831 Y105.168 E4.34701
G1 X104.089 Y105.487 E4.36822
G1 X103.739 Y105.605 E4.37792
G1 X103.137 Y105.766 E4.39430
G1 X102.599 Y105.867 E4.40868
G1 X101.687 Y105.949 E4.43273
G1 X101.097 Y105.950 E4.44822
G1 X100.338 Y105.895 E4.46820
G1 X99.628 Y105.780 E4.48709
G1 X99.120 Y105.652 E4.50085
G1 X98.494 Y105.431 E4.51831
G1 X98.050 Y105.223 E4.53118
G1 X97.530 Y104.912 E4.54709
G1 X97.097 Y104.585 E4.56133
G1 X96.614 Y104.126 E4.57884
G1 X96.270 Y103.714 E4.59294
G1 X95.972 Y103.269 E4.60701
G1 X95.722 Y102.792 E4.62115
G1 X95.479 Y102.162 E4.63890
G1 X95.332 Y101.609 E4.65393
G1 X95.231 Y101.019 E4.66964
G1 X95.178 Y100.393 E4.68613
G1 X95.174 Y99.708 E4.70412
G1 X95.229 Y98.992 E4.72300
G1 X95.347 Y98.321 E4.74090
G1 X95.477 Y97.840 E4.75398
G1 X95.704 Y97.247 E4.77064
G1 X95.917 Y96.827 E4.78301
G1 X96.236 Y96.332 E4.79849
G1 X96.578 Y95.914 E4.81268
G1 X96.967 Y95.528 E4.82709
G1 X97.394 Y95.184 E4.84148
G1 X97.876 Y94.874 E4.85654
G1 X98.372 Y94.622 E4.87115
G1 X98.904 Y94.416 E4.88614
G1 X99.473 Y94.255 E4.90166
G1 X100.078 Y94.139 E4.91784
G1 X100.719 Y94.069 E4.93479
G1 X101.481 Y94.047 E4.95480
G1 X102.024 Y94.070 E4.96907
G1 X102.406 Y94.107 E4.97915
G1 X102.780 Y94.162 E4.98910
G1 X103.650 Y94.367 E5.01256
G1 X104.166 Y94.542 E5.02688
G1 X104.831 Y94.834 E5.04596
G1 X104.831 Y96.569 E5.09153
G1 X104.495 Y96.297 F7800.000
G1 X104.108 Y95.393 F7800.000
G1 F1035.35
G1 X103.410 Y95.152 E5.09521
G1 X103.123 Y95.079 E5.09669
G1 F1035.35
G1 X102.394 Y94.947 E5.10254
G1 X101.965 Y94.908 E5.10594
G1 X101.476 Y94.896 E5.10982
G1 X101.023 Y94.918 E5.11340
G1 F1035.35
G1 X100.582 Y94.965 E5.11872
G1 F1035.35
G1 X99.989 Y95.087 E5.12790
G1 F1035.35
G1 X99.690 Y95.170 E5.13358
G1 F1035.35
G1 X99.218 Y95.351 E5.14488
G1 F1035.35
G1 X98.887 Y95.515 E5.15472
G1 F1035.35
G1 X98.411 Y95.798 E5.17140
G1 X97.068 Y97.359 F7800.000
G1 F1035.35
G1 X96.880 Y97.768 E5.17193
G1 F1035.35
G1 X96.718 Y98.245 E5.17451
G1 X96.630 Y98.607 E5.17642
G1 X96.531 Y99.273 E5.17986
G1 F1035.35
G1 X96.505 Y99.755 E5.18390
G1 X96.503 Y100.333 E5.18873
G1 X96.545 Y100.852 E5.19308
G1 X96.618 Y101.328 E5.19711
G1 X96.697 Y101.669 E5.20003
G1 F1035.35
G1 X96.846 Y102.135 E5.20265
G1 X97.062 Y102.622 E5.20549
G1 F1035.35
G1 X97.153 Y102.795 E5.20568
G1 X98.410 Y104.203 F7800.000
G1 F1035.35
G1 X99.012 Y104.552 E5.22586
G1 F1035.35
G1 X99.224 Y104.647 E5.23194
G1 F1035.35
G1 X99.544 Y104.781 E5.23985
G1 F1035.35
G1 X99.985 Y104.910 E5.24851
G1 F1035.35
G1 X100.441 Y105.011 E5.25550
G1 F1035.35
G1 X101.128 Y105.089 E5.26345
G1 F1035.35
G1 X101.974 Y105.091 E5.27048
G1 X102.475 Y105.042 E5.27467
G1 F1035.35
G1 X103.209 Y104.901 E5.27854
G1 X103.804 Y104.726 E5.28176
G1 X104.108 Y104.604 E5.28346
G1 Z2.400 F7800.000
G1 E3.28346 F2400.00000
G92 E0
G1 X98.315 Y96.039 F7800.000
G1 E2.00000 F2400.00000
G1 F783.576
G1 X97.812 Y96.628 E2.02152
G1 X97.566 Y97.013 E2.03421
G1 X97.319 Y97.502 E2.04943
G1 X97.065 Y98.238 E2.07106
G1 X96.964 Y98.692 E2.08397
G1 X96.887 Y99.240 E2.09936
G1 X96.856 Y99.703 E2.11223
G1 X96.855 Y100.260 E2.12771
G1 X96.930 Y101.100 E2.15114
G1 X97.021 Y101.578 E2.16466
G1 X97.145 Y102.029 E2.17765
G1 X97.334 Y102.531 E2.19254
G1 X97.647 Y103.125 E2.21121
G1 X98.050 Y103.674 E2.23012
G1 X98.340 Y103.969 E2.24162
G1 X98.159 Y104.175 E2.24924
G1 X97.706 Y103.830 E2.26504
G1 X97.332 Y103.474 E2.27942
G1 X97.048 Y103.134 E2.29170
G1 X96.802 Y102.766 E2.30399
G1 X96.597 Y102.372 E2.31636
G1 X96.406 Y101.879 E2.33103
G1 X96.280 Y101.407 E2.34461
G1 X96.192 Y100.889 E2.35919
G1 X96.145 Y100.328 E2.37483
G1 X96.143 Y99.720 E2.39173
G1 X96.191 Y99.114 E2.40861
G1 X96.287 Y98.555 E2.42436
G1 X96.405 Y98.122 E2.43684
G1 X96.586 Y97.650 E2.45087
G1 X96.812 Y97.217 E2.46444
G1 X97.030 Y96.889 E2.47536
G1 X97.317 Y96.542 E2.48787
G1 X97.644 Y96.223 E2.50057
G1 X98.147 Y95.847 E2.51802
G1 X98.265 Y95.982 E2.52300
G1 X104.354 Y95.855 F7800.000
G1 F3134.3
G1 X103.956 Y95.685 E2.53500
G1 X103.181 Y95.442 E2.55757
G1 X102.380 Y95.303 E2.58015
G1 X101.931 Y95.270 E2.59267
G1 X101.429 Y95.268 E2.60659
G1 X100.751 Y95.338 E2.62553
G1 X100.068 Y95.516 E2.64514
G1 X99.687 Y95.673 E2.65658
G1 X99.294 Y95.889 E2.66904
G1 X98.944 Y96.139 E2.68098
G1 X98.652 Y96.400 E2.69187
G1 X98.208 Y96.921 E2.71090
G1 X97.993 Y97.257 E2.72197
G1 X97.772 Y97.693 E2.73555
G1 X97.538 Y98.372 E2.75550
G1 X97.447 Y98.779 E2.76709
G1 X97.376 Y99.291 E2.78143
G1 X97.347 Y99.720 E2.79337
G1 X97.346 Y100.239 E2.80779
G1 X97.416 Y101.032 E2.82992
G1 X97.499 Y101.467 E2.84222
G1 X97.612 Y101.877 E2.85403
G1 X97.782 Y102.329 E2.86744
G1 X98.064 Y102.864 E2.88425
G1 X98.425 Y103.355 E2.90116
G1 X98.826 Y103.763 E2.91706
G1 X99.304 Y104.118 E2.93359
G1 X99.727 Y104.346 E2.94696
G1 X100.286 Y104.554 E2.96352
G1 X100.767 Y104.664 E2.97722
G1 X101.392 Y104.731 E2.99468
G1 X101.954 Y104.729 E3.01029
G1 X102.564 Y104.673 E3.02730
G1 X103.141 Y104.567 E3.04359
G1 X103.677 Y104.416 E3.05908
G1 X104.354 Y104.148 E3.07928
G1 X104.354 Y104.863 E3.09914
G1 X103.947 Y105.030 E3.11135
G1 X103.485 Y105.182 E3.12486
G1 X102.990 Y105.309 E3.13905
G1 X102.521 Y105.395 E3.15231
G1 X101.654 Y105.472 E3.17650
G1 X101.090 Y105.471 E3.19216
G1 X100.399 Y105.421 E3.21139
G1 X99.757 Y105.319 E3.22945
G1 X99.247 Y105.191 E3.24406
G1 X98.690 Y104.995 E3.26046
G1 X98.252 Y104.789 E3.27391
G1 X97.788 Y104.509 E3.28896
G1 X97.388 Y104.205 E3.30293
G1 X96.973 Y103.810 E3.31883
G1 X96.654 Y103.429 E3.33263
G1 X96.379 Y103.017 E3.34640
G1 X96.149 Y102.574 E3.36027
G1 X95.939 Y102.031 E3.37643
G1 X95.800 Y101.512 E3.39137
G1 X95.704 Y100.951 E3.40717
G1 X95.655 Y100.349 E3.42394
G1 X95.652 Y99.701 E3.44194
G1 X95.703 Y99.052 E3.46001
G1 X95.808 Y98.449 E3.47703
G1 X95.938 Y97.969 E3.49084
G1 X96.138 Y97.448 E3.50634
G1 X96.389 Y96.967 E3.52142
G1 X96.635 Y96.596 E3.53378
G1 X96.956 Y96.209 E3.54773
G1 X97.320 Y95.854 E3.56188
G1 X97.723 Y95.537 E3.57612
G1 X98.060 Y95.319 E3.58725
G1 X98.460 Y95.107 E3.59983
G1 X99.018 Y94.882 E3.61654
G1 X99.550 Y94.727 E3.63195
G1 X100.125 Y94.615 E3.64822
G1 X100.741 Y94.547 E3.66541
G1 X101.447 Y94.524 E3.68506
G1 X102.327 Y94.579 E3.70953
G1 X102.710 Y94.635 E3.72029
G1 X103.181 Y94.735 E3.73366
G1 X103.988 Y94.985 E3.75713
G1 X104.354 Y95.134 E3.76810
G1 X104.354 Y95.780 E3.78605
G1 X104.831 Y96.656 F7800.000
G1 F1800
G1 X104.599 Y96.512 E3.79323
G1 X104.195 Y96.306 E3.80514
G1 X103.791 Y96.134 E3.81668
G1 X103.068 Y95.907 E3.83657
G1 X102.321 Y95.778 E3.85648
G1 X101.912 Y95.747 E3.86726
G1 X101.453 Y95.746 E3.87932
G1 X100.836 Y95.809 E3.89560
G1 X100.220 Y95.970 E3.91233
G1 X99.894 Y96.104 E3.92160
G1 X99.549 Y96.294 E3.93193
G1 X99.243 Y96.513 E3.94181
G1 X98.994 Y96.735 E3.95058
G1 X98.592 Y97.206 E3.96685
G1 X98.408 Y97.494 E3.97582
G1 X98.213 Y97.880 E3.98718
G1 X97.998 Y98.502 E4.00448
G1 X97.917 Y98.865 E4.01423
G1 X97.851 Y99.340 E4.02682
G1 X97.825 Y99.736 E4.03726
G1 X97.823 Y100.218 E4.04993
G1 X97.890 Y100.966 E4.06965
G1 X97.965 Y101.359 E4.08015
G1 X98.066 Y101.729 E4.09024
G1 X98.219 Y102.133 E4.10156
G1 X98.470 Y102.610 E4.11574
G1 X98.789 Y103.044 E4.12989
G1 X99.141 Y103.402 E4.14306
G1 X99.561 Y103.714 E4.15680
G1 X99.925 Y103.910 E4.16767
G1 X100.423 Y104.096 E4.18164
G1 X100.846 Y104.192 E4.19302
G1 X101.417 Y104.253 E4.20811
G1 X101.932 Y104.252 E4.22162
G1 X102.499 Y104.199 E4.23658
G1 X103.032 Y104.101 E4.25083
G1 X103.524 Y103.963 E4.26426
G1 X104.146 Y103.717 E4.28181
G1 X104.831 Y103.367 E4.30202
G1 X104.831 Y105.167 E4.34931
G1 X104.112 Y105.478 E4.36988
G1 X103.619 Y105.641 E4.38352
G1 X103.093 Y105.776 E4.39779
G1 X102.591 Y105.868 E4.41119
G1 X102.076 Y105.927 E4.42480
G1 X101.667 Y105.950 E4.43558
G1 X101.072 Y105.949 E4.45120
G1 X100.344 Y105.896 E4.47037
G1 X99.661 Y105.787 E4.48852
G1 X99.109 Y105.649 E4.50348
G1 X98.508 Y105.437 E4.52021
G1 X98.027 Y105.210 E4.53419
G1 X97.519 Y104.905 E4.54975
G1 X97.077 Y104.569 E4.56434
G1 X96.624 Y104.137 E4.58077
G1 X96.271 Y103.716 E4.59521
G1 X95.967 Y103.260 E4.60960
G1 X95.713 Y102.771 E4.62409
G1 X95.485 Y102.179 E4.64074
G1 X95.333 Y101.614 E4.65611
G1 X95.230 Y101.010 E4.67219
G1 X95.177 Y100.370 E4.68908
G1 X95.175 Y99.683 E4.70711
G1 X95.229 Y98.993 E4.72530
G1 X95.341 Y98.345 E4.74256
G1 X95.484 Y97.820 E4.75684
G1 X95.702 Y97.252 E4.77285
G1 X95.977 Y96.723 E4.78849
G1 X96.252 Y96.311 E4.80151
G1 X96.604 Y95.885 E4.81603
G1 X97.005 Y95.494 E4.83073
G1 X97.445 Y95.148 E4.84545
G1 X97.818 Y94.907 E4.85711
G1 X98.258 Y94.674 E4.87018
G1 X98.861 Y94.430 E4.88727
G1 X99.438 Y94.263 E4.90304
G1 X100.053 Y94.143 E4.91950
G1 X100.706 Y94.070 E4.93677
G1 X101.446 Y94.046 E4.95621
G1 X101.830 Y94.057 E4.96630
G1 X102.382 Y94.104 E4.98085
G1 X102.794 Y94.165 E4.99179
G1 X103.293 Y94.270 E5.00519
G1 X103.675 Y94.375 E5.01558
G1 X104.154 Y94.537 E5.02888
G1 X104.831 Y94.834 E5.04829
G1 X104.831 Y96.581 E5.09419
G1 X104.649 Y96.453 F7800.000
G1 X104.108 Y95.480 F7800.000
G1 F1044.77
G1 X104.039 Y95.382 E5.09430
G1 F1044.77
G1 X104.021 Y95.357 E5.09445
G1 X103.869 Y95.303 E5.09526
G1 X103.268 Y95.112 E5.09841
G1 X102.418 Y94.950 E5.10272
G1 F1044.77
G1 X101.941 Y94.908 E5.10658
G1 X101.404 Y94.897 E5.11090
G1 F1044.77
G1 X100.769 Y94.940 E5.11851
G1 X100.430 Y94.996 E5.12261
G1 F1044.77
G1 X99.788 Y95.142 E5.13314
G1 F1044.77
G1 X99.469 Y95.248 E5.13989
G1 F1044.77
G1 X99.185 Y95.366 E5.14706
G1 F1044.77
G1 X98.850 Y95.537 E5.15697
G1 F1044.77
G1 X98.699 Y95.620 E5.16236
G1 X98.229 Y95.508 E5.17750
G1 X97.169 Y97.182 F7800.000
G1 F1044.77
G1 X97.052 Y97.386 E5.17756
G1 X96.965 Y97.587 E5.17761
G1 F1044.77
G1 X96.747 Y98.153 E5.17996
G1 X96.624 Y98.634 E5.18189
G1 F1044.77
G1 X96.536 Y99.208 E5.18617
G1 X96.500 Y99.733 E5.19004
G1 X96.502 Y100.313 E5.19431
G1 X96.547 Y100.844 E5.19823
G1 X96.620 Y101.332 E5.20187
G1 X96.726 Y101.774 E5.20521
G1 X96.842 Y102.124 E5.20793
G1 F1044.77
G1 X97.054 Y102.617 E5.20969
G1 F1044.77
G1 X97.170 Y102.816 E5.20980
G1 X98.445 Y104.222 F7800.000
G1 F1044.77
G1 X98.897 Y104.492 E5.22616
G1 F1044.77
G1 X99.215 Y104.644 E5.23541
G1 F1044.77
G1 X99.518 Y104.771 E5.24294
G1 F1044.77
G1 X100.001 Y104.915 E5.25235
G1 F1044.77
G1 X100.446 Y105.012 E5.25915
G1 F1044.77
G1 X101.104 Y105.087 E5.26687
G1 F1044.77
G1 X101.380 Y105.101 E5.26920
G1 X101.966 Y105.092 E5.27415
G1 X102.468 Y105.041 E5.27841
G1 F1044.77
G1 X103.222 Y104.898 E5.28248
G1 X103.780 Y104.733 E5.28556
G1 X104.108 Y104.604 E5.28743
G1 Z2.800 F7800.000
G1 E3.28743 F2400.00000
G92 E0
G1 X98.293 Y96.062 F7800.000
G1 E2.00000 F2400.00000
G1 F779.368
G1 X97.958 Y96.438 E2.01397
G1 X97.669 Y96.842 E2.02778
G1 X97.432 Y97.261 E2.04113
G1 X97.233 Y97.716 E2.05494
G1 X97.016 Y98.431 E2.07570
G1 X96.891 Y99.194 E2.09716
G1 X96.856 Y99.720 E2.11183
G1 X96.855 Y100.274 E2.12722
G1 X96.923 Y101.054 E2.14896
G1 X97.017 Y101.562 E2.16330
G1 X97.148 Y102.041 E2.17710
G1 X97.332 Y102.526 E2.19150
G1 X97.658 Y103.143 E2.21089
G1 X97.967 Y103.576 E2.22567
G1 X98.327 Y103.956 E2.24022
G1 X98.155 Y104.157 E2.24757
G1 X97.864 Y103.958 E2.25738
G1 X97.510 Y103.654 E2.27034
G1 X97.194 Y103.318 E2.28315
G1 X96.915 Y102.946 E2.29607
G1 X96.685 Y102.555 E2.30868
G1 X96.495 Y102.129 E2.32164
G1 X96.343 Y101.665 E2.33519
G1 X96.229 Y101.145 E2.34998
G1 X96.161 Y100.593 E2.36542
G1 X96.138 Y99.996 E2.38203
G1 X96.162 Y99.391 E2.39885
G1 X96.230 Y98.849 E2.41401
G1 X96.342 Y98.335 E2.42862
G1 X96.496 Y97.865 E2.44237
G1 X96.684 Y97.447 E2.45509
G1 X96.918 Y97.048 E2.46794
G1 X97.190 Y96.686 E2.48051
G1 X97.506 Y96.350 E2.49333
G1 X97.870 Y96.038 E2.50665
G1 X98.121 Y95.866 E2.51509
G1 X98.243 Y96.006 E2.52025
G1 E0.52025 F2400.00000
G92 E0
G1 X104.354 Y95.863 F7800.000
G1 E2.00000 F2400.00000
G1 F3117.47
G1 X104.116 Y95.748 E2.00735
G1 X103.395 Y95.498 E2.02853
G1 X102.912 Y95.384 E2.04232
G1 X102.406 Y95.306 E2.05653
G1 X101.913 Y95.269 E2.07026
G1 X101.411 Y95.269 E2.08420
G1 X100.735 Y95.342 E2.10309
G1 X100.301 Y95.442 E2.11548
G1 X99.884 Y95.586 E2.12772
G1 X99.499 Y95.769 E2.13956
G1 X99.129 Y95.999 E2.15167
G1 X98.634 Y96.417 E2.16967
G1 X98.342 Y96.745 E2.18186
G1 X98.083 Y97.106 E2.19421
G1 X97.872 Y97.480 E2.20614
G1 X97.694 Y97.886 E2.21845
G1 X97.495 Y98.542 E2.23749
G1 X97.379 Y99.250 E2.25741
G1 X97.347 Y99.737 E2.27097
G1 X97.346 Y100.253 E2.28532
G1 X97.410 Y100.988 E2.30580
G1 X97.495 Y101.452 E2.31890
G1 X97.615 Y101.888 E2.33148
G1 X97.780 Y102.323 E2.34439
G1 X98.077 Y102.884 E2.36202
G1 X98.347 Y103.263 E2.37495
G1 X98.797 Y103.738 E2.39312
G1 X99.300 Y104.116 E2.41060
G1 X99.704 Y104.335 E2.42335
G1 X100.290 Y104.555 E2.44075
G1 X100.747 Y104.661 E2.45379
G1 X101.405 Y104.731 E2.47215
G1 X101.924 Y104.731 E2.48657
G1 X102.639 Y104.663 E2.50652
G1 X103.161 Y104.562 E2.52129
G1 X103.861 Y104.352 E2.54159
G1 X104.354 Y104.147 E2.55642
G1 X104.354 Y104.865 E2.57635
G1 X103.966 Y105.023 E2.58797
G1 X103.569 Y105.158 E2.59962
G1 X103.145 Y105.274 E2.61184
G1 X102.734 Y105.361 E2.62350
G1 X102.292 Y105.426 E2.63592
G1 X101.862 Y105.463 E2.64790
G1 X101.402 Y105.476 E2.66068
G1 X100.719 Y105.452 E2.67968
G1 X100.100 Y105.381 E2.69696
G1 X99.507 Y105.262 E2.71379
G1 X98.973 Y105.103 E2.72927
G1 X98.463 Y104.894 E2.74457
G1 X97.992 Y104.641 E2.75942
G1 X97.565 Y104.348 E2.77381
G1 X97.170 Y104.010 E2.78824
G1 X96.818 Y103.635 E2.80254
G1 X96.506 Y103.218 E2.81699
G1 X96.248 Y102.780 E2.83112
G1 X96.036 Y102.306 E2.84555
G1 X95.869 Y101.794 E2.86050
G1 X95.745 Y101.228 E2.87660
G1 X95.672 Y100.633 E2.89325
G1 X95.647 Y99.996 E2.91097
G1 X95.673 Y99.351 E2.92890
G1 X95.745 Y98.766 E2.94525
G1 X95.868 Y98.206 E2.96118
G1 X96.038 Y97.687 E2.97635
G1 X96.247 Y97.221 E2.99053
G1 X96.509 Y96.776 E3.00489
G1 X96.813 Y96.370 E3.01898
G1 X97.166 Y95.994 E3.03330
G1 X97.571 Y95.648 E3.04809
G1 X97.998 Y95.355 E3.06249
G1 X98.462 Y95.106 E3.07710
G1 X98.963 Y94.901 E3.09215
G1 X99.504 Y94.739 E3.10784
G1 X100.102 Y94.619 E3.12478
G1 X100.729 Y94.548 E3.14230
G1 X101.411 Y94.524 E3.16127
G1 X101.843 Y94.536 E3.17325
G1 X102.301 Y94.575 E3.18605
G1 X102.724 Y94.638 E3.19791
G1 X103.157 Y94.729 E3.21019
G1 X103.559 Y94.839 E3.22179
G1 X103.975 Y94.980 E3.23399
G1 X104.354 Y95.135 E3.24534
G1 X104.354 Y95.788 E3.26349
G1 X104.831 Y96.656 F7800.000
G1 F1800
G1 X104.596 Y96.511 E3.27075
G1 X103.933 Y96.190 E3.29011
G1 X103.261 Y95.957 E3.30876
G1 X102.820 Y95.853 E3.32067
G1 X102.352 Y95.781 E3.33312
G1 X101.895 Y95.747 E3.34516
G1 X101.437 Y95.746 E3.35719
G1 X100.815 Y95.813 E3.37361
G1 X100.433 Y95.902 E3.38392
G1 X100.065 Y96.029 E3.39414
G1 X99.728 Y96.189 E3.40393
G1 X99.410 Y96.386 E3.41376
G1 X98.968 Y96.760 E3.42898
G1 X98.715 Y97.043 E3.43895
G1 X98.487 Y97.363 E3.44928
G1 X98.300 Y97.694 E3.45927
G1 X98.143 Y98.052 E3.46952
G1 X97.961 Y98.650 E3.48595
G1 X97.854 Y99.305 E3.50336
G1 X97.824 Y99.753 E3.51517
G1 X97.824 Y100.233 E3.52777
G1 X97.883 Y100.924 E3.54598
G1 X97.961 Y101.345 E3.55723
G1 X98.070 Y101.740 E3.56800
G1 X98.216 Y102.126 E3.57884
G1 X98.484 Y102.633 E3.59389
G1 X98.717 Y102.959 E3.60441
G1 X99.116 Y103.380 E3.61966
G1 X99.559 Y103.713 E3.63421
G1 X99.903 Y103.900 E3.64449
G1 X100.428 Y104.097 E3.65923
G1 X100.827 Y104.189 E3.66998
G1 X101.430 Y104.254 E3.68591
G1 X101.901 Y104.253 E3.69828
G1 X102.571 Y104.190 E3.71596
G1 X103.047 Y104.098 E3.72868
G1 X103.700 Y103.901 E3.74660
G1 X104.153 Y103.714 E3.75947
G1 X104.606 Y103.484 E3.77282
G1 X104.831 Y103.344 E3.77978
G1 X104.831 Y105.167 E3.82767
G1 X104.134 Y105.471 E3.84765
G1 X103.709 Y105.615 E3.85942
G1 X103.257 Y105.739 E3.87173
G1 X102.818 Y105.831 E3.88352
G1 X102.347 Y105.900 E3.89602
G1 X101.890 Y105.940 E3.90808
G1 X101.400 Y105.954 E3.92094
G1 X100.683 Y105.928 E3.93980
G1 X100.026 Y105.853 E3.95715
G1 X99.391 Y105.726 E3.97417
G1 X98.814 Y105.554 E3.99000
G1 X98.259 Y105.326 E4.00575
G1 X97.743 Y105.049 E4.02113
G1 X97.273 Y104.727 E4.03609
G1 X96.840 Y104.356 E4.05107
G1 X96.451 Y103.942 E4.06598
G1 X96.107 Y103.483 E4.08105
G1 X95.823 Y102.999 E4.09580
G1 X95.590 Y102.478 E4.11079
G1 X95.408 Y101.920 E4.12622
G1 X95.274 Y101.308 E4.14266
G1 X95.195 Y100.671 E4.15951
G1 X95.169 Y99.995 E4.17728
G1 X95.196 Y99.312 E4.19525
G1 X95.274 Y98.686 E4.21182
G1 X95.407 Y98.081 E4.22809
G1 X95.592 Y97.515 E4.24373
G1 X95.822 Y97.002 E4.25849
G1 X96.111 Y96.511 E4.27346
G1 X96.447 Y96.062 E4.28818
G1 X96.836 Y95.649 E4.30309
G1 X97.280 Y95.268 E4.31844
G1 X97.750 Y94.947 E4.33341
G1 X98.258 Y94.674 E4.34855
G1 X98.804 Y94.450 E4.36405
G1 X99.388 Y94.275 E4.38008
G1 X100.028 Y94.146 E4.39722
G1 X100.694 Y94.071 E4.41481
G1 X101.410 Y94.046 E4.43363
G1 X101.870 Y94.059 E4.44572
G1 X102.357 Y94.101 E4.45856
G1 X102.808 Y94.167 E4.47053
G1 X103.269 Y94.264 E4.48291
G1 X103.699 Y94.382 E4.49463
G1 X104.142 Y94.533 E4.50692
G1 X104.831 Y94.833 E4.52666
G1 X104.831 Y96.581 E4.57257
G1 X104.648 Y96.449 F7800.000
G1 X104.108 Y95.393 F7800.000
G1 F1039.16
G1 X103.485 Y95.171 E4.57642
G1 X102.982 Y95.045 E4.57943
G1 X102.451 Y94.955 E4.58255
G1 X101.923 Y94.907 E4.58563
G1 F1039.16
G1 X101.385 Y94.897 E4.59041
G1 F1039.16
G1 X100.758 Y94.942 E4.59799
G1 X100.427 Y94.993 E4.60204
G1 F1039.16
G1 X99.945 Y95.099 E4.60952
G1 F1039.16
G1 X99.618 Y95.194 E4.61599
G1 F1039.16
G1 X99.247 Y95.337 E4.62473
G1 F1039.16
G1 X98.981 Y95.467 E4.63235
G1 F1039.16
G1 X98.704 Y95.618 E4.64152
G1 X98.407 Y95.820 E4.65195
G1 X97.167 Y97.174 F7800.000
G1 F1039.16
G1 X96.944 Y97.613 E4.65219
G1 F1039.16
G1 X96.805 Y97.984 E4.65354
G1 X96.671 Y98.425 E4.65510
G1 F1039.16
G1 X96.579 Y98.909 E4.65877
G1 X96.518 Y99.420 E4.66260
G1 X96.503 Y100.285 E4.66904
G1 X96.576 Y101.096 E4.67509
G1 X96.673 Y101.576 E4.67874
G1 X96.800 Y102.011 E4.68211
G1 F1039.16
G1 X97.069 Y102.642 E4.68514
G1 E2.68514 F2400.00000
G92 E0
G1 X98.240 Y104.496 F7800.000
G1 E2.00000 F2400.00000
G1 F1039.16
G1 X98.710 Y104.382 E2.01525
G1 X98.855 Y104.464 E2.02051
G1 F1039.16
G1 X99.144 Y104.617 E2.02915
G1 F1039.16
G1 X99.491 Y104.761 E2.03794
G1 F1039.16
G1 X99.888 Y104.882 E2.04646
G1 F1039.16
G1 X100.166 Y104.962 E2.05089
G1 X100.426 Y105.006 E2.05491
G1 F1039.16
G1 X100.748 Y105.058 E2.05884
G1 X101.378 Y105.103 E2.06644
G1 F1039.16
G1 X101.946 Y105.092 E2.07126
G1 X102.672 Y105.014 E2.07745
G1 F1039.16
G1 X103.247 Y104.893 E2.08027
G1 X103.848 Y104.707 E2.08330
G1 X104.108 Y104.607 E2.08464
G1 E0.08464 F2400.00000
G92 E0
M107
; Filament-specific end gcode 
;END gcode for filament

M104 S0 ; turn off temperature
G28 X0  ; home X axis
M84     ; disable motors

M140 S0 ; set bed temperature
; filament used = 23.0mm (0.2cm3)
; total filament cost = 0.0

; avoid_crossing_perimeters = 0
; bed_shape = 0x0,200x0,200x200,0x200
; bed_temperature = 0
; before_layer_gcode = 
; between_objects_gcode = 
; bridge_acceleration = 0
; bridge_fan_speed = 100
; brim_connections_width = 0
; brim_width = 0
; complete_objects = 0
; cooling = 1
; default_acceleration = 0
; disable_fan_first_layers = 3
; duplicate_distance = 6
; end_filament_gcode = "; Filament-specific end gcode \n;END gcode for filament\n"
; end_gcode = M104 S0 ; turn off temperature\nG28 X0  ; home X axis\nM84     ; disable motors\n
; extruder_clearance_height = 20
; extruder_clearance_radius = 20
; extruder_offset = 0x0
; extrusion_axis = E
; extrusion_multiplier = 1
; fan_always_on = 0
; fan_below_layer_time = 60
; filament_colour = #FFFFFF
; filament_cost = 0
; filament_density = 0
; filament_diameter = 3
; filament_max_volumetric_speed = 0
; filament_notes = ""
; first_layer_acceleration = 0
; first_layer_bed_temperature = 0
; first_layer_extrusion_width = 200%
; first_layer_speed = 30
; first_layer_temperature = 205
; gcode_arcs = 0
; gcode_comments = 0
; gcode_flavor = reprap
; has_heatbed = 1
; infill_acceleration = 0
; infill_first = 0
; interior_brim_width = 0
; layer_gcode = 
; max_fan_speed = 100
; max_layer_height = 0.3
; max_print_speed = 80
; max_volumetric_speed = 0
; min_fan_speed = 35
; min_layer_height = 0.15
; min_print_speed = 10
; min_skirt_length = 0
; notes = 
; nozzle_diameter = 0.5
; only_retract_when_crossing_perimeters = 1
; ooze_prevention = 0
; output_filename_format = [input_filename_base].gcode
; perimeter_acceleration = 0
; post_process = 
; pressure_advance = 0
; printer_notes = 
; resolution = 0
; retract_before_travel = 2
; retract_layer_change = 0
; retract_length = 2
; retract_length_toolchange = 10
; retract_lift = 0
; retract_lift_above = 0
; retract_lift_below = 0
; retract_restart_extra = 0
; retract_restart_extra_toolchange = 0
; retract_speed = 40
; skirt_distance = 6
; skirt_height = 1
; skirts = 0
; slowdown_below_layer_time = 5
; spiral_vase = 0
; standby_temperature_delta = -5
; start_filament_gcode = "; Filament gcode\n"
; start_gcode = G28 ; home all axes\nG1 Z5 F5000 ; lift nozzle\n
; temperature = 200
; threads = 8
; toolchange_gcode = 
; travel_speed = 130
; use_firmware_retraction = 0
; use_relative_e_distances = 0
; use_set_and_wait_bed = 0
; use_set_and_wait_extruder = 0
; use_volumetric_e = 0
; vibration_limit = 0
; wipe = 0
; z_offset = 0
; z_steps_per_mm = 0
; adaptive_slicing = 0
; adaptive_slicing_quality = 75%
; dont_support_bridges = 1
; extrusion_width = 0
; first_layer_height = 0.4
; infill_only_where_needed = 0
; interface_shells = 0
; layer_height = 0.4
; match_horizontal_surfaces = 0
; raft_layers = 0
; regions_overlap = 0
; seam_position = aligned
; sequential_print_priority = 0
; support_material = 0
; support_material_angle = 0
; support_material_buildplate_only = 0
; support_material_contact_distance = 0.2
; support_material_enforce_layers = 0
; support_material_extruder = 1
; support_material_extrusion_width = 0
; support_material_interface_extruder = 1
; support_material_interface_extrusion_width = 0
; support_material_interface_layers = 3
; support_material_interface_spacing = 0
; support_material_interface_speed = 100%
; support_material_max_layers = 0
; support_material_pattern = pillars
; support_material_spacing = 2.5
; support_material_speed = 60
; support_material_threshold = 60%
; xy_size_compensation = 0
; bottom_infill_pattern = rectilinear
; bottom_solid_layers = 3
; bridge_flow_ratio = 1
; bridge_speed = 60
; external_perimeter_extrusion_width = 0
; external_perimeter_speed = 50%
; external_perimeters_first = 0
; extra_perimeters = 1
; fill_angle = 45
; fill_density = 60%
; fill_gaps = 1
; fill_pattern = grid
; gap_fill_speed = 20
; infill_every_layers = 1
; infill_extruder = 1
; infill_extrusion_width = 0
; infill_overlap = 55%
; infill_speed = 80
; overhangs = 1
; perimeter_extruder = 1
; perimeter_extrusion_width = 0
; perimeter_speed = 60
; perimeters = 3
; small_perimeter_speed = 15
; solid_infill_below_area = 70
; solid_infill_every_layers = 0
; solid_infill_extruder = 1
; solid_infill_extrusion_width = 0
; solid_infill_speed = 20
; thin_walls = 1
; top_infill_extrusion_width = 0
; top_infill_pattern = rectilinear
; top_solid_infill_speed = 15
; top_solid_layers = 3
