; generated by Slic3r 1.3.0 on 2020-10-15 at 13:37:24

; external perimeters extrusion width = 0.55mm (5.57mm^3/s)
; perimeters extrusion width = 0.58mm (11.78mm^3/s)
; infill extrusion width = 0.58mm (15.71mm^3/s)
; solid infill extrusion width = 0.58mm (3.93mm^3/s)
; top infill extrusion width = 0.58mm (2.95mm^3/s)

M107
M104 S205 ; set temperature
G28 ; home all axes
G1 Z5 F5000 ; lift nozzle

; Filament gcode

M109 S205 ; set temperature and wait for it to be reached
G21 ; set units to millimeters
G90 ; use absolute coordinates
M82 ; use absolute distances for extrusion
G92 E0
G1 Z0.400 F7800.000
G1 E-2.00000 F2400.00000
G92 E0
G1 X94.105 Y92.011 F7800.000
G1 E2.00000 F2400.00000
G1 F1800
G1 X93.511 Y92.605 E2.03394
G1 X93.511 Y93.473 E2.06901
G1 X94.973 Y92.011 E2.15254
G1 X95.840 Y92.011 E2.18761
G1 X93.511 Y94.340 E2.32073
G1 X93.511 Y95.208 E2.35580
G1 X96.708 Y92.011 E2.53852
G1 X97.234 Y92.011 E2.55977
G1 X97.234 Y92.353 E2.57359
G1 X93.511 Y96.076 E2.78636
G1 X93.511 Y96.944 E2.82143
G1 X97.234 Y93.221 E3.03420
G1 X97.234 Y94.089 E3.06927
G1 X93.511 Y97.811 E3.28203
G1 X93.511 Y98.679 E3.31710
G1 X97.234 Y94.956 E3.52987
G1 X97.234 Y95.824 E3.56494
G1 X93.511 Y99.547 E3.77771
G1 X93.511 Y100.415 E3.81277
G1 X97.234 Y96.692 E4.02554
G1 X97.234 Y97.560 E4.06061
G1 X93.511 Y101.282 E4.27338
G1 X93.511 Y102.150 E4.30845
G1 X97.234 Y98.427 E4.52122
G1 X97.234 Y98.788 E4.53579
G1 X97.741 Y98.788 E4.55628
G1 X93.511 Y103.018 E4.79803
G1 X93.511 Y103.886 E4.83310
G1 X98.609 Y98.788 E5.12445
G1 X99.476 Y98.788 E5.15952
G1 X93.511 Y104.753 E5.50045
G1 X93.511 Y105.621 E5.53552
G1 X96.765 Y102.367 E5.72151
G1 X96.765 Y101.886 E5.74095
G1 X97.246 Y101.886 E5.76039
G1 X100.344 Y98.788 E5.93744
G1 X101.212 Y98.788 E5.97251
G1 X98.114 Y101.886 E6.14957
G1 X98.982 Y101.886 E6.18464
G1 X102.080 Y98.788 E6.36169
G1 X102.947 Y98.788 E6.39676
G1 X99.850 Y101.886 E6.57381
G1 X100.717 Y101.886 E6.60888
G1 X106.489 Y96.114 E6.93874
G1 X106.489 Y96.982 E6.97381
G1 X101.585 Y101.886 E7.25408
G1 X102.453 Y101.886 E7.28915
G1 X106.489 Y97.850 E7.51982
G1 X106.489 Y98.718 E7.55489
G1 X102.766 Y102.440 E7.76766
G1 X102.766 Y103.308 E7.80273
G1 X106.489 Y99.585 E8.01550
G1 X106.489 Y100.453 E8.05056
G1 X102.766 Y104.176 E8.26333
G1 X102.766 Y105.044 E8.29840
G1 X106.489 Y101.321 E8.51117
G1 X106.489 Y102.189 E8.54624
G1 X102.766 Y105.911 E8.75900
G1 X102.766 Y106.779 E8.79407
G1 X106.489 Y103.056 E9.00684
G1 X106.489 Y103.924 E9.04191
G1 X102.766 Y107.647 E9.25468
G1 X102.766 Y107.989 E9.26850
G1 X103.292 Y107.989 E9.28975
G1 X106.489 Y104.792 E9.47247
G1 X106.489 Y105.660 E9.50754
G1 X104.160 Y107.989 E9.64066
G1 X105.027 Y107.989 E9.67573
G1 X106.489 Y106.527 E9.75926
G1 X106.489 Y107.395 E9.79433
G1 X105.895 Y107.989 E9.82827
G1 E7.82827 F2400.00000
G92 E0
G1 X96.350 Y107.989 F7800.000
G1 E2.00000 F2400.00000
G1 F1800
G1 X97.234 Y107.105 E2.05053
G1 X97.234 Y106.237 E2.08559
G1 X95.482 Y107.989 E2.18571
G1 X94.614 Y107.989 E2.22078
G1 X97.234 Y105.369 E2.37050
G1 X97.234 Y104.502 E2.40557
G1 X93.747 Y107.989 E2.60487
G1 X93.511 Y107.989 E2.61439
G1 X93.511 Y107.357 E2.63994
G1 X97.234 Y103.634 E2.85271
G1 X97.234 Y102.766 E2.88778
G1 X93.511 Y106.489 E3.10055
G1 X93.511 Y105.621 E3.13562
G1 E1.13562 F2400.00000
G92 E0
G1 X102.766 Y98.969 F7800.000
G1 E2.00000 F2400.00000
G1 F1800
G1 X106.489 Y95.247 E2.21277
G1 X106.489 Y94.379 E2.24784
G1 X102.766 Y98.102 E2.46060
G1 X102.766 Y97.234 E2.49567
G1 X106.489 Y93.511 E2.70844
G1 X106.489 Y92.643 E2.74351
G1 X102.766 Y96.366 E2.95628
G1 X102.766 Y95.498 E2.99135
G1 X106.253 Y92.011 E3.19065
G1 X105.386 Y92.011 E3.22572
G1 X102.766 Y94.631 E3.37544
G1 X102.766 Y93.763 E3.41051
G1 X104.518 Y92.011 E3.51063
G1 X103.650 Y92.011 E3.54569
G1 X102.766 Y92.895 E3.59622
G1 X102.766 Y92.480 E3.61301
G1 X103.182 Y92.480 E3.62980
M104 S200 ; set temperature
G1 Z0.800 F7800.000
G1 X106.445 Y92.561 F7800.000
G1 F3060.8
G1 X105.939 Y92.055 E3.64971
G1 X105.071 Y92.055 E3.67382
G1 X106.445 Y93.429 E3.72782
G1 X106.445 Y94.297 E3.75192
G1 X104.203 Y92.055 E3.84002
G1 X103.335 Y92.055 E3.86412
G1 X106.445 Y95.165 E3.98630
G1 X106.445 Y96.032 E4.01041
G1 X102.810 Y92.397 E4.15324
G1 X102.810 Y93.264 E4.17734
G1 X106.445 Y96.900 E4.32018
G1 X106.445 Y97.768 E4.34428
G1 X102.810 Y94.132 E4.48712
G1 X102.810 Y95.000 E4.51122
G1 X106.445 Y98.636 E4.65405
G1 X106.445 Y99.503 E4.67816
G1 X102.810 Y95.868 E4.82099
G1 X102.810 Y96.735 E4.84510
G1 X106.445 Y100.371 E4.98793
G1 X106.445 Y101.239 E5.01203
G1 X102.810 Y97.603 E5.15487
G1 X102.810 Y98.471 E5.17897
G1 X106.445 Y102.107 E5.32181
G1 X106.445 Y102.974 E5.34591
G1 X102.302 Y98.831 E5.50866
G1 X101.435 Y98.831 E5.53277
G1 X106.445 Y103.842 E5.72961
G1 X106.445 Y104.710 E5.75371
G1 X100.567 Y98.831 E5.98465
G1 X99.699 Y98.831 E6.00875
G1 X102.710 Y101.843 E6.12704
G1 X101.843 Y101.843 E6.15114
G1 X98.831 Y98.831 E6.26943
G1 X97.964 Y98.831 E6.29353
G1 X100.975 Y101.843 E6.41182
G1 X100.107 Y101.843 E6.43592
G1 X97.096 Y98.831 E6.55421
G1 X97.478 Y99.213 F7800.000
G1 F3060.8
G1 X97.190 Y99.213 E6.56219
G1 X97.190 Y98.926 E6.57017
G1 X93.555 Y95.290 E6.71300
G1 X93.555 Y94.422 E6.73711
G1 X97.190 Y98.058 E6.87994
G1 X97.190 Y97.190 E6.90404
G1 X93.555 Y93.555 E7.04688
G1 X93.555 Y92.687 E7.07098
G1 X97.190 Y96.323 E7.21382
G1 X97.190 Y95.455 E7.23792
G1 X93.790 Y92.055 E7.37150
G1 X94.658 Y92.055 E7.39561
G1 X97.190 Y94.587 E7.49510
G1 X97.190 Y93.719 E7.51920
G1 X95.526 Y92.055 E7.58461
G1 X96.393 Y92.055 E7.60871
G1 X97.190 Y92.852 E7.64003
G1 E5.64003 F2400.00000
G92 E0
G1 X99.239 Y101.843 F7800.000
G1 E2.00000 F2400.00000
G1 F3060.8
G1 X93.555 Y96.158 E2.22332
G1 X93.555 Y97.026 E2.24742
G1 X98.372 Y101.843 E2.43665
G1 X97.504 Y101.843 E2.46076
G1 X93.555 Y97.893 E2.61590
G1 X93.555 Y98.761 E2.64000
G1 X97.190 Y102.397 E2.78283
G1 X97.190 Y103.265 E2.80694
G1 X93.555 Y99.629 E2.94977
G1 X93.555 Y100.497 E2.97388
G1 X97.190 Y104.132 E3.11671
G1 X97.190 Y105.000 E3.14081
G1 X93.555 Y101.364 E3.28365
G1 X93.555 Y102.232 E3.30775
G1 X97.190 Y105.868 E3.45059
G1 X97.190 Y106.736 E3.47469
G1 X93.555 Y103.100 E3.61752
G1 X93.555 Y103.968 E3.64163
G1 X97.190 Y107.603 E3.78446
G1 X97.190 Y107.945 E3.79396
G1 X96.665 Y107.945 E3.80857
G1 X93.555 Y104.835 E3.93075
G1 X93.555 Y105.703 E3.95485
G1 X95.797 Y107.945 E4.04294
G1 X94.929 Y107.945 E4.06705
G1 X93.555 Y106.571 E4.12105
G1 X93.555 Y107.439 E4.14516
G1 X94.061 Y107.945 E4.16507
G1 X93.936 Y107.945 E4.16855
G1 X93.936 Y107.820 E4.17203
G1 E2.17203 F2400.00000
G92 E0
G1 X102.810 Y107.148 F7800.000
G1 E2.00000 F2400.00000
G1 F3060.8
G1 X103.607 Y107.945 E2.03132
G1 X104.474 Y107.945 E2.05542
G1 X102.810 Y106.281 E2.12083
G1 X102.810 Y105.413 E2.14493
G1 X105.342 Y107.945 E2.24443
G1 X106.210 Y107.945 E2.26853
G1 X102.810 Y104.545 E2.40211
G1 X102.810 Y103.677 E2.42622
G1 X106.445 Y107.313 E2.56905
G1 X106.445 Y106.445 E2.59315
G1 X102.810 Y102.810 E2.73599
G1 X102.810 Y101.942 E2.76009
G1 X106.445 Y105.578 E2.90293
G1 Z1.200 F7800.000
G1 X105.939 Y107.945 F7800.000
G1 F3076.35
G1 X106.445 Y107.439 E2.92284
G1 X106.445 Y106.571 E2.94695
G1 X105.071 Y107.945 E3.00095
G1 X104.203 Y107.945 E3.02505
G1 X106.445 Y105.703 E3.11315
G1 X106.445 Y104.835 E3.13725
G1 X103.335 Y107.945 E3.25943
G1 X102.810 Y107.945 E3.27404
G1 X102.810 Y107.603 E3.28354
G1 X106.445 Y103.968 E3.42637
G1 X106.445 Y103.100 E3.45047
G1 X102.810 Y106.736 E3.59331
G1 X102.810 Y105.868 E3.61741
G1 X106.445 Y102.232 E3.76025
G1 X106.445 Y101.364 E3.78435
G1 X102.810 Y105.000 E3.92718
G1 X102.810 Y104.132 E3.95129
G1 X106.445 Y100.497 E4.09412
G1 X106.445 Y99.629 E4.11823
G1 X102.810 Y103.265 E4.26106
G1 X102.810 Y102.397 E4.28516
G1 X106.445 Y98.761 E4.42800
G1 X106.445 Y97.893 E4.45210
G1 X102.496 Y101.843 E4.60724
G1 X101.628 Y101.843 E4.63135
G1 X106.445 Y97.026 E4.82058
G1 X106.445 Y96.158 E4.84468
G1 X100.761 Y101.843 E5.06800
G1 X99.893 Y101.843 E5.09210
G1 X102.904 Y98.831 E5.21039
G1 X102.036 Y98.831 E5.23449
G1 X99.025 Y101.843 E5.35278
G1 X98.157 Y101.843 E5.37688
G1 X101.169 Y98.831 E5.49517
G1 X100.301 Y98.831 E5.51927
G1 X97.290 Y101.843 E5.63756
G1 X96.809 Y101.843 E5.65092
G1 X96.809 Y102.324 E5.66429
G1 X93.555 Y105.578 E5.79212
G1 X93.555 Y104.710 E5.81622
G1 X99.433 Y98.831 E6.04716
G1 X98.565 Y98.831 E6.07126
G1 X93.555 Y103.842 E6.26810
G1 X93.555 Y102.974 E6.29221
G1 X97.698 Y98.831 E6.45496
G1 X97.190 Y98.831 E6.46905
G1 X97.190 Y98.471 E6.47907
G1 X93.555 Y102.107 E6.62190
G1 X93.555 Y101.239 E6.64600
G1 X97.190 Y97.603 E6.78884
G1 X97.190 Y96.735 E6.81294
G1 X93.555 Y100.371 E6.95578
G1 X93.555 Y99.503 E6.97988
G1 X97.190 Y95.868 E7.12271
G1 X97.190 Y95.000 E7.14682
G1 X93.555 Y98.636 E7.28965
G1 X93.555 Y97.768 E7.31375
G1 X97.190 Y94.132 E7.45659
G1 X97.190 Y93.264 E7.48069
G1 X93.555 Y96.900 E7.62353
G1 X93.555 Y96.032 E7.64763
G1 X97.190 Y92.397 E7.79046
G1 X97.190 Y92.055 E7.79996
G1 X96.665 Y92.055 E7.81457
G1 X93.555 Y95.165 E7.93675
G1 X93.555 Y94.297 E7.96085
G1 X95.797 Y92.055 E8.04895
G1 X94.929 Y92.055 E8.07305
G1 X93.555 Y93.429 E8.12705
G1 X93.555 Y92.561 E8.15116
G1 X94.061 Y92.055 E8.17107
G1 E6.17107 F2400.00000
G92 E0
G1 X103.225 Y92.436 F7800.000
G1 E2.00000 F2400.00000
G1 F3076.35
G1 X102.810 Y92.436 E2.01154
G1 X102.810 Y92.852 E2.02308
G1 X103.607 Y92.055 E2.05440
G1 X104.474 Y92.055 E2.07850
G1 X102.810 Y93.719 E2.14391
G1 X102.810 Y94.587 E2.16801
G1 X105.342 Y92.055 E2.26750
G1 X106.210 Y92.055 E2.29161
G1 X102.810 Y95.455 E2.42519
G1 X102.810 Y96.323 E2.44929
G1 X106.445 Y92.687 E2.59213
G1 X106.445 Y93.555 E2.61623
G1 X102.810 Y97.190 E2.75907
G1 X102.810 Y98.058 E2.78317
G1 X106.445 Y94.422 E2.92600
G1 X106.445 Y95.290 E2.95011
G1 X102.810 Y98.926 E3.09294
G1 E1.09294 F2400.00000
G92 E0
G1 X96.393 Y107.945 F7800.000
G1 E2.00000 F2400.00000
G1 F3076.35
G1 X97.190 Y107.148 E2.03132
G1 X97.190 Y106.281 E2.05542
G1 X95.526 Y107.945 E2.12083
G1 X94.658 Y107.945 E2.14493
G1 X97.190 Y105.413 E2.24443
G1 X97.190 Y104.545 E2.26853
G1 X93.790 Y107.945 E2.40211
G1 X93.555 Y107.945 E2.40865
G1 X93.555 Y107.313 E2.42622
G1 X97.190 Y103.677 E2.56905
G1 X97.190 Y102.810 E2.59315
G1 X93.555 Y106.445 E2.73599
G1 X93.555 Y105.578 E2.76009
M106 S255
G1 Z1.600 F7800.000
G1 X93.936 Y107.820 F7800.000
G1 F3060.8
G1 X93.936 Y107.945 E2.76357
G1 X94.061 Y107.945 E2.76705
G1 X93.555 Y107.439 E2.78696
G1 X93.555 Y106.571 E2.81107
G1 X94.929 Y107.945 E2.86507
G1 X95.797 Y107.945 E2.88917
G1 X93.555 Y105.703 E2.97727
G1 X93.555 Y104.835 E3.00137
G1 X96.665 Y107.945 E3.12355
G1 X97.190 Y107.945 E3.13816
G1 X97.190 Y107.603 E3.14766
G1 X93.555 Y103.968 E3.29049
G1 X93.555 Y103.100 E3.31459
G1 X97.190 Y106.736 E3.45743
G1 X97.190 Y105.868 E3.48153
G1 X93.555 Y102.232 E3.62437
G1 X93.555 Y101.364 E3.64847
G1 X97.190 Y105.000 E3.79130
G1 X97.190 Y104.132 E3.81541
G1 X93.555 Y100.497 E3.95824
G1 X93.555 Y99.629 E3.98235
G1 X97.190 Y103.265 E4.12518
G1 X97.190 Y102.397 E4.14928
G1 X93.555 Y98.761 E4.29212
G1 X93.555 Y97.893 E4.31622
G1 X97.504 Y101.843 E4.47136
G1 X98.372 Y101.843 E4.49547
G1 X93.555 Y97.026 E4.68470
G1 X93.555 Y96.158 E4.70880
G1 X99.239 Y101.843 E4.93212
G1 X97.478 Y99.213 F7800.000
G1 F3060.8
G1 X97.190 Y99.213 E4.94010
G1 X97.190 Y98.926 E4.94808
G1 X93.555 Y95.290 E5.09091
G1 X93.555 Y94.422 E5.11502
G1 X97.190 Y98.058 E5.25785
G1 X97.190 Y97.190 E5.28195
G1 X93.555 Y93.555 E5.42479
G1 X93.555 Y92.687 E5.44889
G1 X97.190 Y96.323 E5.59173
G1 X97.190 Y95.455 E5.61583
G1 X93.790 Y92.055 E5.74941
G1 X94.658 Y92.055 E5.77352
G1 X97.190 Y94.587 E5.87301
G1 X97.190 Y93.719 E5.89711
G1 X95.526 Y92.055 E5.96252
G1 X96.393 Y92.055 E5.98662
G1 X97.190 Y92.852 E6.01794
G1 X97.096 Y98.831 F7800.000
G1 F3060.8
G1 X100.107 Y101.843 E6.13623
G1 X100.975 Y101.843 E6.16033
G1 X97.964 Y98.831 E6.27862
G1 X98.831 Y98.831 E6.30272
G1 X101.843 Y101.843 E6.42101
G1 X102.710 Y101.843 E6.44511
G1 X99.699 Y98.831 E6.56340
G1 X100.567 Y98.831 E6.58750
G1 X106.445 Y104.710 E6.81844
G1 X106.445 Y103.842 E6.84254
G1 X101.435 Y98.831 E7.03938
G1 X102.302 Y98.831 E7.06349
G1 X106.445 Y102.974 E7.22624
G1 X106.445 Y102.107 E7.25034
G1 X102.810 Y98.471 E7.39318
G1 X102.810 Y97.603 E7.41728
G1 X106.445 Y101.239 E7.56012
G1 X106.445 Y100.371 E7.58422
G1 X102.810 Y96.735 E7.72705
G1 X102.810 Y95.868 E7.75116
G1 X106.445 Y99.503 E7.89399
G1 X106.445 Y98.636 E7.91810
G1 X102.810 Y95.000 E8.06093
G1 X102.810 Y94.132 E8.08503
G1 X106.445 Y97.768 E8.22787
G1 X106.445 Y96.900 E8.25197
G1 X102.810 Y93.264 E8.39481
G1 X102.810 Y92.397 E8.41891
G1 X106.445 Y96.032 E8.56174
G1 X106.445 Y95.165 E8.58585
G1 X103.335 Y92.055 E8.70803
G1 X104.203 Y92.055 E8.73213
G1 X106.445 Y94.297 E8.82023
G1 X106.445 Y93.429 E8.84433
G1 X105.071 Y92.055 E8.89833
G1 X105.939 Y92.055 E8.92244
G1 X106.445 Y92.561 E8.94235
G1 X106.445 Y105.578 F7800.000
G1 F3060.8
G1 X102.810 Y101.942 E9.08519
G1 X102.810 Y102.810 E9.10929
G1 X106.445 Y106.445 E9.25213
G1 X106.445 Y107.313 E9.27623
G1 X102.810 Y103.677 E9.41906
G1 X102.810 Y104.545 E9.44317
G1 X106.210 Y107.945 E9.57675
G1 X105.342 Y107.945 E9.60085
G1 X102.810 Y105.413 E9.70035
G1 X102.810 Y106.281 E9.72445
G1 X104.474 Y107.945 E9.78986
G1 X103.607 Y107.945 E9.81396
G1 X102.810 Y107.148 E9.84528
G1 Z2.000 F7800.000
G1 X105.939 Y107.945 F7800.000
G1 F3076.35
G1 X106.445 Y107.439 E9.86520
G1 X106.445 Y106.571 E9.88930
G1 X105.071 Y107.945 E9.94330
G1 X104.203 Y107.945 E9.96741
G1 X106.445 Y105.703 E10.05550
G1 X106.445 Y104.835 E10.07960
G1 X103.335 Y107.945 E10.20179
G1 X102.810 Y107.945 E10.21639
G1 X102.810 Y107.603 E10.22589
G1 X106.445 Y103.968 E10.36872
G1 X106.445 Y103.100 E10.39283
G1 X102.810 Y106.736 E10.53566
G1 X102.810 Y105.868 E10.55977
G1 X106.445 Y102.232 E10.70260
G1 X106.445 Y101.364 E10.72670
G1 X102.810 Y105.000 E10.86954
G1 X102.810 Y104.132 E10.89364
G1 X106.445 Y100.497 E11.03647
G1 X106.445 Y99.629 E11.06058
G1 X102.810 Y103.265 E11.20341
G1 X102.810 Y102.397 E11.22752
G1 X106.445 Y98.761 E11.37035
G1 X106.445 Y97.893 E11.39445
G1 X102.496 Y101.843 E11.54960
G1 X101.628 Y101.843 E11.57370
G1 X106.445 Y97.026 E11.76293
G1 X106.445 Y96.158 E11.78703
G1 X100.761 Y101.843 E12.01035
G1 X99.893 Y101.843 E12.03446
G1 X102.904 Y98.831 E12.15274
G1 X102.036 Y98.831 E12.17685
G1 X99.025 Y101.843 E12.29513
G1 X98.157 Y101.843 E12.31924
G1 X101.169 Y98.831 E12.43752
G1 X100.301 Y98.831 E12.46163
G1 X97.290 Y101.843 E12.57991
G1 X96.809 Y101.843 E12.59328
G1 X96.809 Y102.324 E12.60664
G1 X93.555 Y105.578 E12.73447
G1 X93.555 Y104.710 E12.75858
G1 X99.433 Y98.831 E12.98951
G1 X98.565 Y98.831 E13.01361
G1 X93.555 Y103.842 E13.21046
G1 X93.555 Y102.974 E13.23456
G1 X97.698 Y98.831 E13.39732
G1 X97.190 Y98.831 E13.41140
G1 X97.190 Y98.471 E13.42142
G1 X93.555 Y102.107 E13.56425
G1 X93.555 Y101.239 E13.58836
G1 X97.190 Y97.603 E13.73119
G1 X97.190 Y96.735 E13.75530
G1 X93.555 Y100.371 E13.89813
G1 X93.555 Y99.503 E13.92223
G1 X97.190 Y95.868 E14.06507
G1 X97.190 Y95.000 E14.08917
G1 X93.555 Y98.636 E14.23200
G1 X93.555 Y97.768 E14.25611
G1 X97.190 Y94.132 E14.39894
G1 X97.190 Y93.264 E14.42305
G1 X93.555 Y96.900 E14.56588
G1 X93.555 Y96.032 E14.58998
G1 X97.190 Y92.397 E14.73282
G1 X97.190 Y92.055 E14.74232
G1 X96.665 Y92.055 E14.75692
G1 X93.555 Y95.165 E14.87910
G1 X93.555 Y94.297 E14.90321
G1 X95.797 Y92.055 E14.99130
G1 X94.929 Y92.055 E15.01540
G1 X93.555 Y93.429 E15.06941
G1 X93.555 Y92.561 E15.09351
G1 X94.061 Y92.055 E15.11343
G1 E13.11343 F2400.00000
G92 E0
G1 X103.225 Y92.436 F7800.000
G1 E2.00000 F2400.00000
G1 F3076.35
G1 X102.810 Y92.436 E2.01154
G1 X102.810 Y92.852 E2.02308
G1 X103.607 Y92.055 E2.05440
G1 X104.474 Y92.055 E2.07850
G1 X102.810 Y93.719 E2.14391
G1 X102.810 Y94.587 E2.16801
G1 X105.342 Y92.055 E2.26750
G1 X106.210 Y92.055 E2.29161
G1 X102.810 Y95.455 E2.42519
G1 X102.810 Y96.323 E2.44929
G1 X106.445 Y92.687 E2.59213
G1 X106.445 Y93.555 E2.61623
G1 X102.810 Y97.190 E2.75907
G1 X102.810 Y98.058 E2.78317
G1 X106.445 Y94.422 E2.92600
G1 X106.445 Y95.290 E2.95011
G1 X102.810 Y98.926 E3.09294
G1 E1.09294 F2400.00000
G92 E0
G1 X96.393 Y107.945 F7800.000
G1 E2.00000 F2400.00000
G1 F3076.35
G1 X97.190 Y107.148 E2.03132
G1 X97.190 Y106.281 E2.05542
G1 X95.526 Y107.945 E2.12083
G1 X94.658 Y107.945 E2.14493
G1 X97.190 Y105.413 E2.24443
G1 X97.190 Y104.545 E2.26853
G1 X93.790 Y107.945 E2.40211
G1 X93.555 Y107.945 E2.40865
G1 X93.555 Y107.313 E2.42622
G1 X97.190 Y103.677 E2.56905
G1 X97.190 Y102.810 E2.59315
G1 X93.555 Y106.445 E2.73599
G1 X93.555 Y105.578 E2.76009
G1 Z2.400 F7800.000
G1 X93.936 Y107.820 F7800.000
G1 F3060.8
G1 X93.936 Y107.945 E2.76357
G1 X94.061 Y107.945 E2.76705
G1 X93.555 Y107.439 E2.78696
G1 X93.555 Y106.571 E2.81107
G1 X94.929 Y107.945 E2.86507
G1 X95.797 Y107.945 E2.88917
G1 X93.555 Y105.703 E2.97727
G1 X93.555 Y104.835 E3.00137
G1 X96.665 Y107.945 E3.12355
G1 X97.190 Y107.945 E3.13816
G1 X97.190 Y107.603 E3.14766
G1 X93.555 Y103.968 E3.29049
G1 X93.555 Y103.100 E3.31459
G1 X97.190 Y106.736 E3.45743
G1 X97.190 Y105.868 E3.48153
G1 X93.555 Y102.232 E3.62437
G1 X93.555 Y101.364 E3.64847
G1 X97.190 Y105.000 E3.79130
G1 X97.190 Y104.132 E3.81541
G1 X93.555 Y100.497 E3.95824
G1 X93.555 Y99.629 E3.98235
G1 X97.190 Y103.265 E4.12518
G1 X97.190 Y102.397 E4.14928
G1 X93.555 Y98.761 E4.29212
G1 X93.555 Y97.893 E4.31622
G1 X97.504 Y101.843 E4.47136
G1 X98.372 Y101.843 E4.49547
G1 X93.555 Y97.026 E4.68470
G1 X93.555 Y96.158 E4.70880
G1 X99.239 Y101.843 E4.93212
G1 X97.478 Y99.213 F7800.000
G1 F3060.8
G1 X97.190 Y99.213 E4.94010
G1 X97.190 Y98.926 E4.94808
G1 X93.555 Y95.290 E5.09091
G1 X93.555 Y94.422 E5.11502
G1 X97.190 Y98.058 E5.25785
G1 X97.190 Y97.190 E5.28195
G1 X93.555 Y93.555 E5.42479
G1 X93.555 Y92.687 E5.44889
G1 X97.190 Y96.323 E5.59173
G1 X97.190 Y95.455 E5.61583
G1 X93.790 Y92.055 E5.74941
G1 X94.658 Y92.055 E5.77352
G1 X97.190 Y94.587 E5.87301
G1 X97.190 Y93.719 E5.89711
G1 X95.526 Y92.055 E5.96252
G1 X96.393 Y92.055 E5.98662
G1 X97.190 Y92.852 E6.01794
G1 X97.096 Y98.831 F7800.000
G1 F3060.8
G1 X100.107 Y101.843 E6.13623
G1 X100.975 Y101.843 E6.16033
G1 X97.964 Y98.831 E6.27862
G1 X98.831 Y98.831 E6.30272
G1 X101.843 Y101.843 E6.42101
G1 X102.710 Y101.843 E6.44511
G1 X99.699 Y98.831 E6.56340
G1 X100.567 Y98.831 E6.58750
G1 X106.445 Y104.710 E6.81844
G1 X106.445 Y103.842 E6.84254
G1 X101.435 Y98.831 E7.03938
G1 X102.302 Y98.831 E7.06349
G1 X106.445 Y102.974 E7.22624
G1 X106.445 Y102.107 E7.25034
G1 X102.810 Y98.471 E7.39318
G1 X102.810 Y97.603 E7.41728
G1 X106.445 Y101.239 E7.56012
G1 X106.445 Y100.371 E7.58422
G1 X102.810 Y96.735 E7.72705
G1 X102.810 Y95.868 E7.75116
G1 X106.445 Y99.503 E7.89399
G1 X106.445 Y98.636 E7.91810
G1 X102.810 Y95.000 E8.06093
G1 X102.810 Y94.132 E8.08503
G1 X106.445 Y97.768 E8.22787
G1 X106.445 Y96.900 E8.25197
G1 X102.810 Y93.264 E8.39481
G1 X102.810 Y92.397 E8.41891
G1 X106.445 Y96.032 E8.56174
G1 X106.445 Y95.165 E8.58585
G1 X103.335 Y92.055 E8.70803
G1 X104.203 Y92.055 E8.73213
G1 X106.445 Y94.297 E8.82023
G1 X106.445 Y93.429 E8.84433
G1 X105.071 Y92.055 E8.89833
G1 X105.939 Y92.055 E8.92244
G1 X106.445 Y92.561 E8.94235
G1 X106.445 Y105.578 F7800.000
G1 F3060.8
G1 X102.810 Y101.942 E9.08519
G1 X102.810 Y102.810 E9.10929
G1 X106.445 Y106.445 E9.25213
G1 X106.445 Y107.313 E9.27623
G1 X102.810 Y103.677 E9.41906
G1 X102.810 Y104.545 E9.44317
G1 X106.210 Y107.945 E9.57675
G1 X105.342 Y107.945 E9.60085
G1 X102.810 Y105.413 E9.70035
G1 X102.810 Y106.281 E9.72445
G1 X104.474 Y107.945 E9.78986
G1 X103.607 Y107.945 E9.81396
G1 X102.810 Y107.148 E9.84528
G1 Z2.800 F7800.000
G1 X105.939 Y107.945 F7800.000
G1 F3076.35
G1 X106.445 Y107.439 E9.86520
G1 X106.445 Y106.571 E9.88930
G1 X105.071 Y107.945 E9.94330
G1 X104.203 Y107.945 E9.96741
G1 X106.445 Y105.703 E10.05550
G1 X106.445 Y104.835 E10.07960
G1 X103.335 Y107.945 E10.20179
G1 X102.810 Y107.945 E10.21639
G1 X102.810 Y107.603 E10.22589
G1 X106.445 Y103.968 E10.36872
G1 X106.445 Y103.100 E10.39283
G1 X102.810 Y106.736 E10.53566
G1 X102.810 Y105.868 E10.55977
G1 X106.445 Y102.232 E10.70260
G1 X106.445 Y101.364 E10.72670
G1 X102.810 Y105.000 E10.86954
G1 X102.810 Y104.132 E10.89364
G1 X106.445 Y100.497 E11.03647
G1 X106.445 Y99.629 E11.06058
G1 X102.810 Y103.265 E11.20341
G1 X102.810 Y102.397 E11.22752
G1 X106.445 Y98.761 E11.37035
G1 X106.445 Y97.893 E11.39445
G1 X102.496 Y101.843 E11.54960
G1 X101.628 Y101.843 E11.57370
G1 X106.445 Y97.026 E11.76293
G1 X106.445 Y96.158 E11.78703
G1 X100.761 Y101.843 E12.01035
G1 X99.893 Y101.843 E12.03446
G1 X102.904 Y98.831 E12.15274
G1 X102.036 Y98.831 E12.17685
G1 X99.025 Y101.843 E12.29513
G1 X98.157 Y101.843 E12.31924
G1 X101.169 Y98.831 E12.43752
G1 X100.301 Y98.831 E12.46163
G1 X97.290 Y101.843 E12.57991
G1 X96.809 Y101.843 E12.59328
G1 X96.809 Y102.324 E12.60664
G1 X93.555 Y105.578 E12.73447
G1 X93.555 Y104.710 E12.75858
G1 X99.433 Y98.831 E12.98951
G1 X98.565 Y98.831 E13.01361
G1 X93.555 Y103.842 E13.21046
G1 X93.555 Y102.974 E13.23456
G1 X97.698 Y98.831 E13.39732
G1 X97.190 Y98.831 E13.41140
G1 X97.190 Y98.471 E13.42142
G1 X93.555 Y102.107 E13.56425
G1 X93.555 Y101.239 E13.58836
G1 X97.190 Y97.603 E13.73119
G1 X97.190 Y96.735 E13.75530
G1 X93.555 Y100.371 E13.89813
G1 X93.555 Y99.503 E13.92223
G1 X97.190 Y95.868 E14.06507
G1 X97.190 Y95.000 E14.08917
G1 X93.555 Y98.636 E14.23200
G1 X93.555 Y97.768 E14.25611
G1 X97.190 Y94.132 E14.39894
G1 X97.190 Y93.264 E14.42305
G1 X93.555 Y96.900 E14.56588
G1 X93.555 Y96.032 E14.58998
G1 X97.190 Y92.397 E14.73282
G1 X97.190 Y92.055 E14.74232
G1 X96.665 Y92.055 E14.75692
G1 X93.555 Y95.165 E14.87910
G1 X93.555 Y94.297 E14.90321
G1 X95.797 Y92.055 E14.99130
G1 X94.929 Y92.055 E15.01540
G1 X93.555 Y93.429 E15.06941
G1 X93.555 Y92.561 E15.09351
G1 X94.061 Y92.055 E15.11343
G1 E13.11343 F2400.00000
G92 E0
G1 X103.225 Y92.436 F7800.000
G1 E2.00000 F2400.00000
G1 F3076.35
G1 X102.810 Y92.436 E2.01154
G1 X102.810 Y92.852 E2.02308
G1 X103.607 Y92.055 E2.05440
G1 X104.474 Y92.055 E2.07850
G1 X102.810 Y93.719 E2.14391
G1 X102.810 Y94.587 E2.16801
G1 X105.342 Y92.055 E2.26750
G1 X106.210 Y92.055 E2.29161
G1 X102.810 Y95.455 E2.42519
G1 X102.810 Y96.323 E2.44929
G1 X106.445 Y92.687 E2.59213
G1 X106.445 Y93.555 E2.61623
G1 X102.810 Y97.190 E2.75907
G1 X102.810 Y98.058 E2.78317
G1 X106.445 Y94.422 E2.92600
G1 X106.445 Y95.290 E2.95011
G1 X102.810 Y98.926 E3.09294
G1 E1.09294 F2400.00000
G92 E0
G1 X96.393 Y107.945 F7800.000
G1 E2.00000 F2400.00000
G1 F3076.35
G1 X97.190 Y107.148 E2.03132
G1 X97.190 Y106.281 E2.05542
G1 X95.526 Y107.945 E2.12083
G1 X94.658 Y107.945 E2.14493
G1 X97.190 Y105.413 E2.24443
G1 X97.190 Y104.545 E2.26853
G1 X93.790 Y107.945 E2.40211
G1 X93.555 Y107.945 E2.40865
G1 X93.555 Y107.313 E2.42622
G1 X97.190 Y103.677 E2.56905
G1 X97.190 Y102.810 E2.59315
G1 X93.555 Y106.445 E2.73599
G1 X93.555 Y105.578 E2.76009
G1 Z3.200 F7800.000
G1 X93.936 Y107.820 F7800.000
G1 F3060.8
G1 X93.936 Y107.945 E2.76357
G1 X94.061 Y107.945 E2.76705
G1 X93.555 Y107.439 E2.78696
G1 X93.555 Y106.571 E2.81107
G1 X94.929 Y107.945 E2.86507
G1 X95.797 Y107.945 E2.88917
G1 X93.555 Y105.703 E2.97727
G1 X93.555 Y104.835 E3.00137
G1 X96.665 Y107.945 E3.12355
G1 X97.190 Y107.945 E3.13816
G1 X97.190 Y107.603 E3.14766
G1 X93.555 Y103.968 E3.29049
G1 X93.555 Y103.100 E3.31459
G1 X97.190 Y106.736 E3.45743
G1 X97.190 Y105.868 E3.48153
G1 X93.555 Y102.232 E3.62437
G1 X93.555 Y101.364 E3.64847
G1 X97.190 Y105.000 E3.79130
G1 X97.190 Y104.132 E3.81541
G1 X93.555 Y100.497 E3.95824
G1 X93.555 Y99.629 E3.98235
G1 X97.190 Y103.265 E4.12518
G1 X97.190 Y102.397 E4.14928
G1 X93.555 Y98.761 E4.29212
G1 X93.555 Y97.893 E4.31622
G1 X97.504 Y101.843 E4.47136
G1 X98.372 Y101.843 E4.49547
G1 X93.555 Y97.026 E4.68470
G1 X93.555 Y96.158 E4.70880
G1 X99.239 Y101.843 E4.93212
G1 X97.478 Y99.213 F7800.000
G1 F3060.8
G1 X97.190 Y99.213 E4.94010
G1 X97.190 Y98.926 E4.94808
G1 X93.555 Y95.290 E5.09091
G1 X93.555 Y94.422 E5.11502
G1 X97.190 Y98.058 E5.25785
G1 X97.190 Y97.190 E5.28195
G1 X93.555 Y93.555 E5.42479
G1 X93.555 Y92.687 E5.44889
G1 X97.190 Y96.323 E5.59173
G1 X97.190 Y95.455 E5.61583
G1 X93.790 Y92.055 E5.74941
G1 X94.658 Y92.055 E5.77352
G1 X97.190 Y94.587 E5.87301
G1 X97.190 Y93.719 E5.89711
G1 X95.526 Y92.055 E5.96252
G1 X96.393 Y92.055 E5.98662
G1 X97.190 Y92.852 E6.01794
G1 X97.096 Y98.831 F7800.000
G1 F3060.8
G1 X100.107 Y101.843 E6.13623
G1 X100.975 Y101.843 E6.16033
G1 X97.964 Y98.831 E6.27862
G1 X98.831 Y98.831 E6.30272
G1 X101.843 Y101.843 E6.42101
G1 X102.710 Y101.843 E6.44511
G1 X99.699 Y98.831 E6.56340
G1 X100.567 Y98.831 E6.58750
G1 X106.445 Y104.710 E6.81844
G1 X106.445 Y103.842 E6.84254
G1 X101.435 Y98.831 E7.03938
G1 X102.302 Y98.831 E7.06349
G1 X106.445 Y102.974 E7.22624
G1 X106.445 Y102.107 E7.25034
G1 X102.810 Y98.471 E7.39318
G1 X102.810 Y97.603 E7.41728
G1 X106.445 Y101.239 E7.56012
G1 X106.445 Y100.371 E7.58422
G1 X102.810 Y96.735 E7.72705
G1 X102.810 Y95.868 E7.75116
G1 X106.445 Y99.503 E7.89399
G1 X106.445 Y98.636 E7.91810
G1 X102.810 Y95.000 E8.06093
G1 X102.810 Y94.132 E8.08503
G1 X106.445 Y97.768 E8.22787
G1 X106.445 Y96.900 E8.25197
G1 X102.810 Y93.264 E8.39481
G1 X102.810 Y92.397 E8.41891
G1 X106.445 Y96.032 E8.56174
G1 X106.445 Y95.165 E8.58585
G1 X103.335 Y92.055 E8.70803
G1 X104.203 Y92.055 E8.73213
G1 X106.445 Y94.297 E8.82023
G1 X106.445 Y93.429 E8.84433
G1 X105.071 Y92.055 E8.89833
G1 X105.939 Y92.055 E8.92244
G1 X106.445 Y92.561 E8.94235
G1 X106.445 Y105.578 F7800.000
G1 F3060.8
G1 X102.810 Y101.942 E9.08519
G1 X102.810 Y102.810 E9.10929
G1 X106.445 Y106.445 E9.25213
G1 X106.445 Y107.313 E9.27623
G1 X102.810 Y103.677 E9.41906
G1 X102.810 Y104.545 E9.44317
G1 X106.210 Y107.945 E9.57675
G1 X105.342 Y107.945 E9.60085
G1 X102.810 Y105.413 E9.70035
G1 X102.810 Y106.281 E9.72445
G1 X104.474 Y107.945 E9.78986
G1 X103.607 Y107.945 E9.81396
G1 X102.810 Y107.148 E9.84528
G1 Z3.600 F7800.000
G1 X105.939 Y107.945 F7800.000
G1 F3076.35
G1 X106.445 Y107.439 E9.86520
G1 X106.445 Y106.571 E9.88930
G1 X105.071 Y107.945 E9.94330
G1 X104.203 Y107.945 E9.96741
G1 X106.445 Y105.703 E10.05550
G1 X106.445 Y104.835 E10.07960
G1 X103.335 Y107.945 E10.20179
G1 X102.810 Y107.945 E10.21639
G1 X102.810 Y107.603 E10.22589
G1 X106.445 Y103.968 E10.36872
G1 X106.445 Y103.100 E10.39283
G1 X102.810 Y106.736 E10.53566
G1 X102.810 Y105.868 E10.55977
G1 X106.445 Y102.232 E10.70260
G1 X106.445 Y101.364 E10.72670
G1 X102.810 Y105.000 E10.86954
G1 X102.810 Y104.132 E10.89364
G1 X106.445 Y100.497 E11.03647
G1 X106.445 Y99.629 E11.06058
G1 X102.810 Y103.265 E11.20341
G1 X102.810 Y102.397 E11.22752
G1 X106.445 Y98.761 E11.37035
G1 X106.445 Y97.893 E11.39445
G1 X102.496 Y101.843 E11.54960
G1 X101.628 Y101.843 E11.57370
G1 X106.445 Y97.026 E11.76293
G1 X106.445 Y96.158 E11.78703
G1 X100.761 Y101.843 E12.01035
G1 X99.893 Y101.843 E12.03446
G1 X102.904 Y98.831 E12.15274
G1 X102.036 Y98.831 E12.17685
G1 X99.025 Y101.843 E12.29513
G1 X98.157 Y101.843 E12.31924
G1 X101.169 Y98.831 E12.43752
G1 X100.301 Y98.831 E12.46163
G1 X97.290 Y101.843 E12.57991
G1 X96.809 Y101.843 E12.59328
G1 X96.809 Y102.324 E12.60664
G1 X93.555 Y105.578 E12.73447
G1 X93.555 Y104.710 E12.75858
G1 X99.433 Y98.831 E12.98951
G1 X98.565 Y98.831 E13.01361
G1 X93.555 Y103.842 E13.21046
G1 X93.555 Y102.974 E13.23456
G1 X97.698 Y98.831 E13.39732
G1 X97.190 Y98.831 E13.41140
G1 X97.190 Y98.471 E13.42142
G1 X93.555 Y102.107 E13.56425
G1 X93.555 Y101.239 E13.58836
G1 X97.190 Y97.603 E13.73119
G1 X97.190 Y96.735 E13.75530
G1 X93.555 Y100.371 E13.89813
G1 X93.555 Y99.503 E13.92223
G1 X97.190 Y95.868 E14.06507
G1 X97.190 Y95.000 E14.08917
G1 X93.555 Y98.636 E14.23200
G1 X93.555 Y97.768 E14.25611
G1 X97.190 Y94.132 E14.39894
G1 X97.190 Y93.264 E14.42305
G1 X93.555 Y96.900 E14.56588
G1 X93.555 Y96.032 E14.58998
G1 X97.190 Y92.397 E14.73282
G1 X97.190 Y92.055 E14.74232
G1 X96.665 Y92.055 E14.75692
G1 X93.555 Y95.165 E14.87910
G1 X93.555 Y94.297 E14.90321
G1 X95.797 Y92.055 E14.99130
G1 X94.929 Y92.055 E15.01540
G1 X93.555 Y93.429 E15.06941
G1 X93.555 Y92.561 E15.09351
G1 X94.061 Y92.055 E15.11343
G1 E13.11343 F2400.00000
G92 E0
G1 X103.225 Y92.436 F7800.000
G1 E2.00000 F2400.00000
G1 F3076.35
G1 X102.810 Y92.436 E2.01154
G1 X102.810 Y92.852 E2.02308
G1 X103.607 Y92.055 E2.05440
G1 X104.474 Y92.055 E2.07850
G1 X102.810 Y93.719 E2.14391
G1 X102.810 Y94.587 E2.16801
G1 X105.342 Y92.055 E2.26750
G1 X106.210 Y92.055 E2.29161
G1 X102.810 Y95.455 E2.42519
G1 X102.810 Y96.323 E2.44929
G1 X106.445 Y92.687 E2.59213
G1 X106.445 Y93.555 E2.61623
G1 X102.810 Y97.190 E2.75907
G1 X102.810 Y98.058 E2.78317
G1 X106.445 Y94.422 E2.92600
G1 X106.445 Y95.290 E2.95011
G1 X102.810 Y98.926 E3.09294
G1 E1.09294 F2400.00000
G92 E0
G1 X96.393 Y107.945 F7800.000
G1 E2.00000 F2400.00000
G1 F3076.35
G1 X97.190 Y107.148 E2.03132
G1 X97.190 Y106.281 E2.05542
G1 X95.526 Y107.945 E2.12083
G1 X94.658 Y107.945 E2.14493
G1 X97.190 Y105.413 E2.24443
G1 X97.190 Y104.545 E2.26853
G1 X93.790 Y107.945 E2.40211
G1 X93.555 Y107.945 E2.40865
G1 X93.555 Y107.313 E2.42622
G1 X97.190 Y103.677 E2.56905
G1 X97.190 Y102.810 E2.59315
G1 X93.555 Y106.445 E2.73599
G1 X93.555 Y105.578 E2.76009
G1 Z4.000 F7800.000
G1 X93.936 Y107.820 F7800.000
G1 F3060.8
G1 X93.936 Y107.945 E2.76357
G1 X94.061 Y107.945 E2.76705
G1 X93.555 Y107.439 E2.78696
G1 X93.555 Y106.571 E2.81107
G1 X94.929 Y107.945 E2.86507
G1 X95.797 Y107.945 E2.88917
G1 X93.555 Y105.703 E2.97727
G1 X93.555 Y104.835 E3.00137
G1 X96.665 Y107.945 E3.12355
G1 X97.190 Y107.945 E3.13816
G1 X97.190 Y107.603 E3.14766
G1 X93.555 Y103.968 E3.29049
G1 X93.555 Y103.100 E3.31459
G1 X97.190 Y106.736 E3.45743
G1 X97.190 Y105.868 E3.48153
G1 X93.555 Y102.232 E3.62437
G1 X93.555 Y101.364 E3.64847
G1 X97.190 Y105.000 E3.79130
G1 X97.190 Y104.132 E3.81541
G1 X93.555 Y100.497 E3.95824
G1 X93.555 Y99.629 E3.98235
G1 X97.190 Y103.265 E4.12518
G1 X97.190 Y102.397 E4.14928
G1 X93.555 Y98.761 E4.29212
G1 X93.555 Y97.893 E4.31622
G1 X97.504 Y101.843 E4.47136
G1 X98.372 Y101.843 E4.49547
G1 X93.555 Y97.026 E4.68470
G1 X93.555 Y96.158 E4.70880
G1 X99.239 Y101.843 E4.93212
G1 X97.478 Y99.213 F7800.000
G1 F3060.8
G1 X97.190 Y99.213 E4.94010
G1 X97.190 Y98.926 E4.94808
G1 X93.555 Y95.290 E5.09091
G1 X93.555 Y94.422 E5.11502
G1 X97.190 Y98.058 E5.25785
G1 X97.190 Y97.190 E5.28195
G1 X93.555 Y93.555 E5.42479
G1 X93.555 Y92.687 E5.44889
G1 X97.190 Y96.323 E5.59173
G1 X97.190 Y95.455 E5.61583
G1 X93.790 Y92.055 E5.74941
G1 X94.658 Y92.055 E5.77352
G1 X97.190 Y94.587 E5.87301
G1 X97.190 Y93.719 E5.89711
G1 X95.526 Y92.055 E5.96252
G1 X96.393 Y92.055 E5.98662
G1 X97.190 Y92.852 E6.01794
G1 X97.096 Y98.831 F7800.000
G1 F3060.8
G1 X100.107 Y101.843 E6.13623
G1 X100.975 Y101.843 E6.16033
G1 X97.964 Y98.831 E6.27862
G1 X98.831 Y98.831 E6.30272
G1 X101.843 Y101.843 E6.42101
G1 X102.710 Y101.843 E6.44511
G1 X99.699 Y98.831 E6.56340
G1 X100.567 Y98.831 E6.58750
G1 X106.445 Y104.710 E6.81844
G1 X106.445 Y103.842 E6.84254
G1 X101.435 Y98.831 E7.03938
G1 X102.302 Y98.831 E7.06349
G1 X106.445 Y102.974 E7.22624
G1 X106.445 Y102.107 E7.25034
G1 X102.810 Y98.471 E7.39318
G1 X102.810 Y97.603 E7.41728
G1 X106.445 Y101.239 E7.56012
G1 X106.445 Y100.371 E7.58422
G1 X102.810 Y96.735 E7.72705
G1 X102.810 Y95.868 E7.75116
G1 X106.445 Y99.503 E7.89399
G1 X106.445 Y98.636 E7.91810
G1 X102.810 Y95.000 E8.06093
G1 X102.810 Y94.132 E8.08503
G1 X106.445 Y97.768 E8.22787
G1 X106.445 Y96.900 E8.25197
G1 X102.810 Y93.264 E8.39481
G1 X102.810 Y92.397 E8.41891
G1 X106.445 Y96.032 E8.56174
G1 X106.445 Y95.165 E8.58585
G1 X103.335 Y92.055 E8.70803
G1 X104.203 Y92.055 E8.73213
G1 X106.445 Y94.297 E8.82023
G1 X106.445 Y93.429 E8.84433
G1 X105.071 Y92.055 E8.89833
G1 X105.939 Y92.055 E8.92244
G1 X106.445 Y92.561 E8.94235
G1 X106.445 Y105.578 F7800.000
G1 F3060.8
G1 X102.810 Y101.942 E9.08519
G1 X102.810 Y102.810 E9.10929
G1 X106.445 Y106.445 E9.25213
G1 X106.445 Y107.313 E9.27623
G1 X102.810 Y103.677 E9.41906
G1 X102.810 Y104.545 E9.44317
G1 X106.210 Y107.945 E9.57675
G1 X105.342 Y107.945 E9.60085
G1 X102.810 Y105.413 E9.70035
G1 X102.810 Y106.281 E9.72445
G1 X104.474 Y107.945 E9.78986
G1 X103.607 Y107.945 E9.81396
G1 X102.810 Y107.148 E9.84528
G1 Z4.400 F7800.000
G1 X105.939 Y107.945 F7800.000
G1 F3076.35
G1 X106.445 Y107.439 E9.86520
G1 X106.445 Y106.571 E9.88930
G1 X105.071 Y107.945 E9.94330
G1 X104.203 Y107.945 E9.96741
G1 X106.445 Y105.703 E10.05550
G1 X106.445 Y104.835 E10.07960
G1 X103.335 Y107.945 E10.20179
G1 X102.810 Y107.945 E10.21639
G1 X102.810 Y107.603 E10.22589
G1 X106.445 Y103.968 E10.36872
G1 X106.445 Y103.100 E10.39283
G1 X102.810 Y106.736 E10.53566
G1 X102.810 Y105.868 E10.55977
G1 X106.445 Y102.232 E10.70260
G1 X106.445 Y101.364 E10.72670
G1 X102.810 Y105.000 E10.86954
G1 X102.810 Y104.132 E10.89364
G1 X106.445 Y100.497 E11.03647
G1 X106.445 Y99.629 E11.06058
G1 X102.810 Y103.265 E11.20341
G1 X102.810 Y102.397 E11.22752
G1 X106.445 Y98.761 E11.37035
G1 X106.445 Y97.893 E11.39445
G1 X102.496 Y101.843 E11.54960
G1 X101.628 Y101.843 E11.57370
G1 X106.445 Y97.026 E11.76293
G1 X106.445 Y96.158 E11.78703
G1 X100.761 Y101.843 E12.01035
G1 X99.893 Y101.843 E12.03446
G1 X102.904 Y98.831 E12.15274
G1 X102.036 Y98.831 E12.17685
G1 X99.025 Y101.843 E12.29513
G1 X98.157 Y101.843 E12.31924
G1 X101.169 Y98.831 E12.43752
G1 X100.301 Y98.831 E12.46163
G1 X97.290 Y101.843 E12.57991
G1 X96.809 Y101.843 E12.59328
G1 X96.809 Y102.324 E12.60664
G1 X93.555 Y105.578 E12.73447
G1 X93.555 Y104.710 E12.75858
G1 X99.433 Y98.831 E12.98951
G1 X98.565 Y98.831 E13.01361
G1 X93.555 Y103.842 E13.21046
G1 X93.555 Y102.974 E13.23456
G1 X97.698 Y98.831 E13.39732
G1 X97.190 Y98.831 E13.41140
G1 X97.190 Y98.471 E13.42142
G1 X93.555 Y102.107 E13.56425
G1 X93.555 Y101.239 E13.58836
G1 X97.190 Y97.603 E13.73119
G1 X97.190 Y96.735 E13.75530
G1 X93.555 Y100.371 E13.89813
G1 X93.555 Y99.503 E13.92223
G1 X97.190 Y95.868 E14.06507
G1 X97.190 Y95.000 E14.08917
G1 X93.555 Y98.636 E14.23200
G1 X93.555 Y97.768 E14.25611
G1 X97.190 Y94.132 E14.39894
G1 X97.190 Y93.264 E14.42305
G1 X93.555 Y96.900 E14.56588
G1 X93.555 Y96.032 E14.58998
G1 X97.190 Y92.397 E14.73282
G1 X97.190 Y92.055 E14.74232
G1 X96.665 Y92.055 E14.75692
G1 X93.555 Y95.165 E14.87910
G1 X93.555 Y94.297 E14.90321
G1 X95.797 Y92.055 E14.99130
G1 X94.929 Y92.055 E15.01540
G1 X93.555 Y93.429 E15.06941
G1 X93.555 Y92.561 E15.09351
G1 X94.061 Y92.055 E15.11343
G1 E13.11343 F2400.00000
G92 E0
G1 X103.225 Y92.436 F7800.000
G1 E2.00000 F2400.00000
G1 F3076.35
G1 X102.810 Y92.436 E2.01154
G1 X102.810 Y92.852 E2.02308
G1 X103.607 Y92.055 E2.05440
G1 X104.474 Y92.055 E2.07850
G1 X102.810 Y93.719 E2.14391
G1 X102.810 Y94.587 E2.16801
G1 X105.342 Y92.055 E2.26750
G1 X106.210 Y92.055 E2.29161
G1 X102.810 Y95.455 E2.42519
G1 X102.810 Y96.323 E2.44929
G1 X106.445 Y92.687 E2.59213
G1 X106.445 Y93.555 E2.61623
G1 X102.810 Y97.190 E2.75907
G1 X102.810 Y98.058 E2.78317
G1 X106.445 Y94.422 E2.92600
G1 X106.445 Y95.290 E2.95011
G1 X102.810 Y98.926 E3.09294
G1 E1.09294 F2400.00000
G92 E0
G1 X96.393 Y107.945 F7800.000
G1 E2.00000 F2400.00000
G1 F3076.35
G1 X97.190 Y107.148 E2.03132
G1 X97.190 Y106.281 E2.05542
G1 X95.526 Y107.945 E2.12083
G1 X94.658 Y107.945 E2.14493
G1 X97.190 Y105.413 E2.24443
G1 X97.190 Y104.545 E2.26853
G1 X93.790 Y107.945 E2.40211
G1 X93.555 Y107.945 E2.40865
G1 X93.555 Y107.313 E2.42622
G1 X97.190 Y103.677 E2.56905
G1 X97.190 Y102.810 E2.59315
G1 X93.555 Y106.445 E2.73599
G1 X93.555 Y105.578 E2.76009
G1 Z4.800 F7800.000
G1 X93.936 Y107.820 F7800.000
G1 F3060.8
G1 X93.936 Y107.945 E2.76357
G1 X94.061 Y107.945 E2.76705
G1 X93.555 Y107.439 E2.78696
G1 X93.555 Y106.571 E2.81107
G1 X94.929 Y107.945 E2.86507
G1 X95.797 Y107.945 E2.88917
G1 X93.555 Y105.703 E2.97727
G1 X93.555 Y104.835 E3.00137
G1 X96.665 Y107.945 E3.12355
G1 X97.190 Y107.945 E3.13816
G1 X97.190 Y107.603 E3.14766
G1 X93.555 Y103.968 E3.29049
G1 X93.555 Y103.100 E3.31459
G1 X97.190 Y106.736 E3.45743
G1 X97.190 Y105.868 E3.48153
G1 X93.555 Y102.232 E3.62437
G1 X93.555 Y101.364 E3.64847
G1 X97.190 Y105.000 E3.79130
G1 X97.190 Y104.132 E3.81541
G1 X93.555 Y100.497 E3.95824
G1 X93.555 Y99.629 E3.98235
G1 X97.190 Y103.265 E4.12518
G1 X97.190 Y102.397 E4.14928
G1 X93.555 Y98.761 E4.29212
G1 X93.555 Y97.893 E4.31622
G1 X97.504 Y101.843 E4.47136
G1 X98.372 Y101.843 E4.49547
G1 X93.555 Y97.026 E4.68470
G1 X93.555 Y96.158 E4.70880
G1 X99.239 Y101.843 E4.93212
G1 X97.478 Y99.213 F7800.000
G1 F3060.8
G1 X97.190 Y99.213 E4.94010
G1 X97.190 Y98.926 E4.94808
G1 X93.555 Y95.290 E5.09091
G1 X93.555 Y94.422 E5.11502
G1 X97.190 Y98.058 E5.25785
G1 X97.190 Y97.190 E5.28195
G1 X93.555 Y93.555 E5.42479
G1 X93.555 Y92.687 E5.44889
G1 X97.190 Y96.323 E5.59173
G1 X97.190 Y95.455 E5.61583
G1 X93.790 Y92.055 E5.74941
G1 X94.658 Y92.055 E5.77352
G1 X97.190 Y94.587 E5.87301
G1 X97.190 Y93.719 E5.89711
G1 X95.526 Y92.055 E5.96252
G1 X96.393 Y92.055 E5.98662
G1 X97.190 Y92.852 E6.01794
G1 X97.096 Y98.831 F7800.000
G1 F3060.8
G1 X100.107 Y101.843 E6.13623
G1 X100.975 Y101.843 E6.16033
G1 X97.964 Y98.831 E6.27862
G1 X98.831 Y98.831 E6.30272
G1 X101.843 Y101.843 E6.42101
G1 X102.710 Y101.843 E6.44511
G1 X99.699 Y98.831 E6.56340
G1 X100.567 Y98.831 E6.58750
G1 X106.445 Y104.710 E6.81844
G1 X106.445 Y103.842 E6.84254
G1 X101.435 Y98.831 E7.03938
G1 X102.302 Y98.831 E7.06349
G1 X106.445 Y102.974 E7.22624
G1 X106.445 Y102.107 E7.25034
G1 X102.810 Y98.471 E7.39318
G1 X102.810 Y97.603 E7.41728
G1 X106.445 Y101.239 E7.56012
G1 X106.445 Y100.371 E7.58422
G1 X102.810 Y96.735 E7.72705
G1 X102.810 Y95.868 E7.75116
G1 X106.445 Y99.503 E7.89399
G1 X106.445 Y98.636 E7.91810
G1 X102.810 Y95.000 E8.06093
G1 X102.810 Y94.132 E8.08503
G1 X106.445 Y97.768 E8.22787
G1 X106.445 Y96.900 E8.25197
G1 X102.810 Y93.264 E8.39481
G1 X102.810 Y92.397 E8.41891
G1 X106.445 Y96.032 E8.56174
G1 X106.445 Y95.165 E8.58585
G1 X103.335 Y92.055 E8.70803
G1 X104.203 Y92.055 E8.73213
G1 X106.445 Y94.297 E8.82023
G1 X106.445 Y93.429 E8.84433
G1 X105.071 Y92.055 E8.89833
G1 X105.939 Y92.055 E8.92244
G1 X106.445 Y92.561 E8.94235
G1 X106.445 Y105.578 F7800.000
G1 F3060.8
G1 X102.810 Y101.942 E9.08519
G1 X102.810 Y102.810 E9.10929
G1 X106.445 Y106.445 E9.25213
G1 X106.445 Y107.313 E9.27623
G1 X102.810 Y103.677 E9.41906
G1 X102.810 Y104.545 E9.44317
G1 X106.210 Y107.945 E9.57675
G1 X105.342 Y107.945 E9.60085
G1 X102.810 Y105.413 E9.70035
G1 X102.810 Y106.281 E9.72445
G1 X104.474 Y107.945 E9.78986
G1 X103.607 Y107.945 E9.81396
G1 X102.810 Y107.148 E9.84528
G1 Z5.200 F7800.000
G1 X105.939 Y107.945 F7800.000
G1 F3076.35
G1 X106.445 Y107.439 E9.86520
G1 X106.445 Y106.571 E9.88930
G1 X105.071 Y107.945 E9.94330
G1 X104.203 Y107.945 E9.96741
G1 X106.445 Y105.703 E10.05550
G1 X106.445 Y104.835 E10.07960
G1 X103.335 Y107.945 E10.20179
G1 X102.810 Y107.945 E10.21639
G1 X102.810 Y107.603 E10.22589
G1 X106.445 Y103.968 E10.36872
G1 X106.445 Y103.100 E10.39283
G1 X102.810 Y106.736 E10.53566
G1 X102.810 Y105.868 E10.55977
G1 X106.445 Y102.232 E10.70260
G1 X106.445 Y101.364 E10.72670
G1 X102.810 Y105.000 E10.86954
G1 X102.810 Y104.132 E10.89364
G1 X106.445 Y100.497 E11.03647
G1 X106.445 Y99.629 E11.06058
G1 X102.810 Y103.265 E11.20341
G1 X102.810 Y102.397 E11.22752
G1 X106.445 Y98.761 E11.37035
G1 X106.445 Y97.893 E11.39445
G1 X102.496 Y101.843 E11.54960
G1 X101.628 Y101.843 E11.57370
G1 X106.445 Y97.026 E11.76293
G1 X106.445 Y96.158 E11.78703
G1 X100.761 Y101.843 E12.01035
G1 X99.893 Y101.843 E12.03446
G1 X102.904 Y98.831 E12.15274
G1 X102.036 Y98.831 E12.17685
G1 X99.025 Y101.843 E12.29513
G1 X98.157 Y101.843 E12.31924
G1 X101.169 Y98.831 E12.43752
G1 X100.301 Y98.831 E12.46163
G1 X97.290 Y101.843 E12.57991
G1 X96.809 Y101.843 E12.59328
G1 X96.809 Y102.324 E12.60664
G1 X93.555 Y105.578 E12.73447
G1 X93.555 Y104.710 E12.75858
G1 X99.433 Y98.831 E12.98951
G1 X98.565 Y98.831 E13.01361
G1 X93.555 Y103.842 E13.21046
G1 X93.555 Y102.974 E13.23456
G1 X97.698 Y98.831 E13.39732
G1 X97.190 Y98.831 E13.41140
G1 X97.190 Y98.471 E13.42142
G1 X93.555 Y102.107 E13.56425
G1 X93.555 Y101.239 E13.58836
G1 X97.190 Y97.603 E13.73119
G1 X97.190 Y96.735 E13.75530
G1 X93.555 Y100.371 E13.89813
G1 X93.555 Y99.503 E13.92223
G1 X97.190 Y95.868 E14.06507
G1 X97.190 Y95.000 E14.08917
G1 X93.555 Y98.636 E14.23200
G1 X93.555 Y97.768 E14.25611
G1 X97.190 Y94.132 E14.39894
G1 X97.190 Y93.264 E14.42305
G1 X93.555 Y96.900 E14.56588
G1 X93.555 Y96.032 E14.58998
G1 X97.190 Y92.397 E14.73282
G1 X97.190 Y92.055 E14.74232
G1 X96.665 Y92.055 E14.75692
G1 X93.555 Y95.165 E14.87910
G1 X93.555 Y94.297 E14.90321
G1 X95.797 Y92.055 E14.99130
G1 X94.929 Y92.055 E15.01540
G1 X93.555 Y93.429 E15.06941
G1 X93.555 Y92.561 E15.09351
G1 X94.061 Y92.055 E15.11343
G1 E13.11343 F2400.00000
G92 E0
G1 X103.225 Y92.436 F7800.000
G1 E2.00000 F2400.00000
G1 F3076.35
G1 X102.810 Y92.436 E2.01154
G1 X102.810 Y92.852 E2.02308
G1 X103.607 Y92.055 E2.05440
G1 X104.474 Y92.055 E2.07850
G1 X102.810 Y93.719 E2.14391
G1 X102.810 Y94.587 E2.16801
G1 X105.342 Y92.055 E2.26750
G1 X106.210 Y92.055 E2.29161
G1 X102.810 Y95.455 E2.42519
G1 X102.810 Y96.323 E2.44929
G1 X106.445 Y92.687 E2.59213
G1 X106.445 Y93.555 E2.61623
G1 X102.810 Y97.190 E2.75907
G1 X102.810 Y98.058 E2.78317
G1 X106.445 Y94.422 E2.92600
G1 X106.445 Y95.290 E2.95011
G1 X102.810 Y98.926 E3.09294
G1 E1.09294 F2400.00000
G92 E0
G1 X96.393 Y107.945 F7800.000
G1 E2.00000 F2400.00000
G1 F3076.35
G1 X97.190 Y107.148 E2.03132
G1 X97.190 Y106.281 E2.05542
G1 X95.526 Y107.945 E2.12083
G1 X94.658 Y107.945 E2.14493
G1 X97.190 Y105.413 E2.24443
G1 X97.190 Y104.545 E2.26853
G1 X93.790 Y107.945 E2.40211
G1 X93.555 Y107.945 E2.40865
G1 X93.555 Y107.313 E2.42622
G1 X97.190 Y103.677 E2.56905
G1 X97.190 Y102.810 E2.59315
G1 X93.555 Y106.445 E2.73599
G1 X93.555 Y105.578 E2.76009
G1 Z5.600 F7800.000
G1 X93.936 Y107.820 F7800.000
G1 F3060.8
G1 X93.936 Y107.945 E2.76357
G1 X94.061 Y107.945 E2.76705
G1 X93.555 Y107.439 E2.78696
G1 X93.555 Y106.571 E2.81107
G1 X94.929 Y107.945 E2.86507
G1 X95.797 Y107.945 E2.88917
G1 X93.555 Y105.703 E2.97727
G1 X93.555 Y104.835 E3.00137
G1 X96.665 Y107.945 E3.12355
G1 X97.190 Y107.945 E3.13816
G1 X97.190 Y107.603 E3.14766
G1 X93.555 Y103.968 E3.29049
G1 X93.555 Y103.100 E3.31459
G1 X97.190 Y106.736 E3.45743
G1 X97.190 Y105.868 E3.48153
G1 X93.555 Y102.232 E3.62437
G1 X93.555 Y101.364 E3.64847
G1 X97.190 Y105.000 E3.79130
G1 X97.190 Y104.132 E3.81541
G1 X93.555 Y100.497 E3.95824
G1 X93.555 Y99.629 E3.98235
G1 X97.190 Y103.265 E4.12518
G1 X97.190 Y102.397 E4.14928
G1 X93.555 Y98.761 E4.29212
G1 X93.555 Y97.893 E4.31622
G1 X97.504 Y101.843 E4.47136
G1 X98.372 Y101.843 E4.49547
G1 X93.555 Y97.026 E4.68470
G1 X93.555 Y96.158 E4.70880
G1 X99.239 Y101.843 E4.93212
G1 X97.478 Y99.213 F7800.000
G1 F3060.8
G1 X97.190 Y99.213 E4.94010
G1 X97.190 Y98.926 E4.94808
G1 X93.555 Y95.290 E5.09091
G1 X93.555 Y94.422 E5.11502
G1 X97.190 Y98.058 E5.25785
G1 X97.190 Y97.190 E5.28195
G1 X93.555 Y93.555 E5.42479
G1 X93.555 Y92.687 E5.44889
G1 X97.190 Y96.323 E5.59173
G1 X97.190 Y95.455 E5.61583
G1 X93.790 Y92.055 E5.74941
G1 X94.658 Y92.055 E5.77352
G1 X97.190 Y94.587 E5.87301
G1 X97.190 Y93.719 E5.89711
G1 X95.526 Y92.055 E5.96252
G1 X96.393 Y92.055 E5.98662
G1 X97.190 Y92.852 E6.01794
G1 X97.096 Y98.831 F7800.000
G1 F3060.8
G1 X100.107 Y101.843 E6.13623
G1 X100.975 Y101.843 E6.16033
G1 X97.964 Y98.831 E6.27862
G1 X98.831 Y98.831 E6.30272
G1 X101.843 Y101.843 E6.42101
G1 X102.710 Y101.843 E6.44511
G1 X99.699 Y98.831 E6.56340
G1 X100.567 Y98.831 E6.58750
G1 X106.445 Y104.710 E6.81844
G1 X106.445 Y103.842 E6.84254
G1 X101.435 Y98.831 E7.03938
G1 X102.302 Y98.831 E7.06349
G1 X106.445 Y102.974 E7.22624
G1 X106.445 Y102.107 E7.25034
G1 X102.810 Y98.471 E7.39318
G1 X102.810 Y97.603 E7.41728
G1 X106.445 Y101.239 E7.56012
G1 X106.445 Y100.371 E7.58422
G1 X102.810 Y96.735 E7.72705
G1 X102.810 Y95.868 E7.75116
G1 X106.445 Y99.503 E7.89399
G1 X106.445 Y98.636 E7.91810
G1 X102.810 Y95.000 E8.06093
G1 X102.810 Y94.132 E8.08503
G1 X106.445 Y97.768 E8.22787
G1 X106.445 Y96.900 E8.25197
G1 X102.810 Y93.264 E8.39481
G1 X102.810 Y92.397 E8.41891
G1 X106.445 Y96.032 E8.56174
G1 X106.445 Y95.165 E8.58585
G1 X103.335 Y92.055 E8.70803
G1 X104.203 Y92.055 E8.73213
G1 X106.445 Y94.297 E8.82023
G1 X106.445 Y93.429 E8.84433
G1 X105.071 Y92.055 E8.89833
G1 X105.939 Y92.055 E8.92244
G1 X106.445 Y92.561 E8.94235
G1 X106.445 Y105.578 F7800.000
G1 F3060.8
G1 X102.810 Y101.942 E9.08519
G1 X102.810 Y102.810 E9.10929
G1 X106.445 Y106.445 E9.25213
G1 X106.445 Y107.313 E9.27623
G1 X102.810 Y103.677 E9.41906
G1 X102.810 Y104.545 E9.44317
G1 X106.210 Y107.945 E9.57675
G1 X105.342 Y107.945 E9.60085
G1 X102.810 Y105.413 E9.70035
G1 X102.810 Y106.281 E9.72445
G1 X104.474 Y107.945 E9.78986
G1 X103.607 Y107.945 E9.81396
G1 X102.810 Y107.148 E9.84528
G1 Z6.000 F7800.000
G1 E7.84528 F2400.00000
G92 E0
G1 X105.939 Y107.945 F7800.000
G1 E2.00000 F2400.00000
G1 F3076.35
G1 X106.445 Y107.439 E2.01992
G1 X106.445 Y106.571 E2.04402
G1 X105.071 Y107.945 E2.09802
G1 X104.203 Y107.945 E2.12213
G1 X106.445 Y105.703 E2.21022
G1 X106.445 Y104.835 E2.23433
G1 X103.335 Y107.945 E2.35651
G1 X102.810 Y107.945 E2.37111
G1 X102.810 Y107.603 E2.38061
G1 X106.445 Y103.968 E2.52344
G1 X106.445 Y103.100 E2.54755
G1 X102.810 Y106.736 E2.69038
G1 X102.810 Y105.868 E2.71449
G1 X106.445 Y102.232 E2.85732
G1 X106.445 Y101.364 E2.88142
G1 X102.810 Y105.000 E3.02426
G1 X102.810 Y104.132 E3.04836
G1 X106.445 Y100.497 E3.19120
G1 X106.445 Y99.629 E3.21530
G1 X102.810 Y103.265 E3.35813
G1 X102.810 Y102.397 E3.38224
G1 X106.445 Y98.761 E3.52507
G1 X106.445 Y97.893 E3.54918
G1 X102.496 Y101.843 E3.70432
G1 X101.628 Y101.843 E3.72842
G1 X106.445 Y97.026 E3.91765
G1 X106.445 Y96.158 E3.94175
G1 X100.761 Y101.843 E4.16507
G1 X99.893 Y101.843 E4.18918
G1 X102.904 Y98.831 E4.30746
G1 X102.036 Y98.831 E4.33157
G1 X99.025 Y101.843 E4.44985
G1 X98.157 Y101.843 E4.47396
G1 X101.169 Y98.831 E4.59224
G1 X100.301 Y98.831 E4.61635
G1 X97.290 Y101.843 E4.73463
G1 X96.809 Y101.843 E4.74800
G1 X96.809 Y102.324 E4.76136
G1 X93.555 Y105.578 E4.88920
G1 X93.555 Y104.710 E4.91330
G1 X99.433 Y98.831 E5.14423
G1 X98.565 Y98.831 E5.16833
G1 X93.555 Y103.842 E5.36518
G1 X93.555 Y102.974 E5.38928
G1 X97.698 Y98.831 E5.55204
G1 X97.190 Y98.831 E5.56612
G1 X97.190 Y98.471 E5.57614
G1 X93.555 Y102.107 E5.71897
G1 X93.555 Y101.239 E5.74308
G1 X97.190 Y97.603 E5.88591
G1 X97.190 Y96.735 E5.91002
G1 X93.555 Y100.371 E6.05285
G1 X93.555 Y99.503 E6.07695
G1 X97.190 Y95.868 E6.21979
G1 X97.190 Y95.000 E6.24389
G1 X93.555 Y98.636 E6.38673
G1 X93.555 Y97.768 E6.41083
G1 X97.190 Y94.132 E6.55366
G1 X97.190 Y93.264 E6.57777
G1 X93.555 Y96.900 E6.72060
G1 X93.555 Y96.032 E6.74470
G1 X97.190 Y92.397 E6.88754
G1 X97.190 Y92.055 E6.89704
G1 X96.665 Y92.055 E6.91164
G1 X93.555 Y95.165 E7.03382
G1 X93.555 Y94.297 E7.05793
G1 X95.797 Y92.055 E7.14602
G1 X94.929 Y92.055 E7.17012
G1 X93.555 Y93.429 E7.22413
G1 X93.555 Y92.561 E7.24823
G1 X94.061 Y92.055 E7.26815
G1 E5.26815 F2400.00000
G92 E0
G1 X103.225 Y92.436 F7800.000
G1 E2.00000 F2400.00000
G1 F3076.35
G1 X102.810 Y92.436 E2.01154
G1 X102.810 Y92.852 E2.02308
G1 X103.607 Y92.055 E2.05440
G1 X104.474 Y92.055 E2.07850
G1 X102.810 Y93.719 E2.14391
G1 X102.810 Y94.587 E2.16801
G1 X105.342 Y92.055 E2.26750
G1 X106.210 Y92.055 E2.29161
G1 X102.810 Y95.455 E2.42519
G1 X102.810 Y96.323 E2.44929
G1 X106.445 Y92.687 E2.59213
G1 X106.445 Y93.555 E2.61623
G1 X102.810 Y97.190 E2.75907
G1 X102.810 Y98.058 E2.78317
G1 X106.445 Y94.422 E2.92600
G1 X106.445 Y95.290 E2.95011
G1 X102.810 Y98.926 E3.09294
G1 E1.09294 F2400.00000
G92 E0
G1 X96.393 Y107.945 F7800.000
G1 E2.00000 F2400.00000
G1 F3076.35
G1 X97.190 Y107.148 E2.03132
G1 X97.190 Y106.281 E2.05542
G1 X95.526 Y107.945 E2.12083
G1 X94.658 Y107.945 E2.14493
G1 X97.190 Y105.413 E2.24443
G1 X97.190 Y104.545 E2.26853
G1 X93.790 Y107.945 E2.40211
G1 X93.555 Y107.945 E2.40865
G1 X93.555 Y107.313 E2.42622
G1 X97.190 Y103.677 E2.56905
G1 X97.190 Y102.810 E2.59315
G1 X93.555 Y106.445 E2.73599
G1 X93.555 Y105.578 E2.76009
G1 E0.76009 F2400.00000
G92 E0
M107
; Filament-specific end gcode 
;END gcode for filament

M104 S0 ; turn off temperature
G28 X0  ; home X axis
M84     ; disable motors

M140 S0 ; set bed temperature
; filament used = 110.0mm (0.8cm3)
; total filament cost = 0.0

; avoid_crossing_perimeters = 0
; bed_shape = 0x0,200x0,200x200,0x200
; bed_temperature = 0
; before_layer_gcode = 
; between_objects_gcode = 
; bridge_acceleration = 0
; bridge_fan_speed = 100
; brim_connections_width = 0
; brim_width = 0
; complete_objects = 0
; cooling = 1
; default_acceleration = 0
; disable_fan_first_layers = 3
; duplicate_distance = 6
; end_filament_gcode = "; Filament-specific end gcode \n;END gcode for filament\n"
; end_gcode = M104 S0 ; turn off temperature\nG28 X0  ; home X axis\nM84     ; disable motors\n
; extruder_clearance_height = 20
; extruder_clearance_radius = 20
; extruder_offset = 0x0
; extrusion_axis = E
; extrusion_multiplier = 1
; fan_always_on = 0
; fan_below_layer_time = 60
; filament_colour = #FFFFFF
; filament_cost = 0
; filament_density = 0
; filament_diameter = 3
; filament_max_volumetric_speed = 0
; filament_notes = ""
; first_layer_acceleration = 0
; first_layer_bed_temperature = 0
; first_layer_extrusion_width = 200%
; first_layer_speed = 30
; first_layer_temperature = 205
; gcode_arcs = 0
; gcode_comments = 0
; gcode_flavor = reprap
; has_heatbed = 1
; infill_acceleration = 0
; infill_first = 0
; interior_brim_width = 0
; layer_gcode = 
; max_fan_speed = 100
; max_layer_height = 0.3
; max_print_speed = 80
; max_volumetric_speed = 0
; min_fan_speed = 35
; min_layer_height = 0.15
; min_print_speed = 10
; min_skirt_length = 0
; notes = 
; nozzle_diameter = 0.5
; only_retract_when_crossing_perimeters = 1
; ooze_prevention = 0
; output_filename_format = [input_filename_base].gcode
; perimeter_acceleration = 0
; post_process = 
; pressure_advance = 0
; printer_notes = 
; resolution = 0
; retract_before_travel = 2
; retract_layer_change = 0
; retract_length = 2
; retract_length_toolchange = 10
; retract_lift = 0
; retract_lift_above = 0
; retract_lift_below = 0
; retract_restart_extra = 0
; retract_restart_extra_toolchange = 0
; retract_speed = 40
; skirt_distance = 6
; skirt_height = 1
; skirts = 0
; slowdown_below_layer_time = 5
; spiral_vase = 0
; standby_temperature_delta = -5
; start_filament_gcode = "; Filament gcode\n"
; start_gcode = G28 ; home all axes\nG1 Z5 F5000 ; lift nozzle\n
; temperature = 200
; threads = 8
; toolchange_gcode = 
; travel_speed = 130
; use_firmware_retraction = 0
; use_relative_e_distances = 0
; use_set_and_wait_bed = 0
; use_set_and_wait_extruder = 0
; use_volumetric_e = 0
; vibration_limit = 0
; wipe = 0
; z_offset = 0
; z_steps_per_mm = 0
; adaptive_slicing = 0
; adaptive_slicing_quality = 75%
; dont_support_bridges = 1
; extrusion_width = 0
; first_layer_height = 0.4
; infill_only_where_needed = 0
; interface_shells = 0
; layer_height = 0.4
; match_horizontal_surfaces = 0
; raft_layers = 0
; regions_overlap = 0
; seam_position = aligned
; sequential_print_priority = 0
; support_material = 0
; support_material_angle = 0
; support_material_buildplate_only = 0
; support_material_contact_distance = 0.2
; support_material_enforce_layers = 0
; support_material_extruder = 1
; support_material_extrusion_width = 0
; support_material_interface_extruder = 1
; support_material_interface_extrusion_width = 0
; support_material_interface_layers = 3
; support_material_interface_spacing = 0
; support_material_interface_speed = 100%
; support_material_max_layers = 0
; support_material_pattern = pillars
; support_material_spacing = 2.5
; support_material_speed = 60
; support_material_threshold = 60%
; xy_size_compensation = 0
; bottom_infill_pattern = rectilinear
; bottom_solid_layers = 0
; bridge_flow_ratio = 1
; bridge_speed = 60
; external_perimeter_extrusion_width = 0
; external_perimeter_speed = 50%
; external_perimeters_first = 0
; extra_perimeters = 1
; fill_angle = 45
; fill_density = 80%
; fill_gaps = 1
; fill_pattern = rectilinear
; gap_fill_speed = 20
; infill_every_layers = 1
; infill_extruder = 1
; infill_extrusion_width = 0
; infill_overlap = 55%
; infill_speed = 80
; overhangs = 1
; perimeter_extruder = 1
; perimeter_extrusion_width = 0
; perimeter_speed = 60
; perimeters = 0
; small_perimeter_speed = 15
; solid_infill_below_area = 70
; solid_infill_every_layers = 0
; solid_infill_extruder = 1
; solid_infill_extrusion_width = 0
; solid_infill_speed = 20
; thin_walls = 1
; top_infill_extrusion_width = 0
; top_infill_pattern = rectilinear
; top_solid_infill_speed = 15
; top_solid_layers = 0
