; generated by Slic3r 1.3.0 on 2019-11-07 at 10:50:56

; external perimeters extrusion width = 0.55mm (4.37mm^3/s)
; perimeters extrusion width = 0.70mm (11.44mm^3/s)
; infill extrusion width = 0.63mm (13.45mm^3/s)
; solid infill extrusion width = 0.70mm (3.81mm^3/s)
; top infill extrusion width = 0.70mm (2.86mm^3/s)

M107
M104 S205 ; set temperature
G28 ; home all axes
G1 Z5 F5000 ; lift nozzle

; Filament gcode

M109 S205 ; set temperature and wait for it to be reached
G21 ; set units to millimeters
G90 ; use absolute coordinates
M82 ; use absolute distances for extrusion
G92 E0
G1 Z0.300 F7800.000
G1 E-2.00000 F2400.00000
G92 E0
G1 X93.754 Y92.559 F7800.000
G1 E2.00000 F2400.00000
G1 F1800
G1 X93.338 Y92.976 E2.01345
G1 X93.338 Y93.737 E2.03080
G1 X94.515 Y92.559 E2.06879
G1 X95.275 Y92.559 E2.08614
G1 X93.338 Y94.497 E2.14866
G1 X93.338 Y95.257 E2.16601
G1 X96.035 Y92.559 E2.25307
G1 X96.796 Y92.559 E2.27042
G1 X93.338 Y96.018 E2.38201
G1 X93.338 Y96.778 E2.39936
G1 X97.091 Y93.024 E2.52050
G1 X97.091 Y93.784 E2.53785
G1 X93.338 Y97.538 E2.65899
G1 X93.338 Y98.299 E2.67633
G1 X97.091 Y94.545 E2.79747
G1 X97.091 Y95.305 E2.81482
G1 X93.338 Y99.059 E2.93596
G1 X93.338 Y99.819 E2.95331
G1 X97.091 Y96.065 E3.07445
G1 X97.091 Y96.826 E3.09180
G1 X93.338 Y100.580 E3.21294
G1 X93.338 Y101.340 E3.23029
G1 X97.091 Y97.586 E3.35142
G1 X97.091 Y98.347 E3.36877
G1 X93.338 Y102.100 E3.48991
G1 X93.338 Y102.861 E3.50726
G1 X97.285 Y98.913 E3.63466
G1 X98.046 Y98.913 E3.65201
G1 X93.338 Y103.621 E3.80394
G1 X93.338 Y104.381 E3.82129
G1 X98.806 Y98.913 E3.99776
G1 X99.566 Y98.913 E4.01511
G1 X96.760 Y101.719 E4.10567
G1 X97.521 Y101.719 E4.12302
G1 X100.327 Y98.913 E4.21357
G1 X101.087 Y98.913 E4.23092
G1 X98.281 Y101.719 E4.32148
G1 X99.041 Y101.719 E4.33883
G1 X101.848 Y98.913 E4.42938
G1 X102.608 Y98.913 E4.44673
G1 X99.802 Y101.719 E4.53729
G1 X100.562 Y101.719 E4.55464
G1 X106.662 Y95.619 E4.75149
G1 X106.662 Y96.379 E4.76884
G1 X101.322 Y101.719 E4.94117
G1 X102.083 Y101.719 E4.95852
G1 X106.662 Y97.139 E5.10630
G1 X106.662 Y97.900 E5.12365
G1 X102.843 Y101.719 E5.24690
G1 X102.909 Y101.719 E5.24840
G1 X102.909 Y102.414 E5.26425
G1 X106.662 Y98.660 E5.38539
G1 X106.662 Y99.420 E5.40274
G1 X102.909 Y103.174 E5.52388
G1 X102.909 Y103.935 E5.54123
G1 X106.662 Y100.181 E5.66237
G1 X106.662 Y100.941 E5.67972
G1 X102.909 Y104.695 E5.80085
G1 X102.909 Y105.455 E5.81820
G1 X106.662 Y101.701 E5.93934
G1 X106.662 Y102.462 E5.95669
G1 X102.909 Y106.216 E6.07783
G1 X102.909 Y106.976 E6.09518
G1 X106.662 Y103.222 E6.21632
G1 X106.662 Y103.982 E6.23367
G1 X103.204 Y107.441 E6.34526
G1 X103.965 Y107.441 E6.36261
G1 X106.662 Y104.743 E6.44967
G1 X106.662 Y105.503 E6.46702
G1 X104.725 Y107.441 E6.52954
G1 X105.485 Y107.441 E6.54689
G1 X106.662 Y106.263 E6.58487
G1 X106.662 Y107.024 E6.60222
G1 X106.246 Y107.441 E6.61567
G1 E4.61567 F2400.00000
G92 E0
G1 X102.909 Y98.612 F7800.000
G1 E2.00000 F2400.00000
G1 F1800
G1 X106.662 Y94.858 E2.12114
G1 X106.662 Y94.098 E2.13849
G1 X102.909 Y97.852 E2.25963
G1 X102.909 Y97.091 E2.27698
G1 X106.662 Y93.338 E2.39811
G1 X106.662 Y92.577 E2.41546
G1 X102.909 Y96.331 E2.53660
G1 X102.909 Y95.571 E2.55395
G1 X105.920 Y92.559 E2.65113
G1 X105.160 Y92.559 E2.66848
G1 X102.909 Y94.810 E2.74111
G1 X102.909 Y94.050 E2.75846
G1 X104.399 Y92.559 E2.80657
G1 X103.639 Y92.559 E2.82392
G1 X102.909 Y93.290 E2.84748
G1 X102.909 Y92.976 E2.85464
G1 X103.222 Y92.976 E2.86180
G1 E0.86180 F2400.00000
G92 E0
G1 X93.338 Y104.381 F7800.000
G1 E2.00000 F2400.00000
G1 F1800
G1 X93.338 Y105.142 E2.01735
G1 X97.091 Y101.388 E2.13849
G1 X97.091 Y102.148 E2.15584
G1 X93.338 Y105.902 E2.27698
G1 X93.338 Y106.662 E2.29433
G1 X97.091 Y102.909 E2.41546
G1 X97.091 Y103.669 E2.43281
G1 X93.338 Y107.423 E2.55395
G1 X93.338 Y107.441 E2.55436
G1 X94.080 Y107.441 E2.57130
G1 X97.091 Y104.429 E2.66847
G1 X97.091 Y105.190 E2.68582
G1 X94.841 Y107.441 E2.75846
G1 X95.601 Y107.441 E2.77581
G1 X97.091 Y105.950 E2.82391
G1 X97.091 Y106.710 E2.84126
G1 X96.361 Y107.441 E2.86483
M104 S200 ; set temperature
G1 Z0.600 F7800.000
G1 X93.843 Y107.429 F7800.000
G1 F1200
G1 X93.349 Y106.935 E2.88383
G1 X93.349 Y106.029 E2.90845
G1 X94.749 Y107.429 E2.96228
G1 X95.655 Y107.429 E2.98690
G1 X93.349 Y105.123 E3.07555
G1 X93.349 Y104.218 E3.10017
G1 X96.560 Y107.429 E3.22363
G1 X97.080 Y107.429 E3.23776
G1 X97.080 Y107.044 E3.24825
G1 X93.349 Y103.312 E3.39170
G1 X93.349 Y102.406 E3.41632
G1 X97.080 Y106.138 E3.55977
G1 X97.080 Y105.232 E3.58439
G1 X93.349 Y101.500 E3.72784
G1 X93.349 Y100.595 E3.75246
G1 X97.080 Y104.326 E3.89591
G1 X97.080 Y103.421 E3.92053
G1 X93.349 Y99.689 E4.06398
G1 X93.349 Y98.783 E4.08860
G1 X97.080 Y102.515 E4.23205
G1 X97.080 Y101.708 E4.25398
G1 X97.179 Y101.708 E4.25667
G1 X93.349 Y97.877 E4.40392
G1 X93.349 Y96.972 E4.42854
G1 X98.085 Y101.708 E4.61060
G1 X98.991 Y101.708 E4.63522
G1 X93.349 Y96.066 E4.85210
G1 X93.349 Y95.160 E4.87672
G1 X97.080 Y98.892 E5.02017
G1 X97.080 Y97.986 E5.04479
G1 X93.349 Y94.254 E5.18824
G1 X93.349 Y93.349 E5.21286
G1 X97.080 Y97.080 E5.35631
G1 X97.080 Y96.175 E5.38093
G1 X93.476 Y92.571 E5.51947
G1 X94.382 Y92.571 E5.54409
G1 X97.080 Y95.269 E5.64782
G1 X97.080 Y94.363 E5.67244
G1 X95.288 Y92.571 E5.74134
G1 X96.194 Y92.571 E5.76596
G1 X97.080 Y93.457 E5.80005
G1 E3.80005 F2400.00000
G92 E0
G1 X98.991 Y101.708 F7800.000
G1 E2.00000 F2400.00000
G1 F1200
G1 X99.896 Y101.708 E2.02462
G1 X97.112 Y98.924 E2.13164
G1 X98.018 Y98.924 E2.15626
G1 X100.802 Y101.708 E2.26327
G1 X101.708 Y101.708 E2.28789
G1 X98.924 Y98.924 E2.39491
G1 X99.830 Y98.924 E2.41953
G1 X102.614 Y101.708 E2.52655
G1 E0.52655 F2400.00000
G92 E0
G1 X103.414 Y107.037 F7800.000
G1 E2.00000 F2400.00000
G1 F1200
G1 X103.414 Y107.429 E2.01067
G1 X103.806 Y107.429 E2.02133
G1 X102.920 Y106.543 E2.05542
G1 X102.920 Y105.637 E2.08004
G1 X104.712 Y107.429 E2.14895
G1 X105.618 Y107.429 E2.17357
G1 X102.920 Y104.731 E2.27729
G1 X102.920 Y103.825 E2.30191
G1 X106.524 Y107.429 E2.44045
G1 X106.651 Y107.429 E2.44392
G1 X106.651 Y106.651 E2.46507
G1 X102.920 Y102.920 E2.60852
G1 X102.920 Y102.014 E2.63314
G1 X106.651 Y105.746 E2.77659
G1 X106.651 Y104.840 E2.80121
G1 X100.735 Y98.924 E3.02862
G1 X101.641 Y98.924 E3.05324
G1 X106.651 Y103.934 E3.24584
G1 X106.651 Y103.028 E3.27046
G1 X102.547 Y98.924 E3.42824
G1 X102.920 Y98.924 E3.43837
G1 X102.920 Y98.391 E3.45286
G1 X106.651 Y102.123 E3.59630
G1 X106.651 Y101.217 E3.62092
G1 X102.920 Y97.485 E3.76437
G1 X102.920 Y96.579 E3.78899
G1 X106.651 Y100.311 E3.93244
G1 X106.651 Y99.405 E3.95706
G1 X102.920 Y95.674 E4.10051
G1 X102.920 Y94.768 E4.12513
G1 X106.651 Y98.500 E4.26858
G1 X106.651 Y97.594 E4.29320
G1 X102.920 Y93.862 E4.43665
G1 X102.920 Y92.956 E4.46127
G1 X106.651 Y96.688 E4.60472
G1 X106.651 Y95.782 E4.62934
G1 X103.440 Y92.571 E4.75280
G1 X104.345 Y92.571 E4.77742
G1 X106.651 Y94.877 E4.86607
G1 X106.651 Y93.971 E4.89069
G1 X105.251 Y92.571 E4.94452
G1 X106.157 Y92.571 E4.96914
G1 X106.651 Y93.065 E4.98815
G1 Z0.900 F7800.000
G1 X103.312 Y93.065 F7800.000
G1 F1200
G1 X102.920 Y93.065 E4.99881
G1 X102.920 Y93.457 E5.00948
G1 X103.806 Y92.571 E5.04357
G1 X104.712 Y92.571 E5.06819
G1 X102.920 Y94.363 E5.13710
G1 X102.920 Y95.269 E5.16172
G1 X105.618 Y92.571 E5.26544
G1 X106.524 Y92.571 E5.29006
G1 X102.920 Y96.175 E5.42860
G1 X102.920 Y97.080 E5.45322
G1 X106.651 Y93.349 E5.59667
G1 X106.651 Y94.254 E5.62129
G1 X102.920 Y97.986 E5.76474
G1 X102.920 Y98.892 E5.78936
G1 X106.651 Y95.160 E5.93281
G1 X106.651 Y96.066 E5.95743
G1 X101.009 Y101.708 E6.17431
G1 X101.915 Y101.708 E6.19893
G1 X106.651 Y96.972 E6.38100
G1 X106.651 Y97.877 E6.40562
G1 X102.821 Y101.708 E6.55286
G1 X102.920 Y101.708 E6.55555
G1 X102.920 Y102.515 E6.57748
G1 X106.651 Y98.783 E6.72093
G1 X106.651 Y99.689 E6.74555
G1 X102.920 Y103.421 E6.88900
G1 X102.920 Y104.326 E6.91362
G1 X106.651 Y100.595 E7.05707
G1 X106.651 Y101.500 E7.08169
G1 X102.920 Y105.232 E7.22514
G1 X102.920 Y106.138 E7.24976
G1 X106.651 Y102.406 E7.39321
G1 X106.651 Y103.312 E7.41783
G1 X102.920 Y107.044 E7.56128
G1 X102.920 Y107.429 E7.57177
G1 X103.440 Y107.429 E7.58590
G1 X106.651 Y104.218 E7.70936
G1 X106.651 Y105.123 E7.73398
G1 X104.345 Y107.429 E7.82263
G1 X105.251 Y107.429 E7.84725
G1 X106.651 Y106.029 E7.90108
G1 X106.651 Y106.935 E7.92570
G1 X106.157 Y107.429 E7.94471
G1 E5.94471 F2400.00000
G92 E0
G1 X100.104 Y101.708 F7800.000
G1 E2.00000 F2400.00000
G1 F1200
G1 X102.888 Y98.924 E2.10702
G1 X101.982 Y98.924 E2.13164
G1 X99.198 Y101.708 E2.23865
G1 X98.292 Y101.708 E2.26327
G1 X101.076 Y98.924 E2.37029
G1 X100.170 Y98.924 E2.39491
G1 X97.386 Y101.708 E2.50193
G1 X96.586 Y101.708 E2.52369
G1 X96.586 Y102.508 E2.54544
G1 X96.194 Y107.429 F7800.000
G1 F1200
G1 X97.080 Y106.543 E2.57953
G1 X97.080 Y105.637 E2.60415
G1 X95.288 Y107.429 E2.67306
G1 X94.382 Y107.429 E2.69768
G1 X97.080 Y104.731 E2.80140
G1 X97.080 Y103.825 E2.82602
G1 X93.476 Y107.429 E2.96456
G1 X93.349 Y107.429 E2.96803
G1 X93.349 Y106.651 E2.98918
G1 X97.080 Y102.920 E3.13263
G1 X97.080 Y102.014 E3.15725
G1 X93.349 Y105.746 E3.30070
G1 X93.349 Y104.840 E3.32532
G1 X99.265 Y98.924 E3.55273
G1 X98.359 Y98.924 E3.57735
G1 X93.349 Y103.934 E3.76995
G1 X93.349 Y103.028 E3.79457
G1 X97.453 Y98.924 E3.95235
G1 X97.080 Y98.924 E3.96248
G1 X97.080 Y98.391 E3.97697
G1 X93.349 Y102.123 E4.12042
G1 X93.349 Y101.217 E4.14504
G1 X97.080 Y97.485 E4.28849
G1 X97.080 Y96.579 E4.31311
G1 X93.349 Y100.311 E4.45655
G1 X93.349 Y99.405 E4.48117
G1 X97.080 Y95.674 E4.62462
G1 X97.080 Y94.768 E4.64924
G1 X93.349 Y98.500 E4.79269
G1 X93.349 Y97.594 E4.81731
G1 X97.080 Y93.862 E4.96076
G1 X97.080 Y92.956 E4.98538
G1 X93.349 Y96.688 E5.12883
G1 X93.349 Y95.782 E5.15345
G1 X96.560 Y92.571 E5.27692
G1 X95.655 Y92.571 E5.30154
G1 X93.349 Y94.877 E5.39018
G1 X93.349 Y93.971 E5.41480
G1 X94.749 Y92.571 E5.46863
G1 X93.843 Y92.571 E5.49325
G1 X93.349 Y93.065 E5.51226
M106 S255
G1 Z1.200 F7800.000
G1 X93.326 Y93.083 F7800.000
G1 F2374.72
G1 X93.861 Y92.548 E5.53026
G1 X96.126 Y92.548 F7800.000
G1 F2374.72
G1 X93.326 Y95.348 E5.62449
G1 X93.326 Y97.613 F7800.000
G1 F2374.72
G1 X97.103 Y93.836 E5.75160
G1 X97.103 Y94.838 F7800.000
G1 F2374.72
G1 X94.813 Y92.548 E5.82867
G1 X93.326 Y92.548 E5.86405
G1 X93.326 Y93.326 E5.88256
G1 X97.103 Y97.103 E6.00967
G1 X97.103 Y99.366 E6.06352
G1 X99.366 Y99.366 E6.11736
G1 X101.731 Y101.731 E6.19693
G1 X99.466 Y101.731 E6.25082
G1 X93.326 Y95.591 E6.45742
G1 X93.326 Y97.856 E6.51132
G1 X97.200 Y101.731 E6.64169
G1 X97.103 Y101.731 E6.64400
G1 X97.103 Y103.899 E6.69559
G1 X93.326 Y100.121 E6.82270
G1 X93.326 Y102.387 E6.87660
G1 X97.103 Y106.164 E7.00371
G1 X97.103 Y107.452 E7.03435
G1 X96.126 Y107.452 E7.05760
G1 X93.326 Y104.652 E7.15183
G1 X93.326 Y106.917 E7.20573
G1 X93.861 Y107.452 E7.22373
G1 X93.791 Y107.452 E7.22540
G1 X93.791 Y107.382 E7.22706
G1 X93.326 Y106.674 F7800.000
G1 F2374.72
G1 X97.103 Y102.897 E7.35417
G1 X98.269 Y101.731 F7800.000
G1 F2374.72
G1 X101.099 Y98.901 E7.44939
G1 X98.834 Y98.901 F7800.000
G1 F2374.72
G1 X93.326 Y104.409 E7.63472
G1 X93.326 Y102.144 F7800.000
G1 F2374.72
G1 X97.103 Y98.366 E7.76183
G1 X97.103 Y96.101 F7800.000
G1 F2374.72
G1 X93.326 Y99.879 E7.88894
G1 X97.103 Y105.162 F7800.000
G1 F2374.72
G1 X94.813 Y107.452 E7.96601
G1 E5.96601 F2400.00000
G92 E0
G1 X100.534 Y101.731 F7800.000
G1 E2.00000 F2400.00000
G1 F2374.72
G1 X106.674 Y95.591 E2.20660
G1 X106.674 Y97.856 F7800.000
G1 F2374.72
G1 X102.800 Y101.731 E2.33697
G1 E0.33697 F2400.00000
G92 E0
G1 X102.897 Y103.899 F7800.000
G1 E2.00000 F2400.00000
G1 F2374.72
G1 X106.674 Y100.121 E2.12711
G1 X106.674 Y102.387 F7800.000
G1 F2374.72
G1 X102.897 Y106.164 E2.25422
G1 X103.362 Y105.627 F7800.000
G1 F2374.72
G1 X103.362 Y107.452 E2.29764
G1 X105.187 Y107.452 E2.34107
G1 X102.897 Y105.162 E2.41813
G1 X102.897 Y102.897 E2.47203
G1 X106.674 Y106.674 E2.59914
G1 X106.674 Y104.409 E2.65304
G1 X101.166 Y98.901 E2.83838
G1 X102.897 Y98.901 E2.87955
G1 X102.897 Y98.366 E2.89227
G1 X106.674 Y102.144 E3.01938
G1 X106.674 Y99.879 E3.07328
G1 X102.897 Y96.101 E3.20039
G1 X102.897 Y93.836 E3.25429
G1 X106.674 Y97.613 E3.38139
G1 X106.674 Y95.348 E3.43529
G1 X103.874 Y92.548 E3.52952
G1 X106.139 Y92.548 E3.58342
G1 X106.674 Y93.083 E3.60142
G1 X106.674 Y93.326 F7800.000
G1 F2374.72
G1 X102.897 Y97.103 E3.72853
G1 X102.897 Y94.838 F7800.000
G1 F2374.72
G1 X105.187 Y92.548 E3.80560
G1 X106.674 Y104.652 F7800.000
G1 F2374.72
G1 X103.874 Y107.452 E3.89983
G1 X106.139 Y107.452 F7800.000
G1 F2374.72
G1 X106.674 Y106.917 E3.91783
G1 Z1.500 F7800.000
G1 F2374.72
G1 X106.139 Y107.452 E3.93584
G1 X103.874 Y107.452 F7800.000
G1 F2374.72
G1 X106.674 Y104.652 E4.03007
G1 X106.674 Y102.387 F7800.000
G1 F2374.72
G1 X102.897 Y106.164 E4.15718
G1 X103.362 Y105.627 F7800.000
G1 F2374.72
G1 X103.362 Y107.452 E4.20060
G1 X105.187 Y107.452 E4.24403
G1 X102.897 Y105.162 E4.32109
G1 X102.897 Y102.897 E4.37499
G1 X106.674 Y106.674 E4.50210
G1 X106.674 Y104.409 E4.55600
G1 X101.166 Y98.901 E4.74133
G1 X102.897 Y98.901 E4.78251
G1 X102.897 Y98.366 E4.79523
G1 X106.674 Y102.144 E4.92234
G1 X106.674 Y99.879 E4.97624
G1 X102.897 Y96.101 E5.10335
G1 X102.897 Y93.836 E5.15724
G1 X106.674 Y97.613 E5.28435
G1 X106.674 Y95.348 E5.33825
G1 X103.874 Y92.548 E5.43248
G1 X106.139 Y92.548 E5.48638
G1 X106.674 Y93.083 E5.50438
G1 X106.674 Y93.326 F7800.000
G1 F2374.72
G1 X102.897 Y97.103 E5.63149
G1 X102.897 Y94.838 F7800.000
G1 F2374.72
G1 X105.187 Y92.548 E5.70856
G1 X106.674 Y95.591 F7800.000
G1 F2374.72
G1 X100.534 Y101.731 E5.91516
G1 X102.800 Y101.731 F7800.000
G1 F2374.72
G1 X106.674 Y97.856 E6.04553
G1 X106.674 Y100.121 F7800.000
G1 F2374.72
G1 X102.897 Y103.899 E6.17264
G1 E4.17264 F2400.00000
G92 E0
G1 X98.269 Y101.731 F7800.000
G1 E2.00000 F2400.00000
G1 F2374.72
G1 X101.099 Y98.901 E2.09522
G1 X98.834 Y98.901 F7800.000
G1 F2374.72
G1 X93.326 Y104.409 E2.28055
G1 X93.326 Y102.144 F7800.000
G1 F2374.72
G1 X97.103 Y98.366 E2.40766
G1 X97.103 Y96.101 F7800.000
G1 F2374.72
G1 X93.326 Y99.879 E2.53477
G1 X93.326 Y97.613 F7800.000
G1 F2374.72
G1 X97.103 Y93.836 E2.66188
G1 X97.103 Y94.838 F7800.000
G1 F2374.72
G1 X94.813 Y92.548 E2.73895
G1 X93.326 Y92.548 E2.77433
G1 X93.326 Y93.326 E2.79285
G1 X97.103 Y97.103 E2.91995
G1 X97.103 Y99.366 E2.97380
G1 X99.366 Y99.366 E3.02764
G1 X101.731 Y101.731 E3.10721
G1 X99.466 Y101.731 E3.16110
G1 X93.326 Y95.591 E3.36770
G1 X93.326 Y97.856 E3.42160
G1 X97.200 Y101.731 E3.55197
G1 X97.103 Y101.731 E3.55428
G1 X97.103 Y103.899 E3.60587
G1 X93.326 Y100.121 E3.73298
G1 X93.326 Y102.387 E3.78688
G1 X97.103 Y106.164 E3.91399
G1 X97.103 Y107.452 E3.94464
G1 X96.126 Y107.452 E3.96788
G1 X93.326 Y104.652 E4.06211
G1 X93.326 Y106.917 E4.11601
G1 X93.861 Y107.452 E4.13402
G1 X93.791 Y107.452 E4.13568
G1 X93.791 Y107.382 E4.13734
G1 X93.326 Y106.674 F7800.000
G1 F2374.72
G1 X97.103 Y102.897 E4.26445
G1 X97.103 Y105.162 F7800.000
G1 F2374.72
G1 X94.813 Y107.452 E4.34152
G1 X93.326 Y95.348 F7800.000
G1 F2374.72
G1 X96.126 Y92.548 E4.43574
G1 X93.861 Y92.548 F7800.000
G1 F2374.72
G1 X93.326 Y93.083 E4.45375
G1 Z1.800 F7800.000
G1 F2374.72
G1 X93.861 Y92.548 E4.47176
G1 X96.126 Y92.548 F7800.000
G1 F2374.72
G1 X93.326 Y95.348 E4.56598
G1 X93.326 Y97.613 F7800.000
G1 F2374.72
G1 X97.103 Y93.836 E4.69309
G1 X97.103 Y94.838 F7800.000
G1 F2374.72
G1 X94.813 Y92.548 E4.77016
G1 X93.326 Y92.548 E4.80554
G1 X93.326 Y93.326 E4.82406
G1 X97.103 Y97.103 E4.95117
G1 X97.103 Y99.366 E5.00501
G1 X99.366 Y99.366 E5.05886
G1 X101.731 Y101.731 E5.13842
G1 X99.466 Y101.731 E5.19232
G1 X93.326 Y95.591 E5.39891
G1 X93.326 Y97.856 E5.45281
G1 X97.200 Y101.731 E5.58319
G1 X97.103 Y101.731 E5.58550
G1 X97.103 Y103.899 E5.63708
G1 X93.326 Y100.121 E5.76419
G1 X93.326 Y102.387 E5.81809
G1 X97.103 Y106.164 E5.94520
G1 X97.103 Y107.452 E5.97585
G1 X96.126 Y107.452 E5.99910
G1 X93.326 Y104.652 E6.09333
G1 X93.326 Y106.917 E6.14722
G1 X93.861 Y107.452 E6.16523
G1 X93.791 Y107.452 E6.16689
G1 X93.791 Y107.382 E6.16855
G1 X93.326 Y106.674 F7800.000
G1 F2374.72
G1 X97.103 Y102.897 E6.29566
G1 X98.269 Y101.731 F7800.000
G1 F2374.72
G1 X101.099 Y98.901 E6.39088
G1 X98.834 Y98.901 F7800.000
G1 F2374.72
G1 X93.326 Y104.409 E6.57622
G1 X93.326 Y102.144 F7800.000
G1 F2374.72
G1 X97.103 Y98.366 E6.70333
G1 X97.103 Y96.101 F7800.000
G1 F2374.72
G1 X93.326 Y99.879 E6.83043
G1 X97.103 Y105.162 F7800.000
G1 F2374.72
G1 X94.813 Y107.452 E6.90750
G1 E4.90750 F2400.00000
G92 E0
G1 X100.534 Y101.731 F7800.000
G1 E2.00000 F2400.00000
G1 F2374.72
G1 X106.674 Y95.591 E2.20660
G1 X106.674 Y97.856 F7800.000
G1 F2374.72
G1 X102.800 Y101.731 E2.33697
G1 E0.33697 F2400.00000
G92 E0
G1 X102.897 Y103.899 F7800.000
G1 E2.00000 F2400.00000
G1 F2374.72
G1 X106.674 Y100.121 E2.12711
G1 X106.674 Y102.387 F7800.000
G1 F2374.72
G1 X102.897 Y106.164 E2.25422
G1 X103.362 Y105.627 F7800.000
G1 F2374.72
G1 X103.362 Y107.452 E2.29764
G1 X105.187 Y107.452 E2.34107
G1 X102.897 Y105.162 E2.41813
G1 X102.897 Y102.897 E2.47203
G1 X106.674 Y106.674 E2.59914
G1 X106.674 Y104.409 E2.65304
G1 X101.166 Y98.901 E2.83838
G1 X102.897 Y98.901 E2.87955
G1 X102.897 Y98.366 E2.89227
G1 X106.674 Y102.144 E3.01938
G1 X106.674 Y99.879 E3.07328
G1 X102.897 Y96.101 E3.20039
G1 X102.897 Y93.836 E3.25429
G1 X106.674 Y97.613 E3.38139
G1 X106.674 Y95.348 E3.43529
G1 X103.874 Y92.548 E3.52952
G1 X106.139 Y92.548 E3.58342
G1 X106.674 Y93.083 E3.60142
G1 X106.674 Y93.326 F7800.000
G1 F2374.72
G1 X102.897 Y97.103 E3.72853
G1 X102.897 Y94.838 F7800.000
G1 F2374.72
G1 X105.187 Y92.548 E3.80560
G1 X106.674 Y104.652 F7800.000
G1 F2374.72
G1 X103.874 Y107.452 E3.89983
G1 X106.139 Y107.452 F7800.000
G1 F2374.72
G1 X106.674 Y106.917 E3.91783
G1 Z2.100 F7800.000
G1 F2374.72
G1 X106.139 Y107.452 E3.93584
G1 X103.874 Y107.452 F7800.000
G1 F2374.72
G1 X106.674 Y104.652 E4.03007
G1 X106.674 Y102.387 F7800.000
G1 F2374.72
G1 X102.897 Y106.164 E4.15718
G1 X103.362 Y105.627 F7800.000
G1 F2374.72
G1 X103.362 Y107.452 E4.20060
G1 X105.187 Y107.452 E4.24403
G1 X102.897 Y105.162 E4.32109
G1 X102.897 Y102.897 E4.37499
G1 X106.674 Y106.674 E4.50210
G1 X106.674 Y104.409 E4.55600
G1 X101.166 Y98.901 E4.74133
G1 X102.897 Y98.901 E4.78251
G1 X102.897 Y98.366 E4.79523
G1 X106.674 Y102.144 E4.92234
G1 X106.674 Y99.879 E4.97624
G1 X102.897 Y96.101 E5.10335
G1 X102.897 Y93.836 E5.15724
G1 X106.674 Y97.613 E5.28435
G1 X106.674 Y95.348 E5.33825
G1 X103.874 Y92.548 E5.43248
G1 X106.139 Y92.548 E5.48638
G1 X106.674 Y93.083 E5.50438
G1 X106.674 Y93.326 F7800.000
G1 F2374.72
G1 X102.897 Y97.103 E5.63149
G1 X102.897 Y94.838 F7800.000
G1 F2374.72
G1 X105.187 Y92.548 E5.70856
G1 X106.674 Y95.591 F7800.000
G1 F2374.72
G1 X100.534 Y101.731 E5.91516
G1 X102.800 Y101.731 F7800.000
G1 F2374.72
G1 X106.674 Y97.856 E6.04553
G1 X106.674 Y100.121 F7800.000
G1 F2374.72
G1 X102.897 Y103.899 E6.17264
G1 E4.17264 F2400.00000
G92 E0
G1 X98.269 Y101.731 F7800.000
G1 E2.00000 F2400.00000
G1 F2374.72
G1 X101.099 Y98.901 E2.09522
G1 X98.834 Y98.901 F7800.000
G1 F2374.72
G1 X93.326 Y104.409 E2.28055
G1 X93.326 Y102.144 F7800.000
G1 F2374.72
G1 X97.103 Y98.366 E2.40766
G1 X97.103 Y96.101 F7800.000
G1 F2374.72
G1 X93.326 Y99.879 E2.53477
G1 X93.326 Y97.613 F7800.000
G1 F2374.72
G1 X97.103 Y93.836 E2.66188
G1 X97.103 Y94.838 F7800.000
G1 F2374.72
G1 X94.813 Y92.548 E2.73895
G1 X93.326 Y92.548 E2.77433
G1 X93.326 Y93.326 E2.79285
G1 X97.103 Y97.103 E2.91995
G1 X97.103 Y99.366 E2.97380
G1 X99.366 Y99.366 E3.02764
G1 X101.731 Y101.731 E3.10721
G1 X99.466 Y101.731 E3.16110
G1 X93.326 Y95.591 E3.36770
G1 X93.326 Y97.856 E3.42160
G1 X97.200 Y101.731 E3.55197
G1 X97.103 Y101.731 E3.55428
G1 X97.103 Y103.899 E3.60587
G1 X93.326 Y100.121 E3.73298
G1 X93.326 Y102.387 E3.78688
G1 X97.103 Y106.164 E3.91399
G1 X97.103 Y107.452 E3.94464
G1 X96.126 Y107.452 E3.96788
G1 X93.326 Y104.652 E4.06211
G1 X93.326 Y106.917 E4.11601
G1 X93.861 Y107.452 E4.13402
G1 X93.791 Y107.452 E4.13568
G1 X93.791 Y107.382 E4.13734
G1 X93.326 Y106.674 F7800.000
G1 F2374.72
G1 X97.103 Y102.897 E4.26445
G1 X97.103 Y105.162 F7800.000
G1 F2374.72
G1 X94.813 Y107.452 E4.34152
G1 X93.326 Y95.348 F7800.000
G1 F2374.72
G1 X96.126 Y92.548 E4.43574
G1 X93.861 Y92.548 F7800.000
G1 F2374.72
G1 X93.326 Y93.083 E4.45375
G1 Z2.400 F7800.000
G1 F2374.72
G1 X93.861 Y92.548 E4.47176
G1 X96.126 Y92.548 F7800.000
G1 F2374.72
G1 X93.326 Y95.348 E4.56598
G1 X93.326 Y97.613 F7800.000
G1 F2374.72
G1 X97.103 Y93.836 E4.69309
G1 X97.103 Y94.838 F7800.000
G1 F2374.72
G1 X94.813 Y92.548 E4.77016
G1 X93.326 Y92.548 E4.80554
G1 X93.326 Y93.326 E4.82406
G1 X97.103 Y97.103 E4.95117
G1 X97.103 Y99.366 E5.00501
G1 X99.366 Y99.366 E5.05886
G1 X101.731 Y101.731 E5.13842
G1 X99.466 Y101.731 E5.19232
G1 X93.326 Y95.591 E5.39891
G1 X93.326 Y97.856 E5.45281
G1 X97.200 Y101.731 E5.58319
G1 X97.103 Y101.731 E5.58550
G1 X97.103 Y103.899 E5.63708
G1 X93.326 Y100.121 E5.76419
G1 X93.326 Y102.387 E5.81809
G1 X97.103 Y106.164 E5.94520
G1 X97.103 Y107.452 E5.97585
G1 X96.126 Y107.452 E5.99910
G1 X93.326 Y104.652 E6.09333
G1 X93.326 Y106.917 E6.14722
G1 X93.861 Y107.452 E6.16523
G1 X93.791 Y107.452 E6.16689
G1 X93.791 Y107.382 E6.16855
G1 X93.326 Y106.674 F7800.000
G1 F2374.72
G1 X97.103 Y102.897 E6.29566
G1 X98.269 Y101.731 F7800.000
G1 F2374.72
G1 X101.099 Y98.901 E6.39088
G1 X98.834 Y98.901 F7800.000
G1 F2374.72
G1 X93.326 Y104.409 E6.57622
G1 X93.326 Y102.144 F7800.000
G1 F2374.72
G1 X97.103 Y98.366 E6.70333
G1 X97.103 Y96.101 F7800.000
G1 F2374.72
G1 X93.326 Y99.879 E6.83043
G1 X97.103 Y105.162 F7800.000
G1 F2374.72
G1 X94.813 Y107.452 E6.90750
G1 E4.90750 F2400.00000
G92 E0
G1 X100.534 Y101.731 F7800.000
G1 E2.00000 F2400.00000
G1 F2374.72
G1 X106.674 Y95.591 E2.20660
G1 X106.674 Y97.856 F7800.000
G1 F2374.72
G1 X102.800 Y101.731 E2.33697
G1 E0.33697 F2400.00000
G92 E0
G1 X102.897 Y103.899 F7800.000
G1 E2.00000 F2400.00000
G1 F2374.72
G1 X106.674 Y100.121 E2.12711
G1 X106.674 Y102.387 F7800.000
G1 F2374.72
G1 X102.897 Y106.164 E2.25422
G1 X103.362 Y105.627 F7800.000
G1 F2374.72
G1 X103.362 Y107.452 E2.29764
G1 X105.187 Y107.452 E2.34107
G1 X102.897 Y105.162 E2.41813
G1 X102.897 Y102.897 E2.47203
G1 X106.674 Y106.674 E2.59914
G1 X106.674 Y104.409 E2.65304
G1 X101.166 Y98.901 E2.83838
G1 X102.897 Y98.901 E2.87955
G1 X102.897 Y98.366 E2.89227
G1 X106.674 Y102.144 E3.01938
G1 X106.674 Y99.879 E3.07328
G1 X102.897 Y96.101 E3.20039
G1 X102.897 Y93.836 E3.25429
G1 X106.674 Y97.613 E3.38139
G1 X106.674 Y95.348 E3.43529
G1 X103.874 Y92.548 E3.52952
G1 X106.139 Y92.548 E3.58342
G1 X106.674 Y93.083 E3.60142
G1 X106.674 Y93.326 F7800.000
G1 F2374.72
G1 X102.897 Y97.103 E3.72853
G1 X102.897 Y94.838 F7800.000
G1 F2374.72
G1 X105.187 Y92.548 E3.80560
G1 X106.674 Y104.652 F7800.000
G1 F2374.72
G1 X103.874 Y107.452 E3.89983
G1 X106.139 Y107.452 F7800.000
G1 F2374.72
G1 X106.674 Y106.917 E3.91783
G1 Z2.700 F7800.000
G1 F2374.72
G1 X106.139 Y107.452 E3.93584
G1 X103.874 Y107.452 F7800.000
G1 F2374.72
G1 X106.674 Y104.652 E4.03007
G1 X106.674 Y102.387 F7800.000
G1 F2374.72
G1 X102.897 Y106.164 E4.15718
G1 X103.362 Y105.627 F7800.000
G1 F2374.72
G1 X103.362 Y107.452 E4.20060
G1 X105.187 Y107.452 E4.24403
G1 X102.897 Y105.162 E4.32109
G1 X102.897 Y102.897 E4.37499
G1 X106.674 Y106.674 E4.50210
G1 X106.674 Y104.409 E4.55600
G1 X101.166 Y98.901 E4.74133
G1 X102.897 Y98.901 E4.78251
G1 X102.897 Y98.366 E4.79523
G1 X106.674 Y102.144 E4.92234
G1 X106.674 Y99.879 E4.97624
G1 X102.897 Y96.101 E5.10335
G1 X102.897 Y93.836 E5.15724
G1 X106.674 Y97.613 E5.28435
G1 X106.674 Y95.348 E5.33825
G1 X103.874 Y92.548 E5.43248
G1 X106.139 Y92.548 E5.48638
G1 X106.674 Y93.083 E5.50438
G1 X106.674 Y93.326 F7800.000
G1 F2374.72
G1 X102.897 Y97.103 E5.63149
G1 X102.897 Y94.838 F7800.000
G1 F2374.72
G1 X105.187 Y92.548 E5.70856
G1 X106.674 Y95.591 F7800.000
G1 F2374.72
G1 X100.534 Y101.731 E5.91516
G1 X102.800 Y101.731 F7800.000
G1 F2374.72
G1 X106.674 Y97.856 E6.04553
G1 X106.674 Y100.121 F7800.000
G1 F2374.72
G1 X102.897 Y103.899 E6.17264
G1 E4.17264 F2400.00000
G92 E0
G1 X98.269 Y101.731 F7800.000
G1 E2.00000 F2400.00000
G1 F2374.72
G1 X101.099 Y98.901 E2.09522
G1 X98.834 Y98.901 F7800.000
G1 F2374.72
G1 X93.326 Y104.409 E2.28055
G1 X93.326 Y102.144 F7800.000
G1 F2374.72
G1 X97.103 Y98.366 E2.40766
G1 X97.103 Y96.101 F7800.000
G1 F2374.72
G1 X93.326 Y99.879 E2.53477
G1 X93.326 Y97.613 F7800.000
G1 F2374.72
G1 X97.103 Y93.836 E2.66188
G1 X97.103 Y94.838 F7800.000
G1 F2374.72
G1 X94.813 Y92.548 E2.73895
G1 X93.326 Y92.548 E2.77433
G1 X93.326 Y93.326 E2.79285
G1 X97.103 Y97.103 E2.91995
G1 X97.103 Y99.366 E2.97380
G1 X99.366 Y99.366 E3.02764
G1 X101.731 Y101.731 E3.10721
G1 X99.466 Y101.731 E3.16110
G1 X93.326 Y95.591 E3.36770
G1 X93.326 Y97.856 E3.42160
G1 X97.200 Y101.731 E3.55197
G1 X97.103 Y101.731 E3.55428
G1 X97.103 Y103.899 E3.60587
G1 X93.326 Y100.121 E3.73298
G1 X93.326 Y102.387 E3.78688
G1 X97.103 Y106.164 E3.91399
G1 X97.103 Y107.452 E3.94464
G1 X96.126 Y107.452 E3.96788
G1 X93.326 Y104.652 E4.06211
G1 X93.326 Y106.917 E4.11601
G1 X93.861 Y107.452 E4.13402
G1 X93.791 Y107.452 E4.13568
G1 X93.791 Y107.382 E4.13734
G1 X93.326 Y106.674 F7800.000
G1 F2374.72
G1 X97.103 Y102.897 E4.26445
G1 X97.103 Y105.162 F7800.000
G1 F2374.72
G1 X94.813 Y107.452 E4.34152
G1 X93.326 Y95.348 F7800.000
G1 F2374.72
G1 X96.126 Y92.548 E4.43574
G1 X93.861 Y92.548 F7800.000
G1 F2374.72
G1 X93.326 Y93.083 E4.45375
G1 Z3.000 F7800.000
G1 F2374.72
G1 X93.861 Y92.548 E4.47176
G1 X96.126 Y92.548 F7800.000
G1 F2374.72
G1 X93.326 Y95.348 E4.56598
G1 X93.326 Y97.613 F7800.000
G1 F2374.72
G1 X97.103 Y93.836 E4.69309
G1 X97.103 Y94.838 F7800.000
G1 F2374.72
G1 X94.813 Y92.548 E4.77016
G1 X93.326 Y92.548 E4.80554
G1 X93.326 Y93.326 E4.82406
G1 X97.103 Y97.103 E4.95117
G1 X97.103 Y99.366 E5.00501
G1 X99.366 Y99.366 E5.05886
G1 X101.731 Y101.731 E5.13842
G1 X99.466 Y101.731 E5.19232
G1 X93.326 Y95.591 E5.39891
G1 X93.326 Y97.856 E5.45281
G1 X97.200 Y101.731 E5.58319
G1 X97.103 Y101.731 E5.58550
G1 X97.103 Y103.899 E5.63708
G1 X93.326 Y100.121 E5.76419
G1 X93.326 Y102.387 E5.81809
G1 X97.103 Y106.164 E5.94520
G1 X97.103 Y107.452 E5.97585
G1 X96.126 Y107.452 E5.99910
G1 X93.326 Y104.652 E6.09333
G1 X93.326 Y106.917 E6.14722
G1 X93.861 Y107.452 E6.16523
G1 X93.791 Y107.452 E6.16689
G1 X93.791 Y107.382 E6.16855
G1 X93.326 Y106.674 F7800.000
G1 F2374.72
G1 X97.103 Y102.897 E6.29566
G1 X98.269 Y101.731 F7800.000
G1 F2374.72
G1 X101.099 Y98.901 E6.39088
G1 X98.834 Y98.901 F7800.000
G1 F2374.72
G1 X93.326 Y104.409 E6.57622
G1 X93.326 Y102.144 F7800.000
G1 F2374.72
G1 X97.103 Y98.366 E6.70333
G1 X97.103 Y96.101 F7800.000
G1 F2374.72
G1 X93.326 Y99.879 E6.83043
G1 X97.103 Y105.162 F7800.000
G1 F2374.72
G1 X94.813 Y107.452 E6.90750
G1 E4.90750 F2400.00000
G92 E0
G1 X100.534 Y101.731 F7800.000
G1 E2.00000 F2400.00000
G1 F2374.72
G1 X106.674 Y95.591 E2.20660
G1 X106.674 Y97.856 F7800.000
G1 F2374.72
G1 X102.800 Y101.731 E2.33697
G1 E0.33697 F2400.00000
G92 E0
G1 X102.897 Y103.899 F7800.000
G1 E2.00000 F2400.00000
G1 F2374.72
G1 X106.674 Y100.121 E2.12711
G1 X106.674 Y102.387 F7800.000
G1 F2374.72
G1 X102.897 Y106.164 E2.25422
G1 X103.362 Y105.627 F7800.000
G1 F2374.72
G1 X103.362 Y107.452 E2.29764
G1 X105.187 Y107.452 E2.34107
G1 X102.897 Y105.162 E2.41813
G1 X102.897 Y102.897 E2.47203
G1 X106.674 Y106.674 E2.59914
G1 X106.674 Y104.409 E2.65304
G1 X101.166 Y98.901 E2.83838
G1 X102.897 Y98.901 E2.87955
G1 X102.897 Y98.366 E2.89227
G1 X106.674 Y102.144 E3.01938
G1 X106.674 Y99.879 E3.07328
G1 X102.897 Y96.101 E3.20039
G1 X102.897 Y93.836 E3.25429
G1 X106.674 Y97.613 E3.38139
G1 X106.674 Y95.348 E3.43529
G1 X103.874 Y92.548 E3.52952
G1 X106.139 Y92.548 E3.58342
G1 X106.674 Y93.083 E3.60142
G1 X106.674 Y93.326 F7800.000
G1 F2374.72
G1 X102.897 Y97.103 E3.72853
G1 X102.897 Y94.838 F7800.000
G1 F2374.72
G1 X105.187 Y92.548 E3.80560
G1 X106.674 Y104.652 F7800.000
G1 F2374.72
G1 X103.874 Y107.452 E3.89983
G1 X106.139 Y107.452 F7800.000
G1 F2374.72
G1 X106.674 Y106.917 E3.91783
M106 S232.05
G1 Z3.300 F7800.000
G1 X106.157 Y107.429 F7800.000
G1 F1200
G1 X106.651 Y106.935 E3.93684
G1 X106.651 Y106.029 E3.96146
G1 X105.251 Y107.429 E4.01529
G1 X104.345 Y107.429 E4.03991
G1 X106.651 Y105.123 E4.12856
G1 X106.651 Y104.218 E4.15318
G1 X103.440 Y107.429 E4.27664
G1 X102.920 Y107.429 E4.29077
G1 X102.920 Y107.044 E4.30126
G1 X106.651 Y103.312 E4.44471
G1 X106.651 Y102.406 E4.46933
G1 X102.920 Y106.138 E4.61278
G1 X102.920 Y105.232 E4.63740
G1 X106.651 Y101.500 E4.78085
G1 X106.651 Y100.595 E4.80547
G1 X102.920 Y104.326 E4.94892
G1 X102.920 Y103.421 E4.97354
G1 X106.651 Y99.689 E5.11699
G1 X106.651 Y98.783 E5.14161
G1 X102.920 Y102.515 E5.28506
G1 X102.920 Y101.708 E5.30699
G1 X102.821 Y101.708 E5.30968
G1 X106.651 Y97.877 E5.45692
G1 X106.651 Y96.972 E5.48154
G1 X101.915 Y101.708 E5.66361
G1 X101.009 Y101.708 E5.68823
G1 X106.651 Y96.066 E5.90511
G1 X106.651 Y95.160 E5.92973
G1 X102.920 Y98.892 E6.07318
G1 X102.920 Y97.986 E6.09780
G1 X106.651 Y94.254 E6.24125
G1 X106.651 Y93.349 E6.26587
G1 X102.920 Y97.080 E6.40932
G1 X102.920 Y96.175 E6.43394
G1 X106.524 Y92.571 E6.57248
G1 X105.618 Y92.571 E6.59710
G1 X102.920 Y95.269 E6.70083
G1 X102.920 Y94.363 E6.72545
G1 X104.712 Y92.571 E6.79435
G1 X103.806 Y92.571 E6.81897
G1 X102.920 Y93.457 E6.85306
G1 X102.920 Y93.065 E6.86373
G1 X103.312 Y93.065 E6.87439
G1 E4.87439 F2400.00000
G92 E0
G1 X100.104 Y101.708 F7800.000
G1 E2.00000 F2400.00000
G1 F1200
G1 X102.888 Y98.924 E2.10702
G1 X101.982 Y98.924 E2.13164
G1 X99.198 Y101.708 E2.23865
G1 X98.292 Y101.708 E2.26327
G1 X101.076 Y98.924 E2.37029
G1 X100.170 Y98.924 E2.39491
G1 X97.386 Y101.708 E2.50193
G1 X96.586 Y101.708 E2.52369
G1 X96.586 Y102.508 E2.54544
G1 X96.194 Y107.429 F7800.000
G1 F1200
G1 X97.080 Y106.543 E2.57953
G1 X97.080 Y105.637 E2.60415
G1 X95.288 Y107.429 E2.67306
G1 X94.382 Y107.429 E2.69768
G1 X97.080 Y104.731 E2.80140
G1 X97.080 Y103.825 E2.82602
G1 X93.476 Y107.429 E2.96456
G1 X93.349 Y107.429 E2.96803
G1 X93.349 Y106.651 E2.98918
G1 X97.080 Y102.920 E3.13263
G1 X97.080 Y102.014 E3.15725
G1 X93.349 Y105.746 E3.30070
G1 X93.349 Y104.840 E3.32532
G1 X99.265 Y98.924 E3.55273
G1 X98.359 Y98.924 E3.57735
G1 X93.349 Y103.934 E3.76995
G1 X93.349 Y103.028 E3.79457
G1 X97.453 Y98.924 E3.95235
G1 X97.080 Y98.924 E3.96248
G1 X97.080 Y98.391 E3.97697
G1 X93.349 Y102.123 E4.12042
G1 X93.349 Y101.217 E4.14504
G1 X97.080 Y97.485 E4.28849
G1 X97.080 Y96.579 E4.31311
G1 X93.349 Y100.311 E4.45655
G1 X93.349 Y99.405 E4.48117
G1 X97.080 Y95.674 E4.62462
G1 X97.080 Y94.768 E4.64924
G1 X93.349 Y98.500 E4.79269
G1 X93.349 Y97.594 E4.81731
G1 X97.080 Y93.862 E4.96076
G1 X97.080 Y92.956 E4.98538
G1 X93.349 Y96.688 E5.12883
G1 X93.349 Y95.782 E5.15345
G1 X96.560 Y92.571 E5.27692
G1 X95.655 Y92.571 E5.30154
G1 X93.349 Y94.877 E5.39018
G1 X93.349 Y93.971 E5.41480
G1 X94.749 Y92.571 E5.46863
G1 X93.843 Y92.571 E5.49325
G1 X93.349 Y93.065 E5.51226
G1 Z3.600 F7800.000
G1 X97.080 Y93.457 F7800.000
G1 F1200
G1 X96.194 Y92.571 E5.54634
G1 X95.288 Y92.571 E5.57096
G1 X97.080 Y94.363 E5.63987
G1 X97.080 Y95.269 E5.66449
G1 X94.382 Y92.571 E5.76821
G1 X93.476 Y92.571 E5.79283
G1 X97.080 Y96.175 E5.93137
G1 X97.080 Y97.080 E5.95599
G1 X93.349 Y93.349 E6.09944
G1 X93.349 Y94.254 E6.12406
G1 X97.080 Y97.986 E6.26751
G1 X97.080 Y98.892 E6.29213
G1 X93.349 Y95.160 E6.43558
G1 X93.349 Y96.066 E6.46020
G1 X98.991 Y101.708 E6.67709
G1 X98.085 Y101.708 E6.70171
G1 X93.349 Y96.972 E6.88377
G1 X93.349 Y97.877 E6.90839
G1 X97.179 Y101.708 E7.05564
G1 X97.080 Y101.708 E7.05833
G1 X97.080 Y102.515 E7.08026
G1 X93.349 Y98.783 E7.22371
G1 X93.349 Y99.689 E7.24833
G1 X97.080 Y103.421 E7.39178
G1 X97.080 Y104.326 E7.41640
G1 X93.349 Y100.595 E7.55985
G1 X93.349 Y101.500 E7.58447
G1 X97.080 Y105.232 E7.72792
G1 X97.080 Y106.138 E7.75254
G1 X93.349 Y102.406 E7.89599
G1 X93.349 Y103.312 E7.92060
G1 X97.080 Y107.044 E8.06405
G1 X97.080 Y107.429 E8.07454
G1 X96.560 Y107.429 E8.08867
G1 X93.349 Y104.218 E8.21214
G1 X93.349 Y105.123 E8.23676
G1 X95.655 Y107.429 E8.32541
G1 X94.749 Y107.429 E8.35003
G1 X93.349 Y106.029 E8.40385
G1 X93.349 Y106.935 E8.42847
G1 X93.843 Y107.429 E8.44748
G1 E6.44748 F2400.00000
G92 E0
G1 X98.991 Y101.708 F7800.000
G1 E2.00000 F2400.00000
G1 F1200
G1 X99.896 Y101.708 E2.02462
G1 X97.112 Y98.924 E2.13164
G1 X98.018 Y98.924 E2.15626
G1 X100.802 Y101.708 E2.26327
G1 X101.708 Y101.708 E2.28789
G1 X98.924 Y98.924 E2.39491
G1 X99.830 Y98.924 E2.41953
G1 X102.614 Y101.708 E2.52655
G1 E0.52655 F2400.00000
G92 E0
G1 X103.414 Y107.037 F7800.000
G1 E2.00000 F2400.00000
G1 F1200
G1 X103.414 Y107.429 E2.01067
G1 X103.806 Y107.429 E2.02133
G1 X102.920 Y106.543 E2.05542
G1 X102.920 Y105.637 E2.08004
G1 X104.712 Y107.429 E2.14895
G1 X105.618 Y107.429 E2.17357
G1 X102.920 Y104.731 E2.27729
G1 X102.920 Y103.825 E2.30191
G1 X106.524 Y107.429 E2.44045
G1 X106.651 Y107.429 E2.44392
G1 X106.651 Y106.651 E2.46507
G1 X102.920 Y102.920 E2.60852
G1 X102.920 Y102.014 E2.63314
G1 X106.651 Y105.746 E2.77659
G1 X106.651 Y104.840 E2.80121
G1 X100.735 Y98.924 E3.02862
G1 X101.641 Y98.924 E3.05324
G1 X106.651 Y103.934 E3.24584
G1 X106.651 Y103.028 E3.27046
G1 X102.547 Y98.924 E3.42824
G1 X102.920 Y98.924 E3.43837
G1 X102.920 Y98.391 E3.45286
G1 X106.651 Y102.123 E3.59630
G1 X106.651 Y101.217 E3.62092
G1 X102.920 Y97.485 E3.76437
G1 X102.920 Y96.579 E3.78899
G1 X106.651 Y100.311 E3.93244
G1 X106.651 Y99.405 E3.95706
G1 X102.920 Y95.674 E4.10051
G1 X102.920 Y94.768 E4.12513
G1 X106.651 Y98.500 E4.26858
G1 X106.651 Y97.594 E4.29320
G1 X102.920 Y93.862 E4.43665
G1 X102.920 Y92.956 E4.46127
G1 X106.651 Y96.688 E4.60472
G1 X106.651 Y95.782 E4.62934
G1 X103.440 Y92.571 E4.75280
G1 X104.345 Y92.571 E4.77742
G1 X106.651 Y94.877 E4.86607
G1 X106.651 Y93.971 E4.89069
G1 X105.251 Y92.571 E4.94452
G1 X106.157 Y92.571 E4.96914
G1 X106.651 Y93.065 E4.98815
M106 S221.85
G1 Z3.900 F7800.000
G1 E2.98815 F2400.00000
G92 E0
G1 X103.312 Y93.065 F7800.000
G1 E2.00000 F2400.00000
G1 F900
G1 X102.920 Y93.065 E2.01067
G1 X102.920 Y93.457 E2.02133
G1 X103.806 Y92.571 E2.05542
G1 X104.712 Y92.571 E2.08004
G1 X102.920 Y94.363 E2.14895
G1 X102.920 Y95.269 E2.17357
G1 X105.618 Y92.571 E2.27729
G1 X106.524 Y92.571 E2.30191
G1 X102.920 Y96.175 E2.44045
G1 X102.920 Y97.080 E2.46507
G1 X106.651 Y93.349 E2.60852
G1 X106.651 Y94.254 E2.63314
G1 X102.920 Y97.986 E2.77659
G1 X102.920 Y98.892 E2.80121
G1 X106.651 Y95.160 E2.94466
G1 X106.651 Y96.066 E2.96928
G1 X101.009 Y101.708 E3.18616
G1 X101.915 Y101.708 E3.21078
G1 X106.651 Y96.972 E3.39285
G1 X106.651 Y97.877 E3.41747
G1 X102.821 Y101.708 E3.56472
G1 X102.920 Y101.708 E3.56740
G1 X102.920 Y102.515 E3.58934
G1 X106.651 Y98.783 E3.73278
G1 X106.651 Y99.689 E3.75740
G1 X102.920 Y103.421 E3.90085
G1 X102.920 Y104.326 E3.92547
G1 X106.651 Y100.595 E4.06892
G1 X106.651 Y101.500 E4.09354
G1 X102.920 Y105.232 E4.23699
G1 X102.920 Y106.138 E4.26161
G1 X106.651 Y102.406 E4.40506
G1 X106.651 Y103.312 E4.42968
G1 X102.920 Y107.044 E4.57313
G1 X102.920 Y107.429 E4.58362
G1 X103.440 Y107.429 E4.59775
G1 X106.651 Y104.218 E4.72121
G1 X106.651 Y105.123 E4.74583
G1 X104.345 Y107.429 E4.83448
G1 X105.251 Y107.429 E4.85910
G1 X106.651 Y106.029 E4.91293
G1 X106.651 Y106.935 E4.93755
G1 X106.157 Y107.429 E4.95656
G1 E2.95656 F2400.00000
G92 E0
G1 X100.104 Y101.708 F7800.000
G1 E2.00000 F2400.00000
G1 F900
G1 X102.888 Y98.924 E2.10702
G1 X101.982 Y98.924 E2.13164
G1 X99.198 Y101.708 E2.23865
G1 X98.292 Y101.708 E2.26327
G1 X101.076 Y98.924 E2.37029
G1 X100.170 Y98.924 E2.39491
G1 X97.386 Y101.708 E2.50193
G1 X96.586 Y101.708 E2.52369
G1 X96.586 Y102.508 E2.54544
G1 E0.54544 F2400.00000
G92 E0
G1 X96.194 Y107.429 F7800.000
G1 E2.00000 F2400.00000
G1 F900
G1 X97.080 Y106.543 E2.03409
G1 X97.080 Y105.637 E2.05871
G1 X95.288 Y107.429 E2.12761
G1 X94.382 Y107.429 E2.15223
G1 X97.080 Y104.731 E2.25596
G1 X97.080 Y103.825 E2.28058
G1 X93.476 Y107.429 E2.41912
G1 X93.349 Y107.429 E2.42259
G1 X93.349 Y106.651 E2.44374
G1 X97.080 Y102.920 E2.58719
G1 X97.080 Y102.014 E2.61181
G1 X93.349 Y105.746 E2.75526
G1 X93.349 Y104.840 E2.77988
G1 X99.265 Y98.924 E3.00729
G1 X98.359 Y98.924 E3.03191
G1 X93.349 Y103.934 E3.22451
G1 X93.349 Y103.028 E3.24913
G1 X97.453 Y98.924 E3.40690
G1 X97.080 Y98.924 E3.41703
G1 X97.080 Y98.391 E3.43152
G1 X93.349 Y102.123 E3.57497
G1 X93.349 Y101.217 E3.59959
G1 X97.080 Y97.485 E3.74304
G1 X97.080 Y96.579 E3.76766
G1 X93.349 Y100.311 E3.91111
G1 X93.349 Y99.405 E3.93573
G1 X97.080 Y95.674 E4.07918
G1 X97.080 Y94.768 E4.10380
G1 X93.349 Y98.500 E4.24725
G1 X93.349 Y97.594 E4.27187
G1 X97.080 Y93.862 E4.41532
G1 X97.080 Y92.956 E4.43994
G1 X93.349 Y96.688 E4.58339
G1 X93.349 Y95.782 E4.60801
G1 X96.560 Y92.571 E4.73147
G1 X95.655 Y92.571 E4.75609
G1 X93.349 Y94.877 E4.84474
G1 X93.349 Y93.971 E4.86936
G1 X94.749 Y92.571 E4.92319
G1 X93.843 Y92.571 E4.94781
G1 X93.349 Y93.065 E4.96681
G1 E2.96681 F2400.00000
G92 E0
M107
; Filament-specific end gcode 
;END gcode for filament

M104 S0 ; turn off temperature
G28 X0  ; home X axis
M84     ; disable motors

M140 S0 ; set bed temperature
; filament used = 71.6mm (0.5cm3)
; total filament cost = 0.0

; avoid_crossing_perimeters = 0
; bed_shape = 0x0,200x0,200x200,0x200
; bed_temperature = 0
; before_layer_gcode = 
; between_objects_gcode = 
; bridge_acceleration = 0
; bridge_fan_speed = 100
; brim_connections_width = 0
; brim_width = 0
; complete_objects = 0
; cooling = 1
; default_acceleration = 0
; disable_fan_first_layers = 3
; duplicate_distance = 6
; end_filament_gcode = "; Filament-specific end gcode \n;END gcode for filament\n"
; end_gcode = M104 S0 ; turn off temperature\nG28 X0  ; home X axis\nM84     ; disable motors\n
; extruder_clearance_height = 20
; extruder_clearance_radius = 20
; extruder_offset = 0x0
; extrusion_axis = E
; extrusion_multiplier = 1
; fan_always_on = 0
; fan_below_layer_time = 60
; filament_colour = #FFFFFF
; filament_cost = 0
; filament_density = 0
; filament_diameter = 3
; filament_max_volumetric_speed = 0
; filament_notes = ""
; first_layer_acceleration = 0
; first_layer_bed_temperature = 0
; first_layer_extrusion_width = 200%
; first_layer_speed = 30
; first_layer_temperature = 205
; gcode_arcs = 0
; gcode_comments = 0
; gcode_flavor = reprap
; has_heatbed = 1
; infill_acceleration = 0
; infill_first = 0
; interior_brim_width = 0
; layer_gcode = 
; max_fan_speed = 100
; max_layer_height = 0.3
; max_print_speed = 80
; max_volumetric_speed = 0
; min_fan_speed = 35
; min_layer_height = 0.15
; min_print_speed = 10
; min_skirt_length = 0
; notes = 
; nozzle_diameter = 0.5
; only_retract_when_crossing_perimeters = 1
; ooze_prevention = 0
; output_filename_format = [input_filename_base].gcode
; perimeter_acceleration = 0
; post_process = 
; pressure_advance = 0
; printer_notes = 
; resolution = 0
; retract_before_travel = 2
; retract_layer_change = 0
; retract_length = 2
; retract_length_toolchange = 10
; retract_lift = 0
; retract_lift_above = 0
; retract_lift_below = 0
; retract_restart_extra = 0
; retract_restart_extra_toolchange = 0
; retract_speed = 40
; skirt_distance = 6
; skirt_height = 1
; skirts = 0
; slowdown_below_layer_time = 5
; spiral_vase = 0
; standby_temperature_delta = -5
; start_filament_gcode = "; Filament gcode\n"
; start_gcode = G28 ; home all axes\nG1 Z5 F5000 ; lift nozzle\n
; temperature = 200
; threads = 8
; toolchange_gcode = 
; travel_speed = 130
; use_firmware_retraction = 0
; use_relative_e_distances = 0
; use_set_and_wait_bed = 0
; use_set_and_wait_extruder = 0
; use_volumetric_e = 0
; vibration_limit = 0
; wipe = 0
; z_offset = 0
; z_steps_per_mm = 0
; adaptive_slicing = 0
; adaptive_slicing_quality = 75%
; dont_support_bridges = 1
; extrusion_width = 0
; first_layer_height = 0.3
; infill_only_where_needed = 0
; interface_shells = 0
; layer_height = 0.3
; match_horizontal_surfaces = 0
; raft_layers = 0
; regions_overlap = 0
; seam_position = aligned
; sequential_print_priority = 0
; support_material = 0
; support_material_angle = 0
; support_material_buildplate_only = 0
; support_material_contact_distance = 0.2
; support_material_enforce_layers = 0
; support_material_extruder = 1
; support_material_extrusion_width = 0
; support_material_interface_extruder = 1
; support_material_interface_extrusion_width = 0
; support_material_interface_layers = 3
; support_material_interface_spacing = 0
; support_material_interface_speed = 100%
; support_material_max_layers = 0
; support_material_pattern = pillars
; support_material_spacing = 2.5
; support_material_speed = 60
; support_material_threshold = 60%
; xy_size_compensation = 0
; bottom_infill_pattern = rectilinear
; bottom_solid_layers = 3
; bridge_flow_ratio = 1
; bridge_speed = 60
; external_perimeter_extrusion_width = 0
; external_perimeter_speed = 50%
; external_perimeters_first = 0
; extra_perimeters = 1
; fill_angle = 45
; fill_density = 70%
; fill_gaps = 1
; fill_pattern = grid
; gap_fill_speed = 20
; infill_every_layers = 1
; infill_extruder = 1
; infill_extrusion_width = 0
; infill_overlap = 55%
; infill_speed = 80
; overhangs = 1
; perimeter_extruder = 1
; perimeter_extrusion_width = 0
; perimeter_speed = 60
; perimeters = 0
; small_perimeter_speed = 15
; solid_infill_below_area = 70
; solid_infill_every_layers = 0
; solid_infill_extruder = 1
; solid_infill_extrusion_width = 0
; solid_infill_speed = 20
; thin_walls = 1
; top_infill_extrusion_width = 0
; top_infill_pattern = rectilinear
; top_solid_infill_speed = 15
; top_solid_layers = 3
