; generated by Slic3r 1.3.0 on 2020-10-22 at 15:54:22

; external perimeters extrusion width = 0.55mm (4.37mm^3/s)
; perimeters extrusion width = 0.70mm (11.44mm^3/s)
; infill extrusion width = 0.63mm (13.45mm^3/s)
; solid infill extrusion width = 0.70mm (3.81mm^3/s)
; top infill extrusion width = 0.70mm (2.86mm^3/s)

M107
M104 S205 ; set temperature
G28 ; home all axes
G1 Z5 F5000 ; lift nozzle

; Filament gcode

M109 S205 ; set temperature and wait for it to be reached
G21 ; set units to millimeters
G90 ; use absolute coordinates
M82 ; use absolute distances for extrusion
G92 E0
G1 Z0.300 F7800.000
G1 E-2.00000 F2400.00000
G92 E0
G1 X97.760 Y92.991 F7800.000
G1 E2.00000 F2400.00000
G1 F1576.61
G1 X94.394 Y96.356 E2.10820
G1 X94.113 Y96.987 E2.12389
G1 X93.872 Y97.728 E2.14160
G1 X93.742 Y98.330 E2.15561
G1 X99.792 Y92.279 E2.35012
G1 X100.645 Y92.142 E2.36975
G1 X101.300 Y92.093 E2.38470
G1 X93.583 Y99.810 E2.63280
G1 X93.567 Y100.207 E2.64184
G1 X93.605 Y101.110 E2.66237
G1 X98.493 Y96.221 E2.81952
G1 X98.197 Y96.687 E2.83207
G1 X97.924 Y97.287 E2.84704
G1 X97.741 Y97.849 E2.86048
G1 X97.618 Y98.417 E2.87370
G1 X93.778 Y102.257 E2.99715
G1 X93.875 Y102.703 E3.00752
G1 X94.066 Y103.292 E3.02158
G1 X97.509 Y99.848 E3.13229
G1 X97.529 Y100.398 E3.14479
G1 X97.606 Y101.073 E3.16023
G1 X94.471 Y104.207 E3.26100
G1 X94.770 Y104.722 E3.27453
G1 X94.986 Y105.014 E3.28278
G1 X97.869 Y102.131 E3.37546
G1 X98.018 Y102.525 E3.38503
G1 X98.287 Y103.034 E3.39812
G1 X95.594 Y105.728 E3.48470
G1 X95.719 Y105.862 E3.48888
G1 X96.290 Y106.353 E3.50600
G1 X98.851 Y103.791 E3.58835
G1 X99.143 Y104.080 E3.59769
G1 X99.559 Y104.405 E3.60968
G1 X97.090 Y106.875 E3.68907
G1 X97.543 Y107.121 E3.70079
G1 X97.983 Y107.302 E3.71163
G1 X100.427 Y104.859 E3.79018
G1 X101.026 Y105.043 E3.80444
G1 X101.481 Y105.126 E3.81495
G1 X98.975 Y107.632 E3.89550
G1 X99.816 Y107.803 E3.91500
G1 X100.093 Y107.835 E3.92135
G1 X102.760 Y105.169 E4.00708
G1 X103.518 Y105.089 E4.02442
G1 X104.340 Y104.909 E4.04355
G1 X101.326 Y107.924 E4.14046
G1 X101.570 Y107.933 E4.14600
G1 X102.150 Y107.917 E4.15920
G1 X102.701 Y107.870 E4.17177
G1 X106.433 Y104.138 E4.29174
G1 X106.433 Y105.460 E4.32178
G1 X104.348 Y107.545 E4.38881
G1 E2.38881 F2400.00000
G92 E0
G1 X105.552 Y95.769 F7800.000
G1 E2.00000 F2400.00000
G1 F1576.61
G1 X106.433 Y94.889 E2.02830
G1 X106.433 Y93.567 E2.05834
G1 X104.656 Y95.344 E2.11546
G1 X104.189 Y95.173 E2.12676
G1 X103.655 Y95.023 E2.13937
G1 X105.844 Y92.834 E2.20974
G1 X105.514 Y92.698 E2.21786
G1 X104.874 Y92.483 E2.23321
G1 X102.515 Y94.843 E2.30906
G1 X101.890 Y94.818 E2.32326
G1 X101.177 Y94.859 E2.33951
G1 X103.809 Y92.227 E2.42414
G1 X103.231 Y92.140 E2.43743
G1 X102.619 Y92.096 E2.45139
G1 X99.093 Y95.622 E2.56474
G1 X98.871 Y95.788 E2.57104
G1 X98.543 Y96.084 E2.58107
G1 X98.334 Y96.309 E2.58805
G1 X98.067 Y96.648 E2.59788
M104 S200 ; set temperature
G1 Z0.600 F7800.000
G1 E0.59788 F2400.00000
G92 E0
G1 X99.071 Y104.357 F7800.000
G1 E2.00000 F2400.00000
G1 F1594.66
G1 X99.472 Y104.607 E2.01124
G1 X100.073 Y104.874 E2.02689
G1 X100.589 Y105.025 E2.03968
G1 X101.158 Y105.122 E2.05342
G1 X103.828 Y107.792 E2.14325
G1 X104.681 Y107.599 E2.16406
G1 X104.890 Y107.533 E2.16929
G1 X102.494 Y105.137 E2.24993
G1 X103.104 Y105.064 E2.26455
G1 X103.636 Y104.957 E2.27745
G1 X105.864 Y107.185 E2.35242
G1 X106.452 Y106.913 E2.36785
G1 X106.452 Y106.452 E2.37882
G1 X104.637 Y104.637 E2.43990
G1 X105.020 Y104.472 E2.44982
G1 X105.533 Y104.211 E2.46350
G1 X106.452 Y105.131 E2.49445
G1 E0.49445 F2400.00000
G92 E0
G1 X106.452 Y94.560 F7800.000
G1 E2.00000 F2400.00000
G1 F1594.66
G1 X104.328 Y92.435 E2.07149
G1 X103.984 Y92.340 E2.07998
G1 X103.331 Y92.201 E2.09585
G1 X102.682 Y92.111 E2.11144
G1 X106.452 Y95.881 E2.23829
G1 X106.452 Y96.054 E2.24240
G1 X106.051 Y95.817 E2.25349
G1 X105.460 Y95.516 E2.26926
G1 X104.905 Y95.286 E2.28357
G1 X104.361 Y95.111 E2.29717
G1 X101.305 Y92.056 E2.39998
G1 X101.039 Y92.058 E2.40632
G1 X100.071 Y92.142 E2.42944
G1 X102.779 Y94.851 E2.52057
G1 X102.095 Y94.842 E2.53684
G1 X101.501 Y94.894 E2.55105
G1 X98.962 Y92.355 E2.63645
G1 X98.620 Y92.441 E2.64486
G1 X97.958 Y92.673 E2.66153
G1 X100.446 Y95.160 E2.74524
G1 X99.942 Y95.391 E2.75843
G1 X99.578 Y95.614 E2.76858
G1 X97.069 Y93.105 E2.85300
G1 X96.627 Y93.370 E2.86526
G1 X96.277 Y93.634 E2.87570
G1 X98.871 Y96.228 E2.96298
G1 X98.572 Y96.588 E2.97412
G1 X98.306 Y96.985 E2.98548
G1 X95.572 Y94.251 E3.07747
G1 X95.120 Y94.752 E3.09354
G1 X94.964 Y94.964 E3.09980
G1 X97.887 Y97.887 E3.19815
G1 X97.711 Y98.493 E3.21315
G1 X97.624 Y98.946 E3.22413
G1 X94.452 Y95.774 E3.33086
G1 X94.373 Y95.910 E3.33462
G1 X94.106 Y96.511 E3.35026
G1 X94.047 Y96.690 E3.35474
G1 X97.528 Y100.171 E3.47188
G1 X97.550 Y100.872 E3.48858
G1 X97.638 Y101.603 E3.50608
G1 X93.758 Y97.722 E3.63664
G1 X93.676 Y98.103 E3.64590
G1 X93.585 Y98.870 E3.66429
G1 X98.515 Y103.801 E3.83020
G1 X98.817 Y104.180 E3.84171
G1 X98.999 Y104.372 E3.84803
G1 X99.292 Y104.637 E3.85741
G1 X99.536 Y104.822 E3.86470
G1 X102.644 Y107.930 E3.96929
G1 X101.856 Y107.950 E3.98807
G1 X101.320 Y107.927 E4.00083
G1 X93.563 Y100.170 E4.26183
G1 X93.580 Y100.612 E4.27235
G1 X93.675 Y101.415 E4.29158
G1 X93.727 Y101.655 E4.29743
G1 X99.800 Y107.729 E4.50180
G1 X99.424 Y107.653 E4.51094
G1 X98.750 Y107.451 E4.52767
G1 X97.995 Y107.143 E4.54707
G1 X97.772 Y107.022 E4.55312
G1 X94.375 Y103.625 E4.66741
G1 Z0.900 F7800.000
G1 X98.052 Y96.663 F7800.000
G1 F1591.88
G1 X98.374 Y96.261 E4.67966
G1 X98.572 Y96.056 E4.68645
G1 X98.831 Y95.824 E4.69473
G1 X99.074 Y95.641 E4.70196
G1 X102.643 Y92.071 E4.82208
G1 X102.833 Y92.080 E4.82658
G1 X103.828 Y92.208 E4.85046
G1 X101.158 Y94.878 E4.94030
G1 X101.871 Y94.837 E4.95730
G1 X102.494 Y94.863 E4.97213
G1 X104.895 Y92.463 E5.05291
G1 X105.564 Y92.691 E5.06974
G1 X105.865 Y92.813 E5.07748
G1 X103.635 Y95.043 E5.15252
G1 X104.090 Y95.168 E5.16373
G1 X104.636 Y95.364 E5.17754
G1 X106.452 Y93.548 E5.23864
G1 X106.452 Y94.869 E5.27008
G1 X105.533 Y95.788 E5.30102
G1 E3.30102 F2400.00000
G92 E0
G1 X97.778 Y92.972 F7800.000
G1 E2.00000 F2400.00000
G1 F1591.88
G1 X94.399 Y96.351 E2.11368
G1 X94.234 Y96.668 E2.12219
G1 X93.942 Y97.443 E2.14189
G1 X93.777 Y98.052 E2.15691
G1 X93.722 Y98.350 E2.16412
G1 X99.806 Y92.266 E2.36885
G1 X100.437 Y92.152 E2.38410
G1 X101.320 Y92.073 E2.40519
G1 X93.564 Y99.829 E2.66616
G1 X93.550 Y100.435 E2.68057
G1 X93.588 Y101.126 E2.69705
G1 X98.517 Y96.198 E2.86289
G1 X98.290 Y96.546 E2.87278
G1 X97.998 Y97.132 E2.88836
G1 X97.796 Y97.705 E2.90282
G1 X97.638 Y98.398 E2.91972
G1 X93.757 Y102.279 E3.05032
G1 X93.866 Y102.763 E3.06212
G1 X94.046 Y103.311 E3.07585
G1 X97.528 Y99.829 E3.19303
G1 X97.552 Y100.436 E3.20748
G1 X97.625 Y101.054 E3.22229
G1 X94.452 Y104.226 E3.32904
G1 X94.721 Y104.696 E3.34191
G1 X94.959 Y105.041 E3.35188
G1 X97.887 Y102.113 E3.45041
G1 X98.060 Y102.544 E3.46146
G1 X98.306 Y103.016 E3.47412
G1 X95.574 Y105.747 E3.56604
G1 X95.709 Y105.891 E3.57074
G1 X96.271 Y106.372 E3.58833
G1 X98.871 Y103.772 E3.67581
G1 X99.221 Y104.111 E3.68740
G1 X99.579 Y104.385 E3.69814
G1 X97.072 Y106.892 E3.78250
G1 X97.536 Y107.146 E3.79510
G1 X97.966 Y107.320 E3.80612
G1 X100.446 Y104.840 E3.88957
G1 X101.062 Y105.027 E3.90489
G1 X101.501 Y105.106 E3.91552
G1 X98.956 Y107.651 E4.00118
G1 X99.841 Y107.830 E4.02266
G1 X100.074 Y107.854 E4.02825
G1 X102.778 Y105.150 E4.11923
G1 X103.601 Y105.059 E4.13892
G1 X104.360 Y104.889 E4.15744
G1 X101.305 Y107.945 E4.26026
G1 X101.548 Y107.952 E4.26605
G1 X102.290 Y107.926 E4.28372
G1 X102.687 Y107.884 E4.29322
G1 X106.452 Y104.119 E4.41991
G1 X106.452 Y105.440 E4.45135
G1 X104.330 Y107.562 E4.52276
M106 S255
G1 Z1.200 F7800.000
G1 X106.452 Y105.131 F7800.000
G1 F1594.84
G1 X105.532 Y104.211 E4.55373
G1 X105.012 Y104.477 E4.56764
G1 X104.638 Y104.638 E4.57732
G1 X106.452 Y106.452 E4.63839
G1 X106.452 Y106.912 E4.64933
G1 X105.866 Y107.187 E4.66475
G1 X103.635 Y104.957 E4.73980
G1 X103.156 Y105.056 E4.75143
G1 X102.493 Y105.135 E4.76734
G1 X104.889 Y107.532 E4.84798
G1 X104.671 Y107.602 E4.85344
G1 X103.828 Y107.792 E4.87400
G1 X101.157 Y105.121 E4.96386
G1 X100.602 Y105.028 E4.97725
G1 X100.038 Y104.862 E4.99124
G1 X99.495 Y104.619 E5.00540
G1 X99.069 Y104.354 E5.01734
G1 X94.374 Y103.623 F7800.000
G1 F1594.84
G1 X97.769 Y107.018 E5.13158
G1 X98.006 Y107.148 E5.13802
G1 X98.814 Y107.473 E5.15875
G1 X99.809 Y107.737 E5.18323
G1 X93.718 Y101.646 E5.38819
G1 X93.599 Y100.830 E5.40781
G1 X93.559 Y100.166 E5.42363
G1 X101.326 Y107.933 E5.68498
G1 X102.013 Y107.952 E5.70132
G1 X102.644 Y107.929 E5.71634
G1 X99.534 Y104.819 E5.82099
G1 X99.241 Y104.595 E5.82976
G1 X99.028 Y104.400 E5.83663
G1 X98.827 Y104.191 E5.84354
G1 X98.520 Y103.805 E5.85527
G1 X93.588 Y98.873 E6.02122
G1 X93.625 Y98.464 E6.03100
G1 X93.755 Y97.719 E6.04899
G1 X97.638 Y101.602 E6.17965
G1 X97.554 Y100.920 E6.19600
G1 X97.528 Y100.171 E6.21383
G1 X94.050 Y96.693 E6.33088
G1 X94.235 Y96.201 E6.34338
G1 X94.456 Y95.778 E6.35474
G1 X97.625 Y98.946 E6.46137
G1 X97.719 Y98.461 E6.47314
G1 X97.887 Y97.887 E6.48736
G1 X94.963 Y94.963 E6.58576
G1 X95.475 Y94.345 E6.60486
G1 X95.573 Y94.251 E6.60808
G1 X98.305 Y96.984 E6.70003
G1 X98.642 Y96.495 E6.71415
G1 X98.870 Y96.228 E6.72252
G1 X96.276 Y93.633 E6.80983
G1 X96.526 Y93.438 E6.81737
G1 X97.065 Y93.101 E6.83250
G1 X99.578 Y95.614 E6.91706
G1 X99.995 Y95.362 E6.92866
G1 X100.445 Y95.160 E6.94040
G1 X97.962 Y92.677 E7.02396
G1 X98.424 Y92.502 E7.03570
G1 X98.960 Y92.353 E7.04894
G1 X101.501 Y94.894 E7.13443
G1 X102.128 Y94.841 E7.14941
G1 X102.779 Y94.851 E7.16491
G1 X100.072 Y92.144 E7.25600
G1 X100.694 Y92.077 E7.27090
G1 X101.310 Y92.060 E7.28555
G1 X104.362 Y95.113 E7.38826
G1 X104.872 Y95.274 E7.40097
G1 X105.427 Y95.501 E7.41525
G1 X105.855 Y95.711 E7.42658
G1 X106.452 Y96.053 E7.44297
G1 X106.452 Y95.881 E7.44707
G1 X102.689 Y92.118 E7.57370
G1 X103.305 Y92.196 E7.58848
G1 X104.036 Y92.353 E7.60627
G1 X104.326 Y92.433 E7.61342
G1 X106.452 Y94.560 E7.68498
G1 Z1.500 F7800.000
G1 X105.533 Y95.788 F7800.000
G1 F1591.59
G1 X106.452 Y94.869 E7.71591
G1 X106.452 Y93.548 E7.74735
G1 X104.637 Y95.363 E7.80845
G1 X104.103 Y95.172 E7.82193
G1 X103.635 Y95.043 E7.83348
G1 X105.865 Y92.814 E7.90850
G1 X105.559 Y92.689 E7.91637
G1 X104.895 Y92.463 E7.93307
G1 X102.494 Y94.863 E8.01384
G1 X101.871 Y94.837 E8.02868
G1 X101.158 Y94.878 E8.04568
G1 X103.828 Y92.208 E8.13553
G1 X103.301 Y92.126 E8.14820
G1 X102.643 Y92.071 E8.16392
G1 X99.074 Y95.641 E8.28403
G1 X98.835 Y95.821 E8.29114
G1 X98.564 Y96.064 E8.29982
G1 X98.369 Y96.266 E8.30647
G1 X98.051 Y96.664 E8.31860
G1 X97.771 Y92.979 F7800.000
G1 F1591.59
G1 X94.388 Y96.362 E8.43245
G1 X94.234 Y96.667 E8.44058
G1 X93.944 Y97.434 E8.46008
G1 X93.775 Y98.061 E8.47553
G1 X93.726 Y98.346 E8.48241
G1 X99.804 Y92.268 E8.68692
G1 X100.320 Y92.168 E8.69943
G1 X101.320 Y92.073 E8.72334
G1 X93.555 Y99.838 E8.98462
G1 X93.559 Y100.740 E9.00608
G1 X93.591 Y101.123 E9.01523
G1 X98.516 Y96.198 E9.18094
G1 X98.189 Y96.728 E9.19574
G1 X97.989 Y97.155 E9.20696
G1 X97.792 Y97.718 E9.22115
G1 X97.638 Y98.398 E9.23775
G1 X93.751 Y102.284 E9.36852
G1 X93.947 Y103.037 E9.38703
G1 X94.044 Y103.314 E9.39399
G1 X97.528 Y99.829 E9.51125
G1 X97.552 Y100.426 E9.52547
G1 X97.625 Y101.054 E9.54051
G1 X94.454 Y104.225 E9.64720
G1 X94.580 Y104.468 E9.65372
G1 X94.960 Y105.040 E9.67006
G1 X97.888 Y102.112 E9.76858
G1 X98.069 Y102.562 E9.78012
G1 X98.306 Y103.015 E9.79229
G1 X95.571 Y105.750 E9.88432
G1 X96.023 Y106.174 E9.89906
G1 X96.276 Y106.367 E9.90663
G1 X98.871 Y103.772 E9.99393
G1 X99.211 Y104.103 E10.00522
G1 X99.579 Y104.385 E10.01626
G1 X97.070 Y106.894 E10.10068
G1 X97.252 Y107.004 E10.10573
G1 X97.962 Y107.324 E10.12426
G1 X100.446 Y104.840 E10.20786
G1 X101.059 Y105.026 E10.22311
G1 X101.501 Y105.106 E10.23380
G1 X98.961 Y107.646 E10.31928
G1 X99.283 Y107.728 E10.32719
G1 X100.071 Y107.857 E10.34620
G1 X102.778 Y105.150 E10.43729
G1 X103.590 Y105.061 E10.45672
G1 X104.360 Y104.889 E10.47549
G1 X101.304 Y107.946 E10.57835
G1 X101.915 Y107.946 E10.59289
G1 X102.686 Y107.885 E10.61131
G1 X106.452 Y104.119 E10.73803
G1 X106.452 Y105.440 E10.76947
G1 X104.334 Y107.559 E10.84076
G1 Z1.800 F7800.000
G1 X106.452 Y105.131 F7800.000
G1 F1594.71
G1 X105.533 Y104.211 E10.87169
G1 X105.019 Y104.473 E10.88541
G1 X104.637 Y104.637 E10.89530
G1 X106.452 Y106.452 E10.95639
G1 X106.452 Y106.915 E10.96740
G1 X105.862 Y107.183 E10.98283
G1 X103.636 Y104.957 E11.05774
G1 X102.973 Y105.090 E11.07383
G1 X102.494 Y105.137 E11.08527
G1 X104.893 Y107.536 E11.16599
G1 X104.180 Y107.723 E11.18352
G1 X103.824 Y107.788 E11.19214
G1 X101.158 Y105.122 E11.28186
G1 X100.586 Y105.024 E11.29566
G1 X100.079 Y104.877 E11.30821
G1 X99.467 Y104.604 E11.32416
G1 X99.072 Y104.357 E11.33526
G1 X94.395 Y103.645 F7800.000
G1 F1594.71
G1 X97.784 Y107.034 E11.44930
G1 X98.309 Y107.283 E11.46313
G1 X99.078 Y107.557 E11.48254
G1 X99.812 Y107.740 E11.50054
G1 X93.724 Y101.652 E11.70542
G1 X93.626 Y101.074 E11.71937
G1 X93.558 Y100.165 E11.74106
G1 X101.318 Y107.925 E12.00219
G1 X101.592 Y107.945 E12.00873
G1 X102.645 Y107.930 E12.03377
G1 X99.537 Y104.822 E12.13835
G1 X99.299 Y104.643 E12.14543
G1 X98.994 Y104.367 E12.15523
G1 X98.815 Y104.177 E12.16143
G1 X98.515 Y103.800 E12.17290
G1 X93.592 Y98.878 E12.33853
G1 X93.625 Y98.465 E12.34839
G1 X93.753 Y97.717 E12.36644
G1 X97.639 Y101.603 E12.49719
G1 X97.550 Y100.863 E12.51492
G1 X97.528 Y100.171 E12.53139
G1 X94.048 Y96.691 E12.64849
G1 X94.232 Y96.207 E12.66081
G1 X94.455 Y95.776 E12.67235
G1 X97.624 Y98.946 E12.77900
G1 X97.710 Y98.499 E12.78983
G1 X97.887 Y97.887 E12.80498
G1 X94.960 Y94.960 E12.90347
G1 X95.396 Y94.430 E12.91981
G1 X95.575 Y94.254 E12.92578
G1 X98.306 Y96.985 E13.01767
G1 X98.558 Y96.606 E13.02848
G1 X98.871 Y96.228 E13.04016
G1 X96.277 Y93.634 E13.12745
G1 X96.480 Y93.472 E13.13363
G1 X97.068 Y93.104 E13.15014
G1 X99.578 Y95.614 E13.23461
G1 X99.936 Y95.394 E13.24462
G1 X100.446 Y95.160 E13.25796
G1 X97.965 Y92.680 E13.34143
G1 X98.292 Y92.547 E13.34982
G1 X98.958 Y92.351 E13.36634
G1 X101.501 Y94.894 E13.45189
G1 X102.089 Y94.842 E13.46594
G1 X102.779 Y94.851 E13.48236
G1 X100.073 Y92.145 E13.57340
G1 X100.661 Y92.079 E13.58747
G1 X101.308 Y92.058 E13.60287
G1 X104.360 Y95.111 E13.70559
G1 X104.911 Y95.288 E13.71935
G1 X105.467 Y95.520 E13.73368
G1 X106.051 Y95.817 E13.74927
G1 X106.452 Y96.054 E13.76036
G1 X106.452 Y95.881 E13.76448
G1 X102.683 Y92.112 E13.89130
G1 X102.805 Y92.123 E13.89421
G1 X103.337 Y92.202 E13.90701
G1 X103.973 Y92.337 E13.92248
G1 X104.328 Y92.436 E13.93124
G1 X106.452 Y94.560 E14.00272
G1 Z2.100 F7800.000
G1 X105.533 Y95.788 F7800.000
G1 F1591.78
G1 X106.452 Y94.869 E14.03365
G1 X106.452 Y93.548 E14.06509
G1 X104.637 Y95.363 E14.12619
G1 X104.183 Y95.197 E14.13768
G1 X103.636 Y95.043 E14.15121
G1 X105.864 Y92.815 E14.22616
G1 X105.528 Y92.677 E14.23480
G1 X104.893 Y92.464 E14.25073
G1 X102.495 Y94.862 E14.33143
G1 X101.871 Y94.837 E14.34628
G1 X101.157 Y94.879 E14.36330
G1 X103.829 Y92.207 E14.45320
G1 X103.238 Y92.119 E14.46742
G1 X102.647 Y92.067 E14.48152
G1 X99.073 Y95.641 E14.60179
G1 X98.858 Y95.803 E14.60818
G1 X98.514 Y96.113 E14.61922
G1 X98.331 Y96.310 E14.62560
G1 X98.047 Y96.668 E14.63648
G1 E12.63648 F2400.00000
G92 E0
G1 X97.775 Y92.975 F7800.000
G1 E2.00000 F2400.00000
G1 F1591.78
G1 X94.375 Y96.375 E2.11439
G1 X94.090 Y97.016 E2.13110
G1 X93.853 Y97.748 E2.14940
G1 X93.722 Y98.350 E2.16405
G1 X99.802 Y92.270 E2.36863
G1 X100.256 Y92.178 E2.37965
G1 X101.109 Y92.081 E2.40010
G1 X101.320 Y92.073 E2.40511
G1 X93.563 Y99.830 E2.66612
G1 X93.548 Y100.227 E2.67557
G1 X93.585 Y101.129 E2.69707
G1 X98.512 Y96.203 E2.86285
G1 X98.237 Y96.637 E2.87507
G1 X98.101 Y96.900 E2.88212
G1 X97.931 Y97.299 E2.89243
G1 X97.766 Y97.812 E2.90527
G1 X97.638 Y98.398 E2.91954
G1 X93.758 Y102.277 E3.05008
G1 X93.853 Y102.716 E3.06075
G1 X94.046 Y103.311 E3.07564
G1 X97.528 Y99.829 E3.19282
G1 X97.547 Y100.369 E3.20568
G1 X97.625 Y101.053 E3.22207
G1 X94.452 Y104.227 E3.32885
G1 X94.756 Y104.749 E3.34324
G1 X94.967 Y105.033 E3.35165
G1 X97.888 Y102.112 E3.44996
G1 X98.036 Y102.503 E3.45990
G1 X98.307 Y103.015 E3.47368
G1 X95.574 Y105.747 E3.56563
G1 X95.697 Y105.880 E3.56993
G1 X96.270 Y106.373 E3.58791
G1 X98.871 Y103.772 E3.67542
G1 X99.153 Y104.052 E3.68489
G1 X99.579 Y104.386 E3.69775
G1 X97.070 Y106.894 E3.78216
G1 X97.521 Y107.139 E3.79438
G1 X97.964 Y107.322 E3.80577
G1 X100.446 Y104.839 E3.88932
G1 X100.785 Y104.956 E3.89784
G1 X101.043 Y105.022 E3.90418
G1 X101.501 Y105.106 E3.91525
G1 X98.956 Y107.651 E4.00087
G1 X99.789 Y107.822 E4.02110
G1 X100.074 Y107.854 E4.02793
G1 X102.779 Y105.149 E4.11896
G1 X103.527 Y105.071 E4.13686
G1 X104.360 Y104.890 E4.15713
G1 X101.306 Y107.943 E4.25987
G1 X101.550 Y107.952 E4.26567
G1 X102.173 Y107.934 E4.28049
G1 X102.682 Y107.890 E4.29265
G1 X106.452 Y104.119 E4.41953
G1 X106.452 Y105.440 E4.45097
G1 X104.330 Y107.563 E4.52239
G1 E2.52239 F2400.00000
G92 E0
M107
; Filament-specific end gcode 
;END gcode for filament

M104 S0 ; turn off temperature
G28 X0  ; home X axis
M84     ; disable motors

M140 S0 ; set bed temperature
; filament used = 21.9mm (0.2cm3)
; total filament cost = 0.0

; avoid_crossing_perimeters = 0
; bed_shape = 0x0,200x0,200x200,0x200
; bed_temperature = 0
; before_layer_gcode = 
; between_objects_gcode = 
; bridge_acceleration = 0
; bridge_fan_speed = 100
; brim_connections_width = 0
; brim_width = 0
; complete_objects = 0
; cooling = 1
; default_acceleration = 0
; disable_fan_first_layers = 3
; duplicate_distance = 6
; end_filament_gcode = "; Filament-specific end gcode \n;END gcode for filament\n"
; end_gcode = M104 S0 ; turn off temperature\nG28 X0  ; home X axis\nM84     ; disable motors\n
; extruder_clearance_height = 20
; extruder_clearance_radius = 20
; extruder_offset = 0x0
; extrusion_axis = E
; extrusion_multiplier = 1
; fan_always_on = 0
; fan_below_layer_time = 60
; filament_colour = #FFFFFF
; filament_cost = 0
; filament_density = 0
; filament_diameter = 3
; filament_max_volumetric_speed = 0
; filament_notes = ""
; first_layer_acceleration = 0
; first_layer_bed_temperature = 0
; first_layer_extrusion_width = 200%
; first_layer_speed = 30
; first_layer_temperature = 205
; gcode_arcs = 0
; gcode_comments = 0
; gcode_flavor = reprap
; has_heatbed = 1
; infill_acceleration = 0
; infill_first = 0
; interior_brim_width = 0
; layer_gcode = 
; max_fan_speed = 100
; max_layer_height = 0.3
; max_print_speed = 80
; max_volumetric_speed = 0
; min_fan_speed = 35
; min_layer_height = 0.15
; min_print_speed = 10
; min_skirt_length = 0
; notes = 
; nozzle_diameter = 0.5
; only_retract_when_crossing_perimeters = 1
; ooze_prevention = 0
; output_filename_format = [input_filename_base].gcode
; perimeter_acceleration = 0
; post_process = 
; pressure_advance = 0
; printer_notes = 
; resolution = 0
; retract_before_travel = 2
; retract_layer_change = 0
; retract_length = 2
; retract_length_toolchange = 10
; retract_lift = 0
; retract_lift_above = 0
; retract_lift_below = 0
; retract_restart_extra = 0
; retract_restart_extra_toolchange = 0
; retract_speed = 40
; skirt_distance = 6
; skirt_height = 1
; skirts = 0
; slowdown_below_layer_time = 5
; spiral_vase = 0
; standby_temperature_delta = -5
; start_filament_gcode = "; Filament gcode\n"
; start_gcode = G28 ; home all axes\nG1 Z5 F5000 ; lift nozzle\n
; temperature = 200
; threads = 8
; toolchange_gcode = 
; travel_speed = 130
; use_firmware_retraction = 0
; use_relative_e_distances = 0
; use_set_and_wait_bed = 0
; use_set_and_wait_extruder = 0
; use_volumetric_e = 0
; vibration_limit = 0
; wipe = 0
; z_offset = 0
; z_steps_per_mm = 0
; adaptive_slicing = 0
; adaptive_slicing_quality = 75%
; dont_support_bridges = 1
; extrusion_width = 0
; first_layer_height = 0.3
; infill_only_where_needed = 0
; interface_shells = 0
; layer_height = 0.3
; match_horizontal_surfaces = 0
; raft_layers = 0
; regions_overlap = 0
; seam_position = aligned
; sequential_print_priority = 0
; support_material = 0
; support_material_angle = 0
; support_material_buildplate_only = 0
; support_material_contact_distance = 0.2
; support_material_enforce_layers = 0
; support_material_extruder = 1
; support_material_extrusion_width = 0
; support_material_interface_extruder = 1
; support_material_interface_extrusion_width = 0
; support_material_interface_layers = 3
; support_material_interface_spacing = 0
; support_material_interface_speed = 100%
; support_material_max_layers = 0
; support_material_pattern = pillars
; support_material_spacing = 2.5
; support_material_speed = 60
; support_material_threshold = 60%
; xy_size_compensation = 0
; bottom_infill_pattern = rectilinear
; bottom_solid_layers = 0
; bridge_flow_ratio = 1
; bridge_speed = 60
; external_perimeter_extrusion_width = 0
; external_perimeter_speed = 50%
; external_perimeters_first = 0
; extra_perimeters = 1
; fill_angle = 45
; fill_density = 60%
; fill_gaps = 1
; fill_pattern = rectilinear
; gap_fill_speed = 20
; infill_every_layers = 1
; infill_extruder = 1
; infill_extrusion_width = 0
; infill_overlap = 55%
; infill_speed = 80
; overhangs = 1
; perimeter_extruder = 1
; perimeter_extrusion_width = 0
; perimeter_speed = 60
; perimeters = 0
; small_perimeter_speed = 15
; solid_infill_below_area = 70
; solid_infill_every_layers = 0
; solid_infill_extruder = 1
; solid_infill_extrusion_width = 0
; solid_infill_speed = 20
; thin_walls = 1
; top_infill_extrusion_width = 0
; top_infill_pattern = rectilinear
; top_solid_infill_speed = 15
; top_solid_layers = 0
