; generated by Slic3r 1.3.0 on 2019-09-26 at 19:56:30

; external perimeters extrusion width = 0.55mm (4.37mm^3/s)
; perimeters extrusion width = 0.70mm (11.44mm^3/s)
; infill extrusion width = 0.63mm (13.45mm^3/s)
; solid infill extrusion width = 0.70mm (3.81mm^3/s)
; top infill extrusion width = 0.70mm (2.86mm^3/s)

M107
M104 S205 ; set temperature
G28 ; home all axes
G1 Z5 F5000 ; lift nozzle

; Filament gcode

M109 S205 ; set temperature and wait for it to be reached
G21 ; set units to millimeters
G90 ; use absolute coordinates
M82 ; use absolute distances for extrusion
G92 E0
G1 Z0.300 F7800.000
G1 E-2.00000 F2400.00000
G92 E0
G1 X97.320 Y99.576 F7800.000
G1 E2.00000 F2400.00000
G1 F1591.63
G1 X99.896 Y99.576 E2.05856
G1 X100.418 Y99.610 E2.07043
G1 X100.882 Y99.712 E2.08123
G1 X101.153 Y99.809 E2.08779
G1 X101.420 Y99.938 E2.09451
G1 X101.821 Y100.222 E2.10570
G1 X102.163 Y100.605 E2.11738
G1 X102.406 Y101.058 E2.12905
G1 X102.540 Y101.535 E2.14033
G1 X102.579 Y101.848 E2.14748
G1 X102.579 Y102.350 E2.15889
G1 X102.490 Y102.868 E2.17084
G1 X102.295 Y103.353 E2.18272
G1 X102.004 Y103.767 E2.19423
G1 X101.635 Y104.093 E2.20543
G1 X101.363 Y104.261 E2.21270
G1 X100.911 Y104.448 E2.22381
G1 X100.419 Y104.555 E2.23527
G1 X99.896 Y104.589 E2.24717
G1 X97.320 Y104.589 E2.30572
G1 X97.320 Y99.651 E2.41797
G1 X97.856 Y100.112 F7800.000
G1 F1800
G1 X99.879 Y100.112 E2.46396
G1 X100.343 Y100.142 E2.47452
G1 X100.734 Y100.228 E2.48363
G1 X100.946 Y100.303 E2.48874
G1 X101.146 Y100.401 E2.49381
G1 X101.462 Y100.624 E2.50260
G1 X101.721 Y100.914 E2.51145
G1 X101.906 Y101.259 E2.52034
G1 X102.013 Y101.641 E2.52937
G1 X102.043 Y101.881 E2.53486
G1 X102.043 Y102.304 E2.54447
G1 X101.971 Y102.721 E2.55410
G1 X101.821 Y103.096 E2.56327
G1 X101.602 Y103.407 E2.57193
G1 X101.315 Y103.661 E2.58065
G1 X101.118 Y103.783 E2.58590
G1 X100.751 Y103.935 E2.59494
G1 X100.344 Y104.023 E2.60440
G1 X99.879 Y104.054 E2.61500
G1 X97.856 Y104.054 E2.66098
G1 X97.856 Y100.187 E2.74888
G1 X97.777 Y99.618 F7800.000
G1 E0.74888 F2400.00000
G92 E0
G1 X96.785 Y104.629 F7800.000
G1 E2.00000 F2400.00000
G1 F1591.63
G1 X96.429 Y104.629 E2.00809
G1 X96.429 Y95.371 E2.21853
G1 X96.785 Y95.371 E2.22662
G1 X96.785 Y104.554 E2.43536
G1 E0.43536 F2400.00000
G92 E0
G1 X102.985 Y103.796 F7800.000
G1 E2.00000 F2400.00000
G1 F1591.63
G1 X102.751 Y103.655 E2.00621
G1 X103.008 Y103.014 E2.02191
G1 X103.114 Y102.395 E2.03618
G1 X103.114 Y101.814 E2.04939
G1 X103.066 Y101.429 E2.05821
G1 X102.906 Y100.856 E2.07174
G1 X102.718 Y100.507 E2.08076
G1 X102.940 Y100.341 E2.08705
G1 X103.094 Y100.493 E2.09196
G1 X103.216 Y100.658 E2.09663
G1 X103.309 Y100.821 E2.10089
G1 X103.458 Y101.202 E2.11018
G1 X103.517 Y101.454 E2.11608
G1 X103.555 Y101.740 E2.12263
G1 X103.570 Y102.088 E2.13056
G1 X103.557 Y102.398 E2.13760
G1 X103.481 Y102.882 E2.14874
G1 X103.416 Y103.101 E2.15394
G1 X103.331 Y103.302 E2.15889
G1 X103.138 Y103.616 E2.16727
G1 X103.034 Y103.739 E2.17094
G1 E0.17094 F2400.00000
G92 E0
G1 X97.320 Y98.996 F7800.000
G1 E2.00000 F2400.00000
G1 F1591.63
G1 X100.703 Y99.016 E2.07690
G1 X101.166 Y99.058 E2.08747
G1 X101.789 Y99.170 E2.10185
G1 X102.336 Y99.340 E2.11488
G1 X102.797 Y99.561 E2.12650
G1 X103.188 Y99.833 E2.13732
G1 X103.499 Y100.141 E2.14728
G1 X103.665 Y100.364 E2.15361
G1 X103.794 Y100.589 E2.15950
G1 X103.970 Y101.042 E2.17055
G1 X104.044 Y101.357 E2.17790
G1 X104.089 Y101.693 E2.18560
G1 X104.106 Y102.088 E2.19459
G1 X104.091 Y102.451 E2.20284
G1 X104.004 Y103.000 E2.21548
G1 X103.921 Y103.282 E2.22216
G1 X103.809 Y103.548 E2.22872
G1 X103.573 Y103.931 E2.23896
G1 X103.391 Y104.146 E2.24535
G1 X103.194 Y104.329 E2.25146
G1 X102.789 Y104.610 E2.26267
G1 X102.340 Y104.824 E2.27399
G1 X101.809 Y104.990 E2.28662
G1 X101.157 Y105.109 E2.30169
G1 X100.716 Y105.149 E2.31175
G1 X100.184 Y105.164 E2.32385
G1 X95.893 Y105.164 E2.42139
G1 X95.893 Y94.836 E2.65619
G1 X97.320 Y94.836 E2.68863
G1 X97.320 Y98.921 E2.78150
G1 X97.856 Y98.464 F7800.000
G1 F1800
G1 X100.729 Y98.481 E2.84681
G1 X101.238 Y98.527 E2.85843
G1 X101.916 Y98.649 E2.87410
G1 X102.532 Y98.840 E2.88875
G1 X103.068 Y99.096 E2.90225
G1 X103.532 Y99.420 E2.91512
G1 X103.905 Y99.789 E2.92705
G1 X104.114 Y100.071 E2.93503
G1 X104.278 Y100.358 E2.94255
G1 X104.483 Y100.883 E2.95535
G1 X104.572 Y101.260 E2.96416
G1 X104.623 Y101.646 E2.97302
G1 X104.642 Y102.088 E2.98306
G1 X104.625 Y102.504 E2.99252
G1 X104.528 Y103.118 E3.00666
G1 X104.426 Y103.463 E3.01483
G1 X104.286 Y103.793 E3.02299
G1 X104.008 Y104.247 E3.03508
G1 X103.779 Y104.517 E3.04314
G1 X103.531 Y104.747 E3.05084
G1 X103.058 Y105.075 E3.06390
G1 X102.536 Y105.324 E3.07706
G1 X101.938 Y105.511 E3.09131
G1 X101.229 Y105.640 E3.10767
G1 X100.748 Y105.684 E3.11865
G1 X100.192 Y105.700 E3.13130
G1 X95.358 Y105.700 E3.24120
G1 X95.358 Y94.300 E3.50035
G1 X97.856 Y94.300 E3.55714
G1 X97.856 Y98.389 E3.65009
G1 X97.944 Y98.956 F7800.000
G1 E1.65009 F2400.00000
G92 E0
G1 X100.470 Y99.315 F7800.000
G1 E2.00000 F2400.00000
G1 F1591.63
G1 X100.687 Y99.339 E2.00043
G1 F1591.63
G1 X101.118 Y99.414 E2.00263
G1 F1591.63
G1 X101.464 Y99.516 E2.00564
G1 F1591.63
G1 X101.647 Y99.577 E2.00771
G1 F1591.63
G1 X101.800 Y99.650 E2.00992
G1 F1591.63
G1 X102.029 Y99.763 E2.01414
G1 F1591.63
G1 X102.148 Y99.821 E2.01664
G1 X102.695 Y100.190 E2.02914
G1 E0.02914 F2400.00000
G92 E0
G1 X102.363 Y103.723 F7800.000
G1 E2.00000 F2400.00000
G1 F1591.63
G1 X102.443 Y104.139 E2.00984
G1 X101.942 Y104.473 E2.02382
G1 F1591.63
G1 X101.482 Y104.777 E2.03520
G1 X101.559 Y104.620 F7800.000
G1 F1591.63
G1 X101.323 Y104.691 E2.03747
G1 F1591.63
G1 X101.021 Y104.775 E2.03965
G1 F1591.63
G1 X100.448 Y104.856 E2.04182
G1 X101.559 Y104.620 F7800.000
G1 F1591.63
G1 X101.704 Y104.564 E2.04364
G1 F1591.63
G1 X102.817 Y104.008 E2.06155
M104 S200 ; set temperature
G1 Z0.600 F7800.000
G1 E0.06155 F2400.00000
G92 E0
G1 X97.320 Y99.576 F7800.000
G1 E2.00000 F2400.00000
G1 F900
G1 X99.898 Y99.576 E2.06952
G1 X100.433 Y99.613 E2.08401
G1 X100.847 Y99.702 E2.09542
G1 X101.142 Y99.804 E2.10385
G1 X101.433 Y99.946 E2.11259
G1 X101.828 Y100.228 E2.12567
G1 X102.163 Y100.605 E2.13927
G1 X102.402 Y101.048 E2.15285
G1 X102.537 Y101.519 E2.16606
G1 X102.580 Y101.863 E2.17543
G1 X102.579 Y102.340 E2.18829
G1 X102.489 Y102.870 E2.20280
G1 X102.289 Y103.364 E2.21717
G1 X102.012 Y103.757 E2.23015
G1 X101.650 Y104.083 E2.24330
G1 X101.348 Y104.269 E2.25287
G1 X100.899 Y104.451 E2.26593
G1 X100.439 Y104.552 E2.27862
G1 X99.898 Y104.589 E2.29327
G1 X97.320 Y104.589 E2.36280
G1 X97.320 Y99.651 E2.49600
G1 X97.881 Y100.137 F7800.000
G1 F900
G1 X99.878 Y100.137 E2.53717
G1 X100.354 Y100.170 E2.54701
G1 X100.696 Y100.243 E2.55421
G1 X100.928 Y100.323 E2.55926
G1 X101.145 Y100.429 E2.56425
G1 X101.451 Y100.647 E2.57198
G1 X101.700 Y100.928 E2.57973
G1 X101.880 Y101.261 E2.58751
G1 X101.986 Y101.631 E2.59546
G1 X102.019 Y101.898 E2.60099
G1 X102.019 Y102.292 E2.60913
G1 X101.947 Y102.716 E2.61799
G1 X101.794 Y103.094 E2.62638
G1 X101.590 Y103.383 E2.63366
G1 X101.312 Y103.632 E2.64136
G1 X101.093 Y103.767 E2.64667
G1 X100.732 Y103.914 E2.65469
G1 X100.360 Y103.995 E2.66255
G1 X99.878 Y104.029 E2.67250
G1 X97.881 Y104.029 E2.71367
G1 X97.881 Y100.212 E2.79233
G1 X97.802 Y99.643 F7800.000
G1 X97.320 Y98.996 F7800.000
G1 F900
G1 X100.683 Y99.015 E2.88305
G1 X101.171 Y99.059 E2.89625
G1 X101.768 Y99.166 E2.91263
G1 X102.328 Y99.337 E2.92843
G1 X102.811 Y99.567 E2.94287
G1 X103.189 Y99.832 E2.95531
G1 X103.497 Y100.138 E2.96702
G1 X103.672 Y100.375 E2.97495
G1 X103.796 Y100.591 E2.98169
G1 X103.967 Y101.029 E2.99438
G1 X104.047 Y101.374 E3.00393
G1 X104.088 Y101.677 E3.01218
G1 X104.106 Y102.089 E3.02331
G1 X104.092 Y102.448 E3.03298
G1 X104.005 Y102.998 E3.04800
G1 X103.924 Y103.274 E3.05577
G1 X103.808 Y103.549 E3.06382
G1 X103.573 Y103.931 E3.07592
G1 X103.378 Y104.159 E3.08402
G1 X103.190 Y104.333 E3.09093
G1 X102.789 Y104.611 E3.10410
G1 X102.339 Y104.824 E3.11753
G1 X101.830 Y104.985 E3.13192
G1 X101.143 Y105.110 E3.15075
G1 X100.742 Y105.147 E3.16163
G1 X100.184 Y105.164 E3.17669
G1 X95.893 Y105.164 E3.29243
G1 X95.893 Y94.836 E3.57106
G1 X97.320 Y94.836 E3.60956
G1 X97.320 Y98.921 E3.71978
G1 X97.881 Y98.439 F7800.000
G1 F900
G1 X100.710 Y98.455 E3.77808
G1 X101.245 Y98.502 E3.78916
G1 X101.900 Y98.620 E3.80287
G1 X102.532 Y98.814 E3.81649
G1 X103.085 Y99.077 E3.82913
G1 X103.560 Y99.410 E3.84108
G1 X103.922 Y99.771 E3.85161
G1 X104.142 Y100.068 E3.85923
G1 X104.296 Y100.337 E3.86561
G1 X104.507 Y100.873 E3.87749
G1 X104.600 Y101.274 E3.88597
G1 X104.647 Y101.628 E3.89333
G1 X104.667 Y102.088 E3.90283
G1 X104.620 Y102.770 E3.91692
G1 X104.551 Y103.130 E3.92447
G1 X104.453 Y103.463 E3.93162
G1 X104.308 Y103.806 E3.93930
G1 X104.028 Y104.262 E3.95034
G1 X103.783 Y104.549 E3.95810
G1 X103.549 Y104.765 E3.96466
G1 X103.285 Y104.962 E3.97145
G1 X103.058 Y105.104 E3.97697
G1 X102.544 Y105.347 E3.98869
G1 X101.965 Y105.530 E4.00120
G1 X101.219 Y105.666 E4.01683
G1 X100.776 Y105.707 E4.02600
G1 X100.192 Y105.725 E4.03804
G1 X95.333 Y105.725 E4.13820
G1 X95.333 Y94.275 E4.37419
G1 X97.881 Y94.275 E4.42671
G1 X97.881 Y98.364 E4.51098
G1 X97.970 Y98.931 F7800.000
G1 X96.607 Y95.153 F7800.000
G1 F1200
G1 X96.607 Y104.847 E4.81008
G1 X102.027 Y104.589 F7800.000
G1 F1200
G1 X102.768 Y103.827 E4.83635
G1 F1200
G1 X102.953 Y103.583 E4.84474
G1 F1200
G1 X103.073 Y103.361 E4.85248
G1 F1200
G1 X103.218 Y103.029 E4.86444
G1 X103.312 Y102.572 E4.87985
G1 X103.336 Y102.390 E4.88590
G1 X103.337 Y101.844 E4.90392
G1 X103.300 Y101.510 E4.91501
G1 X103.242 Y101.240 E4.92415
G1 X103.089 Y100.815 E4.93904
G1 X102.962 Y100.601 E4.94729
G1 F1200
G1 X102.824 Y100.416 E4.95421
G1 F1200
G1 X102.708 Y100.268 E4.95935
G1 F1200
G1 X101.851 Y99.523 E4.98729
G1 Z0.900 F7800.000
G1 X97.320 Y99.576 F7800.000
G1 F900
G1 X99.893 Y99.576 E5.05669
G1 X100.347 Y99.603 E5.06895
G1 X100.699 Y99.663 E5.07858
G1 X101.125 Y99.796 E5.09064
G1 X101.441 Y99.951 E5.10013
G1 X101.781 Y100.189 E5.11132
G1 X102.113 Y100.539 E5.12434
G1 X102.341 Y100.917 E5.13626
G1 X102.493 Y101.318 E5.14782
G1 X102.581 Y101.864 E5.16273
G1 X102.580 Y102.331 E5.17532
G1 X102.490 Y102.864 E5.18991
G1 X102.320 Y103.304 E5.20263
G1 X102.028 Y103.741 E5.21681
G1 X101.664 Y104.073 E5.23010
G1 X101.332 Y104.277 E5.24061
G1 X100.887 Y104.455 E5.25355
G1 X100.460 Y104.548 E5.26533
G1 X99.899 Y104.589 E5.28050
G1 X97.320 Y104.589 E5.35007
G1 X97.320 Y99.651 E5.48328
G1 X97.881 Y100.137 F7800.000
G1 F900
G1 X99.877 Y100.137 E5.52441
G1 X100.283 Y100.160 E5.53280
G1 X100.567 Y100.209 E5.53874
G1 X100.917 Y100.318 E5.54630
G1 X101.155 Y100.435 E5.55176
G1 X101.413 Y100.615 E5.55825
G1 X101.664 Y100.881 E5.56577
G1 X101.835 Y101.163 E5.57258
G1 X101.948 Y101.464 E5.57920
G1 X102.020 Y101.908 E5.58848
G1 X102.019 Y102.283 E5.59621
G1 X101.947 Y102.715 E5.60523
G1 X101.820 Y103.044 E5.61249
G1 X101.599 Y103.372 E5.62065
G1 X101.325 Y103.623 E5.62831
G1 X101.080 Y103.774 E5.63425
G1 X100.722 Y103.917 E5.64219
G1 X100.379 Y103.992 E5.64942
G1 X99.879 Y104.029 E5.65976
G1 X97.881 Y104.029 E5.70094
G1 X97.881 Y100.212 E5.77960
G1 X97.802 Y99.643 F7800.000
G1 X97.320 Y98.997 F7800.000
G1 F900
G1 X100.664 Y99.014 E5.86979
G1 X101.175 Y99.059 E5.88364
G1 X101.747 Y99.161 E5.89932
G1 X102.338 Y99.340 E5.91597
G1 X102.802 Y99.561 E5.92984
G1 X103.206 Y99.846 E5.94318
G1 X103.494 Y100.135 E5.95419
G1 X103.678 Y100.385 E5.96255
G1 X103.787 Y100.574 E5.96843
G1 X103.967 Y101.029 E5.98165
G1 X104.050 Y101.392 E5.99168
G1 X104.086 Y101.661 E5.99902
G1 X104.106 Y102.091 E6.01062
G1 X104.093 Y102.426 E6.01966
G1 X104.003 Y103.007 E6.03552
G1 X103.927 Y103.266 E6.04281
G1 X103.801 Y103.565 E6.05156
G1 X103.587 Y103.915 E6.06262
G1 X103.365 Y104.173 E6.07182
G1 X103.195 Y104.329 E6.07804
G1 X102.770 Y104.622 E6.09196
G1 X102.338 Y104.825 E6.10483
G1 X101.851 Y104.979 E6.11862
G1 X101.129 Y105.112 E6.13841
G1 X100.767 Y105.145 E6.14822
G1 X100.183 Y105.164 E6.16399
G1 X95.893 Y105.164 E6.27971
G1 X95.893 Y94.836 E6.55834
G1 X97.320 Y94.836 E6.59684
G1 X97.320 Y98.922 E6.70706
G1 X97.881 Y98.439 F7800.000
G1 F900
G1 X100.690 Y98.453 E6.76496
G1 X101.249 Y98.503 E6.77653
G1 X101.878 Y98.615 E6.78970
G1 X102.529 Y98.812 E6.80371
G1 X103.083 Y99.075 E6.81635
G1 X103.334 Y99.237 E6.82251
G1 X103.577 Y99.425 E6.82885
G1 X103.921 Y99.769 E6.83886
G1 X104.149 Y100.078 E6.84678
G1 X104.287 Y100.319 E6.85252
G1 X104.412 Y100.598 E6.85880
G1 X104.507 Y100.875 E6.86484
G1 X104.603 Y101.292 E6.87366
G1 X104.645 Y101.612 E6.88030
G1 X104.667 Y102.089 E6.89015
G1 X104.653 Y102.468 E6.89798
G1 X104.615 Y102.802 E6.90489
G1 X104.548 Y103.140 E6.91201
G1 X104.455 Y103.454 E6.91876
G1 X104.305 Y103.812 E6.92675
G1 X104.153 Y104.082 E6.93315
G1 X104.032 Y104.258 E6.93755
G1 X103.768 Y104.563 E6.94586
G1 X103.555 Y104.760 E6.95183
G1 X103.316 Y104.941 E6.95800
G1 X103.039 Y105.115 E6.96476
G1 X102.543 Y105.348 E6.97605
G1 X101.987 Y105.524 E6.98808
G1 X101.206 Y105.668 E7.00444
G1 X100.802 Y105.705 E7.01280
G1 X100.192 Y105.725 E7.02538
G1 X95.333 Y105.725 E7.12553
G1 X95.333 Y94.275 E7.36152
G1 X97.881 Y94.275 E7.41404
G1 X97.881 Y98.364 E7.49831
G1 X97.970 Y98.931 F7800.000
G1 X96.607 Y95.153 F7800.000
G1 F1200
G1 X96.607 Y104.847 E7.79741
G1 X102.051 Y104.582 F7800.000
G1 F1200
G1 X102.770 Y103.821 E7.82371
G1 F1200
G1 X102.954 Y103.587 E7.83207
G1 F1200
G1 X103.137 Y103.239 E7.84425
G1 F1200
G1 X103.222 Y103.015 E7.85222
G1 X103.307 Y102.599 E7.86627
G1 X103.337 Y102.369 E7.87397
G1 X103.337 Y101.840 E7.89151
G1 X103.299 Y101.527 E7.90194
G1 X103.225 Y101.167 E7.91413
G1 X103.127 Y100.909 E7.92328
G1 X102.991 Y100.641 E7.93325
G1 F1200
G1 X102.861 Y100.463 E7.93991
G1 F1200
G1 X102.708 Y100.276 E7.94666
G1 F1200
G1 X102.580 Y100.144 E7.95126
G1 F1200
G1 X102.103 Y99.780 E7.96454
G1 F1200
G1 X101.703 Y99.479 E7.97416
M106 S244.8
G1 Z1.200 F7800.000
G1 X97.320 Y99.576 F7800.000
G1 F900
G1 X99.892 Y99.576 E8.04353
G1 X100.328 Y99.600 E8.05533
G1 X100.705 Y99.664 E8.06563
G1 X101.119 Y99.793 E8.07732
G1 X101.452 Y99.957 E8.08735
G1 X101.759 Y100.172 E8.09746
G1 X102.051 Y100.461 E8.10853
G1 X102.314 Y100.857 E8.12137
G1 X102.489 Y101.307 E8.13440
G1 X102.575 Y101.786 E8.14750
G1 X102.581 Y102.315 E8.16177
G1 X102.490 Y102.863 E8.17677
G1 X102.329 Y103.286 E8.18899
G1 X102.042 Y103.722 E8.20307
G1 X101.736 Y104.016 E8.21451
G1 X101.413 Y104.235 E8.22503
G1 X100.979 Y104.425 E8.23783
G1 X100.562 Y104.532 E8.24944
G1 X100.007 Y104.587 E8.26449
G1 X97.320 Y104.590 E8.33696
G1 X97.320 Y99.651 E8.47019
G1 X97.881 Y100.137 F7800.000
G1 F900
G1 X99.877 Y100.137 E8.51132
G1 X100.266 Y100.158 E8.51936
G1 X100.574 Y100.211 E8.52580
G1 X100.910 Y100.315 E8.53306
G1 X101.166 Y100.441 E8.53893
G1 X101.399 Y100.604 E8.54478
G1 X101.616 Y100.819 E8.55107
G1 X101.814 Y101.117 E8.55845
G1 X101.947 Y101.460 E8.56603
G1 X102.015 Y101.839 E8.57397
G1 X102.020 Y102.272 E8.58289
G1 X101.947 Y102.716 E8.59217
G1 X101.827 Y103.029 E8.59909
G1 X101.608 Y103.362 E8.60728
G1 X101.382 Y103.579 E8.61374
G1 X101.141 Y103.742 E8.61974
G1 X100.796 Y103.894 E8.62752
G1 X100.464 Y103.978 E8.63457
G1 X99.979 Y104.027 E8.64463
G1 X97.881 Y104.029 E8.68786
G1 X97.881 Y100.212 E8.76653
G1 X97.799 Y99.644 F7800.000
G1 X97.320 Y98.997 F7800.000
G1 F900
G1 X100.644 Y99.013 E8.85619
G1 X101.180 Y99.060 E8.87070
G1 X101.742 Y99.159 E8.88611
G1 X102.317 Y99.331 E8.90229
G1 X102.804 Y99.562 E8.91682
G1 X103.222 Y99.861 E8.93070
G1 X103.492 Y100.132 E8.94102
G1 X103.685 Y100.395 E8.94982
G1 X103.778 Y100.557 E8.95485
G1 X103.967 Y101.029 E8.96856
G1 X104.053 Y101.409 E8.97909
G1 X104.085 Y101.645 E8.98552
G1 X104.106 Y102.093 E8.99760
G1 X104.095 Y102.404 E9.00601
G1 X104.056 Y102.746 E9.01528
G1 X104.001 Y103.015 E9.02270
G1 X103.929 Y103.258 E9.02952
G1 X103.800 Y103.568 E9.03858
G1 X103.586 Y103.916 E9.04961
G1 X103.351 Y104.186 E9.05927
G1 X103.200 Y104.325 E9.06481
G1 X102.751 Y104.632 E9.07949
G1 X102.337 Y104.825 E9.09179
G1 X101.860 Y104.978 E9.10530
G1 X101.448 Y105.065 E9.11669
G1 X100.793 Y105.144 E9.13448
G1 X100.182 Y105.164 E9.15095
G1 X95.893 Y105.164 E9.26666
G1 X95.893 Y94.836 E9.54529
G1 X97.320 Y94.836 E9.58379
G1 X97.320 Y98.922 E9.69402
G1 X97.881 Y98.439 F7800.000
G1 F900
G1 X100.670 Y98.452 E9.75150
G1 X101.253 Y98.503 E9.76356
G1 X101.861 Y98.610 E9.77630
G1 X102.515 Y98.807 E9.79037
G1 X103.084 Y99.076 E9.80333
G1 X103.309 Y99.219 E9.80883
G1 X103.594 Y99.440 E9.81627
G1 X103.919 Y99.767 E9.82577
G1 X104.155 Y100.088 E9.83400
G1 X104.278 Y100.302 E9.83908
G1 X104.424 Y100.630 E9.84647
G1 X104.508 Y100.876 E9.85183
G1 X104.606 Y101.310 E9.86100
G1 X104.644 Y101.595 E9.86693
G1 X104.667 Y102.089 E9.87712
G1 X104.654 Y102.446 E9.88449
G1 X104.610 Y102.833 E9.89251
G1 X104.546 Y103.151 E9.89918
G1 X104.458 Y103.446 E9.90554
G1 X104.304 Y103.814 E9.91376
G1 X104.162 Y104.068 E9.91976
G1 X104.031 Y104.259 E9.92455
G1 X103.754 Y104.578 E9.93324
G1 X103.347 Y104.919 E9.94418
G1 X103.020 Y105.125 E9.95216
G1 X102.542 Y105.348 E9.96302
G1 X102.004 Y105.520 E9.97465
G1 X101.547 Y105.617 E9.98429
G1 X101.197 Y105.669 E9.99158
G1 X100.828 Y105.703 E9.99922
G1 X100.192 Y105.725 E10.01234
G1 X95.333 Y105.725 E10.11249
G1 X95.333 Y94.275 E10.34848
G1 X97.881 Y94.275 E10.40100
G1 X97.881 Y98.364 E10.48528
G1 X97.970 Y98.931 F7800.000
G1 X96.607 Y95.153 F7800.000
G1 F1200
G1 X96.607 Y104.847 E10.78437
G1 X102.066 Y104.578 F7800.000
G1 F1200
G1 X102.773 Y103.818 E10.81078
G1 F1200
G1 X102.967 Y103.567 E10.81966
G1 F1200
G1 X103.135 Y103.243 E10.83094
G1 F1200
G1 X103.224 Y103.007 E10.83933
G1 X103.333 Y102.411 E10.85940
G1 X103.332 Y101.750 E10.88130
G1 X103.207 Y101.105 E10.90308
G1 X103.016 Y100.691 E10.91821
G1 F1200
G1 X102.902 Y100.508 E10.92487
G1 F1200
G1 X102.418 Y99.969 E10.94537
G1 F1200
G1 X102.054 Y99.578 E10.95878
G1 Z1.500 F7800.000
G1 X97.320 Y99.576 F7800.000
G1 F900
G1 X99.891 Y99.576 E11.02812
G1 X100.310 Y99.598 E11.03945
G1 X100.711 Y99.665 E11.05042
G1 X101.112 Y99.790 E11.06174
G1 X101.463 Y99.964 E11.07231
G1 X101.748 Y100.163 E11.08169
G1 X102.061 Y100.472 E11.09356
G1 X102.319 Y100.866 E11.10626
G1 X102.489 Y101.307 E11.11901
G1 X102.574 Y101.776 E11.13185
G1 X102.582 Y102.303 E11.14609
G1 X102.491 Y102.862 E11.16136
G1 X102.338 Y103.269 E11.17308
G1 X102.050 Y103.714 E11.18737
G1 X101.720 Y104.030 E11.19972
G1 X101.419 Y104.231 E11.20947
G1 X100.992 Y104.421 E11.22207
G1 X100.542 Y104.535 E11.23461
G1 X100.035 Y104.587 E11.24837
G1 X97.320 Y104.590 E11.32159
G1 X97.320 Y99.651 E11.45482
G1 X97.881 Y100.137 F7800.000
G1 F900
G1 X99.876 Y100.137 E11.49594
G1 X100.249 Y100.156 E11.50364
G1 X100.581 Y100.212 E11.51057
G1 X100.903 Y100.313 E11.51754
G1 X101.177 Y100.448 E11.52383
G1 X101.388 Y100.595 E11.52913
G1 X101.624 Y100.829 E11.53598
G1 X101.817 Y101.124 E11.54324
G1 X101.947 Y101.460 E11.55067
G1 X102.014 Y101.831 E11.55844
G1 X102.021 Y102.262 E11.56733
G1 X101.946 Y102.716 E11.57682
G1 X101.834 Y103.015 E11.58340
G1 X101.615 Y103.354 E11.59171
G1 X101.367 Y103.591 E11.59878
G1 X101.147 Y103.739 E11.60425
G1 X100.808 Y103.890 E11.61189
G1 X100.444 Y103.982 E11.61963
G1 X100.006 Y104.026 E11.62871
G1 X97.881 Y104.029 E11.67251
G1 X97.881 Y100.212 E11.75118
G1 X97.798 Y99.644 F7800.000
G1 X97.320 Y98.997 F7800.000
G1 F900
G1 X100.624 Y99.012 E11.84030
G1 X101.184 Y99.060 E11.85547
G1 X101.721 Y99.154 E11.87016
G1 X102.307 Y99.328 E11.88666
G1 X102.794 Y99.557 E11.90117
G1 X103.118 Y99.775 E11.91172
G1 X103.481 Y100.118 E11.92517
G1 X103.769 Y100.540 E11.93896
G1 X103.967 Y101.027 E11.95316
G1 X104.083 Y101.629 E11.96970
G1 X104.106 Y102.094 E11.98225
G1 X104.097 Y102.383 E11.99005
G1 X104.051 Y102.775 E12.00070
G1 X103.999 Y103.024 E12.00754
G1 X103.932 Y103.250 E12.01391
G1 X103.798 Y103.570 E12.02328
G1 X103.585 Y103.917 E12.03426
G1 X103.338 Y104.200 E12.04439
G1 X103.205 Y104.322 E12.04927
G1 X103.055 Y104.439 E12.05439
G1 X102.732 Y104.642 E12.06469
G1 X102.337 Y104.825 E12.07644
G1 X101.882 Y104.972 E12.08934
G1 X101.402 Y105.074 E12.10258
G1 X100.818 Y105.142 E12.11842
G1 X100.182 Y105.164 E12.13560
G1 X95.893 Y105.164 E12.25129
G1 X95.893 Y94.836 E12.52993
G1 X97.320 Y94.836 E12.56842
G1 X97.320 Y98.922 E12.67867
G1 X97.881 Y98.439 F7800.000
G1 F900
G1 X100.650 Y98.451 E12.73573
G1 X101.257 Y98.504 E12.74829
G1 X101.839 Y98.605 E12.76048
G1 X102.172 Y98.691 E12.76756
G1 X102.506 Y98.803 E12.77481
G1 X102.796 Y98.926 E12.78131
G1 X103.081 Y99.074 E12.78793
G1 X103.462 Y99.331 E12.79740
G1 X103.768 Y99.602 E12.80582
G1 X103.915 Y99.761 E12.81028
G1 X104.162 Y100.099 E12.81892
G1 X104.270 Y100.285 E12.82336
G1 X104.436 Y100.661 E12.83183
G1 X104.508 Y100.878 E12.83653
G1 X104.609 Y101.328 E12.84605
G1 X104.642 Y101.579 E12.85125
G1 X104.667 Y102.090 E12.86179
G1 X104.656 Y102.425 E12.86870
G1 X104.605 Y102.865 E12.87784
G1 X104.461 Y103.438 E12.89001
G1 X104.304 Y103.816 E12.89845
G1 X104.171 Y104.054 E12.90407
G1 X104.029 Y104.261 E12.90924
G1 X103.739 Y104.592 E12.91831
G1 X103.378 Y104.898 E12.92807
G1 X103.001 Y105.136 E12.93726
G1 X102.541 Y105.349 E12.94770
G1 X102.026 Y105.515 E12.95885
G1 X101.499 Y105.626 E12.96995
G1 X101.185 Y105.671 E12.97650
G1 X100.854 Y105.702 E12.98333
G1 X100.192 Y105.725 E12.99700
G1 X95.333 Y105.725 E13.09715
G1 X95.333 Y94.275 E13.33314
G1 X97.881 Y94.275 E13.38566
G1 X97.881 Y98.364 E13.46994
G1 X97.971 Y98.931 F7800.000
G1 X96.607 Y95.153 F7800.000
G1 F1200
G1 X96.607 Y104.847 E13.76904
G1 X102.081 Y104.574 F7800.000
G1 F1200
G1 X102.776 Y103.815 E13.79645
G1 F1200
G1 X102.980 Y103.547 E13.80645
G1 F1200
G1 X103.074 Y103.376 E13.81270
G1 F1200
G1 X103.226 Y102.998 E13.82686
G1 X103.340 Y102.327 E13.85056
G1 X103.328 Y101.697 E13.87248
G1 X103.240 Y101.229 E13.88909
G1 F1200
G1 X103.111 Y100.874 E13.90129
G1 X103.018 Y100.694 E13.90783
G1 F1200
G1 X102.913 Y100.518 E13.91384
G1 F1200
G1 X102.123 Y99.601 E13.94651
G1 Z1.800 F7800.000
G1 X97.320 Y99.576 F7800.000
G1 F900
G1 X99.891 Y99.576 E14.01585
G1 X100.310 Y99.598 E14.02718
G1 X100.711 Y99.665 E14.03815
G1 X101.112 Y99.790 E14.04947
G1 X101.463 Y99.964 E14.06004
G1 X101.748 Y100.163 E14.06942
G1 X102.061 Y100.472 E14.08129
G1 X102.319 Y100.866 E14.09399
G1 X102.489 Y101.307 E14.10674
G1 X102.574 Y101.776 E14.11958
G1 X102.582 Y102.303 E14.13382
G1 X102.491 Y102.862 E14.14909
G1 X102.338 Y103.269 E14.16081
G1 X102.050 Y103.714 E14.17510
G1 X101.720 Y104.030 E14.18745
G1 X101.419 Y104.231 E14.19720
G1 X100.992 Y104.421 E14.20980
G1 X100.542 Y104.535 E14.22234
G1 X100.035 Y104.587 E14.23609
G1 X97.320 Y104.590 E14.30931
G1 X97.320 Y99.651 E14.44255
G1 X97.881 Y100.137 F7800.000
G1 F900
G1 X99.876 Y100.137 E14.48367
G1 X100.249 Y100.156 E14.49137
G1 X100.581 Y100.212 E14.49830
G1 X100.903 Y100.313 E14.50526
G1 X101.177 Y100.448 E14.51156
G1 X101.388 Y100.595 E14.51686
G1 X101.624 Y100.829 E14.52371
G1 X101.817 Y101.124 E14.53097
G1 X101.947 Y101.460 E14.53839
G1 X102.014 Y101.831 E14.54616
G1 X102.021 Y102.262 E14.55506
G1 X101.946 Y102.716 E14.56455
G1 X101.834 Y103.015 E14.57112
G1 X101.615 Y103.354 E14.57944
G1 X101.367 Y103.591 E14.58651
G1 X101.147 Y103.739 E14.59197
G1 X100.808 Y103.890 E14.59962
G1 X100.444 Y103.982 E14.60736
G1 X100.006 Y104.026 E14.61643
G1 X97.881 Y104.029 E14.66023
G1 X97.881 Y100.212 E14.73890
G1 X97.798 Y99.644 F7800.000
G1 X97.320 Y98.997 F7800.000
G1 F900
G1 X100.624 Y99.012 E14.82803
G1 X101.184 Y99.060 E14.84320
G1 X101.721 Y99.154 E14.85789
G1 X102.307 Y99.328 E14.87439
G1 X102.794 Y99.557 E14.88890
G1 X103.118 Y99.775 E14.89945
G1 X103.481 Y100.118 E14.91290
G1 X103.769 Y100.540 E14.92669
G1 X103.967 Y101.027 E14.94089
G1 X104.083 Y101.629 E14.95742
G1 X104.106 Y102.094 E14.96998
G1 X104.097 Y102.383 E14.97778
G1 X104.051 Y102.775 E14.98843
G1 X103.999 Y103.024 E14.99527
G1 X103.932 Y103.250 E15.00163
G1 X103.798 Y103.570 E15.01101
G1 X103.585 Y103.917 E15.02199
G1 X103.338 Y104.200 E15.03212
G1 X103.205 Y104.322 E15.03700
G1 X103.055 Y104.439 E15.04211
G1 X102.732 Y104.642 E15.05242
G1 X102.337 Y104.825 E15.06417
G1 X101.882 Y104.972 E15.07707
G1 X101.402 Y105.074 E15.09030
G1 X100.818 Y105.142 E15.10615
G1 X100.182 Y105.164 E15.12333
G1 X95.893 Y105.164 E15.23902
G1 X95.893 Y94.836 E15.51765
G1 X97.320 Y94.836 E15.55615
G1 X97.320 Y98.922 E15.66639
G1 X97.881 Y98.439 F7800.000
G1 F900
G1 X100.650 Y98.451 E15.72346
G1 X101.257 Y98.504 E15.73601
G1 X101.839 Y98.605 E15.74820
G1 X102.172 Y98.691 E15.75528
G1 X102.506 Y98.803 E15.76254
G1 X102.796 Y98.926 E15.76904
G1 X103.081 Y99.074 E15.77566
G1 X103.462 Y99.331 E15.78513
G1 X103.768 Y99.602 E15.79355
G1 X103.915 Y99.761 E15.79801
G1 X104.162 Y100.099 E15.80664
G1 X104.270 Y100.285 E15.81108
G1 X104.436 Y100.661 E15.81955
G1 X104.508 Y100.878 E15.82426
G1 X104.609 Y101.328 E15.83377
G1 X104.642 Y101.579 E15.83898
G1 X104.667 Y102.090 E15.84952
G1 X104.656 Y102.425 E15.85643
G1 X104.605 Y102.865 E15.86556
G1 X104.461 Y103.438 E15.87774
G1 X104.304 Y103.816 E15.88618
G1 X104.171 Y104.054 E15.89180
G1 X104.029 Y104.261 E15.89696
G1 X103.739 Y104.592 E15.90604
G1 X103.378 Y104.898 E15.91579
G1 X103.001 Y105.136 E15.92499
G1 X102.541 Y105.349 E15.93542
G1 X102.026 Y105.515 E15.94658
G1 X101.499 Y105.626 E15.95768
G1 X101.185 Y105.671 E15.96422
G1 X100.854 Y105.702 E15.97106
G1 X100.192 Y105.725 E15.98473
G1 X95.333 Y105.725 E16.08488
G1 X95.333 Y94.275 E16.32086
G1 X97.881 Y94.275 E16.37338
G1 X97.881 Y98.364 E16.45766
G1 X97.971 Y98.931 F7800.000
G1 X96.607 Y95.153 F7800.000
G1 F1200
G1 X96.607 Y104.847 E16.75676
G1 X102.081 Y104.574 F7800.000
G1 F1200
G1 X102.776 Y103.815 E16.78418
G1 F1200
G1 X102.980 Y103.547 E16.79417
G1 F1200
G1 X103.074 Y103.376 E16.80042
G1 F1200
G1 X103.226 Y102.998 E16.81458
G1 X103.340 Y102.327 E16.83829
G1 X103.328 Y101.697 E16.86021
G1 X103.240 Y101.229 E16.87682
G1 F1200
G1 X103.111 Y100.874 E16.88901
G1 X103.018 Y100.694 E16.89556
G1 F1200
G1 X102.913 Y100.518 E16.90157
G1 F1200
G1 X102.123 Y99.601 E16.93423
G1 Z2.100 F7800.000
G1 X97.320 Y99.576 F7800.000
G1 F900
G1 X99.892 Y99.576 E17.00361
G1 X100.328 Y99.600 E17.01540
G1 X100.705 Y99.664 E17.02570
G1 X101.119 Y99.793 E17.03739
G1 X101.452 Y99.957 E17.04742
G1 X101.759 Y100.172 E17.05753
G1 X102.051 Y100.461 E17.06860
G1 X102.314 Y100.857 E17.08144
G1 X102.489 Y101.307 E17.09447
G1 X102.575 Y101.786 E17.10758
G1 X102.581 Y102.315 E17.12185
G1 X102.490 Y102.863 E17.13685
G1 X102.329 Y103.286 E17.14906
G1 X102.042 Y103.722 E17.16314
G1 X101.736 Y104.016 E17.17459
G1 X101.413 Y104.235 E17.18510
G1 X100.979 Y104.425 E17.19790
G1 X100.562 Y104.532 E17.20951
G1 X100.007 Y104.587 E17.22456
G1 X97.320 Y104.590 E17.29703
G1 X97.320 Y99.651 E17.43026
G1 X97.881 Y100.137 F7800.000
G1 F900
G1 X99.877 Y100.137 E17.47139
G1 X100.266 Y100.158 E17.47943
G1 X100.574 Y100.211 E17.48587
G1 X100.910 Y100.315 E17.49313
G1 X101.166 Y100.441 E17.49901
G1 X101.399 Y100.604 E17.50485
G1 X101.616 Y100.819 E17.51115
G1 X101.814 Y101.117 E17.51853
G1 X101.947 Y101.460 E17.52611
G1 X102.015 Y101.839 E17.53404
G1 X102.020 Y102.272 E17.54297
G1 X101.947 Y102.716 E17.55224
G1 X101.827 Y103.029 E17.55916
G1 X101.608 Y103.362 E17.56736
G1 X101.382 Y103.579 E17.57382
G1 X101.141 Y103.742 E17.57982
G1 X100.796 Y103.894 E17.58759
G1 X100.464 Y103.978 E17.59465
G1 X99.979 Y104.027 E17.60470
G1 X97.881 Y104.029 E17.64794
G1 X97.881 Y100.212 E17.72660
G1 X97.799 Y99.644 F7800.000
G1 X97.320 Y98.997 F7800.000
G1 F900
G1 X100.644 Y99.013 E17.81626
G1 X101.180 Y99.060 E17.83077
G1 X101.742 Y99.159 E17.84618
G1 X102.317 Y99.331 E17.86236
G1 X102.804 Y99.562 E17.87690
G1 X103.222 Y99.861 E17.89077
G1 X103.492 Y100.132 E17.90109
G1 X103.685 Y100.395 E17.90989
G1 X103.778 Y100.557 E17.91492
G1 X103.967 Y101.029 E17.92864
G1 X104.053 Y101.409 E17.93916
G1 X104.085 Y101.645 E17.94559
G1 X104.106 Y102.093 E17.95767
G1 X104.095 Y102.404 E17.96609
G1 X104.056 Y102.746 E17.97536
G1 X104.001 Y103.015 E17.98277
G1 X103.929 Y103.258 E17.98960
G1 X103.800 Y103.568 E17.99866
G1 X103.586 Y103.916 E18.00968
G1 X103.351 Y104.186 E18.01935
G1 X103.200 Y104.325 E18.02489
G1 X102.751 Y104.632 E18.03956
G1 X102.337 Y104.825 E18.05187
G1 X101.860 Y104.978 E18.06537
G1 X101.448 Y105.065 E18.07676
G1 X100.793 Y105.144 E18.09455
G1 X100.182 Y105.164 E18.11103
G1 X95.893 Y105.164 E18.22673
G1 X95.893 Y94.836 E18.50536
G1 X97.320 Y94.836 E18.54386
G1 X97.320 Y98.922 E18.65410
G1 X97.881 Y98.439 F7800.000
G1 F900
G1 X100.670 Y98.452 E18.71158
G1 X101.253 Y98.503 E18.72364
G1 X101.861 Y98.610 E18.73638
G1 X102.515 Y98.807 E18.75044
G1 X103.084 Y99.076 E18.76341
G1 X103.309 Y99.219 E18.76890
G1 X103.594 Y99.440 E18.77635
G1 X103.919 Y99.767 E18.78584
G1 X104.155 Y100.088 E18.79407
G1 X104.278 Y100.302 E18.79916
G1 X104.424 Y100.630 E18.80654
G1 X104.508 Y100.876 E18.81191
G1 X104.606 Y101.310 E18.82108
G1 X104.644 Y101.595 E18.82700
G1 X104.667 Y102.089 E18.83719
G1 X104.654 Y102.446 E18.84456
G1 X104.610 Y102.833 E18.85259
G1 X104.546 Y103.151 E18.85926
G1 X104.458 Y103.446 E18.86561
G1 X104.304 Y103.814 E18.87383
G1 X104.162 Y104.068 E18.87983
G1 X104.031 Y104.259 E18.88462
G1 X103.754 Y104.578 E18.89331
G1 X103.347 Y104.919 E18.90425
G1 X103.020 Y105.125 E18.91223
G1 X102.542 Y105.348 E18.92309
G1 X102.004 Y105.520 E18.93473
G1 X101.547 Y105.617 E18.94437
G1 X101.197 Y105.669 E18.95165
G1 X100.828 Y105.703 E18.95929
G1 X100.192 Y105.725 E18.97241
G1 X95.333 Y105.725 E19.07256
G1 X95.333 Y94.275 E19.30855
G1 X97.881 Y94.275 E19.36107
G1 X97.881 Y98.364 E19.44535
G1 X97.970 Y98.931 F7800.000
G1 X96.607 Y95.153 F7800.000
G1 F1200
G1 X96.607 Y104.847 E19.74445
G1 X102.066 Y104.578 F7800.000
G1 F1200
G1 X102.773 Y103.818 E19.77086
G1 F1200
G1 X102.967 Y103.567 E19.77973
G1 F1200
G1 X103.135 Y103.243 E19.79101
G1 F1200
G1 X103.224 Y103.007 E19.79940
G1 X103.333 Y102.411 E19.81948
G1 X103.332 Y101.750 E19.84138
G1 X103.207 Y101.105 E19.86316
G1 X103.016 Y100.691 E19.87828
G1 F1200
G1 X102.902 Y100.508 E19.88494
G1 F1200
G1 X102.418 Y99.969 E19.90544
G1 F1200
G1 X102.054 Y99.578 E19.91885
G1 Z2.400 F7800.000
G1 X97.320 Y99.576 F7800.000
G1 F900
G1 X99.893 Y99.576 E19.98826
G1 X100.347 Y99.603 E20.00051
G1 X100.699 Y99.663 E20.01015
G1 X101.125 Y99.796 E20.02221
G1 X101.441 Y99.951 E20.03169
G1 X101.781 Y100.189 E20.04289
G1 X102.113 Y100.539 E20.05590
G1 X102.341 Y100.917 E20.06782
G1 X102.493 Y101.318 E20.07938
G1 X102.581 Y101.864 E20.09429
G1 X102.580 Y102.331 E20.10688
G1 X102.490 Y102.864 E20.12148
G1 X102.320 Y103.304 E20.13420
G1 X102.028 Y103.741 E20.14838
G1 X101.664 Y104.073 E20.16166
G1 X101.332 Y104.277 E20.17217
G1 X100.887 Y104.455 E20.18511
G1 X100.460 Y104.548 E20.19689
G1 X99.899 Y104.589 E20.21207
G1 X97.320 Y104.589 E20.28163
G1 X97.320 Y99.651 E20.41484
G1 X97.881 Y100.137 F7800.000
G1 F900
G1 X99.877 Y100.137 E20.45598
G1 X100.283 Y100.160 E20.46436
G1 X100.567 Y100.209 E20.47031
G1 X100.917 Y100.318 E20.47787
G1 X101.155 Y100.435 E20.48333
G1 X101.413 Y100.615 E20.48981
G1 X101.664 Y100.881 E20.49734
G1 X101.835 Y101.163 E20.50414
G1 X101.948 Y101.464 E20.51076
G1 X102.020 Y101.908 E20.52004
G1 X102.019 Y102.283 E20.52777
G1 X101.947 Y102.715 E20.53680
G1 X101.820 Y103.044 E20.54405
G1 X101.599 Y103.372 E20.55221
G1 X101.325 Y103.623 E20.55988
G1 X101.080 Y103.774 E20.56582
G1 X100.722 Y103.917 E20.57376
G1 X100.379 Y103.992 E20.58098
G1 X99.879 Y104.029 E20.59132
G1 X97.881 Y104.029 E20.63250
G1 X97.881 Y100.212 E20.71116
G1 X97.802 Y99.643 F7800.000
G1 X97.320 Y98.997 F7800.000
G1 F900
G1 X100.664 Y99.014 E20.80136
G1 X101.175 Y99.059 E20.81521
G1 X101.747 Y99.161 E20.83089
G1 X102.338 Y99.340 E20.84754
G1 X102.802 Y99.561 E20.86140
G1 X103.206 Y99.846 E20.87474
G1 X103.494 Y100.135 E20.88575
G1 X103.678 Y100.385 E20.89412
G1 X103.787 Y100.574 E20.90000
G1 X103.967 Y101.029 E20.91321
G1 X104.050 Y101.392 E20.92324
G1 X104.086 Y101.661 E20.93058
G1 X104.106 Y102.091 E20.94218
G1 X104.093 Y102.426 E20.95123
G1 X104.003 Y103.007 E20.96708
G1 X103.927 Y103.266 E20.97437
G1 X103.801 Y103.565 E20.98312
G1 X103.587 Y103.915 E20.99418
G1 X103.365 Y104.173 E21.00338
G1 X103.195 Y104.329 E21.00960
G1 X102.770 Y104.622 E21.02353
G1 X102.338 Y104.825 E21.03639
G1 X101.851 Y104.979 E21.05019
G1 X101.129 Y105.112 E21.06997
G1 X100.767 Y105.145 E21.07978
G1 X100.183 Y105.164 E21.09555
G1 X95.893 Y105.164 E21.21127
G1 X95.893 Y94.836 E21.48990
G1 X97.320 Y94.836 E21.52840
G1 X97.320 Y98.922 E21.63863
G1 X97.881 Y98.439 F7800.000
G1 F900
G1 X100.690 Y98.453 E21.69652
G1 X101.249 Y98.503 E21.70809
G1 X101.878 Y98.615 E21.72126
G1 X102.529 Y98.812 E21.73527
G1 X103.083 Y99.075 E21.74791
G1 X103.334 Y99.237 E21.75408
G1 X103.577 Y99.425 E21.76041
G1 X103.921 Y99.769 E21.77042
G1 X104.149 Y100.078 E21.77834
G1 X104.287 Y100.319 E21.78408
G1 X104.412 Y100.598 E21.79037
G1 X104.507 Y100.875 E21.79640
G1 X104.603 Y101.292 E21.80523
G1 X104.645 Y101.612 E21.81187
G1 X104.667 Y102.089 E21.82171
G1 X104.653 Y102.468 E21.82954
G1 X104.615 Y102.802 E21.83646
G1 X104.548 Y103.140 E21.84357
G1 X104.455 Y103.454 E21.85032
G1 X104.305 Y103.812 E21.85832
G1 X104.153 Y104.082 E21.86471
G1 X104.032 Y104.258 E21.86911
G1 X103.768 Y104.563 E21.87742
G1 X103.555 Y104.760 E21.88339
G1 X103.316 Y104.941 E21.88957
G1 X103.039 Y105.115 E21.89632
G1 X102.543 Y105.348 E21.90761
G1 X101.987 Y105.524 E21.91964
G1 X101.206 Y105.668 E21.93600
G1 X100.802 Y105.705 E21.94436
G1 X100.192 Y105.725 E21.95694
G1 X95.333 Y105.725 E22.05709
G1 X95.333 Y94.275 E22.29308
G1 X97.881 Y94.275 E22.34560
G1 X97.881 Y98.364 E22.42988
G1 X97.970 Y98.931 F7800.000
G1 X96.607 Y95.153 F7800.000
G1 F1200
G1 X96.607 Y104.847 E22.72898
G1 X102.051 Y104.582 F7800.000
G1 F1200
G1 X102.770 Y103.821 E22.75527
G1 F1200
G1 X102.954 Y103.587 E22.76363
G1 F1200
G1 X103.137 Y103.239 E22.77581
G1 F1200
G1 X103.222 Y103.015 E22.78378
G1 X103.307 Y102.599 E22.79783
G1 X103.337 Y102.369 E22.80554
G1 X103.337 Y101.840 E22.82307
G1 X103.299 Y101.527 E22.83351
G1 X103.225 Y101.167 E22.84569
G1 X103.127 Y100.909 E22.85484
G1 X102.991 Y100.641 E22.86481
G1 F1200
G1 X102.861 Y100.463 E22.87148
G1 F1200
G1 X102.708 Y100.276 E22.87822
G1 F1200
G1 X102.580 Y100.144 E22.88283
G1 F1200
G1 X102.103 Y99.780 E22.89611
G1 F1200
G1 X101.703 Y99.479 E22.90572
G1 Z2.700 F7800.000
G1 X97.320 Y99.576 F7800.000
G1 F900
G1 X99.898 Y99.576 E22.97525
G1 X100.433 Y99.613 E22.98974
G1 X100.847 Y99.702 E23.00115
G1 X101.142 Y99.804 E23.00958
G1 X101.433 Y99.946 E23.01831
G1 X101.828 Y100.228 E23.03140
G1 X102.163 Y100.605 E23.04499
G1 X102.402 Y101.048 E23.05858
G1 X102.537 Y101.519 E23.07179
G1 X102.580 Y101.863 E23.08116
G1 X102.579 Y102.340 E23.09402
G1 X102.489 Y102.870 E23.10853
G1 X102.289 Y103.364 E23.12290
G1 X102.012 Y103.757 E23.13587
G1 X101.650 Y104.083 E23.14902
G1 X101.348 Y104.269 E23.15859
G1 X100.899 Y104.451 E23.17166
G1 X100.439 Y104.552 E23.18434
G1 X99.898 Y104.589 E23.19899
G1 X97.320 Y104.589 E23.26852
G1 X97.320 Y99.651 E23.40173
G1 X97.881 Y100.137 F7800.000
G1 F900
G1 X99.878 Y100.137 E23.44289
G1 X100.354 Y100.170 E23.45273
G1 X100.696 Y100.243 E23.45993
G1 X100.928 Y100.323 E23.46498
G1 X101.145 Y100.429 E23.46997
G1 X101.451 Y100.647 E23.47770
G1 X101.700 Y100.928 E23.48546
G1 X101.880 Y101.261 E23.49324
G1 X101.986 Y101.631 E23.50118
G1 X102.019 Y101.898 E23.50672
G1 X102.019 Y102.292 E23.51485
G1 X101.947 Y102.716 E23.52371
G1 X101.794 Y103.094 E23.53211
G1 X101.590 Y103.383 E23.53939
G1 X101.312 Y103.632 E23.54709
G1 X101.093 Y103.767 E23.55239
G1 X100.732 Y103.914 E23.56042
G1 X100.360 Y103.995 E23.56828
G1 X99.878 Y104.029 E23.57823
G1 X97.881 Y104.029 E23.61939
G1 X97.881 Y100.212 E23.69806
G1 X97.802 Y99.643 F7800.000
G1 X97.320 Y98.996 F7800.000
G1 F900
G1 X100.683 Y99.015 E23.78878
G1 X101.171 Y99.059 E23.80198
G1 X101.768 Y99.166 E23.81835
G1 X102.328 Y99.337 E23.83415
G1 X102.811 Y99.567 E23.84859
G1 X103.189 Y99.832 E23.86103
G1 X103.497 Y100.138 E23.87274
G1 X103.672 Y100.375 E23.88068
G1 X103.796 Y100.591 E23.88741
G1 X103.967 Y101.029 E23.90011
G1 X104.047 Y101.374 E23.90966
G1 X104.088 Y101.677 E23.91790
G1 X104.106 Y102.089 E23.92903
G1 X104.092 Y102.448 E23.93870
G1 X104.005 Y102.998 E23.95373
G1 X103.924 Y103.274 E23.96149
G1 X103.808 Y103.549 E23.96955
G1 X103.573 Y103.931 E23.98165
G1 X103.378 Y104.159 E23.98975
G1 X103.190 Y104.333 E23.99666
G1 X102.789 Y104.611 E24.00982
G1 X102.339 Y104.824 E24.02325
G1 X101.830 Y104.985 E24.03764
G1 X101.143 Y105.110 E24.05648
G1 X100.742 Y105.147 E24.06735
G1 X100.184 Y105.164 E24.08242
G1 X95.893 Y105.164 E24.19815
G1 X95.893 Y94.836 E24.47679
G1 X97.320 Y94.836 E24.51528
G1 X97.320 Y98.921 E24.62550
G1 X97.881 Y98.439 F7800.000
G1 F900
G1 X100.710 Y98.455 E24.68381
G1 X101.245 Y98.502 E24.69488
G1 X101.900 Y98.620 E24.70860
G1 X102.532 Y98.814 E24.72222
G1 X103.085 Y99.077 E24.73485
G1 X103.560 Y99.410 E24.74681
G1 X103.922 Y99.771 E24.75734
G1 X104.142 Y100.068 E24.76495
G1 X104.296 Y100.337 E24.77134
G1 X104.507 Y100.873 E24.78322
G1 X104.600 Y101.274 E24.79170
G1 X104.647 Y101.628 E24.79906
G1 X104.667 Y102.088 E24.80855
G1 X104.620 Y102.770 E24.82264
G1 X104.551 Y103.130 E24.83020
G1 X104.453 Y103.463 E24.83734
G1 X104.308 Y103.806 E24.84502
G1 X104.028 Y104.262 E24.85606
G1 X103.783 Y104.549 E24.86383
G1 X103.549 Y104.765 E24.87038
G1 X103.285 Y104.962 E24.87717
G1 X103.058 Y105.104 E24.88270
G1 X102.544 Y105.347 E24.89442
G1 X101.965 Y105.530 E24.90693
G1 X101.219 Y105.666 E24.92255
G1 X100.776 Y105.707 E24.93173
G1 X100.192 Y105.725 E24.94377
G1 X95.333 Y105.725 E25.04392
G1 X95.333 Y94.275 E25.27991
G1 X97.881 Y94.275 E25.33243
G1 X97.881 Y98.364 E25.41670
G1 X97.970 Y98.931 F7800.000
G1 X96.607 Y95.153 F7800.000
G1 F1200
G1 X96.607 Y104.847 E25.71580
G1 X102.027 Y104.589 F7800.000
G1 F1200
G1 X102.768 Y103.827 E25.74208
G1 F1200
G1 X102.953 Y103.583 E25.75046
G1 F1200
G1 X103.073 Y103.361 E25.75820
G1 F1200
G1 X103.218 Y103.029 E25.77016
G1 X103.312 Y102.572 E25.78558
G1 X103.336 Y102.390 E25.79162
G1 X103.337 Y101.844 E25.80965
G1 X103.300 Y101.510 E25.82074
G1 X103.242 Y101.240 E25.82987
G1 X103.089 Y100.815 E25.84477
G1 X102.962 Y100.601 E25.85301
G1 F1200
G1 X102.824 Y100.416 E25.85993
G1 F1200
G1 X102.708 Y100.268 E25.86508
G1 F1200
G1 X101.851 Y99.523 E25.89301
G1 Z3.000 F7800.000
G1 E23.89301 F2400.00000
G92 E0
G1 X97.320 Y99.576 F7800.000
G1 E2.00000 F2400.00000
G1 F900
G1 X99.896 Y99.576 E2.06949
G1 X100.418 Y99.610 E2.08358
G1 X100.882 Y99.712 E2.09640
G1 X101.153 Y99.809 E2.10418
G1 X101.420 Y99.938 E2.11216
G1 X101.821 Y100.222 E2.12543
G1 X102.163 Y100.605 E2.13929
G1 X102.406 Y101.058 E2.15314
G1 X102.540 Y101.535 E2.16653
G1 X102.579 Y101.848 E2.17501
G1 X102.579 Y102.350 E2.18855
G1 X102.490 Y102.868 E2.20274
G1 X102.295 Y103.353 E2.21684
G1 X102.004 Y103.767 E2.23049
G1 X101.635 Y104.093 E2.24378
G1 X101.363 Y104.261 E2.25241
G1 X100.911 Y104.448 E2.26560
G1 X100.419 Y104.555 E2.27919
G1 X99.896 Y104.589 E2.29331
G1 X97.320 Y104.589 E2.36280
G1 X97.320 Y99.651 E2.49601
G1 X97.881 Y100.137 F7800.000
G1 F900
G1 X99.878 Y100.137 E2.53717
G1 X100.339 Y100.167 E2.54669
G1 X100.727 Y100.252 E2.55488
G1 X100.936 Y100.326 E2.55945
G1 X101.134 Y100.422 E2.56398
G1 X101.445 Y100.643 E2.57185
G1 X101.701 Y100.929 E2.57975
G1 X101.883 Y101.268 E2.58769
G1 X101.989 Y101.646 E2.59578
G1 X102.018 Y101.882 E2.60069
G1 X102.018 Y102.302 E2.60933
G1 X101.947 Y102.714 E2.61796
G1 X101.799 Y103.084 E2.62616
G1 X101.584 Y103.391 E2.63389
G1 X101.300 Y103.641 E2.64169
G1 X101.107 Y103.760 E2.64636
G1 X100.743 Y103.911 E2.65448
G1 X100.341 Y103.998 E2.66297
G1 X99.878 Y104.029 E2.67252
G1 X97.881 Y104.029 E2.71368
G1 X97.881 Y100.212 E2.79234
G1 X97.802 Y99.643 F7800.000
G1 X97.320 Y98.996 F7800.000
G1 F900
G1 X100.703 Y99.016 E2.88359
G1 X101.166 Y99.058 E2.89614
G1 X101.789 Y99.170 E2.91321
G1 X102.336 Y99.340 E2.92867
G1 X102.797 Y99.561 E2.94246
G1 X103.188 Y99.833 E2.95530
G1 X103.499 Y100.141 E2.96712
G1 X103.665 Y100.364 E2.97463
G1 X103.794 Y100.589 E2.98162
G1 X103.970 Y101.042 E2.99473
G1 X104.044 Y101.357 E3.00345
G1 X104.089 Y101.693 E3.01260
G1 X104.106 Y102.088 E3.02326
G1 X104.091 Y102.451 E3.03305
G1 X104.004 Y103.000 E3.04805
G1 X103.921 Y103.282 E3.05598
G1 X103.809 Y103.548 E3.06376
G1 X103.573 Y103.931 E3.07591
G1 X103.391 Y104.146 E3.08351
G1 X103.194 Y104.329 E3.09075
G1 X102.789 Y104.610 E3.10406
G1 X102.340 Y104.824 E3.11748
G1 X101.809 Y104.990 E3.13247
G1 X101.157 Y105.109 E3.15036
G1 X100.716 Y105.149 E3.16230
G1 X100.184 Y105.164 E3.17665
G1 X95.893 Y105.164 E3.29241
G1 X95.893 Y94.836 E3.57104
G1 X97.320 Y94.836 E3.60954
G1 X97.320 Y98.921 E3.71975
G1 X97.881 Y98.439 F7800.000
G1 F900
G1 X100.730 Y98.456 E3.77847
G1 X101.241 Y98.502 E3.78905
G1 X101.922 Y98.625 E3.80331
G1 X102.541 Y98.817 E3.81667
G1 X103.080 Y99.074 E3.82898
G1 X103.548 Y99.400 E3.84074
G1 X103.924 Y99.773 E3.85164
G1 X104.135 Y100.057 E3.85894
G1 X104.301 Y100.347 E3.86583
G1 X104.507 Y100.876 E3.87751
G1 X104.596 Y101.256 E3.88556
G1 X104.648 Y101.644 E3.89364
G1 X104.667 Y102.088 E3.90279
G1 X104.650 Y102.506 E3.91142
G1 X104.552 Y103.124 E3.92430
G1 X104.450 Y103.471 E3.93177
G1 X104.309 Y103.805 E3.93924
G1 X104.029 Y104.261 E3.95028
G1 X103.797 Y104.534 E3.95766
G1 X103.546 Y104.767 E3.96470
G1 X103.071 Y105.096 E3.97663
G1 X102.545 Y105.347 E3.98863
G1 X101.944 Y105.535 E4.00162
G1 X101.233 Y105.665 E4.01651
G1 X100.750 Y105.709 E4.02651
G1 X100.193 Y105.725 E4.03800
G1 X95.333 Y105.725 E4.13816
G1 X95.333 Y94.275 E4.37415
G1 X97.881 Y94.275 E4.42667
G1 X97.881 Y98.364 E4.51094
G1 X97.970 Y98.931 F7800.000
G1 E2.51094 F2400.00000
G92 E0
G1 X96.607 Y95.153 F7800.000
G1 E2.00000 F2400.00000
G1 F1200
G1 X96.607 Y104.847 E2.29910
G1 E0.29910 F2400.00000
G92 E0
G1 X101.588 Y104.707 F7800.000
G1 E2.00000 F2400.00000
G1 F1200
G1 X101.997 Y104.436 E2.00807
G1 F1200
G1 X102.455 Y104.129 E2.01869
G1 F1200
G1 X102.588 Y104.003 E2.02279
G1 F1200
G1 X102.779 Y103.813 E2.02990
G1 F1200
G1 X102.919 Y103.642 E2.03618
G1 F1200
G1 X103.073 Y103.361 E2.04639
G1 F1200
G1 X103.218 Y103.030 E2.05879
G1 X103.336 Y102.376 E2.08162
G1 X103.336 Y101.828 E2.10043
G1 X103.298 Y101.494 E2.11197
G1 X103.248 Y101.267 E2.11996
G1 X103.128 Y100.907 E2.13298
G1 F1200
G1 X103.062 Y100.759 E2.13805
G1 X102.965 Y100.605 E2.14375
G1 F1200
G1 X102.254 Y99.653 E2.17717
G1 E0.17717 F2400.00000
G92 E0
M107
; Filament-specific end gcode 
;END gcode for filament

M104 S0 ; turn off temperature
G28 X0  ; home X axis
M84     ; disable motors

M140 S0 ; set bed temperature
; filament used = 30.0mm (0.2cm3)
; total filament cost = 0.0

; avoid_crossing_perimeters = 0
; bed_shape = 0x0,200x0,200x200,0x200
; bed_temperature = 0
; before_layer_gcode = 
; between_objects_gcode = 
; bridge_acceleration = 0
; bridge_fan_speed = 100
; brim_connections_width = 0
; brim_width = 0
; complete_objects = 0
; cooling = 1
; default_acceleration = 0
; disable_fan_first_layers = 3
; duplicate_distance = 6
; end_filament_gcode = "; Filament-specific end gcode \n;END gcode for filament\n"
; end_gcode = M104 S0 ; turn off temperature\nG28 X0  ; home X axis\nM84     ; disable motors\n
; extruder_clearance_height = 20
; extruder_clearance_radius = 20
; extruder_offset = 0x0
; extrusion_axis = E
; extrusion_multiplier = 1
; fan_always_on = 0
; fan_below_layer_time = 60
; filament_colour = #FFFFFF
; filament_cost = 0
; filament_density = 0
; filament_diameter = 3
; filament_max_volumetric_speed = 0
; filament_notes = ""
; first_layer_acceleration = 0
; first_layer_bed_temperature = 0
; first_layer_extrusion_width = 200%
; first_layer_speed = 30
; first_layer_temperature = 205
; gcode_arcs = 0
; gcode_comments = 0
; gcode_flavor = reprap
; has_heatbed = 1
; infill_acceleration = 0
; infill_first = 0
; interior_brim_width = 0
; layer_gcode = 
; max_fan_speed = 100
; max_layer_height = 0.3
; max_print_speed = 80
; max_volumetric_speed = 0
; min_fan_speed = 35
; min_layer_height = 0.15
; min_print_speed = 10
; min_skirt_length = 0
; notes = 
; nozzle_diameter = 0.5
; only_retract_when_crossing_perimeters = 1
; ooze_prevention = 0
; output_filename_format = [input_filename_base].gcode
; perimeter_acceleration = 0
; post_process = 
; pressure_advance = 0
; printer_notes = 
; resolution = 0
; retract_before_travel = 2
; retract_layer_change = 0
; retract_length = 2
; retract_length_toolchange = 10
; retract_lift = 0
; retract_lift_above = 0
; retract_lift_below = 0
; retract_restart_extra = 0
; retract_restart_extra_toolchange = 0
; retract_speed = 40
; skirt_distance = 6
; skirt_height = 1
; skirts = 0
; slowdown_below_layer_time = 5
; spiral_vase = 0
; standby_temperature_delta = -5
; start_filament_gcode = "; Filament gcode\n"
; start_gcode = G28 ; home all axes\nG1 Z5 F5000 ; lift nozzle\n
; temperature = 200
; threads = 8
; toolchange_gcode = 
; travel_speed = 130
; use_firmware_retraction = 0
; use_relative_e_distances = 0
; use_set_and_wait_bed = 0
; use_set_and_wait_extruder = 0
; use_volumetric_e = 0
; vibration_limit = 0
; wipe = 0
; z_offset = 0
; z_steps_per_mm = 0
; adaptive_slicing = 0
; adaptive_slicing_quality = 75%
; dont_support_bridges = 1
; extrusion_width = 0
; first_layer_height = 0.3
; infill_only_where_needed = 0
; interface_shells = 0
; layer_height = 0.3
; match_horizontal_surfaces = 0
; raft_layers = 0
; regions_overlap = 0
; seam_position = aligned
; sequential_print_priority = 0
; support_material = 0
; support_material_angle = 0
; support_material_buildplate_only = 0
; support_material_contact_distance = 0.2
; support_material_enforce_layers = 0
; support_material_extruder = 1
; support_material_extrusion_width = 0
; support_material_interface_extruder = 1
; support_material_interface_extrusion_width = 0
; support_material_interface_layers = 3
; support_material_interface_spacing = 0
; support_material_interface_speed = 100%
; support_material_max_layers = 0
; support_material_pattern = pillars
; support_material_spacing = 2.5
; support_material_speed = 60
; support_material_threshold = 60%
; xy_size_compensation = 0
; bottom_infill_pattern = rectilinear
; bottom_solid_layers = 3
; bridge_flow_ratio = 1
; bridge_speed = 60
; external_perimeter_extrusion_width = 0
; external_perimeter_speed = 50%
; external_perimeters_first = 0
; extra_perimeters = 1
; fill_angle = 45
; fill_density = 60%
; fill_gaps = 1
; fill_pattern = stars
; gap_fill_speed = 20
; infill_every_layers = 1
; infill_extruder = 1
; infill_extrusion_width = 0
; infill_overlap = 55%
; infill_speed = 80
; overhangs = 1
; perimeter_extruder = 1
; perimeter_extrusion_width = 0
; perimeter_speed = 60
; perimeters = 3
; small_perimeter_speed = 15
; solid_infill_below_area = 70
; solid_infill_every_layers = 0
; solid_infill_extruder = 1
; solid_infill_extrusion_width = 0
; solid_infill_speed = 20
; thin_walls = 1
; top_infill_extrusion_width = 0
; top_infill_pattern = rectilinear
; top_solid_infill_speed = 15
; top_solid_layers = 3
