; generated by Slic3r 1.3.0 on 2020-10-05 at 16:43:13

; external perimeters extrusion width = 0.55mm (4.37mm^3/s)
; perimeters extrusion width = 0.70mm (11.44mm^3/s)
; infill extrusion width = 0.63mm (13.45mm^3/s)
; solid infill extrusion width = 0.70mm (3.81mm^3/s)
; top infill extrusion width = 0.70mm (2.86mm^3/s)

M107
M104 S205 ; set temperature
G28 ; home all axes
G1 Z5 F5000 ; lift nozzle

; Filament gcode

M109 S205 ; set temperature and wait for it to be reached
G21 ; set units to millimeters
G90 ; use absolute coordinates
M82 ; use absolute distances for extrusion
G92 E0
G1 Z0.300 F7800.000
G1 E-2.00000 F2400.00000
G92 E0
G1 X95.125 Y94.493 F7800.000
G1 E2.00000 F2400.00000
G1 F1738.85
G1 X95.551 Y94.067 E2.01371
G1 X96.365 Y94.067 E2.03219
G1 X95.125 Y95.307 E2.07205
G1 X95.125 Y96.120 E2.09054
G1 X97.178 Y94.067 E2.15654
G1 X97.991 Y94.067 E2.17502
G1 X95.125 Y96.933 E2.26717
G1 X95.125 Y97.747 E2.28566
G1 X98.089 Y94.783 E2.38095
G1 X98.089 Y95.596 E2.39943
G1 X95.125 Y98.560 E2.49472
G1 X95.125 Y99.373 E2.51321
G1 X98.089 Y96.409 E2.60850
G1 X98.089 Y97.222 E2.62699
G1 X95.125 Y100.186 E2.72227
G1 X95.125 Y101.000 E2.74076
G1 X98.089 Y98.036 E2.83605
G1 X98.089 Y98.232 E2.84052
G1 X98.703 Y98.234 E2.85449
G1 X95.125 Y101.813 E2.96953
G1 X95.125 Y102.626 E2.98802
G1 X99.512 Y98.239 E3.12905
G1 X100.320 Y98.244 E3.14743
G1 X98.220 Y100.345 E3.21497
G1 X99.033 Y100.345 E3.23345
G1 X101.114 Y98.263 E3.30037
G1 X101.454 Y98.294 E3.30812
G1 X101.829 Y98.362 E3.31679
G1 X99.841 Y100.350 E3.38072
G1 X100.127 Y100.375 E3.38724
G1 X100.538 Y100.467 E3.39681
G1 X102.480 Y98.524 E3.45926
G1 X102.752 Y98.609 E3.46574
G1 X103.061 Y98.756 E3.47352
G1 X101.084 Y100.733 E3.53708
G1 X101.363 Y100.980 E3.54556
G1 X101.490 Y101.140 E3.55020
G1 X103.570 Y99.061 E3.61706
G1 X103.758 Y99.191 E3.62226
G1 X104.006 Y99.437 E3.63021
G1 X101.744 Y101.699 E3.70292
G1 X101.808 Y102.074 E3.71156
G1 X101.812 Y102.445 E3.72000
G1 X104.368 Y99.889 E3.80217
G1 X104.509 Y100.137 E3.80865
G1 X104.629 Y100.442 E3.81610
G1 X99.137 Y105.933 E3.99262
G1 X99.951 Y105.933 E4.01111
G1 X104.809 Y101.075 E4.16728
G1 X104.856 Y101.431 E4.17545
G1 X104.873 Y101.824 E4.18439
G1 X100.805 Y105.892 E4.31517
G1 X101.019 Y105.872 E4.32005
G1 X101.784 Y105.726 E4.33776
G1 X104.790 Y102.720 E4.43441
G1 X104.760 Y102.909 E4.43876
G1 X104.658 Y103.256 E4.44698
G1 X104.517 Y103.589 E4.45520
G1 X104.237 Y104.045 E4.46736
G1 X104.007 Y104.316 E4.47545
G1 X103.578 Y104.745 E4.48925
G1 E2.48925 F2400.00000
G92 E0
G1 X98.324 Y105.933 F7800.000
G1 E2.00000 F2400.00000
G1 F1738.85
G1 X100.457 Y103.800 E2.06857
G1 X99.623 Y103.821 E2.08753
G1 X97.511 Y105.933 E2.15544
G1 X96.698 Y105.933 E2.17392
G1 X98.810 Y103.821 E2.24183
G1 X98.089 Y103.821 E2.25822
G1 X98.089 Y103.728 E2.26031
G1 X95.884 Y105.933 E2.33118
G1 X95.125 Y105.933 E2.34845
G1 X95.125 Y105.879 E2.34967
G1 X98.089 Y102.915 E2.44496
G1 X98.089 Y102.102 E2.46345
G1 X95.125 Y105.066 E2.55874
G1 X95.125 Y104.253 E2.57722
G1 X98.089 Y101.289 E2.67251
G1 X98.089 Y100.475 E2.69100
G1 X95.125 Y103.439 E2.78629
G1 X95.125 Y102.626 E2.80477
M104 S200 ; set temperature
G1 Z0.600 F7800.000
G1 X95.105 Y105.487 F7800.000
G1 F1772.12
G1 X95.571 Y105.952 E2.82043
G1 X96.378 Y105.952 E2.83963
G1 X95.105 Y104.680 E2.88245
G1 X95.105 Y103.873 E2.90165
G1 X97.185 Y105.952 E2.97161
G1 X97.992 Y105.952 E2.99082
G1 X95.105 Y103.066 E3.08794
G1 X95.105 Y102.259 E3.10714
G1 X98.799 Y105.952 E3.23141
G1 X99.606 Y105.952 E3.25061
G1 X95.105 Y101.452 E3.40204
G1 X95.105 Y100.645 E3.42124
G1 X98.108 Y103.648 E3.52228
G1 X98.108 Y102.841 E3.54149
G1 X95.105 Y99.838 E3.64253
G1 X95.105 Y99.031 E3.66173
G1 X98.108 Y102.034 E3.76278
G1 X98.108 Y101.227 E3.78198
G1 X95.105 Y98.224 E3.88302
G1 X95.105 Y97.417 E3.90222
G1 X98.108 Y100.420 E4.00327
G1 X98.108 Y100.364 E4.00460
G1 X98.859 Y100.364 E4.02247
G1 X95.105 Y96.610 E4.14878
G1 X95.105 Y95.803 E4.16798
G1 X99.666 Y100.364 E4.32145
G1 X100.496 Y100.386 E4.34119
G1 X98.324 Y98.215 E4.41425
G1 X99.136 Y98.220 E4.43356
G1 X104.659 Y103.743 E4.61942
G1 X104.778 Y103.362 E4.62893
G1 X104.827 Y103.104 E4.63516
G1 X99.947 Y98.224 E4.79937
G1 X100.477 Y98.227 E4.81197
G1 X100.785 Y98.255 E4.81932
G1 X104.893 Y102.363 E4.95755
G1 X104.874 Y101.861 E4.96950
G1 X104.822 Y101.485 E4.97854
G1 X101.757 Y98.420 E5.08166
G1 X102.297 Y98.586 E5.09511
G1 X102.850 Y98.849 E5.10968
G1 X103.124 Y99.027 E5.11745
G1 X103.324 Y99.182 E5.12347
G1 X104.151 Y100.007 E5.15128
G1 E3.15128 F2400.00000
G92 E0
G1 X104.387 Y104.278 F7800.000
G1 E2.00000 F2400.00000
G1 F1772.12
G1 X101.792 Y101.683 E2.08733
G1 X101.791 Y102.055 E2.09618
G1 X101.731 Y102.429 E2.10519
G1 X104.043 Y104.741 E2.18298
G1 X103.779 Y104.993 E2.19167
G1 X103.613 Y105.117 E2.19661
G1 X101.485 Y102.990 E2.26818
G1 X101.333 Y103.182 E2.27401
G1 X101.087 Y103.399 E2.28181
G1 X103.106 Y105.418 E2.34974
G1 X102.775 Y105.575 E2.35847
G1 X102.533 Y105.651 E2.36451
G1 X100.551 Y103.669 E2.43120
G1 X100.275 Y103.742 E2.43799
G1 X99.868 Y103.794 E2.44774
G1 X101.888 Y105.814 E2.51570
G1 X101.451 Y105.894 E2.52627
G1 X101.185 Y105.918 E2.53262
G1 X99.068 Y103.801 E2.60385
G1 X98.261 Y103.801 E2.62305
G1 X100.413 Y105.952 E2.69543
G1 X99.606 Y105.952 E2.71463
G1 E0.71463 F2400.00000
G92 E0
G1 X95.105 Y95.803 F7800.000
G1 E2.00000 F2400.00000
G1 F1772.12
G1 X95.105 Y94.996 E2.01920
G1 X98.108 Y97.999 E2.12025
G1 X98.108 Y97.192 E2.13945
G1 X95.105 Y94.189 E2.24049
G1 X95.105 Y94.048 E2.24386
G1 X95.771 Y94.048 E2.25969
G1 X98.108 Y96.385 E2.33835
G1 X98.108 Y95.578 E2.35755
G1 X96.578 Y94.048 E2.40906
G1 X97.385 Y94.048 E2.42826
G1 X98.108 Y94.771 E2.45261
G1 Z0.900 F7800.000
G1 X95.106 Y94.513 F7800.000
G1 F1761.14
G1 X95.571 Y94.048 E2.46826
G1 X96.384 Y94.048 E2.48761
G1 X95.105 Y95.326 E2.53064
G1 X95.105 Y96.140 E2.54999
G1 X97.197 Y94.048 E2.62038
G1 X98.011 Y94.048 E2.63973
G1 X95.105 Y96.953 E2.73749
G1 X95.105 Y97.766 E2.75684
G1 X98.108 Y94.763 E2.85788
G1 X98.108 Y95.577 E2.87723
G1 X95.105 Y98.579 E2.97828
G1 X95.105 Y99.393 E2.99763
G1 X98.108 Y96.390 E3.09867
G1 X98.108 Y97.203 E3.11802
G1 X95.105 Y100.206 E3.21907
G1 X95.105 Y101.019 E3.23842
G1 X98.108 Y98.016 E3.33947
G1 X98.108 Y98.212 E3.34411
G1 X98.723 Y98.215 E3.35874
G1 X95.105 Y101.833 E3.48047
G1 X95.105 Y102.646 E3.49983
G1 X99.532 Y98.219 E3.64878
G1 X100.341 Y98.223 E3.66804
G1 X98.200 Y100.364 E3.74008
G1 X99.014 Y100.364 E3.75943
G1 X101.133 Y98.245 E3.83074
G1 X101.481 Y98.275 E3.83905
G1 X101.850 Y98.341 E3.84797
G1 X99.822 Y100.369 E3.91622
G1 X100.142 Y100.400 E3.92387
G1 X100.518 Y100.486 E3.93306
G1 X102.499 Y98.505 E3.99971
G1 X102.760 Y98.584 E4.00619
G1 X103.087 Y98.731 E4.01472
G1 X101.065 Y100.753 E4.08277
G1 X101.334 Y100.989 E4.09130
G1 X101.471 Y101.160 E4.09650
G1 X103.597 Y99.034 E4.16803
G1 X103.806 Y99.196 E4.17434
G1 X104.027 Y99.417 E4.18177
G1 X101.725 Y101.719 E4.25922
G1 X101.787 Y102.078 E4.26788
G1 X101.793 Y102.464 E4.27708
G1 X104.389 Y99.869 E4.36441
G1 X104.515 Y100.089 E4.37045
G1 X104.656 Y100.415 E4.37890
G1 X99.118 Y105.952 E4.56522
G1 X99.932 Y105.952 E4.58457
G1 X104.829 Y101.055 E4.74936
G1 X104.872 Y101.379 E4.75714
G1 X104.892 Y101.805 E4.76729
G1 X100.785 Y105.913 E4.90549
G1 X100.973 Y105.895 E4.90998
G1 X101.761 Y105.749 E4.92907
G1 X104.818 Y102.693 E5.03191
G1 X104.683 Y103.220 E5.04486
G1 X104.533 Y103.577 E5.05408
G1 X104.381 Y103.847 E5.06145
G1 X104.260 Y104.022 E5.06651
G1 X103.998 Y104.326 E5.07606
G1 X103.530 Y104.794 E5.09181
G1 X98.305 Y105.952 F7800.000
G1 F1761.14
G1 X100.476 Y103.781 E5.16486
G1 X99.643 Y103.801 E5.18470
G1 X97.492 Y105.952 E5.25708
G1 X96.679 Y105.952 E5.27643
G1 X98.830 Y103.801 E5.34882
G1 X98.108 Y103.801 E5.36598
G1 X98.108 Y103.709 E5.36817
G1 X95.865 Y105.952 E5.44364
G1 X95.105 Y105.952 E5.46172
G1 X95.105 Y105.899 E5.46299
G1 X98.108 Y102.896 E5.56404
G1 X98.108 Y102.083 E5.58339
G1 X95.105 Y105.086 E5.68443
G1 X95.105 Y104.272 E5.70378
G1 X98.108 Y101.269 E5.80483
G1 X98.108 Y100.456 E5.82418
G1 X95.105 Y103.459 E5.92522
G1 X95.105 Y102.646 E5.94457
M106 S255
G1 Z1.200 F7800.000
G1 X95.105 Y105.487 F7800.000
G1 F1767.21
G1 X95.571 Y105.952 E5.96023
G1 X96.378 Y105.952 E5.97944
G1 X95.105 Y104.680 E6.02226
G1 X95.105 Y103.873 E6.04146
G1 X97.185 Y105.952 E6.11144
G1 X97.992 Y105.952 E6.13065
G1 X95.105 Y103.065 E6.22779
G1 X95.105 Y102.258 E6.24699
G1 X98.799 Y105.952 E6.37129
G1 X99.607 Y105.952 E6.39049
G1 X95.105 Y101.451 E6.54195
G1 X95.105 Y100.644 E6.56116
G1 X98.108 Y103.647 E6.66220
G1 X98.108 Y102.840 E6.68141
G1 X95.105 Y99.837 E6.78245
G1 X95.105 Y99.030 E6.80166
G1 X98.108 Y102.033 E6.90270
G1 X98.108 Y101.225 E6.92191
G1 X95.105 Y98.223 E7.02295
G1 X95.105 Y97.415 E7.04216
G1 X98.108 Y100.418 E7.14320
G1 X98.108 Y100.364 E7.14449
G1 X98.861 Y100.364 E7.16241
G1 X95.105 Y96.608 E7.28879
G1 X95.105 Y95.801 E7.30799
G1 X99.668 Y100.364 E7.46154
G1 X100.497 Y100.386 E7.48127
G1 X98.326 Y98.215 E7.55432
G1 X99.137 Y98.219 E7.57361
G1 X104.659 Y103.741 E7.75942
G1 X104.773 Y103.382 E7.76838
G1 X104.830 Y103.104 E7.77513
G1 X99.948 Y98.223 E7.93937
G1 X100.437 Y98.225 E7.95099
G1 X100.789 Y98.256 E7.95939
G1 X104.893 Y102.360 E8.09750
G1 X104.871 Y101.828 E8.11016
G1 X104.818 Y101.478 E8.11858
G1 X101.756 Y98.416 E8.22162
G1 X102.281 Y98.579 E8.23469
G1 X102.848 Y98.848 E8.24964
G1 X103.073 Y98.991 E8.25597
G1 X103.358 Y99.211 E8.26453
G1 X103.841 Y99.694 E8.28079
G1 E6.28079 F2400.00000
G92 E0
G1 X104.397 Y104.285 F7800.000
G1 E2.00000 F2400.00000
G1 F1767.21
G1 X101.792 Y101.681 E2.08764
G1 X101.792 Y102.037 E2.09611
G1 X101.732 Y102.427 E2.10552
G1 X104.042 Y104.738 E2.18327
G1 X103.790 Y104.984 E2.19164
G1 X103.615 Y105.118 E2.19690
G1 X101.486 Y102.989 E2.26854
G1 X101.319 Y103.198 E2.27491
G1 X101.088 Y103.398 E2.28218
G1 X103.109 Y105.419 E2.35016
G1 X102.773 Y105.576 E2.35899
G1 X102.535 Y105.652 E2.36494
G1 X100.552 Y103.669 E2.43165
G1 X100.234 Y103.751 E2.43946
G1 X99.869 Y103.794 E2.44820
G1 X101.896 Y105.820 E2.51638
G1 X101.187 Y105.919 E2.53340
G1 X99.070 Y103.801 E2.60466
G1 X98.263 Y103.801 E2.62386
G1 X100.414 Y105.952 E2.69624
G1 X99.607 Y105.952 E2.71545
G1 E0.71545 F2400.00000
G92 E0
G1 X95.105 Y95.801 F7800.000
G1 E2.00000 F2400.00000
G1 F1767.21
G1 X95.105 Y94.994 E2.01920
G1 X98.108 Y97.997 E2.12025
G1 X98.108 Y97.190 E2.13945
G1 X95.105 Y94.187 E2.24050
G1 X95.105 Y94.048 E2.24381
G1 X95.773 Y94.048 E2.25970
G1 X98.108 Y96.383 E2.33827
G1 X98.108 Y95.575 E2.35748
G1 X96.581 Y94.048 E2.40888
G1 X97.388 Y94.048 E2.42809
G1 X98.108 Y94.768 E2.45234
G1 Z1.500 F7800.000
G1 X95.106 Y94.513 F7800.000
G1 F1761.92
G1 X95.571 Y94.048 E2.46799
G1 X96.384 Y94.048 E2.48734
G1 X95.105 Y95.326 E2.53037
G1 X95.105 Y96.140 E2.54972
G1 X97.197 Y94.048 E2.62011
G1 X98.011 Y94.048 E2.63946
G1 X95.105 Y96.953 E2.73722
G1 X95.105 Y97.766 E2.75657
G1 X98.108 Y94.763 E2.85762
G1 X98.108 Y95.577 E2.87697
G1 X95.105 Y98.580 E2.97801
G1 X95.105 Y99.393 E2.99736
G1 X98.108 Y96.390 E3.09841
G1 X98.108 Y97.203 E3.11776
G1 X95.105 Y100.206 E3.21880
G1 X95.105 Y101.019 E3.23815
G1 X98.108 Y98.016 E3.33920
G1 X98.108 Y98.213 E3.34388
G1 X98.724 Y98.215 E3.35852
G1 X95.105 Y101.833 E3.48026
G1 X95.105 Y102.646 E3.49961
G1 X99.533 Y98.218 E3.64861
G1 X100.343 Y98.222 E3.66788
G1 X98.201 Y100.364 E3.73997
G1 X99.014 Y100.364 E3.75932
G1 X101.132 Y98.246 E3.83061
G1 X101.489 Y98.276 E3.83911
G1 X101.852 Y98.340 E3.84788
G1 X99.822 Y100.369 E3.91616
G1 X100.173 Y100.405 E3.92454
G1 X100.518 Y100.486 E3.93299
G1 X102.506 Y98.498 E3.99989
G1 X102.736 Y98.575 E4.00566
G1 X103.088 Y98.730 E4.01480
G1 X101.065 Y100.753 E4.08288
G1 X101.324 Y100.979 E4.09106
G1 X101.471 Y101.160 E4.09661
G1 X103.594 Y99.037 E4.16805
G1 X103.691 Y99.102 E4.17084
G1 X104.033 Y99.412 E4.18180
G1 X101.725 Y101.719 E4.25944
G1 X101.786 Y102.062 E4.26773
G1 X101.794 Y102.464 E4.27729
G1 X104.390 Y99.868 E4.36463
G1 X104.498 Y100.055 E4.36977
G1 X104.657 Y100.414 E4.37911
G1 X99.119 Y105.952 E4.56546
G1 X99.932 Y105.952 E4.58482
G1 X104.827 Y101.057 E4.74954
G1 X104.869 Y101.347 E4.75651
G1 X104.892 Y101.806 E4.76745
G1 X100.784 Y105.914 E4.90567
G1 X101.266 Y105.853 E4.91722
G1 X101.763 Y105.748 E4.92931
G1 X104.820 Y102.691 E5.03219
G1 X104.689 Y103.204 E5.04478
G1 X104.531 Y103.581 E5.05451
G1 X104.399 Y103.818 E5.06098
G1 X104.258 Y104.025 E5.06693
G1 X103.969 Y104.355 E5.07736
G1 X103.501 Y104.823 E5.09311
G1 X98.305 Y105.952 F7800.000
G1 F1761.92
G1 X100.476 Y103.781 E5.16615
G1 X99.643 Y103.801 E5.18598
G1 X97.492 Y105.952 E5.25836
G1 X96.679 Y105.952 E5.27771
G1 X98.830 Y103.801 E5.35010
G1 X98.108 Y103.801 E5.36727
G1 X98.108 Y103.710 E5.36945
G1 X95.866 Y105.952 E5.44491
G1 X95.105 Y105.952 E5.46300
G1 X95.105 Y105.899 E5.46427
G1 X98.108 Y102.896 E5.56531
G1 X98.108 Y102.083 E5.58466
G1 X95.105 Y105.086 E5.68571
G1 X95.105 Y104.273 E5.70506
G1 X98.108 Y101.270 E5.80610
G1 X98.108 Y100.456 E5.82545
G1 X95.105 Y103.459 E5.92650
G1 X95.105 Y102.646 E5.94585
G1 Z1.800 F7800.000
G1 X95.105 Y105.487 F7800.000
G1 F1769.26
G1 X95.571 Y105.952 E5.96151
G1 X96.379 Y105.952 E5.98073
G1 X95.105 Y104.679 E6.02357
G1 X95.105 Y103.871 E6.04279
G1 X97.186 Y105.952 E6.11281
G1 X97.994 Y105.952 E6.13203
G1 X95.105 Y103.064 E6.22924
G1 X95.105 Y102.256 E6.24846
G1 X98.802 Y105.952 E6.37284
G1 X99.610 Y105.952 E6.39206
G1 X95.105 Y101.448 E6.54363
G1 X95.105 Y100.640 E6.56285
G1 X98.108 Y103.643 E6.66389
G1 X98.108 Y102.835 E6.68311
G1 X95.105 Y99.832 E6.78416
G1 X95.105 Y99.025 E6.80338
G1 X98.108 Y102.028 E6.90442
G1 X98.108 Y101.220 E6.92364
G1 X95.105 Y98.217 E7.02469
G1 X95.105 Y97.409 E7.04391
G1 X98.108 Y100.412 E7.14495
G1 X98.108 Y100.364 E7.14609
G1 X98.868 Y100.364 E7.16417
G1 X95.105 Y96.601 E7.29079
G1 X95.105 Y95.793 E7.31001
G1 X99.676 Y100.364 E7.46381
G1 X100.267 Y100.368 E7.47787
G1 X100.507 Y100.387 E7.48360
G1 X98.335 Y98.215 E7.55670
G1 X99.146 Y98.218 E7.57601
G1 X104.662 Y103.734 E7.76161
G1 X104.771 Y103.392 E7.77015
G1 X104.832 Y103.097 E7.77732
G1 X99.957 Y98.222 E7.94136
G1 X100.417 Y98.224 E7.95229
G1 X100.800 Y98.257 E7.96145
G1 X104.893 Y102.350 E8.09918
G1 X104.869 Y101.812 E8.11201
G1 X104.814 Y101.463 E8.12040
G1 X101.771 Y98.421 E8.22279
G1 X102.271 Y98.575 E8.23524
G1 X102.561 Y98.698 E8.24274
G1 X102.846 Y98.846 E8.25037
G1 X103.226 Y99.102 E8.26128
G1 X103.530 Y99.372 E8.27095
G1 X103.999 Y99.840 E8.28670
G1 E6.28670 F2400.00000
G92 E0
G1 X104.401 Y104.281 F7800.000
G1 E2.00000 F2400.00000
G1 F1769.26
G1 X101.791 Y101.672 E2.08779
G1 X101.793 Y102.028 E2.09626
G1 X101.733 Y102.421 E2.10573
G1 X104.045 Y104.733 E2.18353
G1 X103.796 Y104.979 E2.19186
G1 X103.620 Y105.116 E2.19716
G1 X101.489 Y102.985 E2.26889
G1 X101.312 Y103.205 E2.27563
G1 X101.092 Y103.396 E2.28254
G1 X103.114 Y105.418 E2.35058
G1 X102.772 Y105.576 E2.35955
G1 X102.540 Y105.651 E2.36536
G1 X100.556 Y103.668 E2.43210
G1 X100.215 Y103.753 E2.44047
G1 X99.874 Y103.793 E2.44864
G1 X101.899 Y105.818 E2.51677
G1 X101.192 Y105.919 E2.53375
G1 X99.074 Y103.801 E2.60502
G1 X98.266 Y103.801 E2.62424
G1 X100.418 Y105.952 E2.69662
G1 X99.610 Y105.952 E2.71584
G1 E0.71584 F2400.00000
G92 E0
G1 X95.105 Y95.793 F7800.000
G1 E2.00000 F2400.00000
G1 F1769.26
G1 X95.105 Y94.986 E2.01922
G1 X98.108 Y97.989 E2.12027
G1 X98.108 Y97.181 E2.13949
G1 X95.105 Y94.178 E2.24053
G1 X95.105 Y94.048 E2.24363
G1 X95.783 Y94.048 E2.25975
G1 X98.108 Y96.373 E2.33800
G1 X98.108 Y95.565 E2.35722
G1 X96.591 Y94.048 E2.40828
G1 X97.399 Y94.048 E2.42750
G1 X98.108 Y94.757 E2.45138
G1 Z2.100 F7800.000
G1 X95.106 Y94.513 F7800.000
G1 F1761.52
G1 X95.571 Y94.048 E2.46704
G1 X96.384 Y94.048 E2.48639
G1 X95.105 Y95.326 E2.52941
G1 X95.105 Y96.140 E2.54876
G1 X97.197 Y94.048 E2.61916
G1 X98.011 Y94.048 E2.63851
G1 X95.105 Y96.953 E2.73627
G1 X95.105 Y97.766 E2.75562
G1 X98.108 Y94.763 E2.85666
G1 X98.108 Y95.577 E2.87601
G1 X95.105 Y98.580 E2.97706
G1 X95.105 Y99.393 E2.99641
G1 X98.108 Y96.390 E3.09745
G1 X98.108 Y97.203 E3.11680
G1 X95.105 Y100.206 E3.21785
G1 X95.105 Y101.019 E3.23720
G1 X98.108 Y98.016 E3.33824
G1 X98.108 Y98.212 E3.34289
G1 X98.723 Y98.215 E3.35752
G1 X95.105 Y101.833 E3.47927
G1 X95.105 Y102.646 E3.49862
G1 X99.533 Y98.219 E3.64759
G1 X100.342 Y98.222 E3.66685
G1 X98.200 Y100.364 E3.73892
G1 X99.014 Y100.364 E3.75827
G1 X101.133 Y98.245 E3.82957
G1 X101.485 Y98.276 E3.83798
G1 X101.851 Y98.340 E3.84683
G1 X99.822 Y100.369 E3.91509
G1 X100.157 Y100.403 E3.92310
G1 X100.518 Y100.486 E3.93192
G1 X102.506 Y98.498 E3.99881
G1 X102.746 Y98.579 E4.00483
G1 X103.087 Y98.730 E4.01372
G1 X101.065 Y100.753 E4.08178
G1 X101.329 Y100.984 E4.09014
G1 X101.471 Y101.160 E4.09551
G1 X103.596 Y99.035 E4.16701
G1 X103.824 Y99.211 E4.17385
G1 X104.028 Y99.417 E4.18075
G1 X101.725 Y101.719 E4.25822
G1 X101.787 Y102.070 E4.26670
G1 X101.794 Y102.464 E4.27607
G1 X104.389 Y99.868 E4.36341
G1 X104.506 Y100.072 E4.36900
G1 X104.657 Y100.414 E4.37789
G1 X99.119 Y105.952 E4.56425
G1 X99.932 Y105.952 E4.58360
G1 X104.828 Y101.056 E4.74835
G1 X104.871 Y101.363 E4.75573
G1 X104.892 Y101.806 E4.76627
G1 X100.784 Y105.913 E4.90448
G1 X101.313 Y105.845 E4.91718
G1 X101.761 Y105.750 E4.92807
G1 X104.819 Y102.692 E5.03095
G1 X104.686 Y103.212 E5.04372
G1 X104.532 Y103.579 E5.05319
G1 X104.390 Y103.833 E5.06011
G1 X104.259 Y104.024 E5.06562
G1 X103.984 Y104.340 E5.07561
G1 X103.516 Y104.808 E5.09135
G1 X98.305 Y105.952 F7800.000
G1 F1761.52
G1 X100.476 Y103.781 E5.16441
G1 X99.643 Y103.801 E5.18424
G1 X97.492 Y105.952 E5.25662
G1 X96.679 Y105.952 E5.27597
G1 X98.830 Y103.801 E5.34835
G1 X98.108 Y103.801 E5.36552
G1 X98.108 Y103.709 E5.36770
G1 X95.865 Y105.952 E5.44317
G1 X95.105 Y105.952 E5.46126
G1 X95.105 Y105.899 E5.46252
G1 X98.108 Y102.896 E5.56357
G1 X98.108 Y102.083 E5.58292
G1 X95.105 Y105.086 E5.68397
G1 X95.105 Y104.272 E5.70332
G1 X98.108 Y101.270 E5.80436
G1 X98.108 Y100.456 E5.82371
G1 X95.105 Y103.459 E5.92476
G1 X95.105 Y102.646 E5.94411
G1 Z2.400 F7800.000
G1 X95.105 Y105.487 F7800.000
G1 F1767.83
G1 X95.571 Y105.952 E5.95977
G1 X96.378 Y105.952 E5.97897
G1 X95.105 Y104.680 E6.02178
G1 X95.105 Y103.873 E6.04099
G1 X97.185 Y105.952 E6.11096
G1 X97.992 Y105.952 E6.13016
G1 X95.105 Y103.066 E6.22728
G1 X95.105 Y102.259 E6.24648
G1 X98.799 Y105.952 E6.37077
G1 X99.606 Y105.952 E6.38997
G1 X95.105 Y101.452 E6.54140
G1 X95.105 Y100.645 E6.56061
G1 X98.108 Y103.648 E6.66165
G1 X98.108 Y102.841 E6.68085
G1 X95.105 Y99.838 E6.78190
G1 X95.105 Y99.031 E6.80110
G1 X98.108 Y102.034 E6.90214
G1 X98.108 Y101.227 E6.92135
G1 X95.105 Y98.224 E7.02239
G1 X95.105 Y97.417 E7.04159
G1 X98.108 Y100.420 E7.14264
G1 X98.108 Y100.364 E7.14396
G1 X98.860 Y100.364 E7.16184
G1 X95.105 Y96.610 E7.28817
G1 X95.105 Y95.803 E7.30737
G1 X99.667 Y100.364 E7.46086
G1 X100.496 Y100.386 E7.48059
G1 X98.325 Y98.215 E7.55365
G1 X99.136 Y98.219 E7.57295
G1 X104.659 Y103.742 E7.75879
G1 X104.776 Y103.372 E7.76804
G1 X104.828 Y103.105 E7.77452
G1 X99.947 Y98.224 E7.93876
G1 X100.457 Y98.226 E7.95089
G1 X100.786 Y98.255 E7.95874
G1 X104.893 Y102.362 E8.09694
G1 X104.872 Y101.845 E8.10926
G1 X104.820 Y101.482 E8.11796
G1 X101.760 Y98.422 E8.22094
G1 X102.294 Y98.584 E8.23423
G1 X102.847 Y98.847 E8.24881
G1 X103.099 Y99.009 E8.25591
G1 X103.341 Y99.196 E8.26319
G1 X103.897 Y99.752 E8.28190
G1 E6.28190 F2400.00000
G92 E0
G1 X104.396 Y104.286 F7800.000
G1 E2.00000 F2400.00000
G1 F1767.83
G1 X101.792 Y101.683 E2.08759
G1 X101.792 Y102.053 E2.09639
G1 X101.731 Y102.429 E2.10546
G1 X104.042 Y104.740 E2.18322
G1 X103.784 Y104.988 E2.19174
G1 X103.613 Y105.118 E2.19685
G1 X101.486 Y102.990 E2.26845
G1 X101.326 Y103.190 E2.27454
G1 X101.088 Y103.399 E2.28208
G1 X103.107 Y105.419 E2.35004
G1 X102.774 Y105.575 E2.35880
G1 X102.533 Y105.652 E2.36480
G1 X100.551 Y103.670 E2.43150
G1 X100.255 Y103.746 E2.43878
G1 X99.868 Y103.794 E2.44805
G1 X101.887 Y105.813 E2.51598
G1 X101.438 Y105.895 E2.52685
G1 X101.186 Y105.918 E2.53287
G1 X99.069 Y103.801 E2.60411
G1 X98.262 Y103.801 E2.62331
G1 X100.413 Y105.952 E2.69569
G1 X99.606 Y105.952 E2.71490
G1 E0.71490 F2400.00000
G92 E0
G1 X95.105 Y95.803 F7800.000
G1 E2.00000 F2400.00000
G1 F1767.83
G1 X95.105 Y94.996 E2.01920
G1 X98.108 Y97.999 E2.12025
G1 X98.108 Y97.192 E2.13945
G1 X95.105 Y94.189 E2.24049
G1 X95.105 Y94.048 E2.24385
G1 X95.771 Y94.048 E2.25969
G1 X98.108 Y96.385 E2.33833
G1 X98.108 Y95.578 E2.35753
G1 X96.578 Y94.048 E2.40901
G1 X97.385 Y94.048 E2.42821
G1 X98.108 Y94.771 E2.45254
G1 Z2.700 F7800.000
G1 X95.106 Y94.513 F7800.000
G1 F1760.68
G1 X95.571 Y94.048 E2.46819
G1 X96.384 Y94.048 E2.48754
G1 X95.105 Y95.326 E2.53057
G1 X95.105 Y96.140 E2.54992
G1 X97.197 Y94.048 E2.62031
G1 X98.011 Y94.048 E2.63966
G1 X95.105 Y96.953 E2.73742
G1 X95.105 Y97.766 E2.75677
G1 X98.108 Y94.763 E2.85781
G1 X98.108 Y95.577 E2.87716
G1 X95.105 Y98.579 E2.97821
G1 X95.105 Y99.393 E2.99756
G1 X98.108 Y96.390 E3.09860
G1 X98.108 Y97.203 E3.11795
G1 X95.105 Y100.206 E3.21900
G1 X95.105 Y101.019 E3.23835
G1 X98.108 Y98.016 E3.33939
G1 X98.108 Y98.212 E3.34404
G1 X98.723 Y98.215 E3.35866
G1 X95.105 Y101.832 E3.48039
G1 X95.105 Y102.646 E3.49974
G1 X99.532 Y98.219 E3.64868
G1 X100.341 Y98.224 E3.66792
G1 X98.200 Y100.364 E3.73994
G1 X99.014 Y100.364 E3.75929
G1 X101.133 Y98.244 E3.83062
G1 X101.477 Y98.275 E3.83884
G1 X101.849 Y98.342 E3.84783
G1 X99.821 Y100.369 E3.91607
G1 X100.126 Y100.398 E3.92336
G1 X100.518 Y100.486 E3.93291
G1 X102.499 Y98.505 E3.99957
G1 X102.763 Y98.586 E4.00612
G1 X103.080 Y98.737 E4.01450
G1 X101.065 Y100.753 E4.08233
G1 X101.339 Y100.995 E4.09102
G1 X101.471 Y101.160 E4.09606
G1 X103.598 Y99.033 E4.16762
G1 X103.789 Y99.182 E4.17339
G1 X104.026 Y99.418 E4.18135
G1 X101.725 Y101.719 E4.25878
G1 X101.788 Y102.085 E4.26763
G1 X101.793 Y102.464 E4.27664
G1 X104.388 Y99.869 E4.36397
G1 X104.524 Y100.106 E4.37047
G1 X104.655 Y100.416 E4.37846
G1 X99.118 Y105.952 E4.56477
G1 X99.931 Y105.952 E4.58412
G1 X104.829 Y101.055 E4.74890
G1 X104.874 Y101.396 E4.75708
G1 X104.892 Y101.805 E4.76682
G1 X100.785 Y105.912 E4.90502
G1 X100.986 Y105.894 E4.90982
G1 X101.763 Y105.747 E4.92863
G1 X104.817 Y102.693 E5.03140
G1 X104.778 Y102.896 E5.03632
G1 X104.680 Y103.228 E5.04456
G1 X104.536 Y103.571 E5.05340
G1 X104.256 Y104.027 E5.06613
G1 X104.012 Y104.311 E5.07505
G1 X103.544 Y104.779 E5.09080
G1 X98.305 Y105.952 F7800.000
G1 F1760.68
G1 X100.476 Y103.781 E5.16386
G1 X99.643 Y103.801 E5.18370
G1 X97.492 Y105.952 E5.25609
G1 X96.678 Y105.952 E5.27544
G1 X98.830 Y103.801 E5.34782
G1 X98.108 Y103.801 E5.36498
G1 X98.108 Y103.709 E5.36717
G1 X95.865 Y105.952 E5.44265
G1 X95.105 Y105.952 E5.46073
G1 X95.105 Y105.899 E5.46200
G1 X98.108 Y102.896 E5.56305
G1 X98.108 Y102.083 E5.58240
G1 X95.105 Y105.086 E5.68344
G1 X95.105 Y104.272 E5.70279
G1 X98.108 Y101.269 E5.80384
G1 X98.108 Y100.456 E5.82319
G1 X95.105 Y103.459 E5.92423
G1 X95.105 Y102.646 E5.94358
G1 Z3.000 F7800.000
G1 E3.94358 F2400.00000
G92 E0
G1 X95.105 Y105.487 F7800.000
G1 E2.00000 F2400.00000
G1 F1772.14
G1 X95.571 Y105.952 E2.01566
G1 X96.378 Y105.952 E2.03486
G1 X95.105 Y104.680 E2.07767
G1 X95.105 Y103.873 E2.09687
G1 X97.185 Y105.952 E2.16684
G1 X97.992 Y105.952 E2.18604
G1 X95.105 Y103.066 E2.28316
G1 X95.105 Y102.259 E2.30236
G1 X98.799 Y105.952 E2.42663
G1 X99.606 Y105.952 E2.44583
G1 X95.105 Y101.452 E2.59726
G1 X95.105 Y100.645 E2.61646
G1 X98.108 Y103.648 E2.71750
G1 X98.108 Y102.841 E2.73670
G1 X95.105 Y99.838 E2.83775
G1 X95.105 Y99.031 E2.85695
G1 X98.108 Y102.034 E2.95799
G1 X98.108 Y101.227 E2.97719
G1 X95.105 Y98.224 E3.07824
G1 X95.105 Y97.417 E3.09744
G1 X98.108 Y100.420 E3.19848
G1 X98.108 Y100.364 E3.19982
G1 X98.859 Y100.364 E3.21768
G1 X95.105 Y96.610 E3.34399
G1 X95.105 Y95.803 E3.36319
G1 X99.666 Y100.364 E3.51665
G1 X100.496 Y100.387 E3.53640
G1 X98.324 Y98.215 E3.60947
G1 X99.136 Y98.220 E3.62878
G1 X104.660 Y103.744 E3.81464
G1 X104.780 Y103.355 E3.82433
G1 X104.820 Y103.098 E3.83052
G1 X99.948 Y98.225 E3.99448
G1 X100.497 Y98.228 E4.00755
G1 X100.784 Y98.254 E4.01440
G1 X104.893 Y102.363 E4.15266
G1 X104.875 Y101.877 E4.16422
G1 X104.823 Y101.486 E4.17360
G1 X101.755 Y98.418 E4.27685
G1 X102.306 Y98.589 E4.29060
G1 X102.845 Y98.846 E4.30480
G1 X103.312 Y99.172 E4.31835
G1 X104.153 Y100.009 E4.34658
G1 E2.34658 F2400.00000
G92 E0
G1 X104.387 Y104.278 F7800.000
G1 E2.00000 F2400.00000
G1 F1772.14
G1 X101.792 Y101.683 E2.08734
G1 X101.790 Y102.064 E2.09641
G1 X101.731 Y102.429 E2.10520
G1 X104.044 Y104.742 E2.18303
G1 X103.776 Y104.995 E2.19181
G1 X103.607 Y105.112 E2.19669
G1 X101.485 Y102.990 E2.26808
G1 X101.340 Y103.175 E2.27366
G1 X101.087 Y103.399 E2.28171
G1 X103.105 Y105.417 E2.34963
G1 X102.776 Y105.575 E2.35832
G1 X102.532 Y105.651 E2.36440
G1 X100.550 Y103.669 E2.43108
G1 X100.294 Y103.738 E2.43738
G1 X99.868 Y103.794 E2.44761
G1 X101.889 Y105.815 E2.51561
G1 X101.465 Y105.892 E2.52587
G1 X101.185 Y105.917 E2.53256
G1 X99.068 Y103.801 E2.60377
G1 X98.261 Y103.801 E2.62297
G1 X100.413 Y105.952 E2.69535
G1 X99.606 Y105.952 E2.71455
G1 E0.71455 F2400.00000
G92 E0
G1 X95.105 Y95.803 F7800.000
G1 E2.00000 F2400.00000
G1 F1772.14
G1 X95.105 Y94.997 E2.01920
G1 X98.108 Y97.999 E2.12025
G1 X98.108 Y97.193 E2.13945
G1 X95.105 Y94.190 E2.24049
G1 X95.105 Y94.048 E2.24387
G1 X95.770 Y94.048 E2.25969
G1 X98.108 Y96.386 E2.33836
G1 X98.108 Y95.579 E2.35756
G1 X96.577 Y94.048 E2.40907
G1 X97.384 Y94.048 E2.42827
G1 X98.108 Y94.772 E2.45263
G1 E0.45263 F2400.00000
G92 E0
M107
; Filament-specific end gcode 
;END gcode for filament

M104 S0 ; turn off temperature
G28 X0  ; home X axis
M84     ; disable motors

M140 S0 ; set bed temperature
; filament used = 34.8mm (0.2cm3)
; total filament cost = 0.0

; avoid_crossing_perimeters = 0
; bed_shape = 0x0,200x0,200x200,0x200
; bed_temperature = 0
; before_layer_gcode = 
; between_objects_gcode = 
; bridge_acceleration = 0
; bridge_fan_speed = 100
; brim_connections_width = 0
; brim_width = 0
; complete_objects = 0
; cooling = 1
; default_acceleration = 0
; disable_fan_first_layers = 3
; duplicate_distance = 6
; end_filament_gcode = "; Filament-specific end gcode \n;END gcode for filament\n"
; end_gcode = M104 S0 ; turn off temperature\nG28 X0  ; home X axis\nM84     ; disable motors\n
; extruder_clearance_height = 20
; extruder_clearance_radius = 20
; extruder_offset = 0x0
; extrusion_axis = E
; extrusion_multiplier = 1
; fan_always_on = 0
; fan_below_layer_time = 60
; filament_colour = #FFFFFF
; filament_cost = 0
; filament_density = 0
; filament_diameter = 3
; filament_max_volumetric_speed = 0
; filament_notes = ""
; first_layer_acceleration = 0
; first_layer_bed_temperature = 0
; first_layer_extrusion_width = 200%
; first_layer_speed = 30
; first_layer_temperature = 205
; gcode_arcs = 0
; gcode_comments = 0
; gcode_flavor = reprap
; has_heatbed = 1
; infill_acceleration = 0
; infill_first = 0
; interior_brim_width = 0
; layer_gcode = 
; max_fan_speed = 100
; max_layer_height = 0.3
; max_print_speed = 80
; max_volumetric_speed = 0
; min_fan_speed = 35
; min_layer_height = 0.15
; min_print_speed = 10
; min_skirt_length = 0
; notes = 
; nozzle_diameter = 0.5
; only_retract_when_crossing_perimeters = 1
; ooze_prevention = 0
; output_filename_format = [input_filename_base].gcode
; perimeter_acceleration = 0
; post_process = 
; pressure_advance = 0
; printer_notes = 
; resolution = 0
; retract_before_travel = 2
; retract_layer_change = 0
; retract_length = 2
; retract_length_toolchange = 10
; retract_lift = 0
; retract_lift_above = 0
; retract_lift_below = 0
; retract_restart_extra = 0
; retract_restart_extra_toolchange = 0
; retract_speed = 40
; skirt_distance = 6
; skirt_height = 1
; skirts = 0
; slowdown_below_layer_time = 5
; spiral_vase = 0
; standby_temperature_delta = -5
; start_filament_gcode = "; Filament gcode\n"
; start_gcode = G28 ; home all axes\nG1 Z5 F5000 ; lift nozzle\n
; temperature = 200
; threads = 8
; toolchange_gcode = 
; travel_speed = 130
; use_firmware_retraction = 0
; use_relative_e_distances = 0
; use_set_and_wait_bed = 0
; use_set_and_wait_extruder = 0
; use_volumetric_e = 0
; vibration_limit = 0
; wipe = 0
; z_offset = 0
; z_steps_per_mm = 0
; adaptive_slicing = 0
; adaptive_slicing_quality = 75%
; dont_support_bridges = 1
; extrusion_width = 0
; first_layer_height = 0.3
; infill_only_where_needed = 0
; interface_shells = 0
; layer_height = 0.3
; match_horizontal_surfaces = 0
; raft_layers = 0
; regions_overlap = 0
; seam_position = aligned
; sequential_print_priority = 0
; support_material = 0
; support_material_angle = 0
; support_material_buildplate_only = 0
; support_material_contact_distance = 0.2
; support_material_enforce_layers = 0
; support_material_extruder = 1
; support_material_extrusion_width = 0
; support_material_interface_extruder = 1
; support_material_interface_extrusion_width = 0
; support_material_interface_layers = 3
; support_material_interface_spacing = 0
; support_material_interface_speed = 100%
; support_material_max_layers = 0
; support_material_pattern = pillars
; support_material_spacing = 2.5
; support_material_speed = 60
; support_material_threshold = 60%
; xy_size_compensation = 0
; bottom_infill_pattern = rectilinear
; bottom_solid_layers = 0
; bridge_flow_ratio = 1
; bridge_speed = 60
; external_perimeter_extrusion_width = 0
; external_perimeter_speed = 50%
; external_perimeters_first = 0
; extra_perimeters = 1
; fill_angle = 45
; fill_density = 100%
; fill_gaps = 1
; fill_pattern = rectilinear
; gap_fill_speed = 20
; infill_every_layers = 1
; infill_extruder = 1
; infill_extrusion_width = 0
; infill_overlap = 55%
; infill_speed = 80
; overhangs = 1
; perimeter_extruder = 1
; perimeter_extrusion_width = 0
; perimeter_speed = 60
; perimeters = 0
; small_perimeter_speed = 15
; solid_infill_below_area = 70
; solid_infill_every_layers = 0
; solid_infill_extruder = 1
; solid_infill_extrusion_width = 0
; solid_infill_speed = 20
; thin_walls = 1
; top_infill_extrusion_width = 0
; top_infill_pattern = rectilinear
; top_solid_infill_speed = 15
; top_solid_layers = 0
