; generated by Slic3r 1.3.0 on 2019-11-07 at 11:37:39

; external perimeters extrusion width = 0.55mm (4.37mm^3/s)
; perimeters extrusion width = 0.70mm (11.44mm^3/s)
; infill extrusion width = 0.63mm (13.45mm^3/s)
; solid infill extrusion width = 0.70mm (3.81mm^3/s)
; top infill extrusion width = 0.70mm (2.86mm^3/s)

M107
M104 S205 ; set temperature
G28 ; home all axes
G1 Z5 F5000 ; lift nozzle

; Filament gcode

M109 S205 ; set temperature and wait for it to be reached
G21 ; set units to millimeters
G90 ; use absolute coordinates
M82 ; use absolute distances for extrusion
G92 E0
G1 Z0.300 F7800.000
G1 E-2.00000 F2400.00000
G92 E0
G1 X96.131 Y94.732 F7800.000
G1 E2.00000 F2400.00000
G1 F1800
G1 X95.711 Y95.152 E2.01356
G1 X95.455 Y95.440 E2.02235
G1 X95.057 Y95.972 E2.03749
G1 X94.704 Y96.571 E2.05334
G1 X94.423 Y97.200 E2.06906
G1 X98.465 Y93.158 E2.19942
G1 X99.105 Y92.933 E2.21489
G1 X99.564 Y92.819 E2.22567
G1 X94.115 Y98.268 E2.40138
G1 X94.039 Y98.617 E2.40953
G1 X93.970 Y99.173 E2.42232
G1 X100.494 Y92.649 E2.63273
G1 X101.326 Y92.577 E2.65177
G1 X93.921 Y99.982 E2.89060
G1 X93.933 Y100.730 E2.90766
G1 X102.099 Y92.564 E3.17103
G1 X102.813 Y92.609 E3.18736
G1 X99.962 Y95.460 E3.27929
G1 X100.550 Y95.279 E3.29331
G1 X100.983 Y95.199 E3.30337
G1 X103.492 Y92.691 E3.38426
G1 X104.125 Y92.817 E3.39899
G1 X101.797 Y95.146 E3.47408
G1 X102.520 Y95.183 E3.49058
G1 X104.721 Y92.981 E3.56158
G1 X105.285 Y93.177 E3.57519
G1 X103.183 Y95.279 E3.64299
G1 X103.793 Y95.429 E3.65731
G1 X105.820 Y93.403 E3.72268
G1 X106.088 Y93.531 E3.72947
G1 X106.088 Y93.894 E3.73774
G1 X104.359 Y95.623 E3.79352
G1 X104.888 Y95.854 E3.80668
G1 X106.088 Y94.654 E3.84539
G1 X106.088 Y95.414 E3.86272
G1 X105.386 Y96.116 E3.88537
G1 E1.88537 F2400.00000
G92 E0
G1 X98.085 Y97.337 F7800.000
G1 E2.00000 F2400.00000
G1 F1800
G1 X93.994 Y101.429 E2.13195
G1 X94.039 Y101.792 E2.14029
G1 X94.102 Y102.081 E2.14704
G1 X97.767 Y98.415 E2.26526
G1 X97.691 Y98.934 E2.27722
G1 X97.663 Y99.280 E2.28513
G1 X94.252 Y102.691 E2.39513
G1 X94.443 Y103.259 E2.40882
G1 X97.651 Y100.051 E2.51229
G1 X97.705 Y100.757 E2.52843
G1 X94.678 Y103.784 E2.62607
G1 X94.953 Y104.269 E2.63878
G1 X97.818 Y101.405 E2.73115
G1 X97.989 Y101.993 E2.74513
G1 X95.263 Y104.719 E2.83304
G1 X95.459 Y104.981 E2.84051
G1 X95.605 Y105.137 E2.84538
G1 X98.213 Y102.529 E2.92950
G1 X98.492 Y103.010 E2.94218
G1 X95.976 Y105.526 E3.02333
G1 X96.385 Y105.877 E3.03562
G1 X98.821 Y103.441 E3.11418
G1 X99.198 Y103.823 E3.12643
G1 X96.827 Y106.194 E3.20290
G1 X97.040 Y106.341 E3.20879
G1 X97.301 Y106.481 E3.21554
G1 X99.629 Y104.152 E3.29063
G1 X100.114 Y104.427 E3.30334
G1 X97.806 Y106.735 E3.37778
G1 X98.346 Y106.956 E3.39107
G1 X100.663 Y104.638 E3.46580
G1 X101.279 Y104.782 E3.48023
G1 X98.931 Y107.130 E3.55595
G1 X99.555 Y107.266 E3.57052
G1 X101.971 Y104.850 E3.64844
G1 X102.746 Y104.835 E3.66612
G1 X100.217 Y107.364 E3.74770
G1 X100.607 Y107.409 E3.75665
G1 X100.921 Y107.420 E3.76381
G1 X103.626 Y104.715 E3.85106
G1 X104.132 Y104.594 E3.86292
G1 X104.690 Y104.410 E3.87633
G1 X101.665 Y107.435 E3.97389
G1 X102.473 Y107.388 E3.99232
G1 X106.088 Y103.772 E4.10893
G1 X106.088 Y104.532 E4.12626
G1 X103.369 Y107.252 E4.21396
G1 X104.005 Y107.108 E4.22883
G1 X104.392 Y106.989 E4.23806
G1 X106.088 Y105.292 E4.29277
G1 X106.088 Y106.052 E4.31010
G1 X105.671 Y106.469 E4.32355
M104 S200 ; set temperature
G1 Z0.600 F7800.000
G1 X106.077 Y105.041 F7800.000
G1 F1200
G1 X105.083 Y104.046 E4.36231
G1 X104.456 Y104.338 E4.38136
G1 X106.077 Y105.959 E4.44454
G1 X106.077 Y106.475 E4.45877
G1 X105.804 Y106.605 E4.46709
G1 X103.777 Y104.577 E4.54614
G1 X103.033 Y104.752 E4.56718
G1 X105.151 Y106.870 E4.64972
G1 X104.458 Y107.095 E4.66981
G1 X102.213 Y104.851 E4.75731
G1 X101.742 Y104.866 E4.77031
G1 X101.293 Y104.849 E4.78268
G1 X103.710 Y107.266 E4.87690
G1 X102.904 Y107.379 E4.89933
G1 X100.163 Y104.638 E5.00616
G1 X96.435 Y105.502 F7800.000
G1 F1200
G1 X95.442 Y104.474 E5.04558
G1 X95.045 Y103.939 E5.06393
G1 X94.708 Y103.362 E5.08234
G1 X94.431 Y102.743 E5.10104
G1 X94.352 Y102.500 E5.10809
G1 X98.784 Y106.932 E5.28084
G1 X99.502 Y107.152 E5.30155
G1 X100.027 Y107.257 E5.31631
G1 X94.041 Y101.271 E5.54964
G1 X93.954 Y100.550 E5.56967
G1 X93.943 Y100.254 E5.57784
G1 X101.086 Y107.398 E5.85631
G1 X102.031 Y107.424 E5.88237
G1 X93.940 Y99.333 E6.19778
G1 X93.958 Y98.904 E6.20962
G1 X94.010 Y98.484 E6.22128
G1 X97.975 Y102.449 E6.37585
G1 X97.809 Y101.876 E6.39229
G1 X97.699 Y101.255 E6.40969
G1 X94.151 Y97.707 E6.54800
G1 X94.210 Y97.437 E6.55562
G1 X94.356 Y96.993 E6.56849
G1 X97.636 Y100.274 E6.69637
G1 X97.679 Y99.398 E6.72053
G1 X94.619 Y96.338 E6.83981
G1 X94.704 Y96.151 E6.84547
G1 X94.943 Y95.743 E6.85850
G1 X97.810 Y98.610 E6.97026
G1 X98.024 Y97.906 E6.99054
G1 X95.317 Y95.199 E7.09610
G1 X95.425 Y95.053 E7.10111
G1 X95.738 Y94.702 E7.11407
G1 X98.317 Y97.281 E7.21461
G1 X98.469 Y97.031 E7.22268
G1 X98.685 Y96.730 E7.23288
G1 X96.212 Y94.257 E7.32929
G1 X96.730 Y93.856 E7.34733
G1 X99.125 Y96.251 E7.44068
G1 X99.347 Y96.057 E7.44883
G1 X99.638 Y95.846 E7.45873
G1 X97.302 Y93.510 E7.54979
G1 X97.922 Y93.211 E7.56876
G1 X100.232 Y95.522 E7.65883
G1 X100.568 Y95.390 E7.66877
G1 X100.917 Y95.288 E7.67880
G1 X98.596 Y92.967 E7.76931
G1 X99.326 Y92.778 E7.79009
G1 X101.704 Y95.157 E7.88282
G1 X102.237 Y95.134 E7.89751
G1 X102.610 Y95.144 E7.90780
G1 X100.114 Y92.648 E8.00508
G1 X100.965 Y92.580 E8.02860
G1 X103.655 Y95.271 E8.13348
G1 X104.410 Y95.465 E8.15497
G1 X104.974 Y95.671 E8.17152
G1 X101.892 Y92.589 E8.29169
G1 X102.615 Y92.640 E8.31167
G1 X102.904 Y92.683 E8.31973
G1 X106.077 Y95.856 E8.44341
G1 X106.077 Y94.937 E8.46873
G1 X104.080 Y92.940 E8.54658
G1 X104.754 Y93.161 E8.56615
G1 X105.214 Y93.348 E8.57982
G1 X105.582 Y93.524 E8.59107
G1 X106.077 Y94.019 E8.61035
G1 Z0.900 F7800.000
G1 E6.61035 F2400.00000
G92 E0
G1 X105.082 Y95.953 F7800.000
G1 E2.00000 F2400.00000
G1 F1200
G1 X106.077 Y94.958 E2.03878
G1 X106.077 Y94.040 E2.06410
G1 X104.455 Y95.662 E2.12733
G1 X103.776 Y95.422 E2.14717
G1 X105.804 Y93.395 E2.22622
G1 X105.151 Y93.129 E2.24564
G1 X103.032 Y95.248 E2.32824
G1 X102.212 Y95.149 E2.35101
G1 X104.455 Y92.907 E2.43843
G1 X103.708 Y92.735 E2.45955
G1 X101.292 Y95.151 E2.55373
G1 X100.687 Y95.230 E2.57056
G1 X100.162 Y95.362 E2.58548
G1 X102.898 Y92.626 E2.69213
G1 X102.031 Y92.575 E2.71608
G1 X93.939 Y100.666 E3.03150
G1 X93.923 Y100.242 E3.04321
G1 X93.944 Y99.743 E3.05696
G1 X101.078 Y92.609 E3.33507
G1 X100.646 Y92.642 E3.34702
G1 X100.030 Y92.739 E3.36422
G1 X94.041 Y98.728 E3.59769
G1 X94.210 Y97.931 E3.62016
G1 X94.354 Y97.497 E3.63276
G1 X98.773 Y93.077 E3.80504
G1 X98.509 Y93.169 E3.81274
G1 X97.887 Y93.457 E3.83165
G1 X97.307 Y93.801 E3.85022
G1 X96.768 Y94.202 E3.86876
G1 X96.410 Y94.522 E3.88198
G1 X95.916 Y95.016 E3.90125
G1 X97.974 Y97.550 F7800.000
G1 F1200
G1 X94.011 Y101.514 E4.05575
G1 X94.044 Y101.790 E4.06342
G1 X94.153 Y102.290 E4.07752
G1 X97.698 Y98.745 E4.21572
G1 X97.646 Y99.280 E4.23052
G1 X97.636 Y99.725 E4.24281
G1 X94.356 Y103.006 E4.37070
G1 X94.432 Y103.238 E4.37744
G1 X94.620 Y103.660 E4.39017
G1 X97.679 Y100.601 E4.50942
G1 X97.810 Y101.388 E4.53142
G1 X94.942 Y104.256 E4.64324
G1 X95.041 Y104.426 E4.64867
G1 X95.317 Y104.800 E4.66147
G1 X98.024 Y102.092 E4.76700
G1 X98.317 Y102.718 E4.78605
G1 X95.745 Y105.291 E4.88633
G1 X95.947 Y105.508 E4.89450
G1 X96.215 Y105.738 E4.90426
G1 X98.685 Y103.269 E5.00051
G1 X98.870 Y103.491 E5.00847
G1 X99.124 Y103.749 E5.01845
G1 X96.735 Y106.137 E5.11156
G1 X97.002 Y106.321 E5.12048
G1 X97.306 Y106.485 E5.13000
G1 X99.637 Y104.153 E5.22090
G1 X99.944 Y104.339 E5.23077
G1 X100.231 Y104.478 E5.23958
G1 X97.926 Y106.784 E5.32946
G1 X98.369 Y106.963 E5.34263
G1 X98.597 Y107.031 E5.34921
G1 X100.917 Y104.711 E5.43963
G1 X101.272 Y104.788 E5.44964
G1 X101.704 Y104.842 E5.46165
G1 X99.330 Y107.216 E5.55418
G1 X99.811 Y107.312 E5.56767
G1 X100.118 Y107.347 E5.57620
G1 X102.609 Y104.856 E5.67329
G1 X103.077 Y104.819 E5.68625
G1 X103.655 Y104.728 E5.70239
G1 X100.970 Y107.413 E5.80707
G1 X101.884 Y107.418 E5.83227
G1 X104.974 Y104.328 E5.95272
G1 X105.531 Y104.071 E5.96964
G1 X106.077 Y103.766 E5.98688
G1 X106.077 Y104.143 E5.99729
G1 X102.905 Y107.315 E6.12093
G1 X103.187 Y107.273 E6.12879
G1 X104.081 Y107.058 E6.15413
G1 X106.077 Y105.062 E6.23194
G1 X106.077 Y105.980 E6.25726
G1 X105.582 Y106.475 E6.27654
M106 S255
G1 Z1.200 F7800.000
G1 X106.100 Y104.338 F7800.000
G1 F2009.44
G1 X105.535 Y103.773 E6.29555
G1 X104.966 Y104.085 E6.31099
G1 X106.100 Y105.219 E6.34915
G1 X106.100 Y106.100 E6.37011
G1 X104.358 Y104.358 E6.42874
G1 X103.699 Y104.580 E6.44528
G1 X105.761 Y106.642 E6.51466
G1 X105.136 Y106.898 E6.53073
G1 X102.980 Y104.741 E6.60330
G1 X102.188 Y104.830 E6.62227
G1 X104.469 Y107.111 E6.69902
G1 X103.754 Y107.278 E6.71647
G1 X101.301 Y104.825 E6.79901
G1 X100.816 Y104.768 E6.81063
G1 X100.223 Y104.627 E6.82514
G1 X102.989 Y107.394 E6.91822
G1 X102.158 Y107.443 E6.93804
G1 X95.301 Y104.110 F7800.000
G1 F2009.44
G1 X95.476 Y104.412 E6.94634
G1 X95.862 Y104.940 E6.96192
G1 X96.120 Y105.237 E6.97129
G1 X96.400 Y105.520 E6.98075
G1 X96.906 Y105.954 E6.99660
G1 X97.449 Y106.330 E7.01233
G1 X97.606 Y106.416 E7.01658
G1 X94.836 Y103.645 E7.10981
G1 X94.683 Y103.381 E7.11706
G1 X94.411 Y102.773 E7.13292
G1 X94.203 Y102.131 E7.14897
G1 X99.149 Y107.077 E7.31539
G1 X99.462 Y107.169 E7.32316
G1 X100.287 Y107.334 E7.34318
G1 X93.987 Y101.034 E7.55517
G1 X93.929 Y100.546 E7.56686
G1 X93.912 Y100.079 E7.57800
G1 X101.264 Y107.431 E7.82540
G1 X102.158 Y107.443 E7.84665
G1 X93.924 Y99.209 E8.12370
G1 X93.938 Y98.875 E8.13168
G1 X93.997 Y98.402 E8.14302
G1 X97.983 Y102.388 E8.27715
G1 X97.836 Y101.874 E8.28988
G1 X97.723 Y101.247 E8.30504
G1 X94.140 Y97.664 E8.42559
G1 X94.189 Y97.439 E8.43107
G1 X94.341 Y96.983 E8.44249
G1 X97.660 Y100.303 E8.55419
G1 X97.695 Y99.457 E8.57433
G1 X94.591 Y96.353 E8.67877
G1 X94.672 Y96.174 E8.68344
G1 X94.901 Y95.782 E8.69424
G1 X97.813 Y98.694 E8.79223
G1 X98.007 Y98.007 E8.80922
G1 X95.255 Y95.255 E8.90184
G1 X95.440 Y95.007 E8.90919
G1 X95.656 Y94.775 E8.91674
G1 X98.276 Y97.395 E9.00489
G1 X98.615 Y96.853 E9.02010
G1 X96.099 Y94.337 E9.10474
G1 X96.298 Y94.161 E9.11106
G1 X96.589 Y93.946 E9.11967
G1 X99.020 Y96.377 E9.20147
G1 X99.278 Y96.137 E9.20987
G1 X99.492 Y95.969 E9.21634
G1 X97.121 Y93.597 E9.29613
G1 X97.412 Y93.426 E9.30417
G1 X97.699 Y93.295 E9.31168
G1 X100.037 Y95.633 E9.39036
G1 X100.302 Y95.511 E9.39728
G1 X100.665 Y95.379 E9.40648
G1 X98.326 Y93.040 E9.48518
G1 X98.695 Y92.913 E9.49448
G1 X99.003 Y92.837 E9.50203
G1 X101.383 Y95.217 E9.58211
G1 X101.794 Y95.172 E9.59194
G1 X102.205 Y95.157 E9.60172
G1 X99.734 Y92.687 E9.68485
G1 X100.153 Y92.621 E9.69495
G1 X100.520 Y92.592 E9.70371
G1 X103.143 Y95.215 E9.79198
G1 X103.619 Y95.290 E9.80343
G1 X104.256 Y95.447 E9.81904
G1 X101.363 Y92.554 E9.91638
G1 X101.650 Y92.551 E9.92322
G1 X102.276 Y92.585 E9.93812
G1 X105.800 Y96.110 E10.05672
G1 X106.100 Y96.286 E10.06498
G1 X106.100 Y95.529 E10.08299
G1 X103.297 Y92.726 E10.17731
G1 X103.771 Y92.826 E10.18886
G1 X104.498 Y93.045 E10.20690
G1 X106.100 Y94.648 E10.26082
G1 Z1.500 F7800.000
G1 X105.536 Y96.226 F7800.000
G1 F1995.14
G1 X106.100 Y95.662 E10.27981
G1 X106.100 Y94.781 E10.30077
G1 X104.966 Y95.915 E10.33891
G1 X104.357 Y95.643 E10.35479
G1 X106.100 Y93.900 E10.41345
G1 X106.100 Y93.516 E10.42259
G1 X105.762 Y93.357 E10.43147
G1 X103.698 Y95.421 E10.50094
G1 X102.978 Y95.260 E10.51848
G1 X105.134 Y93.104 E10.59103
G1 X104.468 Y92.889 E10.60769
G1 X102.187 Y95.170 E10.68444
G1 X101.757 Y95.157 E10.69468
G1 X101.302 Y95.174 E10.70551
G1 X103.752 Y92.724 E10.78796
G1 X102.982 Y92.613 E10.80647
G1 X100.223 Y95.372 E10.89931
G1 X99.828 Y95.514 E10.90930
G1 X99.384 Y95.734 E10.92108
G1 X99.084 Y95.926 E10.92957
G1 X98.633 Y96.298 E10.94346
G1 X98.262 Y96.702 E10.95652
G1 X97.945 Y97.155 E10.96968
G1 X97.665 Y97.695 E10.98416
G1 X97.519 Y98.077 E10.99388
G1 X97.984 Y97.612 F7800.000
G1 F1995.14
G1 X94.001 Y101.595 E11.12791
G1 X94.046 Y101.925 E11.13585
G1 X94.140 Y102.336 E11.14587
G1 X97.721 Y98.755 E11.26637
G1 X97.686 Y99.088 E11.27435
G1 X97.660 Y99.697 E11.28885
G1 X94.339 Y103.018 E11.40059
G1 X94.413 Y103.242 E11.40621
G1 X94.593 Y103.645 E11.41671
G1 X97.696 Y100.542 E11.52112
G1 X97.813 Y101.306 E11.53950
G1 X94.899 Y104.220 E11.63756
G1 X95.235 Y104.734 E11.65216
G1 X95.249 Y104.751 E11.65269
G1 X98.007 Y101.993 E11.74552
G1 X98.276 Y102.605 E11.76143
G1 X95.655 Y105.226 E11.84961
G1 X95.940 Y105.525 E11.85944
G1 X96.100 Y105.662 E11.86445
G1 X98.615 Y103.147 E11.94908
G1 X99.020 Y103.623 E11.96395
G1 X96.587 Y106.056 E12.04581
G1 X96.971 Y106.323 E12.05693
G1 X97.120 Y106.403 E12.06097
G1 X99.492 Y104.032 E12.14077
G1 X99.735 Y104.197 E12.14777
G1 X100.038 Y104.366 E12.15603
G1 X97.694 Y106.711 E12.23491
G1 X98.323 Y106.962 E12.25103
G1 X100.666 Y104.620 E12.32984
G1 X101.016 Y104.716 E12.33849
G1 X101.384 Y104.783 E12.34738
G1 X98.997 Y107.169 E12.42768
G1 X99.732 Y107.316 E12.44549
G1 X102.205 Y104.843 E12.52871
G1 X102.666 Y104.830 E12.53968
G1 X103.144 Y104.784 E12.55111
G1 X100.521 Y107.408 E12.63938
G1 X100.761 Y107.432 E12.64511
G1 X101.360 Y107.450 E12.65937
G1 X104.257 Y104.552 E12.75686
G1 X104.823 Y104.358 E12.77111
G1 X105.146 Y104.221 E12.77945
G1 X105.801 Y103.889 E12.79692
G1 X102.275 Y107.415 E12.91557
G1 X102.863 Y107.352 E12.92964
G1 X103.291 Y107.280 E12.93997
G1 X106.100 Y104.471 E13.03448
G1 X106.100 Y105.352 E13.05544
G1 X104.496 Y106.956 E13.10940
G1 E11.10940 F2400.00000
G92 E0
G1 X93.923 Y100.792 F7800.000
G1 E2.00000 F2400.00000
G1 F1995.14
G1 X102.161 Y92.554 E2.27720
G1 X101.262 Y92.572 E2.29859
G1 X93.912 Y99.922 E2.54592
G1 X93.917 Y99.640 E2.55263
G1 X93.980 Y98.973 E2.56856
G1 X100.285 Y92.667 E2.78073
G1 X99.609 Y92.795 E2.79711
G1 X99.150 Y92.921 E2.80843
G1 X94.205 Y97.867 E2.97483
G1 X94.270 Y97.630 E2.98068
G1 X94.548 Y96.898 E2.99930
G1 X94.831 Y96.359 E3.01378
G1 X97.613 Y93.578 E3.10737
G1 Z1.800 F7800.000
G1 X106.100 Y94.648 F7800.000
G1 F2010
G1 X104.499 Y93.047 E3.16124
G1 X103.805 Y92.834 E3.17851
G1 X103.298 Y92.727 E3.19084
G1 X106.100 Y95.529 E3.28513
G1 X106.100 Y96.286 E3.30314
G1 X105.800 Y96.110 E3.31141
G1 X102.272 Y92.581 E3.43014
G1 X101.597 Y92.550 E3.44621
G1 X101.365 Y92.556 E3.45172
G1 X104.256 Y95.447 E3.54900
G1 X103.619 Y95.290 E3.56462
G1 X103.144 Y95.216 E3.57606
G1 X100.517 Y92.589 E3.66446
G1 X99.732 Y92.684 E3.68328
G1 X102.205 Y95.157 E3.76649
G1 X101.834 Y95.169 E3.77531
G1 X101.383 Y95.217 E3.78610
G1 X99.002 Y92.835 E3.86625
G1 X98.324 Y93.039 E3.88307
G1 X100.665 Y95.379 E3.96183
G1 X100.286 Y95.517 E3.97143
G1 X100.038 Y95.633 E3.97795
G1 X97.697 Y93.293 E4.05670
G1 X97.263 Y93.506 E4.06820
G1 X97.119 Y93.595 E4.07225
G1 X99.493 Y95.969 E4.15212
G1 X99.320 Y96.101 E4.15729
G1 X99.020 Y96.378 E4.16699
G1 X96.587 Y93.944 E4.24888
G1 X96.098 Y94.337 E4.26379
G1 X98.615 Y96.853 E4.34847
G1 X98.402 Y97.169 E4.35754
G1 X98.276 Y97.395 E4.36369
G1 X95.653 Y94.772 E4.45195
G1 X95.251 Y95.251 E4.46683
G1 X98.007 Y98.007 E4.55956
G1 X97.813 Y98.694 E4.57655
G1 X94.895 Y95.776 E4.67476
G1 X94.590 Y96.352 E4.69028
G1 X97.696 Y99.457 E4.79476
G1 X97.660 Y100.303 E4.81489
G1 X94.340 Y96.982 E4.92662
G1 X94.266 Y97.177 E4.93156
G1 X94.134 Y97.658 E4.94344
G1 X97.723 Y101.246 E5.06418
G1 X97.840 Y101.894 E5.07984
G1 X97.984 Y102.388 E5.09209
G1 X93.998 Y98.403 E5.22619
G1 X93.917 Y99.203 E5.24532
G1 X102.158 Y107.443 E5.52260
G1 X101.268 Y107.434 E5.54378
G1 X93.907 Y100.073 E5.79148
G1 X93.949 Y100.768 E5.80805
G1 X93.987 Y101.034 E5.81443
G1 X100.285 Y107.333 E6.02638
G1 X99.447 Y107.166 E6.04673
G1 X99.151 Y107.079 E6.05407
G1 X94.200 Y102.128 E6.22066
G1 X94.414 Y102.779 E6.23695
G1 X94.677 Y103.369 E6.25233
G1 X94.834 Y103.644 E6.25985
G1 X97.603 Y106.412 E6.35302
G1 X97.426 Y106.316 E6.35783
G1 X96.898 Y105.948 E6.37313
G1 X96.408 Y105.528 E6.38850
G1 X95.962 Y105.060 E6.40386
G1 X95.699 Y104.733 E6.41386
G1 X95.460 Y104.389 E6.42382
G1 X95.299 Y104.109 E6.43151
G1 X102.158 Y107.443 F7800.000
G1 F2010
G1 X102.655 Y107.425 E6.44335
G1 X102.984 Y107.389 E6.45122
G1 X100.222 Y104.627 E6.54416
G1 X100.839 Y104.772 E6.55924
G1 X101.301 Y104.824 E6.57029
G1 X103.756 Y107.279 E6.65291
G1 X104.468 Y107.111 E6.67033
G1 X102.188 Y104.830 E6.74706
G1 X102.980 Y104.742 E6.76603
G1 X105.137 Y106.899 E6.83863
G1 X105.760 Y106.641 E6.85466
G1 X103.699 Y104.580 E6.92401
G1 X104.358 Y104.358 E6.94055
G1 X106.100 Y106.100 E6.99918
G1 X106.100 Y105.219 E7.02014
G1 X104.966 Y104.085 E7.05831
G1 X105.535 Y103.773 E7.07375
G1 X106.100 Y104.338 E7.09277
G1 Z2.100 F7800.000
G1 X104.492 Y106.960 F7800.000
G1 F1995.5
G1 X106.100 Y105.352 E7.14687
G1 X106.100 Y104.471 E7.16783
G1 X103.299 Y107.272 E7.26208
G1 X102.908 Y107.346 E7.27156
G1 X102.273 Y107.417 E7.28675
G1 X105.801 Y103.889 E7.40545
G1 X105.139 Y104.224 E7.42310
G1 X104.818 Y104.360 E7.43138
G1 X104.257 Y104.552 E7.44551
G1 X101.363 Y107.447 E7.54290
G1 X101.100 Y107.447 E7.54914
G1 X100.522 Y107.406 E7.56293
G1 X103.144 Y104.785 E7.65114
G1 X102.670 Y104.830 E7.66246
G1 X102.205 Y104.843 E7.67354
G1 X99.737 Y107.311 E7.75659
G1 X99.292 Y107.238 E7.76732
G1 X99.002 Y107.165 E7.77443
G1 X101.384 Y104.783 E7.85458
G1 X101.015 Y104.716 E7.86349
G1 X100.666 Y104.620 E7.87212
G1 X98.328 Y106.957 E7.95076
G1 X97.927 Y106.815 E7.96090
G1 X97.697 Y106.707 E7.96693
G1 X100.038 Y104.366 E8.04570
G1 X99.735 Y104.197 E8.05396
G1 X99.492 Y104.032 E8.06096
G1 X97.122 Y106.402 E8.14070
G1 X96.771 Y106.193 E8.15042
G1 X96.588 Y106.055 E8.15587
G1 X99.020 Y103.623 E8.23771
G1 X98.615 Y103.147 E8.25258
G1 X96.097 Y105.665 E8.33730
G1 X95.650 Y105.231 E8.35213
G1 X98.276 Y102.605 E8.44049
G1 X98.007 Y101.993 E8.45641
G1 X95.249 Y104.751 E8.54921
G1 X95.235 Y104.734 E8.54974
G1 X94.895 Y104.225 E8.56432
G1 X97.813 Y101.306 E8.66252
G1 X97.696 Y100.542 E8.68090
G1 X94.588 Y103.650 E8.78546
G1 X94.336 Y103.022 E8.80157
G1 X97.660 Y99.697 E8.91343
G1 X97.686 Y99.092 E8.92784
G1 X97.721 Y98.755 E8.93591
G1 X94.139 Y102.337 E9.05646
G1 X93.998 Y101.598 E9.07438
G1 X97.984 Y97.612 E9.20850
G1 X97.518 Y98.077 F7800.000
G1 F1995.5
G1 X97.665 Y97.696 E9.21822
G1 X97.947 Y97.153 E9.23278
G1 X98.262 Y96.703 E9.24586
G1 X98.631 Y96.300 E9.25884
G1 X99.083 Y95.926 E9.27281
G1 X99.387 Y95.733 E9.28138
G1 X99.829 Y95.514 E9.29312
G1 X100.223 Y95.372 E9.30307
G1 X102.982 Y92.613 E9.39591
G1 X103.752 Y92.724 E9.41442
G1 X101.302 Y95.174 E9.49687
G1 X101.757 Y95.157 E9.50770
G1 X102.187 Y95.170 E9.51794
G1 X104.468 Y92.889 E9.59469
G1 X105.134 Y93.104 E9.61135
G1 X102.978 Y95.260 E9.68390
G1 X103.698 Y95.421 E9.70145
G1 X105.762 Y93.357 E9.77091
G1 X106.100 Y93.516 E9.77979
G1 X106.100 Y93.900 E9.78894
G1 X104.357 Y95.643 E9.84759
G1 X104.966 Y95.915 E9.86347
G1 X106.100 Y94.781 E9.90161
G1 X106.100 Y95.662 E9.92257
G1 X105.536 Y96.226 E9.94156
G1 E7.94156 F2400.00000
G92 E0
G1 X97.614 Y93.576 F7800.000
G1 E2.00000 F2400.00000
G1 F1995.5
G1 X94.817 Y96.374 E2.09413
G1 X94.549 Y96.896 E2.10811
G1 X94.270 Y97.627 E2.12671
G1 X94.205 Y97.866 E2.13262
G1 X99.147 Y92.924 E2.29891
G1 X99.605 Y92.796 E2.31023
G1 X100.285 Y92.667 E2.32670
G1 X93.980 Y98.973 E2.53887
G1 X93.906 Y99.928 E2.56166
G1 X101.262 Y92.571 E2.80920
G1 X102.159 Y92.555 E2.83055
G1 X93.918 Y100.796 E3.10786
G1 Z2.400 F7800.000
G1 X95.290 Y104.099 F7800.000
G1 F2009.44
G1 X95.701 Y104.735 E3.12588
G1 X96.124 Y105.241 E3.14156
G1 X96.402 Y105.522 E3.15096
G1 X96.697 Y105.786 E3.16040
G1 X97.228 Y106.187 E3.17623
G1 X97.601 Y106.410 E3.18657
G1 X94.825 Y103.634 E3.27998
G1 X94.567 Y103.141 E3.29322
G1 X94.412 Y102.775 E3.30268
G1 X94.210 Y102.138 E3.31858
G1 X99.158 Y107.086 E3.48508
G1 X99.782 Y107.243 E3.50038
G1 X100.276 Y107.323 E3.51228
G1 X93.980 Y101.027 E3.72413
G1 X93.910 Y100.076 E3.74681
G1 X101.259 Y107.426 E3.99412
G1 X101.546 Y107.446 E4.00096
G1 X102.161 Y107.446 E4.01558
G1 X93.922 Y99.207 E4.29282
G1 X93.998 Y98.403 E4.31205
G1 X97.983 Y102.388 E4.44615
G1 X97.836 Y101.874 E4.45886
G1 X97.723 Y101.247 E4.47404
G1 X94.136 Y97.659 E4.59474
G1 X94.275 Y97.147 E4.60738
G1 X94.338 Y96.981 E4.61160
G1 X97.660 Y100.303 E4.72336
G1 X97.695 Y99.457 E4.74350
G1 X94.589 Y96.351 E4.84800
G1 X94.811 Y95.915 E4.85964
G1 X94.899 Y95.780 E4.86348
G1 X97.813 Y98.694 E4.96154
G1 X98.007 Y98.007 E4.97853
G1 X95.251 Y95.251 E5.07126
G1 X95.652 Y94.771 E5.08614
G1 X98.276 Y97.395 E5.17442
G1 X98.614 Y96.853 E5.18963
G1 X96.095 Y94.334 E5.27440
G1 X96.584 Y93.942 E5.28931
G1 X99.020 Y96.377 E5.37125
G1 X99.275 Y96.140 E5.37954
G1 X99.492 Y95.969 E5.38613
G1 X97.118 Y93.594 E5.46604
G1 X97.696 Y93.292 E5.48157
G1 X100.038 Y95.633 E5.56036
G1 X100.401 Y95.471 E5.56984
G1 X100.665 Y95.379 E5.57647
G1 X98.323 Y93.038 E5.65527
G1 X99.001 Y92.834 E5.67210
G1 X101.383 Y95.217 E5.75226
G1 X101.790 Y95.172 E5.76200
G1 X102.205 Y95.157 E5.77187
G1 X99.731 Y92.684 E5.85510
G1 X100.517 Y92.588 E5.87393
G1 X103.143 Y95.215 E5.96232
G1 X103.619 Y95.290 E5.97377
G1 X104.256 Y95.447 E5.98938
G1 X101.364 Y92.554 E6.08670
G1 X102.276 Y92.586 E6.10842
G1 X105.800 Y96.110 E6.22701
G1 X106.100 Y96.286 E6.23527
G1 X106.100 Y95.529 E6.25328
G1 X103.297 Y92.726 E6.34761
G1 X103.768 Y92.825 E6.35908
G1 X104.497 Y93.045 E6.37720
G1 X106.100 Y94.648 E6.43112
G1 E4.43112 F2400.00000
G92 E0
G1 X106.100 Y104.338 F7800.000
G1 E2.00000 F2400.00000
G1 F2009.44
G1 X105.535 Y103.773 E2.01900
G1 X104.966 Y104.085 E2.03444
G1 X106.100 Y105.219 E2.07260
G1 X106.100 Y106.100 E2.09356
G1 X104.358 Y104.358 E2.15219
G1 X103.699 Y104.580 E2.16873
G1 X105.763 Y106.644 E2.23819
G1 X105.137 Y106.899 E2.25428
G1 X102.979 Y104.741 E2.32687
G1 X102.187 Y104.830 E2.34583
G1 X104.463 Y107.106 E2.42242
G1 X104.011 Y107.227 E2.43355
G1 X103.751 Y107.275 E2.43984
G1 X101.301 Y104.825 E2.52229
G1 X100.814 Y104.768 E2.53396
G1 X100.223 Y104.627 E2.54842
G1 X102.985 Y107.390 E2.64137
G1 X102.161 Y107.446 E2.66103
M106 S244.8
G1 Z2.700 F7800.000
G1 X105.582 Y106.477 F7800.000
G1 F1200
G1 X106.077 Y105.983 E2.68031
G1 X106.077 Y105.064 E2.70562
G1 X104.081 Y107.060 E2.78342
G1 X103.491 Y107.212 E2.80021
G1 X102.903 Y107.320 E2.81668
G1 X106.077 Y104.146 E2.94038
G1 X106.077 Y103.766 E2.95086
G1 X105.530 Y104.071 E2.96814
G1 X104.979 Y104.326 E2.98486
G1 X101.888 Y107.417 E3.10533
G1 X100.969 Y107.417 E3.13064
G1 X103.659 Y104.727 E3.23548
G1 X103.078 Y104.819 E3.25170
G1 X102.612 Y104.856 E3.26457
G1 X100.117 Y107.352 E3.36183
G1 X99.326 Y107.224 E3.38390
G1 X101.707 Y104.843 E3.47672
G1 X101.270 Y104.787 E3.48885
G1 X100.920 Y104.712 E3.49873
G1 X98.598 Y107.034 E3.58922
G1 X97.922 Y106.792 E3.60902
G1 X100.234 Y104.479 E3.69913
G1 X99.943 Y104.338 E3.70806
G1 X99.640 Y104.155 E3.71781
G1 X97.304 Y106.491 E3.80886
G1 X96.733 Y106.144 E3.82727
G1 X99.126 Y103.751 E3.92054
G1 X98.869 Y103.490 E3.93062
G1 X98.686 Y103.272 E3.93847
G1 X96.213 Y105.745 E4.03487
G1 X95.742 Y105.298 E4.05277
G1 X98.319 Y102.721 E4.15317
G1 X98.128 Y102.358 E4.16449
G1 X98.026 Y102.096 E4.17223
G1 X95.317 Y104.805 E4.27782
G1 X94.941 Y104.262 E4.29601
G1 X97.811 Y101.392 E4.40786
G1 X97.680 Y100.605 E4.42984
G1 X94.619 Y103.666 E4.54913
G1 X94.356 Y103.011 E4.56860
G1 X97.636 Y99.731 E4.69643
G1 X97.650 Y99.272 E4.70907
G1 X97.697 Y98.751 E4.72348
G1 X94.149 Y102.300 E4.86176
G1 X94.007 Y101.524 E4.88350
G1 X97.971 Y97.560 E5.03800
G1 X95.655 Y95.284 F7800.000
G1 F1200
G1 X96.623 Y94.326 E5.07553
G1 X97.151 Y93.909 E5.09408
G1 X97.628 Y93.601 E5.10973
G1 X98.144 Y93.328 E5.12582
G1 X98.788 Y93.069 E5.14495
G1 X94.343 Y97.514 E5.31820
G1 X94.132 Y98.246 E5.33918
G1 X94.048 Y98.727 E5.35265
G1 X100.034 Y92.741 E5.58594
G1 X100.315 Y92.687 E5.59383
G1 X101.093 Y92.601 E5.61540
G1 X93.939 Y99.755 E5.89423
G1 X93.933 Y100.679 E5.91970
G1 X102.039 Y92.573 E6.23563
G1 X102.907 Y92.623 E6.25959
G1 X100.171 Y95.359 E6.36622
G1 X100.704 Y95.226 E6.38136
G1 X101.298 Y95.150 E6.39788
G1 X103.713 Y92.735 E6.49199
G1 X104.459 Y92.908 E6.51309
G1 X102.217 Y95.150 E6.60045
G1 X103.037 Y95.249 E6.62320
G1 X105.155 Y93.130 E6.70576
G1 X105.807 Y93.396 E6.72517
G1 X103.780 Y95.424 E6.80418
G1 X104.459 Y95.663 E6.82402
G1 X106.077 Y94.045 E6.88709
G1 X106.077 Y94.963 E6.91240
G1 X105.085 Y95.955 E6.95105
G1 Z3.000 F7800.000
G1 E4.95105 F2400.00000
G92 E0
G1 X106.077 Y94.019 F7800.000
G1 E2.00000 F2400.00000
G1 F1200
G1 X105.582 Y93.524 E2.01928
G1 X105.218 Y93.350 E2.03041
G1 X104.753 Y93.161 E2.04425
G1 X104.080 Y92.940 E2.06377
G1 X106.077 Y94.937 E2.14161
G1 X106.077 Y95.856 E2.16693
G1 X102.904 Y92.683 E2.29061
G1 X102.610 Y92.639 E2.29882
G1 X101.886 Y92.583 E2.31884
G1 X104.973 Y95.670 E2.43918
G1 X104.414 Y95.466 E2.45557
G1 X103.655 Y95.271 E2.47716
G1 X100.973 Y92.588 E2.58175
G1 X100.596 Y92.601 E2.59213
G1 X100.120 Y92.654 E2.60534
G1 X102.610 Y95.144 E2.70242
G1 X102.231 Y95.134 E2.71286
G1 X101.705 Y95.157 E2.72740
G1 X99.331 Y92.784 E2.81991
G1 X98.998 Y92.851 E2.82928
G1 X98.600 Y92.971 E2.84075
G1 X100.917 Y95.288 E2.93110
G1 X100.566 Y95.391 E2.94118
G1 X100.232 Y95.522 E2.95107
G1 X97.925 Y93.215 E3.04101
G1 X97.651 Y93.328 E3.04920
G1 X97.305 Y93.513 E3.06000
G1 X99.638 Y95.846 E3.15094
G1 X99.348 Y96.056 E3.16080
G1 X99.125 Y96.251 E3.16899
G1 X96.736 Y93.863 E3.26209
G1 X96.483 Y94.035 E3.27053
G1 X96.217 Y94.262 E3.28017
G1 X98.685 Y96.730 E3.37637
G1 X98.317 Y97.281 E3.39462
G1 X95.743 Y94.707 E3.49496
G1 X95.462 Y95.007 E3.50631
G1 X95.318 Y95.200 E3.51293
G1 X98.024 Y97.906 E3.61845
G1 X97.810 Y98.610 E3.63873
G1 X94.943 Y95.743 E3.75049
G1 X94.705 Y96.149 E3.76346
G1 X94.620 Y96.339 E3.76919
G1 X97.679 Y99.398 E3.88846
G1 X97.636 Y100.274 E3.91263
G1 X94.356 Y96.993 E4.04051
G1 X94.210 Y97.437 E4.05339
G1 X94.151 Y97.707 E4.06100
G1 X97.699 Y101.255 E4.19932
G1 X97.809 Y101.875 E4.21666
G1 X97.975 Y102.449 E4.23316
G1 X94.010 Y98.484 E4.38773
G1 X93.957 Y98.905 E4.39942
G1 X93.940 Y99.333 E4.41123
G1 X102.033 Y107.426 E4.72672
G1 X101.086 Y107.398 E4.75284
G1 X93.943 Y100.254 E5.03130
G1 X93.954 Y100.552 E5.03952
G1 X94.042 Y101.272 E5.05950
G1 X100.027 Y107.257 E5.29283
G1 X99.503 Y107.152 E5.30756
G1 X98.784 Y106.932 E5.32829
G1 X94.352 Y102.500 E5.50106
G1 X94.431 Y102.743 E5.50809
G1 X94.709 Y103.364 E5.52683
G1 X95.046 Y103.941 E5.54526
G1 X95.479 Y104.518 E5.56513
G1 X96.434 Y105.501 E5.60292
G1 X100.163 Y104.638 F7800.000
G1 F1200
G1 X102.905 Y107.379 E5.70979
G1 X103.711 Y107.267 E5.73222
G1 X101.293 Y104.849 E5.82646
G1 X101.742 Y104.866 E5.83884
G1 X102.213 Y104.850 E5.85184
G1 X104.454 Y107.092 E5.93920
G1 X105.153 Y106.872 E5.95940
G1 X103.033 Y104.752 E6.04203
G1 X103.777 Y104.577 E6.06308
G1 X105.807 Y106.607 E6.14222
G1 X106.077 Y106.477 E6.15049
G1 X106.077 Y105.959 E6.16477
G1 X104.456 Y104.338 E6.22795
G1 X105.083 Y104.046 E6.24700
G1 X106.077 Y105.041 E6.28576
M106 S237.15
G1 Z3.300 F7800.000
G1 X105.582 Y106.477 F7800.000
G1 F900
G1 X106.077 Y105.982 E6.30505
G1 X106.077 Y105.064 E6.33037
G1 X104.082 Y107.058 E6.40814
G1 X103.679 Y107.169 E6.41967
G1 X102.906 Y107.316 E6.44136
G1 X106.077 Y104.145 E6.56499
G1 X106.077 Y103.766 E6.57543
G1 X105.512 Y104.080 E6.59325
G1 X104.975 Y104.328 E6.60954
G1 X101.887 Y107.416 E6.72993
G1 X101.439 Y107.429 E6.74230
G1 X100.973 Y107.412 E6.75516
G1 X103.656 Y104.729 E6.85977
G1 X103.086 Y104.818 E6.87567
G1 X102.611 Y104.856 E6.88881
G1 X100.120 Y107.346 E6.98590
G1 X99.782 Y107.308 E6.99529
G1 X99.331 Y107.217 E7.00797
G1 X101.705 Y104.843 E7.10053
G1 X101.242 Y104.782 E7.11339
G1 X100.918 Y104.711 E7.12254
G1 X98.600 Y107.030 E7.21291
G1 X98.318 Y106.946 E7.22101
G1 X97.926 Y106.785 E7.23270
G1 X100.233 Y104.478 E7.32263
G1 X99.926 Y104.329 E7.33201
G1 X99.638 Y104.154 E7.34131
G1 X97.306 Y106.487 E7.43225
G1 X97.029 Y106.338 E7.44090
G1 X96.736 Y106.137 E7.45069
G1 X99.125 Y103.749 E7.54379
G1 X98.862 Y103.482 E7.55411
G1 X98.685 Y103.270 E7.56173
G1 X96.217 Y105.739 E7.65797
G1 X95.939 Y105.501 E7.66804
G1 X95.744 Y105.293 E7.67591
G1 X98.317 Y102.719 E7.77623
G1 X98.025 Y102.093 E7.79528
G1 X95.318 Y104.800 E7.90079
G1 X95.056 Y104.449 E7.91286
G1 X94.943 Y104.257 E7.91901
G1 X97.811 Y101.389 E8.03082
G1 X97.680 Y100.601 E8.05282
G1 X94.621 Y103.660 E8.17207
G1 X94.431 Y103.235 E8.18490
G1 X94.356 Y103.007 E8.19153
G1 X97.636 Y99.726 E8.31941
G1 X97.654 Y99.199 E8.33397
G1 X97.698 Y98.746 E8.34651
G1 X94.152 Y102.292 E8.48477
G1 X94.050 Y101.826 E8.49794
G1 X94.011 Y101.514 E8.50659
G1 X97.974 Y97.551 E8.66108
G1 E6.66108 F2400.00000
G92 E0
G1 X95.936 Y94.997 F7800.000
G1 E2.00000 F2400.00000
G1 F900
G1 X96.430 Y94.503 E2.01927
G1 X96.963 Y94.046 E2.03862
G1 X97.531 Y93.658 E2.05758
G1 X98.144 Y93.328 E2.07677
G1 X98.787 Y93.064 E2.09592
G1 X94.351 Y97.500 E2.26885
G1 X94.209 Y97.933 E2.28139
G1 X94.042 Y98.728 E2.30380
G1 X100.027 Y92.742 E2.53716
G1 X100.278 Y92.692 E2.54420
G1 X101.087 Y92.601 E2.56665
G1 X93.943 Y99.745 E2.84518
G1 X93.923 Y100.242 E2.85886
G1 X93.940 Y100.667 E2.87060
G1 X102.033 Y92.573 E3.18613
G1 X102.501 Y92.587 E3.19902
G1 X102.904 Y92.621 E3.21017
G1 X100.163 Y95.362 E3.31702
G1 X100.759 Y95.215 E3.33394
G1 X101.293 Y95.151 E3.34876
G1 X103.710 Y92.734 E3.44299
G1 X104.455 Y92.908 E3.46408
G1 X102.213 Y95.150 E3.55148
G1 X102.582 Y95.181 E3.56170
G1 X103.033 Y95.248 E3.57426
G1 X105.153 Y93.128 E3.65689
G1 X105.806 Y93.394 E3.67633
G1 X103.777 Y95.423 E3.75544
G1 X104.456 Y95.662 E3.77529
G1 X106.077 Y94.041 E3.83848
G1 X106.077 Y94.960 E3.86380
G1 X105.083 Y95.954 E3.90257
G1 E1.90257 F2400.00000
G92 E0
M107
; Filament-specific end gcode 
;END gcode for filament

M104 S0 ; turn off temperature
G28 X0  ; home X axis
M84     ; disable motors

M140 S0 ; set bed temperature
; filament used = 45.5mm (0.3cm3)
; total filament cost = 0.0

; avoid_crossing_perimeters = 0
; bed_shape = 0x0,200x0,200x200,0x200
; bed_temperature = 0
; before_layer_gcode = 
; between_objects_gcode = 
; bridge_acceleration = 0
; bridge_fan_speed = 100
; brim_connections_width = 0
; brim_width = 0
; complete_objects = 0
; cooling = 1
; default_acceleration = 0
; disable_fan_first_layers = 3
; duplicate_distance = 6
; end_filament_gcode = "; Filament-specific end gcode \n;END gcode for filament\n"
; end_gcode = M104 S0 ; turn off temperature\nG28 X0  ; home X axis\nM84     ; disable motors\n
; extruder_clearance_height = 20
; extruder_clearance_radius = 20
; extruder_offset = 0x0
; extrusion_axis = E
; extrusion_multiplier = 1
; fan_always_on = 0
; fan_below_layer_time = 60
; filament_colour = #FFFFFF
; filament_cost = 0
; filament_density = 0
; filament_diameter = 3
; filament_max_volumetric_speed = 0
; filament_notes = ""
; first_layer_acceleration = 0
; first_layer_bed_temperature = 0
; first_layer_extrusion_width = 200%
; first_layer_speed = 30
; first_layer_temperature = 205
; gcode_arcs = 0
; gcode_comments = 0
; gcode_flavor = reprap
; has_heatbed = 1
; infill_acceleration = 0
; infill_first = 0
; interior_brim_width = 0
; layer_gcode = 
; max_fan_speed = 100
; max_layer_height = 0.3
; max_print_speed = 80
; max_volumetric_speed = 0
; min_fan_speed = 35
; min_layer_height = 0.15
; min_print_speed = 10
; min_skirt_length = 0
; notes = 
; nozzle_diameter = 0.5
; only_retract_when_crossing_perimeters = 1
; ooze_prevention = 0
; output_filename_format = [input_filename_base].gcode
; perimeter_acceleration = 0
; post_process = 
; pressure_advance = 0
; printer_notes = 
; resolution = 0
; retract_before_travel = 2
; retract_layer_change = 0
; retract_length = 2
; retract_length_toolchange = 10
; retract_lift = 0
; retract_lift_above = 0
; retract_lift_below = 0
; retract_restart_extra = 0
; retract_restart_extra_toolchange = 0
; retract_speed = 40
; skirt_distance = 6
; skirt_height = 1
; skirts = 0
; slowdown_below_layer_time = 5
; spiral_vase = 0
; standby_temperature_delta = -5
; start_filament_gcode = "; Filament gcode\n"
; start_gcode = G28 ; home all axes\nG1 Z5 F5000 ; lift nozzle\n
; temperature = 200
; threads = 8
; toolchange_gcode = 
; travel_speed = 130
; use_firmware_retraction = 0
; use_relative_e_distances = 0
; use_set_and_wait_bed = 0
; use_set_and_wait_extruder = 0
; use_volumetric_e = 0
; vibration_limit = 0
; wipe = 0
; z_offset = 0
; z_steps_per_mm = 0
; adaptive_slicing = 0
; adaptive_slicing_quality = 75%
; dont_support_bridges = 1
; extrusion_width = 0
; first_layer_height = 0.3
; infill_only_where_needed = 0
; interface_shells = 0
; layer_height = 0.3
; match_horizontal_surfaces = 0
; raft_layers = 0
; regions_overlap = 0
; seam_position = aligned
; sequential_print_priority = 0
; support_material = 0
; support_material_angle = 0
; support_material_buildplate_only = 0
; support_material_contact_distance = 0.2
; support_material_enforce_layers = 0
; support_material_extruder = 1
; support_material_extrusion_width = 0
; support_material_interface_extruder = 1
; support_material_interface_extrusion_width = 0
; support_material_interface_layers = 3
; support_material_interface_spacing = 0
; support_material_interface_speed = 100%
; support_material_max_layers = 0
; support_material_pattern = pillars
; support_material_spacing = 2.5
; support_material_speed = 60
; support_material_threshold = 60%
; xy_size_compensation = 0
; bottom_infill_pattern = rectilinear
; bottom_solid_layers = 3
; bridge_flow_ratio = 1
; bridge_speed = 60
; external_perimeter_extrusion_width = 0
; external_perimeter_speed = 50%
; external_perimeters_first = 0
; extra_perimeters = 1
; fill_angle = 45
; fill_density = 90%
; fill_gaps = 1
; fill_pattern = rectilinear
; gap_fill_speed = 20
; infill_every_layers = 1
; infill_extruder = 1
; infill_extrusion_width = 0
; infill_overlap = 55%
; infill_speed = 80
; overhangs = 1
; perimeter_extruder = 1
; perimeter_extrusion_width = 0
; perimeter_speed = 60
; perimeters = 0
; small_perimeter_speed = 15
; solid_infill_below_area = 70
; solid_infill_every_layers = 0
; solid_infill_extruder = 1
; solid_infill_extrusion_width = 0
; solid_infill_speed = 20
; thin_walls = 1
; top_infill_extrusion_width = 0
; top_infill_pattern = rectilinear
; top_solid_infill_speed = 15
; top_solid_layers = 3
