; generated by Slic3r 1.3.0 on 2020-09-29 at 14:21:52

; external perimeters extrusion width = 0.55mm (4.37mm^3/s)
; perimeters extrusion width = 0.70mm (11.44mm^3/s)
; infill extrusion width = 0.63mm (13.45mm^3/s)
; solid infill extrusion width = 0.70mm (3.81mm^3/s)
; top infill extrusion width = 0.70mm (2.86mm^3/s)

M107
M104 S205 ; set temperature
G28 ; home all axes
G1 Z5 F5000 ; lift nozzle

; Filament gcode

M109 S205 ; set temperature and wait for it to be reached
G21 ; set units to millimeters
G90 ; use absolute coordinates
M82 ; use absolute distances for extrusion
G92 E0
G1 Z0.300 F7800.000
G1 E-2.00000 F2400.00000
G92 E0
G1 X93.338 Y92.567 F7800.000
G1 E2.00000 F2400.00000
G1 F1800
G1 X92.567 Y93.338 E2.02478
G1 X92.567 Y94.219 E2.04481
G1 X94.219 Y92.567 E2.09791
G1 X95.100 Y92.567 E2.11794
G1 X92.567 Y95.100 E2.19936
G1 X92.567 Y95.981 E2.21939
G1 X95.981 Y92.567 E2.32913
G1 X96.862 Y92.567 E2.34916
G1 X92.567 Y96.862 E2.48722
G1 X92.567 Y97.743 E2.50725
G1 X97.743 Y92.567 E2.67363
G1 X98.624 Y92.567 E2.69366
G1 X92.567 Y98.624 E2.88836
G1 X92.567 Y99.505 E2.90839
G1 X99.505 Y92.567 E3.13142
G1 X100.385 Y92.567 E3.15144
G1 X92.567 Y100.385 E3.40279
G1 X92.567 Y101.266 E3.42281
G1 X101.266 Y92.567 E3.70248
G1 X102.147 Y92.567 E3.72251
G1 X92.567 Y102.147 E4.03050
G1 X92.567 Y103.028 E4.05052
G1 X103.028 Y92.567 E4.38683
G1 X103.909 Y92.567 E4.40685
G1 X92.567 Y103.909 E4.77148
G1 X92.567 Y104.790 E4.79151
G1 X104.790 Y92.567 E5.18446
G1 X105.671 Y92.567 E5.20448
G1 X92.567 Y105.671 E5.62575
G1 X92.567 Y106.552 E5.64578
G1 X106.552 Y92.567 E6.09537
G1 X107.433 Y92.567 E6.11539
G1 X92.567 Y107.433 E6.59331
G1 X93.448 Y107.433 E6.61333
G1 X107.433 Y93.448 E7.06292
G1 X107.433 Y94.329 E7.08295
G1 X94.329 Y107.433 E7.50422
G1 X95.210 Y107.433 E7.52424
G1 X107.433 Y95.210 E7.91719
G1 X107.433 Y96.091 E7.93722
G1 X96.091 Y107.433 E8.30185
G1 X96.972 Y107.433 E8.32187
G1 X107.433 Y96.972 E8.65818
G1 X107.433 Y97.853 E8.67820
G1 X97.853 Y107.433 E8.98619
G1 X98.734 Y107.433 E9.00622
G1 X107.433 Y98.734 E9.28589
G1 X107.433 Y99.615 E9.30591
G1 X99.615 Y107.433 E9.55726
G1 X100.495 Y107.433 E9.57728
G1 X107.433 Y100.495 E9.80031
G1 X107.433 Y101.376 E9.82034
G1 X101.376 Y107.433 E10.01504
G1 X102.257 Y107.433 E10.03507
G1 X107.433 Y102.257 E10.20145
G1 X107.433 Y103.138 E10.22148
G1 X103.138 Y107.433 E10.35954
G1 X104.019 Y107.433 E10.37957
G1 X107.433 Y104.019 E10.48931
G1 X107.433 Y104.900 E10.50934
G1 X104.900 Y107.433 E10.59076
G1 X105.781 Y107.433 E10.61079
G1 X107.433 Y105.781 E10.66389
G1 X107.433 Y106.662 E10.68392
G1 X106.662 Y107.433 E10.70870
G1 Z0.600 F7800.000
G1 E-2.00000 F2400.00000
G92 E0
G1 X95.981 Y92.567 F7800.000
G1 E2.00000 F2400.00000
G1 F1800
G1 X95.067 Y93.481 E2.02937
G1 X95.067 Y94.362 E2.04940
G1 X96.862 Y92.567 E2.10709
G1 X97.743 Y92.567 E2.12712
G1 X95.067 Y95.243 E2.21313
G1 X95.067 Y96.124 E2.23316
G1 X98.624 Y92.567 E2.34749
G1 X99.505 Y92.567 E2.36752
G1 X95.067 Y97.005 E2.51017
G1 X95.067 Y97.885 E2.53020
G1 X100.385 Y92.567 E2.70117
G1 X101.266 Y92.567 E2.72120
G1 X95.067 Y98.766 E2.92050
G1 X95.067 Y99.647 E2.94052
G1 X102.147 Y92.567 E3.16814
G1 X103.028 Y92.567 E3.18816
G1 X95.067 Y100.528 E3.44410
G1 X95.067 Y101.409 E3.46413
G1 X103.909 Y92.567 E3.74838
G1 X104.790 Y92.567 E3.76841
G1 X95.067 Y102.290 E4.08099
G1 X95.067 Y103.171 E4.10101
G1 X104.933 Y93.305 E4.41818
G1 X104.933 Y94.186 E4.43821
G1 X95.067 Y104.052 E4.75538
G1 X95.067 Y104.933 E4.77540
G1 X104.933 Y95.067 E5.09257
G1 X104.933 Y95.948 E5.11260
G1 X95.067 Y105.814 E5.42976
G1 X95.067 Y106.695 E5.44979
G1 X104.933 Y96.829 E5.76696
G1 X104.933 Y97.710 E5.78698
G1 X95.210 Y107.433 E6.09956
G1 X96.091 Y107.433 E6.11959
G1 X104.933 Y98.591 E6.40384
G1 X104.933 Y99.472 E6.42387
G1 X96.972 Y107.433 E6.67981
G1 X97.853 Y107.433 E6.69983
G1 X104.933 Y100.353 E6.92745
G1 X104.933 Y101.234 E6.94747
G1 X98.734 Y107.433 E7.14677
G1 X99.615 Y107.433 E7.16680
G1 X104.933 Y102.115 E7.33777
G1 X104.933 Y102.995 E7.35780
G1 X100.495 Y107.433 E7.50045
G1 X101.376 Y107.433 E7.52048
G1 X104.933 Y103.876 E7.63481
G1 X104.933 Y104.757 E7.65484
G1 X102.257 Y107.433 E7.74085
G1 X103.138 Y107.433 E7.76088
G1 X104.933 Y105.638 E7.81857
G1 X104.933 Y106.519 E7.83860
G1 X104.019 Y107.433 E7.86797
G1 Z0.900 F7800.000
G1 E-2.00000 F2400.00000
G92 E0
G1 X98.624 Y92.567 F7800.000
G1 E2.00000 F2400.00000
G1 F1598.02
G1 X97.567 Y93.624 E2.03396
G1 X97.567 Y94.505 E2.05399
G1 X99.505 Y92.567 E2.11627
G1 X100.385 Y92.567 E2.13630
G1 X97.567 Y95.385 E2.22690
G1 X97.567 Y96.266 E2.24693
G1 X101.266 Y92.567 E2.36585
G1 X102.147 Y92.567 E2.38588
G1 X97.567 Y97.147 E2.53312
G1 X97.567 Y98.028 E2.55315
G1 X102.433 Y93.162 E2.70958
G1 X102.433 Y94.043 E2.72960
G1 X97.567 Y98.909 E2.88603
G1 X97.567 Y99.790 E2.90605
G1 X102.433 Y94.924 E3.06248
G1 X102.433 Y95.805 E3.08251
G1 X97.567 Y100.671 E3.23893
G1 X97.567 Y101.552 E3.25896
G1 X102.433 Y96.686 E3.41538
G1 X102.433 Y97.567 E3.43541
G1 X97.567 Y102.433 E3.59183
G1 X97.567 Y103.314 E3.61186
G1 X102.433 Y98.448 E3.76829
G1 X102.433 Y99.329 E3.78831
G1 X97.567 Y104.195 E3.94474
G1 X97.567 Y105.076 E3.96476
G1 X102.433 Y100.210 E4.12119
G1 X102.433 Y101.091 E4.14121
G1 X97.567 Y105.957 E4.29764
G1 X97.567 Y106.838 E4.31767
G1 X102.433 Y101.972 E4.47409
G1 X102.433 Y102.853 E4.49412
G1 X97.853 Y107.433 E4.64136
G1 X98.734 Y107.433 E4.66139
G1 X102.433 Y103.734 E4.78031
G1 X102.433 Y104.615 E4.80034
G1 X99.615 Y107.433 E4.89094
G1 X100.495 Y107.433 E4.91097
G1 X102.433 Y105.495 E4.97325
G1 X102.433 Y106.376 E4.99328
G1 X101.376 Y107.433 E5.02724
