;START_OF_HEADER
;HEADER_VERSION:0.1
;FLAVOR:Griffin
;GENERATOR.NAME:Cura_SteamEngine
;GENERATOR.VERSION:5.6.0
;GENERATOR.BUILD_DATE:2023-11-28
;TARGET_MACHINE.NAME:Ultimaker 3
;EXTRUDER_TRAIN.0.INITIAL_TEMPERATURE:215
;EXTRUDER_TRAIN.0.MATERIAL.VOLUME_USED:8154
;EXTRUDER_TRAIN.0.MATERIAL.GUID:851427a0-0c9a-4d7c-a9a8-5cc92f84af1f
;EXTRUDER_TRAIN.0.NOZZLE.DIAMETER:0.4
;EXTRUDER_TRAIN.0.NOZZLE.NAME:AA 0.4
;BUILD_PLATE.INITIAL_TEMPERATURE:60
;PRINT.TIME:4944
;PRINT.GROUPS:1
;PRINT.SIZE.MIN.X:9
;PRINT.SIZE.MIN.Y:6
;PRINT.SIZE.MIN.Z:0.2
;PRINT.SIZE.MAX.X:132.367
;PRINT.SIZE.MAX.Y:184.538
;PRINT.SIZE.MAX.Z:10.15
;SLICE_UUID:d9c6e6d6-2b65-4f6d-b413-29398e87a9dd
;END_OF_HEADER
;Generated with Cura_SteamEngine 5.6.0
T0
M82 ;absolute extrusion mode

G92 E0
M190 S60
M109 S215
G0 F15000 X9 Y6 Z2
G280
G1 F1500 E-6.5
;LAYER_COUNT:66
;LAYER:0
M106 S255
M204 S1000
M205 X20 Y20
G1 F600 Z2.2
G0 F15000 X18.308 Y120.568 Z2.2
;TYPE:SKIRT
G1 F600 Z0.2
G1 F1500 E0
G1 F1440 X36.635 Y120.568 E0.22983
G1 X39.129 Y121.416 E0.26286
G1 X41.494 Y123.851 E0.30543
G1 X42.399 Y126.623 E0.342
G1 X42.399 Y130.568 E0.39147
G1 X68.635 Y130.568 E0.72048
G1 X71.129 Y131.416 E0.75351
G1 X73.494 Y133.851 E0.79608
G1 X74.399 Y136.623 E0.83265
G1 X74.399 Y143.429 E0.918
G1 X74.025 Y145.147 E0.94005
G1 X73.043 Y146.757 E0.9637
G1 X71.099 Y148.643 E0.99766
G1 X68.338 Y149.538 E1.03406
G1 X29.399 Y149.538 E1.52237
G1 X29.399 Y165.568 E1.72339
G1 X68.635 Y165.568 E2.21543
G1 X71.129 Y166.416 E2.24846
G1 X73.397 Y168.751 E2.28928
G1 X73.397 Y149.429 E2.53159
G1 X74.245 Y146.935 E2.56462
G1 X76.68 Y144.57 E2.60719
G1 X79.452 Y143.665 E2.64375
G1 X91.603 Y143.665 E2.79613
G1 X94.097 Y144.513 E2.82917
G1 X96.462 Y146.948 E2.87173
G1 X97.327 Y149.598 E2.90669
G1 X97.355 Y149.943 E2.91103
G1 X108.397 Y149.948 E3.0495
G1 X108.418 Y149.367 E3.05679
G1 X109.245 Y146.935 E3.08901
G1 X111.68 Y144.57 E3.13158
G1 X114.452 Y143.665 E3.16814
G1 X126.603 Y143.665 E3.32052
G1 X129.097 Y144.513 E3.35356
G1 X131.462 Y146.948 E3.39612
G1 X132.367 Y149.72 E3.43269
G1 X132.367 Y173.526 E3.73123
G1 X131.993 Y175.244 E3.75328
G1 X131.011 Y176.854 E3.77693
G1 X129.067 Y178.74 E3.81089
G1 X126.306 Y179.635 E3.84729
G1 X114.506 Y179.635 E3.99527
G1 X112.788 Y179.261 E4.01731
G1 X111.178 Y178.279 E4.04096
G1 X109.293 Y176.336 E4.07491
G1 X108.742 Y174.635 E4.09733
G1 X97.126 Y174.635 E4.243
G1 X96.993 Y175.244 E4.25082
G1 X96.011 Y176.854 E4.27447
G1 X94.067 Y178.74 E4.30844
G1 X91.306 Y179.635 E4.34483
G1 X79.506 Y179.635 E4.49281
G1 X77.788 Y179.261 E4.51486
G1 X76.178 Y178.279 E4.53851
G1 X74.399 Y176.445 E4.57055
G1 X74.399 Y178.429 E4.59543
G1 X74.025 Y180.147 E4.61748
G1 X73.043 Y181.757 E4.64113
G1 X71.099 Y183.643 E4.67509
G1 X68.338 Y184.538 E4.71149
G1 X18.357 Y184.538 E5.33827
G1 X16.639 Y184.164 E5.36032
G1 X15.029 Y183.182 E5.38397
G1 X13.142 Y181.237 E5.41795
G1 X12.248 Y178.479 E5.45431
G1 X12.247 Y126.677 E6.10393
G1 X12.621 Y124.959 E6.12598
G1 X13.603 Y123.349 E6.14963
G1 X15.547 Y121.463 E6.18359
G1 X18.308 Y120.568 E6.21999
G0 F15000 X18.372 Y120.968
G1 F1440 X36.568 Y120.968 E6.44817
G1 X38.909 Y121.764 E6.47918
G1 X41.143 Y124.064 E6.51939
G1 X41.999 Y126.686 E6.55398
G1 X41.999 Y130.968 E6.60768
G1 X68.568 Y130.968 E6.94086
G1 X70.909 Y131.764 E6.97187
G1 X73.143 Y134.064 E7.01208
G1 X73.999 Y136.686 E7.04667
G1 X73.999 Y143.385 E7.13068
G1 X73.648 Y144.998 E7.15138
G1 X72.73 Y146.503 E7.17348
G1 X70.887 Y148.291 E7.20569
G1 X68.274 Y149.138 E7.24013
G1 X28.999 Y149.138 E7.73265
G1 X28.999 Y165.968 E7.94371
G1 X68.568 Y165.968 E8.43992
G1 X70.909 Y166.764 E8.47093
G1 X73.143 Y169.064 E8.51114
G1 X73.797 Y171.067 E8.53756
G1 X73.797 Y149.496 E8.80807
G1 X74.593 Y147.155 E8.83908
G1 X76.893 Y144.921 E8.87928
G1 X79.515 Y144.065 E8.91387
G1 X91.536 Y144.065 E9.06462
G1 X93.877 Y144.861 E9.09563
G1 X96.111 Y147.161 E9.13584
G1 X96.947 Y149.722 E9.16962
G1 X96.967 Y150.343 E9.17741
G1 X108.797 Y150.348 E9.32577
G1 X108.797 Y149.496 E9.33645
G1 X109.593 Y147.155 E9.36746
G1 X111.893 Y144.921 E9.40767
G1 X114.515 Y144.065 E9.44226
G1 X126.536 Y144.065 E9.593
G1 X128.877 Y144.861 E9.62401
G1 X131.111 Y147.161 E9.66422
G1 X131.967 Y149.783 E9.69881
G1 X131.967 Y173.482 E9.996
G1 X131.616 Y175.095 E10.0167
G1 X130.698 Y176.6 E10.03881
G1 X128.855 Y178.388 E10.07101
G1 X126.242 Y179.235 E10.10546
G1 X114.55 Y179.235 E10.25208
G1 X112.937 Y178.884 E10.27278
G1 X111.432 Y177.966 E10.29489
G1 X109.645 Y176.124 E10.32707
G1 X109.033 Y174.235 E10.35197
G1 X96.803 Y174.235 E10.50534
G1 X96.616 Y175.095 E10.51638
G1 X95.698 Y176.6 E10.53849
G1 X93.855 Y178.388 E10.57069
G1 X91.242 Y179.235 E10.60513
G1 X79.55 Y179.235 E10.75176
G1 X77.937 Y178.884 E10.77246
G1 X76.432 Y177.966 E10.79456
G1 X74.644 Y176.123 E10.82676
G1 X73.999 Y174.134 E10.85299
G1 X73.999 Y178.385 E10.9063
G1 X73.648 Y179.998 E10.927
G1 X72.73 Y181.503 E10.9491
G1 X70.887 Y183.291 E10.9813
G1 X68.274 Y184.138 E11.01575
G1 X18.401 Y184.138 E11.64118
G1 X16.788 Y183.787 E11.66188
G1 X15.283 Y182.869 E11.68399
G1 X13.494 Y181.025 E11.7162
G1 X12.648 Y178.415 E11.75061
G1 X12.647 Y126.721 E12.39887
G1 X12.998 Y125.108 E12.41957
G1 X13.916 Y123.603 E12.44168
G1 X15.759 Y121.815 E12.47388
G1 X18.372 Y120.968 E12.50833
G0 F15000 X18.436 Y121.368
G1 F1440 X36.501 Y121.368 E12.73487
G1 X38.689 Y122.112 E12.76385
G1 X40.792 Y124.277 E12.8017
G1 X41.599 Y126.749 E12.83431
G1 X41.599 Y131.368 E12.89224
G1 X68.501 Y131.368 E13.2296
G1 X70.689 Y132.112 E13.25858
G1 X72.792 Y134.277 E13.29643
G1 X73.599 Y136.749 E13.32904
G1 X73.599 Y143.341 E13.4117
G1 X73.271 Y144.849 E13.43106
G1 X72.417 Y146.249 E13.45162
G1 X70.675 Y147.939 E13.48206
G1 X68.21 Y148.738 E13.51455
G1 X28.599 Y148.738 E14.01129
G1 X28.599 Y166.368 E14.23238
G1 X68.501 Y166.368 E14.73276
G1 X70.689 Y167.112 E14.76174
G1 X72.792 Y169.277 E14.79959
G1 X73.599 Y171.749 E14.8322
G1 X73.599 Y178.341 E14.91487
G1 X73.271 Y179.849 E14.93422
G1 X72.417 Y181.249 E14.95479
G1 X70.675 Y182.939 E14.98522
G1 X68.21 Y183.738 E15.01772
G1 X18.445 Y183.738 E15.64179
G1 X16.937 Y183.41 E15.66114
G1 X15.537 Y182.556 E15.68171
G1 X13.846 Y180.813 E15.71216
G1 X13.048 Y178.351 E15.74462
G1 X13.047 Y126.765 E16.39153
G1 X13.375 Y125.257 E16.41088
G1 X14.229 Y123.857 E16.43145
G1 X15.971 Y122.167 E16.46188
G1 X18.436 Y121.368 E16.49438
G0 F15000 X18.5 Y121.768
G1 F1440 X36.434 Y121.768 E16.71928
G1 X38.469 Y122.46 E16.74623
G1 X40.441 Y124.49 E16.78172
G1 X41.199 Y126.812 E16.81235
G1 X41.199 Y131.768 E16.8745
G1 X68.434 Y131.768 E17.21604
G1 X70.469 Y132.46 E17.24299
G1 X72.441 Y134.49 E17.27849
G1 X73.199 Y136.812 E17.30912
G1 X73.199 Y143.297 E17.39044
G1 X72.894 Y144.7 E17.40845
G1 X72.104 Y145.995 E17.42747
G1 X70.463 Y147.587 E17.45614
G1 X68.146 Y148.338 E17.48668
G1 X28.199 Y148.338 E17.98764
G1 X28.199 Y166.768 E18.21875
G1 X68.434 Y166.768 E18.72332
G1 X70.469 Y167.46 E18.75027
G1 X72.441 Y169.49 E18.78576
G1 X73.199 Y171.812 E18.81639
G1 X73.199 Y178.297 E18.89772
G1 X72.894 Y179.7 E18.91572
G1 X72.104 Y180.995 E18.93475
G1 X70.463 Y182.587 E18.96342
G1 X68.146 Y183.338 E18.99396
G1 X18.489 Y183.338 E19.61668
G1 X17.086 Y183.033 E19.63468
G1 X15.791 Y182.243 E19.65371
G1 X14.198 Y180.601 E19.6824
G1 X13.448 Y178.287 E19.7129
G1 X13.447 Y126.809 E20.35845
G1 X13.752 Y125.406 E20.37646
G1 X14.542 Y124.111 E20.39548
G1 X16.183 Y122.519 E20.42415
G1 X18.5 Y121.768 E20.4547
G0 F15000 X18.564 Y122.168
G1 F1440 X16.395 Y122.871 E20.48329
G1 X14.855 Y124.365 E20.5102
G1 X14.129 Y125.555 E20.52768
G1 X13.847 Y126.853 E20.54434
G1 X13.848 Y178.223 E21.18853
G1 X14.55 Y180.389 E21.21709
G1 X16.045 Y181.93 E21.24401
G1 X17.235 Y182.656 E21.26149
G1 X18.533 Y182.938 E21.27815
G1 X68.082 Y182.938 E21.89951
G1 X70.251 Y182.235 E21.92811
G1 X71.791 Y180.741 E21.95501
G1 X72.517 Y179.551 E21.97249
G1 X72.799 Y178.253 E21.98915
G1 X72.799 Y171.875 E22.06913
G1 X72.09 Y169.703 E22.09779
G1 X70.249 Y167.808 E22.13092
G1 X68.367 Y167.168 E22.15585
G1 X27.799 Y167.168 E22.66458
G1 X27.799 Y147.938 E22.90573
G1 X68.082 Y147.938 E23.4109
G1 X70.251 Y147.235 E23.43949
G1 X71.791 Y145.741 E23.4664
G1 X72.517 Y144.551 E23.48388
G1 X72.799 Y143.253 E23.50054
G1 X72.799 Y136.875 E23.58052
G1 X72.09 Y134.703 E23.60917
G1 X70.249 Y132.808 E23.6423
G1 X68.367 Y132.168 E23.66723
G1 X40.799 Y132.168 E24.01294
G1 X40.799 Y126.875 E24.07932
G1 X40.09 Y124.703 E24.10797
G1 X38.249 Y122.808 E24.1411
G1 X36.367 Y122.168 E24.16603
G1 X18.564 Y122.168 E24.38929
G0 F15000 X18.628 Y122.568
G1 F1440 X16.607 Y123.223 E24.41593
G1 X15.168 Y124.619 E24.44107
G1 X14.506 Y125.704 E24.45701
G1 X14.247 Y126.897 E24.47232
G1 X14.248 Y178.162 E25.1152
G1 X14.901 Y180.176 E25.14175
G1 X16.299 Y181.617 E25.16693
G1 X17.384 Y182.279 E25.18287
G1 X18.577 Y182.538 E25.19818
G1 X68.018 Y182.538 E25.81819
G1 X70.039 Y181.883 E25.84483
G1 X71.478 Y180.487 E25.86997
G1 X72.14 Y179.402 E25.88591
G1 X72.399 Y178.209 E25.90122
G1 X72.399 Y171.938 E25.97986
G1 X71.739 Y169.916 E26.00653
G1 X70.029 Y168.156 E26.03731
G1 X68.3 Y167.568 E26.06021
G1 X27.399 Y167.568 E26.57312
G1 X27.399 Y147.538 E26.82431
G1 X68.018 Y147.538 E27.33368
G1 X70.039 Y146.883 E27.36033
G1 X71.478 Y145.487 E27.38547
G1 X72.14 Y144.402 E27.40141
G1 X72.399 Y143.209 E27.41672
G1 X72.399 Y136.938 E27.49536
G1 X71.739 Y134.916 E27.52203
G1 X70.029 Y133.156 E27.5528
G1 X68.3 Y132.568 E27.5757
G1 X40.399 Y132.568 E27.92559
G1 X40.399 Y126.938 E27.9962
G1 X39.739 Y124.916 E28.02287
G1 X38.029 Y123.156 E28.05364
G1 X36.3 Y122.568 E28.07654
G1 X18.628 Y122.568 E28.29816
G0 F15000 X18.692 Y122.968
G1 F1440 X36.233 Y122.968 E28.51813
G1 X37.809 Y123.504 E28.539
G1 X39.388 Y125.129 E28.56742
G1 X39.999 Y127.001 E28.59211
G1 X39.999 Y132.968 E28.66694
G1 X68.233 Y132.968 E29.021
G1 X69.809 Y133.504 E29.04188
G1 X71.388 Y135.129 E29.07029
G1 X71.999 Y137.001 E29.09499
G1 X71.999 Y143.165 E29.17229
G1 X71.763 Y144.253 E29.18625
G1 X71.165 Y145.233 E29.20064
G1 X69.827 Y146.531 E29.22402
G1 X67.954 Y147.138 E29.24871
G1 X26.999 Y147.138 E29.7623
G1 X26.999 Y167.968 E30.02352
G1 X68.233 Y167.968 E30.54061
G1 X69.809 Y168.504 E30.56148
G1 X71.388 Y170.129 E30.5899
G1 X71.999 Y172.001 E30.61459
G1 X71.999 Y178.165 E30.69189
G1 X71.763 Y179.253 E30.70585
G1 X71.165 Y180.233 E30.72025
G1 X69.827 Y181.531 E30.74363
G1 X67.954 Y182.138 E30.76832
G1 X18.621 Y182.138 E31.38697
G1 X17.533 Y181.902 E31.40093
G1 X16.553 Y181.304 E31.41533
G1 X15.253 Y179.964 E31.43874
G1 X14.648 Y178.098 E31.46334
G1 X14.647 Y126.941 E32.10487
G1 X14.883 Y125.853 E32.11883
G1 X15.481 Y124.873 E32.13323
G1 X16.819 Y123.575 E32.15661
G1 X18.692 Y122.968 E32.1813
G0 F15000 X18.753 Y123.368
G1 F1440 X36.166 Y123.368 E32.39966
G1 X37.589 Y123.852 E32.41851
G1 X39.037 Y125.342 E32.44457
G1 X39.599 Y127.064 E32.46728
G1 X39.599 Y133.368 E32.54634
G1 X68.166 Y133.368 E32.90458
G1 X69.589 Y133.852 E32.92342
G1 X71.037 Y135.342 E32.94948
G1 X71.599 Y137.064 E32.9722
G1 X71.599 Y143.121 E33.04815
G1 X71.386 Y144.102 E33.06074
G1 X70.85 Y144.981 E33.07365
G1 X69.614 Y146.18 E33.09525
G1 X67.893 Y146.738 E33.11793
G1 X26.599 Y146.738 E33.63578
G1 X26.599 Y168.368 E33.90702
G1 X68.166 Y168.368 E34.42829
G1 X69.589 Y168.852 E34.44714
G1 X71.037 Y170.342 E34.47319
G1 X71.599 Y172.064 E34.49591
G1 X71.599 Y178.121 E34.57187
G1 X71.386 Y179.102 E34.58446
G1 X70.85 Y179.981 E34.59737
G1 X69.614 Y181.18 E34.61896
G1 X67.893 Y181.738 E34.64165
G1 X18.665 Y181.738 E35.25899
G1 X17.684 Y181.525 E35.27158
G1 X16.805 Y180.989 E35.28449
G1 X15.605 Y179.752 E35.3061
G1 X15.048 Y178.034 E35.32875
G1 X15.047 Y126.985 E35.96892
G1 X15.26 Y126.004 E35.98151
G1 X15.796 Y125.125 E35.99442
G1 X17.032 Y123.926 E36.01601
G1 X18.753 Y123.368 E36.0387
G0 F15000 X18.814 Y123.768
G1 F1440 X17.245 Y124.277 E36.05939
G1 X16.111 Y125.377 E36.0792
G1 X15.637 Y126.155 E36.09062
G1 X15.447 Y127.029 E36.10184
G1 X15.448 Y177.973 E36.7407
G1 X15.956 Y179.539 E36.76134
G1 X17.057 Y180.674 E36.78117
G1 X17.835 Y181.148 E36.7926
G1 X18.709 Y181.338 E36.80381
G1 X67.832 Y181.338 E37.41983
G1 X69.401 Y180.829 E37.44052
G1 X70.535 Y179.729 E37.46033
G1 X71.009 Y178.951 E37.47176
G1 X71.199 Y178.077 E37.48297
G1 X71.199 Y172.127 E37.55759
G1 X70.686 Y170.555 E37.57832
G1 X69.369 Y169.2 E37.60202
G1 X68.099 Y168.768 E37.61884
G1 X26.199 Y168.768 E38.14428
G1 X26.199 Y146.338 E38.42556
G1 X67.832 Y146.338 E38.94766
G1 X69.401 Y145.829 E38.96834
G1 X70.535 Y144.729 E38.98815
G1 X71.009 Y143.951 E38.99958
G1 X71.199 Y143.077 E39.0108
G1 X71.199 Y137.127 E39.08541
G1 X70.686 Y135.555 E39.10615
G1 X69.369 Y134.2 E39.12984
G1 X68.099 Y133.768 E39.14667
G1 X39.199 Y133.768 E39.50908
G1 X39.199 Y127.127 E39.59236
G1 X38.686 Y125.555 E39.6131
G1 X37.369 Y124.2 E39.6368
G1 X36.099 Y123.768 E39.65362
G1 X18.814 Y123.768 E39.87038
G0 F15000 X18.875 Y124.168
G1 F1440 X17.457 Y124.628 E39.88907
G1 X16.428 Y125.626 E39.90705
G1 X16.014 Y126.306 E39.91703
G1 X15.847 Y127.073 E39.92688
G1 X15.848 Y177.912 E40.56442
G1 X16.307 Y179.327 E40.58307
G1 X17.306 Y180.357 E40.60107
G1 X17.986 Y180.771 E40.61105
G1 X18.753 Y180.938 E40.62089
G1 X67.771 Y180.938 E41.2356
G1 X69.189 Y180.478 E41.25429
G1 X70.218 Y179.48 E41.27227
G1 X70.632 Y178.8 E41.28225
G1 X70.799 Y178.033 E41.2921
G1 X70.799 Y172.19 E41.36537
G1 X70.335 Y170.768 E41.38413
G1 X69.149 Y169.548 E41.40546
G1 X68.032 Y169.168 E41.42026
G1 X25.799 Y169.168 E41.94988
G1 X25.799 Y145.938 E42.24119
G1 X67.771 Y145.938 E42.76753
G1 X69.189 Y145.478 E42.78623
G1 X70.218 Y144.48 E42.8042
G1 X70.632 Y143.8 E42.81419
G1 X70.799 Y143.033 E42.82403
G1 X70.799 Y137.19 E42.89731
G1 X70.335 Y135.768 E42.91606
G1 X69.149 Y134.548 E42.9374
G1 X68.032 Y134.168 E42.9522
G1 X38.799 Y134.168 E43.31879
G1 X38.799 Y127.19 E43.4063
G1 X38.335 Y125.768 E43.42505
G1 X37.149 Y124.548 E43.44639
G1 X36.032 Y124.168 E43.46119
G1 X18.875 Y124.168 E43.67634
G0 F15000 X18.936 Y124.568
G1 F1440 X17.669 Y124.979 E43.69305
G1 X16.745 Y125.875 E43.70919
G1 X16.391 Y126.457 E43.71773
G1 X16.247 Y127.117 E43.7262
G1 X16.248 Y177.851 E44.36242
G1 X16.658 Y179.115 E44.37909
G1 X17.555 Y180.04 E44.39525
G1 X18.137 Y180.394 E44.40379
G1 X18.797 Y180.538 E44.41226
G1 X67.71 Y180.538 E45.02565
G1 X68.977 Y180.127 E45.04235
G1 X69.901 Y179.231 E45.05849
G1 X70.255 Y178.649 E45.06703
G1 X70.399 Y177.989 E45.0755
G1 X70.399 Y172.253 E45.14744
G1 X69.984 Y170.981 E45.16421
G1 X68.929 Y169.896 E45.18319
G1 X67.965 Y169.568 E45.19596
G1 X25.399 Y169.568 E45.72976
G1 X25.399 Y145.538 E46.0311
G1 X67.71 Y145.538 E46.5617
G1 X68.977 Y145.127 E46.5784
G1 X69.901 Y144.231 E46.59454
G1 X70.255 Y143.649 E46.60308
G1 X70.399 Y142.989 E46.61155
G1 X70.399 Y137.253 E46.68349
G1 X69.984 Y135.981 E46.70027
G1 X68.929 Y134.896 E46.71924
G1 X67.965 Y134.568 E46.73201
G1 X38.399 Y134.568 E47.10278
G1 X38.399 Y127.253 E47.19451
G1 X37.984 Y125.981 E47.21129
G1 X36.929 Y124.896 E47.23027
G1 X35.965 Y124.568 E47.24304
G1 X18.936 Y124.568 E47.45659
G0 F15000 X18.997 Y124.968
G1 F1440 X17.881 Y125.33 E47.4713
G1 X17.062 Y126.124 E47.48561
G1 X16.768 Y126.608 E47.49271
G1 X16.647 Y127.161 E47.49981
G1 X16.648 Y177.789 E48.1347
G1 X17.01 Y178.904 E48.1494
G1 X17.804 Y179.723 E48.16371
G1 X18.288 Y180.017 E48.17081
G1 X18.841 Y180.138 E48.17791
G1 X67.649 Y180.138 E48.78998
G1 X68.765 Y179.776 E48.80469
G1 X69.584 Y178.982 E48.819
G1 X69.878 Y178.498 E48.8261
G1 X69.999 Y177.945 E48.8332
G1 X69.999 Y172.316 E48.90379
G1 X69.633 Y171.194 E48.91859
G1 X68.709 Y170.244 E48.93521
G1 X67.898 Y169.968 E48.94595
G1 X24.999 Y169.968 E49.48392
G1 X24.999 Y145.138 E49.7953
G1 X67.649 Y145.138 E50.33014
G1 X68.765 Y144.776 E50.34486
G1 X69.584 Y143.982 E50.35916
G1 X69.878 Y143.498 E50.36626
G1 X69.999 Y142.945 E50.37336
G1 X69.999 Y137.316 E50.44395
G1 X69.633 Y136.194 E50.45875
G1 X68.709 Y135.244 E50.47537
G1 X67.898 Y134.968 E50.48611
G1 X37.999 Y134.968 E50.86106
G1 X37.999 Y127.316 E50.95702
G1 X37.633 Y126.194 E50.97182
G1 X36.709 Y125.244 E50.98844
G1 X35.898 Y124.968 E50.99918
G1 X18.997 Y124.968 E51.21112
G0 F15000 X19.059 Y125.368
G1 F1440 X35.831 Y125.368 E51.42145
