;START_OF_HEADER
;HEADER_VERSION:0.1
;FLAVOR:Griffin
;GENERATOR.NAME:Cura_SteamEngine
;GENERATOR.VERSION:5.3.1
;GENERATOR.BUILD_DATE:2023-04-19
;TARGET_MACHINE.NAME:Ultimaker 3
;EXTRUDER_TRAIN.0.INITIAL_TEMPERATURE:215
;EXTRUDER_TRAIN.0.MATERIAL.VOLUME_USED:10129
;EXTRUDER_TRAIN.0.MATERIAL.GUID:851427a0-0c9a-4d7c-a9a8-5cc92f84af1f
;EXTRUDER_TRAIN.0.NOZZLE.DIAMETER:0.4
;EXTRUDER_TRAIN.0.NOZZLE.NAME:AA 0.4
;BUILD_PLATE.INITIAL_TEMPERATURE:60
;PRINT.TIME:6096
;PRINT.GROUPS:1
;PRINT.SIZE.MIN.X:9
;PRINT.SIZE.MIN.Y:6
;PRINT.SIZE.MIN.Z:0.2
;PRINT.SIZE.MAX.X:196.732
;PRINT.SIZE.MAX.Y:164.485
;PRINT.SIZE.MAX.Z:5
;SLICE_UUID:82890f5a-1417-4c2b-a950-f14eafa15d59
;END_OF_HEADER
;Generated with Cura_SteamEngine 5.3.1
T0
M82 ;absolute extrusion mode

G92 E0
M109 S215
G0 F15000 X9 Y6 Z2
G280
G1 F1500 E-6.5
;LAYER_COUNT:33
;LAYER:0
M106 S255
M204 S1000
M205 X20 Y20
G1 F600 Z2.2
G0 F15000 X41.012 Y51.42 Z2.2
;TYPE:SKIRT
G1 F600 Z0.2
G1 F1500 E0
G1 F1440 X43.784 Y50.515 E0.03657
G1 X93.589 Y50.515 E0.66114
G1 X95.52 Y50.952 E0.68597
G1 X97.027 Y51.977 E0.70882
G1 X98.794 Y53.798 E0.74064
G1 X99.699 Y56.57 E0.77721
G1 X99.699 Y62.664 E0.85363
G1 X99.293 Y64.501 E0.87723
G1 X98.292 Y66.025 E0.90009
G1 X96.404 Y67.856 E0.93307
G1 X93.697 Y68.755 E0.96884
G1 X43.822 Y68.756 E1.59429
G1 X41.956 Y68.346 E1.61825
G1 X40.48 Y67.362 E1.6405
G1 X38.63 Y65.454 E1.67382
G1 X37.729 Y62.677 E1.71044
G1 X37.729 Y56.625 E1.78633
G1 X38.166 Y54.694 E1.81116
G1 X39.191 Y53.187 E1.83401
G1 X41.012 Y51.42 E1.86583
G0 F15000 X41.225 Y51.771
G1 F1440 X43.847 Y50.915 E1.90042
G1 X93.545 Y50.915 E2.52365
G1 X95.357 Y51.325 E2.54695
G1 X96.768 Y52.285 E2.56835
G1 X98.443 Y54.011 E2.59851
G1 X99.299 Y56.633 E2.6331
G1 X99.299 Y62.619 E2.70817
G1 X98.917 Y64.345 E2.73034
G1 X97.983 Y65.768 E2.75168
G1 X96.193 Y67.504 E2.78295
G1 X93.631 Y68.355 E2.81681
G1 X43.867 Y68.356 E3.44087
G1 X42.115 Y67.971 E3.46336
G1 X40.735 Y67.051 E3.48416
G1 X38.981 Y65.242 E3.51576
G1 X38.129 Y62.616 E3.55038
G1 X38.129 Y56.669 E3.62496
G1 X38.539 Y54.857 E3.64826
G1 X39.499 Y53.446 E3.66966
G1 X41.225 Y51.771 E3.69982
G0 F15000 X41.438 Y52.122
G1 F1440 X43.91 Y51.315 E3.73243
G1 X93.501 Y51.315 E4.35432
G1 X95.194 Y51.698 E4.37609
G1 X96.509 Y52.593 E4.39603
G1 X98.092 Y54.224 E4.42454
G1 X98.899 Y56.696 E4.45715
G1 X98.899 Y62.574 E4.53086
G1 X98.542 Y64.188 E4.55159
G1 X97.672 Y65.513 E4.57146
G1 X95.982 Y67.152 E4.60099
G1 X93.565 Y67.955 E4.63293
G1 X43.912 Y67.956 E5.25559
G1 X42.274 Y67.596 E5.27663
G1 X40.99 Y66.74 E5.29598
G1 X39.332 Y65.03 E5.32585
G1 X38.529 Y62.555 E5.35848
G1 X38.529 Y56.713 E5.43174
G1 X38.912 Y55.02 E5.4535
G1 X39.807 Y53.705 E5.47345
G1 X41.438 Y52.122 E5.50196
G0 F15000 X41.651 Y52.473
G1 F1440 X43.973 Y51.715 E5.53259
G1 X93.457 Y51.715 E6.15313
G1 X95.031 Y52.071 E6.17337
G1 X96.25 Y52.901 E6.19186
G1 X97.741 Y54.437 E6.21871
G1 X98.499 Y56.759 E6.24934
G1 X98.499 Y62.529 E6.3217
G1 X98.167 Y64.031 E6.34099
G1 X97.361 Y65.258 E6.3594
G1 X95.771 Y66.8 E6.38717
G1 X93.499 Y67.555 E6.4172
G1 X43.957 Y67.556 E7.03847
G1 X42.433 Y67.221 E7.05804
G1 X41.245 Y66.429 E7.07595
G1 X39.683 Y64.818 E7.10409
G1 X38.929 Y62.494 E7.13472
G1 X38.929 Y56.757 E7.20667
G1 X39.285 Y55.183 E7.22691
G1 X40.115 Y53.964 E7.2454
G1 X41.651 Y52.473 E7.27224
G0 F15000 X41.864 Y52.824
G1 F1440 X44.036 Y52.115 E7.3009
G1 X93.413 Y52.115 E7.9201
G1 X94.868 Y52.444 E7.93881
G1 X95.991 Y53.209 E7.95585
G1 X97.39 Y54.65 E7.98104
G1 X98.099 Y56.822 E8.00969
G1 X98.099 Y62.484 E8.08069
G1 X97.791 Y63.875 E8.09856
G1 X97.052 Y65.001 E8.11545
G1 X95.56 Y66.448 E8.14151
G1 X93.433 Y67.155 E8.16962
G1 X44.002 Y67.156 E8.7895
G1 X42.592 Y66.846 E8.80761
G1 X41.5 Y66.118 E8.82407
G1 X40.034 Y64.606 E8.85048
G1 X39.329 Y62.433 E8.87912
G1 X39.329 Y56.801 E8.94975
G1 X39.658 Y55.346 E8.96846
G1 X40.423 Y54.223 E8.9855
G1 X41.864 Y52.824 E9.01068
G0 F15000 X42.077 Y53.175
G1 F1440 X44.099 Y52.515 E9.03736
G1 X93.369 Y52.515 E9.65522
G1 X94.705 Y52.817 E9.6724
G1 X95.732 Y53.517 E9.68798
G1 X97.039 Y54.863 E9.71151
G1 X97.699 Y56.885 E9.73819
G1 X97.699 Y62.438 E9.80782
G1 X97.415 Y63.72 E9.82429
G1 X96.743 Y64.744 E9.83965
G1 X95.349 Y66.096 E9.864
G1 X93.367 Y66.755 E9.89019
G1 X44.047 Y66.756 E10.50868
G1 X42.751 Y66.471 E10.52533
G1 X41.755 Y65.807 E10.54034
G1 X40.385 Y64.394 E10.56502
G1 X39.729 Y62.372 E10.59168
G1 X39.729 Y56.845 E10.66099
G1 X40.031 Y55.509 E10.67816
G1 X40.731 Y54.482 E10.69375
G1 X42.077 Y53.175 E10.71728
G0 F15000 X42.29 Y53.526
G1 F1440 X44.162 Y52.915 E10.74197
G1 X93.325 Y52.915 E11.35849
G1 X94.544 Y53.19 E11.37416
G1 X95.47 Y53.822 E11.38822
G1 X96.688 Y55.076 E11.41015
G1 X97.299 Y56.948 E11.43484
G1 X97.299 Y62.392 E11.50311
G1 X97.039 Y63.565 E11.51818
G1 X96.434 Y64.487 E11.53201
G1 X95.138 Y65.744 E11.55465
G1 X93.301 Y66.355 E11.57892
G1 X44.092 Y66.356 E12.19602
G1 X42.91 Y66.096 E12.2112
G1 X42.01 Y65.496 E12.22476
G1 X40.736 Y64.182 E12.24772
G1 X40.129 Y62.311 E12.27238
G1 X40.129 Y56.889 E12.34038
G1 X40.404 Y55.67 E12.35605
G1 X41.036 Y54.744 E12.37011
G1 X42.29 Y53.526 E12.39203
G0 F15000 X42.503 Y53.877
G1 F1440 X44.225 Y53.315 E12.41475
G1 X93.281 Y53.315 E13.02993
G1 X94.381 Y53.563 E13.04407
G1 X95.21 Y54.129 E13.05665
G1 X96.337 Y55.289 E13.07694
G1 X96.899 Y57.011 E13.09965
G1 X96.899 Y62.347 E13.16657
G1 X96.664 Y63.408 E13.18019
G1 X96.123 Y64.232 E13.19256
G1 X94.927 Y65.392 E13.21345
G1 X93.235 Y65.955 E13.23581
G1 X44.137 Y65.956 E13.85152
G1 X43.069 Y65.721 E13.86523
G1 X42.265 Y65.185 E13.87735
G1 X41.087 Y63.97 E13.89857
G1 X40.529 Y62.25 E13.92125
G1 X40.529 Y56.933 E13.98793
G1 X40.777 Y55.833 E14.00207
G1 X41.343 Y55.004 E14.01465
G1 X42.503 Y53.877 E14.03494
G0 F15000 X42.716 Y54.228
G1 F1440 X44.288 Y53.715 E14.05567
G1 X93.237 Y53.715 E14.66951
G1 X94.218 Y53.936 E14.68212
G1 X94.95 Y54.436 E14.69324
G1 X95.986 Y55.502 E14.71188
G1 X96.499 Y57.074 E14.73262
G1 X96.499 Y62.302 E14.79818
G1 X96.289 Y63.251 E14.81037
G1 X95.814 Y63.974 E14.82121
G1 X94.714 Y65.041 E14.84043
G1 X93.169 Y65.555 E14.86085
G1 X44.182 Y65.556 E15.47517
G1 X43.228 Y65.346 E15.48742
G1 X42.52 Y64.874 E15.49809
G1 X41.438 Y63.758 E15.51758
G1 X40.929 Y62.189 E15.53827
G1 X40.929 Y56.977 E15.60363
G1 X41.15 Y55.996 E15.61624
G1 X41.65 Y55.264 E15.62735
G1 X42.716 Y54.228 E15.64599
G0 F15000 X42.929 Y54.579
G1 F1440 X44.351 Y54.115 E15.66475
G1 X93.193 Y54.115 E16.27725
G1 X94.055 Y54.309 E16.28833
G1 X94.69 Y54.743 E16.29797
G1 X95.635 Y55.715 E16.31497
G1 X96.099 Y57.137 E16.33373
G1 X96.099 Y62.257 E16.39794
G1 X95.914 Y63.094 E16.40869
G1 X95.505 Y63.716 E16.41802
G1 X94.501 Y64.69 E16.43557
G1 X93.103 Y65.155 E16.45404
G1 X44.227 Y65.156 E17.06696
G1 X43.387 Y64.971 E17.07775
G1 X42.775 Y64.563 E17.08697
G1 X41.789 Y63.546 E17.10474
G1 X41.329 Y62.128 E17.12343
G1 X41.329 Y57.021 E17.18748
G1 X41.523 Y56.159 E17.19856
G1 X41.957 Y55.524 E17.2082
G1 X42.929 Y54.579 E17.2252
G0 F15000 X43.142 Y54.93
G1 F1440 X44.414 Y54.515 E17.24198
G1 X93.149 Y54.515 E17.85314
G1 X93.892 Y54.682 E17.86269
G1 X94.43 Y55.05 E17.87086
G1 X95.284 Y55.928 E17.88622
G1 X95.699 Y57.2 E17.903
G1 X95.699 Y62.212 E17.96585
G1 X95.539 Y62.937 E17.97516
G1 X95.196 Y63.458 E17.98298
G1 X94.288 Y64.339 E17.99885
G1 X93.037 Y64.755 E18.01538
G1 X44.272 Y64.756 E18.62691
G1 X43.546 Y64.596 E18.63624
G1 X43.03 Y64.252 E18.64401
G1 X42.14 Y63.334 E18.66005
G1 X41.729 Y62.067 E18.67675
G1 X41.729 Y57.065 E18.73948
G1 X41.896 Y56.322 E18.74903
G1 X42.264 Y55.784 E18.7572
G1 X43.142 Y54.93 E18.77256
G0 F15000 X43.355 Y55.281
G1 F1440 X44.477 Y54.915 E18.78736
G1 X93.106 Y54.915 E19.39719
G1 X93.73 Y55.055 E19.40521
G1 X94.143 Y55.329 E19.41142
G1 X94.933 Y56.141 E19.42563
G1 X95.299 Y57.263 E19.44043
G1 X95.299 Y62.167 E19.50193
G1 X95.164 Y62.78 E19.5098
G1 X94.887 Y63.2 E19.51611
G1 X94.075 Y63.988 E19.5303
G1 X92.971 Y64.355 E19.54489
G1 X44.317 Y64.356 E20.15503
G1 X43.705 Y64.221 E20.16289
G1 X43.285 Y63.941 E20.16922
G1 X42.491 Y63.122 E20.18352
G1 X42.129 Y62.006 E20.19823
G1 X42.129 Y57.108 E20.25966
G1 X42.269 Y56.484 E20.26768
G1 X42.543 Y56.071 E20.27389
G1 X43.355 Y55.281 E20.2881
G0 F15000 X43.568 Y55.632
G1 F1440 X44.54 Y55.315 E20.30092
G1 X93.064 Y55.315 E20.90943
G1 X93.569 Y55.428 E20.91592
G1 X93.856 Y55.608 E20.92017
G1 X94.582 Y56.354 E20.93322
G1 X94.899 Y57.326 E20.94604
G1 X94.899 Y62.122 E21.00618
G1 X94.789 Y62.622 E21.0126
G1 X94.608 Y62.913 E21.0169
G1 X93.862 Y63.637 E21.02994
G1 X92.905 Y63.955 E21.04259
G1 X44.362 Y63.956 E21.65133
G1 X43.862 Y63.846 E21.65775
G1 X43.572 Y63.663 E21.66205
G1 X42.843 Y62.911 E21.67519
G1 X42.529 Y61.944 E21.68794
G1 X42.529 Y57.15 E21.74806
G1 X42.642 Y56.645 E21.75454
G1 X42.822 Y56.358 E21.75879
G1 X43.568 Y55.632 E21.77185
G0 F15000 X43.781 Y55.983
G1 F1440 X44.603 Y55.715 E21.78269
G1 X93.064 Y55.715 E22.39041
G1 X93.373 Y55.777 E22.39436
G1 X93.569 Y55.887 E22.39718
G1 X94.231 Y56.567 E22.40908
G1 X94.499 Y57.389 E22.41992
G1 X94.499 Y62.122 E22.47928
G1 X94.44 Y62.427 E22.48317
G1 X94.329 Y62.626 E22.48603
G1 X93.649 Y63.286 E22.49791
G1 X92.839 Y63.555 E22.50862
G1 X44.362 Y63.556 E23.11654
G1 X44.058 Y63.497 E23.12042
G1 X43.859 Y63.385 E23.12328
G1 X43.195 Y62.7 E23.13525
G1 X42.929 Y61.882 E23.14603
G1 X42.929 Y57.15 E23.20537
G1 X42.991 Y56.841 E23.20933
G1 X43.101 Y56.645 E23.21214
G1 X43.781 Y55.983 E23.22405
G0 F15000 X43.994 Y56.334
G1 F1440 X44.666 Y56.115 E23.23291
G1 X93.064 Y56.115 E23.83984
G1 X93.282 Y56.166 E23.84265
G1 X93.88 Y56.78 E23.85339
G1 X94.099 Y57.452 E23.86226
G1 X94.099 Y62.122 E23.92082
G1 X94.05 Y62.339 E23.92361
G1 X93.436 Y62.935 E23.93434
G1 X92.773 Y63.155 E23.9431
G1 X44.362 Y63.156 E24.55019
G1 X44.146 Y63.107 E24.55297
G1 X43.547 Y62.489 E24.56376
G1 X43.329 Y61.819 E24.5726
G1 X43.329 Y57.15 E24.63115
G1 X43.38 Y56.932 E24.63396
G1 X43.994 Y56.334 E24.64471
G0 F15000 X44.207 Y56.685
G1 F1440 X44.729 Y56.515 E24.65159
G1 X93.064 Y56.515 E25.25773
G1 X93.529 Y56.993 E25.26609
G1 X93.699 Y57.515 E25.27298
G1 X93.699 Y62.122 E25.33075
G1 X93.223 Y62.584 E25.33907
G1 X92.707 Y62.755 E25.34589
G1 X44.362 Y62.756 E25.95215
G1 X43.899 Y62.278 E25.96049
G1 X43.729 Y61.756 E25.96738
G1 X43.729 Y57.15 E26.02514
G1 X44.207 Y56.685 E26.0335
G0 F15000 X44.349 Y57.059
G1 F1440 X44.729 Y56.915 E26.0386
G1 X92.93 Y56.915 E26.64306
G1 X93.155 Y57.135 E26.647
G1 X93.299 Y57.515 E26.6521
G1 X93.299 Y61.987 E26.70818
G1 X93.079 Y62.211 E26.71212
G1 X92.707 Y62.355 E26.71712
G1 X44.497 Y62.356 E27.32169
G1 X44.273 Y62.136 E27.32563
G1 X44.129 Y61.756 E27.33072
G1 X44.129 Y57.284 E27.3868
G1 X44.349 Y57.059 E27.39075
G0 F15000 X44.529 Y57.416
G1 F1440 X44.729 Y57.315 E27.39356
G1 X92.798 Y57.315 E27.99636
G1 X92.899 Y57.515 E27.99917
G1 X92.899 Y61.854 E28.05359
G1 X92.699 Y61.955 E28.0564
G1 X44.63 Y61.956 E28.6592
G1 X44.529 Y61.756 E28.66201
G1 X44.529 Y57.416 E28.71643
G1 F1500 E22.21643
G0 F15000 X44.529 Y54.475
G0 X95.727 Y54.487
G0 X102.762 Y57.355
G1 F1500 E28.71643
G1 F1440 X102.762 Y158.406 E29.98365
G1 X103.663 Y161.183 E30.02026
G1 X105.513 Y163.091 E30.05359
G1 X106.989 Y164.075 E30.07584
G1 X108.855 Y164.485 E30.09979
G1 X115.671 Y164.485 E30.18527
G1 X118.432 Y163.59 E30.22167
G1 X120.376 Y161.704 E30.25563
G1 X121.358 Y160.094 E30.27928
G1 X121.732 Y158.376 E30.30133
G1 X121.732 Y69.485 E31.41606
G1 X157.762 Y69.485 E31.86789
G1 X157.762 Y158.406 E32.98299
G1 X158.663 Y161.183 E33.0196
G1 X160.513 Y163.091 E33.05293
G1 X161.989 Y164.075 E33.07517
G1 X163.855 Y164.485 E33.09913
G1 X170.793 Y164.485 E33.18614
G1 X173.049 Y163.666 E33.21624
G1 X174.855 Y162.362 E33.24417
G1 X175.76 Y161.095 E33.2637
G1 X176.732 Y158.929 E33.29347
G1 X176.732 Y96.485 E34.07654
G1 X190.653 Y96.485 E34.25111
G1 X193.43 Y95.584 E34.28773
G1 X195.338 Y93.734 E34.32105
G1 X196.322 Y92.258 E34.3433
G1 X196.732 Y90.392 E34.36726
G1 X196.732 Y57.305 E34.78218
G1 X195.837 Y54.544 E34.81858
G1 X193.951 Y52.6 E34.85254
G1 X192.341 Y51.618 E34.87619
G1 X190.623 Y51.244 E34.89824
G1 X108.817 Y51.245 E35.92412
G1 X106.045 Y52.15 E35.96069
G1 X104.224 Y53.917 E35.99251
G1 X103.199 Y55.424 E36.01536
G1 X102.762 Y57.355 E36.04019
G1 F1500 E29.54019
G0 F15000 X103.572 Y55.587
G1 F1500 E36.04019
G1 F1440 X103.162 Y57.399 E36.06349
G1 X103.162 Y158.345 E37.32939
G1 X104.014 Y160.971 E37.36401
G1 X105.768 Y162.78 E37.39561
G1 X107.148 Y163.7 E37.41641
G1 X108.9 Y164.085 E37.4389
G1 X115.607 Y164.085 E37.52301
G1 X118.22 Y163.238 E37.55746
G1 X120.063 Y161.45 E37.58966
G1 X120.981 Y159.945 E37.61176
G1 X121.332 Y158.332 E37.63247
G1 X121.332 Y69.085 E38.75166
G1 X158.162 Y69.085 E39.21352
G1 X158.162 Y158.345 E40.33287
G1 X159.014 Y160.971 E40.36749
G1 X160.768 Y162.78 E40.39909
G1 X162.148 Y163.7 E40.41989
G1 X163.9 Y164.085 E40.44238
G1 X170.722 Y164.085 E40.52793
G1 X172.862 Y163.308 E40.55649
G1 X174.567 Y162.077 E40.58286
G1 X175.411 Y160.895 E40.60107
G1 X176.332 Y158.843 E40.62928
G1 X176.332 Y96.085 E41.41629
G1 X190.592 Y96.085 E41.59511
G1 X193.218 Y95.233 E41.62973
G1 X195.027 Y93.479 E41.66133
G1 X195.947 Y92.099 E41.68213
G1 X196.332 Y90.347 E41.70462
G1 X196.332 Y57.369 E42.11818
G1 X195.485 Y54.756 E42.15263
G1 X193.697 Y52.913 E42.18483
G1 X192.192 Y51.995 E42.20694
G1 X190.579 Y51.644 E42.22764
G1 X108.88 Y51.645 E43.25217
G1 X106.258 Y52.501 E43.28676
G1 X104.532 Y54.176 E43.31692
G1 X103.572 Y55.587 E43.33832
G0 F15000 X103.945 Y55.75
G1 F1440 X103.562 Y57.443 E43.36009
G1 X103.562 Y158.284 E44.62467
G1 X104.365 Y160.759 E44.6573
G1 X106.023 Y162.469 E44.68717
G1 X107.307 Y163.325 E44.70653
G1 X108.945 Y163.685 E44.72756
G1 X115.543 Y163.685 E44.8103
G1 X118.008 Y162.886 E44.84279
G1 X119.75 Y161.196 E44.87323
G1 X120.604 Y159.796 E44.8938
G1 X120.932 Y158.288 E44.91315
G1 X120.932 Y68.685 E46.0368
G1 X158.562 Y68.685 E46.5087
G1 X158.562 Y158.284 E47.6323
G1 X159.365 Y160.759 E47.66493
G1 X161.023 Y162.469 E47.6948
G1 X162.307 Y163.325 E47.71415
G1 X163.945 Y163.685 E47.73518
G1 X170.652 Y163.685 E47.81929
G1 X172.674 Y162.951 E47.84627
G1 X174.279 Y161.792 E47.87109
G1 X175.062 Y160.696 E47.88799
G1 X175.932 Y158.757 E47.91464
G1 X175.932 Y95.685 E48.70558
G1 X190.531 Y95.685 E48.88866
G1 X193.006 Y94.882 E48.92129
G1 X194.716 Y93.224 E48.95116
G1 X195.572 Y91.94 E48.97051
G1 X195.932 Y90.302 E48.99154
G1 X195.932 Y57.433 E49.40373
G1 X195.133 Y54.968 E49.43623
G1 X193.443 Y53.226 E49.46666
G1 X192.043 Y52.372 E49.48723
G1 X190.535 Y52.044 E49.50658
G1 X108.943 Y52.045 E50.52978
G1 X106.471 Y52.852 E50.56239
G1 X104.84 Y54.435 E50.59089
G1 X103.945 Y55.75 E50.61084
G0 F15000 X104.318 Y55.913
G1 F1440 X103.962 Y57.487 E50.63107
G1 X103.962 Y158.223 E51.89434
G1 X104.716 Y160.547 E51.92498
G1 X106.278 Y162.158 E51.95312
G1 X107.466 Y162.95 E51.97102
G1 X108.99 Y163.285 E51.99059
G1 X115.479 Y163.285 E52.07197
G1 X117.796 Y162.534 E52.10251
G1 X119.437 Y160.942 E52.13118
G1 X120.227 Y159.647 E52.15021
G1 X120.532 Y158.244 E52.16821
G1 X120.532 Y68.285 E53.29633
G1 X158.962 Y68.285 E53.77826
G1 X158.962 Y158.223 E54.90611
G1 X159.716 Y160.547 E54.93675
G1 X161.278 Y162.158 E54.96489
G1 X162.466 Y162.95 E54.9828
G1 X163.99 Y163.285 E55.00236
G1 X170.581 Y163.285 E55.08502
G1 X172.487 Y162.593 E55.11045
G1 X173.991 Y161.507 E55.13371
G1 X174.713 Y160.496 E55.14929
G1 X175.532 Y158.671 E55.17437
G1 X175.532 Y95.285 E55.96926
G1 X190.47 Y95.285 E56.15659
G1 X192.794 Y94.531 E56.18723
G1 X194.405 Y92.969 E56.21537
G1 X195.197 Y91.781 E56.23327
G1 X195.532 Y90.257 E56.25284
G1 X195.532 Y57.497 E56.66366
G1 X194.781 Y55.18 E56.6942
G1 X193.189 Y53.539 E56.72288
G1 X191.894 Y52.749 E56.7419
G1 X190.491 Y52.444 E56.7599
G1 X109.006 Y52.445 E57.78176
G1 X106.684 Y53.203 E57.81239
G1 X105.148 Y54.694 E57.83923
G1 X104.318 Y55.913 E57.85773
G0 F15000 X104.691 Y56.076
G1 F1440 X104.362 Y57.531 E57.87643
G1 X104.362 Y158.162 E59.13838
G1 X105.067 Y160.335 E59.16703
G1 X106.533 Y161.847 E59.19344
G1 X107.625 Y162.575 E59.2099
G1 X109.035 Y162.885 E59.228
G1 X115.415 Y162.885 E59.30801
G1 X117.584 Y162.182 E59.3366
G1 X119.124 Y160.688 E59.36351
G1 X119.85 Y159.498 E59.38099
