;START_OF_HEADER
;HEADER_VERSION:0.1
;FLAVOR:Griffin
;GENERATOR.NAME:Cura_SteamEngine
;GENERATOR.VERSION:5.6.0
;GENERATOR.BUILD_DATE:2023-11-28
;TARGET_MACHINE.NAME:Ultimaker 3
;EXTRUDER_TRAIN.0.INITIAL_TEMPERATURE:215
;EXTRUDER_TRAIN.0.MATERIAL.VOLUME_USED:1017
;EXTRUDER_TRAIN.0.MATERIAL.GUID:851427a0-0c9a-4d7c-a9a8-5cc92f84af1f
;EXTRUDER_TRAIN.0.NOZZLE.DIAMETER:0.4
;EXTRUDER_TRAIN.0.NOZZLE.NAME:AA 0.4
;BUILD_PLATE.INITIAL_TEMPERATURE:60
;PRINT.TIME:758
;PRINT.GROUPS:1
;PRINT.SIZE.MIN.X:9
;PRINT.SIZE.MIN.Y:6
;PRINT.SIZE.MIN.Z:0.2
;PRINT.SIZE.MAX.X:148.359
;PRINT.SIZE.MAX.Y:121.425
;PRINT.SIZE.MAX.Z:5
;SLICE_UUID:e12bf5bc-2c40-42f2-ad72-8e1ff0733f50
;END_OF_HEADER
;Generated with Cura_SteamEngine 5.6.0
T0
M82 ;absolute extrusion mode

G92 E0
M190 S60
M109 S215
G0 F15000 X9 Y6 Z2
G280
G1 F1500 E-6.5
;LAYER_COUNT:33
;LAYER:0
M106 S255
M204 S1000
M205 X20 Y20
G1 F600 Z2.2
G0 F15000 X76.846 Y83.35 Z2.2
;TYPE:SKIRT
G1 F600 Z0.2
G1 F1500 E0
G1 F1440 X79.607 Y82.455 E0.0364
G1 X91.372 Y82.455 E0.18394
G1 X93.866 Y83.303 E0.21697
G1 X96.231 Y85.738 E0.25954
G1 X96.791 Y87.455 E0.28219
G1 X106.372 Y87.455 E0.40233
G1 X108.866 Y88.303 E0.43537
G1 X111.231 Y90.738 E0.47794
G1 X111.634 Y91.974 E0.49424
G1 X111.806 Y91.606 E0.49933
G1 X114.172 Y89.308 E0.5407
G1 X116.944 Y88.403 E0.57726
G1 X125.095 Y88.403 E0.67948
G1 X127.589 Y89.251 E0.71251
G1 X128.708 Y90.403 E0.73265
G1 X130.543 Y90.403 E0.75567
G1 X131.672 Y89.308 E0.77539
G1 X134.444 Y88.403 E0.81196
G1 X142.595 Y88.403 E0.91417
G1 X145.089 Y89.251 E0.94721
G1 X147.454 Y91.686 E0.98978
G1 X148.359 Y94.458 E1.02634
G1 X148.359 Y101.264 E1.11169
G1 X147.985 Y102.982 E1.13374
G1 X147.003 Y104.592 E1.15739
G1 X145.059 Y106.478 E1.19136
G1 X142.298 Y107.373 E1.22775
G1 X134.498 Y107.373 E1.32557
G1 X132.781 Y106.999 E1.34761
G1 X131.257 Y106.069 E1.36999
G1 X131.039 Y105.873 E1.37367
G1 X128.205 Y105.873 E1.40921
G1 X127.982 Y106.05 E1.41278
G1 X126.798 Y106.721 E1.42985
G1 X124.807 Y107.373 E1.45612
G1 X116.998 Y107.373 E1.55405
G1 X115.28 Y106.999 E1.5761
G1 X113.67 Y106.017 E1.59975
G1 X111.784 Y104.073 E1.63371
G1 X110.908 Y101.371 E1.66933
G1 X110.889 Y100.967 E1.6744
G1 X110.746 Y101.177 E1.67759
G1 X108.836 Y103.03 E1.71096
G1 X106.075 Y103.925 E1.74736
G1 X89.636 Y103.925 E1.95351
G1 X89.636 Y104.955 E1.96643
G1 X106.372 Y104.955 E2.1763
G1 X108.866 Y105.803 E2.20934
G1 X111.231 Y108.238 E2.25191
G1 X112.136 Y111.01 E2.28847
G1 X112.136 Y115.316 E2.34247
G1 X111.762 Y117.034 E2.36452
G1 X110.78 Y118.644 E2.38817
G1 X108.836 Y120.53 E2.42214
G1 X106.075 Y121.425 E2.45853
G1 X79.656 Y121.425 E2.78984
G1 X77.938 Y121.051 E2.81189
G1 X76.328 Y120.069 E2.83554
G1 X74.441 Y118.124 E2.86952
G1 X73.547 Y115.366 E2.90588
G1 X73.546 Y88.564 E3.24198
G1 X73.92 Y86.846 E3.26403
G1 X74.902 Y85.236 E3.28768
G1 X76.846 Y83.35 E3.32165
G0 F15000 X77.058 Y83.702
G1 F1440 X79.671 Y82.855 E3.35609
G1 X91.305 Y82.855 E3.50199
G1 X93.646 Y83.651 E3.533
G1 X95.88 Y85.951 E3.57321
G1 X96.501 Y87.855 E3.59832
G1 X106.305 Y87.855 E3.72127
G1 X108.646 Y88.651 E3.75227
G1 X110.88 Y90.951 E3.79248
G1 X111.627 Y93.24 E3.82268
G1 X112.085 Y91.893 E3.84052
G1 X114.385 Y89.659 E3.88073
G1 X117.007 Y88.803 E3.91532
G1 X125.028 Y88.803 E4.0159
G1 X127.369 Y89.599 E4.04691
G1 X128.538 Y90.803 E4.06796
G1 X130.706 Y90.803 E4.09514
G1 X131.885 Y89.659 E4.11574
G1 X134.507 Y88.803 E4.15033
G1 X142.528 Y88.803 E4.25092
G1 X144.869 Y89.599 E4.28193
G1 X147.103 Y91.899 E4.32214
G1 X147.959 Y94.521 E4.35673
G1 X147.959 Y101.22 E4.44073
G1 X147.608 Y102.833 E4.46143
G1 X146.69 Y104.338 E4.48354
G1 X144.847 Y106.126 E4.51574
G1 X142.234 Y106.973 E4.55019
G1 X134.542 Y106.973 E4.64665
G1 X132.93 Y106.622 E4.66734
G1 X131.465 Y105.728 E4.68886
G1 X131.201 Y105.473 E4.69346
G1 X128.059 Y105.473 E4.73287
G1 X127.785 Y105.702 E4.73734
G1 X126.636 Y106.353 E4.7539
G1 X124.743 Y106.973 E4.77888
G1 X117.042 Y106.973 E4.87546
G1 X115.429 Y106.622 E4.89616
G1 X113.924 Y105.704 E4.91827
G1 X112.136 Y103.861 E4.95047
G1 X111.289 Y101.248 E4.98491
G1 X111.289 Y99.542 E5.00631
G1 X110.467 Y100.89 E5.02611
G1 X108.624 Y102.678 E5.05831
G1 X106.011 Y103.525 E5.09275
G1 X89.236 Y103.525 E5.30312
G1 X89.236 Y105.355 E5.32607
G1 X106.305 Y105.355 E5.54012
G1 X108.646 Y106.151 E5.57113
G1 X110.88 Y108.451 E5.61134
G1 X111.736 Y111.073 E5.64592
G1 X111.736 Y115.272 E5.69858
G1 X111.385 Y116.885 E5.71928
G1 X110.467 Y118.39 E5.74139
G1 X108.624 Y120.178 E5.77359
G1 X106.011 Y121.025 E5.80804
G1 X79.7 Y121.025 E6.13799
G1 X78.087 Y120.674 E6.15869
G1 X76.582 Y119.756 E6.1808
G1 X74.793 Y117.912 E6.21301
G1 X73.947 Y115.302 E6.24742
G1 X73.946 Y88.608 E6.58217
G1 X74.297 Y86.995 E6.60288
G1 X75.215 Y85.49 E6.62498
G1 X77.058 Y83.702 E6.65718
G0 F15000 X77.27 Y84.054
G1 F1440 X79.735 Y83.255 E6.68968
G1 X91.238 Y83.255 E6.83393
G1 X93.426 Y83.999 E6.86291
G1 X95.529 Y86.164 E6.90076
G1 X96.211 Y88.255 E6.92834
G1 X106.238 Y88.255 E7.05409
G1 X108.426 Y88.999 E7.08307
G1 X110.529 Y91.164 E7.12092
G1 X111.336 Y93.636 E7.15353
G1 X111.336 Y97.728 E7.20484
G1 X111.008 Y99.236 E7.22419
G1 X110.154 Y100.636 E7.24476
G1 X108.412 Y102.326 E7.2752
G1 X105.947 Y103.125 E7.30769
G1 X88.836 Y103.125 E7.52227
G1 X88.836 Y105.755 E7.55525
G1 X106.238 Y105.755 E7.77348
G1 X108.426 Y106.499 E7.80246
G1 X110.529 Y108.664 E7.84031
G1 X111.336 Y111.136 E7.87292
G1 X111.336 Y115.228 E7.92424
G1 X111.008 Y116.736 E7.94359
G1 X110.154 Y118.136 E7.96415
G1 X108.412 Y119.826 E7.99459
G1 X105.947 Y120.625 E8.02708
G1 X79.744 Y120.625 E8.35568
G1 X78.236 Y120.297 E8.37503
G1 X76.836 Y119.443 E8.3956
G1 X75.145 Y117.7 E8.42605
G1 X74.347 Y115.238 E8.45851
G1 X74.346 Y88.652 E8.79191
G1 X74.674 Y87.144 E8.81126
G1 X75.528 Y85.744 E8.83182
G1 X77.27 Y84.054 E8.86226
G0 F15000 X77.482 Y84.406
G1 F1440 X79.799 Y83.655 E8.89281
G1 X91.171 Y83.655 E9.03541
G1 X93.206 Y84.347 E9.06237
G1 X95.178 Y86.377 E9.09786
G1 X95.921 Y88.655 E9.12791
G1 X106.171 Y88.655 E9.25645
G1 X108.206 Y89.347 E9.2834
G1 X110.178 Y91.377 E9.31889
G1 X110.936 Y93.699 E9.34952
G1 X110.936 Y97.684 E9.3995
G1 X110.631 Y99.087 E9.4175
G1 X109.841 Y100.382 E9.43653
G1 X108.2 Y101.974 E9.4652
G1 X105.883 Y102.725 E9.49574
G1 X88.436 Y102.725 E9.71453
G1 X88.436 Y106.155 E9.75755
G1 X106.171 Y106.155 E9.97995
G1 X108.206 Y106.847 E10.0069
G1 X110.178 Y108.877 E10.0424
G1 X110.936 Y111.199 E10.07303
G1 X110.936 Y115.184 E10.123
G1 X110.631 Y116.587 E10.141
G1 X109.841 Y117.882 E10.16003
G1 X108.2 Y119.474 E10.1887
G1 X105.883 Y120.225 E10.21924
G1 X79.788 Y120.225 E10.54648
G1 X78.385 Y119.92 E10.56449
G1 X77.09 Y119.13 E10.58351
G1 X75.497 Y117.488 E10.6122
G1 X74.747 Y115.174 E10.64271
G1 X74.746 Y88.696 E10.97475
G1 X75.051 Y87.293 E10.99276
G1 X75.841 Y85.998 E11.01178
G1 X77.482 Y84.406 E11.04045
G0 F15000 X77.694 Y84.758
G1 F1440 X79.863 Y84.055 E11.06904
G1 X91.104 Y84.055 E11.21001
G1 X92.986 Y84.695 E11.23494
G1 X94.827 Y86.59 E11.26807
G1 X95.516 Y88.701 E11.29592
G1 X95.536 Y89.055 E11.30036
G1 X106.104 Y89.055 E11.43289
G1 X107.986 Y89.695 E11.45782
G1 X109.827 Y91.59 E11.49095
G1 X110.536 Y93.762 E11.5196
G1 X110.536 Y97.64 E11.56823
G1 X110.254 Y98.938 E11.58489
G1 X109.528 Y100.128 E11.60237
G1 X107.988 Y101.622 E11.62928
G1 X105.819 Y102.325 E11.65787
G1 X88.036 Y102.325 E11.88088
G1 X88.036 Y106.555 E11.93392
G1 X106.104 Y106.555 E12.1605
G1 X107.986 Y107.195 E12.18543
G1 X109.827 Y109.09 E12.21856
G1 X110.536 Y111.262 E12.24722
G1 X110.536 Y115.14 E12.29585
G1 X110.254 Y116.438 E12.3125
G1 X109.528 Y117.628 E12.32998
G1 X107.988 Y119.122 E12.35689
G1 X105.819 Y119.825 E12.38548
G1 X79.832 Y119.825 E12.71137
G1 X78.534 Y119.543 E12.72803
G1 X77.344 Y118.817 E12.74551
G1 X75.849 Y117.276 E12.77243
G1 X75.147 Y115.11 E12.80099
G1 X75.146 Y88.74 E13.13168
G1 X75.428 Y87.442 E13.14833
G1 X76.154 Y86.252 E13.16581
G1 X77.694 Y84.758 E13.19272
G0 F15000 X77.906 Y85.11
G1 F1440 X79.927 Y84.455 E13.21936
G1 X91.037 Y84.455 E13.35869
G1 X92.766 Y85.043 E13.38159
G1 X94.476 Y86.803 E13.41236
G1 X95.136 Y88.825 E13.43904
G1 X95.136 Y89.455 E13.44694
G1 X106.037 Y89.455 E13.58364
G1 X107.766 Y90.043 E13.60654
G1 X109.476 Y91.803 E13.63731
G1 X110.136 Y93.825 E13.66399
G1 X110.136 Y97.596 E13.71128
G1 X109.877 Y98.789 E13.72659
G1 X109.215 Y99.874 E13.74252
G1 X107.776 Y101.27 E13.76767
G1 X105.755 Y101.925 E13.79431
G1 X87.636 Y101.925 E14.02153
G1 X87.636 Y106.955 E14.0846
G1 X106.037 Y106.955 E14.31536
G1 X107.766 Y107.543 E14.33826
G1 X109.476 Y109.303 E14.36904
G1 X110.136 Y111.325 E14.39571
G1 X110.136 Y115.096 E14.443
G1 X109.877 Y116.289 E14.45831
G1 X109.215 Y117.374 E14.47425
G1 X107.776 Y118.77 E14.49939
G1 X105.755 Y119.425 E14.52603
G1 X79.876 Y119.425 E14.85056
G1 X78.683 Y119.166 E14.86587
G1 X77.598 Y118.504 E14.88181
G1 X76.2 Y117.063 E14.90699
G1 X75.547 Y115.049 E14.93354
G1 X75.546 Y88.784 E15.26291
G1 X75.805 Y87.591 E15.27822
G1 X76.467 Y86.506 E15.29416
G1 X77.906 Y85.11 E15.3193
G0 F15000 X78.118 Y85.462
G1 F1440 X79.991 Y84.855 E15.34399
G1 X90.97 Y84.855 E15.48167
G1 X92.546 Y85.391 E15.50255
G1 X94.125 Y87.016 E15.53096
G1 X94.736 Y88.888 E15.55566
G1 X94.736 Y89.855 E15.56778
G1 X105.97 Y89.855 E15.70866
G1 X107.546 Y90.391 E15.72954
G1 X109.125 Y92.016 E15.75795
G1 X109.736 Y93.888 E15.78265
G1 X109.736 Y97.552 E15.82859
G1 X109.5 Y98.64 E15.84255
G1 X108.902 Y99.62 E15.85695
G1 X107.564 Y100.918 E15.88033
G1 X105.691 Y101.525 E15.90502
G1 X87.236 Y101.525 E16.13645
G1 X87.236 Y107.355 E16.20956
G1 X105.97 Y107.355 E16.44449
G1 X107.546 Y107.891 E16.46537
G1 X109.125 Y109.516 E16.49378
G1 X109.736 Y111.388 E16.51848
G1 X109.736 Y115.052 E16.56443
G1 X109.5 Y116.14 E16.57839
G1 X108.902 Y117.12 E16.59278
G1 X107.564 Y118.418 E16.61616
G1 X105.691 Y119.025 E16.64085
G1 X79.92 Y119.025 E16.96403
G1 X78.832 Y118.789 E16.97799
G1 X77.852 Y118.191 E16.99239
G1 X76.552 Y116.851 E17.0158
G1 X75.947 Y114.985 E17.0404
G1 X75.946 Y88.828 E17.36842
G1 X76.182 Y87.74 E17.38238
G1 X76.78 Y86.76 E17.39678
G1 X78.118 Y85.462 E17.42015
G0 F15000 X78.331 Y85.813
G1 F1440 X80.052 Y85.255 E17.44284
G1 X90.903 Y85.255 E17.57892
G1 X92.326 Y85.739 E17.59777
G1 X93.774 Y87.229 E17.62382
G1 X94.336 Y88.951 E17.64654
G1 X94.336 Y90.255 E17.66289
G1 X105.903 Y90.255 E17.80794
G1 X107.326 Y90.739 E17.82679
G1 X108.774 Y92.229 E17.85285
G1 X109.336 Y93.951 E17.87556
G1 X109.336 Y97.508 E17.92017
G1 X109.123 Y98.489 E17.93276
G1 X108.587 Y99.368 E17.94567
G1 X107.351 Y100.567 E17.96726
G1 X105.63 Y101.125 E17.98995
G1 X86.836 Y101.125 E18.22563
G1 X86.836 Y107.755 E18.30878
G1 X105.903 Y107.755 E18.54788
G1 X107.326 Y108.239 E18.56673
G1 X108.774 Y109.729 E18.59279
G1 X109.336 Y111.451 E18.6155
G1 X109.336 Y115.008 E18.66011
G1 X109.123 Y115.989 E18.6727
G1 X108.587 Y116.868 E18.68561
G1 X107.351 Y118.067 E18.7072
G1 X105.63 Y118.625 E18.72989
G1 X79.964 Y118.625 E19.05175
G1 X78.983 Y118.412 E19.06434
G1 X78.104 Y117.876 E19.07725
G1 X76.904 Y116.639 E19.09886
G1 X76.347 Y114.921 E19.12151
G1 X76.346 Y88.872 E19.44818
G1 X76.559 Y87.891 E19.46077
G1 X77.095 Y87.012 E19.47368
G1 X78.331 Y85.813 E19.49527
G0 F15000 X78.544 Y86.164
G1 F1440 X80.113 Y85.655 E19.51596
G1 X90.836 Y85.655 E19.65043
G1 X92.106 Y86.087 E19.66725
G1 X93.423 Y87.442 E19.69095
G1 X93.936 Y89.014 E19.71168
G1 X93.936 Y90.655 E19.73226
G1 X105.836 Y90.655 E19.88149
G1 X107.106 Y91.087 E19.89831
G1 X108.423 Y92.442 E19.92201
G1 X108.936 Y94.014 E19.94275
G1 X108.936 Y97.464 E19.98601
G1 X108.746 Y98.338 E19.99723
G1 X108.272 Y99.116 E20.00865
G1 X107.138 Y100.216 E20.02846
G1 X105.569 Y100.725 E20.04915
G1 X86.436 Y100.725 E20.28908
G1 X86.436 Y108.155 E20.38226
G1 X105.836 Y108.155 E20.62554
G1 X107.106 Y108.587 E20.64236
G1 X108.423 Y109.942 E20.66606
G1 X108.936 Y111.514 E20.6868
G1 X108.936 Y114.964 E20.73006
G1 X108.746 Y115.838 E20.74128
G1 X108.272 Y116.616 E20.7527
G1 X107.138 Y117.716 E20.77251
G1 X105.569 Y118.225 E20.7932
G1 X80.008 Y118.225 E21.11374
G1 X79.134 Y118.035 E21.12496
G1 X78.356 Y117.561 E21.13638
G1 X77.255 Y116.426 E21.15621
G1 X76.747 Y114.86 E21.17686
G1 X76.746 Y88.916 E21.50221
G1 X76.936 Y88.042 E21.51342
G1 X77.41 Y87.264 E21.52485
G1 X78.544 Y86.164 E21.54466
G0 F15000 X78.756 Y86.515
G1 F1440 X80.174 Y86.055 E21.56336
G1 X90.769 Y86.055 E21.69622
G1 X91.886 Y86.435 E21.71102
G1 X93.072 Y87.655 E21.73235
G1 X93.536 Y89.077 E21.75111
G1 X93.536 Y91.055 E21.77592
G1 X105.769 Y91.055 E21.92932
G1 X106.886 Y91.435 E21.94412
G1 X108.072 Y92.655 E21.96546
G1 X108.536 Y94.077 E21.98421
G1 X108.536 Y97.42 E22.02614
G1 X108.369 Y98.187 E22.03598
G1 X107.955 Y98.867 E22.04596
G1 X106.926 Y99.865 E22.06394
G1 X105.508 Y100.325 E22.08263
G1 X86.036 Y100.325 E22.32682
G1 X86.036 Y108.555 E22.43003
G1 X105.769 Y108.555 E22.67749
G1 X106.886 Y108.935 E22.69228
G1 X108.072 Y110.155 E22.71362
G1 X108.536 Y111.577 E22.73238
G1 X108.536 Y114.92 E22.7743
G1 X108.369 Y115.687 E22.78414
G1 X107.955 Y116.367 E22.79413
G1 X106.926 Y117.365 E22.8121
G1 X105.508 Y117.825 E22.8308
G1 X80.052 Y117.825 E23.15003
G1 X79.285 Y117.658 E23.15987
G1 X78.605 Y117.244 E23.16985
G1 X77.606 Y116.214 E23.18785
G1 X77.147 Y114.799 E23.2065
G1 X77.146 Y88.96 E23.53053
G1 X77.313 Y88.193 E23.54038
G1 X77.727 Y87.513 E23.55036
G1 X78.756 Y86.515 E23.56834
G0 F15000 X78.968 Y86.866
G1 F1440 X80.235 Y86.455 E23.58504
G1 X90.702 Y86.455 E23.7163
G1 X91.666 Y86.783 E23.72907
G1 X92.721 Y87.868 E23.74805
G1 X93.136 Y89.14 E23.76483
G1 X93.136 Y91.455 E23.79386
G1 X105.702 Y91.455 E23.95144
G1 X106.666 Y91.783 E23.96421
G1 X107.721 Y92.868 E23.98319
G1 X108.136 Y94.14 E23.99997
G1 X108.136 Y97.376 E24.04055
G1 X107.992 Y98.036 E24.04902
G1 X107.638 Y98.618 E24.05756
G1 X106.714 Y99.514 E24.0737
G1 X105.447 Y99.925 E24.0904
G1 X85.636 Y99.925 E24.33884
G1 X85.636 Y108.955 E24.45208
G1 X105.702 Y108.955 E24.70372
G1 X106.666 Y109.283 E24.71649
G1 X107.721 Y110.368 E24.73546
G1 X108.136 Y111.64 E24.75224
G1 X108.136 Y114.876 E24.79282
G1 X107.992 Y115.536 E24.80129
G1 X107.638 Y116.118 E24.80984
G1 X106.714 Y117.014 E24.82598
G1 X105.447 Y117.425 E24.84268
G1 X80.096 Y117.425 E25.16059
G1 X79.436 Y117.281 E25.16906
G1 X78.854 Y116.927 E25.17761
G1 X77.957 Y116.002 E25.19376
G1 X77.547 Y114.738 E25.21043
G1 X77.546 Y89.004 E25.53314
G1 X77.69 Y88.344 E25.54161
G1 X78.044 Y87.762 E25.55016
G1 X78.968 Y86.866 E25.5663
G0 F15000 X79.18 Y87.217
G1 F1440 X80.296 Y86.855 E25.58101
G1 X90.635 Y86.855 E25.71066
G1 X91.446 Y87.131 E25.72141
G1 X92.37 Y88.081 E25.73803
G1 X92.736 Y89.203 E25.75283
G1 X92.736 Y91.855 E25.78608
G1 X105.635 Y91.855 E25.94784
G1 X106.446 Y92.131 E25.95859
G1 X107.37 Y93.081 E25.9752
G1 X107.736 Y94.203 E25.99
G1 X107.736 Y97.332 E26.02924
G1 X107.615 Y97.885 E26.03634
G1 X107.321 Y98.369 E26.04344
G1 X106.502 Y99.163 E26.05775
G1 X105.386 Y99.525 E26.07246
G1 X85.236 Y99.525 E26.32515
G1 X85.236 Y109.355 E26.44842
G1 X105.635 Y109.355 E26.70423
G1 X106.446 Y109.631 E26.71498
G1 X107.37 Y110.581 E26.73159
G1 X107.736 Y111.703 E26.74639
G1 X107.736 Y114.832 E26.78563
G1 X107.615 Y115.385 E26.79273
G1 X107.321 Y115.869 E26.79983
G1 X106.502 Y116.663 E26.81414
G1 X105.386 Y117.025 E26.82885
G1 X80.14 Y117.025 E27.14545
G1 X79.587 Y116.904 E27.15255
G1 X79.103 Y116.61 E27.15965
G1 X78.309 Y115.791 E27.17395
G1 X77.947 Y114.676 E27.18865
G1 X77.946 Y89.048 E27.51004
G1 X78.067 Y88.495 E27.51714
G1 X78.361 Y88.011 E27.52424
G1 X79.18 Y87.217 E27.53854
G0 F15000 X79.391 Y87.569
G1 F1440 X80.358 Y87.255 E27.55129
G1 X90.568 Y87.255 E27.67933
G1 X91.226 Y87.479 E27.68805
G1 X92.019 Y88.294 E27.70231
G1 X92.336 Y89.266 E27.71513
G1 X92.336 Y92.255 E27.75261
G1 X105.568 Y92.255 E27.91854
G1 X106.226 Y92.479 E27.92726
G1 X107.019 Y93.294 E27.94152
G1 X107.336 Y94.266 E27.95434
G1 X107.336 Y97.332 E27.99279
G1 X107.226 Y97.792 E27.99872
G1 X107.043 Y98.082 E28.00302
G1 X106.291 Y98.811 E28.01616
G1 X105.324 Y99.125 E28.02891
G1 X84.836 Y99.125 E28.28583
G1 X84.836 Y109.755 E28.41914
G1 X105.568 Y109.755 E28.67912
G1 X106.226 Y109.979 E28.68784
G1 X107.019 Y110.794 E28.7021
G1 X107.336 Y111.766 E28.71492
