;START_OF_HEADER
;HEADER_VERSION:0.1
;FLAVOR:Griffin
;GENERATOR.NAME:Cura_SteamEngine
;GENERATOR.VERSION:5.3.1
;GENERATOR.BUILD_DATE:2023-04-19
;TARGET_MACHINE.NAME:Ultimaker 3
;EXTRUDER_TRAIN.0.INITIAL_TEMPERATURE:215
;EXTRUDER_TRAIN.0.MATERIAL.VOLUME_USED:7178
;EXTRUDER_TRAIN.0.MATERIAL.GUID:851427a0-0c9a-4d7c-a9a8-5cc92f84af1f
;EXTRUDER_TRAIN.0.NOZZLE.DIAMETER:0.4
;EXTRUDER_TRAIN.0.NOZZLE.NAME:AA 0.4
;BUILD_PLATE.INITIAL_TEMPERATURE:60
;PRINT.TIME:4378
;PRINT.GROUPS:1
;PRINT.SIZE.MIN.X:7.625
;PRINT.SIZE.MIN.Y:6
;PRINT.SIZE.MIN.Z:0.2
;PRINT.SIZE.MAX.X:152.326
;PRINT.SIZE.MAX.Y:197.541
;PRINT.SIZE.MAX.Z:2.2
;SLICE_UUID:70776632-d670-41c6-85a1-742e7fe66070
;END_OF_HEADER
;Generated with Cura_SteamEngine 5.3.1
T0
M82 ;absolute extrusion mode

G92 E0
M109 S215
G0 F15000 X9 Y6 Z2
G280
G1 F1500 E-6.5
;LAYER_COUNT:13
;LAYER:0
M106 S255
M204 S1000
M205 X20 Y20
G1 F600 Z2.2
G0 F15000 X14.111 Y38.705 Z2.2
;TYPE:SKIRT
G1 F600 Z0.2
G1 F1500 E0
G1 F1440 X55.916 Y38.705 E0.52425
G1 X57.847 Y39.142 E0.54908
G1 X59.351 Y40.165 E0.57189
G1 X59.831 Y40.66 E0.58053
G1 X60.581 Y39.933 E0.59363
G1 X63.353 Y39.028 E0.6302
G1 X105.158 Y39.028 E1.15445
G1 X107.089 Y39.465 E1.17928
G1 X108.596 Y40.49 E1.20213
G1 X110.363 Y42.311 E1.23395
G1 X111.268 Y45.083 E1.27052
G1 X111.268 Y63.905 E1.50656
G1 X110.858 Y65.771 E1.53052
G1 X109.874 Y67.247 E1.55276
G1 X107.966 Y69.097 E1.58609
G1 X105.189 Y69.998 E1.6227
G1 X103.268 Y69.998 E1.64679
G1 X103.268 Y87.142 E1.86178
G1 X104.344 Y87.142 E1.87528
G1 X106.275 Y87.579 E1.9001
G1 X107.782 Y88.604 E1.92296
G1 X109.549 Y90.425 E1.95478
G1 X110.454 Y93.197 E1.99135
G1 X110.454 Y112.019 E2.22738
G1 X110.044 Y113.885 E2.25134
G1 X109.06 Y115.361 E2.27359
G1 X107.152 Y117.211 E2.30691
G1 X104.375 Y118.112 E2.34353
G1 X102.454 Y118.112 E2.36762
G1 X102.454 Y137.021 E2.60474
G1 X102.046 Y138.863 E2.6284
G1 X101.049 Y140.382 E2.65119
G1 X99.823 Y141.571 E2.6726
G1 X103.609 Y141.571 E2.72008
G1 X105.54 Y142.008 E2.74491
G1 X107.047 Y143.033 E2.76776
G1 X108.814 Y144.854 E2.79958
G1 X109.719 Y147.626 E2.83615
G1 X109.719 Y166.448 E3.07219
G1 X109.309 Y168.314 E3.09614
G1 X108.325 Y169.79 E3.11839
G1 X106.417 Y171.64 E3.15172
G1 X103.64 Y172.541 E3.18833
G1 X101.719 Y172.541 E3.21242
G1 X101.719 Y191.448 E3.44952
G1 X101.309 Y193.316 E3.4735
G1 X100.315 Y194.808 E3.49599
G1 X98.43 Y196.637 E3.52892
G1 X95.664 Y197.541 E3.56542
G1 X91.305 Y197.541 E3.62008
G1 X89.139 Y196.569 E3.64985
G1 X87.872 Y195.664 E3.66938
G1 X86.568 Y193.858 E3.69731
G1 X85.749 Y191.602 E3.72741
G1 X85.749 Y157.541 E4.15455
G1 X71.719 Y157.541 E4.33049
G1 X71.719 Y191.448 E4.75569
G1 X71.309 Y193.314 E4.77965
G1 X70.325 Y194.79 E4.8019
G1 X68.417 Y196.64 E4.83523
G1 X65.64 Y197.541 E4.87184
G1 X61.842 Y197.541 E4.91947
G1 X59.976 Y197.131 E4.94342
G1 X58.5 Y196.147 E4.96567
G1 X56.65 Y194.239 E4.999
G1 X55.749 Y191.462 E5.03561
G1 X55.749 Y170.239 E5.30175
G1 X53.805 Y170.239 E5.32613
G1 X53.805 Y189.683 E5.56997
G1 X52.833 Y191.849 E5.59974
G1 X51.928 Y193.116 E5.61927
G1 X50.122 Y194.42 E5.6472
G1 X47.866 Y195.239 E5.6773
G1 X43.928 Y195.239 E5.72668
G1 X42.062 Y194.829 E5.75064
G1 X40.586 Y193.845 E5.77289
G1 X38.736 Y191.937 E5.80621
G1 X37.835 Y189.16 E5.84282
G1 X37.835 Y155.239 E6.26821
G1 X23.805 Y155.239 E6.44415
G1 X23.805 Y189.148 E6.86938
G1 X23.397 Y190.99 E6.89304
G1 X22.398 Y192.512 E6.91587
G1 X20.502 Y194.351 E6.94899
G1 X17.76 Y195.239 E6.98514
G1 X13.928 Y195.239 E7.03319
G1 X12.062 Y194.829 E7.05715
G1 X10.586 Y193.845 E7.0794
G1 X8.736 Y191.937 E7.11272
G1 X7.835 Y189.16 E7.14934
G1 X7.835 Y145.379 E7.69837
G1 X8.272 Y143.448 E7.72319
G1 X9.167 Y142.132 E7.74315
G1 X8.52 Y141.469 E7.75477
G1 X7.625 Y138.702 E7.79124
G1 X7.625 Y94.912 E8.34038
G1 X8.062 Y92.981 E8.36521
G1 X9.09 Y91.47 E8.38813
G1 X8.899 Y91.195 E8.39232
G1 X8.056 Y88.596 E8.42659
G1 X8.056 Y44.815 E8.97562
G1 X8.493 Y42.884 E9.00045
G1 X9.518 Y41.377 E9.0233
G1 X11.339 Y39.61 E9.05512
G1 X14.111 Y38.705 E9.09169
G0 F15000 X14.174 Y39.105
G1 F1440 X11.552 Y39.961 E9.12628
G1 X9.826 Y41.636 E9.15644
G1 X8.866 Y43.047 E9.17784
G1 X8.456 Y44.859 E9.20114
G1 X8.456 Y88.535 E9.74885
G1 X9.279 Y91.072 E9.7823
G1 X9.637 Y91.5 E9.7893
G1 X9.37 Y91.77 E9.79406
G1 X8.435 Y93.144 E9.8149
G1 X8.025 Y94.956 E9.8382
G1 X8.025 Y138.638 E10.38599
G1 X8.873 Y141.258 E10.42052
G1 X9.682 Y142.087 E10.43505
G1 X8.645 Y143.611 E10.45816
G1 X8.235 Y145.423 E10.48146
G1 X8.235 Y189.099 E11.02917
G1 X9.087 Y191.725 E11.06379
G1 X10.841 Y193.534 E11.09539
G1 X12.221 Y194.454 E11.11619
G1 X13.973 Y194.839 E11.13869
G1 X17.696 Y194.839 E11.18537
G1 X20.29 Y193.999 E11.21957
G1 X22.089 Y192.254 E11.251
G1 X23.022 Y190.833 E11.27231
G1 X23.405 Y189.103 E11.29453
G1 X23.405 Y154.839 E11.72422
G1 X38.235 Y154.839 E11.91019
G1 X38.235 Y189.099 E12.33982
G1 X39.087 Y191.725 E12.37444
G1 X40.841 Y193.534 E12.40604
G1 X42.221 Y194.454 E12.42684
G1 X43.973 Y194.839 E12.44934
G1 X47.795 Y194.839 E12.49727
G1 X49.935 Y194.062 E12.52582
G1 X51.64 Y192.831 E12.55219
G1 X52.484 Y191.649 E12.5704
G1 X53.405 Y189.597 E12.59861
G1 X53.405 Y169.839 E12.84638
G1 X55.607 Y169.839 E12.87399
G1 X56.149 Y169.684 E12.88106
G1 X56.149 Y191.401 E13.1534
G1 X57.001 Y194.027 E13.18802
G1 X58.755 Y195.836 E13.21962
G1 X60.135 Y196.756 E13.24042
G1 X61.887 Y197.141 E13.26292
G1 X65.579 Y197.141 E13.30922
G1 X68.205 Y196.289 E13.34384
G1 X70.014 Y194.535 E13.37543
G1 X70.934 Y193.155 E13.39623
G1 X71.319 Y191.403 E13.41873
G1 X71.319 Y157.141 E13.84839
G1 X86.149 Y157.141 E14.03436
G1 X86.149 Y191.531 E14.46562
G1 X86.926 Y193.671 E14.49417
G1 X88.157 Y195.376 E14.52055
G1 X89.339 Y196.22 E14.53876
G1 X91.391 Y197.141 E14.56697
G1 X95.601 Y197.141 E14.61976
G1 X98.217 Y196.286 E14.65427
G1 X100.006 Y194.55 E14.68553
G1 X100.934 Y193.157 E14.70652
G1 X101.319 Y191.403 E14.72904
G1 X101.319 Y172.141 E14.9706
G1 X103.579 Y172.141 E14.99894
G1 X106.205 Y171.289 E15.03356
G1 X108.014 Y169.535 E15.06516
G1 X108.934 Y168.155 E15.08596
G1 X109.319 Y166.403 E15.10845
G1 X109.319 Y147.689 E15.34313
G1 X108.463 Y145.067 E15.37772
G1 X106.788 Y143.341 E15.40788
G1 X105.377 Y142.381 E15.42928
G1 X103.565 Y141.971 E15.45258
G1 X98.633 Y141.971 E15.51443
G1 X99.007 Y141.806 E15.51956
G1 X100.738 Y140.127 E15.5498
G1 X101.671 Y138.706 E15.57112
G1 X102.054 Y136.976 E15.59334
G1 X102.054 Y117.712 E15.83491
G1 X104.314 Y117.712 E15.86325
G1 X106.94 Y116.86 E15.89788
G1 X108.749 Y115.106 E15.92947
G1 X109.669 Y113.726 E15.95027
G1 X110.054 Y111.974 E15.97277
G1 X110.054 Y93.26 E16.20745
G1 X109.198 Y90.638 E16.24204
G1 X107.523 Y88.912 E16.2722
G1 X106.112 Y87.952 E16.2936
G1 X104.3 Y87.542 E16.3169
G1 X102.868 Y87.542 E16.33485
G1 X102.868 Y69.598 E16.55988
G1 X105.128 Y69.598 E16.58822
G1 X107.754 Y68.746 E16.62284
G1 X109.563 Y66.992 E16.65444
G1 X110.483 Y65.612 E16.67524
G1 X110.868 Y63.86 E16.69773
G1 X110.868 Y45.146 E16.93241
G1 X110.012 Y42.524 E16.967
G1 X108.337 Y40.798 E16.99716
G1 X106.926 Y39.838 E17.01857
G1 X105.114 Y39.428 E17.04186
G1 X63.416 Y39.428 E17.56477
G1 X60.794 Y40.284 E17.59936
G1 X59.823 Y41.226 E17.61633
G1 X59.095 Y40.475 E17.62944
G1 X57.684 Y39.515 E17.65084
G1 X55.872 Y39.105 E17.67414
G1 X14.174 Y39.105 E18.19705
G0 F15000 X14.237 Y39.505
G1 F1440 X55.828 Y39.505 E18.71862
G1 X57.521 Y39.888 E18.74038
G1 X58.836 Y40.783 E18.76033
G1 X59.815 Y41.792 E18.77796
G1 X61.007 Y40.635 E18.79879
G1 X63.479 Y39.828 E18.8314
G1 X105.07 Y39.828 E19.35297
G1 X106.763 Y40.211 E19.37474
G1 X108.078 Y41.106 E19.39468
G1 X109.661 Y42.737 E19.42319
G1 X110.468 Y45.209 E19.4558
G1 X110.468 Y63.815 E19.68912
G1 X110.108 Y65.453 E19.71015
G1 X109.252 Y66.737 E19.72951
G1 X107.542 Y68.395 E19.75938
G1 X105.067 Y69.198 E19.79201
G1 X102.468 Y69.198 E19.8246
G1 X102.468 Y87.942 E20.05966
G1 X104.256 Y87.942 E20.08208
G1 X105.949 Y88.325 E20.10384
G1 X107.264 Y89.22 E20.12379
G1 X108.847 Y90.851 E20.1523
G1 X109.654 Y93.323 E20.18491
G1 X109.654 Y111.929 E20.41823
G1 X109.294 Y113.567 E20.43926
G1 X108.438 Y114.851 E20.45861
G1 X106.728 Y116.509 E20.48848
G1 X104.253 Y117.312 E20.52111
G1 X101.654 Y117.312 E20.55371
G1 X101.654 Y136.931 E20.79974
G1 X101.296 Y138.549 E20.82052
G1 X100.427 Y139.872 E20.84037
G1 X98.729 Y141.519 E20.87003
G1 X96.281 Y142.312 E20.9023
G1 X92.85 Y142.311 E20.94533
G1 X91.56 Y142.084 E20.96175
G1 X89.318 Y140.87 E20.99373
G1 X88.018 Y139.053 E21.02174
G1 X87.284 Y137.031 E21.04872
G1 X87.284 Y102.312 E21.48411
G1 X71.654 Y102.312 E21.68011
G1 X71.654 Y136.929 E22.11422
G1 X71.294 Y138.567 E22.13525
G1 X70.438 Y139.851 E22.15461
G1 X68.717 Y141.52 E22.18467
G1 X66.268 Y142.312 E22.21695
G1 X62.667 Y142.312 E22.26211
G1 X61.029 Y141.952 E22.28314
G1 X59.745 Y141.096 E22.30249
G1 X58.087 Y139.386 E22.33236
G1 X57.284 Y136.911 E22.36499
G1 X57.284 Y118.359 E22.59764
G1 X55.394 Y118.972 E22.62255
G1 X52.795 Y118.972 E22.65515
G1 X52.795 Y138.488 E22.89988
G1 X52.382 Y140.069 E22.92038
G1 X55.607 Y140.069 E22.96082
G1 X57.3 Y140.452 E22.98259
G1 X58.615 Y141.347 E23.00253
G1 X60.168 Y142.947 E23.0305
G1 X61.93 Y142.371 E23.05374
G1 X103.521 Y142.371 E23.57531
G1 X105.214 Y142.754 E23.59708
G1 X106.529 Y143.649 E23.61702
G1 X108.112 Y145.28 E23.64553
G1 X108.919 Y147.752 E23.67814
G1 X108.919 Y166.358 E23.91146
G1 X108.559 Y167.996 E23.93249
G1 X107.703 Y169.28 E23.95185
G1 X105.993 Y170.938 E23.98172
G1 X103.518 Y171.741 E24.01435
G1 X100.919 Y171.741 E24.04694
G1 X100.919 Y191.358 E24.29294
G1 X100.559 Y192.998 E24.314
G1 X99.697 Y194.292 E24.3335
G1 X98.004 Y195.935 E24.36308
G1 X95.538 Y196.741 E24.39562
G1 X91.477 Y196.741 E24.44654
G1 X89.538 Y195.871 E24.47319
G1 X88.442 Y195.088 E24.49008
G1 X87.283 Y193.483 E24.51491
G1 X86.549 Y191.461 E24.54189
G1 X86.549 Y156.741 E24.97729
G1 X70.919 Y156.741 E25.17329
G1 X70.919 Y191.358 E25.6074
G1 X70.559 Y192.996 E25.62844
G1 X69.703 Y194.28 E25.64779
G1 X67.993 Y195.938 E25.67766
G1 X65.518 Y196.741 E25.71029
G1 X61.932 Y196.741 E25.75526
G1 X60.294 Y196.381 E25.77629
G1 X59.01 Y195.525 E25.79564
G1 X57.352 Y193.815 E25.82551
G1 X56.549 Y191.34 E25.85814
G1 X56.549 Y169.134 E26.13661
G1 X55.607 Y169.439 E26.14903
G1 X53.005 Y169.439 E26.18166
G1 X53.005 Y189.511 E26.43337
G1 X52.135 Y191.45 E26.46002
G1 X51.352 Y192.546 E26.47691
G1 X49.747 Y193.705 E26.50174
G1 X47.725 Y194.439 E26.52871
G1 X44.018 Y194.439 E26.5752
G1 X42.38 Y194.079 E26.59623
G1 X41.096 Y193.223 E26.61558
G1 X39.438 Y191.513 E26.64545
G1 X38.635 Y189.038 E26.67808
G1 X38.635 Y154.439 E27.11197
G1 X23.005 Y154.439 E27.30797
G1 X23.005 Y189.058 E27.74211
G1 X22.647 Y190.676 E27.76289
G1 X21.778 Y191.999 E27.78274
G1 X20.08 Y193.646 E27.8124
G1 X17.632 Y194.439 E27.84467
G1 X14.018 Y194.439 E27.88999
G1 X12.38 Y194.079 E27.91102
G1 X11.096 Y193.223 E27.93038
G1 X9.438 Y191.513 E27.96025
G1 X8.635 Y189.038 E27.99288
G1 X8.635 Y145.467 E28.53927
G1 X9.018 Y143.774 E28.56104
G1 X9.89 Y142.493 E28.58047
G1 X10.268 Y142.115 E28.58718
G1 X9.226 Y141.047 E28.60589
G1 X8.425 Y138.574 E28.63849
G1 X8.425 Y95 E29.18492
G1 X8.808 Y93.307 E29.20669
G1 X9.701 Y91.995 E29.22659
G1 X10.202 Y91.509 E29.23534
G1 X9.659 Y90.949 E29.24513
G1 X8.856 Y88.474 E29.27776
G1 X8.856 Y44.903 E29.82415
G1 X9.239 Y43.21 E29.84592
G1 X10.134 Y41.895 E29.86587
G1 X11.765 Y40.312 E29.89437
G1 X14.237 Y39.505 E29.92698
G0 F15000 X14.3 Y39.905
G1 F1440 X55.784 Y39.905 E30.4472
G1 X57.358 Y40.261 E30.46744
G1 X58.577 Y41.091 E30.48594
G1 X59.807 Y42.358 E30.50808
G1 X61.22 Y40.986 E30.53278
G1 X63.542 Y40.228 E30.56341
G1 X105.026 Y40.228 E31.08363
G1 X106.6 Y40.584 E31.10387
G1 X107.819 Y41.414 E31.12236
G1 X109.31 Y42.95 E31.14921
G1 X110.068 Y45.272 E31.17984
G1 X110.068 Y63.77 E31.41181
G1 X109.733 Y65.294 E31.43138
G1 X108.941 Y66.482 E31.44928
G1 X107.33 Y68.044 E31.47742
G1 X105.006 Y68.798 E31.50806
G1 X102.068 Y68.798 E31.54491
G1 X102.068 Y88.342 E31.79
G1 X104.212 Y88.342 E31.81688
G1 X105.786 Y88.698 E31.83712
G1 X107.005 Y89.528 E31.85561
G1 X108.496 Y91.064 E31.88246
G1 X109.254 Y93.386 E31.91309
G1 X109.254 Y111.884 E32.14506
G1 X108.919 Y113.408 E32.16463
G1 X108.127 Y114.596 E32.18253
G1 X106.516 Y116.158 E32.21067
G1 X104.192 Y116.912 E32.24131
G1 X101.254 Y116.912 E32.27816
G1 X101.254 Y136.886 E32.52864
G1 X100.921 Y138.392 E32.54798
G1 X100.116 Y139.617 E32.56636
G1 X98.519 Y141.166 E32.59426
G1 X96.217 Y141.912 E32.62461
G1 X92.885 Y141.911 E32.66639
G1 X91.693 Y141.701 E32.68157
G1 X89.589 Y140.562 E32.71157
G1 X88.376 Y138.866 E32.73772
G1 X87.684 Y136.96 E32.76315
G1 X87.684 Y101.912 E33.20267
G1 X71.254 Y101.912 E33.4087
G1 X71.254 Y136.884 E33.84727
G1 X70.919 Y138.408 E33.86683
G1 X70.127 Y139.596 E33.88474
G1 X68.507 Y141.167 E33.91304
G1 X66.204 Y141.912 E33.94339
G1 X62.712 Y141.912 E33.98718
G1 X61.188 Y141.577 E34.00675
G1 X60 Y140.785 E34.02466
G1 X58.438 Y139.174 E34.05279
G1 X57.684 Y136.85 E34.08343
G1 X57.684 Y117.809 E34.32222
G1 X55.333 Y118.572 E34.35321
G1 X52.395 Y118.572 E34.39006
G1 X52.395 Y138.437 E34.63917
G1 X51.942 Y140.173 E34.66167
G1 X51.765 Y140.469 E34.66599
G1 X55.563 Y140.469 E34.71362
G1 X57.137 Y140.825 E34.73386
G1 X58.356 Y141.655 E34.75235
G1 X59.783 Y143.125 E34.77804
G1 X59.93 Y143.445 E34.78246
G1 X61.993 Y142.771 E34.80968
G1 X103.477 Y142.771 E35.3299
G1 X105.051 Y143.127 E35.35014
G1 X106.27 Y143.957 E35.36863
G1 X107.761 Y145.493 E35.39548
G1 X108.519 Y147.815 E35.42611
G1 X108.519 Y166.313 E35.65808
G1 X108.184 Y167.837 E35.67765
G1 X107.392 Y169.025 E35.69555
G1 X105.781 Y170.587 E35.72369
G1 X103.457 Y171.341 E35.75433
G1 X100.519 Y171.341 E35.79118
G1 X100.519 Y191.313 E36.04163
G1 X100.184 Y192.839 E36.06122
G1 X99.386 Y194.037 E36.07928
G1 X97.791 Y195.584 E36.10714
G1 X95.475 Y196.341 E36.1377
G1 X91.563 Y196.341 E36.18675
G1 X89.738 Y195.522 E36.21184
G1 X88.727 Y194.8 E36.22742
G1 X87.641 Y193.296 E36.25068
G1 X86.949 Y191.39 E36.27611
G1 X86.949 Y156.341 E36.71564
G1 X70.519 Y156.341 E36.92168
G1 X70.519 Y191.313 E37.36024
G1 X70.184 Y192.837 E37.37981
G1 X69.392 Y194.025 E37.39771
G1 X67.781 Y195.587 E37.42585
G1 X65.457 Y196.341 E37.45649
G1 X61.977 Y196.341 E37.50013
G1 X60.453 Y196.006 E37.5197
G1 X59.265 Y195.214 E37.5376
G1 X57.703 Y193.603 E37.56574
G1 X56.949 Y191.279 E37.59638
G1 X56.949 Y168.584 E37.88099
G1 X55.546 Y169.039 E37.89948
G1 X52.605 Y169.039 E37.93636
G1 X52.605 Y189.425 E38.19201
G1 X51.786 Y191.25 E38.2171
G1 X51.064 Y192.261 E38.23268
G1 X49.56 Y193.347 E38.25594
G1 X47.654 Y194.039 E38.28137
G1 X44.063 Y194.039 E38.3264
G1 X42.539 Y193.704 E38.34597
G1 X41.351 Y192.912 E38.36387
G1 X39.789 Y191.301 E38.39201
G1 X39.035 Y188.977 E38.42265
G1 X39.035 Y154.039 E38.86079
G1 X22.605 Y154.039 E39.06683
G1 X22.605 Y189.013 E39.50541
G1 X22.272 Y190.519 E39.52475
G1 X21.467 Y191.744 E39.54314
G1 X19.87 Y193.293 E39.57104
G1 X17.568 Y194.039 E39.60138
G1 X14.063 Y194.039 E39.64534
G1 X12.539 Y193.704 E39.6649
G1 X11.351 Y192.912 E39.68281
G1 X9.789 Y191.301 E39.71095
G1 X9.035 Y188.977 E39.74159
G1 X9.035 Y145.511 E40.28667
G1 X9.391 Y143.937 E40.30691
G1 X10.221 Y142.718 E40.3254
G1 X10.834 Y142.123 E40.33611
G1 X9.579 Y140.836 E40.35865
G1 X8.825 Y138.51 E40.38932
G1 X8.825 Y95.044 E40.9344
G1 X9.181 Y93.47 E40.95463
G1 X10.011 Y92.251 E40.97313
G1 X10.767 Y91.518 E40.98633
G1 X10.01 Y90.737 E40.99997
G1 X9.256 Y88.413 E41.03061
G1 X9.256 Y44.947 E41.57569
G1 X9.612 Y43.373 E41.59593
G1 X10.442 Y42.154 E41.61442
G1 X11.978 Y40.663 E41.64127
G1 X14.3 Y39.905 E41.6719
G0 F15000 X14.363 Y40.305
G1 F1440 X12.191 Y41.014 E41.70055
G1 X10.75 Y42.413 E41.72574
G1 X9.985 Y43.536 E41.74278
G1 X9.656 Y44.991 E41.76148
G1 X9.656 Y88.352 E42.30525
G1 X10.361 Y90.525 E42.3339
G1 X11.332 Y91.527 E42.35139
G1 X10.319 Y92.51 E42.36909
G1 X9.554 Y93.633 E42.38613
G1 X9.225 Y95.088 E42.40484
G1 X9.225 Y138.449 E42.9486
G1 X9.93 Y140.622 E42.97725
G1 X11.4 Y142.131 E43.00367
G1 X10.529 Y142.977 E43.0189
G1 X9.764 Y144.1 E43.03594
G1 X9.435 Y145.555 E43.05464
G1 X9.435 Y188.916 E43.59841
G1 X10.14 Y191.089 E43.62706
G1 X11.606 Y192.601 E43.65347
G1 X12.698 Y193.329 E43.66992
G1 X14.108 Y193.639 E43.68803
