; generated by Slic3r 1.3.0 on 2019-04-29 at 17:05:59

; external perimeters extrusion width = 0.55mm (4.37mm^3/s)
; perimeters extrusion width = 0.70mm (11.44mm^3/s)
; infill extrusion width = 0.63mm (13.45mm^3/s)
; solid infill extrusion width = 0.70mm (3.81mm^3/s)
; top infill extrusion width = 0.70mm (2.86mm^3/s)

M107
M104 S205 ; set temperature
G28 ; home all axes
G1 Z5 F5000 ; lift nozzle

; Filament gcode

M109 S205 ; set temperature and wait for it to be reached
G21 ; set units to millimeters
G90 ; use absolute coordinates
M82 ; use absolute distances for extrusion
G92 E0
G1 Z0.300 F7800.000
G1 E-2.00000 F2400.00000
G92 E0
G1 X93.871 Y98.871 F7800.000
G1 E2.00000 F2400.00000
G1 F1737.7
G1 X106.129 Y98.871 E2.27864
G1 X106.129 Y101.129 E2.32996
G1 X93.871 Y101.129 E2.60860
G1 X93.871 Y98.946 E2.65822
G1 X93.336 Y98.336 F7800.000
G1 F1737.7
G1 X106.664 Y98.336 E2.96121
G1 X106.664 Y101.664 E3.03688
G1 X93.336 Y101.664 E3.33988
G1 X93.336 Y98.411 E3.41384
G1 X92.800 Y97.800 F7800.000
G1 F1800
G1 X107.200 Y97.800 E3.74119
G1 X107.200 Y102.200 E3.84121
G1 X92.800 Y102.200 E4.16856
G1 X92.800 Y97.875 E4.26688
G1 X93.298 Y97.849 F7800.000
G1 E2.26688 F2400.00000
G92 E0
G1 X94.615 Y99.199 F7800.000
G1 E2.00000 F2400.00000
G1 F1737.7
G1 X94.199 Y99.615 E2.01368
G1 X94.199 Y100.389 E2.03162
G1 X95.389 Y99.199 E2.07068
G1 X96.162 Y99.199 E2.08862
G1 X94.559 Y100.801 E2.14123
G1 X95.332 Y100.801 E2.15917
G1 X96.935 Y99.199 E2.21178
G1 X97.708 Y99.199 E2.22973
G1 X96.105 Y100.801 E2.28233
G1 X96.879 Y100.801 E2.30028
G1 X98.482 Y99.199 E2.35288
G1 X99.255 Y99.199 E2.37083
G1 X97.652 Y100.801 E2.42343
G1 X98.425 Y100.801 E2.44138
G1 X100.028 Y99.199 E2.49399
G1 X100.801 Y99.199 E2.51193
G1 X99.199 Y100.801 E2.56454
G1 X99.972 Y100.801 E2.58248
G1 X101.575 Y99.199 E2.63509
G1 X102.348 Y99.199 E2.65303
G1 X100.745 Y100.801 E2.70564
G1 X101.518 Y100.801 E2.72358
G1 X103.121 Y99.199 E2.77619
G1 X103.895 Y99.199 E2.79414
G1 X102.292 Y100.801 E2.84674
G1 X103.065 Y100.801 E2.86469
G1 X104.668 Y99.199 E2.91729
G1 X105.441 Y99.199 E2.93524
G1 X103.838 Y100.801 E2.98784
G1 X104.611 Y100.801 E3.00579
G1 X105.801 Y99.611 E3.04484
G1 X105.801 Y100.385 E3.06279
G1 X105.385 Y100.801 E3.07647
M104 S200 ; set temperature
G1 Z0.600 F7800.000
G1 X93.971 Y98.971 F7800.000
G1 F900
G1 X106.029 Y98.971 E3.40174
G1 X106.029 Y101.029 E3.45724
G1 X93.971 Y101.029 E3.78251
G1 X93.971 Y99.046 E3.83599
G1 X93.336 Y98.336 F7800.000
G1 F900
G1 X106.664 Y98.336 E4.19556
G1 X106.664 Y101.664 E4.28536
G1 X93.336 Y101.664 E4.64492
G1 X93.336 Y98.411 E4.73269
G1 X92.775 Y97.775 F7800.000
G1 F900
G1 X107.225 Y97.775 E5.03051
G1 X107.225 Y102.225 E5.12223
G1 X92.775 Y102.225 E5.42005
G1 X92.775 Y97.850 E5.51022
G1 X93.273 Y97.825 F7800.000
G1 X94.360 Y100.146 F7800.000
G1 F1200
G1 X94.854 Y100.640 E5.53046
G1 X95.819 Y100.640 E5.55837
G1 X94.538 Y99.360 E5.61079
G1 X95.502 Y99.360 E5.63870
G1 X96.783 Y100.640 E5.69112
G1 X97.747 Y100.640 E5.71903
G1 X96.467 Y99.360 E5.77145
G1 X97.431 Y99.360 E5.79936
G1 X98.712 Y100.640 E5.85177
G1 X99.676 Y100.640 E5.87968
G1 X98.395 Y99.360 E5.93210
G1 X99.360 Y99.360 E5.96001
G1 X100.640 Y100.640 E6.01243
G1 X101.605 Y100.640 E6.04034
G1 X100.324 Y99.360 E6.09276
G1 X101.288 Y99.360 E6.12067
G1 X102.569 Y100.640 E6.17309
G1 X103.533 Y100.640 E6.20100
G1 X102.253 Y99.360 E6.25342
G1 X103.217 Y99.360 E6.28132
G1 X104.498 Y100.640 E6.33374
G1 X105.462 Y100.640 E6.36165
G1 X104.181 Y99.360 E6.41407
G1 X105.146 Y99.360 E6.44198
G1 X105.640 Y99.854 E6.46222
G1 Z0.900 F7800.000
G1 X93.971 Y98.971 F7800.000
G1 F900
G1 X106.029 Y98.971 E6.78749
G1 X106.029 Y101.029 E6.84300
G1 X93.971 Y101.029 E7.16827
G1 X93.971 Y99.046 E7.22175
G1 X93.336 Y98.336 F7800.000
G1 F900
G1 X106.664 Y98.336 E7.58131
G1 X106.664 Y101.664 E7.67111
G1 X93.336 Y101.664 E8.03067
G1 X93.336 Y98.411 E8.11845
G1 X92.775 Y97.775 F7800.000
G1 F900
G1 X107.225 Y97.775 E8.41627
G1 X107.225 Y102.225 E8.50799
G1 X92.775 Y102.225 E8.80580
G1 X92.775 Y97.850 E8.89597
G1 X93.273 Y97.825 F7800.000
G1 X94.854 Y99.360 F7800.000
G1 F1200
G1 X94.360 Y99.854 E8.91622
G1 X94.360 Y100.640 E8.93897
G1 X94.538 Y100.640 E8.94413
G1 X95.819 Y99.360 E8.99654
G1 X96.783 Y99.360 E9.02445
G1 X95.502 Y100.640 E9.07687
G1 X96.467 Y100.640 E9.10478
G1 X97.747 Y99.360 E9.15720
G1 X98.712 Y99.360 E9.18511
G1 X97.431 Y100.640 E9.23753
G1 X98.395 Y100.640 E9.26544
G1 X99.676 Y99.360 E9.31786
G1 X100.640 Y99.360 E9.34577
G1 X99.360 Y100.640 E9.39819
G1 X100.324 Y100.640 E9.42610
G1 X101.605 Y99.360 E9.47851
G1 X102.569 Y99.360 E9.50642
G1 X101.288 Y100.640 E9.55884
G1 X102.253 Y100.640 E9.58675
G1 X103.533 Y99.360 E9.63917
G1 X104.498 Y99.360 E9.66708
G1 X103.217 Y100.640 E9.71950
G1 X104.181 Y100.640 E9.74741
G1 X105.462 Y99.360 E9.79983
G1 X105.640 Y99.360 E9.80498
G1 X105.640 Y100.146 E9.82774
G1 X105.146 Y100.640 E9.84798
M106 S244.8
G1 Z1.200 F7800.000
G1 X93.971 Y98.971 F7800.000
G1 F900
G1 X106.029 Y98.971 E10.17325
G1 X106.029 Y101.029 E10.22875
G1 X93.971 Y101.029 E10.55402
G1 X93.971 Y99.046 E10.60750
G1 X93.336 Y98.336 F7800.000
G1 F900
G1 X106.664 Y98.336 E10.96707
G1 X106.664 Y101.664 E11.05687
G1 X93.336 Y101.664 E11.41643
G1 X93.336 Y98.411 E11.50421
G1 X92.775 Y97.775 F7800.000
G1 F900
G1 X107.225 Y97.775 E11.80202
G1 X107.225 Y102.225 E11.89374
G1 X92.775 Y102.225 E12.19156
G1 X92.775 Y97.850 E12.28173
G1 X93.273 Y97.825 F7800.000
G1 X94.360 Y100.146 F7800.000
G1 F1200
G1 X94.854 Y100.640 E12.30197
G1 X95.819 Y100.640 E12.32988
G1 X94.538 Y99.360 E12.38230
G1 X95.502 Y99.360 E12.41021
G1 X96.783 Y100.640 E12.46263
G1 X97.747 Y100.640 E12.49054
G1 X96.467 Y99.360 E12.54296
G1 X97.431 Y99.360 E12.57087
G1 X98.712 Y100.640 E12.62328
G1 X99.676 Y100.640 E12.65119
G1 X98.395 Y99.360 E12.70361
G1 X99.360 Y99.360 E12.73152
G1 X100.640 Y100.640 E12.78394
G1 X101.605 Y100.640 E12.81185
G1 X100.324 Y99.360 E12.86427
G1 X101.288 Y99.360 E12.89218
G1 X102.569 Y100.640 E12.94460
G1 X103.533 Y100.640 E12.97251
G1 X102.253 Y99.360 E13.02493
G1 X103.217 Y99.360 E13.05284
G1 X104.498 Y100.640 E13.10525
G1 X105.462 Y100.640 E13.13316
G1 X104.181 Y99.360 E13.18558
G1 X105.146 Y99.360 E13.21349
G1 X105.640 Y99.854 E13.23373
M106 S242.25
G1 Z1.500 F7800.000
G1 X93.971 Y98.971 F7800.000
G1 F900
G1 X106.029 Y98.971 E13.55900
G1 X106.029 Y101.029 E13.61451
G1 X93.971 Y101.029 E13.93978
G1 X93.971 Y99.046 E13.99326
G1 X93.336 Y98.336 F7800.000
G1 F900
G1 X106.664 Y98.336 E14.35282
G1 X106.664 Y101.664 E14.44262
G1 X93.336 Y101.664 E14.80219
G1 X93.336 Y98.411 E14.88996
G1 X92.775 Y97.775 F7800.000
G1 F900
G1 X107.225 Y97.775 E15.18778
G1 X107.225 Y102.225 E15.27950
G1 X92.775 Y102.225 E15.57732
G1 X92.775 Y97.850 E15.66749
G1 X93.273 Y97.825 F7800.000
G1 X94.854 Y99.360 F7800.000
G1 F900
G1 X94.360 Y99.854 E15.68773
G1 X94.360 Y100.640 E15.71048
G1 X94.538 Y100.640 E15.71564
G1 X95.819 Y99.360 E15.76805
G1 X96.783 Y99.360 E15.79596
G1 X95.502 Y100.640 E15.84838
G1 X96.467 Y100.640 E15.87629
G1 X97.747 Y99.360 E15.92871
G1 X98.712 Y99.360 E15.95662
G1 X97.431 Y100.640 E16.00904
G1 X98.395 Y100.640 E16.03695
G1 X99.676 Y99.360 E16.08937
G1 X100.640 Y99.360 E16.11728
G1 X99.360 Y100.640 E16.16970
G1 X100.324 Y100.640 E16.19761
G1 X101.605 Y99.360 E16.25002
G1 X102.569 Y99.360 E16.27793
G1 X101.288 Y100.640 E16.33035
G1 X102.253 Y100.640 E16.35826
G1 X103.533 Y99.360 E16.41068
G1 X104.498 Y99.360 E16.43859
G1 X103.217 Y100.640 E16.49101
G1 X104.181 Y100.640 E16.51892
G1 X105.462 Y99.360 E16.57134
G1 X105.640 Y99.360 E16.57649
G1 X105.640 Y100.146 E16.59925
G1 X105.146 Y100.640 E16.61949
M106 S255
G1 Z1.800 F7800.000
G1 E14.61949 F2400.00000
G92 E0
G1 X94.164 Y99.664 F7800.000
G1 E2.00000 F2400.00000
G1 F846.55
G1 X94.164 Y101.664 E2.05395
G1 X93.336 Y101.664 E2.07631
G1 X93.336 Y98.336 E2.16611
G1 X106.664 Y98.336 E2.52567
G1 X106.664 Y101.664 E2.61547
G1 X105.836 Y101.664 E2.63783
G1 X105.836 Y99.664 E2.69178
G1 X94.239 Y99.664 E3.00461
G1 X94.725 Y100.225 F7800.000
G1 F1800
G1 X94.725 Y102.225 E3.04583
G1 X92.775 Y102.225 E3.08602
G1 X92.775 Y97.775 E3.17773
G1 X107.225 Y97.775 E3.47555
G1 X107.225 Y102.225 E3.56727
G1 X105.275 Y102.225 E3.60746
G1 X105.275 Y100.225 E3.64868
G1 X94.800 Y100.225 E3.86457
G1 X94.226 Y100.194 F7800.000
G1 X93.750 Y99.347 F7800.000
G1 F1128.73
G1 X93.750 Y101.347 E3.87550
G1 X93.750 Y99.347 F7800.000
G1 F1128.73
G1 X93.923 Y99.000 E3.87921
G1 F1128.73
G1 X94.097 Y98.653 E3.88450
G1 X93.653 Y99.000 F7800.000
G1 F1128.73
G1 X106.347 Y99.000 E4.22323
G1 X106.163 Y99.173 F7800.000
G1 F1128.73
G1 X105.990 Y98.827 E4.22693
G1 F1128.73
G1 X105.903 Y98.653 E4.22958
G1 X106.163 Y99.173 F7800.000
G1 F1128.73
G1 X106.250 Y99.347 E4.23064
G1 X106.250 Y101.347 E4.24157
G1 Z2.100 F7800.000
G1 E2.24157 F2400.00000
G92 E0
G1 X94.164 Y99.664 F7800.000
G1 E2.00000 F2400.00000
G1 F846.55
G1 X94.164 Y101.664 E2.05395
G1 X93.336 Y101.664 E2.07631
G1 X93.336 Y98.336 E2.16611
G1 X106.664 Y98.336 E2.52567
G1 X106.664 Y101.664 E2.61547
G1 X105.836 Y101.664 E2.63783
G1 X105.836 Y99.664 E2.69178
G1 X94.239 Y99.664 E3.00461
G1 X94.725 Y100.225 F7800.000
G1 F1800
G1 X94.725 Y102.225 E3.04583
G1 X92.775 Y102.225 E3.08602
G1 X92.775 Y97.775 E3.17773
G1 X107.225 Y97.775 E3.47555
G1 X107.225 Y102.225 E3.56727
G1 X105.275 Y102.225 E3.60746
G1 X105.275 Y100.225 E3.64868
G1 X94.800 Y100.225 E3.86457
G1 X94.226 Y100.194 F7800.000
G1 X93.750 Y99.347 F7800.000
G1 F1128.73
G1 X93.750 Y101.347 E3.87550
G1 X93.750 Y99.347 F7800.000
G1 F1128.73
G1 X93.923 Y99.000 E3.87921
G1 F1128.73
G1 X94.097 Y98.653 E3.88450
G1 X93.653 Y99.000 F7800.000
G1 F1128.73
G1 X106.347 Y99.000 E4.22323
G1 X106.163 Y99.173 F7800.000
G1 F1128.73
G1 X105.990 Y98.827 E4.22693
G1 F1128.73
G1 X105.903 Y98.653 E4.22958
G1 X106.163 Y99.173 F7800.000
G1 F1128.73
G1 X106.250 Y99.347 E4.23064
G1 X106.250 Y101.347 E4.24157
G1 Z2.400 F7800.000
G1 E2.24157 F2400.00000
G92 E0
G1 X94.164 Y99.664 F7800.000
G1 E2.00000 F2400.00000
G1 F846.55
G1 X94.164 Y101.664 E2.05395
G1 X93.336 Y101.664 E2.07631
G1 X93.336 Y98.336 E2.16611
G1 X106.664 Y98.336 E2.52567
G1 X106.664 Y101.664 E2.61547
G1 X105.836 Y101.664 E2.63783
G1 X105.836 Y99.664 E2.69178
G1 X94.239 Y99.664 E3.00461
G1 X94.725 Y100.225 F7800.000
G1 F1800
G1 X94.725 Y102.225 E3.04583
G1 X92.775 Y102.225 E3.08602
G1 X92.775 Y97.775 E3.17773
G1 X107.225 Y97.775 E3.47555
G1 X107.225 Y102.225 E3.56727
G1 X105.275 Y102.225 E3.60746
G1 X105.275 Y100.225 E3.64868
G1 X94.800 Y100.225 E3.86457
G1 X94.226 Y100.194 F7800.000
G1 X93.750 Y99.347 F7800.000
G1 F1128.73
G1 X93.750 Y101.347 E3.87550
G1 X93.750 Y99.347 F7800.000
G1 F1128.73
G1 X93.923 Y99.000 E3.87921
G1 F1128.73
G1 X94.097 Y98.653 E3.88450
G1 X93.653 Y99.000 F7800.000
G1 F1128.73
G1 X106.347 Y99.000 E4.22323
G1 X106.163 Y99.173 F7800.000
G1 F1128.73
G1 X105.990 Y98.827 E4.22693
G1 F1128.73
G1 X105.903 Y98.653 E4.22958
G1 X106.163 Y99.173 F7800.000
G1 F1128.73
G1 X106.250 Y99.347 E4.23064
G1 X106.250 Y101.347 E4.24157
G1 Z2.700 F7800.000
G1 E2.24157 F2400.00000
G92 E0
G1 X94.164 Y99.664 F7800.000
G1 E2.00000 F2400.00000
G1 F846.55
G1 X94.164 Y101.664 E2.05395
G1 X93.336 Y101.664 E2.07631
G1 X93.336 Y98.336 E2.16611
G1 X106.664 Y98.336 E2.52567
G1 X106.664 Y101.664 E2.61547
G1 X105.836 Y101.664 E2.63783
G1 X105.836 Y99.664 E2.69178
G1 X94.239 Y99.664 E3.00461
G1 X94.725 Y100.225 F7800.000
G1 F1800
G1 X94.725 Y102.225 E3.04583
G1 X92.775 Y102.225 E3.08602
G1 X92.775 Y97.775 E3.17773
G1 X107.225 Y97.775 E3.47555
G1 X107.225 Y102.225 E3.56727
G1 X105.275 Y102.225 E3.60746
G1 X105.275 Y100.225 E3.64868
G1 X94.800 Y100.225 E3.86457
G1 X94.226 Y100.194 F7800.000
G1 X93.750 Y99.347 F7800.000
G1 F1128.73
G1 X93.750 Y101.347 E3.87550
G1 X93.750 Y99.347 F7800.000
G1 F1128.73
G1 X93.923 Y99.000 E3.87921
G1 F1128.73
G1 X94.097 Y98.653 E3.88450
G1 X93.653 Y99.000 F7800.000
G1 F1128.73
G1 X106.347 Y99.000 E4.22323
G1 X106.163 Y99.173 F7800.000
G1 F1128.73
G1 X105.990 Y98.827 E4.22693
G1 F1128.73
G1 X105.903 Y98.653 E4.22958
G1 X106.163 Y99.173 F7800.000
G1 F1128.73
G1 X106.250 Y99.347 E4.23064
G1 X106.250 Y101.347 E4.24157
G1 Z3.000 F7800.000
G1 E2.24157 F2400.00000
G92 E0
G1 X94.164 Y99.664 F7800.000
G1 E2.00000 F2400.00000
G1 F846.55
G1 X94.164 Y101.664 E2.05395
G1 X93.336 Y101.664 E2.07631
G1 X93.336 Y98.336 E2.16611
G1 X106.664 Y98.336 E2.52567
G1 X106.664 Y101.664 E2.61547
G1 X105.836 Y101.664 E2.63783
G1 X105.836 Y99.664 E2.69178
G1 X94.239 Y99.664 E3.00461
G1 X94.725 Y100.225 F7800.000
G1 F1800
G1 X94.725 Y102.225 E3.04583
G1 X92.775 Y102.225 E3.08602
G1 X92.775 Y97.775 E3.17773
G1 X107.225 Y97.775 E3.47555
G1 X107.225 Y102.225 E3.56727
G1 X105.275 Y102.225 E3.60746
G1 X105.275 Y100.225 E3.64868
G1 X94.800 Y100.225 E3.86457
G1 X94.226 Y100.194 F7800.000
G1 X93.750 Y99.347 F7800.000
G1 F1128.73
G1 X93.750 Y101.347 E3.87550
G1 X93.750 Y99.347 F7800.000
G1 F1128.73
G1 X93.923 Y99.000 E3.87921
G1 F1128.73
G1 X94.097 Y98.653 E3.88450
G1 X93.653 Y99.000 F7800.000
G1 F1128.73
G1 X106.347 Y99.000 E4.22323
G1 X106.163 Y99.173 F7800.000
G1 F1128.73
G1 X105.990 Y98.827 E4.22693
G1 F1128.73
G1 X105.903 Y98.653 E4.22958
G1 X106.163 Y99.173 F7800.000
G1 F1128.73
G1 X106.250 Y99.347 E4.23064
G1 X106.250 Y101.347 E4.24157
G1 Z3.300 F7800.000
G1 E2.24157 F2400.00000
G92 E0
G1 X94.164 Y99.664 F7800.000
G1 E2.00000 F2400.00000
G1 F846.55
G1 X94.164 Y101.664 E2.05395
G1 X93.336 Y101.664 E2.07631
G1 X93.336 Y98.336 E2.16611
G1 X106.664 Y98.336 E2.52567
G1 X106.664 Y101.664 E2.61547
G1 X105.836 Y101.664 E2.63783
G1 X105.836 Y99.664 E2.69178
G1 X94.239 Y99.664 E3.00461
G1 X94.725 Y100.225 F7800.000
G1 F1800
G1 X94.725 Y102.225 E3.04583
G1 X92.775 Y102.225 E3.08602
G1 X92.775 Y97.775 E3.17773
G1 X107.225 Y97.775 E3.47555
G1 X107.225 Y102.225 E3.56727
G1 X105.275 Y102.225 E3.60746
G1 X105.275 Y100.225 E3.64868
G1 X94.800 Y100.225 E3.86457
G1 X94.226 Y100.194 F7800.000
G1 X93.750 Y99.347 F7800.000
G1 F1128.73
G1 X93.750 Y101.347 E3.87550
G1 X93.750 Y99.347 F7800.000
G1 F1128.73
G1 X93.923 Y99.000 E3.87921
G1 F1128.73
G1 X94.097 Y98.653 E3.88450
G1 X93.653 Y99.000 F7800.000
G1 F1128.73
G1 X106.347 Y99.000 E4.22323
G1 X106.163 Y99.173 F7800.000
G1 F1128.73
G1 X105.990 Y98.827 E4.22693
G1 F1128.73
G1 X105.903 Y98.653 E4.22958
G1 X106.163 Y99.173 F7800.000
G1 F1128.73
G1 X106.250 Y99.347 E4.23064
G1 X106.250 Y101.347 E4.24157
G1 Z3.600 F7800.000
G1 E2.24157 F2400.00000
G92 E0
G1 X94.164 Y99.664 F7800.000
G1 E2.00000 F2400.00000
G1 F846.55
G1 X94.164 Y101.664 E2.05395
G1 X93.336 Y101.664 E2.07631
G1 X93.336 Y98.336 E2.16611
G1 X106.664 Y98.336 E2.52567
G1 X106.664 Y101.664 E2.61547
G1 X105.836 Y101.664 E2.63783
G1 X105.836 Y99.664 E2.69178
G1 X94.239 Y99.664 E3.00461
G1 X94.725 Y100.225 F7800.000
G1 F1800
G1 X94.725 Y102.225 E3.04583
G1 X92.775 Y102.225 E3.08602
G1 X92.775 Y97.775 E3.17773
G1 X107.225 Y97.775 E3.47555
G1 X107.225 Y102.225 E3.56727
G1 X105.275 Y102.225 E3.60746
G1 X105.275 Y100.225 E3.64868
G1 X94.800 Y100.225 E3.86457
G1 X94.226 Y100.194 F7800.000
G1 X93.750 Y99.347 F7800.000
G1 F1128.73
G1 X93.750 Y101.347 E3.87550
G1 X93.750 Y99.347 F7800.000
G1 F1128.73
G1 X93.923 Y99.000 E3.87921
G1 F1128.73
G1 X94.097 Y98.653 E3.88450
G1 X93.653 Y99.000 F7800.000
G1 F1128.73
G1 X106.347 Y99.000 E4.22323
G1 X106.163 Y99.173 F7800.000
G1 F1128.73
G1 X105.990 Y98.827 E4.22693
G1 F1128.73
G1 X105.903 Y98.653 E4.22958
G1 X106.163 Y99.173 F7800.000
G1 F1128.73
G1 X106.250 Y99.347 E4.23064
G1 X106.250 Y101.347 E4.24157
G1 Z3.900 F7800.000
G1 E2.24157 F2400.00000
G92 E0
G1 X93.971 Y101.029 F7800.000
G1 E2.00000 F2400.00000
G1 F1504.64
G1 X93.971 Y98.971 E2.05550
G1 X106.029 Y98.971 E2.38077
G1 X106.029 Y101.029 E2.43628
G1 X104.750 Y101.029 E2.47078
M106 S255

G1 F3600
G1 X95.250 Y101.029 E2.73467
M106 S255

G1 F1504.64
G1 X94.046 Y101.029 E2.76714
G1 X93.336 Y101.664 F7800.000
G1 F1504.64
G1 X93.336 Y98.336 E2.85694
G1 X106.664 Y98.336 E3.21650
G1 X106.664 Y101.664 E3.30630
G1 X104.750 Y101.664 E3.35794
M106 S255

G1 F3600
G1 X95.250 Y101.664 E3.62183
M106 S255

G1 F1504.64
G1 X93.411 Y101.664 E3.67145
G1 X92.775 Y102.225 F7800.000
G1 F752.322
G1 X92.775 Y97.775 E3.76317
G1 X107.225 Y97.775 E4.06099
G1 X107.225 Y102.225 E4.15270
G1 X104.750 Y102.225 E4.20371
M106 S255

G1 F3600
G1 X95.250 Y102.225 E4.46760
M106 S255

G1 F752.322
G1 X92.850 Y102.225 E4.51707
G1 X93.251 Y102.380 F7800.000
G1 X94.890 Y100.224 F7800.000
M106 S255

G1 F3600
G1 X94.890 Y100.436 E4.52583
G1 X105.762 Y100.436 E4.97532
G1 X105.762 Y100.224 E4.98408
G1 X94.238 Y100.224 E5.46053
G1 X94.238 Y99.564 E5.48782
G1 X105.762 Y99.564 E5.96428
M106 S255

M106 S244.8
G1 Z4.200 F7800.000
G1 X93.971 Y101.029 F7800.000
G1 F900
G1 X93.971 Y98.971 E6.01978
G1 X106.029 Y98.971 E6.34505
G1 X106.029 Y101.029 E6.40056
G1 X94.046 Y101.029 E6.72380
G1 X93.336 Y101.664 F7800.000
G1 F900
G1 X93.336 Y98.336 E6.81360
G1 X106.664 Y98.336 E7.17317
G1 X106.664 Y101.664 E7.26296
G1 X93.411 Y101.664 E7.62050
G1 X92.775 Y102.225 F7800.000
G1 F900
G1 X92.775 Y97.775 E7.71222
G1 X107.225 Y97.775 E8.01004
G1 X107.225 Y102.225 E8.10176
G1 X92.850 Y102.225 E8.39803
G1 X92.981 Y101.769 F7800.000
G1 X94.360 Y100.146 F7800.000
G1 F1200
G1 X94.854 Y100.640 E8.41827
G1 X95.819 Y100.640 E8.44618
G1 X94.538 Y99.360 E8.49860
G1 X95.502 Y99.360 E8.52651
G1 X96.783 Y100.640 E8.57893
G1 X97.747 Y100.640 E8.60684
G1 X96.467 Y99.360 E8.65925
G1 X97.431 Y99.360 E8.68716
G1 X98.712 Y100.640 E8.73958
G1 X99.676 Y100.640 E8.76749
G1 X98.395 Y99.360 E8.81991
G1 X99.360 Y99.360 E8.84782
G1 X100.640 Y100.640 E8.90024
G1 X101.605 Y100.640 E8.92815
G1 X100.324 Y99.360 E8.98057
G1 X101.288 Y99.360 E9.00848
G1 X102.569 Y100.640 E9.06090
G1 X103.533 Y100.640 E9.08881
G1 X102.253 Y99.360 E9.14122
G1 X103.217 Y99.360 E9.16913
G1 X104.498 Y100.640 E9.22155
G1 X105.462 Y100.640 E9.24946
G1 X104.181 Y99.360 E9.30188
G1 X105.146 Y99.360 E9.32979
G1 X105.640 Y99.854 E9.35003
G1 Z4.500 F7800.000
G1 X93.971 Y101.029 F7800.000
G1 F900
G1 X93.971 Y98.971 E9.40554
G1 X106.029 Y98.971 E9.73081
G1 X106.029 Y101.029 E9.78631
G1 X94.046 Y101.029 E10.10956
G1 X93.336 Y101.664 F7800.000
G1 F900
G1 X93.336 Y98.336 E10.19936
G1 X106.664 Y98.336 E10.55892
G1 X106.664 Y101.664 E10.64872
G1 X93.411 Y101.664 E11.00626
G1 X92.775 Y102.225 F7800.000
G1 F900
G1 X92.775 Y97.775 E11.09798
G1 X107.225 Y97.775 E11.39579
G1 X107.225 Y102.225 E11.48751
G1 X92.850 Y102.225 E11.78378
G1 X92.981 Y101.769 F7800.000
G1 X94.854 Y99.360 F7800.000
G1 F1200
G1 X94.360 Y99.854 E11.80403
G1 X94.360 Y100.640 E11.82678
G1 X94.538 Y100.640 E11.83194
G1 X95.819 Y99.360 E11.88435
G1 X96.783 Y99.360 E11.91226
G1 X95.502 Y100.640 E11.96468
G1 X96.467 Y100.640 E11.99259
G1 X97.747 Y99.360 E12.04501
G1 X98.712 Y99.360 E12.07292
G1 X97.431 Y100.640 E12.12534
G1 X98.395 Y100.640 E12.15325
G1 X99.676 Y99.360 E12.20567
G1 X100.640 Y99.360 E12.23358
G1 X99.360 Y100.640 E12.28600
G1 X100.324 Y100.640 E12.31390
G1 X101.605 Y99.360 E12.36632
G1 X102.569 Y99.360 E12.39423
G1 X101.288 Y100.640 E12.44665
G1 X102.253 Y100.640 E12.47456
G1 X103.533 Y99.360 E12.52698
G1 X104.498 Y99.360 E12.55489
G1 X103.217 Y100.640 E12.60731
G1 X104.181 Y100.640 E12.63522
G1 X105.462 Y99.360 E12.68764
G1 X105.640 Y99.360 E12.69279
G1 X105.640 Y100.146 E12.71555
G1 X105.146 Y100.640 E12.73579
G1 Z4.800 F7800.000
G1 X93.971 Y101.029 F7800.000
G1 F900
G1 X93.971 Y98.971 E12.79129
G1 X106.029 Y98.971 E13.11656
G1 X106.029 Y101.029 E13.17207
G1 X94.046 Y101.029 E13.49531
G1 X93.336 Y101.664 F7800.000
G1 F900
G1 X93.336 Y98.336 E13.58511
G1 X106.664 Y98.336 E13.94468
G1 X106.664 Y101.664 E14.03447
G1 X93.411 Y101.664 E14.39201
G1 X92.775 Y102.225 F7800.000
G1 F900
G1 X92.775 Y97.775 E14.48373
G1 X107.225 Y97.775 E14.78155
G1 X107.225 Y102.225 E14.87327
G1 X92.850 Y102.225 E15.16954
G1 X92.981 Y101.769 F7800.000
G1 X94.360 Y100.146 F7800.000
G1 F1200
G1 X94.854 Y100.640 E15.18978
G1 X95.819 Y100.640 E15.21769
G1 X94.538 Y99.360 E15.27011
G1 X95.502 Y99.360 E15.29802
G1 X96.783 Y100.640 E15.35044
G1 X97.747 Y100.640 E15.37835
G1 X96.467 Y99.360 E15.43077
G1 X97.431 Y99.360 E15.45868
G1 X98.712 Y100.640 E15.51109
G1 X99.676 Y100.640 E15.53900
G1 X98.395 Y99.360 E15.59142
G1 X99.360 Y99.360 E15.61933
G1 X100.640 Y100.640 E15.67175
G1 X101.605 Y100.640 E15.69966
G1 X100.324 Y99.360 E15.75208
G1 X101.288 Y99.360 E15.77999
G1 X102.569 Y100.640 E15.83241
G1 X103.533 Y100.640 E15.86032
G1 X102.253 Y99.360 E15.91274
G1 X103.217 Y99.360 E15.94065
G1 X104.498 Y100.640 E15.99306
G1 X105.462 Y100.640 E16.02097
G1 X104.181 Y99.360 E16.07339
G1 X105.146 Y99.360 E16.10130
G1 X105.640 Y99.854 E16.12154
M106 S242.25
G1 Z5.100 F7800.000
G1 E14.12154 F2400.00000
G92 E0
G1 X93.971 Y101.029 F7800.000
G1 E2.00000 F2400.00000
G1 F900
G1 X93.971 Y98.971 E2.05550
G1 X106.029 Y98.971 E2.38077
G1 X106.029 Y101.029 E2.43628
G1 X94.046 Y101.029 E2.75953
G1 X93.336 Y101.664 F7800.000
G1 F900
G1 X93.336 Y98.336 E2.84933
G1 X106.664 Y98.336 E3.20889
G1 X106.664 Y101.664 E3.29869
G1 X93.411 Y101.664 E3.65623
G1 X92.775 Y102.225 F7800.000
G1 F900
G1 X92.775 Y97.775 E3.74794
G1 X107.225 Y97.775 E4.04576
G1 X107.225 Y102.225 E4.13748
G1 X92.850 Y102.225 E4.43375
G1 X92.981 Y101.769 F7800.000
G1 E2.43375 F2400.00000
G92 E0
G1 X94.854 Y99.360 F7800.000
G1 E2.00000 F2400.00000
G1 F900
G1 X94.360 Y99.854 E2.02024
G1 X94.360 Y100.640 E2.04299
G1 X94.538 Y100.640 E2.04815
G1 X95.819 Y99.360 E2.10057
G1 X96.783 Y99.360 E2.12848
G1 X95.502 Y100.640 E2.18090
G1 X96.467 Y100.640 E2.20881
G1 X97.747 Y99.360 E2.26123
G1 X98.712 Y99.360 E2.28914
G1 X97.431 Y100.640 E2.34155
G1 X98.395 Y100.640 E2.36946
G1 X99.676 Y99.360 E2.42188
G1 X100.640 Y99.360 E2.44979
G1 X99.360 Y100.640 E2.50221
G1 X100.324 Y100.640 E2.53012
G1 X101.605 Y99.360 E2.58254
G1 X102.569 Y99.360 E2.61045
G1 X101.288 Y100.640 E2.66287
G1 X102.253 Y100.640 E2.69078
G1 X103.533 Y99.360 E2.74320
G1 X104.498 Y99.360 E2.77111
G1 X103.217 Y100.640 E2.82352
G1 X104.181 Y100.640 E2.85143
G1 X105.462 Y99.360 E2.90385
G1 X105.640 Y99.360 E2.90901
G1 X105.640 Y100.146 E2.93176
G1 X105.146 Y100.640 E2.95200
G1 E0.95200 F2400.00000
G92 E0
M107
; Filament-specific end gcode 
;END gcode for filament

M104 S0 ; turn off temperature
G28 X0  ; home X axis
M84     ; disable motors

M140 S0 ; set bed temperature
; filament used = 50.1mm (0.4cm3)
; total filament cost = 0.0

; avoid_crossing_perimeters = 0
; bed_shape = 0x0,200x0,200x200,0x200
; bed_temperature = 0
; before_layer_gcode = 
; between_objects_gcode = 
; bridge_acceleration = 0
; bridge_fan_speed = 100
; brim_connections_width = 0
; brim_width = 0
; complete_objects = 0
; cooling = 1
; default_acceleration = 0
; disable_fan_first_layers = 3
; duplicate_distance = 6
; end_filament_gcode = "; Filament-specific end gcode \n;END gcode for filament\n"
; end_gcode = M104 S0 ; turn off temperature\nG28 X0  ; home X axis\nM84     ; disable motors\n
; extruder_clearance_height = 20
; extruder_clearance_radius = 20
; extruder_offset = 0x0
; extrusion_axis = E
; extrusion_multiplier = 1
; fan_always_on = 0
; fan_below_layer_time = 60
; filament_colour = #FFFFFF
; filament_cost = 0
; filament_density = 0
; filament_diameter = 3
; filament_max_volumetric_speed = 0
; filament_notes = ""
; first_layer_acceleration = 0
; first_layer_bed_temperature = 0
; first_layer_extrusion_width = 200%
; first_layer_speed = 30
; first_layer_temperature = 205
; gcode_arcs = 0
; gcode_comments = 0
; gcode_flavor = reprap
; has_heatbed = 1
; infill_acceleration = 0
; infill_first = 0
; interior_brim_width = 0
; layer_gcode = 
; max_fan_speed = 100
; max_layer_height = 0.3
; max_print_speed = 80
; max_volumetric_speed = 0
; min_fan_speed = 35
; min_layer_height = 0.15
; min_print_speed = 10
; min_skirt_length = 0
; notes = 
; nozzle_diameter = 0.5
; only_retract_when_crossing_perimeters = 1
; ooze_prevention = 0
; output_filename_format = [input_filename_base].gcode
; perimeter_acceleration = 0
; post_process = 
; pressure_advance = 0
; printer_notes = 
; resolution = 0
; retract_before_travel = 2
; retract_layer_change = 0
; retract_length = 2
; retract_length_toolchange = 10
; retract_lift = 0
; retract_lift_above = 0
; retract_lift_below = 0
; retract_restart_extra = 0
; retract_restart_extra_toolchange = 0
; retract_speed = 40
; skirt_distance = 6
; skirt_height = 1
; skirts = 0
; slowdown_below_layer_time = 5
; spiral_vase = 0
; standby_temperature_delta = -5
; start_filament_gcode = "; Filament gcode\n"
; start_gcode = G28 ; home all axes\nG1 Z5 F5000 ; lift nozzle\n
; temperature = 200
; threads = 8
; toolchange_gcode = 
; travel_speed = 130
; use_firmware_retraction = 0
; use_relative_e_distances = 0
; use_set_and_wait_bed = 0
; use_set_and_wait_extruder = 0
; use_volumetric_e = 0
; vibration_limit = 0
; wipe = 0
; z_offset = 0
; z_steps_per_mm = 0
; adaptive_slicing = 0
; adaptive_slicing_quality = 75%
; dont_support_bridges = 1
; extrusion_width = 0
; first_layer_height = 0.3
; infill_only_where_needed = 0
; interface_shells = 0
; layer_height = 0.3
; match_horizontal_surfaces = 0
; raft_layers = 0
; regions_overlap = 0
; seam_position = aligned
; sequential_print_priority = 0
; support_material = 0
; support_material_angle = 0
; support_material_buildplate_only = 0
; support_material_contact_distance = 0.2
; support_material_enforce_layers = 0
; support_material_extruder = 1
; support_material_extrusion_width = 0
; support_material_interface_extruder = 1
; support_material_interface_extrusion_width = 0
; support_material_interface_layers = 3
; support_material_interface_spacing = 0
; support_material_interface_speed = 100%
; support_material_max_layers = 0
; support_material_pattern = pillars
; support_material_spacing = 2.5
; support_material_speed = 60
; support_material_threshold = 60%
; xy_size_compensation = 0
; bottom_infill_pattern = rectilinear
; bottom_solid_layers = 3
; bridge_flow_ratio = 1
; bridge_speed = 60
; external_perimeter_extrusion_width = 0
; external_perimeter_speed = 50%
; external_perimeters_first = 0
; extra_perimeters = 1
; fill_angle = 45
; fill_density = 20%
; fill_gaps = 1
; fill_pattern = stars
; gap_fill_speed = 20
; infill_every_layers = 1
; infill_extruder = 1
; infill_extrusion_width = 0
; infill_overlap = 55%
; infill_speed = 80
; overhangs = 1
; perimeter_extruder = 1
; perimeter_extrusion_width = 0
; perimeter_speed = 60
; perimeters = 3
; small_perimeter_speed = 15
; solid_infill_below_area = 70
; solid_infill_every_layers = 0
; solid_infill_extruder = 1
; solid_infill_extrusion_width = 0
; solid_infill_speed = 20
; thin_walls = 1
; top_infill_extrusion_width = 0
; top_infill_pattern = rectilinear
; top_solid_infill_speed = 15
; top_solid_layers = 3
