; generated by Slic3r 1.3.0 on 2019-04-29 at 16:01:56

; external perimeters extrusion width = 0.55mm (6.64mm^3/s)
; perimeters extrusion width = 0.52mm (12.53mm^3/s)
; infill extrusion width = 0.52mm (16.71mm^3/s)
; solid infill extrusion width = 0.52mm (4.18mm^3/s)
; top infill extrusion width = 0.52mm (3.13mm^3/s)

M107
M104 S205 ; set temperature
G28 ; home all axes
G1 Z5 F5000 ; lift nozzle

; Filament gcode

M109 S205 ; set temperature and wait for it to be reached
G21 ; set units to millimeters
G90 ; use absolute coordinates
M82 ; use absolute distances for extrusion
G92 E0
G1 Z0.500 F7800.000
G1 E-2.00000 F2400.00000
G92 E0
G1 X97.785 Y96.285 F7800.000
G1 E2.00000 F2400.00000
G1 F1360.51
G1 X102.215 Y96.285 E2.27968
G1 X102.215 Y103.715 E2.74881
G1 X97.785 Y103.715 E3.02849
G1 X97.785 Y96.360 E3.49288
G1 X96.893 Y95.393 F7800.000
G1 F1360.51
G1 X103.107 Y95.393 E3.88530
G1 X103.107 Y104.607 E4.46716
G1 X96.893 Y104.607 E4.85959
G1 X96.893 Y95.468 E5.43671
G1 X96.000 Y94.500 F7800.000
G1 F1800
G1 X104.000 Y94.500 E5.94187
G1 X104.000 Y105.500 E6.63648
G1 X96.000 Y105.500 E7.14164
G1 X96.000 Y94.575 E7.83151
G1 X96.476 Y94.654 F7800.000
G1 E5.83151 F2400.00000
G92 E0
G1 X99.025 Y96.831 F7800.000
G1 E2.00000 F2400.00000
G1 F1360.51
G1 X98.331 Y97.525 E2.06785
G1 X98.331 Y98.907 E2.16328
G1 X100.407 Y96.831 E2.36608
G1 X101.669 Y96.831 E2.45330
G1 X101.669 Y96.950 E2.46151
G1 X98.331 Y100.288 E2.78766
G1 X98.331 Y101.669 E2.88308
G1 X101.669 Y98.331 E3.20923
G1 X101.669 Y99.712 E3.30466
G1 X98.331 Y103.050 E3.63081
G1 X98.331 Y103.169 E3.63901
G1 X99.593 Y103.169 E3.72623
G1 X101.669 Y101.093 E3.92903
G1 X101.669 Y102.475 E4.02446
G1 X100.975 Y103.169 E4.09231
M104 S200 ; set temperature
G1 Z1.000 F7800.000
G1 E2.09231 F2400.00000
G92 E0
G1 X96.980 Y95.480 F7800.000
G1 E2.00000 F2400.00000
G1 F900
G1 X97.161 Y95.340 E2.00717
G1 X97.373 Y95.253 E2.01434
G1 X97.582 Y95.225 E2.02095
G1 X102.418 Y95.225 E2.17239
G1 X102.627 Y95.253 E2.17899
G1 X102.839 Y95.340 E2.18616
G1 X103.020 Y95.480 E2.19333
G1 X103.160 Y95.661 E2.20051
G1 X103.247 Y95.873 E2.20768
G1 X103.275 Y96.082 E2.21428
G1 X103.275 Y103.918 E2.45966
G1 X103.247 Y104.127 E2.46627
G1 X103.160 Y104.339 E2.47344
G1 X103.020 Y104.520 E2.48061
G1 X102.839 Y104.660 E2.48778
G1 X102.627 Y104.747 E2.49496
G1 X102.418 Y104.775 E2.50156
G1 X97.582 Y104.775 E2.65300
G1 X97.373 Y104.747 E2.65960
G1 X97.161 Y104.660 E2.66677
G1 X96.980 Y104.520 E2.67395
G1 X96.840 Y104.339 E2.68112
G1 X96.753 Y104.127 E2.68829
G1 X96.725 Y103.918 E2.69489
G1 X96.725 Y96.082 E2.94028
G1 X96.753 Y95.873 E2.94688
G1 X96.840 Y95.661 E2.95405
G1 X96.934 Y95.539 E2.95887
G1 X96.980 Y95.480 F7800.000
G1 X97.083 Y94.907 F7800.000
G1 F900
G1 X96.944 Y94.964 E2.96331
G1 X96.673 Y95.173 E2.97343
G1 X96.464 Y95.444 E2.98354
G1 X96.407 Y95.583 E2.98798
G1 X96.205 Y95.543 E2.99405
G1 X96.205 Y94.705 E3.01881
G1 X97.043 Y94.705 E3.04356
G1 X97.068 Y94.833 E3.04742
G1 X102.957 Y94.705 F7800.000
G1 F900
G1 X103.795 Y94.705 E3.07217
G1 X103.795 Y95.543 E3.09693
G1 X103.593 Y95.583 E3.10300
G1 X103.536 Y95.444 E3.10744
G1 X103.327 Y95.173 E3.11756
G1 X103.056 Y94.964 E3.12767
G1 X102.917 Y94.907 E3.13211
G1 X102.942 Y94.779 E3.13597
G1 X103.795 Y104.457 F7800.000
G1 F900
G1 X103.795 Y105.295 E3.16072
G1 X102.957 Y105.295 E3.18547
G1 X102.917 Y105.093 E3.19155
G1 X103.056 Y105.036 E3.19599
G1 X103.327 Y104.827 E3.20610
G1 X103.536 Y104.556 E3.21622
G1 X103.593 Y104.417 E3.22065
G1 X103.721 Y104.442 E3.22452
G1 X97.043 Y105.295 F7800.000
G1 F900
G1 X96.205 Y105.295 E3.24927
G1 X96.205 Y104.457 E3.27402
G1 X96.407 Y104.417 E3.28010
G1 X96.464 Y104.556 E3.28454
G1 X96.673 Y104.827 E3.29465
G1 X96.944 Y105.036 E3.30476
G1 X97.083 Y105.093 E3.30920
G1 X97.058 Y105.221 E3.31306
G1 X95.775 Y105.725 F7800.000
G1 F900
G1 X95.775 Y94.275 E3.67161
G1 X104.225 Y94.275 E3.93622
G1 X104.225 Y105.725 E4.29477
G1 X95.850 Y105.725 E4.55703
G1 X95.880 Y105.236 F7800.000
G1 X96.603 Y105.068 F7800.000
G1 F1200
G1 X96.478 Y105.022 E4.55723
G1 X96.432 Y104.897 E4.55743
G1 X96.540 Y104.171 F7800.000
G1 F1200
G1 X96.251 Y103.963 E4.56787
G1 X96.250 Y96.068 E4.79924
G1 X96.251 Y96.037 E4.80013
G1 X96.540 Y95.829 E4.81057
G1 X96.432 Y95.103 F7800.000
G1 F1200
G1 X96.478 Y94.978 E4.81077
G1 X96.603 Y94.932 E4.81097
G1 X97.329 Y95.040 F7800.000
G1 F1200
G1 X97.537 Y94.751 E4.82141
G1 X97.568 Y94.750 E4.82231
G1 X102.463 Y94.751 E4.96575
G1 X102.671 Y95.040 E4.97619
G1 X103.397 Y94.932 F7800.000
G1 F1200
G1 X103.522 Y94.978 E4.97639
G1 X103.568 Y95.103 E4.97659
G1 X103.460 Y95.829 F7800.000
G1 F1200
G1 X103.749 Y96.037 E4.98703
G1 X103.750 Y103.932 E5.21839
G1 X103.749 Y103.963 E5.21929
G1 X103.460 Y104.171 E5.22973
G1 X103.568 Y104.897 F7800.000
G1 F1200
G1 X103.522 Y105.022 E5.22993
G1 X103.397 Y105.068 E5.23013
G1 X102.671 Y104.960 F7800.000
G1 F1200
G1 X102.463 Y105.249 E5.24057
G1 X102.432 Y105.250 E5.24146
G1 X97.537 Y105.249 E5.38491
G1 X97.329 Y104.960 E5.39535
G1 Z1.500 F7800.000
G1 X96.980 Y104.520 F7800.000
G1 F900
G1 X96.840 Y104.339 E5.40252
G1 X96.753 Y104.127 E5.40969
G1 X96.725 Y103.918 E5.41630
G1 X96.725 Y96.082 E5.66168
G1 X96.753 Y95.873 E5.66828
G1 X96.821 Y95.708 E5.67388
G1 X96.973 Y95.484 E5.68235
G1 X97.161 Y95.340 E5.68977
G1 X97.373 Y95.253 E5.69694
G1 X97.582 Y95.225 E5.70354
G1 X102.418 Y95.225 E5.85498
G1 X102.627 Y95.253 E5.86158
G1 X102.839 Y95.340 E5.86875
G1 X103.020 Y95.480 E5.87593
G1 X103.160 Y95.661 E5.88310
G1 X103.247 Y95.873 E5.89027
G1 X103.275 Y96.082 E5.89687
G1 X103.275 Y103.918 E6.14226
G1 X103.247 Y104.127 E6.14886
G1 X103.160 Y104.339 E6.15603
G1 X103.020 Y104.520 E6.16320
G1 X102.839 Y104.660 E6.17038
G1 X102.627 Y104.747 E6.17755
G1 X102.418 Y104.775 E6.18415
G1 X97.582 Y104.775 E6.33559
G1 X97.373 Y104.747 E6.34219
G1 X97.161 Y104.660 E6.34937
G1 X97.039 Y104.566 E6.35419
G1 X96.980 Y104.520 F7800.000
G1 X96.205 Y95.533 F7800.000
G1 F900
G1 X96.205 Y94.705 E6.37866
G1 X97.043 Y94.705 E6.40341
G1 X97.083 Y94.907 E6.40949
G1 X96.944 Y94.964 E6.41392
G1 X96.657 Y95.185 E6.42463
G1 X96.382 Y95.588 E6.43904
G1 X96.277 Y95.555 E6.44229
G1 X102.957 Y94.705 F7800.000
G1 F900
G1 X103.795 Y94.705 E6.46704
G1 X103.795 Y95.543 E6.49180
G1 X103.593 Y95.583 E6.49787
G1 X103.536 Y95.444 E6.50231
G1 X103.327 Y95.173 E6.51242
G1 X103.056 Y94.964 E6.52254
G1 X102.917 Y94.907 E6.52698
G1 X102.942 Y94.779 E6.53084
G1 X103.795 Y104.457 F7800.000
G1 F900
G1 X103.795 Y105.295 E6.55559
G1 X102.957 Y105.295 E6.58034
G1 X102.917 Y105.093 E6.58642
G1 X103.056 Y105.036 E6.59086
G1 X103.327 Y104.827 E6.60097
G1 X103.536 Y104.556 E6.61109
G1 X103.593 Y104.417 E6.61552
G1 X103.721 Y104.442 E6.61938
G1 X97.043 Y105.295 F7800.000
G1 F900
G1 X96.205 Y105.295 E6.64414
G1 X96.205 Y104.457 E6.66889
G1 X96.407 Y104.417 E6.67497
G1 X96.464 Y104.556 E6.67941
G1 X96.673 Y104.827 E6.68952
G1 X96.944 Y105.036 E6.69963
G1 X97.083 Y105.093 E6.70407
G1 X97.058 Y105.221 E6.70793
G1 X95.775 Y105.725 F7800.000
G1 F900
G1 X95.775 Y94.275 E7.06648
G1 X104.225 Y94.275 E7.33109
G1 X104.225 Y105.725 E7.68964
G1 X95.850 Y105.725 E7.95190
G1 X95.880 Y105.236 F7800.000
G1 X96.603 Y105.068 F7800.000
G1 F1200
G1 X96.478 Y105.022 E7.95210
G1 X96.432 Y104.897 E7.95230
G1 X96.540 Y104.171 F7800.000
G1 F1200
G1 X96.251 Y103.963 E7.96272
G1 X96.250 Y103.932 E7.96362
G1 X96.251 Y96.045 E8.19432
G1 X96.538 Y95.856 E8.20437
G1 X97.329 Y95.040 F7800.000
G1 F1200
G1 X97.537 Y94.751 E8.21481
G1 X102.432 Y94.750 E8.35825
G1 X102.463 Y94.751 E8.35915
G1 X102.671 Y95.040 E8.36959
G1 X103.397 Y94.932 F7800.000
G1 F1200
G1 X103.522 Y94.978 E8.36979
G1 X103.568 Y95.103 E8.36999
G1 X103.460 Y95.829 F7800.000
G1 F1200
G1 X103.749 Y96.037 E8.38043
G1 X103.750 Y103.932 E8.61179
G1 X103.749 Y103.963 E8.61269
G1 X103.460 Y104.171 E8.62312
G1 X103.568 Y104.897 F7800.000
G1 F1200
G1 X103.522 Y105.022 E8.62332
G1 X103.397 Y105.068 E8.62352
G1 X102.671 Y104.960 F7800.000
G1 F1200
G1 X102.463 Y105.249 E8.63396
G1 X102.432 Y105.250 E8.63486
G1 X97.537 Y105.249 E8.77831
G1 X97.329 Y104.960 E8.78875
M106 S247.35
G1 Z2.000 F7800.000
G1 X96.980 Y104.520 F7800.000
G1 F900
G1 X96.840 Y104.339 E8.79592
G1 X96.753 Y104.127 E8.80309
G1 X96.725 Y103.918 E8.80969
G1 X96.725 Y96.082 E9.05508
G1 X96.753 Y95.873 E9.06168
G1 X96.840 Y95.661 E9.06885
G1 X96.980 Y95.480 E9.07602
G1 X97.161 Y95.340 E9.08320
G1 X97.373 Y95.253 E9.09037
G1 X97.582 Y95.225 E9.09697
G1 X102.418 Y95.225 E9.24841
G1 X102.627 Y95.253 E9.25501
G1 X102.839 Y95.340 E9.26218
G1 X103.020 Y95.480 E9.26936
G1 X103.180 Y95.688 E9.27757
G1 X103.248 Y95.880 E9.28396
G1 X103.275 Y96.082 E9.29034
G1 X103.275 Y103.918 E9.53572
G1 X103.247 Y104.127 E9.54233
G1 X103.160 Y104.339 E9.54950
G1 X103.020 Y104.520 E9.55667
G1 X102.839 Y104.660 E9.56384
G1 X102.627 Y104.747 E9.57102
G1 X102.418 Y104.775 E9.57762
G1 X97.582 Y104.775 E9.72906
G1 X97.373 Y104.747 E9.73566
G1 X97.161 Y104.660 E9.74283
G1 X97.039 Y104.566 E9.74766
G1 X96.980 Y104.520 F7800.000
G1 X96.205 Y95.543 F7800.000
G1 F900
G1 X96.205 Y94.705 E9.77241
G1 X97.043 Y94.705 E9.79716
G1 X97.083 Y94.907 E9.80324
G1 X96.944 Y94.964 E9.80768
G1 X96.673 Y95.173 E9.81779
G1 X96.464 Y95.444 E9.82790
G1 X96.407 Y95.583 E9.83234
G1 X96.279 Y95.558 E9.83620
G1 X102.957 Y94.705 F7800.000
G1 F900
G1 X103.795 Y94.705 E9.86096
G1 X103.795 Y95.503 E9.88452
G1 X103.625 Y95.561 E9.88983
G1 X103.327 Y95.173 E9.90427
G1 X103.056 Y94.964 E9.91438
G1 X102.917 Y94.907 E9.91882
G1 X102.942 Y94.779 E9.92268
G1 X103.795 Y104.457 F7800.000
G1 F900
G1 X103.795 Y105.295 E9.94743
G1 X102.957 Y105.295 E9.97219
G1 X102.917 Y105.093 E9.97826
G1 X103.056 Y105.036 E9.98270
G1 X103.327 Y104.827 E9.99282
G1 X103.536 Y104.556 E10.00293
G1 X103.593 Y104.417 E10.00737
G1 X103.721 Y104.442 E10.01123
G1 X97.043 Y105.295 F7800.000
G1 F900
G1 X96.205 Y105.295 E10.03598
G1 X96.205 Y104.457 E10.06073
G1 X96.407 Y104.417 E10.06681
G1 X96.464 Y104.556 E10.07125
G1 X96.673 Y104.827 E10.08136
G1 X96.944 Y105.036 E10.09148
G1 X97.083 Y105.093 E10.09591
G1 X97.058 Y105.221 E10.09977
G1 X95.775 Y105.725 F7800.000
G1 F900
G1 X95.775 Y94.275 E10.45833
G1 X104.225 Y94.275 E10.72293
G1 X104.225 Y105.725 E11.08149
G1 X95.850 Y105.725 E11.34375
G1 X95.880 Y105.236 F7800.000
G1 X96.603 Y105.068 F7800.000
G1 F1200
G1 X96.478 Y105.022 E11.34395
G1 X96.432 Y104.897 E11.34415
G1 X96.540 Y104.171 F7800.000
G1 F1200
G1 X96.251 Y103.963 E11.35459
G1 X96.250 Y96.068 E11.58595
G1 X96.251 Y96.037 E11.58684
G1 X96.540 Y95.829 E11.59728
G1 X96.432 Y95.103 F7800.000
G1 F1200
G1 X96.478 Y94.978 E11.59748
G1 X96.603 Y94.932 E11.59768
G1 X97.329 Y95.040 F7800.000
G1 F1200
G1 X97.537 Y94.751 E11.60813
G1 X97.568 Y94.750 E11.60902
G1 X102.463 Y94.751 E11.75247
G1 X102.671 Y95.040 E11.76291
G1 X103.397 Y94.932 F7800.000
G1 F1200
G1 X103.522 Y94.978 E11.76311
G1 X103.568 Y95.103 E11.76331
G1 X103.730 Y95.752 F7800.000
G1 F1200
G1 X103.750 Y96.068 E11.77263
G1 X103.749 Y103.963 E12.00508
G1 X103.460 Y104.171 E12.01557
G1 X103.568 Y104.897 F7800.000
G1 F1200
G1 X103.522 Y105.022 E12.01577
G1 X103.397 Y105.068 E12.01597
G1 X102.671 Y104.960 F7800.000
G1 F1200
G1 X102.463 Y105.249 E12.02641
G1 X97.568 Y105.250 E12.16985
G1 X97.537 Y105.249 E12.17075
G1 X97.329 Y104.960 E12.18119
G1 Z2.500 F7800.000
G1 X96.980 Y104.520 F7800.000
G1 F900
G1 X96.840 Y104.339 E12.18836
G1 X96.753 Y104.127 E12.19553
G1 X96.725 Y103.918 E12.20214
G1 X96.725 Y96.073 E12.44779
G1 X96.775 Y95.820 E12.45588
G1 X96.840 Y95.661 E12.46125
G1 X96.980 Y95.480 E12.46842
G1 X97.161 Y95.340 E12.47560
G1 X97.373 Y95.253 E12.48277
G1 X97.582 Y95.225 E12.48937
G1 X102.418 Y95.225 E12.64081
G1 X102.627 Y95.253 E12.64741
G1 X102.839 Y95.340 E12.65459
G1 X103.020 Y95.480 E12.66176
G1 X103.160 Y95.661 E12.66893
G1 X103.247 Y95.873 E12.67610
G1 X103.275 Y96.082 E12.68271
G1 X103.275 Y103.918 E12.92809
G1 X103.247 Y104.127 E12.93469
G1 X103.160 Y104.339 E12.94186
G1 X103.020 Y104.520 E12.94904
G1 X102.839 Y104.660 E12.95621
G1 X102.627 Y104.747 E12.96338
G1 X102.418 Y104.775 E12.96998
G1 X97.582 Y104.775 E13.12142
G1 X97.373 Y104.747 E13.12802
G1 X97.161 Y104.660 E13.13520
G1 X97.039 Y104.566 E13.14002
G1 X96.980 Y104.520 F7800.000
G1 X96.205 Y95.543 F7800.000
G1 F900
G1 X96.205 Y94.705 E13.16477
G1 X97.043 Y94.705 E13.18953
G1 X97.083 Y94.907 E13.19560
G1 X96.944 Y94.964 E13.20004
G1 X96.673 Y95.173 E13.21016
G1 X96.464 Y95.444 E13.22027
G1 X96.407 Y95.583 E13.22471
G1 X96.279 Y95.558 E13.22857
G1 X102.957 Y94.705 F7800.000
G1 F900
G1 X103.795 Y94.705 E13.25332
G1 X103.795 Y95.543 E13.27807
G1 X103.593 Y95.583 E13.28415
G1 X103.536 Y95.444 E13.28859
G1 X103.327 Y95.173 E13.29870
G1 X103.056 Y94.964 E13.30882
G1 X102.917 Y94.907 E13.31325
G1 X102.942 Y94.779 E13.31711
G1 X103.795 Y104.457 F7800.000
G1 F900
G1 X103.795 Y105.295 E13.34187
G1 X102.957 Y105.295 E13.36662
G1 X102.917 Y105.093 E13.37270
G1 X103.056 Y105.036 E13.37714
G1 X103.327 Y104.827 E13.38725
G1 X103.536 Y104.556 E13.39736
G1 X103.593 Y104.417 E13.40180
G1 X103.721 Y104.442 E13.40566
G1 X97.043 Y105.295 F7800.000
G1 F900
G1 X96.205 Y105.295 E13.43042
G1 X96.205 Y104.457 E13.45517
G1 X96.407 Y104.417 E13.46125
G1 X96.464 Y104.556 E13.46568
G1 X96.673 Y104.827 E13.47580
G1 X96.944 Y105.036 E13.48591
G1 X97.083 Y105.093 E13.49035
G1 X97.058 Y105.221 E13.49421
G1 X95.775 Y105.725 F7800.000
G1 F900
G1 X95.775 Y94.275 E13.85276
G1 X104.225 Y94.275 E14.11737
G1 X104.225 Y105.725 E14.47592
G1 X95.850 Y105.725 E14.73818
G1 X95.880 Y105.236 F7800.000
G1 X96.603 Y105.068 F7800.000
G1 F1200
G1 X96.478 Y105.022 E14.73838
G1 X96.432 Y104.897 E14.73858
G1 X96.540 Y104.171 F7800.000
G1 F1200
G1 X96.251 Y103.963 E14.74813
G1 X96.250 Y103.932 E14.74895
G1 X96.250 Y96.037 E14.96054
G1 X96.539 Y95.829 E14.97007
G1 X96.432 Y95.103 F7800.000
G1 F1200
G1 X96.478 Y94.978 E14.97027
G1 X96.603 Y94.932 E14.97047
G1 X97.329 Y95.040 F7800.000
G1 F1200
G1 X97.537 Y94.751 E14.98091
G1 X97.568 Y94.750 E14.98181
G1 X102.463 Y94.751 E15.12525
G1 X102.671 Y95.040 E15.13569
G1 X103.397 Y94.932 F7800.000
G1 F1200
G1 X103.522 Y94.978 E15.13589
G1 X103.568 Y95.103 E15.13609
G1 X103.460 Y95.829 F7800.000
G1 F1200
G1 X103.749 Y96.037 E15.14653
G1 X103.750 Y103.932 E15.37789
G1 X103.749 Y103.963 E15.37879
G1 X103.460 Y104.171 E15.38923
G1 X103.568 Y104.897 F7800.000
G1 F1200
G1 X103.522 Y105.022 E15.38943
G1 X103.397 Y105.068 E15.38963
G1 X102.671 Y104.960 F7800.000
G1 F1200
G1 X102.463 Y105.249 E15.40007
G1 X102.432 Y105.250 E15.40096
G1 X97.537 Y105.249 E15.54441
G1 X97.329 Y104.960 E15.55485
G1 Z3.000 F7800.000
G1 X96.980 Y104.520 F7800.000
G1 F900
G1 X96.840 Y104.339 E15.56202
G1 X96.753 Y104.127 E15.56919
G1 X96.725 Y103.918 E15.57579
G1 X96.725 Y96.082 E15.82118
G1 X96.753 Y95.873 E15.82778
G1 X96.840 Y95.661 E15.83495
G1 X96.980 Y95.480 E15.84212
G1 X97.161 Y95.340 E15.84930
G1 X97.373 Y95.253 E15.85647
G1 X97.582 Y95.225 E15.86307
G1 X102.418 Y95.225 E16.01451
G1 X102.627 Y95.253 E16.02111
G1 X102.839 Y95.340 E16.02829
G1 X103.020 Y95.480 E16.03546
G1 X103.160 Y95.661 E16.04263
G1 X103.247 Y95.873 E16.04980
G1 X103.275 Y96.082 E16.05641
G1 X103.275 Y103.918 E16.30179
G1 X103.247 Y104.127 E16.30839
G1 X103.160 Y104.339 E16.31556
G1 X103.020 Y104.520 E16.32274
G1 X102.839 Y104.660 E16.32991
G1 X102.627 Y104.747 E16.33708
G1 X102.418 Y104.775 E16.34368
G1 X97.582 Y104.775 E16.49512
G1 X97.373 Y104.747 E16.50173
G1 X97.161 Y104.660 E16.50890
G1 X97.039 Y104.566 E16.51372
G1 X96.980 Y104.520 F7800.000
G1 E14.51372 F2400.00000
G92 E0
G1 X96.205 Y95.543 F7800.000
G1 E2.00000 F2400.00000
G1 F900
G1 X96.205 Y94.705 E2.02475
G1 X97.043 Y94.705 E2.04951
G1 X97.083 Y94.907 E2.05558
G1 X96.944 Y94.964 E2.06002
G1 X96.673 Y95.173 E2.07013
G1 X96.464 Y95.444 E2.08025
G1 X96.407 Y95.583 E2.08469
G1 X96.279 Y95.558 E2.08855
G1 E0.08855 F2400.00000
G92 E0
G1 X102.957 Y94.705 F7800.000
G1 E2.00000 F2400.00000
G1 F900
G1 X103.795 Y94.705 E2.02475
G1 X103.795 Y95.543 E2.04951
G1 X103.593 Y95.583 E2.05558
G1 X103.536 Y95.444 E2.06002
G1 X103.327 Y95.173 E2.07014
G1 X103.056 Y94.964 E2.08025
G1 X102.917 Y94.907 E2.08469
G1 X102.942 Y94.779 E2.08855
G1 E0.08855 F2400.00000
G92 E0
G1 X103.795 Y104.457 F7800.000
G1 E2.00000 F2400.00000
G1 F900
G1 X103.795 Y105.295 E2.02475
G1 X102.957 Y105.295 E2.04951
G1 X102.917 Y105.093 E2.05558
G1 X103.056 Y105.036 E2.06002
G1 X103.327 Y104.827 E2.07014
G1 X103.536 Y104.556 E2.08025
G1 X103.593 Y104.417 E2.08469
G1 X103.721 Y104.442 E2.08855
G1 E0.08855 F2400.00000
G92 E0
G1 X97.043 Y105.295 F7800.000
G1 E2.00000 F2400.00000
G1 F900
G1 X96.205 Y105.295 E2.02475
G1 X96.205 Y104.457 E2.04951
G1 X96.407 Y104.417 E2.05558
G1 X96.464 Y104.556 E2.06002
G1 X96.673 Y104.827 E2.07013
G1 X96.944 Y105.036 E2.08025
G1 X97.083 Y105.093 E2.08469
G1 X97.058 Y105.221 E2.08855
G1 X95.775 Y105.725 F7800.000
G1 F900
G1 X95.775 Y94.275 E2.44710
G1 X104.225 Y94.275 E2.71171
G1 X104.225 Y105.725 E3.07026
G1 X95.850 Y105.725 E3.33252
G1 X95.880 Y105.236 F7800.000
G1 X96.603 Y105.068 F7800.000
G1 F1200
G1 X96.478 Y105.022 E3.33272
G1 X96.432 Y104.897 E3.33292
G1 X96.540 Y104.171 F7800.000
G1 F1200
G1 X96.251 Y103.963 E3.34336
G1 X96.250 Y96.068 E3.57472
G1 X96.251 Y96.037 E3.57562
G1 X96.540 Y95.829 E3.58606
G1 X96.432 Y95.103 F7800.000
G1 F1200
G1 X96.478 Y94.978 E3.58626
G1 X96.603 Y94.932 E3.58646
G1 X97.329 Y95.040 F7800.000
G1 F1200
G1 X97.537 Y94.751 E3.59690
G1 X97.568 Y94.750 E3.59779
G1 X102.463 Y94.751 E3.74124
G1 X102.671 Y95.040 E3.75168
G1 X103.397 Y94.932 F7800.000
G1 F1200
G1 X103.522 Y94.978 E3.75188
G1 X103.568 Y95.103 E3.75208
G1 X103.460 Y95.829 F7800.000
G1 F1200
G1 X103.749 Y96.037 E3.76252
G1 X103.750 Y103.932 E3.99388
G1 X103.749 Y103.963 E3.99478
G1 X103.460 Y104.171 E4.00522
G1 X103.568 Y104.897 F7800.000
G1 F1200
G1 X103.522 Y105.022 E4.00542
G1 X103.397 Y105.068 E4.00562
G1 X102.671 Y104.960 F7800.000
G1 F1200
G1 X102.463 Y105.249 E4.01606
G1 X102.432 Y105.250 E4.01695
G1 X97.537 Y105.249 E4.16040
G1 X97.329 Y104.960 E4.17084
G1 E2.17084 F2400.00000
G92 E0
M107
; Filament-specific end gcode 
;END gcode for filament

M104 S0 ; turn off temperature
G28 X0  ; home X axis
M84     ; disable motors

M140 S0 ; set bed temperature
; filament used = 24.9mm (0.2cm3)
; total filament cost = 0.0

; avoid_crossing_perimeters = 0
; bed_shape = 0x0,200x0,200x200,0x200
; bed_temperature = 0
; before_layer_gcode = 
; between_objects_gcode = 
; bridge_acceleration = 0
; bridge_fan_speed = 100
; brim_connections_width = 0
; brim_width = 0
; complete_objects = 0
; cooling = 1
; default_acceleration = 0
; disable_fan_first_layers = 3
; duplicate_distance = 6
; end_filament_gcode = "; Filament-specific end gcode \n;END gcode for filament\n"
; end_gcode = M104 S0 ; turn off temperature\nG28 X0  ; home X axis\nM84     ; disable motors\n
; extruder_clearance_height = 20
; extruder_clearance_radius = 20
; extruder_offset = 0x0
; extrusion_axis = E
; extrusion_multiplier = 1
; fan_always_on = 0
; fan_below_layer_time = 60
; filament_colour = #FFFFFF
; filament_cost = 0
; filament_density = 0
; filament_diameter = 3
; filament_max_volumetric_speed = 0
; filament_notes = ""
; first_layer_acceleration = 0
; first_layer_bed_temperature = 0
; first_layer_extrusion_width = 200%
; first_layer_speed = 30
; first_layer_temperature = 205
; gcode_arcs = 0
; gcode_comments = 0
; gcode_flavor = reprap
; has_heatbed = 1
; infill_acceleration = 0
; infill_first = 0
; interior_brim_width = 0
; layer_gcode = 
; max_fan_speed = 100
; max_layer_height = 0.3
; max_print_speed = 80
; max_volumetric_speed = 0
; min_fan_speed = 35
; min_layer_height = 0.15
; min_print_speed = 10
; min_skirt_length = 0
; notes = 
; nozzle_diameter = 0.5
; only_retract_when_crossing_perimeters = 1
; ooze_prevention = 0
; output_filename_format = [input_filename_base].gcode
; perimeter_acceleration = 0
; post_process = 
; pressure_advance = 0
; printer_notes = 
; resolution = 0
; retract_before_travel = 2
; retract_layer_change = 0
; retract_length = 2
; retract_length_toolchange = 10
; retract_lift = 0
; retract_lift_above = 0
; retract_lift_below = 0
; retract_restart_extra = 0
; retract_restart_extra_toolchange = 0
; retract_speed = 40
; skirt_distance = 6
; skirt_height = 1
; skirts = 0
; slowdown_below_layer_time = 5
; spiral_vase = 0
; standby_temperature_delta = -5
; start_filament_gcode = "; Filament gcode\n"
; start_gcode = G28 ; home all axes\nG1 Z5 F5000 ; lift nozzle\n
; temperature = 200
; threads = 8
; toolchange_gcode = 
; travel_speed = 130
; use_firmware_retraction = 0
; use_relative_e_distances = 0
; use_set_and_wait_bed = 0
; use_set_and_wait_extruder = 0
; use_volumetric_e = 0
; vibration_limit = 0
; wipe = 0
; z_offset = 0
; z_steps_per_mm = 0
; adaptive_slicing = 0
; adaptive_slicing_quality = 75%
; dont_support_bridges = 1
; extrusion_width = 0
; first_layer_height = 0.5
; infill_only_where_needed = 0
; interface_shells = 0
; layer_height = 0.5
; match_horizontal_surfaces = 0
; raft_layers = 0
; regions_overlap = 0
; seam_position = aligned
; sequential_print_priority = 0
; support_material = 0
; support_material_angle = 0
; support_material_buildplate_only = 0
; support_material_contact_distance = 0.2
; support_material_enforce_layers = 0
; support_material_extruder = 1
; support_material_extrusion_width = 0
; support_material_interface_extruder = 1
; support_material_interface_extrusion_width = 0
; support_material_interface_layers = 3
; support_material_interface_spacing = 0
; support_material_interface_speed = 100%
; support_material_max_layers = 0
; support_material_pattern = pillars
; support_material_spacing = 2.5
; support_material_speed = 60
; support_material_threshold = 60%
; xy_size_compensation = 0
; bottom_infill_pattern = rectilinear
; bottom_solid_layers = 3
; bridge_flow_ratio = 1
; bridge_speed = 60
; external_perimeter_extrusion_width = 0
; external_perimeter_speed = 50%
; external_perimeters_first = 0
; extra_perimeters = 1
; fill_angle = 45
; fill_density = 20%
; fill_gaps = 1
; fill_pattern = stars
; gap_fill_speed = 20
; infill_every_layers = 1
; infill_extruder = 1
; infill_extrusion_width = 0
; infill_overlap = 55%
; infill_speed = 80
; overhangs = 1
; perimeter_extruder = 1
; perimeter_extrusion_width = 0
; perimeter_speed = 60
; perimeters = 3
; small_perimeter_speed = 15
; solid_infill_below_area = 70
; solid_infill_every_layers = 0
; solid_infill_extruder = 1
; solid_infill_extrusion_width = 0
; solid_infill_speed = 20
; thin_walls = 1
; top_infill_extrusion_width = 0
; top_infill_pattern = rectilinear
; top_solid_infill_speed = 15
; top_solid_layers = 3
