; generated by Slic3r 1.3.0 on 2020-12-01 at 13:59:03

; external perimeters extrusion width = 0.55mm (6.64mm^3/s)
; perimeters extrusion width = 0.52mm (12.53mm^3/s)
; infill extrusion width = 0.52mm (16.71mm^3/s)
; solid infill extrusion width = 0.52mm (4.18mm^3/s)
; top infill extrusion width = 0.52mm (3.13mm^3/s)

M107
M104 S205 ; set temperature
G28 ; home all axes
G1 Z5 F5000 ; lift nozzle

; Filament gcode

M109 S205 ; set temperature and wait for it to be reached
G21 ; set units to millimeters
G90 ; use absolute coordinates
M82 ; use absolute distances for extrusion
G92 E0
G1 Z0.500 F7800.000
G1 E-2.00000 F2400.00000
G92 E0
G1 X105.152 Y93.212 F7800.000
G1 E2.00000 F2400.00000
G1 F1800
G1 X94.848 Y93.212 E2.65059
G1 X94.848 Y93.735 E2.68356
G1 X105.152 Y93.735 E3.33415
G1 X105.152 Y94.257 E3.36712
G1 X94.848 Y94.257 E4.01771
G1 X94.848 Y94.779 E4.05068
G1 X105.152 Y94.779 E4.70127
G1 X105.152 Y95.301 E4.73424
G1 X94.848 Y95.301 E5.38483
G1 X94.848 Y95.823 E5.41780
G1 X105.152 Y95.823 E6.06840
G1 X105.152 Y96.345 E6.10136
G1 X94.848 Y96.345 E6.75196
G1 X94.848 Y96.867 E6.78493
G1 X105.152 Y96.867 E7.43552
G1 X105.152 Y97.389 E7.46849
G1 X94.848 Y97.389 E8.11908
G1 X94.848 Y97.912 E8.15205
G1 X105.152 Y97.912 E8.80264
G1 X105.152 Y98.434 E8.83561
G1 X94.848 Y98.434 E9.48620
G1 X94.848 Y98.956 E9.51917
G1 X105.152 Y98.956 E10.16976
G1 X105.152 Y99.478 E10.20273
G1 X94.848 Y99.478 E10.85332
G1 X94.848 Y100.000 E10.88629
G1 X105.152 Y100.000 E11.53688
G1 X105.152 Y100.522 E11.56985
G1 X94.848 Y100.522 E12.22044
G1 X94.848 Y101.044 E12.25341
G1 X105.152 Y101.044 E12.90400
G1 X105.152 Y101.566 E12.93697
G1 X94.848 Y101.566 E13.58756
G1 X94.848 Y102.088 E13.62053
G1 X105.152 Y102.088 E14.27112
G1 X105.152 Y102.611 E14.30409
G1 X94.848 Y102.611 E14.95469
G1 X94.848 Y103.133 E14.98766
G1 X105.152 Y103.133 E15.63825
G1 X105.152 Y103.655 E15.67122
G1 X94.848 Y103.655 E16.32181
G1 X94.848 Y104.177 E16.35478
G1 X105.152 Y104.177 E17.00537
G1 X105.152 Y104.699 E17.03834
G1 X94.848 Y104.699 E17.68893
G1 X94.848 Y105.221 E17.72190
G1 X105.152 Y105.221 E18.37249
G1 X105.152 Y105.743 E18.40546
G1 X94.848 Y105.743 E19.05605
G1 X94.848 Y106.265 E19.08902
G1 X105.152 Y106.265 E19.73961
G1 X105.152 Y106.788 E19.77258
G1 X94.848 Y106.788 E20.42317
M104 S200 ; set temperature
G1 Z1.000 F7800.000
G1 E18.42317 F2400.00000
G92 E0
G1 X104.699 Y107.521 F7800.000
G1 E2.00000 F2400.00000
G1 F3542.31
G1 X104.699 Y92.479 E2.44443
G1 X104.177 Y92.479 E2.45985
G1 X104.177 Y107.521 E2.90428
G1 X103.655 Y107.521 E2.91971
G1 X103.655 Y92.479 E3.36414
G1 X103.133 Y92.479 E3.37956
G1 X103.133 Y107.521 E3.82399
G1 X102.611 Y107.521 E3.83942
G1 X102.611 Y92.479 E4.28384
G1 X102.088 Y92.479 E4.29927
G1 X102.088 Y107.521 E4.74370
G1 X101.566 Y107.521 E4.75912
G1 X101.566 Y92.479 E5.20355
G1 X101.044 Y92.479 E5.21898
G1 X101.044 Y107.521 E5.66340
G1 X100.522 Y107.521 E5.67883
G1 X100.522 Y92.479 E6.12326
G1 X100.000 Y92.479 E6.13869
G1 X100.000 Y107.521 E6.58311
G1 X99.478 Y107.521 E6.59854
G1 X99.478 Y92.479 E7.04297
G1 X98.956 Y92.479 E7.05839
G1 X98.956 Y107.521 E7.50282
G1 X98.434 Y107.521 E7.51825
G1 X98.434 Y92.479 E7.96267
G1 X97.912 Y92.479 E7.97810
G1 X97.912 Y107.521 E8.42253
G1 X97.389 Y107.521 E8.43796
G1 X97.389 Y92.479 E8.88238
G1 X96.867 Y92.479 E8.89781
G1 X96.867 Y107.521 E9.34224
G1 X96.345 Y107.521 E9.35766
G1 X96.345 Y92.479 E9.80209
G1 X95.823 Y92.479 E9.81752
G1 X95.823 Y107.521 E10.26194
G1 X95.301 Y107.521 E10.27737
G1 X95.301 Y92.479 E10.72180
G1 Z1.500 F7800.000
G1 E8.72180 F2400.00000
G92 E0
G1 X105.021 Y93.212 F7800.000
G1 E2.00000 F2400.00000
G1 F3416.44
G1 X94.979 Y93.212 E2.29670
G1 X94.979 Y93.735 E2.31212
G1 X105.021 Y93.735 E2.60882
G1 X105.021 Y94.257 E2.62425
G1 X94.979 Y94.257 E2.92094
G1 X94.979 Y94.779 E2.93637
G1 X105.021 Y94.779 E3.23307
G1 X105.021 Y95.301 E3.24849
G1 X94.979 Y95.301 E3.54519
G1 X94.979 Y95.823 E3.56062
G1 X105.021 Y95.823 E3.85731
G1 X105.021 Y96.345 E3.87274
G1 X94.979 Y96.345 E4.16944
G1 X94.979 Y96.867 E4.18486
G1 X105.021 Y96.867 E4.48156
G1 X105.021 Y97.389 E4.49698
G1 X94.979 Y97.389 E4.79368
G1 X94.979 Y97.912 E4.80911
G1 X105.021 Y97.912 E5.10580
G1 X105.021 Y98.434 E5.12123
G1 X94.979 Y98.434 E5.41793
G1 X94.979 Y98.956 E5.43335
G1 X105.021 Y98.956 E5.73005
G1 X105.021 Y99.478 E5.74548
G1 X94.979 Y99.478 E6.04217
G1 X94.979 Y100.000 E6.05760
G1 X105.021 Y100.000 E6.35430
G1 X105.021 Y100.522 E6.36972
G1 X94.979 Y100.522 E6.66642
G1 X94.979 Y101.044 E6.68185
G1 X105.021 Y101.044 E6.97854
G1 X105.021 Y101.566 E6.99397
G1 X94.979 Y101.566 E7.29067
G1 X94.979 Y102.088 E7.30609
G1 X105.021 Y102.088 E7.60279
G1 X105.021 Y102.611 E7.61822
G1 X94.979 Y102.611 E7.91491
G1 X94.979 Y103.133 E7.93034
G1 X105.021 Y103.133 E8.22704
G1 X105.021 Y103.655 E8.24246
G1 X94.979 Y103.655 E8.53916
G1 X94.979 Y104.177 E8.55459
G1 X105.021 Y104.177 E8.85128
G1 X105.021 Y104.699 E8.86671
G1 X94.979 Y104.699 E9.16340
G1 X94.979 Y105.221 E9.17883
G1 X105.021 Y105.221 E9.47553
G1 X105.021 Y105.743 E9.49095
G1 X94.979 Y105.743 E9.78765
G1 X94.979 Y106.265 E9.80308
G1 X105.021 Y106.265 E10.09977
G1 X105.021 Y106.788 E10.11520
G1 X94.979 Y106.788 E10.41190
M106 S255
G1 Z2.000 F7800.000
G1 E8.41190 F2400.00000
G92 E0
G1 X104.699 Y107.521 F7800.000
G1 E2.00000 F2400.00000
G1 F3542.31
G1 X104.699 Y92.479 E2.44443
G1 X104.177 Y92.479 E2.45985
G1 X104.177 Y107.521 E2.90428
G1 X103.655 Y107.521 E2.91971
G1 X103.655 Y92.479 E3.36414
G1 X103.133 Y92.479 E3.37956
G1 X103.133 Y107.521 E3.82399
G1 X102.611 Y107.521 E3.83942
G1 X102.611 Y92.479 E4.28384
G1 X102.088 Y92.479 E4.29927
G1 X102.088 Y107.521 E4.74370
G1 X101.566 Y107.521 E4.75912
G1 X101.566 Y92.479 E5.20355
G1 X101.044 Y92.479 E5.21898
G1 X101.044 Y107.521 E5.66340
G1 X100.522 Y107.521 E5.67883
G1 X100.522 Y92.479 E6.12326
G1 X100.000 Y92.479 E6.13869
G1 X100.000 Y107.521 E6.58311
G1 X99.478 Y107.521 E6.59854
G1 X99.478 Y92.479 E7.04297
G1 X98.956 Y92.479 E7.05839
G1 X98.956 Y107.521 E7.50282
G1 X98.434 Y107.521 E7.51825
G1 X98.434 Y92.479 E7.96267
G1 X97.912 Y92.479 E7.97810
G1 X97.912 Y107.521 E8.42253
G1 X97.389 Y107.521 E8.43796
G1 X97.389 Y92.479 E8.88238
G1 X96.867 Y92.479 E8.89781
G1 X96.867 Y107.521 E9.34224
G1 X96.345 Y107.521 E9.35766
G1 X96.345 Y92.479 E9.80209
G1 X95.823 Y92.479 E9.81752
G1 X95.823 Y107.521 E10.26194
G1 X95.301 Y107.521 E10.27737
G1 X95.301 Y92.479 E10.72180
G1 E8.72180 F2400.00000
G92 E0
M107
; Filament-specific end gcode 
;END gcode for filament

M104 S0 ; turn off temperature
G28 X0  ; home X axis
M84     ; disable motors

M140 S0 ; set bed temperature
; filament used = 44.3mm (0.3cm3)
; total filament cost = 0.0

; avoid_crossing_perimeters = 0
; bed_shape = 0x0,200x0,200x200,0x200
; bed_temperature = 0
; before_layer_gcode = 
; between_objects_gcode = 
; bridge_acceleration = 0
; bridge_fan_speed = 100
; brim_connections_width = 0
; brim_width = 0
; complete_objects = 0
; cooling = 1
; default_acceleration = 0
; disable_fan_first_layers = 3
; duplicate_distance = 6
; end_filament_gcode = "; Filament-specific end gcode \n;END gcode for filament\n"
; end_gcode = M104 S0 ; turn off temperature\nG28 X0  ; home X axis\nM84     ; disable motors\n
; extruder_clearance_height = 20
; extruder_clearance_radius = 20
; extruder_offset = 0x0
; extrusion_axis = E
; extrusion_multiplier = 1
; fan_always_on = 0
; fan_below_layer_time = 60
; filament_colour = #FFFFFF
; filament_cost = 0
; filament_density = 0
; filament_diameter = 3
; filament_max_volumetric_speed = 0
; filament_notes = ""
; first_layer_acceleration = 0
; first_layer_bed_temperature = 0
; first_layer_extrusion_width = 200%
; first_layer_speed = 30
; first_layer_temperature = 205
; gcode_arcs = 0
; gcode_comments = 0
; gcode_flavor = reprap
; has_heatbed = 1
; infill_acceleration = 0
; infill_first = 0
; interior_brim_width = 0
; layer_gcode = 
; max_fan_speed = 100
; max_layer_height = 0.3
; max_print_speed = 80
; max_volumetric_speed = 0
; min_fan_speed = 35
; min_layer_height = 0.15
; min_print_speed = 10
; min_skirt_length = 0
; notes = 
; nozzle_diameter = 0.5
; only_retract_when_crossing_perimeters = 1
; ooze_prevention = 0
; output_filename_format = [input_filename_base].gcode
; perimeter_acceleration = 0
; post_process = 
; pressure_advance = 0
; printer_notes = 
; resolution = 0
; retract_before_travel = 2
; retract_layer_change = 0
; retract_length = 2
; retract_length_toolchange = 10
; retract_lift = 0
; retract_lift_above = 0
; retract_lift_below = 0
; retract_restart_extra = 0
; retract_restart_extra_toolchange = 0
; retract_speed = 40
; skirt_distance = 6
; skirt_height = 1
; skirts = 0
; slowdown_below_layer_time = 5
; spiral_vase = 0
; standby_temperature_delta = -5
; start_filament_gcode = "; Filament gcode\n"
; start_gcode = G28 ; home all axes\nG1 Z5 F5000 ; lift nozzle\n
; temperature = 200
; threads = 8
; toolchange_gcode = 
; travel_speed = 130
; use_firmware_retraction = 0
; use_relative_e_distances = 0
; use_set_and_wait_bed = 0
; use_set_and_wait_extruder = 0
; use_volumetric_e = 0
; vibration_limit = 0
; wipe = 0
; z_offset = 0
; z_steps_per_mm = 0
; adaptive_slicing = 0
; adaptive_slicing_quality = 75%
; dont_support_bridges = 1
; extrusion_width = 0
; first_layer_height = 0.5
; infill_only_where_needed = 0
; interface_shells = 0
; layer_height = 0.5
; match_horizontal_surfaces = 0
; raft_layers = 0
; regions_overlap = 0
; seam_position = aligned
; sequential_print_priority = 0
; support_material = 0
; support_material_angle = 0
; support_material_buildplate_only = 0
; support_material_contact_distance = 0.2
; support_material_enforce_layers = 0
; support_material_extruder = 1
; support_material_extrusion_width = 0
; support_material_interface_extruder = 1
; support_material_interface_extrusion_width = 0
; support_material_interface_layers = 3
; support_material_interface_spacing = 0
; support_material_interface_speed = 100%
; support_material_max_layers = 0
; support_material_pattern = pillars
; support_material_spacing = 2.5
; support_material_speed = 60
; support_material_threshold = 60%
; xy_size_compensation = 0
; bottom_infill_pattern = rectilinear
; bottom_solid_layers = 0
; bridge_flow_ratio = 1
; bridge_speed = 60
; external_perimeter_extrusion_width = 0
; external_perimeter_speed = 50%
; external_perimeters_first = 0
; extra_perimeters = 1
; fill_angle = 90
; fill_density = 80%
; fill_gaps = 1
; fill_pattern = rectilinear
; gap_fill_speed = 20
; infill_every_layers = 1
; infill_extruder = 1
; infill_extrusion_width = 0
; infill_overlap = 55%
; infill_speed = 80
; overhangs = 1
; perimeter_extruder = 1
; perimeter_extrusion_width = 0
; perimeter_speed = 60
; perimeters = 0
; small_perimeter_speed = 15
; solid_infill_below_area = 70
; solid_infill_every_layers = 0
; solid_infill_extruder = 1
; solid_infill_extrusion_width = 0
; solid_infill_speed = 20
; thin_walls = 1
; top_infill_extrusion_width = 0
; top_infill_pattern = rectilinear
; top_solid_infill_speed = 15
; top_solid_layers = 0
