; generated by Slic3r 1.3.0 on 2020-12-01 at 16:14:45

; external perimeters extrusion width = 0.55mm (6.64mm^3/s)
; perimeters extrusion width = 0.52mm (12.53mm^3/s)
; infill extrusion width = 0.52mm (16.71mm^3/s)
; solid infill extrusion width = 0.52mm (4.18mm^3/s)
; top infill extrusion width = 0.52mm (3.13mm^3/s)

M107
M104 S205 ; set temperature
G28 ; home all axes
G1 Z5 F5000 ; lift nozzle

; Filament gcode

M109 S205 ; set temperature and wait for it to be reached
G21 ; set units to millimeters
G90 ; use absolute coordinates
M82 ; use absolute distances for extrusion
G92 E0
G1 Z0.500 F7800.000
G1 E-2.00000 F2400.00000
G92 E0
G1 X95.359 Y92.348 F7800.000
G1 E2.00000 F2400.00000
G1 F1800
G1 X95.359 Y107.652 E2.96632
G1 X95.823 Y107.652 E2.99563
G1 X95.823 Y92.348 E3.96194
G1 X96.287 Y92.348 E3.99125
G1 X96.287 Y107.652 E4.95757
G1 X96.751 Y107.652 E4.98688
G1 X96.751 Y92.348 E5.95319
G1 X97.215 Y92.348 E5.98250
G1 X97.215 Y107.652 E6.94882
G1 X97.679 Y107.652 E6.97813
G1 X97.679 Y92.348 E7.94445
G1 X98.144 Y92.348 E7.97375
G1 X98.144 Y107.652 E8.94007
G1 X98.608 Y107.652 E8.96938
G1 X98.608 Y92.348 E9.93570
G1 X99.072 Y92.348 E9.96500
G1 X99.072 Y107.652 E10.93132
G1 X99.536 Y107.652 E10.96063
G1 X99.536 Y92.348 E11.92695
G1 X100.000 Y92.348 E11.95625
G1 X100.000 Y107.652 E12.92257
G1 X100.464 Y107.652 E12.95188
G1 X100.464 Y92.348 E13.91820
G1 X100.928 Y92.348 E13.94750
G1 X100.928 Y107.652 E14.91382
G1 X101.392 Y107.652 E14.94313
G1 X101.392 Y92.348 E15.90945
G1 X101.856 Y92.348 E15.93875
G1 X101.856 Y107.652 E16.90507
G1 X102.321 Y107.652 E16.93438
G1 X102.321 Y92.348 E17.90070
G1 X102.785 Y92.348 E17.93000
G1 X102.785 Y107.652 E18.89632
G1 X103.249 Y107.652 E18.92563
G1 X103.249 Y92.348 E19.89195
G1 X103.713 Y92.348 E19.92125
G1 X103.713 Y107.652 E20.88757
G1 X104.177 Y107.652 E20.91688
G1 X104.177 Y92.348 E21.88320
G1 X104.641 Y92.348 E21.91250
G1 X104.641 Y107.652 E22.87882
M104 S200 ; set temperature
G1 Z1.000 F7800.000
G1 X104.641 Y107.521 F7800.000
G1 F3901.92
G1 X104.641 Y92.479 E23.32325
G1 X104.177 Y92.479 E23.33696
G1 X104.177 Y107.521 E23.78139
G1 X103.713 Y107.521 E23.79510
G1 X103.713 Y92.479 E24.23953
G1 X103.249 Y92.479 E24.25324
G1 X103.249 Y107.521 E24.69767
G1 X102.785 Y107.521 E24.71138
G1 X102.785 Y92.479 E25.15581
G1 X102.321 Y92.479 E25.16952
G1 X102.321 Y107.521 E25.61395
G1 X101.856 Y107.521 E25.62766
G1 X101.856 Y92.479 E26.07209
G1 X101.392 Y92.479 E26.08580
G1 X101.392 Y107.521 E26.53023
G1 X100.928 Y107.521 E26.54394
G1 X100.928 Y92.479 E26.98837
G1 X100.464 Y92.479 E27.00208
G1 X100.464 Y107.521 E27.44651
G1 X100.000 Y107.521 E27.46022
G1 X100.000 Y92.479 E27.90465
G1 X99.536 Y92.479 E27.91836
G1 X99.536 Y107.521 E28.36279
G1 X99.072 Y107.521 E28.37650
G1 X99.072 Y92.479 E28.82093
G1 X98.608 Y92.479 E28.83464
G1 X98.608 Y107.521 E29.27907
G1 X98.144 Y107.521 E29.29278
G1 X98.144 Y92.479 E29.73721
G1 X97.679 Y92.479 E29.75092
G1 X97.679 Y107.521 E30.19535
G1 X97.215 Y107.521 E30.20906
G1 X97.215 Y92.479 E30.65349
G1 X96.751 Y92.479 E30.66720
G1 X96.751 Y107.521 E31.11163
G1 X96.287 Y107.521 E31.12534
G1 X96.287 Y92.479 E31.56977
G1 X95.823 Y92.479 E31.58348
G1 X95.823 Y107.521 E32.02791
G1 X95.359 Y107.521 E32.04162
G1 X95.359 Y92.479 E32.48605
G1 Z1.500 F7800.000
G1 F3901.92
G1 X95.359 Y107.521 E32.93048
G1 X95.823 Y107.521 E32.94419
G1 X95.823 Y92.479 E33.38862
G1 X96.287 Y92.479 E33.40233
G1 X96.287 Y107.521 E33.84676
G1 X96.751 Y107.521 E33.86047
G1 X96.751 Y92.479 E34.30490
G1 X97.215 Y92.479 E34.31861
G1 X97.215 Y107.521 E34.76303
G1 X97.679 Y107.521 E34.77675
G1 X97.679 Y92.479 E35.22117
G1 X98.144 Y92.479 E35.23489
G1 X98.144 Y107.521 E35.67931
G1 X98.608 Y107.521 E35.69303
G1 X98.608 Y92.479 E36.13745
G1 X99.072 Y92.479 E36.15117
G1 X99.072 Y107.521 E36.59559
G1 X99.536 Y107.521 E36.60931
G1 X99.536 Y92.479 E37.05373
G1 X100.000 Y92.479 E37.06745
G1 X100.000 Y107.521 E37.51187
G1 X100.464 Y107.521 E37.52559
G1 X100.464 Y92.479 E37.97001
G1 X100.928 Y92.479 E37.98373
G1 X100.928 Y107.521 E38.42815
G1 X101.392 Y107.521 E38.44187
G1 X101.392 Y92.479 E38.88629
G1 X101.856 Y92.479 E38.90001
G1 X101.856 Y107.521 E39.34443
G1 X102.321 Y107.521 E39.35815
G1 X102.321 Y92.479 E39.80257
G1 X102.785 Y92.479 E39.81629
G1 X102.785 Y107.521 E40.26071
G1 X103.249 Y107.521 E40.27443
G1 X103.249 Y92.479 E40.71885
G1 X103.713 Y92.479 E40.73257
G1 X103.713 Y107.521 E41.17699
G1 X104.177 Y107.521 E41.19071
G1 X104.177 Y92.479 E41.63513
G1 X104.641 Y92.479 E41.64885
G1 X104.641 Y107.521 E42.09327
M106 S255
G1 Z2.000 F7800.000
G1 F3901.92
G1 X104.641 Y92.479 E42.53770
G1 X104.177 Y92.479 E42.55141
G1 X104.177 Y107.521 E42.99584
G1 X103.713 Y107.521 E43.00955
G1 X103.713 Y92.479 E43.45398
G1 X103.249 Y92.479 E43.46769
G1 X103.249 Y107.521 E43.91212
G1 X102.785 Y107.521 E43.92583
G1 X102.785 Y92.479 E44.37026
G1 X102.321 Y92.479 E44.38397
G1 X102.321 Y107.521 E44.82840
G1 X101.856 Y107.521 E44.84211
G1 X101.856 Y92.479 E45.28654
G1 X101.392 Y92.479 E45.30025
G1 X101.392 Y107.521 E45.74468
G1 X100.928 Y107.521 E45.75839
G1 X100.928 Y92.479 E46.20282
G1 X100.464 Y92.479 E46.21653
G1 X100.464 Y107.521 E46.66096
G1 X100.000 Y107.521 E46.67467
G1 X100.000 Y92.479 E47.11910
G1 X99.536 Y92.479 E47.13281
G1 X99.536 Y107.521 E47.57724
G1 X99.072 Y107.521 E47.59095
G1 X99.072 Y92.479 E48.03538
G1 X98.608 Y92.479 E48.04909
G1 X98.608 Y107.521 E48.49352
G1 X98.144 Y107.521 E48.50723
G1 X98.144 Y92.479 E48.95166
G1 X97.679 Y92.479 E48.96537
G1 X97.679 Y107.521 E49.40980
G1 X97.215 Y107.521 E49.42351
G1 X97.215 Y92.479 E49.86794
G1 X96.751 Y92.479 E49.88165
G1 X96.751 Y107.521 E50.32608
G1 X96.287 Y107.521 E50.33979
G1 X96.287 Y92.479 E50.78422
G1 X95.823 Y92.479 E50.79793
G1 X95.823 Y107.521 E51.24236
G1 X95.359 Y107.521 E51.25607
G1 X95.359 Y92.479 E51.70050
G1 Z2.500 F7800.000
G1 F3901.92
G1 X95.359 Y107.521 E52.14492
G1 X95.823 Y107.521 E52.15864
G1 X95.823 Y92.479 E52.60306
G1 X96.287 Y92.479 E52.61678
G1 X96.287 Y107.521 E53.06120
G1 X96.751 Y107.521 E53.07492
G1 X96.751 Y92.479 E53.51934
G1 X97.215 Y92.479 E53.53306
G1 X97.215 Y107.521 E53.97748
G1 X97.679 Y107.521 E53.99120
G1 X97.679 Y92.479 E54.43562
G1 X98.144 Y92.479 E54.44934
G1 X98.144 Y107.521 E54.89376
G1 X98.608 Y107.521 E54.90748
G1 X98.608 Y92.479 E55.35190
G1 X99.072 Y92.479 E55.36562
G1 X99.072 Y107.521 E55.81004
G1 X99.536 Y107.521 E55.82376
G1 X99.536 Y92.479 E56.26818
G1 X100.000 Y92.479 E56.28190
G1 X100.000 Y107.521 E56.72632
G1 X100.464 Y107.521 E56.74004
G1 X100.464 Y92.479 E57.18446
G1 X100.928 Y92.479 E57.19818
G1 X100.928 Y107.521 E57.64260
G1 X101.392 Y107.521 E57.65632
G1 X101.392 Y92.479 E58.10074
G1 X101.856 Y92.479 E58.11446
G1 X101.856 Y107.521 E58.55888
G1 X102.321 Y107.521 E58.57260
G1 X102.321 Y92.479 E59.01702
G1 X102.785 Y92.479 E59.03074
G1 X102.785 Y107.521 E59.47516
G1 X103.249 Y107.521 E59.48888
G1 X103.249 Y92.479 E59.93330
G1 X103.713 Y92.479 E59.94702
G1 X103.713 Y107.521 E60.39144
G1 X104.177 Y107.521 E60.40516
G1 X104.177 Y92.479 E60.84958
G1 X104.641 Y92.479 E60.86329
G1 X104.641 Y107.521 E61.30772
G1 Z3.000 F7800.000
G1 F3901.92
G1 X104.641 Y92.479 E61.75215
G1 X104.177 Y92.479 E61.76586
G1 X104.177 Y107.521 E62.21029
G1 X103.713 Y107.521 E62.22400
G1 X103.713 Y92.479 E62.66843
G1 X103.249 Y92.479 E62.68214
G1 X103.249 Y107.521 E63.12657
G1 X102.785 Y107.521 E63.14028
G1 X102.785 Y92.479 E63.58471
G1 X102.321 Y92.479 E63.59842
G1 X102.321 Y107.521 E64.04285
G1 X101.856 Y107.521 E64.05656
G1 X101.856 Y92.479 E64.50099
G1 X101.392 Y92.479 E64.51470
G1 X101.392 Y107.521 E64.95913
G1 X100.928 Y107.521 E64.97284
G1 X100.928 Y92.479 E65.41727
G1 X100.464 Y92.479 E65.43098
G1 X100.464 Y107.521 E65.87541
G1 X100.000 Y107.521 E65.88912
G1 X100.000 Y92.479 E66.33355
G1 X99.536 Y92.479 E66.34726
G1 X99.536 Y107.521 E66.79169
G1 X99.072 Y107.521 E66.80540
G1 X99.072 Y92.479 E67.24983
G1 X98.608 Y92.479 E67.26354
G1 X98.608 Y107.521 E67.70797
G1 X98.144 Y107.521 E67.72168
G1 X98.144 Y92.479 E68.16611
G1 X97.679 Y92.479 E68.17982
G1 X97.679 Y107.521 E68.62425
G1 X97.215 Y107.521 E68.63796
G1 X97.215 Y92.479 E69.08239
G1 X96.751 Y92.479 E69.09610
G1 X96.751 Y107.521 E69.54053
G1 X96.287 Y107.521 E69.55424
G1 X96.287 Y92.479 E69.99867
G1 X95.823 Y92.479 E70.01238
G1 X95.823 Y107.521 E70.45681
G1 X95.359 Y107.521 E70.47052
G1 X95.359 Y92.479 E70.91495
G1 E68.91495 F2400.00000
G92 E0
M107
; Filament-specific end gcode 
;END gcode for filament

M104 S0 ; turn off temperature
G28 X0  ; home X axis
M84     ; disable motors

M140 S0 ; set bed temperature
; filament used = 68.9mm (0.5cm3)
; total filament cost = 0.0

; avoid_crossing_perimeters = 0
; bed_shape = 0x0,200x0,200x200,0x200
; bed_temperature = 0
; before_layer_gcode = 
; between_objects_gcode = 
; bridge_acceleration = 0
; bridge_fan_speed = 100
; brim_connections_width = 0
; brim_width = 0
; complete_objects = 0
; cooling = 1
; default_acceleration = 0
; disable_fan_first_layers = 3
; duplicate_distance = 6
; end_filament_gcode = "; Filament-specific end gcode \n;END gcode for filament\n"
; end_gcode = M104 S0 ; turn off temperature\nG28 X0  ; home X axis\nM84     ; disable motors\n
; extruder_clearance_height = 20
; extruder_clearance_radius = 20
; extruder_offset = 0x0
; extrusion_axis = E
; extrusion_multiplier = 1
; fan_always_on = 0
; fan_below_layer_time = 60
; filament_colour = #FFFFFF
; filament_cost = 0
; filament_density = 0
; filament_diameter = 3
; filament_max_volumetric_speed = 0
; filament_notes = ""
; first_layer_acceleration = 0
; first_layer_bed_temperature = 0
; first_layer_extrusion_width = 200%
; first_layer_speed = 30
; first_layer_temperature = 205
; gcode_arcs = 0
; gcode_comments = 0
; gcode_flavor = reprap
; has_heatbed = 1
; infill_acceleration = 0
; infill_first = 0
; interior_brim_width = 0
; layer_gcode = 
; max_fan_speed = 100
; max_layer_height = 0.3
; max_print_speed = 80
; max_volumetric_speed = 0
; min_fan_speed = 35
; min_layer_height = 0.15
; min_print_speed = 10
; min_skirt_length = 0
; notes = 
; nozzle_diameter = 0.5
; only_retract_when_crossing_perimeters = 1
; ooze_prevention = 0
; output_filename_format = [input_filename_base].gcode
; perimeter_acceleration = 0
; post_process = 
; pressure_advance = 0
; printer_notes = 
; resolution = 0
; retract_before_travel = 2
; retract_layer_change = 0
; retract_length = 2
; retract_length_toolchange = 10
; retract_lift = 0
; retract_lift_above = 0
; retract_lift_below = 0
; retract_restart_extra = 0
; retract_restart_extra_toolchange = 0
; retract_speed = 40
; skirt_distance = 6
; skirt_height = 1
; skirts = 0
; slowdown_below_layer_time = 5
; spiral_vase = 0
; standby_temperature_delta = -5
; start_filament_gcode = "; Filament gcode\n"
; start_gcode = G28 ; home all axes\nG1 Z5 F5000 ; lift nozzle\n
; temperature = 200
; threads = 8
; toolchange_gcode = 
; travel_speed = 130
; use_firmware_retraction = 0
; use_relative_e_distances = 0
; use_set_and_wait_bed = 0
; use_set_and_wait_extruder = 0
; use_volumetric_e = 0
; vibration_limit = 0
; wipe = 0
; z_offset = 0
; z_steps_per_mm = 0
; adaptive_slicing = 0
; adaptive_slicing_quality = 75%
; dont_support_bridges = 1
; extrusion_width = 0
; first_layer_height = 0.5
; infill_only_where_needed = 0
; interface_shells = 0
; layer_height = 0.5
; match_horizontal_surfaces = 0
; raft_layers = 0
; regions_overlap = 0
; seam_position = aligned
; sequential_print_priority = 0
; support_material = 0
; support_material_angle = 0
; support_material_buildplate_only = 0
; support_material_contact_distance = 0.2
; support_material_enforce_layers = 0
; support_material_extruder = 1
; support_material_extrusion_width = 0
; support_material_interface_extruder = 1
; support_material_interface_extrusion_width = 0
; support_material_interface_layers = 3
; support_material_interface_spacing = 0
; support_material_interface_speed = 100%
; support_material_max_layers = 0
; support_material_pattern = pillars
; support_material_spacing = 2.5
; support_material_speed = 60
; support_material_threshold = 60%
; xy_size_compensation = 0
; bottom_infill_pattern = rectilinear
; bottom_solid_layers = 0
; bridge_flow_ratio = 1
; bridge_speed = 60
; external_perimeter_extrusion_width = 0
; external_perimeter_speed = 50%
; external_perimeters_first = 0
; extra_perimeters = 1
; fill_angle = 90
; fill_density = 90%
; fill_gaps = 1
; fill_pattern = alignedrectilinear
; gap_fill_speed = 20
; infill_every_layers = 1
; infill_extruder = 1
; infill_extrusion_width = 0
; infill_overlap = 55%
; infill_speed = 80
; overhangs = 1
; perimeter_extruder = 1
; perimeter_extrusion_width = 0
; perimeter_speed = 60
; perimeters = 0
; small_perimeter_speed = 15
; solid_infill_below_area = 70
; solid_infill_every_layers = 0
; solid_infill_extruder = 1
; solid_infill_extrusion_width = 0
; solid_infill_speed = 20
; thin_walls = 1
; top_infill_extrusion_width = 0
; top_infill_pattern = rectilinear
; top_solid_infill_speed = 15
; top_solid_layers = 0
