; generated by Slic3r 1.2.9 on 2019-07-26 at 13:13:32

; external perimeters extrusion width = 0.50mm
; perimeters extrusion width = 0.58mm
; infill extrusion width = 0.58mm
; solid infill extrusion width = 0.58mm
; top infill extrusion width = 0.58mm

M107
M104 S200 ; set temperature
G28 ; home all axes
G1 Z5 F5000 ; lift nozzle

M109 S200 ; wait for temperature to be reached
G21 ; set units to millimeters
G90 ; use absolute coordinates
M82 ; use absolute distances for extrusion
G92 E0
G1 Z0.400 F7800.000
G1 E-2.00000 F2400.00000
G92 E0
G1 X91.621 Y108.075 F7800.000
G1 E2.00000 F2400.00000
G1 X91.925 Y108.379 E2.15638 F1800.000
G1 X93.082 Y108.379 E2.57720
G1 X91.621 Y106.918 E3.32871
G1 X91.621 Y105.761 E3.74953
G1 X94.239 Y108.379 E5.09617
G1 X95.396 Y108.379 E5.51699
G1 X91.621 Y104.604 E7.45877
G1 X91.621 Y103.447 E7.87959
G1 X96.553 Y108.379 E10.41650
G1 X97.710 Y108.379 E10.83732
G1 X91.621 Y102.290 E13.96936
G1 X91.621 Y101.133 E14.39018
G1 X98.867 Y108.379 E18.11736
G1 X100.024 Y108.379 E18.53818
G1 X91.621 Y99.976 E22.86048
G1 X91.621 Y98.819 E23.28131
G1 X101.181 Y108.379 E28.19875
G1 X102.338 Y108.379 E28.61957
G1 X91.621 Y97.662 E34.13214
G1 X91.621 Y96.505 E34.55296
G1 X103.495 Y108.379 E40.66067
G1 X104.652 Y108.379 E41.08149
G1 X91.621 Y95.348 E47.78433
G1 X91.621 Y94.191 E48.20515
G1 X105.809 Y108.379 E55.50312
G1 X106.966 Y108.379 E55.92394
G1 X91.621 Y93.034 E63.81705
G1 X91.621 Y91.877 E64.23787
G1 X108.123 Y108.379 E72.72610
G1 X108.379 Y107.477 E73.06694
G1 X92.523 Y91.621 E81.22277
G1 X93.680 Y91.621 E81.64359
G1 X108.379 Y106.320 E89.20429
G1 X108.379 Y105.163 E89.62511
G1 X94.837 Y91.621 E96.59068
G1 X95.994 Y91.621 E97.01150
G1 X108.379 Y104.006 E103.38193
G1 X108.379 Y102.849 E103.80275
G1 X97.151 Y91.621 E109.57805
G1 X98.308 Y91.621 E109.99887
G1 X108.379 Y101.692 E115.17904
G1 X108.379 Y100.535 E115.59986
G1 X99.465 Y91.621 E120.18490
G1 X100.622 Y91.621 E120.60572
G1 X108.379 Y99.378 E124.59562
G1 X108.379 Y98.221 E125.01644
G1 X101.779 Y91.621 E128.41121
G1 X102.936 Y91.621 E128.83203
G1 X108.379 Y97.064 E131.63167
G1 X108.379 Y95.907 E132.05249
G1 X104.093 Y91.621 E134.25699
G1 X105.250 Y91.621 E134.67781
G1 X108.379 Y94.750 E136.28718
G1 X108.379 Y93.593 E136.70801
G1 X106.407 Y91.621 E137.72224
G1 X107.564 Y91.621 E138.14306
G1 X108.379 Y92.436 E138.56217
G1 Z0.800 F7800.000
G1 X107.564 Y108.379 F7800.000
G1 X108.379 Y107.564 E138.85024 F4505.536
G1 X108.379 Y106.407 E139.13949
G1 X106.407 Y108.379 E139.83662
G1 X105.250 Y108.379 E140.12587
G1 X108.379 Y105.250 E141.23206
G1 X108.379 Y104.093 E141.52131
G1 X104.093 Y108.379 E143.03656
G1 X102.936 Y108.379 E143.32581
G1 X108.379 Y102.936 E145.25013
G1 X108.379 Y101.779 E145.53938
G1 X101.779 Y108.379 E147.87275
G1 X100.622 Y108.379 E148.16200
G1 X108.379 Y100.622 E150.90444
G1 X108.379 Y99.465 E151.19369
G1 X99.465 Y108.379 E154.34519
G1 X98.308 Y108.379 E154.63444
G1 X108.379 Y98.308 E158.19500
G1 X108.379 Y97.151 E158.48425
G1 X97.151 Y108.379 E162.45388
G1 X95.994 Y108.379 E162.74313
G1 X108.379 Y95.994 E167.12181
G1 X108.379 Y94.837 E167.41106
G1 X94.837 Y108.379 E172.19881
G1 X93.680 Y108.379 E172.48806
G1 X108.379 Y93.680 E177.68486
G1 X108.379 Y92.523 E177.97411
G1 X92.523 Y108.379 E183.57998
G1 X91.621 Y108.123 E183.81425
G1 X108.123 Y91.621 E189.64860
G1 X106.966 Y91.621 E189.93785
G1 X91.621 Y106.966 E195.36314
G1 X91.621 Y105.809 E195.65239
G1 X105.809 Y91.621 E200.66861
G1 X104.652 Y91.621 E200.95786
G1 X91.621 Y104.652 E205.56502
G1 X91.621 Y103.495 E205.85427
G1 X103.495 Y91.621 E210.05237
G1 X102.338 Y91.621 E210.34162
G1 X91.621 Y102.338 E214.13066
G1 X91.621 Y101.181 E214.41991
G1 X101.181 Y91.621 E217.79989
G1 X100.024 Y91.621 E218.08914
G1 X91.621 Y100.024 E221.06006
G1 X91.621 Y98.867 E221.34931
G1 X98.867 Y91.621 E223.91116
G1 X97.710 Y91.621 E224.20041
G1 X91.621 Y97.710 E226.35320
G1 X91.621 Y96.553 E226.64245
G1 X96.553 Y91.621 E228.38618
G1 X95.396 Y91.621 E228.67544
G1 X91.621 Y95.396 E230.01010
G1 X91.621 Y94.239 E230.29935
G1 X94.239 Y91.621 E231.22496
G1 X93.082 Y91.621 E231.51421
G1 X91.621 Y93.082 E232.03076
G1 X91.621 Y91.925 E232.32001
G1 X91.925 Y91.621 E232.42750
G1 Z1.200 F7800.000
G1 X91.621 Y108.075 F7800.000
G1 X91.925 Y108.379 E232.53498 F4505.536
G1 X93.082 Y108.379 E232.82423
G1 X91.621 Y106.918 E233.34078
G1 X91.621 Y105.761 E233.63003
G1 X94.239 Y108.379 E234.55563
G1 X95.396 Y108.379 E234.84488
G1 X91.621 Y104.604 E236.17955
G1 X91.621 Y103.447 E236.46880
G1 X96.553 Y108.379 E238.21253
G1 X97.710 Y108.379 E238.50178
G1 X91.621 Y102.290 E240.65458
G1 X91.621 Y101.133 E240.94383
G1 X98.867 Y108.379 E243.50568
G1 X100.024 Y108.379 E243.79493
G1 X91.621 Y99.976 E246.76585
G1 X91.621 Y98.819 E247.05510
G1 X101.181 Y108.379 E250.43507
G1 X102.338 Y108.379 E250.72432
G1 X91.621 Y97.662 E254.51336
G1 X91.621 Y96.505 E254.80261
G1 X103.495 Y108.379 E259.00071
G1 X104.652 Y108.379 E259.28996
G1 X91.621 Y95.348 E263.89712
G1 X91.621 Y94.191 E264.18637
G1 X105.809 Y108.379 E269.20260
G1 X106.966 Y108.379 E269.49185
G1 X91.621 Y93.034 E274.91713
G1 X91.621 Y91.877 E275.20638
G1 X108.123 Y108.379 E281.04073
G1 X108.379 Y107.477 E281.27500
G1 X92.523 Y91.621 E286.88087
G1 X93.680 Y91.621 E287.17012
G1 X108.379 Y106.320 E292.36693
G1 X108.379 Y105.163 E292.65618
G1 X94.837 Y91.621 E297.44392
G1 X95.994 Y91.621 E297.73317
G1 X108.379 Y104.006 E302.11186
G1 X108.379 Y102.849 E302.40111
G1 X97.151 Y91.621 E306.37073
G1 X98.308 Y91.621 E306.65998
G1 X108.379 Y101.692 E310.22054
G1 X108.379 Y100.535 E310.50979
G1 X99.465 Y91.621 E313.66129
G1 X100.622 Y91.621 E313.95054
G1 X108.379 Y99.378 E316.69298
G1 X108.379 Y98.221 E316.98223
G1 X101.779 Y91.621 E319.31561
G1 X102.936 Y91.621 E319.60486
G1 X108.379 Y97.064 E321.52917
G1 X108.379 Y95.907 E321.81842
G1 X104.093 Y91.621 E323.33368
G1 X105.250 Y91.621 E323.62293
G1 X108.379 Y94.750 E324.72912
G1 X108.379 Y93.593 E325.01837
G1 X106.407 Y91.621 E325.71550
G1 X107.564 Y91.621 E326.00475
G1 X108.379 Y92.436 E326.29282
M106 S255
G1 Z1.600 F7800.000
G1 X107.564 Y108.379 F7800.000
G1 X108.379 Y107.564 E326.58089 F4505.536
G1 X108.379 Y106.407 E326.87014
G1 X106.407 Y108.379 E327.56727
G1 X105.250 Y108.379 E327.85652
G1 X108.379 Y105.250 E328.96271
G1 X108.379 Y104.093 E329.25196
G1 X104.093 Y108.379 E330.76721
G1 X102.936 Y108.379 E331.05646
G1 X108.379 Y102.936 E332.98078
G1 X108.379 Y101.779 E333.27003
G1 X101.779 Y108.379 E335.60340
G1 X100.622 Y108.379 E335.89266
G1 X108.379 Y100.622 E338.63509
G1 X108.379 Y99.465 E338.92434
G1 X99.465 Y108.379 E342.07584
G1 X98.308 Y108.379 E342.36509
G1 X108.379 Y98.308 E345.92565
G1 X108.379 Y97.151 E346.21490
G1 X97.151 Y108.379 E350.18453
G1 X95.994 Y108.379 E350.47378
G1 X108.379 Y95.994 E354.85246
G1 X108.379 Y94.837 E355.14171
G1 X94.837 Y108.379 E359.92946
G1 X93.680 Y108.379 E360.21871
G1 X108.379 Y93.680 E365.41551
G1 X108.379 Y92.523 E365.70476
G1 X92.523 Y108.379 E371.31063
G1 X91.621 Y108.123 E371.54490
G1 X108.123 Y91.621 E377.37925
G1 X106.966 Y91.621 E377.66850
G1 X91.621 Y106.966 E383.09379
G1 X91.621 Y105.809 E383.38304
G1 X105.809 Y91.621 E388.39926
G1 X104.652 Y91.621 E388.68851
G1 X91.621 Y104.652 E393.29567
G1 X91.621 Y103.495 E393.58492
G1 X103.495 Y91.621 E397.78302
G1 X102.338 Y91.621 E398.07227
G1 X91.621 Y102.338 E401.86131
G1 X91.621 Y101.181 E402.15056
G1 X101.181 Y91.621 E405.53054
G1 X100.024 Y91.621 E405.81979
G1 X91.621 Y100.024 E408.79071
G1 X91.621 Y98.867 E409.07996
G1 X98.867 Y91.621 E411.64181
G1 X97.710 Y91.621 E411.93106
G1 X91.621 Y97.710 E414.08385
G1 X91.621 Y96.553 E414.37310
G1 X96.553 Y91.621 E416.11684
G1 X95.396 Y91.621 E416.40609
G1 X91.621 Y95.396 E417.74076
G1 X91.621 Y94.239 E418.03001
G1 X94.239 Y91.621 E418.95561
G1 X93.082 Y91.621 E419.24486
G1 X91.621 Y93.082 E419.76141
G1 X91.621 Y91.925 E420.05066
G1 X91.925 Y91.621 E420.15815
G1 Z2.000 F7800.000
G1 X91.621 Y108.075 F7800.000
G1 X91.925 Y108.379 E420.26563 F4505.536
G1 X93.082 Y108.379 E420.55488
G1 X91.621 Y106.918 E421.07143
G1 X91.621 Y105.761 E421.36068
G1 X94.239 Y108.379 E422.28628
G1 X95.396 Y108.379 E422.57553
G1 X91.621 Y104.604 E423.91020
G1 X91.621 Y103.447 E424.19945
G1 X96.553 Y108.379 E425.94318
G1 X97.710 Y108.379 E426.23244
G1 X91.621 Y102.290 E428.38523
G1 X91.621 Y101.133 E428.67448
G1 X98.867 Y108.379 E431.23633
G1 X100.024 Y108.379 E431.52558
G1 X91.621 Y99.976 E434.49650
G1 X91.621 Y98.819 E434.78575
G1 X101.181 Y108.379 E438.16572
G1 X102.338 Y108.379 E438.45497
G1 X91.621 Y97.662 E442.24401
G1 X91.621 Y96.505 E442.53326
G1 X103.495 Y108.379 E446.73136
G1 X104.652 Y108.379 E447.02061
G1 X91.621 Y95.348 E451.62777
G1 X91.621 Y94.191 E451.91702
G1 X105.809 Y108.379 E456.93325
G1 X106.966 Y108.379 E457.22250
G1 X91.621 Y93.034 E462.64778
G1 X91.621 Y91.877 E462.93703
G1 X108.123 Y108.379 E468.77138
G1 X108.379 Y107.477 E469.00565
G1 X92.523 Y91.621 E474.61152
G1 X93.680 Y91.621 E474.90077
G1 X108.379 Y106.320 E480.09758
G1 X108.379 Y105.163 E480.38683
G1 X94.837 Y91.621 E485.17457
G1 X95.994 Y91.621 E485.46382
G1 X108.379 Y104.006 E489.84251
G1 X108.379 Y102.849 E490.13176
G1 X97.151 Y91.621 E494.10138
G1 X98.308 Y91.621 E494.39063
G1 X108.379 Y101.692 E497.95119
G1 X108.379 Y100.535 E498.24044
G1 X99.465 Y91.621 E501.39194
G1 X100.622 Y91.621 E501.68119
G1 X108.379 Y99.378 E504.42363
G1 X108.379 Y98.221 E504.71288
G1 X101.779 Y91.621 E507.04626
G1 X102.936 Y91.621 E507.33551
G1 X108.379 Y97.064 E509.25982
G1 X108.379 Y95.907 E509.54907
G1 X104.093 Y91.621 E511.06433
G1 X105.250 Y91.621 E511.35358
G1 X108.379 Y94.750 E512.45977
G1 X108.379 Y93.593 E512.74902
G1 X106.407 Y91.621 E513.44615
G1 X107.564 Y91.621 E513.73540
G1 X108.379 Y92.436 E514.02347
G1 Z2.400 F7800.000
G1 X107.564 Y108.379 F7800.000
G1 X108.379 Y107.564 E514.31154 F4505.536
G1 X108.379 Y106.407 E514.60079
G1 X106.407 Y108.379 E515.29792
G1 X105.250 Y108.379 E515.58717
G1 X108.379 Y105.250 E516.69336
G1 X108.379 Y104.093 E516.98261
G1 X104.093 Y108.379 E518.49786
G1 X102.936 Y108.379 E518.78711
G1 X108.379 Y102.936 E520.71143
G1 X108.379 Y101.779 E521.00068
G1 X101.779 Y108.379 E523.33406
G1 X100.622 Y108.379 E523.62331
G1 X108.379 Y100.622 E526.36574
G1 X108.379 Y99.465 E526.65499
G1 X99.465 Y108.379 E529.80649
G1 X98.308 Y108.379 E530.09574
G1 X108.379 Y98.308 E533.65630
G1 X108.379 Y97.151 E533.94555
G1 X97.151 Y108.379 E537.91518
G1 X95.994 Y108.379 E538.20443
G1 X108.379 Y95.994 E542.58311
G1 X108.379 Y94.837 E542.87236
G1 X94.837 Y108.379 E547.66011
G1 X93.680 Y108.379 E547.94936
G1 X108.379 Y93.680 E553.14616
G1 X108.379 Y92.523 E553.43541
G1 X92.523 Y108.379 E559.04128
G1 X91.621 Y108.123 E559.27555
G1 X108.123 Y91.621 E565.10990
G1 X106.966 Y91.621 E565.39915
G1 X91.621 Y106.966 E570.82444
G1 X91.621 Y105.809 E571.11369
G1 X105.809 Y91.621 E576.12991
G1 X104.652 Y91.621 E576.41916
G1 X91.621 Y104.652 E581.02632
G1 X91.621 Y103.495 E581.31557
G1 X103.495 Y91.621 E585.51367
G1 X102.338 Y91.621 E585.80292
G1 X91.621 Y102.338 E589.59196
G1 X91.621 Y101.181 E589.88121
G1 X101.181 Y91.621 E593.26119
G1 X100.024 Y91.621 E593.55044
G1 X91.621 Y100.024 E596.52136
G1 X91.621 Y98.867 E596.81061
G1 X98.867 Y91.621 E599.37246
G1 X97.710 Y91.621 E599.66171
G1 X91.621 Y97.710 E601.81450
G1 X91.621 Y96.553 E602.10375
G1 X96.553 Y91.621 E603.84749
G1 X95.396 Y91.621 E604.13674
G1 X91.621 Y95.396 E605.47141
G1 X91.621 Y94.239 E605.76066
G1 X94.239 Y91.621 E606.68626
G1 X93.082 Y91.621 E606.97551
G1 X91.621 Y93.082 E607.49206
G1 X91.621 Y91.925 E607.78131
G1 X91.925 Y91.621 E607.88880
G1 Z2.800 F7800.000
G1 X91.621 Y108.075 F7800.000
G1 X91.925 Y108.379 E607.99628 F4505.536
G1 X93.082 Y108.379 E608.28553
G1 X91.621 Y106.918 E608.80208
G1 X91.621 Y105.761 E609.09133
G1 X94.239 Y108.379 E610.01694
G1 X95.396 Y108.379 E610.30619
G1 X91.621 Y104.604 E611.64085
G1 X91.621 Y103.447 E611.93010
G1 X96.553 Y108.379 E613.67384
G1 X97.710 Y108.379 E613.96309
G1 X91.621 Y102.290 E616.11588
G1 X91.621 Y101.133 E616.40513
G1 X98.867 Y108.379 E618.96698
G1 X100.024 Y108.379 E619.25623
G1 X91.621 Y99.976 E622.22715
G1 X91.621 Y98.819 E622.51640
G1 X101.181 Y108.379 E625.89637
G1 X102.338 Y108.379 E626.18562
G1 X91.621 Y97.662 E629.97466
G1 X91.621 Y96.505 E630.26391
G1 X103.495 Y108.379 E634.46201
G1 X104.652 Y108.379 E634.75126
G1 X91.621 Y95.348 E639.35843
G1 X91.621 Y94.191 E639.64768
G1 X105.809 Y108.379 E644.66390
G1 X106.966 Y108.379 E644.95315
G1 X91.621 Y93.034 E650.37843
G1 X91.621 Y91.877 E650.66768
G1 X108.123 Y108.379 E656.50203
G1 X108.379 Y107.477 E656.73630
G1 X92.523 Y91.621 E662.34217
G1 X93.680 Y91.621 E662.63142
G1 X108.379 Y106.320 E667.82823
G1 X108.379 Y105.163 E668.11748
G1 X94.837 Y91.621 E672.90522
G1 X95.994 Y91.621 E673.19447
G1 X108.379 Y104.006 E677.57316
G1 X108.379 Y102.849 E677.86241
G1 X97.151 Y91.621 E681.83203
G1 X98.308 Y91.621 E682.12128
G1 X108.379 Y101.692 E685.68184
G1 X108.379 Y100.535 E685.97109
G1 X99.465 Y91.621 E689.12259
G1 X100.622 Y91.621 E689.41184
G1 X108.379 Y99.378 E692.15428
G1 X108.379 Y98.221 E692.44353
G1 X101.779 Y91.621 E694.77691
G1 X102.936 Y91.621 E695.06616
G1 X108.379 Y97.064 E696.99047
G1 X108.379 Y95.907 E697.27972
G1 X104.093 Y91.621 E698.79498
G1 X105.250 Y91.621 E699.08423
G1 X108.379 Y94.750 E700.19042
G1 X108.379 Y93.593 E700.47967
G1 X106.407 Y91.621 E701.17680
G1 X107.564 Y91.621 E701.46605
G1 X108.379 Y92.436 E701.75412
G1 Z3.200 F7800.000
G1 X107.564 Y108.379 F7800.000
G1 X108.379 Y107.564 E702.04219 F4505.536
G1 X108.379 Y106.407 E702.33144
G1 X106.407 Y108.379 E703.02857
G1 X105.250 Y108.379 E703.31782
G1 X108.379 Y105.250 E704.42401
G1 X108.379 Y104.093 E704.71326
G1 X104.093 Y108.379 E706.22851
G1 X102.936 Y108.379 E706.51776
G1 X108.379 Y102.936 E708.44208
G1 X108.379 Y101.779 E708.73133
G1 X101.779 Y108.379 E711.06471
G1 X100.622 Y108.379 E711.35396
G1 X108.379 Y100.622 E714.09639
G1 X108.379 Y99.465 E714.38564
G1 X99.465 Y108.379 E717.53714
G1 X98.308 Y108.379 E717.82639
G1 X108.379 Y98.308 E721.38695
G1 X108.379 Y97.151 E721.67621
G1 X97.151 Y108.379 E725.64583
G1 X95.994 Y108.379 E725.93508
G1 X108.379 Y95.994 E730.31376
G1 X108.379 Y94.837 E730.60301
G1 X94.837 Y108.379 E735.39076
G1 X93.680 Y108.379 E735.68001
G1 X108.379 Y93.680 E740.87681
G1 X108.379 Y92.523 E741.16606
G1 X92.523 Y108.379 E746.77193
G1 X91.621 Y108.123 E747.00620
G1 X108.123 Y91.621 E752.84055
G1 X106.966 Y91.621 E753.12980
G1 X91.621 Y106.966 E758.55509
G1 X91.621 Y105.809 E758.84434
G1 X105.809 Y91.621 E763.86056
G1 X104.652 Y91.621 E764.14981
G1 X91.621 Y104.652 E768.75697
G1 X91.621 Y103.495 E769.04622
G1 X103.495 Y91.621 E773.24432
G1 X102.338 Y91.621 E773.53357
G1 X91.621 Y102.338 E777.32261
G1 X91.621 Y101.181 E777.61186
G1 X101.181 Y91.621 E780.99184
G1 X100.024 Y91.621 E781.28109
G1 X91.621 Y100.024 E784.25201
G1 X91.621 Y98.867 E784.54126
G1 X98.867 Y91.621 E787.10311
G1 X97.710 Y91.621 E787.39236
G1 X91.621 Y97.710 E789.54515
G1 X91.621 Y96.553 E789.83440
G1 X96.553 Y91.621 E791.57814
G1 X95.396 Y91.621 E791.86739
G1 X91.621 Y95.396 E793.20206
G1 X91.621 Y94.239 E793.49131
G1 X94.239 Y91.621 E794.41691
G1 X93.082 Y91.621 E794.70616
G1 X91.621 Y93.082 E795.22271
G1 X91.621 Y91.925 E795.51196
G1 X91.925 Y91.621 E795.61945
G1 Z3.600 F7800.000
G1 X91.621 Y108.075 F7800.000
G1 X91.925 Y108.379 E795.72693 F4505.536
G1 X93.082 Y108.379 E796.01618
G1 X91.621 Y106.918 E796.53273
G1 X91.621 Y105.761 E796.82198
G1 X94.239 Y108.379 E797.74759
G1 X95.396 Y108.379 E798.03684
G1 X91.621 Y104.604 E799.37151
G1 X91.621 Y103.447 E799.66076
G1 X96.553 Y108.379 E801.40449
G1 X97.710 Y108.379 E801.69374
G1 X91.621 Y102.290 E803.84653
G1 X91.621 Y101.133 E804.13578
G1 X98.867 Y108.379 E806.69763
G1 X100.024 Y108.379 E806.98688
G1 X91.621 Y99.976 E809.95780
G1 X91.621 Y98.819 E810.24705
G1 X101.181 Y108.379 E813.62702
G1 X102.338 Y108.379 E813.91627
G1 X91.621 Y97.662 E817.70531
G1 X91.621 Y96.505 E817.99456
G1 X103.495 Y108.379 E822.19266
G1 X104.652 Y108.379 E822.48191
G1 X91.621 Y95.348 E827.08908
G1 X91.621 Y94.191 E827.37833
G1 X105.809 Y108.379 E832.39455
G1 X106.966 Y108.379 E832.68380
G1 X91.621 Y93.034 E838.10908
G1 X91.621 Y91.877 E838.39833
G1 X108.123 Y108.379 E844.23268
G1 X108.379 Y107.477 E844.46695
G1 X92.523 Y91.621 E850.07282
G1 X93.680 Y91.621 E850.36207
G1 X108.379 Y106.320 E855.55888
G1 X108.379 Y105.163 E855.84813
G1 X94.837 Y91.621 E860.63587
G1 X95.994 Y91.621 E860.92512
G1 X108.379 Y104.006 E865.30381
G1 X108.379 Y102.849 E865.59306
G1 X97.151 Y91.621 E869.56268
G1 X98.308 Y91.621 E869.85193
G1 X108.379 Y101.692 E873.41249
G1 X108.379 Y100.535 E873.70174
G1 X99.465 Y91.621 E876.85324
G1 X100.622 Y91.621 E877.14249
G1 X108.379 Y99.378 E879.88493
G1 X108.379 Y98.221 E880.17418
G1 X101.779 Y91.621 E882.50756
G1 X102.936 Y91.621 E882.79681
G1 X108.379 Y97.064 E884.72112
G1 X108.379 Y95.907 E885.01038
G1 X104.093 Y91.621 E886.52563
G1 X105.250 Y91.621 E886.81488
G1 X108.379 Y94.750 E887.92107
G1 X108.379 Y93.593 E888.21032
G1 X106.407 Y91.621 E888.90745
G1 X107.564 Y91.621 E889.19670
G1 X108.379 Y92.436 E889.48477
G1 Z4.000 F7800.000
G1 X107.564 Y108.379 F7800.000
G1 X108.379 Y107.564 E889.77284 F4505.536
G1 X108.379 Y106.407 E890.06209
G1 X106.407 Y108.379 E890.75922
G1 X105.250 Y108.379 E891.04847
G1 X108.379 Y105.250 E892.15466
G1 X108.379 Y104.093 E892.44391
G1 X104.093 Y108.379 E893.95916
G1 X102.936 Y108.379 E894.24842
G1 X108.379 Y102.936 E896.17273
G1 X108.379 Y101.779 E896.46198
G1 X101.779 Y108.379 E898.79536
G1 X100.622 Y108.379 E899.08461
G1 X108.379 Y100.622 E901.82704
G1 X108.379 Y99.465 E902.11629
G1 X99.465 Y108.379 E905.26779
G1 X98.308 Y108.379 E905.55704
G1 X108.379 Y98.308 E909.11761
G1 X108.379 Y97.151 E909.40686
G1 X97.151 Y108.379 E913.37648
G1 X95.994 Y108.379 E913.66573
G1 X108.379 Y95.994 E918.04441
G1 X108.379 Y94.837 E918.33366
G1 X94.837 Y108.379 E923.12141
G1 X93.680 Y108.379 E923.41066
G1 X108.379 Y93.680 E928.60746
G1 X108.379 Y92.523 E928.89671
G1 X92.523 Y108.379 E934.50258
G1 X91.621 Y108.123 E934.73685
G1 X108.123 Y91.621 E940.57120
G1 X106.966 Y91.621 E940.86045
G1 X91.621 Y106.966 E946.28574
G1 X91.621 Y105.809 E946.57499
G1 X105.809 Y91.621 E951.59121
G1 X104.652 Y91.621 E951.88046
G1 X91.621 Y104.652 E956.48762
G1 X91.621 Y103.495 E956.77687
G1 X103.495 Y91.621 E960.97497
G1 X102.338 Y91.621 E961.26422
G1 X91.621 Y102.338 E965.05326
G1 X91.621 Y101.181 E965.34251
G1 X101.181 Y91.621 E968.72249
G1 X100.024 Y91.621 E969.01174
G1 X91.621 Y100.024 E971.98266
G1 X91.621 Y98.867 E972.27191
G1 X98.867 Y91.621 E974.83376
G1 X97.710 Y91.621 E975.12301
G1 X91.621 Y97.710 E977.27581
G1 X91.621 Y96.553 E977.56506
G1 X96.553 Y91.621 E979.30879
G1 X95.396 Y91.621 E979.59804
G1 X91.621 Y95.396 E980.93271
G1 X91.621 Y94.239 E981.22196
G1 X94.239 Y91.621 E982.14757
G1 X93.082 Y91.621 E982.43682
G1 X91.621 Y93.082 E982.95336
G1 X91.621 Y91.925 E983.24261
G1 X91.925 Y91.621 E983.35010
G1 Z4.400 F7800.000
G1 X91.621 Y108.075 F7800.000
G1 X91.925 Y108.379 E983.45758 F4505.536
G1 X93.082 Y108.379 E983.74683
G1 X91.621 Y106.918 E984.26338
G1 X91.621 Y105.761 E984.55263
G1 X94.239 Y108.379 E985.47824
G1 X95.396 Y108.379 E985.76749
G1 X91.621 Y104.604 E987.10216
G1 X91.621 Y103.447 E987.39141
G1 X96.553 Y108.379 E989.13514
G1 X97.710 Y108.379 E989.42439
G1 X91.621 Y102.290 E991.57718
G1 X91.621 Y101.133 E991.86643
G1 X98.867 Y108.379 E994.42828
G1 X100.024 Y108.379 E994.71753
G1 X91.621 Y99.976 E997.68845
G1 X91.621 Y98.819 E997.97770
G1 X101.181 Y108.379 E1001.35767
G1 X102.338 Y108.379 E1001.64693
G1 X91.621 Y97.662 E1005.43596
G1 X91.621 Y96.505 E1005.72521
G1 X103.495 Y108.379 E1009.92331
G1 X104.652 Y108.379 E1010.21256
G1 X91.621 Y95.348 E1014.81973
G1 X91.621 Y94.191 E1015.10898
G1 X105.809 Y108.379 E1020.12520
G1 X106.966 Y108.379 E1020.41445
G1 X91.621 Y93.034 E1025.83973
G1 X91.621 Y91.877 E1026.12898
G1 X108.123 Y108.379 E1031.96333
G1 X108.379 Y107.477 E1032.19760
G1 X92.523 Y91.621 E1037.80347
G1 X93.680 Y91.621 E1038.09272
G1 X108.379 Y106.320 E1043.28953
G1 X108.379 Y105.163 E1043.57878
G1 X94.837 Y91.621 E1048.36652
G1 X95.994 Y91.621 E1048.65578
G1 X108.379 Y104.006 E1053.03446
G1 X108.379 Y102.849 E1053.32371
G1 X97.151 Y91.621 E1057.29333
G1 X98.308 Y91.621 E1057.58258
G1 X108.379 Y101.692 E1061.14314
G1 X108.379 Y100.535 E1061.43239
G1 X99.465 Y91.621 E1064.58389
G1 X100.622 Y91.621 E1064.87314
G1 X108.379 Y99.378 E1067.61558
G1 X108.379 Y98.221 E1067.90483
G1 X101.779 Y91.621 E1070.23821
G1 X102.936 Y91.621 E1070.52746
G1 X108.379 Y97.064 E1072.45178
G1 X108.379 Y95.907 E1072.74103
G1 X104.093 Y91.621 E1074.25628
G1 X105.250 Y91.621 E1074.54553
G1 X108.379 Y94.750 E1075.65172
G1 X108.379 Y93.593 E1075.94097
G1 X106.407 Y91.621 E1076.63810
G1 X107.564 Y91.621 E1076.92735
G1 X108.379 Y92.436 E1077.21542
G1 Z4.800 F7800.000
G1 X107.564 Y108.379 F7800.000
G1 X108.379 Y107.564 E1077.50349 F4505.536
G1 X108.379 Y106.407 E1077.79274
G1 X106.407 Y108.379 E1078.48987
G1 X105.250 Y108.379 E1078.77912
G1 X108.379 Y105.250 E1079.88531
G1 X108.379 Y104.093 E1080.17456
G1 X104.093 Y108.379 E1081.68982
G1 X102.936 Y108.379 E1081.97907
G1 X108.379 Y102.936 E1083.90338
G1 X108.379 Y101.779 E1084.19263
G1 X101.779 Y108.379 E1086.52601
G1 X100.622 Y108.379 E1086.81526
G1 X108.379 Y100.622 E1089.55770
G1 X108.379 Y99.465 E1089.84695
G1 X99.465 Y108.379 E1092.99844
G1 X98.308 Y108.379 E1093.28769
G1 X108.379 Y98.308 E1096.84826
G1 X108.379 Y97.151 E1097.13751
G1 X97.151 Y108.379 E1101.10713
G1 X95.994 Y108.379 E1101.39638
G1 X108.379 Y95.994 E1105.77506
G1 X108.379 Y94.837 E1106.06431
G1 X94.837 Y108.379 E1110.85206
G1 X93.680 Y108.379 E1111.14131
G1 X108.379 Y93.680 E1116.33811
G1 X108.379 Y92.523 E1116.62736
G1 X92.523 Y108.379 E1122.23323
G1 X91.621 Y108.123 E1122.46751
G1 X108.123 Y91.621 E1128.30185
G1 X106.966 Y91.621 E1128.59110
G1 X91.621 Y106.966 E1134.01639
G1 X91.621 Y105.809 E1134.30564
G1 X105.809 Y91.621 E1139.32186
G1 X104.652 Y91.621 E1139.61111
G1 X91.621 Y104.652 E1144.21827
G1 X91.621 Y103.495 E1144.50752
G1 X103.495 Y91.621 E1148.70563
G1 X102.338 Y91.621 E1148.99488
G1 X91.621 Y102.338 E1152.78391
G1 X91.621 Y101.181 E1153.07317
G1 X101.181 Y91.621 E1156.45314
G1 X100.024 Y91.621 E1156.74239
G1 X91.621 Y100.024 E1159.71331
G1 X91.621 Y98.867 E1160.00256
G1 X98.867 Y91.621 E1162.56441
G1 X97.710 Y91.621 E1162.85366
G1 X91.621 Y97.710 E1165.00646
G1 X91.621 Y96.553 E1165.29571
G1 X96.553 Y91.621 E1167.03944
G1 X95.396 Y91.621 E1167.32869
G1 X91.621 Y95.396 E1168.66336
G1 X91.621 Y94.239 E1168.95261
G1 X94.239 Y91.621 E1169.87822
G1 X93.082 Y91.621 E1170.16747
G1 X91.621 Y93.082 E1170.68401
G1 X91.621 Y91.925 E1170.97326
G1 X91.925 Y91.621 E1171.08075
G1 Z5.200 F7800.000
G1 X91.621 Y108.075 F7800.000
G1 X91.925 Y108.379 E1171.18823 F4505.536
G1 X93.082 Y108.379 E1171.47748
G1 X91.621 Y106.918 E1171.99403
G1 X91.621 Y105.761 E1172.28328
G1 X94.239 Y108.379 E1173.20889
G1 X95.396 Y108.379 E1173.49814
G1 X91.621 Y104.604 E1174.83281
G1 X91.621 Y103.447 E1175.12206
G1 X96.553 Y108.379 E1176.86579
G1 X97.710 Y108.379 E1177.15504
G1 X91.621 Y102.290 E1179.30783
G1 X91.621 Y101.133 E1179.59708
G1 X98.867 Y108.379 E1182.15893
G1 X100.024 Y108.379 E1182.44818
G1 X91.621 Y99.976 E1185.41910
G1 X91.621 Y98.819 E1185.70835
G1 X101.181 Y108.379 E1189.08833
G1 X102.338 Y108.379 E1189.37758
G1 X91.621 Y97.662 E1193.16661
G1 X91.621 Y96.505 E1193.45586
G1 X103.495 Y108.379 E1197.65396
G1 X104.652 Y108.379 E1197.94321
G1 X91.621 Y95.348 E1202.55038
G1 X91.621 Y94.191 E1202.83963
G1 X105.809 Y108.379 E1207.85585
G1 X106.966 Y108.379 E1208.14510
G1 X91.621 Y93.034 E1213.57038
G1 X91.621 Y91.877 E1213.85964
G1 X108.123 Y108.379 E1219.69398
G1 X108.379 Y107.477 E1219.92825
G1 X92.523 Y91.621 E1225.53412
G1 X93.680 Y91.621 E1225.82337
G1 X108.379 Y106.320 E1231.02018
G1 X108.379 Y105.163 E1231.30943
G1 X94.837 Y91.621 E1236.09718
G1 X95.994 Y91.621 E1236.38643
G1 X108.379 Y104.006 E1240.76511
G1 X108.379 Y102.849 E1241.05436
G1 X97.151 Y91.621 E1245.02398
G1 X98.308 Y91.621 E1245.31323
G1 X108.379 Y101.692 E1248.87379
G1 X108.379 Y100.535 E1249.16304
G1 X99.465 Y91.621 E1252.31454
G1 X100.622 Y91.621 E1252.60379
G1 X108.379 Y99.378 E1255.34623
G1 X108.379 Y98.221 E1255.63548
G1 X101.779 Y91.621 E1257.96886
G1 X102.936 Y91.621 E1258.25811
G1 X108.379 Y97.064 E1260.18243
G1 X108.379 Y95.907 E1260.47168
G1 X104.093 Y91.621 E1261.98693
G1 X105.250 Y91.621 E1262.27618
G1 X108.379 Y94.750 E1263.38237
G1 X108.379 Y93.593 E1263.67162
G1 X106.407 Y91.621 E1264.36875
G1 X107.564 Y91.621 E1264.65800
G1 X108.379 Y92.436 E1264.94607
G1 Z5.600 F7800.000
G1 X107.564 Y108.379 F7800.000
G1 X108.379 Y107.564 E1265.23414 F4505.536
G1 X108.379 Y106.407 E1265.52339
G1 X106.407 Y108.379 E1266.22052
G1 X105.250 Y108.379 E1266.50977
G1 X108.379 Y105.250 E1267.61596
G1 X108.379 Y104.093 E1267.90521
G1 X104.093 Y108.379 E1269.42047
G1 X102.936 Y108.379 E1269.70972
G1 X108.379 Y102.936 E1271.63403
G1 X108.379 Y101.779 E1271.92328
G1 X101.779 Y108.379 E1274.25666
G1 X100.622 Y108.379 E1274.54591
G1 X108.379 Y100.622 E1277.28835
G1 X108.379 Y99.465 E1277.57760
G1 X99.465 Y108.379 E1280.72910
G1 X98.308 Y108.379 E1281.01835
G1 X108.379 Y98.308 E1284.57891
G1 X108.379 Y97.151 E1284.86816
G1 X97.151 Y108.379 E1288.83778
G1 X95.994 Y108.379 E1289.12703
G1 X108.379 Y95.994 E1293.50571
G1 X108.379 Y94.837 E1293.79496
G1 X94.837 Y108.379 E1298.58271
G1 X93.680 Y108.379 E1298.87196
G1 X108.379 Y93.680 E1304.06877
G1 X108.379 Y92.523 E1304.35802
G1 X92.523 Y108.379 E1309.96388
G1 X91.621 Y108.123 E1310.19816
G1 X108.123 Y91.621 E1316.03250
G1 X106.966 Y91.621 E1316.32175
G1 X91.621 Y106.966 E1321.74704
G1 X91.621 Y105.809 E1322.03629
G1 X105.809 Y91.621 E1327.05251
G1 X104.652 Y91.621 E1327.34176
G1 X91.621 Y104.652 E1331.94892
G1 X91.621 Y103.495 E1332.23817
G1 X103.495 Y91.621 E1336.43628
G1 X102.338 Y91.621 E1336.72553
G1 X91.621 Y102.338 E1340.51457
G1 X91.621 Y101.181 E1340.80382
G1 X101.181 Y91.621 E1344.18379
G1 X100.024 Y91.621 E1344.47304
G1 X91.621 Y100.024 E1347.44396
G1 X91.621 Y98.867 E1347.73321
G1 X98.867 Y91.621 E1350.29506
G1 X97.710 Y91.621 E1350.58431
G1 X91.621 Y97.710 E1352.73711
G1 X91.621 Y96.553 E1353.02636
G1 X96.553 Y91.621 E1354.77009
G1 X95.396 Y91.621 E1355.05934
G1 X91.621 Y95.396 E1356.39401
G1 X91.621 Y94.239 E1356.68326
G1 X94.239 Y91.621 E1357.60887
G1 X93.082 Y91.621 E1357.89812
G1 X91.621 Y93.082 E1358.41466
G1 X91.621 Y91.925 E1358.70391
G1 X91.925 Y91.621 E1358.81140
G1 Z6.000 F7800.000
G1 X91.621 Y108.075 F7800.000
G1 X91.925 Y108.379 E1358.91888 F4505.536
G1 X93.082 Y108.379 E1359.20813
G1 X91.621 Y106.918 E1359.72468
G1 X91.621 Y105.761 E1360.01393
G1 X94.239 Y108.379 E1360.93954
G1 X95.396 Y108.379 E1361.22879
G1 X91.621 Y104.604 E1362.56346
G1 X91.621 Y103.447 E1362.85271
G1 X96.553 Y108.379 E1364.59644
G1 X97.710 Y108.379 E1364.88569
G1 X91.621 Y102.290 E1367.03848
G1 X91.621 Y101.133 E1367.32773
G1 X98.867 Y108.379 E1369.88958
G1 X100.024 Y108.379 E1370.17883
G1 X91.621 Y99.976 E1373.14975
G1 X91.621 Y98.819 E1373.43900
G1 X101.181 Y108.379 E1376.81898
G1 X102.338 Y108.379 E1377.10823
G1 X91.621 Y97.662 E1380.89726
G1 X91.621 Y96.505 E1381.18651
G1 X103.495 Y108.379 E1385.38462
G1 X104.652 Y108.379 E1385.67387
G1 X91.621 Y95.348 E1390.28103
G1 X91.621 Y94.191 E1390.57028
G1 X105.809 Y108.379 E1395.58650
G1 X106.966 Y108.379 E1395.87575
G1 X91.621 Y93.034 E1401.30104
G1 X91.621 Y91.877 E1401.59029
G1 X108.123 Y108.379 E1407.42463
G1 X108.379 Y107.477 E1407.65890
G1 X92.523 Y91.621 E1413.26477
G1 X93.680 Y91.621 E1413.55402
G1 X108.379 Y106.320 E1418.75083
G1 X108.379 Y105.163 E1419.04008
G1 X94.837 Y91.621 E1423.82783
G1 X95.994 Y91.621 E1424.11708
G1 X108.379 Y104.006 E1428.49576
G1 X108.379 Y102.849 E1428.78501
G1 X97.151 Y91.621 E1432.75463
G1 X98.308 Y91.621 E1433.04388
G1 X108.379 Y101.692 E1436.60444
G1 X108.379 Y100.535 E1436.89370
G1 X99.465 Y91.621 E1440.04520
G1 X100.622 Y91.621 E1440.33445
G1 X108.379 Y99.378 E1443.07688
G1 X108.379 Y98.221 E1443.36613
G1 X101.779 Y91.621 E1445.69951
G1 X102.936 Y91.621 E1445.98876
G1 X108.379 Y97.064 E1447.91308
G1 X108.379 Y95.907 E1448.20233
G1 X104.093 Y91.621 E1449.71758
G1 X105.250 Y91.621 E1450.00683
G1 X108.379 Y94.750 E1451.11302
G1 X108.379 Y93.593 E1451.40227
G1 X106.407 Y91.621 E1452.09940
G1 X107.564 Y91.621 E1452.38865
G1 X108.379 Y92.436 E1452.67672
G1 Z6.400 F7800.000
G1 X107.564 Y108.379 F7800.000
G1 X108.379 Y107.564 E1452.96479 F4505.536
G1 X108.379 Y106.407 E1453.25404
G1 X106.407 Y108.379 E1453.95117
G1 X105.250 Y108.379 E1454.24042
G1 X108.379 Y105.250 E1455.34661
G1 X108.379 Y104.093 E1455.63586
G1 X104.093 Y108.379 E1457.15112
G1 X102.936 Y108.379 E1457.44037
G1 X108.379 Y102.936 E1459.36468
G1 X108.379 Y101.779 E1459.65393
G1 X101.779 Y108.379 E1461.98731
G1 X100.622 Y108.379 E1462.27656
G1 X108.379 Y100.622 E1465.01900
G1 X108.379 Y99.465 E1465.30825
G1 X99.465 Y108.379 E1468.45975
G1 X98.308 Y108.379 E1468.74900
G1 X108.379 Y98.308 E1472.30956
G1 X108.379 Y97.151 E1472.59881
G1 X97.151 Y108.379 E1476.56843
G1 X95.994 Y108.379 E1476.85768
G1 X108.379 Y95.994 E1481.23636
G1 X108.379 Y94.837 E1481.52561
G1 X94.837 Y108.379 E1486.31336
G1 X93.680 Y108.379 E1486.60261
G1 X108.379 Y93.680 E1491.79942
G1 X108.379 Y92.523 E1492.08867
G1 X92.523 Y108.379 E1497.69453
G1 X91.621 Y108.123 E1497.92881
G1 X108.123 Y91.621 E1503.76315
G1 X106.966 Y91.621 E1504.05240
G1 X91.621 Y106.966 E1509.47769
G1 X91.621 Y105.809 E1509.76694
G1 X105.809 Y91.621 E1514.78316
G1 X104.652 Y91.621 E1515.07241
G1 X91.621 Y104.652 E1519.67958
G1 X91.621 Y103.495 E1519.96883
G1 X103.495 Y91.621 E1524.16693
G1 X102.338 Y91.621 E1524.45618
G1 X91.621 Y102.338 E1528.24522
G1 X91.621 Y101.181 E1528.53447
G1 X101.181 Y91.621 E1531.91444
G1 X100.024 Y91.621 E1532.20369
G1 X91.621 Y100.024 E1535.17461
G1 X91.621 Y98.867 E1535.46386
G1 X98.867 Y91.621 E1538.02571
G1 X97.710 Y91.621 E1538.31496
G1 X91.621 Y97.710 E1540.46776
G1 X91.621 Y96.553 E1540.75701
G1 X96.553 Y91.621 E1542.50074
G1 X95.396 Y91.621 E1542.78999
G1 X91.621 Y95.396 E1544.12466
G1 X91.621 Y94.239 E1544.41391
G1 X94.239 Y91.621 E1545.33952
G1 X93.082 Y91.621 E1545.62877
G1 X91.621 Y93.082 E1546.14531
G1 X91.621 Y91.925 E1546.43456
G1 X91.925 Y91.621 E1546.54205
G1 Z6.800 F7800.000
G1 X91.621 Y108.075 F7800.000
G1 X91.925 Y108.379 E1546.64953 F4505.536
G1 X93.082 Y108.379 E1546.93878
G1 X91.621 Y106.918 E1547.45533
G1 X91.621 Y105.761 E1547.74458
G1 X94.239 Y108.379 E1548.67019
G1 X95.396 Y108.379 E1548.95944
G1 X91.621 Y104.604 E1550.29411
G1 X91.621 Y103.447 E1550.58336
G1 X96.553 Y108.379 E1552.32709
G1 X97.710 Y108.379 E1552.61634
G1 X91.621 Y102.290 E1554.76913
G1 X91.621 Y101.133 E1555.05838
G1 X98.867 Y108.379 E1557.62023
G1 X100.024 Y108.379 E1557.90948
G1 X91.621 Y99.976 E1560.88040
G1 X91.621 Y98.819 E1561.16965
G1 X101.181 Y108.379 E1564.54963
G1 X102.338 Y108.379 E1564.83888
G1 X91.621 Y97.662 E1568.62792
G1 X91.621 Y96.505 E1568.91717
G1 X103.495 Y108.379 E1573.11527
G1 X104.652 Y108.379 E1573.40452
G1 X91.621 Y95.348 E1578.01168
G1 X91.621 Y94.191 E1578.30093
G1 X105.809 Y108.379 E1583.31715
G1 X106.966 Y108.379 E1583.60640
G1 X91.621 Y93.034 E1589.03169
G1 X91.621 Y91.877 E1589.32094
G1 X108.123 Y108.379 E1595.15528
G1 X108.379 Y107.477 E1595.38955
G1 X92.523 Y91.621 E1600.99542
G1 X93.680 Y91.621 E1601.28467
G1 X108.379 Y106.320 E1606.48148
G1 X108.379 Y105.163 E1606.77073
G1 X94.837 Y91.621 E1611.55848
G1 X95.994 Y91.621 E1611.84773
G1 X108.379 Y104.006 E1616.22641
G1 X108.379 Y102.849 E1616.51566
G1 X97.151 Y91.621 E1620.48528
G1 X98.308 Y91.621 E1620.77453
G1 X108.379 Y101.692 E1624.33510
G1 X108.379 Y100.535 E1624.62435
G1 X99.465 Y91.621 E1627.77585
G1 X100.622 Y91.621 E1628.06510
G1 X108.379 Y99.378 E1630.80753
G1 X108.379 Y98.221 E1631.09678
G1 X101.779 Y91.621 E1633.43016
G1 X102.936 Y91.621 E1633.71941
G1 X108.379 Y97.064 E1635.64373
G1 X108.379 Y95.907 E1635.93298
G1 X104.093 Y91.621 E1637.44823
G1 X105.250 Y91.621 E1637.73748
G1 X108.379 Y94.750 E1638.84367
G1 X108.379 Y93.593 E1639.13292
G1 X106.407 Y91.621 E1639.83005
G1 X107.564 Y91.621 E1640.11930
G1 X108.379 Y92.436 E1640.40737
G1 Z7.200 F7800.000
G1 X107.564 Y108.379 F7800.000
G1 X108.379 Y107.564 E1640.69544 F4505.536
G1 X108.379 Y106.407 E1640.98469
G1 X106.407 Y108.379 E1641.68182
G1 X105.250 Y108.379 E1641.97107
G1 X108.379 Y105.250 E1643.07726
G1 X108.379 Y104.093 E1643.36651
G1 X104.093 Y108.379 E1644.88177
G1 X102.936 Y108.379 E1645.17102
G1 X108.379 Y102.936 E1647.09533
G1 X108.379 Y101.779 E1647.38458
G1 X101.779 Y108.379 E1649.71796
G1 X100.622 Y108.379 E1650.00721
G1 X108.379 Y100.622 E1652.74965
G1 X108.379 Y99.465 E1653.03890
G1 X99.465 Y108.379 E1656.19040
G1 X98.308 Y108.379 E1656.47965
G1 X108.379 Y98.308 E1660.04021
G1 X108.379 Y97.151 E1660.32946
G1 X97.151 Y108.379 E1664.29908
G1 X95.994 Y108.379 E1664.58833
G1 X108.379 Y95.994 E1668.96701
G1 X108.379 Y94.837 E1669.25626
G1 X94.837 Y108.379 E1674.04401
G1 X93.680 Y108.379 E1674.33326
G1 X108.379 Y93.680 E1679.53007
G1 X108.379 Y92.523 E1679.81932
G1 X92.523 Y108.379 E1685.42518
G1 X91.621 Y108.123 E1685.65946
G1 X108.123 Y91.621 E1691.49380
G1 X106.966 Y91.621 E1691.78305
G1 X91.621 Y106.966 E1697.20834
G1 X91.621 Y105.809 E1697.49759
G1 X105.809 Y91.621 E1702.51381
G1 X104.652 Y91.621 E1702.80306
G1 X91.621 Y104.652 E1707.41023
G1 X91.621 Y103.495 E1707.69948
G1 X103.495 Y91.621 E1711.89758
G1 X102.338 Y91.621 E1712.18683
G1 X91.621 Y102.338 E1715.97587
G1 X91.621 Y101.181 E1716.26512
G1 X101.181 Y91.621 E1719.64509
G1 X100.024 Y91.621 E1719.93434
G1 X91.621 Y100.024 E1722.90526
G1 X91.621 Y98.867 E1723.19451
G1 X98.867 Y91.621 E1725.75636
G1 X97.710 Y91.621 E1726.04561
G1 X91.621 Y97.710 E1728.19841
G1 X91.621 Y96.553 E1728.48766
G1 X96.553 Y91.621 E1730.23139
G1 X95.396 Y91.621 E1730.52064
G1 X91.621 Y95.396 E1731.85531
G1 X91.621 Y94.239 E1732.14456
G1 X94.239 Y91.621 E1733.07017
G1 X93.082 Y91.621 E1733.35942
G1 X91.621 Y93.082 E1733.87596
G1 X91.621 Y91.925 E1734.16521
G1 X91.925 Y91.621 E1734.27270
G1 Z7.600 F7800.000
G1 X91.621 Y108.075 F7800.000
G1 X91.925 Y108.379 E1734.38018 F4505.536
G1 X93.082 Y108.379 E1734.66943
G1 X91.621 Y106.918 E1735.18598
G1 X91.621 Y105.761 E1735.47523
G1 X94.239 Y108.379 E1736.40084
G1 X95.396 Y108.379 E1736.69009
G1 X91.621 Y104.604 E1738.02476
G1 X91.621 Y103.447 E1738.31401
G1 X96.553 Y108.379 E1740.05774
G1 X97.710 Y108.379 E1740.34699
G1 X91.621 Y102.290 E1742.49978
G1 X91.621 Y101.133 E1742.78903
G1 X98.867 Y108.379 E1745.35088
G1 X100.024 Y108.379 E1745.64013
G1 X91.621 Y99.976 E1748.61105
G1 X91.621 Y98.819 E1748.90030
G1 X101.181 Y108.379 E1752.28028
G1 X102.338 Y108.379 E1752.56953
G1 X91.621 Y97.662 E1756.35857
G1 X91.621 Y96.505 E1756.64782
G1 X103.495 Y108.379 E1760.84592
G1 X104.652 Y108.379 E1761.13517
G1 X91.621 Y95.348 E1765.74233
G1 X91.621 Y94.191 E1766.03158
G1 X105.809 Y108.379 E1771.04780
G1 X106.966 Y108.379 E1771.33705
G1 X91.621 Y93.034 E1776.76234
G1 X91.621 Y91.877 E1777.05159
G1 X108.123 Y108.379 E1782.88593
G1 X108.379 Y107.477 E1783.12020
G1 X92.523 Y91.621 E1788.72607
G1 X93.680 Y91.621 E1789.01532
G1 X108.379 Y106.320 E1794.21213
G1 X108.379 Y105.163 E1794.50138
G1 X94.837 Y91.621 E1799.28913
G1 X95.994 Y91.621 E1799.57838
G1 X108.379 Y104.006 E1803.95706
G1 X108.379 Y102.849 E1804.24631
G1 X97.151 Y91.621 E1808.21593
G1 X98.308 Y91.621 E1808.50518
G1 X108.379 Y101.692 E1812.06575
G1 X108.379 Y100.535 E1812.35500
G1 X99.465 Y91.621 E1815.50650
G1 X100.622 Y91.621 E1815.79575
G1 X108.379 Y99.378 E1818.53818
G1 X108.379 Y98.221 E1818.82744
G1 X101.779 Y91.621 E1821.16081
G1 X102.936 Y91.621 E1821.45006
G1 X108.379 Y97.064 E1823.37438
G1 X108.379 Y95.907 E1823.66363
G1 X104.093 Y91.621 E1825.17888
G1 X105.250 Y91.621 E1825.46813
G1 X108.379 Y94.750 E1826.57432
G1 X108.379 Y93.593 E1826.86357
G1 X106.407 Y91.621 E1827.56070
G1 X107.564 Y91.621 E1827.84995
G1 X108.379 Y92.436 E1828.13802
G1 Z8.000 F7800.000
G1 X107.564 Y108.379 F7800.000
G1 X108.379 Y107.564 E1828.42609 F4505.536
G1 X108.379 Y106.407 E1828.71534
G1 X106.407 Y108.379 E1829.41247
G1 X105.250 Y108.379 E1829.70172
G1 X108.379 Y105.250 E1830.80791
G1 X108.379 Y104.093 E1831.09716
G1 X104.093 Y108.379 E1832.61242
G1 X102.936 Y108.379 E1832.90167
G1 X108.379 Y102.936 E1834.82598
G1 X108.379 Y101.779 E1835.11523
G1 X101.779 Y108.379 E1837.44861
G1 X100.622 Y108.379 E1837.73786
G1 X108.379 Y100.622 E1840.48030
G1 X108.379 Y99.465 E1840.76955
G1 X99.465 Y108.379 E1843.92105
G1 X98.308 Y108.379 E1844.21030
G1 X108.379 Y98.308 E1847.77086
G1 X108.379 Y97.151 E1848.06011
G1 X97.151 Y108.379 E1852.02973
G1 X95.994 Y108.379 E1852.31898
G1 X108.379 Y95.994 E1856.69766
G1 X108.379 Y94.837 E1856.98691
G1 X94.837 Y108.379 E1861.77466
G1 X93.680 Y108.379 E1862.06391
G1 X108.379 Y93.680 E1867.26072
G1 X108.379 Y92.523 E1867.54997
G1 X92.523 Y108.379 E1873.15584
G1 X91.621 Y108.123 E1873.39011
G1 X108.123 Y91.621 E1879.22445
G1 X106.966 Y91.621 E1879.51370
G1 X91.621 Y106.966 E1884.93899
G1 X91.621 Y105.809 E1885.22824
G1 X105.809 Y91.621 E1890.24446
G1 X104.652 Y91.621 E1890.53371
G1 X91.621 Y104.652 E1895.14088
G1 X91.621 Y103.495 E1895.43013
G1 X103.495 Y91.621 E1899.62823
G1 X102.338 Y91.621 E1899.91748
G1 X91.621 Y102.338 E1903.70652
G1 X91.621 Y101.181 E1903.99577
G1 X101.181 Y91.621 E1907.37574
G1 X100.024 Y91.621 E1907.66499
G1 X91.621 Y100.024 E1910.63591
G1 X91.621 Y98.867 E1910.92516
G1 X98.867 Y91.621 E1913.48702
G1 X97.710 Y91.621 E1913.77627
G1 X91.621 Y97.710 E1915.92906
G1 X91.621 Y96.553 E1916.21831
G1 X96.553 Y91.621 E1917.96204
G1 X95.396 Y91.621 E1918.25129
G1 X91.621 Y95.396 E1919.58596
G1 X91.621 Y94.239 E1919.87521
G1 X94.239 Y91.621 E1920.80082
G1 X93.082 Y91.621 E1921.09007
G1 X91.621 Y93.082 E1921.60661
G1 X91.621 Y91.925 E1921.89586
G1 X91.925 Y91.621 E1922.00335
G1 Z8.400 F7800.000
G1 X91.621 Y108.075 F7800.000
G1 X91.925 Y108.379 E1922.11083 F4505.536
G1 X93.082 Y108.379 E1922.40008
G1 X91.621 Y106.918 E1922.91663
G1 X91.621 Y105.761 E1923.20588
G1 X94.239 Y108.379 E1924.13149
G1 X95.396 Y108.379 E1924.42074
G1 X91.621 Y104.604 E1925.75541
G1 X91.621 Y103.447 E1926.04466
G1 X96.553 Y108.379 E1927.78839
G1 X97.710 Y108.379 E1928.07764
G1 X91.621 Y102.290 E1930.23043
G1 X91.621 Y101.133 E1930.51968
G1 X98.867 Y108.379 E1933.08153
G1 X100.024 Y108.379 E1933.37078
G1 X91.621 Y99.976 E1936.34170
G1 X91.621 Y98.819 E1936.63095
G1 X101.181 Y108.379 E1940.01093
G1 X102.338 Y108.379 E1940.30018
G1 X91.621 Y97.662 E1944.08922
G1 X91.621 Y96.505 E1944.37847
G1 X103.495 Y108.379 E1948.57657
G1 X104.652 Y108.379 E1948.86582
G1 X91.621 Y95.348 E1953.47298
G1 X91.621 Y94.191 E1953.76223
G1 X105.809 Y108.379 E1958.77845
G1 X106.966 Y108.379 E1959.06770
G1 X91.621 Y93.034 E1964.49299
G1 X91.621 Y91.877 E1964.78224
G1 X108.123 Y108.379 E1970.61658
G1 X108.379 Y107.477 E1970.85086
G1 X92.523 Y91.621 E1976.45672
G1 X93.680 Y91.621 E1976.74597
G1 X108.379 Y106.320 E1981.94278
G1 X108.379 Y105.163 E1982.23203
G1 X94.837 Y91.621 E1987.01978
G1 X95.994 Y91.621 E1987.30903
G1 X108.379 Y104.006 E1991.68771
G1 X108.379 Y102.849 E1991.97696
G1 X97.151 Y91.621 E1995.94658
G1 X98.308 Y91.621 E1996.23583
G1 X108.379 Y101.692 E1999.79640
G1 X108.379 Y100.535 E2000.08565
G1 X99.465 Y91.621 E2003.23715
G1 X100.622 Y91.621 E2003.52640
G1 X108.379 Y99.378 E2006.26884
G1 X108.379 Y98.221 E2006.55809
G1 X101.779 Y91.621 E2008.89146
G1 X102.936 Y91.621 E2009.18071
G1 X108.379 Y97.064 E2011.10503
G1 X108.379 Y95.907 E2011.39428
G1 X104.093 Y91.621 E2012.90953
G1 X105.250 Y91.621 E2013.19878
G1 X108.379 Y94.750 E2014.30497
G1 X108.379 Y93.593 E2014.59422
G1 X106.407 Y91.621 E2015.29135
G1 X107.564 Y91.621 E2015.58060
G1 X108.379 Y92.436 E2015.86867
G1 Z8.800 F7800.000
G1 X107.564 Y108.379 F7800.000
G1 X108.379 Y107.564 E2016.15674 F4505.536
G1 X108.379 Y106.407 E2016.44599
G1 X106.407 Y108.379 E2017.14312
G1 X105.250 Y108.379 E2017.43237
G1 X108.379 Y105.250 E2018.53856
G1 X108.379 Y104.093 E2018.82781
G1 X104.093 Y108.379 E2020.34307
G1 X102.936 Y108.379 E2020.63232
G1 X108.379 Y102.936 E2022.55663
G1 X108.379 Y101.779 E2022.84588
G1 X101.779 Y108.379 E2025.17926
G1 X100.622 Y108.379 E2025.46851
G1 X108.379 Y100.622 E2028.21095
G1 X108.379 Y99.465 E2028.50020
G1 X99.465 Y108.379 E2031.65170
G1 X98.308 Y108.379 E2031.94095
G1 X108.379 Y98.308 E2035.50151
G1 X108.379 Y97.151 E2035.79076
G1 X97.151 Y108.379 E2039.76038
G1 X95.994 Y108.379 E2040.04963
G1 X108.379 Y95.994 E2044.42831
G1 X108.379 Y94.837 E2044.71757
G1 X94.837 Y108.379 E2049.50531
G1 X93.680 Y108.379 E2049.79456
G1 X108.379 Y93.680 E2054.99137
G1 X108.379 Y92.523 E2055.28062
G1 X92.523 Y108.379 E2060.88649
G1 X91.621 Y108.123 E2061.12076
G1 X108.123 Y91.621 E2066.95510
G1 X106.966 Y91.621 E2067.24435
G1 X91.621 Y106.966 E2072.66964
G1 X91.621 Y105.809 E2072.95889
G1 X105.809 Y91.621 E2077.97511
G1 X104.652 Y91.621 E2078.26436
G1 X91.621 Y104.652 E2082.87153
G1 X91.621 Y103.495 E2083.16078
G1 X103.495 Y91.621 E2087.35888
G1 X102.338 Y91.621 E2087.64813
G1 X91.621 Y102.338 E2091.43717
G1 X91.621 Y101.181 E2091.72642
G1 X101.181 Y91.621 E2095.10640
G1 X100.024 Y91.621 E2095.39565
G1 X91.621 Y100.024 E2098.36656
G1 X91.621 Y98.867 E2098.65581
G1 X98.867 Y91.621 E2101.21767
G1 X97.710 Y91.621 E2101.50692
G1 X91.621 Y97.710 E2103.65971
G1 X91.621 Y96.553 E2103.94896
G1 X96.553 Y91.621 E2105.69269
G1 X95.396 Y91.621 E2105.98194
G1 X91.621 Y95.396 E2107.31661
G1 X91.621 Y94.239 E2107.60586
G1 X94.239 Y91.621 E2108.53147
G1 X93.082 Y91.621 E2108.82072
G1 X91.621 Y93.082 E2109.33726
G1 X91.621 Y91.925 E2109.62652
G1 X91.925 Y91.621 E2109.73400
G1 Z9.200 F7800.000
G1 X91.621 Y108.075 F7800.000
G1 X91.925 Y108.379 E2109.84148 F4505.536
G1 X93.082 Y108.379 E2110.13073
G1 X91.621 Y106.918 E2110.64728
G1 X91.621 Y105.761 E2110.93653
G1 X94.239 Y108.379 E2111.86214
G1 X95.396 Y108.379 E2112.15139
G1 X91.621 Y104.604 E2113.48606
G1 X91.621 Y103.447 E2113.77531
G1 X96.553 Y108.379 E2115.51904
G1 X97.710 Y108.379 E2115.80829
G1 X91.621 Y102.290 E2117.96108
G1 X91.621 Y101.133 E2118.25033
G1 X98.867 Y108.379 E2120.81219
G1 X100.024 Y108.379 E2121.10144
G1 X91.621 Y99.976 E2124.07235
G1 X91.621 Y98.819 E2124.36160
G1 X101.181 Y108.379 E2127.74158
G1 X102.338 Y108.379 E2128.03083
G1 X91.621 Y97.662 E2131.81987
G1 X91.621 Y96.505 E2132.10912
G1 X103.495 Y108.379 E2136.30722
G1 X104.652 Y108.379 E2136.59647
G1 X91.621 Y95.348 E2141.20363
G1 X91.621 Y94.191 E2141.49288
G1 X105.809 Y108.379 E2146.50910
G1 X106.966 Y108.379 E2146.79835
G1 X91.621 Y93.034 E2152.22364
G1 X91.621 Y91.877 E2152.51289
G1 X108.123 Y108.379 E2158.34723
G1 X108.379 Y107.477 E2158.58151
G1 X92.523 Y91.621 E2164.18737
G1 X93.680 Y91.621 E2164.47662
G1 X108.379 Y106.320 E2169.67343
G1 X108.379 Y105.163 E2169.96268
G1 X94.837 Y91.621 E2174.75043
G1 X95.994 Y91.621 E2175.03968
G1 X108.379 Y104.006 E2179.41836
G1 X108.379 Y102.849 E2179.70761
G1 X97.151 Y91.621 E2183.67724
G1 X98.308 Y91.621 E2183.96649
G1 X108.379 Y101.692 E2187.52705
G1 X108.379 Y100.535 E2187.81630
G1 X99.465 Y91.621 E2190.96780
G1 X100.622 Y91.621 E2191.25705
G1 X108.379 Y99.378 E2193.99949
G1 X108.379 Y98.221 E2194.28874
G1 X101.779 Y91.621 E2196.62211
G1 X102.936 Y91.621 E2196.91136
G1 X108.379 Y97.064 E2198.83568
G1 X108.379 Y95.907 E2199.12493
G1 X104.093 Y91.621 E2200.64018
G1 X105.250 Y91.621 E2200.92943
G1 X108.379 Y94.750 E2202.03562
G1 X108.379 Y93.593 E2202.32487
G1 X106.407 Y91.621 E2203.02201
G1 X107.564 Y91.621 E2203.31126
G1 X108.379 Y92.436 E2203.59932
G1 Z9.600 F7800.000
G1 X107.564 Y108.379 F7800.000
G1 X108.379 Y107.564 E2203.88739 F4505.536
G1 X108.379 Y106.407 E2204.17664
G1 X106.407 Y108.379 E2204.87377
G1 X105.250 Y108.379 E2205.16302
G1 X108.379 Y105.250 E2206.26922
G1 X108.379 Y104.093 E2206.55847
G1 X104.093 Y108.379 E2208.07372
G1 X102.936 Y108.379 E2208.36297
G1 X108.379 Y102.936 E2210.28728
G1 X108.379 Y101.779 E2210.57653
G1 X101.779 Y108.379 E2212.90991
G1 X100.622 Y108.379 E2213.19916
G1 X108.379 Y100.622 E2215.94160
G1 X108.379 Y99.465 E2216.23085
G1 X99.465 Y108.379 E2219.38235
G1 X98.308 Y108.379 E2219.67160
G1 X108.379 Y98.308 E2223.23216
G1 X108.379 Y97.151 E2223.52141
G1 X97.151 Y108.379 E2227.49103
G1 X95.994 Y108.379 E2227.78028
G1 X108.379 Y95.994 E2232.15897
G1 X108.379 Y94.837 E2232.44822
G1 X94.837 Y108.379 E2237.23596
G1 X93.680 Y108.379 E2237.52521
G1 X108.379 Y93.680 E2242.72202
G1 X108.379 Y92.523 E2243.01127
G1 X92.523 Y108.379 E2248.61714
G1 X91.621 Y108.123 E2248.85141
G1 X108.123 Y91.621 E2254.68576
G1 X106.966 Y91.621 E2254.97501
G1 X91.621 Y106.966 E2260.40029
G1 X91.621 Y105.809 E2260.68954
G1 X105.809 Y91.621 E2265.70576
G1 X104.652 Y91.621 E2265.99501
G1 X91.621 Y104.652 E2270.60218
G1 X91.621 Y103.495 E2270.89143
G1 X103.495 Y91.621 E2275.08953
G1 X102.338 Y91.621 E2275.37878
G1 X91.621 Y102.338 E2279.16782
G1 X91.621 Y101.181 E2279.45707
G1 X101.181 Y91.621 E2282.83705
G1 X100.024 Y91.621 E2283.12630
G1 X91.621 Y100.024 E2286.09721
G1 X91.621 Y98.867 E2286.38646
G1 X98.867 Y91.621 E2288.94832
G1 X97.710 Y91.621 E2289.23757
G1 X91.621 Y97.710 E2291.39036
G1 X91.621 Y96.553 E2291.67961
G1 X96.553 Y91.621 E2293.42334
G1 X95.396 Y91.621 E2293.71259
G1 X91.621 Y95.396 E2295.04726
G1 X91.621 Y94.239 E2295.33651
G1 X94.239 Y91.621 E2296.26212
G1 X93.082 Y91.621 E2296.55137
G1 X91.621 Y93.082 E2297.06792
G1 X91.621 Y91.925 E2297.35717
G1 X91.925 Y91.621 E2297.46465
G1 Z10.000 F7800.000
G1 E2295.46465 F2400.00000
G92 E0
G1 X91.621 Y108.075 F7800.000
G1 E2.00000 F2400.00000
G1 X91.925 Y108.379 E2.10748 F4505.536
G1 X93.082 Y108.379 E2.39673
G1 X91.621 Y106.918 E2.91328
G1 X91.621 Y105.761 E3.20253
G1 X94.239 Y108.379 E4.12814
G1 X95.396 Y108.379 E4.41739
G1 X91.621 Y104.604 E5.75206
G1 X91.621 Y103.447 E6.04131
G1 X96.553 Y108.379 E7.78504
G1 X97.710 Y108.379 E8.07429
G1 X91.621 Y102.290 E10.22708
G1 X91.621 Y101.133 E10.51633
G1 X98.867 Y108.379 E13.07818
G1 X100.024 Y108.379 E13.36743
G1 X91.621 Y99.976 E16.33835
G1 X91.621 Y98.819 E16.62760
G1 X101.181 Y108.379 E20.00758
G1 X102.338 Y108.379 E20.29683
G1 X91.621 Y97.662 E24.08587
G1 X91.621 Y96.505 E24.37512
G1 X103.495 Y108.379 E28.57322
G1 X104.652 Y108.379 E28.86247
G1 X91.621 Y95.348 E33.46963
G1 X91.621 Y94.191 E33.75888
G1 X105.809 Y108.379 E38.77510
G1 X106.966 Y108.379 E39.06435
G1 X91.621 Y93.034 E44.48964
G1 X91.621 Y91.877 E44.77889
G1 X108.123 Y108.379 E50.61323
G1 X108.379 Y107.477 E50.84751
G1 X92.523 Y91.621 E56.45337
G1 X93.680 Y91.621 E56.74262
G1 X108.379 Y106.320 E61.93943
G1 X108.379 Y105.163 E62.22868
G1 X94.837 Y91.621 E67.01643
G1 X95.994 Y91.621 E67.30568
G1 X108.379 Y104.006 E71.68436
G1 X108.379 Y102.849 E71.97361
G1 X97.151 Y91.621 E75.94324
G1 X98.308 Y91.621 E76.23249
G1 X108.379 Y101.692 E79.79305
G1 X108.379 Y100.535 E80.08230
G1 X99.465 Y91.621 E83.23380
G1 X100.622 Y91.621 E83.52305
G1 X108.379 Y99.378 E86.26549
G1 X108.379 Y98.221 E86.55474
G1 X101.779 Y91.621 E88.88811
G1 X102.936 Y91.621 E89.17736
G1 X108.379 Y97.064 E91.10168
G1 X108.379 Y95.907 E91.39093
G1 X104.093 Y91.621 E92.90618
G1 X105.250 Y91.621 E93.19543
G1 X108.379 Y94.750 E94.30162
G1 X108.379 Y93.593 E94.59087
G1 X106.407 Y91.621 E95.28800
G1 X107.564 Y91.621 E95.57725
G1 X108.379 Y92.436 E95.86532
G1 E93.86532 F2400.00000
G92 E0
M107
M104 S0 ; turn off temperature
G28 X0  ; home X axis
M84     ; disable motors

; filament used = 2389.3mm (1.9cm3)

; avoid_crossing_perimeters = 0
; bed_shape = 0x0,200x0,200x200,0x200
; bed_temperature = 0
; before_layer_gcode = 
; bridge_acceleration = 0
; bridge_fan_speed = 100
; brim_width = 0
; complete_objects = 0
; cooling = 1
; default_acceleration = 0
; disable_fan_first_layers = 3
; duplicate_distance = 6
; end_gcode = M104 S0 ; turn off temperature\nG28 X0  ; home X axis\nM84     ; disable motors\n
; extruder_clearance_height = 20
; extruder_clearance_radius = 20
; extruder_offset = 0x0
; extrusion_axis = E
; extrusion_multiplier = 1
; fan_always_on = 0
; fan_below_layer_time = 60
; filament_colour = #FFFFFF
; filament_diameter = 1
; first_layer_acceleration = 0
; first_layer_bed_temperature = 0
; first_layer_extrusion_width = 200%
; first_layer_speed = 30
; first_layer_temperature = 200
; gcode_arcs = 0
; gcode_comments = 0
; gcode_flavor = reprap
; infill_acceleration = 0
; infill_first = 0
; layer_gcode = 
; max_fan_speed = 100
; max_print_speed = 80
; max_volumetric_speed = 0
; min_fan_speed = 35
; min_print_speed = 10
; min_skirt_length = 0
; notes = 
; nozzle_diameter = 0.5
; only_retract_when_crossing_perimeters = 1
; ooze_prevention = 0
; output_filename_format = [input_filename_base].gcode
; perimeter_acceleration = 0
; post_process = 
; pressure_advance = 0
; resolution = 0
; retract_before_travel = 2
; retract_layer_change = 0
; retract_length = 2
; retract_length_toolchange = 10
; retract_lift = 0
; retract_restart_extra = 0
; retract_restart_extra_toolchange = 0
; retract_speed = 40
; skirt_distance = 6
; skirt_height = 1
; skirts = 0
; slowdown_below_layer_time = 5
; spiral_vase = 0
; standby_temperature_delta = -5
; start_gcode = G28 ; home all axes\nG1 Z5 F5000 ; lift nozzle\n
; temperature = 200
; threads = 2
; toolchange_gcode = 
; travel_speed = 130
; use_firmware_retraction = 0
; use_relative_e_distances = 0
; use_volumetric_e = 0
; vibration_limit = 0
; wipe = 0
; z_offset = 0
; dont_support_bridges = 1
; extrusion_width = 0
; first_layer_height = 0.4
; infill_only_where_needed = 0
; interface_shells = 0
; layer_height = 0.4
; raft_layers = 0
; seam_position = aligned
; support_material = 0
; support_material_angle = 0
; support_material_contact_distance = 0.2
; support_material_enforce_layers = 0
; support_material_extruder = 1
; support_material_extrusion_width = 0
; support_material_interface_extruder = 1
; support_material_interface_layers = 3
; support_material_interface_spacing = 0
; support_material_interface_speed = 100%
; support_material_pattern = pillars
; support_material_spacing = 2.5
; support_material_speed = 60
; support_material_threshold = 0
; xy_size_compensation = 0
; bottom_solid_layers = 0
; bridge_flow_ratio = 1
; bridge_speed = 60
; external_fill_pattern = rectilinear
; external_perimeter_extrusion_width = 0
; external_perimeter_speed = 50%
; external_perimeters_first = 0
; extra_perimeters = 1
; fill_angle = 45
; fill_density = 60%
; fill_pattern = rectilinear
; gap_fill_speed = 20
; infill_every_layers = 1
; infill_extruder = 1
; infill_extrusion_width = 0
; infill_overlap = 15%
; infill_speed = 80
; overhangs = 1
; perimeter_extruder = 1
; perimeter_extrusion_width = 0
; perimeter_speed = 60
; perimeters = 0
; small_perimeter_speed = 15
; solid_infill_below_area = 70
; solid_infill_every_layers = 0
; solid_infill_extruder = 1
; solid_infill_extrusion_width = 0
; solid_infill_speed = 20
; thin_walls = 1
; top_infill_extrusion_width = 0
; top_solid_infill_speed = 15
; top_solid_layers = 0
