; generated by Slic3r 1.2.9 on 2019-09-18 at 14:11:34

; external perimeters extrusion width = 0.50mm
; perimeters extrusion width = 0.58mm
; infill extrusion width = 0.58mm
; solid infill extrusion width = 0.58mm
; top infill extrusion width = 0.58mm

M107
M104 S200 ; set temperature
G28 ; home all axes
G1 Z5 F5000 ; lift nozzle

M109 S200 ; wait for temperature to be reached
G21 ; set units to millimeters
G90 ; use absolute coordinates
M82 ; use absolute distances for extrusion
G92 E0
G1 Z0.400 F7800.000
G1 E-2.00000 F2400.00000
G92 E0
G1 X90.371 Y109.381 F7800.000
G1 E2.00000 F2400.00000
G1 X90.619 Y109.629 E2.12767 F1800.000
G1 X91.324 Y109.629 E2.38374
G1 X90.371 Y108.676 E2.87355
G1 X90.371 Y107.972 E3.12962
G1 X92.028 Y109.629 E3.98157
G1 X92.732 Y109.629 E4.23765
G1 X90.371 Y107.268 E5.45174
G1 X90.371 Y106.564 E5.70782
G1 X93.436 Y109.629 E7.28406
G1 X94.140 Y109.629 E7.54013
G1 X90.371 Y105.860 E9.47851
G1 X90.371 Y105.156 E9.73458
G1 X94.844 Y109.629 E12.03511
G1 X95.548 Y109.629 E12.29118
G1 X90.371 Y104.452 E14.95385
G1 X90.371 Y103.748 E15.20992
G1 X96.252 Y109.629 E18.23474
G1 X96.956 Y109.629 E18.49081
G1 X90.371 Y103.044 E21.87776
G1 X90.371 Y102.340 E22.13384
G1 X97.660 Y109.629 E25.88293
G1 X98.364 Y109.629 E26.13901
G1 X90.371 Y101.636 E30.25025
G1 X90.371 Y100.932 E30.50632
G1 X99.068 Y109.629 E34.97971
G1 X99.772 Y109.629 E35.23578
G1 X90.371 Y100.228 E40.07131
G1 X90.371 Y99.524 E40.32738
G1 X100.476 Y109.629 E45.52505
G1 X101.180 Y109.629 E45.78112
G1 X90.371 Y98.820 E51.34094
G1 X90.371 Y98.116 E51.59701
G1 X101.884 Y109.629 E57.51897
G1 X102.588 Y109.629 E57.77504
G1 X90.371 Y97.412 E64.05914
G1 X90.371 Y96.708 E64.31522
G1 X103.292 Y109.629 E70.96146
G1 X103.996 Y109.629 E71.21753
G1 X90.371 Y96.004 E78.22592
G1 X90.371 Y95.300 E78.48199
G1 X104.700 Y109.629 E85.85252
G1 X105.404 Y109.629 E86.10860
G1 X90.371 Y94.596 E93.84127
G1 X90.371 Y93.892 E94.09734
G1 X106.108 Y109.629 E102.19216
G1 X106.813 Y109.629 E102.44823
G1 X90.371 Y93.187 E110.90519
G1 X90.371 Y92.483 E111.16126
G1 X107.517 Y109.629 E119.98036
G1 X108.221 Y109.629 E120.23644
G1 X90.371 Y91.779 E129.41768
G1 X90.371 Y91.075 E129.67376
G1 X108.925 Y109.629 E139.21715
G1 X109.609 Y109.609 E139.46606
G1 X90.391 Y90.391 E149.35103
G1 X91.075 Y90.371 E149.59993
G1 X109.629 Y108.925 E159.14335
G1 X109.629 Y108.221 E159.39943
G1 X91.779 Y90.371 E168.58070
G1 X92.483 Y90.371 E168.83678
G1 X109.629 Y107.517 E177.65591
G1 X109.629 Y106.813 E177.91199
G1 X93.187 Y90.371 E186.36898
G1 X93.891 Y90.371 E186.62505
G1 X109.629 Y106.109 E194.71990
G1 X109.629 Y105.404 E194.97597
G1 X94.596 Y90.371 E202.70868
G1 X95.300 Y90.371 E202.96475
G1 X109.629 Y104.700 E210.33532
G1 X109.629 Y103.996 E210.59139
G1 X96.004 Y90.371 E217.59981
G1 X96.708 Y90.371 E217.85588
G1 X109.629 Y103.292 E224.50216
G1 X109.629 Y102.588 E224.75823
G1 X97.412 Y90.371 E231.04237
G1 X98.116 Y90.371 E231.29844
G1 X109.629 Y101.884 E237.22043
G1 X109.629 Y101.180 E237.47650
G1 X98.820 Y90.371 E243.03635
G1 X99.524 Y90.371 E243.29242
G1 X109.629 Y100.476 E248.49013
G1 X109.629 Y99.772 E248.74620
G1 X100.228 Y90.371 E253.58176
G1 X100.932 Y90.371 E253.83784
G1 X109.629 Y99.068 E258.31125
G1 X109.629 Y98.364 E258.56733
G1 X101.636 Y90.371 E262.67860
G1 X102.340 Y90.371 E262.93468
G1 X109.629 Y97.660 E266.68381
G1 X109.629 Y96.956 E266.93988
G1 X103.044 Y90.371 E270.32687
G1 X103.748 Y90.371 E270.58294
G1 X109.629 Y96.252 E273.60779
G1 X109.629 Y95.548 E273.86386
G1 X104.452 Y90.371 E276.52656
G1 X105.156 Y90.371 E276.78264
G1 X109.629 Y94.844 E279.08320
G1 X109.629 Y94.140 E279.33927
G1 X105.860 Y90.371 E281.27769
G1 X106.564 Y90.371 E281.53376
G1 X109.629 Y93.436 E283.11003
G1 X109.629 Y92.732 E283.36611
G1 X107.268 Y90.371 E284.58023
G1 X107.972 Y90.371 E284.83631
G1 X109.629 Y92.028 E285.68829
G1 X109.629 Y91.324 E285.94437
G1 X108.676 Y90.371 E286.43421
G1 X109.380 Y90.371 E286.69029
G1 X109.629 Y90.620 E286.81799
G1 Z0.800 F7800.000
G1 X109.380 Y109.629 F7800.000
G1 X109.629 Y109.380 E286.90576 F4800.000
G1 X109.629 Y108.676 E287.08177
G1 X108.676 Y109.629 E287.41846
G1 X107.972 Y109.629 E287.59447
G1 X109.629 Y107.972 E288.18008
G1 X109.629 Y107.268 E288.35609
G1 X107.268 Y109.629 E289.19062
G1 X106.564 Y109.629 E289.36663
G1 X109.629 Y106.564 E290.45007
G1 X109.629 Y105.860 E290.62608
G1 X105.860 Y109.629 E291.95844
G1 X105.156 Y109.629 E292.13445
G1 X109.629 Y105.156 E293.71573
G1 X109.629 Y104.452 E293.89174
G1 X104.452 Y109.629 E295.72194
G1 X103.748 Y109.629 E295.89795
G1 X109.629 Y103.748 E297.97706
G1 X109.629 Y103.044 E298.15307
G1 X103.044 Y109.629 E300.48110
G1 X102.340 Y109.629 E300.65711
G1 X109.629 Y102.340 E303.23406
G1 X109.629 Y101.636 E303.41007
G1 X101.636 Y109.629 E306.23593
G1 X100.932 Y109.629 E306.41194
G1 X109.629 Y100.932 E309.48673
G1 X109.629 Y100.228 E309.66274
G1 X100.228 Y109.629 E312.98644
G1 X99.524 Y109.629 E313.16245
G1 X109.629 Y99.524 E316.73506
G1 X109.629 Y98.820 E316.91107
G1 X98.820 Y109.629 E320.73261
G1 X98.116 Y109.629 E320.90862
G1 X109.629 Y98.116 E324.97907
G1 X109.629 Y97.412 E325.15508
G1 X97.412 Y109.629 E329.47445
G1 X96.708 Y109.629 E329.65046
G1 X109.629 Y96.708 E334.21874
G1 X109.629 Y96.004 E334.39475
G1 X96.004 Y109.629 E339.21196
G1 X95.300 Y109.629 E339.38797
G1 X109.629 Y95.300 E344.45409
G1 X109.629 Y94.596 E344.63010
G1 X94.596 Y109.629 E349.94513
G1 X93.891 Y109.629 E350.12114
G1 X109.629 Y93.891 E355.68510
G1 X109.629 Y93.187 E355.86111
G1 X93.187 Y109.629 E361.67398
G1 X92.483 Y109.629 E361.84999
G1 X109.629 Y92.483 E367.91178
G1 X109.629 Y91.779 E368.08779
G1 X91.779 Y109.629 E374.39850
G1 X91.075 Y109.629 E374.57451
G1 X109.629 Y91.075 E381.13413
G1 X109.609 Y90.391 E381.30521
G1 X90.391 Y109.609 E388.09960
G1 X90.371 Y108.925 E388.27068
G1 X108.925 Y90.371 E394.83029
G1 X108.221 Y90.371 E395.00630
G1 X90.371 Y108.221 E401.31698
G1 X90.371 Y107.517 E401.49299
G1 X107.517 Y90.371 E407.55476
G1 X106.813 Y90.371 E407.73077
G1 X90.371 Y106.813 E413.54361
G1 X90.371 Y106.108 E413.71963
G1 X106.108 Y90.371 E419.28356
G1 X105.404 Y90.371 E419.45957
G1 X90.371 Y105.404 E424.77458
G1 X90.371 Y104.700 E424.95059
G1 X104.700 Y90.371 E430.01669
G1 X103.996 Y90.371 E430.19270
G1 X90.371 Y103.996 E435.00988
G1 X90.371 Y103.292 E435.18589
G1 X103.292 Y90.371 E439.75415
G1 X102.588 Y90.371 E439.93016
G1 X90.371 Y102.588 E444.24951
G1 X90.371 Y101.884 E444.42552
G1 X101.884 Y90.371 E448.49595
G1 X101.180 Y90.371 E448.67196
G1 X90.371 Y101.180 E452.49347
G1 X90.371 Y100.476 E452.66948
G1 X100.476 Y90.371 E456.24207
G1 X99.772 Y90.371 E456.41808
G1 X90.371 Y99.772 E459.74176
G1 X90.371 Y99.068 E459.91777
G1 X99.068 Y90.371 E462.99252
G1 X98.364 Y90.371 E463.16854
G1 X90.371 Y98.364 E465.99438
G1 X90.371 Y97.660 E466.17039
G1 X97.660 Y90.371 E468.74731
G1 X96.956 Y90.371 E468.92332
G1 X90.371 Y96.956 E471.25133
G1 X90.371 Y96.252 E471.42734
G1 X96.252 Y90.371 E473.50643
G1 X95.548 Y90.371 E473.68244
G1 X90.371 Y95.548 E475.51261
G1 X90.371 Y94.844 E475.68862
G1 X94.844 Y90.371 E477.26988
G1 X94.140 Y90.371 E477.44589
G1 X90.371 Y94.140 E478.77822
G1 X90.371 Y93.436 E478.95423
G1 X93.436 Y90.371 E480.03765
G1 X92.732 Y90.371 E480.21367
G1 X90.371 Y92.732 E481.04817
G1 X90.371 Y92.028 E481.22418
G1 X92.028 Y90.371 E481.80976
G1 X91.324 Y90.371 E481.98578
G1 X90.371 Y91.324 E482.32244
G1 X90.371 Y90.619 E482.49845
G1 X90.619 Y90.371 E482.58620
G1 Z1.200 F7800.000
G1 X90.371 Y109.381 F7800.000
G1 X90.619 Y109.629 E482.67395 F4800.000
G1 X91.324 Y109.629 E482.84997
G1 X90.371 Y108.676 E483.18663
G1 X90.371 Y107.972 E483.36264
G1 X92.028 Y109.629 E483.94823
G1 X92.732 Y109.629 E484.12424
G1 X90.371 Y107.268 E484.95874
G1 X90.371 Y106.564 E485.13475
G1 X93.436 Y109.629 E486.21817
G1 X94.140 Y109.629 E486.39418
G1 X90.371 Y105.860 E487.72652
G1 X90.371 Y105.156 E487.90253
G1 X94.844 Y109.629 E489.48379
G1 X95.548 Y109.629 E489.65980
G1 X90.371 Y104.452 E491.48997
G1 X90.371 Y103.748 E491.66598
G1 X96.252 Y109.629 E493.74507
G1 X96.956 Y109.629 E493.92108
G1 X90.371 Y103.044 E496.24909
G1 X90.371 Y102.340 E496.42510
G1 X97.660 Y109.629 E499.00202
G1 X98.364 Y109.629 E499.17803
G1 X90.371 Y101.636 E502.00387
G1 X90.371 Y100.932 E502.17988
G1 X99.068 Y109.629 E505.25464
G1 X99.772 Y109.629 E505.43065
G1 X90.371 Y100.228 E508.75433
G1 X90.371 Y99.524 E508.93034
G1 X100.476 Y109.629 E512.50293
G1 X101.180 Y109.629 E512.67894
G1 X90.371 Y98.820 E516.50045
G1 X90.371 Y98.116 E516.67646
G1 X101.884 Y109.629 E520.74689
G1 X102.588 Y109.629 E520.92290
G1 X90.371 Y97.412 E525.24224
G1 X90.371 Y96.708 E525.41826
G1 X103.292 Y109.629 E529.98652
G1 X103.996 Y109.629 E530.16253
G1 X90.371 Y96.004 E534.97971
G1 X90.371 Y95.300 E535.15572
G1 X104.700 Y109.629 E540.22182
G1 X105.404 Y109.629 E540.39783
G1 X90.371 Y94.596 E545.71284
G1 X90.371 Y93.892 E545.88885
G1 X106.108 Y109.629 E551.45278
G1 X106.813 Y109.629 E551.62879
G1 X90.371 Y93.187 E557.44164
G1 X90.371 Y92.483 E557.61765
G1 X107.517 Y109.629 E563.67942
G1 X108.221 Y109.629 E563.85543
G1 X90.371 Y91.779 E570.16611
G1 X90.371 Y91.075 E570.34212
G1 X108.925 Y109.629 E576.90172
G1 X109.609 Y109.609 E577.07281
G1 X90.391 Y90.391 E583.86720
G1 X91.075 Y90.371 E584.03828
G1 X109.629 Y108.925 E590.59790
G1 X109.629 Y108.221 E590.77391
G1 X91.779 Y90.371 E597.08462
G1 X92.483 Y90.371 E597.26063
G1 X109.629 Y107.517 E603.32242
G1 X109.629 Y106.813 E603.49843
G1 X93.187 Y90.371 E609.31130
G1 X93.891 Y90.371 E609.48731
G1 X109.629 Y106.109 E615.05126
G1 X109.629 Y105.404 E615.22728
G1 X94.596 Y90.371 E620.54231
G1 X95.300 Y90.371 E620.71832
G1 X109.629 Y104.700 E625.78444
G1 X109.629 Y103.996 E625.96045
G1 X96.004 Y90.371 E630.77765
G1 X96.708 Y90.371 E630.95367
G1 X109.629 Y103.292 E635.52195
G1 X109.629 Y102.588 E635.69796
G1 X97.412 Y90.371 E640.01733
G1 X98.116 Y90.371 E640.19334
G1 X109.629 Y101.884 E644.26379
G1 X109.629 Y101.180 E644.43980
G1 X98.820 Y90.371 E648.26133
G1 X99.524 Y90.371 E648.43735
G1 X109.629 Y100.476 E652.00996
G1 X109.629 Y99.772 E652.18597
G1 X100.228 Y90.371 E655.50967
G1 X100.932 Y90.371 E655.68568
G1 X109.629 Y99.068 E658.76046
G1 X109.629 Y98.364 E658.93647
G1 X101.636 Y90.371 E661.76234
G1 X102.340 Y90.371 E661.93835
G1 X109.629 Y97.660 E664.51530
G1 X109.629 Y96.956 E664.69131
G1 X103.044 Y90.371 E667.01934
G1 X103.748 Y90.371 E667.19535
G1 X109.629 Y96.252 E669.27446
G1 X109.629 Y95.548 E669.45047
G1 X104.452 Y90.371 E671.28067
G1 X105.156 Y90.371 E671.45668
G1 X109.629 Y94.844 E673.03795
G1 X109.629 Y94.140 E673.21396
G1 X105.860 Y90.371 E674.54633
G1 X106.564 Y90.371 E674.72234
G1 X109.629 Y93.436 E675.80578
G1 X109.629 Y92.732 E675.98179
G1 X107.268 Y90.371 E676.81632
G1 X107.972 Y90.371 E676.99233
G1 X109.629 Y92.028 E677.57794
G1 X109.629 Y91.324 E677.75395
G1 X108.676 Y90.371 E678.09064
G1 X109.380 Y90.371 E678.26665
G1 X109.629 Y90.620 E678.35442
M106 S239.7
G1 Z1.600 F7800.000
G1 X109.380 Y109.629 F7800.000
G1 X109.629 Y109.380 E678.44220 F4800.000
G1 X109.629 Y108.676 E678.61821
G1 X108.676 Y109.629 E678.95490
G1 X107.972 Y109.629 E679.13091
G1 X109.629 Y107.972 E679.71652
G1 X109.629 Y107.268 E679.89253
G1 X107.268 Y109.629 E680.72705
G1 X106.564 Y109.629 E680.90307
G1 X109.629 Y106.564 E681.98651
G1 X109.629 Y105.860 E682.16252
G1 X105.860 Y109.629 E683.49488
G1 X105.156 Y109.629 E683.67089
G1 X109.629 Y105.156 E685.25217
G1 X109.629 Y104.452 E685.42818
G1 X104.452 Y109.629 E687.25837
G1 X103.748 Y109.629 E687.43439
G1 X109.629 Y103.748 E689.51350
G1 X109.629 Y103.044 E689.68951
G1 X103.044 Y109.629 E692.01754
G1 X102.340 Y109.629 E692.19355
G1 X109.629 Y102.340 E694.77050
G1 X109.629 Y101.636 E694.94651
G1 X101.636 Y109.629 E697.77237
G1 X100.932 Y109.629 E697.94838
G1 X109.629 Y100.932 E701.02316
G1 X109.629 Y100.228 E701.19917
G1 X100.228 Y109.629 E704.52287
G1 X99.524 Y109.629 E704.69888
G1 X109.629 Y99.524 E708.27150
G1 X109.629 Y98.820 E708.44751
G1 X98.820 Y109.629 E712.26904
G1 X98.116 Y109.629 E712.44505
G1 X109.629 Y98.116 E716.51550
G1 X109.629 Y97.412 E716.69152
G1 X97.412 Y109.629 E721.01088
G1 X96.708 Y109.629 E721.18689
G1 X109.629 Y96.708 E725.75518
G1 X109.629 Y96.004 E725.93119
G1 X96.004 Y109.629 E730.74839
G1 X95.300 Y109.629 E730.92440
G1 X109.629 Y95.300 E735.99052
G1 X109.629 Y94.596 E736.16653
G1 X94.596 Y109.629 E741.48157
G1 X93.891 Y109.629 E741.65758
G1 X109.629 Y93.891 E747.22153
G1 X109.629 Y93.187 E747.39755
G1 X93.187 Y109.629 E753.21042
G1 X92.483 Y109.629 E753.38643
G1 X109.629 Y92.483 E759.44822
G1 X109.629 Y91.779 E759.62423
G1 X91.779 Y109.629 E765.93493
G1 X91.075 Y109.629 E766.11094
G1 X109.629 Y91.075 E772.67057
G1 X109.609 Y90.391 E772.84165
G1 X90.391 Y109.609 E779.63603
G1 X90.371 Y108.925 E779.80712
G1 X108.925 Y90.371 E786.36672
G1 X108.221 Y90.371 E786.54273
G1 X90.371 Y108.221 E792.85342
G1 X90.371 Y107.517 E793.02943
G1 X107.517 Y90.371 E799.09119
G1 X106.813 Y90.371 E799.26720
G1 X90.371 Y106.813 E805.08005
G1 X90.371 Y106.108 E805.25606
G1 X106.108 Y90.371 E810.81999
G1 X105.404 Y90.371 E810.99600
G1 X90.371 Y105.404 E816.31102
G1 X90.371 Y104.700 E816.48703
G1 X104.700 Y90.371 E821.55313
G1 X103.996 Y90.371 E821.72914
G1 X90.371 Y103.996 E826.54632
G1 X90.371 Y103.292 E826.72233
G1 X103.292 Y90.371 E831.29059
G1 X102.588 Y90.371 E831.46660
G1 X90.371 Y102.588 E835.78594
G1 X90.371 Y101.884 E835.96195
G1 X101.884 Y90.371 E840.03238
G1 X101.180 Y90.371 E840.20839
G1 X90.371 Y101.180 E844.02990
G1 X90.371 Y100.476 E844.20591
G1 X100.476 Y90.371 E847.77851
G1 X99.772 Y90.371 E847.95452
G1 X90.371 Y99.772 E851.27819
G1 X90.371 Y99.068 E851.45420
G1 X99.068 Y90.371 E854.52896
G1 X98.364 Y90.371 E854.70497
G1 X90.371 Y98.364 E857.53081
G1 X90.371 Y97.660 E857.70682
G1 X97.660 Y90.371 E860.28375
G1 X96.956 Y90.371 E860.45976
G1 X90.371 Y96.956 E862.78776
G1 X90.371 Y96.252 E862.96378
G1 X96.252 Y90.371 E865.04286
G1 X95.548 Y90.371 E865.21888
G1 X90.371 Y95.548 E867.04905
G1 X90.371 Y94.844 E867.22506
G1 X94.844 Y90.371 E868.80631
G1 X94.140 Y90.371 E868.98232
G1 X90.371 Y94.140 E870.31466
G1 X90.371 Y93.436 E870.49067
G1 X93.436 Y90.371 E871.57409
G1 X92.732 Y90.371 E871.75010
G1 X90.371 Y92.732 E872.58460
G1 X90.371 Y92.028 E872.76062
G1 X92.028 Y90.371 E873.34620
G1 X91.324 Y90.371 E873.52221
G1 X90.371 Y91.324 E873.85888
G1 X90.371 Y90.619 E874.03489
G1 X90.619 Y90.371 E874.12264
G1 Z2.000 F7800.000
G1 X90.371 Y109.381 F7800.000
G1 X90.619 Y109.629 E874.21039 F4800.000
G1 X91.324 Y109.629 E874.38640
G1 X90.371 Y108.676 E874.72307
G1 X90.371 Y107.972 E874.89908
G1 X92.028 Y109.629 E875.48467
G1 X92.732 Y109.629 E875.66068
G1 X90.371 Y107.268 E876.49518
G1 X90.371 Y106.564 E876.67119
G1 X93.436 Y109.629 E877.75461
G1 X94.140 Y109.629 E877.93062
G1 X90.371 Y105.860 E879.26296
G1 X90.371 Y105.156 E879.43897
G1 X94.844 Y109.629 E881.02022
G1 X95.548 Y109.629 E881.19623
G1 X90.371 Y104.452 E883.02641
G1 X90.371 Y103.748 E883.20242
G1 X96.252 Y109.629 E885.28151
G1 X96.956 Y109.629 E885.45752
G1 X90.371 Y103.044 E887.78552
G1 X90.371 Y102.340 E887.96153
G1 X97.660 Y109.629 E890.53846
G1 X98.364 Y109.629 E890.71447
G1 X90.371 Y101.636 E893.54031
G1 X90.371 Y100.932 E893.71632
G1 X99.068 Y109.629 E896.79108
G1 X99.772 Y109.629 E896.96709
G1 X90.371 Y100.228 E900.29076
G1 X90.371 Y99.524 E900.46677
G1 X100.476 Y109.629 E904.03937
G1 X101.180 Y109.629 E904.21538
G1 X90.371 Y98.820 E908.03689
G1 X90.371 Y98.116 E908.21290
G1 X101.884 Y109.629 E912.28333
G1 X102.588 Y109.629 E912.45934
G1 X90.371 Y97.412 E916.77868
G1 X90.371 Y96.708 E916.95469
G1 X103.292 Y109.629 E921.52295
G1 X103.996 Y109.629 E921.69897
G1 X90.371 Y96.004 E926.51615
G1 X90.371 Y95.300 E926.69216
G1 X104.700 Y109.629 E931.75825
G1 X105.404 Y109.629 E931.93426
G1 X90.371 Y94.596 E937.24928
G1 X90.371 Y93.892 E937.42529
G1 X106.108 Y109.629 E942.98922
G1 X106.813 Y109.629 E943.16523
G1 X90.371 Y93.187 E948.97808
G1 X90.371 Y92.483 E949.15409
G1 X107.517 Y109.629 E955.21585
G1 X108.221 Y109.629 E955.39187
G1 X90.371 Y91.779 E961.70255
G1 X90.371 Y91.075 E961.87856
G1 X108.925 Y109.629 E968.43816
G1 X109.609 Y109.609 E968.60925
G1 X90.391 Y90.391 E975.40363
G1 X91.075 Y90.371 E975.57471
G1 X109.629 Y108.925 E982.13434
G1 X109.629 Y108.221 E982.31035
G1 X91.779 Y90.371 E988.62105
G1 X92.483 Y90.371 E988.79707
G1 X109.629 Y107.517 E994.85885
G1 X109.629 Y106.813 E995.03487
G1 X93.187 Y90.371 E1000.84774
G1 X93.891 Y90.371 E1001.02375
G1 X109.629 Y106.109 E1006.58770
G1 X109.629 Y105.404 E1006.76371
G1 X94.596 Y90.371 E1012.07875
G1 X95.300 Y90.371 E1012.25476
G1 X109.629 Y104.700 E1017.32088
G1 X109.629 Y103.996 E1017.49689
G1 X96.004 Y90.371 E1022.31409
G1 X96.708 Y90.371 E1022.49010
G1 X109.629 Y103.292 E1027.05839
G1 X109.629 Y102.588 E1027.23440
G1 X97.412 Y90.371 E1031.55377
G1 X98.116 Y90.371 E1031.72978
G1 X109.629 Y101.884 E1035.80023
G1 X109.629 Y101.180 E1035.97624
G1 X98.820 Y90.371 E1039.79777
G1 X99.524 Y90.371 E1039.97378
G1 X109.629 Y100.476 E1043.54640
G1 X109.629 Y99.772 E1043.72241
G1 X100.228 Y90.371 E1047.04611
G1 X100.932 Y90.371 E1047.22212
G1 X109.629 Y99.068 E1050.29690
G1 X109.629 Y98.364 E1050.47291
G1 X101.636 Y90.371 E1053.29877
G1 X102.340 Y90.371 E1053.47479
G1 X109.629 Y97.660 E1056.05173
G1 X109.629 Y96.956 E1056.22774
G1 X103.044 Y90.371 E1058.55577
G1 X103.748 Y90.371 E1058.73178
G1 X109.629 Y96.252 E1060.81090
G1 X109.629 Y95.548 E1060.98691
G1 X104.452 Y90.371 E1062.81710
G1 X105.156 Y90.371 E1062.99311
G1 X109.629 Y94.844 E1064.57439
G1 X109.629 Y94.140 E1064.75040
G1 X105.860 Y90.371 E1066.08276
G1 X106.564 Y90.371 E1066.25877
G1 X109.629 Y93.436 E1067.34222
G1 X109.629 Y92.732 E1067.51823
G1 X107.268 Y90.371 E1068.35275
G1 X107.972 Y90.371 E1068.52876
G1 X109.629 Y92.028 E1069.11437
G1 X109.629 Y91.324 E1069.29038
G1 X108.676 Y90.371 E1069.62707
G1 X109.380 Y90.371 E1069.80309
G1 X109.629 Y90.620 E1069.89086
G1 Z2.400 F7800.000
G1 X109.380 Y109.629 F7800.000
G1 X109.629 Y109.380 E1069.97863 F4800.000
G1 X109.629 Y108.676 E1070.15464
G1 X108.676 Y109.629 E1070.49134
G1 X107.972 Y109.629 E1070.66735
G1 X109.629 Y107.972 E1071.25295
G1 X109.629 Y107.268 E1071.42897
G1 X107.268 Y109.629 E1072.26349
G1 X106.564 Y109.629 E1072.43950
G1 X109.629 Y106.564 E1073.52295
G1 X109.629 Y105.860 E1073.69896
G1 X105.860 Y109.629 E1075.03132
G1 X105.156 Y109.629 E1075.20733
G1 X109.629 Y105.156 E1076.78861
G1 X109.629 Y104.452 E1076.96462
G1 X104.452 Y109.629 E1078.79481
G1 X103.748 Y109.629 E1078.97082
G1 X109.629 Y103.748 E1081.04993
G1 X109.629 Y103.044 E1081.22595
G1 X103.044 Y109.629 E1083.55397
G1 X102.340 Y109.629 E1083.72999
G1 X109.629 Y102.340 E1086.30693
G1 X109.629 Y101.636 E1086.48294
G1 X101.636 Y109.629 E1089.30881
G1 X100.932 Y109.629 E1089.48482
G1 X109.629 Y100.932 E1092.55960
G1 X109.629 Y100.228 E1092.73561
G1 X100.228 Y109.629 E1096.05931
G1 X99.524 Y109.629 E1096.23532
G1 X109.629 Y99.524 E1099.80794
G1 X109.629 Y98.820 E1099.98395
G1 X98.820 Y109.629 E1103.80548
G1 X98.116 Y109.629 E1103.98149
G1 X109.629 Y98.116 E1108.05194
G1 X109.629 Y97.412 E1108.22795
G1 X97.412 Y109.629 E1112.54732
G1 X96.708 Y109.629 E1112.72333
G1 X109.629 Y96.708 E1117.29162
G1 X109.629 Y96.004 E1117.46763
G1 X96.004 Y109.629 E1122.28483
G1 X95.300 Y109.629 E1122.46084
G1 X109.629 Y95.300 E1127.52696
G1 X109.629 Y94.596 E1127.70297
G1 X94.596 Y109.629 E1133.01801
G1 X93.891 Y109.629 E1133.19402
G1 X109.629 Y93.891 E1138.75797
G1 X109.629 Y93.187 E1138.93398
G1 X93.187 Y109.629 E1144.74685
G1 X92.483 Y109.629 E1144.92286
G1 X109.629 Y92.483 E1150.98465
G1 X109.629 Y91.779 E1151.16066
G1 X91.779 Y109.629 E1157.47137
G1 X91.075 Y109.629 E1157.64738
G1 X109.629 Y91.075 E1164.20700
G1 X109.609 Y90.391 E1164.37808
G1 X90.391 Y109.609 E1171.17247
G1 X90.371 Y108.925 E1171.34356
G1 X108.925 Y90.371 E1177.90316
G1 X108.221 Y90.371 E1178.07917
G1 X90.371 Y108.221 E1184.38985
G1 X90.371 Y107.517 E1184.56586
G1 X107.517 Y90.371 E1190.62763
G1 X106.813 Y90.371 E1190.80364
G1 X90.371 Y106.813 E1196.61649
G1 X90.371 Y106.108 E1196.79250
G1 X106.108 Y90.371 E1202.35643
G1 X105.404 Y90.371 E1202.53244
G1 X90.371 Y105.404 E1207.84745
G1 X90.371 Y104.700 E1208.02347
G1 X104.700 Y90.371 E1213.08956
G1 X103.996 Y90.371 E1213.26557
G1 X90.371 Y103.996 E1218.08275
G1 X90.371 Y103.292 E1218.25876
G1 X103.292 Y90.371 E1222.82702
G1 X102.588 Y90.371 E1223.00304
G1 X90.371 Y102.588 E1227.32238
G1 X90.371 Y101.884 E1227.49839
G1 X101.884 Y90.371 E1231.56882
G1 X101.180 Y90.371 E1231.74483
G1 X90.371 Y101.180 E1235.56634
G1 X90.371 Y100.476 E1235.74235
G1 X100.476 Y90.371 E1239.31494
G1 X99.772 Y90.371 E1239.49095
G1 X90.371 Y99.772 E1242.81463
G1 X90.371 Y99.068 E1242.99064
G1 X99.068 Y90.371 E1246.06540
G1 X98.364 Y90.371 E1246.24141
G1 X90.371 Y98.364 E1249.06725
G1 X90.371 Y97.660 E1249.24326
G1 X97.660 Y90.371 E1251.82018
G1 X96.956 Y90.371 E1251.99619
G1 X90.371 Y96.956 E1254.32420
G1 X90.371 Y96.252 E1254.50021
G1 X96.252 Y90.371 E1256.57930
G1 X95.548 Y90.371 E1256.75531
G1 X90.371 Y95.548 E1258.58548
G1 X90.371 Y94.844 E1258.76149
G1 X94.844 Y90.371 E1260.34275
G1 X94.140 Y90.371 E1260.51876
G1 X90.371 Y94.140 E1261.85110
G1 X90.371 Y93.436 E1262.02711
G1 X93.436 Y90.371 E1263.11053
G1 X92.732 Y90.371 E1263.28654
G1 X90.371 Y92.732 E1264.12104
G1 X90.371 Y92.028 E1264.29705
G1 X92.028 Y90.371 E1264.88264
G1 X91.324 Y90.371 E1265.05865
G1 X90.371 Y91.324 E1265.39532
G1 X90.371 Y90.619 E1265.57133
G1 X90.619 Y90.371 E1265.65908
G1 Z2.800 F7800.000
G1 X90.371 Y109.381 F7800.000
G1 X90.619 Y109.629 E1265.74683 F4800.000
G1 X91.324 Y109.629 E1265.92284
G1 X90.371 Y108.676 E1266.25951
G1 X90.371 Y107.972 E1266.43552
G1 X92.028 Y109.629 E1267.02110
G1 X92.732 Y109.629 E1267.19711
G1 X90.371 Y107.268 E1268.03162
G1 X90.371 Y106.564 E1268.20763
G1 X93.436 Y109.629 E1269.29105
G1 X94.140 Y109.629 E1269.46706
G1 X90.371 Y105.860 E1270.79939
G1 X90.371 Y105.156 E1270.97541
G1 X94.844 Y109.629 E1272.55666
G1 X95.548 Y109.629 E1272.73267
G1 X90.371 Y104.452 E1274.56284
G1 X90.371 Y103.748 E1274.73885
G1 X96.252 Y109.629 E1276.81794
G1 X96.956 Y109.629 E1276.99395
G1 X90.371 Y103.044 E1279.32196
G1 X90.371 Y102.340 E1279.49797
G1 X97.660 Y109.629 E1282.07489
G1 X98.364 Y109.629 E1282.25090
G1 X90.371 Y101.636 E1285.07675
G1 X90.371 Y100.932 E1285.25276
G1 X99.068 Y109.629 E1288.32751
G1 X99.772 Y109.629 E1288.50352
G1 X90.371 Y100.228 E1291.82720
G1 X90.371 Y99.524 E1292.00321
G1 X100.476 Y109.629 E1295.57580
G1 X101.180 Y109.629 E1295.75181
G1 X90.371 Y98.820 E1299.57332
G1 X90.371 Y98.116 E1299.74934
G1 X101.884 Y109.629 E1303.81976
G1 X102.588 Y109.629 E1303.99577
G1 X90.371 Y97.412 E1308.31512
G1 X90.371 Y96.708 E1308.49113
G1 X103.292 Y109.629 E1313.05939
G1 X103.996 Y109.629 E1313.23540
G1 X90.371 Y96.004 E1318.05258
G1 X90.371 Y95.300 E1318.22859
G1 X104.700 Y109.629 E1323.29469
G1 X105.404 Y109.629 E1323.47070
G1 X90.371 Y94.596 E1328.78571
G1 X90.371 Y93.892 E1328.96172
G1 X106.108 Y109.629 E1334.52566
G1 X106.813 Y109.629 E1334.70167
G1 X90.371 Y93.187 E1340.51451
G1 X90.371 Y92.483 E1340.69053
G1 X107.517 Y109.629 E1346.75229
G1 X108.221 Y109.629 E1346.92830
G1 X90.371 Y91.779 E1353.23899
G1 X90.371 Y91.075 E1353.41500
G1 X108.925 Y109.629 E1359.97460
G1 X109.609 Y109.609 E1360.14568
G1 X90.391 Y90.391 E1366.94007
G1 X91.075 Y90.371 E1367.11115
G1 X109.629 Y108.925 E1373.67077
G1 X109.629 Y108.221 E1373.84679
G1 X91.779 Y90.371 E1380.15749
G1 X92.483 Y90.371 E1380.33350
G1 X109.629 Y107.517 E1386.39529
G1 X109.629 Y106.813 E1386.57130
G1 X93.187 Y90.371 E1392.38417
G1 X93.891 Y90.371 E1392.56018
G1 X109.629 Y106.109 E1398.12414
G1 X109.629 Y105.404 E1398.30015
G1 X94.596 Y90.371 E1403.61518
G1 X95.300 Y90.371 E1403.79120
G1 X109.629 Y104.700 E1408.85731
G1 X109.629 Y103.996 E1409.03333
G1 X96.004 Y90.371 E1413.85053
G1 X96.708 Y90.371 E1414.02654
G1 X109.629 Y103.292 E1418.59482
G1 X109.629 Y102.588 E1418.77084
G1 X97.412 Y90.371 E1423.09020
G1 X98.116 Y90.371 E1423.26621
G1 X109.629 Y101.884 E1427.33666
G1 X109.629 Y101.180 E1427.51267
G1 X98.820 Y90.371 E1431.33421
G1 X99.524 Y90.371 E1431.51022
G1 X109.629 Y100.476 E1435.08283
G1 X109.629 Y99.772 E1435.25884
G1 X100.228 Y90.371 E1438.58254
G1 X100.932 Y90.371 E1438.75855
G1 X109.629 Y99.068 E1441.83334
G1 X109.629 Y98.364 E1442.00935
G1 X101.636 Y90.371 E1444.83521
G1 X102.340 Y90.371 E1445.01122
G1 X109.629 Y97.660 E1447.58817
G1 X109.629 Y96.956 E1447.76418
G1 X103.044 Y90.371 E1450.09221
G1 X103.748 Y90.371 E1450.26822
G1 X109.629 Y96.252 E1452.34733
G1 X109.629 Y95.548 E1452.52334
G1 X104.452 Y90.371 E1454.35354
G1 X105.156 Y90.371 E1454.52955
G1 X109.629 Y94.844 E1456.11083
G1 X109.629 Y94.140 E1456.28684
G1 X105.860 Y90.371 E1457.61920
G1 X106.564 Y90.371 E1457.79521
G1 X109.629 Y93.436 E1458.87865
G1 X109.629 Y92.732 E1459.05466
G1 X107.268 Y90.371 E1459.88919
G1 X107.972 Y90.371 E1460.06520
G1 X109.629 Y92.028 E1460.65081
G1 X109.629 Y91.324 E1460.82682
G1 X108.676 Y90.371 E1461.16351
G1 X109.380 Y90.371 E1461.33952
G1 X109.629 Y90.620 E1461.42730
G1 Z3.200 F7800.000
G1 X109.380 Y109.629 F7800.000
G1 X109.629 Y109.380 E1461.51507 F4800.000
G1 X109.629 Y108.676 E1461.69108
G1 X108.676 Y109.629 E1462.02777
G1 X107.972 Y109.629 E1462.20378
G1 X109.629 Y107.972 E1462.78939
G1 X109.629 Y107.268 E1462.96540
G1 X107.268 Y109.629 E1463.79993
G1 X106.564 Y109.629 E1463.97594
G1 X109.629 Y106.564 E1465.05938
G1 X109.629 Y105.860 E1465.23539
G1 X105.860 Y109.629 E1466.56775
G1 X105.156 Y109.629 E1466.74376
G1 X109.629 Y105.156 E1468.32504
G1 X109.629 Y104.452 E1468.50105
G1 X104.452 Y109.629 E1470.33125
G1 X103.748 Y109.629 E1470.50726
G1 X109.629 Y103.748 E1472.58637
G1 X109.629 Y103.044 E1472.76238
G1 X103.044 Y109.629 E1475.09041
G1 X102.340 Y109.629 E1475.26642
G1 X109.629 Y102.340 E1477.84337
G1 X109.629 Y101.636 E1478.01938
G1 X101.636 Y109.629 E1480.84524
G1 X100.932 Y109.629 E1481.02125
G1 X109.629 Y100.932 E1484.09604
G1 X109.629 Y100.228 E1484.27205
G1 X100.228 Y109.629 E1487.59575
G1 X99.524 Y109.629 E1487.77176
G1 X109.629 Y99.524 E1491.34437
G1 X109.629 Y98.820 E1491.52038
G1 X98.820 Y109.629 E1495.34192
G1 X98.116 Y109.629 E1495.51793
G1 X109.629 Y98.116 E1499.58838
G1 X109.629 Y97.412 E1499.76439
G1 X97.412 Y109.629 E1504.08376
G1 X96.708 Y109.629 E1504.25977
G1 X109.629 Y96.708 E1508.82805
G1 X109.629 Y96.004 E1509.00406
G1 X96.004 Y109.629 E1513.82126
G1 X95.300 Y109.629 E1513.99728
G1 X109.629 Y95.300 E1519.06340
G1 X109.629 Y94.596 E1519.23941
G1 X94.596 Y109.629 E1524.55444
G1 X93.891 Y109.629 E1524.73045
G1 X109.629 Y93.891 E1530.29441
G1 X109.629 Y93.187 E1530.47042
G1 X93.187 Y109.629 E1536.28329
G1 X92.483 Y109.629 E1536.45930
G1 X109.629 Y92.483 E1542.52109
G1 X109.629 Y91.779 E1542.69710
G1 X91.779 Y109.629 E1549.00781
G1 X91.075 Y109.629 E1549.18382
G1 X109.629 Y91.075 E1555.74344
G1 X109.609 Y90.391 E1555.91452
G1 X90.391 Y109.609 E1562.70891
G1 X90.371 Y108.925 E1562.87999
G1 X108.925 Y90.371 E1569.43959
G1 X108.221 Y90.371 E1569.61561
G1 X90.371 Y108.221 E1575.92629
G1 X90.371 Y107.517 E1576.10230
G1 X107.517 Y90.371 E1582.16407
G1 X106.813 Y90.371 E1582.34008
G1 X90.371 Y106.813 E1588.15292
G1 X90.371 Y106.108 E1588.32894
G1 X106.108 Y90.371 E1593.89287
G1 X105.404 Y90.371 E1594.06888
G1 X90.371 Y105.404 E1599.38389
G1 X90.371 Y104.700 E1599.55990
G1 X104.700 Y90.371 E1604.62600
G1 X103.996 Y90.371 E1604.80201
G1 X90.371 Y103.996 E1609.61919
G1 X90.371 Y103.292 E1609.79520
G1 X103.292 Y90.371 E1614.36346
G1 X102.588 Y90.371 E1614.53947
G1 X90.371 Y102.588 E1618.85882
G1 X90.371 Y101.884 E1619.03483
G1 X101.884 Y90.371 E1623.10525
G1 X101.180 Y90.371 E1623.28127
G1 X90.371 Y101.180 E1627.10278
G1 X90.371 Y100.476 E1627.27879
G1 X100.476 Y90.371 E1630.85138
G1 X99.772 Y90.371 E1631.02739
G1 X90.371 Y99.772 E1634.35107
G1 X90.371 Y99.068 E1634.52708
G1 X99.068 Y90.371 E1637.60183
G1 X98.364 Y90.371 E1637.77785
G1 X90.371 Y98.364 E1640.60369
G1 X90.371 Y97.660 E1640.77970
G1 X97.660 Y90.371 E1643.35662
G1 X96.956 Y90.371 E1643.53263
G1 X90.371 Y96.956 E1645.86064
G1 X90.371 Y96.252 E1646.03665
G1 X96.252 Y90.371 E1648.11574
G1 X95.548 Y90.371 E1648.29175
G1 X90.371 Y95.548 E1650.12192
G1 X90.371 Y94.844 E1650.29793
G1 X94.844 Y90.371 E1651.87919
G1 X94.140 Y90.371 E1652.05520
G1 X90.371 Y94.140 E1653.38753
G1 X90.371 Y93.436 E1653.56354
G1 X93.436 Y90.371 E1654.64696
G1 X92.732 Y90.371 E1654.82298
G1 X90.371 Y92.732 E1655.65748
G1 X90.371 Y92.028 E1655.83349
G1 X92.028 Y90.371 E1656.41907
G1 X91.324 Y90.371 E1656.59508
G1 X90.371 Y91.324 E1656.93175
G1 X90.371 Y90.619 E1657.10776
G1 X90.619 Y90.371 E1657.19551
G1 Z3.600 F7800.000
G1 X90.371 Y109.381 F7800.000
G1 X90.619 Y109.629 E1657.28326 F4800.000
G1 X91.324 Y109.629 E1657.45928
G1 X90.371 Y108.676 E1657.79594
G1 X90.371 Y107.972 E1657.97195
G1 X92.028 Y109.629 E1658.55754
G1 X92.732 Y109.629 E1658.73355
G1 X90.371 Y107.268 E1659.56805
G1 X90.371 Y106.564 E1659.74406
G1 X93.436 Y109.629 E1660.82748
G1 X94.140 Y109.629 E1661.00349
G1 X90.371 Y105.860 E1662.33583
G1 X90.371 Y105.156 E1662.51184
G1 X94.844 Y109.629 E1664.09310
G1 X95.548 Y109.629 E1664.26911
G1 X90.371 Y104.452 E1666.09928
G1 X90.371 Y103.748 E1666.27529
G1 X96.252 Y109.629 E1668.35438
G1 X96.956 Y109.629 E1668.53039
G1 X90.371 Y103.044 E1670.85840
G1 X90.371 Y102.340 E1671.03441
G1 X97.660 Y109.629 E1673.61133
G1 X98.364 Y109.629 E1673.78734
G1 X90.371 Y101.636 E1676.61318
G1 X90.371 Y100.932 E1676.78919
G1 X99.068 Y109.629 E1679.86395
G1 X99.772 Y109.629 E1680.03996
G1 X90.371 Y100.228 E1683.36364
G1 X90.371 Y99.524 E1683.53965
G1 X100.476 Y109.629 E1687.11224
G1 X101.180 Y109.629 E1687.28825
G1 X90.371 Y98.820 E1691.10976
G1 X90.371 Y98.116 E1691.28577
G1 X101.884 Y109.629 E1695.35620
G1 X102.588 Y109.629 E1695.53221
G1 X90.371 Y97.412 E1699.85155
G1 X90.371 Y96.708 E1700.02757
G1 X103.292 Y109.629 E1704.59583
G1 X103.996 Y109.629 E1704.77184
G1 X90.371 Y96.004 E1709.58902
G1 X90.371 Y95.300 E1709.76503
G1 X104.700 Y109.629 E1714.83113
G1 X105.404 Y109.629 E1715.00714
G1 X90.371 Y94.596 E1720.32215
G1 X90.371 Y93.892 E1720.49816
G1 X106.108 Y109.629 E1726.06209
G1 X106.813 Y109.629 E1726.23810
G1 X90.371 Y93.187 E1732.05095
G1 X90.371 Y92.483 E1732.22696
G1 X107.517 Y109.629 E1738.28873
G1 X108.221 Y109.629 E1738.46474
G1 X90.371 Y91.779 E1744.77542
G1 X90.371 Y91.075 E1744.95143
G1 X108.925 Y109.629 E1751.51103
G1 X109.609 Y109.609 E1751.68212
G1 X90.391 Y90.391 E1758.47651
G1 X91.075 Y90.371 E1758.64759
G1 X109.629 Y108.925 E1765.20721
G1 X109.629 Y108.221 E1765.38322
G1 X91.779 Y90.371 E1771.69393
G1 X92.483 Y90.371 E1771.86994
G1 X109.629 Y107.517 E1777.93173
G1 X109.629 Y106.813 E1778.10774
G1 X93.187 Y90.371 E1783.92061
G1 X93.891 Y90.371 E1784.09662
G1 X109.629 Y106.109 E1789.66057
G1 X109.629 Y105.404 E1789.83659
G1 X94.596 Y90.371 E1795.15162
G1 X95.300 Y90.371 E1795.32763
G1 X109.629 Y104.700 E1800.39375
G1 X109.629 Y103.996 E1800.56976
G1 X96.004 Y90.371 E1805.38696
G1 X96.708 Y90.371 E1805.56298
G1 X109.629 Y103.292 E1810.13126
G1 X109.629 Y102.588 E1810.30727
G1 X97.412 Y90.371 E1814.62664
G1 X98.116 Y90.371 E1814.80265
G1 X109.629 Y101.884 E1818.87310
G1 X109.629 Y101.180 E1819.04911
G1 X98.820 Y90.371 E1822.87064
G1 X99.524 Y90.371 E1823.04666
G1 X109.629 Y100.476 E1826.61927
G1 X109.629 Y99.772 E1826.79528
G1 X100.228 Y90.371 E1830.11898
G1 X100.932 Y90.371 E1830.29499
G1 X109.629 Y99.068 E1833.36977
G1 X109.629 Y98.364 E1833.54578
G1 X101.636 Y90.371 E1836.37165
G1 X102.340 Y90.371 E1836.54766
G1 X109.629 Y97.660 E1839.12461
G1 X109.629 Y96.956 E1839.30062
G1 X103.044 Y90.371 E1841.62865
G1 X103.748 Y90.371 E1841.80466
G1 X109.629 Y96.252 E1843.88377
G1 X109.629 Y95.548 E1844.05978
G1 X104.452 Y90.371 E1845.88997
G1 X105.156 Y90.371 E1846.06599
G1 X109.629 Y94.844 E1847.64726
G1 X109.629 Y94.140 E1847.82327
G1 X105.860 Y90.371 E1849.15563
G1 X106.564 Y90.371 E1849.33165
G1 X109.629 Y93.436 E1850.41509
G1 X109.629 Y92.732 E1850.59110
G1 X107.268 Y90.371 E1851.42563
G1 X107.972 Y90.371 E1851.60164
G1 X109.629 Y92.028 E1852.18724
G1 X109.629 Y91.324 E1852.36326
G1 X108.676 Y90.371 E1852.69995
G1 X109.380 Y90.371 E1852.87596
G1 X109.629 Y90.620 E1852.96373
G1 Z4.000 F7800.000
G1 X109.380 Y109.629 F7800.000
G1 X109.629 Y109.380 E1853.05151 F4800.000
G1 X109.629 Y108.676 E1853.22752
G1 X108.676 Y109.629 E1853.56421
G1 X107.972 Y109.629 E1853.74022
G1 X109.629 Y107.972 E1854.32583
G1 X109.629 Y107.268 E1854.50184
G1 X107.268 Y109.629 E1855.33636
G1 X106.564 Y109.629 E1855.51238
G1 X109.629 Y106.564 E1856.59582
G1 X109.629 Y105.860 E1856.77183
G1 X105.860 Y109.629 E1858.10419
G1 X105.156 Y109.629 E1858.28020
G1 X109.629 Y105.156 E1859.86148
G1 X109.629 Y104.452 E1860.03749
G1 X104.452 Y109.629 E1861.86768
G1 X103.748 Y109.629 E1862.04370
G1 X109.629 Y103.748 E1864.12281
G1 X109.629 Y103.044 E1864.29882
G1 X103.044 Y109.629 E1866.62685
G1 X102.340 Y109.629 E1866.80286
G1 X109.629 Y102.340 E1869.37981
G1 X109.629 Y101.636 E1869.55582
G1 X101.636 Y109.629 E1872.38168
G1 X100.932 Y109.629 E1872.55769
G1 X109.629 Y100.932 E1875.63247
G1 X109.629 Y100.228 E1875.80848
G1 X100.228 Y109.629 E1879.13218
G1 X99.524 Y109.629 E1879.30819
G1 X109.629 Y99.524 E1882.88081
G1 X109.629 Y98.820 E1883.05682
G1 X98.820 Y109.629 E1886.87835
G1 X98.116 Y109.629 E1887.05436
G1 X109.629 Y98.116 E1891.12481
G1 X109.629 Y97.412 E1891.30082
G1 X97.412 Y109.629 E1895.62019
G1 X96.708 Y109.629 E1895.79620
G1 X109.629 Y96.708 E1900.36449
G1 X109.629 Y96.004 E1900.54050
G1 X96.004 Y109.629 E1905.35770
G1 X95.300 Y109.629 E1905.53371
G1 X109.629 Y95.300 E1910.59983
G1 X109.629 Y94.596 E1910.77584
G1 X94.596 Y109.629 E1916.09088
G1 X93.891 Y109.629 E1916.26689
G1 X109.629 Y93.891 E1921.83084
G1 X109.629 Y93.187 E1922.00686
G1 X93.187 Y109.629 E1927.81973
G1 X92.483 Y109.629 E1927.99574
G1 X109.629 Y92.483 E1934.05753
G1 X109.629 Y91.779 E1934.23354
G1 X91.779 Y109.629 E1940.54424
G1 X91.075 Y109.629 E1940.72025
G1 X109.629 Y91.075 E1947.27988
G1 X109.609 Y90.391 E1947.45096
G1 X90.391 Y109.609 E1954.24534
G1 X90.371 Y108.925 E1954.41643
G1 X108.925 Y90.371 E1960.97603
G1 X108.221 Y90.371 E1961.15204
G1 X90.371 Y108.221 E1967.46273
G1 X90.371 Y107.517 E1967.63874
G1 X107.517 Y90.371 E1973.70050
G1 X106.813 Y90.371 E1973.87651
G1 X90.371 Y106.813 E1979.68936
G1 X90.371 Y106.108 E1979.86537
G1 X106.108 Y90.371 E1985.42930
G1 X105.404 Y90.371 E1985.60531
G1 X90.371 Y105.404 E1990.92033
G1 X90.371 Y104.700 E1991.09634
G1 X104.700 Y90.371 E1996.16243
G1 X103.996 Y90.371 E1996.33845
G1 X90.371 Y103.996 E2001.15562
G1 X90.371 Y103.292 E2001.33164
G1 X103.292 Y90.371 E2005.89990
G1 X102.588 Y90.371 E2006.07591
G1 X90.371 Y102.588 E2010.39525
G1 X90.371 Y101.884 E2010.57126
G1 X101.884 Y90.371 E2014.64169
G1 X101.180 Y90.371 E2014.81770
G1 X90.371 Y101.180 E2018.63921
G1 X90.371 Y100.476 E2018.81522
G1 X100.476 Y90.371 E2022.38782
G1 X99.772 Y90.371 E2022.56383
G1 X90.371 Y99.772 E2025.88750
G1 X90.371 Y99.068 E2026.06351
G1 X99.068 Y90.371 E2029.13827
G1 X98.364 Y90.371 E2029.31428
G1 X90.371 Y98.364 E2032.14012
G1 X90.371 Y97.660 E2032.31613
G1 X97.660 Y90.371 E2034.89306
G1 X96.956 Y90.371 E2035.06907
G1 X90.371 Y96.956 E2037.39707
G1 X90.371 Y96.252 E2037.57309
G1 X96.252 Y90.371 E2039.65217
G1 X95.548 Y90.371 E2039.82818
G1 X90.371 Y95.548 E2041.65836
G1 X90.371 Y94.844 E2041.83437
G1 X94.844 Y90.371 E2043.41562
G1 X94.140 Y90.371 E2043.59163
G1 X90.371 Y94.140 E2044.92397
G1 X90.371 Y93.436 E2045.09998
G1 X93.436 Y90.371 E2046.18340
G1 X92.732 Y90.371 E2046.35941
G1 X90.371 Y92.732 E2047.19391
G1 X90.371 Y92.028 E2047.36993
G1 X92.028 Y90.371 E2047.95551
G1 X91.324 Y90.371 E2048.13152
G1 X90.371 Y91.324 E2048.46819
G1 X90.371 Y90.619 E2048.64420
G1 X90.619 Y90.371 E2048.73195
G1 Z4.400 F7800.000
G1 X90.371 Y109.381 F7800.000
G1 X90.619 Y109.629 E2048.81970 F4800.000
G1 X91.324 Y109.629 E2048.99571
G1 X90.371 Y108.676 E2049.33238
G1 X90.371 Y107.972 E2049.50839
G1 X92.028 Y109.629 E2050.09398
G1 X92.732 Y109.629 E2050.26999
G1 X90.371 Y107.268 E2051.10449
G1 X90.371 Y106.564 E2051.28050
G1 X93.436 Y109.629 E2052.36392
G1 X94.140 Y109.629 E2052.53993
G1 X90.371 Y105.860 E2053.87227
G1 X90.371 Y105.156 E2054.04828
G1 X94.844 Y109.629 E2055.62953
G1 X95.548 Y109.629 E2055.80554
G1 X90.371 Y104.452 E2057.63572
G1 X90.371 Y103.748 E2057.81173
G1 X96.252 Y109.629 E2059.89082
G1 X96.956 Y109.629 E2060.06683
G1 X90.371 Y103.044 E2062.39483
G1 X90.371 Y102.340 E2062.57084
G1 X97.660 Y109.629 E2065.14777
G1 X98.364 Y109.629 E2065.32378
G1 X90.371 Y101.636 E2068.14962
G1 X90.371 Y100.932 E2068.32563
G1 X99.068 Y109.629 E2071.40039
G1 X99.772 Y109.629 E2071.57640
G1 X90.371 Y100.228 E2074.90007
G1 X90.371 Y99.524 E2075.07608
G1 X100.476 Y109.629 E2078.64868
G1 X101.180 Y109.629 E2078.82469
G1 X90.371 Y98.820 E2082.64620
G1 X90.371 Y98.116 E2082.82221
G1 X101.884 Y109.629 E2086.89264
G1 X102.588 Y109.629 E2087.06865
G1 X90.371 Y97.412 E2091.38799
G1 X90.371 Y96.708 E2091.56400
G1 X103.292 Y109.629 E2096.13226
G1 X103.996 Y109.629 E2096.30828
G1 X90.371 Y96.004 E2101.12545
G1 X90.371 Y95.300 E2101.30147
G1 X104.700 Y109.629 E2106.36756
G1 X105.404 Y109.629 E2106.54357
G1 X90.371 Y94.596 E2111.85859
G1 X90.371 Y93.892 E2112.03460
G1 X106.108 Y109.629 E2117.59853
G1 X106.813 Y109.629 E2117.77454
G1 X90.371 Y93.187 E2123.58739
G1 X90.371 Y92.483 E2123.76340
G1 X107.517 Y109.629 E2129.82516
G1 X108.221 Y109.629 E2130.00118
G1 X90.371 Y91.779 E2136.31186
G1 X90.371 Y91.075 E2136.48787
G1 X108.925 Y109.629 E2143.04747
G1 X109.609 Y109.609 E2143.21856
G1 X90.391 Y90.391 E2150.01294
G1 X91.075 Y90.371 E2150.18402
G1 X109.629 Y108.925 E2156.74365
G1 X109.629 Y108.221 E2156.91966
G1 X91.779 Y90.371 E2163.23036
G1 X92.483 Y90.371 E2163.40638
G1 X109.629 Y107.517 E2169.46816
G1 X109.629 Y106.813 E2169.64418
G1 X93.187 Y90.371 E2175.45705
G1 X93.891 Y90.371 E2175.63306
G1 X109.629 Y106.109 E2181.19701
G1 X109.629 Y105.404 E2181.37302
G1 X94.596 Y90.371 E2186.68806
G1 X95.300 Y90.371 E2186.86407
G1 X109.629 Y104.700 E2191.93019
G1 X109.629 Y103.996 E2192.10620
G1 X96.004 Y90.371 E2196.92340
G1 X96.708 Y90.371 E2197.09941
G1 X109.629 Y103.292 E2201.66770
G1 X109.629 Y102.588 E2201.84371
G1 X97.412 Y90.371 E2206.16308
G1 X98.116 Y90.371 E2206.33909
G1 X109.629 Y101.884 E2210.40954
G1 X109.629 Y101.180 E2210.58555
G1 X98.820 Y90.371 E2214.40708
G1 X99.524 Y90.371 E2214.58309
G1 X109.629 Y100.476 E2218.15571
G1 X109.629 Y99.772 E2218.33172
G1 X100.228 Y90.371 E2221.65542
G1 X100.932 Y90.371 E2221.83143
G1 X109.629 Y99.068 E2224.90621
G1 X109.629 Y98.364 E2225.08222
G1 X101.636 Y90.371 E2227.90808
G1 X102.340 Y90.371 E2228.08410
G1 X109.629 Y97.660 E2230.66104
G1 X109.629 Y96.956 E2230.83705
G1 X103.044 Y90.371 E2233.16508
G1 X103.748 Y90.371 E2233.34109
G1 X109.629 Y96.252 E2235.42021
G1 X109.629 Y95.548 E2235.59622
G1 X104.452 Y90.371 E2237.42641
G1 X105.156 Y90.371 E2237.60242
G1 X109.629 Y94.844 E2239.18370
G1 X109.629 Y94.140 E2239.35971
G1 X105.860 Y90.371 E2240.69207
G1 X106.564 Y90.371 E2240.86808
G1 X109.629 Y93.436 E2241.95153
G1 X109.629 Y92.732 E2242.12754
G1 X107.268 Y90.371 E2242.96206
G1 X107.972 Y90.371 E2243.13807
G1 X109.629 Y92.028 E2243.72368
G1 X109.629 Y91.324 E2243.89969
G1 X108.676 Y90.371 E2244.23638
G1 X109.380 Y90.371 E2244.41240
G1 X109.629 Y90.620 E2244.50017
G1 Z4.800 F7800.000
G1 X109.380 Y109.629 F7800.000
G1 X109.629 Y109.380 E2244.58794 F4800.000
G1 X109.629 Y108.676 E2244.76395
G1 X108.676 Y109.629 E2245.10065
G1 X107.972 Y109.629 E2245.27666
G1 X109.629 Y107.972 E2245.86226
G1 X109.629 Y107.268 E2246.03828
G1 X107.268 Y109.629 E2246.87280
G1 X106.564 Y109.629 E2247.04881
G1 X109.629 Y106.564 E2248.13225
G1 X109.629 Y105.860 E2248.30827
G1 X105.860 Y109.629 E2249.64063
G1 X105.156 Y109.629 E2249.81664
G1 X109.629 Y105.156 E2251.39792
G1 X109.629 Y104.452 E2251.57393
G1 X104.452 Y109.629 E2253.40412
G1 X103.748 Y109.629 E2253.58013
G1 X109.629 Y103.748 E2255.65924
G1 X109.629 Y103.044 E2255.83525
G1 X103.044 Y109.629 E2258.16328
G1 X102.340 Y109.629 E2258.33930
G1 X109.629 Y102.340 E2260.91624
G1 X109.629 Y101.636 E2261.09225
G1 X101.636 Y109.629 E2263.91812
G1 X100.932 Y109.629 E2264.09413
G1 X109.629 Y100.932 E2267.16891
G1 X109.629 Y100.228 E2267.34492
G1 X100.228 Y109.629 E2270.66862
G1 X99.524 Y109.629 E2270.84463
G1 X109.629 Y99.524 E2274.41725
G1 X109.629 Y98.820 E2274.59326
G1 X98.820 Y109.629 E2278.41479
G1 X98.116 Y109.629 E2278.59080
G1 X109.629 Y98.116 E2282.66125
G1 X109.629 Y97.412 E2282.83726
G1 X97.412 Y109.629 E2287.15663
G1 X96.708 Y109.629 E2287.33264
G1 X109.629 Y96.708 E2291.90093
G1 X109.629 Y96.004 E2292.07694
G1 X96.004 Y109.629 E2296.89414
G1 X95.300 Y109.629 E2297.07015
G1 X109.629 Y95.300 E2302.13627
G1 X109.629 Y94.596 E2302.31228
G1 X94.596 Y109.629 E2307.62732
G1 X93.891 Y109.629 E2307.80333
G1 X109.629 Y93.891 E2313.36728
G1 X109.629 Y93.187 E2313.54329
G1 X93.187 Y109.629 E2319.35616
G1 X92.483 Y109.629 E2319.53217
G1 X109.629 Y92.483 E2325.59396
G1 X109.629 Y91.779 E2325.76997
G1 X91.779 Y109.629 E2332.08068
G1 X91.075 Y109.629 E2332.25669
G1 X109.629 Y91.075 E2338.81631
G1 X109.609 Y90.391 E2338.98739
G1 X90.391 Y109.609 E2345.78178
G1 X90.371 Y108.925 E2345.95287
G1 X108.925 Y90.371 E2352.51247
G1 X108.221 Y90.371 E2352.68848
G1 X90.371 Y108.221 E2358.99916
G1 X90.371 Y107.517 E2359.17517
G1 X107.517 Y90.371 E2365.23694
G1 X106.813 Y90.371 E2365.41295
G1 X90.371 Y106.813 E2371.22580
G1 X90.371 Y106.108 E2371.40181
G1 X106.108 Y90.371 E2376.96574
G1 X105.404 Y90.371 E2377.14175
G1 X90.371 Y105.404 E2382.45676
G1 X90.371 Y104.700 E2382.63278
G1 X104.700 Y90.371 E2387.69887
G1 X103.996 Y90.371 E2387.87488
G1 X90.371 Y103.996 E2392.69206
G1 X90.371 Y103.292 E2392.86807
G1 X103.292 Y90.371 E2397.43633
G1 X102.588 Y90.371 E2397.61235
G1 X90.371 Y102.588 E2401.93169
G1 X90.371 Y101.884 E2402.10770
G1 X101.884 Y90.371 E2406.17813
G1 X101.180 Y90.371 E2406.35414
G1 X90.371 Y101.180 E2410.17565
G1 X90.371 Y100.476 E2410.35166
G1 X100.476 Y90.371 E2413.92425
G1 X99.772 Y90.371 E2414.10026
G1 X90.371 Y99.772 E2417.42394
G1 X90.371 Y99.068 E2417.59995
G1 X99.068 Y90.371 E2420.67471
G1 X98.364 Y90.371 E2420.85072
G1 X90.371 Y98.364 E2423.67656
G1 X90.371 Y97.660 E2423.85257
G1 X97.660 Y90.371 E2426.42949
G1 X96.956 Y90.371 E2426.60550
G1 X90.371 Y96.956 E2428.93351
G1 X90.371 Y96.252 E2429.10952
G1 X96.252 Y90.371 E2431.18861
G1 X95.548 Y90.371 E2431.36462
G1 X90.371 Y95.548 E2433.19479
G1 X90.371 Y94.844 E2433.37080
G1 X94.844 Y90.371 E2434.95206
G1 X94.140 Y90.371 E2435.12807
G1 X90.371 Y94.140 E2436.46041
G1 X90.371 Y93.436 E2436.63642
G1 X93.436 Y90.371 E2437.71984
G1 X92.732 Y90.371 E2437.89585
G1 X90.371 Y92.732 E2438.73035
G1 X90.371 Y92.028 E2438.90636
G1 X92.028 Y90.371 E2439.49195
G1 X91.324 Y90.371 E2439.66796
G1 X90.371 Y91.324 E2440.00463
G1 X90.371 Y90.619 E2440.18064
G1 X90.619 Y90.371 E2440.26839

; filament used = 2829.8mm (2.2cm3)

; avoid_crossing_perimeters = 0
; bed_shape = 0x0,200x0,200x200,0x200
; bed_temperature = 0
; before_layer_gcode = 
; bridge_acceleration = 0
; bridge_fan_speed = 100
; brim_width = 0
; complete_objects = 0
; cooling = 1
; default_acceleration = 0
; disable_fan_first_layers = 3
; duplicate_distance = 6
; end_gcode = M104 S0 ; turn off temperature\nG28 X0  ; home X axis\nM84     ; disable motors\n
; extruder_clearance_height = 20
; extruder_clearance_radius = 20
; extruder_offset = 0x0
; extrusion_axis = E
; extrusion_multiplier = 1
; fan_always_on = 0
; fan_below_layer_time = 60
; filament_colour = #FFFFFF
; filament_diameter = 1
; first_layer_acceleration = 0
; first_layer_bed_temperature = 0
; first_layer_extrusion_width = 200%
; first_layer_speed = 30
; first_layer_temperature = 200
; gcode_arcs = 0
; gcode_comments = 0
; gcode_flavor = reprap
; infill_acceleration = 0
; infill_first = 0
; layer_gcode = 
; max_fan_speed = 100
; max_print_speed = 80
; max_volumetric_speed = 0
; min_fan_speed = 35
; min_print_speed = 10
; min_skirt_length = 0
; notes = 
; nozzle_diameter = 0.5
; only_retract_when_crossing_perimeters = 1
; ooze_prevention = 0
; output_filename_format = [input_filename_base].gcode
; perimeter_acceleration = 0
; post_process = 
; pressure_advance = 0
; resolution = 0
; retract_before_travel = 2
; retract_layer_change = 0
; retract_length = 2
; retract_length_toolchange = 10
; retract_lift = 0
; retract_restart_extra = 0
; retract_restart_extra_toolchange = 0
; retract_speed = 40
; skirt_distance = 6
; skirt_height = 1
; skirts = 0
; slowdown_below_layer_time = 5
; spiral_vase = 0
; standby_temperature_delta = -5
; start_gcode = G28 ; home all axes\nG1 Z5 F5000 ; lift nozzle\n
; temperature = 200
; threads = 2
; toolchange_gcode = 
; travel_speed = 130
; use_firmware_retraction = 0
; use_relative_e_distances = 0
; use_volumetric_e = 0
; vibration_limit = 0
; wipe = 0
; z_offset = 0
; dont_support_bridges = 1
; extrusion_width = 0
; first_layer_height = 0.4
; infill_only_where_needed = 0
; interface_shells = 0
; layer_height = 0.4
; raft_layers = 0
; seam_position = aligned
; support_material = 0
; support_material_angle = 0
; support_material_contact_distance = 0.2
; support_material_enforce_layers = 0
; support_material_extruder = 1
; support_material_extrusion_width = 0
; support_material_interface_extruder = 1
; support_material_interface_layers = 3
; support_material_interface_spacing = 0
; support_material_interface_speed = 100%
; support_material_pattern = pillars
; support_material_spacing = 2.5
; support_material_speed = 60
; support_material_threshold = 0
; xy_size_compensation = 0
; bottom_solid_layers = 0
; bridge_flow_ratio = 1
; bridge_speed = 60
; external_fill_pattern = rectilinear
; external_perimeter_extrusion_width = 0
; external_perimeter_speed = 50%
; external_perimeters_first = 0
; extra_perimeters = 1
; fill_angle = 45
; fill_density = 100%
; fill_pattern = rectilinear
; gap_fill_speed = 20
; infill_every_layers = 1
; infill_extruder = 1
; infill_extrusion_width = 0
; infill_overlap = 15%
; infill_speed = 80
; overhangs = 1
; perimeter_extruder = 1
; perimeter_extrusion_width = 0
; perimeter_speed = 60
; perimeters = 0
; small_perimeter_speed = 15
; solid_infill_below_area = 70
; solid_infill_every_layers = 0
; solid_infill_extruder = 1
; solid_infill_extrusion_width = 0
; solid_infill_speed = 20
; thin_walls = 1
; top_infill_extrusion_width = 0
; top_solid_infill_speed = 15
; top_solid_layers = 0
