; generated by Slic3r 1.2.9 on 2019-06-20 at 19:01:38

; external perimeters extrusion width = 0.50mm
; perimeters extrusion width = 0.58mm
; infill extrusion width = 0.58mm
; solid infill extrusion width = 0.58mm
; top infill extrusion width = 0.58mm

M107
M104 S200 ; set temperature
G28 ; home all axes
G1 Z5 F5000 ; lift nozzle

M109 S200 ; wait for temperature to be reached
G21 ; set units to millimeters
G90 ; use absolute coordinates
M82 ; use absolute distances for extrusion
G92 E0
G1 Z0.400 F7800.000
G1 E-2.00000 F2400.00000
G92 E0
G1 X90.371 Y107.917 F7800.000
G1 E2.00000 F2400.00000
G1 X92.083 Y109.629 E2.88041 F1800.000
G1 X95.554 Y109.629 E4.14287
G1 X90.371 Y104.446 E6.80868
G1 X90.371 Y100.975 E8.07115
G1 X99.025 Y109.629 E12.52235
G1 X102.496 Y109.629 E13.78482
G1 X90.371 Y97.504 E20.02142
G1 X90.371 Y94.033 E21.28388
G1 X105.967 Y109.629 E29.30588
G1 X109.438 Y109.629 E30.56835
G1 X90.371 Y90.562 E40.37575
G1 X93.651 Y90.371 E41.57082
G1 X109.629 Y106.349 E49.78916
G1 X109.629 Y102.878 E51.05163
G1 X97.122 Y90.371 E57.48457
G1 X100.593 Y90.371 E58.74703
G1 X109.629 Y99.407 E63.39458
G1 X109.629 Y95.936 E64.65705
G1 X104.064 Y90.371 E67.51919
G1 X107.535 Y90.371 E68.78166
G1 X109.629 Y92.465 E69.85841
G1 Z0.800 F7800.000
G1 X107.535 Y109.629 F7800.000
G1 X109.629 Y107.535 E70.59850 F2238.823
G1 X109.629 Y104.064 E71.46625
G1 X104.064 Y109.629 E73.43353
G1 X100.593 Y109.629 E74.30128
G1 X109.629 Y100.593 E77.49575
G1 X109.629 Y97.122 E78.36350
G1 X97.122 Y109.629 E82.78515
G1 X93.651 Y109.629 E83.65290
G1 X109.629 Y93.651 E89.30173
G1 X109.438 Y90.371 E90.12316
G1 X90.371 Y109.438 E96.86422
G1 X90.371 Y105.967 E97.73198
G1 X105.967 Y90.371 E103.24586
G1 X102.496 Y90.371 E104.11361
G1 X90.371 Y102.496 E108.40030
G1 X90.371 Y99.025 E109.26806
G1 X99.025 Y90.371 E112.32757
G1 X95.554 Y90.371 E113.19532
G1 X90.371 Y95.554 E115.02765
G1 X90.371 Y92.083 E115.89540
G1 X92.083 Y90.371 E116.50054
G1 Z1.200 F7800.000
G1 X90.371 Y107.917 F7800.000
G1 X92.083 Y109.629 E117.10568 F2238.823
G1 X95.554 Y109.629 E117.97343
G1 X90.371 Y104.446 E119.80576
G1 X90.371 Y100.975 E120.67351
G1 X99.025 Y109.629 E123.73303
G1 X102.496 Y109.629 E124.60078
G1 X90.371 Y97.504 E128.88747
G1 X90.371 Y94.033 E129.75522
G1 X105.967 Y109.629 E135.26910
G1 X109.438 Y109.629 E136.13685
G1 X90.371 Y90.562 E142.87792
G1 X93.651 Y90.371 E143.69935
G1 X109.629 Y106.349 E149.34818
G1 X109.629 Y102.878 E150.21593
G1 X97.122 Y90.371 E154.63758
G1 X100.593 Y90.371 E155.50533
G1 X109.629 Y99.407 E158.69980
G1 X109.629 Y95.936 E159.56755
G1 X104.064 Y90.371 E161.53483
G1 X107.535 Y90.371 E162.40258
G1 X109.629 Y92.465 E163.14268
M106 S255
G1 Z1.600 F7800.000
G1 X107.535 Y109.629 F7800.000
G1 X109.629 Y107.535 E163.88277 F2238.823
G1 X109.629 Y104.064 E164.75052
G1 X104.064 Y109.629 E166.71780
G1 X100.593 Y109.629 E167.58555
G1 X109.629 Y100.593 E170.78002
G1 X109.629 Y97.122 E171.64777
G1 X97.122 Y109.629 E176.06942
G1 X93.651 Y109.629 E176.93717
G1 X109.629 Y93.651 E182.58600
G1 X109.438 Y90.371 E183.40743
G1 X90.371 Y109.438 E190.14850
G1 X90.371 Y105.967 E191.01625
G1 X105.967 Y90.371 E196.53013
G1 X102.496 Y90.371 E197.39788
G1 X90.371 Y102.496 E201.68458
G1 X90.371 Y99.025 E202.55233
G1 X99.025 Y90.371 E205.61184
G1 X95.554 Y90.371 E206.47959
G1 X90.371 Y95.554 E208.31192
G1 X90.371 Y92.083 E209.17967
G1 X92.083 Y90.371 E209.78481
G1 Z2.000 F7800.000
G1 X90.371 Y107.917 F7800.000
G1 X92.083 Y109.629 E210.38996 F2238.823
G1 X95.554 Y109.629 E211.25771
G1 X90.371 Y104.446 E213.09003
G1 X90.371 Y100.975 E213.95778
G1 X99.025 Y109.629 E217.01730
G1 X102.496 Y109.629 E217.88505
G1 X90.371 Y97.504 E222.17174
G1 X90.371 Y94.033 E223.03949
G1 X105.967 Y109.629 E228.55338
G1 X109.438 Y109.629 E229.42113
G1 X90.371 Y90.562 E236.16219
G1 X93.651 Y90.371 E236.98362
G1 X109.629 Y106.349 E242.63245
G1 X109.629 Y102.878 E243.50020
G1 X97.122 Y90.371 E247.92185
G1 X100.593 Y90.371 E248.78960
G1 X109.629 Y99.407 E251.98407
G1 X109.629 Y95.936 E252.85182
G1 X104.064 Y90.371 E254.81910
G1 X107.535 Y90.371 E255.68685
G1 X109.629 Y92.465 E256.42695
G1 Z2.400 F7800.000
G1 X107.535 Y109.629 F7800.000
G1 X109.629 Y107.535 E257.16704 F2238.823
G1 X109.629 Y104.064 E258.03479
G1 X104.064 Y109.629 E260.00208
G1 X100.593 Y109.629 E260.86983
G1 X109.629 Y100.593 E264.06429
G1 X109.629 Y97.122 E264.93204
G1 X97.122 Y109.629 E269.35369
G1 X93.651 Y109.629 E270.22144
G1 X109.629 Y93.651 E275.87028
G1 X109.438 Y90.371 E276.69170
G1 X90.371 Y109.438 E283.43277
G1 X90.371 Y105.967 E284.30052
G1 X105.967 Y90.371 E289.81440
G1 X102.496 Y90.371 E290.68215
G1 X90.371 Y102.496 E294.96885
G1 X90.371 Y99.025 E295.83660
G1 X99.025 Y90.371 E298.89611
G1 X95.554 Y90.371 E299.76386
G1 X90.371 Y95.554 E301.59619
G1 X90.371 Y92.083 E302.46394
G1 X92.083 Y90.371 E303.06908
G1 Z2.800 F7800.000
G1 X90.371 Y107.917 F7800.000
G1 X92.083 Y109.629 E303.67423 F2238.823
G1 X95.554 Y109.629 E304.54198
G1 X90.371 Y104.446 E306.37431
G1 X90.371 Y100.975 E307.24206
G1 X99.025 Y109.629 E310.30157
G1 X102.496 Y109.629 E311.16932
G1 X90.371 Y97.504 E315.45602
G1 X90.371 Y94.033 E316.32377
G1 X105.967 Y109.629 E321.83765
G1 X109.438 Y109.629 E322.70540
G1 X90.371 Y90.562 E329.44646
G1 X93.651 Y90.371 E330.26789
G1 X109.629 Y106.349 E335.91672
G1 X109.629 Y102.878 E336.78447
G1 X97.122 Y90.371 E341.20612
G1 X100.593 Y90.371 E342.07387
G1 X109.629 Y99.407 E345.26834
G1 X109.629 Y95.936 E346.13609
G1 X104.064 Y90.371 E348.10337
G1 X107.535 Y90.371 E348.97112
G1 X109.629 Y92.465 E349.71122
G1 Z3.200 F7800.000
G1 X107.535 Y109.629 F7800.000
G1 X109.629 Y107.535 E350.45132 F2238.823
G1 X109.629 Y104.064 E351.31907
G1 X104.064 Y109.629 E353.28635
G1 X100.593 Y109.629 E354.15410
G1 X109.629 Y100.593 E357.34856
G1 X109.629 Y97.122 E358.21631
G1 X97.122 Y109.629 E362.63796
G1 X93.651 Y109.629 E363.50571
G1 X109.629 Y93.651 E369.15455
G1 X109.438 Y90.371 E369.97597
G1 X90.371 Y109.438 E376.71704
G1 X90.371 Y105.967 E377.58479
G1 X105.967 Y90.371 E383.09867
G1 X102.496 Y90.371 E383.96642
G1 X90.371 Y102.496 E388.25312
G1 X90.371 Y99.025 E389.12087
G1 X99.025 Y90.371 E392.18038
G1 X95.554 Y90.371 E393.04813
G1 X90.371 Y95.554 E394.88046
G1 X90.371 Y92.083 E395.74821
G1 X92.083 Y90.371 E396.35336
G1 Z3.600 F7800.000
G1 X90.371 Y107.917 F7800.000
G1 X92.083 Y109.629 E396.95850 F2238.823
G1 X95.554 Y109.629 E397.82625
G1 X90.371 Y104.446 E399.65858
G1 X90.371 Y100.975 E400.52633
G1 X99.025 Y109.629 E403.58584
G1 X102.496 Y109.629 E404.45359
G1 X90.371 Y97.504 E408.74029
G1 X90.371 Y94.033 E409.60804
G1 X105.967 Y109.629 E415.12192
G1 X109.438 Y109.629 E415.98967
G1 X90.371 Y90.562 E422.73074
G1 X93.651 Y90.371 E423.55216
G1 X109.629 Y106.349 E429.20099
G1 X109.629 Y102.878 E430.06875
G1 X97.122 Y90.371 E434.49040
G1 X100.593 Y90.371 E435.35815
G1 X109.629 Y99.407 E438.55261
G1 X109.629 Y95.936 E439.42036
G1 X104.064 Y90.371 E441.38764
G1 X107.535 Y90.371 E442.25539
G1 X109.629 Y92.465 E442.99549
G1 Z4.000 F7800.000
G1 X107.535 Y109.629 F7800.000
G1 X109.629 Y107.535 E443.73559 F2238.823
G1 X109.629 Y104.064 E444.60334
G1 X104.064 Y109.629 E446.57062
G1 X100.593 Y109.629 E447.43837
G1 X109.629 Y100.593 E450.63283
G1 X109.629 Y97.122 E451.50058
G1 X97.122 Y109.629 E455.92223
G1 X93.651 Y109.629 E456.78999
G1 X109.629 Y93.651 E462.43882
G1 X109.438 Y90.371 E463.26024
G1 X90.371 Y109.438 E470.00131
G1 X90.371 Y105.967 E470.86906
G1 X105.967 Y90.371 E476.38294
G1 X102.496 Y90.371 E477.25069
G1 X90.371 Y102.496 E481.53739
G1 X90.371 Y99.025 E482.40514
G1 X99.025 Y90.371 E485.46465
G1 X95.554 Y90.371 E486.33240
G1 X90.371 Y95.554 E488.16473
G1 X90.371 Y92.083 E489.03248
G1 X92.083 Y90.371 E489.63763
G1 Z4.400 F7800.000
G1 X90.371 Y107.917 F7800.000
G1 X92.083 Y109.629 E490.24277 F2238.823
G1 X95.554 Y109.629 E491.11052
G1 X90.371 Y104.446 E492.94285
G1 X90.371 Y100.975 E493.81060
G1 X99.025 Y109.629 E496.87011
G1 X102.496 Y109.629 E497.73786
G1 X90.371 Y97.504 E502.02456
G1 X90.371 Y94.033 E502.89231
G1 X105.967 Y109.629 E508.40619
G1 X109.438 Y109.629 E509.27394
G1 X90.371 Y90.562 E516.01501
G1 X93.651 Y90.371 E516.83643
G1 X109.629 Y106.349 E522.48527
G1 X109.629 Y102.878 E523.35302
G1 X97.122 Y90.371 E527.77467
G1 X100.593 Y90.371 E528.64242
G1 X109.629 Y99.407 E531.83688
G1 X109.629 Y95.936 E532.70463
G1 X104.064 Y90.371 E534.67192
G1 X107.535 Y90.371 E535.53967
G1 X109.629 Y92.465 E536.27976
G1 Z4.800 F7800.000
G1 X107.535 Y109.629 F7800.000
G1 X109.629 Y107.535 E537.01986 F2238.823
G1 X109.629 Y104.064 E537.88761
G1 X104.064 Y109.629 E539.85489
G1 X100.593 Y109.629 E540.72264
G1 X109.629 Y100.593 E543.91711
G1 X109.629 Y97.122 E544.78486
G1 X97.122 Y109.629 E549.20651
G1 X93.651 Y109.629 E550.07426
G1 X109.629 Y93.651 E555.72309
G1 X109.438 Y90.371 E556.54452
G1 X90.371 Y109.438 E563.28558
G1 X90.371 Y105.967 E564.15333
G1 X105.967 Y90.371 E569.66721
G1 X102.496 Y90.371 E570.53497
G1 X90.371 Y102.496 E574.82166
G1 X90.371 Y99.025 E575.68941
G1 X99.025 Y90.371 E578.74893
G1 X95.554 Y90.371 E579.61668
G1 X90.371 Y95.554 E581.44900
G1 X90.371 Y92.083 E582.31676
G1 X92.083 Y90.371 E582.92190
G1 Z5.200 F7800.000
G1 X90.371 Y107.917 F7800.000
G1 X92.083 Y109.629 E583.52704 F2238.823
G1 X95.554 Y109.629 E584.39479
G1 X90.371 Y104.446 E586.22712
G1 X90.371 Y100.975 E587.09487
G1 X99.025 Y109.629 E590.15438
G1 X102.496 Y109.629 E591.02213
G1 X90.371 Y97.504 E595.30883
G1 X90.371 Y94.033 E596.17658
G1 X105.967 Y109.629 E601.69046
G1 X109.438 Y109.629 E602.55821
G1 X90.371 Y90.562 E609.29928
G1 X93.651 Y90.371 E610.12070
G1 X109.629 Y106.349 E615.76954
G1 X109.629 Y102.878 E616.63729
G1 X97.122 Y90.371 E621.05894
G1 X100.593 Y90.371 E621.92669
G1 X109.629 Y99.407 E625.12115
G1 X109.629 Y95.936 E625.98891
G1 X104.064 Y90.371 E627.95619
G1 X107.535 Y90.371 E628.82394
G1 X109.629 Y92.465 E629.56403
G1 Z5.600 F7800.000
G1 X107.535 Y109.629 F7800.000
G1 X109.629 Y107.535 E630.30413 F2238.823
G1 X109.629 Y104.064 E631.17188
G1 X104.064 Y109.629 E633.13916
G1 X100.593 Y109.629 E634.00691
G1 X109.629 Y100.593 E637.20138
G1 X109.629 Y97.122 E638.06913
G1 X97.122 Y109.629 E642.49078
G1 X93.651 Y109.629 E643.35853
G1 X109.629 Y93.651 E649.00736
G1 X109.438 Y90.371 E649.82879
G1 X90.371 Y109.438 E656.56985
G1 X90.371 Y105.967 E657.43760
G1 X105.967 Y90.371 E662.95149
G1 X102.496 Y90.371 E663.81924
G1 X90.371 Y102.496 E668.10593
G1 X90.371 Y99.025 E668.97368
G1 X99.025 Y90.371 E672.03320
G1 X95.554 Y90.371 E672.90095
G1 X90.371 Y95.554 E674.73328
G1 X90.371 Y92.083 E675.60103
G1 X92.083 Y90.371 E676.20617
G1 Z6.000 F7800.000
G1 X90.371 Y107.917 F7800.000
G1 X92.083 Y109.629 E676.81131 F2238.823
G1 X95.554 Y109.629 E677.67906
G1 X90.371 Y104.446 E679.51139
G1 X90.371 Y100.975 E680.37914
G1 X99.025 Y109.629 E683.43865
G1 X102.496 Y109.629 E684.30640
G1 X90.371 Y97.504 E688.59310
G1 X90.371 Y94.033 E689.46085
G1 X105.967 Y109.629 E694.97473
G1 X109.438 Y109.629 E695.84248
G1 X90.371 Y90.562 E702.58355
G1 X93.651 Y90.371 E703.40497
G1 X109.629 Y106.349 E709.05381
G1 X109.629 Y102.878 E709.92156
G1 X97.122 Y90.371 E714.34321
G1 X100.593 Y90.371 E715.21096
G1 X109.629 Y99.407 E718.40543
G1 X109.629 Y95.936 E719.27318
G1 X104.064 Y90.371 E721.24046
G1 X107.535 Y90.371 E722.10821
G1 X109.629 Y92.465 E722.84831
G1 Z6.400 F7800.000
G1 X107.535 Y109.629 F7800.000
G1 X109.629 Y107.535 E723.58840 F2238.823
G1 X109.629 Y104.064 E724.45615
G1 X104.064 Y109.629 E726.42343
G1 X100.593 Y109.629 E727.29118
G1 X109.629 Y100.593 E730.48565
G1 X109.629 Y97.122 E731.35340
G1 X97.122 Y109.629 E735.77505
G1 X93.651 Y109.629 E736.64280
G1 X109.629 Y93.651 E742.29163
G1 X109.438 Y90.371 E743.11306
G1 X90.371 Y109.438 E749.85413
G1 X90.371 Y105.967 E750.72188
G1 X105.967 Y90.371 E756.23576
G1 X102.496 Y90.371 E757.10351
G1 X90.371 Y102.496 E761.39021
G1 X90.371 Y99.025 E762.25796
G1 X99.025 Y90.371 E765.31747
G1 X95.554 Y90.371 E766.18522
G1 X90.371 Y95.554 E768.01755
G1 X90.371 Y92.083 E768.88530
G1 X92.083 Y90.371 E769.49044
G1 Z6.800 F7800.000
G1 X90.371 Y107.917 F7800.000
G1 X92.083 Y109.629 E770.09559 F2238.823
G1 X95.554 Y109.629 E770.96334
G1 X90.371 Y104.446 E772.79566
G1 X90.371 Y100.975 E773.66341
G1 X99.025 Y109.629 E776.72293
G1 X102.496 Y109.629 E777.59068
G1 X90.371 Y97.504 E781.87737
G1 X90.371 Y94.033 E782.74512
G1 X105.967 Y109.629 E788.25900
G1 X109.438 Y109.629 E789.12676
G1 X90.371 Y90.562 E795.86782
G1 X93.651 Y90.371 E796.68925
G1 X109.629 Y106.349 E802.33808
G1 X109.629 Y102.878 E803.20583
G1 X97.122 Y90.371 E807.62748
G1 X100.593 Y90.371 E808.49523
G1 X109.629 Y99.407 E811.68970
G1 X109.629 Y95.936 E812.55745
G1 X104.064 Y90.371 E814.52473
G1 X107.535 Y90.371 E815.39248
G1 X109.629 Y92.465 E816.13258
G1 Z7.200 F7800.000
G1 E814.13258 F2400.00000
G92 E0
G1 X107.535 Y109.629 F7800.000
G1 E2.00000 F2400.00000
G1 X109.629 Y107.535 E2.74010 F2238.823
G1 X109.629 Y104.064 E3.60785
G1 X104.064 Y109.629 E5.57513
G1 X100.593 Y109.629 E6.44288
G1 X109.629 Y100.593 E9.63734
G1 X109.629 Y97.122 E10.50509
G1 X97.122 Y109.629 E14.92674
G1 X93.651 Y109.629 E15.79449
G1 X109.629 Y93.651 E21.44333
G1 X109.438 Y90.371 E22.26475
G1 X90.371 Y109.438 E29.00582
G1 X90.371 Y105.967 E29.87357
G1 X105.967 Y90.371 E35.38745
G1 X102.496 Y90.371 E36.25520
G1 X90.371 Y102.496 E40.54190
G1 X90.371 Y99.025 E41.40965
G1 X99.025 Y90.371 E44.46916
G1 X95.554 Y90.371 E45.33691
G1 X90.371 Y95.554 E47.16924
G1 X90.371 Y92.083 E48.03699
G1 X92.083 Y90.371 E48.64214
G1 E46.64214 F2400.00000
G92 E0
M107
M104 S0 ; turn off temperature
G28 X0  ; home X axis
M84     ; disable motors

; filament used = 860.8mm (0.7cm3)

; avoid_crossing_perimeters = 0
; bed_shape = 0x0,200x0,200x200,0x200
; bed_temperature = 0
; before_layer_gcode = 
; bridge_acceleration = 0
; bridge_fan_speed = 100
; brim_width = 0
; complete_objects = 0
; cooling = 1
; default_acceleration = 0
; disable_fan_first_layers = 3
; duplicate_distance = 6
; end_gcode = M104 S0 ; turn off temperature\nG28 X0  ; home X axis\nM84     ; disable motors\n
; extruder_clearance_height = 20
; extruder_clearance_radius = 20
; extruder_offset = 0x0
; extrusion_axis = E
; extrusion_multiplier = 1
; fan_always_on = 0
; fan_below_layer_time = 60
; filament_colour = #FFFFFF
; filament_diameter = 1
; first_layer_acceleration = 0
; first_layer_bed_temperature = 0
; first_layer_extrusion_width = 200%
; first_layer_speed = 30
; first_layer_temperature = 200
; gcode_arcs = 0
; gcode_comments = 0
; gcode_flavor = reprap
; infill_acceleration = 0
; infill_first = 0
; layer_gcode = 
; max_fan_speed = 100
; max_print_speed = 80
; max_volumetric_speed = 0
; min_fan_speed = 35
; min_print_speed = 10
; min_skirt_length = 0
; notes = 
; nozzle_diameter = 0.5
; only_retract_when_crossing_perimeters = 1
; ooze_prevention = 0
; output_filename_format = [input_filename_base].gcode
; perimeter_acceleration = 0
; post_process = 
; pressure_advance = 0
; resolution = 0
; retract_before_travel = 2
; retract_layer_change = 0
; retract_length = 2
; retract_length_toolchange = 10
; retract_lift = 0
; retract_restart_extra = 0
; retract_restart_extra_toolchange = 0
; retract_speed = 40
; skirt_distance = 6
; skirt_height = 1
; skirts = 0
; slowdown_below_layer_time = 5
; spiral_vase = 0
; standby_temperature_delta = -5
; start_gcode = G28 ; home all axes\nG1 Z5 F5000 ; lift nozzle\n
; temperature = 200
; threads = 2
; toolchange_gcode = 
; travel_speed = 130
; use_firmware_retraction = 0
; use_relative_e_distances = 0
; use_volumetric_e = 0
; vibration_limit = 0
; wipe = 0
; z_offset = 0
; dont_support_bridges = 1
; extrusion_width = 0
; first_layer_height = 0.4
; infill_only_where_needed = 0
; interface_shells = 0
; layer_height = 0.4
; raft_layers = 0
; seam_position = aligned
; support_material = 0
; support_material_angle = 0
; support_material_contact_distance = 0.2
; support_material_enforce_layers = 0
; support_material_extruder = 1
; support_material_extrusion_width = 0
; support_material_interface_extruder = 1
; support_material_interface_layers = 3
; support_material_interface_spacing = 0
; support_material_interface_speed = 100%
; support_material_pattern = pillars
; support_material_spacing = 2.5
; support_material_speed = 60
; support_material_threshold = 0
; xy_size_compensation = 0
; bottom_solid_layers = 0
; bridge_flow_ratio = 1
; bridge_speed = 60
; external_fill_pattern = rectilinear
; external_perimeter_extrusion_width = 0
; external_perimeter_speed = 50%
; external_perimeters_first = 0
; extra_perimeters = 1
; fill_angle = 45
; fill_density = 20%
; fill_pattern = rectilinear
; gap_fill_speed = 20
; infill_every_layers = 1
; infill_extruder = 1
; infill_extrusion_width = 0
; infill_overlap = 15%
; infill_speed = 80
; overhangs = 1
; perimeter_extruder = 1
; perimeter_extrusion_width = 0
; perimeter_speed = 60
; perimeters = 0
; small_perimeter_speed = 15
; solid_infill_below_area = 70
; solid_infill_every_layers = 0
; solid_infill_extruder = 1
; solid_infill_extrusion_width = 0
; solid_infill_speed = 20
; thin_walls = 1
; top_infill_extrusion_width = 0
; top_solid_infill_speed = 15
; top_solid_layers = 0
