; generated by Slic3r 1.3.0 on 2020-03-12 at 18:15:10

; external perimeters extrusion width = 0.55mm (5.57mm^3/s)
; perimeters extrusion width = 0.58mm (11.78mm^3/s)
; infill extrusion width = 0.58mm (15.71mm^3/s)
; solid infill extrusion width = 0.58mm (3.93mm^3/s)
; top infill extrusion width = 0.58mm (2.95mm^3/s)

M107
M104 S205 ; set temperature
G28 ; home all axes
G1 Z5 F5000 ; lift nozzle

; Filament gcode

M109 S205 ; set temperature and wait for it to be reached
G21 ; set units to millimeters
G90 ; use absolute coordinates
M82 ; use absolute distances for extrusion
G92 E0
G1 Z0.400 F7800.000
G1 E-2.00000 F2400.00000
G92 E0
G1 X90.896 Y90.261 F7800.000
G1 E2.00000 F2400.00000
G1 F1800
G1 X90.261 Y90.896 E2.03631
G1 X90.261 Y91.888 E2.07638
G1 X91.888 Y90.261 E2.16937
G1 X92.880 Y90.261 E2.20945
G1 X90.261 Y92.880 E2.35911
G1 X90.261 Y93.871 E2.39919
G1 X93.871 Y90.261 E2.60553
G1 X94.863 Y90.261 E2.64561
G1 X90.261 Y94.863 E2.90864
G1 X90.261 Y95.855 E2.94871
G1 X95.855 Y90.261 E3.26842
G1 X96.847 Y90.261 E3.30849
G1 X90.261 Y96.847 E3.68488
G1 X90.261 Y97.838 E3.72495
G1 X97.838 Y90.261 E4.15801
G1 X98.830 Y90.261 E4.19809
G1 X90.261 Y98.830 E4.68783
G1 X90.261 Y99.822 E4.72791
G1 X99.822 Y90.261 E5.27433
G1 X100.813 Y90.261 E5.31441
G1 X90.261 Y100.813 E5.91751
G1 X90.261 Y101.805 E5.95758
G1 X101.805 Y90.261 E6.61736
G1 X102.797 Y90.261 E6.65744
G1 X90.261 Y102.797 E7.37390
G1 X90.261 Y103.789 E7.41397
G1 X103.789 Y90.261 E8.18711
G1 X104.780 Y90.261 E8.22719
G1 X90.261 Y104.780 E9.05700
G1 X90.261 Y105.772 E9.09708
G1 X105.772 Y90.261 E9.98358
G1 X106.764 Y90.261 E10.02365
G1 X90.261 Y106.764 E10.96683
G1 X90.261 Y107.755 E11.00691
G1 X107.755 Y90.261 E12.00676
G1 X108.747 Y90.261 E12.04684
G1 X90.261 Y108.747 E13.10337
G1 X90.261 Y109.739 E13.14345
G1 X109.739 Y90.261 E14.25666
G1 X109.739 Y91.253 E14.29674
G1 X91.253 Y109.739 E15.35327
G1 X92.245 Y109.739 E15.39335
G1 X109.739 Y92.245 E16.39320
G1 X109.739 Y93.236 E16.43328
G1 X93.236 Y109.739 E17.37645
G1 X94.228 Y109.739 E17.41653
G1 X109.739 Y94.228 E18.30302
G1 X109.739 Y95.220 E18.34310
G1 X95.220 Y109.739 E19.17292
G1 X96.211 Y109.739 E19.21299
G1 X109.739 Y96.211 E19.98613
G1 X109.739 Y97.203 E20.02621
G1 X97.203 Y109.739 E20.74267
G1 X98.195 Y109.739 E20.78274
G1 X109.739 Y98.195 E21.44252
G1 X109.739 Y99.187 E21.48260
G1 X99.187 Y109.739 E22.08570
G1 X100.178 Y109.739 E22.12578
G1 X109.739 Y100.178 E22.67219
G1 X109.739 Y101.170 E22.71227
G1 X101.170 Y109.739 E23.20201
G1 X102.162 Y109.739 E23.24209
G1 X109.739 Y102.162 E23.67515
G1 X109.739 Y103.153 E23.71523
G1 X103.153 Y109.739 E24.09161
G1 X104.145 Y109.739 E24.13169
G1 X109.739 Y104.145 E24.45139
G1 X109.739 Y105.137 E24.49147
G1 X105.137 Y109.739 E24.75449
G1 X106.129 Y109.739 E24.79457
G1 X109.739 Y106.129 E25.00092
G1 X109.739 Y107.120 E25.04099
G1 X107.120 Y109.739 E25.19066
G1 X108.112 Y109.739 E25.23074
G1 X109.739 Y108.112 E25.32372
G1 X109.739 Y109.104 E25.36380
G1 X109.104 Y109.739 E25.40011
M104 S200 ; set temperature
G1 Z0.800 F7800.000
G1 X90.305 Y109.147 F7800.000
G1 F4800
G1 X90.853 Y109.695 E25.42165
G1 X91.845 Y109.695 E25.44920
G1 X90.305 Y108.155 E25.50970
G1 X90.305 Y107.164 E25.53725
G1 X92.836 Y109.695 E25.63671
G1 X93.828 Y109.695 E25.66425
G1 X90.305 Y106.172 E25.80267
G1 X90.305 Y105.180 E25.83022
G1 X94.820 Y109.695 E26.00760
G1 X95.811 Y109.695 E26.03514
G1 X90.305 Y104.189 E26.25148
G1 X90.305 Y103.197 E26.27903
G1 X96.803 Y109.695 E26.53432
G1 X97.795 Y109.695 E26.56187
G1 X90.305 Y102.205 E26.85612
G1 X90.305 Y101.213 E26.88366
G1 X98.787 Y109.695 E27.21687
G1 X99.778 Y109.695 E27.24442
G1 X90.305 Y100.222 E27.61659
G1 X90.305 Y99.230 E27.64413
G1 X100.770 Y109.695 E28.05526
G1 X101.762 Y109.695 E28.08281
G1 X90.305 Y98.238 E28.53289
G1 X90.305 Y97.247 E28.56044
G1 X102.753 Y109.695 E29.04948
G1 X103.745 Y109.695 E29.07703
G1 X90.305 Y96.255 E29.60503
G1 X90.305 Y95.263 E29.63257
G1 X104.737 Y109.695 E30.19953
G1 X105.729 Y109.695 E30.22708
G1 X90.305 Y94.271 E30.83300
G1 X90.305 Y93.280 E30.86054
G1 X106.720 Y109.695 E31.50542
G1 X107.712 Y109.695 E31.53297
G1 X90.305 Y92.288 E32.21680
G1 X90.305 Y91.296 E32.24435
G1 X108.704 Y109.695 E32.96714
G1 X109.695 Y109.695 E32.99468
G1 X90.305 Y90.305 E33.75643
G1 X91.296 Y90.305 E33.78398
G1 X109.695 Y108.704 E34.50677
G1 X109.695 Y107.712 E34.53432
G1 X92.288 Y90.305 E35.21815
G1 X93.280 Y90.305 E35.24570
G1 X109.695 Y106.720 E35.89057
G1 X109.695 Y105.729 E35.91812
G1 X94.271 Y90.305 E36.52404
G1 X95.263 Y90.305 E36.55158
G1 X109.695 Y104.737 E37.11854
G1 X109.695 Y103.745 E37.14609
G1 X96.255 Y90.305 E37.67409
G1 X97.247 Y90.305 E37.70164
G1 X109.695 Y102.753 E38.19068
G1 X109.695 Y101.762 E38.21823
G1 X98.238 Y90.305 E38.66831
G1 X99.230 Y90.305 E38.69586
G1 X109.695 Y100.770 E39.10698
G1 X109.695 Y99.778 E39.13453
G1 X100.222 Y90.305 E39.50670
G1 X101.213 Y90.305 E39.53424
G1 X109.695 Y98.787 E39.86745
G1 X109.695 Y97.795 E39.89500
G1 X102.205 Y90.305 E40.18925
G1 X103.197 Y90.305 E40.21680
G1 X109.695 Y96.803 E40.47209
G1 X109.695 Y95.811 E40.49964
G1 X104.189 Y90.305 E40.71597
G1 X105.180 Y90.305 E40.74352
G1 X109.695 Y94.820 E40.92090
G1 X109.695 Y93.828 E40.94845
G1 X106.172 Y90.305 E41.08686
G1 X107.164 Y90.305 E41.11441
G1 X109.695 Y92.836 E41.21387
G1 X109.695 Y91.845 E41.24142
G1 X108.155 Y90.305 E41.30192
G1 X109.147 Y90.305 E41.32947
G1 X109.695 Y90.853 E41.35101
G1 Z1.200 F7800.000
G1 X109.147 Y109.695 F7800.000
G1 F4800
G1 X109.695 Y109.147 E41.37256
G1 X109.695 Y108.155 E41.40010
G1 X108.155 Y109.695 E41.46060
G1 X107.164 Y109.695 E41.48815
G1 X109.695 Y107.164 E41.58761
G1 X109.695 Y106.172 E41.61516
G1 X106.172 Y109.695 E41.75358
G1 X105.180 Y109.695 E41.78113
G1 X109.695 Y105.180 E41.95850
G1 X109.695 Y104.189 E41.98605
G1 X104.189 Y109.695 E42.20238
G1 X103.197 Y109.695 E42.22993
G1 X109.695 Y103.197 E42.48522
G1 X109.695 Y102.205 E42.51277
G1 X102.205 Y109.695 E42.80702
G1 X101.213 Y109.695 E42.83457
G1 X109.695 Y101.213 E43.16778
G1 X109.695 Y100.222 E43.19533
G1 X100.222 Y109.695 E43.56749
G1 X99.230 Y109.695 E43.59504
G1 X109.695 Y99.230 E44.00617
G1 X109.695 Y98.238 E44.03371
G1 X98.238 Y109.695 E44.48380
G1 X97.247 Y109.695 E44.51134
G1 X109.695 Y97.247 E45.00039
G1 X109.695 Y96.255 E45.02793
G1 X96.255 Y109.695 E45.55593
G1 X95.263 Y109.695 E45.58348
G1 X109.695 Y95.263 E46.15044
G1 X109.695 Y94.271 E46.17799
G1 X94.271 Y109.695 E46.78390
G1 X93.280 Y109.695 E46.81145
G1 X109.695 Y93.280 E47.45632
G1 X109.695 Y92.288 E47.48387
G1 X92.288 Y109.695 E48.16770
G1 X91.296 Y109.695 E48.19525
G1 X109.695 Y91.296 E48.91804
G1 X109.695 Y90.305 E48.94559
G1 X90.305 Y109.695 E49.70734
G1 X90.305 Y108.704 E49.73489
G1 X108.704 Y90.305 E50.45768
G1 X107.712 Y90.305 E50.48522
G1 X90.305 Y107.712 E51.16906
G1 X90.305 Y106.720 E51.19660
G1 X106.720 Y90.305 E51.84148
G1 X105.729 Y90.305 E51.86903
G1 X90.305 Y105.729 E52.47494
G1 X90.305 Y104.737 E52.50249
G1 X104.737 Y90.305 E53.06945
G1 X103.745 Y90.305 E53.09700
G1 X90.305 Y103.745 E53.62499
G1 X90.305 Y102.753 E53.65254
G1 X102.753 Y90.305 E54.14158
G1 X101.762 Y90.305 E54.16913
G1 X90.305 Y101.762 E54.61921
G1 X90.305 Y100.770 E54.64676
G1 X100.770 Y90.305 E55.05789
G1 X99.778 Y90.305 E55.08544
G1 X90.305 Y99.778 E55.45760
G1 X90.305 Y98.787 E55.48515
G1 X98.787 Y90.305 E55.81836
G1 X97.795 Y90.305 E55.84591
G1 X90.305 Y97.795 E56.14016
G1 X90.305 Y96.803 E56.16770
G1 X96.803 Y90.305 E56.42300
G1 X95.811 Y90.305 E56.45054
G1 X90.305 Y95.811 E56.66688
G1 X90.305 Y94.820 E56.69443
G1 X94.820 Y90.305 E56.87180
G1 X93.828 Y90.305 E56.89935
G1 X90.305 Y93.828 E57.03777
G1 X90.305 Y92.836 E57.06532
G1 X92.836 Y90.305 E57.16478
G1 X91.845 Y90.305 E57.19232
G1 X90.305 Y91.845 E57.25283
G1 X90.305 Y90.853 E57.28037
G1 X90.853 Y90.305 E57.30192
M106 S247.35
G1 Z1.600 F7800.000
G1 X90.305 Y109.147 F7800.000
G1 F4800
G1 X90.853 Y109.695 E57.32346
G1 X91.845 Y109.695 E57.35101
G1 X90.305 Y108.155 E57.41151
G1 X90.305 Y107.164 E57.43906
G1 X92.836 Y109.695 E57.53852
G1 X93.828 Y109.695 E57.56606
G1 X90.305 Y106.172 E57.70448
G1 X90.305 Y105.180 E57.73203
G1 X94.820 Y109.695 E57.90941
G1 X95.811 Y109.695 E57.93695
G1 X90.305 Y104.189 E58.15329
G1 X90.305 Y103.197 E58.18084
G1 X96.803 Y109.695 E58.43613
G1 X97.795 Y109.695 E58.46368
G1 X90.305 Y102.205 E58.75793
G1 X90.305 Y101.213 E58.78547
G1 X98.787 Y109.695 E59.11868
G1 X99.778 Y109.695 E59.14623
G1 X90.305 Y100.222 E59.51840
G1 X90.305 Y99.230 E59.54595
G1 X100.770 Y109.695 E59.95707
G1 X101.762 Y109.695 E59.98462
G1 X90.305 Y98.238 E60.43470
G1 X90.305 Y97.247 E60.46225
G1 X102.753 Y109.695 E60.95129
G1 X103.745 Y109.695 E60.97884
G1 X90.305 Y96.255 E61.50684
G1 X90.305 Y95.263 E61.53439
G1 X104.737 Y109.695 E62.10134
G1 X105.729 Y109.695 E62.12889
G1 X90.305 Y94.271 E62.73481
G1 X90.305 Y93.280 E62.76235
G1 X106.720 Y109.695 E63.40723
G1 X107.712 Y109.695 E63.43478
G1 X90.305 Y92.288 E64.11861
G1 X90.305 Y91.296 E64.14616
G1 X108.704 Y109.695 E64.86895
G1 X109.695 Y109.695 E64.89649
G1 X90.305 Y90.305 E65.65824
G1 X91.296 Y90.305 E65.68579
G1 X109.695 Y108.704 E66.40858
G1 X109.695 Y107.712 E66.43613
G1 X92.288 Y90.305 E67.11996
G1 X93.280 Y90.305 E67.14751
G1 X109.695 Y106.720 E67.79238
G1 X109.695 Y105.729 E67.81993
G1 X94.271 Y90.305 E68.42585
G1 X95.263 Y90.305 E68.45339
G1 X109.695 Y104.737 E69.02035
G1 X109.695 Y103.745 E69.04790
G1 X96.255 Y90.305 E69.57590
G1 X97.247 Y90.305 E69.60345
G1 X109.695 Y102.753 E70.09249
G1 X109.695 Y101.762 E70.12004
G1 X98.238 Y90.305 E70.57012
G1 X99.230 Y90.305 E70.59767
G1 X109.695 Y100.770 E71.00879
G1 X109.695 Y99.778 E71.03634
G1 X100.222 Y90.305 E71.40851
G1 X101.213 Y90.305 E71.43605
G1 X109.695 Y98.787 E71.76926
G1 X109.695 Y97.795 E71.79681
G1 X102.205 Y90.305 E72.09106
G1 X103.197 Y90.305 E72.11861
G1 X109.695 Y96.803 E72.37390
G1 X109.695 Y95.811 E72.40145
G1 X104.189 Y90.305 E72.61778
G1 X105.180 Y90.305 E72.64533
G1 X109.695 Y94.820 E72.82271
G1 X109.695 Y93.828 E72.85026
G1 X106.172 Y90.305 E72.98867
G1 X107.164 Y90.305 E73.01622
G1 X109.695 Y92.836 E73.11568
G1 X109.695 Y91.845 E73.14323
G1 X108.155 Y90.305 E73.20373
G1 X109.147 Y90.305 E73.23128
G1 X109.695 Y90.853 E73.25282
G1 Z2.000 F7800.000
G1 X109.147 Y109.695 F7800.000
G1 F4800
G1 X109.695 Y109.147 E73.27437
G1 X109.695 Y108.155 E73.30191
G1 X108.155 Y109.695 E73.36241
G1 X107.164 Y109.695 E73.38996
G1 X109.695 Y107.164 E73.48942
G1 X109.695 Y106.172 E73.51697
G1 X106.172 Y109.695 E73.65539
G1 X105.180 Y109.695 E73.68294
G1 X109.695 Y105.180 E73.86031
G1 X109.695 Y104.189 E73.88786
G1 X104.189 Y109.695 E74.10419
G1 X103.197 Y109.695 E74.13174
G1 X109.695 Y103.197 E74.38703
G1 X109.695 Y102.205 E74.41458
G1 X102.205 Y109.695 E74.70883
G1 X101.213 Y109.695 E74.73638
G1 X109.695 Y101.213 E75.06959
G1 X109.695 Y100.222 E75.09714
G1 X100.222 Y109.695 E75.46930
G1 X99.230 Y109.695 E75.49685
G1 X109.695 Y99.230 E75.90798
G1 X109.695 Y98.238 E75.93552
G1 X98.238 Y109.695 E76.38561
G1 X97.247 Y109.695 E76.41315
G1 X109.695 Y97.247 E76.90220
G1 X109.695 Y96.255 E76.92974
G1 X96.255 Y109.695 E77.45774
G1 X95.263 Y109.695 E77.48529
G1 X109.695 Y95.263 E78.05225
G1 X109.695 Y94.271 E78.07980
G1 X94.271 Y109.695 E78.68571
G1 X93.280 Y109.695 E78.71326
G1 X109.695 Y93.280 E79.35813
G1 X109.695 Y92.288 E79.38568
G1 X92.288 Y109.695 E80.06951
G1 X91.296 Y109.695 E80.09706
G1 X109.695 Y91.296 E80.81985
G1 X109.695 Y90.305 E80.84740
G1 X90.305 Y109.695 E81.60915
G1 X90.305 Y108.704 E81.63670
G1 X108.704 Y90.305 E82.35949
G1 X107.712 Y90.305 E82.38703
G1 X90.305 Y107.712 E83.07087
G1 X90.305 Y106.720 E83.09841
G1 X106.720 Y90.305 E83.74329
G1 X105.729 Y90.305 E83.77084
G1 X90.305 Y105.729 E84.37675
G1 X90.305 Y104.737 E84.40430
G1 X104.737 Y90.305 E84.97126
G1 X103.745 Y90.305 E84.99881
G1 X90.305 Y103.745 E85.52681
G1 X90.305 Y102.753 E85.55435
G1 X102.753 Y90.305 E86.04339
G1 X101.762 Y90.305 E86.07094
G1 X90.305 Y101.762 E86.52103
G1 X90.305 Y100.770 E86.54857
G1 X100.770 Y90.305 E86.95970
G1 X99.778 Y90.305 E86.98725
G1 X90.305 Y99.778 E87.35941
G1 X90.305 Y98.787 E87.38696
G1 X98.787 Y90.305 E87.72017
G1 X97.795 Y90.305 E87.74772
G1 X90.305 Y97.795 E88.04197
G1 X90.305 Y96.803 E88.06951
G1 X96.803 Y90.305 E88.32481
G1 X95.811 Y90.305 E88.35235
G1 X90.305 Y95.811 E88.56869
G1 X90.305 Y94.820 E88.59624
G1 X94.820 Y90.305 E88.77361
G1 X93.828 Y90.305 E88.80116
G1 X90.305 Y93.828 E88.93958
G1 X90.305 Y92.836 E88.96713
G1 X92.836 Y90.305 E89.06659
G1 X91.845 Y90.305 E89.09413
G1 X90.305 Y91.845 E89.15464
G1 X90.305 Y90.853 E89.18218
G1 X90.853 Y90.305 E89.20373
G1 Z2.400 F7800.000
G1 X90.305 Y109.147 F7800.000
G1 F4800
G1 X90.853 Y109.695 E89.22527
G1 X91.845 Y109.695 E89.25282
G1 X90.305 Y108.155 E89.31332
G1 X90.305 Y107.164 E89.34087
G1 X92.836 Y109.695 E89.44033
G1 X93.828 Y109.695 E89.46787
G1 X90.305 Y106.172 E89.60629
G1 X90.305 Y105.180 E89.63384
G1 X94.820 Y109.695 E89.81122
G1 X95.811 Y109.695 E89.83876
G1 X90.305 Y104.189 E90.05510
G1 X90.305 Y103.197 E90.08265
G1 X96.803 Y109.695 E90.33794
G1 X97.795 Y109.695 E90.36549
G1 X90.305 Y102.205 E90.65974
G1 X90.305 Y101.213 E90.68728
G1 X98.787 Y109.695 E91.02049
G1 X99.778 Y109.695 E91.04804
G1 X90.305 Y100.222 E91.42021
G1 X90.305 Y99.230 E91.44776
G1 X100.770 Y109.695 E91.85888
G1 X101.762 Y109.695 E91.88643
G1 X90.305 Y98.238 E92.33651
G1 X90.305 Y97.247 E92.36406
G1 X102.753 Y109.695 E92.85310
G1 X103.745 Y109.695 E92.88065
G1 X90.305 Y96.255 E93.40865
G1 X90.305 Y95.263 E93.43620
G1 X104.737 Y109.695 E94.00315
G1 X105.729 Y109.695 E94.03070
G1 X90.305 Y94.271 E94.63662
G1 X90.305 Y93.280 E94.66416
G1 X106.720 Y109.695 E95.30904
G1 X107.712 Y109.695 E95.33659
G1 X90.305 Y92.288 E96.02042
G1 X90.305 Y91.296 E96.04797
G1 X108.704 Y109.695 E96.77076
G1 X109.695 Y109.695 E96.79830
G1 X90.305 Y90.305 E97.56005
G1 X91.296 Y90.305 E97.58760
G1 X109.695 Y108.704 E98.31039
G1 X109.695 Y107.712 E98.33794
G1 X92.288 Y90.305 E99.02177
G1 X93.280 Y90.305 E99.04932
G1 X109.695 Y106.720 E99.69419
G1 X109.695 Y105.729 E99.72174
G1 X94.271 Y90.305 E100.32766
G1 X95.263 Y90.305 E100.35520
G1 X109.695 Y104.737 E100.92216
G1 X109.695 Y103.745 E100.94971
G1 X96.255 Y90.305 E101.47771
G1 X97.247 Y90.305 E101.50526
G1 X109.695 Y102.753 E101.99430
G1 X109.695 Y101.762 E102.02185
G1 X98.238 Y90.305 E102.47193
G1 X99.230 Y90.305 E102.49948
G1 X109.695 Y100.770 E102.91060
G1 X109.695 Y99.778 E102.93815
G1 X100.222 Y90.305 E103.31032
G1 X101.213 Y90.305 E103.33787
G1 X109.695 Y98.787 E103.67107
G1 X109.695 Y97.795 E103.69862
G1 X102.205 Y90.305 E103.99287
G1 X103.197 Y90.305 E104.02042
G1 X109.695 Y96.803 E104.27571
G1 X109.695 Y95.811 E104.30326
G1 X104.189 Y90.305 E104.51959
G1 X105.180 Y90.305 E104.54714
G1 X109.695 Y94.820 E104.72452
G1 X109.695 Y93.828 E104.75207
G1 X106.172 Y90.305 E104.89048
G1 X107.164 Y90.305 E104.91803
G1 X109.695 Y92.836 E105.01749
G1 X109.695 Y91.845 E105.04504
G1 X108.155 Y90.305 E105.10554
G1 X109.147 Y90.305 E105.13309
G1 X109.695 Y90.853 E105.15463
G1 Z2.800 F7800.000
G1 X109.147 Y109.695 F7800.000
G1 F4800
G1 X109.695 Y109.147 E105.17618
G1 X109.695 Y108.155 E105.20372
G1 X108.155 Y109.695 E105.26423
G1 X107.164 Y109.695 E105.29177
G1 X109.695 Y107.164 E105.39123
G1 X109.695 Y106.172 E105.41878
G1 X106.172 Y109.695 E105.55720
G1 X105.180 Y109.695 E105.58475
G1 X109.695 Y105.180 E105.76212
G1 X109.695 Y104.189 E105.78967
G1 X104.189 Y109.695 E106.00600
G1 X103.197 Y109.695 E106.03355
G1 X109.695 Y103.197 E106.28884
G1 X109.695 Y102.205 E106.31639
G1 X102.205 Y109.695 E106.61064
G1 X101.213 Y109.695 E106.63819
G1 X109.695 Y101.213 E106.97140
G1 X109.695 Y100.222 E106.99895
G1 X100.222 Y109.695 E107.37111
G1 X99.230 Y109.695 E107.39866
G1 X109.695 Y99.230 E107.80979
G1 X109.695 Y98.238 E107.83733
G1 X98.238 Y109.695 E108.28742
G1 X97.247 Y109.695 E108.31497
G1 X109.695 Y97.247 E108.80401
G1 X109.695 Y96.255 E108.83155
G1 X96.255 Y109.695 E109.35955
G1 X95.263 Y109.695 E109.38710
G1 X109.695 Y95.263 E109.95406
G1 X109.695 Y94.271 E109.98161
G1 X94.271 Y109.695 E110.58752
G1 X93.280 Y109.695 E110.61507
G1 X109.695 Y93.280 E111.25995
G1 X109.695 Y92.288 E111.28749
G1 X92.288 Y109.695 E111.97133
G1 X91.296 Y109.695 E111.99887
G1 X109.695 Y91.296 E112.72166
G1 X109.695 Y90.305 E112.74921
G1 X90.305 Y109.695 E113.51096
G1 X90.305 Y108.704 E113.53851
G1 X108.704 Y90.305 E114.26130
G1 X107.712 Y90.305 E114.28885
G1 X90.305 Y107.712 E114.97268
G1 X90.305 Y106.720 E115.00022
G1 X106.720 Y90.305 E115.64510
G1 X105.729 Y90.305 E115.67265
G1 X90.305 Y105.729 E116.27856
G1 X90.305 Y104.737 E116.30611
G1 X104.737 Y90.305 E116.87307
G1 X103.745 Y90.305 E116.90062
G1 X90.305 Y103.745 E117.42862
G1 X90.305 Y102.753 E117.45616
G1 X102.753 Y90.305 E117.94520
G1 X101.762 Y90.305 E117.97275
G1 X90.305 Y101.762 E118.42284
G1 X90.305 Y100.770 E118.45038
G1 X100.770 Y90.305 E118.86151
G1 X99.778 Y90.305 E118.88906
G1 X90.305 Y99.778 E119.26122
G1 X90.305 Y98.787 E119.28877
G1 X98.787 Y90.305 E119.62198
G1 X97.795 Y90.305 E119.64953
G1 X90.305 Y97.795 E119.94378
G1 X90.305 Y96.803 E119.97133
G1 X96.803 Y90.305 E120.22662
G1 X95.811 Y90.305 E120.25417
G1 X90.305 Y95.811 E120.47050
G1 X90.305 Y94.820 E120.49805
G1 X94.820 Y90.305 E120.67542
G1 X93.828 Y90.305 E120.70297
G1 X90.305 Y93.828 E120.84139
G1 X90.305 Y92.836 E120.86894
G1 X92.836 Y90.305 E120.96840
G1 X91.845 Y90.305 E120.99594
G1 X90.305 Y91.845 E121.05645
G1 X90.305 Y90.853 E121.08399
G1 X90.853 Y90.305 E121.10554
G1 Z3.200 F7800.000
G1 X90.305 Y109.147 F7800.000
G1 F4800
G1 X90.853 Y109.695 E121.12708
G1 X91.845 Y109.695 E121.15463
G1 X90.305 Y108.155 E121.21513
G1 X90.305 Y107.164 E121.24268
G1 X92.836 Y109.695 E121.34214
G1 X93.828 Y109.695 E121.36968
G1 X90.305 Y106.172 E121.50810
G1 X90.305 Y105.180 E121.53565
G1 X94.820 Y109.695 E121.71303
G1 X95.811 Y109.695 E121.74057
G1 X90.305 Y104.189 E121.95691
G1 X90.305 Y103.197 E121.98446
G1 X96.803 Y109.695 E122.23975
G1 X97.795 Y109.695 E122.26730
G1 X90.305 Y102.205 E122.56155
G1 X90.305 Y101.213 E122.58909
G1 X98.787 Y109.695 E122.92230
G1 X99.778 Y109.695 E122.94985
G1 X90.305 Y100.222 E123.32202
G1 X90.305 Y99.230 E123.34957
G1 X100.770 Y109.695 E123.76069
G1 X101.762 Y109.695 E123.78824
G1 X90.305 Y98.238 E124.23832
G1 X90.305 Y97.247 E124.26587
G1 X102.753 Y109.695 E124.75491
G1 X103.745 Y109.695 E124.78246
G1 X90.305 Y96.255 E125.31046
G1 X90.305 Y95.263 E125.33801
G1 X104.737 Y109.695 E125.90496
G1 X105.729 Y109.695 E125.93251
G1 X90.305 Y94.271 E126.53843
G1 X90.305 Y93.280 E126.56597
G1 X106.720 Y109.695 E127.21085
G1 X107.712 Y109.695 E127.23840
G1 X90.305 Y92.288 E127.92223
G1 X90.305 Y91.296 E127.94978
G1 X108.704 Y109.695 E128.67257
G1 X109.695 Y109.695 E128.70011
G1 X90.305 Y90.305 E129.46186
G1 X91.296 Y90.305 E129.48941
G1 X109.695 Y108.704 E130.21220
G1 X109.695 Y107.712 E130.23975
G1 X92.288 Y90.305 E130.92358
G1 X93.280 Y90.305 E130.95113
G1 X109.695 Y106.720 E131.59600
G1 X109.695 Y105.729 E131.62355
G1 X94.271 Y90.305 E132.22947
G1 X95.263 Y90.305 E132.25701
G1 X109.695 Y104.737 E132.82397
G1 X109.695 Y103.745 E132.85152
G1 X96.255 Y90.305 E133.37952
G1 X97.247 Y90.305 E133.40707
G1 X109.695 Y102.753 E133.89611
G1 X109.695 Y101.762 E133.92366
G1 X98.238 Y90.305 E134.37374
G1 X99.230 Y90.305 E134.40129
G1 X109.695 Y100.770 E134.81241
G1 X109.695 Y99.778 E134.83996
G1 X100.222 Y90.305 E135.21213
G1 X101.213 Y90.305 E135.23968
G1 X109.695 Y98.787 E135.57288
G1 X109.695 Y97.795 E135.60043
G1 X102.205 Y90.305 E135.89468
G1 X103.197 Y90.305 E135.92223
G1 X109.695 Y96.803 E136.17752
G1 X109.695 Y95.811 E136.20507
G1 X104.189 Y90.305 E136.42140
G1 X105.180 Y90.305 E136.44895
G1 X109.695 Y94.820 E136.62633
G1 X109.695 Y93.828 E136.65388
G1 X106.172 Y90.305 E136.79229
G1 X107.164 Y90.305 E136.81984
G1 X109.695 Y92.836 E136.91930
G1 X109.695 Y91.845 E136.94685
G1 X108.155 Y90.305 E137.00735
G1 X109.147 Y90.305 E137.03490
G1 X109.695 Y90.853 E137.05644
G1 Z3.600 F7800.000
G1 X109.147 Y109.695 F7800.000
G1 F4800
G1 X109.695 Y109.147 E137.07799
G1 X109.695 Y108.155 E137.10553
G1 X108.155 Y109.695 E137.16604
G1 X107.164 Y109.695 E137.19358
G1 X109.695 Y107.164 E137.29304
G1 X109.695 Y106.172 E137.32059
G1 X106.172 Y109.695 E137.45901
G1 X105.180 Y109.695 E137.48656
G1 X109.695 Y105.180 E137.66393
G1 X109.695 Y104.189 E137.69148
G1 X104.189 Y109.695 E137.90781
G1 X103.197 Y109.695 E137.93536
G1 X109.695 Y103.197 E138.19065
G1 X109.695 Y102.205 E138.21820
G1 X102.205 Y109.695 E138.51245
G1 X101.213 Y109.695 E138.54000
G1 X109.695 Y101.213 E138.87321
G1 X109.695 Y100.222 E138.90076
G1 X100.222 Y109.695 E139.27292
G1 X99.230 Y109.695 E139.30047
G1 X109.695 Y99.230 E139.71160
G1 X109.695 Y98.238 E139.73914
G1 X98.238 Y109.695 E140.18923
G1 X97.247 Y109.695 E140.21678
G1 X109.695 Y97.247 E140.70582
G1 X109.695 Y96.255 E140.73336
G1 X96.255 Y109.695 E141.26136
G1 X95.263 Y109.695 E141.28891
G1 X109.695 Y95.263 E141.85587
G1 X109.695 Y94.271 E141.88342
G1 X94.271 Y109.695 E142.48933
G1 X93.280 Y109.695 E142.51688
G1 X109.695 Y93.280 E143.16176
G1 X109.695 Y92.288 E143.18930
G1 X92.288 Y109.695 E143.87314
G1 X91.296 Y109.695 E143.90068
G1 X109.695 Y91.296 E144.62347
G1 X109.695 Y90.305 E144.65102
G1 X90.305 Y109.695 E145.41277
G1 X90.305 Y108.704 E145.44032
G1 X108.704 Y90.305 E146.16311
G1 X107.712 Y90.305 E146.19066
G1 X90.305 Y107.712 E146.87449
G1 X90.305 Y106.720 E146.90204
G1 X106.720 Y90.305 E147.54691
G1 X105.729 Y90.305 E147.57446
G1 X90.305 Y105.729 E148.18037
G1 X90.305 Y104.737 E148.20792
G1 X104.737 Y90.305 E148.77488
G1 X103.745 Y90.305 E148.80243
G1 X90.305 Y103.745 E149.33043
G1 X90.305 Y102.753 E149.35797
G1 X102.753 Y90.305 E149.84701
G1 X101.762 Y90.305 E149.87456
G1 X90.305 Y101.762 E150.32465
G1 X90.305 Y100.770 E150.35219
G1 X100.770 Y90.305 E150.76332
G1 X99.778 Y90.305 E150.79087
G1 X90.305 Y99.778 E151.16303
G1 X90.305 Y98.787 E151.19058
G1 X98.787 Y90.305 E151.52379
G1 X97.795 Y90.305 E151.55134
G1 X90.305 Y97.795 E151.84559
G1 X90.305 Y96.803 E151.87314
G1 X96.803 Y90.305 E152.12843
G1 X95.811 Y90.305 E152.15598
G1 X90.305 Y95.811 E152.37231
G1 X90.305 Y94.820 E152.39986
G1 X94.820 Y90.305 E152.57723
G1 X93.828 Y90.305 E152.60478
G1 X90.305 Y93.828 E152.74320
G1 X90.305 Y92.836 E152.77075
G1 X92.836 Y90.305 E152.87021
G1 X91.845 Y90.305 E152.89775
G1 X90.305 Y91.845 E152.95826
G1 X90.305 Y90.853 E152.98580
G1 X90.853 Y90.305 E153.00735
G1 Z4.000 F7800.000
G1 X90.305 Y109.147 F7800.000
G1 F4800
G1 X90.853 Y109.695 E153.02889
G1 X91.845 Y109.695 E153.05644
G1 X90.305 Y108.155 E153.11694
G1 X90.305 Y107.164 E153.14449
G1 X92.836 Y109.695 E153.24395
G1 X93.828 Y109.695 E153.27149
G1 X90.305 Y106.172 E153.40991
G1 X90.305 Y105.180 E153.43746
G1 X94.820 Y109.695 E153.61484
G1 X95.811 Y109.695 E153.64238
G1 X90.305 Y104.189 E153.85872
G1 X90.305 Y103.197 E153.88627
G1 X96.803 Y109.695 E154.14156
G1 X97.795 Y109.695 E154.16911
G1 X90.305 Y102.205 E154.46336
G1 X90.305 Y101.213 E154.49090
G1 X98.787 Y109.695 E154.82411
G1 X99.778 Y109.695 E154.85166
G1 X90.305 Y100.222 E155.22383
G1 X90.305 Y99.230 E155.25138
G1 X100.770 Y109.695 E155.66250
G1 X101.762 Y109.695 E155.69005
G1 X90.305 Y98.238 E156.14013
G1 X90.305 Y97.247 E156.16768
G1 X102.753 Y109.695 E156.65672
G1 X103.745 Y109.695 E156.68427
G1 X90.305 Y96.255 E157.21227
G1 X90.305 Y95.263 E157.23982
G1 X104.737 Y109.695 E157.80677
G1 X105.729 Y109.695 E157.83432
G1 X90.305 Y94.271 E158.44024
G1 X90.305 Y93.280 E158.46779
G1 X106.720 Y109.695 E159.11266
G1 X107.712 Y109.695 E159.14021
G1 X90.305 Y92.288 E159.82404
G1 X90.305 Y91.296 E159.85159
G1 X108.704 Y109.695 E160.57438
G1 X109.695 Y109.695 E160.60192
G1 X90.305 Y90.305 E161.36367
G1 X91.296 Y90.305 E161.39122
G1 X109.695 Y108.704 E162.11401
G1 X109.695 Y107.712 E162.14156
G1 X92.288 Y90.305 E162.82539
G1 X93.280 Y90.305 E162.85294
G1 X109.695 Y106.720 E163.49781
G1 X109.695 Y105.729 E163.52536
G1 X94.271 Y90.305 E164.13128
G1 X95.263 Y90.305 E164.15883
G1 X109.695 Y104.737 E164.72578
G1 X109.695 Y103.745 E164.75333
G1 X96.255 Y90.305 E165.28133
G1 X97.247 Y90.305 E165.30888
G1 X109.695 Y102.753 E165.79792
G1 X109.695 Y101.762 E165.82547
G1 X98.238 Y90.305 E166.27555
G1 X99.230 Y90.305 E166.30310
G1 X109.695 Y100.770 E166.71422
G1 X109.695 Y99.778 E166.74177
G1 X100.222 Y90.305 E167.11394
G1 X101.213 Y90.305 E167.14149
G1 X109.695 Y98.787 E167.47469
G1 X109.695 Y97.795 E167.50224
G1 X102.205 Y90.305 E167.79649
G1 X103.197 Y90.305 E167.82404
G1 X109.695 Y96.803 E168.07933
G1 X109.695 Y95.811 E168.10688
G1 X104.189 Y90.305 E168.32322
G1 X105.180 Y90.305 E168.35076
G1 X109.695 Y94.820 E168.52814
G1 X109.695 Y93.828 E168.55569
G1 X106.172 Y90.305 E168.69410
G1 X107.164 Y90.305 E168.72165
G1 X109.695 Y92.836 E168.82111
G1 X109.695 Y91.845 E168.84866
G1 X108.155 Y90.305 E168.90916
G1 X109.147 Y90.305 E168.93671
G1 X109.695 Y90.853 E168.95825
G1 Z4.400 F7800.000
G1 X109.147 Y109.695 F7800.000
G1 F4800
G1 X109.695 Y109.147 E168.97980
G1 X109.695 Y108.155 E169.00734
G1 X108.155 Y109.695 E169.06785
G1 X107.164 Y109.695 E169.09539
G1 X109.695 Y107.164 E169.19485
G1 X109.695 Y106.172 E169.22240
G1 X106.172 Y109.695 E169.36082
G1 X105.180 Y109.695 E169.38837
G1 X109.695 Y105.180 E169.56574
G1 X109.695 Y104.189 E169.59329
G1 X104.189 Y109.695 E169.80962
G1 X103.197 Y109.695 E169.83717
G1 X109.695 Y103.197 E170.09246
G1 X109.695 Y102.205 E170.12001
G1 X102.205 Y109.695 E170.41426
G1 X101.213 Y109.695 E170.44181
G1 X109.695 Y101.213 E170.77502
G1 X109.695 Y100.222 E170.80257
G1 X100.222 Y109.695 E171.17473
G1 X99.230 Y109.695 E171.20228
G1 X109.695 Y99.230 E171.61341
G1 X109.695 Y98.238 E171.64095
G1 X98.238 Y109.695 E172.09104
G1 X97.247 Y109.695 E172.11859
G1 X109.695 Y97.247 E172.60763
G1 X109.695 Y96.255 E172.63517
G1 X96.255 Y109.695 E173.16317
G1 X95.263 Y109.695 E173.19072
G1 X109.695 Y95.263 E173.75768
G1 X109.695 Y94.271 E173.78523
G1 X94.271 Y109.695 E174.39114
G1 X93.280 Y109.695 E174.41869
G1 X109.695 Y93.280 E175.06357
G1 X109.695 Y92.288 E175.09111
G1 X92.288 Y109.695 E175.77495
G1 X91.296 Y109.695 E175.80249
G1 X109.695 Y91.296 E176.52528
G1 X109.695 Y90.305 E176.55283
G1 X90.305 Y109.695 E177.31458
G1 X90.305 Y108.704 E177.34213
G1 X108.704 Y90.305 E178.06492
G1 X107.712 Y90.305 E178.09247
G1 X90.305 Y107.712 E178.77630
G1 X90.305 Y106.720 E178.80385
G1 X106.720 Y90.305 E179.44872
G1 X105.729 Y90.305 E179.47627
G1 X90.305 Y105.729 E180.08218
G1 X90.305 Y104.737 E180.10973
G1 X104.737 Y90.305 E180.67669
G1 X103.745 Y90.305 E180.70424
G1 X90.305 Y103.745 E181.23224
G1 X90.305 Y102.753 E181.25978
G1 X102.753 Y90.305 E181.74882
G1 X101.762 Y90.305 E181.77637
G1 X90.305 Y101.762 E182.22646
G1 X90.305 Y100.770 E182.25400
G1 X100.770 Y90.305 E182.66513
G1 X99.778 Y90.305 E182.69268
G1 X90.305 Y99.778 E183.06484
G1 X90.305 Y98.787 E183.09239
G1 X98.787 Y90.305 E183.42560
G1 X97.795 Y90.305 E183.45315
G1 X90.305 Y97.795 E183.74740
G1 X90.305 Y96.803 E183.77495
G1 X96.803 Y90.305 E184.03024
G1 X95.811 Y90.305 E184.05779
G1 X90.305 Y95.811 E184.27412
G1 X90.305 Y94.820 E184.30167
G1 X94.820 Y90.305 E184.47904
G1 X93.828 Y90.305 E184.50659
G1 X90.305 Y93.828 E184.64501
G1 X90.305 Y92.836 E184.67256
G1 X92.836 Y90.305 E184.77202
G1 X91.845 Y90.305 E184.79956
G1 X90.305 Y91.845 E184.86007
G1 X90.305 Y90.853 E184.88761
G1 X90.853 Y90.305 E184.90916
G1 Z4.800 F7800.000
G1 X90.305 Y109.147 F7800.000
G1 F4800
G1 X90.853 Y109.695 E184.93070
G1 X91.845 Y109.695 E184.95825
G1 X90.305 Y108.155 E185.01875
G1 X90.305 Y107.164 E185.04630
G1 X92.836 Y109.695 E185.14576
G1 X93.828 Y109.695 E185.17331
G1 X90.305 Y106.172 E185.31172
G1 X90.305 Y105.180 E185.33927
G1 X94.820 Y109.695 E185.51665
G1 X95.811 Y109.695 E185.54419
G1 X90.305 Y104.189 E185.76053
G1 X90.305 Y103.197 E185.78808
G1 X96.803 Y109.695 E186.04337
G1 X97.795 Y109.695 E186.07092
G1 X90.305 Y102.205 E186.36517
G1 X90.305 Y101.213 E186.39271
G1 X98.787 Y109.695 E186.72592
G1 X99.778 Y109.695 E186.75347
G1 X90.305 Y100.222 E187.12564
G1 X90.305 Y99.230 E187.15319
G1 X100.770 Y109.695 E187.56431
G1 X101.762 Y109.695 E187.59186
G1 X90.305 Y98.238 E188.04194
G1 X90.305 Y97.247 E188.06949
G1 X102.753 Y109.695 E188.55853
G1 X103.745 Y109.695 E188.58608
G1 X90.305 Y96.255 E189.11408
G1 X90.305 Y95.263 E189.14163
G1 X104.737 Y109.695 E189.70858
G1 X105.729 Y109.695 E189.73613
G1 X90.305 Y94.271 E190.34205
G1 X90.305 Y93.280 E190.36960
G1 X106.720 Y109.695 E191.01447
G1 X107.712 Y109.695 E191.04202
G1 X90.305 Y92.288 E191.72585
G1 X90.305 Y91.296 E191.75340
G1 X108.704 Y109.695 E192.47619
G1 X109.695 Y109.695 E192.50374
G1 X90.305 Y90.305 E193.26548
G1 X91.296 Y90.305 E193.29303
G1 X109.695 Y108.704 E194.01582
G1 X109.695 Y107.712 E194.04337
G1 X92.288 Y90.305 E194.72720
G1 X93.280 Y90.305 E194.75475
G1 X109.695 Y106.720 E195.39962
G1 X109.695 Y105.729 E195.42717
G1 X94.271 Y90.305 E196.03309
G1 X95.263 Y90.305 E196.06064
G1 X109.695 Y104.737 E196.62759
G1 X109.695 Y103.745 E196.65514
G1 X96.255 Y90.305 E197.18314
G1 X97.247 Y90.305 E197.21069
G1 X109.695 Y102.753 E197.69973
G1 X109.695 Y101.762 E197.72728
G1 X98.238 Y90.305 E198.17736
G1 X99.230 Y90.305 E198.20491
G1 X109.695 Y100.770 E198.61603
G1 X109.695 Y99.778 E198.64358
G1 X100.222 Y90.305 E199.01575
G1 X101.213 Y90.305 E199.04330
G1 X109.695 Y98.787 E199.37650
G1 X109.695 Y97.795 E199.40405
G1 X102.205 Y90.305 E199.69830
G1 X103.197 Y90.305 E199.72585
G1 X109.695 Y96.803 E199.98114
G1 X109.695 Y95.811 E200.00869
G1 X104.189 Y90.305 E200.22503
G1 X105.180 Y90.305 E200.25257
G1 X109.695 Y94.820 E200.42995
G1 X109.695 Y93.828 E200.45750
G1 X106.172 Y90.305 E200.59591
G1 X107.164 Y90.305 E200.62346
G1 X109.695 Y92.836 E200.72292
G1 X109.695 Y91.845 E200.75047
G1 X108.155 Y90.305 E200.81097
G1 X109.147 Y90.305 E200.83852
G1 X109.695 Y90.853 E200.86006
G1 Z5.200 F7800.000
G1 X109.147 Y109.695 F7800.000
G1 F4800
G1 X109.695 Y109.147 E200.88161
G1 X109.695 Y108.155 E200.90915
G1 X108.155 Y109.695 E200.96966
G1 X107.164 Y109.695 E200.99720
G1 X109.695 Y107.164 E201.09666
G1 X109.695 Y106.172 E201.12421
G1 X106.172 Y109.695 E201.26263
G1 X105.180 Y109.695 E201.29018
G1 X109.695 Y105.180 E201.46755
G1 X109.695 Y104.189 E201.49510
G1 X104.189 Y109.695 E201.71143
G1 X103.197 Y109.695 E201.73898
G1 X109.695 Y103.197 E201.99428
G1 X109.695 Y102.205 E202.02182
G1 X102.205 Y109.695 E202.31607
G1 X101.213 Y109.695 E202.34362
G1 X109.695 Y101.213 E202.67683
G1 X109.695 Y100.222 E202.70438
G1 X100.222 Y109.695 E203.07654
G1 X99.230 Y109.695 E203.10409
G1 X109.695 Y99.230 E203.51522
G1 X109.695 Y98.238 E203.54276
G1 X98.238 Y109.695 E203.99285
G1 X97.247 Y109.695 E204.02040
G1 X109.695 Y97.247 E204.50944
G1 X109.695 Y96.255 E204.53699
G1 X96.255 Y109.695 E205.06498
G1 X95.263 Y109.695 E205.09253
G1 X109.695 Y95.263 E205.65949
G1 X109.695 Y94.271 E205.68704
G1 X94.271 Y109.695 E206.29295
G1 X93.280 Y109.695 E206.32050
G1 X109.695 Y93.280 E206.96538
G1 X109.695 Y92.288 E206.99292
G1 X92.288 Y109.695 E207.67676
G1 X91.296 Y109.695 E207.70430
G1 X109.695 Y91.296 E208.42709
G1 X109.695 Y90.305 E208.45464
G1 X90.305 Y109.695 E209.21639
G1 X90.305 Y108.704 E209.24394
G1 X108.704 Y90.305 E209.96673
G1 X107.712 Y90.305 E209.99428
G1 X90.305 Y107.712 E210.67811
G1 X90.305 Y106.720 E210.70566
G1 X106.720 Y90.305 E211.35053
G1 X105.729 Y90.305 E211.37808
G1 X90.305 Y105.729 E211.98399
G1 X90.305 Y104.737 E212.01154
G1 X104.737 Y90.305 E212.57850
G1 X103.745 Y90.305 E212.60605
G1 X90.305 Y103.745 E213.13405
G1 X90.305 Y102.753 E213.16159
G1 X102.753 Y90.305 E213.65064
G1 X101.762 Y90.305 E213.67818
G1 X90.305 Y101.762 E214.12827
G1 X90.305 Y100.770 E214.15581
G1 X100.770 Y90.305 E214.56694
G1 X99.778 Y90.305 E214.59449
G1 X90.305 Y99.778 E214.96665
G1 X90.305 Y98.787 E214.99420
G1 X98.787 Y90.305 E215.32741
G1 X97.795 Y90.305 E215.35496
G1 X90.305 Y97.795 E215.64921
G1 X90.305 Y96.803 E215.67676
G1 X96.803 Y90.305 E215.93205
G1 X95.811 Y90.305 E215.95960
G1 X90.305 Y95.811 E216.17593
G1 X90.305 Y94.820 E216.20348
G1 X94.820 Y90.305 E216.38085
G1 X93.828 Y90.305 E216.40840
G1 X90.305 Y93.828 E216.54682
G1 X90.305 Y92.836 E216.57437
G1 X92.836 Y90.305 E216.67383
G1 X91.845 Y90.305 E216.70137
G1 X90.305 Y91.845 E216.76188
G1 X90.305 Y90.853 E216.78942
G1 X90.853 Y90.305 E216.81097
G1 Z5.600 F7800.000
G1 X90.305 Y109.147 F7800.000
G1 F4800
G1 X90.853 Y109.695 E216.83251
G1 X91.845 Y109.695 E216.86006
G1 X90.305 Y108.155 E216.92056
G1 X90.305 Y107.164 E216.94811
G1 X92.836 Y109.695 E217.04757
G1 X93.828 Y109.695 E217.07512
G1 X90.305 Y106.172 E217.21353
G1 X90.305 Y105.180 E217.24108
G1 X94.820 Y109.695 E217.41846
G1 X95.811 Y109.695 E217.44600
G1 X90.305 Y104.189 E217.66234
G1 X90.305 Y103.197 E217.68989
G1 X96.803 Y109.695 E217.94518
G1 X97.795 Y109.695 E217.97273
G1 X90.305 Y102.205 E218.26698
G1 X90.305 Y101.213 E218.29453
G1 X98.787 Y109.695 E218.62773
G1 X99.778 Y109.695 E218.65528
G1 X90.305 Y100.222 E219.02745
G1 X90.305 Y99.230 E219.05500
G1 X100.770 Y109.695 E219.46612
G1 X101.762 Y109.695 E219.49367
G1 X90.305 Y98.238 E219.94375
G1 X90.305 Y97.247 E219.97130
G1 X102.753 Y109.695 E220.46034
G1 X103.745 Y109.695 E220.48789
G1 X90.305 Y96.255 E221.01589
G1 X90.305 Y95.263 E221.04344
G1 X104.737 Y109.695 E221.61039
G1 X105.729 Y109.695 E221.63794
G1 X90.305 Y94.271 E222.24386
G1 X90.305 Y93.280 E222.27141
G1 X106.720 Y109.695 E222.91628
G1 X107.712 Y109.695 E222.94383
G1 X90.305 Y92.288 E223.62766
G1 X90.305 Y91.296 E223.65521
G1 X108.704 Y109.695 E224.37800
G1 X109.695 Y109.695 E224.40555
G1 X90.305 Y90.305 E225.16729
G1 X91.296 Y90.305 E225.19484
G1 X109.695 Y108.704 E225.91763
G1 X109.695 Y107.712 E225.94518
G1 X92.288 Y90.305 E226.62901
G1 X93.280 Y90.305 E226.65656
G1 X109.695 Y106.720 E227.30143
G1 X109.695 Y105.729 E227.32898
G1 X94.271 Y90.305 E227.93490
G1 X95.263 Y90.305 E227.96245
G1 X109.695 Y104.737 E228.52940
G1 X109.695 Y103.745 E228.55695
G1 X96.255 Y90.305 E229.08495
G1 X97.247 Y90.305 E229.11250
G1 X109.695 Y102.753 E229.60154
G1 X109.695 Y101.762 E229.62909
G1 X98.238 Y90.305 E230.07917
G1 X99.230 Y90.305 E230.10672
G1 X109.695 Y100.770 E230.51784
G1 X109.695 Y99.778 E230.54539
G1 X100.222 Y90.305 E230.91756
G1 X101.213 Y90.305 E230.94511
G1 X109.695 Y98.787 E231.27832
G1 X109.695 Y97.795 E231.30586
G1 X102.205 Y90.305 E231.60011
G1 X103.197 Y90.305 E231.62766
G1 X109.695 Y96.803 E231.88295
G1 X109.695 Y95.811 E231.91050
G1 X104.189 Y90.305 E232.12684
G1 X105.180 Y90.305 E232.15438
G1 X109.695 Y94.820 E232.33176
G1 X109.695 Y93.828 E232.35931
G1 X106.172 Y90.305 E232.49773
G1 X107.164 Y90.305 E232.52527
G1 X109.695 Y92.836 E232.62473
G1 X109.695 Y91.845 E232.65228
G1 X108.155 Y90.305 E232.71278
G1 X109.147 Y90.305 E232.74033
G1 X109.695 Y90.853 E232.76187
G1 Z6.000 F7800.000
G1 X109.147 Y109.695 F7800.000
G1 F4800
G1 X109.695 Y109.147 E232.78342
G1 X109.695 Y108.155 E232.81096
G1 X108.155 Y109.695 E232.87147
G1 X107.164 Y109.695 E232.89901
G1 X109.695 Y107.164 E232.99847
G1 X109.695 Y106.172 E233.02602
G1 X106.172 Y109.695 E233.16444
G1 X105.180 Y109.695 E233.19199
G1 X109.695 Y105.180 E233.36936
G1 X109.695 Y104.189 E233.39691
G1 X104.189 Y109.695 E233.61325
G1 X103.197 Y109.695 E233.64079
G1 X109.695 Y103.197 E233.89609
G1 X109.695 Y102.205 E233.92363
G1 X102.205 Y109.695 E234.21788
G1 X101.213 Y109.695 E234.24543
G1 X109.695 Y101.213 E234.57864
G1 X109.695 Y100.222 E234.60619
G1 X100.222 Y109.695 E234.97835
G1 X99.230 Y109.695 E235.00590
G1 X109.695 Y99.230 E235.41703
G1 X109.695 Y98.238 E235.44458
G1 X98.238 Y109.695 E235.89466
G1 X97.247 Y109.695 E235.92221
G1 X109.695 Y97.247 E236.41125
G1 X109.695 Y96.255 E236.43880
G1 X96.255 Y109.695 E236.96680
G1 X95.263 Y109.695 E236.99434
G1 X109.695 Y95.263 E237.56130
G1 X109.695 Y94.271 E237.58885
G1 X94.271 Y109.695 E238.19476
G1 X93.280 Y109.695 E238.22231
G1 X109.695 Y93.280 E238.86719
G1 X109.695 Y92.288 E238.89473
G1 X92.288 Y109.695 E239.57857
G1 X91.296 Y109.695 E239.60611
G1 X109.695 Y91.296 E240.32890
G1 X109.695 Y90.305 E240.35645
G1 X90.305 Y109.695 E241.11820
G1 X90.305 Y108.704 E241.14575
G1 X108.704 Y90.305 E241.86854
G1 X107.712 Y90.305 E241.89609
G1 X90.305 Y107.712 E242.57992
G1 X90.305 Y106.720 E242.60747
G1 X106.720 Y90.305 E243.25234
G1 X105.729 Y90.305 E243.27989
G1 X90.305 Y105.729 E243.88580
G1 X90.305 Y104.737 E243.91335
G1 X104.737 Y90.305 E244.48031
G1 X103.745 Y90.305 E244.50786
G1 X90.305 Y103.745 E245.03586
G1 X90.305 Y102.753 E245.06340
G1 X102.753 Y90.305 E245.55245
G1 X101.762 Y90.305 E245.57999
G1 X90.305 Y101.762 E246.03008
G1 X90.305 Y100.770 E246.05762
G1 X100.770 Y90.305 E246.46875
G1 X99.778 Y90.305 E246.49630
G1 X90.305 Y99.778 E246.86846
G1 X90.305 Y98.787 E246.89601
G1 X98.787 Y90.305 E247.22922
G1 X97.795 Y90.305 E247.25677
G1 X90.305 Y97.795 E247.55102
G1 X90.305 Y96.803 E247.57857
G1 X96.803 Y90.305 E247.83386
G1 X95.811 Y90.305 E247.86141
G1 X90.305 Y95.811 E248.07774
G1 X90.305 Y94.820 E248.10529
G1 X94.820 Y90.305 E248.28266
G1 X93.828 Y90.305 E248.31021
G1 X90.305 Y93.828 E248.44863
G1 X90.305 Y92.836 E248.47618
G1 X92.836 Y90.305 E248.57564
G1 X91.845 Y90.305 E248.60318
G1 X90.305 Y91.845 E248.66369
G1 X90.305 Y90.853 E248.69123
G1 X90.853 Y90.305 E248.71278
G1 Z6.400 F7800.000
G1 X90.305 Y109.147 F7800.000
G1 F4800
G1 X90.853 Y109.695 E248.73432
G1 X91.845 Y109.695 E248.76187
G1 X90.305 Y108.155 E248.82237
G1 X90.305 Y107.164 E248.84992
G1 X92.836 Y109.695 E248.94938
G1 X93.828 Y109.695 E248.97693
G1 X90.305 Y106.172 E249.11534
G1 X90.305 Y105.180 E249.14289
G1 X94.820 Y109.695 E249.32027
G1 X95.811 Y109.695 E249.34782
G1 X90.305 Y104.189 E249.56415
G1 X90.305 Y103.197 E249.59170
G1 X96.803 Y109.695 E249.84699
G1 X97.795 Y109.695 E249.87454
G1 X90.305 Y102.205 E250.16879
G1 X90.305 Y101.213 E250.19634
G1 X98.787 Y109.695 E250.52954
G1 X99.778 Y109.695 E250.55709
G1 X90.305 Y100.222 E250.92926
G1 X90.305 Y99.230 E250.95681
G1 X100.770 Y109.695 E251.36793
G1 X101.762 Y109.695 E251.39548
G1 X90.305 Y98.238 E251.84556
G1 X90.305 Y97.247 E251.87311
G1 X102.753 Y109.695 E252.36215
G1 X103.745 Y109.695 E252.38970
G1 X90.305 Y96.255 E252.91770
G1 X90.305 Y95.263 E252.94525
G1 X104.737 Y109.695 E253.51220
G1 X105.729 Y109.695 E253.53975
G1 X90.305 Y94.271 E254.14567
G1 X90.305 Y93.280 E254.17322
G1 X106.720 Y109.695 E254.81809
G1 X107.712 Y109.695 E254.84564
G1 X90.305 Y92.288 E255.52947
G1 X90.305 Y91.296 E255.55702
G1 X108.704 Y109.695 E256.27981
G1 X109.695 Y109.695 E256.30736
G1 X90.305 Y90.305 E257.06910
G1 X91.296 Y90.305 E257.09665
G1 X109.695 Y108.704 E257.81944
G1 X109.695 Y107.712 E257.84699
G1 X92.288 Y90.305 E258.53082
G1 X93.280 Y90.305 E258.55837
G1 X109.695 Y106.720 E259.20324
G1 X109.695 Y105.729 E259.23079
G1 X94.271 Y90.305 E259.83671
G1 X95.263 Y90.305 E259.86426
G1 X109.695 Y104.737 E260.43121
G1 X109.695 Y103.745 E260.45876
G1 X96.255 Y90.305 E260.98676
G1 X97.247 Y90.305 E261.01431
G1 X109.695 Y102.753 E261.50335
G1 X109.695 Y101.762 E261.53090
G1 X98.238 Y90.305 E261.98098
G1 X99.230 Y90.305 E262.00853
G1 X109.695 Y100.770 E262.41965
G1 X109.695 Y99.778 E262.44720
G1 X100.222 Y90.305 E262.81937
G1 X101.213 Y90.305 E262.84692
G1 X109.695 Y98.787 E263.18013
G1 X109.695 Y97.795 E263.20767
G1 X102.205 Y90.305 E263.50192
G1 X103.197 Y90.305 E263.52947
G1 X109.695 Y96.803 E263.78476
G1 X109.695 Y95.811 E263.81231
G1 X104.189 Y90.305 E264.02865
G1 X105.180 Y90.305 E264.05619
G1 X109.695 Y94.820 E264.23357
G1 X109.695 Y93.828 E264.26112
G1 X106.172 Y90.305 E264.39954
G1 X107.164 Y90.305 E264.42708
G1 X109.695 Y92.836 E264.52654
G1 X109.695 Y91.845 E264.55409
G1 X108.155 Y90.305 E264.61459
G1 X109.147 Y90.305 E264.64214
G1 X109.695 Y90.853 E264.66368
G1 Z6.800 F7800.000
G1 X109.147 Y109.695 F7800.000
G1 F4800
G1 X109.695 Y109.147 E264.68523
G1 X109.695 Y108.155 E264.71277
G1 X108.155 Y109.695 E264.77328
G1 X107.164 Y109.695 E264.80082
G1 X109.695 Y107.164 E264.90028
G1 X109.695 Y106.172 E264.92783
G1 X106.172 Y109.695 E265.06625
G1 X105.180 Y109.695 E265.09380
G1 X109.695 Y105.180 E265.27117
G1 X109.695 Y104.189 E265.29872
G1 X104.189 Y109.695 E265.51506
G1 X103.197 Y109.695 E265.54260
G1 X109.695 Y103.197 E265.79790
G1 X109.695 Y102.205 E265.82544
G1 X102.205 Y109.695 E266.11969
G1 X101.213 Y109.695 E266.14724
G1 X109.695 Y101.213 E266.48045
G1 X109.695 Y100.222 E266.50800
G1 X100.222 Y109.695 E266.88017
G1 X99.230 Y109.695 E266.90771
G1 X109.695 Y99.230 E267.31884
G1 X109.695 Y98.238 E267.34639
G1 X98.238 Y109.695 E267.79647
G1 X97.247 Y109.695 E267.82402
G1 X109.695 Y97.247 E268.31306
G1 X109.695 Y96.255 E268.34061
G1 X96.255 Y109.695 E268.86861
G1 X95.263 Y109.695 E268.89615
G1 X109.695 Y95.263 E269.46311
G1 X109.695 Y94.271 E269.49066
G1 X94.271 Y109.695 E270.09657
G1 X93.280 Y109.695 E270.12412
G1 X109.695 Y93.280 E270.76900
G1 X109.695 Y92.288 E270.79654
G1 X92.288 Y109.695 E271.48038
G1 X91.296 Y109.695 E271.50792
G1 X109.695 Y91.296 E272.23071
G1 X109.695 Y90.305 E272.25826
G1 X90.305 Y109.695 E273.02001
G1 X90.305 Y108.704 E273.04756
G1 X108.704 Y90.305 E273.77035
G1 X107.712 Y90.305 E273.79790
G1 X90.305 Y107.712 E274.48173
G1 X90.305 Y106.720 E274.50928
G1 X106.720 Y90.305 E275.15415
G1 X105.729 Y90.305 E275.18170
G1 X90.305 Y105.729 E275.78761
G1 X90.305 Y104.737 E275.81516
G1 X104.737 Y90.305 E276.38212
G1 X103.745 Y90.305 E276.40967
G1 X90.305 Y103.745 E276.93767
G1 X90.305 Y102.753 E276.96521
G1 X102.753 Y90.305 E277.45426
G1 X101.762 Y90.305 E277.48180
G1 X90.305 Y101.762 E277.93189
G1 X90.305 Y100.770 E277.95943
G1 X100.770 Y90.305 E278.37056
G1 X99.778 Y90.305 E278.39811
G1 X90.305 Y99.778 E278.77027
G1 X90.305 Y98.787 E278.79782
G1 X98.787 Y90.305 E279.13103
G1 X97.795 Y90.305 E279.15858
G1 X90.305 Y97.795 E279.45283
G1 X90.305 Y96.803 E279.48038
G1 X96.803 Y90.305 E279.73567
G1 X95.811 Y90.305 E279.76322
G1 X90.305 Y95.811 E279.97955
G1 X90.305 Y94.820 E280.00710
G1 X94.820 Y90.305 E280.18447
G1 X93.828 Y90.305 E280.21202
G1 X90.305 Y93.828 E280.35044
G1 X90.305 Y92.836 E280.37799
G1 X92.836 Y90.305 E280.47745
G1 X91.845 Y90.305 E280.50500
G1 X90.305 Y91.845 E280.56550
G1 X90.305 Y90.853 E280.59304
G1 X90.853 Y90.305 E280.61459
G1 Z7.200 F7800.000
G1 X90.305 Y109.147 F7800.000
G1 F4800
G1 X90.853 Y109.695 E280.63613
G1 X91.845 Y109.695 E280.66368
G1 X90.305 Y108.155 E280.72418
G1 X90.305 Y107.164 E280.75173
G1 X92.836 Y109.695 E280.85119
G1 X93.828 Y109.695 E280.87874
G1 X90.305 Y106.172 E281.01715
G1 X90.305 Y105.180 E281.04470
G1 X94.820 Y109.695 E281.22208
G1 X95.811 Y109.695 E281.24963
G1 X90.305 Y104.189 E281.46596
G1 X90.305 Y103.197 E281.49351
G1 X96.803 Y109.695 E281.74880
G1 X97.795 Y109.695 E281.77635
G1 X90.305 Y102.205 E282.07060
G1 X90.305 Y101.213 E282.09815
G1 X98.787 Y109.695 E282.43135
G1 X99.778 Y109.695 E282.45890
G1 X90.305 Y100.222 E282.83107
G1 X90.305 Y99.230 E282.85862
G1 X100.770 Y109.695 E283.26974
G1 X101.762 Y109.695 E283.29729
G1 X90.305 Y98.238 E283.74737
G1 X90.305 Y97.247 E283.77492
G1 X102.753 Y109.695 E284.26396
G1 X103.745 Y109.695 E284.29151
G1 X90.305 Y96.255 E284.81951
G1 X90.305 Y95.263 E284.84706
G1 X104.737 Y109.695 E285.41401
G1 X105.729 Y109.695 E285.44156
G1 X90.305 Y94.271 E286.04748
G1 X90.305 Y93.280 E286.07503
G1 X106.720 Y109.695 E286.71990
G1 X107.712 Y109.695 E286.74745
G1 X90.305 Y92.288 E287.43128
G1 X90.305 Y91.296 E287.45883
G1 X108.704 Y109.695 E288.18162
G1 X109.695 Y109.695 E288.20917
G1 X90.305 Y90.305 E288.97091
G1 X91.296 Y90.305 E288.99846
G1 X109.695 Y108.704 E289.72125
G1 X109.695 Y107.712 E289.74880
G1 X92.288 Y90.305 E290.43263
G1 X93.280 Y90.305 E290.46018
G1 X109.695 Y106.720 E291.10505
G1 X109.695 Y105.729 E291.13260
G1 X94.271 Y90.305 E291.73852
G1 X95.263 Y90.305 E291.76607
G1 X109.695 Y104.737 E292.33302
G1 X109.695 Y103.745 E292.36057
G1 X96.255 Y90.305 E292.88857
G1 X97.247 Y90.305 E292.91612
G1 X109.695 Y102.753 E293.40516
G1 X109.695 Y101.762 E293.43271
G1 X98.238 Y90.305 E293.88279
G1 X99.230 Y90.305 E293.91034
G1 X109.695 Y100.770 E294.32146
G1 X109.695 Y99.778 E294.34901
G1 X100.222 Y90.305 E294.72118
G1 X101.213 Y90.305 E294.74873
G1 X109.695 Y98.787 E295.08194
G1 X109.695 Y97.795 E295.10948
G1 X102.205 Y90.305 E295.40373
G1 X103.197 Y90.305 E295.43128
G1 X109.695 Y96.803 E295.68657
G1 X109.695 Y95.811 E295.71412
G1 X104.189 Y90.305 E295.93046
G1 X105.180 Y90.305 E295.95800
G1 X109.695 Y94.820 E296.13538
G1 X109.695 Y93.828 E296.16293
G1 X106.172 Y90.305 E296.30135
G1 X107.164 Y90.305 E296.32889
G1 X109.695 Y92.836 E296.42835
G1 X109.695 Y91.845 E296.45590
G1 X108.155 Y90.305 E296.51640
G1 X109.147 Y90.305 E296.54395
G1 X109.695 Y90.853 E296.56549
G1 Z7.600 F7800.000
G1 X109.147 Y109.695 F7800.000
G1 F4800
G1 X109.695 Y109.147 E296.58704
G1 X109.695 Y108.155 E296.61458
G1 X108.155 Y109.695 E296.67509
G1 X107.164 Y109.695 E296.70263
G1 X109.695 Y107.164 E296.80209
G1 X109.695 Y106.172 E296.82964
G1 X106.172 Y109.695 E296.96806
G1 X105.180 Y109.695 E296.99561
G1 X109.695 Y105.180 E297.17298
G1 X109.695 Y104.189 E297.20053
G1 X104.189 Y109.695 E297.41687
G1 X103.197 Y109.695 E297.44441
G1 X109.695 Y103.197 E297.69971
G1 X109.695 Y102.205 E297.72725
G1 X102.205 Y109.695 E298.02150
G1 X101.213 Y109.695 E298.04905
G1 X109.695 Y101.213 E298.38226
G1 X109.695 Y100.222 E298.40981
G1 X100.222 Y109.695 E298.78198
G1 X99.230 Y109.695 E298.80952
G1 X109.695 Y99.230 E299.22065
G1 X109.695 Y98.238 E299.24820
G1 X98.238 Y109.695 E299.69828
G1 X97.247 Y109.695 E299.72583
G1 X109.695 Y97.247 E300.21487
G1 X109.695 Y96.255 E300.24242
G1 X96.255 Y109.695 E300.77042
G1 X95.263 Y109.695 E300.79796
G1 X109.695 Y95.263 E301.36492
G1 X109.695 Y94.271 E301.39247
G1 X94.271 Y109.695 E301.99838
G1 X93.280 Y109.695 E302.02593
G1 X109.695 Y93.280 E302.67081
G1 X109.695 Y92.288 E302.69835
G1 X92.288 Y109.695 E303.38219
G1 X91.296 Y109.695 E303.40973
G1 X109.695 Y91.296 E304.13252
G1 X109.695 Y90.305 E304.16007
G1 X90.305 Y109.695 E304.92182
G1 X90.305 Y108.704 E304.94937
G1 X108.704 Y90.305 E305.67216
G1 X107.712 Y90.305 E305.69971
G1 X90.305 Y107.712 E306.38354
G1 X90.305 Y106.720 E306.41109
G1 X106.720 Y90.305 E307.05596
G1 X105.729 Y90.305 E307.08351
G1 X90.305 Y105.729 E307.68942
G1 X90.305 Y104.737 E307.71697
G1 X104.737 Y90.305 E308.28393
G1 X103.745 Y90.305 E308.31148
G1 X90.305 Y103.745 E308.83948
G1 X90.305 Y102.753 E308.86702
G1 X102.753 Y90.305 E309.35607
G1 X101.762 Y90.305 E309.38361
G1 X90.305 Y101.762 E309.83370
G1 X90.305 Y100.770 E309.86124
G1 X100.770 Y90.305 E310.27237
G1 X99.778 Y90.305 E310.29992
G1 X90.305 Y99.778 E310.67208
G1 X90.305 Y98.787 E310.69963
G1 X98.787 Y90.305 E311.03284
G1 X97.795 Y90.305 E311.06039
G1 X90.305 Y97.795 E311.35464
G1 X90.305 Y96.803 E311.38219
G1 X96.803 Y90.305 E311.63748
G1 X95.811 Y90.305 E311.66503
G1 X90.305 Y95.811 E311.88136
G1 X90.305 Y94.820 E311.90891
G1 X94.820 Y90.305 E312.08628
G1 X93.828 Y90.305 E312.11383
G1 X90.305 Y93.828 E312.25225
G1 X90.305 Y92.836 E312.27980
G1 X92.836 Y90.305 E312.37926
G1 X91.845 Y90.305 E312.40681
G1 X90.305 Y91.845 E312.46731
G1 X90.305 Y90.853 E312.49485
G1 X90.853 Y90.305 E312.51640
G1 Z8.000 F7800.000
G1 E310.51640 F2400.00000
G92 E0
G1 X90.305 Y109.147 F7800.000
G1 E2.00000 F2400.00000
G1 F4800
G1 X90.853 Y109.695 E2.02154
G1 X91.845 Y109.695 E2.04909
G1 X90.305 Y108.155 E2.10959
G1 X90.305 Y107.164 E2.13714
G1 X92.836 Y109.695 E2.23660
G1 X93.828 Y109.695 E2.26415
G1 X90.305 Y106.172 E2.40257
G1 X90.305 Y105.180 E2.43011
G1 X94.820 Y109.695 E2.60749
G1 X95.811 Y109.695 E2.63504
G1 X90.305 Y104.189 E2.85137
G1 X90.305 Y103.197 E2.87892
G1 X96.803 Y109.695 E3.13421
G1 X97.795 Y109.695 E3.16176
G1 X90.305 Y102.205 E3.45601
G1 X90.305 Y101.213 E3.48356
G1 X98.787 Y109.695 E3.81677
G1 X99.778 Y109.695 E3.84431
G1 X90.305 Y100.222 E4.21648
G1 X90.305 Y99.230 E4.24403
G1 X100.770 Y109.695 E4.65515
G1 X101.762 Y109.695 E4.68270
G1 X90.305 Y98.238 E5.13279
G1 X90.305 Y97.247 E5.16033
G1 X102.753 Y109.695 E5.64937
G1 X103.745 Y109.695 E5.67692
G1 X90.305 Y96.255 E6.20492
G1 X90.305 Y95.263 E6.23247
G1 X104.737 Y109.695 E6.79943
G1 X105.729 Y109.695 E6.82697
G1 X90.305 Y94.271 E7.43289
G1 X90.305 Y93.280 E7.46044
G1 X106.720 Y109.695 E8.10531
G1 X107.712 Y109.695 E8.13286
G1 X90.305 Y92.288 E8.81669
G1 X90.305 Y91.296 E8.84424
G1 X108.704 Y109.695 E9.56703
G1 X109.695 Y109.695 E9.59458
G1 X90.305 Y90.305 E10.35633
G1 X91.296 Y90.305 E10.38387
G1 X109.695 Y108.704 E11.10666
G1 X109.695 Y107.712 E11.13421
G1 X92.288 Y90.305 E11.81804
G1 X93.280 Y90.305 E11.84559
G1 X109.695 Y106.720 E12.49047
G1 X109.695 Y105.729 E12.51801
G1 X94.271 Y90.305 E13.12393
G1 X95.263 Y90.305 E13.15148
G1 X109.695 Y104.737 E13.71844
G1 X109.695 Y103.745 E13.74598
G1 X96.255 Y90.305 E14.27398
G1 X97.247 Y90.305 E14.30153
G1 X109.695 Y102.753 E14.79057
G1 X109.695 Y101.762 E14.81812
G1 X98.238 Y90.305 E15.26820
G1 X99.230 Y90.305 E15.29575
G1 X109.695 Y100.770 E15.70688
G1 X109.695 Y99.778 E15.73442
G1 X100.222 Y90.305 E16.10659
G1 X101.213 Y90.305 E16.13414
G1 X109.695 Y98.787 E16.46735
G1 X109.695 Y97.795 E16.49490
G1 X102.205 Y90.305 E16.78915
G1 X103.197 Y90.305 E16.81669
G1 X109.695 Y96.803 E17.07199
G1 X109.695 Y95.811 E17.09953
G1 X104.189 Y90.305 E17.31587
G1 X105.180 Y90.305 E17.34342
G1 X109.695 Y94.820 E17.52079
G1 X109.695 Y93.828 E17.54834
G1 X106.172 Y90.305 E17.68676
G1 X107.164 Y90.305 E17.71431
G1 X109.695 Y92.836 E17.81377
G1 X109.695 Y91.845 E17.84131
G1 X108.155 Y90.305 E17.90181
G1 X109.147 Y90.305 E17.92936
G1 X109.695 Y90.853 E17.95091
G1 E15.95091 F2400.00000
G92 E0
M107
; Filament-specific end gcode 
;END gcode for filament

M104 S0 ; turn off temperature
G28 X0  ; home X axis
M84     ; disable motors

M140 S0 ; set bed temperature
; filament used = 326.5mm (2.3cm3)
; total filament cost = 0.0

; avoid_crossing_perimeters = 0
; bed_shape = 0x0,200x0,200x200,0x200
; bed_temperature = 0
; before_layer_gcode = 
; between_objects_gcode = 
; bridge_acceleration = 0
; bridge_fan_speed = 100
; brim_connections_width = 0
; brim_width = 0
; complete_objects = 0
; cooling = 1
; default_acceleration = 0
; disable_fan_first_layers = 3
; duplicate_distance = 6
; end_filament_gcode = "; Filament-specific end gcode \n;END gcode for filament\n"
; end_gcode = M104 S0 ; turn off temperature\nG28 X0  ; home X axis\nM84     ; disable motors\n
; extruder_clearance_height = 20
; extruder_clearance_radius = 20
; extruder_offset = 0x0
; extrusion_axis = E
; extrusion_multiplier = 1
; fan_always_on = 0
; fan_below_layer_time = 60
; filament_colour = #FFFFFF
; filament_cost = 0
; filament_density = 0
; filament_diameter = 3
; filament_max_volumetric_speed = 0
; filament_notes = ""
; first_layer_acceleration = 0
; first_layer_bed_temperature = 0
; first_layer_extrusion_width = 200%
; first_layer_speed = 30
; first_layer_temperature = 205
; gcode_arcs = 0
; gcode_comments = 0
; gcode_flavor = reprap
; has_heatbed = 1
; infill_acceleration = 0
; infill_first = 0
; interior_brim_width = 0
; layer_gcode = 
; max_fan_speed = 100
; max_layer_height = 0.3
; max_print_speed = 80
; max_volumetric_speed = 0
; min_fan_speed = 35
; min_layer_height = 0.15
; min_print_speed = 10
; min_skirt_length = 0
; notes = 
; nozzle_diameter = 0.5
; only_retract_when_crossing_perimeters = 1
; ooze_prevention = 0
; output_filename_format = [input_filename_base].gcode
; perimeter_acceleration = 0
; post_process = 
; pressure_advance = 0
; printer_notes = 
; resolution = 0
; retract_before_travel = 2
; retract_layer_change = 0
; retract_length = 2
; retract_length_toolchange = 10
; retract_lift = 0
; retract_lift_above = 0
; retract_lift_below = 0
; retract_restart_extra = 0
; retract_restart_extra_toolchange = 0
; retract_speed = 40
; skirt_distance = 6
; skirt_height = 1
; skirts = 0
; slowdown_below_layer_time = 5
; spiral_vase = 0
; standby_temperature_delta = -5
; start_filament_gcode = "; Filament gcode\n"
; start_gcode = G28 ; home all axes\nG1 Z5 F5000 ; lift nozzle\n
; temperature = 200
; threads = 8
; toolchange_gcode = 
; travel_speed = 130
; use_firmware_retraction = 0
; use_relative_e_distances = 0
; use_set_and_wait_bed = 0
; use_set_and_wait_extruder = 0
; use_volumetric_e = 0
; vibration_limit = 0
; wipe = 0
; z_offset = 0
; z_steps_per_mm = 0
; adaptive_slicing = 0
; adaptive_slicing_quality = 75%
; dont_support_bridges = 1
; extrusion_width = 0
; first_layer_height = 0.4
; infill_only_where_needed = 0
; interface_shells = 0
; layer_height = 0.4
; match_horizontal_surfaces = 0
; raft_layers = 0
; regions_overlap = 0
; seam_position = aligned
; sequential_print_priority = 0
; support_material = 0
; support_material_angle = 0
; support_material_buildplate_only = 0
; support_material_contact_distance = 0.2
; support_material_enforce_layers = 0
; support_material_extruder = 1
; support_material_extrusion_width = 0
; support_material_interface_extruder = 1
; support_material_interface_extrusion_width = 0
; support_material_interface_layers = 3
; support_material_interface_spacing = 0
; support_material_interface_speed = 100%
; support_material_max_layers = 0
; support_material_pattern = pillars
; support_material_spacing = 2.5
; support_material_speed = 60
; support_material_threshold = 60%
; xy_size_compensation = 0
; bottom_infill_pattern = rectilinear
; bottom_solid_layers = 0
; bridge_flow_ratio = 1
; bridge_speed = 60
; external_perimeter_extrusion_width = 0
; external_perimeter_speed = 50%
; external_perimeters_first = 0
; extra_perimeters = 1
; fill_angle = 45
; fill_density = 70%
; fill_gaps = 1
; fill_pattern = rectilinear
; gap_fill_speed = 20
; infill_every_layers = 1
; infill_extruder = 1
; infill_extrusion_width = 0
; infill_overlap = 55%
; infill_speed = 80
; overhangs = 1
; perimeter_extruder = 1
; perimeter_extrusion_width = 0
; perimeter_speed = 60
; perimeters = 0
; small_perimeter_speed = 15
; solid_infill_below_area = 70
; solid_infill_every_layers = 0
; solid_infill_extruder = 1
; solid_infill_extrusion_width = 0
; solid_infill_speed = 20
; thin_walls = 1
; top_infill_extrusion_width = 0
; top_infill_pattern = rectilinear
; top_solid_infill_speed = 15
; top_solid_layers = 0
