; generated by Slic3r 1.3.0 on 2021-02-19 at 14:51:21

; external perimeters extrusion width = 0.50mm (4.97mm^3/s)
; perimeters extrusion width = 0.50mm (9.94mm^3/s)
; infill extrusion width = 0.50mm (13.25mm^3/s)
; solid infill extrusion width = 0.50mm (3.31mm^3/s)
; top infill extrusion width = 0.50mm (2.48mm^3/s)

M107
M104 S205 ; set temperature
G28 ; home all axes
G1 Z5 F5000 ; lift nozzle

; Filament gcode

M109 S205 ; set temperature and wait for it to be reached
G21 ; set units to millimeters
G90 ; use absolute coordinates
M82 ; use absolute distances for extrusion
G92 E0
G1 Z0.400 F7800.000
G1 E-2.00000 F2400.00000
G92 E0
G1 X92.679 Y90.238 F7800.000
G1 E2.00000 F2400.00000
G1 F1800
G1 X90.238 Y92.679 E2.13954
G1 X90.238 Y95.120 E2.23816
G1 X95.120 Y90.238 E2.51718
G1 X97.560 Y90.238 E2.61581
G1 X90.238 Y97.560 E3.03430
G1 X90.238 Y100.001 E3.13293
G1 X100.001 Y90.238 E3.69090
G1 X102.441 Y90.238 E3.78953
G1 X90.238 Y102.441 E4.48698
G1 X90.238 Y104.881 E4.58561
G1 X104.881 Y90.238 E5.42254
G1 X107.322 Y90.238 E5.52117
G1 X90.238 Y107.322 E6.49758
G1 X90.238 Y109.762 E6.59621
G1 X109.762 Y90.238 E7.71210
G1 X109.762 Y92.678 E7.81072
G1 X92.678 Y109.762 E8.78714
G1 X95.119 Y109.762 E8.88576
G1 X109.762 Y95.119 E9.72270
G1 X109.762 Y97.559 E9.82132
G1 X97.559 Y109.762 E10.51878
G1 X99.999 Y109.762 E10.61740
G1 X109.762 Y99.999 E11.17538
G1 X109.762 Y102.440 E11.27400
G1 X102.440 Y109.762 E11.69250
G1 X104.880 Y109.762 E11.79113
G1 X109.762 Y104.880 E12.07014
G1 X109.762 Y107.321 E12.16877
G1 X107.321 Y109.762 E12.30831
M104 S200 ; set temperature
G1 Z0.800 F7800.000
G1 E10.30831 F2400.00000
G92 E0
G1 X90.296 Y107.379 F7800.000
G1 E2.00000 F2400.00000
G1 F3031.18
G1 X92.621 Y109.704 E2.07705
G1 X95.061 Y109.704 E2.13425
G1 X90.296 Y104.939 E2.29219
G1 X90.296 Y102.498 E2.34939
G1 X97.502 Y109.704 E2.58822
G1 X99.942 Y109.704 E2.64541
G1 X90.296 Y100.058 E2.96513
G1 X90.296 Y97.617 E3.02233
G1 X102.383 Y109.704 E3.42293
G1 X104.823 Y109.704 E3.48013
G1 X90.296 Y95.177 E3.96162
G1 X90.296 Y92.736 E4.01881
G1 X107.264 Y109.704 E4.58119
G1 X109.704 Y109.704 E4.63839
G1 X90.296 Y90.296 E5.28166
G1 X92.736 Y90.296 E5.33885
G1 X109.704 Y107.264 E5.90123
G1 X109.704 Y104.823 E5.95843
G1 X95.177 Y90.296 E6.43992
G1 X97.617 Y90.296 E6.49711
G1 X109.704 Y102.383 E6.89772
G1 X109.704 Y99.942 E6.95492
G1 X100.058 Y90.296 E7.27463
G1 X102.498 Y90.296 E7.33183
G1 X109.704 Y97.502 E7.57066
G1 X109.704 Y95.061 E7.62785
G1 X104.939 Y90.296 E7.78580
G1 X107.379 Y90.296 E7.84299
G1 X109.704 Y92.621 E7.92005
G1 Z1.200 F7800.000
G1 X107.379 Y109.704 F7800.000
G1 F3031.18
G1 X109.704 Y107.379 E7.99710
G1 X109.704 Y104.939 E8.05430
G1 X104.939 Y109.704 E8.21224
G1 X102.498 Y109.704 E8.26944
G1 X109.704 Y102.498 E8.50826
G1 X109.704 Y100.058 E8.56546
G1 X100.058 Y109.704 E8.88518
G1 X97.617 Y109.704 E8.94237
G1 X109.704 Y97.617 E9.34298
G1 X109.704 Y95.177 E9.40017
G1 X95.177 Y109.704 E9.88167
G1 X92.736 Y109.704 E9.93886
G1 X109.704 Y92.736 E10.50124
G1 X109.704 Y90.296 E10.55844
G1 X90.296 Y109.704 E11.20170
G1 X90.296 Y107.264 E11.25890
G1 X107.264 Y90.296 E11.82128
G1 X104.823 Y90.296 E11.87847
G1 X90.296 Y104.823 E12.35996
G1 X90.296 Y102.383 E12.41716
G1 X102.383 Y90.296 E12.81777
G1 X99.942 Y90.296 E12.87496
G1 X90.296 Y99.942 E13.19468
G1 X90.296 Y97.502 E13.25187
G1 X97.502 Y90.296 E13.49070
G1 X95.061 Y90.296 E13.54790
G1 X90.296 Y95.061 E13.70584
G1 X90.296 Y92.621 E13.76304
G1 X92.621 Y90.296 E13.84009
M106 S255
G1 Z1.600 F7800.000
G1 X90.296 Y107.379 F7800.000
G1 F3031.18
G1 X92.621 Y109.704 E13.91715
G1 X95.061 Y109.704 E13.97434
G1 X90.296 Y104.939 E14.13228
G1 X90.296 Y102.498 E14.18948
G1 X97.502 Y109.704 E14.42831
G1 X99.942 Y109.704 E14.48551
G1 X90.296 Y100.058 E14.80522
G1 X90.296 Y97.617 E14.86242
G1 X102.383 Y109.704 E15.26302
G1 X104.823 Y109.704 E15.32022
G1 X90.296 Y95.177 E15.80171
G1 X90.296 Y92.736 E15.85891
G1 X107.264 Y109.704 E16.42129
G1 X109.704 Y109.704 E16.47848
G1 X90.296 Y90.296 E17.12175
G1 X92.736 Y90.296 E17.17894
G1 X109.704 Y107.264 E17.74132
G1 X109.704 Y104.823 E17.79852
G1 X95.177 Y90.296 E18.28001
G1 X97.617 Y90.296 E18.33721
G1 X109.704 Y102.383 E18.73781
G1 X109.704 Y99.942 E18.79501
G1 X100.058 Y90.296 E19.11472
G1 X102.498 Y90.296 E19.17192
G1 X109.704 Y97.502 E19.41075
G1 X109.704 Y95.061 E19.46795
G1 X104.939 Y90.296 E19.62589
G1 X107.379 Y90.296 E19.68308
G1 X109.704 Y92.621 E19.76014
G1 Z2.000 F7800.000
G1 X107.379 Y109.704 F7800.000
G1 F3031.18
G1 X109.704 Y107.379 E19.83719
G1 X109.704 Y104.939 E19.89439
G1 X104.939 Y109.704 E20.05233
G1 X102.498 Y109.704 E20.10953
G1 X109.704 Y102.498 E20.34836
G1 X109.704 Y100.058 E20.40555
G1 X100.058 Y109.704 E20.72527
G1 X97.617 Y109.704 E20.78247
G1 X109.704 Y97.617 E21.18307
G1 X109.704 Y95.177 E21.24027
G1 X95.177 Y109.704 E21.72176
G1 X92.736 Y109.704 E21.77895
G1 X109.704 Y92.736 E22.34133
G1 X109.704 Y90.296 E22.39853
G1 X90.296 Y109.704 E23.04179
G1 X90.296 Y107.264 E23.09899
G1 X107.264 Y90.296 E23.66137
G1 X104.823 Y90.296 E23.71857
G1 X90.296 Y104.823 E24.20006
G1 X90.296 Y102.383 E24.25725
G1 X102.383 Y90.296 E24.65786
G1 X99.942 Y90.296 E24.71505
G1 X90.296 Y99.942 E25.03477
G1 X90.296 Y97.502 E25.09197
G1 X97.502 Y90.296 E25.33080
G1 X95.061 Y90.296 E25.38799
G1 X90.296 Y95.061 E25.54593
G1 X90.296 Y92.621 E25.60313
G1 X92.621 Y90.296 E25.68018
G1 Z2.400 F7800.000
G1 X90.296 Y107.379 F7800.000
G1 F3031.18
G1 X92.621 Y109.704 E25.75724
G1 X95.061 Y109.704 E25.81443
G1 X90.296 Y104.939 E25.97238
G1 X90.296 Y102.498 E26.02957
G1 X97.502 Y109.704 E26.26840
G1 X99.942 Y109.704 E26.32560
G1 X90.296 Y100.058 E26.64531
G1 X90.296 Y97.617 E26.70251
G1 X102.383 Y109.704 E27.10312
G1 X104.823 Y109.704 E27.16031
G1 X90.296 Y95.177 E27.64180
G1 X90.296 Y92.736 E27.69900
G1 X107.264 Y109.704 E28.26138
G1 X109.704 Y109.704 E28.31857
G1 X90.296 Y90.296 E28.96184
G1 X92.736 Y90.296 E29.01904
G1 X109.704 Y107.264 E29.58141
G1 X109.704 Y104.823 E29.63861
G1 X95.177 Y90.296 E30.12010
G1 X97.617 Y90.296 E30.17730
G1 X109.704 Y102.383 E30.57790
G1 X109.704 Y99.942 E30.63510
G1 X100.058 Y90.296 E30.95482
G1 X102.498 Y90.296 E31.01201
G1 X109.704 Y97.502 E31.25084
G1 X109.704 Y95.061 E31.30804
G1 X104.939 Y90.296 E31.46598
G1 X107.379 Y90.296 E31.52318
G1 X109.704 Y92.621 E31.60023
G1 Z2.800 F7800.000
G1 X107.379 Y109.704 F7800.000
G1 F3031.18
G1 X109.704 Y107.379 E31.67729
G1 X109.704 Y104.939 E31.73448
G1 X104.939 Y109.704 E31.89242
G1 X102.498 Y109.704 E31.94962
G1 X109.704 Y102.498 E32.18845
G1 X109.704 Y100.058 E32.24564
G1 X100.058 Y109.704 E32.56536
G1 X97.617 Y109.704 E32.62256
G1 X109.704 Y97.617 E33.02316
G1 X109.704 Y95.177 E33.08036
G1 X95.177 Y109.704 E33.56185
G1 X92.736 Y109.704 E33.61905
G1 X109.704 Y92.736 E34.18142
G1 X109.704 Y90.296 E34.23862
G1 X90.296 Y109.704 E34.88189
G1 X90.296 Y107.264 E34.93908
G1 X107.264 Y90.296 E35.50146
G1 X104.823 Y90.296 E35.55866
G1 X90.296 Y104.823 E36.04015
G1 X90.296 Y102.383 E36.09734
G1 X102.383 Y90.296 E36.49795
G1 X99.942 Y90.296 E36.55514
G1 X90.296 Y99.942 E36.87486
G1 X90.296 Y97.502 E36.93206
G1 X97.502 Y90.296 E37.17089
G1 X95.061 Y90.296 E37.22808
G1 X90.296 Y95.061 E37.38603
G1 X90.296 Y92.621 E37.44322
G1 X92.621 Y90.296 E37.52028
G1 Z3.200 F7800.000
G1 X90.296 Y107.379 F7800.000
G1 F3031.18
G1 X92.621 Y109.704 E37.59733
G1 X95.061 Y109.704 E37.65453
G1 X90.296 Y104.939 E37.81247
G1 X90.296 Y102.498 E37.86966
G1 X97.502 Y109.704 E38.10849
G1 X99.942 Y109.704 E38.16569
G1 X90.296 Y100.058 E38.48541
G1 X90.296 Y97.617 E38.54260
G1 X102.383 Y109.704 E38.94321
G1 X104.823 Y109.704 E39.00040
G1 X90.296 Y95.177 E39.48189
G1 X90.296 Y92.736 E39.53909
G1 X107.264 Y109.704 E40.10147
G1 X109.704 Y109.704 E40.15867
G1 X90.296 Y90.296 E40.80193
G1 X92.736 Y90.296 E40.85913
G1 X109.704 Y107.264 E41.42151
G1 X109.704 Y104.823 E41.47870
G1 X95.177 Y90.296 E41.96019
G1 X97.617 Y90.296 E42.01739
G1 X109.704 Y102.383 E42.41799
G1 X109.704 Y99.942 E42.47519
G1 X100.058 Y90.296 E42.79491
G1 X102.498 Y90.296 E42.85210
G1 X109.704 Y97.502 E43.09093
G1 X109.704 Y95.061 E43.14813
G1 X104.939 Y90.296 E43.30607
G1 X107.379 Y90.296 E43.36327
G1 X109.704 Y92.621 E43.44032
G1 Z3.600 F7800.000
G1 X107.379 Y109.704 F7800.000
G1 F3031.18
G1 X109.704 Y107.379 E43.51738
G1 X109.704 Y104.939 E43.57457
G1 X104.939 Y109.704 E43.73251
G1 X102.498 Y109.704 E43.78971
G1 X109.704 Y102.498 E44.02854
G1 X109.704 Y100.058 E44.08574
G1 X100.058 Y109.704 E44.40545
G1 X97.617 Y109.704 E44.46265
G1 X109.704 Y97.617 E44.86325
G1 X109.704 Y95.177 E44.92045
G1 X95.177 Y109.704 E45.40194
G1 X92.736 Y109.704 E45.45914
G1 X109.704 Y92.736 E46.02152
G1 X109.704 Y90.296 E46.07871
G1 X90.296 Y109.704 E46.72198
G1 X90.296 Y107.264 E46.77917
G1 X107.264 Y90.296 E47.34155
G1 X104.823 Y90.296 E47.39875
G1 X90.296 Y104.823 E47.88024
G1 X90.296 Y102.383 E47.93744
G1 X102.383 Y90.296 E48.33804
G1 X99.942 Y90.296 E48.39524
G1 X90.296 Y99.942 E48.71495
G1 X90.296 Y97.502 E48.77215
G1 X97.502 Y90.296 E49.01098
G1 X95.061 Y90.296 E49.06817
G1 X90.296 Y95.061 E49.22612
G1 X90.296 Y92.621 E49.28331
G1 X92.621 Y90.296 E49.36037
G1 Z4.000 F7800.000
G1 X90.296 Y107.379 F7800.000
G1 F3031.18
G1 X92.621 Y109.704 E49.43742
G1 X95.061 Y109.704 E49.49462
G1 X90.296 Y104.939 E49.65256
G1 X90.296 Y102.498 E49.70976
G1 X97.502 Y109.704 E49.94859
G1 X99.942 Y109.704 E50.00578
G1 X90.296 Y100.058 E50.32550
G1 X90.296 Y97.617 E50.38269
G1 X102.383 Y109.704 E50.78330
G1 X104.823 Y109.704 E50.84049
G1 X90.296 Y95.177 E51.32199
G1 X90.296 Y92.736 E51.37918
G1 X107.264 Y109.704 E51.94156
G1 X109.704 Y109.704 E51.99876
G1 X90.296 Y90.296 E52.64202
G1 X92.736 Y90.296 E52.69922
G1 X109.704 Y107.264 E53.26160
G1 X109.704 Y104.823 E53.31879
G1 X95.177 Y90.296 E53.80029
G1 X97.617 Y90.296 E53.85748
G1 X109.704 Y102.383 E54.25809
G1 X109.704 Y99.942 E54.31528
G1 X100.058 Y90.296 E54.63500
G1 X102.498 Y90.296 E54.69220
G1 X109.704 Y97.502 E54.93103
G1 X109.704 Y95.061 E54.98822
G1 X104.939 Y90.296 E55.14616
G1 X107.379 Y90.296 E55.20336
G1 X109.704 Y92.621 E55.28041
G1 Z4.400 F7800.000
G1 X107.379 Y109.704 F7800.000
G1 F3031.18
G1 X109.704 Y107.379 E55.35747
G1 X109.704 Y104.939 E55.41466
G1 X104.939 Y109.704 E55.57261
G1 X102.498 Y109.704 E55.62980
G1 X109.704 Y102.498 E55.86863
G1 X109.704 Y100.058 E55.92583
G1 X100.058 Y109.704 E56.24555
G1 X97.617 Y109.704 E56.30274
G1 X109.704 Y97.617 E56.70335
G1 X109.704 Y95.177 E56.76054
G1 X95.177 Y109.704 E57.24203
G1 X92.736 Y109.704 E57.29923
G1 X109.704 Y92.736 E57.86161
G1 X109.704 Y90.296 E57.91880
G1 X90.296 Y109.704 E58.56207
G1 X90.296 Y107.264 E58.61927
G1 X107.264 Y90.296 E59.18164
G1 X104.823 Y90.296 E59.23884
G1 X90.296 Y104.823 E59.72033
G1 X90.296 Y102.383 E59.77753
G1 X102.383 Y90.296 E60.17813
G1 X99.942 Y90.296 E60.23533
G1 X90.296 Y99.942 E60.55505
G1 X90.296 Y97.502 E60.61224
G1 X97.502 Y90.296 E60.85107
G1 X95.061 Y90.296 E60.90827
G1 X90.296 Y95.061 E61.06621
G1 X90.296 Y92.621 E61.12340
G1 X92.621 Y90.296 E61.20046
G1 Z4.800 F7800.000
G1 X90.296 Y107.379 F7800.000
G1 F3031.18
G1 X92.621 Y109.704 E61.27751
G1 X95.061 Y109.704 E61.33471
G1 X90.296 Y104.939 E61.49265
G1 X90.296 Y102.498 E61.54985
G1 X97.502 Y109.704 E61.78868
G1 X99.942 Y109.704 E61.84587
G1 X90.296 Y100.058 E62.16559
G1 X90.296 Y97.617 E62.22279
G1 X102.383 Y109.704 E62.62339
G1 X104.823 Y109.704 E62.68059
G1 X90.296 Y95.177 E63.16208
G1 X90.296 Y92.736 E63.21927
G1 X107.264 Y109.704 E63.78165
G1 X109.704 Y109.704 E63.83885
G1 X90.296 Y90.296 E64.48212
G1 X92.736 Y90.296 E64.53931
G1 X109.704 Y107.264 E65.10169
G1 X109.704 Y104.823 E65.15889
G1 X95.177 Y90.296 E65.64038
G1 X97.617 Y90.296 E65.69757
G1 X109.704 Y102.383 E66.09818
G1 X109.704 Y99.942 E66.15537
G1 X100.058 Y90.296 E66.47509
G1 X102.498 Y90.296 E66.53229
G1 X109.704 Y97.502 E66.77112
G1 X109.704 Y95.061 E66.82831
G1 X104.939 Y90.296 E66.98626
G1 X107.379 Y90.296 E67.04345
G1 X109.704 Y92.621 E67.12051
G1 Z5.200 F7800.000
G1 X107.379 Y109.704 F7800.000
G1 F3031.18
G1 X109.704 Y107.379 E67.19756
G1 X109.704 Y104.939 E67.25476
G1 X104.939 Y109.704 E67.41270
G1 X102.498 Y109.704 E67.46989
G1 X109.704 Y102.498 E67.70872
G1 X109.704 Y100.058 E67.76592
G1 X100.058 Y109.704 E68.08564
G1 X97.617 Y109.704 E68.14283
G1 X109.704 Y97.617 E68.54344
G1 X109.704 Y95.177 E68.60063
G1 X95.177 Y109.704 E69.08212
G1 X92.736 Y109.704 E69.13932
G1 X109.704 Y92.736 E69.70170
G1 X109.704 Y90.296 E69.75890
G1 X90.296 Y109.704 E70.40216
G1 X90.296 Y107.264 E70.45936
G1 X107.264 Y90.296 E71.02174
G1 X104.823 Y90.296 E71.07893
G1 X90.296 Y104.823 E71.56042
G1 X90.296 Y102.383 E71.61762
G1 X102.383 Y90.296 E72.01822
G1 X99.942 Y90.296 E72.07542
G1 X90.296 Y99.942 E72.39514
G1 X90.296 Y97.502 E72.45233
G1 X97.502 Y90.296 E72.69116
G1 X95.061 Y90.296 E72.74836
G1 X90.296 Y95.061 E72.90630
G1 X90.296 Y92.621 E72.96350
G1 X92.621 Y90.296 E73.04055
G1 Z5.600 F7800.000
G1 X90.296 Y107.379 F7800.000
G1 F3031.18
G1 X92.621 Y109.704 E73.11761
G1 X95.061 Y109.704 E73.17480
G1 X90.296 Y104.939 E73.33274
G1 X90.296 Y102.498 E73.38994
G1 X97.502 Y109.704 E73.62877
G1 X99.942 Y109.704 E73.68597
G1 X90.296 Y100.058 E74.00568
G1 X90.296 Y97.617 E74.06288
G1 X102.383 Y109.704 E74.46348
G1 X104.823 Y109.704 E74.52068
G1 X90.296 Y95.177 E75.00217
G1 X90.296 Y92.736 E75.05937
G1 X107.264 Y109.704 E75.62175
G1 X109.704 Y109.704 E75.67894
G1 X90.296 Y90.296 E76.32221
G1 X92.736 Y90.296 E76.37940
G1 X109.704 Y107.264 E76.94178
G1 X109.704 Y104.823 E76.99898
G1 X95.177 Y90.296 E77.48047
G1 X97.617 Y90.296 E77.53767
G1 X109.704 Y102.383 E77.93827
G1 X109.704 Y99.942 E77.99547
G1 X100.058 Y90.296 E78.31518
G1 X102.498 Y90.296 E78.37238
G1 X109.704 Y97.502 E78.61121
G1 X109.704 Y95.061 E78.66841
G1 X104.939 Y90.296 E78.82635
G1 X107.379 Y90.296 E78.88354
G1 X109.704 Y92.621 E78.96060
G1 Z6.000 F7800.000
G1 X107.379 Y109.704 F7800.000
G1 F3031.18
G1 X109.704 Y107.379 E79.03765
G1 X109.704 Y104.939 E79.09485
G1 X104.939 Y109.704 E79.25279
G1 X102.498 Y109.704 E79.30999
G1 X109.704 Y102.498 E79.54882
G1 X109.704 Y100.058 E79.60601
G1 X100.058 Y109.704 E79.92573
G1 X97.617 Y109.704 E79.98292
G1 X109.704 Y97.617 E80.38353
G1 X109.704 Y95.177 E80.44073
G1 X95.177 Y109.704 E80.92222
G1 X92.736 Y109.704 E80.97941
G1 X109.704 Y92.736 E81.54179
G1 X109.704 Y90.296 E81.59899
G1 X90.296 Y109.704 E82.24225
G1 X90.296 Y107.264 E82.29945
G1 X107.264 Y90.296 E82.86183
G1 X104.823 Y90.296 E82.91902
G1 X90.296 Y104.823 E83.40052
G1 X90.296 Y102.383 E83.45771
G1 X102.383 Y90.296 E83.85832
G1 X99.942 Y90.296 E83.91551
G1 X90.296 Y99.942 E84.23523
G1 X90.296 Y97.502 E84.29243
G1 X97.502 Y90.296 E84.53125
G1 X95.061 Y90.296 E84.58845
G1 X90.296 Y95.061 E84.74639
G1 X90.296 Y92.621 E84.80359
G1 X92.621 Y90.296 E84.88064
G1 Z6.400 F7800.000
G1 X90.296 Y107.379 F7800.000
G1 F3031.18
G1 X92.621 Y109.704 E84.95770
G1 X95.061 Y109.704 E85.01489
G1 X90.296 Y104.939 E85.17284
G1 X90.296 Y102.498 E85.23003
G1 X97.502 Y109.704 E85.46886
G1 X99.942 Y109.704 E85.52606
G1 X90.296 Y100.058 E85.84577
G1 X90.296 Y97.617 E85.90297
G1 X102.383 Y109.704 E86.30357
G1 X104.823 Y109.704 E86.36077
G1 X90.296 Y95.177 E86.84226
G1 X90.296 Y92.736 E86.89946
G1 X107.264 Y109.704 E87.46184
G1 X109.704 Y109.704 E87.51903
G1 X90.296 Y90.296 E88.16230
G1 X92.736 Y90.296 E88.21950
G1 X109.704 Y107.264 E88.78187
G1 X109.704 Y104.823 E88.83907
G1 X95.177 Y90.296 E89.32056
G1 X97.617 Y90.296 E89.37776
G1 X109.704 Y102.383 E89.77836
G1 X109.704 Y99.942 E89.83556
G1 X100.058 Y90.296 E90.15528
G1 X102.498 Y90.296 E90.21247
G1 X109.704 Y97.502 E90.45130
G1 X109.704 Y95.061 E90.50850
G1 X104.939 Y90.296 E90.66644
G1 X107.379 Y90.296 E90.72364
G1 X109.704 Y92.621 E90.80069
G1 Z6.800 F7800.000
G1 X107.379 Y109.704 F7800.000
G1 F3031.18
G1 X109.704 Y107.379 E90.87774
G1 X109.704 Y104.939 E90.93494
G1 X104.939 Y109.704 E91.09288
G1 X102.498 Y109.704 E91.15008
G1 X109.704 Y102.498 E91.38891
G1 X109.704 Y100.058 E91.44610
G1 X100.058 Y109.704 E91.76582
G1 X97.617 Y109.704 E91.82302
G1 X109.704 Y97.617 E92.22362
G1 X109.704 Y95.177 E92.28082
G1 X95.177 Y109.704 E92.76231
G1 X92.736 Y109.704 E92.81950
G1 X109.704 Y92.736 E93.38188
G1 X109.704 Y90.296 E93.43908
G1 X90.296 Y109.704 E94.08235
G1 X90.296 Y107.264 E94.13954
G1 X107.264 Y90.296 E94.70192
G1 X104.823 Y90.296 E94.75912
G1 X90.296 Y104.823 E95.24061
G1 X90.296 Y102.383 E95.29780
G1 X102.383 Y90.296 E95.69841
G1 X99.942 Y90.296 E95.75560
G1 X90.296 Y99.942 E96.07532
G1 X90.296 Y97.502 E96.13252
G1 X97.502 Y90.296 E96.37135
G1 X95.061 Y90.296 E96.42854
G1 X90.296 Y95.061 E96.58648
G1 X90.296 Y92.621 E96.64368
G1 X92.621 Y90.296 E96.72074
G1 Z7.200 F7800.000
G1 X90.296 Y107.379 F7800.000
G1 F3031.18
G1 X92.621 Y109.704 E96.79779
G1 X95.061 Y109.704 E96.85499
G1 X90.296 Y104.939 E97.01293
G1 X90.296 Y102.498 E97.07012
G1 X97.502 Y109.704 E97.30895
G1 X99.942 Y109.704 E97.36615
G1 X90.296 Y100.058 E97.68587
G1 X90.296 Y97.617 E97.74306
G1 X102.383 Y109.704 E98.14367
G1 X104.823 Y109.704 E98.20086
G1 X90.296 Y95.177 E98.68235
G1 X90.296 Y92.736 E98.73955
G1 X107.264 Y109.704 E99.30193
G1 X109.704 Y109.704 E99.35913
G1 X90.296 Y90.296 E100.00239
G1 X92.736 Y90.296 E100.05959
G1 X109.704 Y107.264 E100.62197
G1 X109.704 Y104.823 E100.67916
G1 X95.177 Y90.296 E101.16065
G1 X97.617 Y90.296 E101.21785
G1 X109.704 Y102.383 E101.61845
G1 X109.704 Y99.942 E101.67565
G1 X100.058 Y90.296 E101.99537
G1 X102.498 Y90.296 E102.05256
G1 X109.704 Y97.502 E102.29139
G1 X109.704 Y95.061 E102.34859
G1 X104.939 Y90.296 E102.50653
G1 X107.379 Y90.296 E102.56373
G1 X109.704 Y92.621 E102.64078
G1 Z7.600 F7800.000
G1 X107.379 Y109.704 F7800.000
G1 F3031.18
G1 X109.704 Y107.379 E102.71784
G1 X109.704 Y104.939 E102.77503
G1 X104.939 Y109.704 E102.93297
G1 X102.498 Y109.704 E102.99017
G1 X109.704 Y102.498 E103.22900
G1 X109.704 Y100.058 E103.28620
G1 X100.058 Y109.704 E103.60591
G1 X97.617 Y109.704 E103.66311
G1 X109.704 Y97.617 E104.06371
G1 X109.704 Y95.177 E104.12091
G1 X95.177 Y109.704 E104.60240
G1 X92.736 Y109.704 E104.65960
G1 X109.704 Y92.736 E105.22198
G1 X109.704 Y90.296 E105.27917
G1 X90.296 Y109.704 E105.92244
G1 X90.296 Y107.264 E105.97963
G1 X107.264 Y90.296 E106.54201
G1 X104.823 Y90.296 E106.59921
G1 X90.296 Y104.823 E107.08070
G1 X90.296 Y102.383 E107.13790
G1 X102.383 Y90.296 E107.53850
G1 X99.942 Y90.296 E107.59570
G1 X90.296 Y99.942 E107.91541
G1 X90.296 Y97.502 E107.97261
G1 X97.502 Y90.296 E108.21144
G1 X95.061 Y90.296 E108.26863
G1 X90.296 Y95.061 E108.42658
G1 X90.296 Y92.621 E108.48377
G1 X92.621 Y90.296 E108.56083
G1 Z8.000 F7800.000
G1 E106.56083 F2400.00000
G92 E0
G1 X90.296 Y107.379 F7800.000
G1 E2.00000 F2400.00000
G1 F3031.18
G1 X92.621 Y109.704 E2.07705
G1 X95.061 Y109.704 E2.13425
G1 X90.296 Y104.939 E2.29219
G1 X90.296 Y102.498 E2.34939
G1 X97.502 Y109.704 E2.58822
G1 X99.942 Y109.704 E2.64541
G1 X90.296 Y100.058 E2.96513
G1 X90.296 Y97.617 E3.02233
G1 X102.383 Y109.704 E3.42293
G1 X104.823 Y109.704 E3.48013
G1 X90.296 Y95.177 E3.96162
G1 X90.296 Y92.736 E4.01881
G1 X107.264 Y109.704 E4.58119
G1 X109.704 Y109.704 E4.63839
G1 X90.296 Y90.296 E5.28166
G1 X92.736 Y90.296 E5.33885
G1 X109.704 Y107.264 E5.90123
G1 X109.704 Y104.823 E5.95843
G1 X95.177 Y90.296 E6.43992
G1 X97.617 Y90.296 E6.49711
G1 X109.704 Y102.383 E6.89772
G1 X109.704 Y99.942 E6.95492
G1 X100.058 Y90.296 E7.27463
G1 X102.498 Y90.296 E7.33183
G1 X109.704 Y97.502 E7.57066
G1 X109.704 Y95.061 E7.62785
G1 X104.939 Y90.296 E7.78580
G1 X107.379 Y90.296 E7.84299
G1 X109.704 Y92.621 E7.92005
G1 E5.92005 F2400.00000
G92 E0
M107
; Filament-specific end gcode 
;END gcode for filament

M104 S0 ; turn off temperature
G28 X0  ; home X axis
M84     ; disable motors

M140 S0 ; set bed temperature
; filament used = 122.8mm (0.9cm3)
; total filament cost = 0.0

; avoid_crossing_perimeters = 0
; bed_shape = 0x0,200x0,200x200,0x200
; bed_temperature = 0
; before_layer_gcode = 
; between_objects_gcode = 
; bridge_acceleration = 0
; bridge_fan_speed = 100
; brim_connections_width = 0
; brim_width = 0
; complete_objects = 0
; cooling = 1
; default_acceleration = 0
; disable_fan_first_layers = 3
; duplicate_distance = 6
; end_filament_gcode = "; Filament-specific end gcode \n;END gcode for filament\n"
; end_gcode = M104 S0 ; turn off temperature\nG28 X0  ; home X axis\nM84     ; disable motors\n
; extruder_clearance_height = 20
; extruder_clearance_radius = 20
; extruder_offset = 0x0
; extrusion_axis = E
; extrusion_multiplier = 1
; fan_always_on = 0
; fan_below_layer_time = 60
; filament_colour = #FFFFFF
; filament_cost = 0
; filament_density = 0
; filament_diameter = 3
; filament_max_volumetric_speed = 0
; filament_notes = ""
; first_layer_acceleration = 0
; first_layer_bed_temperature = 0
; first_layer_extrusion_width = 200%
; first_layer_speed = 30
; first_layer_temperature = 205
; gcode_arcs = 0
; gcode_comments = 0
; gcode_flavor = reprap
; has_heatbed = 1
; infill_acceleration = 0
; infill_first = 0
; interior_brim_width = 0
; layer_gcode = 
; max_fan_speed = 100
; max_layer_height = 0.3
; max_print_speed = 80
; max_volumetric_speed = 0
; min_fan_speed = 35
; min_layer_height = 0.15
; min_print_speed = 10
; min_skirt_length = 0
; notes = 
; nozzle_diameter = 0.5
; only_retract_when_crossing_perimeters = 1
; ooze_prevention = 0
; output_filename_format = [input_filename_base].gcode
; perimeter_acceleration = 0
; post_process = 
; pressure_advance = 0
; printer_notes = 
; resolution = 0
; retract_before_travel = 2
; retract_layer_change = 0
; retract_length = 2
; retract_length_toolchange = 10
; retract_lift = 0
; retract_lift_above = 0
; retract_lift_below = 0
; retract_restart_extra = 0
; retract_restart_extra_toolchange = 0
; retract_speed = 40
; skirt_distance = 6
; skirt_height = 1
; skirts = 0
; slowdown_below_layer_time = 5
; spiral_vase = 0
; standby_temperature_delta = -5
; start_filament_gcode = "; Filament gcode\n"
; start_gcode = G28 ; home all axes\nG1 Z5 F5000 ; lift nozzle\n
; temperature = 200
; threads = 8
; toolchange_gcode = 
; travel_speed = 130
; use_firmware_retraction = 0
; use_relative_e_distances = 0
; use_set_and_wait_bed = 0
; use_set_and_wait_extruder = 0
; use_volumetric_e = 0
; vibration_limit = 0
; wipe = 0
; z_offset = 0
; z_steps_per_mm = 0
; adaptive_slicing = 0
; adaptive_slicing_quality = 75%
; dont_support_bridges = 1
; extrusion_width = 0.5
; first_layer_height = 0.4
; infill_only_where_needed = 0
; interface_shells = 0
; layer_height = 0.4
; match_horizontal_surfaces = 0
; raft_layers = 0
; regions_overlap = 0
; seam_position = aligned
; sequential_print_priority = 0
; support_material = 0
; support_material_angle = 0
; support_material_buildplate_only = 0
; support_material_contact_distance = 0.2
; support_material_enforce_layers = 0
; support_material_extruder = 1
; support_material_extrusion_width = 0
; support_material_interface_extruder = 1
; support_material_interface_extrusion_width = 0
; support_material_interface_layers = 3
; support_material_interface_spacing = 0
; support_material_interface_speed = 100%
; support_material_max_layers = 0
; support_material_pattern = pillars
; support_material_spacing = 2.5
; support_material_speed = 60
; support_material_threshold = 60%
; xy_size_compensation = 0
; bottom_infill_pattern = rectilinear
; bottom_solid_layers = 0
; bridge_flow_ratio = 1
; bridge_speed = 60
; external_perimeter_extrusion_width = 0
; external_perimeter_speed = 50%
; external_perimeters_first = 0
; extra_perimeters = 1
; fill_angle = 45
; fill_density = 24%
; fill_gaps = 1
; fill_pattern = rectilinear
; gap_fill_speed = 20
; infill_every_layers = 1
; infill_extruder = 1
; infill_extrusion_width = 0
; infill_overlap = 55%
; infill_speed = 80
; overhangs = 1
; perimeter_extruder = 1
; perimeter_extrusion_width = 0
; perimeter_speed = 60
; perimeters = 0
; small_perimeter_speed = 15
; solid_infill_below_area = 70
; solid_infill_every_layers = 0
; solid_infill_extruder = 1
; solid_infill_extrusion_width = 0
; solid_infill_speed = 20
; thin_walls = 1
; top_infill_extrusion_width = 0
; top_infill_pattern = rectilinear
; top_solid_infill_speed = 15
; top_solid_layers = 0
