; generated by Slic3r 1.3.0 on 2020-01-13 at 17:32:42

; external perimeters extrusion width = 0.55mm (5.57mm^3/s)
; perimeters extrusion width = 0.58mm (11.78mm^3/s)
; infill extrusion width = 0.58mm (15.71mm^3/s)
; solid infill extrusion width = 0.58mm (3.93mm^3/s)
; top infill extrusion width = 0.58mm (2.95mm^3/s)

M107
M104 S200 ; set temperature
G28 ; home all axes
G1 Z5 F5000 ; lift nozzle

; Filament gcode

M109 S200 ; set temperature and wait for it to be reached
G21 ; set units to millimeters
G90 ; use absolute coordinates
M82 ; use absolute distances for extrusion
G92 E0
G1 Z0.400 F7800.000
G1 E-2.00000 F2400.00000
G92 E0
G1 X91.057 Y90.432 F7800.000
G1 E2.00000 F2400.00000
G1 F1800
G1 X90.432 Y91.057 E2.32148
G1 X90.432 Y93.370 E3.16312
G1 X93.370 Y90.432 E4.67486
G1 X95.684 Y90.432 E5.51650
G1 X90.432 Y95.684 E8.21850
G1 X90.432 Y97.998 E9.06015
G1 X97.998 Y90.432 E12.95241
G1 X100.312 Y90.432 E13.79406
G1 X90.432 Y100.312 E18.87658
G1 X90.432 Y102.626 E19.71823
G1 X102.626 Y90.432 E25.99102
G1 X104.940 Y90.432 E26.83266
G1 X90.432 Y104.940 E34.29572
G1 X90.432 Y107.254 E35.13736
G1 X107.254 Y90.432 E43.79068
G1 X109.568 Y90.432 E44.63232
G1 X90.432 Y109.568 E54.47590
G1 X92.746 Y109.568 E55.31754
G1 X109.568 Y92.746 E63.97086
G1 X109.568 Y95.060 E64.81251
G1 X95.060 Y109.568 E72.27556
G1 X97.374 Y109.568 E73.11721
G1 X109.568 Y97.374 E79.39000
G1 X109.568 Y99.688 E80.23164
G1 X99.688 Y109.568 E85.31417
G1 X102.002 Y109.568 E86.15581
G1 X109.568 Y102.002 E90.04808
G1 X109.568 Y104.316 E90.88972
G1 X104.316 Y109.568 E93.59173
G1 X106.629 Y109.568 E94.43337
G1 X109.568 Y106.629 E95.94511
G1 X109.568 Y108.943 E96.78675
G1 X108.943 Y109.568 E97.10823
G1 Z0.800 F7800.000
G1 X90.443 Y108.955 F7800.000
G1 F3131.03
G1 X91.045 Y109.557 E97.32082
G1 X93.359 Y109.557 E97.89932
G1 X90.443 Y106.641 E98.93003
G1 X90.443 Y104.327 E99.50853
G1 X95.673 Y109.557 E101.35737
G1 X97.987 Y109.557 E101.93587
G1 X90.443 Y102.013 E104.60282
G1 X90.443 Y99.699 E105.18132
G1 X100.301 Y109.557 E108.66640
G1 X102.615 Y109.557 E109.24490
G1 X90.443 Y97.385 E113.54810
G1 X90.443 Y95.071 E114.12660
G1 X104.929 Y109.557 E119.24792
G1 X107.243 Y109.557 E119.82642
G1 X90.443 Y92.757 E125.76586
G1 X90.443 Y90.443 E126.34436
G1 X109.557 Y109.557 E133.10192
G1 X109.557 Y107.243 E133.68042
G1 X92.757 Y90.443 E139.61986
G1 X95.071 Y90.443 E140.19836
G1 X109.557 Y104.929 E145.31968
G1 X109.557 Y102.615 E145.89818
G1 X97.385 Y90.443 E150.20138
G1 X99.699 Y90.443 E150.77988
G1 X109.557 Y100.301 E154.26496
G1 X109.557 Y97.987 E154.84346
G1 X102.013 Y90.443 E157.51042
G1 X104.327 Y90.443 E158.08892
G1 X109.557 Y95.673 E159.93775
G1 X109.557 Y93.359 E160.51625
G1 X106.641 Y90.443 E161.54696
G1 X108.955 Y90.443 E162.12546
G1 X109.557 Y91.045 E162.33805
G1 Z1.200 F7800.000
G1 X108.955 Y109.557 F7800.000
G1 F3131.03
G1 X109.557 Y108.955 E162.55065
G1 X109.557 Y106.641 E163.12915
G1 X106.641 Y109.557 E164.15986
G1 X104.327 Y109.557 E164.73836
G1 X109.557 Y104.327 E166.58719
G1 X109.557 Y102.013 E167.16569
G1 X102.013 Y109.557 E169.83265
G1 X99.699 Y109.557 E170.41115
G1 X109.557 Y99.699 E173.89623
G1 X109.557 Y97.385 E174.47473
G1 X97.385 Y109.557 E178.77793
G1 X95.071 Y109.557 E179.35643
G1 X109.557 Y95.071 E184.47775
G1 X109.557 Y92.757 E185.05625
G1 X92.757 Y109.557 E190.99569
G1 X90.443 Y109.557 E191.57419
G1 X109.557 Y90.443 E198.33175
G1 X107.243 Y90.443 E198.91025
G1 X90.443 Y107.243 E204.84969
G1 X90.443 Y104.929 E205.42819
G1 X104.929 Y90.443 E210.54951
G1 X102.615 Y90.443 E211.12801
G1 X90.443 Y102.615 E215.43121
G1 X90.443 Y100.301 E216.00971
G1 X100.301 Y90.443 E219.49479
G1 X97.987 Y90.443 E220.07328
G1 X90.443 Y97.987 E222.74024
G1 X90.443 Y95.673 E223.31874
G1 X95.673 Y90.443 E225.16757
G1 X93.359 Y90.443 E225.74607
G1 X90.443 Y93.359 E226.77679
G1 X90.443 Y91.045 E227.35529
G1 X91.045 Y90.443 E227.56788
M106 S255
G1 Z1.600 F7800.000
G1 X90.443 Y108.955 F7800.000
G1 F3131.03
G1 X91.045 Y109.557 E227.78047
G1 X93.359 Y109.557 E228.35897
G1 X90.443 Y106.641 E229.38968
G1 X90.443 Y104.327 E229.96818
G1 X95.673 Y109.557 E231.81702
G1 X97.987 Y109.557 E232.39552
G1 X90.443 Y102.013 E235.06247
G1 X90.443 Y99.699 E235.64097
G1 X100.301 Y109.557 E239.12605
G1 X102.615 Y109.557 E239.70455
G1 X90.443 Y97.385 E244.00775
G1 X90.443 Y95.071 E244.58625
G1 X104.929 Y109.557 E249.70757
G1 X107.243 Y109.557 E250.28607
G1 X90.443 Y92.757 E256.22551
G1 X90.443 Y90.443 E256.80401
G1 X109.557 Y109.557 E263.56157
G1 X109.557 Y107.243 E264.14007
G1 X92.757 Y90.443 E270.07951
G1 X95.071 Y90.443 E270.65801
G1 X109.557 Y104.929 E275.77933
G1 X109.557 Y102.615 E276.35783
G1 X97.385 Y90.443 E280.66103
G1 X99.699 Y90.443 E281.23953
G1 X109.557 Y100.301 E284.72461
G1 X109.557 Y97.987 E285.30311
G1 X102.013 Y90.443 E287.97007
G1 X104.327 Y90.443 E288.54857
G1 X109.557 Y95.673 E290.39740
G1 X109.557 Y93.359 E290.97590
G1 X106.641 Y90.443 E292.00661
G1 X108.955 Y90.443 E292.58511
G1 X109.557 Y91.045 E292.79770
G1 Z2.000 F7800.000
G1 X108.955 Y109.557 F7800.000
G1 F3131.03
G1 X109.557 Y108.955 E293.01030
G1 X109.557 Y106.641 E293.58880
G1 X106.641 Y109.557 E294.61951
G1 X104.327 Y109.557 E295.19801
G1 X109.557 Y104.327 E297.04684
G1 X109.557 Y102.013 E297.62534
G1 X102.013 Y109.557 E300.29230
G1 X99.699 Y109.557 E300.87080
G1 X109.557 Y99.699 E304.35588
G1 X109.557 Y97.385 E304.93438
G1 X97.385 Y109.557 E309.23758
G1 X95.071 Y109.557 E309.81608
G1 X109.557 Y95.071 E314.93740
G1 X109.557 Y92.757 E315.51590
G1 X92.757 Y109.557 E321.45534
G1 X90.443 Y109.557 E322.03384
G1 X109.557 Y90.443 E328.79140
G1 X107.243 Y90.443 E329.36990
G1 X90.443 Y107.243 E335.30934
G1 X90.443 Y104.929 E335.88784
G1 X104.929 Y90.443 E341.00916
G1 X102.615 Y90.443 E341.58766
G1 X90.443 Y102.615 E345.89086
G1 X90.443 Y100.301 E346.46936
G1 X100.301 Y90.443 E349.95444
G1 X97.987 Y90.443 E350.53293
G1 X90.443 Y97.987 E353.19989
G1 X90.443 Y95.673 E353.77839
G1 X95.673 Y90.443 E355.62722
G1 X93.359 Y90.443 E356.20572
G1 X90.443 Y93.359 E357.23644
G1 X90.443 Y91.045 E357.81494
G1 X91.045 Y90.443 E358.02753
G1 Z2.400 F7800.000
G1 X90.443 Y108.955 F7800.000
G1 F3131.03
G1 X91.045 Y109.557 E358.24012
G1 X93.359 Y109.557 E358.81862
G1 X90.443 Y106.641 E359.84933
G1 X90.443 Y104.327 E360.42783
G1 X95.673 Y109.557 E362.27667
G1 X97.987 Y109.557 E362.85517
G1 X90.443 Y102.013 E365.52212
G1 X90.443 Y99.699 E366.10062
G1 X100.301 Y109.557 E369.58570
G1 X102.615 Y109.557 E370.16420
G1 X90.443 Y97.385 E374.46740
G1 X90.443 Y95.071 E375.04590
G1 X104.929 Y109.557 E380.16722
G1 X107.243 Y109.557 E380.74572
G1 X90.443 Y92.757 E386.68516
G1 X90.443 Y90.443 E387.26366
G1 X109.557 Y109.557 E394.02122
G1 X109.557 Y107.243 E394.59972
G1 X92.757 Y90.443 E400.53916
G1 X95.071 Y90.443 E401.11766
G1 X109.557 Y104.929 E406.23898
G1 X109.557 Y102.615 E406.81748
G1 X97.385 Y90.443 E411.12068
G1 X99.699 Y90.443 E411.69918
G1 X109.557 Y100.301 E415.18426
G1 X109.557 Y97.987 E415.76276
G1 X102.013 Y90.443 E418.42972
G1 X104.327 Y90.443 E419.00822
G1 X109.557 Y95.673 E420.85705
G1 X109.557 Y93.359 E421.43555
G1 X106.641 Y90.443 E422.46626
G1 X108.955 Y90.443 E423.04476
G1 X109.557 Y91.045 E423.25735
G1 Z2.800 F7800.000
G1 X108.955 Y109.557 F7800.000
G1 F3131.03
G1 X109.557 Y108.955 E423.46995
G1 X109.557 Y106.641 E424.04845
G1 X106.641 Y109.557 E425.07916
G1 X104.327 Y109.557 E425.65766
G1 X109.557 Y104.327 E427.50649
G1 X109.557 Y102.013 E428.08499
G1 X102.013 Y109.557 E430.75195
G1 X99.699 Y109.557 E431.33045
G1 X109.557 Y99.699 E434.81553
G1 X109.557 Y97.385 E435.39403
G1 X97.385 Y109.557 E439.69723
G1 X95.071 Y109.557 E440.27573
G1 X109.557 Y95.071 E445.39705
G1 X109.557 Y92.757 E445.97555
G1 X92.757 Y109.557 E451.91499
G1 X90.443 Y109.557 E452.49349
G1 X109.557 Y90.443 E459.25105
G1 X107.243 Y90.443 E459.82955
G1 X90.443 Y107.243 E465.76899
G1 X90.443 Y104.929 E466.34749
G1 X104.929 Y90.443 E471.46881
G1 X102.615 Y90.443 E472.04731
G1 X90.443 Y102.615 E476.35051
G1 X90.443 Y100.301 E476.92901
G1 X100.301 Y90.443 E480.41409
G1 X97.987 Y90.443 E480.99258
G1 X90.443 Y97.987 E483.65954
G1 X90.443 Y95.673 E484.23804
G1 X95.673 Y90.443 E486.08687
G1 X93.359 Y90.443 E486.66537
G1 X90.443 Y93.359 E487.69609
G1 X90.443 Y91.045 E488.27459
G1 X91.045 Y90.443 E488.48718
G1 Z3.200 F7800.000
G1 X90.443 Y108.955 F7800.000
G1 F3131.03
G1 X91.045 Y109.557 E488.69977
G1 X93.359 Y109.557 E489.27827
G1 X90.443 Y106.641 E490.30898
G1 X90.443 Y104.327 E490.88748
G1 X95.673 Y109.557 E492.73632
G1 X97.987 Y109.557 E493.31482
G1 X90.443 Y102.013 E495.98177
G1 X90.443 Y99.699 E496.56027
G1 X100.301 Y109.557 E500.04535
G1 X102.615 Y109.557 E500.62385
G1 X90.443 Y97.385 E504.92705
G1 X90.443 Y95.071 E505.50555
G1 X104.929 Y109.557 E510.62687
G1 X107.243 Y109.557 E511.20537
G1 X90.443 Y92.757 E517.14481
G1 X90.443 Y90.443 E517.72331
G1 X109.557 Y109.557 E524.48087
G1 X109.557 Y107.243 E525.05937
G1 X92.757 Y90.443 E530.99881
G1 X95.071 Y90.443 E531.57731
G1 X109.557 Y104.929 E536.69863
G1 X109.557 Y102.615 E537.27713
G1 X97.385 Y90.443 E541.58033
G1 X99.699 Y90.443 E542.15883
G1 X109.557 Y100.301 E545.64391
G1 X109.557 Y97.987 E546.22241
G1 X102.013 Y90.443 E548.88937
G1 X104.327 Y90.443 E549.46787
G1 X109.557 Y95.673 E551.31670
G1 X109.557 Y93.359 E551.89520
G1 X106.641 Y90.443 E552.92591
G1 X108.955 Y90.443 E553.50441
G1 X109.557 Y91.045 E553.71700
G1 Z3.600 F7800.000
G1 X108.955 Y109.557 F7800.000
G1 F3131.03
G1 X109.557 Y108.955 E553.92960
G1 X109.557 Y106.641 E554.50810
G1 X106.641 Y109.557 E555.53881
G1 X104.327 Y109.557 E556.11731
G1 X109.557 Y104.327 E557.96614
G1 X109.557 Y102.013 E558.54464
G1 X102.013 Y109.557 E561.21160
G1 X99.699 Y109.557 E561.79010
G1 X109.557 Y99.699 E565.27518
G1 X109.557 Y97.385 E565.85368
G1 X97.385 Y109.557 E570.15688
G1 X95.071 Y109.557 E570.73538
G1 X109.557 Y95.071 E575.85670
G1 X109.557 Y92.757 E576.43520
G1 X92.757 Y109.557 E582.37464
G1 X90.443 Y109.557 E582.95314
G1 X109.557 Y90.443 E589.71070
G1 X107.243 Y90.443 E590.28920
G1 X90.443 Y107.243 E596.22864
G1 X90.443 Y104.929 E596.80714
G1 X104.929 Y90.443 E601.92846
G1 X102.615 Y90.443 E602.50696
G1 X90.443 Y102.615 E606.81016
G1 X90.443 Y100.301 E607.38866
G1 X100.301 Y90.443 E610.87374
G1 X97.987 Y90.443 E611.45223
G1 X90.443 Y97.987 E614.11919
G1 X90.443 Y95.673 E614.69769
G1 X95.673 Y90.443 E616.54652
G1 X93.359 Y90.443 E617.12502
G1 X90.443 Y93.359 E618.15574
G1 X90.443 Y91.045 E618.73424
G1 X91.045 Y90.443 E618.94683
G1 Z4.000 F7800.000
G1 X90.443 Y108.955 F7800.000
G1 F3131.03
G1 X91.045 Y109.557 E619.15942
G1 X93.359 Y109.557 E619.73792
G1 X90.443 Y106.641 E620.76863
G1 X90.443 Y104.327 E621.34713
G1 X95.673 Y109.557 E623.19597
G1 X97.987 Y109.557 E623.77447
G1 X90.443 Y102.013 E626.44142
G1 X90.443 Y99.699 E627.01992
G1 X100.301 Y109.557 E630.50500
G1 X102.615 Y109.557 E631.08350
G1 X90.443 Y97.385 E635.38670
G1 X90.443 Y95.071 E635.96520
G1 X104.929 Y109.557 E641.08652
G1 X107.243 Y109.557 E641.66502
G1 X90.443 Y92.757 E647.60446
G1 X90.443 Y90.443 E648.18296
G1 X109.557 Y109.557 E654.94052
G1 X109.557 Y107.243 E655.51902
G1 X92.757 Y90.443 E661.45846
G1 X95.071 Y90.443 E662.03696
G1 X109.557 Y104.929 E667.15828
G1 X109.557 Y102.615 E667.73678
G1 X97.385 Y90.443 E672.03998
G1 X99.699 Y90.443 E672.61848
G1 X109.557 Y100.301 E676.10356
G1 X109.557 Y97.987 E676.68206
G1 X102.013 Y90.443 E679.34902
G1 X104.327 Y90.443 E679.92752
G1 X109.557 Y95.673 E681.77635
G1 X109.557 Y93.359 E682.35485
G1 X106.641 Y90.443 E683.38556
G1 X108.955 Y90.443 E683.96406
G1 X109.557 Y91.045 E684.17665
G1 Z4.400 F7800.000
G1 X108.955 Y109.557 F7800.000
G1 F3131.03
G1 X109.557 Y108.955 E684.38925
G1 X109.557 Y106.641 E684.96775
G1 X106.641 Y109.557 E685.99846
G1 X104.327 Y109.557 E686.57696
G1 X109.557 Y104.327 E688.42579
G1 X109.557 Y102.013 E689.00429
G1 X102.013 Y109.557 E691.67125
G1 X99.699 Y109.557 E692.24975
G1 X109.557 Y99.699 E695.73483
G1 X109.557 Y97.385 E696.31333
G1 X97.385 Y109.557 E700.61653
G1 X95.071 Y109.557 E701.19503
G1 X109.557 Y95.071 E706.31635
G1 X109.557 Y92.757 E706.89485
G1 X92.757 Y109.557 E712.83429
G1 X90.443 Y109.557 E713.41279
G1 X109.557 Y90.443 E720.17035
G1 X107.243 Y90.443 E720.74885
G1 X90.443 Y107.243 E726.68829
G1 X90.443 Y104.929 E727.26679
G1 X104.929 Y90.443 E732.38811
G1 X102.615 Y90.443 E732.96661
G1 X90.443 Y102.615 E737.26981
G1 X90.443 Y100.301 E737.84831
G1 X100.301 Y90.443 E741.33339
G1 X97.987 Y90.443 E741.91188
G1 X90.443 Y97.987 E744.57884
G1 X90.443 Y95.673 E745.15734
G1 X95.673 Y90.443 E747.00617
G1 X93.359 Y90.443 E747.58467
G1 X90.443 Y93.359 E748.61539
G1 X90.443 Y91.045 E749.19389
G1 X91.045 Y90.443 E749.40648
G1 Z4.800 F7800.000
G1 X90.443 Y108.955 F7800.000
G1 F3131.03
G1 X91.045 Y109.557 E749.61907
G1 X93.359 Y109.557 E750.19757
G1 X90.443 Y106.641 E751.22828
G1 X90.443 Y104.327 E751.80678
G1 X95.673 Y109.557 E753.65562
G1 X97.987 Y109.557 E754.23412
G1 X90.443 Y102.013 E756.90107
G1 X90.443 Y99.699 E757.47957
G1 X100.301 Y109.557 E760.96465
G1 X102.615 Y109.557 E761.54315
G1 X90.443 Y97.385 E765.84635
G1 X90.443 Y95.071 E766.42485
G1 X104.929 Y109.557 E771.54617
G1 X107.243 Y109.557 E772.12467
G1 X90.443 Y92.757 E778.06411
G1 X90.443 Y90.443 E778.64261
G1 X109.557 Y109.557 E785.40017
G1 X109.557 Y107.243 E785.97867
G1 X92.757 Y90.443 E791.91811
G1 X95.071 Y90.443 E792.49661
G1 X109.557 Y104.929 E797.61793
G1 X109.557 Y102.615 E798.19643
G1 X97.385 Y90.443 E802.49963
G1 X99.699 Y90.443 E803.07813
G1 X109.557 Y100.301 E806.56321
G1 X109.557 Y97.987 E807.14171
G1 X102.013 Y90.443 E809.80867
G1 X104.327 Y90.443 E810.38717
G1 X109.557 Y95.673 E812.23600
G1 X109.557 Y93.359 E812.81450
G1 X106.641 Y90.443 E813.84521
G1 X108.955 Y90.443 E814.42371
G1 X109.557 Y91.045 E814.63630
G1 Z5.200 F7800.000
G1 X108.955 Y109.557 F7800.000
G1 F3131.03
G1 X109.557 Y108.955 E814.84890
G1 X109.557 Y106.641 E815.42740
G1 X106.641 Y109.557 E816.45811
G1 X104.327 Y109.557 E817.03661
G1 X109.557 Y104.327 E818.88544
G1 X109.557 Y102.013 E819.46394
G1 X102.013 Y109.557 E822.13090
G1 X99.699 Y109.557 E822.70940
G1 X109.557 Y99.699 E826.19448
G1 X109.557 Y97.385 E826.77298
G1 X97.385 Y109.557 E831.07618
G1 X95.071 Y109.557 E831.65468
G1 X109.557 Y95.071 E836.77600
G1 X109.557 Y92.757 E837.35450
G1 X92.757 Y109.557 E843.29394
G1 X90.443 Y109.557 E843.87244
G1 X109.557 Y90.443 E850.63000
G1 X107.243 Y90.443 E851.20850
G1 X90.443 Y107.243 E857.14794
G1 X90.443 Y104.929 E857.72644
G1 X104.929 Y90.443 E862.84776
G1 X102.615 Y90.443 E863.42626
G1 X90.443 Y102.615 E867.72946
G1 X90.443 Y100.301 E868.30796
G1 X100.301 Y90.443 E871.79304
G1 X97.987 Y90.443 E872.37153
G1 X90.443 Y97.987 E875.03849
G1 X90.443 Y95.673 E875.61699
G1 X95.673 Y90.443 E877.46582
G1 X93.359 Y90.443 E878.04432
G1 X90.443 Y93.359 E879.07504
G1 X90.443 Y91.045 E879.65354
G1 X91.045 Y90.443 E879.86613
G1 Z5.600 F7800.000
G1 X90.443 Y108.955 F7800.000
G1 F3131.03
G1 X91.045 Y109.557 E880.07872
G1 X93.359 Y109.557 E880.65722
G1 X90.443 Y106.641 E881.68793
G1 X90.443 Y104.327 E882.26643
G1 X95.673 Y109.557 E884.11527
G1 X97.987 Y109.557 E884.69377
G1 X90.443 Y102.013 E887.36072
G1 X90.443 Y99.699 E887.93922
G1 X100.301 Y109.557 E891.42430
G1 X102.615 Y109.557 E892.00280
G1 X90.443 Y97.385 E896.30600
G1 X90.443 Y95.071 E896.88450
G1 X104.929 Y109.557 E902.00582
G1 X107.243 Y109.557 E902.58432
G1 X90.443 Y92.757 E908.52376
G1 X90.443 Y90.443 E909.10226
G1 X109.557 Y109.557 E915.85982
G1 X109.557 Y107.243 E916.43832
G1 X92.757 Y90.443 E922.37776
G1 X95.071 Y90.443 E922.95626
G1 X109.557 Y104.929 E928.07758
G1 X109.557 Y102.615 E928.65608
G1 X97.385 Y90.443 E932.95928
G1 X99.699 Y90.443 E933.53778
G1 X109.557 Y100.301 E937.02286
G1 X109.557 Y97.987 E937.60136
G1 X102.013 Y90.443 E940.26832
G1 X104.327 Y90.443 E940.84682
G1 X109.557 Y95.673 E942.69565
G1 X109.557 Y93.359 E943.27415
G1 X106.641 Y90.443 E944.30486
G1 X108.955 Y90.443 E944.88336
G1 X109.557 Y91.045 E945.09595
G1 Z6.000 F7800.000
G1 X108.955 Y109.557 F7800.000
G1 F3131.03
G1 X109.557 Y108.955 E945.30855
G1 X109.557 Y106.641 E945.88705
G1 X106.641 Y109.557 E946.91776
G1 X104.327 Y109.557 E947.49626
G1 X109.557 Y104.327 E949.34509
G1 X109.557 Y102.013 E949.92359
G1 X102.013 Y109.557 E952.59055
G1 X99.699 Y109.557 E953.16905
G1 X109.557 Y99.699 E956.65413
G1 X109.557 Y97.385 E957.23263
G1 X97.385 Y109.557 E961.53583
G1 X95.071 Y109.557 E962.11433
G1 X109.557 Y95.071 E967.23565
G1 X109.557 Y92.757 E967.81415
G1 X92.757 Y109.557 E973.75359
G1 X90.443 Y109.557 E974.33209
G1 X109.557 Y90.443 E981.08965
G1 X107.243 Y90.443 E981.66815
G1 X90.443 Y107.243 E987.60759
G1 X90.443 Y104.929 E988.18609
G1 X104.929 Y90.443 E993.30741
G1 X102.615 Y90.443 E993.88591
G1 X90.443 Y102.615 E998.18911
G1 X90.443 Y100.301 E998.76761
G1 X100.301 Y90.443 E1002.25269
G1 X97.987 Y90.443 E1002.83118
G1 X90.443 Y97.987 E1005.49814
G1 X90.443 Y95.673 E1006.07664
G1 X95.673 Y90.443 E1007.92547
G1 X93.359 Y90.443 E1008.50397
G1 X90.443 Y93.359 E1009.53469
G1 X90.443 Y91.045 E1010.11319
G1 X91.045 Y90.443 E1010.32578
G1 Z6.400 F7800.000
G1 X90.443 Y108.955 F7800.000
G1 F3131.03
G1 X91.045 Y109.557 E1010.53837
G1 X93.359 Y109.557 E1011.11687
G1 X90.443 Y106.641 E1012.14758
G1 X90.443 Y104.327 E1012.72608
G1 X95.673 Y109.557 E1014.57492
G1 X97.987 Y109.557 E1015.15342
G1 X90.443 Y102.013 E1017.82037
G1 X90.443 Y99.699 E1018.39887
G1 X100.301 Y109.557 E1021.88395
G1 X102.615 Y109.557 E1022.46245
G1 X90.443 Y97.385 E1026.76565
G1 X90.443 Y95.071 E1027.34415
G1 X104.929 Y109.557 E1032.46547
G1 X107.243 Y109.557 E1033.04397
G1 X90.443 Y92.757 E1038.98341
G1 X90.443 Y90.443 E1039.56191
G1 X109.557 Y109.557 E1046.31947
G1 X109.557 Y107.243 E1046.89797
G1 X92.757 Y90.443 E1052.83741
G1 X95.071 Y90.443 E1053.41591
G1 X109.557 Y104.929 E1058.53723
G1 X109.557 Y102.615 E1059.11573
G1 X97.385 Y90.443 E1063.41893
G1 X99.699 Y90.443 E1063.99743
G1 X109.557 Y100.301 E1067.48251
G1 X109.557 Y97.987 E1068.06101
G1 X102.013 Y90.443 E1070.72797
G1 X104.327 Y90.443 E1071.30647
G1 X109.557 Y95.673 E1073.15530
G1 X109.557 Y93.359 E1073.73380
G1 X106.641 Y90.443 E1074.76451
G1 X108.955 Y90.443 E1075.34301
G1 X109.557 Y91.045 E1075.55560
G1 Z6.800 F7800.000
G1 X108.955 Y109.557 F7800.000
G1 F3131.03
G1 X109.557 Y108.955 E1075.76820
G1 X109.557 Y106.641 E1076.34670
G1 X106.641 Y109.557 E1077.37741
G1 X104.327 Y109.557 E1077.95591
G1 X109.557 Y104.327 E1079.80474
G1 X109.557 Y102.013 E1080.38324
G1 X102.013 Y109.557 E1083.05020
G1 X99.699 Y109.557 E1083.62870
G1 X109.557 Y99.699 E1087.11378
G1 X109.557 Y97.385 E1087.69228
G1 X97.385 Y109.557 E1091.99548
G1 X95.071 Y109.557 E1092.57398
G1 X109.557 Y95.071 E1097.69530
G1 X109.557 Y92.757 E1098.27380
G1 X92.757 Y109.557 E1104.21324
G1 X90.443 Y109.557 E1104.79174
G1 X109.557 Y90.443 E1111.54930
G1 X107.243 Y90.443 E1112.12780
G1 X90.443 Y107.243 E1118.06724
G1 X90.443 Y104.929 E1118.64574
G1 X104.929 Y90.443 E1123.76706
G1 X102.615 Y90.443 E1124.34556
G1 X90.443 Y102.615 E1128.64876
G1 X90.443 Y100.301 E1129.22726
G1 X100.301 Y90.443 E1132.71234
G1 X97.987 Y90.443 E1133.29083
G1 X90.443 Y97.987 E1135.95779
G1 X90.443 Y95.673 E1136.53629
G1 X95.673 Y90.443 E1138.38512
G1 X93.359 Y90.443 E1138.96362
G1 X90.443 Y93.359 E1139.99434
G1 X90.443 Y91.045 E1140.57284
G1 X91.045 Y90.443 E1140.78543
G1 Z7.200 F7800.000
G1 X90.443 Y108.955 F7800.000
G1 F3131.03
G1 X91.045 Y109.557 E1140.99802
G1 X93.359 Y109.557 E1141.57652
G1 X90.443 Y106.641 E1142.60723
G1 X90.443 Y104.327 E1143.18573
G1 X95.673 Y109.557 E1145.03457
G1 X97.987 Y109.557 E1145.61307
G1 X90.443 Y102.013 E1148.28002
G1 X90.443 Y99.699 E1148.85852
G1 X100.301 Y109.557 E1152.34360
G1 X102.615 Y109.557 E1152.92210
G1 X90.443 Y97.385 E1157.22530
G1 X90.443 Y95.071 E1157.80380
G1 X104.929 Y109.557 E1162.92512
G1 X107.243 Y109.557 E1163.50362
G1 X90.443 Y92.757 E1169.44306
G1 X90.443 Y90.443 E1170.02156
G1 X109.557 Y109.557 E1176.77912
G1 X109.557 Y107.243 E1177.35762
G1 X92.757 Y90.443 E1183.29706
G1 X95.071 Y90.443 E1183.87556
G1 X109.557 Y104.929 E1188.99688
G1 X109.557 Y102.615 E1189.57538
G1 X97.385 Y90.443 E1193.87858
G1 X99.699 Y90.443 E1194.45708
G1 X109.557 Y100.301 E1197.94216
G1 X109.557 Y97.987 E1198.52066
G1 X102.013 Y90.443 E1201.18762
G1 X104.327 Y90.443 E1201.76612
G1 X109.557 Y95.673 E1203.61495
G1 X109.557 Y93.359 E1204.19345
G1 X106.641 Y90.443 E1205.22416
G1 X108.955 Y90.443 E1205.80266
G1 X109.557 Y91.045 E1206.01525
G1 Z7.600 F7800.000
G1 X108.955 Y109.557 F7800.000
G1 F3131.03
G1 X109.557 Y108.955 E1206.22785
G1 X109.557 Y106.641 E1206.80635
G1 X106.641 Y109.557 E1207.83706
G1 X104.327 Y109.557 E1208.41556
G1 X109.557 Y104.327 E1210.26439
G1 X109.557 Y102.013 E1210.84289
G1 X102.013 Y109.557 E1213.50985
G1 X99.699 Y109.557 E1214.08835
G1 X109.557 Y99.699 E1217.57343
G1 X109.557 Y97.385 E1218.15193
G1 X97.385 Y109.557 E1222.45513
G1 X95.071 Y109.557 E1223.03363
G1 X109.557 Y95.071 E1228.15495
G1 X109.557 Y92.757 E1228.73345
G1 X92.757 Y109.557 E1234.67289
G1 X90.443 Y109.557 E1235.25139
G1 X109.557 Y90.443 E1242.00895
G1 X107.243 Y90.443 E1242.58745
G1 X90.443 Y107.243 E1248.52689
G1 X90.443 Y104.929 E1249.10539
G1 X104.929 Y90.443 E1254.22671
G1 X102.615 Y90.443 E1254.80521
G1 X90.443 Y102.615 E1259.10841
G1 X90.443 Y100.301 E1259.68691
G1 X100.301 Y90.443 E1263.17198
G1 X97.987 Y90.443 E1263.75048
G1 X90.443 Y97.987 E1266.41744
G1 X90.443 Y95.673 E1266.99594
G1 X95.673 Y90.443 E1268.84477
G1 X93.359 Y90.443 E1269.42327
G1 X90.443 Y93.359 E1270.45399
G1 X90.443 Y91.045 E1271.03249
G1 X91.045 Y90.443 E1271.24508
G1 Z8.000 F7800.000
G1 X90.443 Y108.955 F7800.000
G1 F3131.03
G1 X91.045 Y109.557 E1271.45767
G1 X93.359 Y109.557 E1272.03617
G1 X90.443 Y106.641 E1273.06688
G1 X90.443 Y104.327 E1273.64538
G1 X95.673 Y109.557 E1275.49422
G1 X97.987 Y109.557 E1276.07272
G1 X90.443 Y102.013 E1278.73967
G1 X90.443 Y99.699 E1279.31817
G1 X100.301 Y109.557 E1282.80325
G1 X102.615 Y109.557 E1283.38175
G1 X90.443 Y97.385 E1287.68495
G1 X90.443 Y95.071 E1288.26345
G1 X104.929 Y109.557 E1293.38477
G1 X107.243 Y109.557 E1293.96327
G1 X90.443 Y92.757 E1299.90271
G1 X90.443 Y90.443 E1300.48121
G1 X109.557 Y109.557 E1307.23877
G1 X109.557 Y107.243 E1307.81727
G1 X92.757 Y90.443 E1313.75671
G1 X95.071 Y90.443 E1314.33521
G1 X109.557 Y104.929 E1319.45653
G1 X109.557 Y102.615 E1320.03503
G1 X97.385 Y90.443 E1324.33823
G1 X99.699 Y90.443 E1324.91673
G1 X109.557 Y100.301 E1328.40181
G1 X109.557 Y97.987 E1328.98031
G1 X102.013 Y90.443 E1331.64727
G1 X104.327 Y90.443 E1332.22577
G1 X109.557 Y95.673 E1334.07460
G1 X109.557 Y93.359 E1334.65310
G1 X106.641 Y90.443 E1335.68381
G1 X108.955 Y90.443 E1336.26231
G1 X109.557 Y91.045 E1336.47490
G1 Z8.400 F7800.000
G1 X108.955 Y109.557 F7800.000
G1 F3131.03
G1 X109.557 Y108.955 E1336.68750
G1 X109.557 Y106.641 E1337.26600
G1 X106.641 Y109.557 E1338.29671
G1 X104.327 Y109.557 E1338.87521
G1 X109.557 Y104.327 E1340.72404
G1 X109.557 Y102.013 E1341.30254
G1 X102.013 Y109.557 E1343.96950
G1 X99.699 Y109.557 E1344.54800
G1 X109.557 Y99.699 E1348.03308
G1 X109.557 Y97.385 E1348.61158
G1 X97.385 Y109.557 E1352.91478
G1 X95.071 Y109.557 E1353.49328
G1 X109.557 Y95.071 E1358.61460
G1 X109.557 Y92.757 E1359.19310
G1 X92.757 Y109.557 E1365.13254
G1 X90.443 Y109.557 E1365.71104
G1 X109.557 Y90.443 E1372.46860
G1 X107.243 Y90.443 E1373.04710
G1 X90.443 Y107.243 E1378.98654
G1 X90.443 Y104.929 E1379.56504
G1 X104.929 Y90.443 E1384.68636
G1 X102.615 Y90.443 E1385.26486
G1 X90.443 Y102.615 E1389.56806
G1 X90.443 Y100.301 E1390.14656
G1 X100.301 Y90.443 E1393.63163
G1 X97.987 Y90.443 E1394.21013
G1 X90.443 Y97.987 E1396.87709
G1 X90.443 Y95.673 E1397.45559
G1 X95.673 Y90.443 E1399.30442
G1 X93.359 Y90.443 E1399.88292
G1 X90.443 Y93.359 E1400.91364
G1 X90.443 Y91.045 E1401.49214
G1 X91.045 Y90.443 E1401.70473
G1 Z8.800 F7800.000
G1 X90.443 Y108.955 F7800.000
G1 F3131.03
G1 X91.045 Y109.557 E1401.91732
G1 X93.359 Y109.557 E1402.49582
G1 X90.443 Y106.641 E1403.52653
G1 X90.443 Y104.327 E1404.10503
G1 X95.673 Y109.557 E1405.95387
G1 X97.987 Y109.557 E1406.53237
G1 X90.443 Y102.013 E1409.19932
G1 X90.443 Y99.699 E1409.77782
G1 X100.301 Y109.557 E1413.26290
G1 X102.615 Y109.557 E1413.84140
G1 X90.443 Y97.385 E1418.14460
G1 X90.443 Y95.071 E1418.72310
G1 X104.929 Y109.557 E1423.84442
G1 X107.243 Y109.557 E1424.42292
G1 X90.443 Y92.757 E1430.36236
G1 X90.443 Y90.443 E1430.94086
G1 X109.557 Y109.557 E1437.69842
G1 X109.557 Y107.243 E1438.27692
G1 X92.757 Y90.443 E1444.21636
G1 X95.071 Y90.443 E1444.79486
G1 X109.557 Y104.929 E1449.91618
G1 X109.557 Y102.615 E1450.49468
G1 X97.385 Y90.443 E1454.79788
G1 X99.699 Y90.443 E1455.37638
G1 X109.557 Y100.301 E1458.86146
G1 X109.557 Y97.987 E1459.43996
G1 X102.013 Y90.443 E1462.10692
G1 X104.327 Y90.443 E1462.68541
G1 X109.557 Y95.673 E1464.53425
G1 X109.557 Y93.359 E1465.11275
G1 X106.641 Y90.443 E1466.14346
G1 X108.955 Y90.443 E1466.72196
G1 X109.557 Y91.045 E1466.93455
G1 Z9.200 F7800.000
G1 X108.955 Y109.557 F7800.000
G1 F3131.03
G1 X109.557 Y108.955 E1467.14715
G1 X109.557 Y106.641 E1467.72565
G1 X106.641 Y109.557 E1468.75636
G1 X104.327 Y109.557 E1469.33486
G1 X109.557 Y104.327 E1471.18369
G1 X109.557 Y102.013 E1471.76219
G1 X102.013 Y109.557 E1474.42915
G1 X99.699 Y109.557 E1475.00765
G1 X109.557 Y99.699 E1478.49273
G1 X109.557 Y97.385 E1479.07123
G1 X97.385 Y109.557 E1483.37443
G1 X95.071 Y109.557 E1483.95293
G1 X109.557 Y95.071 E1489.07425
G1 X109.557 Y92.757 E1489.65275
G1 X92.757 Y109.557 E1495.59219
G1 X90.443 Y109.557 E1496.17069
G1 X109.557 Y90.443 E1502.92825
G1 X107.243 Y90.443 E1503.50675
G1 X90.443 Y107.243 E1509.44619
G1 X90.443 Y104.929 E1510.02469
G1 X104.929 Y90.443 E1515.14601
G1 X102.615 Y90.443 E1515.72451
G1 X90.443 Y102.615 E1520.02771
G1 X90.443 Y100.301 E1520.60621
G1 X100.301 Y90.443 E1524.09128
G1 X97.987 Y90.443 E1524.66978
G1 X90.443 Y97.987 E1527.33674
G1 X90.443 Y95.673 E1527.91524
G1 X95.673 Y90.443 E1529.76407
G1 X93.359 Y90.443 E1530.34257
G1 X90.443 Y93.359 E1531.37329
G1 X90.443 Y91.045 E1531.95179
G1 X91.045 Y90.443 E1532.16438
G1 Z9.600 F7800.000
G1 X90.443 Y108.955 F7800.000
G1 F3131.03
G1 X91.045 Y109.557 E1532.37697
G1 X93.359 Y109.557 E1532.95547
G1 X90.443 Y106.641 E1533.98618
G1 X90.443 Y104.327 E1534.56468
G1 X95.673 Y109.557 E1536.41352
G1 X97.987 Y109.557 E1536.99202
G1 X90.443 Y102.013 E1539.65897
G1 X90.443 Y99.699 E1540.23747
G1 X100.301 Y109.557 E1543.72255
G1 X102.615 Y109.557 E1544.30105
G1 X90.443 Y97.385 E1548.60425
G1 X90.443 Y95.071 E1549.18275
G1 X104.929 Y109.557 E1554.30407
G1 X107.243 Y109.557 E1554.88257
G1 X90.443 Y92.757 E1560.82201
G1 X90.443 Y90.443 E1561.40051
G1 X109.557 Y109.557 E1568.15807
G1 X109.557 Y107.243 E1568.73657
G1 X92.757 Y90.443 E1574.67601
G1 X95.071 Y90.443 E1575.25451
G1 X109.557 Y104.929 E1580.37583
G1 X109.557 Y102.615 E1580.95433
G1 X97.385 Y90.443 E1585.25753
G1 X99.699 Y90.443 E1585.83603
G1 X109.557 Y100.301 E1589.32111
G1 X109.557 Y97.987 E1589.89961
G1 X102.013 Y90.443 E1592.56657
G1 X104.327 Y90.443 E1593.14506
G1 X109.557 Y95.673 E1594.99390
G1 X109.557 Y93.359 E1595.57240
G1 X106.641 Y90.443 E1596.60311
G1 X108.955 Y90.443 E1597.18161
G1 X109.557 Y91.045 E1597.39420
G1 Z10.000 F7800.000
G1 E1595.39420 F2400.00000
G92 E0
G1 X108.955 Y109.557 F7800.000
G1 E2.00000 F2400.00000
G1 F3131.03
G1 X109.557 Y108.955 E2.21259
G1 X109.557 Y106.641 E2.79109
G1 X106.641 Y109.557 E3.82180
G1 X104.327 Y109.557 E4.40030
G1 X109.557 Y104.327 E6.24914
G1 X109.557 Y102.013 E6.82764
G1 X102.013 Y109.557 E9.49460
G1 X99.699 Y109.557 E10.07309
G1 X109.557 Y99.699 E13.55817
G1 X109.557 Y97.385 E14.13667
G1 X97.385 Y109.557 E18.43987
G1 X95.071 Y109.557 E19.01837
G1 X109.557 Y95.071 E24.13969
G1 X109.557 Y92.757 E24.71819
G1 X92.757 Y109.557 E30.65763
G1 X90.443 Y109.557 E31.23613
G1 X109.557 Y90.443 E37.99370
G1 X107.243 Y90.443 E38.57219
G1 X90.443 Y107.243 E44.51164
G1 X90.443 Y104.929 E45.09014
G1 X104.929 Y90.443 E50.21146
G1 X102.615 Y90.443 E50.78995
G1 X90.443 Y102.615 E55.09315
G1 X90.443 Y100.301 E55.67165
G1 X100.301 Y90.443 E59.15673
G1 X97.987 Y90.443 E59.73523
G1 X90.443 Y97.987 E62.40219
G1 X90.443 Y95.673 E62.98069
G1 X95.673 Y90.443 E64.82952
G1 X93.359 Y90.443 E65.40802
G1 X90.443 Y93.359 E66.43873
G1 X90.443 Y91.045 E67.01723
G1 X91.045 Y90.443 E67.22982
G1 E65.22982 F2400.00000
G92 E0
M107
; Filament-specific end gcode 
;END gcode for filament

M104 S0 ; turn off temperature
G28 X0  ; home X axis
M84     ; disable motors

M140 S0 ; set bed temperature
; filament used = 1660.6mm (1.3cm3)
; total filament cost = 0.0

; avoid_crossing_perimeters = 0
; bed_shape = 0x0,200x0,200x200,0x200
; bed_temperature = 0
; before_layer_gcode = 
; between_objects_gcode = 
; bridge_acceleration = 0
; bridge_fan_speed = 100
; brim_connections_width = 0
; brim_width = 0
; complete_objects = 0
; cooling = 1
; default_acceleration = 0
; disable_fan_first_layers = 3
; duplicate_distance = 6
; end_filament_gcode = "; Filament-specific end gcode \n;END gcode for filament\n"
; end_gcode = M104 S0 ; turn off temperature\nG28 X0  ; home X axis\nM84     ; disable motors\n
; extruder_clearance_height = 20
; extruder_clearance_radius = 20
; extruder_offset = 0x0
; extrusion_axis = E
; extrusion_multiplier = 1
; fan_always_on = 0
; fan_below_layer_time = 60
; filament_colour = #FFFFFF
; filament_cost = 0
; filament_density = 0
; filament_diameter = 1
; filament_max_volumetric_speed = 0
; filament_notes = ""
; first_layer_acceleration = 0
; first_layer_bed_temperature = 0
; first_layer_extrusion_width = 200%
; first_layer_speed = 30
; first_layer_temperature = 200
; gcode_arcs = 0
; gcode_comments = 0
; gcode_flavor = reprap
; has_heatbed = 1
; infill_acceleration = 0
; infill_first = 0
; interior_brim_width = 0
; layer_gcode = 
; max_fan_speed = 100
; max_layer_height = 0.3
; max_print_speed = 80
; max_volumetric_speed = 0
; min_fan_speed = 35
; min_layer_height = 0.15
; min_print_speed = 10
; min_skirt_length = 0
; notes = 
; nozzle_diameter = 0.5
; only_retract_when_crossing_perimeters = 1
; ooze_prevention = 0
; output_filename_format = [input_filename_base].gcode
; perimeter_acceleration = 0
; post_process = 
; pressure_advance = 0
; printer_notes = 
; resolution = 0
; retract_before_travel = 2
; retract_layer_change = 0
; retract_length = 2
; retract_length_toolchange = 10
; retract_lift = 0
; retract_lift_above = 0
; retract_lift_below = 0
; retract_restart_extra = 0
; retract_restart_extra_toolchange = 0
; retract_speed = 40
; skirt_distance = 6
; skirt_height = 1
; skirts = 0
; slowdown_below_layer_time = 5
; spiral_vase = 0
; standby_temperature_delta = -5
; start_filament_gcode = "; Filament gcode\n"
; start_gcode = G28 ; home all axes\nG1 Z5 F5000 ; lift nozzle\n
; temperature = 200
; threads = 4
; toolchange_gcode = 
; travel_speed = 130
; use_firmware_retraction = 0
; use_relative_e_distances = 0
; use_set_and_wait_bed = 0
; use_set_and_wait_extruder = 0
; use_volumetric_e = 0
; vibration_limit = 0
; wipe = 0
; z_offset = 0
; z_steps_per_mm = 0
; adaptive_slicing = 0
; adaptive_slicing_quality = 75%
; dont_support_bridges = 1
; extrusion_width = 0
; first_layer_height = 0.4
; infill_only_where_needed = 0
; interface_shells = 0
; layer_height = 0.4
; match_horizontal_surfaces = 0
; raft_layers = 0
; regions_overlap = 0
; seam_position = aligned
; sequential_print_priority = 0
; support_material = 0
; support_material_angle = 0
; support_material_buildplate_only = 0
; support_material_contact_distance = 0.2
; support_material_enforce_layers = 0
; support_material_extruder = 1
; support_material_extrusion_width = 0
; support_material_interface_extruder = 1
; support_material_interface_extrusion_width = 0
; support_material_interface_layers = 3
; support_material_interface_spacing = 0
; support_material_interface_speed = 100%
; support_material_max_layers = 0
; support_material_pattern = pillars
; support_material_spacing = 2.5
; support_material_speed = 60
; support_material_threshold = 60%
; xy_size_compensation = 0
; bottom_infill_pattern = rectilinear
; bottom_solid_layers = 0
; bridge_flow_ratio = 1
; bridge_speed = 60
; external_perimeter_extrusion_width = 0
; external_perimeter_speed = 50%
; external_perimeters_first = 0
; extra_perimeters = 1
; fill_angle = 45
; fill_density = 30%
; fill_gaps = 1
; fill_pattern = rectilinear
; gap_fill_speed = 20
; infill_every_layers = 1
; infill_extruder = 1
; infill_extrusion_width = 0
; infill_overlap = 15%
; infill_speed = 80
; overhangs = 1
; perimeter_extruder = 1
; perimeter_extrusion_width = 0
; perimeter_speed = 60
; perimeters = 0
; small_perimeter_speed = 15
; solid_infill_below_area = 70
; solid_infill_every_layers = 0
; solid_infill_extruder = 1
; solid_infill_extrusion_width = 0
; solid_infill_speed = 20
; thin_walls = 1
; top_infill_extrusion_width = 0
; top_infill_pattern = rectilinear
; top_solid_infill_speed = 15
; top_solid_layers = 0
