; generated by Slic3r 1.3.0 on 2020-03-14 at 12:08:06

; external perimeters extrusion width = 0.55mm (4.37mm^3/s)
; perimeters extrusion width = 0.70mm (11.44mm^3/s)
; infill extrusion width = 0.63mm (13.45mm^3/s)
; solid infill extrusion width = 0.70mm (3.81mm^3/s)
; top infill extrusion width = 0.70mm (2.86mm^3/s)

M107
M104 S205 ; set temperature
G28 ; home all axes
G1 Z5 F5000 ; lift nozzle

; Filament gcode

M109 S205 ; set temperature and wait for it to be reached
G21 ; set units to millimeters
G90 ; use absolute coordinates
M82 ; use absolute distances for extrusion
G92 E0
G1 Z0.300 F7800.000
G1 E-2.00000 F2400.00000
G92 E0
G1 X90.317 Y90.743 F7800.000
G1 E2.00000 F2400.00000
G1 F1800
G1 X90.744 Y90.317 E2.01371
G1 X91.550 Y90.317 E2.03203
G1 X90.317 Y91.550 E2.07165
G1 X90.317 Y92.356 E2.08997
G1 X92.356 Y90.317 E2.15550
G1 X93.161 Y90.317 E2.17382
G1 X90.317 Y93.161 E2.26526
G1 X90.317 Y93.967 E2.28358
G1 X93.967 Y90.317 E2.40093
G1 X94.773 Y90.317 E2.41925
G1 X90.317 Y94.773 E2.56251
G1 X90.317 Y95.579 E2.58083
G1 X95.579 Y90.317 E2.75000
G1 X96.385 Y90.317 E2.76832
G1 X90.317 Y96.385 E2.96339
G1 X90.317 Y97.191 E2.98171
G1 X97.191 Y90.317 E3.20270
G1 X97.997 Y90.317 E3.22102
G1 X90.317 Y97.997 E3.46792
G1 X90.317 Y98.803 E3.48624
G1 X98.803 Y90.317 E3.75904
G1 X99.609 Y90.317 E3.77736
G1 X90.317 Y99.609 E4.07608
G1 X90.317 Y100.415 E4.09440
G1 X100.415 Y90.317 E4.41902
G1 X101.221 Y90.317 E4.43734
G1 X90.317 Y101.221 E4.78787
G1 X90.317 Y102.027 E4.80619
G1 X102.027 Y90.317 E5.18264
G1 X102.833 Y90.317 E5.20096
G1 X90.317 Y102.833 E5.60331
G1 X90.317 Y103.638 E5.62163
G1 X103.638 Y90.317 E6.04989
G1 X104.444 Y90.317 E6.06821
G1 X90.317 Y104.444 E6.52238
G1 X90.317 Y105.250 E6.54070
G1 X105.250 Y90.317 E7.02078
G1 X106.056 Y90.317 E7.03910
G1 X90.317 Y106.056 E7.54509
G1 X90.317 Y106.862 E7.56341
G1 X106.862 Y90.317 E8.09530
G1 X107.668 Y90.317 E8.11362
G1 X90.317 Y107.668 E8.67143
G1 X90.317 Y108.474 E8.68975
G1 X108.474 Y90.317 E9.27347
G1 X109.280 Y90.317 E9.29179
G1 X90.317 Y109.280 E9.90141
G1 X90.317 Y109.683 E9.91057
G1 X90.720 Y109.683 E9.91973
G1 X109.683 Y90.720 E10.52936
G1 X109.683 Y91.526 E10.54768
G1 X91.526 Y109.683 E11.13139
G1 X92.332 Y109.683 E11.14971
G1 X109.683 Y92.332 E11.70752
G1 X109.683 Y93.138 E11.72584
G1 X93.138 Y109.683 E12.25773
G1 X93.944 Y109.683 E12.27605
G1 X109.683 Y93.944 E12.78204
G1 X109.683 Y94.750 E12.80036
G1 X94.750 Y109.683 E13.28044
G1 X95.556 Y109.683 E13.29876
G1 X109.683 Y95.556 E13.75292
G1 X109.683 Y96.362 E13.77125
G1 X96.362 Y109.683 E14.19950
G1 X97.168 Y109.683 E14.21782
G1 X109.683 Y97.168 E14.62017
G1 X109.683 Y97.973 E14.63849
G1 X97.973 Y109.683 E15.01493
G1 X98.779 Y109.683 E15.03325
G1 X109.683 Y98.779 E15.38379
G1 X109.683 Y99.585 E15.40211
G1 X99.585 Y109.683 E15.72673
G1 X100.391 Y109.683 E15.74505
G1 X109.683 Y100.391 E16.04376
G1 X109.683 Y101.197 E16.06208
G1 X101.197 Y109.683 E16.33488
G1 X102.003 Y109.683 E16.35320
G1 X109.683 Y102.003 E16.60010
G1 X109.683 Y102.809 E16.61842
G1 X102.809 Y109.683 E16.83940
G1 X103.615 Y109.683 E16.85772
G1 X109.683 Y103.615 E17.05280
G1 X109.683 Y104.421 E17.07112
G1 X104.421 Y109.683 E17.24029
G1 X105.227 Y109.683 E17.25861
G1 X109.683 Y105.227 E17.40186
G1 X109.683 Y106.033 E17.42018
G1 X106.033 Y109.683 E17.53753
G1 X106.839 Y109.683 E17.55585
G1 X109.683 Y106.839 E17.64729
G1 X109.683 Y107.645 E17.66561
G1 X107.645 Y109.683 E17.73114
G1 X108.450 Y109.683 E17.74946
G1 X109.683 Y108.450 E17.78908
G1 X109.683 Y109.256 E17.80740
G1 X109.256 Y109.683 E17.82111
M104 S200 ; set temperature
G1 Z0.600 F7800.000
G1 X90.763 Y109.702 F7800.000
G1 F4800
G1 X90.298 Y109.237 E17.83677
G1 X90.298 Y108.431 E17.85594
G1 X91.569 Y109.702 E17.89872
G1 X92.375 Y109.702 E17.91790
G1 X90.298 Y107.625 E17.98780
G1 X90.298 Y106.819 E18.00697
G1 X93.181 Y109.702 E18.10399
G1 X93.987 Y109.702 E18.12316
G1 X90.298 Y106.013 E18.24730
G1 X90.298 Y105.207 E18.26647
G1 X94.793 Y109.702 E18.41773
G1 X95.599 Y109.702 E18.43690
G1 X90.298 Y104.401 E18.61528
G1 X90.298 Y103.595 E18.63445
G1 X96.405 Y109.702 E18.83994
G1 X97.211 Y109.702 E18.85912
G1 X90.298 Y102.789 E19.09173
G1 X90.298 Y101.984 E19.11090
G1 X98.016 Y109.702 E19.37063
G1 X98.822 Y109.702 E19.38981
G1 X90.298 Y101.178 E19.67665
G1 X90.298 Y100.372 E19.69583
G1 X99.628 Y109.702 E20.00979
G1 X100.434 Y109.702 E20.02897
G1 X90.298 Y99.566 E20.37005
G1 X90.298 Y98.760 E20.38923
G1 X101.240 Y109.702 E20.75743
G1 X102.046 Y109.702 E20.77661
G1 X90.298 Y97.954 E21.17193
G1 X90.298 Y97.148 E21.19110
G1 X102.852 Y109.702 E21.61354
G1 X103.658 Y109.702 E21.63272
G1 X90.298 Y96.342 E22.08228
G1 X90.298 Y95.536 E22.10145
G1 X104.464 Y109.702 E22.57813
G1 X105.270 Y109.702 E22.59730
G1 X90.298 Y94.730 E23.10110
G1 X90.298 Y93.924 E23.12027
G1 X106.076 Y109.702 E23.65119
G1 X106.882 Y109.702 E23.67036
G1 X90.298 Y93.118 E24.22840
G1 X90.298 Y92.312 E24.24757
G1 X107.688 Y109.702 E24.83272
G1 X108.493 Y109.702 E24.85190
G1 X90.298 Y91.507 E25.46417
G1 X90.298 Y90.701 E25.48334
G1 X109.299 Y109.702 E26.12273
G1 X109.702 Y109.702 E26.13232
G1 X109.702 Y109.299 E26.14191
G1 X90.701 Y90.298 E26.78129
G1 X91.507 Y90.298 E26.80047
G1 X109.702 Y108.493 E27.41274
G1 X109.702 Y107.687 E27.43191
G1 X92.313 Y90.298 E28.01706
G1 X93.118 Y90.298 E28.03624
G1 X109.702 Y106.882 E28.59427
G1 X109.702 Y106.076 E28.61344
G1 X93.924 Y90.298 E29.14435
G1 X94.730 Y90.298 E29.16353
G1 X109.702 Y105.270 E29.66732
G1 X109.702 Y104.464 E29.68650
G1 X95.536 Y90.298 E30.16317
G1 X96.342 Y90.298 E30.18235
G1 X109.702 Y103.658 E30.63191
G1 X109.702 Y102.852 E30.65108
G1 X97.148 Y90.298 E31.07352
G1 X97.954 Y90.298 E31.09269
G1 X109.702 Y102.046 E31.48801
G1 X109.702 Y101.240 E31.50719
G1 X98.760 Y90.298 E31.87539
G1 X99.566 Y90.298 E31.89457
G1 X109.702 Y100.434 E32.23565
G1 X109.702 Y99.628 E32.25482
G1 X100.372 Y90.298 E32.56879
G1 X101.178 Y90.298 E32.58796
G1 X109.702 Y98.822 E32.87481
G1 X109.702 Y98.016 E32.89398
G1 X101.984 Y90.298 E33.15371
G1 X102.790 Y90.298 E33.17288
G1 X109.702 Y97.210 E33.40549
G1 X109.702 Y96.405 E33.42467
G1 X103.595 Y90.298 E33.63016
G1 X104.401 Y90.298 E33.64933
G1 X109.702 Y95.599 E33.82770
G1 X109.702 Y94.793 E33.84688
G1 X105.207 Y90.298 E33.99813
G1 X106.013 Y90.298 E34.01731
G1 X109.702 Y93.987 E34.14144
G1 X109.702 Y93.181 E34.16062
G1 X106.819 Y90.298 E34.25763
G1 X107.625 Y90.298 E34.27681
G1 X109.702 Y92.375 E34.34670
G1 X109.702 Y91.569 E34.36588
G1 X108.431 Y90.298 E34.40866
G1 X109.237 Y90.298 E34.42783
G1 X109.702 Y90.763 E34.44349
G1 Z0.900 F7800.000
G1 X109.237 Y109.702 F7800.000
G1 F4800
G1 X109.702 Y109.237 E34.45915
G1 X109.702 Y108.431 E34.47833
G1 X108.431 Y109.702 E34.52110
G1 X107.625 Y109.702 E34.54028
G1 X109.702 Y107.625 E34.61018
G1 X109.702 Y106.819 E34.62935
G1 X106.819 Y109.702 E34.72637
G1 X106.013 Y109.702 E34.74554
G1 X109.702 Y106.013 E34.86968
G1 X109.702 Y105.207 E34.88885
G1 X105.207 Y109.702 E35.04010
G1 X104.401 Y109.702 E35.05928
G1 X109.702 Y104.401 E35.23765
G1 X109.702 Y103.595 E35.25683
G1 X103.595 Y109.702 E35.46231
G1 X102.790 Y109.702 E35.48149
G1 X109.702 Y102.790 E35.71410
G1 X109.702 Y101.984 E35.73327
G1 X101.984 Y109.702 E35.99300
G1 X101.178 Y109.702 E36.01218
G1 X109.702 Y101.178 E36.29902
G1 X109.702 Y100.372 E36.31820
G1 X100.372 Y109.702 E36.63216
G1 X99.566 Y109.702 E36.65133
G1 X109.702 Y99.566 E36.99242
G1 X109.702 Y98.760 E37.01159
G1 X98.760 Y109.702 E37.37979
G1 X97.954 Y109.702 E37.39897
G1 X109.702 Y97.954 E37.79429
G1 X109.702 Y97.148 E37.81346
G1 X97.148 Y109.702 E38.23590
G1 X96.342 Y109.702 E38.25508
G1 X109.702 Y96.342 E38.70463
G1 X109.702 Y95.536 E38.72381
G1 X95.536 Y109.702 E39.20048
G1 X94.730 Y109.702 E39.21966
G1 X109.702 Y94.730 E39.72345
G1 X109.702 Y93.924 E39.74263
G1 X93.924 Y109.702 E40.27354
G1 X93.118 Y109.702 E40.29271
G1 X109.702 Y93.118 E40.85075
G1 X109.702 Y92.313 E40.86992
G1 X92.313 Y109.702 E41.45507
G1 X91.507 Y109.702 E41.47425
G1 X109.702 Y91.507 E42.08651
G1 X109.702 Y90.701 E42.10569
G1 X90.701 Y109.702 E42.74507
G1 X90.298 Y109.702 E42.75466
G1 X90.298 Y109.299 E42.76425
G1 X109.299 Y90.298 E43.40364
G1 X108.493 Y90.298 E43.42281
G1 X90.298 Y108.493 E44.03508
G1 X90.298 Y107.688 E44.05426
G1 X107.688 Y90.298 E44.63941
G1 X106.882 Y90.298 E44.65858
G1 X90.298 Y106.882 E45.21662
G1 X90.298 Y106.076 E45.23579
G1 X106.076 Y90.298 E45.76671
G1 X105.270 Y90.298 E45.78588
G1 X90.298 Y105.270 E46.28968
G1 X90.298 Y104.464 E46.30885
G1 X104.464 Y90.298 E46.78553
G1 X103.658 Y90.298 E46.80470
G1 X90.298 Y103.658 E47.25426
G1 X90.298 Y102.852 E47.27344
G1 X102.852 Y90.298 E47.69588
G1 X102.046 Y90.298 E47.71505
G1 X90.298 Y102.046 E48.11037
G1 X90.298 Y101.240 E48.12955
G1 X101.240 Y90.298 E48.49775
G1 X100.434 Y90.298 E48.51693
G1 X90.298 Y100.434 E48.85801
G1 X90.298 Y99.628 E48.87719
G1 X99.628 Y90.298 E49.19115
G1 X98.822 Y90.298 E49.21033
G1 X90.298 Y98.822 E49.49717
G1 X90.298 Y98.016 E49.51635
G1 X98.016 Y90.298 E49.77608
G1 X97.211 Y90.298 E49.79525
G1 X90.298 Y97.210 E50.02786
G1 X90.298 Y96.405 E50.04704
G1 X96.405 Y90.298 E50.25253
G1 X95.599 Y90.298 E50.27170
G1 X90.298 Y95.599 E50.45008
G1 X90.298 Y94.793 E50.46925
G1 X94.793 Y90.298 E50.62050
G1 X93.987 Y90.298 E50.63968
G1 X90.298 Y93.987 E50.76382
G1 X90.298 Y93.181 E50.78299
G1 X93.181 Y90.298 E50.88001
G1 X92.375 Y90.298 E50.89918
G1 X90.298 Y92.375 E50.96908
G1 X90.298 Y91.569 E50.98826
G1 X91.569 Y90.298 E51.03104
G1 X90.763 Y90.298 E51.05021
G1 X90.298 Y90.763 E51.06587
M106 S242.25
G1 Z1.200 F7800.000
G1 X90.763 Y109.702 F7800.000
G1 F4800
G1 X90.298 Y109.237 E51.08152
G1 X90.298 Y108.431 E51.10070
G1 X91.569 Y109.702 E51.14348
G1 X92.375 Y109.702 E51.16265
G1 X90.298 Y107.625 E51.23255
G1 X90.298 Y106.819 E51.25173
G1 X93.181 Y109.702 E51.34874
G1 X93.987 Y109.702 E51.36792
G1 X90.298 Y106.013 E51.49205
G1 X90.298 Y105.207 E51.51123
G1 X94.793 Y109.702 E51.66248
G1 X95.599 Y109.702 E51.68166
G1 X90.298 Y104.401 E51.86003
G1 X90.298 Y103.595 E51.87921
G1 X96.405 Y109.702 E52.08470
G1 X97.211 Y109.702 E52.10387
G1 X90.298 Y102.789 E52.33648
G1 X90.298 Y101.984 E52.35566
G1 X98.016 Y109.702 E52.61539
G1 X98.822 Y109.702 E52.63456
G1 X90.298 Y101.178 E52.92141
G1 X90.298 Y100.372 E52.94058
G1 X99.628 Y109.702 E53.25455
G1 X100.434 Y109.702 E53.27372
G1 X90.298 Y99.566 E53.61481
G1 X90.298 Y98.760 E53.63398
G1 X101.240 Y109.702 E54.00219
G1 X102.046 Y109.702 E54.02136
G1 X90.298 Y97.954 E54.41668
G1 X90.298 Y97.148 E54.43586
G1 X102.852 Y109.702 E54.85830
G1 X103.658 Y109.702 E54.87747
G1 X90.298 Y96.342 E55.32703
G1 X90.298 Y95.536 E55.34621
G1 X104.464 Y109.702 E55.82288
G1 X105.270 Y109.702 E55.84206
G1 X90.298 Y94.730 E56.34585
G1 X90.298 Y93.924 E56.36503
G1 X106.076 Y109.702 E56.89594
G1 X106.882 Y109.702 E56.91512
G1 X90.298 Y93.118 E57.47315
G1 X90.298 Y92.312 E57.49233
G1 X107.688 Y109.702 E58.07748
G1 X108.493 Y109.702 E58.09665
G1 X90.298 Y91.507 E58.70892
G1 X90.298 Y90.701 E58.72810
G1 X109.299 Y109.702 E59.36749
G1 X109.702 Y109.702 E59.37707
G1 X109.702 Y109.299 E59.38666
G1 X90.701 Y90.298 E60.02605
G1 X91.507 Y90.298 E60.04522
G1 X109.702 Y108.493 E60.65749
G1 X109.702 Y107.687 E60.67667
G1 X92.313 Y90.298 E61.26181
G1 X93.118 Y90.298 E61.28099
G1 X109.702 Y106.882 E61.83902
G1 X109.702 Y106.076 E61.85820
G1 X93.924 Y90.298 E62.38911
G1 X94.730 Y90.298 E62.40828
G1 X109.702 Y105.270 E62.91208
G1 X109.702 Y104.464 E62.93125
G1 X95.536 Y90.298 E63.40793
G1 X96.342 Y90.298 E63.42710
G1 X109.702 Y103.658 E63.87666
G1 X109.702 Y102.852 E63.89584
G1 X97.148 Y90.298 E64.31827
G1 X97.954 Y90.298 E64.33745
G1 X109.702 Y102.046 E64.73277
G1 X109.702 Y101.240 E64.75194
G1 X98.760 Y90.298 E65.12014
G1 X99.566 Y90.298 E65.13932
G1 X109.702 Y100.434 E65.48040
G1 X109.702 Y99.628 E65.49958
G1 X100.372 Y90.298 E65.81354
G1 X101.178 Y90.298 E65.83272
G1 X109.702 Y98.822 E66.11956
G1 X109.702 Y98.016 E66.13874
G1 X101.984 Y90.298 E66.39846
G1 X102.790 Y90.298 E66.41764
G1 X109.702 Y97.210 E66.65025
G1 X109.702 Y96.405 E66.66942
G1 X103.595 Y90.298 E66.87491
G1 X104.401 Y90.298 E66.89409
G1 X109.702 Y95.599 E67.07246
G1 X109.702 Y94.793 E67.09163
G1 X105.207 Y90.298 E67.24289
G1 X106.013 Y90.298 E67.26206
G1 X109.702 Y93.987 E67.38619
G1 X109.702 Y93.181 E67.40537
G1 X106.819 Y90.298 E67.50239
G1 X107.625 Y90.298 E67.52156
G1 X109.702 Y92.375 E67.59146
G1 X109.702 Y91.569 E67.61063
G1 X108.431 Y90.298 E67.65341
G1 X109.237 Y90.298 E67.67259
G1 X109.702 Y90.763 E67.68825
G1 Z1.500 F7800.000
G1 X109.237 Y109.702 F7800.000
G1 F4800
G1 X109.702 Y109.237 E67.70390
G1 X109.702 Y108.431 E67.72308
G1 X108.431 Y109.702 E67.76586
G1 X107.625 Y109.702 E67.78503
G1 X109.702 Y107.625 E67.85493
G1 X109.702 Y106.819 E67.87411
G1 X106.819 Y109.702 E67.97112
G1 X106.013 Y109.702 E67.99030
G1 X109.702 Y106.013 E68.11443
G1 X109.702 Y105.207 E68.13361
G1 X105.207 Y109.702 E68.28486
G1 X104.401 Y109.702 E68.30403
G1 X109.702 Y104.401 E68.48240
G1 X109.702 Y103.595 E68.50158
G1 X103.595 Y109.702 E68.70707
G1 X102.790 Y109.702 E68.72624
G1 X109.702 Y102.790 E68.95885
G1 X109.702 Y101.984 E68.97803
G1 X101.984 Y109.702 E69.23775
G1 X101.178 Y109.702 E69.25693
G1 X109.702 Y101.178 E69.54377
G1 X109.702 Y100.372 E69.56295
G1 X100.372 Y109.702 E69.87691
G1 X99.566 Y109.702 E69.89609
G1 X109.702 Y99.566 E70.23717
G1 X109.702 Y98.760 E70.25635
G1 X98.760 Y109.702 E70.62455
G1 X97.954 Y109.702 E70.64372
G1 X109.702 Y97.954 E71.03904
G1 X109.702 Y97.148 E71.05822
G1 X97.148 Y109.702 E71.48065
G1 X96.342 Y109.702 E71.49983
G1 X109.702 Y96.342 E71.94939
G1 X109.702 Y95.536 E71.96856
G1 X95.536 Y109.702 E72.44524
G1 X94.730 Y109.702 E72.46441
G1 X109.702 Y94.730 E72.96821
G1 X109.702 Y93.924 E72.98738
G1 X93.924 Y109.702 E73.51829
G1 X93.118 Y109.702 E73.53747
G1 X109.702 Y93.118 E74.09550
G1 X109.702 Y92.313 E74.11468
G1 X92.313 Y109.702 E74.69982
G1 X91.507 Y109.702 E74.71900
G1 X109.702 Y91.507 E75.33127
G1 X109.702 Y90.701 E75.35044
G1 X90.701 Y109.702 E75.98983
G1 X90.298 Y109.702 E75.99942
G1 X90.298 Y109.299 E76.00900
G1 X109.299 Y90.298 E76.64839
G1 X108.493 Y90.298 E76.66757
G1 X90.298 Y108.493 E77.27984
G1 X90.298 Y107.688 E77.29901
G1 X107.688 Y90.298 E77.88416
G1 X106.882 Y90.298 E77.90334
G1 X90.298 Y106.882 E78.46137
G1 X90.298 Y106.076 E78.48055
G1 X106.076 Y90.298 E79.01146
G1 X105.270 Y90.298 E79.03064
G1 X90.298 Y105.270 E79.53443
G1 X90.298 Y104.464 E79.55361
G1 X104.464 Y90.298 E80.03028
G1 X103.658 Y90.298 E80.04946
G1 X90.298 Y103.658 E80.49902
G1 X90.298 Y102.852 E80.51819
G1 X102.852 Y90.298 E80.94063
G1 X102.046 Y90.298 E80.95981
G1 X90.298 Y102.046 E81.35513
G1 X90.298 Y101.240 E81.37430
G1 X101.240 Y90.298 E81.74251
G1 X100.434 Y90.298 E81.76168
G1 X90.298 Y100.434 E82.10276
G1 X90.298 Y99.628 E82.12194
G1 X99.628 Y90.298 E82.43591
G1 X98.822 Y90.298 E82.45508
G1 X90.298 Y98.822 E82.74193
G1 X90.298 Y98.016 E82.76110
G1 X98.016 Y90.298 E83.02083
G1 X97.211 Y90.298 E83.04001
G1 X90.298 Y97.210 E83.27262
G1 X90.298 Y96.405 E83.29179
G1 X96.405 Y90.298 E83.49728
G1 X95.599 Y90.298 E83.51646
G1 X90.298 Y95.599 E83.69483
G1 X90.298 Y94.793 E83.71401
G1 X94.793 Y90.298 E83.86526
G1 X93.987 Y90.298 E83.88444
G1 X90.298 Y93.987 E84.00857
G1 X90.298 Y93.181 E84.02775
G1 X93.181 Y90.298 E84.12476
G1 X92.375 Y90.298 E84.14394
G1 X90.298 Y92.375 E84.21384
G1 X90.298 Y91.569 E84.23301
G1 X91.569 Y90.298 E84.27579
G1 X90.763 Y90.298 E84.29497
G1 X90.298 Y90.763 E84.31062
G1 Z1.800 F7800.000
G1 X90.763 Y109.702 F7800.000
G1 F4800
G1 X90.298 Y109.237 E84.32628
G1 X90.298 Y108.431 E84.34545
G1 X91.569 Y109.702 E84.38823
G1 X92.375 Y109.702 E84.40741
G1 X90.298 Y107.625 E84.47730
G1 X90.298 Y106.819 E84.49648
G1 X93.181 Y109.702 E84.59350
G1 X93.987 Y109.702 E84.61267
G1 X90.298 Y106.013 E84.73681
G1 X90.298 Y105.207 E84.75598
G1 X94.793 Y109.702 E84.90724
G1 X95.599 Y109.702 E84.92641
G1 X90.298 Y104.401 E85.10478
G1 X90.298 Y103.595 E85.12396
G1 X96.405 Y109.702 E85.32945
G1 X97.211 Y109.702 E85.34863
G1 X90.298 Y102.789 E85.58124
G1 X90.298 Y101.984 E85.60041
G1 X98.016 Y109.702 E85.86014
G1 X98.822 Y109.702 E85.87932
G1 X90.298 Y101.178 E86.16616
G1 X90.298 Y100.372 E86.18534
G1 X99.628 Y109.702 E86.49930
G1 X100.434 Y109.702 E86.51848
G1 X90.298 Y99.566 E86.85956
G1 X90.298 Y98.760 E86.87874
G1 X101.240 Y109.702 E87.24694
G1 X102.046 Y109.702 E87.26612
G1 X90.298 Y97.954 E87.66144
G1 X90.298 Y97.148 E87.68061
G1 X102.852 Y109.702 E88.10305
G1 X103.658 Y109.702 E88.12223
G1 X90.298 Y96.342 E88.57178
G1 X90.298 Y95.536 E88.59096
G1 X104.464 Y109.702 E89.06764
G1 X105.270 Y109.702 E89.08681
G1 X90.298 Y94.730 E89.59061
G1 X90.298 Y93.924 E89.60978
G1 X106.076 Y109.702 E90.14070
G1 X106.882 Y109.702 E90.15987
G1 X90.298 Y93.118 E90.71790
G1 X90.298 Y92.312 E90.73708
G1 X107.688 Y109.702 E91.32223
G1 X108.493 Y109.702 E91.34141
G1 X90.298 Y91.507 E91.95368
G1 X90.298 Y90.701 E91.97285
G1 X109.299 Y109.702 E92.61224
G1 X109.702 Y109.702 E92.62183
G1 X109.702 Y109.299 E92.63142
G1 X90.701 Y90.298 E93.27080
G1 X91.507 Y90.298 E93.28998
G1 X109.702 Y108.493 E93.90224
G1 X109.702 Y107.687 E93.92142
G1 X92.313 Y90.298 E94.50657
G1 X93.118 Y90.298 E94.52575
G1 X109.702 Y106.882 E95.08378
G1 X109.702 Y106.076 E95.10295
G1 X93.924 Y90.298 E95.63386
G1 X94.730 Y90.298 E95.65304
G1 X109.702 Y105.270 E96.15683
G1 X109.702 Y104.464 E96.17601
G1 X95.536 Y90.298 E96.65268
G1 X96.342 Y90.298 E96.67186
G1 X109.702 Y103.658 E97.12141
G1 X109.702 Y102.852 E97.14059
G1 X97.148 Y90.298 E97.56303
G1 X97.954 Y90.298 E97.58220
G1 X109.702 Y102.046 E97.97752
G1 X109.702 Y101.240 E97.99670
G1 X98.760 Y90.298 E98.36490
G1 X99.566 Y90.298 E98.38407
G1 X109.702 Y100.434 E98.72516
G1 X109.702 Y99.628 E98.74433
G1 X100.372 Y90.298 E99.05830
G1 X101.178 Y90.298 E99.07747
G1 X109.702 Y98.822 E99.36432
G1 X109.702 Y98.016 E99.38349
G1 X101.984 Y90.298 E99.64322
G1 X102.790 Y90.298 E99.66239
G1 X109.702 Y97.210 E99.89500
G1 X109.702 Y96.405 E99.91418
G1 X103.595 Y90.298 E100.11967
G1 X104.401 Y90.298 E100.13884
G1 X109.702 Y95.599 E100.31721
G1 X109.702 Y94.793 E100.33639
G1 X105.207 Y90.298 E100.48764
G1 X106.013 Y90.298 E100.50682
G1 X109.702 Y93.987 E100.63095
G1 X109.702 Y93.181 E100.65013
G1 X106.819 Y90.298 E100.74714
G1 X107.625 Y90.298 E100.76632
G1 X109.702 Y92.375 E100.83621
G1 X109.702 Y91.569 E100.85539
G1 X108.431 Y90.298 E100.89817
G1 X109.237 Y90.298 E100.91734
G1 X109.702 Y90.763 E100.93300
G1 Z2.100 F7800.000
G1 X109.237 Y109.702 F7800.000
G1 F4800
G1 X109.702 Y109.237 E100.94866
G1 X109.702 Y108.431 E100.96784
G1 X108.431 Y109.702 E101.01061
G1 X107.625 Y109.702 E101.02979
G1 X109.702 Y107.625 E101.09968
G1 X109.702 Y106.819 E101.11886
G1 X106.819 Y109.702 E101.21588
G1 X106.013 Y109.702 E101.23505
G1 X109.702 Y106.013 E101.35918
G1 X109.702 Y105.207 E101.37836
G1 X105.207 Y109.702 E101.52961
G1 X104.401 Y109.702 E101.54879
G1 X109.702 Y104.401 E101.72716
G1 X109.702 Y103.595 E101.74633
G1 X103.595 Y109.702 E101.95182
G1 X102.790 Y109.702 E101.97100
G1 X109.702 Y102.790 E102.20361
G1 X109.702 Y101.984 E102.22278
G1 X101.984 Y109.702 E102.48251
G1 X101.178 Y109.702 E102.50168
G1 X109.702 Y101.178 E102.78853
G1 X109.702 Y100.372 E102.80770
G1 X100.372 Y109.702 E103.12167
G1 X99.566 Y109.702 E103.14084
G1 X109.702 Y99.566 E103.48193
G1 X109.702 Y98.760 E103.50110
G1 X98.760 Y109.702 E103.86930
G1 X97.954 Y109.702 E103.88848
G1 X109.702 Y97.954 E104.28380
G1 X109.702 Y97.148 E104.30297
G1 X97.148 Y109.702 E104.72541
G1 X96.342 Y109.702 E104.74459
G1 X109.702 Y96.342 E105.19414
G1 X109.702 Y95.536 E105.21332
G1 X95.536 Y109.702 E105.68999
G1 X94.730 Y109.702 E105.70917
G1 X109.702 Y94.730 E106.21296
G1 X109.702 Y93.924 E106.23214
G1 X93.924 Y109.702 E106.76305
G1 X93.118 Y109.702 E106.78222
G1 X109.702 Y93.118 E107.34025
G1 X109.702 Y92.313 E107.35943
G1 X92.313 Y109.702 E107.94458
G1 X91.507 Y109.702 E107.96375
G1 X109.702 Y91.507 E108.57602
G1 X109.702 Y90.701 E108.59520
G1 X90.701 Y109.702 E109.23458
G1 X90.298 Y109.702 E109.24417
G1 X90.298 Y109.299 E109.25376
G1 X109.299 Y90.298 E109.89315
G1 X108.493 Y90.298 E109.91232
G1 X90.298 Y108.493 E110.52459
G1 X90.298 Y107.688 E110.54377
G1 X107.688 Y90.298 E111.12892
G1 X106.882 Y90.298 E111.14809
G1 X90.298 Y106.882 E111.70613
G1 X90.298 Y106.076 E111.72530
G1 X106.076 Y90.298 E112.25621
G1 X105.270 Y90.298 E112.27539
G1 X90.298 Y105.270 E112.77919
G1 X90.298 Y104.464 E112.79836
G1 X104.464 Y90.298 E113.27504
G1 X103.658 Y90.298 E113.29421
G1 X90.298 Y103.658 E113.74377
G1 X90.298 Y102.852 E113.76295
G1 X102.852 Y90.298 E114.18539
G1 X102.046 Y90.298 E114.20456
G1 X90.298 Y102.046 E114.59988
G1 X90.298 Y101.240 E114.61906
G1 X101.240 Y90.298 E114.98726
G1 X100.434 Y90.298 E115.00644
G1 X90.298 Y100.434 E115.34752
G1 X90.298 Y99.628 E115.36669
G1 X99.628 Y90.298 E115.68066
G1 X98.822 Y90.298 E115.69984
G1 X90.298 Y98.822 E115.98668
G1 X90.298 Y98.016 E116.00586
G1 X98.016 Y90.298 E116.26559
G1 X97.211 Y90.298 E116.28476
G1 X90.298 Y97.210 E116.51737
G1 X90.298 Y96.405 E116.53655
G1 X96.405 Y90.298 E116.74204
G1 X95.599 Y90.298 E116.76121
G1 X90.298 Y95.599 E116.93958
G1 X90.298 Y94.793 E116.95876
G1 X94.793 Y90.298 E117.11001
G1 X93.987 Y90.298 E117.12919
G1 X90.298 Y93.987 E117.25332
G1 X90.298 Y93.181 E117.27250
G1 X93.181 Y90.298 E117.36952
G1 X92.375 Y90.298 E117.38869
G1 X90.298 Y92.375 E117.45859
G1 X90.298 Y91.569 E117.47777
G1 X91.569 Y90.298 E117.52055
G1 X90.763 Y90.298 E117.53972
G1 X90.298 Y90.763 E117.55538
G1 Z2.400 F7800.000
G1 X90.763 Y109.702 F7800.000
G1 F4800
G1 X90.298 Y109.237 E117.57103
G1 X90.298 Y108.431 E117.59021
G1 X91.569 Y109.702 E117.63298
G1 X92.375 Y109.702 E117.65216
G1 X90.298 Y107.625 E117.72206
G1 X90.298 Y106.819 E117.74123
G1 X93.181 Y109.702 E117.83825
G1 X93.987 Y109.702 E117.85743
G1 X90.298 Y106.013 E117.98156
G1 X90.298 Y105.207 E118.00074
G1 X94.793 Y109.702 E118.15199
G1 X95.599 Y109.702 E118.17117
G1 X90.298 Y104.401 E118.34954
G1 X90.298 Y103.595 E118.36871
G1 X96.405 Y109.702 E118.57421
G1 X97.211 Y109.702 E118.59338
G1 X90.298 Y102.789 E118.82599
G1 X90.298 Y101.984 E118.84517
G1 X98.016 Y109.702 E119.10489
G1 X98.822 Y109.702 E119.12407
G1 X90.298 Y101.178 E119.41092
G1 X90.298 Y100.372 E119.43009
G1 X99.628 Y109.702 E119.74406
G1 X100.434 Y109.702 E119.76323
G1 X90.298 Y99.566 E120.10432
G1 X90.298 Y98.760 E120.12349
G1 X101.240 Y109.702 E120.49169
G1 X102.046 Y109.702 E120.51087
G1 X90.298 Y97.954 E120.90619
G1 X90.298 Y97.148 E120.92537
G1 X102.852 Y109.702 E121.34781
G1 X103.658 Y109.702 E121.36698
G1 X90.298 Y96.342 E121.81654
G1 X90.298 Y95.536 E121.83572
G1 X104.464 Y109.702 E122.31239
G1 X105.270 Y109.702 E122.33157
G1 X90.298 Y94.730 E122.83536
G1 X90.298 Y93.924 E122.85454
G1 X106.076 Y109.702 E123.38545
G1 X106.882 Y109.702 E123.40463
G1 X90.298 Y93.118 E123.96266
G1 X90.298 Y92.312 E123.98183
G1 X107.688 Y109.702 E124.56699
G1 X108.493 Y109.702 E124.58616
G1 X90.298 Y91.507 E125.19843
G1 X90.298 Y90.701 E125.21761
G1 X109.299 Y109.702 E125.85699
G1 X109.702 Y109.702 E125.86658
G1 X109.702 Y109.299 E125.87617
G1 X90.701 Y90.298 E126.51556
G1 X91.507 Y90.298 E126.53473
G1 X109.702 Y108.493 E127.14700
G1 X109.702 Y107.687 E127.16617
G1 X92.313 Y90.298 E127.75132
G1 X93.118 Y90.298 E127.77050
G1 X109.702 Y106.882 E128.32853
G1 X109.702 Y106.076 E128.34771
G1 X93.924 Y90.298 E128.87862
G1 X94.730 Y90.298 E128.89779
G1 X109.702 Y105.270 E129.40159
G1 X109.702 Y104.464 E129.42076
G1 X95.536 Y90.298 E129.89744
G1 X96.342 Y90.298 E129.91661
G1 X109.702 Y103.658 E130.36617
G1 X109.702 Y102.852 E130.38534
G1 X97.148 Y90.298 E130.80778
G1 X97.954 Y90.298 E130.82696
G1 X109.702 Y102.046 E131.22228
G1 X109.702 Y101.240 E131.24145
G1 X98.760 Y90.298 E131.60965
G1 X99.566 Y90.298 E131.62883
G1 X109.702 Y100.434 E131.96991
G1 X109.702 Y99.628 E131.98909
G1 X100.372 Y90.298 E132.30305
G1 X101.178 Y90.298 E132.32223
G1 X109.702 Y98.822 E132.60907
G1 X109.702 Y98.016 E132.62825
G1 X101.984 Y90.298 E132.88797
G1 X102.790 Y90.298 E132.90715
G1 X109.702 Y97.210 E133.13976
G1 X109.702 Y96.405 E133.15893
G1 X103.595 Y90.298 E133.36442
G1 X104.401 Y90.298 E133.38360
G1 X109.702 Y95.599 E133.56197
G1 X109.702 Y94.793 E133.58114
G1 X105.207 Y90.298 E133.73239
G1 X106.013 Y90.298 E133.75157
G1 X109.702 Y93.987 E133.87570
G1 X109.702 Y93.181 E133.89488
G1 X106.819 Y90.298 E133.99189
G1 X107.625 Y90.298 E134.01107
G1 X109.702 Y92.375 E134.08097
G1 X109.702 Y91.569 E134.10014
G1 X108.431 Y90.298 E134.14292
G1 X109.237 Y90.298 E134.16210
G1 X109.702 Y90.763 E134.17775
G1 Z2.700 F7800.000
G1 X109.237 Y109.702 F7800.000
G1 F4800
G1 X109.702 Y109.237 E134.19341
G1 X109.702 Y108.431 E134.21259
G1 X108.431 Y109.702 E134.25537
G1 X107.625 Y109.702 E134.27454
G1 X109.702 Y107.625 E134.34444
G1 X109.702 Y106.819 E134.36361
G1 X106.819 Y109.702 E134.46063
G1 X106.013 Y109.702 E134.47981
G1 X109.702 Y106.013 E134.60394
G1 X109.702 Y105.207 E134.62311
G1 X105.207 Y109.702 E134.77437
G1 X104.401 Y109.702 E134.79354
G1 X109.702 Y104.401 E134.97191
G1 X109.702 Y103.595 E134.99109
G1 X103.595 Y109.702 E135.19658
G1 X102.790 Y109.702 E135.21575
G1 X109.702 Y102.790 E135.44836
G1 X109.702 Y101.984 E135.46754
G1 X101.984 Y109.702 E135.72726
G1 X101.178 Y109.702 E135.74644
G1 X109.702 Y101.178 E136.03328
G1 X109.702 Y100.372 E136.05246
G1 X100.372 Y109.702 E136.36642
G1 X99.566 Y109.702 E136.38560
G1 X109.702 Y99.566 E136.72668
G1 X109.702 Y98.760 E136.74586
G1 X98.760 Y109.702 E137.11406
G1 X97.954 Y109.702 E137.13323
G1 X109.702 Y97.954 E137.52855
G1 X109.702 Y97.148 E137.54773
G1 X97.148 Y109.702 E137.97016
G1 X96.342 Y109.702 E137.98934
G1 X109.702 Y96.342 E138.43890
G1 X109.702 Y95.536 E138.45807
G1 X95.536 Y109.702 E138.93475
G1 X94.730 Y109.702 E138.95392
G1 X109.702 Y94.730 E139.45771
G1 X109.702 Y93.924 E139.47689
G1 X93.924 Y109.702 E140.00780
G1 X93.118 Y109.702 E140.02698
G1 X109.702 Y93.118 E140.58501
G1 X109.702 Y92.313 E140.60418
G1 X92.313 Y109.702 E141.18933
G1 X91.507 Y109.702 E141.20851
G1 X109.702 Y91.507 E141.82078
G1 X109.702 Y90.701 E141.83995
G1 X90.701 Y109.702 E142.47934
G1 X90.298 Y109.702 E142.48893
G1 X90.298 Y109.299 E142.49851
G1 X109.299 Y90.298 E143.13790
G1 X108.493 Y90.298 E143.15708
G1 X90.298 Y108.493 E143.76935
G1 X90.298 Y107.688 E143.78852
G1 X107.688 Y90.298 E144.37367
G1 X106.882 Y90.298 E144.39285
G1 X90.298 Y106.882 E144.95088
G1 X90.298 Y106.076 E144.97006
G1 X106.076 Y90.298 E145.50097
G1 X105.270 Y90.298 E145.52014
G1 X90.298 Y105.270 E146.02394
G1 X90.298 Y104.464 E146.04312
G1 X104.464 Y90.298 E146.51979
G1 X103.658 Y90.298 E146.53897
G1 X90.298 Y103.658 E146.98853
G1 X90.298 Y102.852 E147.00770
G1 X102.852 Y90.298 E147.43014
G1 X102.046 Y90.298 E147.44932
G1 X90.298 Y102.046 E147.84464
G1 X90.298 Y101.240 E147.86381
G1 X101.240 Y90.298 E148.23201
G1 X100.434 Y90.298 E148.25119
G1 X90.298 Y100.434 E148.59227
G1 X90.298 Y99.628 E148.61145
G1 X99.628 Y90.298 E148.92541
G1 X98.822 Y90.298 E148.94459
G1 X90.298 Y98.822 E149.23144
G1 X90.298 Y98.016 E149.25061
G1 X98.016 Y90.298 E149.51034
G1 X97.211 Y90.298 E149.52952
G1 X90.298 Y97.210 E149.76212
G1 X90.298 Y96.405 E149.78130
G1 X96.405 Y90.298 E149.98679
G1 X95.599 Y90.298 E150.00597
G1 X90.298 Y95.599 E150.18434
G1 X90.298 Y94.793 E150.20351
G1 X94.793 Y90.298 E150.35477
G1 X93.987 Y90.298 E150.37394
G1 X90.298 Y93.987 E150.49808
G1 X90.298 Y93.181 E150.51725
G1 X93.181 Y90.298 E150.61427
G1 X92.375 Y90.298 E150.63345
G1 X90.298 Y92.375 E150.70334
G1 X90.298 Y91.569 E150.72252
G1 X91.569 Y90.298 E150.76530
G1 X90.763 Y90.298 E150.78448
G1 X90.298 Y90.763 E150.80013
G1 Z3.000 F7800.000
G1 X90.763 Y109.702 F7800.000
G1 F4800
G1 X90.298 Y109.237 E150.81578
G1 X90.298 Y108.431 E150.83496
G1 X91.569 Y109.702 E150.87774
G1 X92.375 Y109.702 E150.89692
G1 X90.298 Y107.625 E150.96681
G1 X90.298 Y106.819 E150.98599
G1 X93.181 Y109.702 E151.08301
G1 X93.987 Y109.702 E151.10218
G1 X90.298 Y106.013 E151.22632
G1 X90.298 Y105.207 E151.24549
G1 X94.793 Y109.702 E151.39675
G1 X95.599 Y109.702 E151.41592
G1 X90.298 Y104.401 E151.59429
G1 X90.298 Y103.595 E151.61347
G1 X96.405 Y109.702 E151.81896
G1 X97.211 Y109.702 E151.83814
G1 X90.298 Y102.789 E152.07074
G1 X90.298 Y101.984 E152.08992
G1 X98.016 Y109.702 E152.34965
G1 X98.822 Y109.702 E152.36882
G1 X90.298 Y101.178 E152.65567
G1 X90.298 Y100.372 E152.67485
G1 X99.628 Y109.702 E152.98881
G1 X100.434 Y109.702 E153.00799
G1 X90.298 Y99.566 E153.34907
G1 X90.298 Y98.760 E153.36825
G1 X101.240 Y109.702 E153.73645
G1 X102.046 Y109.702 E153.75562
G1 X90.298 Y97.954 E154.15095
G1 X90.298 Y97.148 E154.17012
G1 X102.852 Y109.702 E154.59256
G1 X103.658 Y109.702 E154.61174
G1 X90.298 Y96.342 E155.06129
G1 X90.298 Y95.536 E155.08047
G1 X104.464 Y109.702 E155.55715
G1 X105.270 Y109.702 E155.57632
G1 X90.298 Y94.730 E156.08012
G1 X90.298 Y93.924 E156.09929
G1 X106.076 Y109.702 E156.63021
G1 X106.882 Y109.702 E156.64938
G1 X90.298 Y93.118 E157.20741
G1 X90.298 Y92.312 E157.22659
G1 X107.688 Y109.702 E157.81174
G1 X108.493 Y109.702 E157.83092
G1 X90.298 Y91.507 E158.44318
G1 X90.298 Y90.701 E158.46236
G1 X109.299 Y109.702 E159.10175
G1 X109.702 Y109.702 E159.11134
G1 X109.702 Y109.299 E159.12092
G1 X90.701 Y90.298 E159.76031
G1 X91.507 Y90.298 E159.77949
G1 X109.702 Y108.493 E160.39175
G1 X109.702 Y107.687 E160.41093
G1 X92.313 Y90.298 E160.99608
G1 X93.118 Y90.298 E161.01525
G1 X109.702 Y106.882 E161.57328
G1 X109.702 Y106.076 E161.59246
G1 X93.924 Y90.298 E162.12337
G1 X94.730 Y90.298 E162.14255
G1 X109.702 Y105.270 E162.64634
G1 X109.702 Y104.464 E162.66552
G1 X95.536 Y90.298 E163.14219
G1 X96.342 Y90.298 E163.16137
G1 X109.702 Y103.658 E163.61092
G1 X109.702 Y102.852 E163.63010
G1 X97.148 Y90.298 E164.05254
G1 X97.954 Y90.298 E164.07171
G1 X109.702 Y102.046 E164.46703
G1 X109.702 Y101.240 E164.48621
G1 X98.760 Y90.298 E164.85441
G1 X99.566 Y90.298 E164.87358
G1 X109.702 Y100.434 E165.21467
G1 X109.702 Y99.628 E165.23384
G1 X100.372 Y90.298 E165.54780
G1 X101.178 Y90.298 E165.56698
G1 X109.702 Y98.822 E165.85382
G1 X109.702 Y98.016 E165.87300
G1 X101.984 Y90.298 E166.13273
G1 X102.790 Y90.298 E166.15190
G1 X109.702 Y97.210 E166.38451
G1 X109.702 Y96.405 E166.40369
G1 X103.595 Y90.298 E166.60918
G1 X104.401 Y90.298 E166.62835
G1 X109.702 Y95.599 E166.80672
G1 X109.702 Y94.793 E166.82590
G1 X105.207 Y90.298 E166.97715
G1 X106.013 Y90.298 E166.99632
G1 X109.702 Y93.987 E167.12046
G1 X109.702 Y93.181 E167.13963
G1 X106.819 Y90.298 E167.23665
G1 X107.625 Y90.298 E167.25582
G1 X109.702 Y92.375 E167.32572
G1 X109.702 Y91.569 E167.34490
G1 X108.431 Y90.298 E167.38767
G1 X109.237 Y90.298 E167.40685
G1 X109.702 Y90.763 E167.42251
G1 Z3.300 F7800.000
G1 X109.237 Y109.702 F7800.000
G1 F4800
G1 X109.702 Y109.237 E167.43817
G1 X109.702 Y108.431 E167.45734
G1 X108.431 Y109.702 E167.50012
G1 X107.625 Y109.702 E167.51930
G1 X109.702 Y107.625 E167.58919
G1 X109.702 Y106.819 E167.60837
G1 X106.819 Y109.702 E167.70538
G1 X106.013 Y109.702 E167.72456
G1 X109.702 Y106.013 E167.84869
G1 X109.702 Y105.207 E167.86787
G1 X105.207 Y109.702 E168.01912
G1 X104.401 Y109.702 E168.03830
G1 X109.702 Y104.401 E168.21667
G1 X109.702 Y103.595 E168.23584
G1 X103.595 Y109.702 E168.44133
G1 X102.790 Y109.702 E168.46051
G1 X109.702 Y102.790 E168.69312
G1 X109.702 Y101.984 E168.71229
G1 X101.984 Y109.702 E168.97202
G1 X101.178 Y109.702 E168.99119
G1 X109.702 Y101.178 E169.27804
G1 X109.702 Y100.372 E169.29721
G1 X100.372 Y109.702 E169.61118
G1 X99.566 Y109.702 E169.63035
G1 X109.702 Y99.566 E169.97143
G1 X109.702 Y98.760 E169.99061
G1 X98.760 Y109.702 E170.35881
G1 X97.954 Y109.702 E170.37799
G1 X109.702 Y97.954 E170.77331
G1 X109.702 Y97.148 E170.79248
G1 X97.148 Y109.702 E171.21492
G1 X96.342 Y109.702 E171.23409
G1 X109.702 Y96.342 E171.68365
G1 X109.702 Y95.536 E171.70283
G1 X95.536 Y109.702 E172.17950
G1 X94.730 Y109.702 E172.19868
G1 X109.702 Y94.730 E172.70247
G1 X109.702 Y93.924 E172.72165
G1 X93.924 Y109.702 E173.25256
G1 X93.118 Y109.702 E173.27173
G1 X109.702 Y93.118 E173.82976
G1 X109.702 Y92.313 E173.84894
G1 X92.313 Y109.702 E174.43409
G1 X91.507 Y109.702 E174.45326
G1 X109.702 Y91.507 E175.06553
G1 X109.702 Y90.701 E175.08471
G1 X90.701 Y109.702 E175.72409
G1 X90.298 Y109.702 E175.73368
G1 X90.298 Y109.299 E175.74327
G1 X109.299 Y90.298 E176.38266
G1 X108.493 Y90.298 E176.40183
G1 X90.298 Y108.493 E177.01410
G1 X90.298 Y107.688 E177.03328
G1 X107.688 Y90.298 E177.61843
G1 X106.882 Y90.298 E177.63760
G1 X90.298 Y106.882 E178.19563
G1 X90.298 Y106.076 E178.21481
G1 X106.076 Y90.298 E178.74572
G1 X105.270 Y90.298 E178.76490
G1 X90.298 Y105.270 E179.26869
G1 X90.298 Y104.464 E179.28787
G1 X104.464 Y90.298 E179.76455
G1 X103.658 Y90.298 E179.78372
G1 X90.298 Y103.658 E180.23328
G1 X90.298 Y102.852 E180.25246
G1 X102.852 Y90.298 E180.67489
G1 X102.046 Y90.298 E180.69407
G1 X90.298 Y102.046 E181.08939
G1 X90.298 Y101.240 E181.10857
G1 X101.240 Y90.298 E181.47677
G1 X100.434 Y90.298 E181.49594
G1 X90.298 Y100.434 E181.83703
G1 X90.298 Y99.628 E181.85620
G1 X99.628 Y90.298 E182.17017
G1 X98.822 Y90.298 E182.18934
G1 X90.298 Y98.822 E182.47619
G1 X90.298 Y98.016 E182.49537
G1 X98.016 Y90.298 E182.75509
G1 X97.211 Y90.298 E182.77427
G1 X90.298 Y97.210 E183.00688
G1 X90.298 Y96.405 E183.02605
G1 X96.405 Y90.298 E183.23155
G1 X95.599 Y90.298 E183.25072
G1 X90.298 Y95.599 E183.42909
G1 X90.298 Y94.793 E183.44827
G1 X94.793 Y90.298 E183.59952
G1 X93.987 Y90.298 E183.61870
G1 X90.298 Y93.987 E183.74283
G1 X90.298 Y93.181 E183.76201
G1 X93.181 Y90.298 E183.85903
G1 X92.375 Y90.298 E183.87820
G1 X90.298 Y92.375 E183.94810
G1 X90.298 Y91.569 E183.96727
G1 X91.569 Y90.298 E184.01005
G1 X90.763 Y90.298 E184.02923
G1 X90.298 Y90.763 E184.04488
G1 Z3.600 F7800.000
G1 X90.763 Y109.702 F7800.000
G1 F4800
G1 X90.298 Y109.237 E184.06054
G1 X90.298 Y108.431 E184.07971
G1 X91.569 Y109.702 E184.12249
G1 X92.375 Y109.702 E184.14167
G1 X90.298 Y107.625 E184.21157
G1 X90.298 Y106.819 E184.23074
G1 X93.181 Y109.702 E184.32776
G1 X93.987 Y109.702 E184.34694
G1 X90.298 Y106.013 E184.47107
G1 X90.298 Y105.207 E184.49025
G1 X94.793 Y109.702 E184.64150
G1 X95.599 Y109.702 E184.66068
G1 X90.298 Y104.401 E184.83905
G1 X90.298 Y103.595 E184.85822
G1 X96.405 Y109.702 E185.06371
G1 X97.211 Y109.702 E185.08289
G1 X90.298 Y102.789 E185.31550
G1 X90.298 Y101.984 E185.33468
G1 X98.016 Y109.702 E185.59440
G1 X98.822 Y109.702 E185.61358
G1 X90.298 Y101.178 E185.90043
G1 X90.298 Y100.372 E185.91960
G1 X99.628 Y109.702 E186.23357
G1 X100.434 Y109.702 E186.25274
G1 X90.298 Y99.566 E186.59383
G1 X90.298 Y98.760 E186.61300
G1 X101.240 Y109.702 E186.98120
G1 X102.046 Y109.702 E187.00038
G1 X90.298 Y97.954 E187.39570
G1 X90.298 Y97.148 E187.41488
G1 X102.852 Y109.702 E187.83731
G1 X103.658 Y109.702 E187.85649
G1 X90.298 Y96.342 E188.30605
G1 X90.298 Y95.536 E188.32522
G1 X104.464 Y109.702 E188.80190
G1 X105.270 Y109.702 E188.82108
G1 X90.298 Y94.730 E189.32487
G1 X90.298 Y93.924 E189.34405
G1 X106.076 Y109.702 E189.87496
G1 X106.882 Y109.702 E189.89414
G1 X90.298 Y93.118 E190.45217
G1 X90.298 Y92.312 E190.47134
G1 X107.688 Y109.702 E191.05649
G1 X108.493 Y109.702 E191.07567
G1 X90.298 Y91.507 E191.68794
G1 X90.298 Y90.701 E191.70712
G1 X109.299 Y109.702 E192.34650
G1 X109.702 Y109.702 E192.35609
G1 X109.702 Y109.299 E192.36568
G1 X90.701 Y90.298 E193.00506
G1 X91.507 Y90.298 E193.02424
G1 X109.702 Y108.493 E193.63651
G1 X109.702 Y107.687 E193.65568
G1 X92.313 Y90.298 E194.24083
G1 X93.118 Y90.298 E194.26001
G1 X109.702 Y106.882 E194.81804
G1 X109.702 Y106.076 E194.83721
G1 X93.924 Y90.298 E195.36813
G1 X94.730 Y90.298 E195.38730
G1 X109.702 Y105.270 E195.89110
G1 X109.702 Y104.464 E195.91027
G1 X95.536 Y90.298 E196.38695
G1 X96.342 Y90.298 E196.40612
G1 X109.702 Y103.658 E196.85568
G1 X109.702 Y102.852 E196.87485
G1 X97.148 Y90.298 E197.29729
G1 X97.954 Y90.298 E197.31647
G1 X109.702 Y102.046 E197.71179
G1 X109.702 Y101.240 E197.73096
G1 X98.760 Y90.298 E198.09916
G1 X99.566 Y90.298 E198.11834
G1 X109.702 Y100.434 E198.45942
G1 X109.702 Y99.628 E198.47860
G1 X100.372 Y90.298 E198.79256
G1 X101.178 Y90.298 E198.81173
G1 X109.702 Y98.822 E199.09858
G1 X109.702 Y98.016 E199.11776
G1 X101.984 Y90.298 E199.37748
G1 X102.790 Y90.298 E199.39666
G1 X109.702 Y97.210 E199.62926
G1 X109.702 Y96.405 E199.64844
G1 X103.595 Y90.298 E199.85393
G1 X104.401 Y90.298 E199.87311
G1 X109.702 Y95.599 E200.05148
G1 X109.702 Y94.793 E200.07065
G1 X105.207 Y90.298 E200.22190
G1 X106.013 Y90.298 E200.24108
G1 X109.702 Y93.987 E200.36521
G1 X109.702 Y93.181 E200.38439
G1 X106.819 Y90.298 E200.48140
G1 X107.625 Y90.298 E200.50058
G1 X109.702 Y92.375 E200.57048
G1 X109.702 Y91.569 E200.58965
G1 X108.431 Y90.298 E200.63243
G1 X109.237 Y90.298 E200.65160
G1 X109.702 Y90.763 E200.66726
G1 Z3.900 F7800.000
G1 X109.237 Y109.702 F7800.000
G1 F4800
G1 X109.702 Y109.237 E200.68292
G1 X109.702 Y108.431 E200.70210
G1 X108.431 Y109.702 E200.74488
G1 X107.625 Y109.702 E200.76405
G1 X109.702 Y107.625 E200.83395
G1 X109.702 Y106.819 E200.85312
G1 X106.819 Y109.702 E200.95014
G1 X106.013 Y109.702 E200.96931
G1 X109.702 Y106.013 E201.09345
G1 X109.702 Y105.207 E201.11262
G1 X105.207 Y109.702 E201.26388
G1 X104.401 Y109.702 E201.28305
G1 X109.702 Y104.401 E201.46142
G1 X109.702 Y103.595 E201.48060
G1 X103.595 Y109.702 E201.68609
G1 X102.790 Y109.702 E201.70526
G1 X109.702 Y102.790 E201.93787
G1 X109.702 Y101.984 E201.95705
G1 X101.984 Y109.702 E202.21677
G1 X101.178 Y109.702 E202.23595
G1 X109.702 Y101.178 E202.52279
G1 X109.702 Y100.372 E202.54197
G1 X100.372 Y109.702 E202.85593
G1 X99.566 Y109.702 E202.87511
G1 X109.702 Y99.566 E203.21619
G1 X109.702 Y98.760 E203.23536
G1 X98.760 Y109.702 E203.60356
G1 X97.954 Y109.702 E203.62274
G1 X109.702 Y97.954 E204.01806
G1 X109.702 Y97.148 E204.03724
G1 X97.148 Y109.702 E204.45967
G1 X96.342 Y109.702 E204.47885
G1 X109.702 Y96.342 E204.92840
G1 X109.702 Y95.536 E204.94758
G1 X95.536 Y109.702 E205.42425
G1 X94.730 Y109.702 E205.44343
G1 X109.702 Y94.730 E205.94722
G1 X109.702 Y93.924 E205.96640
G1 X93.924 Y109.702 E206.49731
G1 X93.118 Y109.702 E206.51649
G1 X109.702 Y93.118 E207.07452
G1 X109.702 Y92.313 E207.09369
G1 X92.313 Y109.702 E207.67884
G1 X91.507 Y109.702 E207.69802
G1 X109.702 Y91.507 E208.31029
G1 X109.702 Y90.701 E208.32946
G1 X90.701 Y109.702 E208.96885
G1 X90.298 Y109.702 E208.97844
G1 X90.298 Y109.299 E208.98802
G1 X109.299 Y90.298 E209.62741
G1 X108.493 Y90.298 E209.64659
G1 X90.298 Y108.493 E210.25885
G1 X90.298 Y107.688 E210.27803
G1 X107.688 Y90.298 E210.86318
G1 X106.882 Y90.298 E210.88236
G1 X90.298 Y106.882 E211.44039
G1 X90.298 Y106.076 E211.45956
G1 X106.076 Y90.298 E211.99048
G1 X105.270 Y90.298 E212.00965
G1 X90.298 Y105.270 E212.51345
G1 X90.298 Y104.464 E212.53262
G1 X104.464 Y90.298 E213.00930
G1 X103.658 Y90.298 E213.02848
G1 X90.298 Y103.658 E213.47803
G1 X90.298 Y102.852 E213.49721
G1 X102.852 Y90.298 E213.91965
G1 X102.046 Y90.298 E213.93882
G1 X90.298 Y102.046 E214.33415
G1 X90.298 Y101.240 E214.35332
G1 X101.240 Y90.298 E214.72152
G1 X100.434 Y90.298 E214.74070
G1 X90.298 Y100.434 E215.08178
G1 X90.298 Y99.628 E215.10096
G1 X99.628 Y90.298 E215.41492
G1 X98.822 Y90.298 E215.43410
G1 X90.298 Y98.822 E215.72094
G1 X90.298 Y98.016 E215.74012
G1 X98.016 Y90.298 E215.99985
G1 X97.211 Y90.298 E216.01902
G1 X90.298 Y97.210 E216.25163
G1 X90.298 Y96.405 E216.27081
G1 X96.405 Y90.298 E216.47630
G1 X95.599 Y90.298 E216.49548
G1 X90.298 Y95.599 E216.67385
G1 X90.298 Y94.793 E216.69302
G1 X94.793 Y90.298 E216.84428
G1 X93.987 Y90.298 E216.86345
G1 X90.298 Y93.987 E216.98759
G1 X90.298 Y93.181 E217.00676
G1 X93.181 Y90.298 E217.10378
G1 X92.375 Y90.298 E217.12296
G1 X90.298 Y92.375 E217.19285
G1 X90.298 Y91.569 E217.21203
G1 X91.569 Y90.298 E217.25481
G1 X90.763 Y90.298 E217.27398
G1 X90.298 Y90.763 E217.28964
G1 Z4.200 F7800.000
G1 X90.763 Y109.702 F7800.000
G1 F4800
G1 X90.298 Y109.237 E217.30529
G1 X90.298 Y108.431 E217.32447
G1 X91.569 Y109.702 E217.36725
G1 X92.375 Y109.702 E217.38642
G1 X90.298 Y107.625 E217.45632
G1 X90.298 Y106.819 E217.47550
G1 X93.181 Y109.702 E217.57251
G1 X93.987 Y109.702 E217.59169
G1 X90.298 Y106.013 E217.71582
G1 X90.298 Y105.207 E217.73500
G1 X94.793 Y109.702 E217.88625
G1 X95.599 Y109.702 E217.90543
G1 X90.298 Y104.401 E218.08380
G1 X90.298 Y103.595 E218.10298
G1 X96.405 Y109.702 E218.30847
G1 X97.211 Y109.702 E218.32764
G1 X90.298 Y102.789 E218.56025
G1 X90.298 Y101.984 E218.57943
G1 X98.016 Y109.702 E218.83916
G1 X98.822 Y109.702 E218.85833
G1 X90.298 Y101.178 E219.14518
G1 X90.298 Y100.372 E219.16436
G1 X99.628 Y109.702 E219.47832
G1 X100.434 Y109.702 E219.49750
G1 X90.298 Y99.566 E219.83858
G1 X90.298 Y98.760 E219.85776
G1 X101.240 Y109.702 E220.22596
G1 X102.046 Y109.702 E220.24513
G1 X90.298 Y97.954 E220.64045
G1 X90.298 Y97.148 E220.65963
G1 X102.852 Y109.702 E221.08207
G1 X103.658 Y109.702 E221.10124
G1 X90.298 Y96.342 E221.55080
G1 X90.298 Y95.536 E221.56998
G1 X104.464 Y109.702 E222.04665
G1 X105.270 Y109.702 E222.06583
G1 X90.298 Y94.730 E222.56963
G1 X90.298 Y93.924 E222.58880
G1 X106.076 Y109.702 E223.11971
G1 X106.882 Y109.702 E223.13889
G1 X90.298 Y93.118 E223.69692
G1 X90.298 Y92.312 E223.71610
G1 X107.688 Y109.702 E224.30125
G1 X108.493 Y109.702 E224.32042
G1 X90.298 Y91.507 E224.93269
G1 X90.298 Y90.701 E224.95187
G1 X109.299 Y109.702 E225.59126
G1 X109.702 Y109.702 E225.60084
G1 X109.702 Y109.299 E225.61043
G1 X90.701 Y90.298 E226.24982
G1 X91.507 Y90.298 E226.26899
G1 X109.702 Y108.493 E226.88126
G1 X109.702 Y107.687 E226.90044
G1 X92.313 Y90.298 E227.48559
G1 X93.118 Y90.298 E227.50476
G1 X109.702 Y106.882 E228.06279
G1 X109.702 Y106.076 E228.08197
G1 X93.924 Y90.298 E228.61288
G1 X94.730 Y90.298 E228.63206
G1 X109.702 Y105.270 E229.13585
G1 X109.702 Y104.464 E229.15503
G1 X95.536 Y90.298 E229.63170
G1 X96.342 Y90.298 E229.65088
G1 X109.702 Y103.658 E230.10043
G1 X109.702 Y102.852 E230.11961
G1 X97.148 Y90.298 E230.54205
G1 X97.954 Y90.298 E230.56122
G1 X109.702 Y102.046 E230.95654
G1 X109.702 Y101.240 E230.97572
G1 X98.760 Y90.298 E231.34392
G1 X99.566 Y90.298 E231.36309
G1 X109.702 Y100.434 E231.70417
G1 X109.702 Y99.628 E231.72335
G1 X100.372 Y90.298 E232.03731
G1 X101.178 Y90.298 E232.05649
G1 X109.702 Y98.822 E232.34333
G1 X109.702 Y98.016 E232.36251
G1 X101.984 Y90.298 E232.62224
G1 X102.790 Y90.298 E232.64141
G1 X109.702 Y97.210 E232.87402
G1 X109.702 Y96.405 E232.89319
G1 X103.595 Y90.298 E233.09868
G1 X104.401 Y90.298 E233.11786
G1 X109.702 Y95.599 E233.29623
G1 X109.702 Y94.793 E233.31541
G1 X105.207 Y90.298 E233.46666
G1 X106.013 Y90.298 E233.48583
G1 X109.702 Y93.987 E233.60997
G1 X109.702 Y93.181 E233.62914
G1 X106.819 Y90.298 E233.72616
G1 X107.625 Y90.298 E233.74533
G1 X109.702 Y92.375 E233.81523
G1 X109.702 Y91.569 E233.83441
G1 X108.431 Y90.298 E233.87718
G1 X109.237 Y90.298 E233.89636
G1 X109.702 Y90.763 E233.91202
G1 Z4.500 F7800.000
G1 E231.91202 F2400.00000
G92 E0
G1 X109.237 Y109.702 F7800.000
G1 E2.00000 F2400.00000
G1 F4800
G1 X109.702 Y109.237 E2.01566
G1 X109.702 Y108.431 E2.03483
G1 X108.431 Y109.702 E2.07761
G1 X107.625 Y109.702 E2.09679
G1 X109.702 Y107.625 E2.16668
G1 X109.702 Y106.819 E2.18586
G1 X106.819 Y109.702 E2.28288
G1 X106.013 Y109.702 E2.30205
G1 X109.702 Y106.013 E2.42618
G1 X109.702 Y105.207 E2.44536
G1 X105.207 Y109.702 E2.59661
G1 X104.401 Y109.702 E2.61579
G1 X109.702 Y104.401 E2.79416
G1 X109.702 Y103.595 E2.81333
G1 X103.595 Y109.702 E3.01882
G1 X102.790 Y109.702 E3.03800
G1 X109.702 Y102.790 E3.27061
G1 X109.702 Y101.984 E3.28978
G1 X101.984 Y109.702 E3.54951
G1 X101.178 Y109.702 E3.56868
G1 X109.702 Y101.178 E3.85553
G1 X109.702 Y100.372 E3.87470
G1 X100.372 Y109.702 E4.18867
G1 X99.566 Y109.702 E4.20784
G1 X109.702 Y99.566 E4.54893
G1 X109.702 Y98.760 E4.56810
G1 X98.760 Y109.702 E4.93630
G1 X97.954 Y109.702 E4.95548
G1 X109.702 Y97.954 E5.35080
G1 X109.702 Y97.148 E5.36997
G1 X97.148 Y109.702 E5.79241
G1 X96.342 Y109.702 E5.81158
G1 X109.702 Y96.342 E6.26114
G1 X109.702 Y95.536 E6.28032
G1 X95.536 Y109.702 E6.75699
G1 X94.730 Y109.702 E6.77617
G1 X109.702 Y94.730 E7.27996
G1 X109.702 Y93.924 E7.29914
G1 X93.924 Y109.702 E7.83005
G1 X93.118 Y109.702 E7.84922
G1 X109.702 Y93.118 E8.40725
G1 X109.702 Y92.313 E8.42643
G1 X92.313 Y109.702 E9.01158
G1 X91.507 Y109.702 E9.03075
G1 X109.702 Y91.507 E9.64302
G1 X109.702 Y90.701 E9.66220
G1 X90.701 Y109.702 E10.30158
G1 X90.298 Y109.702 E10.31117
G1 X90.298 Y109.299 E10.32076
G1 X109.299 Y90.298 E10.96015
G1 X108.493 Y90.298 E10.97932
G1 X90.298 Y108.493 E11.59159
G1 X90.298 Y107.688 E11.61077
G1 X107.688 Y90.298 E12.19592
G1 X106.882 Y90.298 E12.21509
G1 X90.298 Y106.882 E12.77313
G1 X90.298 Y106.076 E12.79230
G1 X106.076 Y90.298 E13.32321
G1 X105.270 Y90.298 E13.34239
G1 X90.298 Y105.270 E13.84619
G1 X90.298 Y104.464 E13.86536
G1 X104.464 Y90.298 E14.34204
G1 X103.658 Y90.298 E14.36121
G1 X90.298 Y103.658 E14.81077
G1 X90.298 Y102.852 E14.82995
G1 X102.852 Y90.298 E15.25239
G1 X102.046 Y90.298 E15.27156
G1 X90.298 Y102.046 E15.66688
G1 X90.298 Y101.240 E15.68606
G1 X101.240 Y90.298 E16.05426
G1 X100.434 Y90.298 E16.07344
G1 X90.298 Y100.434 E16.41452
G1 X90.298 Y99.628 E16.43369
G1 X99.628 Y90.298 E16.74766
G1 X98.822 Y90.298 E16.76684
G1 X90.298 Y98.822 E17.05368
G1 X90.298 Y98.016 E17.07286
G1 X98.016 Y90.298 E17.33258
G1 X97.211 Y90.298 E17.35176
G1 X90.298 Y97.210 E17.58437
G1 X90.298 Y96.405 E17.60355
G1 X96.405 Y90.298 E17.80904
G1 X95.599 Y90.298 E17.82821
G1 X90.298 Y95.599 E18.00658
G1 X90.298 Y94.793 E18.02576
G1 X94.793 Y90.298 E18.17701
G1 X93.987 Y90.298 E18.19619
G1 X90.298 Y93.987 E18.32032
G1 X90.298 Y93.181 E18.33950
G1 X93.181 Y90.298 E18.43652
G1 X92.375 Y90.298 E18.45569
G1 X90.298 Y92.375 E18.52559
G1 X90.298 Y91.569 E18.54477
G1 X91.569 Y90.298 E18.58755
G1 X90.763 Y90.298 E18.60672
G1 X90.298 Y90.763 E18.62238
G1 E16.62238 F2400.00000
G92 E0
M107
; Filament-specific end gcode 
;END gcode for filament

M104 S0 ; turn off temperature
G28 X0  ; home X axis
M84     ; disable motors

M140 S0 ; set bed temperature
; filament used = 248.5mm (1.8cm3)
; total filament cost = 0.0

; avoid_crossing_perimeters = 0
; bed_shape = 0x0,200x0,200x200,0x200
; bed_temperature = 0
; before_layer_gcode = 
; between_objects_gcode = 
; bridge_acceleration = 0
; bridge_fan_speed = 100
; brim_connections_width = 0
; brim_width = 0
; complete_objects = 0
; cooling = 1
; default_acceleration = 0
; disable_fan_first_layers = 3
; duplicate_distance = 6
; end_filament_gcode = "; Filament-specific end gcode \n;END gcode for filament\n"
; end_gcode = M104 S0 ; turn off temperature\nG28 X0  ; home X axis\nM84     ; disable motors\n
; extruder_clearance_height = 20
; extruder_clearance_radius = 20
; extruder_offset = 0x0
; extrusion_axis = E
; extrusion_multiplier = 1
; fan_always_on = 0
; fan_below_layer_time = 60
; filament_colour = #FFFFFF
; filament_cost = 0
; filament_density = 0
; filament_diameter = 3
; filament_max_volumetric_speed = 0
; filament_notes = ""
; first_layer_acceleration = 0
; first_layer_bed_temperature = 0
; first_layer_extrusion_width = 200%
; first_layer_speed = 30
; first_layer_temperature = 205
; gcode_arcs = 0
; gcode_comments = 0
; gcode_flavor = reprap
; has_heatbed = 1
; infill_acceleration = 0
; infill_first = 0
; interior_brim_width = 0
; layer_gcode = 
; max_fan_speed = 100
; max_layer_height = 0.3
; max_print_speed = 80
; max_volumetric_speed = 0
; min_fan_speed = 35
; min_layer_height = 0.15
; min_print_speed = 10
; min_skirt_length = 0
; notes = 
; nozzle_diameter = 0.5
; only_retract_when_crossing_perimeters = 1
; ooze_prevention = 0
; output_filename_format = [input_filename_base].gcode
; perimeter_acceleration = 0
; post_process = 
; pressure_advance = 0
; printer_notes = 
; resolution = 0
; retract_before_travel = 2
; retract_layer_change = 0
; retract_length = 2
; retract_length_toolchange = 10
; retract_lift = 0
; retract_lift_above = 0
; retract_lift_below = 0
; retract_restart_extra = 0
; retract_restart_extra_toolchange = 0
; retract_speed = 40
; skirt_distance = 6
; skirt_height = 1
; skirts = 0
; slowdown_below_layer_time = 5
; spiral_vase = 0
; standby_temperature_delta = -5
; start_filament_gcode = "; Filament gcode\n"
; start_gcode = G28 ; home all axes\nG1 Z5 F5000 ; lift nozzle\n
; temperature = 200
; threads = 8
; toolchange_gcode = 
; travel_speed = 130
; use_firmware_retraction = 0
; use_relative_e_distances = 0
; use_set_and_wait_bed = 0
; use_set_and_wait_extruder = 0
; use_volumetric_e = 0
; vibration_limit = 0
; wipe = 0
; z_offset = 0
; z_steps_per_mm = 0
; adaptive_slicing = 0
; adaptive_slicing_quality = 75%
; dont_support_bridges = 1
; extrusion_width = 0
; first_layer_height = 0.3
; infill_only_where_needed = 0
; interface_shells = 0
; layer_height = 0.3
; match_horizontal_surfaces = 0
; raft_layers = 0
; regions_overlap = 0
; seam_position = aligned
; sequential_print_priority = 0
; support_material = 0
; support_material_angle = 0
; support_material_buildplate_only = 0
; support_material_contact_distance = 0.2
; support_material_enforce_layers = 0
; support_material_extruder = 1
; support_material_extrusion_width = 0
; support_material_interface_extruder = 1
; support_material_interface_extrusion_width = 0
; support_material_interface_layers = 3
; support_material_interface_spacing = 0
; support_material_interface_speed = 100%
; support_material_max_layers = 0
; support_material_pattern = pillars
; support_material_spacing = 2.5
; support_material_speed = 60
; support_material_threshold = 60%
; xy_size_compensation = 0
; bottom_infill_pattern = rectilinear
; bottom_solid_layers = 0
; bridge_flow_ratio = 1
; bridge_speed = 60
; external_perimeter_extrusion_width = 0
; external_perimeter_speed = 50%
; external_perimeters_first = 0
; extra_perimeters = 1
; fill_angle = 45
; fill_density = 100%
; fill_gaps = 1
; fill_pattern = rectilinear
; gap_fill_speed = 20
; infill_every_layers = 1
; infill_extruder = 1
; infill_extrusion_width = 0
; infill_overlap = 55%
; infill_speed = 80
; overhangs = 1
; perimeter_extruder = 1
; perimeter_extrusion_width = 0
; perimeter_speed = 60
; perimeters = 0
; small_perimeter_speed = 15
; solid_infill_below_area = 70
; solid_infill_every_layers = 0
; solid_infill_extruder = 1
; solid_infill_extrusion_width = 0
; solid_infill_speed = 20
; thin_walls = 1
; top_infill_extrusion_width = 0
; top_infill_pattern = rectilinear
; top_solid_infill_speed = 15
; top_solid_layers = 0
