; generated by Slic3r 1.2.9 on 2019-07-09 at 16:58:25

; external perimeters extrusion width = 0.50mm
; perimeters extrusion width = 0.58mm
; infill extrusion width = 0.58mm
; solid infill extrusion width = 0.58mm
; top infill extrusion width = 0.58mm

M107
M104 S200 ; set temperature
G28 ; home all axes
G1 Z5 F5000 ; lift nozzle

M109 S200 ; wait for temperature to be reached
G21 ; set units to millimeters
G90 ; use absolute coordinates
M82 ; use absolute distances for extrusion
G92 E0
G1 Z0.400 F7800.000
G1 E-2.00000 F2400.00000
G92 E0
G1 X110.129 Y90.393 F7800.000
G1 E2.00000 F2400.00000
G1 X109.607 Y89.871 E2.26854 F1800.000
G1 X108.835 Y89.871 E2.54909
G1 X110.129 Y91.165 E3.21438
G1 X110.129 Y91.936 E3.49493
G1 X108.064 Y89.871 E4.55698
G1 X107.293 Y89.871 E4.83753
G1 X110.129 Y92.707 E6.29634
G1 X110.129 Y93.479 E6.57689
G1 X106.521 Y89.871 E8.43245
G1 X105.750 Y89.871 E8.71300
G1 X110.129 Y94.250 E10.96531
G1 X110.129 Y95.021 E11.24586
G1 X104.979 Y89.871 E13.89493
G1 X104.207 Y89.871 E14.17548
G1 X110.129 Y95.793 E17.22131
G1 X110.129 Y96.564 E17.50186
G1 X103.436 Y89.871 E20.94444
G1 X102.665 Y89.871 E21.22499
G1 X110.129 Y97.335 E25.06432
G1 X110.129 Y98.107 E25.34487
G1 X101.893 Y89.871 E29.58096
G1 X101.122 Y89.871 E29.86151
G1 X110.129 Y98.878 E34.49436
G1 X110.129 Y99.649 E34.77491
G1 X100.351 Y89.871 E39.80451
G1 X99.579 Y89.871 E40.08506
G1 X110.129 Y100.421 E45.51142
G1 X110.129 Y101.192 E45.79196
G1 X98.808 Y89.871 E51.61508
G1 X98.037 Y89.871 E51.89562
G1 X110.129 Y101.963 E58.11549
G1 X110.129 Y102.735 E58.39604
G1 X97.265 Y89.871 E65.01266
G1 X96.494 Y89.871 E65.29321
G1 X110.129 Y103.506 E72.30659
G1 X110.129 Y104.277 E72.58714
G1 X95.723 Y89.871 E79.99727
G1 X94.951 Y89.871 E80.27782
G1 X110.129 Y105.049 E88.08471
G1 X110.129 Y105.820 E88.36526
G1 X94.180 Y89.871 E96.56890
G1 X93.409 Y89.871 E96.84945
G1 X110.129 Y106.591 E105.44984
G1 X110.129 Y107.363 E105.73039
G1 X92.637 Y89.871 E114.72755
G1 X91.866 Y89.871 E115.00810
G1 X110.129 Y108.134 E124.40200
G1 X110.129 Y108.905 E124.68255
G1 X91.095 Y89.871 E134.47322
G1 X90.323 Y89.871 E134.75377
G1 X110.129 Y109.677 E144.94119
G1 X109.809 Y110.129 E145.14248
G1 X89.871 Y90.191 E155.39817
G1 X89.871 Y90.962 E155.67872
G1 X109.038 Y110.129 E165.53766
G1 X108.267 Y110.129 E165.81820
G1 X89.871 Y91.733 E175.28039
G1 X89.871 Y92.505 E175.56094
G1 X107.495 Y110.129 E184.62636
G1 X106.724 Y110.129 E184.90691
G1 X89.871 Y93.276 E193.57558
G1 X89.871 Y94.047 E193.85613
G1 X105.953 Y110.129 E202.12805
G1 X105.181 Y110.129 E202.40860
G1 X89.871 Y94.819 E210.28376
G1 X89.871 Y95.590 E210.56431
G1 X104.410 Y110.129 E218.04271
G1 X103.639 Y110.129 E218.32326
G1 X89.871 Y96.361 E225.40491
G1 X89.871 Y97.133 E225.68546
G1 X102.867 Y110.129 E232.37036
G1 X102.096 Y110.129 E232.65091
G1 X89.871 Y97.904 E238.93905
G1 X89.871 Y98.675 E239.21959
G1 X101.325 Y110.129 E245.11098
G1 X100.553 Y110.129 E245.39153
G1 X89.871 Y99.447 E250.88616
G1 X89.871 Y100.218 E251.16671
G1 X99.782 Y110.129 E256.26458
G1 X99.011 Y110.129 E256.54513
G1 X89.871 Y100.989 E261.24625
G1 X89.871 Y101.761 E261.52680
G1 X98.239 Y110.129 E265.83116
G1 X97.468 Y110.129 E266.11171
G1 X89.871 Y102.532 E270.01932
G1 X89.871 Y103.303 E270.29987
G1 X96.697 Y110.129 E273.81072
G1 X95.925 Y110.129 E274.09127
G1 X89.871 Y104.075 E277.20537
G1 X89.871 Y104.846 E277.48592
G1 X95.154 Y110.129 E280.20326
G1 X94.383 Y110.129 E280.48381
G1 X89.871 Y105.617 E282.80440
G1 X89.871 Y106.389 E283.08495
G1 X93.611 Y110.129 E285.00878
G1 X92.840 Y110.129 E285.28933
G1 X89.871 Y107.160 E286.81641
G1 X89.871 Y107.931 E287.09696
G1 X92.069 Y110.129 E288.22728
G1 X91.297 Y110.129 E288.50783
G1 X89.871 Y108.703 E289.24140
G1 X89.871 Y109.474 E289.52194
G1 X90.526 Y110.129 E289.85876
G1 Z0.800 F7800.000
G1 X109.607 Y110.129 F7800.000
G1 X110.129 Y109.607 E290.04334 F4800.000
G1 X110.129 Y108.835 E290.23617
G1 X108.835 Y110.129 E290.69346
G1 X108.064 Y110.129 E290.88629
G1 X110.129 Y108.064 E291.61629
G1 X110.129 Y107.293 E291.80912
G1 X107.293 Y110.129 E292.81182
G1 X106.521 Y110.129 E293.00466
G1 X110.129 Y106.521 E294.28007
G1 X110.129 Y105.750 E294.47290
G1 X105.750 Y110.129 E296.02102
G1 X104.979 Y110.129 E296.21385
G1 X110.129 Y104.979 E298.03468
G1 X110.129 Y104.207 E298.22751
G1 X104.207 Y110.129 E300.32104
G1 X103.436 Y110.129 E300.51388
G1 X110.129 Y103.436 E302.88012
G1 X110.129 Y102.665 E303.07295
G1 X102.665 Y110.129 E305.71190
G1 X101.893 Y110.129 E305.90473
G1 X110.129 Y101.893 E308.81639
G1 X110.129 Y101.122 E309.00922
G1 X101.122 Y110.129 E312.19359
G1 X100.351 Y110.129 E312.38642
G1 X110.129 Y100.351 E315.84349
G1 X110.129 Y99.579 E316.03632
G1 X99.579 Y110.129 E319.76610
G1 X98.808 Y110.129 E319.95894
G1 X110.129 Y98.808 E323.96142
G1 X110.129 Y98.037 E324.15426
G1 X98.037 Y110.129 E328.42945
G1 X97.265 Y110.129 E328.62228
G1 X110.129 Y97.265 E333.17019
G1 X110.129 Y96.494 E333.36302
G1 X96.494 Y110.129 E338.18363
G1 X95.723 Y110.129 E338.37646
G1 X110.129 Y95.723 E343.46978
G1 X110.129 Y94.951 E343.66261
G1 X94.951 Y110.129 E349.02864
G1 X94.180 Y110.129 E349.22147
G1 X110.129 Y94.180 E354.86021
G1 X110.129 Y93.409 E355.05304
G1 X93.409 Y110.129 E360.96448
G1 X92.637 Y110.129 E361.15731
G1 X110.129 Y92.637 E367.34146
G1 X110.129 Y91.866 E367.53430
G1 X91.866 Y110.129 E373.99115
G1 X91.095 Y110.129 E374.18399
G1 X110.129 Y91.095 E380.91355
G1 X110.129 Y90.323 E381.10638
G1 X90.323 Y110.129 E388.10865
G1 X89.871 Y109.809 E388.24701
G1 X109.809 Y89.871 E395.29621
G1 X109.038 Y89.871 E395.48905
G1 X89.871 Y109.038 E402.26554
G1 X89.871 Y108.267 E402.45837
G1 X108.267 Y89.871 E408.96215
G1 X107.495 Y89.871 E409.15499
G1 X89.871 Y107.495 E415.38606
G1 X89.871 Y106.724 E415.57890
G1 X106.724 Y89.871 E421.53727
G1 X105.953 Y89.871 E421.73010
G1 X89.871 Y105.953 E427.41576
G1 X89.871 Y105.181 E427.60860
G1 X105.181 Y89.871 E433.02155
G1 X104.410 Y89.871 E433.21438
G1 X89.871 Y104.410 E438.35463
G1 X89.871 Y103.639 E438.54746
G1 X103.639 Y89.871 E443.41500
G1 X102.867 Y89.871 E443.60783
G1 X89.871 Y102.867 E448.20266
G1 X89.871 Y102.096 E448.39550
G1 X102.096 Y89.871 E452.71762
G1 X101.325 Y89.871 E452.91045
G1 X89.871 Y101.325 E456.95987
G1 X89.871 Y100.553 E457.15270
G1 X100.553 Y89.871 E460.92941
G1 X99.782 Y89.871 E461.12224
G1 X89.871 Y99.782 E464.62624
G1 X89.871 Y99.011 E464.81908
G1 X99.011 Y89.871 E468.05037
G1 X98.239 Y89.871 E468.24320
G1 X89.871 Y98.239 E471.20178
G1 X89.871 Y97.468 E471.39462
G1 X97.468 Y89.871 E474.08049
G1 X96.697 Y89.871 E474.27333
G1 X89.871 Y96.697 E476.68650
G1 X89.871 Y95.925 E476.87933
G1 X95.925 Y89.871 E479.01979
G1 X95.154 Y89.871 E479.21263
G1 X89.871 Y95.154 E481.08038
G1 X89.871 Y94.383 E481.27321
G1 X94.383 Y89.871 E482.86826
G1 X93.611 Y89.871 E483.06109
G1 X89.871 Y93.611 E484.38343
G1 X89.871 Y92.840 E484.57626
G1 X92.840 Y89.871 E485.62589
G1 X92.069 Y89.871 E485.81873
G1 X89.871 Y92.069 E486.59565
G1 X89.871 Y91.297 E486.78848
G1 X91.297 Y89.871 E487.29270
G1 X90.526 Y89.871 E487.48553
G1 X89.871 Y90.526 E487.71704
G1 Z1.200 F7800.000
G1 X90.526 Y110.129 F7800.000
G1 X89.871 Y109.474 E487.94854 F4800.000
G1 X89.871 Y108.703 E488.14138
G1 X91.297 Y110.129 E488.64559
G1 X92.069 Y110.129 E488.83843
G1 X89.871 Y107.931 E489.61535
G1 X89.871 Y107.160 E489.80818
G1 X92.840 Y110.129 E490.85781
G1 X93.611 Y110.129 E491.05065
G1 X89.871 Y106.389 E492.37298
G1 X89.871 Y105.617 E492.56582
G1 X94.383 Y110.129 E494.16086
G1 X95.154 Y110.129 E494.35369
G1 X89.871 Y104.846 E496.22145
G1 X89.871 Y104.075 E496.41428
G1 X95.925 Y110.129 E498.55474
G1 X96.697 Y110.129 E498.74757
G1 X89.871 Y103.303 E501.16074
G1 X89.871 Y102.532 E501.35358
G1 X97.468 Y110.129 E504.03945
G1 X98.239 Y110.129 E504.23229
G1 X89.871 Y101.761 E507.19087
G1 X89.871 Y100.989 E507.38370
G1 X99.011 Y110.129 E510.61499
G1 X99.782 Y110.129 E510.80783
G1 X89.871 Y100.218 E514.31183
G1 X89.871 Y99.447 E514.50466
G1 X100.553 Y110.129 E518.28137
G1 X101.325 Y110.129 E518.47420
G1 X89.871 Y98.675 E522.52361
G1 X89.871 Y97.904 E522.71645
G1 X102.096 Y110.129 E527.03857
G1 X102.867 Y110.129 E527.23140
G1 X89.871 Y97.133 E531.82623
G1 X89.871 Y96.361 E532.01907
G1 X103.639 Y110.129 E536.88660
G1 X104.410 Y110.129 E537.07944
G1 X89.871 Y95.590 E542.21968
G1 X89.871 Y94.819 E542.41252
G1 X105.181 Y110.129 E547.82547
G1 X105.953 Y110.129 E548.01830
G1 X89.871 Y94.047 E553.70396
G1 X89.871 Y93.276 E553.89680
G1 X106.724 Y110.129 E559.85516
G1 X107.495 Y110.129 E560.04800
G1 X89.871 Y92.505 E566.27907
G1 X89.871 Y91.733 E566.47191
G1 X108.267 Y110.129 E572.97569
G1 X109.038 Y110.129 E573.16853
G1 X89.871 Y90.962 E579.94502
G1 X89.871 Y90.191 E580.13785
G1 X109.809 Y110.129 E587.18705
G1 X110.129 Y109.677 E587.32541
G1 X90.323 Y89.871 E594.32768
G1 X91.095 Y89.871 E594.52051
G1 X110.129 Y108.905 E601.25008
G1 X110.129 Y108.134 E601.44291
G1 X91.866 Y89.871 E607.89977
G1 X92.637 Y89.871 E608.09260
G1 X110.129 Y107.363 E614.27675
G1 X110.129 Y106.591 E614.46958
G1 X93.409 Y89.871 E620.38102
G1 X94.180 Y89.871 E620.57386
G1 X110.129 Y105.820 E626.21259
G1 X110.129 Y105.049 E626.40542
G1 X94.951 Y89.871 E631.77145
G1 X95.723 Y89.871 E631.96428
G1 X110.129 Y104.277 E637.05760
G1 X110.129 Y103.506 E637.25043
G1 X96.494 Y89.871 E642.07104
G1 X97.265 Y89.871 E642.26388
G1 X110.129 Y102.735 E646.81178
G1 X110.129 Y101.963 E647.00461
G1 X98.037 Y89.871 E651.27981
G1 X98.808 Y89.871 E651.47264
G1 X110.129 Y101.192 E655.47513
G1 X110.129 Y100.421 E655.66796
G1 X99.579 Y89.871 E659.39774
G1 X100.351 Y89.871 E659.59057
G1 X110.129 Y99.649 E663.04765
G1 X110.129 Y98.878 E663.24048
G1 X101.122 Y89.871 E666.42484
G1 X101.893 Y89.871 E666.61768
G1 X110.129 Y98.107 E669.52933
G1 X110.129 Y97.335 E669.72217
G1 X102.665 Y89.871 E672.36112
G1 X103.436 Y89.871 E672.55395
G1 X110.129 Y96.564 E674.92019
G1 X110.129 Y95.793 E675.11303
G1 X104.207 Y89.871 E677.20656
G1 X104.979 Y89.871 E677.39939
G1 X110.129 Y95.021 E679.22022
G1 X110.129 Y94.250 E679.41305
G1 X105.750 Y89.871 E680.96117
G1 X106.521 Y89.871 E681.15400
G1 X110.129 Y93.479 E682.42942
G1 X110.129 Y92.707 E682.62225
G1 X107.293 Y89.871 E683.62495
G1 X108.064 Y89.871 E683.81779
G1 X110.129 Y91.936 E684.54778
G1 X110.129 Y91.165 E684.74061
G1 X108.835 Y89.871 E685.19790
G1 X109.607 Y89.871 E685.39074
G1 X110.129 Y90.393 E685.57532
M106 S239.7
G1 Z1.600 F7800.000
G1 X109.607 Y110.129 F7800.000
G1 X110.129 Y109.607 E685.75989 F4800.000
G1 X110.129 Y108.835 E685.95273
G1 X108.835 Y110.129 E686.41002
G1 X108.064 Y110.129 E686.60285
G1 X110.129 Y108.064 E687.33284
G1 X110.129 Y107.293 E687.52568
G1 X107.293 Y110.129 E688.52838
G1 X106.521 Y110.129 E688.72121
G1 X110.129 Y106.521 E689.99662
G1 X110.129 Y105.750 E690.18946
G1 X105.750 Y110.129 E691.73758
G1 X104.979 Y110.129 E691.93041
G1 X110.129 Y104.979 E693.75123
G1 X110.129 Y104.207 E693.94407
G1 X104.207 Y110.129 E696.03760
G1 X103.436 Y110.129 E696.23043
G1 X110.129 Y103.436 E698.59667
G1 X110.129 Y102.665 E698.78951
G1 X102.665 Y110.129 E701.42846
G1 X101.893 Y110.129 E701.62129
G1 X110.129 Y101.893 E704.53295
G1 X110.129 Y101.122 E704.72578
G1 X101.122 Y110.129 E707.91014
G1 X100.351 Y110.129 E708.10298
G1 X110.129 Y100.351 E711.56005
G1 X110.129 Y99.579 E711.75288
G1 X99.579 Y110.129 E715.48266
G1 X98.808 Y110.129 E715.67549
G1 X110.129 Y98.808 E719.67798
G1 X110.129 Y98.037 E719.87081
G1 X98.037 Y110.129 E724.14601
G1 X97.265 Y110.129 E724.33884
G1 X110.129 Y97.265 E728.88674
G1 X110.129 Y96.494 E729.07958
G1 X96.494 Y110.129 E733.90019
G1 X95.723 Y110.129 E734.09302
G1 X110.129 Y95.723 E739.18634
G1 X110.129 Y94.951 E739.37917
G1 X94.951 Y110.129 E744.74520
G1 X94.180 Y110.129 E744.93803
G1 X110.129 Y94.180 E750.57676
G1 X110.129 Y93.409 E750.76960
G1 X93.409 Y110.129 E756.68104
G1 X92.637 Y110.129 E756.87387
G1 X110.129 Y92.637 E763.05802
G1 X110.129 Y91.866 E763.25085
G1 X91.866 Y110.129 E769.70771
G1 X91.095 Y110.129 E769.90054
G1 X110.129 Y91.095 E776.63011
G1 X110.129 Y90.323 E776.82294
G1 X90.323 Y110.129 E783.82521
G1 X89.871 Y109.809 E783.96357
G1 X109.809 Y89.871 E791.01277
G1 X109.038 Y89.871 E791.20560
G1 X89.871 Y109.038 E797.98210
G1 X89.871 Y108.267 E798.17493
G1 X108.267 Y89.871 E804.67871
G1 X107.495 Y89.871 E804.87155
G1 X89.871 Y107.495 E811.10262
G1 X89.871 Y106.724 E811.29546
G1 X106.724 Y89.871 E817.25383
G1 X105.953 Y89.871 E817.44666
G1 X89.871 Y105.953 E823.13232
G1 X89.871 Y105.181 E823.32515
G1 X105.181 Y89.871 E828.73811
G1 X104.410 Y89.871 E828.93094
G1 X89.871 Y104.410 E834.07119
G1 X89.871 Y103.639 E834.26402
G1 X103.639 Y89.871 E839.13156
G1 X102.867 Y89.871 E839.32439
G1 X89.871 Y102.867 E843.91922
G1 X89.871 Y102.096 E844.11206
G1 X102.096 Y89.871 E848.43418
G1 X101.325 Y89.871 E848.62701
G1 X89.871 Y101.325 E852.67643
G1 X89.871 Y100.553 E852.86926
G1 X100.553 Y89.871 E856.64597
G1 X99.782 Y89.871 E856.83880
G1 X89.871 Y99.782 E860.34280
G1 X89.871 Y99.011 E860.53563
G1 X99.011 Y89.871 E863.76693
G1 X98.239 Y89.871 E863.95976
G1 X89.871 Y98.239 E866.91834
G1 X89.871 Y97.468 E867.11118
G1 X97.468 Y89.871 E869.79705
G1 X96.697 Y89.871 E869.98989
G1 X89.871 Y96.697 E872.40306
G1 X89.871 Y95.925 E872.59589
G1 X95.925 Y89.871 E874.73635
G1 X95.154 Y89.871 E874.92918
G1 X89.871 Y95.154 E876.79694
G1 X89.871 Y94.383 E876.98977
G1 X94.383 Y89.871 E878.58482
G1 X93.611 Y89.871 E878.77765
G1 X89.871 Y93.611 E880.09999
G1 X89.871 Y92.840 E880.29282
G1 X92.840 Y89.871 E881.34245
G1 X92.069 Y89.871 E881.53528
G1 X89.871 Y92.069 E882.31221
G1 X89.871 Y91.297 E882.50504
G1 X91.297 Y89.871 E883.00926
G1 X90.526 Y89.871 E883.20209
G1 X89.871 Y90.526 E883.43360
G1 Z2.000 F7800.000
G1 X90.526 Y110.129 F7800.000
G1 X89.871 Y109.474 E883.66510 F4800.000
G1 X89.871 Y108.703 E883.85794
G1 X91.297 Y110.129 E884.36215
G1 X92.069 Y110.129 E884.55498
G1 X89.871 Y107.931 E885.33191
G1 X89.871 Y107.160 E885.52474
G1 X92.840 Y110.129 E886.57437
G1 X93.611 Y110.129 E886.76720
G1 X89.871 Y106.389 E888.08954
G1 X89.871 Y105.617 E888.28237
G1 X94.383 Y110.129 E889.87742
G1 X95.154 Y110.129 E890.07025
G1 X89.871 Y104.846 E891.93801
G1 X89.871 Y104.075 E892.13084
G1 X95.925 Y110.129 E894.27130
G1 X96.697 Y110.129 E894.46413
G1 X89.871 Y103.303 E896.87730
G1 X89.871 Y102.532 E897.07013
G1 X97.468 Y110.129 E899.75601
G1 X98.239 Y110.129 E899.94884
G1 X89.871 Y101.761 E902.90743
G1 X89.871 Y100.989 E903.10026
G1 X99.011 Y110.129 E906.33155
G1 X99.782 Y110.129 E906.52438
G1 X89.871 Y100.218 E910.02838
G1 X89.871 Y99.447 E910.22122
G1 X100.553 Y110.129 E913.99792
G1 X101.325 Y110.129 E914.19076
G1 X89.871 Y98.675 E918.24017
G1 X89.871 Y97.904 E918.43301
G1 X102.096 Y110.129 E922.75513
G1 X102.867 Y110.129 E922.94796
G1 X89.871 Y97.133 E927.54279
G1 X89.871 Y96.361 E927.73562
G1 X103.639 Y110.129 E932.60316
G1 X104.410 Y110.129 E932.79600
G1 X89.871 Y95.590 E937.93624
G1 X89.871 Y94.819 E938.12907
G1 X105.181 Y110.129 E943.54203
G1 X105.953 Y110.129 E943.73486
G1 X89.871 Y94.047 E949.42052
G1 X89.871 Y93.276 E949.61335
G1 X106.724 Y110.129 E955.57172
G1 X107.495 Y110.129 E955.76456
G1 X89.871 Y92.505 E961.99563
G1 X89.871 Y91.733 E962.18847
G1 X108.267 Y110.129 E968.69225
G1 X109.038 Y110.129 E968.88508
G1 X89.871 Y90.962 E975.66157
G1 X89.871 Y90.191 E975.85441
G1 X109.809 Y110.129 E982.90361
G1 X110.129 Y109.677 E983.04197
G1 X90.323 Y89.871 E990.04424
G1 X91.095 Y89.871 E990.23707
G1 X110.129 Y108.905 E996.96663
G1 X110.129 Y108.134 E997.15947
G1 X91.866 Y89.871 E1003.61632
G1 X92.637 Y89.871 E1003.80916
G1 X110.129 Y107.363 E1009.99331
G1 X110.129 Y106.591 E1010.18614
G1 X93.409 Y89.871 E1016.09758
G1 X94.180 Y89.871 E1016.29041
G1 X110.129 Y105.820 E1021.92915
G1 X110.129 Y105.049 E1022.12198
G1 X94.951 Y89.871 E1027.48801
G1 X95.723 Y89.871 E1027.68084
G1 X110.129 Y104.277 E1032.77416
G1 X110.129 Y103.506 E1032.96699
G1 X96.494 Y89.871 E1037.78760
G1 X97.265 Y89.871 E1037.98044
G1 X110.129 Y102.735 E1042.52834
G1 X110.129 Y101.963 E1042.72117
G1 X98.037 Y89.871 E1046.99637
G1 X98.808 Y89.871 E1047.18920
G1 X110.129 Y101.192 E1051.19169
G1 X110.129 Y100.421 E1051.38452
G1 X99.579 Y89.871 E1055.11430
G1 X100.351 Y89.871 E1055.30713
G1 X110.129 Y99.649 E1058.76420
G1 X110.129 Y98.878 E1058.95704
G1 X101.122 Y89.871 E1062.14140
G1 X101.893 Y89.871 E1062.33424
G1 X110.129 Y98.107 E1065.24589
G1 X110.129 Y97.335 E1065.43873
G1 X102.665 Y89.871 E1068.07768
G1 X103.436 Y89.871 E1068.27051
G1 X110.129 Y96.564 E1070.63675
G1 X110.129 Y95.793 E1070.82958
G1 X104.207 Y89.871 E1072.92312
G1 X104.979 Y89.871 E1073.11595
G1 X110.129 Y95.021 E1074.93678
G1 X110.129 Y94.250 E1075.12961
G1 X105.750 Y89.871 E1076.67773
G1 X106.521 Y89.871 E1076.87056
G1 X110.129 Y93.479 E1078.14597
G1 X110.129 Y92.707 E1078.33881
G1 X107.293 Y89.871 E1079.34151
G1 X108.064 Y89.871 E1079.53434
G1 X110.129 Y91.936 E1080.26434
G1 X110.129 Y91.165 E1080.45717
G1 X108.835 Y89.871 E1080.91446
G1 X109.607 Y89.871 E1081.10729
G1 X110.129 Y90.393 E1081.29187
G1 Z2.400 F7800.000
G1 X109.607 Y110.129 F7800.000
G1 X110.129 Y109.607 E1081.47645 F4800.000
G1 X110.129 Y108.835 E1081.66929
G1 X108.835 Y110.129 E1082.12657
G1 X108.064 Y110.129 E1082.31941
G1 X110.129 Y108.064 E1083.04940
G1 X110.129 Y107.293 E1083.24224
G1 X107.293 Y110.129 E1084.24494
G1 X106.521 Y110.129 E1084.43777
G1 X110.129 Y106.521 E1085.71318
G1 X110.129 Y105.750 E1085.90602
G1 X105.750 Y110.129 E1087.45413
G1 X104.979 Y110.129 E1087.64697
G1 X110.129 Y104.979 E1089.46779
G1 X110.129 Y104.207 E1089.66063
G1 X104.207 Y110.129 E1091.75416
G1 X103.436 Y110.129 E1091.94699
G1 X110.129 Y103.436 E1094.31323
G1 X110.129 Y102.665 E1094.50607
G1 X102.665 Y110.129 E1097.14502
G1 X101.893 Y110.129 E1097.33785
G1 X110.129 Y101.893 E1100.24950
G1 X110.129 Y101.122 E1100.44234
G1 X101.122 Y110.129 E1103.62670
G1 X100.351 Y110.129 E1103.81954
G1 X110.129 Y100.351 E1107.27661
G1 X110.129 Y99.579 E1107.46944
G1 X99.579 Y110.129 E1111.19922
G1 X98.808 Y110.129 E1111.39205
G1 X110.129 Y98.808 E1115.39454
G1 X110.129 Y98.037 E1115.58737
G1 X98.037 Y110.129 E1119.86257
G1 X97.265 Y110.129 E1120.05540
G1 X110.129 Y97.265 E1124.60330
G1 X110.129 Y96.494 E1124.79614
G1 X96.494 Y110.129 E1129.61675
G1 X95.723 Y110.129 E1129.80958
G1 X110.129 Y95.723 E1134.90290
G1 X110.129 Y94.951 E1135.09573
G1 X94.951 Y110.129 E1140.46176
G1 X94.180 Y110.129 E1140.65459
G1 X110.129 Y94.180 E1146.29332
G1 X110.129 Y93.409 E1146.48616
G1 X93.409 Y110.129 E1152.39760
G1 X92.637 Y110.129 E1152.59043
G1 X110.129 Y92.637 E1158.77458
G1 X110.129 Y91.866 E1158.96741
G1 X91.866 Y110.129 E1165.42427
G1 X91.095 Y110.129 E1165.61710
G1 X110.129 Y91.095 E1172.34667
G1 X110.129 Y90.323 E1172.53950
G1 X90.323 Y110.129 E1179.54177
G1 X89.871 Y109.809 E1179.68013
G1 X109.809 Y89.871 E1186.72933
G1 X109.038 Y89.871 E1186.92216
G1 X89.871 Y109.038 E1193.69865
G1 X89.871 Y108.267 E1193.89149
G1 X108.267 Y89.871 E1200.39527
G1 X107.495 Y89.871 E1200.58810
G1 X89.871 Y107.495 E1206.81918
G1 X89.871 Y106.724 E1207.01202
G1 X106.724 Y89.871 E1212.97038
G1 X105.953 Y89.871 E1213.16322
G1 X89.871 Y105.953 E1218.84888
G1 X89.871 Y105.181 E1219.04171
G1 X105.181 Y89.871 E1224.45467
G1 X104.410 Y89.871 E1224.64750
G1 X89.871 Y104.410 E1229.78774
G1 X89.871 Y103.639 E1229.98058
G1 X103.639 Y89.871 E1234.84812
G1 X102.867 Y89.871 E1235.04095
G1 X89.871 Y102.867 E1239.63578
G1 X89.871 Y102.096 E1239.82861
G1 X102.096 Y89.871 E1244.15074
G1 X101.325 Y89.871 E1244.34357
G1 X89.871 Y101.325 E1248.39298
G1 X89.871 Y100.553 E1248.58582
G1 X100.553 Y89.871 E1252.36253
G1 X99.782 Y89.871 E1252.55536
G1 X89.871 Y99.782 E1256.05936
G1 X89.871 Y99.011 E1256.25219
G1 X99.011 Y89.871 E1259.48348
G1 X98.239 Y89.871 E1259.67632
G1 X89.871 Y98.239 E1262.63490
G1 X89.871 Y97.468 E1262.82773
G1 X97.468 Y89.871 E1265.51361
G1 X96.697 Y89.871 E1265.70644
G1 X89.871 Y96.697 E1268.11961
G1 X89.871 Y95.925 E1268.31245
G1 X95.925 Y89.871 E1270.45291
G1 X95.154 Y89.871 E1270.64574
G1 X89.871 Y95.154 E1272.51349
G1 X89.871 Y94.383 E1272.70633
G1 X94.383 Y89.871 E1274.30137
G1 X93.611 Y89.871 E1274.49421
G1 X89.871 Y93.611 E1275.81655
G1 X89.871 Y92.840 E1276.00938
G1 X92.840 Y89.871 E1277.05901
G1 X92.069 Y89.871 E1277.25184
G1 X89.871 Y92.069 E1278.02877
G1 X89.871 Y91.297 E1278.22160
G1 X91.297 Y89.871 E1278.72581
G1 X90.526 Y89.871 E1278.91865
G1 X89.871 Y90.526 E1279.15015
G1 Z2.800 F7800.000
G1 X90.526 Y110.129 F7800.000
G1 X89.871 Y109.474 E1279.38166 F4800.000
G1 X89.871 Y108.703 E1279.57449
G1 X91.297 Y110.129 E1280.07871
G1 X92.069 Y110.129 E1280.27154
G1 X89.871 Y107.931 E1281.04846
G1 X89.871 Y107.160 E1281.24130
G1 X92.840 Y110.129 E1282.29093
G1 X93.611 Y110.129 E1282.48376
G1 X89.871 Y106.389 E1283.80610
G1 X89.871 Y105.617 E1283.99893
G1 X94.383 Y110.129 E1285.59398
G1 X95.154 Y110.129 E1285.78681
G1 X89.871 Y104.846 E1287.65456
G1 X89.871 Y104.075 E1287.84740
G1 X95.925 Y110.129 E1289.98786
G1 X96.697 Y110.129 E1290.18069
G1 X89.871 Y103.303 E1292.59386
G1 X89.871 Y102.532 E1292.78669
G1 X97.468 Y110.129 E1295.47257
G1 X98.239 Y110.129 E1295.66540
G1 X89.871 Y101.761 E1298.62399
G1 X89.871 Y100.989 E1298.81682
G1 X99.011 Y110.129 E1302.04811
G1 X99.782 Y110.129 E1302.24094
G1 X89.871 Y100.218 E1305.74494
G1 X89.871 Y99.447 E1305.93778
G1 X100.553 Y110.129 E1309.71448
G1 X101.325 Y110.129 E1309.90732
G1 X89.871 Y98.675 E1313.95673
G1 X89.871 Y97.904 E1314.14956
G1 X102.096 Y110.129 E1318.47169
G1 X102.867 Y110.129 E1318.66452
G1 X89.871 Y97.133 E1323.25935
G1 X89.871 Y96.361 E1323.45218
G1 X103.639 Y110.129 E1328.31972
G1 X104.410 Y110.129 E1328.51255
G1 X89.871 Y95.590 E1333.65280
G1 X89.871 Y94.819 E1333.84563
G1 X105.181 Y110.129 E1339.25858
G1 X105.953 Y110.129 E1339.45142
G1 X89.871 Y94.047 E1345.13708
G1 X89.871 Y93.276 E1345.32991
G1 X106.724 Y110.129 E1351.28828
G1 X107.495 Y110.129 E1351.48111
G1 X89.871 Y92.505 E1357.71219
G1 X89.871 Y91.733 E1357.90502
G1 X108.267 Y110.129 E1364.40881
G1 X109.038 Y110.129 E1364.60164
G1 X89.871 Y90.962 E1371.37813
G1 X89.871 Y90.191 E1371.57097
G1 X109.809 Y110.129 E1378.62017
G1 X110.129 Y109.677 E1378.75852
G1 X90.323 Y89.871 E1385.76080
G1 X91.095 Y89.871 E1385.95363
G1 X110.129 Y108.905 E1392.68319
G1 X110.129 Y108.134 E1392.87603
G1 X91.866 Y89.871 E1399.33288
G1 X92.637 Y89.871 E1399.52572
G1 X110.129 Y107.363 E1405.70986
G1 X110.129 Y106.591 E1405.90270
G1 X93.409 Y89.871 E1411.81414
G1 X94.180 Y89.871 E1412.00697
G1 X110.129 Y105.820 E1417.64571
G1 X110.129 Y105.049 E1417.83854
G1 X94.951 Y89.871 E1423.20456
G1 X95.723 Y89.871 E1423.39740
G1 X110.129 Y104.277 E1428.49072
G1 X110.129 Y103.506 E1428.68355
G1 X96.494 Y89.871 E1433.50416
G1 X97.265 Y89.871 E1433.69699
G1 X110.129 Y102.735 E1438.24490
G1 X110.129 Y101.963 E1438.43773
G1 X98.037 Y89.871 E1442.71292
G1 X98.808 Y89.871 E1442.90576
G1 X110.129 Y101.192 E1446.90824
G1 X110.129 Y100.421 E1447.10108
G1 X99.579 Y89.871 E1450.83086
G1 X100.351 Y89.871 E1451.02369
G1 X110.129 Y99.649 E1454.48076
G1 X110.129 Y98.878 E1454.67360
G1 X101.122 Y89.871 E1457.85796
G1 X101.893 Y89.871 E1458.05079
G1 X110.129 Y98.107 E1460.96245
G1 X110.129 Y97.335 E1461.15528
G1 X102.665 Y89.871 E1463.79423
G1 X103.436 Y89.871 E1463.98707
G1 X110.129 Y96.564 E1466.35331
G1 X110.129 Y95.793 E1466.54614
G1 X104.207 Y89.871 E1468.63968
G1 X104.979 Y89.871 E1468.83251
G1 X110.129 Y95.021 E1470.65334
G1 X110.129 Y94.250 E1470.84617
G1 X105.750 Y89.871 E1472.39429
G1 X106.521 Y89.871 E1472.58712
G1 X110.129 Y93.479 E1473.86253
G1 X110.129 Y92.707 E1474.05537
G1 X107.293 Y89.871 E1475.05807
G1 X108.064 Y89.871 E1475.25090
G1 X110.129 Y91.936 E1475.98090
G1 X110.129 Y91.165 E1476.17373
G1 X108.835 Y89.871 E1476.63102
G1 X109.607 Y89.871 E1476.82385
G1 X110.129 Y90.393 E1477.00843
G1 Z3.200 F7800.000
G1 X109.607 Y110.129 F7800.000
G1 X110.129 Y109.607 E1477.19301 F4800.000
G1 X110.129 Y108.835 E1477.38585
G1 X108.835 Y110.129 E1477.84313
G1 X108.064 Y110.129 E1478.03597
G1 X110.129 Y108.064 E1478.76596
G1 X110.129 Y107.293 E1478.95879
G1 X107.293 Y110.129 E1479.96150
G1 X106.521 Y110.129 E1480.15433
G1 X110.129 Y106.521 E1481.42974
G1 X110.129 Y105.750 E1481.62257
G1 X105.750 Y110.129 E1483.17069
G1 X104.979 Y110.129 E1483.36353
G1 X110.129 Y104.979 E1485.18435
G1 X110.129 Y104.207 E1485.37718
G1 X104.207 Y110.129 E1487.47072
G1 X103.436 Y110.129 E1487.66355
G1 X110.129 Y103.436 E1490.02979
G1 X110.129 Y102.665 E1490.22262
G1 X102.665 Y110.129 E1492.86157
G1 X101.893 Y110.129 E1493.05441
G1 X110.129 Y101.893 E1495.96606
G1 X110.129 Y101.122 E1496.15890
G1 X101.122 Y110.129 E1499.34326
G1 X100.351 Y110.129 E1499.53609
G1 X110.129 Y100.351 E1502.99316
G1 X110.129 Y99.579 E1503.18600
G1 X99.579 Y110.129 E1506.91578
G1 X98.808 Y110.129 E1507.10861
G1 X110.129 Y98.808 E1511.11110
G1 X110.129 Y98.037 E1511.30393
G1 X98.037 Y110.129 E1515.57913
G1 X97.265 Y110.129 E1515.77196
G1 X110.129 Y97.265 E1520.31986
G1 X110.129 Y96.494 E1520.51269
G1 X96.494 Y110.129 E1525.33330
G1 X95.723 Y110.129 E1525.52614
G1 X110.129 Y95.723 E1530.61946
G1 X110.129 Y94.951 E1530.81229
G1 X94.951 Y110.129 E1536.17831
G1 X94.180 Y110.129 E1536.37115
G1 X110.129 Y94.180 E1542.00988
G1 X110.129 Y93.409 E1542.20271
G1 X93.409 Y110.129 E1548.11415
G1 X92.637 Y110.129 E1548.30699
G1 X110.129 Y92.637 E1554.49114
G1 X110.129 Y91.866 E1554.68397
G1 X91.866 Y110.129 E1561.14083
G1 X91.095 Y110.129 E1561.33366
G1 X110.129 Y91.095 E1568.06322
G1 X110.129 Y90.323 E1568.25606
G1 X90.323 Y110.129 E1575.25833
G1 X89.871 Y109.809 E1575.39669
G1 X109.809 Y89.871 E1582.44589
G1 X109.038 Y89.871 E1582.63872
G1 X89.871 Y109.038 E1589.41521
G1 X89.871 Y108.267 E1589.60805
G1 X108.267 Y89.871 E1596.11183
G1 X107.495 Y89.871 E1596.30466
G1 X89.871 Y107.495 E1602.53574
G1 X89.871 Y106.724 E1602.72857
G1 X106.724 Y89.871 E1608.68694
G1 X105.953 Y89.871 E1608.87978
G1 X89.871 Y105.953 E1614.56544
G1 X89.871 Y105.181 E1614.75827
G1 X105.181 Y89.871 E1620.17122
G1 X104.410 Y89.871 E1620.36406
G1 X89.871 Y104.410 E1625.50430
G1 X89.871 Y103.639 E1625.69714
G1 X103.639 Y89.871 E1630.56467
G1 X102.867 Y89.871 E1630.75751
G1 X89.871 Y102.867 E1635.35234
G1 X89.871 Y102.096 E1635.54517
G1 X102.096 Y89.871 E1639.86729
G1 X101.325 Y89.871 E1640.06013
G1 X89.871 Y101.325 E1644.10954
G1 X89.871 Y100.553 E1644.30238
G1 X100.553 Y89.871 E1648.07908
G1 X99.782 Y89.871 E1648.27192
G1 X89.871 Y99.782 E1651.77592
G1 X89.871 Y99.011 E1651.96875
G1 X99.011 Y89.871 E1655.20004
G1 X98.239 Y89.871 E1655.39287
G1 X89.871 Y98.239 E1658.35146
G1 X89.871 Y97.468 E1658.54429
G1 X97.468 Y89.871 E1661.23017
G1 X96.697 Y89.871 E1661.42300
G1 X89.871 Y96.697 E1663.83617
G1 X89.871 Y95.925 E1664.02900
G1 X95.925 Y89.871 E1666.16947
G1 X95.154 Y89.871 E1666.36230
G1 X89.871 Y95.154 E1668.23005
G1 X89.871 Y94.383 E1668.42289
G1 X94.383 Y89.871 E1670.01793
G1 X93.611 Y89.871 E1670.21077
G1 X89.871 Y93.611 E1671.53310
G1 X89.871 Y92.840 E1671.72594
G1 X92.840 Y89.871 E1672.77557
G1 X92.069 Y89.871 E1672.96840
G1 X89.871 Y92.069 E1673.74532
G1 X89.871 Y91.297 E1673.93816
G1 X91.297 Y89.871 E1674.44237
G1 X90.526 Y89.871 E1674.63521
G1 X89.871 Y90.526 E1674.86671
G1 Z3.600 F7800.000
G1 X90.526 Y110.129 F7800.000
G1 X89.871 Y109.474 E1675.09822 F4800.000
G1 X89.871 Y108.703 E1675.29105
G1 X91.297 Y110.129 E1675.79527
G1 X92.069 Y110.129 E1675.98810
G1 X89.871 Y107.931 E1676.76502
G1 X89.871 Y107.160 E1676.95786
G1 X92.840 Y110.129 E1678.00749
G1 X93.611 Y110.129 E1678.20032
G1 X89.871 Y106.389 E1679.52266
G1 X89.871 Y105.617 E1679.71549
G1 X94.383 Y110.129 E1681.31054
G1 X95.154 Y110.129 E1681.50337
G1 X89.871 Y104.846 E1683.37112
G1 X89.871 Y104.075 E1683.56396
G1 X95.925 Y110.129 E1685.70442
G1 X96.697 Y110.129 E1685.89725
G1 X89.871 Y103.303 E1688.31042
G1 X89.871 Y102.532 E1688.50325
G1 X97.468 Y110.129 E1691.18913
G1 X98.239 Y110.129 E1691.38196
G1 X89.871 Y101.761 E1694.34054
G1 X89.871 Y100.989 E1694.53338
G1 X99.011 Y110.129 E1697.76467
G1 X99.782 Y110.129 E1697.95750
G1 X89.871 Y100.218 E1701.46150
G1 X89.871 Y99.447 E1701.65433
G1 X100.553 Y110.129 E1705.43104
G1 X101.325 Y110.129 E1705.62387
G1 X89.871 Y98.675 E1709.67329
G1 X89.871 Y97.904 E1709.86612
G1 X102.096 Y110.129 E1714.18824
G1 X102.867 Y110.129 E1714.38108
G1 X89.871 Y97.133 E1718.97591
G1 X89.871 Y96.361 E1719.16874
G1 X103.639 Y110.129 E1724.03628
G1 X104.410 Y110.129 E1724.22911
G1 X89.871 Y95.590 E1729.36936
G1 X89.871 Y94.819 E1729.56219
G1 X105.181 Y110.129 E1734.97514
G1 X105.953 Y110.129 E1735.16798
G1 X89.871 Y94.047 E1740.85364
G1 X89.871 Y93.276 E1741.04647
G1 X106.724 Y110.129 E1747.00484
G1 X107.495 Y110.129 E1747.19767
G1 X89.871 Y92.505 E1753.42875
G1 X89.871 Y91.733 E1753.62158
G1 X108.267 Y110.129 E1760.12537
G1 X109.038 Y110.129 E1760.31820
G1 X89.871 Y90.962 E1767.09469
G1 X89.871 Y90.191 E1767.28752
G1 X109.809 Y110.129 E1774.33672
G1 X110.129 Y109.677 E1774.47508
G1 X90.323 Y89.871 E1781.47735
G1 X91.095 Y89.871 E1781.67019
G1 X110.129 Y108.905 E1788.39975
G1 X110.129 Y108.134 E1788.59258
G1 X91.866 Y89.871 E1795.04944
G1 X92.637 Y89.871 E1795.24227
G1 X110.129 Y107.363 E1801.42642
G1 X110.129 Y106.591 E1801.61926
G1 X93.409 Y89.871 E1807.53070
G1 X94.180 Y89.871 E1807.72353
G1 X110.129 Y105.820 E1813.36226
G1 X110.129 Y105.049 E1813.55510
G1 X94.951 Y89.871 E1818.92112
G1 X95.723 Y89.871 E1819.11396
G1 X110.129 Y104.277 E1824.20727
G1 X110.129 Y103.506 E1824.40011
G1 X96.494 Y89.871 E1829.22072
G1 X97.265 Y89.871 E1829.41355
G1 X110.129 Y102.735 E1833.96145
G1 X110.129 Y101.963 E1834.15429
G1 X98.037 Y89.871 E1838.42948
G1 X98.808 Y89.871 E1838.62232
G1 X110.129 Y101.192 E1842.62480
G1 X110.129 Y100.421 E1842.81764
G1 X99.579 Y89.871 E1846.54742
G1 X100.351 Y89.871 E1846.74025
G1 X110.129 Y99.649 E1850.19732
G1 X110.129 Y98.878 E1850.39015
G1 X101.122 Y89.871 E1853.57452
G1 X101.893 Y89.871 E1853.76735
G1 X110.129 Y98.107 E1856.67901
G1 X110.129 Y97.335 E1856.87184
G1 X102.665 Y89.871 E1859.51079
G1 X103.436 Y89.871 E1859.70363
G1 X110.129 Y96.564 E1862.06987
G1 X110.129 Y95.793 E1862.26270
G1 X104.207 Y89.871 E1864.35623
G1 X104.979 Y89.871 E1864.54907
G1 X110.129 Y95.021 E1866.36989
G1 X110.129 Y94.250 E1866.56273
G1 X105.750 Y89.871 E1868.11085
G1 X106.521 Y89.871 E1868.30368
G1 X110.129 Y93.479 E1869.57909
G1 X110.129 Y92.707 E1869.77192
G1 X107.293 Y89.871 E1870.77463
G1 X108.064 Y89.871 E1870.96746
G1 X110.129 Y91.936 E1871.69746
G1 X110.129 Y91.165 E1871.89029
G1 X108.835 Y89.871 E1872.34758
G1 X109.607 Y89.871 E1872.54041
G1 X110.129 Y90.393 E1872.72499
G1 Z4.000 F7800.000
G1 X109.607 Y110.129 F7800.000
G1 X110.129 Y109.607 E1872.90957 F4800.000
G1 X110.129 Y108.835 E1873.10240
G1 X108.835 Y110.129 E1873.55969
G1 X108.064 Y110.129 E1873.75252
G1 X110.129 Y108.064 E1874.48252
G1 X110.129 Y107.293 E1874.67535
G1 X107.293 Y110.129 E1875.67806
G1 X106.521 Y110.129 E1875.87089
G1 X110.129 Y106.521 E1877.14630
G1 X110.129 Y105.750 E1877.33913
G1 X105.750 Y110.129 E1878.88725
G1 X104.979 Y110.129 E1879.08008
G1 X110.129 Y104.979 E1880.90091
G1 X110.129 Y104.207 E1881.09374
G1 X104.207 Y110.129 E1883.18728
G1 X103.436 Y110.129 E1883.38011
G1 X110.129 Y103.436 E1885.74635
G1 X110.129 Y102.665 E1885.93918
G1 X102.665 Y110.129 E1888.57813
G1 X101.893 Y110.129 E1888.77096
G1 X110.129 Y101.893 E1891.68262
G1 X110.129 Y101.122 E1891.87545
G1 X101.122 Y110.129 E1895.05982
G1 X100.351 Y110.129 E1895.25265
G1 X110.129 Y100.351 E1898.70972
G1 X110.129 Y99.579 E1898.90256
G1 X99.579 Y110.129 E1902.63234
G1 X98.808 Y110.129 E1902.82517
G1 X110.129 Y98.808 E1906.82766
G1 X110.129 Y98.037 E1907.02049
G1 X98.037 Y110.129 E1911.29568
G1 X97.265 Y110.129 E1911.48852
G1 X110.129 Y97.265 E1916.03642
G1 X110.129 Y96.494 E1916.22925
G1 X96.494 Y110.129 E1921.04986
G1 X95.723 Y110.129 E1921.24270
G1 X110.129 Y95.723 E1926.33601
G1 X110.129 Y94.951 E1926.52885
G1 X94.951 Y110.129 E1931.89487
G1 X94.180 Y110.129 E1932.08771
G1 X110.129 Y94.180 E1937.72644
G1 X110.129 Y93.409 E1937.91927
G1 X93.409 Y110.129 E1943.83071
G1 X92.637 Y110.129 E1944.02355
G1 X110.129 Y92.637 E1950.20769
G1 X110.129 Y91.866 E1950.40053
G1 X91.866 Y110.129 E1956.85738
G1 X91.095 Y110.129 E1957.05022
G1 X110.129 Y91.095 E1963.77978
G1 X110.129 Y90.323 E1963.97261
G1 X90.323 Y110.129 E1970.97489
G1 X89.871 Y109.809 E1971.11324
G1 X109.809 Y89.871 E1978.16244
G1 X109.038 Y89.871 E1978.35528
G1 X89.871 Y109.038 E1985.13177
G1 X89.871 Y108.267 E1985.32460
G1 X108.267 Y89.871 E1991.82839
G1 X107.495 Y89.871 E1992.02122
G1 X89.871 Y107.495 E1998.25230
G1 X89.871 Y106.724 E1998.44513
G1 X106.724 Y89.871 E2004.40350
G1 X105.953 Y89.871 E2004.59633
G1 X89.871 Y105.953 E2010.28199
G1 X89.871 Y105.181 E2010.47483
G1 X105.181 Y89.871 E2015.88778
G1 X104.410 Y89.871 E2016.08062
G1 X89.871 Y104.410 E2021.22086
G1 X89.871 Y103.639 E2021.41369
G1 X103.639 Y89.871 E2026.28123
G1 X102.867 Y89.871 E2026.47407
G1 X89.871 Y102.867 E2031.06890
G1 X89.871 Y102.096 E2031.26173
G1 X102.096 Y89.871 E2035.58385
G1 X101.325 Y89.871 E2035.77669
G1 X89.871 Y101.325 E2039.82610
G1 X89.871 Y100.553 E2040.01893
G1 X100.553 Y89.871 E2043.79564
G1 X99.782 Y89.871 E2043.98847
G1 X89.871 Y99.782 E2047.49247
G1 X89.871 Y99.011 E2047.68531
G1 X99.011 Y89.871 E2050.91660
G1 X98.239 Y89.871 E2051.10943
G1 X89.871 Y98.239 E2054.06802
G1 X89.871 Y97.468 E2054.26085
G1 X97.468 Y89.871 E2056.94673
G1 X96.697 Y89.871 E2057.13956
G1 X89.871 Y96.697 E2059.55273
G1 X89.871 Y95.925 E2059.74556
G1 X95.925 Y89.871 E2061.88602
G1 X95.154 Y89.871 E2062.07886
G1 X89.871 Y95.154 E2063.94661
G1 X89.871 Y94.383 E2064.13944
G1 X94.383 Y89.871 E2065.73449
G1 X93.611 Y89.871 E2065.92732
G1 X89.871 Y93.611 E2067.24966
G1 X89.871 Y92.840 E2067.44250
G1 X92.840 Y89.871 E2068.49213
G1 X92.069 Y89.871 E2068.68496
G1 X89.871 Y92.069 E2069.46188
G1 X89.871 Y91.297 E2069.65471
G1 X91.297 Y89.871 E2070.15893
G1 X90.526 Y89.871 E2070.35176
G1 X89.871 Y90.526 E2070.58327
