; generated by Slic3r 1.3.0 on 2019-11-06 at 15:00:09

; external perimeters extrusion width = 0.55mm (4.37mm^3/s)
; perimeters extrusion width = 0.70mm (11.44mm^3/s)
; infill extrusion width = 0.63mm (13.45mm^3/s)
; solid infill extrusion width = 0.70mm (3.81mm^3/s)
; top infill extrusion width = 0.70mm (2.86mm^3/s)

M107
M104 S205 ; set temperature
G28 ; home all axes
G1 Z5 F5000 ; lift nozzle

; Filament gcode

M109 S205 ; set temperature and wait for it to be reached
G21 ; set units to millimeters
G90 ; use absolute coordinates
M82 ; use absolute distances for extrusion
G92 E0
G1 Z0.300 F7800.000
G1 E-2.00000 F2400.00000
G92 E0
G1 X89.817 Y91.683 F7800.000
G1 E2.00000 F2400.00000
G1 F1800
G1 X91.683 Y89.817 E2.06000
G1 E0.06000 F2400.00000
G92 E0
G1 X94.326 Y89.817 F7800.000
G1 E2.00000 F2400.00000
G1 F1800
G1 X89.817 Y94.326 E2.14496
G1 E0.14496 F2400.00000
G92 E0
G1 X89.817 Y96.969 F7800.000
G1 E2.00000 F2400.00000
G1 F1800
G1 X96.969 Y89.817 E2.22992
G1 E0.22992 F2400.00000
G92 E0
G1 X99.612 Y89.817 F7800.000
G1 E2.00000 F2400.00000
G1 F1800
G1 X89.817 Y99.612 E2.31488
G1 E0.31488 F2400.00000
G92 E0
G1 X89.817 Y102.255 F7800.000
G1 E2.00000 F2400.00000
G1 F1800
G1 X102.255 Y89.817 E2.39984
G1 E0.39984 F2400.00000
G92 E0
G1 X104.897 Y89.817 F7800.000
G1 E2.00000 F2400.00000
G1 F1800
G1 X89.817 Y104.897 E2.48480
G1 E0.48480 F2400.00000
G92 E0
G1 X89.817 Y107.540 F7800.000
G1 E2.00000 F2400.00000
G1 F1800
G1 X107.540 Y89.817 E2.56977
G1 E0.56977 F2400.00000
G92 E0
G1 X110.183 Y89.817 F7800.000
G1 E2.00000 F2400.00000
G1 F1800
G1 X89.817 Y110.183 E2.65473
G1 X89.817 Y108.317 F7800.000
G1 F1800
G1 X91.683 Y110.183 E2.71472
G1 X94.326 Y110.183 E2.77480
G1 X89.817 Y105.674 E2.91976
G1 X89.817 Y103.031 E2.97984
G1 X96.969 Y110.183 E3.20976
G1 X99.612 Y110.183 E3.26983
G1 X89.817 Y100.388 E3.58472
G1 X89.817 Y97.745 E3.64479
G1 X102.255 Y110.183 E4.04464
G1 X104.897 Y110.183 E4.10471
G1 X89.817 Y95.103 E4.58952
G1 X89.817 Y92.460 E4.64959
G1 X107.540 Y110.183 E5.21936
G1 X110.183 Y110.183 E5.27944
G1 X89.817 Y89.817 E5.93416
G1 X92.460 Y89.817 E5.99424
G1 X110.183 Y107.540 E6.56401
G1 X110.183 Y104.897 E6.62408
G1 X95.103 Y89.817 E7.10889
G1 X97.745 Y89.817 E7.16896
G1 X110.183 Y102.255 E7.56881
G1 X110.183 Y99.612 E7.62888
G1 X100.388 Y89.817 E7.94377
G1 X103.031 Y89.817 E8.00384
G1 X110.183 Y96.969 E8.23376
G1 X110.183 Y94.326 E8.29384
G1 X105.674 Y89.817 E8.43880
G1 X108.317 Y89.817 E8.49888
G1 X110.183 Y91.683 E8.55887
G1 X110.183 Y92.460 F7800.000
G1 F1800
G1 X92.460 Y110.183 E9.12864
G1 E7.12864 F2400.00000
G92 E0
G1 X95.103 Y110.183 F7800.000
G1 E2.00000 F2400.00000
G1 F1800
G1 X110.183 Y95.103 E2.48480
G1 E0.48480 F2400.00000
G92 E0
G1 X110.183 Y97.745 F7800.000
G1 E2.00000 F2400.00000
G1 F1800
G1 X97.745 Y110.183 E2.39984
G1 E0.39984 F2400.00000
G92 E0
G1 X100.388 Y110.183 F7800.000
G1 E2.00000 F2400.00000
G1 F1800
G1 X110.183 Y100.388 E2.31488
G1 E0.31488 F2400.00000
G92 E0
G1 X110.183 Y103.031 F7800.000
G1 E2.00000 F2400.00000
G1 F1800
G1 X103.031 Y110.183 E2.22992
G1 E0.22992 F2400.00000
G92 E0
G1 X105.674 Y110.183 F7800.000
G1 E2.00000 F2400.00000
G1 F1800
G1 X110.183 Y105.674 E2.14496
G1 E0.14496 F2400.00000
G92 E0
G1 X110.183 Y108.317 F7800.000
G1 E2.00000 F2400.00000
G1 F1800
G1 X108.317 Y110.183 E2.06000
M104 S200 ; set temperature
G1 Z0.600 F7800.000
G1 X108.297 Y110.202 F7800.000
G1 F4800
G1 X110.202 Y108.297 E2.12410
G1 X110.202 Y105.654 F7800.000
G1 F4800
G1 X105.654 Y110.202 E2.27714
G1 X103.012 Y110.202 F7800.000
G1 F4800
G1 X110.202 Y103.012 E2.51910
G1 X110.202 Y100.369 F7800.000
G1 F4800
G1 X100.369 Y110.202 E2.84999
G1 X97.726 Y110.202 F7800.000
G1 F4800
G1 X110.202 Y97.726 E3.26980
G1 X110.202 Y95.083 F7800.000
G1 F4800
G1 X95.083 Y110.202 E3.77854
G1 X92.440 Y110.202 F7800.000
G1 F4800
G1 X110.202 Y92.440 E4.37621
G1 X110.202 Y91.703 F7800.000
G1 F4800
G1 X108.297 Y89.798 E4.44032
G1 X105.654 Y89.798 E4.50320
G1 X110.202 Y94.346 E4.65623
G1 X110.202 Y96.988 E4.71911
G1 X103.012 Y89.798 E4.96107
G1 X100.369 Y89.798 E5.02395
G1 X110.202 Y99.631 E5.35484
G1 X110.202 Y102.274 E5.41772
G1 X97.726 Y89.798 E5.83753
G1 X95.083 Y89.798 E5.90042
G1 X110.202 Y104.917 E6.40916
G1 X110.202 Y107.560 E6.47204
G1 X92.440 Y89.798 E7.06971
G1 X89.798 Y89.798 E7.13259
G1 X110.202 Y110.202 E7.81918
G1 X107.560 Y110.202 E7.88206
G1 X89.798 Y92.440 E8.47973
G1 X89.798 Y95.083 E8.54261
G1 X104.917 Y110.202 E9.05135
G1 X102.274 Y110.202 E9.11423
G1 X89.798 Y97.726 E9.53405
G1 X89.798 Y100.369 E9.59693
G1 X99.631 Y110.202 E9.92782
G1 X96.988 Y110.202 E9.99070
G1 X89.798 Y103.012 E10.23266
G1 X89.798 Y105.654 E10.29554
G1 X94.346 Y110.202 E10.44857
G1 X91.703 Y110.202 E10.51145
G1 X89.798 Y108.297 E10.57556
G1 X89.798 Y107.560 F7800.000
G1 F4800
G1 X107.560 Y89.798 E11.17323
G1 X104.917 Y89.798 F7800.000
G1 F4800
G1 X89.798 Y104.917 E11.68197
G1 X89.798 Y102.274 F7800.000
G1 F4800
G1 X102.274 Y89.798 E12.10178
G1 X99.631 Y89.798 F7800.000
G1 F4800
G1 X89.798 Y99.631 E12.43267
G1 X89.798 Y96.988 F7800.000
G1 F4800
G1 X96.988 Y89.798 E12.67463
G1 X94.346 Y89.798 F7800.000
G1 F4800
G1 X89.798 Y94.346 E12.82766
G1 X89.798 Y91.703 F7800.000
G1 F4800
G1 X91.703 Y89.798 E12.89177
G1 X110.202 Y89.798 F7800.000
G1 F4800
G1 X89.798 Y110.202 E13.57837
G1 Z0.900 F7800.000
G1 F4800
G1 X110.202 Y89.798 E14.26496
G1 X110.202 Y91.703 F7800.000
G1 F4800
G1 X108.297 Y89.798 E14.32907
G1 X105.654 Y89.798 E14.39195
G1 X110.202 Y94.346 E14.54498
G1 X110.202 Y96.988 E14.60786
G1 X103.012 Y89.798 E14.84982
G1 X100.369 Y89.798 E14.91270
G1 X110.202 Y99.631 E15.24359
G1 X110.202 Y102.274 E15.30647
G1 X97.726 Y89.798 E15.72629
G1 X95.083 Y89.798 E15.78917
G1 X110.202 Y104.917 E16.29791
G1 X110.202 Y107.560 E16.36079
G1 X92.440 Y89.798 E16.95846
G1 X89.798 Y89.798 E17.02134
G1 X110.202 Y110.202 E17.70793
G1 X107.560 Y110.202 E17.77081
G1 X89.798 Y92.440 E18.36848
G1 X89.798 Y95.083 E18.43136
G1 X104.917 Y110.202 E18.94010
G1 X102.274 Y110.202 E19.00299
G1 X89.798 Y97.726 E19.42280
G1 X89.798 Y100.369 E19.48568
G1 X99.631 Y110.202 E19.81657
G1 X96.988 Y110.202 E19.87945
G1 X89.798 Y103.012 E20.12141
G1 X89.798 Y105.654 E20.18429
G1 X94.346 Y110.202 E20.33732
G1 X91.703 Y110.202 E20.40020
G1 X89.798 Y108.297 E20.46431
G1 X89.798 Y107.560 F7800.000
G1 F4800
G1 X107.560 Y89.798 E21.06198
G1 X104.917 Y89.798 F7800.000
G1 F4800
G1 X89.798 Y104.917 E21.57072
G1 X89.798 Y102.274 F7800.000
G1 F4800
G1 X102.274 Y89.798 E21.99053
G1 X99.631 Y89.798 F7800.000
G1 F4800
G1 X89.798 Y99.631 E22.32142
G1 X89.798 Y96.988 F7800.000
G1 F4800
G1 X96.988 Y89.798 E22.56338
G1 X94.346 Y89.798 F7800.000
G1 F4800
G1 X89.798 Y94.346 E22.71642
G1 X89.798 Y91.703 F7800.000
G1 F4800
G1 X91.703 Y89.798 E22.78052
G1 X110.202 Y92.440 F7800.000
G1 F4800
G1 X92.440 Y110.202 E23.37819
G1 X95.083 Y110.202 F7800.000
G1 F4800
G1 X110.202 Y95.083 E23.88693
G1 X110.202 Y97.726 F7800.000
G1 F4800
G1 X97.726 Y110.202 E24.30675
G1 X100.369 Y110.202 F7800.000
G1 F4800
G1 X110.202 Y100.369 E24.63763
G1 X110.202 Y103.012 F7800.000
G1 F4800
G1 X103.012 Y110.202 E24.87959
G1 X105.654 Y110.202 F7800.000
G1 F4800
G1 X110.202 Y105.654 E25.03263
G1 X110.202 Y108.297 F7800.000
G1 F4800
G1 X108.297 Y110.202 E25.09673
M106 S249.9
G1 Z1.200 F7800.000
G1 F4800
G1 X110.202 Y108.297 E25.16084
G1 X110.202 Y105.654 F7800.000
G1 F4800
G1 X105.654 Y110.202 E25.31387
G1 X103.012 Y110.202 F7800.000
G1 F4800
G1 X110.202 Y103.012 E25.55583
G1 X110.202 Y100.369 F7800.000
G1 F4800
G1 X100.369 Y110.202 E25.88672
G1 X97.726 Y110.202 F7800.000
G1 F4800
G1 X110.202 Y97.726 E26.30654
G1 X110.202 Y95.083 F7800.000
G1 F4800
G1 X95.083 Y110.202 E26.81528
G1 X92.440 Y110.202 F7800.000
G1 F4800
G1 X110.202 Y92.440 E27.41295
G1 X110.202 Y91.703 F7800.000
G1 F4800
G1 X108.297 Y89.798 E27.47705
G1 X105.654 Y89.798 E27.53993
G1 X110.202 Y94.346 E27.69297
G1 X110.202 Y96.988 E27.75585
G1 X103.012 Y89.798 E27.99781
G1 X100.369 Y89.798 E28.06069
G1 X110.202 Y99.631 E28.39158
G1 X110.202 Y102.274 E28.45446
G1 X97.726 Y89.798 E28.87427
G1 X95.083 Y89.798 E28.93715
G1 X110.202 Y104.917 E29.44589
G1 X110.202 Y107.560 E29.50877
G1 X92.440 Y89.798 E30.10644
G1 X89.798 Y89.798 E30.16932
G1 X110.202 Y110.202 E30.85592
G1 X107.560 Y110.202 E30.91880
G1 X89.798 Y92.440 E31.51647
G1 X89.798 Y95.083 E31.57935
G1 X104.917 Y110.202 E32.08809
G1 X102.274 Y110.202 E32.15097
G1 X89.798 Y97.726 E32.57078
G1 X89.798 Y100.369 E32.63367
G1 X99.631 Y110.202 E32.96455
G1 X96.988 Y110.202 E33.02743
G1 X89.798 Y103.012 E33.26939
G1 X89.798 Y105.654 E33.33227
G1 X94.346 Y110.202 E33.48531
G1 X91.703 Y110.202 E33.54819
G1 X89.798 Y108.297 E33.61230
G1 X89.798 Y107.560 F7800.000
G1 F4800
G1 X107.560 Y89.798 E34.20996
G1 X104.917 Y89.798 F7800.000
G1 F4800
G1 X89.798 Y104.917 E34.71871
G1 X89.798 Y102.274 F7800.000
G1 F4800
G1 X102.274 Y89.798 E35.13852
G1 X99.631 Y89.798 F7800.000
G1 F4800
G1 X89.798 Y99.631 E35.46941
G1 X89.798 Y96.988 F7800.000
G1 F4800
G1 X96.988 Y89.798 E35.71137
G1 X94.346 Y89.798 F7800.000
G1 F4800
G1 X89.798 Y94.346 E35.86440
G1 X89.798 Y91.703 F7800.000
G1 F4800
G1 X91.703 Y89.798 E35.92851
G1 X110.202 Y89.798 F7800.000
G1 F4800
G1 X89.798 Y110.202 E36.61510
G1 Z1.500 F7800.000
G1 F4800
G1 X110.202 Y89.798 E37.30170
G1 X110.202 Y91.703 F7800.000
G1 F4800
G1 X108.297 Y89.798 E37.36580
G1 X105.654 Y89.798 E37.42868
G1 X110.202 Y94.346 E37.58172
G1 X110.202 Y96.988 E37.64460
G1 X103.012 Y89.798 E37.88656
G1 X100.369 Y89.798 E37.94944
G1 X110.202 Y99.631 E38.28033
G1 X110.202 Y102.274 E38.34321
G1 X97.726 Y89.798 E38.76302
G1 X95.083 Y89.798 E38.82590
G1 X110.202 Y104.917 E39.33465
G1 X110.202 Y107.560 E39.39753
G1 X92.440 Y89.798 E39.99519
G1 X89.798 Y89.798 E40.05807
G1 X110.202 Y110.202 E40.74467
G1 X107.560 Y110.202 E40.80755
G1 X89.798 Y92.440 E41.40522
G1 X89.798 Y95.083 E41.46810
G1 X104.917 Y110.202 E41.97684
G1 X102.274 Y110.202 E42.03972
G1 X89.798 Y97.726 E42.45954
G1 X89.798 Y100.369 E42.52242
G1 X99.631 Y110.202 E42.85330
G1 X96.988 Y110.202 E42.91619
G1 X89.798 Y103.012 E43.15815
G1 X89.798 Y105.654 E43.22103
G1 X94.346 Y110.202 E43.37406
G1 X91.703 Y110.202 E43.43694
G1 X89.798 Y108.297 E43.50105
G1 X89.798 Y107.560 F7800.000
G1 F4800
G1 X107.560 Y89.798 E44.09872
G1 X104.917 Y89.798 F7800.000
G1 F4800
G1 X89.798 Y104.917 E44.60746
G1 X89.798 Y102.274 F7800.000
G1 F4800
G1 X102.274 Y89.798 E45.02727
G1 X99.631 Y89.798 F7800.000
G1 F4800
G1 X89.798 Y99.631 E45.35816
G1 X89.798 Y96.988 F7800.000
G1 F4800
G1 X96.988 Y89.798 E45.60012
G1 X94.346 Y89.798 F7800.000
G1 F4800
G1 X89.798 Y94.346 E45.75315
G1 X89.798 Y91.703 F7800.000
G1 F4800
G1 X91.703 Y89.798 E45.81726
G1 X110.202 Y92.440 F7800.000
G1 F4800
G1 X92.440 Y110.202 E46.41493
G1 X95.083 Y110.202 F7800.000
G1 F4800
G1 X110.202 Y95.083 E46.92367
G1 X110.202 Y97.726 F7800.000
G1 F4800
G1 X97.726 Y110.202 E47.34348
G1 X100.369 Y110.202 F7800.000
G1 F4800
G1 X110.202 Y100.369 E47.67437
G1 X110.202 Y103.012 F7800.000
G1 F4800
G1 X103.012 Y110.202 E47.91633
G1 X105.654 Y110.202 F7800.000
G1 F4800
G1 X110.202 Y105.654 E48.06936
G1 X110.202 Y108.297 F7800.000
G1 F4800
G1 X108.297 Y110.202 E48.13347
G1 Z1.800 F7800.000
G1 F4800
G1 X110.202 Y108.297 E48.19758
G1 X110.202 Y105.654 F7800.000
G1 F4800
G1 X105.654 Y110.202 E48.35061
G1 X103.012 Y110.202 F7800.000
G1 F4800
G1 X110.202 Y103.012 E48.59257
G1 X110.202 Y100.369 F7800.000
G1 F4800
G1 X100.369 Y110.202 E48.92346
G1 X97.726 Y110.202 F7800.000
G1 F4800
G1 X110.202 Y97.726 E49.34327
G1 X110.202 Y95.083 F7800.000
G1 F4800
G1 X95.083 Y110.202 E49.85201
G1 X92.440 Y110.202 F7800.000
G1 F4800
G1 X110.202 Y92.440 E50.44968
G1 X110.202 Y91.703 F7800.000
G1 F4800
G1 X108.297 Y89.798 E50.51379
G1 X105.654 Y89.798 E50.57667
G1 X110.202 Y94.346 E50.72970
G1 X110.202 Y96.988 E50.79258
G1 X103.012 Y89.798 E51.03454
G1 X100.369 Y89.798 E51.09742
G1 X110.202 Y99.631 E51.42831
G1 X110.202 Y102.274 E51.49119
G1 X97.726 Y89.798 E51.91101
G1 X95.083 Y89.798 E51.97389
G1 X110.202 Y104.917 E52.48263
G1 X110.202 Y107.560 E52.54551
G1 X92.440 Y89.798 E53.14318
G1 X89.798 Y89.798 E53.20606
G1 X110.202 Y110.202 E53.89265
G1 X107.560 Y110.202 E53.95554
G1 X89.798 Y92.440 E54.55320
G1 X89.798 Y95.083 E54.61608
G1 X104.917 Y110.202 E55.12483
G1 X102.274 Y110.202 E55.18771
G1 X89.798 Y97.726 E55.60752
G1 X89.798 Y100.369 E55.67040
G1 X99.631 Y110.202 E56.00129
G1 X96.988 Y110.202 E56.06417
G1 X89.798 Y103.012 E56.30613
G1 X89.798 Y105.654 E56.36901
G1 X94.346 Y110.202 E56.52204
G1 X91.703 Y110.202 E56.58493
G1 X89.798 Y108.297 E56.64903
G1 X89.798 Y107.560 F7800.000
G1 F4800
G1 X107.560 Y89.798 E57.24670
G1 X104.917 Y89.798 F7800.000
G1 F4800
G1 X89.798 Y104.917 E57.75544
G1 X89.798 Y102.274 F7800.000
G1 F4800
G1 X102.274 Y89.798 E58.17526
G1 X99.631 Y89.798 F7800.000
G1 F4800
G1 X89.798 Y99.631 E58.50614
G1 X89.798 Y96.988 F7800.000
G1 F4800
G1 X96.988 Y89.798 E58.74810
G1 X94.346 Y89.798 F7800.000
G1 F4800
G1 X89.798 Y94.346 E58.90114
G1 X89.798 Y91.703 F7800.000
G1 F4800
G1 X91.703 Y89.798 E58.96524
G1 X110.202 Y89.798 F7800.000
G1 F4800
G1 X89.798 Y110.202 E59.65184
G1 Z2.100 F7800.000
G1 F4800
G1 X110.202 Y89.798 E60.33843
G1 X110.202 Y91.703 F7800.000
G1 F4800
G1 X108.297 Y89.798 E60.40254
G1 X105.654 Y89.798 E60.46542
G1 X110.202 Y94.346 E60.61845
G1 X110.202 Y96.988 E60.68134
G1 X103.012 Y89.798 E60.92330
G1 X100.369 Y89.798 E60.98618
G1 X110.202 Y99.631 E61.31706
G1 X110.202 Y102.274 E61.37995
G1 X97.726 Y89.798 E61.79976
G1 X95.083 Y89.798 E61.86264
G1 X110.202 Y104.917 E62.37138
G1 X110.202 Y107.560 E62.43426
G1 X92.440 Y89.798 E63.03193
G1 X89.798 Y89.798 E63.09481
G1 X110.202 Y110.202 E63.78141
G1 X107.560 Y110.202 E63.84429
G1 X89.798 Y92.440 E64.44196
G1 X89.798 Y95.083 E64.50484
G1 X104.917 Y110.202 E65.01358
G1 X102.274 Y110.202 E65.07646
G1 X89.798 Y97.726 E65.49627
G1 X89.798 Y100.369 E65.55915
G1 X99.631 Y110.202 E65.89004
G1 X96.988 Y110.202 E65.95292
G1 X89.798 Y103.012 E66.19488
G1 X89.798 Y105.654 E66.25776
G1 X94.346 Y110.202 E66.41080
G1 X91.703 Y110.202 E66.47368
G1 X89.798 Y108.297 E66.53778
G1 X89.798 Y107.560 F7800.000
G1 F4800
G1 X107.560 Y89.798 E67.13545
G1 X104.917 Y89.798 F7800.000
G1 F4800
G1 X89.798 Y104.917 E67.64419
G1 X89.798 Y102.274 F7800.000
G1 F4800
G1 X102.274 Y89.798 E68.06401
G1 X99.631 Y89.798 F7800.000
G1 F4800
G1 X89.798 Y99.631 E68.39490
G1 X89.798 Y96.988 F7800.000
G1 F4800
G1 X96.988 Y89.798 E68.63686
G1 X94.346 Y89.798 F7800.000
G1 F4800
G1 X89.798 Y94.346 E68.78989
G1 X89.798 Y91.703 F7800.000
G1 F4800
G1 X91.703 Y89.798 E68.85400
G1 X110.202 Y92.440 F7800.000
G1 F4800
G1 X92.440 Y110.202 E69.45166
G1 X95.083 Y110.202 F7800.000
G1 F4800
G1 X110.202 Y95.083 E69.96041
G1 X110.202 Y97.726 F7800.000
G1 F4800
G1 X97.726 Y110.202 E70.38022
G1 X100.369 Y110.202 F7800.000
G1 F4800
G1 X110.202 Y100.369 E70.71111
G1 X110.202 Y103.012 F7800.000
G1 F4800
G1 X103.012 Y110.202 E70.95307
G1 X105.654 Y110.202 F7800.000
G1 F4800
G1 X110.202 Y105.654 E71.10610
G1 X110.202 Y108.297 F7800.000
G1 F4800
G1 X108.297 Y110.202 E71.17021
G1 Z2.400 F7800.000
G1 F4800
G1 X110.202 Y108.297 E71.23431
G1 X110.202 Y105.654 F7800.000
G1 F4800
G1 X105.654 Y110.202 E71.38735
G1 X103.012 Y110.202 F7800.000
G1 F4800
G1 X110.202 Y103.012 E71.62931
G1 X110.202 Y100.369 F7800.000
G1 F4800
G1 X100.369 Y110.202 E71.96019
G1 X97.726 Y110.202 F7800.000
G1 F4800
G1 X110.202 Y97.726 E72.38001
G1 X110.202 Y95.083 F7800.000
G1 F4800
G1 X95.083 Y110.202 E72.88875
G1 X92.440 Y110.202 F7800.000
G1 F4800
G1 X110.202 Y92.440 E73.48642
G1 X110.202 Y91.703 F7800.000
G1 F4800
G1 X108.297 Y89.798 E73.55052
G1 X105.654 Y89.798 E73.61341
G1 X110.202 Y94.346 E73.76644
G1 X110.202 Y96.988 E73.82932
G1 X103.012 Y89.798 E74.07128
G1 X100.369 Y89.798 E74.13416
G1 X110.202 Y99.631 E74.46505
G1 X110.202 Y102.274 E74.52793
G1 X97.726 Y89.798 E74.94774
G1 X95.083 Y89.798 E75.01062
G1 X110.202 Y104.917 E75.51937
G1 X110.202 Y107.560 E75.58225
G1 X92.440 Y89.798 E76.17992
G1 X89.798 Y89.798 E76.24280
G1 X110.202 Y110.202 E76.92939
G1 X107.560 Y110.202 E76.99227
G1 X89.798 Y92.440 E77.58994
G1 X89.798 Y95.083 E77.65282
G1 X104.917 Y110.202 E78.16156
G1 X102.274 Y110.202 E78.22444
G1 X89.798 Y97.726 E78.64426
G1 X89.798 Y100.369 E78.70714
G1 X99.631 Y110.202 E79.03803
G1 X96.988 Y110.202 E79.10091
G1 X89.798 Y103.012 E79.34287
G1 X89.798 Y105.654 E79.40575
G1 X94.346 Y110.202 E79.55878
G1 X91.703 Y110.202 E79.62166
G1 X89.798 Y108.297 E79.68577
G1 X89.798 Y107.560 F7800.000
G1 F4800
G1 X107.560 Y89.798 E80.28344
G1 X104.917 Y89.798 F7800.000
G1 F4800
G1 X89.798 Y104.917 E80.79218
G1 X89.798 Y102.274 F7800.000
G1 F4800
G1 X102.274 Y89.798 E81.21199
G1 X99.631 Y89.798 F7800.000
G1 F4800
G1 X89.798 Y99.631 E81.54288
G1 X89.798 Y96.988 F7800.000
G1 F4800
G1 X96.988 Y89.798 E81.78484
G1 X94.346 Y89.798 F7800.000
G1 F4800
G1 X89.798 Y94.346 E81.93787
G1 X89.798 Y91.703 F7800.000
G1 F4800
G1 X91.703 Y89.798 E82.00198
G1 X110.202 Y89.798 F7800.000
G1 F4800
G1 X89.798 Y110.202 E82.68858
G1 Z2.700 F7800.000
G1 F4800
G1 X110.202 Y89.798 E83.37517
G1 X110.202 Y91.703 F7800.000
G1 F4800
G1 X108.297 Y89.798 E83.43928
G1 X105.654 Y89.798 E83.50216
G1 X110.202 Y94.346 E83.65519
G1 X110.202 Y96.988 E83.71807
G1 X103.012 Y89.798 E83.96003
G1 X100.369 Y89.798 E84.02291
G1 X110.202 Y99.631 E84.35380
G1 X110.202 Y102.274 E84.41668
G1 X97.726 Y89.798 E84.83650
G1 X95.083 Y89.798 E84.89938
G1 X110.202 Y104.917 E85.40812
G1 X110.202 Y107.560 E85.47100
G1 X92.440 Y89.798 E86.06867
G1 X89.798 Y89.798 E86.13155
G1 X110.202 Y110.202 E86.81814
G1 X107.560 Y110.202 E86.88102
G1 X89.798 Y92.440 E87.47869
G1 X89.798 Y95.083 E87.54157
G1 X104.917 Y110.202 E88.05031
G1 X102.274 Y110.202 E88.11320
G1 X89.798 Y97.726 E88.53301
G1 X89.798 Y100.369 E88.59589
G1 X99.631 Y110.202 E88.92678
G1 X96.988 Y110.202 E88.98966
G1 X89.798 Y103.012 E89.23162
G1 X89.798 Y105.654 E89.29450
G1 X94.346 Y110.202 E89.44753
G1 X91.703 Y110.202 E89.51041
G1 X89.798 Y108.297 E89.57452
G1 X89.798 Y107.560 F7800.000
G1 F4800
G1 X107.560 Y89.798 E90.17219
G1 X104.917 Y89.798 F7800.000
G1 F4800
G1 X89.798 Y104.917 E90.68093
G1 X89.798 Y102.274 F7800.000
G1 F4800
G1 X102.274 Y89.798 E91.10074
G1 X99.631 Y89.798 F7800.000
G1 F4800
G1 X89.798 Y99.631 E91.43163
G1 X89.798 Y96.988 F7800.000
G1 F4800
G1 X96.988 Y89.798 E91.67359
G1 X94.346 Y89.798 F7800.000
G1 F4800
G1 X89.798 Y94.346 E91.82663
G1 X89.798 Y91.703 F7800.000
G1 F4800
G1 X91.703 Y89.798 E91.89073
G1 X110.202 Y92.440 F7800.000
G1 F4800
G1 X92.440 Y110.202 E92.48840
G1 X95.083 Y110.202 F7800.000
G1 F4800
G1 X110.202 Y95.083 E92.99714
G1 X110.202 Y97.726 F7800.000
G1 F4800
G1 X97.726 Y110.202 E93.41696
G1 X100.369 Y110.202 F7800.000
G1 F4800
G1 X110.202 Y100.369 E93.74784
G1 X110.202 Y103.012 F7800.000
G1 F4800
G1 X103.012 Y110.202 E93.98980
G1 X105.654 Y110.202 F7800.000
G1 F4800
G1 X110.202 Y105.654 E94.14284
G1 X110.202 Y108.297 F7800.000
G1 F4800
G1 X108.297 Y110.202 E94.20694
G1 Z3.000 F7800.000
G1 F4800
G1 X110.202 Y108.297 E94.27105
G1 X110.202 Y105.654 F7800.000
G1 F4800
G1 X105.654 Y110.202 E94.42408
G1 X103.012 Y110.202 F7800.000
G1 F4800
G1 X110.202 Y103.012 E94.66604
G1 X110.202 Y100.369 F7800.000
G1 F4800
G1 X100.369 Y110.202 E94.99693
G1 X97.726 Y110.202 F7800.000
G1 F4800
G1 X110.202 Y97.726 E95.41675
G1 X110.202 Y95.083 F7800.000
G1 F4800
G1 X95.083 Y110.202 E95.92549
G1 X92.440 Y110.202 F7800.000
G1 F4800
G1 X110.202 Y92.440 E96.52315
G1 X110.202 Y91.703 F7800.000
G1 F4800
G1 X108.297 Y89.798 E96.58726
G1 X105.654 Y89.798 E96.65014
G1 X110.202 Y94.346 E96.80318
G1 X110.202 Y96.988 E96.86606
G1 X103.012 Y89.798 E97.10802
G1 X100.369 Y89.798 E97.17090
G1 X110.202 Y99.631 E97.50179
G1 X110.202 Y102.274 E97.56467
G1 X97.726 Y89.798 E97.98448
G1 X95.083 Y89.798 E98.04736
G1 X110.202 Y104.917 E98.55610
G1 X110.202 Y107.560 E98.61898
G1 X92.440 Y89.798 E99.21665
G1 X89.798 Y89.798 E99.27953
G1 X110.202 Y110.202 E99.96613
G1 X107.560 Y110.202 E100.02901
G1 X89.798 Y92.440 E100.62668
G1 X89.798 Y95.083 E100.68956
G1 X104.917 Y110.202 E101.19830
G1 X102.274 Y110.202 E101.26118
G1 X89.798 Y97.726 E101.68099
G1 X89.798 Y100.369 E101.74387
G1 X99.631 Y110.202 E102.07476
G1 X96.988 Y110.202 E102.13764
G1 X89.798 Y103.012 E102.37960
G1 X89.798 Y105.654 E102.44248
G1 X94.346 Y110.202 E102.59552
G1 X91.703 Y110.202 E102.65840
G1 X89.798 Y108.297 E102.72251
G1 X89.798 Y107.560 F7800.000
G1 F4800
G1 X107.560 Y89.798 E103.32017
G1 X104.917 Y89.798 F7800.000
G1 F4800
G1 X89.798 Y104.917 E103.82891
G1 X89.798 Y102.274 F7800.000
G1 F4800
G1 X102.274 Y89.798 E104.24873
G1 X99.631 Y89.798 F7800.000
G1 F4800
G1 X89.798 Y99.631 E104.57962
G1 X89.798 Y96.988 F7800.000
G1 F4800
G1 X96.988 Y89.798 E104.82158
G1 X94.346 Y89.798 F7800.000
G1 F4800
G1 X89.798 Y94.346 E104.97461
G1 X89.798 Y91.703 F7800.000
G1 F4800
G1 X91.703 Y89.798 E105.03872
G1 X110.202 Y89.798 F7800.000
G1 F4800
G1 X89.798 Y110.202 E105.72531
G1 Z3.300 F7800.000
G1 F4800
G1 X110.202 Y89.798 E106.41191
G1 X110.202 Y91.703 F7800.000
G1 F4800
G1 X108.297 Y89.798 E106.47601
G1 X105.654 Y89.798 E106.53889
G1 X110.202 Y94.346 E106.69193
G1 X110.202 Y96.988 E106.75481
G1 X103.012 Y89.798 E106.99677
G1 X100.369 Y89.798 E107.05965
G1 X110.202 Y99.631 E107.39054
G1 X110.202 Y102.274 E107.45342
G1 X97.726 Y89.798 E107.87323
G1 X95.083 Y89.798 E107.93611
G1 X110.202 Y104.917 E108.44485
G1 X110.202 Y107.560 E108.50774
G1 X92.440 Y89.798 E109.10540
G1 X89.798 Y89.798 E109.16828
G1 X110.202 Y110.202 E109.85488
G1 X107.560 Y110.202 E109.91776
G1 X89.798 Y92.440 E110.51543
G1 X89.798 Y95.083 E110.57831
G1 X104.917 Y110.202 E111.08705
G1 X102.274 Y110.202 E111.14993
G1 X89.798 Y97.726 E111.56975
G1 X89.798 Y100.369 E111.63263
G1 X99.631 Y110.202 E111.96351
G1 X96.988 Y110.202 E112.02640
G1 X89.798 Y103.012 E112.26836
G1 X89.798 Y105.654 E112.33124
G1 X94.346 Y110.202 E112.48427
G1 X91.703 Y110.202 E112.54715
G1 X89.798 Y108.297 E112.61126
G1 X89.798 Y107.560 F7800.000
G1 F4800
G1 X107.560 Y89.798 E113.20893
G1 X104.917 Y89.798 F7800.000
G1 F4800
G1 X89.798 Y104.917 E113.71767
G1 X89.798 Y102.274 F7800.000
G1 F4800
G1 X102.274 Y89.798 E114.13748
G1 X99.631 Y89.798 F7800.000
G1 F4800
G1 X89.798 Y99.631 E114.46837
G1 X89.798 Y96.988 F7800.000
G1 F4800
G1 X96.988 Y89.798 E114.71033
G1 X94.346 Y89.798 F7800.000
G1 F4800
G1 X89.798 Y94.346 E114.86336
G1 X89.798 Y91.703 F7800.000
G1 F4800
G1 X91.703 Y89.798 E114.92747
G1 X110.202 Y92.440 F7800.000
G1 F4800
G1 X92.440 Y110.202 E115.52514
G1 X95.083 Y110.202 F7800.000
G1 F4800
G1 X110.202 Y95.083 E116.03388
G1 X110.202 Y97.726 F7800.000
G1 F4800
G1 X97.726 Y110.202 E116.45369
G1 X100.369 Y110.202 F7800.000
G1 F4800
G1 X110.202 Y100.369 E116.78458
G1 X110.202 Y103.012 F7800.000
G1 F4800
G1 X103.012 Y110.202 E117.02654
G1 X105.654 Y110.202 F7800.000
G1 F4800
G1 X110.202 Y105.654 E117.17957
G1 X110.202 Y108.297 F7800.000
G1 F4800
G1 X108.297 Y110.202 E117.24368
G1 Z3.600 F7800.000
G1 F4800
G1 X110.202 Y108.297 E117.30779
G1 X110.202 Y105.654 F7800.000
G1 F4800
G1 X105.654 Y110.202 E117.46082
G1 X103.012 Y110.202 F7800.000
G1 F4800
G1 X110.202 Y103.012 E117.70278
G1 X110.202 Y100.369 F7800.000
G1 F4800
G1 X100.369 Y110.202 E118.03367
G1 X97.726 Y110.202 F7800.000
G1 F4800
G1 X110.202 Y97.726 E118.45348
G1 X110.202 Y95.083 F7800.000
G1 F4800
G1 X95.083 Y110.202 E118.96222
G1 X92.440 Y110.202 F7800.000
G1 F4800
G1 X110.202 Y92.440 E119.55989
G1 X110.202 Y91.703 F7800.000
G1 F4800
G1 X108.297 Y89.798 E119.62400
G1 X105.654 Y89.798 E119.68688
G1 X110.202 Y94.346 E119.83991
G1 X110.202 Y96.988 E119.90279
G1 X103.012 Y89.798 E120.14475
G1 X100.369 Y89.798 E120.20763
G1 X110.202 Y99.631 E120.53852
G1 X110.202 Y102.274 E120.60140
G1 X97.726 Y89.798 E121.02122
G1 X95.083 Y89.798 E121.08410
G1 X110.202 Y104.917 E121.59284
G1 X110.202 Y107.560 E121.65572
G1 X92.440 Y89.798 E122.25339
G1 X89.798 Y89.798 E122.31627
G1 X110.202 Y110.202 E123.00286
G1 X107.560 Y110.202 E123.06575
G1 X89.798 Y92.440 E123.66341
G1 X89.798 Y95.083 E123.72629
G1 X104.917 Y110.202 E124.23504
G1 X102.274 Y110.202 E124.29792
G1 X89.798 Y97.726 E124.71773
G1 X89.798 Y100.369 E124.78061
G1 X99.631 Y110.202 E125.11150
G1 X96.988 Y110.202 E125.17438
G1 X89.798 Y103.012 E125.41634
G1 X89.798 Y105.654 E125.47922
G1 X94.346 Y110.202 E125.63225
G1 X91.703 Y110.202 E125.69514
G1 X89.798 Y108.297 E125.75924
G1 X89.798 Y107.560 F7800.000
G1 F4800
G1 X107.560 Y89.798 E126.35691
G1 X104.917 Y89.798 F7800.000
G1 F4800
G1 X89.798 Y104.917 E126.86565
G1 X89.798 Y102.274 F7800.000
G1 F4800
G1 X102.274 Y89.798 E127.28547
G1 X99.631 Y89.798 F7800.000
G1 F4800
G1 X89.798 Y99.631 E127.61635
G1 X89.798 Y96.988 F7800.000
G1 F4800
G1 X96.988 Y89.798 E127.85831
G1 X94.346 Y89.798 F7800.000
G1 F4800
G1 X89.798 Y94.346 E128.01135
G1 X89.798 Y91.703 F7800.000
G1 F4800
G1 X91.703 Y89.798 E128.07545
G1 X110.202 Y89.798 F7800.000
G1 F4800
G1 X89.798 Y110.202 E128.76205
G1 Z3.900 F7800.000
G1 F4800
G1 X110.202 Y89.798 E129.44864
G1 X110.202 Y91.703 F7800.000
G1 F4800
G1 X108.297 Y89.798 E129.51275
G1 X105.654 Y89.798 E129.57563
G1 X110.202 Y94.346 E129.72866
G1 X110.202 Y96.988 E129.79155
G1 X103.012 Y89.798 E130.03351
G1 X100.369 Y89.798 E130.09639
G1 X110.202 Y99.631 E130.42727
G1 X110.202 Y102.274 E130.49015
G1 X97.726 Y89.798 E130.90997
G1 X95.083 Y89.798 E130.97285
G1 X110.202 Y104.917 E131.48159
G1 X110.202 Y107.560 E131.54447
G1 X92.440 Y89.798 E132.14214
G1 X89.798 Y89.798 E132.20502
G1 X110.202 Y110.202 E132.89162
G1 X107.560 Y110.202 E132.95450
G1 X89.798 Y92.440 E133.55217
G1 X89.798 Y95.083 E133.61505
G1 X104.917 Y110.202 E134.12379
G1 X102.274 Y110.202 E134.18667
G1 X89.798 Y97.726 E134.60648
G1 X89.798 Y100.369 E134.66936
G1 X99.631 Y110.202 E135.00025
G1 X96.988 Y110.202 E135.06313
G1 X89.798 Y103.012 E135.30509
G1 X89.798 Y105.654 E135.36797
G1 X94.346 Y110.202 E135.52101
G1 X91.703 Y110.202 E135.58389
G1 X89.798 Y108.297 E135.64799
G1 X89.798 Y107.560 F7800.000
G1 F4800
G1 X107.560 Y89.798 E136.24566
G1 X104.917 Y89.798 F7800.000
G1 F4800
G1 X89.798 Y104.917 E136.75440
G1 X89.798 Y102.274 F7800.000
G1 F4800
G1 X102.274 Y89.798 E137.17422
G1 X99.631 Y89.798 F7800.000
G1 F4800
G1 X89.798 Y99.631 E137.50510
G1 X89.798 Y96.988 F7800.000
G1 F4800
G1 X96.988 Y89.798 E137.74707
G1 X94.346 Y89.798 F7800.000
G1 F4800
G1 X89.798 Y94.346 E137.90010
G1 X89.798 Y91.703 F7800.000
G1 F4800
G1 X91.703 Y89.798 E137.96421
G1 X110.202 Y92.440 F7800.000
G1 F4800
G1 X92.440 Y110.202 E138.56187
G1 X95.083 Y110.202 F7800.000
G1 F4800
G1 X110.202 Y95.083 E139.07061
G1 X110.202 Y97.726 F7800.000
G1 F4800
G1 X97.726 Y110.202 E139.49043
G1 X100.369 Y110.202 F7800.000
G1 F4800
G1 X110.202 Y100.369 E139.82132
G1 X110.202 Y103.012 F7800.000
G1 F4800
G1 X103.012 Y110.202 E140.06328
G1 X105.654 Y110.202 F7800.000
G1 F4800
G1 X110.202 Y105.654 E140.21631
G1 X110.202 Y108.297 F7800.000
G1 F4800
G1 X108.297 Y110.202 E140.28042
G1 Z4.200 F7800.000
G1 F4800
G1 X110.202 Y108.297 E140.34452
G1 X110.202 Y105.654 F7800.000
G1 F4800
G1 X105.654 Y110.202 E140.49756
G1 X103.012 Y110.202 F7800.000
G1 F4800
G1 X110.202 Y103.012 E140.73952
G1 X110.202 Y100.369 F7800.000
G1 F4800
G1 X100.369 Y110.202 E141.07040
G1 X97.726 Y110.202 F7800.000
G1 F4800
G1 X110.202 Y97.726 E141.49022
G1 X110.202 Y95.083 F7800.000
G1 F4800
G1 X95.083 Y110.202 E141.99896
G1 X92.440 Y110.202 F7800.000
G1 F4800
G1 X110.202 Y92.440 E142.59663
G1 X110.202 Y91.703 F7800.000
G1 F4800
G1 X108.297 Y89.798 E142.66073
G1 X105.654 Y89.798 E142.72362
G1 X110.202 Y94.346 E142.87665
G1 X110.202 Y96.988 E142.93953
G1 X103.012 Y89.798 E143.18149
G1 X100.369 Y89.798 E143.24437
G1 X110.202 Y99.631 E143.57526
G1 X110.202 Y102.274 E143.63814
G1 X97.726 Y89.798 E144.05795
G1 X95.083 Y89.798 E144.12083
G1 X110.202 Y104.917 E144.62958
G1 X110.202 Y107.560 E144.69246
G1 X92.440 Y89.798 E145.29012
G1 X89.798 Y89.798 E145.35301
G1 X110.202 Y110.202 E146.03960
G1 X107.560 Y110.202 E146.10248
G1 X89.798 Y92.440 E146.70015
G1 X89.798 Y95.083 E146.76303
G1 X104.917 Y110.202 E147.27177
G1 X102.274 Y110.202 E147.33465
G1 X89.798 Y97.726 E147.75447
G1 X89.798 Y100.369 E147.81735
G1 X99.631 Y110.202 E148.14824
G1 X96.988 Y110.202 E148.21112
G1 X89.798 Y103.012 E148.45308
G1 X89.798 Y105.654 E148.51596
G1 X94.346 Y110.202 E148.66899
G1 X91.703 Y110.202 E148.73187
G1 X89.798 Y108.297 E148.79598
G1 X89.798 Y107.560 F7800.000
G1 F4800
G1 X107.560 Y89.798 E149.39365
G1 X104.917 Y89.798 F7800.000
G1 F4800
G1 X89.798 Y104.917 E149.90239
G1 X89.798 Y102.274 F7800.000
G1 F4800
G1 X102.274 Y89.798 E150.32220
G1 X99.631 Y89.798 F7800.000
G1 F4800
G1 X89.798 Y99.631 E150.65309
G1 X89.798 Y96.988 F7800.000
G1 F4800
G1 X96.988 Y89.798 E150.89505
G1 X94.346 Y89.798 F7800.000
G1 F4800
G1 X89.798 Y94.346 E151.04808
G1 X89.798 Y91.703 F7800.000
G1 F4800
G1 X91.703 Y89.798 E151.11219
G1 X110.202 Y89.798 F7800.000
G1 F4800
G1 X89.798 Y110.202 E151.79878
G1 Z4.500 F7800.000
G1 F4800
G1 X110.202 Y89.798 E152.48538
G1 X110.202 Y91.703 F7800.000
G1 F4800
G1 X108.297 Y89.798 E152.54949
G1 X105.654 Y89.798 E152.61237
G1 X110.202 Y94.346 E152.76540
G1 X110.202 Y96.988 E152.82828
G1 X103.012 Y89.798 E153.07024
G1 X100.369 Y89.798 E153.13312
G1 X110.202 Y99.631 E153.46401
G1 X110.202 Y102.274 E153.52689
G1 X97.726 Y89.798 E153.94671
G1 X95.083 Y89.798 E154.00959
G1 X110.202 Y104.917 E154.51833
G1 X110.202 Y107.560 E154.58121
G1 X92.440 Y89.798 E155.17888
G1 X89.798 Y89.798 E155.24176
G1 X110.202 Y110.202 E155.92835
G1 X107.560 Y110.202 E155.99123
G1 X89.798 Y92.440 E156.58890
G1 X89.798 Y95.083 E156.65178
G1 X104.917 Y110.202 E157.16052
G1 X102.274 Y110.202 E157.22340
G1 X89.798 Y97.726 E157.64322
G1 X89.798 Y100.369 E157.70610
G1 X99.631 Y110.202 E158.03699
G1 X96.988 Y110.202 E158.09987
G1 X89.798 Y103.012 E158.34183
G1 X89.798 Y105.654 E158.40471
G1 X94.346 Y110.202 E158.55774
G1 X91.703 Y110.202 E158.62062
G1 X89.798 Y108.297 E158.68473
G1 X89.798 Y107.560 F7800.000
G1 F4800
G1 X107.560 Y89.798 E159.28240
G1 X104.917 Y89.798 F7800.000
G1 F4800
G1 X89.798 Y104.917 E159.79114
G1 X89.798 Y102.274 F7800.000
G1 F4800
G1 X102.274 Y89.798 E160.21095
G1 X99.631 Y89.798 F7800.000
G1 F4800
G1 X89.798 Y99.631 E160.54184
G1 X89.798 Y96.988 F7800.000
G1 F4800
G1 X96.988 Y89.798 E160.78380
G1 X94.346 Y89.798 F7800.000
G1 F4800
G1 X89.798 Y94.346 E160.93684
G1 X89.798 Y91.703 F7800.000
G1 F4800
G1 X91.703 Y89.798 E161.00094
G1 X110.202 Y92.440 F7800.000
G1 F4800
G1 X92.440 Y110.202 E161.59861
G1 X95.083 Y110.202 F7800.000
G1 F4800
G1 X110.202 Y95.083 E162.10735
G1 X110.202 Y97.726 F7800.000
G1 F4800
G1 X97.726 Y110.202 E162.52717
G1 X100.369 Y110.202 F7800.000
G1 F4800
G1 X110.202 Y100.369 E162.85805
G1 X110.202 Y103.012 F7800.000
G1 F4800
G1 X103.012 Y110.202 E163.10001
G1 X105.654 Y110.202 F7800.000
G1 F4800
G1 X110.202 Y105.654 E163.25305
G1 X110.202 Y108.297 F7800.000
G1 F4800
G1 X108.297 Y110.202 E163.31715
G1 Z4.800 F7800.000
G1 F4800
G1 X110.202 Y108.297 E163.38126
G1 X110.202 Y105.654 F7800.000
G1 F4800
G1 X105.654 Y110.202 E163.53429
G1 X103.012 Y110.202 F7800.000
G1 F4800
G1 X110.202 Y103.012 E163.77625
G1 X110.202 Y100.369 F7800.000
G1 F4800
G1 X100.369 Y110.202 E164.10714
G1 X97.726 Y110.202 F7800.000
G1 F4800
G1 X110.202 Y97.726 E164.52696
G1 X110.202 Y95.083 F7800.000
G1 F4800
G1 X95.083 Y110.202 E165.03570
G1 X92.440 Y110.202 F7800.000
G1 F4800
G1 X110.202 Y92.440 E165.63336
G1 X110.202 Y91.703 F7800.000
G1 F4800
G1 X108.297 Y89.798 E165.69747
G1 X105.654 Y89.798 E165.76035
G1 X110.202 Y94.346 E165.91339
G1 X110.202 Y96.988 E165.97627
G1 X103.012 Y89.798 E166.21823
G1 X100.369 Y89.798 E166.28111
G1 X110.202 Y99.631 E166.61199
G1 X110.202 Y102.274 E166.67488
G1 X97.726 Y89.798 E167.09469
G1 X95.083 Y89.798 E167.15757
G1 X110.202 Y104.917 E167.66631
G1 X110.202 Y107.560 E167.72919
G1 X92.440 Y89.798 E168.32686
G1 X89.798 Y89.798 E168.38974
G1 X110.202 Y110.202 E169.07634
G1 X107.560 Y110.202 E169.13922
G1 X89.798 Y92.440 E169.73689
G1 X89.798 Y95.083 E169.79977
G1 X104.917 Y110.202 E170.30851
G1 X102.274 Y110.202 E170.37139
G1 X89.798 Y97.726 E170.79120
G1 X89.798 Y100.369 E170.85408
G1 X99.631 Y110.202 E171.18497
G1 X96.988 Y110.202 E171.24785
G1 X89.798 Y103.012 E171.48981
G1 X89.798 Y105.654 E171.55269
G1 X94.346 Y110.202 E171.70573
G1 X91.703 Y110.202 E171.76861
G1 X89.798 Y108.297 E171.83271
G1 X89.798 Y107.560 F7800.000
G1 F4800
G1 X107.560 Y89.798 E172.43038
G1 X104.917 Y89.798 F7800.000
G1 F4800
G1 X89.798 Y104.917 E172.93912
G1 X89.798 Y102.274 F7800.000
G1 F4800
G1 X102.274 Y89.798 E173.35894
G1 X99.631 Y89.798 F7800.000
G1 F4800
G1 X89.798 Y99.631 E173.68983
G1 X89.798 Y96.988 F7800.000
G1 F4800
G1 X96.988 Y89.798 E173.93179
G1 X94.346 Y89.798 F7800.000
G1 F4800
G1 X89.798 Y94.346 E174.08482
G1 X89.798 Y91.703 F7800.000
G1 F4800
G1 X91.703 Y89.798 E174.14893
G1 X110.202 Y89.798 F7800.000
G1 F4800
G1 X89.798 Y110.202 E174.83552
G1 Z5.100 F7800.000
G1 F4800
G1 X110.202 Y89.798 E175.52212
G1 X110.202 Y91.703 F7800.000
G1 F4800
G1 X108.297 Y89.798 E175.58622
G1 X105.654 Y89.798 E175.64910
G1 X110.202 Y94.346 E175.80214
G1 X110.202 Y96.988 E175.86502
G1 X103.012 Y89.798 E176.10698
G1 X100.369 Y89.798 E176.16986
G1 X110.202 Y99.631 E176.50075
G1 X110.202 Y102.274 E176.56363
G1 X97.726 Y89.798 E176.98344
G1 X95.083 Y89.798 E177.04632
G1 X110.202 Y104.917 E177.55506
G1 X110.202 Y107.560 E177.61795
G1 X92.440 Y89.798 E178.21561
G1 X89.798 Y89.798 E178.27849
G1 X110.202 Y110.202 E178.96509
G1 X107.560 Y110.202 E179.02797
G1 X89.798 Y92.440 E179.62564
G1 X89.798 Y95.083 E179.68852
G1 X104.917 Y110.202 E180.19726
G1 X102.274 Y110.202 E180.26014
G1 X89.798 Y97.726 E180.67996
G1 X89.798 Y100.369 E180.74284
G1 X99.631 Y110.202 E181.07372
G1 X96.988 Y110.202 E181.13660
G1 X89.798 Y103.012 E181.37857
G1 X89.798 Y105.654 E181.44145
G1 X94.346 Y110.202 E181.59448
G1 X91.703 Y110.202 E181.65736
G1 X89.798 Y108.297 E181.72147
G1 X89.798 Y107.560 F7800.000
G1 F4800
G1 X107.560 Y89.798 E182.31914
G1 E180.31914 F2400.00000
G92 E0
G1 X104.917 Y89.798 F7800.000
G1 E2.00000 F2400.00000
G1 F4800
G1 X89.798 Y104.917 E2.50874
G1 E0.50874 F2400.00000
G92 E0
G1 X89.798 Y102.274 F7800.000
G1 E2.00000 F2400.00000
G1 F4800
G1 X102.274 Y89.798 E2.41981
G1 E0.41981 F2400.00000
G92 E0
G1 X99.631 Y89.798 F7800.000
G1 E2.00000 F2400.00000
G1 F4800
G1 X89.798 Y99.631 E2.33089
G1 E0.33089 F2400.00000
G92 E0
G1 X89.798 Y96.988 F7800.000
G1 E2.00000 F2400.00000
G1 F4800
G1 X96.988 Y89.798 E2.24196
G1 E0.24196 F2400.00000
G92 E0
G1 X94.346 Y89.798 F7800.000
G1 E2.00000 F2400.00000
G1 F4800
G1 X89.798 Y94.346 E2.15303
G1 E0.15303 F2400.00000
G92 E0
G1 X89.798 Y91.703 F7800.000
G1 E2.00000 F2400.00000
G1 F4800
G1 X91.703 Y89.798 E2.06411
G1 E0.06411 F2400.00000
G92 E0
G1 X110.202 Y92.440 F7800.000
G1 E2.00000 F2400.00000
G1 F4800
G1 X92.440 Y110.202 E2.59767
G1 E0.59767 F2400.00000
G92 E0
G1 X95.083 Y110.202 F7800.000
G1 E2.00000 F2400.00000
G1 F4800
G1 X110.202 Y95.083 E2.50874
G1 E0.50874 F2400.00000
G92 E0
G1 X110.202 Y97.726 F7800.000
G1 E2.00000 F2400.00000
G1 F4800
G1 X97.726 Y110.202 E2.41981
G1 E0.41981 F2400.00000
G92 E0
G1 X100.369 Y110.202 F7800.000
G1 E2.00000 F2400.00000
G1 F4800
G1 X110.202 Y100.369 E2.33089
G1 E0.33089 F2400.00000
G92 E0
G1 X110.202 Y103.012 F7800.000
G1 E2.00000 F2400.00000
G1 F4800
G1 X103.012 Y110.202 E2.24196
G1 E0.24196 F2400.00000
G92 E0
G1 X105.654 Y110.202 F7800.000
G1 E2.00000 F2400.00000
G1 F4800
G1 X110.202 Y105.654 E2.15303
G1 E0.15303 F2400.00000
G92 E0
G1 X110.202 Y108.297 F7800.000
G1 E2.00000 F2400.00000
G1 F4800
G1 X108.297 Y110.202 E2.06411
G1 E0.06411 F2400.00000
G92 E0
M107
; Filament-specific end gcode 
;END gcode for filament

M104 S0 ; turn off temperature
G28 X0  ; home X axis
M84     ; disable motors

M140 S0 ; set bed temperature
; filament used = 195.3mm (1.4cm3)
; total filament cost = 0.0

; avoid_crossing_perimeters = 0
; bed_shape = 0x0,200x0,200x200,0x200
; bed_temperature = 0
; before_layer_gcode = 
; between_objects_gcode = 
; bridge_acceleration = 0
; bridge_fan_speed = 100
; brim_connections_width = 0
; brim_width = 0
; complete_objects = 0
; cooling = 1
; default_acceleration = 0
; disable_fan_first_layers = 3
; duplicate_distance = 6
; end_filament_gcode = "; Filament-specific end gcode \n;END gcode for filament\n"
; end_gcode = M104 S0 ; turn off temperature\nG28 X0  ; home X axis\nM84     ; disable motors\n
; extruder_clearance_height = 20
; extruder_clearance_radius = 20
; extruder_offset = 0x0
; extrusion_axis = E
; extrusion_multiplier = 1
; fan_always_on = 0
; fan_below_layer_time = 60
; filament_colour = #FFFFFF
; filament_cost = 0
; filament_density = 0
; filament_diameter = 3
; filament_max_volumetric_speed = 0
; filament_notes = ""
; first_layer_acceleration = 0
; first_layer_bed_temperature = 0
; first_layer_extrusion_width = 200%
; first_layer_speed = 30
; first_layer_temperature = 205
; gcode_arcs = 0
; gcode_comments = 0
; gcode_flavor = reprap
; has_heatbed = 1
; infill_acceleration = 0
; infill_first = 0
; interior_brim_width = 0
; layer_gcode = 
; max_fan_speed = 100
; max_layer_height = 0.3
; max_print_speed = 80
; max_volumetric_speed = 0
; min_fan_speed = 35
; min_layer_height = 0.15
; min_print_speed = 10
; min_skirt_length = 0
; notes = 
; nozzle_diameter = 0.5
; only_retract_when_crossing_perimeters = 1
; ooze_prevention = 0
; output_filename_format = [input_filename_base].gcode
; perimeter_acceleration = 0
; post_process = 
; pressure_advance = 0
; printer_notes = 
; resolution = 0
; retract_before_travel = 2
; retract_layer_change = 0
; retract_length = 2
; retract_length_toolchange = 10
; retract_lift = 0
; retract_lift_above = 0
; retract_lift_below = 0
; retract_restart_extra = 0
; retract_restart_extra_toolchange = 0
; retract_speed = 40
; skirt_distance = 6
; skirt_height = 1
; skirts = 0
; slowdown_below_layer_time = 5
; spiral_vase = 0
; standby_temperature_delta = -5
; start_filament_gcode = "; Filament gcode\n"
; start_gcode = G28 ; home all axes\nG1 Z5 F5000 ; lift nozzle\n
; temperature = 200
; threads = 8
; toolchange_gcode = 
; travel_speed = 130
; use_firmware_retraction = 0
; use_relative_e_distances = 0
; use_set_and_wait_bed = 0
; use_set_and_wait_extruder = 0
; use_volumetric_e = 0
; vibration_limit = 0
; wipe = 0
; z_offset = 0
; z_steps_per_mm = 0
; adaptive_slicing = 0
; adaptive_slicing_quality = 75%
; dont_support_bridges = 1
; extrusion_width = 0
; first_layer_height = 0.3
; infill_only_where_needed = 0
; interface_shells = 0
; layer_height = 0.3
; match_horizontal_surfaces = 0
; raft_layers = 0
; regions_overlap = 0
; seam_position = aligned
; sequential_print_priority = 0
; support_material = 0
; support_material_angle = 0
; support_material_buildplate_only = 0
; support_material_contact_distance = 0.2
; support_material_enforce_layers = 0
; support_material_extruder = 1
; support_material_extrusion_width = 0
; support_material_interface_extruder = 1
; support_material_interface_extrusion_width = 0
; support_material_interface_layers = 3
; support_material_interface_spacing = 0
; support_material_interface_speed = 100%
; support_material_max_layers = 0
; support_material_pattern = pillars
; support_material_spacing = 2.5
; support_material_speed = 60
; support_material_threshold = 60%
; xy_size_compensation = 0
; bottom_infill_pattern = rectilinear
; bottom_solid_layers = 0
; bridge_flow_ratio = 1
; bridge_speed = 60
; external_perimeter_extrusion_width = 0
; external_perimeter_speed = 50%
; external_perimeters_first = 0
; extra_perimeters = 1
; fill_angle = 45
; fill_density = 60%
; fill_gaps = 1
; fill_pattern = grid
; gap_fill_speed = 20
; infill_every_layers = 1
; infill_extruder = 1
; infill_extrusion_width = 0
; infill_overlap = 55%
; infill_speed = 80
; overhangs = 1
; perimeter_extruder = 1
; perimeter_extrusion_width = 0
; perimeter_speed = 60
; perimeters = 0
; small_perimeter_speed = 15
; solid_infill_below_area = 70
; solid_infill_every_layers = 0
; solid_infill_extruder = 1
; solid_infill_extrusion_width = 0
; solid_infill_speed = 20
; thin_walls = 1
; top_infill_extrusion_width = 0
; top_infill_pattern = rectilinear
; top_solid_infill_speed = 15
; top_solid_layers = 0
