; generated by Slic3r 1.2.9 on 2019-07-31 at 15:43:21

; external perimeters extrusion width = 0.50mm
; perimeters extrusion width = 0.58mm
; infill extrusion width = 0.58mm
; solid infill extrusion width = 0.58mm
; top infill extrusion width = 0.58mm

M107
M104 S200 ; set temperature
G28 ; home all axes
G1 Z5 F5000 ; lift nozzle

M109 S200 ; wait for temperature to be reached
G21 ; set units to millimeters
G90 ; use absolute coordinates
M82 ; use absolute distances for extrusion
G92 E0
G1 Z0.400 F7800.000
G1 E-2.00000 F2400.00000
G92 E0
G1 X110.129 Y90.393 F7800.000
G1 E2.00000 F2400.00000
G1 X109.607 Y89.871 E2.26854 F1800.000
G1 X107.293 Y89.871 E3.11019
G1 X110.129 Y92.707 E4.56900
G1 X110.129 Y95.021 E5.41064
G1 X104.979 Y89.871 E8.05971
G1 X102.665 Y89.871 E8.90136
G1 X110.129 Y97.335 E12.74070
G1 X110.129 Y99.649 E13.58234
G1 X100.351 Y89.871 E18.61195
G1 X98.037 Y89.871 E19.45359
G1 X110.129 Y101.963 E25.67347
G1 X110.129 Y104.277 E26.51511
G1 X95.723 Y89.871 E33.92525
G1 X93.409 Y89.871 E34.76689
G1 X110.129 Y106.591 E43.36729
G1 X110.129 Y108.905 E44.20894
G1 X91.095 Y89.871 E53.99960
G1 X89.871 Y90.962 E54.59571
G1 X109.038 Y110.129 E64.45465
G1 X106.724 Y110.129 E65.29629
G1 X89.871 Y93.276 E73.96496
G1 X89.871 Y95.590 E74.80661
G1 X104.410 Y110.129 E82.28501
G1 X102.096 Y110.129 E83.12666
G1 X89.871 Y97.904 E89.41479
G1 X89.871 Y100.218 E90.25644
G1 X99.782 Y110.129 E95.35431
G1 X97.468 Y110.129 E96.19596
G1 X89.871 Y102.532 E100.10356
G1 X89.871 Y104.846 E100.94521
G1 X95.154 Y110.129 E103.66255
G1 X92.840 Y110.129 E104.50419
G1 X89.871 Y107.160 E106.03127
G1 X89.871 Y109.474 E106.87292
G1 X90.526 Y110.129 E107.20973
G1 Z0.800 F7800.000
G1 X109.607 Y110.129 F7800.000
G1 X110.129 Y109.607 E107.39431 F3471.138
G1 X110.129 Y107.293 E107.97281
G1 X107.293 Y110.129 E108.97551
G1 X104.979 Y110.129 E109.55401
G1 X110.129 Y104.979 E111.37484
G1 X110.129 Y102.665 E111.95334
G1 X102.665 Y110.129 E114.59229
G1 X100.351 Y110.129 E115.17079
G1 X110.129 Y100.351 E118.62786
G1 X110.129 Y98.037 E119.20636
G1 X98.037 Y110.129 E123.48156
G1 X95.723 Y110.129 E124.06006
G1 X110.129 Y95.723 E129.15338
G1 X110.129 Y93.409 E129.73188
G1 X93.409 Y110.129 E135.64332
G1 X91.095 Y110.129 E136.22182
G1 X110.129 Y91.095 E142.95139
G1 X109.038 Y89.871 E143.36112
G1 X89.871 Y109.038 E150.13761
G1 X89.871 Y106.724 E150.71611
G1 X106.724 Y89.871 E156.67448
G1 X104.410 Y89.871 E157.25298
G1 X89.871 Y104.410 E162.39322
G1 X89.871 Y102.096 E162.97172
G1 X102.096 Y89.871 E167.29384
G1 X99.782 Y89.871 E167.87235
G1 X89.871 Y99.782 E171.37634
G1 X89.871 Y97.468 E171.95484
G1 X97.468 Y89.871 E174.64072
G1 X95.154 Y89.871 E175.21922
G1 X89.871 Y95.154 E177.08697
G1 X89.871 Y92.840 E177.66547
G1 X92.840 Y89.871 E178.71510
G1 X90.526 Y89.871 E179.29360
G1 X89.871 Y90.526 E179.52510
G1 Z1.200 F7800.000
G1 X90.526 Y110.129 F7800.000
G1 X89.871 Y109.474 E179.75661 F3471.138
G1 X89.871 Y107.160 E180.33511
G1 X92.840 Y110.129 E181.38474
G1 X95.154 Y110.129 E181.96324
G1 X89.871 Y104.846 E183.83099
G1 X89.871 Y102.532 E184.40949
G1 X97.468 Y110.129 E187.09536
G1 X99.782 Y110.129 E187.67386
G1 X89.871 Y100.218 E191.17786
G1 X89.871 Y97.904 E191.75636
G1 X102.096 Y110.129 E196.07848
G1 X104.410 Y110.129 E196.65698
G1 X89.871 Y95.590 E201.79723
G1 X89.871 Y93.276 E202.37573
G1 X106.724 Y110.129 E208.33409
G1 X109.038 Y110.129 E208.91259
G1 X89.871 Y90.962 E215.68908
G1 X91.095 Y89.871 E216.09882
G1 X110.129 Y108.905 E222.82838
G1 X110.129 Y106.591 E223.40688
G1 X93.409 Y89.871 E229.31833
G1 X95.723 Y89.871 E229.89683
G1 X110.129 Y104.277 E234.99015
G1 X110.129 Y101.963 E235.56865
G1 X98.037 Y89.871 E239.84384
G1 X100.351 Y89.871 E240.42234
G1 X110.129 Y99.649 E243.87942
G1 X110.129 Y97.335 E244.45792
G1 X102.665 Y89.871 E247.09687
G1 X104.979 Y89.871 E247.67537
G1 X110.129 Y95.021 E249.49620
G1 X110.129 Y92.707 E250.07470
G1 X107.293 Y89.871 E251.07740
G1 X109.607 Y89.871 E251.65590
G1 X110.129 Y90.393 E251.84048
M106 S255
G1 Z1.600 F7800.000
G1 X109.607 Y110.129 F7800.000
G1 X110.129 Y109.607 E252.02506 F3471.138
G1 X110.129 Y107.293 E252.60356
G1 X107.293 Y110.129 E253.60627
G1 X104.979 Y110.129 E254.18477
G1 X110.129 Y104.979 E256.00560
G1 X110.129 Y102.665 E256.58410
G1 X102.665 Y110.129 E259.22305
G1 X100.351 Y110.129 E259.80155
G1 X110.129 Y100.351 E263.25862
G1 X110.129 Y98.037 E263.83712
G1 X98.037 Y110.129 E268.11232
G1 X95.723 Y110.129 E268.69082
G1 X110.129 Y95.723 E273.78414
G1 X110.129 Y93.409 E274.36264
G1 X93.409 Y110.129 E280.27408
G1 X91.095 Y110.129 E280.85258
G1 X110.129 Y91.095 E287.58215
G1 X109.038 Y89.871 E287.99188
G1 X89.871 Y109.038 E294.76837
G1 X89.871 Y106.724 E295.34687
G1 X106.724 Y89.871 E301.30524
G1 X104.410 Y89.871 E301.88374
G1 X89.871 Y104.410 E307.02398
G1 X89.871 Y102.096 E307.60248
G1 X102.096 Y89.871 E311.92460
G1 X99.782 Y89.871 E312.50310
G1 X89.871 Y99.782 E316.00710
G1 X89.871 Y97.468 E316.58560
G1 X97.468 Y89.871 E319.27148
G1 X95.154 Y89.871 E319.84998
G1 X89.871 Y95.154 E321.71773
G1 X89.871 Y92.840 E322.29623
G1 X92.840 Y89.871 E323.34586
G1 X90.526 Y89.871 E323.92436
G1 X89.871 Y90.526 E324.15586
G1 Z2.000 F7800.000
G1 X90.526 Y110.129 F7800.000
G1 X89.871 Y109.474 E324.38737 F3471.138
G1 X89.871 Y107.160 E324.96587
G1 X92.840 Y110.129 E326.01550
G1 X95.154 Y110.129 E326.59400
G1 X89.871 Y104.846 E328.46175
G1 X89.871 Y102.532 E329.04025
G1 X97.468 Y110.129 E331.72612
G1 X99.782 Y110.129 E332.30462
G1 X89.871 Y100.218 E335.80862
G1 X89.871 Y97.904 E336.38712
G1 X102.096 Y110.129 E340.70924
G1 X104.410 Y110.129 E341.28774
G1 X89.871 Y95.590 E346.42798
G1 X89.871 Y93.276 E347.00648
G1 X106.724 Y110.129 E352.96485
G1 X109.038 Y110.129 E353.54335
G1 X89.871 Y90.962 E360.31984
G1 X91.095 Y89.871 E360.72957
G1 X110.129 Y108.905 E367.45914
G1 X110.129 Y106.591 E368.03764
G1 X93.409 Y89.871 E373.94908
G1 X95.723 Y89.871 E374.52758
G1 X110.129 Y104.277 E379.62090
G1 X110.129 Y101.963 E380.19940
G1 X98.037 Y89.871 E384.47460
G1 X100.351 Y89.871 E385.05310
G1 X110.129 Y99.649 E388.51017
G1 X110.129 Y97.335 E389.08868
G1 X102.665 Y89.871 E391.72763
G1 X104.979 Y89.871 E392.30613
G1 X110.129 Y95.021 E394.12695
G1 X110.129 Y92.707 E394.70545
G1 X107.293 Y89.871 E395.70816
G1 X109.607 Y89.871 E396.28666
G1 X110.129 Y90.393 E396.47124
G1 Z2.400 F7800.000
G1 X109.607 Y110.129 F7800.000
G1 X110.129 Y109.607 E396.65582 F3471.138
G1 X110.129 Y107.293 E397.23432
G1 X107.293 Y110.129 E398.23703
G1 X104.979 Y110.129 E398.81553
G1 X110.129 Y104.979 E400.63635
G1 X110.129 Y102.665 E401.21486
G1 X102.665 Y110.129 E403.85381
G1 X100.351 Y110.129 E404.43231
G1 X110.129 Y100.351 E407.88938
G1 X110.129 Y98.037 E408.46788
G1 X98.037 Y110.129 E412.74308
G1 X95.723 Y110.129 E413.32158
G1 X110.129 Y95.723 E418.41490
G1 X110.129 Y93.409 E418.99340
G1 X93.409 Y110.129 E424.90484
G1 X91.095 Y110.129 E425.48334
G1 X110.129 Y91.095 E432.21290
G1 X109.038 Y89.871 E432.62264
G1 X89.871 Y109.038 E439.39913
G1 X89.871 Y106.724 E439.97763
G1 X106.724 Y89.871 E445.93600
G1 X104.410 Y89.871 E446.51450
G1 X89.871 Y104.410 E451.65474
G1 X89.871 Y102.096 E452.23324
G1 X102.096 Y89.871 E456.55536
G1 X99.782 Y89.871 E457.13386
G1 X89.871 Y99.782 E460.63786
G1 X89.871 Y97.468 E461.21636
G1 X97.468 Y89.871 E463.90223
G1 X95.154 Y89.871 E464.48073
G1 X89.871 Y95.154 E466.34849
G1 X89.871 Y92.840 E466.92699
G1 X92.840 Y89.871 E467.97661
G1 X90.526 Y89.871 E468.55512
G1 X89.871 Y90.526 E468.78662
G1 Z2.800 F7800.000
G1 X90.526 Y110.129 F7800.000
G1 X89.871 Y109.474 E469.01813 F3471.138
G1 X89.871 Y107.160 E469.59663
G1 X92.840 Y110.129 E470.64625
G1 X95.154 Y110.129 E471.22475
G1 X89.871 Y104.846 E473.09251
G1 X89.871 Y102.532 E473.67101
G1 X97.468 Y110.129 E476.35688
G1 X99.782 Y110.129 E476.93538
G1 X89.871 Y100.218 E480.43938
G1 X89.871 Y97.904 E481.01788
G1 X102.096 Y110.129 E485.34000
G1 X104.410 Y110.129 E485.91850
G1 X89.871 Y95.590 E491.05874
G1 X89.871 Y93.276 E491.63724
G1 X106.724 Y110.129 E497.59561
G1 X109.038 Y110.129 E498.17411
G1 X89.871 Y90.962 E504.95060
G1 X91.095 Y89.871 E505.36033
G1 X110.129 Y108.905 E512.08990
G1 X110.129 Y106.591 E512.66840
G1 X93.409 Y89.871 E518.57984
G1 X95.723 Y89.871 E519.15834
G1 X110.129 Y104.277 E524.25166
G1 X110.129 Y101.963 E524.83016
G1 X98.037 Y89.871 E529.10536
G1 X100.351 Y89.871 E529.68386
G1 X110.129 Y99.649 E533.14093
G1 X110.129 Y97.335 E533.71943
G1 X102.665 Y89.871 E536.35838
G1 X104.979 Y89.871 E536.93689
G1 X110.129 Y95.021 E538.75771
G1 X110.129 Y92.707 E539.33621
G1 X107.293 Y89.871 E540.33892
G1 X109.607 Y89.871 E540.91742
G1 X110.129 Y90.393 E541.10200
G1 Z3.200 F7800.000
G1 X109.607 Y110.129 F7800.000
G1 X110.129 Y109.607 E541.28658 F3471.138
G1 X110.129 Y107.293 E541.86508
G1 X107.293 Y110.129 E542.86779
G1 X104.979 Y110.129 E543.44629
G1 X110.129 Y104.979 E545.26711
G1 X110.129 Y102.665 E545.84561
G1 X102.665 Y110.129 E548.48456
G1 X100.351 Y110.129 E549.06306
G1 X110.129 Y100.351 E552.52014
G1 X110.129 Y98.037 E553.09864
G1 X98.037 Y110.129 E557.37383
G1 X95.723 Y110.129 E557.95233
G1 X110.129 Y95.723 E563.04565
G1 X110.129 Y93.409 E563.62415
G1 X93.409 Y110.129 E569.53560
G1 X91.095 Y110.129 E570.11410
G1 X110.129 Y91.095 E576.84366
G1 X109.038 Y89.871 E577.25340
G1 X89.871 Y109.038 E584.02989
G1 X89.871 Y106.724 E584.60839
G1 X106.724 Y89.871 E590.56675
G1 X104.410 Y89.871 E591.14525
G1 X89.871 Y104.410 E596.28550
G1 X89.871 Y102.096 E596.86400
G1 X102.096 Y89.871 E601.18612
G1 X99.782 Y89.871 E601.76462
G1 X89.871 Y99.782 E605.26862
G1 X89.871 Y97.468 E605.84712
G1 X97.468 Y89.871 E608.53299
G1 X95.154 Y89.871 E609.11149
G1 X89.871 Y95.154 E610.97924
G1 X89.871 Y92.840 E611.55774
G1 X92.840 Y89.871 E612.60737
G1 X90.526 Y89.871 E613.18587
G1 X89.871 Y90.526 E613.41738
G1 Z3.600 F7800.000
G1 X90.526 Y110.129 F7800.000
G1 X89.871 Y109.474 E613.64888 F3471.138
G1 X89.871 Y107.160 E614.22738
G1 X92.840 Y110.129 E615.27701
G1 X95.154 Y110.129 E615.85551
G1 X89.871 Y104.846 E617.72326
G1 X89.871 Y102.532 E618.30176
G1 X97.468 Y110.129 E620.98764
G1 X99.782 Y110.129 E621.56614
G1 X89.871 Y100.218 E625.07014
G1 X89.871 Y97.904 E625.64864
G1 X102.096 Y110.129 E629.97076
G1 X104.410 Y110.129 E630.54926
G1 X89.871 Y95.590 E635.68950
G1 X89.871 Y93.276 E636.26800
G1 X106.724 Y110.129 E642.22637
G1 X109.038 Y110.129 E642.80487
G1 X89.871 Y90.962 E649.58136
G1 X91.095 Y89.871 E649.99109
G1 X110.129 Y108.905 E656.72066
G1 X110.129 Y106.591 E657.29916
G1 X93.409 Y89.871 E663.21060
G1 X95.723 Y89.871 E663.78910
G1 X110.129 Y104.277 E668.88242
G1 X110.129 Y101.963 E669.46092
G1 X98.037 Y89.871 E673.73612
G1 X100.351 Y89.871 E674.31462
G1 X110.129 Y99.649 E677.77169
G1 X110.129 Y97.335 E678.35019
G1 X102.665 Y89.871 E680.98914
G1 X104.979 Y89.871 E681.56764
G1 X110.129 Y95.021 E683.38847
G1 X110.129 Y92.707 E683.96697
G1 X107.293 Y89.871 E684.96968
G1 X109.607 Y89.871 E685.54818
G1 X110.129 Y90.393 E685.73276
G1 Z4.000 F7800.000
G1 X109.607 Y110.129 F7800.000
G1 X110.129 Y109.607 E685.91734 F3471.138
G1 X110.129 Y107.293 E686.49584
G1 X107.293 Y110.129 E687.49854
G1 X104.979 Y110.129 E688.07704
G1 X110.129 Y104.979 E689.89787
G1 X110.129 Y102.665 E690.47637
G1 X102.665 Y110.129 E693.11532
G1 X100.351 Y110.129 E693.69382
G1 X110.129 Y100.351 E697.15090
G1 X110.129 Y98.037 E697.72940
G1 X98.037 Y110.129 E702.00459
G1 X95.723 Y110.129 E702.58309
G1 X110.129 Y95.723 E707.67641
G1 X110.129 Y93.409 E708.25491
G1 X93.409 Y110.129 E714.16635
G1 X91.095 Y110.129 E714.74486
G1 X110.129 Y91.095 E721.47442
G1 X109.038 Y89.871 E721.88415
G1 X89.871 Y109.038 E728.66064
G1 X89.871 Y106.724 E729.23915
G1 X106.724 Y89.871 E735.19751
G1 X104.410 Y89.871 E735.77601
G1 X89.871 Y104.410 E740.91626
G1 X89.871 Y102.096 E741.49476
G1 X102.096 Y89.871 E745.81688
G1 X99.782 Y89.871 E746.39538
G1 X89.871 Y99.782 E749.89938
G1 X89.871 Y97.468 E750.47788
G1 X97.468 Y89.871 E753.16375
G1 X95.154 Y89.871 E753.74225
G1 X89.871 Y95.154 E755.61000
G1 X89.871 Y92.840 E756.18850
G1 X92.840 Y89.871 E757.23813
G1 X90.526 Y89.871 E757.81663
G1 X89.871 Y90.526 E758.04814
G1 Z4.400 F7800.000
G1 X90.526 Y110.129 F7800.000
G1 X89.871 Y109.474 E758.27964 F3471.138
G1 X89.871 Y107.160 E758.85814
G1 X92.840 Y110.129 E759.90777
G1 X95.154 Y110.129 E760.48627
G1 X89.871 Y104.846 E762.35402
G1 X89.871 Y102.532 E762.93252
G1 X97.468 Y110.129 E765.61840
G1 X99.782 Y110.129 E766.19690
G1 X89.871 Y100.218 E769.70089
G1 X89.871 Y97.904 E770.27939
G1 X102.096 Y110.129 E774.60151
G1 X104.410 Y110.129 E775.18001
G1 X89.871 Y95.590 E780.32026
G1 X89.871 Y93.276 E780.89876
G1 X106.724 Y110.129 E786.85712
G1 X109.038 Y110.129 E787.43563
G1 X89.871 Y90.962 E794.21211
G1 X91.095 Y89.871 E794.62185
G1 X110.129 Y108.905 E801.35141
G1 X110.129 Y106.591 E801.92991
G1 X93.409 Y89.871 E807.84136
G1 X95.723 Y89.871 E808.41986
G1 X110.129 Y104.277 E813.51318
G1 X110.129 Y101.963 E814.09168
G1 X98.037 Y89.871 E818.36687
G1 X100.351 Y89.871 E818.94537
G1 X110.129 Y99.649 E822.40245
G1 X110.129 Y97.335 E822.98095
G1 X102.665 Y89.871 E825.61990
G1 X104.979 Y89.871 E826.19840
G1 X110.129 Y95.021 E828.01923
G1 X110.129 Y92.707 E828.59773
G1 X107.293 Y89.871 E829.60043
G1 X109.607 Y89.871 E830.17893
G1 X110.129 Y90.393 E830.36352
G1 Z4.800 F7800.000
G1 X109.607 Y110.129 F7800.000
G1 X110.129 Y109.607 E830.54810 F3471.138
G1 X110.129 Y107.293 E831.12660
G1 X107.293 Y110.129 E832.12930
G1 X104.979 Y110.129 E832.70780
G1 X110.129 Y104.979 E834.52863
G1 X110.129 Y102.665 E835.10713
G1 X102.665 Y110.129 E837.74608
G1 X100.351 Y110.129 E838.32458
G1 X110.129 Y100.351 E841.78165
G1 X110.129 Y98.037 E842.36015
G1 X98.037 Y110.129 E846.63535
G1 X95.723 Y110.129 E847.21385
G1 X110.129 Y95.723 E852.30717
G1 X110.129 Y93.409 E852.88567
G1 X93.409 Y110.129 E858.79711
G1 X91.095 Y110.129 E859.37561
G1 X110.129 Y91.095 E866.10518
G1 X109.038 Y89.871 E866.51491
G1 X89.871 Y109.038 E873.29140
G1 X89.871 Y106.724 E873.86990
G1 X106.724 Y89.871 E879.82827
G1 X104.410 Y89.871 E880.40677
G1 X89.871 Y104.410 E885.54701
G1 X89.871 Y102.096 E886.12551
G1 X102.096 Y89.871 E890.44764
G1 X99.782 Y89.871 E891.02614
G1 X89.871 Y99.782 E894.53013
G1 X89.871 Y97.468 E895.10863
G1 X97.468 Y89.871 E897.79451
G1 X95.154 Y89.871 E898.37301
G1 X89.871 Y95.154 E900.24076
G1 X89.871 Y92.840 E900.81926
G1 X92.840 Y89.871 E901.86889
G1 X90.526 Y89.871 E902.44739
G1 X89.871 Y90.526 E902.67890
G1 Z5.200 F7800.000
G1 E900.67890 F2400.00000
G92 E0
G1 X90.526 Y110.129 F7800.000
G1 E2.00000 F2400.00000
G1 X89.871 Y109.474 E2.23150 F3471.138
G1 X89.871 Y107.160 E2.81001
G1 X92.840 Y110.129 E3.85963
G1 X95.154 Y110.129 E4.43813
G1 X89.871 Y104.846 E6.30588
G1 X89.871 Y102.532 E6.88439
G1 X97.468 Y110.129 E9.57026
G1 X99.782 Y110.129 E10.14876
G1 X89.871 Y100.218 E13.65276
G1 X89.871 Y97.904 E14.23126
G1 X102.096 Y110.129 E18.55338
G1 X104.410 Y110.129 E19.13188
G1 X89.871 Y95.590 E24.27212
G1 X89.871 Y93.276 E24.85062
G1 X106.724 Y110.129 E30.80899
G1 X109.038 Y110.129 E31.38749
G1 X89.871 Y90.962 E38.16398
G1 X91.095 Y89.871 E38.57371
G1 X110.129 Y108.905 E45.30328
G1 X110.129 Y106.591 E45.88178
G1 X93.409 Y89.871 E51.79322
G1 X95.723 Y89.871 E52.37172
G1 X110.129 Y104.277 E57.46504
G1 X110.129 Y101.963 E58.04354
G1 X98.037 Y89.871 E62.31874
G1 X100.351 Y89.871 E62.89724
G1 X110.129 Y99.649 E66.35431
G1 X110.129 Y97.335 E66.93281
G1 X102.665 Y89.871 E69.57176
G1 X104.979 Y89.871 E70.15026
G1 X110.129 Y95.021 E71.97109
G1 X110.129 Y92.707 E72.54959
G1 X107.293 Y89.871 E73.55230
G1 X109.607 Y89.871 E74.13080
G1 X110.129 Y90.393 E74.31538
G1 E72.31538 F2400.00000
G92 E0
M107
M104 S0 ; turn off temperature
G28 X0  ; home X axis
M84     ; disable motors

; filament used = 973.0mm (0.8cm3)

; avoid_crossing_perimeters = 0
; bed_shape = 0x0,200x0,200x200,0x200
; bed_temperature = 0
; before_layer_gcode = 
; bridge_acceleration = 0
; bridge_fan_speed = 100
; brim_width = 0
; complete_objects = 0
; cooling = 1
; default_acceleration = 0
; disable_fan_first_layers = 3
; duplicate_distance = 6
; end_gcode = M104 S0 ; turn off temperature\nG28 X0  ; home X axis\nM84     ; disable motors\n
; extruder_clearance_height = 20
; extruder_clearance_radius = 20
; extruder_offset = 0x0
; extrusion_axis = E
; extrusion_multiplier = 1
; fan_always_on = 0
; fan_below_layer_time = 60
; filament_colour = #FFFFFF
; filament_diameter = 1
; first_layer_acceleration = 0
; first_layer_bed_temperature = 0
; first_layer_extrusion_width = 200%
; first_layer_speed = 30
; first_layer_temperature = 200
; gcode_arcs = 0
; gcode_comments = 0
; gcode_flavor = reprap
; infill_acceleration = 0
; infill_first = 0
; layer_gcode = 
; max_fan_speed = 100
; max_print_speed = 80
; max_volumetric_speed = 0
; min_fan_speed = 35
; min_print_speed = 10
; min_skirt_length = 0
; notes = 
; nozzle_diameter = 0.5
; only_retract_when_crossing_perimeters = 1
; ooze_prevention = 0
; output_filename_format = [input_filename_base].gcode
; perimeter_acceleration = 0
; post_process = 
; pressure_advance = 0
; resolution = 0
; retract_before_travel = 2
; retract_layer_change = 0
; retract_length = 2
; retract_length_toolchange = 10
; retract_lift = 0
; retract_restart_extra = 0
; retract_restart_extra_toolchange = 0
; retract_speed = 40
; skirt_distance = 6
; skirt_height = 1
; skirts = 0
; slowdown_below_layer_time = 5
; spiral_vase = 0
; standby_temperature_delta = -5
; start_gcode = G28 ; home all axes\nG1 Z5 F5000 ; lift nozzle\n
; temperature = 200
; threads = 2
; toolchange_gcode = 
; travel_speed = 130
; use_firmware_retraction = 0
; use_relative_e_distances = 0
; use_volumetric_e = 0
; vibration_limit = 0
; wipe = 0
; z_offset = 0
; dont_support_bridges = 1
; extrusion_width = 0
; first_layer_height = 0.4
; infill_only_where_needed = 0
; interface_shells = 0
; layer_height = 0.4
; raft_layers = 0
; seam_position = aligned
; support_material = 0
; support_material_angle = 0
; support_material_contact_distance = 0.2
; support_material_enforce_layers = 0
; support_material_extruder = 1
; support_material_extrusion_width = 0
; support_material_interface_extruder = 1
; support_material_interface_layers = 3
; support_material_interface_spacing = 0
; support_material_interface_speed = 100%
; support_material_pattern = pillars
; support_material_spacing = 2.5
; support_material_speed = 60
; support_material_threshold = 0
; xy_size_compensation = 0
; bottom_solid_layers = 0
; bridge_flow_ratio = 1
; bridge_speed = 60
; external_fill_pattern = rectilinear
; external_perimeter_extrusion_width = 0
; external_perimeter_speed = 50%
; external_perimeters_first = 0
; extra_perimeters = 1
; fill_angle = 45
; fill_density = 30%
; fill_pattern = rectilinear
; gap_fill_speed = 20
; infill_every_layers = 1
; infill_extruder = 1
; infill_extrusion_width = 0
; infill_overlap = 15%
; infill_speed = 80
; overhangs = 1
; perimeter_extruder = 1
; perimeter_extrusion_width = 0
; perimeter_speed = 60
; perimeters = 0
; small_perimeter_speed = 15
; solid_infill_below_area = 70
; solid_infill_every_layers = 0
; solid_infill_extruder = 1
; solid_infill_extrusion_width = 0
; solid_infill_speed = 20
; thin_walls = 1
; top_infill_extrusion_width = 0
; top_solid_infill_speed = 15
; top_solid_layers = 0
