; generated by Slic3r 1.2.9 on 2019-07-14 at 17:52:31

; external perimeters extrusion width = 0.50mm
; perimeters extrusion width = 0.58mm
; infill extrusion width = 0.58mm
; solid infill extrusion width = 0.58mm
; top infill extrusion width = 0.58mm

M107
M104 S200 ; set temperature
G28 ; home all axes
G1 Z5 F5000 ; lift nozzle

M109 S200 ; wait for temperature to be reached
G21 ; set units to millimeters
G90 ; use absolute coordinates
M82 ; use absolute distances for extrusion
G92 E0
G1 Z0.400 F7800.000
G1 E-2.00000 F2400.00000
G92 E0
G1 X90.526 Y110.129 F7800.000
G1 E2.00000 F2400.00000
G1 X89.871 Y109.474 E2.33680 F1800.000
G1 X89.871 Y108.606 E2.65242
G1 X91.394 Y110.129 E3.43557
G1 X92.262 Y110.129 E3.75119
G1 X89.871 Y107.738 E4.98069
G1 X89.871 Y106.871 E5.29630
G1 X93.129 Y110.129 E6.97215
G1 X93.997 Y110.129 E7.28777
G1 X89.871 Y106.003 E9.40997
G1 X89.871 Y105.135 E9.72559
G1 X94.865 Y110.129 E12.29414
G1 X95.733 Y110.129 E12.60975
G1 X89.871 Y104.267 E15.62465
G1 X89.871 Y103.400 E15.94027
G1 X96.600 Y110.129 E19.40152
G1 X97.468 Y110.129 E19.71713
G1 X89.871 Y102.532 E23.62473
G1 X89.871 Y101.664 E23.94035
G1 X98.336 Y110.129 E28.29429
G1 X99.204 Y110.129 E28.60991
G1 X89.871 Y100.796 E33.41021
G1 X89.871 Y99.929 E33.72582
G1 X100.071 Y110.129 E38.97247
G1 X100.939 Y110.129 E39.28809
G1 X89.871 Y99.061 E44.98108
G1 X89.871 Y98.193 E45.29670
G1 X101.807 Y110.129 E51.43605
G1 X102.675 Y110.129 E51.75166
G1 X89.871 Y97.325 E58.33736
G1 X89.871 Y96.458 E58.65298
G1 X103.542 Y110.129 E65.68502
G1 X104.410 Y110.129 E66.00064
G1 X89.871 Y95.590 E73.47903
G1 X89.871 Y94.722 E73.79465
G1 X105.278 Y110.129 E81.71939
G1 X106.146 Y110.129 E82.03501
G1 X89.871 Y93.854 E90.40610
G1 X89.871 Y92.987 E90.72172
G1 X107.013 Y110.129 E99.53917
G1 X107.881 Y110.129 E99.85478
G1 X89.871 Y92.119 E109.11858
G1 X89.871 Y91.251 E109.43419
G1 X108.749 Y110.129 E119.14433
G1 X109.617 Y110.129 E119.45995
G1 X89.871 Y90.383 E129.61644
G1 X90.227 Y89.871 E129.84322
G1 X110.129 Y109.773 E140.08022
G1 X110.129 Y108.905 E140.39584
G1 X91.095 Y89.871 E150.18649
G1 X91.962 Y89.871 E150.50211
G1 X110.129 Y108.038 E159.84642
G1 X110.129 Y107.170 E160.16203
G1 X92.830 Y89.871 E169.05999
G1 X93.698 Y89.871 E169.37560
G1 X110.129 Y106.302 E177.82721
G1 X110.129 Y105.434 E178.14283
G1 X94.566 Y89.871 E186.14808
G1 X95.433 Y89.871 E186.46370
G1 X110.129 Y104.567 E194.02260
G1 X110.129 Y103.699 E194.33822
G1 X96.301 Y89.871 E201.45078
G1 X97.169 Y89.871 E201.76639
G1 X110.129 Y102.831 E208.43260
G1 X110.129 Y101.963 E208.74822
G1 X98.037 Y89.871 E214.96808
G1 X98.904 Y89.871 E215.28369
G1 X110.129 Y101.096 E221.05720
G1 X110.129 Y100.228 E221.37282
G1 X99.772 Y89.871 E226.69998
G1 X100.640 Y89.871 E227.01559
G1 X110.129 Y99.360 E231.89640
G1 X110.129 Y98.492 E232.21202
G1 X101.508 Y89.871 E236.64648
G1 X102.375 Y89.871 E236.96209
G1 X110.129 Y97.625 E240.95020
G1 X110.129 Y96.757 E241.26582
G1 X103.243 Y89.871 E244.80758
G1 X104.111 Y89.871 E245.12320
G1 X110.129 Y95.889 E248.21861
G1 X110.129 Y95.021 E248.53423
G1 X104.979 Y89.871 E251.18329
G1 X105.846 Y89.871 E251.49890
G1 X110.129 Y94.154 E253.70162
G1 X110.129 Y93.286 E254.01723
G1 X106.714 Y89.871 E255.77359
G1 X107.582 Y89.871 E256.08921
G1 X110.129 Y92.418 E257.39922
G1 X110.129 Y91.550 E257.71484
G1 X108.450 Y89.871 E258.57850
G1 X109.317 Y89.871 E258.89412
G1 X110.129 Y90.683 E259.31143
G1 Z0.800 F7800.000
G1 X109.317 Y110.129 F7800.000
G1 X110.129 Y109.317 E259.59827 F4800.000
G1 X110.129 Y108.450 E259.81521
G1 X108.450 Y110.129 E260.40884
G1 X107.582 Y110.129 E260.62578
G1 X110.129 Y107.582 E261.52621
G1 X110.129 Y106.714 E261.74315
G1 X106.714 Y110.129 E262.95038
G1 X105.846 Y110.129 E263.16731
G1 X110.129 Y105.846 E264.68134
G1 X110.129 Y104.979 E264.89828
G1 X104.979 Y110.129 E266.71909
G1 X104.111 Y110.129 E266.93603
G1 X110.129 Y104.111 E269.06365
G1 X110.129 Y103.243 E269.28058
G1 X103.243 Y110.129 E271.71500
G1 X102.375 Y110.129 E271.93193
G1 X110.129 Y102.375 E274.67314
G1 X110.129 Y101.508 E274.89008
G1 X101.508 Y110.129 E277.93808
G1 X100.640 Y110.129 E278.15502
G1 X110.129 Y100.640 E281.50982
G1 X110.129 Y99.772 E281.72676
G1 X99.772 Y110.129 E285.38835
G1 X98.904 Y110.129 E285.60529
G1 X110.129 Y98.904 E289.57368
G1 X110.129 Y98.037 E289.79062
G1 X98.037 Y110.129 E294.06581
G1 X97.169 Y110.129 E294.28274
G1 X110.129 Y97.169 E298.86473
G1 X110.129 Y96.301 E299.08167
G1 X96.301 Y110.129 E303.97045
G1 X95.433 Y110.129 E304.18738
G1 X110.129 Y95.433 E309.38296
G1 X110.129 Y94.566 E309.59990
G1 X94.566 Y110.129 E315.10227
G1 X93.698 Y110.129 E315.31921
G1 X110.129 Y93.698 E321.12838
G1 X110.129 Y92.830 E321.34531
G1 X92.830 Y110.129 E327.46128
G1 X91.962 Y110.129 E327.67822
G1 X110.129 Y91.962 E334.10098
G1 X110.129 Y91.095 E334.31792
G1 X91.095 Y110.129 E341.04747
G1 X90.227 Y110.129 E341.26441
G1 X110.129 Y90.227 E348.30076
G1 X109.617 Y89.871 E348.45664
G1 X89.871 Y109.617 E355.43765
G1 X89.871 Y108.749 E355.65459
G1 X108.749 Y89.871 E362.32881
G1 X107.881 Y89.871 E362.54575
G1 X89.871 Y107.881 E368.91317
G1 X89.871 Y107.013 E369.13011
G1 X107.013 Y89.871 E375.19073
G1 X106.146 Y89.871 E375.40767
G1 X89.871 Y106.146 E381.16150
G1 X89.871 Y105.278 E381.37844
G1 X105.278 Y89.871 E386.82547
G1 X104.410 Y89.871 E387.04241
G1 X89.871 Y104.410 E392.18265
G1 X89.871 Y103.542 E392.39959
G1 X103.542 Y89.871 E397.23303
G1 X102.675 Y89.871 E397.44997
G1 X89.871 Y102.675 E401.97661
G1 X89.871 Y101.807 E402.19355
G1 X101.807 Y89.871 E406.41340
G1 X100.939 Y89.871 E406.63034
G1 X89.871 Y100.939 E410.54339
G1 X89.871 Y100.071 E410.76033
G1 X100.071 Y89.871 E414.36658
G1 X99.204 Y89.871 E414.58352
G1 X89.871 Y99.204 E417.88298
G1 X89.871 Y98.336 E418.09992
G1 X98.336 Y89.871 E421.09259
G1 X97.468 Y89.871 E421.30952
G1 X89.871 Y97.468 E423.99539
G1 X89.871 Y96.600 E424.21233
G1 X96.600 Y89.871 E426.59140
G1 X95.733 Y89.871 E426.80834
G1 X89.871 Y95.733 E428.88062
G1 X89.871 Y94.865 E429.09755
G1 X94.865 Y89.871 E430.86303
G1 X93.997 Y89.871 E431.07997
G1 X89.871 Y93.997 E432.53865
G1 X89.871 Y93.129 E432.75559
G1 X93.129 Y89.871 E433.90748
G1 X92.262 Y89.871 E434.12442
G1 X89.871 Y92.262 E434.96951
G1 X89.871 Y91.394 E435.18645
G1 X91.394 Y89.871 E435.72474
G1 X90.526 Y89.871 E435.94168
G1 X89.871 Y90.526 E436.17318
G1 Z1.200 F7800.000
G1 X90.526 Y110.129 F7800.000
G1 X89.871 Y109.474 E436.40468 F4800.000
G1 X89.871 Y108.606 E436.62161
G1 X91.394 Y110.129 E437.15991
G1 X92.262 Y110.129 E437.37685
G1 X89.871 Y107.738 E438.22194
G1 X89.871 Y106.871 E438.43888
G1 X93.129 Y110.129 E439.59076
G1 X93.997 Y110.129 E439.80770
G1 X89.871 Y106.003 E441.26639
G1 X89.871 Y105.135 E441.48332
G1 X94.865 Y110.129 E443.24880
G1 X95.733 Y110.129 E443.46574
G1 X89.871 Y104.267 E445.53802
G1 X89.871 Y103.400 E445.75495
G1 X96.600 Y110.129 E448.13403
G1 X97.468 Y110.129 E448.35096
G1 X89.871 Y102.532 E451.03683
G1 X89.871 Y101.664 E451.25377
G1 X98.336 Y110.129 E454.24643
G1 X99.204 Y110.129 E454.46337
G1 X89.871 Y100.796 E457.76283
G1 X89.871 Y99.929 E457.97977
G1 X100.071 Y110.129 E461.58603
G1 X100.939 Y110.129 E461.80296
G1 X89.871 Y99.061 E465.71602
G1 X89.871 Y98.193 E465.93295
G1 X101.807 Y110.129 E470.15280
G1 X102.675 Y110.129 E470.36974
G1 X89.871 Y97.325 E474.89639
G1 X89.871 Y96.458 E475.11332
G1 X103.542 Y110.129 E479.94677
G1 X104.410 Y110.129 E480.16370
G1 X89.871 Y95.590 E485.30394
G1 X89.871 Y94.722 E485.52088
G1 X105.278 Y110.129 E490.96791
G1 X106.146 Y110.129 E491.18485
G1 X89.871 Y93.854 E496.93868
G1 X89.871 Y92.987 E497.15562
G1 X107.013 Y110.129 E503.21624
G1 X107.881 Y110.129 E503.43318
G1 X89.871 Y92.119 E509.80060
G1 X89.871 Y91.251 E510.01754
G1 X108.749 Y110.129 E516.69176
G1 X109.617 Y110.129 E516.90870
G1 X89.871 Y90.383 E523.88971
G1 X90.227 Y89.871 E524.04558
G1 X110.129 Y109.773 E531.08194
G1 X110.129 Y108.905 E531.29887
G1 X91.095 Y89.871 E538.02843
G1 X91.962 Y89.871 E538.24537
G1 X110.129 Y108.038 E544.66813
G1 X110.129 Y107.170 E544.88507
G1 X92.830 Y89.871 E551.00103
G1 X93.698 Y89.871 E551.21797
G1 X110.129 Y106.302 E557.02714
G1 X110.129 Y105.434 E557.24408
G1 X94.566 Y89.871 E562.74645
G1 X95.433 Y89.871 E562.96339
G1 X110.129 Y104.567 E568.15896
G1 X110.129 Y103.699 E568.37590
G1 X96.301 Y89.871 E573.26468
G1 X97.169 Y89.871 E573.48162
G1 X110.129 Y102.831 E578.06360
G1 X110.129 Y101.963 E578.28054
G1 X98.037 Y89.871 E582.55573
G1 X98.904 Y89.871 E582.77267
G1 X110.129 Y101.096 E586.74106
G1 X110.129 Y100.228 E586.95800
G1 X99.772 Y89.871 E590.61959
G1 X100.640 Y89.871 E590.83653
G1 X110.129 Y99.360 E594.19133
G1 X110.129 Y98.492 E594.40827
G1 X101.508 Y89.871 E597.45627
G1 X102.375 Y89.871 E597.67321
G1 X110.129 Y97.625 E600.41442
G1 X110.129 Y96.757 E600.63136
G1 X103.243 Y89.871 E603.06577
G1 X104.111 Y89.871 E603.28270
G1 X110.129 Y95.889 E605.41032
G1 X110.129 Y95.021 E605.62726
G1 X104.979 Y89.871 E607.44808
G1 X105.846 Y89.871 E607.66501
G1 X110.129 Y94.154 E609.17904
G1 X110.129 Y93.286 E609.39598
G1 X106.714 Y89.871 E610.60320
G1 X107.582 Y89.871 E610.82014
G1 X110.129 Y92.418 E611.72057
G1 X110.129 Y91.550 E611.93751
G1 X108.450 Y89.871 E612.53114
G1 X109.317 Y89.871 E612.74808
G1 X110.129 Y90.683 E613.03492
M106 S242.25
G1 Z1.600 F7800.000
G1 X109.317 Y110.129 F7800.000
G1 X110.129 Y109.317 E613.32176 F4800.000
G1 X110.129 Y108.450 E613.53870
G1 X108.450 Y110.129 E614.13233
G1 X107.582 Y110.129 E614.34927
G1 X110.129 Y107.582 E615.24970
G1 X110.129 Y106.714 E615.46664
G1 X106.714 Y110.129 E616.67386
G1 X105.846 Y110.129 E616.89080
G1 X110.129 Y105.846 E618.40483
G1 X110.129 Y104.979 E618.62176
G1 X104.979 Y110.129 E620.44258
G1 X104.111 Y110.129 E620.65952
G1 X110.129 Y104.111 E622.78713
G1 X110.129 Y103.243 E623.00407
G1 X103.243 Y110.129 E625.43848
G1 X102.375 Y110.129 E625.65542
G1 X110.129 Y102.375 E628.39663
G1 X110.129 Y101.508 E628.61357
G1 X101.508 Y110.129 E631.66157
G1 X100.640 Y110.129 E631.87851
G1 X110.129 Y100.640 E635.23331
G1 X110.129 Y99.772 E635.45024
G1 X99.772 Y110.129 E639.11184
G1 X98.904 Y110.129 E639.32878
G1 X110.129 Y98.904 E643.29717
G1 X110.129 Y98.037 E643.51411
G1 X98.037 Y110.129 E647.78929
G1 X97.169 Y110.129 E648.00623
G1 X110.129 Y97.169 E652.58822
G1 X110.129 Y96.301 E652.80515
G1 X96.301 Y110.129 E657.69393
G1 X95.433 Y110.129 E657.91087
G1 X110.129 Y95.433 E663.10645
G1 X110.129 Y94.566 E663.32339
G1 X94.566 Y110.129 E668.82576
G1 X93.698 Y110.129 E669.04270
G1 X110.129 Y93.698 E674.85186
G1 X110.129 Y92.830 E675.06880
G1 X92.830 Y110.129 E681.18477
G1 X91.962 Y110.129 E681.40170
G1 X110.129 Y91.962 E687.82446
G1 X110.129 Y91.095 E688.04140
G1 X91.095 Y110.129 E694.77096
G1 X90.227 Y110.129 E694.98790
G1 X110.129 Y90.227 E702.02425
G1 X109.617 Y89.871 E702.18012
G1 X89.871 Y109.617 E709.16114
G1 X89.871 Y108.749 E709.37808
G1 X108.749 Y89.871 E716.05230
G1 X107.881 Y89.871 E716.26923
G1 X89.871 Y107.881 E722.63666
G1 X89.871 Y107.013 E722.85359
G1 X107.013 Y89.871 E728.91422
G1 X106.146 Y89.871 E729.13116
G1 X89.871 Y106.146 E734.88499
G1 X89.871 Y105.278 E735.10193
G1 X105.278 Y89.871 E740.54896
G1 X104.410 Y89.871 E740.76590
G1 X89.871 Y104.410 E745.90614
G1 X89.871 Y103.542 E746.12307
G1 X103.542 Y89.871 E750.95652
G1 X102.675 Y89.871 E751.17345
G1 X89.871 Y102.675 E755.70010
G1 X89.871 Y101.807 E755.91704
G1 X101.807 Y89.871 E760.13689
G1 X100.939 Y89.871 E760.35382
G1 X89.871 Y100.939 E764.26688
G1 X89.871 Y100.071 E764.48382
G1 X100.071 Y89.871 E768.09007
G1 X99.204 Y89.871 E768.30701
G1 X89.871 Y99.204 E771.60647
G1 X89.871 Y98.336 E771.82341
G1 X98.336 Y89.871 E774.81607
G1 X97.468 Y89.871 E775.03301
G1 X89.871 Y97.468 E777.71888
G1 X89.871 Y96.600 E777.93582
G1 X96.600 Y89.871 E780.31489
G1 X95.733 Y89.871 E780.53183
G1 X89.871 Y95.733 E782.60410
G1 X89.871 Y94.865 E782.82104
G1 X94.865 Y89.871 E784.58652
G1 X93.997 Y89.871 E784.80346
G1 X89.871 Y93.997 E786.26214
G1 X89.871 Y93.129 E786.47908
G1 X93.129 Y89.871 E787.63097
G1 X92.262 Y89.871 E787.84790
G1 X89.871 Y92.262 E788.69300
G1 X89.871 Y91.394 E788.90993
G1 X91.394 Y89.871 E789.44823
G1 X90.526 Y89.871 E789.66517
G1 X89.871 Y90.526 E789.89667
G1 Z2.000 F7800.000
G1 X90.526 Y110.129 F7800.000
G1 X89.871 Y109.474 E790.12816 F4800.000
G1 X89.871 Y108.606 E790.34510
G1 X91.394 Y110.129 E790.88340
G1 X92.262 Y110.129 E791.10034
G1 X89.871 Y107.738 E791.94543
G1 X89.871 Y106.871 E792.16236
G1 X93.129 Y110.129 E793.31425
G1 X93.997 Y110.129 E793.53119
G1 X89.871 Y106.003 E794.98987
G1 X89.871 Y105.135 E795.20681
G1 X94.865 Y110.129 E796.97229
G1 X95.733 Y110.129 E797.18923
G1 X89.871 Y104.267 E799.26150
G1 X89.871 Y103.400 E799.47844
G1 X96.600 Y110.129 E801.85751
G1 X97.468 Y110.129 E802.07445
G1 X89.871 Y102.532 E804.76032
G1 X89.871 Y101.664 E804.97726
G1 X98.336 Y110.129 E807.96992
G1 X99.204 Y110.129 E808.18686
G1 X89.871 Y100.796 E811.48632
G1 X89.871 Y99.929 E811.70326
G1 X100.071 Y110.129 E815.30951
G1 X100.939 Y110.129 E815.52645
G1 X89.871 Y99.061 E819.43950
G1 X89.871 Y98.193 E819.65644
G1 X101.807 Y110.129 E823.87629
G1 X102.675 Y110.129 E824.09323
G1 X89.871 Y97.325 E828.61987
G1 X89.871 Y96.458 E828.83681
G1 X103.542 Y110.129 E833.67025
G1 X104.410 Y110.129 E833.88719
G1 X89.871 Y95.590 E839.02743
G1 X89.871 Y94.722 E839.24437
G1 X105.278 Y110.129 E844.69140
G1 X106.146 Y110.129 E844.90834
G1 X89.871 Y93.854 E850.66217
G1 X89.871 Y92.987 E850.87910
G1 X107.013 Y110.129 E856.93973
G1 X107.881 Y110.129 E857.15667
G1 X89.871 Y92.119 E863.52409
G1 X89.871 Y91.251 E863.74103
G1 X108.749 Y110.129 E870.41524
G1 X109.617 Y110.129 E870.63218
G1 X89.871 Y90.383 E877.61320
G1 X90.227 Y89.871 E877.76907
G1 X110.129 Y109.773 E884.80542
G1 X110.129 Y108.905 E885.02236
G1 X91.095 Y89.871 E891.75192
G1 X91.962 Y89.871 E891.96886
G1 X110.129 Y108.038 E898.39162
G1 X110.129 Y107.170 E898.60855
G1 X92.830 Y89.871 E904.72452
G1 X93.698 Y89.871 E904.94146
G1 X110.129 Y106.302 E910.75063
G1 X110.129 Y105.434 E910.96756
G1 X94.566 Y89.871 E916.46994
G1 X95.433 Y89.871 E916.68687
G1 X110.129 Y104.567 E921.88245
G1 X110.129 Y103.699 E922.09939
G1 X96.301 Y89.871 E926.98817
G1 X97.169 Y89.871 E927.20511
G1 X110.129 Y102.831 E931.78709
G1 X110.129 Y101.963 E932.00403
G1 X98.037 Y89.871 E936.27922
G1 X98.904 Y89.871 E936.49615
G1 X110.129 Y101.096 E940.46455
G1 X110.129 Y100.228 E940.68148
G1 X99.772 Y89.871 E944.34308
G1 X100.640 Y89.871 E944.56002
G1 X110.129 Y99.360 E947.91482
G1 X110.129 Y98.492 E948.13176
G1 X101.508 Y89.871 E951.17976
G1 X102.375 Y89.871 E951.39670
G1 X110.129 Y97.625 E954.13791
G1 X110.129 Y96.757 E954.35484
G1 X103.243 Y89.871 E956.78925
G1 X104.111 Y89.871 E957.00619
G1 X110.129 Y95.889 E959.13381
G1 X110.129 Y95.021 E959.35074
G1 X104.979 Y89.871 E961.17156
G1 X105.846 Y89.871 E961.38850
G1 X110.129 Y94.154 E962.90253
G1 X110.129 Y93.286 E963.11946
G1 X106.714 Y89.871 E964.32669
G1 X107.582 Y89.871 E964.54363
G1 X110.129 Y92.418 E965.44406
G1 X110.129 Y91.550 E965.66100
G1 X108.450 Y89.871 E966.25463
G1 X109.317 Y89.871 E966.47157
G1 X110.129 Y90.683 E966.75841
G1 Z2.400 F7800.000
G1 X109.317 Y110.129 F7800.000
G1 X110.129 Y109.317 E967.04525 F4800.000
G1 X110.129 Y108.450 E967.26218
G1 X108.450 Y110.129 E967.85582
G1 X107.582 Y110.129 E968.07276
G1 X110.129 Y107.582 E968.97319
G1 X110.129 Y106.714 E969.19012
G1 X106.714 Y110.129 E970.39735
G1 X105.846 Y110.129 E970.61429
G1 X110.129 Y105.846 E972.12831
G1 X110.129 Y104.979 E972.34525
G1 X104.979 Y110.129 E974.16607
G1 X104.111 Y110.129 E974.38301
G1 X110.129 Y104.111 E976.51062
G1 X110.129 Y103.243 E976.72756
G1 X103.243 Y110.129 E979.16197
G1 X102.375 Y110.129 E979.37891
G1 X110.129 Y102.375 E982.12012
G1 X110.129 Y101.508 E982.33705
G1 X101.508 Y110.129 E985.38506
G1 X100.640 Y110.129 E985.60199
G1 X110.129 Y100.640 E988.95679
G1 X110.129 Y99.772 E989.17373
G1 X99.772 Y110.129 E992.83533
G1 X98.904 Y110.129 E993.05226
G1 X110.129 Y98.904 E997.02066
G1 X110.129 Y98.037 E997.23759
G1 X98.037 Y110.129 E1001.51278
G1 X97.169 Y110.129 E1001.72972
G1 X110.129 Y97.169 E1006.31170
G1 X110.129 Y96.301 E1006.52864
G1 X96.301 Y110.129 E1011.41742
G1 X95.433 Y110.129 E1011.63436
G1 X110.129 Y95.433 E1016.82994
G1 X110.129 Y94.566 E1017.04687
G1 X94.566 Y110.129 E1022.54925
G1 X93.698 Y110.129 E1022.76618
G1 X110.129 Y93.698 E1028.57535
G1 X110.129 Y92.830 E1028.79229
G1 X92.830 Y110.129 E1034.90825
G1 X91.962 Y110.129 E1035.12519
G1 X110.129 Y91.962 E1041.54795
G1 X110.129 Y91.095 E1041.76489
G1 X91.095 Y110.129 E1048.49445
G1 X90.227 Y110.129 E1048.71138
G1 X110.129 Y90.227 E1055.74774
G1 X109.617 Y89.871 E1055.90361
G1 X89.871 Y109.617 E1062.88463
G1 X89.871 Y108.749 E1063.10156
G1 X108.749 Y89.871 E1069.77578
G1 X107.881 Y89.871 E1069.99272
G1 X89.871 Y107.881 E1076.36014
G1 X89.871 Y107.013 E1076.57708
G1 X107.013 Y89.871 E1082.63771
G1 X106.146 Y89.871 E1082.85465
G1 X89.871 Y106.146 E1088.60848
G1 X89.871 Y105.278 E1088.82541
G1 X105.278 Y89.871 E1094.27245
G1 X104.410 Y89.871 E1094.48939
G1 X89.871 Y104.410 E1099.62962
G1 X89.871 Y103.542 E1099.84656
G1 X103.542 Y89.871 E1104.68000
G1 X102.675 Y89.871 E1104.89694
G1 X89.871 Y102.675 E1109.42359
G1 X89.871 Y101.807 E1109.64052
G1 X101.807 Y89.871 E1113.86037
G1 X100.939 Y89.871 E1114.07731
G1 X89.871 Y100.939 E1117.99036
G1 X89.871 Y100.071 E1118.20730
G1 X100.071 Y89.871 E1121.81356
G1 X99.204 Y89.871 E1122.03050
G1 X89.871 Y99.204 E1125.32996
G1 X89.871 Y98.336 E1125.54690
G1 X98.336 Y89.871 E1128.53956
G1 X97.468 Y89.871 E1128.75650
G1 X89.871 Y97.468 E1131.44237
G1 X89.871 Y96.600 E1131.65930
G1 X96.600 Y89.871 E1134.03838
G1 X95.733 Y89.871 E1134.25531
G1 X89.871 Y95.733 E1136.32759
G1 X89.871 Y94.865 E1136.54453
G1 X94.865 Y89.871 E1138.31001
G1 X93.997 Y89.871 E1138.52695
G1 X89.871 Y93.997 E1139.98563
G1 X89.871 Y93.129 E1140.20257
G1 X93.129 Y89.871 E1141.35445
G1 X92.262 Y89.871 E1141.57139
G1 X89.871 Y92.262 E1142.41648
G1 X89.871 Y91.394 E1142.63342
G1 X91.394 Y89.871 E1143.17172
G1 X90.526 Y89.871 E1143.38865
G1 X89.871 Y90.526 E1143.62015
G1 Z2.800 F7800.000
G1 X90.526 Y110.129 F7800.000
G1 X89.871 Y109.474 E1143.85165 F4800.000
G1 X89.871 Y108.606 E1144.06859
G1 X91.394 Y110.129 E1144.60688
G1 X92.262 Y110.129 E1144.82382
G1 X89.871 Y107.738 E1145.66891
G1 X89.871 Y106.871 E1145.88585
G1 X93.129 Y110.129 E1147.03774
G1 X93.997 Y110.129 E1147.25468
G1 X89.871 Y106.003 E1148.71336
G1 X89.871 Y105.135 E1148.93030
G1 X94.865 Y110.129 E1150.69578
G1 X95.733 Y110.129 E1150.91272
G1 X89.871 Y104.267 E1152.98499
G1 X89.871 Y103.400 E1153.20193
G1 X96.600 Y110.129 E1155.58100
G1 X97.468 Y110.129 E1155.79794
G1 X89.871 Y102.532 E1158.48381
G1 X89.871 Y101.664 E1158.70074
G1 X98.336 Y110.129 E1161.69341
G1 X99.204 Y110.129 E1161.91035
G1 X89.871 Y100.796 E1165.20981
G1 X89.871 Y99.929 E1165.42674
G1 X100.071 Y110.129 E1169.03300
G1 X100.939 Y110.129 E1169.24994
G1 X89.871 Y99.061 E1173.16299
G1 X89.871 Y98.193 E1173.37993
G1 X101.807 Y110.129 E1177.59978
G1 X102.675 Y110.129 E1177.81672
G1 X89.871 Y97.325 E1182.34336
G1 X89.871 Y96.458 E1182.56030
G1 X103.542 Y110.129 E1187.39374
G1 X104.410 Y110.129 E1187.61068
G1 X89.871 Y95.590 E1192.75092
G1 X89.871 Y94.722 E1192.96785
G1 X105.278 Y110.129 E1198.41489
G1 X106.146 Y110.129 E1198.63182
G1 X89.871 Y93.854 E1204.38565
G1 X89.871 Y92.987 E1204.60259
G1 X107.013 Y110.129 E1210.66322
G1 X107.881 Y110.129 E1210.88015
G1 X89.871 Y92.119 E1217.24758
G1 X89.871 Y91.251 E1217.46451
G1 X108.749 Y110.129 E1224.13873
G1 X109.617 Y110.129 E1224.35567
G1 X89.871 Y90.383 E1231.33668
G1 X90.227 Y89.871 E1231.49256
G1 X110.129 Y109.773 E1238.52891
G1 X110.129 Y108.905 E1238.74585
G1 X91.095 Y89.871 E1245.47541
G1 X91.962 Y89.871 E1245.69234
G1 X110.129 Y108.038 E1252.11510
G1 X110.129 Y107.170 E1252.33204
G1 X92.830 Y89.871 E1258.44801
G1 X93.698 Y89.871 E1258.66494
G1 X110.129 Y106.302 E1264.47411
G1 X110.129 Y105.434 E1264.69105
G1 X94.566 Y89.871 E1270.19342
G1 X95.433 Y89.871 E1270.41036
G1 X110.129 Y104.567 E1275.60594
G1 X110.129 Y103.699 E1275.82287
G1 X96.301 Y89.871 E1280.71166
G1 X97.169 Y89.871 E1280.92859
G1 X110.129 Y102.831 E1285.51058
G1 X110.129 Y101.963 E1285.72752
G1 X98.037 Y89.871 E1290.00270
G1 X98.904 Y89.871 E1290.21964
G1 X110.129 Y101.096 E1294.18803
G1 X110.129 Y100.228 E1294.40497
G1 X99.772 Y89.871 E1298.06657
G1 X100.640 Y89.871 E1298.28351
G1 X110.129 Y99.360 E1301.63831
G1 X110.129 Y98.492 E1301.85524
G1 X101.508 Y89.871 E1304.90325
G1 X102.375 Y89.871 E1305.12018
G1 X110.129 Y97.625 E1307.86139
G1 X110.129 Y96.757 E1308.07833
G1 X103.243 Y89.871 E1310.51274
G1 X104.111 Y89.871 E1310.72968
G1 X110.129 Y95.889 E1312.85729
G1 X110.129 Y95.021 E1313.07423
G1 X104.979 Y89.871 E1314.89505
G1 X105.846 Y89.871 E1315.11199
G1 X110.129 Y94.154 E1316.62601
G1 X110.129 Y93.286 E1316.84295
G1 X106.714 Y89.871 E1318.05018
G1 X107.582 Y89.871 E1318.26712
G1 X110.129 Y92.418 E1319.16755
G1 X110.129 Y91.550 E1319.38448
G1 X108.450 Y89.871 E1319.97812
G1 X109.317 Y89.871 E1320.19506
G1 X110.129 Y90.683 E1320.48190
G1 Z3.200 F7800.000
G1 X109.317 Y110.129 F7800.000
G1 X110.129 Y109.317 E1320.76873 F4800.000
G1 X110.129 Y108.450 E1320.98567
G1 X108.450 Y110.129 E1321.57931
G1 X107.582 Y110.129 E1321.79624
G1 X110.129 Y107.582 E1322.69667
G1 X110.129 Y106.714 E1322.91361
G1 X106.714 Y110.129 E1324.12084
G1 X105.846 Y110.129 E1324.33778
G1 X110.129 Y105.846 E1325.85180
G1 X110.129 Y104.979 E1326.06874
G1 X104.979 Y110.129 E1327.88956
G1 X104.111 Y110.129 E1328.10649
G1 X110.129 Y104.111 E1330.23411
G1 X110.129 Y103.243 E1330.45105
G1 X103.243 Y110.129 E1332.88546
G1 X102.375 Y110.129 E1333.10240
G1 X110.129 Y102.375 E1335.84360
G1 X110.129 Y101.508 E1336.06054
G1 X101.508 Y110.129 E1339.10854
G1 X100.640 Y110.129 E1339.32548
G1 X110.129 Y100.640 E1342.68028
G1 X110.129 Y99.772 E1342.89722
G1 X99.772 Y110.129 E1346.55881
G1 X98.904 Y110.129 E1346.77575
G1 X110.129 Y98.904 E1350.74414
G1 X110.129 Y98.037 E1350.96108
G1 X98.037 Y110.129 E1355.23627
G1 X97.169 Y110.129 E1355.45321
G1 X110.129 Y97.169 E1360.03519
G1 X110.129 Y96.301 E1360.25213
G1 X96.301 Y110.129 E1365.14091
G1 X95.433 Y110.129 E1365.35785
G1 X110.129 Y95.433 E1370.55342
G1 X110.129 Y94.566 E1370.77036
G1 X94.566 Y110.129 E1376.27273
G1 X93.698 Y110.129 E1376.48967
G1 X110.129 Y93.698 E1382.29884
G1 X110.129 Y92.830 E1382.51578
G1 X92.830 Y110.129 E1388.63174
G1 X91.962 Y110.129 E1388.84868
G1 X110.129 Y91.962 E1395.27144
G1 X110.129 Y91.095 E1395.48838
G1 X91.095 Y110.129 E1402.21793
G1 X90.227 Y110.129 E1402.43487
G1 X110.129 Y90.227 E1409.47123
G1 X109.617 Y89.871 E1409.62710
G1 X89.871 Y109.617 E1416.60811
G1 X89.871 Y108.749 E1416.82505
G1 X108.749 Y89.871 E1423.49927
G1 X107.881 Y89.871 E1423.71621
G1 X89.871 Y107.881 E1430.08363
G1 X89.871 Y107.013 E1430.30057
G1 X107.013 Y89.871 E1436.36120
G1 X106.146 Y89.871 E1436.57813
G1 X89.871 Y106.146 E1442.33196
G1 X89.871 Y105.278 E1442.54890
G1 X105.278 Y89.871 E1447.99594
G1 X104.410 Y89.871 E1448.21287
G1 X89.871 Y104.410 E1453.35311
G1 X89.871 Y103.542 E1453.57005
G1 X103.542 Y89.871 E1458.40349
G1 X102.675 Y89.871 E1458.62043
G1 X89.871 Y102.675 E1463.14707
G1 X89.871 Y101.807 E1463.36401
G1 X101.807 Y89.871 E1467.58386
G1 X100.939 Y89.871 E1467.80080
G1 X89.871 Y100.939 E1471.71385
G1 X89.871 Y100.071 E1471.93079
G1 X100.071 Y89.871 E1475.53705
G1 X99.204 Y89.871 E1475.75398
G1 X89.871 Y99.204 E1479.05344
G1 X89.871 Y98.336 E1479.27038
G1 X98.336 Y89.871 E1482.26305
G1 X97.468 Y89.871 E1482.47999
G1 X89.871 Y97.468 E1485.16585
G1 X89.871 Y96.600 E1485.38279
G1 X96.600 Y89.871 E1487.76186
G1 X95.733 Y89.871 E1487.97880
G1 X89.871 Y95.733 E1490.05108
G1 X89.871 Y94.865 E1490.26801
G1 X94.865 Y89.871 E1492.03350
G1 X93.997 Y89.871 E1492.25043
G1 X89.871 Y93.997 E1493.70912
G1 X89.871 Y93.129 E1493.92605
G1 X93.129 Y89.871 E1495.07794
G1 X92.262 Y89.871 E1495.29488
G1 X89.871 Y92.262 E1496.13997
G1 X89.871 Y91.394 E1496.35691
G1 X91.394 Y89.871 E1496.89520
G1 X90.526 Y89.871 E1497.11214
G1 X89.871 Y90.526 E1497.34364
G1 Z3.600 F7800.000
G1 X90.526 Y110.129 F7800.000
G1 X89.871 Y109.474 E1497.57514 F4800.000
G1 X89.871 Y108.606 E1497.79208
G1 X91.394 Y110.129 E1498.33037
G1 X92.262 Y110.129 E1498.54731
G1 X89.871 Y107.738 E1499.39240
G1 X89.871 Y106.871 E1499.60934
G1 X93.129 Y110.129 E1500.76123
G1 X93.997 Y110.129 E1500.97816
G1 X89.871 Y106.003 E1502.43685
G1 X89.871 Y105.135 E1502.65379
G1 X94.865 Y110.129 E1504.41927
G1 X95.733 Y110.129 E1504.63620
G1 X89.871 Y104.267 E1506.70848
G1 X89.871 Y103.400 E1506.92542
G1 X96.600 Y110.129 E1509.30449
G1 X97.468 Y110.129 E1509.52143
G1 X89.871 Y102.532 E1512.20729
G1 X89.871 Y101.664 E1512.42423
G1 X98.336 Y110.129 E1515.41690
G1 X99.204 Y110.129 E1515.63383
G1 X89.871 Y100.796 E1518.93329
G1 X89.871 Y99.929 E1519.15023
G1 X100.071 Y110.129 E1522.75649
G1 X100.939 Y110.129 E1522.97343
G1 X89.871 Y99.061 E1526.88648
G1 X89.871 Y98.193 E1527.10342
G1 X101.807 Y110.129 E1531.32327
G1 X102.675 Y110.129 E1531.54020
G1 X89.871 Y97.325 E1536.06685
G1 X89.871 Y96.458 E1536.28379
G1 X103.542 Y110.129 E1541.11723
G1 X104.410 Y110.129 E1541.33417
G1 X89.871 Y95.590 E1546.47440
G1 X89.871 Y94.722 E1546.69134
G1 X105.278 Y110.129 E1552.13837
G1 X106.146 Y110.129 E1552.35531
G1 X89.871 Y93.854 E1558.10914
G1 X89.871 Y92.987 E1558.32608
G1 X107.013 Y110.129 E1564.38670
G1 X107.881 Y110.129 E1564.60364
G1 X89.871 Y92.119 E1570.97106
G1 X89.871 Y91.251 E1571.18800
G1 X108.749 Y110.129 E1577.86222
G1 X109.617 Y110.129 E1578.07916
G1 X89.871 Y90.383 E1585.06017
G1 X90.227 Y89.871 E1585.21604
G1 X110.129 Y109.773 E1592.25240
G1 X110.129 Y108.905 E1592.46934
G1 X91.095 Y89.871 E1599.19889
G1 X91.962 Y89.871 E1599.41583
G1 X110.129 Y108.038 E1605.83859
G1 X110.129 Y107.170 E1606.05553
G1 X92.830 Y89.871 E1612.17149
G1 X93.698 Y89.871 E1612.38843
G1 X110.129 Y106.302 E1618.19760
G1 X110.129 Y105.434 E1618.41454
G1 X94.566 Y89.871 E1623.91691
G1 X95.433 Y89.871 E1624.13385
G1 X110.129 Y104.567 E1629.32942
G1 X110.129 Y103.699 E1629.54636
G1 X96.301 Y89.871 E1634.43514
G1 X97.169 Y89.871 E1634.65208
G1 X110.129 Y102.831 E1639.23407
G1 X110.129 Y101.963 E1639.45100
G1 X98.037 Y89.871 E1643.72619
G1 X98.904 Y89.871 E1643.94313
G1 X110.129 Y101.096 E1647.91152
G1 X110.129 Y100.228 E1648.12846
G1 X99.772 Y89.871 E1651.79006
G1 X100.640 Y89.871 E1652.00699
G1 X110.129 Y99.360 E1655.36179
G1 X110.129 Y98.492 E1655.57873
G1 X101.508 Y89.871 E1658.62673
G1 X102.375 Y89.871 E1658.84367
G1 X110.129 Y97.625 E1661.58488
G1 X110.129 Y96.757 E1661.80182
G1 X103.243 Y89.871 E1664.23623
G1 X104.111 Y89.871 E1664.45317
G1 X110.129 Y95.889 E1666.58078
G1 X110.129 Y95.021 E1666.79772
G1 X104.979 Y89.871 E1668.61854
G1 X105.846 Y89.871 E1668.83548
G1 X110.129 Y94.154 E1670.34950
G1 X110.129 Y93.286 E1670.56644
G1 X106.714 Y89.871 E1671.77367
G1 X107.582 Y89.871 E1671.99060
G1 X110.129 Y92.418 E1672.89103
G1 X110.129 Y91.550 E1673.10797
G1 X108.450 Y89.871 E1673.70161
G1 X109.317 Y89.871 E1673.91854
G1 X110.129 Y90.683 E1674.20538
G1 Z4.000 F7800.000
G1 X109.317 Y110.129 F7800.000
G1 X110.129 Y109.317 E1674.49222 F4800.000
G1 X110.129 Y108.450 E1674.70916
G1 X108.450 Y110.129 E1675.30279
G1 X107.582 Y110.129 E1675.51973
G1 X110.129 Y107.582 E1676.42016
G1 X110.129 Y106.714 E1676.63710
G1 X106.714 Y110.129 E1677.84433
G1 X105.846 Y110.129 E1678.06126
G1 X110.129 Y105.846 E1679.57529
G1 X110.129 Y104.979 E1679.79222
G1 X104.979 Y110.129 E1681.61304
G1 X104.111 Y110.129 E1681.82998
G1 X110.129 Y104.111 E1683.95760
G1 X110.129 Y103.243 E1684.17453
G1 X103.243 Y110.129 E1686.60894
G1 X102.375 Y110.129 E1686.82588
G1 X110.129 Y102.375 E1689.56709
G1 X110.129 Y101.508 E1689.78403
G1 X101.508 Y110.129 E1692.83203
G1 X100.640 Y110.129 E1693.04897
G1 X110.129 Y100.640 E1696.40377
G1 X110.129 Y99.772 E1696.62071
G1 X99.772 Y110.129 E1700.28230
G1 X98.904 Y110.129 E1700.49924
G1 X110.129 Y98.904 E1704.46763
G1 X110.129 Y98.037 E1704.68457
G1 X98.037 Y110.129 E1708.95976
G1 X97.169 Y110.129 E1709.17669
G1 X110.129 Y97.169 E1713.75868
G1 X110.129 Y96.301 E1713.97562
G1 X96.301 Y110.129 E1718.86440
G1 X95.433 Y110.129 E1719.08133
G1 X110.129 Y95.433 E1724.27691
G1 X110.129 Y94.566 E1724.49385
G1 X94.566 Y110.129 E1729.99622
G1 X93.698 Y110.129 E1730.21316
G1 X110.129 Y93.698 E1736.02233
G1 X110.129 Y92.830 E1736.23926
G1 X92.830 Y110.129 E1742.35523
G1 X91.962 Y110.129 E1742.57217
G1 X110.129 Y91.962 E1748.99493
G1 X110.129 Y91.095 E1749.21186
G1 X91.095 Y110.129 E1755.94142
G1 X90.227 Y110.129 E1756.15836
G1 X110.129 Y90.227 E1763.19471
G1 X109.617 Y89.871 E1763.35059
G1 X89.871 Y109.617 E1770.33160
G1 X89.871 Y108.749 E1770.54854
G1 X108.749 Y89.871 E1777.22276
G1 X107.881 Y89.871 E1777.43970
G1 X89.871 Y107.881 E1783.80712
G1 X89.871 Y107.013 E1784.02406
G1 X107.013 Y89.871 E1790.08468
G1 X106.146 Y89.871 E1790.30162
G1 X89.871 Y106.146 E1796.05545
G1 X89.871 Y105.278 E1796.27239
G1 X105.278 Y89.871 E1801.71942
G1 X104.410 Y89.871 E1801.93636
G1 X89.871 Y104.410 E1807.07660
G1 X89.871 Y103.542 E1807.29354
G1 X103.542 Y89.871 E1812.12698
G1 X102.675 Y89.871 E1812.34392
G1 X89.871 Y102.675 E1816.87056
G1 X89.871 Y101.807 E1817.08750
G1 X101.807 Y89.871 E1821.30735
G1 X100.939 Y89.871 E1821.52429
G1 X89.871 Y100.939 E1825.43734
G1 X89.871 Y100.071 E1825.65428
G1 X100.071 Y89.871 E1829.26053
G1 X99.204 Y89.871 E1829.47747
G1 X89.871 Y99.204 E1832.77693
G1 X89.871 Y98.336 E1832.99387
G1 X98.336 Y89.871 E1835.98653
G1 X97.468 Y89.871 E1836.20347
G1 X89.871 Y97.468 E1838.88934
G1 X89.871 Y96.600 E1839.10628
G1 X96.600 Y89.871 E1841.48535
G1 X95.733 Y89.871 E1841.70229
G1 X89.871 Y95.733 E1843.77456
G1 X89.871 Y94.865 E1843.99150
G1 X94.865 Y89.871 E1845.75698
G1 X93.997 Y89.871 E1845.97392
G1 X89.871 Y93.997 E1847.43260
G1 X89.871 Y93.129 E1847.64954
G1 X93.129 Y89.871 E1848.80143
G1 X92.262 Y89.871 E1849.01837
G1 X89.871 Y92.262 E1849.86346
G1 X89.871 Y91.394 E1850.08040
G1 X91.394 Y89.871 E1850.61869
G1 X90.526 Y89.871 E1850.83563
G1 X89.871 Y90.526 E1851.06713
G1 Z4.400 F7800.000
G1 X90.526 Y110.129 F7800.000
G1 X89.871 Y109.474 E1851.29863 F4800.000
G1 X89.871 Y108.606 E1851.51556
G1 X91.394 Y110.129 E1852.05386
G1 X92.262 Y110.129 E1852.27080
G1 X89.871 Y107.738 E1853.11589
G1 X89.871 Y106.871 E1853.33283
G1 X93.129 Y110.129 E1854.48471
G1 X93.997 Y110.129 E1854.70165
G1 X89.871 Y106.003 E1856.16033
G1 X89.871 Y105.135 E1856.37727
G1 X94.865 Y110.129 E1858.14275
G1 X95.733 Y110.129 E1858.35969
G1 X89.871 Y104.267 E1860.43197
G1 X89.871 Y103.400 E1860.64890
G1 X96.600 Y110.129 E1863.02798
G1 X97.468 Y110.129 E1863.24491
G1 X89.871 Y102.532 E1865.93078
G1 X89.871 Y101.664 E1866.14772
G1 X98.336 Y110.129 E1869.14038
G1 X99.204 Y110.129 E1869.35732
G1 X89.871 Y100.796 E1872.65678
G1 X89.871 Y99.929 E1872.87372
G1 X100.071 Y110.129 E1876.47998
G1 X100.939 Y110.129 E1876.69691
G1 X89.871 Y99.061 E1880.60997
G1 X89.871 Y98.193 E1880.82690
G1 X101.807 Y110.129 E1885.04675
G1 X102.675 Y110.129 E1885.26369
G1 X89.871 Y97.325 E1889.79034
G1 X89.871 Y96.458 E1890.00727
G1 X103.542 Y110.129 E1894.84072
G1 X104.410 Y110.129 E1895.05765
G1 X89.871 Y95.590 E1900.19789
G1 X89.871 Y94.722 E1900.41483
G1 X105.278 Y110.129 E1905.86186
G1 X106.146 Y110.129 E1906.07880
G1 X89.871 Y93.854 E1911.83263
G1 X89.871 Y92.987 E1912.04957
G1 X107.013 Y110.129 E1918.11019
G1 X107.881 Y110.129 E1918.32713
G1 X89.871 Y92.119 E1924.69455
G1 X89.871 Y91.251 E1924.91149
G1 X108.749 Y110.129 E1931.58571
G1 X109.617 Y110.129 E1931.80264
G1 X89.871 Y90.383 E1938.78366
G1 X90.227 Y89.871 E1938.93953
G1 X110.129 Y109.773 E1945.97589
G1 X110.129 Y108.905 E1946.19282
G1 X91.095 Y89.871 E1952.92238
G1 X91.962 Y89.871 E1953.13932
G1 X110.129 Y108.038 E1959.56208
G1 X110.129 Y107.170 E1959.77902
G1 X92.830 Y89.871 E1965.89498
G1 X93.698 Y89.871 E1966.11192
G1 X110.129 Y106.302 E1971.92109
G1 X110.129 Y105.434 E1972.13803
G1 X94.566 Y89.871 E1977.64040
G1 X95.433 Y89.871 E1977.85734
G1 X110.129 Y104.567 E1983.05291
G1 X110.129 Y103.699 E1983.26985
G1 X96.301 Y89.871 E1988.15863
G1 X97.169 Y89.871 E1988.37557
G1 X110.129 Y102.831 E1992.95755
G1 X110.129 Y101.963 E1993.17449
G1 X98.037 Y89.871 E1997.44968
G1 X98.904 Y89.871 E1997.66662
G1 X110.129 Y101.096 E2001.63501
G1 X110.129 Y100.228 E2001.85195
G1 X99.772 Y89.871 E2005.51354
G1 X100.640 Y89.871 E2005.73048
G1 X110.129 Y99.360 E2009.08528
G1 X110.129 Y98.492 E2009.30222
G1 X101.508 Y89.871 E2012.35022
G1 X102.375 Y89.871 E2012.56716
G1 X110.129 Y97.625 E2015.30837
G1 X110.129 Y96.757 E2015.52531
G1 X103.243 Y89.871 E2017.95972
G1 X104.111 Y89.871 E2018.17665
G1 X110.129 Y95.889 E2020.30427
G1 X110.129 Y95.021 E2020.52121
G1 X104.979 Y89.871 E2022.34203
G1 X105.846 Y89.871 E2022.55896
G1 X110.129 Y94.154 E2024.07299
G1 X110.129 Y93.286 E2024.28993
G1 X106.714 Y89.871 E2025.49715
G1 X107.582 Y89.871 E2025.71409
G1 X110.129 Y92.418 E2026.61452
G1 X110.129 Y91.550 E2026.83146
G1 X108.450 Y89.871 E2027.42509
G1 X109.317 Y89.871 E2027.64203
G1 X110.129 Y90.683 E2027.92887
G1 Z4.800 F7800.000
G1 X109.317 Y110.129 F7800.000
G1 X110.129 Y109.317 E2028.21571 F4800.000
G1 X110.129 Y108.450 E2028.43265
G1 X108.450 Y110.129 E2029.02628
G1 X107.582 Y110.129 E2029.24322
G1 X110.129 Y107.582 E2030.14365
G1 X110.129 Y106.714 E2030.36059
G1 X106.714 Y110.129 E2031.56781
G1 X105.846 Y110.129 E2031.78475
G1 X110.129 Y105.846 E2033.29877
G1 X110.129 Y104.979 E2033.51571
G1 X104.979 Y110.129 E2035.33653
G1 X104.111 Y110.129 E2035.55347
G1 X110.129 Y104.111 E2037.68108
G1 X110.129 Y103.243 E2037.89802
G1 X103.243 Y110.129 E2040.33243
G1 X102.375 Y110.129 E2040.54937
G1 X110.129 Y102.375 E2043.29058
G1 X110.129 Y101.508 E2043.50752
G1 X101.508 Y110.129 E2046.55552
G1 X100.640 Y110.129 E2046.77246
G1 X110.129 Y100.640 E2050.12726
G1 X110.129 Y99.772 E2050.34419
G1 X99.772 Y110.129 E2054.00579
G1 X98.904 Y110.129 E2054.22273
G1 X110.129 Y98.904 E2058.19112
G1 X110.129 Y98.037 E2058.40806
G1 X98.037 Y110.129 E2062.68324
G1 X97.169 Y110.129 E2062.90018
G1 X110.129 Y97.169 E2067.48217
G1 X110.129 Y96.301 E2067.69910
G1 X96.301 Y110.129 E2072.58788
G1 X95.433 Y110.129 E2072.80482
G1 X110.129 Y95.433 E2078.00040
G1 X110.129 Y94.566 E2078.21734
G1 X94.566 Y110.129 E2083.71971
G1 X93.698 Y110.129 E2083.93665
G1 X110.129 Y93.698 E2089.74581
G1 X110.129 Y92.830 E2089.96275
G1 X92.830 Y110.129 E2096.07872
G1 X91.962 Y110.129 E2096.29565
G1 X110.129 Y91.962 E2102.71841
G1 X110.129 Y91.095 E2102.93535
G1 X91.095 Y110.129 E2109.66491
G1 X90.227 Y110.129 E2109.88185
G1 X110.129 Y90.227 E2116.91820
G1 X109.617 Y89.871 E2117.07407
G1 X89.871 Y109.617 E2124.05509
G1 X89.871 Y108.749 E2124.27203
G1 X108.749 Y89.871 E2130.94625
G1 X107.881 Y89.871 E2131.16318
G1 X89.871 Y107.881 E2137.53061
G1 X89.871 Y107.013 E2137.74754
G1 X107.013 Y89.871 E2143.80817
G1 X106.146 Y89.871 E2144.02511
G1 X89.871 Y106.146 E2149.77894
G1 X89.871 Y105.278 E2149.99588
G1 X105.278 Y89.871 E2155.44291
G1 X104.410 Y89.871 E2155.65985
G1 X89.871 Y104.410 E2160.80009
G1 X89.871 Y103.542 E2161.01702
G1 X103.542 Y89.871 E2165.85047
G1 X102.675 Y89.871 E2166.06740
G1 X89.871 Y102.675 E2170.59405
G1 X89.871 Y101.807 E2170.81099
G1 X101.807 Y89.871 E2175.03084
G1 X100.939 Y89.871 E2175.24777
G1 X89.871 Y100.939 E2179.16083
G1 X89.871 Y100.071 E2179.37776
G1 X100.071 Y89.871 E2182.98402
G1 X99.204 Y89.871 E2183.20096
G1 X89.871 Y99.204 E2186.50042
G1 X89.871 Y98.336 E2186.71736
G1 X98.336 Y89.871 E2189.71002
G1 X97.468 Y89.871 E2189.92696
G1 X89.871 Y97.468 E2192.61283
G1 X89.871 Y96.600 E2192.82977
G1 X96.600 Y89.871 E2195.20884
G1 X95.733 Y89.871 E2195.42578
G1 X89.871 Y95.733 E2197.49805
G1 X89.871 Y94.865 E2197.71499
G1 X94.865 Y89.871 E2199.48047
G1 X93.997 Y89.871 E2199.69741
G1 X89.871 Y93.997 E2201.15609
G1 X89.871 Y93.129 E2201.37303
G1 X93.129 Y89.871 E2202.52492
G1 X92.262 Y89.871 E2202.74185
G1 X89.871 Y92.262 E2203.58695
G1 X89.871 Y91.394 E2203.80388
G1 X91.394 Y89.871 E2204.34218
G1 X90.526 Y89.871 E2204.55912
G1 X89.871 Y90.526 E2204.79062
G1 Z5.200 F7800.000
G1 E2202.79062 F2400.00000
G92 E0
G1 X90.526 Y110.129 F7800.000
G1 E2.00000 F2400.00000
G1 X89.871 Y109.474 E2.23150 F4800.000
G1 X89.871 Y108.606 E2.44844
G1 X91.394 Y110.129 E2.98673
G1 X92.262 Y110.129 E3.20367
G1 X89.871 Y107.738 E4.04876
G1 X89.871 Y106.871 E4.26570
G1 X93.129 Y110.129 E5.41759
G1 X93.997 Y110.129 E5.63452
G1 X89.871 Y106.003 E7.09321
G1 X89.871 Y105.135 E7.31014
G1 X94.865 Y110.129 E9.07563
G1 X95.733 Y110.129 E9.29256
G1 X89.871 Y104.267 E11.36484
G1 X89.871 Y103.400 E11.58178
G1 X96.600 Y110.129 E13.96085
G1 X97.468 Y110.129 E14.17779
G1 X89.871 Y102.532 E16.86365
G1 X89.871 Y101.664 E17.08059
G1 X98.336 Y110.129 E20.07326
G1 X99.204 Y110.129 E20.29019
G1 X89.871 Y100.796 E23.58965
G1 X89.871 Y99.929 E23.80659
G1 X100.071 Y110.129 E27.41285
G1 X100.939 Y110.129 E27.62979
G1 X89.871 Y99.061 E31.54284
G1 X89.871 Y98.193 E31.75978
G1 X101.807 Y110.129 E35.97963
G1 X102.675 Y110.129 E36.19656
G1 X89.871 Y97.325 E40.72321
G1 X89.871 Y96.458 E40.94015
G1 X103.542 Y110.129 E45.77359
G1 X104.410 Y110.129 E45.99053
G1 X89.871 Y95.590 E51.13076
G1 X89.871 Y94.722 E51.34770
G1 X105.278 Y110.129 E56.79473
G1 X106.146 Y110.129 E57.01167
G1 X89.871 Y93.854 E62.76550
G1 X89.871 Y92.987 E62.98244
G1 X107.013 Y110.129 E69.04306
G1 X107.881 Y110.129 E69.26000
G1 X89.871 Y92.119 E75.62742
G1 X89.871 Y91.251 E75.84436
G1 X108.749 Y110.129 E82.51858
G1 X109.617 Y110.129 E82.73552
G1 X89.871 Y90.383 E89.71653
G1 X90.227 Y89.871 E89.87240
G1 X110.129 Y109.773 E96.90876
G1 X110.129 Y108.905 E97.12570
G1 X91.095 Y89.871 E103.85525
G1 X91.962 Y89.871 E104.07219
G1 X110.129 Y108.038 E110.49495
G1 X110.129 Y107.170 E110.71189
G1 X92.830 Y89.871 E116.82785
G1 X93.698 Y89.871 E117.04479
G1 X110.129 Y106.302 E122.85396
G1 X110.129 Y105.434 E123.07090
G1 X94.566 Y89.871 E128.57327
G1 X95.433 Y89.871 E128.79021
G1 X110.129 Y104.567 E133.98578
G1 X110.129 Y103.699 E134.20272
G1 X96.301 Y89.871 E139.09150
G1 X97.169 Y89.871 E139.30844
G1 X110.129 Y102.831 E143.89043
G1 X110.129 Y101.963 E144.10736
G1 X98.037 Y89.871 E148.38255
G1 X98.904 Y89.871 E148.59949
G1 X110.129 Y101.096 E152.56788
G1 X110.129 Y100.228 E152.78482
G1 X99.772 Y89.871 E156.44642
G1 X100.640 Y89.871 E156.66335
G1 X110.129 Y99.360 E160.01815
G1 X110.129 Y98.492 E160.23509
G1 X101.508 Y89.871 E163.28309
G1 X102.375 Y89.871 E163.50003
G1 X110.129 Y97.625 E166.24124
G1 X110.129 Y96.757 E166.45818
G1 X103.243 Y89.871 E168.89259
G1 X104.111 Y89.871 E169.10953
G1 X110.129 Y95.889 E171.23714
G1 X110.129 Y95.021 E171.45408
G1 X104.979 Y89.871 E173.27490
G1 X105.846 Y89.871 E173.49184
G1 X110.129 Y94.154 E175.00586
G1 X110.129 Y93.286 E175.22280
G1 X106.714 Y89.871 E176.43003
G1 X107.582 Y89.871 E176.64696
G1 X110.129 Y92.418 E177.54739
G1 X110.129 Y91.550 E177.76433
G1 X108.450 Y89.871 E178.35797
G1 X109.317 Y89.871 E178.57490
G1 X110.129 Y90.683 E178.86174
G1 E176.86174 F2400.00000
G92 E0
M107
M104 S0 ; turn off temperature
G28 X0  ; home X axis
M84     ; disable motors

; filament used = 2379.7mm (1.9cm3)

; avoid_crossing_perimeters = 0
; bed_shape = 0x0,200x0,200x200,0x200
; bed_temperature = 0
; before_layer_gcode = 
; bridge_acceleration = 0
; bridge_fan_speed = 100
; brim_width = 0
; complete_objects = 0
; cooling = 1
; default_acceleration = 0
; disable_fan_first_layers = 3
; duplicate_distance = 6
; end_gcode = M104 S0 ; turn off temperature\nG28 X0  ; home X axis\nM84     ; disable motors\n
; extruder_clearance_height = 20
; extruder_clearance_radius = 20
; extruder_offset = 0x0
; extrusion_axis = E
; extrusion_multiplier = 1
; fan_always_on = 0
; fan_below_layer_time = 60
; filament_colour = #FFFFFF
; filament_diameter = 1
; first_layer_acceleration = 0
; first_layer_bed_temperature = 0
; first_layer_extrusion_width = 200%
; first_layer_speed = 30
; first_layer_temperature = 200
; gcode_arcs = 0
; gcode_comments = 0
; gcode_flavor = reprap
; infill_acceleration = 0
; infill_first = 0
; layer_gcode = 
; max_fan_speed = 100
; max_print_speed = 80
; max_volumetric_speed = 0
; min_fan_speed = 35
; min_print_speed = 10
; min_skirt_length = 0
; notes = 
; nozzle_diameter = 0.5
; only_retract_when_crossing_perimeters = 1
; ooze_prevention = 0
; output_filename_format = [input_filename_base].gcode
; perimeter_acceleration = 0
; post_process = 
; pressure_advance = 0
; resolution = 0
; retract_before_travel = 2
; retract_layer_change = 0
; retract_length = 2
; retract_length_toolchange = 10
; retract_lift = 0
; retract_restart_extra = 0
; retract_restart_extra_toolchange = 0
; retract_speed = 40
; skirt_distance = 6
; skirt_height = 1
; skirts = 0
; slowdown_below_layer_time = 5
; spiral_vase = 0
; standby_temperature_delta = -5
; start_gcode = G28 ; home all axes\nG1 Z5 F5000 ; lift nozzle\n
; temperature = 200
; threads = 2
; toolchange_gcode = 
; travel_speed = 130
; use_firmware_retraction = 0
; use_relative_e_distances = 0
; use_volumetric_e = 0
; vibration_limit = 0
; wipe = 0
; z_offset = 0
; dont_support_bridges = 1
; extrusion_width = 0
; first_layer_height = 0.4
; infill_only_where_needed = 0
; interface_shells = 0
; layer_height = 0.4
; raft_layers = 0
; seam_position = aligned
; support_material = 0
; support_material_angle = 0
; support_material_contact_distance = 0.2
; support_material_enforce_layers = 0
; support_material_extruder = 1
; support_material_extrusion_width = 0
; support_material_interface_extruder = 1
; support_material_interface_layers = 3
; support_material_interface_spacing = 0
; support_material_interface_speed = 100%
; support_material_pattern = pillars
; support_material_spacing = 2.5
; support_material_speed = 60
; support_material_threshold = 0
; xy_size_compensation = 0
; bottom_solid_layers = 0
; bridge_flow_ratio = 1
; bridge_speed = 60
; external_fill_pattern = rectilinear
; external_perimeter_extrusion_width = 0
; external_perimeter_speed = 50%
; external_perimeters_first = 0
; extra_perimeters = 1
; fill_angle = 45
; fill_density = 80%
; fill_pattern = rectilinear
; gap_fill_speed = 20
; infill_every_layers = 1
; infill_extruder = 1
; infill_extrusion_width = 0
; infill_overlap = 15%
; infill_speed = 80
; overhangs = 1
; perimeter_extruder = 1
; perimeter_extrusion_width = 0
; perimeter_speed = 60
; perimeters = 0
; small_perimeter_speed = 15
; solid_infill_below_area = 70
; solid_infill_every_layers = 0
; solid_infill_extruder = 1
; solid_infill_extrusion_width = 0
; solid_infill_speed = 20
; thin_walls = 1
; top_infill_extrusion_width = 0
; top_solid_infill_speed = 15
; top_solid_layers = 0
