; generated by Slic3r 1.2.9 on 2019-07-12 at 15:00:52

; external perimeters extrusion width = 0.50mm
; perimeters extrusion width = 0.58mm
; infill extrusion width = 0.58mm
; solid infill extrusion width = 0.58mm
; top infill extrusion width = 0.58mm

M107
M104 S200 ; set temperature
G28 ; home all axes
G1 Z5 F5000 ; lift nozzle

M109 S200 ; wait for temperature to be reached
G21 ; set units to millimeters
G90 ; use absolute coordinates
M82 ; use absolute distances for extrusion
G92 E0
G1 Z0.400 F7800.000
G1 E-2.00000 F2400.00000
G92 E0
G1 X89.871 Y109.474 F7800.000
G1 E2.00000 F2400.00000
G1 X90.526 Y110.129 E2.33679 F1800.000
G1 X91.683 Y110.129 E2.75761
G1 X89.871 Y108.317 E3.68954
G1 X89.871 Y107.160 E4.11036
G1 X92.840 Y110.129 E5.63741
G1 X93.997 Y110.129 E6.05824
G1 X89.871 Y106.003 E8.18042
G1 X89.871 Y104.846 E8.60125
G1 X95.154 Y110.129 E11.31857
G1 X96.311 Y110.129 E11.73939
G1 X89.871 Y103.689 E15.05185
G1 X89.871 Y102.532 E15.47267
G1 X97.468 Y110.129 E19.38025
G1 X98.625 Y110.129 E19.80108
G1 X89.871 Y101.375 E24.30380
G1 X89.871 Y100.218 E24.72462
G1 X99.782 Y110.129 E29.82247
G1 X100.939 Y110.129 E30.24329
G1 X89.871 Y99.061 E35.93628
G1 X89.871 Y97.904 E36.35710
G1 X102.096 Y110.129 E42.64522
G1 X103.253 Y110.129 E43.06604
G1 X89.871 Y96.747 E49.94929
G1 X89.871 Y95.590 E50.37011
G1 X104.410 Y110.129 E57.84850
G1 X105.567 Y110.129 E58.26932
G1 X89.871 Y94.433 E66.34283
G1 X89.871 Y93.276 E66.76366
G1 X106.724 Y110.129 E75.43230
G1 X107.881 Y110.129 E75.85313
G1 X89.871 Y92.119 E85.11691
G1 X89.871 Y90.962 E85.53773
G1 X109.038 Y110.129 E95.39665
G1 X110.129 Y110.062 E95.79407
G1 X89.938 Y89.871 E106.17984
G1 X91.095 Y89.871 E106.60067
G1 X110.129 Y108.905 E116.39131
G1 X110.129 Y107.748 E116.81213
G1 X92.252 Y89.871 E126.00765
G1 X93.409 Y89.871 E126.42847
G1 X110.129 Y106.591 E135.02885
G1 X110.129 Y105.434 E135.44967
G1 X94.566 Y89.871 E143.45492
G1 X95.723 Y89.871 E143.87574
G1 X110.129 Y104.277 E151.28586
G1 X110.129 Y103.120 E151.70668
G1 X96.880 Y89.871 E158.52166
G1 X98.037 Y89.871 E158.94249
G1 X110.129 Y101.963 E165.16234
G1 X110.129 Y100.806 E165.58316
G1 X99.194 Y89.871 E171.20788
G1 X100.351 Y89.871 E171.62870
G1 X110.129 Y99.649 E176.65828
G1 X110.129 Y98.492 E177.07911
G1 X101.508 Y89.871 E181.51356
G1 X102.665 Y89.871 E181.93438
G1 X110.129 Y97.335 E185.77370
G1 X110.129 Y96.178 E186.19452
G1 X103.822 Y89.871 E189.43871
G1 X104.979 Y89.871 E189.85953
G1 X110.129 Y95.021 E192.50858
G1 X110.129 Y93.864 E192.92941
G1 X106.136 Y89.871 E194.98333
G1 X107.293 Y89.871 E195.40415
G1 X110.129 Y92.707 E196.86294
G1 X110.129 Y91.550 E197.28376
G1 X108.450 Y89.871 E198.14741
G1 X109.607 Y89.871 E198.56824
G1 X110.129 Y90.393 E198.83676
G1 Z0.800 F7800.000
G1 X90.526 Y89.871 F7800.000
G1 X89.871 Y90.526 E199.06825 F4800.000
G1 X89.871 Y91.683 E199.35750
G1 X91.683 Y89.871 E199.99805
G1 X92.840 Y89.871 E200.28730
G1 X89.871 Y92.840 E201.33692
G1 X89.871 Y93.997 E201.62617
G1 X93.997 Y89.871 E203.08484
G1 X95.154 Y89.871 E203.37409
G1 X89.871 Y95.154 E205.24183
G1 X89.871 Y96.311 E205.53108
G1 X96.311 Y89.871 E207.80788
G1 X97.468 Y89.871 E208.09713
G1 X89.871 Y97.468 E210.78299
G1 X89.871 Y98.625 E211.07224
G1 X98.625 Y89.871 E214.16716
G1 X99.782 Y89.871 E214.45641
G1 X89.871 Y99.782 E217.96040
G1 X89.871 Y100.939 E218.24965
G1 X100.939 Y89.871 E222.16269
G1 X102.096 Y89.871 E222.45194
G1 X89.871 Y102.096 E226.77405
G1 X89.871 Y103.253 E227.06330
G1 X103.253 Y89.871 E231.79447
G1 X104.410 Y89.871 E232.08372
G1 X89.871 Y104.410 E237.22395
G1 X89.871 Y105.567 E237.51320
G1 X105.567 Y89.871 E243.06249
G1 X106.724 Y89.871 E243.35174
G1 X89.871 Y106.724 E249.31009
G1 X89.871 Y107.881 E249.59934
G1 X107.881 Y89.871 E255.96676
G1 X109.038 Y89.871 E256.25601
G1 X89.871 Y109.038 E263.03248
G1 X89.938 Y110.129 E263.30565
G1 X110.129 Y89.938 E270.44426
G1 X110.129 Y91.095 E270.73351
G1 X91.095 Y110.129 E277.46306
G1 X92.252 Y110.129 E277.75231
G1 X110.129 Y92.252 E284.07280
G1 X110.129 Y93.409 E284.36205
G1 X93.409 Y110.129 E290.27348
G1 X94.566 Y110.129 E290.56273
G1 X110.129 Y94.566 E296.06509
G1 X110.129 Y95.723 E296.35435
G1 X95.723 Y110.129 E301.44765
G1 X96.880 Y110.129 E301.73690
G1 X110.129 Y96.880 E306.42114
G1 X110.129 Y98.037 E306.71039
G1 X98.037 Y110.129 E310.98558
G1 X99.194 Y110.129 E311.27483
G1 X110.129 Y99.194 E315.14095
G1 X110.129 Y100.351 E315.43020
G1 X100.351 Y110.129 E318.88726
G1 X101.508 Y110.129 E319.17651
G1 X110.129 Y101.508 E322.22451
G1 X110.129 Y102.665 E322.51376
G1 X102.665 Y110.129 E325.15269
G1 X103.822 Y110.129 E325.44194
G1 X110.129 Y103.822 E327.67182
G1 X110.129 Y104.979 E327.96107
G1 X104.979 Y110.129 E329.78188
G1 X106.136 Y110.129 E330.07113
G1 X110.129 Y106.136 E331.48288
G1 X110.129 Y107.293 E331.77213
G1 X107.293 Y110.129 E332.77482
G1 X108.450 Y110.129 E333.06407
G1 X110.129 Y108.450 E333.65770
G1 X110.129 Y109.607 E333.94695
G1 X109.607 Y110.129 E334.13152
G1 Z1.200 F7800.000
G1 X110.129 Y90.393 F7800.000
G1 X109.607 Y89.871 E334.31609 F4800.000
G1 X108.450 Y89.871 E334.60534
G1 X110.129 Y91.550 E335.19897
G1 X110.129 Y92.707 E335.48822
G1 X107.293 Y89.871 E336.49091
G1 X106.136 Y89.871 E336.78016
G1 X110.129 Y93.864 E338.19191
G1 X110.129 Y95.021 E338.48116
G1 X104.979 Y89.871 E340.30197
G1 X103.822 Y89.871 E340.59122
G1 X110.129 Y96.178 E342.82110
G1 X110.129 Y97.335 E343.11035
G1 X102.665 Y89.871 E345.74929
G1 X101.508 Y89.871 E346.03854
G1 X110.129 Y98.492 E349.08653
G1 X110.129 Y99.649 E349.37578
G1 X100.351 Y89.871 E352.83284
G1 X99.194 Y89.871 E353.12209
G1 X110.129 Y100.806 E356.98822
G1 X110.129 Y101.963 E357.27747
G1 X98.037 Y89.871 E361.55265
G1 X96.880 Y89.871 E361.84190
G1 X110.129 Y103.120 E366.52614
G1 X110.129 Y104.277 E366.81539
G1 X95.723 Y89.871 E371.90870
G1 X94.566 Y89.871 E372.19795
G1 X110.129 Y105.434 E377.70032
G1 X110.129 Y106.591 E377.98957
G1 X93.409 Y89.871 E383.90099
G1 X92.252 Y89.871 E384.19024
G1 X110.129 Y107.748 E390.51073
G1 X110.129 Y108.905 E390.79999
G1 X91.095 Y89.871 E397.52954
G1 X89.938 Y89.871 E397.81879
G1 X110.129 Y110.062 E404.95740
G1 X109.038 Y110.129 E405.23056
G1 X89.871 Y90.962 E412.00704
G1 X89.871 Y92.119 E412.29629
G1 X107.881 Y110.129 E418.66370
G1 X106.724 Y110.129 E418.95295
G1 X89.871 Y93.276 E424.91131
G1 X89.871 Y94.433 E425.20056
G1 X105.567 Y110.129 E430.74985
G1 X104.410 Y110.129 E431.03910
G1 X89.871 Y95.590 E436.17933
G1 X89.871 Y96.747 E436.46858
G1 X103.253 Y110.129 E441.19974
G1 X102.096 Y110.129 E441.48900
G1 X89.871 Y97.904 E445.81110
G1 X89.871 Y99.061 E446.10035
G1 X100.939 Y110.129 E450.01340
G1 X99.782 Y110.129 E450.30265
G1 X89.871 Y100.218 E453.80663
G1 X89.871 Y101.375 E454.09588
G1 X98.625 Y110.129 E457.19080
G1 X97.468 Y110.129 E457.48005
G1 X89.871 Y102.532 E460.16591
G1 X89.871 Y103.689 E460.45516
G1 X96.311 Y110.129 E462.73196
G1 X95.154 Y110.129 E463.02121
G1 X89.871 Y104.846 E464.88895
G1 X89.871 Y106.003 E465.17820
G1 X93.997 Y110.129 E466.63687
G1 X92.840 Y110.129 E466.92612
G1 X89.871 Y107.160 E467.97574
G1 X89.871 Y108.317 E468.26499
G1 X91.683 Y110.129 E468.90554
G1 X90.526 Y110.129 E469.19479
G1 X89.871 Y109.474 E469.42628
M106 S247.35
G1 Z1.600 F7800.000
G1 X90.526 Y89.871 F7800.000
G1 X89.871 Y90.526 E469.65777 F4800.000
G1 X89.871 Y91.683 E469.94702
G1 X91.683 Y89.871 E470.58758
G1 X92.840 Y89.871 E470.87683
G1 X89.871 Y92.840 E471.92644
G1 X89.871 Y93.997 E472.21569
G1 X93.997 Y89.871 E473.67437
G1 X95.154 Y89.871 E473.96362
G1 X89.871 Y95.154 E475.83135
G1 X89.871 Y96.311 E476.12060
G1 X96.311 Y89.871 E478.39740
G1 X97.468 Y89.871 E478.68665
G1 X89.871 Y97.468 E481.37251
G1 X89.871 Y98.625 E481.66176
G1 X98.625 Y89.871 E484.75668
G1 X99.782 Y89.871 E485.04594
G1 X89.871 Y99.782 E488.54992
G1 X89.871 Y100.939 E488.83917
G1 X100.939 Y89.871 E492.75221
G1 X102.096 Y89.871 E493.04146
G1 X89.871 Y102.096 E497.36357
G1 X89.871 Y103.253 E497.65282
G1 X103.253 Y89.871 E502.38399
G1 X104.410 Y89.871 E502.67324
G1 X89.871 Y104.410 E507.81347
G1 X89.871 Y105.567 E508.10272
G1 X105.567 Y89.871 E513.65201
G1 X106.724 Y89.871 E513.94126
G1 X89.871 Y106.724 E519.89961
G1 X89.871 Y107.881 E520.18886
G1 X107.881 Y89.871 E526.55628
G1 X109.038 Y89.871 E526.84553
G1 X89.871 Y109.038 E533.62200
G1 X89.938 Y110.129 E533.89517
G1 X110.129 Y89.938 E541.03378
G1 X110.129 Y91.095 E541.32303
G1 X91.095 Y110.129 E548.05258
G1 X92.252 Y110.129 E548.34183
G1 X110.129 Y92.252 E554.66232
G1 X110.129 Y93.409 E554.95157
G1 X93.409 Y110.129 E560.86300
G1 X94.566 Y110.129 E561.15225
G1 X110.129 Y94.566 E566.65462
G1 X110.129 Y95.723 E566.94387
G1 X95.723 Y110.129 E572.03717
G1 X96.880 Y110.129 E572.32642
G1 X110.129 Y96.880 E577.01067
G1 X110.129 Y98.037 E577.29992
G1 X98.037 Y110.129 E581.57510
G1 X99.194 Y110.129 E581.86435
G1 X110.129 Y99.194 E585.73047
G1 X110.129 Y100.351 E586.01972
G1 X100.351 Y110.129 E589.47678
G1 X101.508 Y110.129 E589.76603
G1 X110.129 Y101.508 E592.81403
G1 X110.129 Y102.665 E593.10328
G1 X102.665 Y110.129 E595.74222
G1 X103.822 Y110.129 E596.03147
G1 X110.129 Y103.822 E598.26134
G1 X110.129 Y104.979 E598.55059
G1 X104.979 Y110.129 E600.37140
G1 X106.136 Y110.129 E600.66065
G1 X110.129 Y106.136 E602.07241
G1 X110.129 Y107.293 E602.36166
G1 X107.293 Y110.129 E603.36435
G1 X108.450 Y110.129 E603.65360
G1 X110.129 Y108.450 E604.24723
G1 X110.129 Y109.607 E604.53648
G1 X109.607 Y110.129 E604.72104
G1 Z2.000 F7800.000
G1 X110.129 Y90.393 F7800.000
G1 X109.607 Y89.871 E604.90561 F4800.000
G1 X108.450 Y89.871 E605.19486
G1 X110.129 Y91.550 E605.78849
G1 X110.129 Y92.707 E606.07774
G1 X107.293 Y89.871 E607.08043
G1 X106.136 Y89.871 E607.36968
G1 X110.129 Y93.864 E608.78143
G1 X110.129 Y95.021 E609.07068
G1 X104.979 Y89.871 E610.89150
G1 X103.822 Y89.871 E611.18075
G1 X110.129 Y96.178 E613.41062
G1 X110.129 Y97.335 E613.69987
G1 X102.665 Y89.871 E616.33881
G1 X101.508 Y89.871 E616.62806
G1 X110.129 Y98.492 E619.67606
G1 X110.129 Y99.649 E619.96531
G1 X100.351 Y89.871 E623.42237
G1 X99.194 Y89.871 E623.71162
G1 X110.129 Y100.806 E627.57774
G1 X110.129 Y101.963 E627.86699
G1 X98.037 Y89.871 E632.14217
G1 X96.880 Y89.871 E632.43142
G1 X110.129 Y103.120 E637.11567
G1 X110.129 Y104.277 E637.40492
G1 X95.723 Y89.871 E642.49822
G1 X94.566 Y89.871 E642.78747
G1 X110.129 Y105.434 E648.28984
G1 X110.129 Y106.591 E648.57909
G1 X93.409 Y89.871 E654.49052
G1 X92.252 Y89.871 E654.77977
G1 X110.129 Y107.748 E661.10026
G1 X110.129 Y108.905 E661.38951
G1 X91.095 Y89.871 E668.11906
G1 X89.938 Y89.871 E668.40831
G1 X110.129 Y110.062 E675.54692
G1 X109.038 Y110.129 E675.82009
G1 X89.871 Y90.962 E682.59656
G1 X89.871 Y92.119 E682.88581
G1 X107.881 Y110.129 E689.25323
G1 X106.724 Y110.129 E689.54248
G1 X89.871 Y93.276 E695.50083
G1 X89.871 Y94.433 E695.79008
G1 X105.567 Y110.129 E701.33937
G1 X104.410 Y110.129 E701.62862
G1 X89.871 Y95.590 E706.76885
G1 X89.871 Y96.747 E707.05810
G1 X103.253 Y110.129 E711.78927
G1 X102.096 Y110.129 E712.07852
G1 X89.871 Y97.904 E716.40062
G1 X89.871 Y99.061 E716.68987
G1 X100.939 Y110.129 E720.60292
G1 X99.782 Y110.129 E720.89217
G1 X89.871 Y100.218 E724.39615
G1 X89.871 Y101.375 E724.68540
G1 X98.625 Y110.129 E727.78032
G1 X97.468 Y110.129 E728.06957
G1 X89.871 Y102.532 E730.75543
G1 X89.871 Y103.689 E731.04468
G1 X96.311 Y110.129 E733.32148
G1 X95.154 Y110.129 E733.61073
G1 X89.871 Y104.846 E735.47847
G1 X89.871 Y106.003 E735.76772
G1 X93.997 Y110.129 E737.22640
G1 X92.840 Y110.129 E737.51565
G1 X89.871 Y107.160 E738.56526
G1 X89.871 Y108.317 E738.85451
G1 X91.683 Y110.129 E739.49506
G1 X90.526 Y110.129 E739.78431
G1 X89.871 Y109.474 E740.01580
G1 Z2.400 F7800.000
G1 X90.526 Y89.871 F7800.000
G1 X89.871 Y90.526 E740.24730 F4800.000
G1 X89.871 Y91.683 E740.53655
G1 X91.683 Y89.871 E741.17710
G1 X92.840 Y89.871 E741.46635
G1 X89.871 Y92.840 E742.51596
G1 X89.871 Y93.997 E742.80521
G1 X93.997 Y89.871 E744.26389
G1 X95.154 Y89.871 E744.55314
G1 X89.871 Y95.154 E746.42088
G1 X89.871 Y96.311 E746.71013
G1 X96.311 Y89.871 E748.98692
G1 X97.468 Y89.871 E749.27617
G1 X89.871 Y97.468 E751.96204
G1 X89.871 Y98.625 E752.25129
G1 X98.625 Y89.871 E755.34621
G1 X99.782 Y89.871 E755.63546
G1 X89.871 Y99.782 E759.13944
G1 X89.871 Y100.939 E759.42869
G1 X100.939 Y89.871 E763.34174
G1 X102.096 Y89.871 E763.63099
G1 X89.871 Y102.096 E767.95309
G1 X89.871 Y103.253 E768.24234
G1 X103.253 Y89.871 E772.97351
G1 X104.410 Y89.871 E773.26276
G1 X89.871 Y104.410 E778.40299
G1 X89.871 Y105.567 E778.69224
G1 X105.567 Y89.871 E784.24153
G1 X106.724 Y89.871 E784.53078
G1 X89.871 Y106.724 E790.48914
G1 X89.871 Y107.881 E790.77839
G1 X107.881 Y89.871 E797.14580
G1 X109.038 Y89.871 E797.43505
G1 X89.871 Y109.038 E804.21153
G1 X89.938 Y110.129 E804.48469
G1 X110.129 Y89.938 E811.62330
G1 X110.129 Y91.095 E811.91255
G1 X91.095 Y110.129 E818.64210
G1 X92.252 Y110.129 E818.93136
G1 X110.129 Y92.252 E825.25184
G1 X110.129 Y93.409 E825.54109
G1 X93.409 Y110.129 E831.45252
G1 X94.566 Y110.129 E831.74177
G1 X110.129 Y94.566 E837.24414
G1 X110.129 Y95.723 E837.53339
G1 X95.723 Y110.129 E842.62670
G1 X96.880 Y110.129 E842.91595
G1 X110.129 Y96.880 E847.60019
G1 X110.129 Y98.037 E847.88944
G1 X98.037 Y110.129 E852.16462
G1 X99.194 Y110.129 E852.45387
G1 X110.129 Y99.194 E856.31999
G1 X110.129 Y100.351 E856.60924
G1 X100.351 Y110.129 E860.06630
G1 X101.508 Y110.129 E860.35555
G1 X110.129 Y101.508 E863.40355
G1 X110.129 Y102.665 E863.69280
G1 X102.665 Y110.129 E866.33174
G1 X103.822 Y110.129 E866.62099
G1 X110.129 Y103.822 E868.85086
G1 X110.129 Y104.979 E869.14011
G1 X104.979 Y110.129 E870.96093
G1 X106.136 Y110.129 E871.25018
G1 X110.129 Y106.136 E872.66193
G1 X110.129 Y107.293 E872.95118
G1 X107.293 Y110.129 E873.95387
G1 X108.450 Y110.129 E874.24312
G1 X110.129 Y108.450 E874.83675
G1 X110.129 Y109.607 E875.12600
G1 X109.607 Y110.129 E875.31057
G1 Z2.800 F7800.000
G1 X110.129 Y90.393 F7800.000
G1 X109.607 Y89.871 E875.49513 F4800.000
G1 X108.450 Y89.871 E875.78438
G1 X110.129 Y91.550 E876.37801
G1 X110.129 Y92.707 E876.66726
G1 X107.293 Y89.871 E877.66995
G1 X106.136 Y89.871 E877.95920
G1 X110.129 Y93.864 E879.37096
G1 X110.129 Y95.021 E879.66021
G1 X104.979 Y89.871 E881.48102
G1 X103.822 Y89.871 E881.77027
G1 X110.129 Y96.178 E884.00014
G1 X110.129 Y97.335 E884.28939
G1 X102.665 Y89.871 E886.92833
G1 X101.508 Y89.871 E887.21758
G1 X110.129 Y98.492 E890.26558
G1 X110.129 Y99.649 E890.55483
G1 X100.351 Y89.871 E894.01189
G1 X99.194 Y89.871 E894.30114
G1 X110.129 Y100.806 E898.16726
G1 X110.129 Y101.963 E898.45651
G1 X98.037 Y89.871 E902.73169
G1 X96.880 Y89.871 E903.02094
G1 X110.129 Y103.120 E907.70519
G1 X110.129 Y104.277 E907.99444
G1 X95.723 Y89.871 E913.08774
G1 X94.566 Y89.871 E913.37699
G1 X110.129 Y105.434 E918.87936
G1 X110.129 Y106.591 E919.16861
G1 X93.409 Y89.871 E925.08004
G1 X92.252 Y89.871 E925.36929
G1 X110.129 Y107.748 E931.68978
G1 X110.129 Y108.905 E931.97903
G1 X91.095 Y89.871 E938.70858
G1 X89.938 Y89.871 E938.99783
G1 X110.129 Y110.062 E946.13645
G1 X109.038 Y110.129 E946.40961
G1 X89.871 Y90.962 E953.18609
G1 X89.871 Y92.119 E953.47534
G1 X107.881 Y110.129 E959.84275
G1 X106.724 Y110.129 E960.13200
G1 X89.871 Y93.276 E966.09035
G1 X89.871 Y94.433 E966.37960
G1 X105.567 Y110.129 E971.92889
G1 X104.410 Y110.129 E972.21814
G1 X89.871 Y95.590 E977.35837
G1 X89.871 Y96.747 E977.64762
G1 X103.253 Y110.129 E982.37879
G1 X102.096 Y110.129 E982.66804
G1 X89.871 Y97.904 E986.99015
G1 X89.871 Y99.061 E987.27940
G1 X100.939 Y110.129 E991.19244
G1 X99.782 Y110.129 E991.48169
G1 X89.871 Y100.218 E994.98567
G1 X89.871 Y101.375 E995.27492
G1 X98.625 Y110.129 E998.36985
G1 X97.468 Y110.129 E998.65910
G1 X89.871 Y102.532 E1001.34496
G1 X89.871 Y103.689 E1001.63421
G1 X96.311 Y110.129 E1003.91101
G1 X95.154 Y110.129 E1004.20026
G1 X89.871 Y104.846 E1006.06799
G1 X89.871 Y106.003 E1006.35724
G1 X93.997 Y110.129 E1007.81592
G1 X92.840 Y110.129 E1008.10517
G1 X89.871 Y107.160 E1009.15478
G1 X89.871 Y108.317 E1009.44403
G1 X91.683 Y110.129 E1010.08459
G1 X90.526 Y110.129 E1010.37384
G1 X89.871 Y109.474 E1010.60533
G1 Z3.200 F7800.000
G1 X90.526 Y89.871 F7800.000
G1 X89.871 Y90.526 E1010.83682 F4800.000
G1 X89.871 Y91.683 E1011.12607
G1 X91.683 Y89.871 E1011.76662
G1 X92.840 Y89.871 E1012.05587
G1 X89.871 Y92.840 E1013.10549
G1 X89.871 Y93.997 E1013.39474
G1 X93.997 Y89.871 E1014.85341
G1 X95.154 Y89.871 E1015.14266
G1 X89.871 Y95.154 E1017.01040
G1 X89.871 Y96.311 E1017.29965
G1 X96.311 Y89.871 E1019.57645
G1 X97.468 Y89.871 E1019.86570
G1 X89.871 Y97.468 E1022.55156
G1 X89.871 Y98.625 E1022.84081
G1 X98.625 Y89.871 E1025.93573
G1 X99.782 Y89.871 E1026.22498
G1 X89.871 Y99.782 E1029.72896
G1 X89.871 Y100.939 E1030.01821
G1 X100.939 Y89.871 E1033.93126
G1 X102.096 Y89.871 E1034.22051
G1 X89.871 Y102.096 E1038.54262
G1 X89.871 Y103.253 E1038.83187
G1 X103.253 Y89.871 E1043.56303
G1 X104.410 Y89.871 E1043.85228
G1 X89.871 Y104.410 E1048.99251
G1 X89.871 Y105.567 E1049.28176
G1 X105.567 Y89.871 E1054.83106
G1 X106.724 Y89.871 E1055.12031
G1 X89.871 Y106.724 E1061.07866
G1 X89.871 Y107.881 E1061.36791
G1 X107.881 Y89.871 E1067.73532
G1 X109.038 Y89.871 E1068.02457
G1 X89.871 Y109.038 E1074.80105
G1 X89.938 Y110.129 E1075.07421
G1 X110.129 Y89.938 E1082.21283
G1 X110.129 Y91.095 E1082.50208
G1 X91.095 Y110.129 E1089.23163
G1 X92.252 Y110.129 E1089.52088
G1 X110.129 Y92.252 E1095.84137
G1 X110.129 Y93.409 E1096.13062
G1 X93.409 Y110.129 E1102.04205
G1 X94.566 Y110.129 E1102.33130
G1 X110.129 Y94.566 E1107.83366
G1 X110.129 Y95.723 E1108.12291
G1 X95.723 Y110.129 E1113.21622
G1 X96.880 Y110.129 E1113.50547
G1 X110.129 Y96.880 E1118.18971
G1 X110.129 Y98.037 E1118.47896
G1 X98.037 Y110.129 E1122.75414
G1 X99.194 Y110.129 E1123.04339
G1 X110.129 Y99.194 E1126.90952
G1 X110.129 Y100.351 E1127.19877
G1 X100.351 Y110.129 E1130.65583
G1 X101.508 Y110.129 E1130.94508
G1 X110.129 Y101.508 E1133.99307
G1 X110.129 Y102.665 E1134.28232
G1 X102.665 Y110.129 E1136.92126
G1 X103.822 Y110.129 E1137.21051
G1 X110.129 Y103.822 E1139.44039
G1 X110.129 Y104.979 E1139.72964
G1 X104.979 Y110.129 E1141.55045
G1 X106.136 Y110.129 E1141.83970
G1 X110.129 Y106.136 E1143.25145
G1 X110.129 Y107.293 E1143.54070
G1 X107.293 Y110.129 E1144.54339
G1 X108.450 Y110.129 E1144.83264
G1 X110.129 Y108.450 E1145.42627
G1 X110.129 Y109.607 E1145.71552
G1 X109.607 Y110.129 E1145.90009
G1 Z3.600 F7800.000
G1 X110.129 Y90.393 F7800.000
G1 X109.607 Y89.871 E1146.08466 F4800.000
G1 X108.450 Y89.871 E1146.37391
G1 X110.129 Y91.550 E1146.96753
G1 X110.129 Y92.707 E1147.25679
G1 X107.293 Y89.871 E1148.25948
G1 X106.136 Y89.871 E1148.54873
G1 X110.129 Y93.864 E1149.96048
G1 X110.129 Y95.021 E1150.24973
G1 X104.979 Y89.871 E1152.07054
G1 X103.822 Y89.871 E1152.35979
G1 X110.129 Y96.178 E1154.58967
G1 X110.129 Y97.335 E1154.87892
G1 X102.665 Y89.871 E1157.51785
G1 X101.508 Y89.871 E1157.80710
G1 X110.129 Y98.492 E1160.85510
G1 X110.129 Y99.649 E1161.14435
G1 X100.351 Y89.871 E1164.60141
G1 X99.194 Y89.871 E1164.89066
G1 X110.129 Y100.806 E1168.75678
G1 X110.129 Y101.963 E1169.04603
G1 X98.037 Y89.871 E1173.32122
G1 X96.880 Y89.871 E1173.61047
G1 X110.129 Y103.120 E1178.29471
G1 X110.129 Y104.277 E1178.58396
G1 X95.723 Y89.871 E1183.67727
G1 X94.566 Y89.871 E1183.96652
G1 X110.129 Y105.434 E1189.46888
G1 X110.129 Y106.591 E1189.75813
G1 X93.409 Y89.871 E1195.66956
G1 X92.252 Y89.871 E1195.95881
G1 X110.129 Y107.748 E1202.27930
G1 X110.129 Y108.905 E1202.56855
G1 X91.095 Y89.871 E1209.29810
G1 X89.938 Y89.871 E1209.58735
G1 X110.129 Y110.062 E1216.72597
G1 X109.038 Y110.129 E1216.99913
G1 X89.871 Y90.962 E1223.77561
G1 X89.871 Y92.119 E1224.06486
G1 X107.881 Y110.129 E1230.43227
G1 X106.724 Y110.129 E1230.72152
G1 X89.871 Y93.276 E1236.67987
G1 X89.871 Y94.433 E1236.96913
G1 X105.567 Y110.129 E1242.51842
G1 X104.410 Y110.129 E1242.80767
G1 X89.871 Y95.590 E1247.94789
G1 X89.871 Y96.747 E1248.23715
G1 X103.253 Y110.129 E1252.96831
G1 X102.096 Y110.129 E1253.25756
G1 X89.871 Y97.904 E1257.57967
G1 X89.871 Y99.061 E1257.86892
G1 X100.939 Y110.129 E1261.78196
G1 X99.782 Y110.129 E1262.07121
G1 X89.871 Y100.218 E1265.57520
G1 X89.871 Y101.375 E1265.86445
G1 X98.625 Y110.129 E1268.95937
G1 X97.468 Y110.129 E1269.24862
G1 X89.871 Y102.532 E1271.93448
G1 X89.871 Y103.689 E1272.22373
G1 X96.311 Y110.129 E1274.50053
G1 X95.154 Y110.129 E1274.78978
G1 X89.871 Y104.846 E1276.65752
G1 X89.871 Y106.003 E1276.94677
G1 X93.997 Y110.129 E1278.40544
G1 X92.840 Y110.129 E1278.69469
G1 X89.871 Y107.160 E1279.74431
G1 X89.871 Y108.317 E1280.03356
G1 X91.683 Y110.129 E1280.67411
G1 X90.526 Y110.129 E1280.96336
G1 X89.871 Y109.474 E1281.19485
G1 Z4.000 F7800.000
G1 X90.526 Y89.871 F7800.000
G1 X89.871 Y90.526 E1281.42634 F4800.000
G1 X89.871 Y91.683 E1281.71559
G1 X91.683 Y89.871 E1282.35614
G1 X92.840 Y89.871 E1282.64539
G1 X89.871 Y92.840 E1283.69501
G1 X89.871 Y93.997 E1283.98426
G1 X93.997 Y89.871 E1285.44293
G1 X95.154 Y89.871 E1285.73218
G1 X89.871 Y95.154 E1287.59992
G1 X89.871 Y96.311 E1287.88917
G1 X96.311 Y89.871 E1290.16597
G1 X97.468 Y89.871 E1290.45522
G1 X89.871 Y97.468 E1293.14108
G1 X89.871 Y98.625 E1293.43033
G1 X98.625 Y89.871 E1296.52525
G1 X99.782 Y89.871 E1296.81450
G1 X89.871 Y99.782 E1300.31849
G1 X89.871 Y100.939 E1300.60774
G1 X100.939 Y89.871 E1304.52078
G1 X102.096 Y89.871 E1304.81003
G1 X89.871 Y102.096 E1309.13214
G1 X89.871 Y103.253 E1309.42139
G1 X103.253 Y89.871 E1314.15256
G1 X104.410 Y89.871 E1314.44181
G1 X89.871 Y104.410 E1319.58204
G1 X89.871 Y105.567 E1319.87129
G1 X105.567 Y89.871 E1325.42058
G1 X106.724 Y89.871 E1325.70983
G1 X89.871 Y106.724 E1331.66818
G1 X89.871 Y107.881 E1331.95743
G1 X107.881 Y89.871 E1338.32485
G1 X109.038 Y89.871 E1338.61410
G1 X89.871 Y109.038 E1345.39057
G1 X89.938 Y110.129 E1345.66374
G1 X110.129 Y89.938 E1352.80235
G1 X110.129 Y91.095 E1353.09160
G1 X91.095 Y110.129 E1359.82115
G1 X92.252 Y110.129 E1360.11040
G1 X110.129 Y92.252 E1366.43089
G1 X110.129 Y93.409 E1366.72014
G1 X93.409 Y110.129 E1372.63157
G1 X94.566 Y110.129 E1372.92082
G1 X110.129 Y94.566 E1378.42319
G1 X110.129 Y95.723 E1378.71244
G1 X95.723 Y110.129 E1383.80574
G1 X96.880 Y110.129 E1384.09499
G1 X110.129 Y96.880 E1388.77924
G1 X110.129 Y98.037 E1389.06849
G1 X98.037 Y110.129 E1393.34367
G1 X99.194 Y110.129 E1393.63292
G1 X110.129 Y99.194 E1397.49904
G1 X110.129 Y100.351 E1397.78829
G1 X100.351 Y110.129 E1401.24535
G1 X101.508 Y110.129 E1401.53460
G1 X110.129 Y101.508 E1404.58260
G1 X110.129 Y102.665 E1404.87185
G1 X102.665 Y110.129 E1407.51078
G1 X103.822 Y110.129 E1407.80003
G1 X110.129 Y103.822 E1410.02991
G1 X110.129 Y104.979 E1410.31916
G1 X104.979 Y110.129 E1412.13997
G1 X106.136 Y110.129 E1412.42922
G1 X110.129 Y106.136 E1413.84097
G1 X110.129 Y107.293 E1414.13022
G1 X107.293 Y110.129 E1415.13291
G1 X108.450 Y110.129 E1415.42216
G1 X110.129 Y108.450 E1416.01579
G1 X110.129 Y109.607 E1416.30504
G1 X109.607 Y110.129 E1416.48961
G1 Z4.400 F7800.000
G1 X110.129 Y90.393 F7800.000
G1 X109.607 Y89.871 E1416.67418 F4800.000
G1 X108.450 Y89.871 E1416.96343
G1 X110.129 Y91.550 E1417.55706
G1 X110.129 Y92.707 E1417.84631
G1 X107.293 Y89.871 E1418.84900
G1 X106.136 Y89.871 E1419.13825
G1 X110.129 Y93.864 E1420.55000
G1 X110.129 Y95.021 E1420.83925
G1 X104.979 Y89.871 E1422.66006
G1 X103.822 Y89.871 E1422.94931
G1 X110.129 Y96.178 E1425.17919
G1 X110.129 Y97.335 E1425.46844
G1 X102.665 Y89.871 E1428.10738
G1 X101.508 Y89.871 E1428.39663
G1 X110.129 Y98.492 E1431.44463
G1 X110.129 Y99.649 E1431.73388
G1 X100.351 Y89.871 E1435.19094
G1 X99.194 Y89.871 E1435.48019
G1 X110.129 Y100.806 E1439.34631
G1 X110.129 Y101.963 E1439.63556
G1 X98.037 Y89.871 E1443.91074
G1 X96.880 Y89.871 E1444.19999
G1 X110.129 Y103.120 E1448.88423
G1 X110.129 Y104.277 E1449.17348
G1 X95.723 Y89.871 E1454.26679
G1 X94.566 Y89.871 E1454.55604
G1 X110.129 Y105.434 E1460.05841
G1 X110.129 Y106.591 E1460.34766
G1 X93.409 Y89.871 E1466.25909
G1 X92.252 Y89.871 E1466.54834
G1 X110.129 Y107.748 E1472.86883
G1 X110.129 Y108.905 E1473.15808
G1 X91.095 Y89.871 E1479.88763
G1 X89.938 Y89.871 E1480.17688
G1 X110.129 Y110.062 E1487.31549
G1 X109.038 Y110.129 E1487.58865
G1 X89.871 Y90.962 E1494.36513
G1 X89.871 Y92.119 E1494.65438
G1 X107.881 Y110.129 E1501.02179
G1 X106.724 Y110.129 E1501.31105
G1 X89.871 Y93.276 E1507.26940
G1 X89.871 Y94.433 E1507.55865
G1 X105.567 Y110.129 E1513.10794
G1 X104.410 Y110.129 E1513.39719
G1 X89.871 Y95.590 E1518.53742
G1 X89.871 Y96.747 E1518.82667
G1 X103.253 Y110.129 E1523.55784
G1 X102.096 Y110.129 E1523.84709
G1 X89.871 Y97.904 E1528.16919
G1 X89.871 Y99.061 E1528.45844
G1 X100.939 Y110.129 E1532.37149
G1 X99.782 Y110.129 E1532.66074
G1 X89.871 Y100.218 E1536.16472
G1 X89.871 Y101.375 E1536.45397
G1 X98.625 Y110.129 E1539.54889
G1 X97.468 Y110.129 E1539.83814
G1 X89.871 Y102.532 E1542.52400
G1 X89.871 Y103.689 E1542.81325
G1 X96.311 Y110.129 E1545.09005
G1 X95.154 Y110.129 E1545.37930
G1 X89.871 Y104.846 E1547.24704
G1 X89.871 Y106.003 E1547.53629
G1 X93.997 Y110.129 E1548.99496
G1 X92.840 Y110.129 E1549.28421
G1 X89.871 Y107.160 E1550.33383
G1 X89.871 Y108.317 E1550.62308
G1 X91.683 Y110.129 E1551.26363
G1 X90.526 Y110.129 E1551.55288
G1 X89.871 Y109.474 E1551.78437
G1 Z4.800 F7800.000
G1 X90.526 Y89.871 F7800.000
G1 X89.871 Y90.526 E1552.01586 F4800.000
G1 X89.871 Y91.683 E1552.30511
G1 X91.683 Y89.871 E1552.94567
G1 X92.840 Y89.871 E1553.23492
G1 X89.871 Y92.840 E1554.28453
G1 X89.871 Y93.997 E1554.57378
G1 X93.997 Y89.871 E1556.03246
G1 X95.154 Y89.871 E1556.32171
G1 X89.871 Y95.154 E1558.18944
G1 X89.871 Y96.311 E1558.47869
G1 X96.311 Y89.871 E1560.75549
G1 X97.468 Y89.871 E1561.04474
G1 X89.871 Y97.468 E1563.73060
G1 X89.871 Y98.625 E1564.01985
G1 X98.625 Y89.871 E1567.11478
G1 X99.782 Y89.871 E1567.40403
G1 X89.871 Y99.782 E1570.90801
G1 X89.871 Y100.939 E1571.19726
G1 X100.939 Y89.871 E1575.11030
G1 X102.096 Y89.871 E1575.39955
G1 X89.871 Y102.096 E1579.72166
G1 X89.871 Y103.253 E1580.01091
G1 X103.253 Y89.871 E1584.74208
G1 X104.410 Y89.871 E1585.03133
G1 X89.871 Y104.410 E1590.17156
G1 X89.871 Y105.567 E1590.46081
G1 X105.567 Y89.871 E1596.01010
G1 X106.724 Y89.871 E1596.29935
G1 X89.871 Y106.724 E1602.25770
G1 X89.871 Y107.881 E1602.54695
G1 X107.881 Y89.871 E1608.91437
G1 X109.038 Y89.871 E1609.20362
G1 X89.871 Y109.038 E1615.98010
G1 X89.938 Y110.129 E1616.25326
G1 X110.129 Y89.938 E1623.39187
G1 X110.129 Y91.095 E1623.68112
G1 X91.095 Y110.129 E1630.41067
G1 X92.252 Y110.129 E1630.69992
G1 X110.129 Y92.252 E1637.02041
G1 X110.129 Y93.409 E1637.30966
G1 X93.409 Y110.129 E1643.22109
G1 X94.566 Y110.129 E1643.51034
G1 X110.129 Y94.566 E1649.01271
G1 X110.129 Y95.723 E1649.30196
G1 X95.723 Y110.129 E1654.39526
G1 X96.880 Y110.129 E1654.68451
G1 X110.129 Y96.880 E1659.36876
G1 X110.129 Y98.037 E1659.65801
G1 X98.037 Y110.129 E1663.93319
G1 X99.194 Y110.129 E1664.22244
G1 X110.129 Y99.194 E1668.08856
G1 X110.129 Y100.351 E1668.37781
G1 X100.351 Y110.129 E1671.83487
G1 X101.508 Y110.129 E1672.12412
G1 X110.129 Y101.508 E1675.17212
G1 X110.129 Y102.665 E1675.46137
G1 X102.665 Y110.129 E1678.10031
G1 X103.822 Y110.129 E1678.38956
G1 X110.129 Y103.822 E1680.61943
G1 X110.129 Y104.979 E1680.90868
G1 X104.979 Y110.129 E1682.72949
G1 X106.136 Y110.129 E1683.01874
G1 X110.129 Y106.136 E1684.43050
G1 X110.129 Y107.293 E1684.71975
G1 X107.293 Y110.129 E1685.72244
G1 X108.450 Y110.129 E1686.01169
G1 X110.129 Y108.450 E1686.60532
G1 X110.129 Y109.607 E1686.89457
G1 X109.607 Y110.129 E1687.07913
G1 Z5.200 F7800.000
G1 X110.129 Y90.393 F7800.000
G1 X109.607 Y89.871 E1687.26370 F4800.000
G1 X108.450 Y89.871 E1687.55295
G1 X110.129 Y91.550 E1688.14658
G1 X110.129 Y92.707 E1688.43583
G1 X107.293 Y89.871 E1689.43852
G1 X106.136 Y89.871 E1689.72777
G1 X110.129 Y93.864 E1691.13952
G1 X110.129 Y95.021 E1691.42877
G1 X104.979 Y89.871 E1693.24959
G1 X103.822 Y89.871 E1693.53884
G1 X110.129 Y96.178 E1695.76871
G1 X110.129 Y97.335 E1696.05796
G1 X102.665 Y89.871 E1698.69690
G1 X101.508 Y89.871 E1698.98615
G1 X110.129 Y98.492 E1702.03415
G1 X110.129 Y99.649 E1702.32340
G1 X100.351 Y89.871 E1705.78046
G1 X99.194 Y89.871 E1706.06971
G1 X110.129 Y100.806 E1709.93583
G1 X110.129 Y101.963 E1710.22508
G1 X98.037 Y89.871 E1714.50026
G1 X96.880 Y89.871 E1714.78951
G1 X110.129 Y103.120 E1719.47376
G1 X110.129 Y104.277 E1719.76301
G1 X95.723 Y89.871 E1724.85631
G1 X94.566 Y89.871 E1725.14556
G1 X110.129 Y105.434 E1730.64793
G1 X110.129 Y106.591 E1730.93718
G1 X93.409 Y89.871 E1736.84861
G1 X92.252 Y89.871 E1737.13786
G1 X110.129 Y107.748 E1743.45835
G1 X110.129 Y108.905 E1743.74760
G1 X91.095 Y89.871 E1750.47715
G1 X89.938 Y89.871 E1750.76640
G1 X110.129 Y110.062 E1757.90501
G1 X109.038 Y110.129 E1758.17818
G1 X89.871 Y90.962 E1764.95465
G1 X89.871 Y92.119 E1765.24390
G1 X107.881 Y110.129 E1771.61132
G1 X106.724 Y110.129 E1771.90057
G1 X89.871 Y93.276 E1777.85892
G1 X89.871 Y94.433 E1778.14817
G1 X105.567 Y110.129 E1783.69746
G1 X104.410 Y110.129 E1783.98671
G1 X89.871 Y95.590 E1789.12694
G1 X89.871 Y96.747 E1789.41619
G1 X103.253 Y110.129 E1794.14736
G1 X102.096 Y110.129 E1794.43661
G1 X89.871 Y97.904 E1798.75871
G1 X89.871 Y99.061 E1799.04796
G1 X100.939 Y110.129 E1802.96101
G1 X99.782 Y110.129 E1803.25026
G1 X89.871 Y100.218 E1806.75424
G1 X89.871 Y101.375 E1807.04349
G1 X98.625 Y110.129 E1810.13841
G1 X97.468 Y110.129 E1810.42766
G1 X89.871 Y102.532 E1813.11352
G1 X89.871 Y103.689 E1813.40277
G1 X96.311 Y110.129 E1815.67957
G1 X95.154 Y110.129 E1815.96882
G1 X89.871 Y104.846 E1817.83656
G1 X89.871 Y106.003 E1818.12581
G1 X93.997 Y110.129 E1819.58449
G1 X92.840 Y110.129 E1819.87374
G1 X89.871 Y107.160 E1820.92335
G1 X89.871 Y108.317 E1821.21260
G1 X91.683 Y110.129 E1821.85315
G1 X90.526 Y110.129 E1822.14240
G1 X89.871 Y109.474 E1822.37390
G1 Z5.600 F7800.000
G1 X90.526 Y89.871 F7800.000
G1 X89.871 Y90.526 E1822.60539 F4800.000
G1 X89.871 Y91.683 E1822.89464
G1 X91.683 Y89.871 E1823.53519
G1 X92.840 Y89.871 E1823.82444
G1 X89.871 Y92.840 E1824.87405
G1 X89.871 Y93.997 E1825.16330
G1 X93.997 Y89.871 E1826.62198
G1 X95.154 Y89.871 E1826.91123
G1 X89.871 Y95.154 E1828.77897
G1 X89.871 Y96.311 E1829.06822
G1 X96.311 Y89.871 E1831.34502
G1 X97.468 Y89.871 E1831.63427
G1 X89.871 Y97.468 E1834.32013
G1 X89.871 Y98.625 E1834.60938
G1 X98.625 Y89.871 E1837.70430
G1 X99.782 Y89.871 E1837.99355
G1 X89.871 Y99.782 E1841.49753
G1 X89.871 Y100.939 E1841.78678
G1 X100.939 Y89.871 E1845.69983
G1 X102.096 Y89.871 E1845.98908
G1 X89.871 Y102.096 E1850.31118
G1 X89.871 Y103.253 E1850.60043
G1 X103.253 Y89.871 E1855.33160
G1 X104.410 Y89.871 E1855.62085
G1 X89.871 Y104.410 E1860.76108
G1 X89.871 Y105.567 E1861.05033
G1 X105.567 Y89.871 E1866.59962
G1 X106.724 Y89.871 E1866.88887
G1 X89.871 Y106.724 E1872.84723
G1 X89.871 Y107.881 E1873.13648
G1 X107.881 Y89.871 E1879.50389
G1 X109.038 Y89.871 E1879.79314
G1 X89.871 Y109.038 E1886.56962
G1 X89.938 Y110.129 E1886.84278
G1 X110.129 Y89.938 E1893.98139
G1 X110.129 Y91.095 E1894.27064
G1 X91.095 Y110.129 E1901.00020
G1 X92.252 Y110.129 E1901.28945
G1 X110.129 Y92.252 E1907.60994
G1 X110.129 Y93.409 E1907.89919
G1 X93.409 Y110.129 E1913.81061
G1 X94.566 Y110.129 E1914.09986
G1 X110.129 Y94.566 E1919.60223
G1 X110.129 Y95.723 E1919.89148
G1 X95.723 Y110.129 E1924.98479
G1 X96.880 Y110.129 E1925.27404
G1 X110.129 Y96.880 E1929.95828
G1 X110.129 Y98.037 E1930.24753
G1 X98.037 Y110.129 E1934.52271
G1 X99.194 Y110.129 E1934.81196
G1 X110.129 Y99.194 E1938.67808
G1 X110.129 Y100.351 E1938.96733
G1 X100.351 Y110.129 E1942.42439
G1 X101.508 Y110.129 E1942.71364
G1 X110.129 Y101.508 E1945.76164
G1 X110.129 Y102.665 E1946.05089
G1 X102.665 Y110.129 E1948.68983
G1 X103.822 Y110.129 E1948.97908
G1 X110.129 Y103.822 E1951.20895
G1 X110.129 Y104.979 E1951.49820
G1 X104.979 Y110.129 E1953.31902
G1 X106.136 Y110.129 E1953.60827
G1 X110.129 Y106.136 E1955.02002
G1 X110.129 Y107.293 E1955.30927
G1 X107.293 Y110.129 E1956.31196
G1 X108.450 Y110.129 E1956.60121
G1 X110.129 Y108.450 E1957.19484
G1 X110.129 Y109.607 E1957.48409
G1 X109.607 Y110.129 E1957.66866
G1 Z6.000 F7800.000
G1 X110.129 Y90.393 F7800.000
G1 X109.607 Y89.871 E1957.85322 F4800.000
G1 X108.450 Y89.871 E1958.14247
G1 X110.129 Y91.550 E1958.73610
G1 X110.129 Y92.707 E1959.02535
G1 X107.293 Y89.871 E1960.02804
G1 X106.136 Y89.871 E1960.31729
G1 X110.129 Y93.864 E1961.72905
G1 X110.129 Y95.021 E1962.01830
G1 X104.979 Y89.871 E1963.83911
G1 X103.822 Y89.871 E1964.12836
G1 X110.129 Y96.178 E1966.35823
G1 X110.129 Y97.335 E1966.64749
G1 X102.665 Y89.871 E1969.28642
G1 X101.508 Y89.871 E1969.57567
G1 X110.129 Y98.492 E1972.62367
G1 X110.129 Y99.649 E1972.91292
G1 X100.351 Y89.871 E1976.36998
G1 X99.194 Y89.871 E1976.65923
G1 X110.129 Y100.806 E1980.52535
G1 X110.129 Y101.963 E1980.81460
G1 X98.037 Y89.871 E1985.08978
G1 X96.880 Y89.871 E1985.37903
G1 X110.129 Y103.120 E1990.06328
G1 X110.129 Y104.277 E1990.35253
G1 X95.723 Y89.871 E1995.44584
G1 X94.566 Y89.871 E1995.73509
G1 X110.129 Y105.434 E2001.23745
G1 X110.129 Y106.591 E2001.52670
G1 X93.409 Y89.871 E2007.43813
G1 X92.252 Y89.871 E2007.72738
G1 X110.129 Y107.748 E2014.04787
G1 X110.129 Y108.905 E2014.33712
G1 X91.095 Y89.871 E2021.06667
G1 X89.938 Y89.871 E2021.35592
G1 X110.129 Y110.062 E2028.49454
G1 X109.038 Y110.129 E2028.76770
G1 X89.871 Y90.962 E2035.54418
G1 X89.871 Y92.119 E2035.83343
G1 X107.881 Y110.129 E2042.20084
G1 X106.724 Y110.129 E2042.49009
G1 X89.871 Y93.276 E2048.44844
G1 X89.871 Y94.433 E2048.73769
G1 X105.567 Y110.129 E2054.28698
G1 X104.410 Y110.129 E2054.57623
G1 X89.871 Y95.590 E2059.71646
G1 X89.871 Y96.747 E2060.00571
G1 X103.253 Y110.129 E2064.73688
G1 X102.096 Y110.129 E2065.02613
G1 X89.871 Y97.904 E2069.34824
G1 X89.871 Y99.061 E2069.63749
G1 X100.939 Y110.129 E2073.55053
G1 X99.782 Y110.129 E2073.83978
G1 X89.871 Y100.218 E2077.34377
G1 X89.871 Y101.375 E2077.63302
G1 X98.625 Y110.129 E2080.72794
G1 X97.468 Y110.129 E2081.01719
G1 X89.871 Y102.532 E2083.70305
G1 X89.871 Y103.689 E2083.99230
G1 X96.311 Y110.129 E2086.26910
G1 X95.154 Y110.129 E2086.55835
G1 X89.871 Y104.846 E2088.42608
G1 X89.871 Y106.003 E2088.71533
G1 X93.997 Y110.129 E2090.17401
G1 X92.840 Y110.129 E2090.46326
G1 X89.871 Y107.160 E2091.51287
G1 X89.871 Y108.317 E2091.80212
G1 X91.683 Y110.129 E2092.44268
G1 X90.526 Y110.129 E2092.73193
G1 X89.871 Y109.474 E2092.96342
G1 Z6.400 F7800.000
G1 X90.526 Y89.871 F7800.000
G1 X89.871 Y90.526 E2093.19491 F4800.000
G1 X89.871 Y91.683 E2093.48416
G1 X91.683 Y89.871 E2094.12471
G1 X92.840 Y89.871 E2094.41396
G1 X89.871 Y92.840 E2095.46358
G1 X89.871 Y93.997 E2095.75283
G1 X93.997 Y89.871 E2097.21150
G1 X95.154 Y89.871 E2097.50075
G1 X89.871 Y95.154 E2099.36849
G1 X89.871 Y96.311 E2099.65774
G1 X96.311 Y89.871 E2101.93454
G1 X97.468 Y89.871 E2102.22379
G1 X89.871 Y97.468 E2104.90965
G1 X89.871 Y98.625 E2105.19890
G1 X98.625 Y89.871 E2108.29382
G1 X99.782 Y89.871 E2108.58307
G1 X89.871 Y99.782 E2112.08705
G1 X89.871 Y100.939 E2112.37630
G1 X100.939 Y89.871 E2116.28935
G1 X102.096 Y89.871 E2116.57860
G1 X89.871 Y102.096 E2120.90071
G1 X89.871 Y103.253 E2121.18996
G1 X103.253 Y89.871 E2125.92112
G1 X104.410 Y89.871 E2126.21037
G1 X89.871 Y104.410 E2131.35060
G1 X89.871 Y105.567 E2131.63985
G1 X105.567 Y89.871 E2137.18915
G1 X106.724 Y89.871 E2137.47840
G1 X89.871 Y106.724 E2143.43675
G1 X89.871 Y107.881 E2143.72600
G1 X107.881 Y89.871 E2150.09341
G1 X109.038 Y89.871 E2150.38266
G1 X89.871 Y109.038 E2157.15914
G1 X89.938 Y110.129 E2157.43230
G1 X110.129 Y89.938 E2164.57092
G1 X110.129 Y91.095 E2164.86017
G1 X91.095 Y110.129 E2171.58972
G1 X92.252 Y110.129 E2171.87897
G1 X110.129 Y92.252 E2178.19946
G1 X110.129 Y93.409 E2178.48871
G1 X93.409 Y110.129 E2184.40014
G1 X94.566 Y110.129 E2184.68939
G1 X110.129 Y94.566 E2190.19175
G1 X110.129 Y95.723 E2190.48100
G1 X95.723 Y110.129 E2195.57431
G1 X96.880 Y110.129 E2195.86356
G1 X110.129 Y96.880 E2200.54780
G1 X110.129 Y98.037 E2200.83705
G1 X98.037 Y110.129 E2205.11224
G1 X99.194 Y110.129 E2205.40149
G1 X110.129 Y99.194 E2209.26761
G1 X110.129 Y100.351 E2209.55686
G1 X100.351 Y110.129 E2213.01392
G1 X101.508 Y110.129 E2213.30317
G1 X110.129 Y101.508 E2216.35116
G1 X110.129 Y102.665 E2216.64041
G1 X102.665 Y110.129 E2219.27935
G1 X103.822 Y110.129 E2219.56860
G1 X110.129 Y103.822 E2221.79848
G1 X110.129 Y104.979 E2222.08773
G1 X104.979 Y110.129 E2223.90854
G1 X106.136 Y110.129 E2224.19779
G1 X110.129 Y106.136 E2225.60954
G1 X110.129 Y107.293 E2225.89879
G1 X107.293 Y110.129 E2226.90148
G1 X108.450 Y110.129 E2227.19073
G1 X110.129 Y108.450 E2227.78436
G1 X110.129 Y109.607 E2228.07361
G1 X109.607 Y110.129 E2228.25818
G1 Z6.800 F7800.000
G1 X110.129 Y90.393 F7800.000
G1 X109.607 Y89.871 E2228.44275 F4800.000
G1 X108.450 Y89.871 E2228.73200
G1 X110.129 Y91.550 E2229.32563
G1 X110.129 Y92.707 E2229.61488
G1 X107.293 Y89.871 E2230.61757
G1 X106.136 Y89.871 E2230.90682
G1 X110.129 Y93.864 E2232.31857
G1 X110.129 Y95.021 E2232.60782
G1 X104.979 Y89.871 E2234.42863
G1 X103.822 Y89.871 E2234.71788
G1 X110.129 Y96.178 E2236.94776
G1 X110.129 Y97.335 E2237.23701
G1 X102.665 Y89.871 E2239.87594
G1 X101.508 Y89.871 E2240.16519
G1 X110.129 Y98.492 E2243.21319
G1 X110.129 Y99.649 E2243.50244
G1 X100.351 Y89.871 E2246.95950
G1 X99.194 Y89.871 E2247.24875
G1 X110.129 Y100.806 E2251.11487
G1 X110.129 Y101.963 E2251.40412
G1 X98.037 Y89.871 E2255.67931
G1 X96.880 Y89.871 E2255.96856
G1 X110.129 Y103.120 E2260.65280
G1 X110.129 Y104.277 E2260.94205
G1 X95.723 Y89.871 E2266.03536
G1 X94.566 Y89.871 E2266.32461
G1 X110.129 Y105.434 E2271.82697
G1 X110.129 Y106.591 E2272.11622
G1 X93.409 Y89.871 E2278.02765
G1 X92.252 Y89.871 E2278.31690
G1 X110.129 Y107.748 E2284.63739
G1 X110.129 Y108.905 E2284.92664
G1 X91.095 Y89.871 E2291.65620
G1 X89.938 Y89.871 E2291.94545
G1 X110.129 Y110.062 E2299.08406
G1 X109.038 Y110.129 E2299.35722
G1 X89.871 Y90.962 E2306.13370
G1 X89.871 Y92.119 E2306.42295
G1 X107.881 Y110.129 E2312.79036
G1 X106.724 Y110.129 E2313.07961
G1 X89.871 Y93.276 E2319.03797
G1 X89.871 Y94.433 E2319.32722
G1 X105.567 Y110.129 E2324.87651
G1 X104.410 Y110.129 E2325.16576
G1 X89.871 Y95.590 E2330.30599
G1 X89.871 Y96.747 E2330.59524
G1 X103.253 Y110.129 E2335.32640
G1 X102.096 Y110.129 E2335.61565
G1 X89.871 Y97.904 E2339.93776
G1 X89.871 Y99.061 E2340.22701
G1 X100.939 Y110.129 E2344.14005
G1 X99.782 Y110.129 E2344.42930
G1 X89.871 Y100.218 E2347.93329
G1 X89.871 Y101.375 E2348.22254
G1 X98.625 Y110.129 E2351.31746
G1 X97.468 Y110.129 E2351.60671
G1 X89.871 Y102.532 E2354.29257
G1 X89.871 Y103.689 E2354.58182
G1 X96.311 Y110.129 E2356.85862
G1 X95.154 Y110.129 E2357.14787
G1 X89.871 Y104.846 E2359.01561
G1 X89.871 Y106.003 E2359.30486
G1 X93.997 Y110.129 E2360.76353
G1 X92.840 Y110.129 E2361.05278
G1 X89.871 Y107.160 E2362.10240
G1 X89.871 Y108.317 E2362.39165
G1 X91.683 Y110.129 E2363.03220
G1 X90.526 Y110.129 E2363.32145
G1 X89.871 Y109.474 E2363.55294
G1 Z7.200 F7800.000
G1 X90.526 Y89.871 F7800.000
G1 X89.871 Y90.526 E2363.78443 F4800.000
G1 X89.871 Y91.683 E2364.07368
G1 X91.683 Y89.871 E2364.71423
G1 X92.840 Y89.871 E2365.00348
G1 X89.871 Y92.840 E2366.05310
G1 X89.871 Y93.997 E2366.34235
G1 X93.997 Y89.871 E2367.80102
G1 X95.154 Y89.871 E2368.09027
G1 X89.871 Y95.154 E2369.95801
G1 X89.871 Y96.311 E2370.24726
G1 X96.311 Y89.871 E2372.52406
G1 X97.468 Y89.871 E2372.81331
G1 X89.871 Y97.468 E2375.49917
G1 X89.871 Y98.625 E2375.78842
G1 X98.625 Y89.871 E2378.88334
G1 X99.782 Y89.871 E2379.17259
G1 X89.871 Y99.782 E2382.67658
G1 X89.871 Y100.939 E2382.96583
G1 X100.939 Y89.871 E2386.87887
G1 X102.096 Y89.871 E2387.16812
G1 X89.871 Y102.096 E2391.49023
G1 X89.871 Y103.253 E2391.77948
G1 X103.253 Y89.871 E2396.51065
G1 X104.410 Y89.871 E2396.79990
G1 X89.871 Y104.410 E2401.94013
G1 X89.871 Y105.567 E2402.22938
G1 X105.567 Y89.871 E2407.77867
G1 X106.724 Y89.871 E2408.06792
G1 X89.871 Y106.724 E2414.02627
G1 X89.871 Y107.881 E2414.31552
G1 X107.881 Y89.871 E2420.68294
G1 X109.038 Y89.871 E2420.97219
G1 X89.871 Y109.038 E2427.74866
G1 X89.938 Y110.129 E2428.02183
G1 X110.129 Y89.938 E2435.16044
G1 X110.129 Y91.095 E2435.44969
G1 X91.095 Y110.129 E2442.17924
G1 X92.252 Y110.129 E2442.46849
G1 X110.129 Y92.252 E2448.78898
G1 X110.129 Y93.409 E2449.07823
G1 X93.409 Y110.129 E2454.98966
G1 X94.566 Y110.129 E2455.27891
G1 X110.129 Y94.566 E2460.78128
G1 X110.129 Y95.723 E2461.07053
G1 X95.723 Y110.129 E2466.16383
G1 X96.880 Y110.129 E2466.45308
G1 X110.129 Y96.880 E2471.13733
G1 X110.129 Y98.037 E2471.42658
G1 X98.037 Y110.129 E2475.70176
G1 X99.194 Y110.129 E2475.99101
G1 X110.129 Y99.194 E2479.85713
G1 X110.129 Y100.351 E2480.14638
G1 X100.351 Y110.129 E2483.60344
G1 X101.508 Y110.129 E2483.89269
G1 X110.129 Y101.508 E2486.94069
G1 X110.129 Y102.665 E2487.22994
G1 X102.665 Y110.129 E2489.86887
G1 X103.822 Y110.129 E2490.15812
G1 X110.129 Y103.822 E2492.38800
G1 X110.129 Y104.979 E2492.67725
G1 X104.979 Y110.129 E2494.49806
G1 X106.136 Y110.129 E2494.78731
G1 X110.129 Y106.136 E2496.19906
G1 X110.129 Y107.293 E2496.48831
G1 X107.293 Y110.129 E2497.49101
G1 X108.450 Y110.129 E2497.78026
G1 X110.129 Y108.450 E2498.37388
G1 X110.129 Y109.607 E2498.66313
G1 X109.607 Y110.129 E2498.84770
G1 Z7.600 F7800.000
G1 X110.129 Y90.393 F7800.000
G1 X109.607 Y89.871 E2499.03227 F4800.000
G1 X108.450 Y89.871 E2499.32152
G1 X110.129 Y91.550 E2499.91515
G1 X110.129 Y92.707 E2500.20440
G1 X107.293 Y89.871 E2501.20709
G1 X106.136 Y89.871 E2501.49634
G1 X110.129 Y93.864 E2502.90809
G1 X110.129 Y95.021 E2503.19734
G1 X104.979 Y89.871 E2505.01816
G1 X103.822 Y89.871 E2505.30741
G1 X110.129 Y96.178 E2507.53728
G1 X110.129 Y97.335 E2507.82653
G1 X102.665 Y89.871 E2510.46547
G1 X101.508 Y89.871 E2510.75472
G1 X110.129 Y98.492 E2513.80272
G1 X110.129 Y99.649 E2514.09197
G1 X100.351 Y89.871 E2517.54903
G1 X99.194 Y89.871 E2517.83828
G1 X110.129 Y100.806 E2521.70440
G1 X110.129 Y101.963 E2521.99365
G1 X98.037 Y89.871 E2526.26883
G1 X96.880 Y89.871 E2526.55808
G1 X110.129 Y103.120 E2531.24232
G1 X110.129 Y104.277 E2531.53157
G1 X95.723 Y89.871 E2536.62488
G1 X94.566 Y89.871 E2536.91413
G1 X110.129 Y105.434 E2542.41650
G1 X110.129 Y106.591 E2542.70575
G1 X93.409 Y89.871 E2548.61718
G1 X92.252 Y89.871 E2548.90643
G1 X110.129 Y107.748 E2555.22692
G1 X110.129 Y108.905 E2555.51617
G1 X91.095 Y89.871 E2562.24572
G1 X89.938 Y89.871 E2562.53497
G1 X110.129 Y110.062 E2569.67358
G1 X109.038 Y110.129 E2569.94675
G1 X89.871 Y90.962 E2576.72322
G1 X89.871 Y92.119 E2577.01247
G1 X107.881 Y110.129 E2583.37989
G1 X106.724 Y110.129 E2583.66914
G1 X89.871 Y93.276 E2589.62749
G1 X89.871 Y94.433 E2589.91674
G1 X105.567 Y110.129 E2595.46603
G1 X104.410 Y110.129 E2595.75528
G1 X89.871 Y95.590 E2600.89551
G1 X89.871 Y96.747 E2601.18476
G1 X103.253 Y110.129 E2605.91593
G1 X102.096 Y110.129 E2606.20518
G1 X89.871 Y97.904 E2610.52728
G1 X89.871 Y99.061 E2610.81653
G1 X100.939 Y110.129 E2614.72958
G1 X99.782 Y110.129 E2615.01883
G1 X89.871 Y100.218 E2618.52281
G1 X89.871 Y101.375 E2618.81206
G1 X98.625 Y110.129 E2621.90698
G1 X97.468 Y110.129 E2622.19623
G1 X89.871 Y102.532 E2624.88209
G1 X89.871 Y103.689 E2625.17134
G1 X96.311 Y110.129 E2627.44814
G1 X95.154 Y110.129 E2627.73739
G1 X89.871 Y104.846 E2629.60513
G1 X89.871 Y106.003 E2629.89438
G1 X93.997 Y110.129 E2631.35305
G1 X92.840 Y110.129 E2631.64230
G1 X89.871 Y107.160 E2632.69192
G1 X89.871 Y108.317 E2632.98117
G1 X91.683 Y110.129 E2633.62172
G1 X90.526 Y110.129 E2633.91097
G1 X89.871 Y109.474 E2634.14246
G1 Z8.000 F7800.000
G1 E2632.14246 F2400.00000
G92 E0
G1 X90.526 Y89.871 F7800.000
G1 E2.00000 F2400.00000
G1 X89.871 Y90.526 E2.23149 F4800.000
G1 X89.871 Y91.683 E2.52074
G1 X91.683 Y89.871 E3.16129
G1 X92.840 Y89.871 E3.45054
G1 X89.871 Y92.840 E4.50016
G1 X89.871 Y93.997 E4.78941
G1 X93.997 Y89.871 E6.24808
G1 X95.154 Y89.871 E6.53733
G1 X89.871 Y95.154 E8.40507
G1 X89.871 Y96.311 E8.69432
G1 X96.311 Y89.871 E10.97112
G1 X97.468 Y89.871 E11.26037
G1 X89.871 Y97.468 E13.94623
G1 X89.871 Y98.625 E14.23548
G1 X98.625 Y89.871 E17.33040
G1 X99.782 Y89.871 E17.61965
G1 X89.871 Y99.782 E21.12364
G1 X89.871 Y100.939 E21.41289
G1 X100.939 Y89.871 E25.32593
G1 X102.096 Y89.871 E25.61518
G1 X89.871 Y102.096 E29.93729
G1 X89.871 Y103.253 E30.22654
G1 X103.253 Y89.871 E34.95771
G1 X104.410 Y89.871 E35.24696
G1 X89.871 Y104.410 E40.38719
G1 X89.871 Y105.567 E40.67644
G1 X105.567 Y89.871 E46.22573
G1 X106.724 Y89.871 E46.51498
G1 X89.871 Y106.724 E52.47333
G1 X89.871 Y107.881 E52.76258
G1 X107.881 Y89.871 E59.13000
G1 X109.038 Y89.871 E59.41925
G1 X89.871 Y109.038 E66.19572
G1 X89.938 Y110.129 E66.46889
G1 X110.129 Y89.938 E73.60750
G1 X110.129 Y91.095 E73.89675
G1 X91.095 Y110.129 E80.62630
G1 X92.252 Y110.129 E80.91555
G1 X110.129 Y92.252 E87.23604
G1 X110.129 Y93.409 E87.52529
G1 X93.409 Y110.129 E93.43672
G1 X94.566 Y110.129 E93.72597
G1 X110.129 Y94.566 E99.22834
G1 X110.129 Y95.723 E99.51759
G1 X95.723 Y110.129 E104.61089
G1 X96.880 Y110.129 E104.90014
G1 X110.129 Y96.880 E109.58439
G1 X110.129 Y98.037 E109.87364
G1 X98.037 Y110.129 E114.14882
G1 X99.194 Y110.129 E114.43807
G1 X110.129 Y99.194 E118.30419
G1 X110.129 Y100.351 E118.59344
G1 X100.351 Y110.129 E122.05050
G1 X101.508 Y110.129 E122.33975
G1 X110.129 Y101.508 E125.38775
G1 X110.129 Y102.665 E125.67700
G1 X102.665 Y110.129 E128.31593
G1 X103.822 Y110.129 E128.60518
G1 X110.129 Y103.822 E130.83506
G1 X110.129 Y104.979 E131.12431
G1 X104.979 Y110.129 E132.94512
G1 X106.136 Y110.129 E133.23437
G1 X110.129 Y106.136 E134.64612
G1 X110.129 Y107.293 E134.93537
G1 X107.293 Y110.129 E135.93806
G1 X108.450 Y110.129 E136.22731
G1 X110.129 Y108.450 E136.82094
G1 X110.129 Y109.607 E137.11019
G1 X109.607 Y110.129 E137.29476
G1 E135.29476 F2400.00000
G92 E0
M107
M104 S0 ; turn off temperature
G28 X0  ; home X axis
M84     ; disable motors

; filament used = 2767.4mm (2.2cm3)

; avoid_crossing_perimeters = 0
; bed_shape = 0x0,200x0,200x200,0x200
; bed_temperature = 0
; before_layer_gcode = 
; bridge_acceleration = 0
; bridge_fan_speed = 100
; brim_width = 0
; complete_objects = 0
; cooling = 1
; default_acceleration = 0
; disable_fan_first_layers = 3
; duplicate_distance = 6
; end_gcode = M104 S0 ; turn off temperature\nG28 X0  ; home X axis\nM84     ; disable motors\n
; extruder_clearance_height = 20
; extruder_clearance_radius = 20
; extruder_offset = 0x0
; extrusion_axis = E
; extrusion_multiplier = 1
; fan_always_on = 0
; fan_below_layer_time = 60
; filament_colour = #FFFFFF
; filament_diameter = 1
; first_layer_acceleration = 0
; first_layer_bed_temperature = 0
; first_layer_extrusion_width = 200%
; first_layer_speed = 30
; first_layer_temperature = 200
; gcode_arcs = 0
; gcode_comments = 0
; gcode_flavor = reprap
; infill_acceleration = 0
; infill_first = 0
; layer_gcode = 
; max_fan_speed = 100
; max_print_speed = 80
; max_volumetric_speed = 0
; min_fan_speed = 35
; min_print_speed = 10
; min_skirt_length = 0
; notes = 
; nozzle_diameter = 0.5
; only_retract_when_crossing_perimeters = 1
; ooze_prevention = 0
; output_filename_format = [input_filename_base].gcode
; perimeter_acceleration = 0
; post_process = 
; pressure_advance = 0
; resolution = 0
; retract_before_travel = 2
; retract_layer_change = 0
; retract_length = 2
; retract_length_toolchange = 10
; retract_lift = 0
; retract_restart_extra = 0
; retract_restart_extra_toolchange = 0
; retract_speed = 40
; skirt_distance = 6
; skirt_height = 1
; skirts = 0
; slowdown_below_layer_time = 5
; spiral_vase = 0
; standby_temperature_delta = -5
; start_gcode = G28 ; home all axes\nG1 Z5 F5000 ; lift nozzle\n
; temperature = 200
; threads = 2
; toolchange_gcode = 
; travel_speed = 130
; use_firmware_retraction = 0
; use_relative_e_distances = 0
; use_volumetric_e = 0
; vibration_limit = 0
; wipe = 0
; z_offset = 0
; dont_support_bridges = 1
; extrusion_width = 0
; first_layer_height = 0.4
; infill_only_where_needed = 0
; interface_shells = 0
; layer_height = 0.4
; raft_layers = 0
; seam_position = aligned
; support_material = 0
; support_material_angle = 0
; support_material_contact_distance = 0.2
; support_material_enforce_layers = 0
; support_material_extruder = 1
; support_material_extrusion_width = 0
; support_material_interface_extruder = 1
; support_material_interface_layers = 3
; support_material_interface_spacing = 0
; support_material_interface_speed = 100%
; support_material_pattern = pillars
; support_material_spacing = 2.5
; support_material_speed = 60
; support_material_threshold = 0
; xy_size_compensation = 0
; bottom_solid_layers = 0
; bridge_flow_ratio = 1
; bridge_speed = 60
; external_fill_pattern = rectilinear
; external_perimeter_extrusion_width = 0
; external_perimeter_speed = 50%
; external_perimeters_first = 0
; extra_perimeters = 1
; fill_angle = 45
; fill_density = 60%
; fill_pattern = rectilinear
; gap_fill_speed = 20
; infill_every_layers = 1
; infill_extruder = 1
; infill_extrusion_width = 0
; infill_overlap = 15%
; infill_speed = 80
; overhangs = 1
; perimeter_extruder = 1
; perimeter_extrusion_width = 0
; perimeter_speed = 60
; perimeters = 0
; small_perimeter_speed = 15
; solid_infill_below_area = 70
; solid_infill_every_layers = 0
; solid_infill_extruder = 1
; solid_infill_extrusion_width = 0
; solid_infill_speed = 20
; thin_walls = 1
; top_infill_extrusion_width = 0
; top_solid_infill_speed = 15
; top_solid_layers = 0
