; generated by Slic3r 1.2.9 on 2019-07-13 at 17:39:14

; external perimeters extrusion width = 0.50mm
; perimeters extrusion width = 0.58mm
; infill extrusion width = 0.58mm
; solid infill extrusion width = 0.58mm
; top infill extrusion width = 0.58mm

M107
M104 S200 ; set temperature
G28 ; home all axes
G1 Z5 F5000 ; lift nozzle

M109 S200 ; wait for temperature to be reached
G21 ; set units to millimeters
G90 ; use absolute coordinates
M82 ; use absolute distances for extrusion
G92 E0
G1 Z0.400 F7800.000
G1 E-2.00000 F2400.00000
G92 E0
G1 X109.379 Y90.608 F7800.000
G1 E2.00000 F2400.00000
G1 X108.392 Y89.621 E2.50744 F1800.000
G1 X107.235 Y89.621 E2.92826
G1 X109.379 Y91.765 E4.03083
G1 X109.379 Y92.922 E4.45166
G1 X106.078 Y89.621 E6.14936
G1 X104.921 Y89.621 E6.57018
G1 X109.379 Y94.079 E8.86302
G1 X109.379 Y95.236 E9.28384
G1 X103.764 Y89.621 E12.17181
G1 X102.607 Y89.621 E12.59263
G1 X109.379 Y96.393 E16.07574
G1 X109.379 Y97.550 E16.49656
G1 X101.450 Y89.621 E20.57480
G1 X100.293 Y89.621 E20.99562
G1 X109.379 Y98.707 E25.66899
G1 X109.379 Y99.864 E26.08981
G1 X99.136 Y89.621 E31.35831
G1 X97.979 Y89.621 E31.77913
G1 X109.379 Y101.021 E37.64277
G1 X109.379 Y102.178 E38.06359
G1 X96.822 Y89.621 E44.52235
G1 X95.665 Y89.621 E44.94318
G1 X109.379 Y103.335 E51.99708
G1 X109.379 Y104.492 E52.41790
G1 X94.508 Y89.621 E60.06693
G1 X93.351 Y89.621 E60.48775
G1 X109.379 Y105.649 E68.73192
G1 X109.379 Y106.806 E69.15274
G1 X92.194 Y89.621 E77.99204
G1 X91.037 Y89.621 E78.41286
G1 X109.379 Y107.963 E87.84729
G1 X109.379 Y109.120 E88.26811
G1 X90.621 Y90.362 E97.91654
G1 X90.621 Y91.519 E98.33737
G1 X109.379 Y110.277 E107.98580
G1 X108.324 Y110.379 E108.37130
G1 X90.621 Y92.676 E117.47708
G1 X90.621 Y93.833 E117.89790
G1 X107.167 Y110.379 E126.40856
G1 X106.010 Y110.379 E126.82938
G1 X90.621 Y94.990 E134.74490
G1 X90.621 Y96.147 E135.16572
G1 X104.853 Y110.379 E142.48611
G1 X103.696 Y110.379 E142.90693
G1 X90.621 Y97.304 E149.63219
G1 X90.621 Y98.461 E150.05301
G1 X102.539 Y110.379 E156.18313
G1 X101.382 Y110.379 E156.60396
G1 X90.621 Y99.618 E162.13895
G1 X90.621 Y100.775 E162.55977
G1 X100.225 Y110.379 E167.49962
G1 X99.068 Y110.379 E167.92045
G1 X90.621 Y101.932 E172.26517
G1 X90.621 Y103.089 E172.68599
G1 X97.911 Y110.379 E176.43558
G1 X96.754 Y110.379 E176.85641
G1 X90.621 Y104.246 E180.01087
G1 X90.621 Y105.403 E180.43169
G1 X95.597 Y110.379 E182.99101
G1 X94.440 Y110.379 E183.41184
G1 X90.621 Y106.560 E185.37603
G1 X90.621 Y107.717 E185.79685
G1 X93.283 Y110.379 E187.16591
G1 X92.126 Y110.379 E187.58673
G1 X90.621 Y108.874 E188.36066
G1 X90.621 Y110.031 E188.78148
G1 X90.969 Y110.379 E188.96028
G1 Z0.800 F7800.000
G1 X108.392 Y110.379 F7800.000
G1 X109.379 Y109.392 E189.30906 F4800.000
G1 X109.379 Y108.235 E189.59831
G1 X107.235 Y110.379 E190.35616
G1 X106.078 Y110.379 E190.64541
G1 X109.379 Y107.078 E191.81232
G1 X109.379 Y105.921 E192.10157
G1 X104.921 Y110.379 E193.67754
G1 X103.764 Y110.379 E193.96679
G1 X109.379 Y104.764 E195.95182
G1 X109.379 Y103.607 E196.24107
G1 X102.607 Y110.379 E198.63517
G1 X101.450 Y110.379 E198.92442
G1 X109.379 Y102.450 E201.72757
G1 X109.379 Y101.293 E202.01682
G1 X100.293 Y110.379 E205.22904
G1 X99.136 Y110.379 E205.51829
G1 X109.379 Y100.136 E209.13957
G1 X109.379 Y98.979 E209.42882
G1 X97.979 Y110.379 E213.45916
G1 X96.822 Y110.379 E213.74841
G1 X109.379 Y97.822 E218.18781
G1 X109.379 Y96.665 E218.47706
G1 X95.665 Y110.379 E223.32552
G1 X94.508 Y110.379 E223.61477
G1 X109.379 Y95.508 E228.87229
G1 X109.379 Y94.351 E229.16154
G1 X93.351 Y110.379 E234.82813
G1 X92.194 Y110.379 E235.11738
G1 X109.379 Y93.194 E241.19303
G1 X109.379 Y92.037 E241.48228
G1 X91.037 Y110.379 E247.96698
G1 X90.621 Y109.638 E248.17943
G1 X109.379 Y90.880 E254.81123
G1 X109.379 Y89.723 E255.10048
G1 X90.621 Y108.481 E261.73228
G1 X90.621 Y107.324 E262.02153
G1 X108.324 Y89.621 E268.28035
G1 X107.167 Y89.621 E268.56960
G1 X90.621 Y106.167 E274.41935
G1 X90.621 Y105.010 E274.70860
G1 X106.010 Y89.621 E280.14930
G1 X104.853 Y89.621 E280.43855
G1 X90.621 Y103.853 E285.47018
G1 X90.621 Y102.696 E285.75943
G1 X103.696 Y89.621 E290.38200
G1 X102.539 Y89.621 E290.67125
G1 X90.621 Y101.539 E294.88476
G1 X90.621 Y100.382 E295.17401
G1 X101.382 Y89.621 E298.97846
G1 X100.225 Y89.621 E299.26771
G1 X90.621 Y99.225 E302.66309
G1 X90.621 Y98.068 E302.95234
G1 X99.068 Y89.621 E305.93867
G1 X97.911 Y89.621 E306.22792
G1 X90.621 Y96.911 E308.80518
G1 X90.621 Y95.754 E309.09443
G1 X96.754 Y89.621 E311.26263
G1 X95.597 Y89.621 E311.55188
G1 X90.621 Y94.597 E313.31102
G1 X90.621 Y93.440 E313.60027
G1 X94.440 Y89.621 E314.95035
G1 X93.283 Y89.621 E315.23960
G1 X90.621 Y92.283 E316.18062
G1 X90.621 Y91.126 E316.46987
G1 X92.126 Y89.621 E317.00182
G1 X90.969 Y89.621 E317.29107
G1 X90.621 Y89.969 E317.41397
G1 Z1.200 F7800.000
G1 X109.379 Y90.608 F7800.000
G1 X108.392 Y89.621 E317.76275 F4800.000
G1 X107.235 Y89.621 E318.05200
G1 X109.379 Y91.765 E318.80985
G1 X109.379 Y92.922 E319.09910
G1 X106.078 Y89.621 E320.26601
G1 X104.921 Y89.621 E320.55526
G1 X109.379 Y94.079 E322.13123
G1 X109.379 Y95.236 E322.42048
G1 X103.764 Y89.621 E324.40551
G1 X102.607 Y89.621 E324.69476
G1 X109.379 Y96.393 E327.08886
G1 X109.379 Y97.550 E327.37811
G1 X101.450 Y89.621 E330.18126
G1 X100.293 Y89.621 E330.47051
G1 X109.379 Y98.707 E333.68273
G1 X109.379 Y99.864 E333.97198
G1 X99.136 Y89.621 E337.59326
G1 X97.979 Y89.621 E337.88251
G1 X109.379 Y101.021 E341.91285
G1 X109.379 Y102.178 E342.20210
G1 X96.822 Y89.621 E346.64150
G1 X95.665 Y89.621 E346.93075
G1 X109.379 Y103.335 E351.77921
G1 X109.379 Y104.492 E352.06846
G1 X94.508 Y89.621 E357.32599
G1 X93.351 Y89.621 E357.61524
G1 X109.379 Y105.649 E363.28182
G1 X109.379 Y106.806 E363.57107
G1 X92.194 Y89.621 E369.64672
G1 X91.037 Y89.621 E369.93597
G1 X109.379 Y107.963 E376.42068
G1 X109.379 Y109.120 E376.70993
G1 X90.621 Y90.362 E383.34173
G1 X90.621 Y91.519 E383.63098
G1 X109.379 Y110.277 E390.26278
G1 X108.324 Y110.379 E390.52775
G1 X90.621 Y92.676 E396.78657
G1 X90.621 Y93.833 E397.07582
G1 X107.167 Y110.379 E402.92557
G1 X106.010 Y110.379 E403.21482
G1 X90.621 Y94.990 E408.65552
G1 X90.621 Y96.147 E408.94477
G1 X104.853 Y110.379 E413.97640
G1 X103.696 Y110.379 E414.26565
G1 X90.621 Y97.304 E418.88822
G1 X90.621 Y98.461 E419.17747
G1 X102.539 Y110.379 E423.39098
G1 X101.382 Y110.379 E423.68023
G1 X90.621 Y99.618 E427.48468
G1 X90.621 Y100.775 E427.77393
G1 X100.225 Y110.379 E431.16931
G1 X99.068 Y110.379 E431.45856
G1 X90.621 Y101.932 E434.44489
G1 X90.621 Y103.089 E434.73414
G1 X97.911 Y110.379 E437.31140
G1 X96.754 Y110.379 E437.60065
G1 X90.621 Y104.246 E439.76885
G1 X90.621 Y105.403 E440.05810
G1 X95.597 Y110.379 E441.81724
G1 X94.440 Y110.379 E442.10649
G1 X90.621 Y106.560 E443.45657
G1 X90.621 Y107.717 E443.74582
G1 X93.283 Y110.379 E444.68684
G1 X92.126 Y110.379 E444.97609
G1 X90.621 Y108.874 E445.50804
G1 X90.621 Y110.031 E445.79729
G1 X90.969 Y110.379 E445.92019
M106 S249.9
G1 Z1.600 F7800.000
G1 X108.392 Y110.379 F7800.000
G1 X109.379 Y109.392 E446.26897 F4800.000
G1 X109.379 Y108.235 E446.55822
G1 X107.235 Y110.379 E447.31607
G1 X106.078 Y110.379 E447.60532
G1 X109.379 Y107.078 E448.77223
G1 X109.379 Y105.921 E449.06148
G1 X104.921 Y110.379 E450.63745
G1 X103.764 Y110.379 E450.92670
G1 X109.379 Y104.764 E452.91173
G1 X109.379 Y103.607 E453.20098
G1 X102.607 Y110.379 E455.59507
G1 X101.450 Y110.379 E455.88432
G1 X109.379 Y102.450 E458.68748
G1 X109.379 Y101.293 E458.97673
G1 X100.293 Y110.379 E462.18895
G1 X99.136 Y110.379 E462.47820
G1 X109.379 Y100.136 E466.09947
G1 X109.379 Y98.979 E466.38872
G1 X97.979 Y110.379 E470.41906
G1 X96.822 Y110.379 E470.70831
G1 X109.379 Y97.822 E475.14772
G1 X109.379 Y96.665 E475.43697
G1 X95.665 Y110.379 E480.28543
G1 X94.508 Y110.379 E480.57468
G1 X109.379 Y95.508 E485.83220
G1 X109.379 Y94.351 E486.12145
G1 X93.351 Y110.379 E491.78804
G1 X92.194 Y110.379 E492.07729
G1 X109.379 Y93.194 E498.15293
G1 X109.379 Y92.037 E498.44218
G1 X91.037 Y110.379 E504.92689
G1 X90.621 Y109.638 E505.13934
G1 X109.379 Y90.880 E511.77114
G1 X109.379 Y89.723 E512.06039
G1 X90.621 Y108.481 E518.69219
G1 X90.621 Y107.324 E518.98144
G1 X108.324 Y89.621 E525.24026
G1 X107.167 Y89.621 E525.52951
G1 X90.621 Y106.167 E531.37926
G1 X90.621 Y105.010 E531.66851
G1 X106.010 Y89.621 E537.10921
G1 X104.853 Y89.621 E537.39846
G1 X90.621 Y103.853 E542.43009
G1 X90.621 Y102.696 E542.71934
G1 X103.696 Y89.621 E547.34191
G1 X102.539 Y89.621 E547.63116
G1 X90.621 Y101.539 E551.84467
G1 X90.621 Y100.382 E552.13392
G1 X101.382 Y89.621 E555.93837
G1 X100.225 Y89.621 E556.22762
G1 X90.621 Y99.225 E559.62300
G1 X90.621 Y98.068 E559.91225
G1 X99.068 Y89.621 E562.89858
G1 X97.911 Y89.621 E563.18783
G1 X90.621 Y96.911 E565.76509
G1 X90.621 Y95.754 E566.05434
G1 X96.754 Y89.621 E568.22254
G1 X95.597 Y89.621 E568.51179
G1 X90.621 Y94.597 E570.27093
G1 X90.621 Y93.440 E570.56018
G1 X94.440 Y89.621 E571.91026
G1 X93.283 Y89.621 E572.19951
G1 X90.621 Y92.283 E573.14053
G1 X90.621 Y91.126 E573.42978
G1 X92.126 Y89.621 E573.96173
G1 X90.969 Y89.621 E574.25098
G1 X90.621 Y89.969 E574.37388
G1 Z2.000 F7800.000
G1 X109.379 Y90.608 F7800.000
G1 X108.392 Y89.621 E574.72266 F4800.000
G1 X107.235 Y89.621 E575.01191
G1 X109.379 Y91.765 E575.76976
G1 X109.379 Y92.922 E576.05901
G1 X106.078 Y89.621 E577.22592
G1 X104.921 Y89.621 E577.51517
G1 X109.379 Y94.079 E579.09114
G1 X109.379 Y95.236 E579.38039
G1 X103.764 Y89.621 E581.36542
G1 X102.607 Y89.621 E581.65467
G1 X109.379 Y96.393 E584.04876
G1 X109.379 Y97.550 E584.33802
G1 X101.450 Y89.621 E587.14117
G1 X100.293 Y89.621 E587.43042
G1 X109.379 Y98.707 E590.64264
G1 X109.379 Y99.864 E590.93189
G1 X99.136 Y89.621 E594.55317
G1 X97.979 Y89.621 E594.84242
G1 X109.379 Y101.021 E598.87276
G1 X109.379 Y102.178 E599.16201
G1 X96.822 Y89.621 E603.60141
G1 X95.665 Y89.621 E603.89066
G1 X109.379 Y103.335 E608.73912
G1 X109.379 Y104.492 E609.02837
G1 X94.508 Y89.621 E614.28589
G1 X93.351 Y89.621 E614.57514
G1 X109.379 Y105.649 E620.24173
G1 X109.379 Y106.806 E620.53098
G1 X92.194 Y89.621 E626.60663
G1 X91.037 Y89.621 E626.89588
G1 X109.379 Y107.963 E633.38059
G1 X109.379 Y109.120 E633.66984
G1 X90.621 Y90.362 E640.30164
G1 X90.621 Y91.519 E640.59089
G1 X109.379 Y110.277 E647.22269
G1 X108.324 Y110.379 E647.48766
G1 X90.621 Y92.676 E653.74648
G1 X90.621 Y93.833 E654.03573
G1 X107.167 Y110.379 E659.88548
G1 X106.010 Y110.379 E660.17473
G1 X90.621 Y94.990 E665.61543
G1 X90.621 Y96.147 E665.90468
G1 X104.853 Y110.379 E670.93631
G1 X103.696 Y110.379 E671.22556
G1 X90.621 Y97.304 E675.84813
G1 X90.621 Y98.461 E676.13738
G1 X102.539 Y110.379 E680.35089
G1 X101.382 Y110.379 E680.64014
G1 X90.621 Y99.618 E684.44458
G1 X90.621 Y100.775 E684.73383
G1 X100.225 Y110.379 E688.12922
G1 X99.068 Y110.379 E688.41847
G1 X90.621 Y101.932 E691.40480
G1 X90.621 Y103.089 E691.69405
G1 X97.911 Y110.379 E694.27131
G1 X96.754 Y110.379 E694.56056
G1 X90.621 Y104.246 E696.72876
G1 X90.621 Y105.403 E697.01801
G1 X95.597 Y110.379 E698.77715
G1 X94.440 Y110.379 E699.06640
G1 X90.621 Y106.560 E700.41648
G1 X90.621 Y107.717 E700.70573
G1 X93.283 Y110.379 E701.64675
G1 X92.126 Y110.379 E701.93600
G1 X90.621 Y108.874 E702.46795
G1 X90.621 Y110.031 E702.75720
G1 X90.969 Y110.379 E702.88010
G1 Z2.400 F7800.000
G1 X108.392 Y110.379 F7800.000
G1 X109.379 Y109.392 E703.22888 F4800.000
G1 X109.379 Y108.235 E703.51813
G1 X107.235 Y110.379 E704.27598
G1 X106.078 Y110.379 E704.56523
G1 X109.379 Y107.078 E705.73214
G1 X109.379 Y105.921 E706.02139
G1 X104.921 Y110.379 E707.59736
G1 X103.764 Y110.379 E707.88661
G1 X109.379 Y104.764 E709.87164
G1 X109.379 Y103.607 E710.16089
G1 X102.607 Y110.379 E712.55498
G1 X101.450 Y110.379 E712.84423
G1 X109.379 Y102.450 E715.64739
G1 X109.379 Y101.293 E715.93664
G1 X100.293 Y110.379 E719.14885
G1 X99.136 Y110.379 E719.43810
G1 X109.379 Y100.136 E723.05938
G1 X109.379 Y98.979 E723.34863
G1 X97.979 Y110.379 E727.37897
G1 X96.822 Y110.379 E727.66822
G1 X109.379 Y97.822 E732.10762
G1 X109.379 Y96.665 E732.39687
G1 X95.665 Y110.379 E737.24534
G1 X94.508 Y110.379 E737.53459
G1 X109.379 Y95.508 E742.79211
G1 X109.379 Y94.351 E743.08136
G1 X93.351 Y110.379 E748.74795
G1 X92.194 Y110.379 E749.03720
G1 X109.379 Y93.194 E755.11284
G1 X109.379 Y92.037 E755.40209
G1 X91.037 Y110.379 E761.88680
G1 X90.621 Y109.638 E762.09924
G1 X109.379 Y90.880 E768.73105
G1 X109.379 Y89.723 E769.02030
G1 X90.621 Y108.481 E775.65210
G1 X90.621 Y107.324 E775.94135
G1 X108.324 Y89.621 E782.20016
G1 X107.167 Y89.621 E782.48941
G1 X90.621 Y106.167 E788.33917
G1 X90.621 Y105.010 E788.62842
G1 X106.010 Y89.621 E794.06911
G1 X104.853 Y89.621 E794.35836
G1 X90.621 Y103.853 E799.39000
G1 X90.621 Y102.696 E799.67925
G1 X103.696 Y89.621 E804.30182
G1 X102.539 Y89.621 E804.59107
G1 X90.621 Y101.539 E808.80458
G1 X90.621 Y100.382 E809.09383
G1 X101.382 Y89.621 E812.89827
G1 X100.225 Y89.621 E813.18752
G1 X90.621 Y99.225 E816.58291
G1 X90.621 Y98.068 E816.87216
G1 X99.068 Y89.621 E819.85848
G1 X97.911 Y89.621 E820.14773
G1 X90.621 Y96.911 E822.72500
G1 X90.621 Y95.754 E823.01425
G1 X96.754 Y89.621 E825.18245
G1 X95.597 Y89.621 E825.47170
G1 X90.621 Y94.597 E827.23084
G1 X90.621 Y93.440 E827.52009
G1 X94.440 Y89.621 E828.87017
G1 X93.283 Y89.621 E829.15942
G1 X90.621 Y92.283 E830.10043
G1 X90.621 Y91.126 E830.38969
G1 X92.126 Y89.621 E830.92164
G1 X90.969 Y89.621 E831.21089
G1 X90.621 Y89.969 E831.33379
G1 Z2.800 F7800.000
G1 X109.379 Y90.608 F7800.000
G1 X108.392 Y89.621 E831.68257 F4800.000
G1 X107.235 Y89.621 E831.97182
G1 X109.379 Y91.765 E832.72967
G1 X109.379 Y92.922 E833.01892
G1 X106.078 Y89.621 E834.18583
G1 X104.921 Y89.621 E834.47508
G1 X109.379 Y94.079 E836.05105
G1 X109.379 Y95.236 E836.34030
G1 X103.764 Y89.621 E838.32533
G1 X102.607 Y89.621 E838.61458
G1 X109.379 Y96.393 E841.00867
G1 X109.379 Y97.550 E841.29792
G1 X101.450 Y89.621 E844.10108
G1 X100.293 Y89.621 E844.39033
G1 X109.379 Y98.707 E847.60255
G1 X109.379 Y99.864 E847.89180
G1 X99.136 Y89.621 E851.51307
G1 X97.979 Y89.621 E851.80232
G1 X109.379 Y101.021 E855.83266
G1 X109.379 Y102.178 E856.12191
G1 X96.822 Y89.621 E860.56132
G1 X95.665 Y89.621 E860.85057
G1 X109.379 Y103.335 E865.69903
G1 X109.379 Y104.492 E865.98828
G1 X94.508 Y89.621 E871.24580
G1 X93.351 Y89.621 E871.53505
G1 X109.379 Y105.649 E877.20164
G1 X109.379 Y106.806 E877.49089
G1 X92.194 Y89.621 E883.56654
G1 X91.037 Y89.621 E883.85579
G1 X109.379 Y107.963 E890.34049
G1 X109.379 Y109.120 E890.62975
G1 X90.621 Y90.362 E897.26155
G1 X90.621 Y91.519 E897.55080
G1 X109.379 Y110.277 E904.18260
G1 X108.324 Y110.379 E904.44757
G1 X90.621 Y92.676 E910.70638
G1 X90.621 Y93.833 E910.99564
G1 X107.167 Y110.379 E916.84539
G1 X106.010 Y110.379 E917.13464
G1 X90.621 Y94.990 E922.57533
G1 X90.621 Y96.147 E922.86458
G1 X104.853 Y110.379 E927.89622
G1 X103.696 Y110.379 E928.18547
G1 X90.621 Y97.304 E932.80804
G1 X90.621 Y98.461 E933.09729
G1 X102.539 Y110.379 E937.31080
G1 X101.382 Y110.379 E937.60005
G1 X90.621 Y99.618 E941.40449
G1 X90.621 Y100.775 E941.69374
G1 X100.225 Y110.379 E945.08913
G1 X99.068 Y110.379 E945.37838
G1 X90.621 Y101.932 E948.36470
G1 X90.621 Y103.089 E948.65395
G1 X97.911 Y110.379 E951.23122
G1 X96.754 Y110.379 E951.52047
G1 X90.621 Y104.246 E953.68867
G1 X90.621 Y105.403 E953.97792
G1 X95.597 Y110.379 E955.73706
G1 X94.440 Y110.379 E956.02631
G1 X90.621 Y106.560 E957.37639
G1 X90.621 Y107.717 E957.66564
G1 X93.283 Y110.379 E958.60665
G1 X92.126 Y110.379 E958.89590
G1 X90.621 Y108.874 E959.42786
G1 X90.621 Y110.031 E959.71711
G1 X90.969 Y110.379 E959.84000
G1 Z3.200 F7800.000
G1 E957.84000 F2400.00000
G92 E0
G1 X108.392 Y110.379 F7800.000
G1 E2.00000 F2400.00000
G1 X109.379 Y109.392 E2.34879 F4800.000
G1 X109.379 Y108.235 E2.63804
G1 X107.235 Y110.379 E3.39588
G1 X106.078 Y110.379 E3.68513
G1 X109.379 Y107.078 E4.85204
G1 X109.379 Y105.921 E5.14129
G1 X104.921 Y110.379 E6.71726
G1 X103.764 Y110.379 E7.00651
G1 X109.379 Y104.764 E8.99154
G1 X109.379 Y103.607 E9.28079
G1 X102.607 Y110.379 E11.67489
G1 X101.450 Y110.379 E11.96414
G1 X109.379 Y102.450 E14.76729
G1 X109.379 Y101.293 E15.05654
G1 X100.293 Y110.379 E18.26876
G1 X99.136 Y110.379 E18.55801
G1 X109.379 Y100.136 E22.17929
G1 X109.379 Y98.979 E22.46854
G1 X97.979 Y110.379 E26.49888
G1 X96.822 Y110.379 E26.78813
G1 X109.379 Y97.822 E31.22753
G1 X109.379 Y96.665 E31.51678
G1 X95.665 Y110.379 E36.36524
G1 X94.508 Y110.379 E36.65449
G1 X109.379 Y95.508 E41.91202
G1 X109.379 Y94.351 E42.20127
G1 X93.351 Y110.379 E47.86785
G1 X92.194 Y110.379 E48.15710
G1 X109.379 Y93.194 E54.23275
G1 X109.379 Y92.037 E54.52200
G1 X91.037 Y110.379 E61.00671
G1 X90.621 Y109.638 E61.21915
G1 X109.379 Y90.880 E67.85095
G1 X109.379 Y89.723 E68.14020
G1 X90.621 Y108.481 E74.77200
G1 X90.621 Y107.324 E75.06125
G1 X108.324 Y89.621 E81.32007
G1 X107.167 Y89.621 E81.60932
G1 X90.621 Y106.167 E87.45908
G1 X90.621 Y105.010 E87.74833
G1 X106.010 Y89.621 E93.18902
G1 X104.853 Y89.621 E93.47827
G1 X90.621 Y103.853 E98.50990
G1 X90.621 Y102.696 E98.79915
G1 X103.696 Y89.621 E103.42172
G1 X102.539 Y89.621 E103.71097
G1 X90.621 Y101.539 E107.92448
G1 X90.621 Y100.382 E108.21373
G1 X101.382 Y89.621 E112.01818
G1 X100.225 Y89.621 E112.30743
G1 X90.621 Y99.225 E115.70281
G1 X90.621 Y98.068 E115.99206
G1 X99.068 Y89.621 E118.97839
G1 X97.911 Y89.621 E119.26764
G1 X90.621 Y96.911 E121.84490
G1 X90.621 Y95.754 E122.13415
G1 X96.754 Y89.621 E124.30235
G1 X95.597 Y89.621 E124.59160
G1 X90.621 Y94.597 E126.35074
G1 X90.621 Y93.440 E126.63999
G1 X94.440 Y89.621 E127.99007
G1 X93.283 Y89.621 E128.27932
G1 X90.621 Y92.283 E129.22034
G1 X90.621 Y91.126 E129.50959
G1 X92.126 Y89.621 E130.04155
G1 X90.969 Y89.621 E130.33080
G1 X90.621 Y89.969 E130.45369
G1 E128.45369 F2400.00000
G92 E0
M107
M104 S0 ; turn off temperature
G28 X0  ; home X axis
M84     ; disable motors

; filament used = 1086.3mm (0.9cm3)

; avoid_crossing_perimeters = 0
; bed_shape = 0x0,200x0,200x200,0x200
; bed_temperature = 0
; before_layer_gcode = 
; bridge_acceleration = 0
; bridge_fan_speed = 100
; brim_width = 0
; complete_objects = 0
; cooling = 1
; default_acceleration = 0
; disable_fan_first_layers = 3
; duplicate_distance = 6
; end_gcode = M104 S0 ; turn off temperature\nG28 X0  ; home X axis\nM84     ; disable motors\n
; extruder_clearance_height = 20
; extruder_clearance_radius = 20
; extruder_offset = 0x0
; extrusion_axis = E
; extrusion_multiplier = 1
; fan_always_on = 0
; fan_below_layer_time = 60
; filament_colour = #FFFFFF
; filament_diameter = 1
; first_layer_acceleration = 0
; first_layer_bed_temperature = 0
; first_layer_extrusion_width = 200%
; first_layer_speed = 30
; first_layer_temperature = 200
; gcode_arcs = 0
; gcode_comments = 0
; gcode_flavor = reprap
; infill_acceleration = 0
; infill_first = 0
; layer_gcode = 
; max_fan_speed = 100
; max_print_speed = 80
; max_volumetric_speed = 0
; min_fan_speed = 35
; min_print_speed = 10
; min_skirt_length = 0
; notes = 
; nozzle_diameter = 0.5
; only_retract_when_crossing_perimeters = 1
; ooze_prevention = 0
; output_filename_format = [input_filename_base].gcode
; perimeter_acceleration = 0
; post_process = 
; pressure_advance = 0
; resolution = 0
; retract_before_travel = 2
; retract_layer_change = 0
; retract_length = 2
; retract_length_toolchange = 10
; retract_lift = 0
; retract_restart_extra = 0
; retract_restart_extra_toolchange = 0
; retract_speed = 40
; skirt_distance = 6
; skirt_height = 1
; skirts = 0
; slowdown_below_layer_time = 5
; spiral_vase = 0
; standby_temperature_delta = -5
; start_gcode = G28 ; home all axes\nG1 Z5 F5000 ; lift nozzle\n
; temperature = 200
; threads = 2
; toolchange_gcode = 
; travel_speed = 130
; use_firmware_retraction = 0
; use_relative_e_distances = 0
; use_volumetric_e = 0
; vibration_limit = 0
; wipe = 0
; z_offset = 0
; dont_support_bridges = 1
; extrusion_width = 0
; first_layer_height = 0.4
; infill_only_where_needed = 0
; interface_shells = 0
; layer_height = 0.4
; raft_layers = 0
; seam_position = aligned
; support_material = 0
; support_material_angle = 0
; support_material_contact_distance = 0.2
; support_material_enforce_layers = 0
; support_material_extruder = 1
; support_material_extrusion_width = 0
; support_material_interface_extruder = 1
; support_material_interface_layers = 3
; support_material_interface_spacing = 0
; support_material_interface_speed = 100%
; support_material_pattern = pillars
; support_material_spacing = 2.5
; support_material_speed = 60
; support_material_threshold = 0
; xy_size_compensation = 0
; bottom_solid_layers = 0
; bridge_flow_ratio = 1
; bridge_speed = 60
; external_fill_pattern = rectilinear
; external_perimeter_extrusion_width = 0
; external_perimeter_speed = 50%
; external_perimeters_first = 0
; extra_perimeters = 1
; fill_angle = 45
; fill_density = 60%
; fill_pattern = rectilinear
; gap_fill_speed = 20
; infill_every_layers = 1
; infill_extruder = 1
; infill_extrusion_width = 0
; infill_overlap = 15%
; infill_speed = 80
; overhangs = 1
; perimeter_extruder = 1
; perimeter_extrusion_width = 0
; perimeter_speed = 60
; perimeters = 0
; small_perimeter_speed = 15
; solid_infill_below_area = 70
; solid_infill_every_layers = 0
; solid_infill_extruder = 1
; solid_infill_extrusion_width = 0
; solid_infill_speed = 20
; thin_walls = 1
; top_infill_extrusion_width = 0
; top_solid_infill_speed = 15
; top_solid_layers = 0
