; generated by Slic3r 1.2.9 on 2019-06-14 at 15:33:51

; external perimeters extrusion width = 0.50mm
; perimeters extrusion width = 0.52mm
; infill extrusion width = 0.52mm
; solid infill extrusion width = 0.52mm
; top infill extrusion width = 0.52mm

M107
M104 S200 ; set temperature
G28 ; home all axes
G1 Z5 F5000 ; lift nozzle

M109 S200 ; wait for temperature to be reached
G21 ; set units to millimeters
G90 ; use absolute coordinates
M82 ; use absolute distances for extrusion
G92 E0
G1 Z1.500 F7800.000
G1 X90.573 Y90.573 F7800.000
G1 X109.427 Y90.573 E578.48558 F3600.000
G1 X109.427 Y109.427 E583.49920
G1 X90.573 Y109.427 E588.51283
G1 X90.573 Y90.648 E593.50651
G1 X90.155 Y90.155 F7800.000
G1 X109.845 Y90.155 E598.74228 F3600.000
G1 X109.845 Y109.845 E603.97805
G1 X90.155 Y109.845 E609.21382
G1 X90.155 Y90.230 E614.42964
G1 X89.750 Y89.750 F7800.000
G1 X110.250 Y89.750 E619.55464 F1800.000
G1 X110.250 Y110.250 E624.67964
G1 X89.750 Y110.250 E629.80464
G1 X89.750 Y89.825 E634.91089
G1 X90.183 Y90.000 F7800.000
G1 X90.819 Y108.378 F7800.000
G1 X91.622 Y109.181 E635.21271 F4800.000
G1 X94.575 Y109.181 E635.99812
G1 X90.819 Y105.425 E637.41066
G1 X90.819 Y102.471 E638.19607
G1 X97.529 Y109.181 E640.71934
G1 X100.483 Y109.181 E641.50474
G1 X90.819 Y99.517 E645.13874
G1 X90.819 Y96.564 E645.92414
G1 X103.436 Y109.181 E650.66887
G1 X106.390 Y109.181 E651.45427
G1 X90.819 Y93.610 E657.30972
G1 X90.982 Y90.819 E658.05312
G1 X109.181 Y109.018 E664.89693
G1 X109.181 Y106.064 E665.68233
G1 X93.936 Y90.819 E671.41541
G1 X96.889 Y90.819 E672.20081
G1 X109.181 Y103.111 E676.82317
G1 X109.181 Y100.157 E677.60857
G1 X99.843 Y90.819 E681.12020
G1 X102.796 Y90.819 E681.90560
G1 X109.181 Y97.204 E684.30650
G1 X109.181 Y94.250 E685.09191
G1 X105.750 Y90.819 E686.38208
G1 X108.703 Y90.819 E687.16748
G1 X109.181 Y91.297 E687.34693
M106 S244.8
G1 Z2.000 F7800.000
G1 X90.573 Y90.573 F7800.000
G1 X109.427 Y90.573 E692.36056 F3600.000
G1 X109.427 Y109.427 E697.37418
G1 X90.573 Y109.427 E702.38781
G1 X90.573 Y90.648 E707.38149
G1 X90.155 Y90.155 F7800.000
G1 X109.845 Y90.155 E712.61726 F3600.000
G1 X109.845 Y109.845 E717.85303
G1 X90.155 Y109.845 E723.08880
G1 X90.155 Y90.230 E728.30462
G1 X89.750 Y89.750 F7800.000
G1 X110.250 Y89.750 E733.42962 F1800.000
G1 X110.250 Y110.250 E738.55462
G1 X89.750 Y110.250 E743.67962
G1 X89.750 Y89.825 E748.78588
G1 X90.183 Y90.000 F7800.000
G1 X91.622 Y90.819 F7800.000
G1 X90.819 Y91.622 E749.08770 F4800.000
G1 X90.819 Y94.575 E749.87310
G1 X94.575 Y90.819 E751.28565
G1 X97.529 Y90.819 E752.07105
G1 X90.819 Y97.529 E754.59433
G1 X90.819 Y100.483 E755.37973
G1 X100.483 Y90.819 E759.01373
G1 X103.436 Y90.819 E759.79913
G1 X90.819 Y103.436 E764.54386
G1 X90.819 Y106.390 E765.32926
G1 X106.390 Y90.819 E771.18472
G1 X109.181 Y90.982 E771.92811
G1 X90.982 Y109.181 E778.77192
G1 X93.936 Y109.181 E779.55732
G1 X109.181 Y93.936 E785.29040
G1 X109.181 Y96.889 E786.07580
G1 X96.889 Y109.181 E790.69815
G1 X99.843 Y109.181 E791.48356
G1 X109.181 Y99.843 E794.99518
G1 X109.181 Y102.796 E795.78058
G1 X102.796 Y109.181 E798.18148
G1 X105.750 Y109.181 E798.96689
G1 X109.181 Y105.750 E800.25706
G1 X109.181 Y108.703 E801.04246
G1 X108.703 Y109.181 E801.22191
G1 Z2.500 F7800.000
G1 X90.573 Y90.573 F7800.000
G1 X109.427 Y90.573 E806.23553 F3600.000
G1 X109.427 Y109.427 E811.24916
G1 X90.573 Y109.427 E816.26278
G1 X90.573 Y90.648 E821.25647
G1 X90.155 Y90.155 F7800.000
G1 X109.845 Y90.155 E826.49224 F3600.000
G1 X109.845 Y109.845 E831.72801
G1 X90.155 Y109.845 E836.96378
G1 X90.155 Y90.230 E842.17960
G1 X89.750 Y89.750 F7800.000
G1 X110.250 Y89.750 E847.30460 F1800.000
G1 X110.250 Y110.250 E852.42960
G1 X89.750 Y110.250 E857.55460
G1 X89.750 Y89.825 E862.66085
G1 X90.183 Y90.000 F7800.000
G1 X90.819 Y108.378 F7800.000
G1 X91.622 Y109.181 E862.96267 F4800.000
G1 X94.575 Y109.181 E863.74808
G1 X90.819 Y105.425 E865.16062
G1 X90.819 Y102.471 E865.94602
G1 X97.529 Y109.181 E868.46930
G1 X100.483 Y109.181 E869.25470
G1 X90.819 Y99.517 E872.88870
G1 X90.819 Y96.564 E873.67410
G1 X103.436 Y109.181 E878.41883
G1 X106.390 Y109.181 E879.20423
G1 X90.819 Y93.610 E885.05968
G1 X90.982 Y90.819 E885.80308
G1 X109.181 Y109.018 E892.64689
G1 X109.181 Y106.064 E893.43229
G1 X93.936 Y90.819 E899.16537
G1 X96.889 Y90.819 E899.95077
G1 X109.181 Y103.111 E904.57313
G1 X109.181 Y100.157 E905.35853
G1 X99.843 Y90.819 E908.87016
G1 X102.796 Y90.819 E909.65556
G1 X109.181 Y97.204 E912.05646
G1 X109.181 Y94.250 E912.84186
G1 X105.750 Y90.819 E914.13204
G1 X108.703 Y90.819 E914.91744
G1 X109.181 Y91.297 E915.09689
G1 Z3.000 F7800.000
G1 X90.573 Y90.573 F7800.000
G1 X109.427 Y90.573 E920.11052 F3600.000
G1 X109.427 Y109.427 E925.12414
G1 X90.573 Y109.427 E930.13777
G1 X90.573 Y90.648 E935.13145
G1 X90.155 Y90.155 F7800.000
G1 X109.845 Y90.155 E940.36722 F3600.000
G1 X109.845 Y109.845 E945.60299
G1 X90.155 Y109.845 E950.83876
G1 X90.155 Y90.230 E956.05458
G1 X89.750 Y89.750 F7800.000
G1 X110.250 Y89.750 E961.17958 F1800.000
G1 X110.250 Y110.250 E966.30458
G1 X89.750 Y110.250 E971.42958
G1 X89.750 Y89.825 E976.53583
G1 X90.183 Y90.000 F7800.000
G1 X91.622 Y90.819 F7800.000
G1 X90.819 Y91.622 E976.83766 F4800.000
G1 X90.819 Y94.575 E977.62306
G1 X94.575 Y90.819 E979.03561
G1 X97.529 Y90.819 E979.82101
G1 X90.819 Y97.529 E982.34428
G1 X90.819 Y100.483 E983.12969
G1 X100.483 Y90.819 E986.76369
G1 X103.436 Y90.819 E987.54909
G1 X90.819 Y103.436 E992.29382
G1 X90.819 Y106.390 E993.07922
G1 X106.390 Y90.819 E998.93468
G1 X109.181 Y90.982 E999.67807
G1 X90.982 Y109.181 E1006.52188
G1 X93.936 Y109.181 E1007.30728
G1 X109.181 Y93.936 E1013.04036
G1 X109.181 Y96.889 E1013.82576
G1 X96.889 Y109.181 E1018.44811
G1 X99.843 Y109.181 E1019.23351
G1 X109.181 Y99.843 E1022.74514
G1 X109.181 Y102.796 E1023.53054
G1 X102.796 Y109.181 E1025.93144
G1 X105.750 Y109.181 E1026.71685
G1 X109.181 Y105.750 E1028.00702
G1 X109.181 Y108.703 E1028.79242
G1 X108.703 Y109.181 E1028.97187
G1 Z3.500 F7800.000
G1 X90.573 Y90.573 F7800.000
G1 X109.427 Y90.573 E1033.98549 F3600.000
G1 X109.427 Y109.427 E1038.99912
G1 X90.573 Y109.427 E1044.01274
G1 X90.573 Y90.648 E1049.00642
G1 X90.155 Y90.155 F7800.000
G1 X109.845 Y90.155 E1054.24219 F3600.000
G1 X109.845 Y109.845 E1059.47796
G1 X90.155 Y109.845 E1064.71373
G1 X90.155 Y90.230 E1069.92956
G1 X89.750 Y89.750 F7800.000
G1 X110.250 Y89.750 E1075.05456 F1800.000
G1 X110.250 Y110.250 E1080.17956
G1 X89.750 Y110.250 E1085.30456
G1 X89.750 Y89.825 E1090.41081
G1 X90.183 Y90.000 F7800.000
G1 X90.819 Y108.378 F7800.000
G1 X91.622 Y109.181 E1090.71263 F4800.000
G1 X94.575 Y109.181 E1091.49803
G1 X90.819 Y105.425 E1092.91058
G1 X90.819 Y102.471 E1093.69598
G1 X97.529 Y109.181 E1096.21926
G1 X100.483 Y109.181 E1097.00466
G1 X90.819 Y99.517 E1100.63866
G1 X90.819 Y96.564 E1101.42406
G1 X103.436 Y109.181 E1106.16879
G1 X106.390 Y109.181 E1106.95419
G1 X90.819 Y93.610 E1112.80964
G1 X90.982 Y90.819 E1113.55304
G1 X109.181 Y109.018 E1120.39685
G1 X109.181 Y106.064 E1121.18225
G1 X93.936 Y90.819 E1126.91533
G1 X96.889 Y90.819 E1127.70073
G1 X109.181 Y103.111 E1132.32309
G1 X109.181 Y100.157 E1133.10849
G1 X99.843 Y90.819 E1136.62012
G1 X102.796 Y90.819 E1137.40552
G1 X109.181 Y97.204 E1139.80642
G1 X109.181 Y94.250 E1140.59182
G1 X105.750 Y90.819 E1141.88200
G1 X108.703 Y90.819 E1142.66740
G1 X109.181 Y91.297 E1142.84685
G1 Z4.000 F7800.000
G1 X90.573 Y90.573 F7800.000
G1 X109.427 Y90.573 E1147.86047 F3600.000
G1 X109.427 Y109.427 E1152.87410
G1 X90.573 Y109.427 E1157.88772
G1 X90.573 Y90.648 E1162.88141
G1 X90.155 Y90.155 F7800.000
G1 X109.845 Y90.155 E1168.11718 F3600.000
G1 X109.845 Y109.845 E1173.35295
G1 X90.155 Y109.845 E1178.58872
G1 X90.155 Y90.230 E1183.80454
G1 X89.750 Y89.750 F7800.000
G1 X110.250 Y89.750 E1188.92954 F1800.000
G1 X110.250 Y110.250 E1194.05454
G1 X89.750 Y110.250 E1199.17954
G1 X89.750 Y89.825 E1204.28579
G1 X90.183 Y90.000 F7800.000
G1 X91.622 Y90.819 F7800.000
G1 X90.819 Y91.622 E1204.58762 F4800.000
G1 X90.819 Y94.575 E1205.37302
G1 X94.575 Y90.819 E1206.78557
G1 X97.529 Y90.819 E1207.57097
G1 X90.819 Y97.529 E1210.09424
G1 X90.819 Y100.483 E1210.87965
G1 X100.483 Y90.819 E1214.51365
G1 X103.436 Y90.819 E1215.29905
G1 X90.819 Y103.436 E1220.04378
G1 X90.819 Y106.390 E1220.82918
G1 X106.390 Y90.819 E1226.68463
G1 X109.181 Y90.982 E1227.42803
G1 X90.982 Y109.181 E1234.27184
G1 X93.936 Y109.181 E1235.05724
G1 X109.181 Y93.936 E1240.79032
G1 X109.181 Y96.889 E1241.57572
G1 X96.889 Y109.181 E1246.19807
G1 X99.843 Y109.181 E1246.98347
G1 X109.181 Y99.843 E1250.49510
G1 X109.181 Y102.796 E1251.28050
G1 X102.796 Y109.181 E1253.68140
G1 X105.750 Y109.181 E1254.46680
G1 X109.181 Y105.750 E1255.75698
G1 X109.181 Y108.703 E1256.54238
G1 X108.703 Y109.181 E1256.72183
G1 Z4.500 F7800.000
G1 X90.573 Y90.573 F7800.000
G1 X109.427 Y90.573 E1261.73545 F3600.000
G1 X109.427 Y109.427 E1266.74908
G1 X90.573 Y109.427 E1271.76270
G1 X90.573 Y90.648 E1276.75638
G1 X90.155 Y90.155 F7800.000
G1 X109.845 Y90.155 E1281.99215 F3600.000
G1 X109.845 Y109.845 E1287.22792
G1 X90.155 Y109.845 E1292.46369
G1 X90.155 Y90.230 E1297.67952
G1 X89.750 Y89.750 F7800.000
G1 X110.250 Y89.750 E1302.80452 F1800.000
G1 X110.250 Y110.250 E1307.92952
G1 X89.750 Y110.250 E1313.05452
G1 X89.750 Y89.825 E1318.16077
G1 X90.183 Y90.000 F7800.000
G1 X90.819 Y108.378 F7800.000
G1 X91.622 Y109.181 E1318.46259 F4800.000
G1 X94.575 Y109.181 E1319.24799
G1 X90.819 Y105.425 E1320.66054
G1 X90.819 Y102.471 E1321.44594
G1 X97.529 Y109.181 E1323.96922
G1 X100.483 Y109.181 E1324.75462
G1 X90.819 Y99.517 E1328.38862
G1 X90.819 Y96.564 E1329.17402
G1 X103.436 Y109.181 E1333.91875
G1 X106.390 Y109.181 E1334.70415
G1 X90.819 Y93.610 E1340.55960
G1 X90.982 Y90.819 E1341.30300
G1 X109.181 Y109.018 E1348.14681
G1 X109.181 Y106.064 E1348.93221
G1 X93.936 Y90.819 E1354.66529
G1 X96.889 Y90.819 E1355.45069
G1 X109.181 Y103.111 E1360.07305
G1 X109.181 Y100.157 E1360.85845
G1 X99.843 Y90.819 E1364.37008
G1 X102.796 Y90.819 E1365.15548
G1 X109.181 Y97.204 E1367.55638
G1 X109.181 Y94.250 E1368.34178
G1 X105.750 Y90.819 E1369.63196
G1 X108.703 Y90.819 E1370.41736
G1 X109.181 Y91.297 E1370.59681
M106 S221.85

M104 S0 ; turn off temperature
G28 X0  ; home X axis
M84     ; disable motors

; filament used = 1878.2mm (1.5cm3)

; avoid_crossing_perimeters = 0
; bed_shape = 0x0,200x0,200x200,0x200
; bed_temperature = 0
; before_layer_gcode = 
; bridge_acceleration = 0
; bridge_fan_speed = 100
; brim_width = 0
; complete_objects = 0
; cooling = 1
; default_acceleration = 0
; disable_fan_first_layers = 3
; duplicate_distance = 6
; end_gcode = M104 S0 ; turn off temperature\nG28 X0  ; home X axis\nM84     ; disable motors\n
; extruder_clearance_height = 20
; extruder_clearance_radius = 20
; extruder_offset = 0x0
; extrusion_axis = E
; extrusion_multiplier = 1
; fan_always_on = 0
; fan_below_layer_time = 60
; filament_colour = #FFFFFF
; filament_diameter = 1
; first_layer_acceleration = 0
; first_layer_bed_temperature = 0
; first_layer_extrusion_width = 0
; first_layer_speed = 30
; first_layer_temperature = 200
; gcode_arcs = 0
; gcode_comments = 0
; gcode_flavor = reprap
; infill_acceleration = 0
; infill_first = 0
; layer_gcode = 
; max_fan_speed = 100
; max_print_speed = 80
; max_volumetric_speed = 0
; min_fan_speed = 35
; min_print_speed = 10
; min_skirt_length = 0
; notes = 
; nozzle_diameter = 0.5
; only_retract_when_crossing_perimeters = 1
; ooze_prevention = 0
; output_filename_format = [input_filename_base].gcode
; perimeter_acceleration = 0
; post_process = 
; pressure_advance = 0
; resolution = 0
; retract_before_travel = 2
; retract_layer_change = 0
; retract_length = 2
; retract_length_toolchange = 10
; retract_lift = 0
; retract_restart_extra = 0
; retract_restart_extra_toolchange = 0
; retract_speed = 40
; skirt_distance = 6
; skirt_height = 1
; skirts = 0
; slowdown_below_layer_time = 5
; spiral_vase = 0
; standby_temperature_delta = -5
; start_gcode = G28 ; home all axes\nG1 Z5 F5000 ; lift nozzle\n
; temperature = 200
; threads = 2
; toolchange_gcode = 
; travel_speed = 130
; use_firmware_retraction = 0
; use_relative_e_distances = 0
; use_volumetric_e = 0
; vibration_limit = 0
; wipe = 0
; z_offset = 0
; dont_support_bridges = 1
; extrusion_width = 0
; first_layer_height = 0.5
; infill_only_where_needed = 0
; interface_shells = 0
; layer_height = 0.5
; raft_layers = 0
; seam_position = aligned
; support_material = 0
; support_material_angle = 0
; support_material_contact_distance = 0.2
; support_material_enforce_layers = 0
; support_material_extruder = 1
; support_material_extrusion_width = 0
; support_material_interface_extruder = 1
; support_material_interface_layers = 3
; support_material_interface_spacing = 0
; support_material_interface_speed = 100%
; support_material_pattern = pillars
; support_material_spacing = 2.5
; support_material_speed = 60
; support_material_threshold = 0
; xy_size_compensation = 0
; bottom_solid_layers = 2
; bridge_flow_ratio = 1
; bridge_speed = 60
; external_fill_pattern = rectilinear
; external_perimeter_extrusion_width = 0
; external_perimeter_speed = 50%
; external_perimeters_first = 0
; extra_perimeters = 1
; fill_angle = 45
; fill_density = 20%
; fill_pattern = rectilinear
; gap_fill_speed = 20
; infill_every_layers = 1
; infill_extruder = 1
; infill_extrusion_width = 0
; infill_overlap = 15%
; infill_speed = 80
; overhangs = 1
; perimeter_extruder = 1
; perimeter_extrusion_width = 0
; perimeter_speed = 60
; perimeters = 3
; small_perimeter_speed = 15
; solid_infill_below_area = 0
; solid_infill_every_layers = 0
; solid_infill_extruder = 1
; solid_infill_extrusion_width = 0
; solid_infill_speed = 20
; thin_walls = 1
; top_infill_extrusion_width = 0
; top_solid_infill_speed = 15
; top_solid_layers = 2
