; generated by Slic3r 1.2.9 on 2019-10-02 at 12:29:09

; external perimeters extrusion width = 0.50mm
; perimeters extrusion width = 0.72mm
; infill extrusion width = 0.72mm
; solid infill extrusion width = 0.72mm
; top infill extrusion width = 0.72mm

M107
M104 S200 ; set temperature
G28 ; home all axes
G1 Z5 F5000 ; lift nozzle

M109 S200 ; wait for temperature to be reached
G21 ; set units to millimeters
G90 ; use absolute coordinates
M82 ; use absolute distances for extrusion
G92 E0
G1 Z0.300 F7800.000
G1 E-2.00000 F2400.00000
G92 E0
G1 X96.401 Y103.866 F7800.000
G1 E2.00000 F2400.00000
G1 X96.134 Y103.599 E2.08020 F1467.172
G1 X96.134 Y102.813 E2.24695
G1 X97.187 Y103.866 E2.56297
G1 X97.973 Y103.866 E2.72972
G1 X96.134 Y102.027 E3.28156
G1 X96.134 Y101.241 E3.44831
G1 X98.759 Y103.866 E4.23597
G1 X99.544 Y103.866 E4.40271
G1 X96.134 Y100.456 E5.42619
G1 X96.134 Y99.670 E5.59294
G1 X100.330 Y103.866 E6.85223
G1 X101.116 Y103.866 E7.01898
G1 X96.134 Y98.884 E8.51409
G1 X96.134 Y98.098 E8.68084
G1 X101.902 Y103.866 E10.41177
G1 X102.687 Y103.866 E10.57852
G1 X96.134 Y97.313 E12.54527
G1 X96.134 Y96.527 E12.71202
G1 X103.473 Y103.866 E14.91458
G1 X103.866 Y103.473 E15.03249
G1 X96.527 Y96.134 E17.23506
G1 X97.313 Y96.134 E17.40181
G1 X103.866 Y102.687 E19.36856
G1 X103.866 Y101.902 E19.53531
G1 X98.098 Y96.134 E21.26625
G1 X98.884 Y96.134 E21.43299
G1 X103.866 Y101.116 E22.92811
G1 X103.866 Y100.330 E23.09486
G1 X99.670 Y96.134 E24.35416
G1 X100.456 Y96.134 E24.52090
G1 X103.866 Y99.544 E25.54438
G1 X103.866 Y98.759 E25.71113
G1 X101.241 Y96.134 E26.49879
G1 X102.027 Y96.134 E26.66554
G1 X103.866 Y97.973 E27.21739
G1 X103.866 Y97.187 E27.38413
G1 X102.813 Y96.134 E27.70016
G1 X103.599 Y96.134 E27.86691
G1 X103.866 Y96.401 E27.94712
G1 Z0.600 F7800.000
G1 X103.514 Y103.832 F7800.000
G1 X103.832 Y103.514 E28.06596 F1189.889
G1 X103.832 Y102.535 E28.32505
G1 X102.535 Y103.832 E28.81029
G1 X101.555 Y103.832 E29.06938
G1 X103.832 Y101.555 E29.92103
G1 X103.832 Y100.576 E30.18011
G1 X100.576 Y103.832 E31.39816
G1 X99.596 Y103.832 E31.65725
G1 X103.832 Y99.596 E33.24170
G1 X103.832 Y98.617 E33.50078
G1 X98.617 Y103.832 E35.45164
G1 X97.637 Y103.832 E35.71072
G1 X103.832 Y97.637 E38.02797
G1 X103.832 Y96.658 E38.28706
G1 X96.658 Y103.832 E40.97072
G1 X96.168 Y103.342 E41.15392
G1 X103.342 Y96.168 E43.83757
G1 X102.362 Y96.168 E44.09665
G1 X96.168 Y102.362 E46.41390
G1 X96.168 Y101.383 E46.67299
G1 X101.383 Y96.168 E48.62384
G1 X100.404 Y96.168 E48.88292
G1 X96.168 Y100.404 E50.46737
G1 X96.168 Y99.424 E50.72645
G1 X99.424 Y96.168 E51.94450
G1 X98.445 Y96.168 E52.20358
G1 X96.168 Y98.445 E53.05523
G1 X96.168 Y97.465 E53.31431
G1 X97.465 Y96.168 E53.79956
G1 X96.486 Y96.168 E54.05864
G1 X96.168 Y96.486 E54.17748
G1 Z0.900 F7800.000
G1 X96.486 Y103.832 F7800.000
G1 X96.168 Y103.514 E54.29633 F1189.889
G1 X96.168 Y102.535 E54.55541
G1 X97.465 Y103.832 E55.04065
G1 X98.445 Y103.832 E55.29974
G1 X96.168 Y101.555 E56.15138
G1 X96.168 Y100.576 E56.41047
G1 X99.424 Y103.832 E57.62851
G1 X100.404 Y103.832 E57.88760
G1 X96.168 Y99.596 E59.47205
G1 X96.168 Y98.617 E59.73113
G1 X101.383 Y103.832 E61.68198
G1 X102.362 Y103.832 E61.94107
G1 X96.168 Y97.638 E64.25832
G1 X96.168 Y96.658 E64.51740
G1 X103.342 Y103.832 E67.20105
G1 X103.832 Y103.342 E67.38425
G1 X96.658 Y96.168 E70.06791
G1 X97.637 Y96.168 E70.32699
G1 X103.832 Y102.363 E72.64425
G1 X103.832 Y101.383 E72.90333
G1 X98.617 Y96.168 E74.85418
G1 X99.596 Y96.168 E75.11327
G1 X103.832 Y100.404 E76.69772
G1 X103.832 Y99.424 E76.95681
G1 X100.576 Y96.168 E78.17486
G1 X101.555 Y96.168 E78.43394
G1 X103.832 Y98.445 E79.28559
G1 X103.832 Y97.465 E79.54467
G1 X102.535 Y96.168 E80.02992
G1 X103.514 Y96.168 E80.28901
G1 X103.832 Y96.486 E80.40785
M106 S255
G1 Z1.200 F7800.000
G1 X103.514 Y103.832 F7800.000
G1 X103.832 Y103.514 E80.52670 F1189.889
G1 X103.832 Y102.535 E80.78578
G1 X102.535 Y103.832 E81.27103
G1 X101.555 Y103.832 E81.53012
G1 X103.832 Y101.555 E82.38177
G1 X103.832 Y100.576 E82.64085
G1 X100.576 Y103.832 E83.85890
G1 X99.596 Y103.832 E84.11799
G1 X103.832 Y99.596 E85.70244
G1 X103.832 Y98.617 E85.96152
G1 X98.617 Y103.832 E87.91238
G1 X97.637 Y103.832 E88.17146
G1 X103.832 Y97.637 E90.48871
G1 X103.832 Y96.658 E90.74780
G1 X96.658 Y103.832 E93.43145
G1 X96.168 Y103.342 E93.61465
G1 X103.342 Y96.168 E96.29831
G1 X102.362 Y96.168 E96.55739
G1 X96.168 Y102.362 E98.87464
G1 X96.168 Y101.383 E99.13372
G1 X101.383 Y96.168 E101.08457
G1 X100.404 Y96.168 E101.34366
G1 X96.168 Y100.404 E102.92811
G1 X96.168 Y99.424 E103.18719
G1 X99.424 Y96.168 E104.40524
G1 X98.445 Y96.168 E104.66432
G1 X96.168 Y98.445 E105.51597
G1 X96.168 Y97.465 E105.77505
G1 X97.465 Y96.168 E106.26030
G1 X96.486 Y96.168 E106.51938
G1 X96.168 Y96.486 E106.63822
G1 Z1.500 F7800.000
G1 X96.486 Y103.832 F7800.000
G1 X96.168 Y103.514 E106.75706 F1189.889
G1 X96.168 Y102.535 E107.01615
G1 X97.465 Y103.832 E107.50139
G1 X98.445 Y103.832 E107.76048
G1 X96.168 Y101.555 E108.61212
G1 X96.168 Y100.576 E108.87121
G1 X99.424 Y103.832 E110.08925
G1 X100.404 Y103.832 E110.34834
G1 X96.168 Y99.596 E111.93279
G1 X96.168 Y98.617 E112.19187
G1 X101.383 Y103.832 E114.14272
G1 X102.362 Y103.832 E114.40180
G1 X96.168 Y97.638 E116.71905
G1 X96.168 Y96.658 E116.97814
G1 X103.342 Y103.832 E119.66179
G1 X103.832 Y103.342 E119.84499
G1 X96.658 Y96.168 E122.52865
G1 X97.637 Y96.168 E122.78773
G1 X103.832 Y102.363 E125.10499
G1 X103.832 Y101.383 E125.36407
G1 X98.617 Y96.168 E127.31492
G1 X99.596 Y96.168 E127.57401
G1 X103.832 Y100.404 E129.15846
G1 X103.832 Y99.424 E129.41754
G1 X100.576 Y96.168 E130.63559
G1 X101.555 Y96.168 E130.89468
G1 X103.832 Y98.445 E131.74633
G1 X103.832 Y97.465 E132.00541
G1 X102.535 Y96.168 E132.49066
G1 X103.514 Y96.168 E132.74975
G1 X103.832 Y96.486 E132.86859
G1 Z1.800 F7800.000
G1 X103.514 Y103.832 F7800.000
G1 X103.832 Y103.514 E132.98744 F1189.889
G1 X103.832 Y102.535 E133.24652
G1 X102.535 Y103.832 E133.73177
G1 X101.555 Y103.832 E133.99086
G1 X103.832 Y101.555 E134.84250
G1 X103.832 Y100.576 E135.10159
G1 X100.576 Y103.832 E136.31964
G1 X99.596 Y103.832 E136.57872
G1 X103.832 Y99.596 E138.16318
G1 X103.832 Y98.617 E138.42226
G1 X98.617 Y103.832 E140.37311
G1 X97.637 Y103.832 E140.63220
G1 X103.832 Y97.637 E142.94945
G1 X103.832 Y96.658 E143.20854
G1 X96.658 Y103.832 E145.89219
G1 X96.168 Y103.342 E146.07539
G1 X103.342 Y96.168 E148.75904
G1 X102.362 Y96.168 E149.01813
G1 X96.168 Y102.362 E151.33538
G1 X96.168 Y101.383 E151.59446
G1 X101.383 Y96.168 E153.54531
G1 X100.404 Y96.168 E153.80440
G1 X96.168 Y100.404 E155.38884
G1 X96.168 Y99.424 E155.64793
G1 X99.424 Y96.168 E156.86598
G1 X98.445 Y96.168 E157.12506
G1 X96.168 Y98.445 E157.97670
G1 X96.168 Y97.465 E158.23579
G1 X97.465 Y96.168 E158.72103
G1 X96.486 Y96.168 E158.98012
G1 X96.168 Y96.486 E159.09896
G1 Z2.100 F7800.000
G1 X96.486 Y103.832 F7800.000
G1 X96.168 Y103.514 E159.21780 F1189.889
G1 X96.168 Y102.535 E159.47689
G1 X97.465 Y103.832 E159.96213
G1 X98.445 Y103.832 E160.22122
G1 X96.168 Y101.555 E161.07286
G1 X96.168 Y100.576 E161.33195
G1 X99.424 Y103.832 E162.54999
G1 X100.404 Y103.832 E162.80908
G1 X96.168 Y99.596 E164.39352
G1 X96.168 Y98.617 E164.65261
G1 X101.383 Y103.832 E166.60346
G1 X102.362 Y103.832 E166.86254
G1 X96.168 Y97.638 E169.17979
G1 X96.168 Y96.658 E169.43888
G1 X103.342 Y103.832 E172.12253
G1 X103.832 Y103.342 E172.30573
G1 X96.658 Y96.168 E174.98938
G1 X97.637 Y96.168 E175.24847
G1 X103.832 Y102.363 E177.56572
G1 X103.832 Y101.383 E177.82481
G1 X98.617 Y96.168 E179.77566
G1 X99.596 Y96.168 E180.03475
G1 X103.832 Y100.404 E181.61920
G1 X103.832 Y99.424 E181.87828
G1 X100.576 Y96.168 E183.09633
G1 X101.555 Y96.168 E183.35542
G1 X103.832 Y98.445 E184.20707
G1 X103.832 Y97.465 E184.46615
G1 X102.535 Y96.168 E184.95140
G1 X103.514 Y96.168 E185.21048
G1 X103.832 Y96.486 E185.32933
G1 Z2.400 F7800.000
G1 X103.514 Y103.832 F7800.000
G1 X103.832 Y103.514 E185.44818 F1189.889
G1 X103.832 Y102.535 E185.70726
G1 X102.535 Y103.832 E186.19251
G1 X101.555 Y103.832 E186.45159
G1 X103.832 Y101.555 E187.30324
G1 X103.832 Y100.576 E187.56233
G1 X100.576 Y103.832 E188.78038
G1 X99.596 Y103.832 E189.03946
G1 X103.832 Y99.596 E190.62391
G1 X103.832 Y98.617 E190.88300
G1 X98.617 Y103.832 E192.83385
G1 X97.637 Y103.832 E193.09294
G1 X103.832 Y97.637 E195.41019
G1 X103.832 Y96.658 E195.66927
G1 X96.658 Y103.832 E198.35293
G1 X96.168 Y103.342 E198.53613
G1 X103.342 Y96.168 E201.21978
G1 X102.362 Y96.168 E201.47887
G1 X96.168 Y102.362 E203.79612
G1 X96.168 Y101.383 E204.05520
G1 X101.383 Y96.168 E206.00605
G1 X100.404 Y96.168 E206.26514
G1 X96.168 Y100.404 E207.84958
G1 X96.168 Y99.424 E208.10867
G1 X99.424 Y96.168 E209.32671
G1 X98.445 Y96.168 E209.58580
G1 X96.168 Y98.445 E210.43744
G1 X96.168 Y97.465 E210.69653
G1 X97.465 Y96.168 E211.18177
G1 X96.486 Y96.168 E211.44086
G1 X96.168 Y96.486 E211.55970
G1 Z2.700 F7800.000
G1 X96.486 Y103.832 F7800.000
G1 X96.168 Y103.514 E211.67854 F1189.889
G1 X96.168 Y102.535 E211.93763
G1 X97.465 Y103.832 E212.42287
G1 X98.445 Y103.832 E212.68195
G1 X96.168 Y101.555 E213.53360
G1 X96.168 Y100.576 E213.79268
G1 X99.424 Y103.832 E215.01073
G1 X100.404 Y103.832 E215.26981
G1 X96.168 Y99.596 E216.85426
G1 X96.168 Y98.617 E217.11335
G1 X101.383 Y103.832 E219.06420
G1 X102.362 Y103.832 E219.32328
G1 X96.168 Y97.638 E221.64053
G1 X96.168 Y96.658 E221.89962
G1 X103.342 Y103.832 E224.58327
G1 X103.832 Y103.342 E224.76647
G1 X96.658 Y96.168 E227.45012
G1 X97.637 Y96.168 E227.70921
G1 X103.832 Y102.363 E230.02646
G1 X103.832 Y101.383 E230.28555
G1 X98.617 Y96.168 E232.23640
G1 X99.596 Y96.168 E232.49548
G1 X103.832 Y100.404 E234.07994
G1 X103.832 Y99.424 E234.33902
G1 X100.576 Y96.168 E235.55707
G1 X101.555 Y96.168 E235.81616
G1 X103.832 Y98.445 E236.66780
G1 X103.832 Y97.465 E236.92689
G1 X102.535 Y96.168 E237.41214
G1 X103.514 Y96.168 E237.67122
G1 X103.832 Y96.486 E237.79007
G1 Z3.000 F7800.000
G1 X103.514 Y103.832 F7800.000
G1 X103.832 Y103.514 E237.90891 F1189.889
G1 X103.832 Y102.535 E238.16800
G1 X102.535 Y103.832 E238.65325
G1 X101.555 Y103.832 E238.91233
G1 X103.832 Y101.555 E239.76398
G1 X103.832 Y100.576 E240.02307
G1 X100.576 Y103.832 E241.24112
G1 X99.596 Y103.832 E241.50020
G1 X103.832 Y99.596 E243.08465
G1 X103.832 Y98.617 E243.34374
G1 X98.617 Y103.832 E245.29459
G1 X97.637 Y103.832 E245.55367
G1 X103.832 Y97.637 E247.87093
G1 X103.832 Y96.658 E248.13001
G1 X96.658 Y103.832 E250.81367
G1 X96.168 Y103.342 E250.99687
G1 X103.342 Y96.168 E253.68052
G1 X102.362 Y96.168 E253.93960
G1 X96.168 Y102.362 E256.25685
G1 X96.168 Y101.383 E256.51594
G1 X101.383 Y96.168 E258.46679
G1 X100.404 Y96.168 E258.72587
G1 X96.168 Y100.404 E260.31032
G1 X96.168 Y99.424 E260.56941
G1 X99.424 Y96.168 E261.78745
G1 X98.445 Y96.168 E262.04654
G1 X96.168 Y98.445 E262.89818
G1 X96.168 Y97.465 E263.15727
G1 X97.465 Y96.168 E263.64251
G1 X96.486 Y96.168 E263.90159
G1 X96.168 Y96.486 E264.02044
G1 Z3.300 F7800.000
G1 X96.486 Y103.832 F7800.000
G1 X96.168 Y103.514 E264.13928 F1189.889
G1 X96.168 Y102.535 E264.39836
G1 X97.465 Y103.832 E264.88361
G1 X98.445 Y103.832 E265.14269
G1 X96.168 Y101.555 E265.99434
G1 X96.168 Y100.576 E266.25342
G1 X99.424 Y103.832 E267.47147
G1 X100.404 Y103.832 E267.73055
G1 X96.168 Y99.596 E269.31500
G1 X96.168 Y98.617 E269.57409
G1 X101.383 Y103.832 E271.52493
G1 X102.362 Y103.832 E271.78402
G1 X96.168 Y97.638 E274.10127
G1 X96.168 Y96.658 E274.36035
G1 X103.342 Y103.832 E277.04401
G1 X103.832 Y103.342 E277.22721
G1 X96.658 Y96.168 E279.91086
G1 X97.637 Y96.168 E280.16995
G1 X103.832 Y102.363 E282.48720
G1 X103.832 Y101.383 E282.74628
G1 X98.617 Y96.168 E284.69714
G1 X99.596 Y96.168 E284.95622
G1 X103.832 Y100.404 E286.54067
G1 X103.832 Y99.424 E286.79976
G1 X100.576 Y96.168 E288.01781
G1 X101.555 Y96.168 E288.27689
G1 X103.832 Y98.445 E289.12854
G1 X103.832 Y97.465 E289.38763
G1 X102.535 Y96.168 E289.87287
G1 X103.514 Y96.168 E290.13196
G1 X103.832 Y96.486 E290.25081
G1 Z3.600 F7800.000
G1 X103.514 Y103.832 F7800.000
G1 X103.832 Y103.514 E290.36965 F1189.889
G1 X103.832 Y102.535 E290.62874
G1 X102.535 Y103.832 E291.11399
G1 X101.555 Y103.832 E291.37307
G1 X103.832 Y101.555 E292.22472
G1 X103.832 Y100.576 E292.48380
G1 X100.576 Y103.832 E293.70185
G1 X99.596 Y103.832 E293.96094
G1 X103.832 Y99.596 E295.54539
G1 X103.832 Y98.617 E295.80448
G1 X98.617 Y103.832 E297.75533
G1 X97.637 Y103.832 E298.01441
G1 X103.832 Y97.637 E300.33167
G1 X103.832 Y96.658 E300.59075
G1 X96.658 Y103.832 E303.27441
G1 X96.168 Y103.342 E303.45761
G1 X103.342 Y96.168 E306.14126
G1 X102.362 Y96.168 E306.40034
G1 X96.168 Y102.362 E308.71759
G1 X96.168 Y101.383 E308.97668
G1 X101.383 Y96.168 E310.92753
G1 X100.404 Y96.168 E311.18661
G1 X96.168 Y100.404 E312.77106
G1 X96.168 Y99.424 E313.03014
G1 X99.424 Y96.168 E314.24819
G1 X98.445 Y96.168 E314.50727
G1 X96.168 Y98.445 E315.35892
G1 X96.168 Y97.465 E315.61800
G1 X97.465 Y96.168 E316.10325
G1 X96.486 Y96.168 E316.36233
G1 X96.168 Y96.486 E316.48118
G1 Z3.900 F7800.000
G1 X96.486 Y103.832 F7800.000
G1 X96.168 Y103.514 E316.60002 F1189.889
G1 X96.168 Y102.535 E316.85910
G1 X97.465 Y103.832 E317.34435
G1 X98.445 Y103.832 E317.60343
G1 X96.168 Y101.555 E318.45508
G1 X96.168 Y100.576 E318.71416
G1 X99.424 Y103.832 E319.93221
G1 X100.404 Y103.832 E320.19129
G1 X96.168 Y99.596 E321.77574
G1 X96.168 Y98.617 E322.03482
G1 X101.383 Y103.832 E323.98567
G1 X102.362 Y103.832 E324.24476
G1 X96.168 Y97.638 E326.56201
G1 X96.168 Y96.658 E326.82109
G1 X103.342 Y103.832 E329.50474
G1 X103.832 Y103.342 E329.68794
G1 X96.658 Y96.168 E332.37160
G1 X97.637 Y96.168 E332.63068
G1 X103.832 Y102.363 E334.94794
G1 X103.832 Y101.383 E335.20702
G1 X98.617 Y96.168 E337.15788
G1 X99.596 Y96.168 E337.41696
G1 X103.832 Y100.404 E339.00141
G1 X103.832 Y99.424 E339.26050
G1 X100.576 Y96.168 E340.47855
G1 X101.555 Y96.168 E340.73763
G1 X103.832 Y98.445 E341.58928
G1 X103.832 Y97.465 E341.84837
G1 X102.535 Y96.168 E342.33361
G1 X103.514 Y96.168 E342.59270
G1 X103.832 Y96.486 E342.71154
G1 Z4.200 F7800.000
G1 X103.514 Y103.832 F7800.000
G1 X103.832 Y103.514 E342.83039 F1189.889
G1 X103.832 Y102.535 E343.08948
G1 X102.535 Y103.832 E343.57472
G1 X101.555 Y103.832 E343.83381
G1 X103.832 Y101.555 E344.68546
G1 X103.832 Y100.576 E344.94454
G1 X100.576 Y103.832 E346.16259
G1 X99.596 Y103.832 E346.42168
G1 X103.832 Y99.596 E348.00613
G1 X103.832 Y98.617 E348.26521
G1 X98.617 Y103.832 E350.21607
G1 X97.637 Y103.832 E350.47515
G1 X103.832 Y97.637 E352.79240
G1 X103.832 Y96.658 E353.05149
G1 X96.658 Y103.832 E355.73514
G1 X96.168 Y103.342 E355.91834
G1 X103.342 Y96.168 E358.60200
G1 X102.362 Y96.168 E358.86108
G1 X96.168 Y102.362 E361.17833
G1 X96.168 Y101.383 E361.43742
G1 X101.383 Y96.168 E363.38826
G1 X100.404 Y96.168 E363.64735
G1 X96.168 Y100.404 E365.23180
G1 X96.168 Y99.424 E365.49088
G1 X99.424 Y96.168 E366.70893
G1 X98.445 Y96.168 E366.96801
G1 X96.168 Y98.445 E367.81966
G1 X96.168 Y97.465 E368.07874
G1 X97.465 Y96.168 E368.56399
G1 X96.486 Y96.168 E368.82307
G1 X96.168 Y96.486 E368.94191
G1 Z4.500 F7800.000
G1 X96.486 Y103.832 F7800.000
G1 X96.168 Y103.514 E369.06076 F1189.889
G1 X96.168 Y102.535 E369.31984
G1 X97.465 Y103.832 E369.80508
G1 X98.445 Y103.832 E370.06417
G1 X96.168 Y101.555 E370.91581
G1 X96.168 Y100.576 E371.17490
G1 X99.424 Y103.832 E372.39294
G1 X100.404 Y103.832 E372.65203
G1 X96.168 Y99.596 E374.23648
G1 X96.168 Y98.617 E374.49556
G1 X101.383 Y103.832 E376.44641
G1 X102.362 Y103.832 E376.70550
G1 X96.168 Y97.638 E379.02275
G1 X96.168 Y96.658 E379.28183
G1 X103.342 Y103.832 E381.96548
G1 X103.832 Y103.342 E382.14868
G1 X96.658 Y96.168 E384.83234
G1 X97.637 Y96.168 E385.09142
G1 X103.832 Y102.363 E387.40868
G1 X103.832 Y101.383 E387.66776
G1 X98.617 Y96.168 E389.61861
G1 X99.596 Y96.168 E389.87770
G1 X103.832 Y100.404 E391.46215
G1 X103.832 Y99.424 E391.72123
G1 X100.576 Y96.168 E392.93929
G1 X101.555 Y96.168 E393.19837
G1 X103.832 Y98.445 E394.05002
G1 X103.832 Y97.465 E394.30910
G1 X102.535 Y96.168 E394.79435
G1 X103.514 Y96.168 E395.05344
G1 X103.832 Y96.486 E395.17228
G1 Z4.800 F7800.000
G1 X103.514 Y103.832 F7800.000
G1 X103.832 Y103.514 E395.29113 F1189.889
G1 X103.832 Y102.535 E395.55021
G1 X102.535 Y103.832 E396.03546
G1 X101.555 Y103.832 E396.29455
G1 X103.832 Y101.555 E397.14620
G1 X103.832 Y100.576 E397.40528
G1 X100.576 Y103.832 E398.62333
G1 X99.596 Y103.832 E398.88242
G1 X103.832 Y99.596 E400.46687
G1 X103.832 Y98.617 E400.72595
G1 X98.617 Y103.832 E402.67680
G1 X97.637 Y103.832 E402.93589
G1 X103.832 Y97.637 E405.25314
G1 X103.832 Y96.658 E405.51223
G1 X96.658 Y103.832 E408.19588
G1 X96.168 Y103.342 E408.37908
G1 X103.342 Y96.168 E411.06273
G1 X102.362 Y96.168 E411.32182
G1 X96.168 Y102.362 E413.63907
G1 X96.168 Y101.383 E413.89815
G1 X101.383 Y96.168 E415.84900
G1 X100.404 Y96.168 E416.10809
G1 X96.168 Y100.404 E417.69254
G1 X96.168 Y99.424 E417.95162
G1 X99.424 Y96.168 E419.16967
G1 X98.445 Y96.168 E419.42875
G1 X96.168 Y98.445 E420.28040
G1 X96.168 Y97.465 E420.53948
G1 X97.465 Y96.168 E421.02472
G1 X96.486 Y96.168 E421.28381
G1 X96.168 Y96.486 E421.40265
G1 Z5.100 F7800.000
G1 E419.40265 F2400.00000
G92 E0
G1 X96.486 Y103.832 F7800.000
G1 E2.00000 F2400.00000
G1 X96.168 Y103.514 E2.11884 F1189.889
G1 X96.168 Y102.535 E2.37793
G1 X97.465 Y103.832 E2.86317
G1 X98.445 Y103.832 E3.12226
G1 X96.168 Y101.555 E3.97390
G1 X96.168 Y100.576 E4.23298
G1 X99.424 Y103.832 E5.45103
G1 X100.404 Y103.832 E5.71012
G1 X96.168 Y99.596 E7.29456
G1 X96.168 Y98.617 E7.55365
G1 X101.383 Y103.832 E9.50450
G1 X102.362 Y103.832 E9.76358
G1 X96.168 Y97.638 E12.08083
G1 X96.168 Y96.658 E12.33992
G1 X103.342 Y103.832 E15.02357
G1 X103.832 Y103.342 E15.20677
G1 X96.658 Y96.168 E17.89042
G1 X97.637 Y96.168 E18.14951
G1 X103.832 Y102.363 E20.46676
G1 X103.832 Y101.383 E20.72585
G1 X98.617 Y96.168 E22.67670
G1 X99.596 Y96.168 E22.93579
G1 X103.832 Y100.404 E24.52024
G1 X103.832 Y99.424 E24.77932
G1 X100.576 Y96.168 E25.99737
G1 X101.555 Y96.168 E26.25646
G1 X103.832 Y98.445 E27.10811
G1 X103.832 Y97.465 E27.36719
G1 X102.535 Y96.168 E27.85244
G1 X103.514 Y96.168 E28.11152
G1 X103.832 Y96.486 E28.23037
G1 E26.23037 F2400.00000
G92 E0
M107
M104 S0 ; turn off temperature
G28 X0  ; home X axis
M84     ; disable motors

; filament used = 445.6mm (0.3cm3)

; avoid_crossing_perimeters = 0
; bed_shape = 0x0,200x0,200x200,0x200
; bed_temperature = 0
; before_layer_gcode = 
; bridge_acceleration = 0
; bridge_fan_speed = 100
; brim_width = 0
; complete_objects = 0
; cooling = 1
; default_acceleration = 0
; disable_fan_first_layers = 3
; duplicate_distance = 6
; end_gcode = M104 S0 ; turn off temperature\nG28 X0  ; home X axis\nM84     ; disable motors\n
; extruder_clearance_height = 20
; extruder_clearance_radius = 20
; extruder_offset = 0x0
; extrusion_axis = E
; extrusion_multiplier = 1
; fan_always_on = 0
; fan_below_layer_time = 60
; filament_colour = #FFFFFF
; filament_diameter = 1
; first_layer_acceleration = 0
; first_layer_bed_temperature = 0
; first_layer_extrusion_width = 200%
; first_layer_speed = 30
; first_layer_temperature = 200
; gcode_arcs = 0
; gcode_comments = 0
; gcode_flavor = reprap
; infill_acceleration = 0
; infill_first = 0
; layer_gcode = 
; max_fan_speed = 100
; max_print_speed = 80
; max_volumetric_speed = 0
; min_fan_speed = 35
; min_print_speed = 10
; min_skirt_length = 0
; notes = 
; nozzle_diameter = 0.5
; only_retract_when_crossing_perimeters = 1
; ooze_prevention = 0
; output_filename_format = [input_filename_base].gcode
; perimeter_acceleration = 0
; post_process = 
; pressure_advance = 0
; resolution = 0
; retract_before_travel = 2
; retract_layer_change = 0
; retract_length = 2
; retract_length_toolchange = 10
; retract_lift = 0
; retract_restart_extra = 0
; retract_restart_extra_toolchange = 0
; retract_speed = 40
; skirt_distance = 6
; skirt_height = 1
; skirts = 0
; slowdown_below_layer_time = 5
; spiral_vase = 0
; standby_temperature_delta = -5
; start_gcode = G28 ; home all axes\nG1 Z5 F5000 ; lift nozzle\n
; temperature = 200
; threads = 2
; toolchange_gcode = 
; travel_speed = 130
; use_firmware_retraction = 0
; use_relative_e_distances = 0
; use_volumetric_e = 0
; vibration_limit = 0
; wipe = 0
; z_offset = 0
; dont_support_bridges = 1
; extrusion_width = 0
; first_layer_height = 0.3
; infill_only_where_needed = 0
; interface_shells = 0
; layer_height = 0.3
; raft_layers = 0
; seam_position = aligned
; support_material = 0
; support_material_angle = 0
; support_material_contact_distance = 0.2
; support_material_enforce_layers = 0
; support_material_extruder = 1
; support_material_extrusion_width = 0
; support_material_interface_extruder = 1
; support_material_interface_layers = 3
; support_material_interface_spacing = 0
; support_material_interface_speed = 100%
; support_material_pattern = pillars
; support_material_spacing = 2.5
; support_material_speed = 60
; support_material_threshold = 0
; xy_size_compensation = 0
; bottom_solid_layers = 0
; bridge_flow_ratio = 1
; bridge_speed = 60
; external_fill_pattern = rectilinear
; external_perimeter_extrusion_width = 0
; external_perimeter_speed = 50%
; external_perimeters_first = 0
; extra_perimeters = 1
; fill_angle = 45
; fill_density = 100%
; fill_pattern = rectilinear
; gap_fill_speed = 20
; infill_every_layers = 1
; infill_extruder = 1
; infill_extrusion_width = 0
; infill_overlap = 15%
; infill_speed = 80
; overhangs = 1
; perimeter_extruder = 1
; perimeter_extrusion_width = 0
; perimeter_speed = 60
; perimeters = 0
; small_perimeter_speed = 15
; solid_infill_below_area = 70
; solid_infill_every_layers = 0
; solid_infill_extruder = 1
; solid_infill_extrusion_width = 0
; solid_infill_speed = 20
; thin_walls = 1
; top_infill_extrusion_width = 0
; top_solid_infill_speed = 15
; top_solid_layers = 0
