; generated by Slic3r 1.2.9 on 2019-08-20 at 10:49:58

; external perimeters extrusion width = 0.50mm
; perimeters extrusion width = 0.58mm
; infill extrusion width = 0.58mm
; solid infill extrusion width = 0.58mm
; top infill extrusion width = 0.58mm

M107
M104 S200 ; set temperature
G28 ; home all axes
G1 Z5 F5000 ; lift nozzle

M109 S200 ; wait for temperature to be reached
G21 ; set units to millimeters
G90 ; use absolute coordinates
M82 ; use absolute distances for extrusion
G92 E0
G1 Z0.400 F7800.000
G1 E-2.00000 F2400.00000
G92 E0
G1 X104.879 Y80.324 F7800.000
G1 E2.00000 F2400.00000
G1 X103.176 Y78.621 E2.87561 F1800.000
G1 X101.441 Y78.621 E3.50684
G1 X104.879 Y82.059 E5.27514
G1 X104.879 Y83.795 E5.90638
G1 X99.705 Y78.621 E8.56738
G1 X97.970 Y78.621 E9.19862
G1 X104.879 Y85.530 E12.75232
G1 X104.879 Y87.266 E13.38355
G1 X96.234 Y78.621 E17.82996
G1 X95.121 Y79.244 E18.29381
G1 X104.879 Y89.001 E23.31278
G1 X104.879 Y90.737 E23.94401
G1 X95.121 Y80.979 E28.96298
G1 X95.121 Y82.715 E29.59422
G1 X104.879 Y92.472 E34.61319
G1 X104.879 Y94.208 E35.24442
G1 X95.121 Y84.450 E40.26339
G1 X95.121 Y86.186 E40.89463
G1 X104.879 Y95.943 E45.91360
G1 X104.879 Y97.679 E46.54483
G1 X95.121 Y87.921 E51.56380
G1 X95.121 Y89.657 E52.19503
G1 X104.879 Y99.414 E57.21401
G1 X104.879 Y101.150 E57.84524
G1 X95.121 Y91.392 E62.86421
G1 X95.121 Y93.128 E63.49544
G1 X104.879 Y102.885 E68.51441
G1 X104.879 Y104.621 E69.14565
G1 X95.121 Y94.863 E74.16462
G1 X95.121 Y96.599 E74.79585
G1 X104.879 Y106.356 E79.81482
G1 X104.879 Y108.092 E80.44606
G1 X95.121 Y98.334 E85.46503
G1 X95.121 Y100.070 E86.09626
G1 X104.879 Y109.827 E91.11523
G1 X104.879 Y111.563 E91.74647
G1 X95.121 Y101.805 E96.76544
G1 X95.121 Y103.541 E97.39667
G1 X104.879 Y113.298 E102.41564
G1 X104.879 Y115.034 E103.04688
G1 X95.121 Y105.276 E108.06585
G1 X95.121 Y107.012 E108.69708
G1 X104.879 Y116.769 E113.71605
G1 X104.879 Y118.505 E114.34728
G1 X95.121 Y108.747 E119.36626
G1 X95.121 Y110.483 E119.99749
G1 X104.879 Y120.240 E125.01646
G1 X104.282 Y121.379 E125.48405
G1 X95.121 Y112.218 E130.19599
G1 X95.121 Y113.954 E130.82723
G1 X102.546 Y121.379 E134.64647
G1 X100.811 Y121.379 E135.27771
G1 X95.121 Y115.689 E138.20426
G1 X95.121 Y117.425 E138.83549
G1 X99.075 Y121.379 E140.86934
G1 X97.340 Y121.379 E141.50057
G1 X95.121 Y119.160 E142.64172
G1 X95.121 Y120.896 E143.27295
G1 X95.604 Y121.379 E143.52140
G1 Z0.800 F7800.000
G1 X103.176 Y121.379 F7800.000
G1 X104.879 Y119.676 E144.12324 F4680.075
G1 X104.879 Y117.941 E144.55712
G1 X101.441 Y121.379 E145.77255
G1 X99.705 Y121.379 E146.20643
G1 X104.879 Y116.205 E148.03546
G1 X104.879 Y114.470 E148.46933
G1 X97.970 Y121.379 E150.91195
G1 X96.234 Y121.379 E151.34583
G1 X104.879 Y112.734 E154.40204
G1 X104.879 Y110.999 E154.83592
G1 X95.121 Y120.756 E158.28568
G1 X95.121 Y119.021 E158.71956
G1 X104.879 Y109.263 E162.16932
G1 X104.879 Y107.528 E162.60320
G1 X95.121 Y117.285 E166.05296
G1 X95.121 Y115.550 E166.48683
G1 X104.879 Y105.792 E169.93660
G1 X104.879 Y104.057 E170.37048
G1 X95.121 Y113.814 E173.82024
G1 X95.121 Y112.079 E174.25411
G1 X104.879 Y102.321 E177.70388
G1 X104.879 Y100.586 E178.13775
G1 X95.121 Y110.343 E181.58752
G1 X95.121 Y108.608 E182.02139
G1 X104.879 Y98.850 E185.47116
G1 X104.879 Y97.115 E185.90503
G1 X95.121 Y106.872 E189.35480
G1 X95.121 Y105.137 E189.78867
G1 X104.879 Y95.379 E193.23844
G1 X104.879 Y93.644 E193.67231
G1 X95.121 Y103.401 E197.12208
G1 X95.121 Y101.666 E197.55595
G1 X104.879 Y91.908 E201.00572
G1 X104.879 Y90.173 E201.43959
G1 X95.121 Y99.930 E204.88936
G1 X95.121 Y98.195 E205.32323
G1 X104.879 Y88.437 E208.77300
G1 X104.879 Y86.702 E209.20687
G1 X95.121 Y96.459 E212.65663
G1 X95.121 Y94.724 E213.09051
G1 X104.879 Y84.966 E216.54027
G1 X104.879 Y83.231 E216.97415
G1 X95.121 Y92.988 E220.42391
G1 X95.121 Y91.253 E220.85779
G1 X104.879 Y81.495 E224.30755
G1 X104.879 Y79.760 E224.74143
G1 X95.121 Y89.517 E228.19119
G1 X95.121 Y87.782 E228.62507
G1 X104.282 Y78.621 E231.86380
G1 X102.546 Y78.621 E232.29768
G1 X95.121 Y86.046 E234.92282
G1 X95.121 Y84.311 E235.35669
G1 X100.811 Y78.621 E237.36824
G1 X99.075 Y78.621 E237.80211
G1 X95.121 Y82.575 E239.20007
G1 X95.121 Y80.840 E239.63394
G1 X97.340 Y78.621 E240.41831
G1 X95.604 Y78.621 E240.85218
G1 X95.121 Y79.104 E241.02295
G1 Z1.200 F7800.000
G1 X104.879 Y80.324 F7800.000
G1 X103.176 Y78.621 E241.62480 F4669.153
G1 X101.441 Y78.621 E242.05867
G1 X104.879 Y82.059 E243.27411
G1 X104.879 Y83.795 E243.70798
G1 X99.705 Y78.621 E245.53701
G1 X97.970 Y78.621 E245.97089
G1 X104.879 Y85.530 E248.41351
G1 X104.879 Y87.266 E248.84738
G1 X96.234 Y78.621 E251.90359
G1 X95.121 Y79.244 E252.22242
G1 X104.879 Y89.001 E255.67218
G1 X104.879 Y90.737 E256.10606
G1 X95.121 Y80.979 E259.55582
G1 X95.121 Y82.715 E259.98970
G1 X104.879 Y92.472 E263.43946
G1 X104.879 Y94.208 E263.87334
G1 X95.121 Y84.450 E267.32310
G1 X95.121 Y86.186 E267.75698
G1 X104.879 Y95.943 E271.20674
G1 X104.879 Y97.679 E271.64062
G1 X95.121 Y87.921 E275.09038
G1 X95.121 Y89.657 E275.52426
G1 X104.879 Y99.414 E278.97402
G1 X104.879 Y101.150 E279.40790
G1 X95.121 Y91.392 E282.85766
G1 X95.121 Y93.128 E283.29154
G1 X104.879 Y102.885 E286.74130
G1 X104.879 Y104.621 E287.17518
G1 X95.121 Y94.863 E290.62494
G1 X95.121 Y96.599 E291.05882
G1 X104.879 Y106.356 E294.50858
G1 X104.879 Y108.092 E294.94246
G1 X95.121 Y98.334 E298.39222
G1 X95.121 Y100.070 E298.82610
G1 X104.879 Y109.827 E302.27586
G1 X104.879 Y111.563 E302.70974
G1 X95.121 Y101.805 E306.15950
G1 X95.121 Y103.541 E306.59338
G1 X104.879 Y113.298 E310.04314
G1 X104.879 Y115.034 E310.47702
G1 X95.121 Y105.276 E313.92678
G1 X95.121 Y107.012 E314.36066
G1 X104.879 Y116.769 E317.81042
G1 X104.879 Y118.505 E318.24430
G1 X95.121 Y108.747 E321.69406
G1 X95.121 Y110.483 E322.12794
G1 X104.879 Y120.240 E325.57770
G1 X104.282 Y121.379 E325.89910
G1 X95.121 Y112.218 E329.13783
G1 X95.121 Y113.954 E329.57170
G1 X102.546 Y121.379 E332.19684
G1 X100.811 Y121.379 E332.63072
G1 X95.121 Y115.689 E334.64227
G1 X95.121 Y117.425 E335.07614
G1 X99.075 Y121.379 E336.47410
G1 X97.340 Y121.379 E336.90797
G1 X95.121 Y119.160 E337.69233
G1 X95.121 Y120.896 E338.12621
G1 X95.604 Y121.379 E338.29698
M106 S255
G1 Z1.600 F7800.000
G1 X103.176 Y121.379 F7800.000
G1 X104.879 Y119.676 E338.89882 F4680.075
G1 X104.879 Y117.941 E339.33270
G1 X101.441 Y121.379 E340.54813
G1 X99.705 Y121.379 E340.98201
G1 X104.879 Y116.205 E342.81104
G1 X104.879 Y114.470 E343.24491
G1 X97.970 Y121.379 E345.68753
G1 X96.234 Y121.379 E346.12141
G1 X104.879 Y112.734 E349.17762
G1 X104.879 Y110.999 E349.61150
G1 X95.121 Y120.756 E353.06126
G1 X95.121 Y119.021 E353.49513
G1 X104.879 Y109.263 E356.94490
G1 X104.879 Y107.528 E357.37877
G1 X95.121 Y117.285 E360.82854
G1 X95.121 Y115.550 E361.26241
G1 X104.879 Y105.792 E364.71218
G1 X104.879 Y104.057 E365.14605
G1 X95.121 Y113.814 E368.59582
G1 X95.121 Y112.079 E369.02969
G1 X104.879 Y102.321 E372.47946
G1 X104.879 Y100.586 E372.91333
G1 X95.121 Y110.343 E376.36310
G1 X95.121 Y108.608 E376.79697
G1 X104.879 Y98.850 E380.24674
G1 X104.879 Y97.115 E380.68061
G1 X95.121 Y106.872 E384.13038
G1 X95.121 Y105.137 E384.56425
G1 X104.879 Y95.379 E388.01402
G1 X104.879 Y93.644 E388.44789
G1 X95.121 Y103.401 E391.89766
G1 X95.121 Y101.666 E392.33153
G1 X104.879 Y91.908 E395.78130
G1 X104.879 Y90.173 E396.21517
G1 X95.121 Y99.930 E399.66494
G1 X95.121 Y98.195 E400.09881
G1 X104.879 Y88.437 E403.54857
G1 X104.879 Y86.702 E403.98245
G1 X95.121 Y96.459 E407.43221
G1 X95.121 Y94.724 E407.86609
G1 X104.879 Y84.966 E411.31585
G1 X104.879 Y83.231 E411.74973
G1 X95.121 Y92.988 E415.19949
G1 X95.121 Y91.253 E415.63337
G1 X104.879 Y81.495 E419.08313
G1 X104.879 Y79.760 E419.51701
G1 X95.121 Y89.517 E422.96677
G1 X95.121 Y87.782 E423.40065
G1 X104.282 Y78.621 E426.63938
G1 X102.546 Y78.621 E427.07326
G1 X95.121 Y86.046 E429.69839
G1 X95.121 Y84.311 E430.13227
G1 X100.811 Y78.621 E432.14382
G1 X99.075 Y78.621 E432.57769
G1 X95.121 Y82.575 E433.97565
G1 X95.121 Y80.840 E434.40952
G1 X97.340 Y78.621 E435.19389
G1 X95.604 Y78.621 E435.62776
G1 X95.121 Y79.104 E435.79853
G1 Z2.000 F7800.000
G1 X104.879 Y80.324 F7800.000
G1 X103.176 Y78.621 E436.40038 F4669.153
G1 X101.441 Y78.621 E436.83425
G1 X104.879 Y82.059 E438.04969
G1 X104.879 Y83.795 E438.48356
G1 X99.705 Y78.621 E440.31259
G1 X97.970 Y78.621 E440.74646
G1 X104.879 Y85.530 E443.18908
G1 X104.879 Y87.266 E443.62296
G1 X96.234 Y78.621 E446.67917
G1 X95.121 Y79.244 E446.99800
G1 X104.879 Y89.001 E450.44776
G1 X104.879 Y90.737 E450.88164
G1 X95.121 Y80.979 E454.33140
G1 X95.121 Y82.715 E454.76528
G1 X104.879 Y92.472 E458.21504
G1 X104.879 Y94.208 E458.64892
G1 X95.121 Y84.450 E462.09868
G1 X95.121 Y86.186 E462.53256
G1 X104.879 Y95.943 E465.98232
G1 X104.879 Y97.679 E466.41620
G1 X95.121 Y87.921 E469.86596
G1 X95.121 Y89.657 E470.29984
G1 X104.879 Y99.414 E473.74960
G1 X104.879 Y101.150 E474.18348
G1 X95.121 Y91.392 E477.63324
G1 X95.121 Y93.128 E478.06712
G1 X104.879 Y102.885 E481.51688
G1 X104.879 Y104.621 E481.95076
G1 X95.121 Y94.863 E485.40052
G1 X95.121 Y96.599 E485.83440
G1 X104.879 Y106.356 E489.28416
G1 X104.879 Y108.092 E489.71804
G1 X95.121 Y98.334 E493.16780
G1 X95.121 Y100.070 E493.60168
G1 X104.879 Y109.827 E497.05144
G1 X104.879 Y111.563 E497.48532
G1 X95.121 Y101.805 E500.93508
G1 X95.121 Y103.541 E501.36896
G1 X104.879 Y113.298 E504.81872
G1 X104.879 Y115.034 E505.25260
G1 X95.121 Y105.276 E508.70236
G1 X95.121 Y107.012 E509.13624
G1 X104.879 Y116.769 E512.58600
G1 X104.879 Y118.505 E513.01988
G1 X95.121 Y108.747 E516.46964
G1 X95.121 Y110.483 E516.90352
G1 X104.879 Y120.240 E520.35328
G1 X104.282 Y121.379 E520.67468
G1 X95.121 Y112.218 E523.91341
G1 X95.121 Y113.954 E524.34728
G1 X102.546 Y121.379 E526.97242
G1 X100.811 Y121.379 E527.40630
G1 X95.121 Y115.689 E529.41785
G1 X95.121 Y117.425 E529.85172
G1 X99.075 Y121.379 E531.24968
G1 X97.340 Y121.379 E531.68355
G1 X95.121 Y119.160 E532.46791
G1 X95.121 Y120.896 E532.90179
G1 X95.604 Y121.379 E533.07256
G1 Z2.400 F7800.000
G1 X103.176 Y121.379 F7800.000
G1 X104.879 Y119.676 E533.67440 F4680.075
G1 X104.879 Y117.941 E534.10828
G1 X101.441 Y121.379 E535.32371
G1 X99.705 Y121.379 E535.75759
G1 X104.879 Y116.205 E537.58662
G1 X104.879 Y114.470 E538.02049
G1 X97.970 Y121.379 E540.46311
G1 X96.234 Y121.379 E540.89699
G1 X104.879 Y112.734 E543.95320
G1 X104.879 Y110.999 E544.38707
G1 X95.121 Y120.756 E547.83684
G1 X95.121 Y119.021 E548.27071
G1 X104.879 Y109.263 E551.72048
G1 X104.879 Y107.528 E552.15435
G1 X95.121 Y117.285 E555.60412
G1 X95.121 Y115.550 E556.03799
G1 X104.879 Y105.792 E559.48776
G1 X104.879 Y104.057 E559.92163
G1 X95.121 Y113.814 E563.37140
G1 X95.121 Y112.079 E563.80527
G1 X104.879 Y102.321 E567.25504
G1 X104.879 Y100.586 E567.68891
G1 X95.121 Y110.343 E571.13868
G1 X95.121 Y108.608 E571.57255
G1 X104.879 Y98.850 E575.02232
G1 X104.879 Y97.115 E575.45619
G1 X95.121 Y106.872 E578.90596
G1 X95.121 Y105.137 E579.33983
G1 X104.879 Y95.379 E582.78960
G1 X104.879 Y93.644 E583.22347
G1 X95.121 Y103.401 E586.67324
G1 X95.121 Y101.666 E587.10711
G1 X104.879 Y91.908 E590.55687
G1 X104.879 Y90.173 E590.99075
G1 X95.121 Y99.930 E594.44051
G1 X95.121 Y98.195 E594.87439
G1 X104.879 Y88.437 E598.32415
G1 X104.879 Y86.702 E598.75803
G1 X95.121 Y96.459 E602.20779
G1 X95.121 Y94.724 E602.64167
G1 X104.879 Y84.966 E606.09143
G1 X104.879 Y83.231 E606.52531
G1 X95.121 Y92.988 E609.97507
G1 X95.121 Y91.253 E610.40895
G1 X104.879 Y81.495 E613.85871
G1 X104.879 Y79.760 E614.29259
G1 X95.121 Y89.517 E617.74235
G1 X95.121 Y87.782 E618.17623
G1 X104.282 Y78.621 E621.41496
G1 X102.546 Y78.621 E621.84883
G1 X95.121 Y86.046 E624.47397
G1 X95.121 Y84.311 E624.90785
G1 X100.811 Y78.621 E626.91940
G1 X99.075 Y78.621 E627.35327
G1 X95.121 Y82.575 E628.75123
G1 X95.121 Y80.840 E629.18510
G1 X97.340 Y78.621 E629.96947
G1 X95.604 Y78.621 E630.40334
G1 X95.121 Y79.104 E630.57411
G1 Z2.800 F7800.000
G1 X104.879 Y80.324 F7800.000
G1 X103.176 Y78.621 E631.17595 F4669.153
G1 X101.441 Y78.621 E631.60983
G1 X104.879 Y82.059 E632.82527
G1 X104.879 Y83.795 E633.25914
G1 X99.705 Y78.621 E635.08817
G1 X97.970 Y78.621 E635.52204
G1 X104.879 Y85.530 E637.96466
G1 X104.879 Y87.266 E638.39854
G1 X96.234 Y78.621 E641.45475
G1 X95.121 Y79.244 E641.77358
G1 X104.879 Y89.001 E645.22334
G1 X104.879 Y90.737 E645.65722
G1 X95.121 Y80.979 E649.10698
G1 X95.121 Y82.715 E649.54086
G1 X104.879 Y92.472 E652.99062
G1 X104.879 Y94.208 E653.42450
G1 X95.121 Y84.450 E656.87426
G1 X95.121 Y86.186 E657.30814
G1 X104.879 Y95.943 E660.75790
G1 X104.879 Y97.679 E661.19178
G1 X95.121 Y87.921 E664.64154
G1 X95.121 Y89.657 E665.07542
G1 X104.879 Y99.414 E668.52518
G1 X104.879 Y101.150 E668.95906
G1 X95.121 Y91.392 E672.40882
G1 X95.121 Y93.128 E672.84270
G1 X104.879 Y102.885 E676.29246
G1 X104.879 Y104.621 E676.72634
G1 X95.121 Y94.863 E680.17610
G1 X95.121 Y96.599 E680.60998
G1 X104.879 Y106.356 E684.05974
G1 X104.879 Y108.092 E684.49362
G1 X95.121 Y98.334 E687.94338
G1 X95.121 Y100.070 E688.37726
G1 X104.879 Y109.827 E691.82702
G1 X104.879 Y111.563 E692.26090
G1 X95.121 Y101.805 E695.71066
G1 X95.121 Y103.541 E696.14454
G1 X104.879 Y113.298 E699.59430
G1 X104.879 Y115.034 E700.02818
G1 X95.121 Y105.276 E703.47794
G1 X95.121 Y107.012 E703.91182
G1 X104.879 Y116.769 E707.36158
G1 X104.879 Y118.505 E707.79546
G1 X95.121 Y108.747 E711.24522
G1 X95.121 Y110.483 E711.67910
G1 X104.879 Y120.240 E715.12886
G1 X104.282 Y121.379 E715.45025
G1 X95.121 Y112.218 E718.68899
G1 X95.121 Y113.954 E719.12286
G1 X102.546 Y121.379 E721.74800
G1 X100.811 Y121.379 E722.18188
G1 X95.121 Y115.689 E724.19342
G1 X95.121 Y117.425 E724.62730
G1 X99.075 Y121.379 E726.02526
G1 X97.340 Y121.379 E726.45913
G1 X95.121 Y119.160 E727.24349
G1 X95.121 Y120.896 E727.67737
G1 X95.604 Y121.379 E727.84814
G1 Z3.200 F7800.000
G1 X103.176 Y121.379 F7800.000
G1 X104.879 Y119.676 E728.44998 F4680.075
G1 X104.879 Y117.941 E728.88386
G1 X101.441 Y121.379 E730.09929
G1 X99.705 Y121.379 E730.53317
G1 X104.879 Y116.205 E732.36220
G1 X104.879 Y114.470 E732.79607
G1 X97.970 Y121.379 E735.23869
G1 X96.234 Y121.379 E735.67257
G1 X104.879 Y112.734 E738.72878
G1 X104.879 Y110.999 E739.16265
G1 X95.121 Y120.756 E742.61242
G1 X95.121 Y119.021 E743.04629
G1 X104.879 Y109.263 E746.49606
G1 X104.879 Y107.528 E746.92993
G1 X95.121 Y117.285 E750.37970
G1 X95.121 Y115.550 E750.81357
G1 X104.879 Y105.792 E754.26334
G1 X104.879 Y104.057 E754.69721
G1 X95.121 Y113.814 E758.14698
G1 X95.121 Y112.079 E758.58085
G1 X104.879 Y102.321 E762.03062
G1 X104.879 Y100.586 E762.46449
G1 X95.121 Y110.343 E765.91426
G1 X95.121 Y108.608 E766.34813
G1 X104.879 Y98.850 E769.79790
G1 X104.879 Y97.115 E770.23177
G1 X95.121 Y106.872 E773.68154
G1 X95.121 Y105.137 E774.11541
G1 X104.879 Y95.379 E777.56517
G1 X104.879 Y93.644 E777.99905
G1 X95.121 Y103.401 E781.44881
G1 X95.121 Y101.666 E781.88269
G1 X104.879 Y91.908 E785.33245
G1 X104.879 Y90.173 E785.76633
G1 X95.121 Y99.930 E789.21609
G1 X95.121 Y98.195 E789.64997
G1 X104.879 Y88.437 E793.09973
G1 X104.879 Y86.702 E793.53361
G1 X95.121 Y96.459 E796.98337
G1 X95.121 Y94.724 E797.41725
G1 X104.879 Y84.966 E800.86701
G1 X104.879 Y83.231 E801.30089
G1 X95.121 Y92.988 E804.75065
G1 X95.121 Y91.253 E805.18453
G1 X104.879 Y81.495 E808.63429
G1 X104.879 Y79.760 E809.06817
G1 X95.121 Y89.517 E812.51793
G1 X95.121 Y87.782 E812.95181
G1 X104.282 Y78.621 E816.19054
G1 X102.546 Y78.621 E816.62441
G1 X95.121 Y86.046 E819.24955
G1 X95.121 Y84.311 E819.68343
G1 X100.811 Y78.621 E821.69498
G1 X99.075 Y78.621 E822.12885
G1 X95.121 Y82.575 E823.52681
G1 X95.121 Y80.840 E823.96068
G1 X97.340 Y78.621 E824.74504
G1 X95.604 Y78.621 E825.17892
G1 X95.121 Y79.104 E825.34969
G1 Z3.600 F7800.000
G1 X104.879 Y80.324 F7800.000
G1 X103.176 Y78.621 E825.95153 F4669.153
G1 X101.441 Y78.621 E826.38541
G1 X104.879 Y82.059 E827.60084
G1 X104.879 Y83.795 E828.03472
G1 X99.705 Y78.621 E829.86375
G1 X97.970 Y78.621 E830.29762
G1 X104.879 Y85.530 E832.74024
G1 X104.879 Y87.266 E833.17412
G1 X96.234 Y78.621 E836.23033
G1 X95.121 Y79.244 E836.54916
G1 X104.879 Y89.001 E839.99892
G1 X104.879 Y90.737 E840.43280
G1 X95.121 Y80.979 E843.88256
G1 X95.121 Y82.715 E844.31644
G1 X104.879 Y92.472 E847.76620
G1 X104.879 Y94.208 E848.20008
G1 X95.121 Y84.450 E851.64984
G1 X95.121 Y86.186 E852.08372
G1 X104.879 Y95.943 E855.53348
G1 X104.879 Y97.679 E855.96736
G1 X95.121 Y87.921 E859.41712
G1 X95.121 Y89.657 E859.85100
G1 X104.879 Y99.414 E863.30076
G1 X104.879 Y101.150 E863.73464
G1 X95.121 Y91.392 E867.18440
G1 X95.121 Y93.128 E867.61828
G1 X104.879 Y102.885 E871.06804
G1 X104.879 Y104.621 E871.50192
G1 X95.121 Y94.863 E874.95168
G1 X95.121 Y96.599 E875.38556
G1 X104.879 Y106.356 E878.83532
G1 X104.879 Y108.092 E879.26920
G1 X95.121 Y98.334 E882.71896
G1 X95.121 Y100.070 E883.15284
G1 X104.879 Y109.827 E886.60260
G1 X104.879 Y111.563 E887.03648
G1 X95.121 Y101.805 E890.48624
G1 X95.121 Y103.541 E890.92012
G1 X104.879 Y113.298 E894.36988
G1 X104.879 Y115.034 E894.80376
G1 X95.121 Y105.276 E898.25352
G1 X95.121 Y107.012 E898.68739
G1 X104.879 Y116.769 E902.13716
G1 X104.879 Y118.505 E902.57103
G1 X95.121 Y108.747 E906.02080
G1 X95.121 Y110.483 E906.45467
G1 X104.879 Y120.240 E909.90444
G1 X104.282 Y121.379 E910.22583
G1 X95.121 Y112.218 E913.46457
G1 X95.121 Y113.954 E913.89844
G1 X102.546 Y121.379 E916.52358
G1 X100.811 Y121.379 E916.95746
G1 X95.121 Y115.689 E918.96900
G1 X95.121 Y117.425 E919.40288
G1 X99.075 Y121.379 E920.80083
G1 X97.340 Y121.379 E921.23471
G1 X95.121 Y119.160 E922.01907
G1 X95.121 Y120.896 E922.45295
G1 X95.604 Y121.379 E922.62372
G1 Z4.000 F7800.000
G1 X103.176 Y121.379 F7800.000
G1 X104.879 Y119.676 E923.22556 F4680.075
G1 X104.879 Y117.941 E923.65944
G1 X101.441 Y121.379 E924.87487
G1 X99.705 Y121.379 E925.30875
G1 X104.879 Y116.205 E927.13778
G1 X104.879 Y114.470 E927.57165
G1 X97.970 Y121.379 E930.01427
G1 X96.234 Y121.379 E930.44815
G1 X104.879 Y112.734 E933.50436
G1 X104.879 Y110.999 E933.93823
G1 X95.121 Y120.756 E937.38800
G1 X95.121 Y119.021 E937.82187
G1 X104.879 Y109.263 E941.27164
G1 X104.879 Y107.528 E941.70551
G1 X95.121 Y117.285 E945.15528
G1 X95.121 Y115.550 E945.58915
G1 X104.879 Y105.792 E949.03892
G1 X104.879 Y104.057 E949.47279
G1 X95.121 Y113.814 E952.92256
G1 X95.121 Y112.079 E953.35643
G1 X104.879 Y102.321 E956.80620
G1 X104.879 Y100.586 E957.24007
G1 X95.121 Y110.343 E960.68984
G1 X95.121 Y108.608 E961.12371
G1 X104.879 Y98.850 E964.57348
G1 X104.879 Y97.115 E965.00735
G1 X95.121 Y106.872 E968.45711
G1 X95.121 Y105.137 E968.89099
G1 X104.879 Y95.379 E972.34075
G1 X104.879 Y93.644 E972.77463
G1 X95.121 Y103.401 E976.22439
G1 X95.121 Y101.666 E976.65827
G1 X104.879 Y91.908 E980.10803
G1 X104.879 Y90.173 E980.54191
G1 X95.121 Y99.930 E983.99167
G1 X95.121 Y98.195 E984.42555
G1 X104.879 Y88.437 E987.87531
G1 X104.879 Y86.702 E988.30919
G1 X95.121 Y96.459 E991.75895
G1 X95.121 Y94.724 E992.19283
G1 X104.879 Y84.966 E995.64259
G1 X104.879 Y83.231 E996.07647
G1 X95.121 Y92.988 E999.52623
G1 X95.121 Y91.253 E999.96011
G1 X104.879 Y81.495 E1003.40987
G1 X104.879 Y79.760 E1003.84375
G1 X95.121 Y89.517 E1007.29351
G1 X95.121 Y87.782 E1007.72739
G1 X104.282 Y78.621 E1010.96612
G1 X102.546 Y78.621 E1011.39999
G1 X95.121 Y86.046 E1014.02513
G1 X95.121 Y84.311 E1014.45901
G1 X100.811 Y78.621 E1016.47056
G1 X99.075 Y78.621 E1016.90443
G1 X95.121 Y82.575 E1018.30239
G1 X95.121 Y80.840 E1018.73626
G1 X97.340 Y78.621 E1019.52062
G1 X95.604 Y78.621 E1019.95450
G1 X95.121 Y79.104 E1020.12527
G1 Z4.400 F7800.000
G1 X104.879 Y80.324 F7800.000
G1 X103.176 Y78.621 E1020.72711 F4669.153
G1 X101.441 Y78.621 E1021.16099
G1 X104.879 Y82.059 E1022.37642
G1 X104.879 Y83.795 E1022.81030
G1 X99.705 Y78.621 E1024.63933
G1 X97.970 Y78.621 E1025.07320
G1 X104.879 Y85.530 E1027.51582
G1 X104.879 Y87.266 E1027.94970
G1 X96.234 Y78.621 E1031.00591
G1 X95.121 Y79.244 E1031.32474
G1 X104.879 Y89.001 E1034.77450
G1 X104.879 Y90.737 E1035.20838
G1 X95.121 Y80.979 E1038.65814
G1 X95.121 Y82.715 E1039.09202
G1 X104.879 Y92.472 E1042.54178
G1 X104.879 Y94.208 E1042.97566
G1 X95.121 Y84.450 E1046.42542
G1 X95.121 Y86.186 E1046.85930
G1 X104.879 Y95.943 E1050.30906
G1 X104.879 Y97.679 E1050.74294
G1 X95.121 Y87.921 E1054.19270
G1 X95.121 Y89.657 E1054.62658
G1 X104.879 Y99.414 E1058.07634
G1 X104.879 Y101.150 E1058.51022
G1 X95.121 Y91.392 E1061.95998
G1 X95.121 Y93.128 E1062.39386
G1 X104.879 Y102.885 E1065.84362
G1 X104.879 Y104.621 E1066.27749
G1 X95.121 Y94.863 E1069.72726
G1 X95.121 Y96.599 E1070.16113
G1 X104.879 Y106.356 E1073.61090
G1 X104.879 Y108.092 E1074.04477
G1 X95.121 Y98.334 E1077.49454
G1 X95.121 Y100.070 E1077.92841
G1 X104.879 Y109.827 E1081.37818
G1 X104.879 Y111.563 E1081.81205
G1 X95.121 Y101.805 E1085.26182
G1 X95.121 Y103.541 E1085.69569
G1 X104.879 Y113.298 E1089.14546
G1 X104.879 Y115.034 E1089.57933
G1 X95.121 Y105.276 E1093.02910
G1 X95.121 Y107.012 E1093.46297
G1 X104.879 Y116.769 E1096.91274
G1 X104.879 Y118.505 E1097.34661
G1 X95.121 Y108.747 E1100.79638
G1 X95.121 Y110.483 E1101.23025
G1 X104.879 Y120.240 E1104.68002
G1 X104.282 Y121.379 E1105.00141
G1 X95.121 Y112.218 E1108.24015
G1 X95.121 Y113.954 E1108.67402
G1 X102.546 Y121.379 E1111.29916
G1 X100.811 Y121.379 E1111.73304
G1 X95.121 Y115.689 E1113.74458
G1 X95.121 Y117.425 E1114.17846
G1 X99.075 Y121.379 E1115.57641
G1 X97.340 Y121.379 E1116.01029
G1 X95.121 Y119.160 E1116.79465
G1 X95.121 Y120.896 E1117.22853
G1 X95.604 Y121.379 E1117.39930
G1 Z4.800 F7800.000
G1 X103.176 Y121.379 F7800.000
G1 X104.879 Y119.676 E1118.00114 F4680.075
G1 X104.879 Y117.941 E1118.43502
G1 X101.441 Y121.379 E1119.65045
G1 X99.705 Y121.379 E1120.08433
G1 X104.879 Y116.205 E1121.91335
G1 X104.879 Y114.470 E1122.34723
G1 X97.970 Y121.379 E1124.78985
G1 X96.234 Y121.379 E1125.22372
G1 X104.879 Y112.734 E1128.27994
G1 X104.879 Y110.999 E1128.71381
G1 X95.121 Y120.756 E1132.16358
G1 X95.121 Y119.021 E1132.59745
G1 X104.879 Y109.263 E1136.04722
G1 X104.879 Y107.528 E1136.48109
G1 X95.121 Y117.285 E1139.93086
G1 X95.121 Y115.550 E1140.36473
G1 X104.879 Y105.792 E1143.81450
G1 X104.879 Y104.057 E1144.24837
G1 X95.121 Y113.814 E1147.69814
G1 X95.121 Y112.079 E1148.13201
G1 X104.879 Y102.321 E1151.58178
G1 X104.879 Y100.586 E1152.01565
G1 X95.121 Y110.343 E1155.46541
G1 X95.121 Y108.608 E1155.89929
G1 X104.879 Y98.850 E1159.34905
G1 X104.879 Y97.115 E1159.78293
G1 X95.121 Y106.872 E1163.23269
G1 X95.121 Y105.137 E1163.66657
G1 X104.879 Y95.379 E1167.11633
G1 X104.879 Y93.644 E1167.55021
G1 X95.121 Y103.401 E1170.99997
G1 X95.121 Y101.666 E1171.43385
G1 X104.879 Y91.908 E1174.88361
G1 X104.879 Y90.173 E1175.31749
G1 X95.121 Y99.930 E1178.76725
G1 X95.121 Y98.195 E1179.20113
G1 X104.879 Y88.437 E1182.65089
G1 X104.879 Y86.702 E1183.08477
G1 X95.121 Y96.459 E1186.53453
G1 X95.121 Y94.724 E1186.96841
G1 X104.879 Y84.966 E1190.41817
G1 X104.879 Y83.231 E1190.85205
G1 X95.121 Y92.988 E1194.30181
G1 X95.121 Y91.253 E1194.73569
G1 X104.879 Y81.495 E1198.18545
G1 X104.879 Y79.760 E1198.61932
G1 X95.121 Y89.517 E1202.06909
G1 X95.121 Y87.782 E1202.50296
G1 X104.282 Y78.621 E1205.74170
G1 X102.546 Y78.621 E1206.17557
G1 X95.121 Y86.046 E1208.80071
G1 X95.121 Y84.311 E1209.23459
G1 X100.811 Y78.621 E1211.24613
G1 X99.075 Y78.621 E1211.68001
G1 X95.121 Y82.575 E1213.07796
G1 X95.121 Y80.840 E1213.51184
G1 X97.340 Y78.621 E1214.29620
G1 X95.604 Y78.621 E1214.73008
G1 X95.121 Y79.104 E1214.90085
G1 Z5.200 F7800.000
G1 X104.879 Y80.324 F7800.000
G1 X103.176 Y78.621 E1215.50269 F4669.153
G1 X101.441 Y78.621 E1215.93657
G1 X104.879 Y82.059 E1217.15200
G1 X104.879 Y83.795 E1217.58588
G1 X99.705 Y78.621 E1219.41491
G1 X97.970 Y78.621 E1219.84878
G1 X104.879 Y85.530 E1222.29140
G1 X104.879 Y87.266 E1222.72528
G1 X96.234 Y78.621 E1225.78149
G1 X95.121 Y79.244 E1226.10032
G1 X104.879 Y89.001 E1229.55008
G1 X104.879 Y90.737 E1229.98396
G1 X95.121 Y80.979 E1233.43372
G1 X95.121 Y82.715 E1233.86760
G1 X104.879 Y92.472 E1237.31736
G1 X104.879 Y94.208 E1237.75124
G1 X95.121 Y84.450 E1241.20100
G1 X95.121 Y86.186 E1241.63488
G1 X104.879 Y95.943 E1245.08464
G1 X104.879 Y97.679 E1245.51852
G1 X95.121 Y87.921 E1248.96828
G1 X95.121 Y89.657 E1249.40215
G1 X104.879 Y99.414 E1252.85192
G1 X104.879 Y101.150 E1253.28579
G1 X95.121 Y91.392 E1256.73556
G1 X95.121 Y93.128 E1257.16943
G1 X104.879 Y102.885 E1260.61920
G1 X104.879 Y104.621 E1261.05307
G1 X95.121 Y94.863 E1264.50284
G1 X95.121 Y96.599 E1264.93671
G1 X104.879 Y106.356 E1268.38648
G1 X104.879 Y108.092 E1268.82035
G1 X95.121 Y98.334 E1272.27012
G1 X95.121 Y100.070 E1272.70399
G1 X104.879 Y109.827 E1276.15376
G1 X104.879 Y111.563 E1276.58763
G1 X95.121 Y101.805 E1280.03740
G1 X95.121 Y103.541 E1280.47127
G1 X104.879 Y113.298 E1283.92104
G1 X104.879 Y115.034 E1284.35491
G1 X95.121 Y105.276 E1287.80468
G1 X95.121 Y107.012 E1288.23855
G1 X104.879 Y116.769 E1291.68832
G1 X104.879 Y118.505 E1292.12219
G1 X95.121 Y108.747 E1295.57196
G1 X95.121 Y110.483 E1296.00583
G1 X104.879 Y120.240 E1299.45560
G1 X104.282 Y121.379 E1299.77699
G1 X95.121 Y112.218 E1303.01572
G1 X95.121 Y113.954 E1303.44960
G1 X102.546 Y121.379 E1306.07474
G1 X100.811 Y121.379 E1306.50861
G1 X95.121 Y115.689 E1308.52016
G1 X95.121 Y117.425 E1308.95404
G1 X99.075 Y121.379 E1310.35199
G1 X97.340 Y121.379 E1310.78587
G1 X95.121 Y119.160 E1311.57023
G1 X95.121 Y120.896 E1312.00411
G1 X95.604 Y121.379 E1312.17488
G1 Z5.600 F7800.000
G1 X103.176 Y121.379 F7800.000
G1 X104.879 Y119.676 E1312.77672 F4680.075
G1 X104.879 Y117.941 E1313.21059
G1 X101.441 Y121.379 E1314.42603
G1 X99.705 Y121.379 E1314.85991
G1 X104.879 Y116.205 E1316.68893
G1 X104.879 Y114.470 E1317.12281
G1 X97.970 Y121.379 E1319.56543
G1 X96.234 Y121.379 E1319.99930
G1 X104.879 Y112.734 E1323.05552
G1 X104.879 Y110.999 E1323.48939
G1 X95.121 Y120.756 E1326.93916
G1 X95.121 Y119.021 E1327.37303
G1 X104.879 Y109.263 E1330.82280
G1 X104.879 Y107.528 E1331.25667
G1 X95.121 Y117.285 E1334.70644
G1 X95.121 Y115.550 E1335.14031
G1 X104.879 Y105.792 E1338.59007
G1 X104.879 Y104.057 E1339.02395
G1 X95.121 Y113.814 E1342.47371
G1 X95.121 Y112.079 E1342.90759
G1 X104.879 Y102.321 E1346.35735
G1 X104.879 Y100.586 E1346.79123
G1 X95.121 Y110.343 E1350.24099
G1 X95.121 Y108.608 E1350.67487
G1 X104.879 Y98.850 E1354.12463
G1 X104.879 Y97.115 E1354.55851
G1 X95.121 Y106.872 E1358.00827
G1 X95.121 Y105.137 E1358.44215
G1 X104.879 Y95.379 E1361.89191
G1 X104.879 Y93.644 E1362.32579
G1 X95.121 Y103.401 E1365.77555
G1 X95.121 Y101.666 E1366.20943
G1 X104.879 Y91.908 E1369.65919
G1 X104.879 Y90.173 E1370.09307
G1 X95.121 Y99.930 E1373.54283
G1 X95.121 Y98.195 E1373.97671
G1 X104.879 Y88.437 E1377.42647
G1 X104.879 Y86.702 E1377.86035
G1 X95.121 Y96.459 E1381.31011
G1 X95.121 Y94.724 E1381.74399
G1 X104.879 Y84.966 E1385.19375
G1 X104.879 Y83.231 E1385.62762
G1 X95.121 Y92.988 E1389.07739
G1 X95.121 Y91.253 E1389.51126
G1 X104.879 Y81.495 E1392.96103
G1 X104.879 Y79.760 E1393.39490
G1 X95.121 Y89.517 E1396.84467
G1 X95.121 Y87.782 E1397.27854
G1 X104.282 Y78.621 E1400.51728
G1 X102.546 Y78.621 E1400.95115
G1 X95.121 Y86.046 E1403.57629
G1 X95.121 Y84.311 E1404.01017
G1 X100.811 Y78.621 E1406.02171
G1 X99.075 Y78.621 E1406.45559
G1 X95.121 Y82.575 E1407.85354
G1 X95.121 Y80.840 E1408.28742
G1 X97.340 Y78.621 E1409.07178
G1 X95.604 Y78.621 E1409.50566
G1 X95.121 Y79.104 E1409.67643
G1 Z6.000 F7800.000
G1 X104.879 Y80.324 F7800.000
G1 X103.176 Y78.621 E1410.27827 F4669.153
G1 X101.441 Y78.621 E1410.71215
G1 X104.879 Y82.059 E1411.92758
G1 X104.879 Y83.795 E1412.36146
G1 X99.705 Y78.621 E1414.19049
G1 X97.970 Y78.621 E1414.62436
G1 X104.879 Y85.530 E1417.06698
G1 X104.879 Y87.266 E1417.50086
G1 X96.234 Y78.621 E1420.55707
G1 X95.121 Y79.244 E1420.87590
G1 X104.879 Y89.001 E1424.32566
G1 X104.879 Y90.737 E1424.75953
G1 X95.121 Y80.979 E1428.20930
G1 X95.121 Y82.715 E1428.64317
G1 X104.879 Y92.472 E1432.09294
G1 X104.879 Y94.208 E1432.52681
G1 X95.121 Y84.450 E1435.97658
G1 X95.121 Y86.186 E1436.41045
G1 X104.879 Y95.943 E1439.86022
G1 X104.879 Y97.679 E1440.29409
G1 X95.121 Y87.921 E1443.74386
G1 X95.121 Y89.657 E1444.17773
G1 X104.879 Y99.414 E1447.62750
G1 X104.879 Y101.150 E1448.06137
G1 X95.121 Y91.392 E1451.51114
G1 X95.121 Y93.128 E1451.94501
G1 X104.879 Y102.885 E1455.39478
G1 X104.879 Y104.621 E1455.82865
G1 X95.121 Y94.863 E1459.27842
G1 X95.121 Y96.599 E1459.71229
G1 X104.879 Y106.356 E1463.16206
G1 X104.879 Y108.092 E1463.59593
G1 X95.121 Y98.334 E1467.04570
G1 X95.121 Y100.070 E1467.47957
G1 X104.879 Y109.827 E1470.92934
G1 X104.879 Y111.563 E1471.36321
G1 X95.121 Y101.805 E1474.81298
G1 X95.121 Y103.541 E1475.24685
G1 X104.879 Y113.298 E1478.69662
G1 X104.879 Y115.034 E1479.13049
G1 X95.121 Y105.276 E1482.58026
G1 X95.121 Y107.012 E1483.01413
G1 X104.879 Y116.769 E1486.46390
G1 X104.879 Y118.505 E1486.89777
G1 X95.121 Y108.747 E1490.34754
G1 X95.121 Y110.483 E1490.78141
G1 X104.879 Y120.240 E1494.23118
G1 X104.282 Y121.379 E1494.55257
G1 X95.121 Y112.218 E1497.79130
G1 X95.121 Y113.954 E1498.22518
G1 X102.546 Y121.379 E1500.85032
G1 X100.811 Y121.379 E1501.28419
G1 X95.121 Y115.689 E1503.29574
G1 X95.121 Y117.425 E1503.72962
G1 X99.075 Y121.379 E1505.12757
G1 X97.340 Y121.379 E1505.56145
G1 X95.121 Y119.160 E1506.34581
G1 X95.121 Y120.896 E1506.77968
G1 X95.604 Y121.379 E1506.95045
G1 Z6.400 F7800.000
G1 X103.176 Y121.379 F7800.000
G1 X104.879 Y119.676 E1507.55230 F4680.075
G1 X104.879 Y117.941 E1507.98617
G1 X101.441 Y121.379 E1509.20161
G1 X99.705 Y121.379 E1509.63548
G1 X104.879 Y116.205 E1511.46451
G1 X104.879 Y114.470 E1511.89839
G1 X97.970 Y121.379 E1514.34101
G1 X96.234 Y121.379 E1514.77488
G1 X104.879 Y112.734 E1517.83109
G1 X104.879 Y110.999 E1518.26497
G1 X95.121 Y120.756 E1521.71473
G1 X95.121 Y119.021 E1522.14861
G1 X104.879 Y109.263 E1525.59837
G1 X104.879 Y107.528 E1526.03225
G1 X95.121 Y117.285 E1529.48201
G1 X95.121 Y115.550 E1529.91589
G1 X104.879 Y105.792 E1533.36565
G1 X104.879 Y104.057 E1533.79953
G1 X95.121 Y113.814 E1537.24929
G1 X95.121 Y112.079 E1537.68317
G1 X104.879 Y102.321 E1541.13293
G1 X104.879 Y100.586 E1541.56681
G1 X95.121 Y110.343 E1545.01657
G1 X95.121 Y108.608 E1545.45045
G1 X104.879 Y98.850 E1548.90021
G1 X104.879 Y97.115 E1549.33409
G1 X95.121 Y106.872 E1552.78385
G1 X95.121 Y105.137 E1553.21773
G1 X104.879 Y95.379 E1556.66749
G1 X104.879 Y93.644 E1557.10137
G1 X95.121 Y103.401 E1560.55113
G1 X95.121 Y101.666 E1560.98501
G1 X104.879 Y91.908 E1564.43477
G1 X104.879 Y90.173 E1564.86865
G1 X95.121 Y99.930 E1568.31841
G1 X95.121 Y98.195 E1568.75229
G1 X104.879 Y88.437 E1572.20205
G1 X104.879 Y86.702 E1572.63592
G1 X95.121 Y96.459 E1576.08569
G1 X95.121 Y94.724 E1576.51956
G1 X104.879 Y84.966 E1579.96933
G1 X104.879 Y83.231 E1580.40320
G1 X95.121 Y92.988 E1583.85297
G1 X95.121 Y91.253 E1584.28684
G1 X104.879 Y81.495 E1587.73661
G1 X104.879 Y79.760 E1588.17048
G1 X95.121 Y89.517 E1591.62025
G1 X95.121 Y87.782 E1592.05412
G1 X104.282 Y78.621 E1595.29285
G1 X102.546 Y78.621 E1595.72673
G1 X95.121 Y86.046 E1598.35187
G1 X95.121 Y84.311 E1598.78575
G1 X100.811 Y78.621 E1600.79729
G1 X99.075 Y78.621 E1601.23117
G1 X95.121 Y82.575 E1602.62912
G1 X95.121 Y80.840 E1603.06300
G1 X97.340 Y78.621 E1603.84736
G1 X95.604 Y78.621 E1604.28124
G1 X95.121 Y79.104 E1604.45201
G1 Z6.800 F7800.000
G1 X104.879 Y80.324 F7800.000
G1 X103.176 Y78.621 E1605.05385 F4669.153
G1 X101.441 Y78.621 E1605.48773
G1 X104.879 Y82.059 E1606.70316
G1 X104.879 Y83.795 E1607.13704
G1 X99.705 Y78.621 E1608.96606
G1 X97.970 Y78.621 E1609.39994
G1 X104.879 Y85.530 E1611.84256
G1 X104.879 Y87.266 E1612.27644
G1 X96.234 Y78.621 E1615.33265
G1 X95.121 Y79.244 E1615.65147
G1 X104.879 Y89.001 E1619.10124
G1 X104.879 Y90.737 E1619.53511
G1 X95.121 Y80.979 E1622.98488
G1 X95.121 Y82.715 E1623.41875
G1 X104.879 Y92.472 E1626.86852
G1 X104.879 Y94.208 E1627.30239
G1 X95.121 Y84.450 E1630.75216
G1 X95.121 Y86.186 E1631.18603
G1 X104.879 Y95.943 E1634.63580
G1 X104.879 Y97.679 E1635.06967
G1 X95.121 Y87.921 E1638.51944
G1 X95.121 Y89.657 E1638.95331
G1 X104.879 Y99.414 E1642.40308
G1 X104.879 Y101.150 E1642.83695
G1 X95.121 Y91.392 E1646.28672
G1 X95.121 Y93.128 E1646.72059
G1 X104.879 Y102.885 E1650.17036
G1 X104.879 Y104.621 E1650.60423
G1 X95.121 Y94.863 E1654.05400
G1 X95.121 Y96.599 E1654.48787
G1 X104.879 Y106.356 E1657.93764
G1 X104.879 Y108.092 E1658.37151
G1 X95.121 Y98.334 E1661.82128
G1 X95.121 Y100.070 E1662.25515
G1 X104.879 Y109.827 E1665.70492
G1 X104.879 Y111.563 E1666.13879
G1 X95.121 Y101.805 E1669.58856
G1 X95.121 Y103.541 E1670.02243
G1 X104.879 Y113.298 E1673.47220
G1 X104.879 Y115.034 E1673.90607
G1 X95.121 Y105.276 E1677.35584
G1 X95.121 Y107.012 E1677.78971
G1 X104.879 Y116.769 E1681.23948
G1 X104.879 Y118.505 E1681.67335
G1 X95.121 Y108.747 E1685.12312
G1 X95.121 Y110.483 E1685.55699
G1 X104.879 Y120.240 E1689.00676
G1 X104.282 Y121.379 E1689.32815
G1 X95.121 Y112.218 E1692.56688
G1 X95.121 Y113.954 E1693.00076
G1 X102.546 Y121.379 E1695.62590
G1 X100.811 Y121.379 E1696.05977
G1 X95.121 Y115.689 E1698.07132
G1 X95.121 Y117.425 E1698.50520
G1 X99.075 Y121.379 E1699.90315
G1 X97.340 Y121.379 E1700.33703
G1 X95.121 Y119.160 E1701.12139
G1 X95.121 Y120.896 E1701.55526
G1 X95.604 Y121.379 E1701.72603
G1 Z7.200 F7800.000
G1 X103.176 Y121.379 F7800.000
G1 X104.879 Y119.676 E1702.32788 F4680.075
G1 X104.879 Y117.941 E1702.76175
G1 X101.441 Y121.379 E1703.97719
G1 X99.705 Y121.379 E1704.41106
G1 X104.879 Y116.205 E1706.24009
G1 X104.879 Y114.470 E1706.67397
G1 X97.970 Y121.379 E1709.11659
G1 X96.234 Y121.379 E1709.55046
G1 X104.879 Y112.734 E1712.60667
G1 X104.879 Y110.999 E1713.04055
G1 X95.121 Y120.756 E1716.49031
G1 X95.121 Y119.021 E1716.92419
G1 X104.879 Y109.263 E1720.37395
G1 X104.879 Y107.528 E1720.80783
G1 X95.121 Y117.285 E1724.25759
G1 X95.121 Y115.550 E1724.69147
G1 X104.879 Y105.792 E1728.14123
G1 X104.879 Y104.057 E1728.57511
G1 X95.121 Y113.814 E1732.02487
G1 X95.121 Y112.079 E1732.45875
G1 X104.879 Y102.321 E1735.90851
G1 X104.879 Y100.586 E1736.34239
G1 X95.121 Y110.343 E1739.79215
G1 X95.121 Y108.608 E1740.22603
G1 X104.879 Y98.850 E1743.67579
G1 X104.879 Y97.115 E1744.10967
G1 X95.121 Y106.872 E1747.55943
G1 X95.121 Y105.137 E1747.99331
G1 X104.879 Y95.379 E1751.44307
G1 X104.879 Y93.644 E1751.87695
G1 X95.121 Y103.401 E1755.32671
G1 X95.121 Y101.666 E1755.76059
G1 X104.879 Y91.908 E1759.21035
G1 X104.879 Y90.173 E1759.64423
G1 X95.121 Y99.930 E1763.09399
G1 X95.121 Y98.195 E1763.52786
G1 X104.879 Y88.437 E1766.97763
G1 X104.879 Y86.702 E1767.41150
G1 X95.121 Y96.459 E1770.86127
G1 X95.121 Y94.724 E1771.29514
G1 X104.879 Y84.966 E1774.74491
G1 X104.879 Y83.231 E1775.17878
G1 X95.121 Y92.988 E1778.62855
G1 X95.121 Y91.253 E1779.06242
G1 X104.879 Y81.495 E1782.51219
G1 X104.879 Y79.760 E1782.94606
G1 X95.121 Y89.517 E1786.39583
G1 X95.121 Y87.782 E1786.82970
G1 X104.282 Y78.621 E1790.06843
G1 X102.546 Y78.621 E1790.50231
G1 X95.121 Y86.046 E1793.12745
G1 X95.121 Y84.311 E1793.56132
G1 X100.811 Y78.621 E1795.57287
G1 X99.075 Y78.621 E1796.00675
G1 X95.121 Y82.575 E1797.40470
G1 X95.121 Y80.840 E1797.83858
G1 X97.340 Y78.621 E1798.62294
G1 X95.604 Y78.621 E1799.05682
G1 X95.121 Y79.104 E1799.22759
G1 Z7.600 F7800.000
G1 X104.879 Y80.324 F7800.000
G1 X103.176 Y78.621 E1799.82943 F4669.153
G1 X101.441 Y78.621 E1800.26330
G1 X104.879 Y82.059 E1801.47874
G1 X104.879 Y83.795 E1801.91262
G1 X99.705 Y78.621 E1803.74164
G1 X97.970 Y78.621 E1804.17552
G1 X104.879 Y85.530 E1806.61814
G1 X104.879 Y87.266 E1807.05201
G1 X96.234 Y78.621 E1810.10823
G1 X95.121 Y79.244 E1810.42705
G1 X104.879 Y89.001 E1813.87682
G1 X104.879 Y90.737 E1814.31069
G1 X95.121 Y80.979 E1817.76046
G1 X95.121 Y82.715 E1818.19433
G1 X104.879 Y92.472 E1821.64410
G1 X104.879 Y94.208 E1822.07797
G1 X95.121 Y84.450 E1825.52774
G1 X95.121 Y86.186 E1825.96161
G1 X104.879 Y95.943 E1829.41138
G1 X104.879 Y97.679 E1829.84525
G1 X95.121 Y87.921 E1833.29502
G1 X95.121 Y89.657 E1833.72889
G1 X104.879 Y99.414 E1837.17866
G1 X104.879 Y101.150 E1837.61253
G1 X95.121 Y91.392 E1841.06230
G1 X95.121 Y93.128 E1841.49617
G1 X104.879 Y102.885 E1844.94594
G1 X104.879 Y104.621 E1845.37981
G1 X95.121 Y94.863 E1848.82958
G1 X95.121 Y96.599 E1849.26345
G1 X104.879 Y106.356 E1852.71322
G1 X104.879 Y108.092 E1853.14709
G1 X95.121 Y98.334 E1856.59686
G1 X95.121 Y100.070 E1857.03073
G1 X104.879 Y109.827 E1860.48050
G1 X104.879 Y111.563 E1860.91437
G1 X95.121 Y101.805 E1864.36414
G1 X95.121 Y103.541 E1864.79801
G1 X104.879 Y113.298 E1868.24778
G1 X104.879 Y115.034 E1868.68165
G1 X95.121 Y105.276 E1872.13142
G1 X95.121 Y107.012 E1872.56529
G1 X104.879 Y116.769 E1876.01506
G1 X104.879 Y118.505 E1876.44893
G1 X95.121 Y108.747 E1879.89870
G1 X95.121 Y110.483 E1880.33257
G1 X104.879 Y120.240 E1883.78233
G1 X104.282 Y121.379 E1884.10373
G1 X95.121 Y112.218 E1887.34246
G1 X95.121 Y113.954 E1887.77634
G1 X102.546 Y121.379 E1890.40148
G1 X100.811 Y121.379 E1890.83535
G1 X95.121 Y115.689 E1892.84690
G1 X95.121 Y117.425 E1893.28078
G1 X99.075 Y121.379 E1894.67873
G1 X97.340 Y121.379 E1895.11261
G1 X95.121 Y119.160 E1895.89697
G1 X95.121 Y120.896 E1896.33084
G1 X95.604 Y121.379 E1896.50161
G1 Z8.000 F7800.000
G1 X103.176 Y121.379 F7800.000
G1 X104.879 Y119.676 E1897.10346 F4680.075
G1 X104.879 Y117.941 E1897.53733
G1 X101.441 Y121.379 E1898.75277
G1 X99.705 Y121.379 E1899.18664
G1 X104.879 Y116.205 E1901.01567
G1 X104.879 Y114.470 E1901.44955
G1 X97.970 Y121.379 E1903.89217
G1 X96.234 Y121.379 E1904.32604
G1 X104.879 Y112.734 E1907.38225
G1 X104.879 Y110.999 E1907.81613
G1 X95.121 Y120.756 E1911.26589
G1 X95.121 Y119.021 E1911.69977
G1 X104.879 Y109.263 E1915.14953
G1 X104.879 Y107.528 E1915.58341
G1 X95.121 Y117.285 E1919.03317
G1 X95.121 Y115.550 E1919.46705
G1 X104.879 Y105.792 E1922.91681
G1 X104.879 Y104.057 E1923.35069
G1 X95.121 Y113.814 E1926.80045
G1 X95.121 Y112.079 E1927.23433
G1 X104.879 Y102.321 E1930.68409
G1 X104.879 Y100.586 E1931.11797
G1 X95.121 Y110.343 E1934.56773
G1 X95.121 Y108.608 E1935.00161
G1 X104.879 Y98.850 E1938.45137
G1 X104.879 Y97.115 E1938.88525
G1 X95.121 Y106.872 E1942.33501
G1 X95.121 Y105.137 E1942.76889
G1 X104.879 Y95.379 E1946.21865
G1 X104.879 Y93.644 E1946.65253
G1 X95.121 Y103.401 E1950.10229
G1 X95.121 Y101.666 E1950.53616
G1 X104.879 Y91.908 E1953.98593
G1 X104.879 Y90.173 E1954.41980
G1 X95.121 Y99.930 E1957.86957
G1 X95.121 Y98.195 E1958.30344
G1 X104.879 Y88.437 E1961.75321
G1 X104.879 Y86.702 E1962.18708
G1 X95.121 Y96.459 E1965.63685
G1 X95.121 Y94.724 E1966.07072
G1 X104.879 Y84.966 E1969.52049
G1 X104.879 Y83.231 E1969.95436
G1 X95.121 Y92.988 E1973.40413
G1 X95.121 Y91.253 E1973.83800
G1 X104.879 Y81.495 E1977.28777
G1 X104.879 Y79.760 E1977.72164
G1 X95.121 Y89.517 E1981.17141
G1 X95.121 Y87.782 E1981.60528
G1 X104.282 Y78.621 E1984.84401
G1 X102.546 Y78.621 E1985.27789
G1 X95.121 Y86.046 E1987.90303
G1 X95.121 Y84.311 E1988.33690
G1 X100.811 Y78.621 E1990.34845
G1 X99.075 Y78.621 E1990.78233
G1 X95.121 Y82.575 E1992.18028
G1 X95.121 Y80.840 E1992.61416
G1 X97.340 Y78.621 E1993.39852
G1 X95.604 Y78.621 E1993.83239
G1 X95.121 Y79.104 E1994.00317
G1 Z8.400 F7800.000
G1 X104.879 Y80.324 F7800.000
G1 X103.176 Y78.621 E1994.60501 F4669.153
G1 X101.441 Y78.621 E1995.03888
G1 X104.879 Y82.059 E1996.25432
G1 X104.879 Y83.795 E1996.68820
G1 X99.705 Y78.621 E1998.51722
G1 X97.970 Y78.621 E1998.95110
G1 X104.879 Y85.530 E2001.39372
G1 X104.879 Y87.266 E2001.82759
G1 X96.234 Y78.621 E2004.88381
G1 X95.121 Y79.244 E2005.20263
G1 X104.879 Y89.001 E2008.65240
G1 X104.879 Y90.737 E2009.08627
G1 X95.121 Y80.979 E2012.53604
G1 X95.121 Y82.715 E2012.96991
G1 X104.879 Y92.472 E2016.41968
G1 X104.879 Y94.208 E2016.85355
G1 X95.121 Y84.450 E2020.30332
G1 X95.121 Y86.186 E2020.73719
G1 X104.879 Y95.943 E2024.18696
G1 X104.879 Y97.679 E2024.62083
G1 X95.121 Y87.921 E2028.07060
G1 X95.121 Y89.657 E2028.50447
G1 X104.879 Y99.414 E2031.95424
G1 X104.879 Y101.150 E2032.38811
G1 X95.121 Y91.392 E2035.83788
G1 X95.121 Y93.128 E2036.27175
G1 X104.879 Y102.885 E2039.72152
G1 X104.879 Y104.621 E2040.15539
G1 X95.121 Y94.863 E2043.60516
G1 X95.121 Y96.599 E2044.03903
G1 X104.879 Y106.356 E2047.48880
G1 X104.879 Y108.092 E2047.92267
G1 X95.121 Y98.334 E2051.37243
G1 X95.121 Y100.070 E2051.80631
G1 X104.879 Y109.827 E2055.25607
G1 X104.879 Y111.563 E2055.68995
G1 X95.121 Y101.805 E2059.13972
G1 X95.121 Y103.541 E2059.57359
G1 X104.879 Y113.298 E2063.02335
G1 X104.879 Y115.034 E2063.45723
G1 X95.121 Y105.276 E2066.90699
G1 X95.121 Y107.012 E2067.34087
G1 X104.879 Y116.769 E2070.79063
G1 X104.879 Y118.505 E2071.22451
G1 X95.121 Y108.747 E2074.67427
G1 X95.121 Y110.483 E2075.10815
G1 X104.879 Y120.240 E2078.55791
G1 X104.282 Y121.379 E2078.87931
G1 X95.121 Y112.218 E2082.11804
G1 X95.121 Y113.954 E2082.55192
G1 X102.546 Y121.379 E2085.17706
G1 X100.811 Y121.379 E2085.61093
G1 X95.121 Y115.689 E2087.62248
G1 X95.121 Y117.425 E2088.05635
G1 X99.075 Y121.379 E2089.45431
G1 X97.340 Y121.379 E2089.88819
G1 X95.121 Y119.160 E2090.67255
G1 X95.121 Y120.896 E2091.10642
G1 X95.604 Y121.379 E2091.27719
G1 Z8.800 F7800.000
G1 X103.176 Y121.379 F7800.000
G1 X104.879 Y119.676 E2091.87904 F4680.075
G1 X104.879 Y117.941 E2092.31291
G1 X101.441 Y121.379 E2093.52835
G1 X99.705 Y121.379 E2093.96222
G1 X104.879 Y116.205 E2095.79125
G1 X104.879 Y114.470 E2096.22513
G1 X97.970 Y121.379 E2098.66775
G1 X96.234 Y121.379 E2099.10162
G1 X104.879 Y112.734 E2102.15783
G1 X104.879 Y110.999 E2102.59171
G1 X95.121 Y120.756 E2106.04147
G1 X95.121 Y119.021 E2106.47535
G1 X104.879 Y109.263 E2109.92511
G1 X104.879 Y107.528 E2110.35899
G1 X95.121 Y117.285 E2113.80875
G1 X95.121 Y115.550 E2114.24263
G1 X104.879 Y105.792 E2117.69239
G1 X104.879 Y104.057 E2118.12627
G1 X95.121 Y113.814 E2121.57603
G1 X95.121 Y112.079 E2122.00991
G1 X104.879 Y102.321 E2125.45967
G1 X104.879 Y100.586 E2125.89355
G1 X95.121 Y110.343 E2129.34331
G1 X95.121 Y108.608 E2129.77719
G1 X104.879 Y98.850 E2133.22695
G1 X104.879 Y97.115 E2133.66083
G1 X95.121 Y106.872 E2137.11059
G1 X95.121 Y105.137 E2137.54447
G1 X104.879 Y95.379 E2140.99423
G1 X104.879 Y93.644 E2141.42810
G1 X95.121 Y103.401 E2144.87787
G1 X95.121 Y101.666 E2145.31174
G1 X104.879 Y91.908 E2148.76151
G1 X104.879 Y90.173 E2149.19538
G1 X95.121 Y99.930 E2152.64515
G1 X95.121 Y98.195 E2153.07902
G1 X104.879 Y88.437 E2156.52879
G1 X104.879 Y86.702 E2156.96266
G1 X95.121 Y96.459 E2160.41243
G1 X95.121 Y94.724 E2160.84630
G1 X104.879 Y84.966 E2164.29607
G1 X104.879 Y83.231 E2164.72994
G1 X95.121 Y92.988 E2168.17971
G1 X95.121 Y91.253 E2168.61358
G1 X104.879 Y81.495 E2172.06335
G1 X104.879 Y79.760 E2172.49722
G1 X95.121 Y89.517 E2175.94698
G1 X95.121 Y87.782 E2176.38086
G1 X104.282 Y78.621 E2179.61959
G1 X102.546 Y78.621 E2180.05347
G1 X95.121 Y86.046 E2182.67861
G1 X95.121 Y84.311 E2183.11248
G1 X100.811 Y78.621 E2185.12403
G1 X99.075 Y78.621 E2185.55791
G1 X95.121 Y82.575 E2186.95586
G1 X95.121 Y80.840 E2187.38974
G1 X97.340 Y78.621 E2188.17410
G1 X95.604 Y78.621 E2188.60797
G1 X95.121 Y79.104 E2188.77874
G1 Z9.200 F7800.000
G1 E2186.77874 F2400.00000
G92 E0
G1 X104.879 Y80.324 F7800.000
G1 E2.00000 F2400.00000
G1 X103.176 Y78.621 E2.60184 F4669.153
G1 X101.441 Y78.621 E3.03572
G1 X104.879 Y82.059 E4.25115
G1 X104.879 Y83.795 E4.68503
G1 X99.705 Y78.621 E6.51406
G1 X97.970 Y78.621 E6.94793
G1 X104.879 Y85.530 E9.39055
G1 X104.879 Y87.266 E9.82443
G1 X96.234 Y78.621 E12.88064
G1 X95.121 Y79.244 E13.19947
G1 X104.879 Y89.001 E16.64923
G1 X104.879 Y90.737 E17.08311
G1 X95.121 Y80.979 E20.53287
G1 X95.121 Y82.715 E20.96675
G1 X104.879 Y92.472 E24.41651
G1 X104.879 Y94.208 E24.85039
G1 X95.121 Y84.450 E28.30015
G1 X95.121 Y86.186 E28.73403
G1 X104.879 Y95.943 E32.18379
G1 X104.879 Y97.679 E32.61767
G1 X95.121 Y87.921 E36.06743
G1 X95.121 Y89.657 E36.50131
G1 X104.879 Y99.414 E39.95107
G1 X104.879 Y101.150 E40.38495
G1 X95.121 Y91.392 E43.83471
G1 X95.121 Y93.128 E44.26859
G1 X104.879 Y102.885 E47.71835
G1 X104.879 Y104.621 E48.15223
G1 X95.121 Y94.863 E51.60199
G1 X95.121 Y96.599 E52.03587
G1 X104.879 Y106.356 E55.48563
G1 X104.879 Y108.092 E55.91950
G1 X95.121 Y98.334 E59.36927
G1 X95.121 Y100.070 E59.80315
G1 X104.879 Y109.827 E63.25291
G1 X104.879 Y111.563 E63.68679
G1 X95.121 Y101.805 E67.13655
G1 X95.121 Y103.541 E67.57042
G1 X104.879 Y113.298 E71.02019
G1 X104.879 Y115.034 E71.45406
G1 X95.121 Y105.276 E74.90383
G1 X95.121 Y107.012 E75.33770
G1 X104.879 Y116.769 E78.78747
G1 X104.879 Y118.505 E79.22134
G1 X95.121 Y108.747 E82.67111
G1 X95.121 Y110.483 E83.10498
G1 X104.879 Y120.240 E86.55475
G1 X104.282 Y121.379 E86.87614
G1 X95.121 Y112.218 E90.11488
G1 X95.121 Y113.954 E90.54875
G1 X102.546 Y121.379 E93.17389
G1 X100.811 Y121.379 E93.60777
G1 X95.121 Y115.689 E95.61931
G1 X95.121 Y117.425 E96.05319
G1 X99.075 Y121.379 E97.45114
G1 X97.340 Y121.379 E97.88502
G1 X95.121 Y119.160 E98.66938
G1 X95.121 Y120.896 E99.10326
G1 X95.604 Y121.379 E99.27403
G1 E97.27403 F2400.00000
G92 E0
M107
M104 S0 ; turn off temperature
G28 X0  ; home X axis
M84     ; disable motors

; filament used = 2284.1mm (1.8cm3)

; avoid_crossing_perimeters = 0
; bed_shape = 0x0,200x0,200x200,0x200
; bed_temperature = 0
; before_layer_gcode = 
; bridge_acceleration = 0
; bridge_fan_speed = 100
; brim_width = 0
; complete_objects = 0
; cooling = 1
; default_acceleration = 0
; disable_fan_first_layers = 3
; duplicate_distance = 6
; end_gcode = M104 S0 ; turn off temperature\nG28 X0  ; home X axis\nM84     ; disable motors\n
; extruder_clearance_height = 20
; extruder_clearance_radius = 20
; extruder_offset = 0x0
; extrusion_axis = E
; extrusion_multiplier = 1
; fan_always_on = 0
; fan_below_layer_time = 60
; filament_colour = #FFFFFF
; filament_diameter = 1
; first_layer_acceleration = 0
; first_layer_bed_temperature = 0
; first_layer_extrusion_width = 200%
; first_layer_speed = 30
; first_layer_temperature = 200
; gcode_arcs = 0
; gcode_comments = 0
; gcode_flavor = reprap
; infill_acceleration = 0
; infill_first = 0
; layer_gcode = 
; max_fan_speed = 100
; max_print_speed = 80
; max_volumetric_speed = 0
; min_fan_speed = 35
; min_print_speed = 10
; min_skirt_length = 0
; notes = 
; nozzle_diameter = 0.5
; only_retract_when_crossing_perimeters = 1
; ooze_prevention = 0
; output_filename_format = [input_filename_base].gcode
; perimeter_acceleration = 0
; post_process = 
; pressure_advance = 0
; resolution = 0
; retract_before_travel = 2
; retract_layer_change = 0
; retract_length = 2
; retract_length_toolchange = 10
; retract_lift = 0
; retract_restart_extra = 0
; retract_restart_extra_toolchange = 0
; retract_speed = 40
; skirt_distance = 6
; skirt_height = 1
; skirts = 0
; slowdown_below_layer_time = 5
; spiral_vase = 0
; standby_temperature_delta = -5
; start_gcode = G28 ; home all axes\nG1 Z5 F5000 ; lift nozzle\n
; temperature = 200
; threads = 2
; toolchange_gcode = 
; travel_speed = 130
; use_firmware_retraction = 0
; use_relative_e_distances = 0
; use_volumetric_e = 0
; vibration_limit = 0
; wipe = 0
; z_offset = 0
; dont_support_bridges = 1
; extrusion_width = 0
; first_layer_height = 0.4
; infill_only_where_needed = 0
; interface_shells = 0
; layer_height = 0.4
; raft_layers = 0
; seam_position = aligned
; support_material = 0
; support_material_angle = 0
; support_material_contact_distance = 0.2
; support_material_enforce_layers = 0
; support_material_extruder = 1
; support_material_extrusion_width = 0
; support_material_interface_extruder = 1
; support_material_interface_layers = 3
; support_material_interface_spacing = 0
; support_material_interface_speed = 100%
; support_material_pattern = pillars
; support_material_spacing = 2.5
; support_material_speed = 60
; support_material_threshold = 0
; xy_size_compensation = 0
; bottom_solid_layers = 0
; bridge_flow_ratio = 1
; bridge_speed = 60
; external_fill_pattern = rectilinear
; external_perimeter_extrusion_width = 0
; external_perimeter_speed = 50%
; external_perimeters_first = 0
; extra_perimeters = 1
; fill_angle = 45
; fill_density = 40%
; fill_pattern = rectilinear
; gap_fill_speed = 20
; infill_every_layers = 1
; infill_extruder = 1
; infill_extrusion_width = 0
; infill_overlap = 15%
; infill_speed = 80
; overhangs = 1
; perimeter_extruder = 1
; perimeter_extrusion_width = 0
; perimeter_speed = 60
; perimeters = 0
; small_perimeter_speed = 15
; solid_infill_below_area = 70
; solid_infill_every_layers = 0
; solid_infill_extruder = 1
; solid_infill_extrusion_width = 0
; solid_infill_speed = 20
; thin_walls = 1
; top_infill_extrusion_width = 0
; top_solid_infill_speed = 15
; top_solid_layers = 0
