; generated by Slic3r 1.2.9 on 2019-08-20 at 10:51:49

; external perimeters extrusion width = 0.50mm
; perimeters extrusion width = 0.58mm
; infill extrusion width = 0.58mm
; solid infill extrusion width = 0.58mm
; top infill extrusion width = 0.58mm

M107
M104 S200 ; set temperature
G28 ; home all axes
G1 Z5 F5000 ; lift nozzle

M109 S200 ; wait for temperature to be reached
G21 ; set units to millimeters
G90 ; use absolute coordinates
M82 ; use absolute distances for extrusion
G92 E0
G1 Z0.400 F7800.000
G1 E-2.00000 F2400.00000
G92 E0
G1 X104.879 Y80.324 F7800.000
G1 E2.00000 F2400.00000
G1 X103.176 Y78.621 E2.87563 F1800.000
G1 X99.705 Y78.621 E4.13810
G1 X104.879 Y83.795 E6.79913
G1 X104.879 Y87.266 E8.06160
G1 X96.234 Y78.621 E12.50803
G1 X95.121 Y80.979 E13.45640
G1 X104.879 Y90.737 E18.47540
G1 X104.879 Y94.208 E19.73786
G1 X95.121 Y84.450 E24.75687
G1 X95.121 Y87.921 E26.01933
G1 X104.879 Y97.679 E31.03833
G1 X104.879 Y101.150 E32.30080
G1 X95.121 Y91.392 E37.31980
G1 X95.121 Y94.863 E38.58227
G1 X104.879 Y104.621 E43.60127
G1 X104.879 Y108.092 E44.86374
G1 X95.121 Y98.334 E49.88274
G1 X95.121 Y101.805 E51.14521
G1 X104.879 Y111.563 E56.16421
G1 X104.879 Y115.034 E57.42668
G1 X95.121 Y105.276 E62.44568
G1 X95.121 Y108.747 E63.70815
G1 X104.879 Y118.505 E68.72715
G1 X104.282 Y121.379 E69.79482
G1 X95.121 Y112.218 E74.50680
G1 X95.121 Y115.689 E75.76927
G1 X100.811 Y121.379 E78.69585
G1 X97.340 Y121.379 E79.95832
G1 X95.121 Y119.160 E81.09950
G1 Z0.800 F7800.000
G1 X103.176 Y121.379 F7800.000
G1 X104.879 Y119.676 E81.70136 F2626.485
G1 X104.879 Y116.205 E82.56911
G1 X99.705 Y121.379 E84.39816
G1 X96.234 Y121.379 E85.26591
G1 X104.879 Y112.734 E88.32214
G1 X104.879 Y109.263 E89.18989
G1 X95.121 Y119.021 E92.63968
G1 X95.121 Y115.550 E93.50743
G1 X104.879 Y105.792 E96.95721
G1 X104.879 Y102.321 E97.82496
G1 X95.121 Y112.079 E101.27475
G1 X95.121 Y108.608 E102.14250
G1 X104.879 Y98.850 E105.59229
G1 X104.879 Y95.379 E106.46004
G1 X95.121 Y105.137 E109.90982
G1 X95.121 Y101.666 E110.77757
G1 X104.879 Y91.908 E114.22736
G1 X104.879 Y88.437 E115.09511
G1 X95.121 Y98.195 E118.54490
G1 X95.121 Y94.724 E119.41265
G1 X104.879 Y84.966 E122.86243
G1 X104.879 Y81.495 E123.73018
G1 X95.121 Y91.253 E127.17997
G1 X95.121 Y87.782 E128.04772
G1 X104.282 Y78.621 E131.28648
G1 X100.811 Y78.621 E132.15423
G1 X95.121 Y84.311 E134.16580
G1 X95.121 Y80.840 E135.03355
G1 X97.340 Y78.621 E135.81793
G1 Z1.200 F7800.000
G1 X104.879 Y80.324 F7800.000
G1 X103.176 Y78.621 E136.41980 F2609.695
G1 X99.705 Y78.621 E137.28755
G1 X104.879 Y83.795 E139.11659
G1 X104.879 Y87.266 E139.98435
G1 X96.234 Y78.621 E143.04058
G1 X95.121 Y80.979 E143.69243
G1 X104.879 Y90.737 E147.14222
G1 X104.879 Y94.208 E148.00997
G1 X95.121 Y84.450 E151.45975
G1 X95.121 Y87.921 E152.32750
G1 X104.879 Y97.679 E155.77729
G1 X104.879 Y101.150 E156.64504
G1 X95.121 Y91.392 E160.09482
G1 X95.121 Y94.863 E160.96257
G1 X104.879 Y104.621 E164.41236
G1 X104.879 Y108.092 E165.28011
G1 X95.121 Y98.334 E168.72990
G1 X95.121 Y101.805 E169.59765
G1 X104.879 Y111.563 E173.04743
G1 X104.879 Y115.034 E173.91518
G1 X95.121 Y105.276 E177.36497
G1 X95.121 Y108.747 E178.23272
G1 X104.879 Y118.505 E181.68251
G1 X104.282 Y121.379 E182.41637
G1 X95.121 Y112.218 E185.65512
G1 X95.121 Y115.689 E186.52287
G1 X100.811 Y121.379 E188.53444
G1 X97.340 Y121.379 E189.40219
G1 X95.121 Y119.160 E190.18658
M106 S255
G1 Z1.600 F7800.000
G1 X103.176 Y121.379 F7800.000
G1 X104.879 Y119.676 E190.78844 F2626.485
G1 X104.879 Y116.205 E191.65619
G1 X99.705 Y121.379 E193.48524
G1 X96.234 Y121.379 E194.35299
G1 X104.879 Y112.734 E197.40922
G1 X104.879 Y109.263 E198.27697
G1 X95.121 Y119.021 E201.72676
G1 X95.121 Y115.550 E202.59451
G1 X104.879 Y105.792 E206.04429
G1 X104.879 Y102.321 E206.91204
G1 X95.121 Y112.079 E210.36183
G1 X95.121 Y108.608 E211.22958
G1 X104.879 Y98.850 E214.67937
G1 X104.879 Y95.379 E215.54712
G1 X95.121 Y105.137 E218.99690
G1 X95.121 Y101.666 E219.86465
G1 X104.879 Y91.908 E223.31444
G1 X104.879 Y88.437 E224.18219
G1 X95.121 Y98.195 E227.63198
G1 X95.121 Y94.724 E228.49973
G1 X104.879 Y84.966 E231.94951
G1 X104.879 Y81.495 E232.81726
G1 X95.121 Y91.253 E236.26705
G1 X95.121 Y87.782 E237.13480
G1 X104.282 Y78.621 E240.37356
G1 X100.811 Y78.621 E241.24131
G1 X95.121 Y84.311 E243.25288
G1 X95.121 Y80.840 E244.12063
G1 X97.340 Y78.621 E244.90501
G1 Z2.000 F7800.000
G1 X104.879 Y80.324 F7800.000
G1 X103.176 Y78.621 E245.50688 F2609.695
G1 X99.705 Y78.621 E246.37463
G1 X104.879 Y83.795 E248.20367
G1 X104.879 Y87.266 E249.07143
G1 X96.234 Y78.621 E252.12766
G1 X95.121 Y80.979 E252.77951
G1 X104.879 Y90.737 E256.22930
G1 X104.879 Y94.208 E257.09705
G1 X95.121 Y84.450 E260.54683
G1 X95.121 Y87.921 E261.41458
G1 X104.879 Y97.679 E264.86437
G1 X104.879 Y101.150 E265.73212
G1 X95.121 Y91.392 E269.18190
G1 X95.121 Y94.863 E270.04966
G1 X104.879 Y104.621 E273.49944
G1 X104.879 Y108.092 E274.36719
G1 X95.121 Y98.334 E277.81698
G1 X95.121 Y101.805 E278.68473
G1 X104.879 Y111.563 E282.13451
G1 X104.879 Y115.034 E283.00226
G1 X95.121 Y105.276 E286.45205
G1 X95.121 Y108.747 E287.31980
G1 X104.879 Y118.505 E290.76959
G1 X104.282 Y121.379 E291.50345
G1 X95.121 Y112.218 E294.74220
G1 X95.121 Y115.689 E295.60995
G1 X100.811 Y121.379 E297.62152
G1 X97.340 Y121.379 E298.48927
G1 X95.121 Y119.160 E299.27366
G1 Z2.400 F7800.000
G1 X103.176 Y121.379 F7800.000
G1 X104.879 Y119.676 E299.87552 F2626.485
G1 X104.879 Y116.205 E300.74327
G1 X99.705 Y121.379 E302.57232
G1 X96.234 Y121.379 E303.44007
G1 X104.879 Y112.734 E306.49630
G1 X104.879 Y109.263 E307.36405
G1 X95.121 Y119.021 E310.81384
G1 X95.121 Y115.550 E311.68159
G1 X104.879 Y105.792 E315.13137
G1 X104.879 Y102.321 E315.99912
G1 X95.121 Y112.079 E319.44891
G1 X95.121 Y108.608 E320.31666
G1 X104.879 Y98.850 E323.76645
G1 X104.879 Y95.379 E324.63420
G1 X95.121 Y105.137 E328.08398
G1 X95.121 Y101.666 E328.95174
G1 X104.879 Y91.908 E332.40152
G1 X104.879 Y88.437 E333.26927
G1 X95.121 Y98.195 E336.71906
G1 X95.121 Y94.724 E337.58681
G1 X104.879 Y84.966 E341.03659
G1 X104.879 Y81.495 E341.90435
G1 X95.121 Y91.253 E345.35413
G1 X95.121 Y87.782 E346.22188
G1 X104.282 Y78.621 E349.46064
G1 X100.811 Y78.621 E350.32839
G1 X95.121 Y84.311 E352.33996
G1 X95.121 Y80.840 E353.20771
G1 X97.340 Y78.621 E353.99209
G1 Z2.800 F7800.000
G1 X104.879 Y80.324 F7800.000
G1 X103.176 Y78.621 E354.59396 F2609.695
G1 X99.705 Y78.621 E355.46171
G1 X104.879 Y83.795 E357.29076
G1 X104.879 Y87.266 E358.15851
G1 X96.234 Y78.621 E361.21474
G1 X95.121 Y80.979 E361.86659
G1 X104.879 Y90.737 E365.31638
G1 X104.879 Y94.208 E366.18413
G1 X95.121 Y84.450 E369.63391
G1 X95.121 Y87.921 E370.50166
G1 X104.879 Y97.679 E373.95145
G1 X104.879 Y101.150 E374.81920
G1 X95.121 Y91.392 E378.26898
G1 X95.121 Y94.863 E379.13674
G1 X104.879 Y104.621 E382.58652
G1 X104.879 Y108.092 E383.45427
G1 X95.121 Y98.334 E386.90406
G1 X95.121 Y101.805 E387.77181
G1 X104.879 Y111.563 E391.22159
G1 X104.879 Y115.034 E392.08934
G1 X95.121 Y105.276 E395.53913
G1 X95.121 Y108.747 E396.40688
G1 X104.879 Y118.505 E399.85667
G1 X104.282 Y121.379 E400.59053
G1 X95.121 Y112.218 E403.82928
G1 X95.121 Y115.689 E404.69703
G1 X100.811 Y121.379 E406.70860
G1 X97.340 Y121.379 E407.57635
G1 X95.121 Y119.160 E408.36074
G1 Z3.200 F7800.000
G1 X103.176 Y121.379 F7800.000
G1 X104.879 Y119.676 E408.96260 F2626.485
G1 X104.879 Y116.205 E409.83035
G1 X99.705 Y121.379 E411.65940
G1 X96.234 Y121.379 E412.52715
G1 X104.879 Y112.734 E415.58338
G1 X104.879 Y109.263 E416.45113
G1 X95.121 Y119.021 E419.90092
G1 X95.121 Y115.550 E420.76867
G1 X104.879 Y105.792 E424.21845
G1 X104.879 Y102.321 E425.08621
G1 X95.121 Y112.079 E428.53599
G1 X95.121 Y108.608 E429.40374
G1 X104.879 Y98.850 E432.85353
G1 X104.879 Y95.379 E433.72128
G1 X95.121 Y105.137 E437.17106
G1 X95.121 Y101.666 E438.03882
G1 X104.879 Y91.908 E441.48860
G1 X104.879 Y88.437 E442.35635
G1 X95.121 Y98.195 E445.80614
G1 X95.121 Y94.724 E446.67389
G1 X104.879 Y84.966 E450.12367
G1 X104.879 Y81.495 E450.99143
G1 X95.121 Y91.253 E454.44121
G1 X95.121 Y87.782 E455.30896
G1 X104.282 Y78.621 E458.54772
G1 X100.811 Y78.621 E459.41547
G1 X95.121 Y84.311 E461.42704
G1 X95.121 Y80.840 E462.29479
G1 X97.340 Y78.621 E463.07917
G1 Z3.600 F7800.000
G1 X104.879 Y80.324 F7800.000
G1 X103.176 Y78.621 E463.68104 F2609.695
G1 X99.705 Y78.621 E464.54879
G1 X104.879 Y83.795 E466.37784
G1 X104.879 Y87.266 E467.24559
G1 X96.234 Y78.621 E470.30182
G1 X95.121 Y80.979 E470.95367
G1 X104.879 Y90.737 E474.40346
G1 X104.879 Y94.208 E475.27121
G1 X95.121 Y84.450 E478.72099
G1 X95.121 Y87.921 E479.58874
G1 X104.879 Y97.679 E483.03853
G1 X104.879 Y101.150 E483.90628
G1 X95.121 Y91.392 E487.35607
G1 X95.121 Y94.863 E488.22382
G1 X104.879 Y104.621 E491.67360
G1 X104.879 Y108.092 E492.54135
G1 X95.121 Y98.334 E495.99114
G1 X95.121 Y101.805 E496.85889
G1 X104.879 Y111.563 E500.30867
G1 X104.879 Y115.034 E501.17642
G1 X95.121 Y105.276 E504.62621
G1 X95.121 Y108.747 E505.49396
G1 X104.879 Y118.505 E508.94375
G1 X104.282 Y121.379 E509.67761
G1 X95.121 Y112.218 E512.91636
G1 X95.121 Y115.689 E513.78411
G1 X100.811 Y121.379 E515.79568
G1 X97.340 Y121.379 E516.66343
G1 X95.121 Y119.160 E517.44782
G1 Z4.000 F7800.000
G1 X103.176 Y121.379 F7800.000
G1 X104.879 Y119.676 E518.04968 F2626.485
G1 X104.879 Y116.205 E518.91743
G1 X99.705 Y121.379 E520.74648
G1 X96.234 Y121.379 E521.61423
G1 X104.879 Y112.734 E524.67046
G1 X104.879 Y109.263 E525.53821
G1 X95.121 Y119.021 E528.98800
G1 X95.121 Y115.550 E529.85575
G1 X104.879 Y105.792 E533.30554
G1 X104.879 Y102.321 E534.17329
G1 X95.121 Y112.079 E537.62307
G1 X95.121 Y108.608 E538.49082
G1 X104.879 Y98.850 E541.94061
G1 X104.879 Y95.379 E542.80836
G1 X95.121 Y105.137 E546.25815
G1 X95.121 Y101.666 E547.12590
G1 X104.879 Y91.908 E550.57568
G1 X104.879 Y88.437 E551.44343
G1 X95.121 Y98.195 E554.89322
G1 X95.121 Y94.724 E555.76097
G1 X104.879 Y84.966 E559.21075
G1 X104.879 Y81.495 E560.07851
G1 X95.121 Y91.253 E563.52829
G1 X95.121 Y87.782 E564.39604
G1 X104.282 Y78.621 E567.63480
G1 X100.811 Y78.621 E568.50255
G1 X95.121 Y84.311 E570.51412
G1 X95.121 Y80.840 E571.38187
G1 X97.340 Y78.621 E572.16626
G1 Z4.400 F7800.000
G1 X104.879 Y80.324 F7800.000
G1 X103.176 Y78.621 E572.76812 F2609.695
G1 X99.705 Y78.621 E573.63587
G1 X104.879 Y83.795 E575.46492
G1 X104.879 Y87.266 E576.33267
G1 X96.234 Y78.621 E579.38890
G1 X95.121 Y80.979 E580.04075
G1 X104.879 Y90.737 E583.49054
G1 X104.879 Y94.208 E584.35829
G1 X95.121 Y84.450 E587.80807
G1 X95.121 Y87.921 E588.67582
G1 X104.879 Y97.679 E592.12561
G1 X104.879 Y101.150 E592.99336
G1 X95.121 Y91.392 E596.44315
G1 X95.121 Y94.863 E597.31090
G1 X104.879 Y104.621 E600.76068
G1 X104.879 Y108.092 E601.62843
G1 X95.121 Y98.334 E605.07822
G1 X95.121 Y101.805 E605.94597
G1 X104.879 Y111.563 E609.39575
G1 X104.879 Y115.034 E610.26350
G1 X95.121 Y105.276 E613.71329
G1 X95.121 Y108.747 E614.58104
G1 X104.879 Y118.505 E618.03083
G1 X104.282 Y121.379 E618.76469
G1 X95.121 Y112.218 E622.00344
G1 X95.121 Y115.689 E622.87119
G1 X100.811 Y121.379 E624.88276
G1 X97.340 Y121.379 E625.75051
G1 X95.121 Y119.160 E626.53490
G1 Z4.800 F7800.000
G1 X103.176 Y121.379 F7800.000
G1 X104.879 Y119.676 E627.13676 F2626.485
G1 X104.879 Y116.205 E628.00451
G1 X99.705 Y121.379 E629.83356
G1 X96.234 Y121.379 E630.70131
G1 X104.879 Y112.734 E633.75754
G1 X104.879 Y109.263 E634.62529
G1 X95.121 Y119.021 E638.07508
G1 X95.121 Y115.550 E638.94283
G1 X104.879 Y105.792 E642.39262
G1 X104.879 Y102.321 E643.26037
G1 X95.121 Y112.079 E646.71015
G1 X95.121 Y108.608 E647.57790
G1 X104.879 Y98.850 E651.02769
G1 X104.879 Y95.379 E651.89544
G1 X95.121 Y105.137 E655.34523
G1 X95.121 Y101.666 E656.21298
G1 X104.879 Y91.908 E659.66276
G1 X104.879 Y88.437 E660.53051
G1 X95.121 Y98.195 E663.98030
G1 X95.121 Y94.724 E664.84805
G1 X104.879 Y84.966 E668.29784
G1 X104.879 Y81.495 E669.16559
G1 X95.121 Y91.253 E672.61537
G1 X95.121 Y87.782 E673.48312
G1 X104.282 Y78.621 E676.72188
G1 X100.811 Y78.621 E677.58963
G1 X95.121 Y84.311 E679.60120
G1 X95.121 Y80.840 E680.46895
G1 X97.340 Y78.621 E681.25334
G1 Z5.200 F7800.000
G1 X104.879 Y80.324 F7800.000
G1 X103.176 Y78.621 E681.85520 F2609.695
G1 X99.705 Y78.621 E682.72295
G1 X104.879 Y83.795 E684.55200
G1 X104.879 Y87.266 E685.41975
G1 X96.234 Y78.621 E688.47598
G1 X95.121 Y80.979 E689.12783
G1 X104.879 Y90.737 E692.57762
G1 X104.879 Y94.208 E693.44537
G1 X95.121 Y84.450 E696.89515
G1 X95.121 Y87.921 E697.76290
G1 X104.879 Y97.679 E701.21269
G1 X104.879 Y101.150 E702.08044
G1 X95.121 Y91.392 E705.53023
G1 X95.121 Y94.863 E706.39798
G1 X104.879 Y104.621 E709.84776
G1 X104.879 Y108.092 E710.71551
G1 X95.121 Y98.334 E714.16530
G1 X95.121 Y101.805 E715.03305
G1 X104.879 Y111.563 E718.48283
G1 X104.879 Y115.034 E719.35059
G1 X95.121 Y105.276 E722.80037
G1 X95.121 Y108.747 E723.66812
G1 X104.879 Y118.505 E727.11791
G1 X104.282 Y121.379 E727.85177
G1 X95.121 Y112.218 E731.09052
G1 X95.121 Y115.689 E731.95827
G1 X100.811 Y121.379 E733.96984
G1 X97.340 Y121.379 E734.83759
G1 X95.121 Y119.160 E735.62198
G1 Z5.600 F7800.000
G1 X103.176 Y121.379 F7800.000
G1 X104.879 Y119.676 E736.22384 F2626.485
G1 X104.879 Y116.205 E737.09159
G1 X99.705 Y121.379 E738.92064
G1 X96.234 Y121.379 E739.78839
G1 X104.879 Y112.734 E742.84462
G1 X104.879 Y109.263 E743.71237
G1 X95.121 Y119.021 E747.16216
G1 X95.121 Y115.550 E748.02991
G1 X104.879 Y105.792 E751.47970
G1 X104.879 Y102.321 E752.34745
G1 X95.121 Y112.079 E755.79723
G1 X95.121 Y108.608 E756.66498
G1 X104.879 Y98.850 E760.11477
G1 X104.879 Y95.379 E760.98252
G1 X95.121 Y105.137 E764.43231
G1 X95.121 Y101.666 E765.30006
G1 X104.879 Y91.908 E768.74984
G1 X104.879 Y88.437 E769.61759
G1 X95.121 Y98.195 E773.06738
G1 X95.121 Y94.724 E773.93513
G1 X104.879 Y84.966 E777.38492
G1 X104.879 Y81.495 E778.25267
G1 X95.121 Y91.253 E781.70245
G1 X95.121 Y87.782 E782.57020
G1 X104.282 Y78.621 E785.80896
G1 X100.811 Y78.621 E786.67671
G1 X95.121 Y84.311 E788.68828
G1 X95.121 Y80.840 E789.55603
G1 X97.340 Y78.621 E790.34042
G1 Z6.000 F7800.000
G1 X104.879 Y80.324 F7800.000
G1 X103.176 Y78.621 E790.94228 F2609.695
G1 X99.705 Y78.621 E791.81003
G1 X104.879 Y83.795 E793.63908
G1 X104.879 Y87.266 E794.50683
G1 X96.234 Y78.621 E797.56306
G1 X95.121 Y80.979 E798.21491
G1 X104.879 Y90.737 E801.66470
G1 X104.879 Y94.208 E802.53245
G1 X95.121 Y84.450 E805.98223
G1 X95.121 Y87.921 E806.84998
G1 X104.879 Y97.679 E810.29977
G1 X104.879 Y101.150 E811.16752
G1 X95.121 Y91.392 E814.61731
G1 X95.121 Y94.863 E815.48506
G1 X104.879 Y104.621 E818.93484
G1 X104.879 Y108.092 E819.80259
G1 X95.121 Y98.334 E823.25238
G1 X95.121 Y101.805 E824.12013
G1 X104.879 Y111.563 E827.56991
G1 X104.879 Y115.034 E828.43767
G1 X95.121 Y105.276 E831.88745
G1 X95.121 Y108.747 E832.75520
G1 X104.879 Y118.505 E836.20499
G1 X104.282 Y121.379 E836.93885
G1 X95.121 Y112.218 E840.17760
G1 X95.121 Y115.689 E841.04535
G1 X100.811 Y121.379 E843.05692
G1 X97.340 Y121.379 E843.92467
G1 X95.121 Y119.160 E844.70906
G1 Z6.400 F7800.000
G1 X103.176 Y121.379 F7800.000
G1 X104.879 Y119.676 E845.31092 F2626.485
G1 X104.879 Y116.205 E846.17867
G1 X99.705 Y121.379 E848.00772
G1 X96.234 Y121.379 E848.87547
G1 X104.879 Y112.734 E851.93170
G1 X104.879 Y109.263 E852.79945
G1 X95.121 Y119.021 E856.24924
G1 X95.121 Y115.550 E857.11699
G1 X104.879 Y105.792 E860.56678
G1 X104.879 Y102.321 E861.43453
G1 X95.121 Y112.079 E864.88431
G1 X95.121 Y108.608 E865.75206
G1 X104.879 Y98.850 E869.20185
G1 X104.879 Y95.379 E870.06960
G1 X95.121 Y105.137 E873.51939
G1 X95.121 Y101.666 E874.38714
G1 X104.879 Y91.908 E877.83692
G1 X104.879 Y88.437 E878.70467
G1 X95.121 Y98.195 E882.15446
G1 X95.121 Y94.724 E883.02221
G1 X104.879 Y84.966 E886.47200
G1 X104.879 Y81.495 E887.33975
G1 X95.121 Y91.253 E890.78953
G1 X95.121 Y87.782 E891.65728
G1 X104.282 Y78.621 E894.89604
G1 X100.811 Y78.621 E895.76379
G1 X95.121 Y84.311 E897.77536
G1 X95.121 Y80.840 E898.64311
G1 X97.340 Y78.621 E899.42750
G1 Z6.800 F7800.000
G1 X104.879 Y80.324 F7800.000
G1 X103.176 Y78.621 E900.02936 F2609.695
G1 X99.705 Y78.621 E900.89711
G1 X104.879 Y83.795 E902.72616
G1 X104.879 Y87.266 E903.59391
G1 X96.234 Y78.621 E906.65014
G1 X95.121 Y80.979 E907.30199
G1 X104.879 Y90.737 E910.75178
G1 X104.879 Y94.208 E911.61953
G1 X95.121 Y84.450 E915.06931
G1 X95.121 Y87.921 E915.93706
G1 X104.879 Y97.679 E919.38685
G1 X104.879 Y101.150 E920.25460
G1 X95.121 Y91.392 E923.70439
G1 X95.121 Y94.863 E924.57214
G1 X104.879 Y104.621 E928.02192
G1 X104.879 Y108.092 E928.88967
G1 X95.121 Y98.334 E932.33946
G1 X95.121 Y101.805 E933.20721
G1 X104.879 Y111.563 E936.65700
G1 X104.879 Y115.034 E937.52475
G1 X95.121 Y105.276 E940.97453
G1 X95.121 Y108.747 E941.84228
G1 X104.879 Y118.505 E945.29207
G1 X104.282 Y121.379 E946.02593
G1 X95.121 Y112.218 E949.26468
G1 X95.121 Y115.689 E950.13243
G1 X100.811 Y121.379 E952.14400
G1 X97.340 Y121.379 E953.01175
G1 X95.121 Y119.160 E953.79614
G1 Z7.200 F7800.000
G1 X103.176 Y121.379 F7800.000
G1 X104.879 Y119.676 E954.39800 F2626.485
G1 X104.879 Y116.205 E955.26575
G1 X99.705 Y121.379 E957.09480
G1 X96.234 Y121.379 E957.96255
G1 X104.879 Y112.734 E961.01878
G1 X104.879 Y109.263 E961.88653
G1 X95.121 Y119.021 E965.33632
G1 X95.121 Y115.550 E966.20407
G1 X104.879 Y105.792 E969.65386
G1 X104.879 Y102.321 E970.52161
G1 X95.121 Y112.079 E973.97139
G1 X95.121 Y108.608 E974.83914
G1 X104.879 Y98.850 E978.28893
G1 X104.879 Y95.379 E979.15668
G1 X95.121 Y105.137 E982.60647
G1 X95.121 Y101.666 E983.47422
G1 X104.879 Y91.908 E986.92400
G1 X104.879 Y88.437 E987.79175
G1 X95.121 Y98.195 E991.24154
G1 X95.121 Y94.724 E992.10929
G1 X104.879 Y84.966 E995.55908
G1 X104.879 Y81.495 E996.42683
G1 X95.121 Y91.253 E999.87661
G1 X95.121 Y87.782 E1000.74436
G1 X104.282 Y78.621 E1003.98312
G1 X100.811 Y78.621 E1004.85087
G1 X95.121 Y84.311 E1006.86244
G1 X95.121 Y80.840 E1007.73019
G1 X97.340 Y78.621 E1008.51458
G1 Z7.600 F7800.000
G1 X104.879 Y80.324 F7800.000
G1 X103.176 Y78.621 E1009.11644 F2609.695
G1 X99.705 Y78.621 E1009.98419
G1 X104.879 Y83.795 E1011.81324
G1 X104.879 Y87.266 E1012.68099
G1 X96.234 Y78.621 E1015.73722
G1 X95.121 Y80.979 E1016.38907
G1 X104.879 Y90.737 E1019.83886
G1 X104.879 Y94.208 E1020.70661
G1 X95.121 Y84.450 E1024.15639
G1 X95.121 Y87.921 E1025.02414
G1 X104.879 Y97.679 E1028.47393
G1 X104.879 Y101.150 E1029.34168
G1 X95.121 Y91.392 E1032.79147
G1 X95.121 Y94.863 E1033.65922
G1 X104.879 Y104.621 E1037.10900
G1 X104.879 Y108.092 E1037.97675
G1 X95.121 Y98.334 E1041.42654
G1 X95.121 Y101.805 E1042.29429
G1 X104.879 Y111.563 E1045.74408
G1 X104.879 Y115.034 E1046.61183
G1 X95.121 Y105.276 E1050.06161
G1 X95.121 Y108.747 E1050.92936
G1 X104.879 Y118.505 E1054.37915
G1 X104.282 Y121.379 E1055.11301
G1 X95.121 Y112.218 E1058.35176
G1 X95.121 Y115.689 E1059.21951
G1 X100.811 Y121.379 E1061.23108
G1 X97.340 Y121.379 E1062.09883
G1 X95.121 Y119.160 E1062.88322
G1 Z8.000 F7800.000
G1 X103.176 Y121.379 F7800.000
G1 X104.879 Y119.676 E1063.48508 F2626.485
G1 X104.879 Y116.205 E1064.35283
G1 X99.705 Y121.379 E1066.18188
G1 X96.234 Y121.379 E1067.04963
G1 X104.879 Y112.734 E1070.10586
G1 X104.879 Y109.263 E1070.97361
G1 X95.121 Y119.021 E1074.42340
G1 X95.121 Y115.550 E1075.29115
G1 X104.879 Y105.792 E1078.74094
G1 X104.879 Y102.321 E1079.60869
G1 X95.121 Y112.079 E1083.05847
G1 X95.121 Y108.608 E1083.92622
G1 X104.879 Y98.850 E1087.37601
G1 X104.879 Y95.379 E1088.24376
G1 X95.121 Y105.137 E1091.69355
G1 X95.121 Y101.666 E1092.56130
G1 X104.879 Y91.908 E1096.01108
G1 X104.879 Y88.437 E1096.87883
G1 X95.121 Y98.195 E1100.32862
G1 X95.121 Y94.724 E1101.19637
G1 X104.879 Y84.966 E1104.64616
G1 X104.879 Y81.495 E1105.51391
G1 X95.121 Y91.253 E1108.96369
G1 X95.121 Y87.782 E1109.83144
G1 X104.282 Y78.621 E1113.07020
G1 X100.811 Y78.621 E1113.93795
G1 X95.121 Y84.311 E1115.94952
G1 X95.121 Y80.840 E1116.81727
G1 X97.340 Y78.621 E1117.60166
G1 Z8.400 F7800.000
G1 X104.879 Y80.324 F7800.000
G1 X103.176 Y78.621 E1118.20352 F2609.695
G1 X99.705 Y78.621 E1119.07127
G1 X104.879 Y83.795 E1120.90032
G1 X104.879 Y87.266 E1121.76807
G1 X96.234 Y78.621 E1124.82430
G1 X95.121 Y80.979 E1125.47615
G1 X104.879 Y90.737 E1128.92594
G1 X104.879 Y94.208 E1129.79369
G1 X95.121 Y84.450 E1133.24347
G1 X95.121 Y87.921 E1134.11122
G1 X104.879 Y97.679 E1137.56101
G1 X104.879 Y101.150 E1138.42876
G1 X95.121 Y91.392 E1141.87855
G1 X95.121 Y94.863 E1142.74630
G1 X104.879 Y104.621 E1146.19608
G1 X104.879 Y108.092 E1147.06383
G1 X95.121 Y98.334 E1150.51362
G1 X95.121 Y101.805 E1151.38137
G1 X104.879 Y111.563 E1154.83116
G1 X104.879 Y115.034 E1155.69891
G1 X95.121 Y105.276 E1159.14869
G1 X95.121 Y108.747 E1160.01644
G1 X104.879 Y118.505 E1163.46623
G1 X104.282 Y121.379 E1164.20009
G1 X95.121 Y112.218 E1167.43884
G1 X95.121 Y115.689 E1168.30659
G1 X100.811 Y121.379 E1170.31816
G1 X97.340 Y121.379 E1171.18591
G1 X95.121 Y119.160 E1171.97030
G1 Z8.800 F7800.000
G1 X103.176 Y121.379 F7800.000
G1 X104.879 Y119.676 E1172.57216 F2626.485
G1 X104.879 Y116.205 E1173.43991
G1 X99.705 Y121.379 E1175.26896
G1 X96.234 Y121.379 E1176.13671
G1 X104.879 Y112.734 E1179.19294
G1 X104.879 Y109.263 E1180.06069
G1 X95.121 Y119.021 E1183.51048
G1 X95.121 Y115.550 E1184.37823
G1 X104.879 Y105.792 E1187.82802
G1 X104.879 Y102.321 E1188.69577
G1 X95.121 Y112.079 E1192.14555
G1 X95.121 Y108.608 E1193.01330
G1 X104.879 Y98.850 E1196.46309
G1 X104.879 Y95.379 E1197.33084
G1 X95.121 Y105.137 E1200.78063
G1 X95.121 Y101.666 E1201.64838
G1 X104.879 Y91.908 E1205.09816
G1 X104.879 Y88.437 E1205.96591
G1 X95.121 Y98.195 E1209.41570
G1 X95.121 Y94.724 E1210.28345
G1 X104.879 Y84.966 E1213.73324
G1 X104.879 Y81.495 E1214.60099
G1 X95.121 Y91.253 E1218.05077
G1 X95.121 Y87.782 E1218.91852
G1 X104.282 Y78.621 E1222.15728
G1 X100.811 Y78.621 E1223.02503
G1 X95.121 Y84.311 E1225.03660
G1 X95.121 Y80.840 E1225.90435
G1 X97.340 Y78.621 E1226.68874
G1 Z9.200 F7800.000
G1 E1224.68874 F2400.00000
G92 E0
G1 X104.879 Y80.324 F7800.000
G1 E2.00000 F2400.00000
G1 X103.176 Y78.621 E2.60186 F2609.695
G1 X99.705 Y78.621 E3.46961
G1 X104.879 Y83.795 E5.29866
G1 X104.879 Y87.266 E6.16641
G1 X96.234 Y78.621 E9.22264
G1 X95.121 Y80.979 E9.87450
G1 X104.879 Y90.737 E13.32428
G1 X104.879 Y94.208 E14.19203
G1 X95.121 Y84.450 E17.64182
G1 X95.121 Y87.921 E18.50957
G1 X104.879 Y97.679 E21.95935
G1 X104.879 Y101.150 E22.82710
G1 X95.121 Y91.392 E26.27689
G1 X95.121 Y94.863 E27.14464
G1 X104.879 Y104.621 E30.59443
G1 X104.879 Y108.092 E31.46218
G1 X95.121 Y98.334 E34.91196
G1 X95.121 Y101.805 E35.77971
G1 X104.879 Y111.563 E39.22950
G1 X104.879 Y115.034 E40.09725
G1 X95.121 Y105.276 E43.54704
G1 X95.121 Y108.747 E44.41479
G1 X104.879 Y118.505 E47.86457
G1 X104.282 Y121.379 E48.59843
G1 X95.121 Y112.218 E51.83719
G1 X95.121 Y115.689 E52.70494
G1 X100.811 Y121.379 E54.71651
G1 X97.340 Y121.379 E55.58426
G1 X95.121 Y119.160 E56.36864
G1 E54.36864 F2400.00000
G92 E0
M107
M104 S0 ; turn off temperature
G28 X0  ; home X axis
M84     ; disable motors

; filament used = 1279.1mm (1.0cm3)

; avoid_crossing_perimeters = 0
; bed_shape = 0x0,200x0,200x200,0x200
; bed_temperature = 0
; before_layer_gcode = 
; bridge_acceleration = 0
; bridge_fan_speed = 100
; brim_width = 0
; complete_objects = 0
; cooling = 1
; default_acceleration = 0
; disable_fan_first_layers = 3
; duplicate_distance = 6
; end_gcode = M104 S0 ; turn off temperature\nG28 X0  ; home X axis\nM84     ; disable motors\n
; extruder_clearance_height = 20
; extruder_clearance_radius = 20
; extruder_offset = 0x0
; extrusion_axis = E
; extrusion_multiplier = 1
; fan_always_on = 0
; fan_below_layer_time = 60
; filament_colour = #FFFFFF
; filament_diameter = 1
; first_layer_acceleration = 0
; first_layer_bed_temperature = 0
; first_layer_extrusion_width = 200%
; first_layer_speed = 30
; first_layer_temperature = 200
; gcode_arcs = 0
; gcode_comments = 0
; gcode_flavor = reprap
; infill_acceleration = 0
; infill_first = 0
; layer_gcode = 
; max_fan_speed = 100
; max_print_speed = 80
; max_volumetric_speed = 0
; min_fan_speed = 35
; min_print_speed = 10
; min_skirt_length = 0
; notes = 
; nozzle_diameter = 0.5
; only_retract_when_crossing_perimeters = 1
; ooze_prevention = 0
; output_filename_format = [input_filename_base].gcode
; perimeter_acceleration = 0
; post_process = 
; pressure_advance = 0
; resolution = 0
; retract_before_travel = 2
; retract_layer_change = 0
; retract_length = 2
; retract_length_toolchange = 10
; retract_lift = 0
; retract_restart_extra = 0
; retract_restart_extra_toolchange = 0
; retract_speed = 40
; skirt_distance = 6
; skirt_height = 1
; skirts = 0
; slowdown_below_layer_time = 5
; spiral_vase = 0
; standby_temperature_delta = -5
; start_gcode = G28 ; home all axes\nG1 Z5 F5000 ; lift nozzle\n
; temperature = 200
; threads = 2
; toolchange_gcode = 
; travel_speed = 130
; use_firmware_retraction = 0
; use_relative_e_distances = 0
; use_volumetric_e = 0
; vibration_limit = 0
; wipe = 0
; z_offset = 0
; dont_support_bridges = 1
; extrusion_width = 0
; first_layer_height = 0.4
; infill_only_where_needed = 0
; interface_shells = 0
; layer_height = 0.4
; raft_layers = 0
; seam_position = aligned
; support_material = 0
; support_material_angle = 0
; support_material_contact_distance = 0.2
; support_material_enforce_layers = 0
; support_material_extruder = 1
; support_material_extrusion_width = 0
; support_material_interface_extruder = 1
; support_material_interface_layers = 3
; support_material_interface_spacing = 0
; support_material_interface_speed = 100%
; support_material_pattern = pillars
; support_material_spacing = 2.5
; support_material_speed = 60
; support_material_threshold = 0
; xy_size_compensation = 0
; bottom_solid_layers = 0
; bridge_flow_ratio = 1
; bridge_speed = 60
; external_fill_pattern = rectilinear
; external_perimeter_extrusion_width = 0
; external_perimeter_speed = 50%
; external_perimeters_first = 0
; extra_perimeters = 1
; fill_angle = 45
; fill_density = 20%
; fill_pattern = rectilinear
; gap_fill_speed = 20
; infill_every_layers = 1
; infill_extruder = 1
; infill_extrusion_width = 0
; infill_overlap = 15%
; infill_speed = 80
; overhangs = 1
; perimeter_extruder = 1
; perimeter_extrusion_width = 0
; perimeter_speed = 60
; perimeters = 0
; small_perimeter_speed = 15
; solid_infill_below_area = 70
; solid_infill_every_layers = 0
; solid_infill_extruder = 1
; solid_infill_extrusion_width = 0
; solid_infill_speed = 20
; thin_walls = 1
; top_infill_extrusion_width = 0
; top_solid_infill_speed = 15
; top_solid_layers = 0
