; generated by Slic3r 1.2.9 on 2019-08-13 at 14:01:28

; external perimeters extrusion width = 0.50mm
; perimeters extrusion width = 0.52mm
; infill extrusion width = 0.52mm
; solid infill extrusion width = 0.52mm
; top infill extrusion width = 0.52mm

M107
M104 S200 ; set temperature
G28 ; home all axes
G1 Z5 F5000 ; lift nozzle

M109 S200 ; wait for temperature to be reached
G21 ; set units to millimeters
G90 ; use absolute coordinates
M82 ; use absolute distances for extrusion
G92 E0
G1 Z0.500 F7800.000
G1 Z1.000 F7800.000
G1 E-2.00000 F2400.00000
G92 E0
G1 X100.261 Y96.996 F7800.000
G1 E2.00000 F2400.00000
G1 X100.063 Y97.194 E2.07710 F600.000
G1 X99.700 Y96.944 E2.19867
G1 X100.125 Y96.519 E2.36452
G1 X99.922 Y96.109 E2.49066
G1 X99.531 Y96.500 E2.64321
G1 X99.293 Y96.125 E2.76571
G1 X99.652 Y95.767 E2.90557
G1 X99.346 Y95.460 E3.02510
G1 X99.000 Y95.806 E3.16010
G1 X98.662 Y95.531 E3.28024
G1 X99.009 Y95.185 E3.41541
G1 X98.618 Y94.962 E3.53936
G1 X98.264 Y95.316 E3.67731
G1 X97.828 Y95.139 E3.80709
G1 X98.185 Y94.783 E3.94616
G1 X97.705 Y94.649 E4.08341
G1 X97.330 Y95.024 E4.22974
G1 X97.157 Y94.585 E4.36011
G1 X96.732 Y95.010 E4.52590
G1 X96.476 Y94.653 E4.64701
G1 X95.893 Y95.236 E4.87436
G1 X95.317 Y95.199 E5.03365
G1 X94.689 Y95.827 E5.27856
G1 X94.822 Y96.308 E5.41599
G1 X94.213 Y96.916 E5.65354
G1 X94.671 Y97.071 E5.78690
G1 X94.233 Y97.509 E5.95781
G1 X94.383 Y97.971 E6.09188
G1 X94.768 Y97.587 E6.24175
G1 X94.980 Y97.988 E6.36682
G1 X94.624 Y98.344 E6.50564
G1 X94.930 Y98.650 E6.62516
G1 X95.265 Y98.315 E6.75582
G1 X95.609 Y98.584 E6.87623
G1 X95.264 Y98.929 E7.01077
G1 X95.644 Y99.162 E7.13368
G1 X95.993 Y98.813 E7.26989
G1 X96.415 Y99.004 E7.39761
G1 X96.059 Y99.360 E7.53636
G1 X96.512 Y99.520 E7.66882
G1 X96.876 Y99.156 E7.81078
G1 X97.005 Y99.639 E7.94880
G1 X97.385 Y99.260 E8.09693
G1 X97.542 Y99.715 E8.22989
G1 X97.968 Y99.289 E8.39616
G1 X98.165 Y99.705 E8.52309
G1 X98.738 Y99.132 E8.74659
G1 X99.296 Y99.187 E8.90119
G1 X99.064 Y99.419 E8.99158
G1 Z1.500 F7800.000
G1 X99.599 Y99.333 F7800.000
G1 X99.316 Y99.050 E9.10147 F600.000
G1 X98.921 Y99.266 E9.22531
G1 X99.326 Y99.671 E9.38290
G1 X98.864 Y99.819 E9.51654
G1 X98.448 Y99.403 E9.67835
G1 X98.315 Y99.881 E9.81477
G1 X97.877 Y99.444 E9.98488
G1 X97.665 Y99.842 E10.10909
G1 X97.180 Y99.358 E10.29766
G1 X96.854 Y99.642 E10.41677
G1 X96.246 Y99.034 E10.65323
G1 X95.517 Y98.917 E10.85619
G1 X94.861 Y98.261 E11.11134
G1 X94.973 Y97.762 E11.25200
G1 X94.449 Y97.237 E11.45601
G1 X94.482 Y96.660 E11.61518
G1 X94.919 Y97.097 E11.78518
G1 X95.043 Y96.610 E11.92336
G1 X94.637 Y96.204 E12.08124
G1 X94.864 Y95.820 E12.20398
G1 X95.254 Y96.210 E12.35572
G1 X95.527 Y95.872 E12.47523
G1 X95.159 Y95.503 E12.61852
G1 X95.477 Y95.210 E12.73745
G1 X95.853 Y95.586 E12.88368
G1 X96.231 Y95.354 E13.00584
G1 X95.981 Y95.104 E13.10306
G1 X96.289 Y94.801 E13.22190
G1 X96.668 Y95.180 E13.36932
G1 X96.788 Y94.689 E13.50833
G1 X97.174 Y95.074 E13.65830
G1 X97.382 Y94.671 E13.78304
G1 X97.811 Y95.101 E13.95007
G1 X98.119 Y94.798 E14.06891
G1 X98.688 Y95.367 E14.29010
G1 X99.383 Y95.451 E14.48264
G1 X100.040 Y96.108 E14.73838
G1 X99.929 Y96.608 F7800.000
G1 X100.563 Y97.242 E14.98485 F600.000
G1 X100.096 Y97.386 E15.11926
G1 X100.281 Y97.571 E15.19123
M106 S255
G1 Z2.000 F7800.000
G1 X99.518 Y99.361 F7800.000
G1 X98.901 Y99.978 E15.42463 F600.000
G1 X98.699 Y99.586 E15.54261
G1 X98.252 Y100.033 E15.71167
G1 X98.102 Y99.589 E15.83700
G1 X97.702 Y99.990 E15.98854
G1 X97.211 Y99.886 E16.12266
G1 X97.585 Y99.512 E16.26421
G1 X97.123 Y99.380 E16.39267
G1 X96.766 Y99.737 E16.52775
G1 X96.351 Y99.559 E16.64867
G1 X96.701 Y99.208 E16.78123
G1 X96.316 Y98.999 E16.89838
G1 X95.971 Y99.344 E17.02875
G1 X95.624 Y99.097 E17.14265
G1 X95.966 Y98.755 E17.27201
G1 X95.655 Y98.472 E17.38444
G1 X95.325 Y98.802 E17.50934
G1 X95.043 Y98.491 E17.62179
G1 X95.386 Y98.147 E17.75165
G1 X95.209 Y97.730 E17.87276
G1 X94.828 Y98.111 E18.01674
G1 X94.695 Y97.650 E18.14500
G1 X95.133 Y97.212 E18.31063
G1 X94.694 Y97.058 E18.43516
G1 X95.299 Y96.452 E18.66416
G1 X95.169 Y95.989 E18.79285
G1 X95.807 Y95.350 E19.03431
G1 X96.377 Y95.374 E19.18682
G1 X96.952 Y94.800 E19.40410
G1 X97.200 Y95.146 E19.51790
G1 X97.623 Y94.722 E19.67797
G1 X97.792 Y95.147 E19.80021
G1 X98.176 Y94.763 E19.94520
G1 X98.655 Y94.878 E20.07694
G1 X98.291 Y95.243 E20.21475
G1 X98.726 Y95.401 E20.33871
G1 X99.080 Y95.048 E20.47233
G1 X99.465 Y95.257 E20.58947
G1 X99.117 Y95.604 E20.72083
G1 X99.472 Y95.843 E20.83526
G1 X99.816 Y95.499 E20.96537
G1 X100.115 Y95.794 E21.07767
G1 X99.769 Y96.140 E21.20847
G1 X100.025 Y96.478 E21.32184
G1 X100.393 Y96.110 E21.46102
G1 X100.616 Y96.481 E21.57677
G1 X100.226 Y96.871 E21.72437
G1 X100.361 Y97.330 E21.85220
G1 X100.784 Y96.907 E22.01214
G1 X100.881 Y97.405 E22.14770
G1 X100.400 Y97.885 E22.32941
G1 X100.868 Y98.011 E22.45895
G1 X100.219 Y98.660 E22.70430
G1 X100.493 Y98.980 E22.81693
G1 X99.909 Y99.564 E23.03800
G1 Z2.500 F7800.000
G1 E21.03800 F2400.00000
G92 E0
G1 X100.510 Y96.806 F7800.000
G1 E2.00000 F2400.00000
G1 X101.102 Y97.398 E2.23749 F600.000
G1 X100.674 Y97.601 E2.37174
G1 X101.147 Y98.073 E2.56125
G1 X100.626 Y98.183 E2.71213
G1 X101.050 Y98.606 E2.88200
G1 X100.873 Y99.059 E3.02000
G1 X100.466 Y98.652 E3.18319
G1 X100.221 Y99.038 E3.31267
G1 X100.603 Y99.420 E3.46598
G1 X100.277 Y99.724 E3.59243
G1 X99.893 Y99.340 E3.74654
G1 X99.483 Y99.560 E3.87855
G1 X99.871 Y99.948 E4.03434
G1 X99.397 Y100.104 E4.17591
G1 X98.992 Y99.699 E4.33857
G1 X98.838 Y100.175 E4.48048
G1 X98.409 Y99.746 E4.65249
G1 X98.174 Y100.141 E4.78289
G1 X97.706 Y99.673 E4.97045
G1 X97.368 Y99.966 E5.09717
G1 X96.780 Y99.378 E5.33296
G1 X96.019 Y99.247 E5.55202
G1 X95.348 Y98.575 E5.82147
G1 X95.415 Y98.012 E5.98226
G1 X94.902 Y97.500 E6.18794
G1 X94.924 Y96.891 E6.36068
G1 X95.352 Y97.320 E6.53270
G1 X95.474 Y96.811 E6.68103
G1 X95.077 Y96.414 E6.84031
G1 X95.299 Y96.006 E6.97204
G1 X95.684 Y96.391 E7.12629
G1 X95.956 Y96.033 E7.25382
G1 X95.597 Y95.674 E7.39798
G1 X95.916 Y95.363 E7.52438
G1 X96.284 Y95.731 E7.67185
G1 X96.667 Y95.483 E7.80113
G1 X96.300 Y95.117 E7.94813
G1 X96.742 Y94.929 E8.08436
G1 X97.104 Y95.291 E8.22958
G1 X97.249 Y94.806 E8.37315
G1 X97.642 Y95.198 E8.53052
G1 X97.857 Y94.784 E8.66302
G1 X98.287 Y95.213 E8.83538
G1 X98.612 Y94.908 E8.96183
G1 X99.165 Y95.461 E9.18371
G1 X99.938 Y95.604 E9.40669
G1 X100.563 Y96.229 E9.65739
G1 Z3.000 F7800.000
G1 E7.65739 F2400.00000
G92 E0
G1 X99.832 Y99.708 F7800.000
G1 E2.00000 F2400.00000
G1 X99.295 Y100.245 E2.20546 F600.000
G1 X98.645 Y100.294 E2.38199
G1 X99.073 Y99.866 E2.54602
G1 X98.870 Y100.069 E2.62400
G1 X98.475 Y99.863 E2.74456
G1 X98.009 Y100.329 E2.92301
G1 X97.451 Y100.285 E3.07423
G1 X97.896 Y99.840 E3.24448
G1 X97.399 Y99.737 E3.38202
G1 X96.971 Y100.164 E3.54569
G1 X96.550 Y99.984 E3.66959
G1 X96.965 Y99.569 E3.82845
G1 X96.584 Y99.349 E3.94753
G1 X96.175 Y99.758 E4.10425
G1 X95.864 Y99.468 E4.21937
G1 X96.254 Y99.078 E4.36882
G1 X95.977 Y98.754 E4.48420
G1 X95.578 Y99.153 E4.63674
G1 X95.374 Y98.755 E4.75763
G1 X95.755 Y98.375 E4.90315
G1 X95.605 Y97.923 E5.03188
G1 X95.229 Y98.299 E5.17586
G1 X95.107 Y97.820 E5.30966
G1 X95.549 Y97.378 E5.47890
G1 X95.127 Y97.199 E5.60300
G1 X95.732 Y96.593 E5.83487
G1 X95.639 Y96.086 E5.97458
G1 X96.279 Y95.446 E6.21936
G1 X96.858 Y95.468 E6.37637
G1 X97.418 Y94.908 E6.59051
G1 X97.665 Y95.262 E6.70735
G1 X98.091 Y94.836 E6.87031
G1 X98.259 Y95.270 E6.99611
G1 X98.644 Y94.884 E7.14350
G1 X98.764 Y95.365 E7.27765
G1 X99.124 Y95.005 E7.41551
G1 X99.560 Y95.171 E7.54165
G1 X99.208 Y95.522 E7.67630
G1 X99.603 Y95.729 E7.79679
G1 X99.947 Y95.385 E7.92851
G1 X100.295 Y95.638 E8.04502
G1 X99.955 Y95.978 E8.17543
G1 X100.269 Y96.265 E8.29060
G1 X100.596 Y95.938 E8.41560
G1 X100.875 Y96.260 E8.53093
G1 X100.522 Y96.613 E8.66611
G1 X100.728 Y97.009 E8.78677
G1 X101.100 Y96.637 E8.92917
G1 X101.262 Y97.075 E9.05577
G1 X100.868 Y97.470 E9.20680
G1 X101.353 Y97.586 E9.34186
G1 X100.910 Y98.028 E9.51137
G1 X101.330 Y98.210 E9.63516
G1 X100.754 Y98.786 E9.85571
G1 X100.904 Y99.237 E9.98435
G1 X100.291 Y99.850 E10.21911
G1 Z3.500 F7800.000
G1 E8.21911 F2400.00000
G92 E0
G1 X100.938 Y96.936 F7800.000
G1 E2.00000 F2400.00000
G1 X101.493 Y97.490 E2.21277 F600.000
G1 X101.103 Y97.704 E2.33316
G1 X101.544 Y98.144 E2.50203
G1 X101.062 Y98.265 E2.63666
G1 X101.464 Y98.667 E2.79096
G1 X101.300 Y99.105 E2.91791
G1 X100.921 Y98.726 E3.06336
G1 X100.707 Y99.115 E3.18365
G1 X101.070 Y99.478 E3.32304
G1 X100.775 Y99.785 E3.43863
G1 X100.428 Y99.439 E3.57151
G1 X100.081 Y99.694 E3.68841
G1 X100.444 Y100.058 E3.82776
G1 X100.030 Y100.246 E3.95119
G1 X99.654 Y99.869 E4.09561
G1 X99.538 Y100.357 E4.23143
G1 X99.142 Y99.960 E4.38360
G1 X98.566 Y99.987 E4.53996
G1 X98.943 Y100.364 E4.68469
G1 X98.485 Y100.508 E4.81505
G1 X98.060 Y100.083 E4.97792
G1 X97.935 Y100.561 E5.11175
G1 X97.432 Y100.057 E5.30475
G1 X97.246 Y100.475 E5.42858
G1 X96.528 Y99.756 E5.70427
G1 X96.021 Y99.852 E5.84404
G1 X95.490 Y99.321 E6.04789
G1 X95.666 Y98.894 E6.17303
G1 X95.100 Y98.329 E6.39006
G1 X95.534 Y98.160 E6.51630
G1 X95.132 Y97.757 E6.67065
G1 X95.618 Y97.642 E6.80632
G1 X95.258 Y97.282 E6.94438
G1 X95.406 Y96.827 E7.07413
G1 X95.782 Y97.202 E7.21822
G1 X95.974 Y96.792 E7.34111
G1 X95.582 Y96.400 E7.49154
G1 X95.810 Y96.026 E7.61046
G1 X96.194 Y96.410 E7.75786
G1 X96.465 Y96.078 E7.87400
G1 X96.103 Y95.716 E8.01308
G1 X96.419 Y95.430 E8.12879
G1 X96.789 Y95.799 E8.27053
G1 X97.166 Y95.574 E8.38975
G1 X96.793 Y95.201 E8.53305
G1 X97.227 Y95.032 E8.65938
G1 X97.607 Y95.412 E8.80517
G1 X97.732 Y94.935 E8.93902
G1 X98.128 Y95.331 E9.09085
G1 X98.321 Y94.921 E9.21364
G1 X98.765 Y95.365 E9.38384
G1 X99.054 Y95.052 E9.49950
G1 X99.615 Y95.613 E9.71464
G1 X100.294 Y95.690 E9.90001
G1 X100.940 Y96.335 E10.14777
G1 Z4.000 F7800.000
G1 E8.14777 F2400.00000
G92 E0
G1 X100.652 Y99.931 F7800.000
G1 E2.00000 F2400.00000
G1 X101.275 Y99.308 E2.23460 F600.000
G1 X101.118 Y98.873 E2.35764
G1 X101.680 Y98.311 E2.56936
G1 X101.267 Y98.133 E2.68922
G1 X101.694 Y97.706 E2.85005
G1 X101.217 Y97.591 E2.98064
G1 X101.594 Y97.214 E3.12258
G1 X101.432 Y96.785 E3.24480
G1 X101.073 Y97.143 E3.37977
G1 X100.868 Y96.757 E3.49628
G1 X101.215 Y96.410 E3.62688
G1 X100.939 Y96.095 E3.73854
G1 X100.609 Y96.425 E3.86278
G1 X100.304 Y96.137 E3.97423
G1 X100.643 Y95.799 E4.10168
G1 X100.302 Y95.548 E4.21436
G1 X99.957 Y95.893 E4.34454
G1 X99.567 Y95.691 E4.46140
G1 X99.921 Y95.337 E4.59489
G1 X99.494 Y95.172 E4.71677
G1 X99.129 Y95.538 E4.85452
G1 X99.020 Y95.055 E4.98638
G1 X98.633 Y95.442 E5.13209
G1 X98.477 Y95.007 E5.25527
G1 X98.049 Y95.435 E5.41646
G1 X97.819 Y95.073 E5.53057
G1 X97.247 Y95.645 E5.74579
G1 X96.746 Y95.554 E5.88140
G1 X96.081 Y96.219 E6.13184
G1 X95.615 Y97.277 F7800.000
G1 X95.022 Y97.870 E6.35516 F600.000
G1 X95.371 Y98.113 E6.46835
G1 X94.930 Y98.554 E6.63458
G1 X95.406 Y98.670 E6.76503
G1 X94.994 Y99.081 E6.91999
G1 X95.170 Y99.497 E7.04028
G1 X95.570 Y99.097 E7.19116
G1 X95.819 Y99.440 E7.30401
G1 X95.428 Y99.831 E7.45121
G1 X95.724 Y100.127 E7.56262
G1 X96.126 Y99.724 E7.71424
G1 X96.483 Y99.959 E7.82800
G1 X96.088 Y100.354 E7.97671
G1 X96.468 Y100.566 E8.09249
G1 X96.888 Y100.146 E8.25070
G1 X97.350 Y100.275 E8.37862
G1 X96.909 Y100.716 E8.54469
G1 X97.422 Y100.795 E8.68273
G1 X97.890 Y100.327 E8.85904
G1 X98.058 Y100.750 E8.98032
G1 X98.605 Y100.203 E9.18634
G1 X98.944 Y100.456 E9.29889
G1 X99.360 Y100.040 E9.45560
G1 X99.577 Y100.415 E9.57090
G1 X100.067 Y99.925 E9.75554
G1 Z4.500 F7800.000
G1 X100.620 Y100.021 F7800.000
G1 X100.398 Y99.799 E9.84551 F600.000
G1 X99.977 Y99.971 E9.97586
G1 X100.356 Y100.350 E10.12951
G1 X99.871 Y100.458 E10.27198
G1 X99.505 Y100.092 E10.42004
G1 X99.313 Y100.493 E10.54736
G1 X98.923 Y100.103 E10.70530
G1 X98.548 Y100.322 E10.82953
G1 X98.900 Y100.673 E10.97200
G1 X98.500 Y100.867 E11.09924
G1 X98.115 Y100.482 E11.25518
G1 X97.599 Y100.559 E11.40462
G1 X98.040 Y101.000 E11.58314
G1 X97.499 Y101.052 E11.73894
G1 X96.945 Y100.498 E11.96321
G1 X96.571 Y100.717 E12.08748
G1 X96.793 Y100.939 E12.17764
G1 X95.347 Y99.981 F7800.000
G1 X95.092 Y99.726 E12.28102 F600.000
G1 X95.316 Y99.330 E12.41144
G1 X94.759 Y98.773 E12.63698
G1 X95.197 Y98.590 E12.77283
G1 X94.794 Y98.187 E12.93625
G1 X95.295 Y98.068 E13.08381
G1 X94.929 Y97.702 E13.23186
G1 X95.131 Y97.284 E13.36495
G1 X95.475 Y97.627 E13.50409
G1 X95.712 Y97.244 E13.63318
G1 X95.369 Y96.902 E13.77196
G1 X95.661 Y96.573 E13.89784
G1 X95.991 Y96.904 E14.03177
G1 X96.311 Y96.603 E14.15748
G1 X95.972 Y96.264 E14.29475
G1 X96.324 Y95.996 E14.42155
G1 X96.669 Y96.341 E14.56126
G1 X97.075 Y96.127 E14.69284
G1 X96.693 Y95.744 E14.84787
G1 X97.055 Y95.486 E14.97527
G1 X97.442 Y95.873 E15.13204
G1 X97.868 Y95.680 E15.26629
G1 X97.475 Y95.286 E15.42560
G1 X97.964 Y95.155 E15.57060
G1 X98.376 Y95.567 E15.73747
G1 X98.551 Y95.122 E15.87451
G1 X99.002 Y95.572 E16.05709
G1 X99.290 Y95.240 E16.18305
G1 X99.853 Y95.803 E16.41093
G1 X100.558 Y95.888 E16.61454
G1 X101.199 Y96.529 E16.87435
G1 X101.260 Y97.211 F7800.000
G1 X101.843 Y97.794 E17.11060 F600.000
G1 X101.993 Y98.968 F7800.000
G1 X101.766 Y98.741 E17.20256 F600.000
G1 X101.301 Y98.913 E17.34450
G1 X101.831 Y99.443 E17.55931
G1 X101.560 Y99.808 E17.68960
G1 X101.058 Y99.306 E17.89284
G1 X100.722 Y99.606 E18.02198
G1 X100.937 Y99.822 E18.10946
G1 Z5.000 F7800.000
G1 X101.112 Y99.966 F7800.000
G1 X100.789 Y100.289 E18.28778 F600.000
G1 X101.543 Y100.318 F7800.000
G1 X102.102 Y99.759 E18.59699 F600.000
G1 X101.694 Y99.384 E18.81367
G1 X102.477 Y98.602 E19.24657
G1 X102.059 Y98.236 E19.46351
G1 X101.811 Y98.485 E19.60077
G1 X101.779 Y97.648 F7800.000
G1 X102.072 Y97.355 E19.76281 F600.000
G1 X101.679 Y96.879 E20.00417
G1 X101.267 Y97.292 E20.23225
G1 X100.871 Y96.819 E20.47348
G1 X101.261 Y96.429 E20.68929
G1 X100.826 Y95.995 E20.92957
G1 X100.418 Y96.402 E21.15487
G1 X99.886 Y96.066 E21.40119
G1 X100.304 Y95.647 E21.63259
G1 X99.696 Y95.387 E21.89135
G1 X99.251 Y95.832 E22.13785
G1 X98.957 Y95.257 E22.39038
G1 X98.445 Y95.770 E22.67360
G1 X97.960 Y95.385 E22.91548
G1 X97.078 Y96.267 E23.40329
G1 X96.022 Y96.454 E23.82269
G1 X95.284 Y97.193 E24.23098
G1 X95.114 Y98.231 E24.64265
G1 X94.577 Y98.769 E24.93983
G1 X95.085 Y99.129 E25.18360
G1 X94.612 Y99.602 E25.44530
G1 E23.44530 F2400.00000
G92 E0
G1 X97.023 Y100.784 F7800.000
G1 E2.00000 F2400.00000
G1 X96.802 Y101.005 E2.12210 F600.000
G1 X97.207 Y101.316 E2.32170
G1 X97.711 Y100.812 E2.60037
G1 X98.092 Y101.147 E2.79867
G1 X98.982 Y100.256 E3.29139
G1 X99.400 Y100.554 E3.49204
G1 X99.809 Y100.145 E3.71826
G1 X100.253 Y100.417 E3.92178
G1 X100.041 Y100.629 E4.03898
G1 Z5.500 F7800.000
G1 X101.069 Y100.648 F7800.000
G1 X100.849 Y100.428 E4.18304 F600.000
G1 X100.725 Y100.950 E4.43099
G1 X100.217 Y100.442 E4.76300
G1 X99.977 Y100.849 E4.98107
G1 X99.404 Y100.275 E5.35569
G1 X99.163 Y100.680 E5.57342
G1 X98.821 Y100.338 E5.79681
G1 X98.477 Y100.641 E6.00830
G1 X98.826 Y100.990 E6.23630
G1 X98.438 Y101.248 E6.45157
G1 X98.075 Y100.885 E6.68874
G1 X97.596 Y101.052 E6.92300
G1 X98.002 Y101.458 E7.18799
G1 X97.477 Y101.579 E7.43691
G1 X96.998 Y101.100 E7.74969
G1 X96.607 Y101.356 E7.96533
G1 X96.826 Y101.575 E8.10828
G1 E6.10828 F2400.00000
G92 E0
G1 X94.888 Y100.374 F7800.000
G1 E2.00000 F2400.00000
G1 X94.626 Y100.112 E2.17135 F600.000
G1 X94.905 Y99.703 E2.39985
G1 X94.382 Y99.180 E2.74152
G1 X94.862 Y98.973 E2.98319
G1 X94.461 Y98.572 E3.24512
G1 X94.636 Y98.059 E3.49549
G1 X95.003 Y98.426 E3.73548
G1 X95.226 Y97.961 E3.97370
G1 X94.868 Y97.603 E4.20727
G1 X95.148 Y97.195 E4.43574
G1 X95.506 Y97.554 E4.66976
G1 X95.838 Y97.198 E4.89449
G1 X95.491 Y96.851 E5.12130
G1 X95.859 Y96.531 E5.34643
G1 X96.223 Y96.895 E5.58430
G1 X96.662 Y96.646 E5.81734
G1 X96.280 Y96.264 E6.06695
G1 X96.767 Y96.064 E6.31045
G1 X97.172 Y96.469 E6.57494
G1 X97.322 Y95.932 E6.83271
G1 X97.553 Y96.163 E6.98361
G1 X98.588 Y95.777 F7800.000
G1 X98.835 Y96.025 E7.14519 F600.000
G1 X99.405 Y95.568 E7.48236
G1 X100.066 Y96.230 E7.91447
G1 X101.700 Y96.837 F7800.000
G1 X102.340 Y97.477 E8.33267 F600.000
G1 E6.33267 F2400.00000
G92 E0
G1 X102.395 Y99.566 F7800.000
G1 E2.00000 F2400.00000
G1 X102.647 Y99.818 E2.16475 F600.000
G1 Z6.000 F7800.000
G1 X102.851 Y98.845 F7800.000
G1 X103.146 Y98.550 E2.33450 F600.000
G1 X102.474 Y98.317 E2.62395
G1 X102.954 Y97.837 E2.90068
G1 X102.620 Y97.267 E3.16970
G1 X102.177 Y97.710 E3.42487
G1 X101.747 Y97.235 E3.68548
G1 X102.177 Y96.806 E3.93294
G1 X101.637 Y96.441 E4.19811
G1 X101.202 Y96.876 E4.44821
G1 X100.559 Y96.615 E4.73079
G1 X100.996 Y96.178 E4.98230
G1 X100.292 Y95.977 E5.28023
G1 X99.828 Y96.442 E5.54747
G1 X99.270 Y96.095 E5.81478
G1 X99.565 Y95.801 E5.98436
G1 X98.718 Y96.182 F7800.000
G1 X98.400 Y96.500 E6.16765 F600.000
G1 X97.307 Y96.174 F7800.000
G1 X96.771 Y96.711 E6.47662 F600.000
G1 X95.799 Y96.832 E6.87500
G1 X94.972 Y97.659 E7.35126
G1 X94.746 Y98.736 E7.79924
G1 X94.239 Y99.243 E8.09124
G1 X94.249 Y100.083 E8.43313
G1 X94.693 Y99.639 E8.68864
G1 X94.937 Y100.246 E8.95489
G1 X94.640 Y100.543 E9.12576
G1 E7.12576 F2400.00000
G92 E0
G1 X96.693 Y101.347 F7800.000
G1 E2.00000 F2400.00000
G1 X96.473 Y101.567 E2.12667 F600.000
G1 X96.820 Y101.873 E2.31504
G1 X97.321 Y101.373 E2.60337
G1 X97.590 Y101.756 E2.79424
G1 X98.317 Y101.030 E3.21235
G1 X99.552 Y100.448 F7800.000
G1 X99.182 Y100.818 E3.42518 F600.000
G1 X99.656 Y100.997 E3.63134
G1 X100.044 Y100.609 E3.85499
G1 X100.183 Y101.123 E4.07175
G1 X100.604 Y100.702 E4.31383
G1 X100.794 Y101.165 E4.51752
G1 X101.293 Y100.666 E4.80483
G1 X101.786 Y100.826 E5.01579
G1 X101.564 Y101.049 E5.14381
G1 Z6.500 F7800.000
G1 X101.889 Y101.020 F7800.000
G1 X101.664 Y100.795 E5.27576 F600.000
G1 X101.133 Y100.893 E5.49986
G1 X101.570 Y101.331 E5.75662
G1 X100.952 Y101.341 E6.01338
G1 X100.489 Y100.878 E6.28506
G1 X100.208 Y101.226 E6.47072
G1 X99.678 Y100.697 E6.78155
G1 X99.231 Y100.878 E6.98200
G1 X98.847 Y100.495 E7.20721
G1 X98.530 Y100.806 E7.39185
G1 X98.873 Y101.149 E7.59330
G1 X98.558 Y101.463 E7.77793
G1 X98.211 Y101.117 E7.98126
G1 X97.840 Y101.374 E8.16894
G1 X98.202 Y101.736 E8.38164
G1 X97.796 Y101.960 E8.57388
G1 X97.401 Y101.565 E8.80572
G1 X96.865 Y101.658 E9.03149
G1 X97.329 Y102.121 E9.30351
G1 X96.757 Y102.178 E9.54218
G1 X96.541 Y101.963 E9.66866
G1 E7.66866 F2400.00000
G92 E0
G1 X94.425 Y100.696 F7800.000
G1 E2.00000 F2400.00000
G1 X94.127 Y100.398 E2.17464 F600.000
G1 X94.511 Y99.942 E2.42223
G1 X94.009 Y99.440 E2.71662
G1 X94.167 Y98.757 E3.00761
G1 X94.599 Y99.189 E3.26117
G1 X94.849 Y98.600 E3.52710
G1 X94.445 Y98.195 E3.76476
G1 X94.789 Y97.698 E4.01544
G1 X95.189 Y98.099 E4.25083
G1 X95.601 Y97.671 E4.49753
G1 X95.201 Y97.271 E4.73238
G1 X95.661 Y96.890 E4.98014
G1 X96.084 Y97.313 E5.22818
G1 X96.653 Y97.042 E5.48985
G1 X96.200 Y96.589 E5.75550
G1 X96.842 Y96.391 E6.03447
G1 X97.357 Y96.906 E6.33695
G1 X97.706 Y96.414 E6.58718
G1 X97.991 Y96.700 E6.75488
G1 X98.176 Y96.746 F7800.000
G1 X98.468 Y97.038 E6.92635 F600.000
G1 X99.183 Y96.682 F7800.000
G1 X98.883 Y96.382 E7.10246 F600.000
G1 X99.480 Y96.056 E7.38453
G1 X99.960 Y96.537 E7.66666
G1 X100.435 Y96.090 E7.93745
G1 X100.982 Y96.636 E8.25837
G1 X102.088 Y96.821 E8.72403
G1 X102.790 Y97.522 E9.13573
G1 X102.844 Y98.499 F7800.000
G1 X103.269 Y98.924 E9.38524 F600.000
G1 X103.411 Y99.926 F7800.000
G1 X103.182 Y99.697 E9.51938 F600.000
G1 X102.679 Y99.999 E9.76306
G1 X103.178 Y100.498 E10.05596
G1 X102.788 Y100.913 E10.29245
G1 X102.313 Y100.438 E10.57106
G1 Z7.000 F7800.000
G1 X103.016 Y101.172 F7800.000
G1 X103.512 Y100.676 E11.31039 F600.000
G1 X103.231 Y99.823 E12.25629
G1 X103.512 Y99.542 E12.67486
G1 X103.249 Y99.076 F7800.000
G1 X103.897 Y98.428 E13.64071 F600.000
G1 X102.976 Y97.009 E15.42271
G1 X102.221 Y97.763 E16.54719
G1 X100.752 Y96.893 E18.34641
G1 X101.537 Y96.107 E19.51706
G1 X98.849 Y96.456 E22.37231
G1 X98.145 Y97.160 E23.42103
G1 E21.42103 F2400.00000
G92 E0
G1 X95.414 Y97.395 F7800.000
G1 E2.00000 F2400.00000
G1 X94.583 Y98.226 E3.23825 F600.000
G1 X94.459 Y100.353 E5.48289
G1 X94.086 Y100.727 E6.03879
G1 X94.996 Y101.323 F7800.000
G1 X94.543 Y101.776 E6.71356 F600.000
G1 X94.987 Y102.130 E7.31094
G1 X95.471 Y101.645 E8.03254
G1 X95.771 Y102.142 E8.64397
G1 X95.541 Y102.373 E8.98770
G1 X96.963 Y101.936 F7800.000
G1 X96.744 Y102.154 E9.31330 F600.000
G1 X97.160 Y102.367 E9.80448
G1 X97.932 Y101.594 E10.95508
G1 X98.632 Y100.894 F7800.000
G1 X98.946 Y100.580 E11.42357 F600.000
G1 X99.168 Y100.986 E11.91075
G1 X99.515 Y100.638 E12.42856
G1 X99.957 Y100.824 E12.93343
G1 X99.598 Y101.183 E13.46866
G1 X100.068 Y101.340 E13.99083
G1 X100.440 Y100.969 E14.54471
G1 X100.576 Y101.459 E15.08131
G1 X100.971 Y101.065 E15.66872
G1 X101.124 Y101.539 E16.19355
G1 X101.567 Y101.097 E16.85271
G1 X101.950 Y101.341 E17.33148
G1 X101.733 Y101.558 E17.65551
G1 Z7.500 F7800.000
G1 X102.175 Y101.608 F7800.000
G1 X101.858 Y101.291 E18.07972 F600.000
G1 X101.308 Y101.780 E18.77620
G1 X100.686 Y101.157 E19.60959
G1 X99.720 Y101.231 E20.52613
G1 X98.959 Y100.469 E21.54513
G1 X98.394 Y100.943 E22.24308
G1 X98.834 Y101.383 E22.83218
G1 X98.370 Y101.957 E23.53133
G1 X97.923 Y101.511 E24.12943
G1 X97.336 Y101.962 E24.83070
G1 X97.811 Y102.437 E25.46732
G1 X97.119 Y102.783 E26.20023
G1 X96.795 Y102.460 E26.63337
G1 X95.761 Y102.413 F7800.000
G1 X95.538 Y102.190 E26.93213 F600.000
G1 X94.722 Y102.301 E27.71215
G1 X94.429 Y102.009 E28.10424
G1 X94.051 Y101.241 F7800.000
G1 X93.565 Y100.755 E28.75440 F600.000
G1 X94.293 Y99.994 E29.75159
G1 X93.655 Y99.357 E30.60504
G1 X94.157 Y98.369 E31.65370
G1 X94.760 Y98.972 E32.46078
G1 X95.478 Y98.201 E33.45834
G1 X94.871 Y97.594 E34.27137
G1 X95.785 Y97.019 E35.29398
G1 X96.446 Y97.679 E36.17796
G1 X97.067 Y96.812 E37.18841
G1 X97.550 Y97.294 E37.83438
G1 X98.902 Y97.651 F7800.000
G1 X98.244 Y96.993 E38.71533 F600.000
G1 X99.570 Y96.216 E40.17039
G1 X100.250 Y96.896 E41.08045
G1 X102.577 Y97.120 E43.29417
G1 X103.586 Y98.129 E44.64475
G1 X104.325 Y100.061 F7800.000
G1 X103.973 Y99.709 E45.11554 F600.000
G1 X103.333 Y100.550 E46.11565
G1 X104.006 Y101.223 E47.01617
G1 X103.118 Y101.814 E48.02685
G1 X102.763 Y101.460 E48.50138
G1 Z8.000 F7800.000
G1 X102.192 Y102.168 F7800.000
G1 X102.477 Y101.884 E48.94927 F600.000
G1 X101.967 Y101.563 E49.62037
G1 X101.475 Y102.056 E50.39612
G1 X101.281 Y101.419 E51.13773
G1 X100.829 Y101.872 E51.85161
G1 X100.231 Y101.639 E52.56621
G1 X100.657 Y101.213 E53.23703
G1 X100.091 Y100.949 E53.93346
G1 X99.675 Y101.365 E54.58868
G1 X99.170 Y101.041 E55.25847
G1 X99.577 Y100.633 E55.90037
G1 E53.90037 F2400.00000
G92 E0
G1 X98.090 Y98.615 F7800.000
G1 E2.00000 F2400.00000
G1 X98.979 Y97.727 E3.40021 F600.000
G1 X99.119 Y97.163 F7800.000
G1 X99.808 Y96.473 E4.48751 F600.000
G1 X102.234 Y96.524 E7.19287
G1 X101.411 Y97.347 E8.49074
G1 X102.936 Y98.299 E10.49453
G1 X103.728 Y97.507 E11.74321
G1 X104.720 Y98.992 E13.73371
G1 X104.044 Y99.667 E14.79880
G1 X104.332 Y100.051 F7800.000
G1 X104.044 Y100.339 E15.25299 F600.000
G1 X104.470 Y101.283 E16.40823
G1 X103.909 Y101.844 E17.29173
G1 E15.29173 F2400.00000
G92 E0
G1 X96.815 Y102.564 F7800.000
G1 E2.00000 F2400.00000
G1 X96.526 Y102.854 E2.45697 F600.000
G1 X95.279 Y103.111 F7800.000
G1 X95.498 Y102.892 E2.80143 F600.000
G1 X95.170 Y102.401 E3.46024
G1 X94.695 Y102.875 E4.20809
G1 X94.225 Y102.526 E4.86124
G1 X94.667 Y102.083 E5.55903
G1 X93.640 Y101.480 F7800.000
G1 X94.101 Y101.019 E6.28567 F600.000
G1 X94.181 Y98.818 E8.74181
G1 X95.097 Y97.901 E10.18641
G1 Z8.500 F7800.000
G1 X97.061 Y97.734 F7800.000
G1 X96.826 Y97.498 E10.33835 F600.000
G1 X96.628 Y97.991 E10.58068
G1 X96.154 Y97.517 E10.88678
G1 X95.618 Y97.671 E11.14136
G1 X96.033 Y98.086 E11.40900
G1 X95.539 Y98.283 E11.65153
G1 X95.152 Y97.896 E11.90139
G1 X94.744 Y98.179 E12.12788
G1 X95.123 Y98.557 E12.37209
G1 X94.755 Y98.880 E12.59543
G1 X94.399 Y98.524 E12.82530
G1 X94.065 Y98.881 E13.04829
G1 X94.430 Y99.246 E13.28380
G1 X94.147 Y99.654 E13.51031
G1 X93.786 Y99.292 E13.74345
G1 X93.542 Y99.739 E13.97566
G1 X93.916 Y100.113 E14.21727
G1 X93.748 Y100.636 E14.46790
G1 X93.354 Y100.241 E14.72257
G1 X93.242 Y100.820 E14.99156
G1 X93.715 Y101.294 E15.29715
G1 X93.290 Y101.559 E15.52593
G1 X93.531 Y101.800 E15.68128
G1 X93.745 Y102.463 F7800.000
G1 X94.357 Y103.074 E16.07586 F600.000
G1 X94.527 Y102.600 E16.30575
G1 X95.475 Y103.548 E16.91737
G1 X95.558 Y102.986 E17.17639
G1 X95.776 Y103.205 E17.31754
G1 X96.430 Y103.205 F7800.000
G1 X96.668 Y103.443 E17.47140 F600.000
G1 X97.127 Y103.246 E17.69937
G1 X96.717 Y102.836 E17.96441
G1 X97.140 Y102.603 E18.18474
G1 X97.519 Y102.982 E18.42958
G1 X97.865 Y102.673 E18.64152
G1 X97.503 Y102.311 E18.87524
G1 X97.814 Y101.966 E19.08711
G1 X98.172 Y102.324 E19.31795
G1 X98.437 Y101.933 E19.53344
G1 X98.081 Y101.578 E19.76295
G1 X98.302 Y101.143 E19.98558
G1 X98.668 Y101.509 E20.22207
G1 X98.853 Y101.038 E20.45300
G1 X98.470 Y100.655 E20.70009
G1 X98.724 Y100.253 E20.91700
G1 X99.628 Y101.157 E21.50005
G1 X100.487 Y101.361 E21.90331
G1 X101.166 Y102.040 E22.34164
G1 X101.547 Y101.765 E22.55597
G1 X102.128 Y102.345 E22.93065
G1 X102.362 Y101.923 E23.15076
G1 X102.595 Y102.157 E23.30149
G1 X103.076 Y102.315 F7800.000
G1 X103.314 Y102.552 E23.45482 F600.000
G1 X104.006 Y102.588 E23.77091
G1 X103.316 Y101.899 E24.21578
G1 X103.807 Y101.734 E24.45206
G1 X104.571 Y102.498 E24.94515
G1 X104.961 Y102.231 E25.16048
G1 X104.178 Y101.448 E25.66587
G1 X104.423 Y101.038 E25.88410
G1 X105.201 Y101.816 E26.38623
G1 X105.256 Y101.215 E26.66148
G1 X104.519 Y100.478 E27.13732
G1 X104.897 Y100.201 E27.35147
G1 X105.139 Y100.442 E27.50737
G1 X104.701 Y99.761 F7800.000
G1 X104.306 Y99.366 E27.76246 F600.000
G1 X104.208 Y98.506 F7800.000
G1 X103.432 Y97.731 E28.26275 F600.000
G1 X102.411 Y97.471 E28.74384
G1 X101.796 Y96.855 E29.14094
G1 X101.378 Y97.199 E29.38788
G1 X100.864 Y96.685 E29.71979
G1 X100.396 Y96.979 E29.97193
G1 X100.645 Y97.228 E30.13274
G1 X99.384 Y97.828 F7800.000
G1 X98.949 Y97.393 E30.41352 F600.000
G1 X98.509 Y97.966 E30.74353
G1 X99.036 Y98.493 E31.08369
G1 X98.620 Y99.092 E31.41616
G1 X98.086 Y98.557 E31.76127
G1 Z9.000 F7800.000
G1 X98.603 Y100.227 F7800.000
G1 X98.367 Y100.463 E32.10367 F600.000
G1 X98.738 Y100.909 E32.69750
G1 X98.184 Y101.462 E33.49833
G1 X97.921 Y102.543 E34.63734
G1 X97.144 Y103.320 E35.76222
G1 X95.910 Y104.007 F7800.000
G1 X96.141 Y103.776 E36.09644 F600.000
G1 X95.844 Y103.400 E36.58726
G1 X95.151 Y104.093 E37.59063
G1 X94.593 Y103.978 E38.17404
G1 X95.220 Y103.351 E39.08166
G1 X94.728 Y103.170 E39.61884
G1 X94.145 Y103.753 E40.46275
G1 X93.784 Y103.441 E40.95143
G1 X94.318 Y102.906 E41.72514
G1 X93.982 Y102.569 E42.21256
G1 X93.458 Y103.094 E42.97173
G1 X93.222 Y102.656 E43.48052
G1 X93.449 Y102.430 E43.80862
G1 X93.239 Y101.930 F7800.000
G1 X93.616 Y101.553 E44.35383 F600.000
G1 E42.35383 F2400.00000
G92 E0
G1 X93.897 Y99.371 F7800.000
G1 E2.00000 F2400.00000
G1 X94.790 Y98.478 E3.29317 F600.000
G1 E1.29317 F2400.00000
G92 E0
G1 X98.712 Y100.540 F7800.000
G1 E2.00000 F2400.00000
G1 X99.344 Y99.909 E2.91449 F600.000
G1 X98.938 Y98.194 E4.71860
G1 X99.863 Y97.270 E6.05731
G1 X100.629 Y97.401 F7800.000
G1 X101.305 Y96.725 E7.03609 F600.000
G1 X103.181 Y97.123 E9.00014
G1 X102.367 Y97.937 E10.17966
G1 X103.710 Y98.869 E11.85307
G1 X104.498 Y98.080 E12.99473
G1 X105.457 Y99.396 E14.66145
G1 X104.773 Y100.080 E15.65198
G1 X104.996 Y100.722 F7800.000
G1 X105.272 Y100.446 E16.05162 F600.000
G1 X105.836 Y100.823 E16.74634
G1 X103.495 Y103.164 E20.13539
G1 X104.239 Y103.361 E20.92361
G1 X106.027 Y101.573 E23.51230
G1 X105.872 Y102.670 E24.64619
G1 X105.370 Y103.172 E25.37340
G1 E23.37340 F2400.00000
G92 E0
G1 X102.355 Y102.778 F7800.000
G1 E2.00000 F2400.00000
G1 X102.683 Y102.450 E2.47408 F600.000
G1 X102.019 Y101.985 E3.30385
G1 X101.532 Y102.472 E4.00931
G1 X100.754 Y102.121 E4.88328
G1 X101.216 Y101.659 E5.55234
G1 X100.499 Y101.247 E6.39900
G1 X100.053 Y101.693 E7.04477
G1 X99.456 Y101.161 E7.86354
G1 X99.879 Y100.738 E8.47593
G1 X99.263 Y100.225 E9.29678
G1 X98.951 Y100.537 E9.74794
G1 Z9.500 F7800.000
G1 X98.586 Y100.010 F7800.000
G1 X98.329 Y99.753 E9.87224 F625.433
G1 X98.147 Y100.300 E10.06987
G1 X98.644 Y100.797 E10.31101
G1 X98.127 Y101.010 E10.50262
G1 X98.546 Y101.429 E10.70590
G1 X98.378 Y101.990 E10.90672
G1 X97.983 Y101.594 E11.09836
G1 X97.762 Y102.103 E11.28856
G1 X98.144 Y102.485 E11.47346
G1 X97.861 Y102.931 E11.65472
G1 X97.483 Y102.553 E11.83792
G1 X97.148 Y102.948 E12.01537
G1 X97.527 Y103.327 E12.19928
G1 X97.163 Y103.692 E12.37615
G1 X96.768 Y103.297 E12.56730
G1 X96.536 Y103.795 E12.75550
G1 X96.790 Y104.049 E12.87867
G1 X95.966 Y104.092 F7800.000
G1 X95.758 Y103.884 E12.97957 F625.433
G1 X95.106 Y103.938 E13.20404
G1 X95.742 Y104.574 E13.51273
G1 X95.097 Y104.636 E13.73503
G1 X93.226 Y102.765 E14.64223
G1 X93.292 Y103.538 E14.90816
G1 X93.935 Y104.180 E15.21984
G1 E13.21984 F2400.00000
G92 E0
G1 X92.777 Y102.057 F7800.000
G1 E2.00000 F2400.00000
G1 X93.033 Y102.313 E2.12439 F625.433
G1 X93.297 Y101.826 E2.31433
G1 X92.840 Y101.370 E2.53580
G1 X93.394 Y101.173 E2.73741
G1 X92.994 Y100.773 E2.93152
G1 X93.220 Y100.249 E3.12731
G1 X93.606 Y100.634 E3.31422
G1 X93.883 Y100.161 E3.50241
G1 X93.499 Y99.777 E3.68825
G1 X93.834 Y99.361 E3.87137
G1 X94.215 Y99.742 E4.05623
G1 X94.596 Y99.373 E4.23829
G1 X94.209 Y98.986 E4.42612
G1 X94.624 Y98.650 E4.60918
G1 X95.031 Y99.057 E4.80649
G1 X95.531 Y98.807 E4.99838
G1 X95.090 Y98.366 E5.21228
G1 X95.634 Y98.159 E5.41172
G1 X95.894 Y98.419 E5.53813
G1 X96.806 Y98.503 F7800.000
G1 X97.083 Y98.781 E5.67278 F625.433
G1 X97.555 Y98.491 E5.86274
G1 X97.934 Y98.870 E6.04672
G1 X98.996 Y99.110 F7800.000
G1 X99.333 Y99.447 E6.34608 F625.433
G1 X99.987 Y98.705 E6.96765
G1 X99.370 Y98.088 E7.51609
G1 X100.114 Y97.435 E8.13775
G1 X100.471 Y97.793 E8.45566
G1 X101.269 Y97.457 F7800.000
G1 X101.522 Y97.710 E8.68085 F625.433
G1 X102.048 Y97.235 E9.12632
G1 X102.615 Y97.802 E9.62967
G1 X103.997 Y98.183 F7800.000
G1 X104.969 Y99.155 E10.49346 F625.433
G1 E8.49346 F2400.00000
G92 E0
G1 X106.261 Y101.035 F7800.000
G1 E2.00000 F2400.00000
G1 X106.028 Y100.802 E2.20753 F625.433
G1 X105.916 Y101.341 E2.55397
G1 X106.640 Y102.066 E3.19785
G1 X106.702 Y102.780 E3.64838
G1 X105.877 Y101.955 E4.38157
G1 X105.781 Y102.511 E4.73585
G1 X106.560 Y103.290 E5.42840
G1 X106.269 Y103.651 E5.71977
G1 X105.516 Y102.898 E6.38898
G1 X105.105 Y103.138 E6.68850
G1 X105.883 Y103.917 E7.38053
G1 X105.352 Y104.038 E7.72280
G1 X104.521 Y103.207 E8.46146
G1 X104.632 Y103.969 E8.94579
G1 X103.689 Y103.026 E9.78382
G1 X103.298 Y103.287 E10.07925
G1 X103.534 Y103.524 E10.28950
G1 X102.986 Y102.890 F7800.000
G1 X102.739 Y102.643 E10.50903 F625.433
G1 X102.183 Y102.799 E10.87174
G1 X101.405 Y102.021 E11.56376
G1 X100.359 Y101.686 F7800.000
G1 X99.685 Y101.013 E12.16196 F625.433
G1 X99.699 Y100.314 E12.60110
G1 X99.402 Y100.018 E12.86477
G1 Z10.000 F7800.000
G1 E10.86477 F2400.00000
G92 E0
G1 X97.501 Y102.793 F7800.000
G1 E2.00000 F2400.00000
G1 X98.148 Y102.145 E2.25210 F905.391
G1 X97.902 Y101.780 E2.37323
G1 X98.392 Y101.290 E2.56368
G1 X97.977 Y101.094 E2.68992
G1 X98.428 Y100.643 E2.86548
G1 X97.912 Y100.547 E3.00985
G1 X98.353 Y100.107 E3.18132
G1 X98.192 Y99.657 E3.31288
G1 X97.752 Y100.096 E3.48405
G1 X97.514 Y99.723 E3.60581
G1 X97.962 Y99.275 E3.78021
G1 X97.658 Y98.968 E3.89912
G1 X97.208 Y99.418 E4.07416
G1 X96.837 Y99.178 E4.19574
G1 X97.311 Y98.704 E4.38017
G1 X96.888 Y98.515 E4.50756
G1 X96.388 Y99.016 E4.70225
G1 X95.815 Y98.978 E4.86032
G1 X96.363 Y98.429 E5.07372
G1 X95.667 Y98.514 E5.26664
G1 X94.983 Y99.198 E5.53267
G1 X94.353 Y99.217 E5.70609
G1 X93.562 Y100.008 E6.01407
G1 X93.382 Y100.799 E6.23719
G1 X92.793 Y101.389 E6.46652
G1 X93.081 Y101.711 E6.58561
G1 X92.592 Y102.200 E6.77589
G1 X93.032 Y102.372 E6.90572
G1 X92.564 Y102.840 E7.08778
G1 X92.641 Y103.374 E7.23637
G1 X93.124 Y102.891 E7.42436
G1 X93.308 Y103.318 E7.55230
G1 X92.803 Y103.823 E7.74870
G1 X93.032 Y104.205 E7.87127
G1 X93.559 Y103.678 E8.07639
G1 X93.866 Y103.982 E8.19530
G1 X93.328 Y104.520 E8.40472
G1 X93.654 Y104.805 E8.52390
G1 X94.230 Y104.230 E8.74776
G1 X94.664 Y104.407 E8.87675
G1 X94.050 Y105.021 E9.11560
G1 X94.529 Y105.153 E9.25227
G1 X95.197 Y104.485 E9.51238
G1 X95.144 Y105.149 E9.69575
G1 X95.969 Y104.325 E10.01653
G1 X96.378 Y104.527 F7800.000
G1 X97.164 Y103.740 E10.32257 F905.391
G1 E8.32257 F2400.00000
G92 E0
G1 X99.851 Y98.516 F7800.000
G1 E2.00000 F2400.00000
G1 X100.412 Y97.955 E2.21200 F905.391
G1 E0.21200 F2400.00000
G92 E0
G1 X106.468 Y103.171 F7800.000
G1 E2.00000 F2400.00000
G1 X107.231 Y102.408 E2.28827 F905.391
G1 X107.110 Y101.937 E2.41832
G1 X106.555 Y102.491 E2.62760
G1 X106.465 Y101.988 E2.76404
G1 X106.951 Y101.502 E2.94753
G1 X106.756 Y101.104 E3.06599
G1 X106.311 Y101.549 E3.23414
G1 X106.127 Y101.139 E3.35405
G1 X106.547 Y100.720 E3.51245
G1 X106.320 Y100.353 E3.62758
G1 X105.919 Y100.754 E3.77918
G1 X105.687 Y100.393 E3.89388
G1 X106.065 Y100.015 E4.03656
G1 X105.660 Y99.827 E4.15585
G1 X105.434 Y100.053 E4.24124
G1 X105.158 Y99.735 E4.35356
G1 X105.498 Y99.396 E4.48175
G1 X105.201 Y99.099 E4.59379
G1 X104.863 Y99.437 E4.72132
G1 X104.552 Y99.155 E4.83350
G1 X104.891 Y98.816 E4.96139
G1 X104.562 Y98.551 E5.07407
G1 X104.225 Y98.888 E5.20138
G1 X103.882 Y98.638 E5.31481
G1 X104.224 Y98.296 E5.44419
G1 X103.870 Y98.057 E5.55835
G1 X103.516 Y98.411 E5.69211
G1 X103.118 Y98.216 E5.81052
G1 X103.488 Y97.846 E5.95026
G1 X103.075 Y97.665 E6.07052
G1 X102.682 Y98.058 E6.21906
G1 X102.183 Y97.964 E6.35456
G1 X102.617 Y97.530 E6.51845
G1 X102.097 Y97.456 E6.65869
G1 X101.573 Y97.980 E6.85664
G1 X101.464 Y97.497 E6.98911
G1 X99.444 Y99.516 E7.75184
G1 X100.002 Y99.552 E7.90107
G1 X99.447 Y100.106 E8.11051
G1 X99.563 Y100.585 E8.24189
G1 X100.013 Y100.134 E8.41205
G1 X100.146 Y100.595 E8.54010
G1 X99.747 Y100.993 E8.69063
G1 X99.985 Y101.349 E8.80484
G1 X100.354 Y100.980 E8.94412
G1 X100.618 Y101.309 E9.05683
G1 X100.277 Y101.650 E9.18569
G1 X100.576 Y101.945 E9.29773
G1 X100.922 Y101.598 E9.42848
G1 X101.252 Y101.861 E9.54123
G1 X100.908 Y102.205 E9.67104
G1 X101.259 Y102.448 E9.78493
G1 X101.599 Y102.108 E9.91331
G1 X101.956 Y102.344 E10.02767
G1 X101.610 Y102.690 E10.15854
G1 X101.962 Y102.932 E10.27250
G1 X102.317 Y102.576 E10.40691
G1 X102.682 Y102.805 E10.52183
G1 X102.313 Y103.174 E10.66109
G1 X102.662 Y103.418 E10.77485
G1 X103.047 Y103.033 E10.92016
G1 X103.416 Y103.257 E11.03548
G1 X103.013 Y103.660 E11.18768
G1 X103.371 Y103.896 E11.30209
G1 X103.796 Y103.471 E11.46267
G1 X104.198 Y103.662 E11.58157
G1 X103.741 Y104.118 E11.75401
G1 X104.140 Y104.313 E11.87248
G1 X104.640 Y103.813 E12.06129
G1 X105.154 Y103.892 E12.20025
G1 X104.577 Y104.469 E12.41823
G1 X105.068 Y104.571 E12.55227
G1 X105.855 Y103.784 E12.84952
G1 X105.649 Y104.584 E13.06998
G1 X107.273 Y102.960 E13.68333
G1 X107.003 Y103.823 F7800.000
G1 X106.536 Y104.290 E13.85964 F905.391
G1 E11.85964 F2400.00000
G92 E0
M107
M104 S0 ; turn off temperature
G28 X0  ; home X axis
M84     ; disable motors

; filament used = 306.3mm (0.2cm3)

; avoid_crossing_perimeters = 0
; bed_shape = 0x0,200x0,200x200,0x200
; bed_temperature = 0
; before_layer_gcode = 
; bridge_acceleration = 0
; bridge_fan_speed = 100
; brim_width = 0
; complete_objects = 0
; cooling = 1
; default_acceleration = 0
; disable_fan_first_layers = 3
; duplicate_distance = 6
; end_gcode = M104 S0 ; turn off temperature\nG28 X0  ; home X axis\nM84     ; disable motors\n
; extruder_clearance_height = 20
; extruder_clearance_radius = 20
; extruder_offset = 0x0
; extrusion_axis = E
; extrusion_multiplier = 1
; fan_always_on = 0
; fan_below_layer_time = 60
; filament_colour = #FFFFFF
; filament_diameter = 1
; first_layer_acceleration = 0
; first_layer_bed_temperature = 0
; first_layer_extrusion_width = 200%
; first_layer_speed = 30
; first_layer_temperature = 200
; gcode_arcs = 0
; gcode_comments = 0
; gcode_flavor = reprap
; infill_acceleration = 0
; infill_first = 0
; layer_gcode = 
; max_fan_speed = 100
; max_print_speed = 80
; max_volumetric_speed = 0
; min_fan_speed = 35
; min_print_speed = 10
; min_skirt_length = 0
; notes = 
; nozzle_diameter = 0.5
; only_retract_when_crossing_perimeters = 1
; ooze_prevention = 0
; output_filename_format = [input_filename_base].gcode
; perimeter_acceleration = 0
; post_process = 
; pressure_advance = 0
; resolution = 0
; retract_before_travel = 2
; retract_layer_change = 0
; retract_length = 2
; retract_length_toolchange = 10
; retract_lift = 0
; retract_restart_extra = 0
; retract_restart_extra_toolchange = 0
; retract_speed = 40
; skirt_distance = 6
; skirt_height = 1
; skirts = 0
; slowdown_below_layer_time = 5
; spiral_vase = 0
; standby_temperature_delta = -5
; start_gcode = G28 ; home all axes\nG1 Z5 F5000 ; lift nozzle\n
; temperature = 200
; threads = 2
; toolchange_gcode = 
; travel_speed = 130
; use_firmware_retraction = 0
; use_relative_e_distances = 0
; use_volumetric_e = 0
; vibration_limit = 0
; wipe = 0
; z_offset = 0
; dont_support_bridges = 1
; extrusion_width = 0
; first_layer_height = 0.5
; infill_only_where_needed = 0
; interface_shells = 0
; layer_height = 0.5
; raft_layers = 0
; seam_position = aligned
; support_material = 0
; support_material_angle = 0
; support_material_contact_distance = 0.2
; support_material_enforce_layers = 0
; support_material_extruder = 1
; support_material_extrusion_width = 0
; support_material_interface_extruder = 1
; support_material_interface_layers = 3
; support_material_interface_spacing = 0
; support_material_interface_speed = 100%
; support_material_pattern = pillars
; support_material_spacing = 2.5
; support_material_speed = 60
; support_material_threshold = 0
; xy_size_compensation = 0
; bottom_solid_layers = 0
; bridge_flow_ratio = 1
; bridge_speed = 60
; external_fill_pattern = rectilinear
; external_perimeter_extrusion_width = 0
; external_perimeter_speed = 50%
; external_perimeters_first = 0
; extra_perimeters = 1
; fill_angle = 45
; fill_density = 60%
; fill_pattern = rectilinear
; gap_fill_speed = 20
; infill_every_layers = 1
; infill_extruder = 1
; infill_extrusion_width = 0
; infill_overlap = 15%
; infill_speed = 80
; overhangs = 1
; perimeter_extruder = 1
; perimeter_extrusion_width = 0
; perimeter_speed = 60
; perimeters = 0
; small_perimeter_speed = 15
; solid_infill_below_area = 70
; solid_infill_every_layers = 0
; solid_infill_extruder = 1
; solid_infill_extrusion_width = 0
; solid_infill_speed = 20
; thin_walls = 1
; top_infill_extrusion_width = 0
; top_solid_infill_speed = 15
; top_solid_layers = 0
