; generated by Slic3r 1.3.0 on 2019-08-13 at 14:42:28

; external perimeters extrusion width = 0.55mm (6.64mm^3/s)
; perimeters extrusion width = 0.52mm (12.53mm^3/s)
; infill extrusion width = 0.52mm (16.71mm^3/s)
; solid infill extrusion width = 0.52mm (4.18mm^3/s)
; top infill extrusion width = 0.52mm (3.13mm^3/s)

M107
M104 S205 ; set temperature
G28 ; home all axes
G1 Z5 F5000 ; lift nozzle

; Filament gcode

M109 S205 ; set temperature and wait for it to be reached
G21 ; set units to millimeters
G90 ; use absolute coordinates
M82 ; use absolute distances for extrusion
G92 E0
G1 Z0.700 F7800.000
G1 E-2.00000 F2400.00000
G92 E0
G1 X93.005 Y95.184 F7800.000
G1 E2.00000 F2400.00000
G1 F600
G1 X93.432 Y94.832 E2.02710
G1 X93.789 Y94.631 E2.04715
G1 X94.212 Y94.470 E2.06931
G1 X94.467 Y94.413 E2.08207
G1 X94.734 Y94.379 E2.09528
G1 X95.016 Y94.372 E2.10907
G1 X95.280 Y94.391 E2.12202
G1 X95.519 Y94.436 E2.13394
G1 X95.954 Y94.574 E2.15629
G1 X96.238 Y94.701 E2.17152
G1 X96.444 Y94.820 E2.18316
G1 X96.795 Y95.079 E2.20452
G1 X96.961 Y95.236 E2.21570
G1 X97.179 Y95.490 E2.23207
G1 X97.367 Y95.801 E2.24987
G1 X97.533 Y96.271 E2.27426
G1 X97.589 Y96.604 E2.29077
G1 X97.588 Y96.950 E2.30771
G1 X97.566 Y97.126 E2.31641
G1 X97.454 Y97.564 E2.33854
G1 X97.256 Y97.958 E2.36014
G1 X97.033 Y98.259 E2.37843
G1 X96.848 Y98.446 E2.39134
G1 X96.502 Y98.699 E2.41230
G1 X96.293 Y98.810 E2.42390
G1 X96.084 Y98.886 E2.43477
G1 X95.692 Y98.975 E2.45448
G1 X95.445 Y99.002 E2.46665
G1 X95.166 Y99.003 E2.48026
G1 X94.599 Y98.924 E2.50829
G1 X94.246 Y98.838 E2.52607
G1 X94.002 Y98.749 E2.53882
G1 X93.681 Y98.616 E2.55580
G1 X93.425 Y98.475 E2.57012
G1 X92.986 Y98.162 E2.59651
G1 X92.797 Y97.990 E2.60901
G1 X92.633 Y97.795 E2.62146
G1 X92.427 Y97.437 E2.64170
G1 X92.339 Y97.170 E2.65545
G1 X92.306 Y96.987 E2.66455
G1 X92.303 Y96.610 E2.68302
G1 X92.405 Y96.131 E2.70697
G1 X92.613 Y95.687 E2.73100
G1 X92.790 Y95.429 E2.74628
G1 X92.954 Y95.239 E2.75858
G1 X93.005 Y95.184 F7800.000
M104 S200 ; set temperature
G1 Z1.200 F7800.000
G1 X93.141 Y95.312 F7800.000
G1 F600
G1 X93.508 Y94.977 E2.77765
G1 X93.880 Y94.735 E2.79467
G1 X94.160 Y94.607 E2.80647
G1 X94.482 Y94.497 E2.81952
G1 X94.770 Y94.439 E2.83078
G1 X95.262 Y94.414 E2.84967
G1 X95.738 Y94.478 E2.86808
G1 X96.118 Y94.594 E2.88333
G1 X96.385 Y94.705 E2.89441
G1 X96.626 Y94.839 E2.90498
G1 X96.993 Y95.102 E2.92229
G1 X97.370 Y95.492 E2.94311
G1 X97.569 Y95.800 E2.95714
G1 X97.748 Y96.268 E2.97638
G1 X97.813 Y96.601 E2.98937
G1 X97.811 Y97.059 E3.00697
G1 X97.718 Y97.504 E3.02438
G1 X97.541 Y97.909 E3.04134
G1 X97.294 Y98.265 E3.05796
G1 X97.093 Y98.473 E3.06906
G1 X96.937 Y98.600 E3.07676
G1 X96.626 Y98.796 E3.09085
G1 X96.367 Y98.909 E3.10168
G1 X95.944 Y99.016 E3.11841
G1 X95.737 Y99.042 E3.12642
G1 X95.431 Y99.048 E3.13817
G1 X94.881 Y98.978 E3.15941
G1 X94.576 Y98.909 E3.17140
G1 X94.259 Y98.807 E3.18417
G1 X93.937 Y98.668 E3.19763
G1 X93.693 Y98.538 E3.20822
G1 X93.457 Y98.394 E3.21882
G1 X93.229 Y98.217 E3.22989
G1 X93.070 Y98.077 E3.23801
G1 X92.883 Y97.856 E3.24910
G1 X92.759 Y97.685 E3.25724
G1 X92.650 Y97.473 E3.26636
G1 X92.576 Y97.261 E3.27499
G1 X92.532 Y97.059 E3.28292
G1 X92.519 Y96.682 E3.29736
G1 X92.613 Y96.201 E3.31616
G1 X92.823 Y95.739 E3.33562
G1 X93.091 Y95.369 E3.35317
G1 X93.141 Y95.312 F7800.000
G1 Z1.700 F7800.000
G1 X93.276 Y95.419 F7800.000
G1 F600
G1 X93.454 Y95.227 E3.36242
G1 X93.795 Y94.946 E3.37807
G1 X94.135 Y94.745 E3.39208
G1 X94.344 Y94.651 E3.40016
G1 X94.670 Y94.541 E3.41235
G1 X95.123 Y94.465 E3.42863
G1 X95.358 Y94.457 E3.43694
G1 X95.741 Y94.485 E3.45053
G1 X96.214 Y94.606 E3.46782
G1 X96.670 Y94.805 E3.48545
G1 X97.076 Y95.064 E3.50249
G1 F600
G1 X97.361 Y95.311 E3.51719
G1 X97.526 Y95.493 E3.52676
G1 X97.763 Y95.851 E3.54347
G1 X97.928 Y96.233 E3.55970
G1 X98.014 Y96.643 E3.57602
G1 X98.008 Y97.162 E3.59624
G1 X97.931 Y97.510 E3.61011
G1 X97.769 Y97.903 E3.62666
G1 X97.677 Y98.057 E3.63362
G1 X97.449 Y98.362 E3.64847
G1 F600
G1 X97.137 Y98.645 E3.66326
G1 X96.846 Y98.825 E3.67526
G1 X96.427 Y98.991 E3.69107
G1 X96.297 Y99.023 E3.69576
G1 X95.913 Y99.080 E3.70938
G1 X95.495 Y99.077 E3.72403
G1 X95.231 Y99.046 E3.73334
G1 X94.672 Y98.913 E3.75353
G1 F600
G1 X94.258 Y98.762 E3.77058
G1 X94.007 Y98.639 E3.78140
G1 X93.656 Y98.432 E3.79715
G1 X93.240 Y98.090 E3.81798
G1 X92.966 Y97.742 E3.83514
G1 X92.811 Y97.427 E3.84872
G1 X92.724 Y97.086 E3.86234
G1 X92.708 Y96.750 E3.87534
G1 F600
G1 X92.735 Y96.498 E3.88526
G1 X92.812 Y96.213 E3.89680
G1 X93.027 Y95.754 E3.91658
G1 F600
G1 X93.229 Y95.478 E3.92870
G1 X93.265 Y95.392 F7800.000
M106 S255
G1 Z2.200 F7800.000
G1 X93.418 Y95.532 F7800.000
G1 F600
G1 X93.575 Y95.346 E3.93812
G1 X93.807 Y95.130 E3.95032
G1 X94.236 Y94.841 E3.97029
G1 X94.499 Y94.715 E3.98154
G1 X94.991 Y94.561 E4.00141
G1 X95.220 Y94.523 E4.01037
G1 X95.524 Y94.506 E4.02210
G1 X95.959 Y94.540 E4.03892
G1 X96.279 Y94.610 E4.05159
G1 X96.458 Y94.669 E4.05885
G1 X96.898 Y94.866 E4.07746
G1 X97.338 Y95.155 E4.09774
G1 X97.669 Y95.463 E4.11517
G1 X97.919 Y95.801 E4.13139
G1 X98.095 Y96.165 E4.14701
G1 X98.209 Y96.575 E4.16341
G1 X98.234 Y96.997 E4.17973
G1 X98.205 Y97.294 E4.19122
G1 X98.121 Y97.636 E4.20482
G1 X97.959 Y97.997 E4.22008
G1 X97.835 Y98.195 E4.22909
G1 X97.645 Y98.426 E4.24059
G1 X97.316 Y98.716 E4.25754
G1 X96.872 Y98.957 E4.27703
G1 X96.426 Y99.086 E4.29496
G1 X96.184 Y99.120 E4.30436
G1 X95.869 Y99.129 E4.31650
G1 X95.323 Y99.068 E4.33772
G1 X94.802 Y98.932 E4.35847
G1 X94.241 Y98.696 E4.38197
G1 X93.800 Y98.430 E4.40182
G1 X93.428 Y98.105 E4.42088
G1 X93.291 Y97.956 E4.42870
G1 X93.146 Y97.748 E4.43845
G1 X93.056 Y97.576 E4.44597
G1 X92.964 Y97.309 E4.45684
G1 X92.921 Y97.116 E4.46446
G1 X92.907 Y96.933 E4.47155
G1 X92.921 Y96.638 E4.48296
G1 X92.952 Y96.458 E4.49000
G1 X93.117 Y96.005 E4.50860
G1 X93.221 Y95.807 E4.51723
G1 X93.371 Y95.591 E4.52737
G1 X93.365 Y95.405 F7800.000
G1 Z2.700 F7800.000
G1 X93.571 Y95.645 F7800.000
G1 F600
G1 X93.789 Y95.383 E4.54053
G1 X94.152 Y95.071 E4.55901
G1 F600
G1 X94.470 Y94.872 E4.57213
G1 X94.722 Y94.756 E4.58183
G1 X95.173 Y94.614 E4.59838
G1 X95.496 Y94.565 E4.60982
G1 X95.799 Y94.555 E4.62042
G1 X96.202 Y94.592 E4.63457
G1 X96.596 Y94.692 E4.64881
G1 X97.011 Y94.863 E4.66452
G1 F600
G1 X97.374 Y95.073 E4.68087
G1 X97.574 Y95.223 E4.69062
G1 X97.819 Y95.445 E4.70348
G1 X98.018 Y95.676 E4.71536
G1 X98.203 Y95.976 E4.72909
G1 X98.315 Y96.236 E4.74013
G1 X98.427 Y96.652 E4.75689
G1 X98.449 Y97.063 E4.77296
G1 X98.431 Y97.268 E4.78098
G1 X98.396 Y97.466 E4.78880
G1 X98.271 Y97.853 E4.80465
G1 X98.129 Y98.129 E4.81674
G1 X97.896 Y98.442 E4.83195
G1 X97.559 Y98.750 E4.84973
G1 F600
G1 X97.099 Y99.011 E4.86846
G1 X96.665 Y99.134 E4.88441
G1 X96.357 Y99.175 E4.89542
G1 X96.044 Y99.178 E4.90649
G1 X95.513 Y99.112 E4.92543
G1 X95.165 Y99.027 E4.93807
G1 X94.666 Y98.845 E4.95690
G1 F600
G1 X94.279 Y98.646 E4.97386
G1 X93.945 Y98.425 E4.98952
G1 X93.682 Y98.194 E5.00320
G1 X93.431 Y97.903 E5.01820
G1 X93.296 Y97.685 E5.02821
G1 X93.188 Y97.422 E5.03930
G1 X93.130 Y97.177 E5.04912
G1 X93.109 Y96.908 E5.05967
G1 F600
G1 X93.139 Y96.593 E5.07189
G1 X93.220 Y96.289 E5.08403
G1 X93.406 Y95.886 E5.10117
G1 X93.526 Y95.705 E5.10954
G1 X93.558 Y95.616 F7800.000
G1 Z3.200 F7800.000
G1 X93.724 Y95.760 F7800.000
G1 F600
G1 X93.863 Y95.576 E5.11854
G1 F600
G1 X93.973 Y95.449 E5.12451
G1 X94.194 Y95.249 E5.13511
G1 X94.384 Y95.097 E5.14372
G1 X94.660 Y94.925 E5.15527
G1 X94.915 Y94.805 E5.16529
G1 X95.183 Y94.710 E5.17540
G1 X95.452 Y94.644 E5.18520
G1 X95.742 Y94.608 E5.19559
G1 X95.997 Y94.599 E5.20465
G1 X96.367 Y94.634 E5.21784
G1 X96.745 Y94.720 E5.23161
G1 X97.294 Y94.948 E5.25270
G1 X97.667 Y95.182 E5.26832
G1 F600
G1 X98.071 Y95.538 E5.28947
G1 X98.344 Y95.905 E5.30745
G1 X98.452 Y96.111 E5.31659
G1 X98.577 Y96.436 E5.33025
G1 X98.667 Y96.925 E5.34977
G1 X98.653 Y97.269 E5.36331
G1 X98.604 Y97.565 E5.37509
G1 X98.468 Y97.952 E5.39119
G1 X98.362 Y98.155 E5.40021
G1 X98.139 Y98.474 E5.41547
G1 X97.787 Y98.800 E5.43432
G1 F600
G1 X97.379 Y99.042 E5.45100
G1 X97.036 Y99.158 E5.46376
G1 X96.538 Y99.231 E5.48147
G1 X96.103 Y99.224 E5.49677
G1 X95.524 Y99.125 E5.51746
G1 X95.105 Y98.994 E5.53293
G1 X94.604 Y98.766 E5.55231
G1 X94.303 Y98.579 E5.56479
G1 F600
G1 X93.892 Y98.247 E5.58530
G1 X93.581 Y97.862 E5.60450
G1 X93.445 Y97.606 E5.61575
G1 X93.380 Y97.420 E5.62342
G1 X93.331 Y97.189 E5.63257
G1 X93.317 Y96.935 E5.64244
G1 F600
G1 X93.327 Y96.745 E5.64986
G1 X93.391 Y96.440 E5.66204
G1 X93.494 Y96.155 E5.67387
G1 X93.679 Y95.820 E5.68881
G1 X93.631 Y95.550 F7800.000
G1 Z3.700 F7800.000
G1 X93.881 Y95.867 F7800.000
G1 F600
G1 X94.176 Y95.493 E5.70714
G1 X94.595 Y95.137 E5.72829
G1 X95.089 Y94.864 E5.74998
G1 X95.558 Y94.714 E5.76892
G1 X96.093 Y94.648 E5.78967
G1 X96.519 Y94.675 E5.80609
G1 X96.977 Y94.780 E5.82415
G1 X97.403 Y94.952 E5.84184
G1 X97.785 Y95.171 E5.85877
G1 X98.164 Y95.480 E5.87757
G1 X98.483 Y95.851 E5.89642
G1 X98.707 Y96.253 E5.91408
G1 X98.816 Y96.582 E5.92742
G1 X98.882 Y96.997 E5.94360
G1 X98.855 Y97.453 E5.96115
G1 X98.707 Y97.971 E5.98187
G1 X98.524 Y98.315 E5.99687
G1 X98.340 Y98.560 E6.00868
G1 X97.998 Y98.865 E6.02631
G1 X97.547 Y99.122 E6.04626
G1 X97.195 Y99.231 E6.06044
G1 X96.644 Y99.296 E6.08179
G1 X96.078 Y99.253 E6.10361
G1 X95.536 Y99.123 E6.12503
G1 X95.113 Y98.969 E6.14236
G1 X94.588 Y98.693 E6.16516
G1 X94.287 Y98.476 E6.17944
G1 X94.085 Y98.295 E6.18989
G1 X93.904 Y98.093 E6.20032
G1 X93.782 Y97.919 E6.20849
G1 X93.666 Y97.699 E6.21808
G1 X93.583 Y97.469 E6.22748
G1 X93.537 Y97.266 E6.23546
G1 X93.526 Y96.827 E6.25236
G1 X93.558 Y96.629 E6.26006
G1 X93.632 Y96.364 E6.27067
G1 X93.740 Y96.107 E6.28139
G1 X93.839 Y95.929 E6.28922
G1 X93.819 Y95.742 F7800.000
G1 Z4.200 F7800.000
G1 X94.051 Y95.968 F7800.000
G1 F600
G1 X94.171 Y95.792 E6.29742
G1 X94.362 Y95.565 E6.30883
G1 X94.590 Y95.350 E6.32093
G1 X94.798 Y95.193 E6.33096
G1 X95.282 Y94.924 E6.35230
G1 X95.627 Y94.805 E6.36637
G1 X95.832 Y94.755 E6.37452
G1 X96.384 Y94.705 E6.39587
G1 X96.736 Y94.734 E6.40948
G1 X97.135 Y94.824 E6.42525
G1 X97.647 Y95.029 E6.44647
G1 X98.167 Y95.354 E6.47011
G1 X98.494 Y95.654 E6.48722
G1 X98.668 Y95.868 E6.49784
G1 X98.876 Y96.202 E6.51303
G1 X98.964 Y96.410 E6.52172
G1 X99.071 Y96.800 E6.53731
G1 X99.097 Y96.981 E6.54436
G1 X99.102 Y97.255 E6.55492
G1 X99.051 Y97.653 E6.57038
G1 X99.011 Y97.806 E6.57646
G1 X98.927 Y98.040 E6.58603
G1 X98.803 Y98.283 E6.59656
G1 X98.585 Y98.598 E6.61131
G1 X98.437 Y98.751 E6.61952
G1 X98.241 Y98.916 E6.62939
G1 X97.990 Y99.081 E6.64097
G1 F600
G1 X97.745 Y99.192 E6.65034
G1 X97.403 Y99.295 E6.66277
G1 X97.086 Y99.346 E6.67395
G1 X96.798 Y99.358 E6.68401
G1 X96.423 Y99.332 E6.69710
G1 X95.871 Y99.223 E6.71666
G1 X95.274 Y99.002 E6.73885
G1 F600
G1 X94.816 Y98.763 E6.75879
G1 X94.538 Y98.568 E6.77192
G1 X94.272 Y98.327 E6.78575
G1 X94.029 Y98.041 E6.80028
G1 X93.900 Y97.827 E6.80992
G1 X93.798 Y97.566 E6.82075
G1 X93.743 Y97.349 E6.82941
G1 X93.722 Y97.024 E6.84196
G1 F600
G1 X93.736 Y96.819 E6.84991
G1 X93.803 Y96.516 E6.86187
G1 X94.013 Y96.032 E6.88218
G1 X94.051 Y95.967 F7800.000
G1 Z4.700 F7800.000
G1 X94.228 Y96.077 F7800.000
G1 F600
G1 X94.234 Y96.067 E6.88263
G1 F600
G1 X94.364 Y95.869 E6.89104
G1 X94.551 Y95.642 E6.90151
G1 X94.766 Y95.435 E6.91211
G1 X94.998 Y95.255 E6.92256
G1 X95.448 Y95.001 E6.94092
G1 X95.728 Y94.894 E6.95159
G1 X96.027 Y94.816 E6.96257
G1 X96.556 Y94.765 E6.98143
G1 X97.072 Y94.817 E6.99989
G1 X97.501 Y94.935 E7.01569
G1 X97.819 Y95.070 E7.02799
G1 X98.257 Y95.324 E7.04595
G1 F600
G1 X98.631 Y95.635 E7.06500
G1 X98.936 Y96.000 E7.08360
G1 X99.133 Y96.357 E7.09953
G1 X99.215 Y96.577 E7.10872
G1 X99.274 Y96.804 E7.11790
G1 X99.316 Y97.108 E7.12990
G1 X99.297 Y97.556 E7.14742
G1 X99.172 Y98.043 E7.16708
G1 X98.999 Y98.392 E7.18232
G1 X98.830 Y98.630 E7.19374
G1 X98.719 Y98.758 E7.20036
G1 X98.468 Y98.980 E7.21348
G1 F600
G1 X98.111 Y99.198 E7.22831
G1 X97.853 Y99.301 E7.23813
G1 X97.587 Y99.374 E7.24793
G1 X97.068 Y99.425 E7.26642
G1 X96.565 Y99.388 E7.28428
G1 X96.200 Y99.315 E7.29747
G1 X95.866 Y99.215 E7.30984
G1 X95.437 Y99.046 E7.32618
G1 F600
G1 X94.951 Y98.776 E7.34800
G1 X94.670 Y98.568 E7.36175
G1 X94.477 Y98.389 E7.37208
G1 X94.226 Y98.081 E7.38769
G1 X94.074 Y97.810 E7.39988
G1 X93.992 Y97.581 E7.40942
G1 X93.940 Y97.313 E7.42015
G1 X93.929 Y97.032 E7.43119
G1 F600
G1 X93.949 Y96.836 E7.43894
G1 X94.015 Y96.549 E7.45044
G1 X94.191 Y96.143 E7.46781
G1 X94.222 Y96.067 F7800.000
G1 Z5.200 F7800.000
G1 X94.421 Y96.179 F7800.000
G1 F600
G1 X94.752 Y95.722 E7.49035
G1 F600
G1 X95.016 Y95.468 E7.50337
G1 X95.261 Y95.284 E7.51424
G1 X95.701 Y95.048 E7.53196
G1 X96.265 Y94.875 E7.55292
G1 X96.567 Y94.841 E7.56371
G1 X96.803 Y94.831 E7.57209
G1 X97.167 Y94.864 E7.58507
G1 X97.592 Y94.962 E7.60053
G1 X98.089 Y95.166 E7.61960
G1 X98.518 Y95.430 E7.63751
G1 F600
G1 X98.866 Y95.731 E7.65576
G1 X99.066 Y95.967 E7.66803
G1 X99.209 Y96.177 E7.67812
G1 X99.325 Y96.395 E7.68792
G1 X99.445 Y96.709 E7.70125
G1 X99.532 Y97.149 E7.71907
G1 X99.519 Y97.606 E7.73722
G1 X99.450 Y97.938 E7.75070
G1 X99.378 Y98.146 E7.75942
G1 X99.242 Y98.424 E7.77171
G1 X99.036 Y98.719 E7.78600
G1 X98.924 Y98.842 E7.79258
G1 X98.691 Y99.044 E7.80481
G1 F600
G1 X98.282 Y99.288 E7.82156
G1 X97.908 Y99.412 E7.83537
G1 X97.467 Y99.478 E7.85104
G1 X96.970 Y99.476 E7.86849
G1 X96.351 Y99.367 E7.89056
G1 X96.001 Y99.258 E7.90345
G1 X95.688 Y99.127 E7.91537
G1 X95.199 Y98.859 E7.93494
G1 F600
G1 X94.753 Y98.515 E7.95686
G1 X94.568 Y98.317 E7.96741
G1 X94.417 Y98.111 E7.97734
G1 X94.302 Y97.901 E7.98667
G1 X94.214 Y97.669 E7.99635
G1 X94.160 Y97.420 E8.00625
G1 X94.146 Y97.130 E8.01754
G1 F600
G1 X94.155 Y96.966 E8.02410
G1 X94.211 Y96.680 E8.03575
G1 X94.311 Y96.394 E8.04782
G1 X94.385 Y96.246 E8.05445
G1 X94.397 Y96.141 F7800.000
G1 Z5.700 F7800.000
G1 X94.616 Y96.285 F7800.000
G1 F600
G1 X94.805 Y95.986 E8.06812
G1 X94.985 Y95.769 E8.07902
G1 X95.158 Y95.598 E8.08838
G1 X95.414 Y95.394 E8.10101
G1 X95.824 Y95.158 E8.11928
G1 F600
G1 X96.390 Y94.965 E8.14023
G1 X96.686 Y94.917 E8.15073
G1 X97.002 Y94.902 E8.16182
G1 X97.503 Y94.959 E8.17949
G1 X97.883 Y95.062 E8.19328
G1 X98.286 Y95.239 E8.20870
G1 F600
G1 X98.777 Y95.543 E8.23118
G1 X99.044 Y95.770 E8.24482
G1 X99.166 Y95.899 E8.25173
G1 X99.429 Y96.245 E8.26866
G1 X99.620 Y96.615 E8.28489
G1 X99.701 Y96.859 E8.29489
G1 F600
G1 X99.777 Y97.304 E8.31418
G1 X99.764 Y97.728 E8.33233
G1 X99.691 Y98.056 E8.34667
G1 X99.544 Y98.417 E8.36335
G1 F600
G1 X99.310 Y98.777 E8.38002
G1 X98.988 Y99.088 E8.39742
G1 X98.614 Y99.322 E8.41459
G1 X98.271 Y99.451 E8.42884
G1 X98.002 Y99.511 E8.43952
G1 X97.686 Y99.551 E8.45192
G1 X97.183 Y99.538 E8.47147
G1 X96.684 Y99.457 E8.49111
G1 X96.005 Y99.240 E8.51885
G1 X95.734 Y99.110 E8.53052
G1 X95.416 Y98.933 E8.54465
G1 X94.980 Y98.596 E8.56608
G1 X94.718 Y98.295 E8.58159
G1 X94.566 Y98.063 E8.59237
G1 X94.468 Y97.847 E8.60158
G1 X94.403 Y97.632 E8.61034
G1 X94.363 Y97.286 E8.62386
G1 F600
G1 X94.364 Y97.117 E8.63039
G1 X94.409 Y96.832 E8.64150
G1 X94.581 Y96.352 E8.66121
G1 X94.577 Y96.225 F7800.000
G1 Z6.200 F7800.000
G1 X94.822 Y96.380 F7800.000
G1 F600
G1 X94.970 Y96.133 E8.67230
G1 X95.187 Y95.863 E8.68562
G1 X95.557 Y95.524 E8.70492
G1 X95.795 Y95.366 E8.71593
G1 X96.061 Y95.227 E8.72748
G1 X96.320 Y95.125 E8.73821
G1 X96.583 Y95.052 E8.74870
G1 X96.899 Y95.000 E8.76104
G1 X97.210 Y94.987 E8.77301
G1 X97.658 Y95.030 E8.79034
G1 X97.971 Y95.108 E8.80275
G1 X98.603 Y95.370 E8.82907
G1 X99.010 Y95.623 E8.84751
G1 X99.368 Y95.935 E8.86582
G1 X99.530 Y96.118 E8.87522
G1 X99.770 Y96.465 E8.89147
G1 F600
G1 X99.926 Y96.808 E8.90753
G1 X100.039 Y97.236 E8.92643
G1 X100.068 Y97.547 E8.93978
G1 X100.032 Y97.973 E8.95799
G1 X99.966 Y98.233 E8.96944
G1 X99.896 Y98.422 E8.97805
G1 X99.725 Y98.733 E8.99321
G1 X99.398 Y99.103 E9.01429
G1 X99.190 Y99.258 E9.02536
G1 F600
G1 X99.015 Y99.366 E9.03337
G1 X98.698 Y99.504 E9.04686
G1 X98.445 Y99.577 E9.05710
G1 F600
G1 X98.063 Y99.634 E9.07059
G1 X97.518 Y99.629 E9.08960
G1 X96.907 Y99.528 E9.11122
G1 X96.319 Y99.337 E9.13278
G1 F600
G1 X95.735 Y99.055 E9.15821
G1 X95.336 Y98.779 E9.17722
G1 X95.129 Y98.581 E9.18846
G1 X94.861 Y98.254 E9.20503
G1 X94.741 Y98.037 E9.21476
G1 X94.625 Y97.689 E9.22913
G1 X94.587 Y97.392 E9.24086
G1 F600
G1 X94.591 Y97.144 E9.25042
G1 X94.631 Y96.900 E9.25995
G1 X94.708 Y96.635 E9.27055
G1 X94.791 Y96.448 E9.27841
G1 X94.818 Y96.374 F7800.000
G1 Z6.700 F7800.000
G1 X95.037 Y96.493 F7800.000
G1 F600
G1 X95.150 Y96.292 E9.28762
G1 X95.314 Y96.064 E9.29884
G1 X95.538 Y95.822 E9.31199
G1 F600
G1 X95.715 Y95.667 E9.32050
G1 X95.948 Y95.501 E9.33079
G1 X96.295 Y95.315 E9.34502
G1 X96.538 Y95.219 E9.35445
G1 X96.825 Y95.139 E9.36518
G1 X97.350 Y95.074 E9.38426
G1 X97.842 Y95.107 E9.40207
G1 X98.330 Y95.228 E9.42021
G1 X98.795 Y95.417 E9.43829
G1 X99.036 Y95.550 E9.44825
G1 X99.349 Y95.757 E9.46178
G1 F600
G1 X99.653 Y96.019 E9.47792
G1 X99.918 Y96.322 E9.49411
G1 X100.122 Y96.657 E9.50989
G1 X100.202 Y96.829 E9.51756
G1 F600
G1 X100.330 Y97.236 E9.53637
G1 X100.369 Y97.451 E9.54603
G1 X100.385 Y97.855 E9.56390
G1 X100.351 Y98.130 E9.57610
G1 X100.284 Y98.390 E9.58800
G1 X100.204 Y98.604 E9.59808
G1 X99.998 Y98.946 E9.61568
G1 X99.707 Y99.248 E9.63421
G1 F600
G1 X99.476 Y99.414 E9.64569
G1 X99.087 Y99.610 E9.66323
G1 X98.573 Y99.740 E9.68462
G1 F600
G1 X97.967 Y99.762 E9.70640
G1 X97.691 Y99.732 E9.71640
G1 X97.218 Y99.643 E9.73369
G1 X96.794 Y99.517 E9.74959
G1 X96.513 Y99.406 E9.76042
G1 X95.951 Y99.120 E9.78310
G1 X95.600 Y98.873 E9.79853
G1 F600
G1 X95.272 Y98.557 E9.81667
G1 X95.055 Y98.254 E9.83153
G1 X94.897 Y97.899 E9.84705
G1 X94.822 Y97.510 E9.86282
G1 F600
G1 X94.820 Y97.269 E9.87244
G1 X94.861 Y96.980 E9.88406
G1 X95.005 Y96.561 E9.90175
G1 X95.016 Y96.463 F7800.000
G1 Z7.200 F7800.000
G1 X95.263 Y96.605 F7800.000
G1 F600
G1 X95.446 Y96.292 E9.91535
G1 X95.620 Y96.070 E9.92592
G1 X95.819 Y95.868 E9.93656
G1 X96.182 Y95.591 E9.95368
G1 X96.472 Y95.428 E9.96614
G1 X96.821 Y95.288 E9.98026
G1 X97.117 Y95.211 E9.99174
G1 X97.433 Y95.166 E10.00368
G1 X97.698 Y95.155 E10.01365
G1 X98.065 Y95.182 E10.02743
G1 X98.667 Y95.325 E10.05066
G1 X99.062 Y95.484 E10.06661
G1 X99.414 Y95.675 E10.08161
G1 X99.701 Y95.875 E10.09473
G1 X100.014 Y96.160 E10.11060
G1 F600
G1 X100.237 Y96.426 E10.12495
G1 X100.448 Y96.779 E10.14192
G1 X100.597 Y97.142 E10.15813
G1 X100.630 Y97.265 E10.16338
G1 F600
G1 X100.685 Y97.542 E10.17613
G1 X100.708 Y98.009 E10.19720
G1 X100.638 Y98.429 E10.21642
G1 X100.576 Y98.626 E10.22573
G1 X100.410 Y98.970 E10.24297
G1 X100.175 Y99.266 E10.26002
G1 F600
G1 X99.863 Y99.524 E10.27653
G1 X99.492 Y99.722 E10.29370
G1 X98.995 Y99.871 E10.31484
G1 F600
G1 X98.586 Y99.917 E10.32962
G1 X98.277 Y99.915 E10.34068
G1 X97.993 Y99.884 E10.35093
G1 X97.555 Y99.803 E10.36692
G1 X97.035 Y99.644 E10.38640
G1 X96.508 Y99.408 E10.40711
G1 X96.202 Y99.231 E10.41980
G1 X95.881 Y99.004 E10.43390
G1 F600
G1 X95.496 Y98.631 E10.45541
G1 X95.338 Y98.416 E10.46612
G1 X95.217 Y98.195 E10.47622
G1 X95.133 Y97.975 E10.48566
G1 X95.084 Y97.765 E10.49433
G1 X95.060 Y97.374 E10.51006
G1 F600
G1 X95.125 Y96.964 E10.52560
G1 X95.232 Y96.673 E10.53723
G1 X95.216 Y96.538 F7800.000
G1 Z7.700 F7800.000
G1 X95.490 Y96.705 F7800.000
G1 F600
G1 X95.639 Y96.436 E10.54957
G1 X95.782 Y96.240 E10.55931
G1 F600
G1 X96.013 Y95.986 E10.57182
G1 X96.233 Y95.796 E10.58242
G1 X96.476 Y95.628 E10.59316
G1 X96.743 Y95.483 E10.60420
G1 X97.276 Y95.296 E10.62473
G1 X97.687 Y95.227 E10.63990
G1 X97.941 Y95.217 E10.64915
G1 X98.252 Y95.237 E10.66049
G1 X98.469 Y95.266 E10.66844
G1 X98.907 Y95.372 E10.68484
G1 X99.367 Y95.557 E10.70288
G1 X99.888 Y95.866 E10.72491
G1 F600
G1 X100.173 Y96.100 E10.73978
G1 X100.469 Y96.420 E10.75733
G1 X100.699 Y96.773 E10.77431
G1 X100.912 Y97.289 E10.79681
G1 F600
G1 X101.005 Y97.755 E10.81789
G1 X101.013 Y98.124 E10.83431
G1 X100.927 Y98.622 E10.85672
G1 X100.740 Y99.074 E10.87843
G1 F600
G1 X100.523 Y99.368 E10.89326
G1 X100.268 Y99.609 E10.90747
G1 X99.858 Y99.843 E10.92662
G1 X99.533 Y99.965 E10.94069
G1 F600
G1 X99.149 Y100.048 E10.95487
G1 X98.622 Y100.072 E10.97396
G1 X98.087 Y100.019 E10.99339
G1 X97.791 Y99.958 E11.00431
G1 X97.446 Y99.853 E11.01736
G1 X97.065 Y99.710 E11.03205
G1 X96.525 Y99.425 E11.05412
G1 X96.233 Y99.225 E11.06691
G1 X96.031 Y99.059 E11.07636
G1 X95.757 Y98.780 E11.09048
G1 F600
G1 X95.597 Y98.565 E11.10115
G1 X95.470 Y98.342 E11.11133
G1 X95.385 Y98.132 E11.12033
G1 X95.314 Y97.829 E11.13266
G1 X95.292 Y97.495 E11.14598
G1 F600
G1 X95.344 Y97.113 E11.16145
G1 X95.461 Y96.774 E11.17588
G1 X95.484 Y96.696 F7800.000
G1 Z8.200 F7800.000
G1 X95.710 Y96.797 F7800.000
G1 F600
G1 X95.921 Y96.432 E11.19223
G1 X96.253 Y96.043 E11.21211
G1 F600
G1 X96.477 Y95.849 E11.22254
G1 X96.752 Y95.662 E11.23426
G1 X97.040 Y95.512 E11.24570
G1 X97.305 Y95.407 E11.25576
G1 X97.545 Y95.341 E11.26453
G1 X97.899 Y95.285 E11.27716
G1 X98.211 Y95.272 E11.28814
G1 X98.633 Y95.304 E11.30305
G1 X99.048 Y95.395 E11.31804
G1 X99.263 Y95.463 E11.32600
G1 F600
G1 X99.646 Y95.623 E11.34223
G1 X100.083 Y95.877 E11.36198
G1 X100.440 Y96.164 E11.37987
G1 X100.724 Y96.474 E11.39633
G1 X100.957 Y96.819 E11.41259
G1 X101.126 Y97.183 E11.42830
G1 X101.234 Y97.555 E11.44341
G1 X101.279 Y97.848 E11.45501
G1 X101.294 Y98.134 E11.46622
G1 X101.246 Y98.563 E11.48309
G1 X101.121 Y98.982 E11.50019
G1 X100.921 Y99.346 E11.51642
G1 X100.689 Y99.621 E11.53047
G1 X100.389 Y99.851 E11.54523
G1 X100.024 Y100.034 E11.56121
G1 X99.740 Y100.126 E11.57289
G1 F600
G1 X99.305 Y100.205 E11.58859
G1 X98.763 Y100.219 E11.60782
G1 X98.361 Y100.177 E11.62216
G1 X98.091 Y100.128 E11.63190
G1 X97.780 Y100.041 E11.64336
G1 X97.359 Y99.894 E11.65917
G1 X96.851 Y99.639 E11.67935
G1 X96.383 Y99.314 E11.69957
G1 X96.084 Y99.034 E11.71412
G1 F600
G1 X95.931 Y98.861 E11.72318
G1 X95.795 Y98.661 E11.73268
G1 X95.650 Y98.376 E11.74528
G1 X95.547 Y98.034 E11.75932
G1 X95.511 Y97.715 E11.77192
G1 X95.513 Y97.553 E11.77830
G1 F600
G1 X95.560 Y97.225 E11.79118
G1 X95.681 Y96.866 E11.80586
G1 X95.696 Y96.778 F7800.000
G1 Z8.700 F7800.000
G1 X95.915 Y96.891 F7800.000
G1 F600
G1 X96.051 Y96.632 E11.81720
G1 X96.227 Y96.375 E11.82928
G1 X96.436 Y96.136 E11.84161
G1 X96.647 Y95.944 E11.85267
G1 F600
G1 X97.102 Y95.642 E11.87186
G1 X97.469 Y95.483 E11.88589
G1 X97.926 Y95.368 E11.90243
G1 X98.321 Y95.335 E11.91636
G1 X98.707 Y95.351 E11.92991
G1 X99.234 Y95.445 E11.94870
G1 X99.668 Y95.591 E11.96479
G1 X100.104 Y95.809 E11.98191
G1 F600
G1 X100.471 Y96.059 E11.99914
G1 X100.693 Y96.249 E12.01049
G1 X100.851 Y96.413 E12.01932
G1 X101.096 Y96.727 E12.03483
G1 X101.236 Y96.964 E12.04550
G1 X101.417 Y97.398 E12.06379
G1 X101.521 Y97.927 E12.08471
G1 X101.531 Y98.284 E12.09859
G1 X101.469 Y98.712 E12.11539
G1 X101.332 Y99.116 E12.13197
G1 X101.274 Y99.239 E12.13725
G1 X101.010 Y99.637 E12.15579
G1 X100.843 Y99.808 E12.16508
G1 X100.530 Y100.029 E12.17999
G1 X100.328 Y100.130 E12.18875
G1 X100.165 Y100.197 E12.19558
G1 X99.836 Y100.288 E12.20886
G1 X99.485 Y100.341 E12.22263
G1 X99.109 Y100.354 E12.23726
G1 X98.495 Y100.324 E12.26116
G1 X98.191 Y100.291 E12.27302
G1 X97.718 Y100.179 E12.29188
G1 X97.412 Y100.065 E12.30459
G1 X97.118 Y99.916 E12.31740
G1 X96.773 Y99.686 E12.33349
G1 X96.533 Y99.479 E12.34582
G1 X96.303 Y99.223 E12.35916
G1 X96.019 Y98.823 E12.37823
G1 X95.894 Y98.589 E12.38855
G1 X95.798 Y98.336 E12.39906
G1 X95.738 Y98.051 E12.41039
G1 X95.716 Y97.796 E12.42033
G1 F600
G1 X95.755 Y97.386 E12.43629
G1 X95.886 Y96.960 E12.45358
G1 X95.875 Y96.838 F7800.000
G1 Z9.200 F7800.000
G1 X96.122 Y96.984 F7800.000
G1 F600
G1 X96.340 Y96.580 E12.47072
G1 X96.531 Y96.327 E12.48254
G1 X96.785 Y96.071 E12.49598
G1 X97.056 Y95.858 E12.50888
G1 X97.300 Y95.717 E12.51938
G1 X97.631 Y95.565 E12.53300
G1 X98.069 Y95.446 E12.54994
G1 X98.368 Y95.409 E12.56116
G1 X98.946 Y95.422 E12.58273
G1 X99.423 Y95.510 E12.60085
G1 X99.891 Y95.664 E12.61922
G1 X100.257 Y95.844 E12.63447
G1 X100.572 Y96.046 E12.64842
G1 X100.971 Y96.385 E12.66799
G1 X101.110 Y96.545 E12.67589
G1 X101.298 Y96.786 E12.68732
G1 X101.501 Y97.152 E12.70290
G1 X101.660 Y97.595 E12.72048
G1 X101.711 Y97.872 E12.73101
G1 X101.728 Y98.385 E12.75016
G1 X101.679 Y98.713 E12.76253
G1 X101.621 Y98.944 E12.77142
G1 X101.466 Y99.316 E12.78648
G1 X101.279 Y99.613 E12.79957
G1 X101.116 Y99.808 E12.80904
G1 X100.842 Y100.050 E12.82269
G1 X100.523 Y100.233 E12.83644
G1 X100.211 Y100.348 E12.84883
G1 X99.958 Y100.408 E12.85854
G1 X99.608 Y100.453 E12.87172
G1 X99.099 Y100.468 E12.89072
G1 F600
G1 X98.650 Y100.545 E12.90946
G1 X98.140 Y100.539 E12.93041
G1 X97.669 Y100.444 E12.95016
G1 X97.305 Y100.323 E12.96592
G1 X97.040 Y100.192 E12.97810
G1 X96.700 Y99.981 E12.99454
G1 X96.407 Y99.733 E13.01033
G1 X96.257 Y99.568 E13.01949
G1 X96.091 Y99.328 E13.03149
G1 F600
G1 X95.957 Y99.052 E13.04298
G1 X95.902 Y98.876 E13.04990
G1 X95.861 Y98.660 E13.05814
G1 X95.848 Y98.431 E13.06675
G1 F600
G1 X95.860 Y98.153 E13.07712
G1 X95.953 Y97.499 E13.10180
G1 X96.091 Y97.052 E13.11924
G1 X96.031 Y96.859 F7800.000
G1 Z9.700 F7800.000
G1 X96.245 Y97.071 F7800.000
G1 F600
G1 X96.626 Y96.558 E13.14389
G1 X96.842 Y96.305 E13.15674
G1 X96.999 Y96.145 E13.16538
G1 X97.385 Y95.861 E13.18387
G1 X97.854 Y95.643 E13.20382
G1 X98.255 Y95.536 E13.21984
G1 X98.701 Y95.491 E13.23713
G1 X99.046 Y95.501 E13.25045
G1 X99.486 Y95.569 E13.26760
G1 X99.980 Y95.717 E13.28749
G1 X100.374 Y95.899 E13.30423
G1 X100.659 Y96.068 E13.31705
G1 X100.981 Y96.319 E13.33277
G1 X101.243 Y96.582 E13.34710
G1 X101.474 Y96.884 E13.36177
G1 X101.689 Y97.281 E13.37919
G1 X101.795 Y97.564 E13.39085
G1 X101.863 Y97.861 E13.40259
G1 X101.900 Y98.260 E13.41808
G1 X101.870 Y98.652 E13.43323
G1 X101.782 Y99.012 E13.44755
G1 X101.628 Y99.373 E13.46268
G1 X101.452 Y99.649 E13.47531
G1 X101.276 Y99.859 E13.48587
G1 X101.078 Y100.044 E13.49634
G1 X100.869 Y100.196 E13.50629
G1 X100.679 Y100.305 E13.51474
G1 X100.432 Y100.408 E13.52506
G1 X100.145 Y100.485 E13.53653
G1 X99.791 Y100.531 E13.55029
G1 X99.327 Y100.551 E13.56822
G1 X98.979 Y100.678 E13.58249
G1 X98.696 Y100.749 E13.59375
G1 F600
G1 X98.311 Y100.783 E13.61008
G1 X97.930 Y100.763 E13.62617
G1 X97.513 Y100.683 E13.64407
G1 X97.144 Y100.557 E13.66051
G1 X96.803 Y100.387 E13.67659
G1 X96.398 Y100.105 E13.69739
G1 X96.134 Y99.853 E13.71277
G1 X95.908 Y99.535 E13.72923
G1 F600
G1 X95.733 Y99.120 E13.74630
G1 X95.693 Y98.923 E13.75389
G1 X95.676 Y98.608 E13.76586
G1 F600
G1 X95.723 Y98.196 E13.78185
G1 X95.865 Y97.735 E13.80045
G1 X96.063 Y97.345 E13.81733
G1 X96.202 Y97.132 E13.82714
G1 X96.133 Y96.829 F7800.000
G1 Z10.200 F7800.000
G1 X96.252 Y97.077 F7800.000
G1 F600
G1 X96.667 Y96.663 E13.84976
G1 X97.392 Y96.111 E13.88492
G1 X97.713 Y95.904 E13.89966
G1 X97.986 Y95.779 E13.91122
G1 X98.222 Y95.701 E13.92083
G1 X98.548 Y95.627 E13.93374
G1 X98.943 Y95.600 E13.94901
G1 X99.226 Y95.610 E13.95996
G1 X99.619 Y95.672 E13.97527
G1 X99.928 Y95.755 E13.98764
G1 X100.247 Y95.876 E14.00081
G1 X100.587 Y96.045 E14.01545
G1 X100.965 Y96.299 E14.03303
G1 X101.335 Y96.643 E14.05254
G1 X101.646 Y97.052 E14.07234
G1 X101.809 Y97.355 E14.08560
G1 X101.977 Y97.821 E14.10473
G1 X102.063 Y98.273 E14.12247
G1 F600
G1 X102.076 Y98.738 E14.14225
G1 F600
G1 X102.013 Y99.118 E14.16001
G1 X101.880 Y99.463 E14.17702
G1 X101.698 Y99.744 E14.19246
G1 X101.567 Y99.883 E14.20123
G1 F600
G1 X101.448 Y99.988 E14.20798
G1 X101.188 Y100.154 E14.22107
G1 F600
G1 X100.544 Y100.457 E14.24827
G1 X100.152 Y100.556 E14.26372
G1 X99.470 Y100.604 E14.28982
G1 X98.958 Y100.862 E14.31172
G1 X98.696 Y100.947 E14.32223
G1 F600
G1 X98.334 Y101.015 E14.33774
G1 X98.039 Y101.028 E14.35019
G1 X97.767 Y101.012 E14.36170
G1 X97.492 Y100.965 E14.37346
G1 X97.089 Y100.842 E14.39122
G1 X96.742 Y100.687 E14.40724
G1 X96.249 Y100.370 E14.43192
G1 X95.986 Y100.119 E14.44725
G1 X95.733 Y99.761 E14.46572
G1 F600
G1 X95.577 Y99.396 E14.48092
G1 X95.507 Y98.931 E14.49896
G1 F600
G1 X95.524 Y98.587 E14.51226
G1 X95.642 Y98.112 E14.53114
G1 X95.864 Y97.626 E14.55175
G1 X96.058 Y97.323 E14.56564
G1 X96.204 Y97.134 E14.57483
G1 X96.237 Y97.036 F7800.000
G1 Z10.700 F7800.000
G1 E12.57483 F2400.00000
G92 E0
G1 X101.349 Y100.631 F7800.000
G1 E2.00000 F2400.00000
G1 F600
G1 X101.246 Y100.405 E2.00780
G1 X101.649 Y100.188 E2.02214
G1 X101.852 Y100.019 E2.03041
G1 X102.032 Y99.808 E2.03909
G1 X102.181 Y99.545 E2.04856
G1 X102.283 Y99.233 E2.05885
G1 X102.317 Y99.036 E2.06511
G1 X102.318 Y98.629 E2.07783
G1 X102.556 Y98.605 E2.08532
G1 X102.588 Y98.759 E2.09026
G1 X102.602 Y99.078 E2.10026
G1 X102.568 Y99.353 E2.10892
G1 X102.464 Y99.689 E2.11995
G1 X102.308 Y99.977 E2.13020
G1 X102.052 Y100.268 E2.14231
G1 X101.927 Y100.368 E2.14733
G1 X101.747 Y100.479 E2.15396
G1 X101.419 Y100.604 E2.16495
G1 X101.373 Y100.383 F7800.000
G1 E0.16495 F2400.00000
G92 E0
G1 X102.013 Y98.384 F7800.000
G1 E2.00000 F2400.00000
G1 F600
G1 X102.161 Y98.146 E2.00950
G1 F600
G1 X102.245 Y98.010 E2.01582
G1 X101.980 Y97.536 E2.03722
G1 F600
G1 X101.605 Y96.991 E2.06100
G1 X101.310 Y96.662 E2.07688
G1 X100.986 Y96.386 E2.09216
G1 X100.507 Y96.088 E2.11244
G1 X100.054 Y95.901 E2.13004
G1 X99.744 Y95.817 E2.14156
G1 X99.482 Y95.771 E2.15115
G1 X99.015 Y95.753 E2.16791
G1 X98.603 Y95.803 E2.18285
G1 F600
G1 X98.224 Y95.913 E2.19875
G1 X97.958 Y96.035 E2.21059
G1 X97.628 Y96.241 E2.22627
G1 X97.175 Y96.448 E2.24641
G1 X96.816 Y96.654 E2.26309
G1 F600
G1 X96.368 Y97.006 E2.28381
G1 X96.096 Y97.292 E2.29813
G1 X95.693 Y97.857 E2.32332
G1 X95.534 Y98.180 E2.33640
G1 X95.394 Y98.622 E2.35322
G1 X95.338 Y99.019 E2.36776
G1 X95.353 Y99.433 E2.38281
G1 F600
G1 X95.483 Y99.878 E2.40149
G1 X95.663 Y100.205 E2.41658
G1 X95.942 Y100.525 E2.43371
G1 F600
G1 X96.361 Y100.847 E2.45689
G1 X96.704 Y101.030 E2.47399
G1 X97.100 Y101.174 E2.49253
G1 X97.386 Y101.239 E2.50541
G1 X97.660 Y101.273 E2.51753
G1 X98.059 Y101.275 E2.53508
G1 X98.455 Y101.208 E2.55270
G1 F600
G1 X98.951 Y101.020 E2.57397
G1 X99.271 Y100.835 E2.58878
G1 F600
G1 X99.499 Y100.669 E2.59889
G1 X99.588 Y100.630 E2.60239
G1 X100.496 Y100.610 E2.63500
G1 F600
G1 X101.018 Y100.568 E2.65656
G1 Z11.200 F7800.000
G1 X101.389 Y100.877 F7800.000
G1 F600
G1 X101.181 Y100.904 E2.66552
G1 X100.823 Y100.900 E2.68074
G1 X100.331 Y100.830 E2.70192
G1 F600
G1 X99.721 Y100.695 E2.72615
G1 X99.627 Y100.698 E2.72981
G1 X99.509 Y100.746 E2.73475
G1 X99.184 Y101.027 E2.75142
G1 X98.829 Y101.265 E2.76798
G1 X98.446 Y101.435 E2.78427
G1 F600
G1 X98.112 Y101.523 E2.79908
G1 X97.729 Y101.560 E2.81557
G1 X97.539 Y101.555 E2.82375
G1 X96.994 Y101.474 E2.84738
G1 X96.558 Y101.321 E2.86722
G1 X96.170 Y101.113 E2.88611
G1 X95.753 Y100.791 E2.90872
G1 X95.473 Y100.465 E2.92718
G1 X95.280 Y100.094 E2.94513
G1 F600
G1 X95.171 Y99.695 E2.96075
G1 X95.153 Y99.259 E2.97725
G1 F600
G1 X95.257 Y98.727 E2.99762
G1 X95.383 Y98.387 E3.01125
G1 X95.665 Y97.863 E3.03362
G1 X95.910 Y97.544 E3.04874
G1 X96.208 Y97.236 E3.06486
G1 X96.656 Y96.885 E3.08626
G1 X96.997 Y96.686 E3.10110
G1 X97.520 Y96.486 E3.12216
G1 F600
G1 X97.889 Y96.392 E3.13834
G1 X98.009 Y96.345 E3.14383
G1 X98.287 Y96.189 E3.15741
G1 X98.612 Y96.065 E3.17221
G1 F600
G1 X98.988 Y95.983 E3.18721
G1 X99.346 Y95.963 E3.20120
G1 X99.735 Y96.000 E3.21643
G1 X100.051 Y96.071 E3.22909
G1 X100.344 Y96.171 E3.24114
G1 X100.689 Y96.342 E3.25617
G1 X101.024 Y96.548 E3.27151
G1 X101.599 Y96.971 E3.29935
G1 X102.050 Y97.345 E3.32218
G1 F600
G1 X102.335 Y97.635 E3.33965
G1 X102.543 Y97.912 E3.35455
G1 F600
G1 X102.750 Y98.313 E3.37577
G1 X102.860 Y98.731 E3.39615
G1 X102.884 Y99.160 E3.41638
G1 X102.838 Y99.495 E3.43230
G1 X102.717 Y99.854 E3.45014
G1 X102.591 Y100.086 E3.46256
G1 X102.440 Y100.293 E3.47465
G1 X102.184 Y100.537 E3.49129
G1 X101.884 Y100.724 E3.50794
G1 F600
G1 X101.463 Y100.865 E3.52682
G1 X101.354 Y100.973 F7800.000
G1 Z11.700 F7800.000
G1 X101.403 Y101.163 F7800.000
G1 F600
G1 X101.065 Y101.171 E3.53953
G1 X100.605 Y101.116 E3.55695
G1 X100.309 Y101.048 E3.56836
G1 X99.707 Y100.838 E3.59234
G1 X99.588 Y100.833 E3.59684
G1 X99.458 Y100.886 E3.60209
G1 X99.034 Y101.278 E3.62382
G1 X98.667 Y101.530 E3.64056
G1 F600
G1 X98.253 Y101.718 E3.65952
G1 X97.788 Y101.823 E3.67941
G1 X97.368 Y101.839 E3.69689
G1 X96.952 Y101.781 E3.71441
G1 X96.696 Y101.718 E3.72537
G1 X96.477 Y101.641 E3.73503
G1 X96.114 Y101.463 E3.75190
G1 X95.652 Y101.138 E3.77544
G1 X95.326 Y100.781 E3.79558
G1 X95.098 Y100.372 E3.81507
G1 F600
G1 X95.000 Y100.042 E3.82813
G1 X94.972 Y99.584 E3.84555
G1 F600
G1 X95.023 Y99.196 E3.85986
G1 X95.078 Y98.990 E3.86768
G1 X95.201 Y98.649 E3.88094
G1 X95.452 Y98.185 E3.90025
G1 X95.755 Y97.771 E3.91901
G1 X96.030 Y97.484 E3.93357
G1 X96.303 Y97.248 E3.94677
G1 X96.656 Y97.009 E3.96236
G1 F600
G1 X96.962 Y96.853 E3.97634
G1 X97.362 Y96.713 E3.99363
G1 X97.748 Y96.640 E4.00964
G1 X98.079 Y96.627 E4.02309
G1 F600
G1 X98.336 Y96.580 E4.03498
G1 X98.575 Y96.456 E4.04723
G1 X98.889 Y96.341 E4.06240
G1 X99.138 Y96.289 E4.07398
G1 X99.506 Y96.267 E4.09074
G1 F600
G1 X99.886 Y96.297 E4.10643
G1 X100.410 Y96.425 E4.12863
G1 F600
G1 X100.903 Y96.593 E4.14813
G1 X101.652 Y96.894 E4.17833
G1 X102.169 Y97.195 E4.20072
G1 F600
G1 X102.490 Y97.456 E4.21797
G1 X102.705 Y97.692 E4.23131
G1 X102.897 Y97.966 E4.24522
G1 X103.074 Y98.332 E4.26217
G1 X103.195 Y98.790 E4.28190
G1 F600
G1 X103.227 Y99.118 E4.29701
G1 X103.221 Y99.386 E4.30924
G1 X103.167 Y99.709 E4.32425
G1 X103.084 Y99.982 E4.33729
G1 X102.938 Y100.274 E4.35219
G1 X102.784 Y100.485 E4.36417
G1 X102.432 Y100.805 E4.38592
G1 F600
G1 X102.221 Y100.934 E4.39611
G1 X101.972 Y101.042 E4.40737
G1 X101.783 Y101.103 E4.41557
G1 X101.502 Y101.154 E4.42737
G1 F600
G1 X101.477 Y101.157 E4.42829
G1 X101.445 Y101.363 F7800.000
G1 Z12.200 F7800.000
G1 X101.412 Y101.368 F7800.000
G1 F600
G1 X101.006 Y101.345 E4.44416
G1 X100.629 Y101.286 E4.45904
G1 X100.204 Y101.171 E4.47621
G1 X99.670 Y100.962 E4.49857
G1 X99.519 Y100.956 E4.50444
G1 X99.408 Y101.004 E4.50915
G1 X98.993 Y101.438 E4.53259
G1 X98.708 Y101.662 E4.54669
G1 X98.490 Y101.805 E4.55687
G1 X98.064 Y102.000 E4.57515
G1 F600
G1 X97.768 Y102.080 E4.58819
G1 X97.522 Y102.117 E4.59878
G1 X97.311 Y102.121 E4.60775
G1 X97.033 Y102.108 E4.61959
G1 X96.767 Y102.066 E4.63105
G1 X96.317 Y101.927 E4.65110
G1 X95.973 Y101.766 E4.66724
G1 X95.586 Y101.505 E4.68712
G1 X95.238 Y101.170 E4.70769
G1 X94.988 Y100.797 E4.72679
G1 F600
G1 X94.869 Y100.504 E4.73893
G1 X94.827 Y100.347 E4.74517
G1 X94.787 Y99.939 E4.76091
G1 F600
G1 X94.836 Y99.505 E4.77729
G1 X94.936 Y99.133 E4.79175
G1 X95.235 Y98.516 E4.81750
G1 X95.498 Y98.141 E4.83463
G1 X95.834 Y97.773 E4.85335
G1 X96.152 Y97.494 E4.86921
G1 X96.658 Y97.167 E4.89181
G1 F600
G1 X97.135 Y96.967 E4.91323
G1 X97.522 Y96.881 E4.92966
G1 X97.964 Y96.861 E4.94802
G1 X98.360 Y96.916 E4.96460
G1 F600
G1 X98.605 Y96.921 E4.97639
G1 X98.915 Y96.768 E4.99307
G1 X99.157 Y96.682 E5.00541
G1 F600
G1 X99.628 Y96.588 E5.02672
G1 F600
G1 X100.031 Y96.563 E5.04203
G1 X100.406 Y96.571 E5.05627
G1 X100.941 Y96.624 E5.07665
G1 X101.376 Y96.721 E5.09358
G1 X101.786 Y96.867 E5.11008
G1 X102.211 Y97.088 E5.12824
G1 X102.454 Y97.254 E5.13941
G1 X102.719 Y97.482 E5.15266
G1 X103.019 Y97.829 E5.17008
G1 X103.221 Y98.150 E5.18447
G1 F600
G1 X103.411 Y98.592 E5.20454
G1 X103.492 Y98.912 E5.21830
G1 X103.529 Y99.149 E5.22832
G1 F600
G1 X103.543 Y99.502 E5.24462
G1 X103.525 Y99.726 E5.25500
G1 X103.460 Y100.054 E5.27047
G1 X103.345 Y100.345 E5.28493
G1 X103.167 Y100.623 E5.30014
G1 X103.061 Y100.746 E5.30765
G1 X102.872 Y100.925 E5.31970
G1 X102.610 Y101.092 E5.33403
G1 F600
G1 X102.384 Y101.199 E5.34466
G1 X102.108 Y101.284 E5.35694
G1 F600
G1 X101.808 Y101.345 E5.36887
G1 X101.487 Y101.365 E5.38144
G1 X101.400 Y101.392 F7800.000
G1 Z12.700 F7800.000
G1 X103.109 Y101.127 F7800.000
G1 F600
G1 X103.486 Y100.700 E5.39929
G1 X103.639 Y100.417 E5.40935
G1 X103.743 Y100.061 E5.42098
G1 X103.983 Y100.110 E5.42865
G1 X103.961 Y100.284 E5.43414
G1 X103.859 Y100.606 E5.44472
G1 X103.702 Y100.888 E5.45482
G1 X103.500 Y101.123 E5.46453
G1 X103.261 Y101.303 E5.47390
G1 X103.158 Y101.184 E5.47882
G1 X103.109 Y101.127 F7800.000
G1 X104.277 Y99.836 F7800.000
G1 F600
G1 X104.075 Y99.635 E5.48972
G1 F600
G1 X103.873 Y99.434 E5.50183
G1 X103.818 Y99.116 E5.51550
G1 X103.749 Y98.880 E5.52596
G1 F600
G1 X103.501 Y98.320 E5.54915
G1 X103.339 Y98.062 E5.56069
G1 X103.118 Y97.780 E5.57428
G1 X102.958 Y97.609 E5.58314
G1 X102.619 Y97.318 E5.60007
G1 X102.139 Y97.016 E5.62160
G1 X101.885 Y96.896 E5.63224
G1 X101.498 Y96.760 E5.64777
G1 X101.112 Y96.679 E5.66270
G1 X100.902 Y96.655 E5.67071
G1 X100.558 Y96.651 E5.68375
G1 X100.238 Y96.680 E5.69594
G1 X99.789 Y96.777 E5.71336
G1 F600
G1 X99.479 Y96.887 E5.72707
G1 X99.144 Y97.056 E5.74269
G1 F600
G1 X98.774 Y97.297 E5.76329
G1 X98.649 Y97.315 E5.76919
G1 F600
G1 X98.149 Y97.162 E5.79142
G1 X97.857 Y97.121 E5.80396
G1 X97.597 Y97.119 E5.81501
G1 F600
G1 X97.349 Y97.150 E5.82463
G1 X97.019 Y97.221 E5.83759
G1 X96.443 Y97.459 E5.86159
G1 X96.131 Y97.650 E5.87563
G1 X95.831 Y97.886 E5.89034
G1 X95.415 Y98.298 E5.91286
G1 X95.031 Y98.824 E5.93790
G1 X94.770 Y99.364 E5.96095
G1 X94.655 Y99.767 E5.97706
G1 X94.606 Y100.274 E5.99665
G1 F600
G1 X94.655 Y100.683 E6.01434
G1 X94.757 Y100.992 E6.02830
G1 F600
G1 X94.897 Y101.258 E6.04231
G1 X95.048 Y101.477 E6.05472
G1 X95.373 Y101.803 E6.07614
G1 X95.603 Y101.972 E6.08946
G1 X95.925 Y102.156 E6.10672
G1 X96.315 Y102.302 E6.12612
G1 X96.578 Y102.364 E6.13869
G1 X96.955 Y102.406 E6.15636
G1 F600
G1 X97.340 Y102.405 E6.17222
G1 X97.633 Y102.358 E6.18443
G1 X97.870 Y102.290 E6.19461
G1 F600
G1 X98.336 Y102.068 E6.21394
G1 X98.617 Y101.879 E6.22660
G1 X98.923 Y101.606 E6.24198
G1 X99.358 Y101.089 E6.26728
G1 X99.480 Y101.026 E6.27244
G1 X99.612 Y101.024 E6.27738
G1 X100.144 Y101.252 E6.29908
G1 X100.705 Y101.424 E6.32105
G1 X101.075 Y101.499 E6.33518
G1 X101.515 Y101.549 E6.35177
G1 F600
G1 X102.001 Y101.555 E6.37276
G1 X102.370 Y101.513 E6.38877
G1 X102.945 Y101.358 E6.41447
G1 Z13.200 F7800.000
G1 X103.360 Y101.739 F7800.000
G1 F600
G1 X103.248 Y101.517 E6.42224
G1 X103.495 Y101.370 E6.43124
G1 X103.732 Y101.157 E6.44123
G1 X103.989 Y100.778 E6.45558
G1 X104.167 Y100.250 E6.47304
G1 X104.399 Y100.299 E6.48047
G1 X104.370 Y100.585 E6.48946
G1 X104.280 Y100.888 E6.49936
G1 X104.135 Y101.166 E6.50919
G1 X103.924 Y101.413 E6.51935
G1 X103.639 Y101.620 E6.53040
G1 X103.429 Y101.709 E6.53753
G1 X103.369 Y101.491 F7800.000
G1 X103.906 Y99.912 F7800.000
G1 F600
G1 X104.251 Y99.610 E6.55689
G1 X104.201 Y99.385 E6.56660
G1 X104.060 Y98.976 E6.58488
G1 X103.799 Y98.486 E6.60833
G1 F600
G1 X103.549 Y98.143 E6.62439
G1 X103.308 Y97.870 E6.63815
G1 X102.932 Y97.532 E6.65726
G1 X102.519 Y97.252 E6.67613
G1 X102.123 Y97.045 E6.69301
G1 X101.657 Y96.873 E6.71178
G1 X101.306 Y96.794 E6.72541
G1 X100.901 Y96.755 E6.74080
G1 X100.629 Y96.765 E6.75108
G1 X100.369 Y96.799 E6.76099
G1 X100.065 Y96.876 E6.77283
G1 X99.778 Y96.984 E6.78446
G1 X99.516 Y97.119 E6.79559
G1 X99.211 Y97.330 E6.80962
G1 F600
G1 X98.875 Y97.633 E6.82837
G1 F600
G1 X98.802 Y97.687 E6.83253
G1 X98.703 Y97.705 E6.83718
G1 X98.126 Y97.479 E6.86564
G1 X97.802 Y97.410 E6.88092
G1 F600
G1 X97.377 Y97.398 E6.89889
G1 X96.989 Y97.459 E6.91553
G1 X96.665 Y97.555 E6.92982
G1 F600
G1 X96.268 Y97.733 E6.94656
G1 X95.779 Y98.055 E6.96911
G1 X95.341 Y98.451 E6.99183
G1 X94.968 Y98.919 E7.01487
G1 X94.693 Y99.393 E7.03596
G1 X94.522 Y99.841 E7.05442
G1 X94.427 Y100.298 E7.07239
G1 X94.412 Y100.560 E7.08250
G1 X94.423 Y100.801 E7.09178
G1 X94.472 Y101.078 E7.10261
G1 F600
G1 X94.582 Y101.380 E7.11647
G1 X94.714 Y101.625 E7.12851
G1 X94.842 Y101.811 E7.13823
G1 F600
G1 X95.211 Y102.179 E7.16306
G1 X95.534 Y102.402 E7.18174
G1 X95.840 Y102.553 E7.19797
G1 X96.132 Y102.659 E7.21275
G1 X96.358 Y102.714 E7.22382
G1 X96.782 Y102.761 E7.24413
G1 X97.191 Y102.735 E7.26360
G1 F600
G1 X97.509 Y102.664 E7.27792
G1 X97.710 Y102.593 E7.28724
G1 F600
G1 X98.118 Y102.384 E7.30568
G1 X98.516 Y102.092 E7.32548
G1 F600
G1 X98.784 Y101.840 E7.33879
G1 X99.023 Y101.558 E7.35216
G1 X99.326 Y101.119 E7.37145
G1 X99.395 Y101.071 E7.37450
G1 X99.494 Y101.040 E7.37824
G1 X99.642 Y101.058 E7.38363
G1 X100.254 Y101.360 E7.40831
G1 X100.866 Y101.577 E7.43181
G1 X101.237 Y101.668 E7.44559
G1 X101.767 Y101.763 E7.46509
G1 F600
G1 X102.250 Y101.802 E7.48490
G1 X102.668 Y101.781 E7.50197
G1 Z13.700 F7800.000
G1 X103.508 Y101.881 F7800.000
G1 F600
G1 X103.726 Y101.783 E7.50945
G1 X103.946 Y101.645 E7.51759
G1 X104.181 Y101.426 E7.52767
G1 X104.339 Y101.203 E7.53622
G1 X104.432 Y101.023 E7.54255
G1 X104.543 Y100.661 E7.55443
G1 X104.568 Y100.439 E7.56141
G1 X104.824 Y100.459 E7.56944
G1 X104.807 Y100.859 E7.58197
G1 X104.738 Y101.156 E7.59153
M106 S255

G1 F3600
G1 X104.595 Y101.482 E7.60143
G1 X104.385 Y101.732 E7.61050
G1 X104.204 Y101.867 E7.61677
M106 S255

G1 F600
G1 X104.075 Y101.945 E7.62148
G1 X103.857 Y102.038 E7.62890
G1 X103.592 Y102.113 E7.63753
G1 X103.533 Y101.951 E7.64291
G1 X103.744 Y101.848 F7800.000
G1 X103.287 Y102.080 F7800.000
G1 F600
G1 X102.525 Y102.080 E7.67614
G1 X102.008 Y102.007 E7.69888
G1 F600
G1 X101.472 Y101.881 E7.72007
G1 X100.956 Y101.715 E7.74096
G1 X100.283 Y101.418 E7.76928
G1 X99.637 Y101.032 E7.79826
G1 X99.474 Y101.005 E7.80461
G1 X99.364 Y101.041 E7.80907
G1 X99.278 Y101.110 E7.81330
G1 X99.053 Y101.524 E7.83144
G1 X98.850 Y101.829 E7.84556
G1 X98.423 Y102.332 E7.87096
G1 X98.134 Y102.582 E7.88567
G1 X97.897 Y102.747 E7.89679
G1 X97.559 Y102.924 E7.91148
G1 X97.262 Y103.029 E7.92362
G1 F600
G1 X96.857 Y103.103 E7.94096
G1 X96.524 Y103.112 E7.95505
G1 F600
G1 X96.110 Y103.057 E7.97419
G1 X95.720 Y102.935 E7.99294
G1 X95.350 Y102.759 E8.01172
G1 X95.120 Y102.610 E8.02430
G1 X94.817 Y102.349 E8.04265
G1 X94.610 Y102.113 E8.05705
G1 X94.383 Y101.730 E8.07746
G1 X94.268 Y101.400 E8.09349
G1 F600
G1 X94.216 Y101.055 E8.10795
G1 X94.228 Y100.659 E8.12438
G1 F600
G1 X94.351 Y100.089 E8.14617
G1 X94.577 Y99.557 E8.16774
G1 X94.818 Y99.145 E8.18557
G1 X95.172 Y98.718 E8.20628
G1 X95.363 Y98.531 E8.21625
G1 X95.650 Y98.293 E8.23017
G1 X96.097 Y98.009 E8.24996
G1 X96.496 Y97.829 E8.26630
G1 X96.870 Y97.723 E8.28079
G1 F600
G1 X97.259 Y97.676 E8.29687
G1 X97.647 Y97.695 E8.31281
G1 X98.021 Y97.777 E8.32850
G1 X98.363 Y97.930 E8.34389
G1 F600
G1 X98.669 Y98.090 E8.35929
G1 F600
G1 X98.811 Y98.135 E8.36683
G1 X98.934 Y98.034 E8.37494
G1 F600
G1 X99.075 Y97.876 E8.38484
G1 F600
G1 X99.214 Y97.712 E8.39409
G1 X99.433 Y97.505 E8.40705
G1 X99.644 Y97.346 E8.41839
G1 X99.898 Y97.200 E8.43101
G1 X100.180 Y97.078 E8.44422
G1 X100.465 Y96.994 E8.45699
G1 X100.734 Y96.948 E8.46875
G1 X101.031 Y96.930 E8.48155
G1 F600
G1 X101.462 Y96.963 E8.49842
G1 X101.889 Y97.061 E8.51554
G1 X102.322 Y97.222 E8.53361
G1 X102.785 Y97.456 E8.55388
G1 F600
G1 X103.202 Y97.723 E8.57142
G1 X103.602 Y98.053 E8.58979
G1 X103.924 Y98.389 E8.60629
G1 X104.222 Y98.796 E8.62417
G1 F600
G1 X104.431 Y99.182 E8.64148
G1 X104.535 Y99.453 E8.65291
G1 F600
G1 X104.635 Y99.807 E8.66886
G1 X104.310 Y100.143 E8.68916
G1 Z14.200 F7800.000
G1 E6.68916 F2400.00000
G92 E0
G1 X103.564 Y102.280 F7800.000
G1 E2.00000 F2400.00000
G1 F600
G1 X103.906 Y102.217 E2.01088
G1 X104.163 Y102.117 E2.01954
G1 X104.404 Y101.973 E2.02832
G1 X104.614 Y101.785 E2.03715
G1 X104.724 Y101.651 E2.04256
G1 X104.870 Y101.393 E2.05187
G1 X104.961 Y101.108 E2.06123
G1 X105.014 Y100.594 E2.07740
G1 X105.245 Y100.586 E2.08464
G1 X105.312 Y101.039 E2.09898
M106 S255

G1 F3600
G1 X105.315 Y101.391 E2.10874
G1 X105.251 Y101.720 E2.11807
G1 X105.144 Y101.968 E2.12557
G1 X105.073 Y102.075 E2.12914
G1 X104.974 Y102.183 E2.13321
G1 X104.839 Y102.286 E2.13793
G1 X104.642 Y102.385 E2.14403
G1 X104.330 Y102.473 E2.15304
G1 X104.103 Y102.506 E2.15941
M106 S255

G1 F600
G1 X103.585 Y102.520 E2.17566
G1 X103.570 Y102.355 E2.18085
G1 X103.909 Y102.317 F7800.000
G1 X103.309 Y102.782 F7800.000
G1 F600
G1 X103.217 Y102.684 E2.18536
G1 F600
G1 X102.943 Y102.389 E2.20124
G1 X102.166 Y102.255 E2.23234
G1 F600
G1 X101.526 Y102.059 E2.25595
G1 X100.834 Y101.760 E2.28253
G1 X100.254 Y101.424 E2.30617
G1 X100.007 Y101.247 E2.31688
G1 X99.618 Y100.925 E2.33471
G1 X99.499 Y100.885 E2.33914
G1 X99.423 Y100.884 E2.34183
G1 X99.343 Y100.913 E2.34480
G1 X99.241 Y101.000 E2.34956
G1 X99.021 Y101.531 E2.36983
G1 X98.894 Y101.786 E2.37987
G1 F600
G1 X98.618 Y102.225 E2.40003
G1 X98.368 Y102.529 E2.41533
G1 X98.089 Y102.804 E2.43057
G1 X97.702 Y103.093 E2.44934
G1 F600
G1 X97.260 Y103.315 E2.47048
G1 X96.863 Y103.428 E2.48807
G1 F600
G1 X96.507 Y103.470 E2.50498
G1 X96.124 Y103.453 E2.52307
G1 X95.788 Y103.384 E2.53923
G1 X95.513 Y103.291 E2.55289
G1 X95.299 Y103.196 E2.56396
G1 X94.847 Y102.902 E2.58936
G1 X94.600 Y102.683 E2.60491
G1 X94.399 Y102.442 E2.61969
G1 F600
G1 X94.276 Y102.244 E2.62981
G1 X94.137 Y101.963 E2.64345
G1 F600
G1 X94.053 Y101.676 E2.65533
G1 X94.023 Y101.471 E2.66362
G1 F600
G1 X94.013 Y101.254 E2.67149
G1 X94.040 Y100.892 E2.68463
G1 X94.153 Y100.421 E2.70215
G1 X94.317 Y100.024 E2.71769
G1 X94.600 Y99.517 E2.73873
G1 X94.880 Y99.145 E2.75561
G1 X95.059 Y98.941 E2.76542
G1 X95.470 Y98.568 E2.78552
G1 F600
G1 X95.771 Y98.361 E2.80024
G1 X96.248 Y98.129 E2.82164
G1 X96.687 Y97.996 E2.84013
G1 X96.895 Y97.966 E2.84859
G1 F600
G1 X97.286 Y97.951 E2.86593
G1 X97.668 Y98.005 E2.88306
G1 X97.915 Y98.083 E2.89455
G1 X98.170 Y98.201 E2.90702
G1 X98.628 Y98.501 E2.93130
G1 X99.026 Y98.924 F7800.000
M106 S255

G1 F3600
G1 X98.746 Y98.826 E2.93954
G1 X98.757 Y98.809 E2.94009
M106 S255

G1 F600
G1 X98.935 Y98.533 E2.95038
G1 X99.152 Y98.652 E2.95815
G1 X99.112 Y98.738 E2.96109
M106 S255

G1 F3600
G1 X99.058 Y98.856 E2.96470
M106 S255

G1 X99.395 Y98.036 F7800.000
G1 F600
G1 X99.571 Y97.836 E2.97689
G1 X99.756 Y97.674 E2.98813
G1 X100.049 Y97.476 E3.00437
G1 F600
G1 X100.453 Y97.293 E3.02294
G1 X100.858 Y97.192 E3.04045
G1 F600
G1 X101.325 Y97.158 E3.05841
G1 X101.672 Y97.183 E3.07177
G1 X102.028 Y97.253 E3.08569
G1 X102.651 Y97.464 E3.11092
G1 X103.176 Y97.722 E3.13337
G1 X103.420 Y97.869 E3.14431
G1 X103.809 Y98.152 E3.16276
G1 X104.155 Y98.474 E3.18089
G1 X104.454 Y98.835 E3.19889
G1 X104.716 Y99.262 E3.21812
G1 F600
G1 X104.928 Y99.754 E3.24102
G1 X105.087 Y100.317 E3.26602
G1 Z14.700 F7800.000
G1 E1.26602 F2400.00000
G92 E0
G1 X96.564 Y103.953 F7800.000
G1 E2.00000 F2400.00000
G1 F600
G1 X96.259 Y104.019 E2.00977
G1 X95.915 Y104.043 E2.02057
G1 X95.658 Y104.020 E2.02865
M106 S255

G1 F3600
G1 X95.308 Y103.942 E2.03861
G1 X95.110 Y103.865 E2.04450
G1 X94.908 Y103.761 E2.05082
G1 X94.605 Y103.550 E2.06107
G1 X94.480 Y103.429 E2.06590
M106 S255

G1 F600
G1 X94.333 Y103.286 E2.07231
G1 X94.141 Y103.034 E2.08224
G1 X93.944 Y102.651 E2.09572
G1 X94.144 Y102.532 E2.10301
G1 X94.472 Y102.945 E2.11952
G1 X94.730 Y103.184 E2.13054
G1 X94.916 Y103.319 E2.13775
G1 X95.287 Y103.519 E2.15095
G1 X95.684 Y103.645 E2.16399
G1 X96.093 Y103.713 E2.17695
G1 X96.321 Y103.725 E2.18411
G1 X96.525 Y103.706 E2.19055
G1 X96.552 Y103.879 E2.19604
G1 X96.254 Y103.919 F7800.000
G1 E0.19604 F2400.00000
G92 E0
G1 X93.591 Y102.466 F7800.000
G1 E2.00000 F2400.00000
G1 F600
G1 X93.846 Y101.981 E2.02186
G1 X93.818 Y101.776 E2.03008
G1 X93.815 Y101.542 E2.03944
G1 F600
G1 X93.825 Y101.360 E2.04603
G1 X93.887 Y100.994 E2.05951
G1 X94.037 Y100.540 E2.07686
G1 X94.275 Y100.058 E2.09637
G1 X94.495 Y99.722 E2.11093
G1 X94.972 Y99.171 E2.13739
G1 F600
G1 X95.444 Y98.777 E2.16217
G1 X95.907 Y98.489 E2.18413
G1 X96.080 Y98.413 E2.19175
G1 X96.530 Y98.269 E2.21083
G1 F600
G1 X97.027 Y98.223 E2.23294
G1 X97.464 Y98.275 E2.25243
G1 X97.971 Y98.466 E2.27643
G1 X98.317 Y98.694 E2.29478
G1 X98.517 Y98.869 E2.30652
G1 X98.602 Y98.879 E2.31030
G1 F600
G1 X98.771 Y98.899 E2.31689
G1 F600
G1 X98.941 Y98.919 E2.32251
G1 X99.453 Y98.675 F7800.000
G1 F600
G1 X99.689 Y98.314 E2.34342
G1 X99.985 Y97.992 E2.36467
G1 F600
G1 X100.181 Y97.836 E2.37593
G1 X100.408 Y97.696 E2.38791
G1 X100.760 Y97.540 E2.40522
G1 F600
G1 X101.095 Y97.453 E2.41955
G1 X101.361 Y97.418 E2.43067
G1 X101.649 Y97.408 E2.44259
G1 F600
G1 X102.142 Y97.455 E2.46129
G1 X102.645 Y97.577 E2.48085
G1 X102.979 Y97.692 E2.49419
G1 X103.440 Y97.907 E2.51339
G1 X103.758 Y98.096 E2.52734
G1 X104.165 Y98.396 E2.54645
G1 X104.459 Y98.683 E2.56198
G1 X104.766 Y99.052 E2.58006
G1 X105.070 Y99.526 E2.60133
G1 F600
G1 X105.291 Y99.960 E2.62175
G1 X105.488 Y100.433 E2.64323
G1 E0.64323 F2400.00000
G92 E0
G1 X103.610 Y102.695 F7800.000
G1 E2.00000 F2400.00000
G1 F600
G1 X104.089 Y102.707 E2.01501
G1 X104.451 Y102.661 E2.02643
G1 X104.759 Y102.558 E2.03662
G1 X104.987 Y102.428 E2.04483
G1 X105.238 Y102.185 E2.05577
G1 X105.342 Y102.025 E2.06175
G1 X105.446 Y101.783 E2.07001
G1 X105.510 Y101.495 E2.07923
G1 X105.525 Y101.309 E2.08508
G1 X105.503 Y100.955 E2.09619
G1 X105.457 Y100.729 E2.10340
G1 X105.690 Y100.660 E2.11102
G1 X105.844 Y101.051 E2.12417
M106 S255

G1 F3600
G1 X105.983 Y101.588 E2.13959
G1 X106.028 Y101.902 E2.14841
G1 X106.041 Y102.139 E2.15499
G1 X106.001 Y102.517 E2.16555
G1 X105.896 Y102.781 E2.17345
G1 X105.813 Y102.898 E2.17743
G1 X105.703 Y103.003 E2.18165
G1 X105.556 Y103.096 E2.18648
G1 X105.351 Y103.171 E2.19255
G1 X105.046 Y103.212 E2.20109
G1 X104.735 Y103.198 E2.20973
G1 X104.443 Y103.153 E2.21796
G1 X103.975 Y103.042 E2.23130
M106 S255

G1 F600
G1 X103.568 Y102.932 E2.24452
G1 X103.597 Y102.769 E2.24970
G1 X103.802 Y102.766 F7800.000
G1 X102.976 Y102.686 F7800.000
G1 F600
G1 X102.267 Y102.483 E2.27810
G1 F600
G1 X101.532 Y102.198 E2.30569
G1 X101.133 Y102.000 E2.32127
G1 X100.792 Y101.802 E2.33506
G1 X100.493 Y101.594 E2.34780
G1 X100.244 Y101.393 E2.35899
G1 X99.979 Y101.137 E2.37188
G1 X99.723 Y100.819 E2.38615
G1 X99.657 Y100.807 E2.38848
G1 F600
G1 X99.544 Y100.816 E2.39178
G1 F600
G1 X99.383 Y100.848 E2.39540
G1 F600
G1 X99.302 Y100.864 E2.39685
G1 X99.269 Y100.891 E2.39761
G1 F600
G1 X99.206 Y100.937 E2.39943
G1 F600
G1 X99.147 Y100.973 E2.40153
G1 F600
G1 X99.088 Y101.009 E2.40410
G1 X98.988 Y101.423 E2.41998
G1 X98.871 Y101.764 E2.43345
G1 X98.570 Y102.342 E2.45777
G1 X98.415 Y102.574 E2.46816
G1 X98.168 Y102.877 E2.48275
G1 X97.767 Y103.258 E2.50336
G1 F600
G1 X97.436 Y103.487 E2.51988
G1 X96.815 Y103.776 E2.54797
G1 E0.54797 F2400.00000
G92 E0
G1 X99.416 Y100.307 F7800.000
G1 E2.00000 F2400.00000
G1 F600
G1 X99.293 Y100.373 E2.00438
G1 X99.256 Y100.329 E2.00619
M106 S255

G1 F3600
G1 X99.164 Y100.217 E2.01021
G1 X99.124 Y100.218 E2.01132
G1 X98.963 Y99.686 E2.02677
G1 X98.828 Y99.435 E2.03470
G1 X98.845 Y99.422 E2.03529
M106 S255

G1 F600
G1 X99.021 Y99.299 E2.04203
G1 X99.065 Y99.348 E2.04410
G1 X99.247 Y98.893 E2.05944
G1 X99.488 Y98.979 E2.06744
G1 X99.419 Y99.245 E2.07604
M106 S255

G1 F3600
G1 X99.387 Y99.458 E2.08203
G1 X99.390 Y99.808 E2.09175
G1 X99.431 Y100.096 E2.09982
G1 X99.482 Y100.271 E2.10489
M106 S255

G1 E0.10489 F2400.00000
G92 E0
G1 X104.440 Y102.932 F7800.000
G1 E2.00000 F2400.00000
G1 F600
G1 X104.886 Y102.869 E2.00461
G1 X105.676 Y102.719 E2.01284
G1 X105.550 Y102.492 F7800.000
G1 F600
G1 X105.421 Y102.643 E2.01793
G1 X104.974 Y102.994 E2.03247
G1 X104.929 Y102.870 F7800.000
G1 F600
G1 X104.643 Y102.966 E2.03782
G1 X104.929 Y102.870 F7800.000
G1 F600
G1 X105.250 Y102.760 E2.04528
G1 X105.798 Y102.430 E2.05934
G1 X105.550 Y102.492 F7800.000
G1 F600
G1 X105.815 Y101.940 E2.07282
G1 X105.783 Y101.712 F7800.000
G1 F600
G1 X105.671 Y102.186 E2.07952
G1 X105.471 Y102.896 E2.08965
G1 Z15.200 F7800.000
G1 E0.08965 F2400.00000
G92 E0
G1 X96.562 Y104.392 F7800.000
G1 E2.00000 F2400.00000
G1 F600
G1 X96.167 Y104.528 E2.01309
G1 X95.880 Y104.568 E2.02217
M106 S255

G1 F3600
G1 X95.772 Y104.583 E2.02518
G1 X95.418 Y104.564 E2.03502
G1 X95.099 Y104.490 E2.04413
G1 X94.704 Y104.315 E2.05612
G1 X94.349 Y104.064 E2.06821
G1 X94.108 Y103.812 E2.07790
M106 S255

G1 F600
G1 X93.892 Y103.535 E2.08889
G1 X93.725 Y103.220 E2.10005
G1 X93.663 Y103.056 E2.10554
G1 X93.898 Y102.957 E2.11351
G1 X93.973 Y103.116 E2.11901
G1 X94.085 Y103.283 E2.12531
G1 X94.318 Y103.554 E2.13652
G1 X94.621 Y103.812 E2.14896
G1 X94.988 Y104.027 E2.16227
G1 X95.383 Y104.171 E2.17543
G1 X95.806 Y104.236 E2.18884
G1 X96.049 Y104.234 E2.19645
G1 X96.501 Y104.154 E2.21082
G1 X96.543 Y104.320 E2.21617
G1 X96.147 Y104.442 F7800.000
G1 E0.21617 F2400.00000
G92 E0
G1 X93.677 Y102.752 F7800.000
G1 E2.00000 F2400.00000
G1 F600
G1 X93.605 Y102.311 E2.01825
G1 X93.607 Y101.844 E2.03728
G1 F600
G1 X93.692 Y101.322 E2.05613
G1 X93.845 Y100.864 E2.07336
G1 X94.135 Y100.307 E2.09576
G1 X94.505 Y99.803 E2.11803
G1 F600
G1 X94.832 Y99.461 E2.13688
G1 X95.125 Y99.214 E2.15216
G1 X95.420 Y99.001 E2.16665
G1 X95.783 Y98.801 E2.18316
G1 F600
G1 X96.269 Y98.620 E2.20614
G1 X96.779 Y98.541 E2.22899
G1 X97.244 Y98.572 E2.24961
G1 X97.569 Y98.666 E2.26459
G1 X97.870 Y98.811 E2.27937
G1 X98.136 Y98.998 E2.29376
G1 X98.321 Y99.156 E2.30455
G1 X98.491 Y99.346 E2.31580
G1 X98.636 Y99.562 E2.32734
G1 X98.805 Y99.938 E2.34558
G1 F600
G1 X98.881 Y100.192 E2.35604
G1 X98.933 Y100.504 E2.36851
G1 X98.937 Y101.016 E2.38871
G1 F600
G1 X98.877 Y101.443 E2.40375
G1 X98.722 Y101.971 E2.42293
G1 X98.491 Y102.476 E2.44231
G1 X98.330 Y102.751 E2.45345
G1 F600
G1 X98.191 Y102.957 E2.46300
G1 X97.948 Y103.250 E2.47765
G1 X97.545 Y103.637 E2.49917
G1 F600
G1 X97.101 Y103.968 E2.52261
G1 X97.076 Y103.959 E2.52375
G1 F600
G1 X97.026 Y103.939 E2.52570
G1 F600
G1 X96.694 Y103.801 E2.53642
G1 E0.53642 F2400.00000
G92 E0
G1 X99.994 Y100.919 F7800.000
G1 E2.00000 F2400.00000
G1 F600
G1 X99.870 Y100.678 E2.01072
G1 X99.749 Y100.345 E2.02469
G1 F600
G1 X99.680 Y100.041 E2.03842
G1 X99.665 Y99.832 E2.04764
G1 X99.994 Y100.919 F7800.000
G1 F600
G1 X100.173 Y101.192 E2.05915
G1 X100.420 Y101.481 E2.07254
G1 X100.698 Y101.741 E2.08595
G1 X101.237 Y102.124 E2.10927
G1 F600
G1 X101.897 Y102.486 E2.13853
G1 X102.545 Y102.779 E2.16618
G1 F600
G1 X103.618 Y103.232 E2.21663
G1 X103.919 Y103.219 F7800.000
G1 F600
G1 X104.467 Y103.362 E2.23436
G1 X104.768 Y103.404 E2.24386
G1 X105.063 Y103.409 E2.25311
G1 X105.356 Y103.366 E2.26238
G1 X105.637 Y103.259 E2.27180
G1 X105.784 Y103.164 E2.27728
G1 X105.945 Y103.012 E2.28419
G1 X106.058 Y102.856 E2.29023
G1 X106.196 Y102.514 E2.30179
G1 X106.240 Y102.097 E2.31492
G1 X106.194 Y101.635 E2.32947
G1 X106.052 Y101.087 E2.34717
G1 X106.277 Y101.003 E2.35467
G1 X106.402 Y101.256 E2.36352
G1 X106.504 Y101.523 E2.37246
M106 S255

G1 F3600
G1 X106.636 Y101.871 E2.38280
G1 X106.756 Y102.387 E2.39752
G1 X106.777 Y102.777 E2.40835
G1 X106.709 Y103.148 E2.41884
G1 X106.575 Y103.426 E2.42742
G1 X106.378 Y103.649 E2.43568
G1 X106.153 Y103.799 E2.44319
G1 X105.958 Y103.881 E2.44904
G1 X105.835 Y103.914 E2.45259
G1 X105.481 Y103.954 E2.46248
G1 X105.023 Y103.907 E2.47527
G1 X104.603 Y103.790 E2.48738
G1 X104.247 Y103.649 E2.49803
M106 S255

G1 F600
G1 X103.826 Y103.451 E2.51260
G1 X103.891 Y103.289 E2.51807
G1 X104.027 Y103.283 F7800.000
G1 E0.51807 F2400.00000
G92 E0
G1 X106.058 Y100.792 F7800.000
G1 E2.00000 F2400.00000
G1 F600
G1 X105.684 Y100.135 E2.03256
G1 X105.278 Y99.543 E2.06354
G1 F600
G1 X104.914 Y99.099 E2.08483
G1 X104.597 Y98.775 E2.10168
G1 X104.230 Y98.461 E2.11956
G1 X103.878 Y98.225 E2.13530
G1 X103.482 Y98.012 E2.15200
G1 X103.014 Y97.827 E2.17067
G1 X102.527 Y97.704 E2.18929
G1 X102.016 Y97.656 E2.20834
G1 F600
G1 X101.502 Y97.694 E2.22994
G1 X101.144 Y97.784 E2.24540
G1 F600
G1 X100.848 Y97.902 E2.26017
G1 X99.624 Y99.112 F7800.000
G1 F600
G1 X99.704 Y98.894 E2.26741
G1 X99.843 Y98.628 E2.27681
G1 X100.020 Y98.382 E2.28631
G1 X100.190 Y98.200 E2.29411
G1 X100.384 Y98.372 E2.30224
G1 X100.162 Y98.634 E2.31297
G1 X100.000 Y98.895 E2.32260
G1 X99.864 Y99.208 E2.33328
G1 X99.694 Y99.139 E2.33901
G1 X99.752 Y98.919 F7800.000
G1 E0.33901 F2400.00000
G92 E0
G1 X105.006 Y103.651 F7800.000
G1 E2.00000 F2400.00000
G1 F600
G1 X105.217 Y103.660 E2.00007
G1 F600
G1 X105.469 Y103.649 E2.00135
G1 F600
G1 X105.808 Y103.562 E2.00522
G1 F600
G1 X105.978 Y103.474 E2.00813
G1 X106.137 Y103.353 E2.01117
G1 X106.252 Y103.229 E2.01375
G1 X106.362 Y103.045 E2.01701
G1 F600
G1 X106.538 Y102.398 E2.02409
G1 X106.476 Y102.323 F7800.000
G1 F600
G1 X106.478 Y102.574 E2.02486
G1 X106.411 Y103.271 E2.02703
G1 Z15.700 F7800.000
G1 E0.02703 F2400.00000
G92 E0
G1 X96.332 Y104.916 F7800.000
G1 E2.00000 F2400.00000
G1 F600
G1 X96.134 Y105.001 E2.00673
G1 X95.847 Y105.083 E2.01609
G1 X95.649 Y105.110 E2.02235
M106 S255

G1 F3600
G1 X95.341 Y105.119 E2.03092
G1 X95.113 Y105.090 E2.03731
G1 X94.695 Y104.963 E2.04943
G1 X94.506 Y104.870 E2.05527
G1 X94.231 Y104.690 E2.06440
G1 X94.069 Y104.555 E2.07027
G1 X93.901 Y104.368 E2.07725
M106 S255

G1 F600
G1 X93.754 Y104.205 E2.08412
G1 X93.625 Y104.010 E2.09143
G1 X93.437 Y103.612 E2.10524
G1 X93.640 Y103.500 E2.11250
G1 X94.034 Y104.032 E2.13320
G1 X94.330 Y104.302 E2.14576
G1 X94.633 Y104.501 E2.15712
G1 X94.880 Y104.621 E2.16571
G1 X95.275 Y104.740 E2.17864
G1 X95.503 Y104.772 E2.18584
G1 X95.846 Y104.772 E2.19659
G1 X96.260 Y104.687 E2.20982
G1 X96.310 Y104.844 E2.21500
G1 X96.120 Y104.953 F7800.000
G1 E0.21500 F2400.00000
G92 E0
G1 X93.439 Y103.297 F7800.000
G1 E2.00000 F2400.00000
G1 F600
G1 X93.358 Y102.767 E2.02157
G1 X93.367 Y102.295 E2.04056
G1 F600
G1 X93.462 Y101.776 E2.05908
G1 X93.644 Y101.220 E2.07962
G1 X93.842 Y100.815 E2.09547
G1 X94.189 Y100.295 E2.11743
G1 F600
G1 X94.649 Y99.791 E2.14416
G1 X95.036 Y99.477 E2.16370
G1 X95.422 Y99.231 E2.18167
G1 F600
G1 X95.953 Y99.002 E2.20713
G1 X96.455 Y98.900 E2.22967
G1 F600
G1 X96.933 Y98.903 E2.25243
G1 X97.144 Y98.941 E2.26266
G1 X97.482 Y99.055 E2.27964
G1 X97.845 Y99.269 E2.29973
G1 X98.036 Y99.423 E2.31142
G1 X98.202 Y99.591 E2.32269
G1 F600
G1 X98.375 Y99.815 E2.33508
G1 X98.583 Y100.222 E2.35508
G1 F600
G1 X98.663 Y100.486 E2.36610
G1 X98.725 Y100.787 E2.37839
G1 X98.741 Y101.265 E2.39749
G1 F600
G1 X98.702 Y101.649 E2.41101
G1 X98.570 Y102.187 E2.43045
G1 X98.352 Y102.718 E2.45054
G1 X98.112 Y103.132 E2.46734
G1 F600
G1 X97.704 Y103.686 E2.49419
G1 X97.455 Y103.967 E2.50885
G1 X97.206 Y104.209 E2.52242
G1 F600
G1 X96.857 Y104.487 E2.54142
G1 X96.702 Y105.032 E2.56555
G1 E0.56555 F2400.00000
G92 E0
G1 X104.657 Y103.998 F7800.000
G1 E2.00000 F2400.00000
G1 F600
G1 X105.071 Y104.116 E2.01349
G1 X105.358 Y104.151 E2.02252
G1 X105.644 Y104.148 E2.03150
G1 X105.929 Y104.099 E2.04053
G1 X106.202 Y104.001 E2.04963
G1 X106.377 Y103.900 E2.05596
G1 X106.525 Y103.786 E2.06180
G1 X106.710 Y103.584 E2.07037
G1 X106.888 Y103.252 E2.08216
G1 X106.963 Y102.941 E2.09220
G1 X106.978 Y102.698 E2.09981
G1 X106.963 Y102.442 E2.10786
G1 X106.849 Y101.918 E2.12466
G1 X107.087 Y101.848 E2.13242
G1 X107.296 Y102.475 E2.15310
M106 S255

G1 F3600
G1 X107.374 Y102.961 E2.16679
G1 X107.358 Y103.352 E2.17765
G1 X107.315 Y103.552 E2.18332
G1 X107.248 Y103.741 E2.18889
G1 X107.154 Y103.919 E2.19451
G1 X106.924 Y104.186 E2.20430
G1 X106.798 Y104.281 E2.20868
G1 X106.571 Y104.401 E2.21579
G1 X106.344 Y104.479 E2.22245
G1 X106.113 Y104.525 E2.22901
G1 X105.808 Y104.546 E2.23751
G1 X105.502 Y104.526 E2.24602
G1 X105.173 Y104.461 E2.25533
M106 S255

G1 F600
G1 X104.971 Y104.405 E2.26191
G1 X104.561 Y104.245 E2.27567
G1 X104.630 Y104.068 E2.28161
G1 X104.770 Y104.068 F7800.000
G1 X104.353 Y104.022 F7800.000
G1 F600
G1 X103.135 Y103.325 E2.34054
G1 F600
G1 X101.442 Y102.271 E2.41572
G1 X101.047 Y101.973 E2.43437
G1 X100.778 Y101.725 E2.44814
G1 X100.541 Y101.450 E2.46185
G1 F600
G1 X100.262 Y100.992 E2.48418
G1 X100.142 Y100.682 E2.49800
G1 F600
G1 X100.070 Y100.387 E2.51192
G1 X100.040 Y100.077 E2.52622
G1 X100.009 Y99.372 F7800.000
G1 F600
G1 X100.063 Y99.194 E2.53207
G1 X100.188 Y98.929 E2.54124
G1 X100.353 Y98.682 E2.55055
G1 X100.593 Y98.419 E2.56167
G1 X100.684 Y98.356 E2.56515
G1 X100.852 Y98.553 E2.57327
G1 X100.725 Y98.666 E2.57856
G1 X100.526 Y98.907 E2.58838
G1 X100.367 Y99.170 E2.59799
G1 X100.246 Y99.458 E2.60776
G1 X100.080 Y99.398 E2.61331
G1 X100.106 Y99.213 F7800.000
G1 X100.978 Y98.277 F7800.000
G1 F600
G1 X101.361 Y98.093 E2.63239
G1 X101.677 Y97.992 E2.64727
G1 F600
G1 X101.987 Y97.933 E2.66017
G1 X102.272 Y97.915 E2.67183
G1 X102.751 Y97.951 E2.69147
G1 F600
G1 X103.239 Y98.063 E2.70980
G1 X103.541 Y98.179 E2.72165
G1 X103.823 Y98.304 E2.73293
G1 X104.272 Y98.567 E2.75197
G1 X104.859 Y99.014 E2.77898
G1 X105.233 Y99.354 E2.79745
G1 X105.695 Y99.830 E2.82174
G1 F600
G1 X106.014 Y100.203 E2.84255
G1 X106.382 Y100.720 E2.86948
G1 X106.700 Y101.287 E2.89707
G1 X107.210 Y101.486 E2.92030
G1 E0.92030 F2400.00000
G92 E0
G1 X107.063 Y103.481 F7800.000
G1 E2.00000 F2400.00000
G1 F600
G1 X106.931 Y103.751 E2.00024
G1 X106.735 Y103.974 E2.00047
G1 X106.523 Y104.124 E2.00068
G1 X106.305 Y104.229 E2.00087
G1 E0.00087 F2400.00000
G92 E0
M107
; Filament-specific end gcode 
;END gcode for filament

M104 S0 ; turn off temperature
G28 X0  ; home X axis
M84     ; disable motors

M140 S0 ; set bed temperature
; filament used = 25.6mm (0.2cm3)
; total filament cost = 0.0

; avoid_crossing_perimeters = 0
; bed_shape = 0x0,200x0,200x200,0x200
; bed_temperature = 0
; before_layer_gcode = 
; between_objects_gcode = 
; bridge_acceleration = 0
; bridge_fan_speed = 100
; brim_connections_width = 0
; brim_width = 0
; complete_objects = 0
; cooling = 1
; default_acceleration = 0
; disable_fan_first_layers = 3
; duplicate_distance = 6
; end_filament_gcode = "; Filament-specific end gcode \n;END gcode for filament\n"
; end_gcode = M104 S0 ; turn off temperature\nG28 X0  ; home X axis\nM84     ; disable motors\n
; extruder_clearance_height = 20
; extruder_clearance_radius = 20
; extruder_offset = 0x0
; extrusion_axis = E
; extrusion_multiplier = 1
; fan_always_on = 0
; fan_below_layer_time = 60
; filament_colour = #FFFFFF
; filament_cost = 0
; filament_density = 0
; filament_diameter = 3
; filament_max_volumetric_speed = 0
; filament_notes = ""
; first_layer_acceleration = 0
; first_layer_bed_temperature = 0
; first_layer_extrusion_width = 200%
; first_layer_speed = 30
; first_layer_temperature = 205
; gcode_arcs = 0
; gcode_comments = 0
; gcode_flavor = reprap
; has_heatbed = 1
; infill_acceleration = 0
; infill_first = 0
; interior_brim_width = 0
; layer_gcode = 
; max_fan_speed = 100
; max_layer_height = 0.3
; max_print_speed = 80
; max_volumetric_speed = 0
; min_fan_speed = 35
; min_layer_height = 0.15
; min_print_speed = 10
; min_skirt_length = 0
; notes = 
; nozzle_diameter = 0.5
; only_retract_when_crossing_perimeters = 1
; ooze_prevention = 0
; output_filename_format = [input_filename_base].gcode
; perimeter_acceleration = 0
; post_process = 
; pressure_advance = 0
; printer_notes = 
; resolution = 0
; retract_before_travel = 2
; retract_layer_change = 0
; retract_length = 2
; retract_length_toolchange = 10
; retract_lift = 0
; retract_lift_above = 0
; retract_lift_below = 0
; retract_restart_extra = 0
; retract_restart_extra_toolchange = 0
; retract_speed = 40
; skirt_distance = 6
; skirt_height = 1
; skirts = 0
; slowdown_below_layer_time = 5
; spiral_vase = 0
; standby_temperature_delta = -5
; start_filament_gcode = "; Filament gcode\n"
; start_gcode = G28 ; home all axes\nG1 Z5 F5000 ; lift nozzle\n
; temperature = 200
; threads = 8
; toolchange_gcode = 
; travel_speed = 130
; use_firmware_retraction = 0
; use_relative_e_distances = 0
; use_set_and_wait_bed = 0
; use_set_and_wait_extruder = 0
; use_volumetric_e = 0
; vibration_limit = 0
; wipe = 0
; z_offset = 0
; z_steps_per_mm = 0
; adaptive_slicing = 0
; adaptive_slicing_quality = 75%
; dont_support_bridges = 1
; extrusion_width = 0
; first_layer_height = 0.7
; infill_only_where_needed = 0
; interface_shells = 0
; layer_height = 0.7
; match_horizontal_surfaces = 0
; raft_layers = 0
; regions_overlap = 0
; seam_position = aligned
; sequential_print_priority = 0
; support_material = 0
; support_material_angle = 0
; support_material_buildplate_only = 0
; support_material_contact_distance = 0.2
; support_material_enforce_layers = 0
; support_material_extruder = 1
; support_material_extrusion_width = 0
; support_material_interface_extruder = 1
; support_material_interface_extrusion_width = 0
; support_material_interface_layers = 3
; support_material_interface_spacing = 0
; support_material_interface_speed = 100%
; support_material_max_layers = 0
; support_material_pattern = pillars
; support_material_spacing = 2.5
; support_material_speed = 60
; support_material_threshold = 60%
; xy_size_compensation = 0
; bottom_infill_pattern = rectilinear
; bottom_solid_layers = 3
; bridge_flow_ratio = 1
; bridge_speed = 60
; external_perimeter_extrusion_width = 0
; external_perimeter_speed = 50%
; external_perimeters_first = 0
; extra_perimeters = 1
; fill_angle = 45
; fill_density = 20%
; fill_gaps = 1
; fill_pattern = stars
; gap_fill_speed = 20
; infill_every_layers = 1
; infill_extruder = 1
; infill_extrusion_width = 0
; infill_overlap = 55%
; infill_speed = 80
; overhangs = 1
; perimeter_extruder = 1
; perimeter_extrusion_width = 0
; perimeter_speed = 60
; perimeters = 3
; small_perimeter_speed = 15
; solid_infill_below_area = 70
; solid_infill_every_layers = 0
; solid_infill_extruder = 1
; solid_infill_extrusion_width = 0
; solid_infill_speed = 20
; thin_walls = 1
; top_infill_extrusion_width = 0
; top_infill_pattern = rectilinear
; top_solid_infill_speed = 15
; top_solid_layers = 3
