; generated by Slic3r 1.2.9 on 2019-04-19 at 15:20:10

; external perimeters extrusion width = 0.50mm
; perimeters extrusion width = 0.52mm
; infill extrusion width = 0.52mm
; solid infill extrusion width = 0.52mm
; top infill extrusion width = 0.52mm

M107
M104 S200 ; set temperature
G28 ; home all axes
G1 Z5 F5000 ; lift nozzle

M109 S200 ; wait for temperature to be reached
G21 ; set units to millimeters
G90 ; use absolute coordinates
M82 ; use absolute distances for extrusion
G92 E0
G1 Z0.350 F7800.000
G1 E-2.00000 F2400.00000
G92 E0
G1 X95.150 Y97.601 F7800.000
G1 E2.00000 F2400.00000
G1 X95.177 Y97.223 E2.10551 F600.000
G1 X95.329 Y96.776 E2.23708
G1 X95.586 Y96.385 E2.36733
G1 X95.749 Y96.216 E2.43277
G1 X95.996 Y96.005 E2.52332
G1 X96.420 Y95.767 E2.65875
G1 X96.832 Y95.635 E2.77925
G1 X97.329 Y95.585 E2.91831
G1 X97.676 Y95.613 E3.01516
G1 X98.082 Y95.717 E3.13175
G1 X98.324 Y95.815 E3.20453
G1 X98.812 Y96.090 E3.36064
G1 X99.126 Y96.354 E3.47471
G1 X99.261 Y96.498 E3.52969
G1 X99.435 Y96.735 E3.61160
G1 X99.607 Y97.079 E3.71881
G1 X99.714 Y97.463 E3.82983
G1 X99.735 Y97.894 E3.95003
G1 X99.677 Y98.233 E4.04577
G1 X99.590 Y98.478 E4.11819
G1 X99.416 Y98.771 E4.21292
G1 X99.166 Y99.030 E4.31326
G1 X98.925 Y99.204 E4.39608
G1 X98.554 Y99.369 E4.50899
G1 X98.173 Y99.452 E4.61758
G1 X97.686 Y99.463 E4.75337
G1 X97.150 Y99.384 E4.90412
G1 X96.643 Y99.229 E5.05188
G1 X96.155 Y98.998 E5.20220
G1 X95.761 Y98.725 E5.33549
G1 X95.464 Y98.419 E5.45425
G1 X95.311 Y98.173 E5.53515
G1 X95.228 Y97.991 E5.59074
G1 X95.150 Y97.601 E5.70135
G1 Z0.850 F7800.000
G1 X95.352 Y97.493 F7800.000
G1 X95.412 Y97.146 E5.79505 F600.000
G1 X95.568 Y96.773 E5.90246
G1 X95.835 Y96.397 E6.02506
G1 X96.001 Y96.231 E6.08776
G1 X96.187 Y96.082 E6.15081
G1 X96.604 Y95.846 E6.27837
G1 X97.075 Y95.698 E6.40970
G1 X97.532 Y95.657 E6.53175
G1 X97.925 Y95.692 E6.63663
G1 X98.323 Y95.795 E6.74586
G1 X98.713 Y95.959 E6.85832
G1 X98.958 Y96.101 E6.93385
G1 X99.114 Y96.203 E6.98324
G1 X99.385 Y96.432 E7.07755
G1 X99.613 Y96.693 E7.16980
G1 X99.787 Y96.976 E7.25811
G1 X99.938 Y97.346 E7.36435
G1 X100.006 Y97.736 E7.46972
G1 X99.993 Y98.148 E7.57941
G1 X99.959 Y98.323 E7.62661
G1 X99.859 Y98.614 E7.70858
G1 X99.704 Y98.878 E7.78989
G1 X99.485 Y99.121 E7.87690
G1 X99.236 Y99.300 E7.95839
G1 X98.889 Y99.466 E8.06070
G1 X98.497 Y99.560 E8.16798
G1 X98.009 Y99.580 E8.29767
G1 X97.770 Y99.554 E8.36171
G1 X97.390 Y99.484 E8.46447
G1 X96.807 Y99.290 E8.62790
G1 X96.463 Y99.130 E8.72887
G1 X96.036 Y98.852 E8.86431
G1 X95.857 Y98.697 E8.92712
G1 X95.697 Y98.523 E8.99003
G1 X95.470 Y98.157 E9.10468
G1 X95.406 Y97.975 E9.15598
G1 X95.362 Y97.765 E9.21298
G1 X95.352 Y97.493 E9.28526
G1 Z1.350 F7800.000
G1 X95.596 Y97.778 F7800.000
G1 X95.619 Y97.363 E9.39568 F600.000
G1 X95.682 Y97.128 E9.46038
G1 X95.766 Y96.934 E9.51664
G1 X96.035 Y96.526 E9.64660
G1 X96.331 Y96.241 E9.75575
G1 X96.752 Y95.971 E9.88869
G1 X97.083 Y95.837 E9.98379
G1 X97.334 Y95.774 E10.05255
G1 X97.703 Y95.733 E10.15133
G1 X98.030 Y95.743 E10.23820
G1 X98.472 Y95.827 E10.35795
G1 X98.956 Y96.006 E10.49522
G1 X99.311 Y96.208 E10.60365
G1 X99.512 Y96.358 E10.67039
G1 X99.726 Y96.555 E10.74774
G1 X99.957 Y96.839 E10.84525
G1 X100.175 Y97.242 E10.96705
G1 X100.264 Y97.518 E11.04418
G1 X100.309 Y97.746 E11.10581
G1 X100.327 Y98.095 E11.19877
G1 X100.285 Y98.433 E11.28951
G1 X100.173 Y98.762 E11.38187
G1 X100.012 Y99.045 E11.46855
G1 X99.830 Y99.248 E11.54098
G1 X99.588 Y99.431 E11.62167
G1 X99.238 Y99.603 E11.72525
G1 X98.825 Y99.710 E11.83880
G1 X98.545 Y99.737 E11.91360
G1 X98.256 Y99.733 E11.99062
G1 X97.763 Y99.662 E12.12301
G1 X97.288 Y99.524 E12.25453
G1 X96.796 Y99.298 E12.39836
G1 X96.337 Y99.006 E12.54309
G1 X95.983 Y98.677 E12.67173
G1 X95.809 Y98.442 E12.74944
G1 X95.713 Y98.260 E12.80429
G1 X95.647 Y98.077 E12.85581
G1 X95.596 Y97.778 E12.93665
M106 S255
G1 Z1.850 F7800.000
G1 X95.813 Y97.746 F7800.000
G1 X95.865 Y97.381 E13.03461 F600.000
G1 X95.941 Y97.141 E13.10169
G1 X96.058 Y96.900 E13.17285
G1 X96.262 Y96.610 E13.26717
G1 X96.616 Y96.267 E13.39827
G1 X96.826 Y96.123 E13.46603
G1 X97.024 Y96.015 E13.52588
G1 X97.495 Y95.848 E13.65889
G1 X97.956 Y95.789 E13.78235
G1 X98.489 Y95.830 E13.92464
G1 X98.878 Y95.926 E14.03121
G1 X99.416 Y96.168 E14.18788
G1 X99.698 Y96.352 E14.27752
G1 X99.922 Y96.540 E14.35518
G1 X100.172 Y96.817 E14.45444
G1 X100.361 Y97.108 E14.54684
G1 X100.519 Y97.483 E14.65489
G1 X100.609 Y97.936 E14.77771
G1 X100.619 Y98.199 E14.84784
G1 X100.577 Y98.529 E14.93617
G1 X100.471 Y98.867 E15.03052
G1 X100.296 Y99.183 E15.12652
G1 X100.046 Y99.452 E15.22412
G1 X99.708 Y99.667 E15.33068
G1 X99.442 Y99.774 E15.40687
G1 X99.084 Y99.860 E15.50482
G1 X98.772 Y99.889 E15.58803
G1 X98.552 Y99.887 E15.64658
G1 X98.113 Y99.835 E15.76430
G1 X97.575 Y99.698 E15.91179
G1 X97.071 Y99.481 E16.05773
G1 X96.798 Y99.316 E16.14268
G1 X96.374 Y98.979 E16.28673
G1 X96.159 Y98.747 E16.37074
G1 X95.950 Y98.404 E16.47759
G1 X95.839 Y98.052 E16.57554
G1 X95.813 Y97.746 E16.65731
G1 Z2.350 F7800.000
G1 X96.033 Y98.051 F7800.000
G1 X96.040 Y97.639 E16.76675 F600.000
G1 X96.094 Y97.391 E16.83424
G1 X96.169 Y97.185 E16.89268
G1 X96.333 Y96.875 E16.98594
G1 X96.480 Y96.672 E17.05259
G1 X96.654 Y96.482 E17.12087
G1 X96.831 Y96.327 E17.18363
G1 X97.085 Y96.158 E17.26473
G1 X97.245 Y96.069 E17.31338
G1 X97.528 Y95.959 E17.39424
G1 X97.687 Y95.911 E17.43836
G1 X97.975 Y95.864 E17.51594
G1 X98.462 Y95.856 E17.64541
G1 X98.935 Y95.934 E17.77296
G1 X99.452 Y96.122 E17.91914
G1 X99.831 Y96.339 E18.03536
G1 X100.253 Y96.695 E18.18216
G1 X100.414 Y96.883 E18.24796
G1 X100.620 Y97.205 E18.34975
G1 X100.771 Y97.568 E18.45407
G1 X100.847 Y97.937 E18.55424
G1 X100.864 Y98.303 E18.65183
G1 X100.812 Y98.659 E18.74739
G1 X100.703 Y98.998 E18.84201
G1 X100.525 Y99.306 E18.93677
G1 X100.301 Y99.564 E19.02764
G1 X100.026 Y99.759 E19.11716
G1 X99.667 Y99.914 E19.22116
G1 X99.406 Y99.981 E19.29293
G1 X99.141 Y100.016 E19.36391
G1 X98.824 Y100.021 E19.44819
G1 X98.312 Y99.991 E19.58464
G1 X97.851 Y99.905 E19.70937
G1 X97.469 Y99.773 E19.81671
G1 X97.067 Y99.557 E19.93820
G1 X96.739 Y99.303 E20.04844
G1 X96.325 Y98.817 E20.21824
G1 X96.174 Y98.565 E20.29635
G1 X96.106 Y98.394 E20.34513
G1 X96.033 Y98.051 E20.43858
G1 Z2.850 F7800.000
G1 X96.136 Y98.316 F7800.000
G1 X96.239 Y97.710 E20.60225 F600.000
G1 X96.377 Y97.271 E20.72445
G1 X96.577 Y96.897 E20.83739
G1 X96.861 Y96.552 E20.95620
G1 X97.223 Y96.267 E21.07859
G1 X97.596 Y96.072 E21.19060
G1 X98.023 Y95.951 E21.30864
G1 X98.393 Y95.919 E21.40740
G1 X98.767 Y95.935 E21.50702
G1 X99.278 Y96.044 E21.64589
G1 X99.561 Y96.146 E21.72579
G1 X99.773 Y96.250 E21.78852
G1 X100.010 Y96.389 E21.86167
G1 X100.233 Y96.553 E21.93517
G1 X100.478 Y96.787 E22.02542
G1 X100.710 Y97.075 E22.12366
G1 X100.833 Y97.291 E22.18993
G1 X100.934 Y97.518 E22.25582
G1 X101.008 Y97.749 E22.32038
G1 X101.068 Y98.204 E22.44244
G1 X101.059 Y98.460 E22.51049
G1 X100.977 Y98.859 E22.61871
G1 X100.906 Y99.040 E22.67068
G1 X100.807 Y99.248 E22.73184
G1 X100.698 Y99.408 E22.78331
G1 X100.558 Y99.581 E22.84261
G1 X100.354 Y99.766 E22.91569
G1 X100.039 Y99.948 E23.01232
G1 X99.766 Y100.047 E23.08972
G1 X99.444 Y100.110 E23.17684
G1 X98.892 Y100.137 E23.32399
G1 X98.443 Y100.215 E23.44513
G1 X98.044 Y100.207 E23.55126
G1 X97.656 Y100.131 E23.65630
G1 X97.252 Y99.984 E23.77063
G1 X96.847 Y99.746 E23.89555
G1 X96.632 Y99.567 E23.96994
G1 X96.475 Y99.400 E24.03075
G1 X96.363 Y99.246 E24.08143
G1 X96.246 Y99.017 E24.14995
G1 X96.145 Y98.636 E24.25472
G1 X96.136 Y98.316 E24.33981
G1 Z3.350 F7800.000
G1 X95.969 Y98.549 F7800.000
G1 X96.043 Y98.142 E24.44973 F600.000
G1 X96.232 Y97.686 E24.58102
G1 X96.355 Y97.473 E24.64633
G1 X96.521 Y97.242 E24.72204
G1 X96.970 Y96.744 E24.90020
G1 X97.224 Y96.501 E24.99387
G1 X97.605 Y96.251 E25.11514
G1 X97.912 Y96.120 E25.20373
G1 X98.258 Y96.034 E25.29857
G1 X98.552 Y96.010 E25.37686
G1 X98.757 Y96.008 E25.43151
G1 X99.082 Y96.046 E25.51842
G1 X99.577 Y96.176 E25.65448
G1 X100.049 Y96.396 E25.79311
G1 X100.283 Y96.554 E25.86822
G1 X100.503 Y96.735 E25.94376
G1 X100.702 Y96.938 E26.01938
G1 X100.869 Y97.159 E26.09297
G1 X101.030 Y97.447 E26.18074
G1 X101.169 Y97.838 E26.29131
G1 X101.229 Y98.286 E26.41129
G1 X101.210 Y98.595 E26.49367
G1 X101.175 Y98.806 E26.55053
G1 X101.035 Y99.187 E26.65866
G1 X100.809 Y99.524 E26.76631
G1 X100.499 Y99.820 E26.88051
G1 X100.133 Y100.042 E26.99434
G1 X99.922 Y100.120 E27.05404
G1 X99.585 Y100.186 E27.14551
G1 X99.077 Y100.219 E27.28074
G1 X98.731 Y100.361 E27.38028
G1 X98.356 Y100.439 E27.48215
G1 X97.953 Y100.451 E27.58921
G1 X97.548 Y100.383 E27.69854
G1 X97.119 Y100.236 E27.81915
G1 X96.803 Y100.054 E27.91598
G1 X96.561 Y99.885 E27.99447
G1 X96.433 Y99.771 E28.04019
G1 X96.245 Y99.552 E28.11692
G1 X96.091 Y99.286 E28.19867
G1 X95.987 Y98.943 E28.29395
G1 X95.969 Y98.549 E28.39881
G1 Z3.850 F7800.000
G1 X95.801 Y98.773 F7800.000
G1 X95.872 Y98.375 E28.50617 F600.000
G1 X96.017 Y97.997 E28.61396
G1 X96.256 Y97.604 E28.73629
G1 X96.424 Y97.390 E28.80861
G1 X96.660 Y97.147 E28.89873
G1 X96.940 Y96.917 E28.99497
G1 X97.669 Y96.455 E29.22450
G1 X97.950 Y96.305 E29.30920
G1 X98.329 Y96.181 E29.41519
G1 X98.774 Y96.130 E29.53432
G1 X99.077 Y96.144 E29.61504
G1 X99.353 Y96.190 E29.68944
G1 X99.763 Y96.316 E29.80351
G1 X99.973 Y96.407 E29.86430
G1 X100.234 Y96.554 E29.94396
G1 X100.448 Y96.704 E30.01347
G1 X100.629 Y96.865 E30.07782
G1 X100.833 Y97.074 E30.15552
G1 X101.009 Y97.312 E30.23414
G1 X101.196 Y97.643 E30.33531
G1 X101.391 Y98.151 E30.48014
G1 X101.451 Y98.389 E30.54524
G1 X101.483 Y98.718 E30.63309
G1 X101.445 Y99.088 E30.73212
G1 X101.378 Y99.292 E30.78928
G1 X101.273 Y99.490 E30.84876
G1 X101.104 Y99.705 E30.92157
G1 X100.826 Y99.911 E31.01360
G1 X100.527 Y100.041 E31.10018
G1 X99.910 Y100.201 E31.26968
G1 X99.214 Y100.259 E31.45535
G1 X98.846 Y100.474 E31.56862
G1 X98.494 Y100.614 E31.66950
G1 X98.161 Y100.685 E31.75990
G1 X97.898 Y100.699 E31.82998
G1 X97.598 Y100.671 E31.91029
G1 X97.306 Y100.616 E31.98916
G1 X97.025 Y100.520 E32.06809
G1 X96.656 Y100.334 E32.17821
G1 X96.309 Y100.064 E32.29507
G1 X96.064 Y99.781 E32.39435
G1 X95.881 Y99.428 E32.50010
G1 X95.807 Y99.107 E32.58772
G1 X95.801 Y98.773 E32.67674
G1 Z4.350 F7800.000
G1 X95.621 Y99.020 F7800.000
G1 X95.686 Y98.657 E32.77480 F600.000
G1 X95.855 Y98.217 E32.90016
G1 X96.038 Y97.901 E32.99713
G1 X96.240 Y97.636 E33.08584
G1 X96.598 Y97.279 E33.22016
G1 X96.862 Y97.087 E33.30715
G1 X97.140 Y96.927 E33.39247
G1 X97.409 Y96.808 E33.47057
G1 X97.764 Y96.699 E33.56938
G1 X98.262 Y96.447 E33.71776
G1 X98.635 Y96.347 E33.82057
G1 X99.001 Y96.316 E33.91812
G1 X99.403 Y96.357 E34.02561
G1 X99.641 Y96.413 E34.09053
G1 X99.903 Y96.508 E34.16482
G1 X100.330 Y96.736 E34.29348
G1 X100.822 Y97.123 E34.45991
G1 X101.413 Y97.705 E34.68045
G1 X101.680 Y98.071 E34.80090
G1 X101.785 Y98.286 E34.86459
G1 X101.858 Y98.498 E34.92421
G1 X101.901 Y98.716 E34.98321
G1 X101.913 Y98.971 E35.05101
G1 X101.894 Y99.184 E35.10802
G1 X101.846 Y99.385 E35.16293
G1 X101.708 Y99.701 E35.25455
G1 X101.511 Y99.967 E35.34271
G1 X101.354 Y100.116 E35.40005
G1 X101.134 Y100.256 E35.46963
G1 X100.820 Y100.371 E35.55844
G1 X100.556 Y100.411 E35.62939
G1 X100.364 Y100.416 E35.68043
G1 X100.014 Y100.388 E35.77378
G1 X99.370 Y100.292 E35.94699
G1 X99.295 Y100.298 E35.96712
G1 X99.205 Y100.335 E35.99297
G1 X98.862 Y100.610 E36.10974
G1 X98.470 Y100.823 E36.22860
G1 X98.118 Y100.932 E36.32639
G1 X97.660 Y100.971 E36.44863
G1 X97.293 Y100.932 E36.54692
G1 X97.014 Y100.854 E36.62391
G1 X96.750 Y100.755 E36.69879
G1 X96.420 Y100.573 E36.79887
G1 X96.078 Y100.294 E36.91627
G1 X95.875 Y100.046 E37.00150
G1 X95.695 Y99.692 E37.10717
G1 X95.621 Y99.354 E37.19921
G1 X95.621 Y99.020 E37.28808
G1 Z4.850 F7800.000
G1 X95.431 Y99.456 F7800.000
G1 X95.468 Y99.087 E37.38671 F600.000
G1 X95.576 Y98.718 E37.48895
G1 X95.700 Y98.441 E37.56971
G1 X96.012 Y97.951 E37.72423
G1 X96.198 Y97.739 E37.79909
G1 X96.448 Y97.499 E37.89131
G1 X96.836 Y97.231 E38.01673
G1 X97.186 Y97.060 E38.12023
G1 X97.424 Y96.981 E38.18685
G1 X97.696 Y96.926 E38.26086
G1 X98.113 Y96.889 E38.37207
G1 X98.663 Y96.666 E38.52999
G1 X99.069 Y96.602 E38.63912
G1 X99.470 Y96.623 E38.74587
G1 X99.853 Y96.711 E38.85047
G1 X100.240 Y96.848 E38.95958
G1 X100.920 Y97.129 E39.15533
G1 X101.220 Y97.289 E39.24580
G1 X101.436 Y97.435 E39.31499
G1 X101.774 Y97.742 E39.43646
G1 X101.986 Y98.021 E39.52972
G1 X102.142 Y98.338 E39.62354
G1 X102.222 Y98.596 E39.69551
G1 X102.266 Y98.863 E39.76737
G1 X102.266 Y99.211 E39.85990
G1 X102.223 Y99.481 E39.93265
G1 X102.061 Y99.894 E40.05062
G1 X101.869 Y100.168 E40.13965
G1 X101.672 Y100.347 E40.21026
G1 X101.433 Y100.502 E40.28614
G1 X101.234 Y100.589 E40.34397
G1 X101.042 Y100.642 E40.39698
G1 X100.803 Y100.688 E40.46150
G1 X100.513 Y100.699 E40.53869
G1 X100.234 Y100.672 E40.61337
G1 X99.878 Y100.601 E40.70971
G1 X99.367 Y100.427 E40.85341
G1 X99.269 Y100.423 E40.87950
G1 X99.163 Y100.466 E40.90996
G1 X98.815 Y100.786 E41.03564
G1 X98.514 Y100.992 E41.13250
G1 X98.169 Y101.149 E41.23335
G1 X97.823 Y101.232 E41.32807
G1 X97.425 Y101.249 E41.43386
G1 X96.937 Y101.163 E41.56577
G1 X96.596 Y101.043 E41.66188
G1 X96.160 Y100.789 E41.79598
G1 X96.008 Y100.667 E41.84769
G1 X95.789 Y100.442 E41.93136
G1 X95.608 Y100.170 E42.01831
G1 X95.473 Y99.828 E42.11604
G1 X95.431 Y99.456 E42.21554
G1 Z5.350 F7800.000
G1 X95.251 Y99.712 F7800.000
G1 X95.306 Y99.268 E42.33448 F600.000
G1 X95.434 Y98.892 E42.44015
G1 X95.623 Y98.525 E42.54981
G1 X95.984 Y98.049 E42.70871
G1 X96.261 Y97.775 E42.81223
G1 X96.507 Y97.584 E42.89522
G1 X96.899 Y97.357 E43.01574
G1 X97.098 Y97.273 E43.07308
G1 X97.388 Y97.184 E43.15375
G1 X97.607 Y97.152 E43.21250
G1 X97.853 Y97.143 E43.27792
G1 X98.445 Y97.210 E43.43658
G1 X98.709 Y97.082 E43.51459
G1 X98.986 Y96.982 E43.59284
G1 X99.407 Y96.907 E43.70651
G1 X99.733 Y96.886 E43.79338
G1 X100.136 Y96.897 E43.90060
G1 X100.550 Y96.957 E44.01172
G1 X100.875 Y97.044 E44.10132
G1 X101.175 Y97.162 E44.18697
G1 X101.536 Y97.361 E44.29680
G1 X101.747 Y97.520 E44.36698
G1 X101.999 Y97.759 E44.45915
G1 X102.227 Y98.057 E44.55894
G1 X102.386 Y98.352 E44.64799
G1 X102.498 Y98.655 E44.73389
G1 X102.577 Y99.028 E44.83528
G1 X102.590 Y99.392 E44.93231
G1 X102.550 Y99.680 E45.00947
G1 X102.472 Y99.938 E45.08126
G1 X102.415 Y100.058 E45.11661
G1 X102.210 Y100.361 E45.21380
G1 X101.998 Y100.555 E45.29026
G1 X101.737 Y100.707 E45.37059
G1 X101.463 Y100.810 E45.44840
G1 X101.098 Y100.882 E45.54739
G1 X100.627 Y100.892 E45.67272
G1 X100.125 Y100.821 E45.80745
G1 X99.713 Y100.704 E45.92143
G1 X99.331 Y100.550 E46.03099
G1 X99.215 Y100.543 E46.06188
G1 X99.099 Y100.596 E46.09576
G1 X98.713 Y100.996 E46.24365
G1 X98.334 Y101.268 E46.36763
G1 X97.909 Y101.453 E46.49097
G1 X97.485 Y101.531 E46.60547
G1 X97.023 Y101.509 E46.72842
G1 X96.570 Y101.388 E46.85311
G1 X96.131 Y101.171 E46.98347
G1 X95.841 Y100.957 E47.07917
G1 X95.544 Y100.629 E47.19681
G1 X95.388 Y100.367 E47.27803
G1 X95.282 Y100.051 E47.36644
G1 X95.251 Y99.712 E47.45713
G1 Z5.850 F7800.000
G1 X95.068 Y99.973 F7800.000
G1 X95.110 Y99.611 E47.55396 F600.000
G1 X95.195 Y99.305 E47.63855
G1 X95.424 Y98.827 E47.77953
G1 X95.669 Y98.478 E47.89265
G1 X95.986 Y98.139 E48.01613
G1 X96.489 Y97.757 E48.18414
G1 X96.777 Y97.606 E48.27078
G1 X97.044 Y97.505 E48.34665
G1 X97.527 Y97.415 E48.47715
G1 X97.887 Y97.425 E48.57308
G1 X98.152 Y97.475 E48.64463
G1 X98.411 Y97.573 E48.71835
G1 X98.544 Y97.601 E48.75452
G1 X98.677 Y97.536 E48.79394
G1 X99.032 Y97.283 E48.90983
G1 X99.309 Y97.151 E48.99132
G1 X99.693 Y97.031 E49.09850
G1 X100.127 Y96.972 E49.21499
G1 X100.572 Y96.992 E49.33319
G1 X100.837 Y97.046 E49.40520
G1 X101.116 Y97.136 E49.48326
G1 X101.609 Y97.378 E49.62924
G1 X102.042 Y97.700 E49.77278
G1 X102.410 Y98.100 E49.91718
G1 X102.687 Y98.551 E50.05792
G1 X102.813 Y98.845 E50.14314
G1 X102.890 Y99.102 E50.21447
G1 X102.948 Y99.502 E50.32189
G1 X102.948 Y99.691 E50.37206
G1 X102.907 Y99.975 E50.44834
G1 X102.834 Y100.224 E50.51736
G1 X102.720 Y100.439 E50.58215
G1 X102.566 Y100.628 E50.64704
G1 X102.433 Y100.756 E50.69610
G1 X102.088 Y100.950 E50.80136
G1 X101.747 Y101.051 E50.89589
G1 X101.384 Y101.092 E50.99303
G1 X100.828 Y101.073 E51.14086
G1 X100.447 Y101.012 E51.24361
G1 X100.146 Y100.940 E51.32583
G1 X99.809 Y100.829 E51.42009
G1 X99.312 Y100.610 E51.56465
G1 X99.187 Y100.601 E51.59786
G1 X99.065 Y100.659 E51.63375
G1 X98.648 Y101.166 E51.80827
G1 X98.434 Y101.356 E51.88433
G1 X98.234 Y101.499 E51.94977
G1 X97.972 Y101.643 E52.02926
G1 X97.778 Y101.724 E52.08517
G1 X97.501 Y101.795 E52.16108
G1 X97.221 Y101.832 E52.23631
G1 X97.020 Y101.834 E52.28988
G1 X96.695 Y101.799 E52.37678
G1 X96.271 Y101.667 E52.49467
G1 X95.900 Y101.470 E52.60643
G1 X95.695 Y101.324 E52.67326
G1 X95.424 Y101.048 E52.77621
G1 X95.216 Y100.700 E52.88401
G1 X95.156 Y100.557 E52.92514
G1 X95.097 Y100.315 E52.99149
G1 X95.068 Y99.973 E53.08278
G1 Z6.350 F7800.000
G1 E51.08278 F2400.00000
G92 E0
G1 X102.906 Y100.844 F7800.000
G1 E2.00000 F2400.00000
G1 X103.115 Y100.536 E2.09296 F600.000
G1 X103.301 Y100.645 E2.14694
M106 S255
G1 X103.227 Y100.820 E2.19448 F900.000
G1 X103.090 Y100.983 E2.24752
G1 X103.077 Y100.973 E2.25181
M106 S255
G1 X102.966 Y100.889 E2.28661 F600.000
G1 X103.243 Y100.687 F7800.000
G1 X102.813 Y101.087 F7800.000
G1 X102.456 Y101.249 E2.39087 F600.000
G1 X102.088 Y101.338 E2.49163
G1 X101.614 Y101.356 E2.61783
G1 X101.176 Y101.306 E2.73492
G1 X100.739 Y101.217 E2.85367
G1 X100.300 Y101.088 E2.97533
G1 X99.853 Y100.910 E3.10327
G1 X99.308 Y100.616 E3.26795
G1 X99.178 Y100.598 E3.30273
G1 X99.091 Y100.626 E3.32695
G1 X99.030 Y100.672 E3.34741
G1 X98.654 Y101.240 E3.52833
G1 X98.387 Y101.533 E3.63400
G1 X98.060 Y101.803 E3.74661
G1 X97.799 Y101.963 E3.82806
G1 X97.529 Y102.081 E3.90650
G1 X97.263 Y102.155 E3.97984
G1 X96.995 Y102.186 E4.05166
G1 X96.770 Y102.185 E4.11135
G1 X96.470 Y102.145 E4.19178
G1 X95.983 Y101.977 E4.32885
G1 X95.538 Y101.702 E4.46813
G1 X95.348 Y101.525 E4.53714
G1 X95.171 Y101.317 E4.60977
G1 X94.977 Y100.955 E4.71896
G1 X94.880 Y100.541 E4.83190
G1 X94.885 Y100.110 E4.94675
G1 X94.941 Y99.830 E5.02262
G1 X95.014 Y99.589 E5.08954
G1 X95.147 Y99.284 E5.17814
G1 X95.368 Y98.915 E5.29228
G1 X95.657 Y98.562 E5.41360
G1 X95.815 Y98.406 E5.47282
G1 X96.054 Y98.206 E5.55555
G1 X96.425 Y97.965 E5.67337
G1 X96.692 Y97.841 E5.75150
G1 X96.965 Y97.752 E5.82791
G1 X97.394 Y97.687 E5.94337
G1 X97.735 Y97.702 E6.03397
G1 X97.979 Y97.760 E6.10068
G1 X98.580 Y98.001 E6.27294
G1 X98.757 Y97.873 E6.33116
G1 X99.009 Y97.612 E6.42766
G1 X99.409 Y97.341 E6.55604
G1 X99.674 Y97.224 E6.63301
G1 X99.910 Y97.157 E6.69834
G1 X100.173 Y97.114 E6.76917
G1 X100.418 Y97.103 E6.83437
G1 X100.706 Y97.127 E6.91120
G1 X101.056 Y97.201 E7.00627
G1 X101.534 Y97.384 E7.14240
G1 X101.860 Y97.559 E7.24103
G1 X102.207 Y97.799 E7.35307
G1 X102.494 Y98.052 E7.45476
G1 X102.727 Y98.305 E7.54631
G1 X103.005 Y98.699 E7.67454
G1 X103.128 Y98.935 E7.74528
G1 X103.249 Y99.247 E7.83422
G1 X103.343 Y99.711 E7.96011
G1 X103.334 Y100.374 E8.13652
G1 Z6.850 F7800.000
G1 X102.975 Y101.680 F7800.000
G1 X102.888 Y101.487 E8.18933 F600.000
G1 X103.177 Y101.309 E8.27418
G1 X103.385 Y101.115 E8.34537
G1 X103.580 Y100.791 E8.43979
G1 X103.670 Y100.490 E8.51830
G1 X103.881 Y100.525 E8.57162
M106 S255
G1 X103.873 Y100.773 E8.63375 F900.000
G1 X103.807 Y101.049 E8.70452
G1 X103.708 Y101.243 E8.75895
G1 X103.536 Y101.435 E8.82347
G1 X103.417 Y101.518 E8.85973
G1 X103.239 Y101.602 E8.90887
G1 X103.046 Y101.661 E8.95953
M106 S255
G1 X102.689 Y101.653 F7800.000
G1 X102.321 Y101.663 E9.05735 F600.000
G1 X101.811 Y101.634 E9.19326
G1 X101.325 Y101.548 E9.32456
G1 X101.018 Y101.461 E9.40946
G1 X100.244 Y101.154 E9.63078
G1 X99.752 Y100.878 E9.78072
G1 X99.299 Y100.550 E9.92960
G1 X99.157 Y100.519 E9.96827
G1 X99.059 Y100.550 E9.99562
G1 X98.985 Y100.613 E10.02146
G1 X98.774 Y101.074 E10.15621
G1 X98.613 Y101.353 E10.24200
G1 X98.433 Y101.604 E10.32396
G1 X98.163 Y101.898 E10.43029
G1 X97.855 Y102.156 E10.53699
G1 X97.545 Y102.341 E10.63299
G1 X97.382 Y102.415 E10.68057
G1 X97.125 Y102.493 E10.75192
G1 X96.787 Y102.541 E10.84293
G1 X96.383 Y102.519 E10.95051
G1 X96.046 Y102.438 E11.04248
G1 X95.666 Y102.267 E11.15343
G1 X95.257 Y101.979 E11.28637
G1 X94.994 Y101.694 E11.38957
G1 X94.793 Y101.343 E11.49698
G1 X94.701 Y101.024 E11.58545
G1 X94.673 Y100.801 E11.64505
G1 X94.688 Y100.432 E11.74322
G1 X94.822 Y99.906 E11.88765
G1 X95.058 Y99.417 E12.03195
G1 X95.223 Y99.158 E12.11369
G1 X95.476 Y98.844 E12.22092
G1 X95.762 Y98.571 E12.32606
G1 X96.257 Y98.239 E12.48468
G1 X96.555 Y98.101 E12.57181
G1 X96.896 Y98.006 E12.66596
G1 X97.183 Y97.965 E12.74313
G1 X97.451 Y97.968 E12.81441
G1 X97.706 Y98.012 E12.88319
G1 X97.958 Y98.094 E12.95378
G1 X98.136 Y98.175 E13.00560
G1 X98.429 Y98.369 E13.09906
G1 X98.687 Y98.478 E13.17356
G1 X98.859 Y98.298 E13.24009
G1 X99.020 Y98.057 E13.31705
G1 X99.203 Y97.856 E13.38936
G1 X99.417 Y97.681 E13.46278
G1 X99.601 Y97.566 E13.52060
G1 X99.837 Y97.456 E13.58989
G1 X100.104 Y97.372 E13.66414
G1 X100.339 Y97.330 E13.72757
G1 X100.584 Y97.313 E13.79307
G1 X100.935 Y97.334 E13.88641
G1 X101.285 Y97.406 E13.98147
G1 X101.700 Y97.551 E14.09842
G1 X102.066 Y97.726 E14.20622
G1 X102.324 Y97.877 E14.28583
G1 X102.654 Y98.113 E14.39372
G1 X102.841 Y98.273 E14.45919
G1 X103.197 Y98.663 E14.59951
G1 X103.335 Y98.867 E14.66495
G1 X103.506 Y99.178 E14.75938
G1 X103.665 Y99.609 E14.88165
G1 X103.788 Y100.256 E15.05679
G1 Z7.350 F7800.000
G1 E13.05679 F2400.00000
G92 E0
G1 X96.240 Y103.045 F7800.000
G1 E2.00000 F2400.00000
G1 X95.989 Y103.023 E2.06289 F600.000
M106 S255
G1 X95.677 Y102.942 E2.14355 F900.000
G1 X95.396 Y102.812 E2.22096
G1 X95.149 Y102.642 E2.29594
G1 X95.009 Y102.507 E2.34456
M106 S255
G1 X94.927 Y102.427 E2.37324 F600.000
G1 X95.074 Y102.253 E2.43034
G1 X95.383 Y102.483 E2.52651
G1 X95.698 Y102.651 E2.61597
G1 X96.282 Y102.830 E2.76852
G1 X96.254 Y102.971 E2.80450
G1 X96.039 Y102.893 F7800.000
G1 X94.821 Y102.165 F7800.000
G1 X94.583 Y101.677 E2.94895 F600.000
G1 X94.493 Y101.339 E3.04178
G1 X94.469 Y100.985 E3.13613
G1 X94.521 Y100.583 E3.24394
G1 X94.637 Y100.205 E3.34920
G1 X94.871 Y99.731 E3.48969
G1 X95.139 Y99.349 E3.61392
G1 X95.406 Y99.049 E3.72068
G1 X95.587 Y98.884 E3.78583
G1 X95.972 Y98.595 E3.91364
G1 X96.354 Y98.392 E4.02874
G1 X96.722 Y98.280 E4.13101
G1 X97.143 Y98.241 E4.24355
G1 X97.515 Y98.288 E4.34324
G1 X97.862 Y98.404 E4.44051
G1 X98.223 Y98.625 E4.55309
G1 X98.619 Y99.002 E4.69834
G1 X98.841 Y99.589 F7800.000
M106 S255
G1 X98.741 Y99.363 E4.76001 F900.000
G1 X98.842 Y99.116 E4.82693
M106 S255
G1 X98.860 Y99.073 E4.83856 F600.000
G1 X98.923 Y99.088 E4.85479
M106 S255
G1 X99.064 Y99.124 E4.89121 F900.000
G1 X99.041 Y99.551 E4.99821
G1 X98.915 Y99.575 E5.03037
M106 S255
G1 X98.987 Y98.847 F7800.000
G1 X99.317 Y98.317 E5.19623 F600.000
G1 X99.467 Y98.146 E5.25669
G1 X99.710 Y97.931 E5.34306
G1 X99.952 Y97.781 E5.41883
G1 X100.408 Y97.616 E5.54759
G1 X100.854 Y97.559 E5.66739
G1 X101.352 Y97.597 E5.80016
G1 X101.710 Y97.679 E5.89786
G1 X102.077 Y97.804 E6.00078
G1 X102.467 Y97.987 E6.11553
G1 X102.841 Y98.219 E6.23238
G1 X103.139 Y98.461 E6.33452
G1 X103.352 Y98.679 E6.41557
G1 X103.613 Y99.012 E6.52807
G1 X103.855 Y99.417 E6.65363
G1 X104.030 Y99.790 E6.76316
G1 X104.229 Y100.313 E6.91187
G1 E4.91187 F2400.00000
G92 E0
G1 X102.866 Y102.199 F7800.000
G1 E2.00000 F2400.00000
G1 X102.819 Y102.188 E2.01200 F600.000
G1 X102.841 Y101.975 E2.06566
G1 X103.008 Y101.971 E2.10733
G1 X103.420 Y101.888 E2.21240
G1 X103.676 Y101.764 E2.28349
G1 X103.888 Y101.582 E2.35349
G1 X103.982 Y101.460 E2.39212
G1 X104.103 Y101.223 E2.45840
G1 X104.172 Y100.946 E2.52977
G1 X104.183 Y100.570 E2.62400
G1 X104.385 Y100.547 E2.67490
M106 S255
G1 X104.507 Y100.993 E2.79047 F900.000
G1 X104.554 Y101.443 E2.90357
G1 X104.525 Y101.749 E2.98053
G1 X104.443 Y101.973 E3.04002
G1 X104.386 Y102.061 E3.06627
G1 X104.303 Y102.147 E3.09613
G1 X104.191 Y102.223 E3.12997
G1 X104.034 Y102.287 E3.17242
G1 X103.788 Y102.327 E3.23467
G1 X103.499 Y102.318 E3.30688
G1 X102.939 Y102.216 E3.44917
M106 S255
G1 X102.583 Y102.046 F7800.000
G1 X102.035 Y101.937 E3.59761 F600.000
G1 X101.616 Y101.826 E3.71278
G1 X100.917 Y101.575 E3.91044
G1 X100.614 Y101.428 E3.99997
G1 X100.261 Y101.234 E4.10717
G1 X99.797 Y100.893 E4.26019
G1 X99.567 Y100.672 E4.34488
G1 X99.346 Y100.402 E4.43776
G1 X99.082 Y100.192 E4.52734
G1 X99.049 Y100.199 E4.53648
G1 X98.881 Y100.508 E4.62992
G1 X98.785 Y100.889 E4.73462
G1 X98.617 Y101.322 E4.85805
G1 X98.479 Y101.594 E4.93902
G1 X98.152 Y102.047 E5.08757
G1 X97.849 Y102.354 E5.20227
G1 X97.623 Y102.530 E5.27851
G1 X97.417 Y102.658 E5.34289
G1 X97.075 Y102.807 E5.44223
G1 X96.513 Y102.950 E5.59633
G1 Z7.850 F7800.000
G1 X96.222 Y103.332 F7800.000
G1 X96.236 Y103.545 E5.64955 F600.000
M106 S255
G1 X96.238 Y103.566 E5.65495 F900.000
G1 X96.059 Y103.585 E5.69988
G1 X95.869 Y103.579 E5.74741
G1 X95.503 Y103.504 E5.84079
G1 X95.163 Y103.349 E5.93409
G1 X94.957 Y103.209 E5.99650
G1 X94.825 Y103.094 E6.04024
G1 X94.659 Y102.902 E6.10363
G1 X94.673 Y102.888 E6.10862
M106 S255
G1 X94.818 Y102.743 E6.15996 F600.000
G1 X95.090 Y102.975 E6.24923
G1 X95.397 Y103.158 E6.33871
G1 X95.730 Y103.280 E6.42725
G1 X96.147 Y103.334 E6.53256
G1 X96.118 Y103.518 F7800.000
G1 X94.548 Y102.660 F7800.000
G1 X94.312 Y102.027 E6.71224 F600.000
G1 X94.255 Y101.645 E6.81479
G1 X94.268 Y101.269 E6.91505
G1 X94.348 Y100.827 E7.03444
G1 X94.450 Y100.526 E7.11897
G1 X94.584 Y100.237 E7.20360
G1 X94.853 Y99.810 E7.33778
G1 X95.174 Y99.432 E7.46970
G1 X95.405 Y99.211 E7.55469
G1 X95.746 Y98.959 E7.66735
G1 X96.181 Y98.728 E7.79826
G1 X96.495 Y98.617 E7.88685
G1 X96.921 Y98.555 E8.00136
G1 X97.227 Y98.569 E8.08277
G1 X97.575 Y98.664 E8.17883
G1 X97.783 Y98.754 E8.23917
G1 X98.131 Y99.006 E8.35333
G1 X98.415 Y99.346 E8.47110
G1 X98.560 Y99.624 E8.55456
G1 X98.633 Y99.837 E8.61452
G1 X98.709 Y100.271 E8.73159
G1 X98.701 Y100.668 E8.83726
G1 X98.613 Y101.140 E8.96497
G1 X98.469 Y101.557 E9.08221
G1 X98.336 Y101.832 E9.16335
G1 X98.131 Y102.162 E9.26676
G1 X97.814 Y102.547 E9.39930
G1 X97.412 Y102.912 E9.54384
G1 X97.070 Y103.157 E9.65552
G1 X96.480 Y103.439 E9.82949
G1 E7.82949 F2400.00000
G92 E0
G1 X103.135 Y102.769 F7800.000
G1 E2.00000 F2400.00000
G1 X103.200 Y102.579 E2.05019 F600.000
G1 X103.590 Y102.660 E2.14980
G1 X103.842 Y102.672 E2.21305
G1 X104.088 Y102.644 E2.27482
G1 X104.282 Y102.585 E2.32563
G1 X104.459 Y102.493 E2.37525
G1 X104.683 Y102.284 E2.45197
G1 X104.835 Y101.989 E2.53498
G1 X104.895 Y101.631 E2.62576
G1 X104.869 Y101.243 E2.72300
G1 X104.837 Y101.097 E2.76033
G1 X105.023 Y101.044 E2.80852
M106 S255
G1 X105.058 Y101.034 E2.81759 F900.000
G1 X105.212 Y101.475 E2.93426
G1 X105.282 Y101.852 E3.03013
G1 X105.277 Y102.199 E3.11714
G1 X105.216 Y102.442 E3.17956
G1 X105.074 Y102.691 E3.25142
G1 X104.868 Y102.880 E3.32125
G1 X104.744 Y102.952 E3.35710
G1 X104.577 Y103.016 E3.40173
G1 X104.233 Y103.069 E3.48873
G1 X103.857 Y103.037 E3.58303
G1 X103.582 Y102.967 E3.65415
G1 X103.185 Y102.809 E3.76082
M106 S255
G1 X102.931 Y102.592 F7800.000
G1 X102.323 Y102.342 E3.93559 F600.000
G1 X101.414 Y101.933 E4.20057
G1 X100.673 Y101.536 E4.42432
G1 X100.198 Y101.192 E4.58016
G1 X99.987 Y100.996 E4.65678
G1 X99.779 Y100.750 E4.74245
G1 X99.569 Y100.410 E4.84866
G1 X99.451 Y100.121 E4.93174
G1 X99.381 Y99.830 E5.01116
G1 X99.359 Y99.530 E5.09118
G1 X99.403 Y99.171 E5.18757
G1 X99.470 Y98.951 E5.24867
G1 X99.567 Y98.742 E5.30981
G1 X99.675 Y98.574 E5.36303
G1 X99.854 Y98.362 E5.43666
G1 X100.246 Y98.065 E5.56753
G1 X100.500 Y97.946 E5.64216
G1 X100.759 Y97.869 E5.71409
G1 X101.023 Y97.821 E5.78535
G1 X101.307 Y97.809 E5.86094
G1 X101.734 Y97.849 E5.97500
G1 X102.127 Y97.943 E6.08258
G1 X102.563 Y98.116 E6.20731
G1 X102.892 Y98.297 E6.30712
G1 X103.176 Y98.495 E6.39912
G1 X103.455 Y98.735 E6.49704
G1 X103.771 Y99.058 E6.61719
G1 X104.054 Y99.405 E6.73638
G1 X104.384 Y99.878 E6.88962
G1 X104.686 Y100.404 E7.05081
G1 X104.869 Y100.828 E7.17363
G1 Z8.350 F7800.000
G1 E5.17363 F2400.00000
G92 E0
G1 X95.999 Y103.874 F7800.000
G1 E2.00000 F2400.00000
G1 X96.011 Y104.085 E2.05301 F600.000
M106 S255
G1 X96.011 Y104.100 E2.05677 F900.000
G1 X95.849 Y104.120 E2.09760
G1 X95.657 Y104.118 E2.14570
G1 X95.288 Y104.045 E2.23974
G1 X94.946 Y103.892 E2.33346
G1 X94.749 Y103.760 E2.39265
G1 X94.609 Y103.642 E2.43843
G1 X94.424 Y103.432 E2.50840
G1 X94.439 Y103.417 E2.51373
M106 S255
G1 X94.590 Y103.270 E2.56630 F600.000
G1 X94.796 Y103.462 E2.63671
G1 X94.988 Y103.597 E2.69538
G1 X95.255 Y103.737 E2.77081
G1 X95.589 Y103.841 E2.85808
G1 X95.924 Y103.873 E2.94226
G1 X95.895 Y104.058 F7800.000
G1 X94.319 Y103.185 F7800.000
G1 X94.148 Y102.764 E3.06317 F600.000
G1 X94.057 Y102.469 E3.14518
G1 X94.012 Y102.160 E3.22815
G1 X94.029 Y101.697 E3.35126
G1 X94.102 Y101.332 E3.45031
G1 X94.256 Y100.862 E3.58180
G1 X94.462 Y100.448 E3.70470
G1 X94.697 Y100.097 E3.81718
G1 X95.039 Y99.714 E3.95374
G1 X95.427 Y99.390 E4.08809
G1 X95.849 Y99.133 E4.21964
G1 X96.097 Y99.028 E4.29112
G1 X96.529 Y98.921 E4.40932
G1 X96.924 Y98.907 E4.51462
G1 X97.182 Y98.951 E4.58416
G1 X97.434 Y99.032 E4.65443
G1 X97.828 Y99.268 E4.77658
G1 X98.000 Y99.424 E4.83838
G1 X98.209 Y99.685 E4.92739
G1 X98.369 Y99.993 E5.01968
G1 X98.436 Y100.202 E5.07802
G1 X98.506 Y100.634 E5.19441
G1 X98.504 Y100.939 E5.27563
G1 X98.434 Y101.413 E5.40281
G1 X98.298 Y101.831 E5.51988
G1 X98.175 Y102.105 E5.59971
G1 X98.007 Y102.410 E5.69225
G1 X97.697 Y102.850 E5.83544
G1 X97.305 Y103.294 E5.99282
G1 X96.930 Y103.612 E6.12362
G1 X96.636 Y103.791 E6.21505
G1 X96.255 Y103.985 E6.32874
G1 E4.32874 F2400.00000
G92 E0
G1 X104.172 Y103.569 F7800.000
G1 E2.00000 F2400.00000
G1 X104.183 Y103.384 E2.04623 F600.000
G1 X104.479 Y103.369 E2.12024
G1 X104.726 Y103.316 E2.18351
G1 X105.063 Y103.159 E2.27642
G1 X105.196 Y103.057 E2.31829
G1 X105.369 Y102.868 E2.38239
G1 X105.522 Y102.583 E2.46320
G1 X105.599 Y102.241 E2.55085
G1 X105.590 Y101.996 E2.61215
G1 X105.791 Y101.975 E2.66257
M106 S255
G1 X105.816 Y101.973 E2.66887 F900.000
G1 X105.864 Y102.248 E2.73873
G1 X105.859 Y102.628 E2.83364
G1 X105.832 Y102.782 E2.87281
G1 X105.768 Y102.980 E2.92473
G1 X105.635 Y103.211 E2.99154
G1 X105.521 Y103.334 E3.03327
G1 X105.426 Y103.408 E3.06344
G1 X105.200 Y103.526 E3.12716
G1 X104.986 Y103.591 E3.18321
G1 X104.535 Y103.637 E3.29647
G1 X104.212 Y103.608 E3.37754
M106 S255
G1 X103.927 Y103.471 F7800.000
G1 X103.252 Y103.198 E3.57134 F600.000
G1 X102.523 Y102.768 E3.79623
G1 X101.137 Y101.858 E4.23720
G1 X100.815 Y101.627 E4.34255
G1 X100.521 Y101.392 E4.44273
G1 X100.173 Y101.031 E4.57595
G1 X99.954 Y100.689 E4.68399
G1 X99.837 Y100.414 E4.76339
G1 X99.758 Y100.106 E4.84786
G1 X99.735 Y99.833 E4.92077
G1 X99.744 Y99.636 E4.97313
G1 X99.786 Y99.404 E5.03587
G1 X99.867 Y99.156 E5.10518
G1 X99.997 Y98.910 E5.17929
G1 X100.210 Y98.639 E5.27080
G1 X100.510 Y98.389 E5.37464
G1 X100.829 Y98.219 E5.47078
G1 X101.246 Y98.104 E5.58595
G1 X101.561 Y98.073 E5.67008
G1 X101.999 Y98.105 E5.78685
G1 X102.387 Y98.201 E5.89309
G1 X102.759 Y98.354 E6.00009
G1 X103.185 Y98.586 E6.12918
G1 X103.586 Y98.872 E6.26004
G1 X104.052 Y99.263 E6.42197
G1 X104.461 Y99.661 E6.57356
G1 X104.745 Y99.984 E6.68788
G1 X105.069 Y100.438 E6.83625
G1 X105.335 Y100.906 E6.97951
G1 X105.540 Y101.366 E7.11323
G1 X105.674 Y101.736 E7.21800
G1 E5.21800 F2400.00000
G92 E0
M107
M104 S0 ; turn off temperature
G28 X0  ; home X axis
M84     ; disable motors

; filament used = 91.6mm (0.1cm3)

; avoid_crossing_perimeters = 0
; bed_shape = 0x0,200x0,200x200,0x200
; bed_temperature = 0
; before_layer_gcode = 
; bridge_acceleration = 0
; bridge_fan_speed = 100
; brim_width = 0
; complete_objects = 0
; cooling = 1
; default_acceleration = 0
; disable_fan_first_layers = 3
; duplicate_distance = 6
; end_gcode = M104 S0 ; turn off temperature\nG28 X0  ; home X axis\nM84     ; disable motors\n
; extruder_clearance_height = 20
; extruder_clearance_radius = 20
; extruder_offset = 0x0
; extrusion_axis = E
; extrusion_multiplier = 1
; fan_always_on = 0
; fan_below_layer_time = 60
; filament_colour = #FFFFFF
; filament_diameter = 1
; first_layer_acceleration = 0
; first_layer_bed_temperature = 0
; first_layer_extrusion_width = 200%
; first_layer_speed = 30
; first_layer_temperature = 200
; gcode_arcs = 0
; gcode_comments = 0
; gcode_flavor = reprap
; infill_acceleration = 0
; infill_first = 0
; layer_gcode = 
; max_fan_speed = 100
; max_print_speed = 80
; max_volumetric_speed = 0
; min_fan_speed = 35
; min_print_speed = 10
; min_skirt_length = 0
; notes = 
; nozzle_diameter = 0.5
; only_retract_when_crossing_perimeters = 1
; ooze_prevention = 0
; output_filename_format = [input_filename_base].gcode
; perimeter_acceleration = 0
; post_process = 
; pressure_advance = 0
; resolution = 0
; retract_before_travel = 2
; retract_layer_change = 0
; retract_length = 2
; retract_length_toolchange = 10
; retract_lift = 0
; retract_restart_extra = 0
; retract_restart_extra_toolchange = 0
; retract_speed = 40
; skirt_distance = 6
; skirt_height = 1
; skirts = 0
; slowdown_below_layer_time = 5
; spiral_vase = 0
; standby_temperature_delta = -5
; start_gcode = G28 ; home all axes\nG1 Z5 F5000 ; lift nozzle\n
; temperature = 200
; threads = 2
; toolchange_gcode = 
; travel_speed = 130
; use_firmware_retraction = 0
; use_relative_e_distances = 0
; use_volumetric_e = 0
; vibration_limit = 0
; wipe = 0
; z_offset = 0
; dont_support_bridges = 1
; extrusion_width = 0
; first_layer_height = 0.35
; infill_only_where_needed = 0
; interface_shells = 0
; layer_height = 0.5
; raft_layers = 0
; seam_position = aligned
; support_material = 0
; support_material_angle = 0
; support_material_contact_distance = 0.2
; support_material_enforce_layers = 0
; support_material_extruder = 1
; support_material_extrusion_width = 0
; support_material_interface_extruder = 1
; support_material_interface_layers = 3
; support_material_interface_spacing = 0
; support_material_interface_speed = 100%
; support_material_pattern = pillars
; support_material_spacing = 2.5
; support_material_speed = 60
; support_material_threshold = 0
; xy_size_compensation = 0
; bottom_solid_layers = 2
; bridge_flow_ratio = 1
; bridge_speed = 60
; external_fill_pattern = rectilinear
; external_perimeter_extrusion_width = 0
; external_perimeter_speed = 50%
; external_perimeters_first = 0
; extra_perimeters = 1
; fill_angle = 45
; fill_density = 20%
; fill_pattern = rectilinear
; gap_fill_speed = 20
; infill_every_layers = 1
; infill_extruder = 1
; infill_extrusion_width = 0
; infill_overlap = 15%
; infill_speed = 80
; overhangs = 1
; perimeter_extruder = 1
; perimeter_extrusion_width = 0
; perimeter_speed = 60
; perimeters = 3
; small_perimeter_speed = 15
; solid_infill_below_area = 70
; solid_infill_every_layers = 0
; solid_infill_extruder = 1
; solid_infill_extrusion_width = 0
; solid_infill_speed = 20
; thin_walls = 1
; top_infill_extrusion_width = 0
; top_solid_infill_speed = 15
; top_solid_layers = 2
