%
(Header)
(Generated by gcodetools from Inkscape.)
(Using default header. To add your own header create file "header" in the output dir.)
M3
(Header end.)
G21 (All units in mm)

(Start cutting path id: path862)
(Change tool to Default tool)

G00 Z0.000000
G00 X10.908564 Y28.899336

G01 Z-1.000000 F100.0(Penetrate)
G03 X10.914461 Y28.814864 Z-1.000000 I1.051150 J0.030942 F400.000000
G03 X10.961204 Y28.582485 Z-1.000000 I1.332387 J0.147119
G02 X11.056475 Y28.256334 Z-1.000000 I-49.199009 J-14.548425
G03 X11.235636 Y27.790360 Z-1.000000 I2.786652 J0.803998
G03 X11.486524 Y27.286706 Z-1.000000 I28.113549 J13.690026
G03 X11.791787 Y26.800203 Z-1.000000 I2.871895 J1.462989
G02 X11.972960 Y26.541120 Z-1.000000 I-3.192204 J-2.425155
G03 X12.140481 Y26.285321 Z-1.000000 I14.295607 J9.179325
G03 X12.796156 Y25.456464 Z-1.000000 I5.469224 J3.652716
G02 X13.505630 Y24.661463 Z-1.000000 I-18.492552 J-17.217174
G03 X14.831179 Y23.241102 Z-1.000000 I17.017216 J14.552564
G02 X16.055245 Y21.730598 Z-1.000000 I-6.028416 J-6.136469
G02 X16.495462 Y21.027056 Z-1.000000 I-40.258007 J-25.679562
G02 X16.879967 Y20.304771 Z-1.000000 I-5.697919 J-3.496746
G02 X17.000246 Y20.021766 Z-1.000000 I-5.340597 J-2.436842
G03 X17.116258 Y19.750283 Z-1.000000 I4.876881 J1.923502
G03 X17.271138 Y19.505769 Z-1.000000 I0.992165 J0.457148
G02 X17.380274 Y19.354220 Z-1.000000 I-0.976155 J-0.818037
G02 X17.433298 Y19.206262 Z-1.000000 I-0.326299 J-0.200417
G02 X17.443404 Y19.076976 Z-1.000000 I-1.081649 J-0.149587
G02 X17.444431 Y18.856149 Z-1.000000 I-7.827216 J-0.146801
G03 X17.443602 Y18.680914 Z-1.000000 I18.531125 J-0.175235
G01 X17.443602 Y17.968000 Z-1.000000
G02 X17.437423 Y17.807825 Z-1.000000 I-2.079102 J0.000000
G03 X17.483212 Y17.373906 Z-1.000000 I1.200118 J-0.092733
G03 X17.696231 Y17.588870 Z-1.000000 I-23.539913 J23.539913
G02 X17.839669 Y17.721887 Z-1.000000 I1.492730 J-1.465834
G02 X17.932090 Y17.791650 Z-1.000000 I0.689328 J-0.817112
G02 X18.037700 Y17.852508 Z-1.000000 I0.489108 J-0.726709
G02 X18.139399 Y17.889042 Z-1.000000 I0.218672 J-0.448891
G03 X18.482875 Y18.095295 Z-1.000000 I-0.156617 J0.649942
G03 X18.681804 Y18.359807 Z-1.000000 I-1.531744 J1.359021
G02 X18.838737 Y18.601701 Z-1.000000 I10.510036 J-6.646735
G02 X19.404086 Y19.337250 Z-1.000000 I5.669367 J-3.772482
G02 X19.978408 Y19.948315 Z-1.000000 I10.159593 J-8.973275
G02 X20.213275 Y20.178240 Z-1.000000 I10.931067 J-10.931067
G02 X20.452139 Y20.383984 Z-1.000000 I2.055115 J-2.144418
G03 X20.528037 Y20.445595 Z-1.000000 I-1.278855 J1.652958
G03 X20.623634 Y20.544548 Z-1.000000 I-0.458654 J0.538753
G03 X20.719162 Y20.696525 Z-1.000000 I-0.642440 J0.509832
G03 X20.739443 Y20.740440 Z-1.000000 I-1.152970 J0.559097
G03 X20.771365 Y20.842771 Z-1.000000 I-0.445692 J0.195178
G02 X20.901353 Y21.215518 Z-1.000000 I1.354467 J-0.263304
G02 X21.243375 Y21.699427 Z-1.000000 I1.936068 J-1.005570
G03 X21.583017 Y22.087648 Z-1.000000 I-5.756043 J5.378456
G02 X21.727072 Y22.249131 Z-1.000000 I1.970250 J-1.612613
G02 X21.879510 Y22.403905 Z-1.000000 I11.345325 J-11.021654
G02 X22.610639 Y23.102019 Z-1.000000 I14.963216 J-14.938943
G03 X23.344942 Y23.789689 Z-1.000000 I-23.810671 J26.161226
G02 X23.737621 Y24.165713 Z-1.000000 I59.319059 J-61.553432
G02 X24.137068 Y24.531317 Z-1.000000 I9.638931 J-10.130162
G02 X24.399951 Y24.756863 Z-1.000000 I8.898424 J-10.105521
G03 X24.651950 Y24.979303 Z-1.000000 I-4.001938 J4.787690
G02 X24.849428 Y25.157303 Z-1.000000 I5.525198 J-5.931266
G02 X25.048013 Y25.324433 Z-1.000000 I4.854866 J-5.567047
G02 X25.341152 Y25.538198 Z-1.000000 I2.197611 J-2.705739
G03 X25.642107 Y25.750755 Z-1.000000 I-2.727177 J4.180689
G02 X26.222762 Y26.174960 Z-1.000000 I10.475150 J-13.728936
G02 X26.830295 Y26.596072 Z-1.000000 I52.815156 J-75.547093
G02 X27.331670 Y26.937323 Z-1.000000 I38.326434 J-55.771179
G02 X27.860059 Y27.230006 Z-1.000000 I1.936567 J-2.872843
G02 X28.177488 Y27.342227 Z-1.000000 I0.870101 J-1.956130
G03 X28.295728 Y27.379658 Z-1.000000 I-0.352039 J1.317489
G03 X28.338580 Y27.396213 Z-1.000000 I-0.480822 J1.308350
G03 X28.493759 Y27.485518 Z-1.000000 I-0.246137 J0.607171
G03 X28.721364 Y27.688822 Z-1.000000 I-1.340503 J1.729791
G02 X28.929428 Y27.856736 Z-1.000000 I0.801287 J-0.780020
G02 X29.566914 Y28.185738 Z-1.000000 I2.302273 J-3.678860
G03 X30.276042 Y28.498536 Z-1.000000 I-6.839751 J16.466239
G02 X30.549447 Y28.602136 Z-1.000000 I0.826377 J-1.768281
G02 X30.830530 Y28.659682 Z-1.000000 I0.477035 J-1.614826
G03 X31.192256 Y28.710677 Z-1.000000 I-0.906598 J7.739240
G02 X31.503837 Y28.722545 Z-1.000000 I0.202853 J-1.229645
G02 X31.646470 Y28.709790 Z-1.000000 I-3.363437 J-38.415240
G03 X31.781081 Y28.697882 Z-1.000000 I2.183275 J23.913728
G02 X31.941688 Y28.674494 Z-1.000000 I-0.117095 J-1.367232
G02 X32.057572 Y28.635843 Z-1.000000 I-0.104865 J-0.507459
G02 X32.284139 Y28.320687 Z-1.000000 I-0.170128 J-0.361324
G02 X32.335569 Y27.433903 Z-1.000000 I-7.619540 J-0.886784
G02 X32.334030 Y26.993531 Z-1.000000 I-62.992297 J0.000000
G02 X32.303729 Y26.681384 Z-1.000000 I-1.748926 J0.012227
G03 X32.280259 Y26.535383 Z-1.000000 I2.709357 J-0.510416
G02 X32.193426 Y26.341364 Z-1.000000 I-0.370590 J0.049417
G02 X32.055314 Y26.240302 Z-1.000000 I-0.284728 J0.244208
G03 X32.018525 Y26.222347 Z-1.000000 I0.152545 J-0.359229
G03 X31.943799 Y26.180757 Z-1.000000 I16.676332 J-30.050519
G03 X31.682624 Y25.928270 Z-1.000000 I0.345187 J-0.618390
G03 X31.508723 Y25.637920 Z-1.000000 I44.196106 J-26.667806
G02 X31.351159 Y25.413983 Z-1.000000 I-1.534089 J0.911998
G03 X31.077852 Y25.054075 Z-1.000000 I4.300272 J-3.549269
G02 X30.773976 Y24.661463 Z-1.000000 I-4.095757 J2.856155
G02 X30.456986 Y24.324716 Z-1.000000 I-3.761528 J3.223265
G02 X30.078015 Y23.976710 Z-1.000000 I-6.858614 J7.088542
G03 X29.776623 Y23.703642 Z-1.000000 I6.927675 J-7.949112
G02 X29.523527 Y23.470343 Z-1.000000 I-11.028359 J11.710249
G02 X29.393807 Y23.357350 Z-1.000000 I-3.341623 J3.705349
G02 X29.206676 Y23.220388 Z-1.000000 I-1.106098 J1.314940
G03 X28.930568 Y23.027046 Z-1.000000 I1.936300 J-3.059016
G02 X28.652188 Y22.878626 Z-1.000000 I-0.577716 J0.748300
G02 X28.503123 Y22.858114 Z-1.000000 I-0.129202 J0.387045
G02 X28.454157 Y22.862226 Z-1.000000 I0.034108 J0.699836
G03 X28.341333 Y22.870877 Z-1.000000 I-0.160487 J-1.353031
G03 X27.939275 Y22.879216 Z-1.000000 I-0.493604 J-14.101706
G02 X27.568821 Y22.984259 Z-1.000000 I0.004687 J0.722289
G02 X27.503606 Y23.025759 Z-1.000000 I0.973821 J1.602297
G03 X27.476102 Y23.043415 Z-1.000000 I-0.566677 J-0.852476
G03 X27.345181 Y23.083819 Z-1.000000 I-0.142831 J-0.230505
G03 X27.133504 Y23.050387 Z-1.000000 I-0.023958 J-0.535154
G02 X26.949118 Y22.992959 Z-1.000000 I-0.603579 J1.613204
G03 X26.759683 Y22.944636 Z-1.000000 I5.330383 J-21.291772
G03 X26.553055 Y22.865308 Z-1.000000 I0.248232 J-0.955340
G02 X26.094314 Y22.668063 Z-1.000000 I-1.577987 J3.037915
G02 X25.483686 Y22.517683 Z-1.000000 I-1.123803 J3.248331
G02 X25.022244 Y22.493314 Z-1.000000 I-0.356059 J2.361135
G02 X24.889591 Y22.509683 Z-1.000000 I0.037548 J0.849952
G02 X24.839525 Y22.520647 Z-1.000000 I0.380316 J1.856475
G03 X24.651954 Y22.523423 Z-1.000000 I-0.100162 J-0.429504
G03 X24.477387 Y22.464242 Z-1.000000 I0.143013 J-0.708892
G02 X24.374710 Y22.415536 Z-1.000000 I-2.128082 J4.353676
G03 X24.091043 Y22.277815 Z-1.000000 I3.136557 J-6.821443
G02 X23.780615 Y22.127796 Z-1.000000 I-3.442766 J6.727775
G03 X23.120416 Y21.807229 Z-1.000000 I6.202551 J-13.614104
G03 X22.434002 Y21.421774 Z-1.000000 I5.144401 J-9.964997
G03 X22.189727 Y21.259370 Z-1.000000 I1.906559 J-3.132595
G02 X21.919120 Y21.071615 Z-1.000000 I-4.788281 J6.612369
G03 X21.640920 Y20.882101 Z-1.000000 I8.097343 J-12.185521
G02 X21.361068 Y20.732467 Z-1.000000 I-0.768321 J1.100441
G02 X21.158397 Y20.667743 Z-1.000000 I-0.613091 J1.570097
G03 X21.087388 Y20.647587 Z-1.000000 I0.293652 J-1.169701
G02 X20.872090 Y20.599855 Z-1.000000 I-0.374386 J1.179257
G02 X20.691325 Y20.621607 Z-1.000000 I-0.047555 J0.366777
G00 Z0.000000

(End cutting path id: path862)


(Start cutting path id: path862)
(Change tool to Default tool)

G00 Z0.000000
G00 X10.908564 Y28.899336

G01 Z-1.000000 F100.0(Penetrate)
G03 X10.914461 Y28.814864 Z-1.000000 I1.051150 J0.030942 F400.000000
G03 X10.961204 Y28.582485 Z-1.000000 I1.332387 J0.147119
G02 X11.056475 Y28.256334 Z-1.000000 I-49.199009 J-14.548425
G03 X11.235636 Y27.790360 Z-1.000000 I2.786652 J0.803998
G03 X11.486524 Y27.286706 Z-1.000000 I28.113549 J13.690026
G03 X11.791787 Y26.800203 Z-1.000000 I2.871895 J1.462989
G02 X11.972960 Y26.541120 Z-1.000000 I-3.192204 J-2.425155
G03 X12.140481 Y26.285321 Z-1.000000 I14.295607 J9.179325
G03 X12.796156 Y25.456464 Z-1.000000 I5.469224 J3.652716
G02 X13.505630 Y24.661463 Z-1.000000 I-18.492552 J-17.217174
G03 X14.831179 Y23.241102 Z-1.000000 I17.017216 J14.552564
G02 X16.055245 Y21.730598 Z-1.000000 I-6.028416 J-6.136469
G02 X16.495462 Y21.027056 Z-1.000000 I-40.258007 J-25.679562
G02 X16.879967 Y20.304771 Z-1.000000 I-5.697919 J-3.496746
G02 X17.000246 Y20.021766 Z-1.000000 I-5.340597 J-2.436842
G03 X17.116258 Y19.750283 Z-1.000000 I4.876881 J1.923502
G03 X17.271138 Y19.505769 Z-1.000000 I0.992165 J0.457148
G02 X17.380274 Y19.354220 Z-1.000000 I-0.976155 J-0.818037
G02 X17.433298 Y19.206262 Z-1.000000 I-0.326299 J-0.200417
G02 X17.443404 Y19.076976 Z-1.000000 I-1.081649 J-0.149587
G02 X17.444431 Y18.856149 Z-1.000000 I-7.827216 J-0.146801
G03 X17.443602 Y18.680914 Z-1.000000 I18.531125 J-0.175235
G01 X17.443602 Y17.968000 Z-1.000000
G02 X17.437423 Y17.807825 Z-1.000000 I-2.079102 J0.000000
G03 X17.483212 Y17.373906 Z-1.000000 I1.200118 J-0.092733
G03 X17.696231 Y17.588870 Z-1.000000 I-23.539913 J23.539913
G02 X17.839669 Y17.721887 Z-1.000000 I1.492730 J-1.465834
G02 X17.932090 Y17.791650 Z-1.000000 I0.689328 J-0.817112
G02 X18.037700 Y17.852508 Z-1.000000 I0.489108 J-0.726709
G02 X18.139399 Y17.889042 Z-1.000000 I0.218672 J-0.448891
G03 X18.482875 Y18.095295 Z-1.000000 I-0.156617 J0.649942
G03 X18.681804 Y18.359807 Z-1.000000 I-1.531744 J1.359021
G02 X18.838737 Y18.601701 Z-1.000000 I10.510036 J-6.646735
G02 X19.404086 Y19.337250 Z-1.000000 I5.669367 J-3.772482
G02 X19.978408 Y19.948315 Z-1.000000 I10.159593 J-8.973275
G02 X20.213275 Y20.178240 Z-1.000000 I10.931067 J-10.931067
G02 X20.452139 Y20.383984 Z-1.000000 I2.055115 J-2.144418
G03 X20.528037 Y20.445595 Z-1.000000 I-1.278855 J1.652958
G03 X20.623634 Y20.544548 Z-1.000000 I-0.458654 J0.538753
G03 X20.719162 Y20.696525 Z-1.000000 I-0.642440 J0.509832
G03 X20.739443 Y20.740440 Z-1.000000 I-1.152970 J0.559097
G03 X20.771365 Y20.842771 Z-1.000000 I-0.445692 J0.195178
G02 X20.901353 Y21.215518 Z-1.000000 I1.354467 J-0.263304
G02 X21.243375 Y21.699427 Z-1.000000 I1.936068 J-1.005570
G03 X21.583017 Y22.087648 Z-1.000000 I-5.756043 J5.378456
G02 X21.727072 Y22.249131 Z-1.000000 I1.970250 J-1.612613
G02 X21.879510 Y22.403905 Z-1.000000 I11.345325 J-11.021654
G02 X22.610639 Y23.102019 Z-1.000000 I14.963216 J-14.938943
G03 X23.344942 Y23.789689 Z-1.000000 I-23.810671 J26.161226
G02 X23.737621 Y24.165713 Z-1.000000 I59.319059 J-61.553432
G02 X24.137068 Y24.531317 Z-1.000000 I9.638931 J-10.130162
G02 X24.399951 Y24.756863 Z-1.000000 I8.898424 J-10.105521
G03 X24.651950 Y24.979303 Z-1.000000 I-4.001938 J4.787690
G02 X24.849428 Y25.157303 Z-1.000000 I5.525198 J-5.931266
G02 X25.048013 Y25.324433 Z-1.000000 I4.854866 J-5.567047
G02 X25.341152 Y25.538198 Z-1.000000 I2.197611 J-2.705739
G03 X25.642107 Y25.750755 Z-1.000000 I-2.727177 J4.180689
G02 X26.222762 Y26.174960 Z-1.000000 I10.475150 J-13.728936
G02 X26.830295 Y26.596072 Z-1.000000 I52.815156 J-75.547093
G02 X27.331670 Y26.937323 Z-1.000000 I38.326434 J-55.771179
G02 X27.860059 Y27.230006 Z-1.000000 I1.936567 J-2.872843
G02 X28.177488 Y27.342227 Z-1.000000 I0.870101 J-1.956130
G03 X28.295728 Y27.379658 Z-1.000000 I-0.352039 J1.317489
G03 X28.338580 Y27.396213 Z-1.000000 I-0.480822 J1.308350
G03 X28.493759 Y27.485518 Z-1.000000 I-0.246137 J0.607171
G03 X28.721364 Y27.688822 Z-1.000000 I-1.340503 J1.729791
G02 X28.929428 Y27.856736 Z-1.000000 I0.801287 J-0.780020
G02 X29.566914 Y28.185738 Z-1.000000 I2.302273 J-3.678860
G03 X30.276042 Y28.498536 Z-1.000000 I-6.839751 J16.466239
G02 X30.549447 Y28.602136 Z-1.000000 I0.826377 J-1.768281
G02 X30.830530 Y28.659682 Z-1.000000 I0.477035 J-1.614826
G03 X31.192256 Y28.710677 Z-1.000000 I-0.906598 J7.739240
G02 X31.503837 Y28.722545 Z-1.000000 I0.202853 J-1.229645
G02 X31.646470 Y28.709790 Z-1.000000 I-3.363437 J-38.415240
G03 X31.781081 Y28.697882 Z-1.000000 I2.183275 J23.913728
G02 X31.941688 Y28.674494 Z-1.000000 I-0.117095 J-1.367232
G02 X32.057572 Y28.635843 Z-1.000000 I-0.104865 J-0.507459
G02 X32.284139 Y28.320687 Z-1.000000 I-0.170128 J-0.361324
G02 X32.335569 Y27.433903 Z-1.000000 I-7.619540 J-0.886784
G02 X32.334030 Y26.993531 Z-1.000000 I-62.992297 J0.000000
G02 X32.303729 Y26.681384 Z-1.000000 I-1.748926 J0.012227
G03 X32.280259 Y26.535383 Z-1.000000 I2.709357 J-0.510416
G02 X32.193426 Y26.341364 Z-1.000000 I-0.370590 J0.049417
G02 X32.055314 Y26.240302 Z-1.000000 I-0.284728 J0.244208
G03 X32.018525 Y26.222347 Z-1.000000 I0.152545 J-0.359229
G03 X31.943799 Y26.180757 Z-1.000000 I16.676332 J-30.050519
G03 X31.682624 Y25.928270 Z-1.000000 I0.345187 J-0.618390
G03 X31.508723 Y25.637920 Z-1.000000 I44.196106 J-26.667806
G02 X31.351159 Y25.413983 Z-1.000000 I-1.534089 J0.911998
G03 X31.077852 Y25.054075 Z-1.000000 I4.300272 J-3.549269
G02 X30.773976 Y24.661463 Z-1.000000 I-4.095757 J2.856155
G02 X30.456986 Y24.324716 Z-1.000000 I-3.761528 J3.223265
G02 X30.078015 Y23.976710 Z-1.000000 I-6.858614 J7.088542
G03 X29.776623 Y23.703642 Z-1.000000 I6.927675 J-7.949112
G02 X29.523527 Y23.470343 Z-1.000000 I-11.028359 J11.710249
G02 X29.393807 Y23.357350 Z-1.000000 I-3.341623 J3.705349
G02 X29.206676 Y23.220388 Z-1.000000 I-1.106098 J1.314940
G03 X28.930568 Y23.027046 Z-1.000000 I1.936300 J-3.059016
G02 X28.652188 Y22.878626 Z-1.000000 I-0.577716 J0.748300
G02 X28.503123 Y22.858114 Z-1.000000 I-0.129202 J0.387045
G02 X28.454157 Y22.862226 Z-1.000000 I0.034108 J0.699836
G03 X28.341333 Y22.870877 Z-1.000000 I-0.160487 J-1.353031
G03 X27.939275 Y22.879216 Z-1.000000 I-0.493604 J-14.101706
G02 X27.568821 Y22.984259 Z-1.000000 I0.004687 J0.722289
G02 X27.503606 Y23.025759 Z-1.000000 I0.973821 J1.602297
G03 X27.476102 Y23.043415 Z-1.000000 I-0.566677 J-0.852476
G03 X27.345181 Y23.083819 Z-1.000000 I-0.142831 J-0.230505
G03 X27.133504 Y23.050387 Z-1.000000 I-0.023958 J-0.535154
G02 X26.949118 Y22.992959 Z-1.000000 I-0.603579 J1.613204
G03 X26.759683 Y22.944636 Z-1.000000 I5.330383 J-21.291772
G03 X26.553055 Y22.865308 Z-1.000000 I0.248232 J-0.955340
G02 X26.094314 Y22.668063 Z-1.000000 I-1.577987 J3.037915
G02 X25.483686 Y22.517683 Z-1.000000 I-1.123803 J3.248331
G02 X25.022244 Y22.493314 Z-1.000000 I-0.356059 J2.361135
G02 X24.889591 Y22.509683 Z-1.000000 I0.037548 J0.849952
G02 X24.839525 Y22.520647 Z-1.000000 I0.380316 J1.856475
G03 X24.651954 Y22.523423 Z-1.000000 I-0.100162 J-0.429504
G03 X24.477387 Y22.464242 Z-1.000000 I0.143013 J-0.708892
G02 X24.374710 Y22.415536 Z-1.000000 I-2.128082 J4.353676
G03 X24.091043 Y22.277815 Z-1.000000 I3.136557 J-6.821443
G02 X23.780615 Y22.127796 Z-1.000000 I-3.442766 J6.727775
G03 X23.120416 Y21.807229 Z-1.000000 I6.202551 J-13.614104
G03 X22.434002 Y21.421774 Z-1.000000 I5.144401 J-9.964997
G03 X22.189727 Y21.259370 Z-1.000000 I1.906559 J-3.132595
G02 X21.919120 Y21.071615 Z-1.000000 I-4.788281 J6.612369
G03 X21.640920 Y20.882101 Z-1.000000 I8.097343 J-12.185521
G02 X21.361068 Y20.732467 Z-1.000000 I-0.768321 J1.100441
G02 X21.158397 Y20.667743 Z-1.000000 I-0.613091 J1.570097
G03 X21.087388 Y20.647587 Z-1.000000 I0.293652 J-1.169701
G02 X20.872090 Y20.599855 Z-1.000000 I-0.374386 J1.179257
G02 X20.691325 Y20.621607 Z-1.000000 I-0.047555 J0.366777
G00 Z0.000000

(End cutting path id: path862)


(Start cutting path id: path862)
(Change tool to Default tool)

G00 Z0.000000
G00 X21.285412 Y21.017696

G01 Z-1.000000 F100.0(Penetrate)
G01 X21.483443 Y20.819665 Z-1.000000 F400.000000
G00 Z0.000000

(End cutting path id: path862)


(Start cutting path id: path862)
(Change tool to Default tool)

G00 Z0.000000
G00 X21.285412 Y21.017696

G01 Z-1.000000 F100.0(Penetrate)
G01 X21.483443 Y20.819665 Z-1.000000 F400.000000
G00 Z0.000000

(End cutting path id: path862)


(Start cutting path id: path862)
(Change tool to Default tool)

G00 Z0.000000
G00 X21.443840 Y21.136518

G01 Z-1.000000 F100.0(Penetrate)
G01 X21.641871 Y20.938487 Z-1.000000 F400.000000
G00 Z0.000000

(End cutting path id: path862)


(Start cutting path id: path862)
(Change tool to Default tool)

G00 Z0.000000
G00 X21.443840 Y21.136518

G01 Z-1.000000 F100.0(Penetrate)
G01 X21.641871 Y20.938487 Z-1.000000 F400.000000
G00 Z0.000000

(End cutting path id: path862)


(Start cutting path id: path862)
(Change tool to Default tool)

G00 Z0.000000
G00 X21.404231 Y21.215728

G01 Z-1.000000 F100.0(Penetrate)
G01 X21.325021 Y21.136518 Z-1.000000 F400.000000
G01 X21.443840 Y21.136518 Z-1.000000
G00 Z0.000000

(End cutting path id: path862)


(Start cutting path id: path862)
(Change tool to Default tool)

G00 Z0.000000
G00 X21.404231 Y21.215728

G01 Z-1.000000 F100.0(Penetrate)
G01 X21.325021 Y21.136518 Z-1.000000 F400.000000
G01 X21.443840 Y21.136518 Z-1.000000
G00 Z0.000000

(End cutting path id: path862)


(Start cutting path id: path862)
(Change tool to Default tool)

G00 Z0.000000
G00 X21.166592 Y21.453361

G01 Z-1.000000 F100.0(Penetrate)
G01 X21.443836 Y21.255329 Z-1.000000 F400.000000
G00 Z0.000000

(End cutting path id: path862)


(Start cutting path id: path862)
(Change tool to Default tool)

G00 Z0.000000
G00 X21.166592 Y21.453361

G01 Z-1.000000 F100.0(Penetrate)
G01 X21.443836 Y21.255329 Z-1.000000 F400.000000
G00 Z0.000000

(End cutting path id: path862)


(Start cutting path id: path862)
(Change tool to Default tool)

G00 Z0.000000
G00 X20.968562 Y21.294941

G01 Z-1.000000 F100.0(Penetrate)
G01 X21.245806 Y21.096909 Z-1.000000 F400.000000
G00 Z0.000000

(End cutting path id: path862)


(Start cutting path id: path862)
(Change tool to Default tool)

G00 Z0.000000
G00 X20.968562 Y21.294941

G01 Z-1.000000 F100.0(Penetrate)
G01 X21.245806 Y21.096909 Z-1.000000 F400.000000
G00 Z0.000000

(End cutting path id: path862)


(Start cutting path id: path862)
(Change tool to Default tool)

G00 Z0.000000
G00 X22.354780 Y17.492725

G01 Z-1.000000 F100.0(Penetrate)
G03 X22.450610 Y17.407131 Z-1.000000 I1.118064 J1.155318 F400.000000
G03 X22.869662 Y17.255127 Z-1.000000 I0.423631 J0.514255
G03 X23.161067 Y17.268584 Z-1.000000 I0.019317 J2.743457
G02 X23.661788 Y17.294657 Z-1.000000 I0.525677 J-5.274385
G02 X23.926647 Y17.284303 Z-1.000000 I0.014243 J-3.028340
G02 X24.176669 Y17.261827 Z-1.000000 I-1.526826 J-18.386451
G03 X24.348034 Y17.249175 Z-1.000000 I0.364042 J3.764009
G02 X24.533126 Y17.232277 Z-1.000000 I-0.118197 J-2.316781
G03 X24.926248 Y17.192916 Z-1.000000 I0.830436 J6.311134
G02 X25.325252 Y17.115676 Z-1.000000 I-0.114283 J-1.659569
G02 X26.138959 Y16.780889 Z-1.000000 I-1.773102 J-5.465827
G03 X26.909503 Y16.393535 Z-1.000000 I168.198948 J333.629428
G02 X27.562851 Y16.042995 Z-1.000000 I-5.984075 J-11.937462
G03 X28.295723 Y15.639906 Z-1.000000 I11.978859 J20.911444
G03 X29.036386 Y15.308313 Z-1.000000 I2.936551 J5.566236
G02 X29.761155 Y15.008027 Z-1.000000 I-3.764126 J-10.109882
G02 X30.105715 Y14.770577 Z-1.000000 I-0.502453 J-1.097821
G02 X30.196825 Y14.680681 Z-1.000000 I-40.155530 J-40.788798
G00 Z0.000000

(End cutting path id: path862)


(Start cutting path id: path862)
(Change tool to Default tool)

G00 Z0.000000
G00 X22.354780 Y17.492725

G01 Z-1.000000 F100.0(Penetrate)
G03 X22.450610 Y17.407131 Z-1.000000 I1.118064 J1.155318 F400.000000
G03 X22.869662 Y17.255127 Z-1.000000 I0.423631 J0.514255
G03 X23.161067 Y17.268584 Z-1.000000 I0.019317 J2.743457
G02 X23.661788 Y17.294657 Z-1.000000 I0.525677 J-5.274385
G02 X23.926647 Y17.284303 Z-1.000000 I0.014243 J-3.028340
G02 X24.176669 Y17.261827 Z-1.000000 I-1.526826 J-18.386451
G03 X24.348034 Y17.249175 Z-1.000000 I0.364042 J3.764009
G02 X24.533126 Y17.232277 Z-1.000000 I-0.118197 J-2.316781
G03 X24.926248 Y17.192916 Z-1.000000 I0.830436 J6.311134
G02 X25.325252 Y17.115676 Z-1.000000 I-0.114283 J-1.659569
G02 X26.138959 Y16.780889 Z-1.000000 I-1.773102 J-5.465827
G03 X26.909503 Y16.393535 Z-1.000000 I168.198948 J333.629428
G02 X27.562851 Y16.042995 Z-1.000000 I-5.984075 J-11.937462
G03 X28.295723 Y15.639906 Z-1.000000 I11.978859 J20.911444
G03 X29.036386 Y15.308313 Z-1.000000 I2.936551 J5.566236
G02 X29.761155 Y15.008027 Z-1.000000 I-3.764126 J-10.109882
G02 X30.105715 Y14.770577 Z-1.000000 I-0.502453 J-1.097821
G02 X30.196825 Y14.680681 Z-1.000000 I-40.155530 J-40.788798
G00 Z0.000000

(End cutting path id: path862)


(Start cutting path id: path862)
(Change tool to Default tool)

G00 Z0.000000
G00 X25.800527 Y13.769687

G01 Z-1.000000 F100.0(Penetrate)
G01 X25.601505 Y13.583260 Z-1.000000 F400.000000
G01 X25.404464 Y13.498300 Z-1.000000
G01 X25.166826 Y13.492400 Z-1.000000
G01 X24.612338 Y13.452790 Z-1.000000
G00 Z0.000000

(End cutting path id: path862)


(Start cutting path id: path862)
(Change tool to Default tool)

G00 Z0.000000
G00 X25.800527 Y13.769687

G01 Z-1.000000 F100.0(Penetrate)
G01 X25.601505 Y13.583260 Z-1.000000 F400.000000
G01 X25.404464 Y13.498300 Z-1.000000
G01 X25.166826 Y13.492400 Z-1.000000
G01 X24.612338 Y13.452790 Z-1.000000
G00 Z0.000000

(End cutting path id: path862)


(Start cutting path id: path862)
(Change tool to Default tool)

G00 Z0.000000
G00 X21.443823 Y10.363589

G01 Z-1.000000 F100.0(Penetrate)
G03 X21.456038 Y10.247878 Z-1.000000 I2.233945 J0.177333 F400.000000
G03 X21.519033 Y9.927920 Z-1.000000 I2.557220 J0.337296
G03 X21.715948 Y9.495499 Z-1.000000 I1.360516 J0.358502
G02 X21.986070 Y9.016975 Z-1.000000 I-2.738037 J-1.861100
G02 X22.063093 Y8.847383 Z-1.000000 I-17.105852 J-7.871163
G03 X22.156853 Y8.660519 Z-1.000000 I2.184232 J0.978999
G02 X22.252525 Y8.469060 Z-1.000000 I-2.065227 J-1.151626
G02 X22.336111 Y8.264456 Z-1.000000 I-3.333521 J-1.481206
G03 X22.415417 Y8.069169 Z-1.000000 I3.501641 J1.308270
G02 X22.501942 Y7.868393 Z-1.000000 I-14.197247 J-6.237372
G02 X22.718996 Y6.956392 Z-1.000000 I-2.607877 J-1.102499
G03 X22.813248 Y6.006897 Z-1.000000 I15.061795 J1.015686
G02 X22.826903 Y5.845886 Z-1.000000 I-1.744092 J-0.228998
G02 X22.830038 Y5.690047 Z-1.000000 I-4.199555 J-0.162432
G03 X22.861656 Y4.995451 Z-1.000000 I7.930939 J0.012994
G02 X22.826238 Y4.264221 Z-1.000000 I-2.655371 J-0.237858
G03 X22.778837 Y3.968399 Z-1.000000 I5.447010 J-1.024510
G02 X22.739218 Y3.750329 Z-1.000000 I-2.295983 J0.304501
G02 X22.668276 Y3.600164 Z-1.000000 I-0.381789 J0.088528
G03 X22.631964 Y3.551308 Z-1.000000 I1.539339 J-1.182026
G00 Z0.000000

(End cutting path id: path862)


(Start cutting path id: path862)
(Change tool to Default tool)

G00 Z0.000000
G00 X21.443823 Y10.363589

G01 Z-1.000000 F100.0(Penetrate)
G03 X21.456038 Y10.247878 Z-1.000000 I2.233945 J0.177333 F400.000000
G03 X21.519033 Y9.927920 Z-1.000000 I2.557220 J0.337296
G03 X21.715948 Y9.495499 Z-1.000000 I1.360516 J0.358502
G02 X21.986070 Y9.016975 Z-1.000000 I-2.738037 J-1.861100
G02 X22.063093 Y8.847383 Z-1.000000 I-17.105852 J-7.871163
G03 X22.156853 Y8.660519 Z-1.000000 I2.184232 J0.978999
G02 X22.252525 Y8.469060 Z-1.000000 I-2.065227 J-1.151626
G02 X22.336111 Y8.264456 Z-1.000000 I-3.333521 J-1.481206
G03 X22.415417 Y8.069169 Z-1.000000 I3.501641 J1.308270
G02 X22.501942 Y7.868393 Z-1.000000 I-14.197247 J-6.237372
G02 X22.718996 Y6.956392 Z-1.000000 I-2.607877 J-1.102499
G03 X22.813248 Y6.006897 Z-1.000000 I15.061795 J1.015686
G02 X22.826903 Y5.845886 Z-1.000000 I-1.744092 J-0.228998
G02 X22.830038 Y5.690047 Z-1.000000 I-4.199555 J-0.162432
G03 X22.861656 Y4.995451 Z-1.000000 I7.930939 J0.012994
G02 X22.826238 Y4.264221 Z-1.000000 I-2.655371 J-0.237858
G03 X22.778837 Y3.968399 Z-1.000000 I5.447010 J-1.024510
G02 X22.739218 Y3.750329 Z-1.000000 I-2.295983 J0.304501
G02 X22.668276 Y3.600164 Z-1.000000 I-0.381789 J0.088528
G03 X22.631964 Y3.551308 Z-1.000000 I1.539339 J-1.182026
G00 Z0.000000

(End cutting path id: path862)


(Start cutting path id: path862)
(Change tool to Default tool)

G00 Z0.000000
G00 X25.008341 Y8.502094

G01 Z-1.000000 F100.0(Penetrate)
G03 X25.009869 Y8.366211 Z-1.000000 I8.043555 J0.022472 F400.000000
G03 X25.019671 Y8.224770 Z-1.000000 I1.432283 J0.028203
G03 X25.075418 Y7.775999 Z-1.000000 I44.043267 J5.243246
G03 X25.136905 Y7.353511 Z-1.000000 I13.369261 J1.729992
G02 X25.239832 Y6.665928 Z-1.000000 I-28.913484 J-4.679691
G03 X25.342581 Y5.967291 Z-1.000000 I37.609934 J5.174414
G03 X25.385946 Y5.744759 Z-1.000000 I3.019631 J0.472947
G03 X25.450033 Y5.492016 Z-1.000000 I6.761815 J1.580067
G03 X25.635710 Y4.859779 Z-1.000000 I17.150362 J4.693374
G02 X25.800469 Y4.224614 Z-1.000000 I-6.216175 J-1.951402
G00 Z0.000000

(End cutting path id: path862)


(Start cutting path id: path862)
(Change tool to Default tool)

G00 Z0.000000
G00 X25.008341 Y8.502094

G01 Z-1.000000 F100.0(Penetrate)
G03 X25.009869 Y8.366211 Z-1.000000 I8.043555 J0.022472 F400.000000
G03 X25.019671 Y8.224770 Z-1.000000 I1.432283 J0.028203
G03 X25.075418 Y7.775999 Z-1.000000 I44.043267 J5.243246
G03 X25.136905 Y7.353511 Z-1.000000 I13.369261 J1.729992
G02 X25.239832 Y6.665928 Z-1.000000 I-28.913484 J-4.679691
G03 X25.342581 Y5.967291 Z-1.000000 I37.609934 J5.174414
G03 X25.385946 Y5.744759 Z-1.000000 I3.019631 J0.472947
G03 X25.450033 Y5.492016 Z-1.000000 I6.761815 J1.580067
G03 X25.635710 Y4.859779 Z-1.000000 I17.150362 J4.693374
G02 X25.800469 Y4.224614 Z-1.000000 I-6.216175 J-1.951402
G00 Z0.000000

(End cutting path id: path862)


(Start cutting path id: path862)
(Change tool to Default tool)

G00 Z0.000000
G00 X19.859579 Y11.987449

G01 Z-1.000000 F100.0(Penetrate)
G01 X19.660558 Y11.788427 Z-1.000000 F400.000000
G01 X19.542808 Y11.670678 Z-1.000000
G01 X19.425692 Y11.553562 Z-1.000000
G01 X19.265485 Y11.393355 Z-1.000000
G00 Z0.000000

(End cutting path id: path862)


(Start cutting path id: path862)
(Change tool to Default tool)

G00 Z0.000000
G00 X19.859579 Y11.987449

G01 Z-1.000000 F100.0(Penetrate)
G01 X19.660558 Y11.788427 Z-1.000000 F400.000000
G01 X19.542808 Y11.670678 Z-1.000000
G01 X19.425692 Y11.553562 Z-1.000000
G01 X19.265485 Y11.393355 Z-1.000000
G00 Z0.000000

(End cutting path id: path862)


(Start cutting path id: path862)
(Change tool to Default tool)

G00 Z0.000000
G00 X19.265490 Y12.225089

G01 Z-1.000000 F100.0(Penetrate)
G02 X19.380919 Y12.186784 Z-1.000000 I-0.398289 J-1.393270 F400.000000
G02 X19.621947 Y12.093596 Z-1.000000 I-7.013331 J-18.498137
G02 X19.802624 Y11.994378 Z-1.000000 I-0.299877 J-0.760195
G02 X20.027753 Y11.795994 Z-1.000000 I-0.943054 J-1.297123
G02 X20.267659 Y11.537543 Z-1.000000 I-19.249685 J-18.109003
G02 X20.579231 Y11.195325 Z-1.000000 I-57.392233 J-52.565648
G03 X20.919777 Y10.859083 Z-1.000000 I3.154659 J2.854459
G03 X21.166592 Y10.643015 Z-1.000000 I29.346689 J33.273902
G02 X21.231205 Y10.586184 Z-1.000000 I-5.203998 J-5.981684
G03 X21.404229 Y10.476194 Z-1.000000 I0.426022 J0.479086
G03 X21.679338 Y10.406681 Z-1.000000 I0.355822 J0.829071
G02 X21.958717 Y10.366049 Z-1.000000 I-0.230385 J-2.564898
G02 X22.269852 Y10.260485 Z-1.000000 I-0.255762 J-1.265117
G03 X22.592418 Y10.108687 Z-1.000000 I5.263629 J10.766426
G02 X22.818469 Y9.984150 Z-1.000000 I-0.678122 J-1.498306
G03 X23.028087 Y9.852236 Z-1.000000 I3.336671 J5.069627
G02 X23.338773 Y9.656399 Z-1.000000 I-4.475790 J-7.444995
G02 X23.661788 Y9.436370 Z-1.000000 I-7.472374 J-11.316974
G02 X23.993208 Y9.181473 Z-1.000000 I-2.772316 J-3.947502
G03 X24.335094 Y8.899864 Z-1.000000 I14.325304 J17.043234
G03 X24.657197 Y8.693438 Z-1.000000 I1.103969 J1.368099
G02 X24.731157 Y8.655255 Z-1.000000 I-1.180812 J-2.377924
G02 X24.750181 Y8.643694 Z-1.000000 I-0.100961 J-0.187559
G03 X24.887285 Y8.592675 Z-1.000000 I0.171842 J0.252065
G03 X25.031385 Y8.672393 Z-1.000000 I0.016115 J0.140968
G03 X25.068484 Y8.779538 Z-1.000000 I-0.453392 J0.216983
G03 X25.061065 Y9.750984 Z-1.000000 I-2.099875 J0.469714
G02 X25.127334 Y10.362601 Z-1.000000 I0.888737 J0.213103
G02 X25.214501 Y10.486736 Z-1.000000 I0.425631 J-0.206205
G03 X25.285640 Y10.561623 Z-1.000000 I-2.734312 J2.668682
G00 Z0.000000

(End cutting path id: path862)


(Start cutting path id: path862)
(Change tool to Default tool)

G00 Z0.000000
G00 X19.265490 Y12.225089

G01 Z-1.000000 F100.0(Penetrate)
G02 X19.380919 Y12.186784 Z-1.000000 I-0.398289 J-1.393270 F400.000000
G02 X19.621947 Y12.093596 Z-1.000000 I-7.013331 J-18.498137
G02 X19.802624 Y11.994378 Z-1.000000 I-0.299877 J-0.760195
G02 X20.027753 Y11.795994 Z-1.000000 I-0.943054 J-1.297123
G02 X20.267659 Y11.537543 Z-1.000000 I-19.249685 J-18.109003
G02 X20.579231 Y11.195325 Z-1.000000 I-57.392233 J-52.565648
G03 X20.919777 Y10.859083 Z-1.000000 I3.154659 J2.854459
G03 X21.166592 Y10.643015 Z-1.000000 I29.346689 J33.273902
G02 X21.231205 Y10.586184 Z-1.000000 I-5.203998 J-5.981684
G03 X21.404229 Y10.476194 Z-1.000000 I0.426022 J0.479086
G03 X21.679338 Y10.406681 Z-1.000000 I0.355822 J0.829071
G02 X21.958717 Y10.366049 Z-1.000000 I-0.230385 J-2.564898
G02 X22.269852 Y10.260485 Z-1.000000 I-0.255762 J-1.265117
G03 X22.592418 Y10.108687 Z-1.000000 I5.263629 J10.766426
G02 X22.818469 Y9.984150 Z-1.000000 I-0.678122 J-1.498306
G03 X23.028087 Y9.852236 Z-1.000000 I3.336671 J5.069627
G02 X23.338773 Y9.656399 Z-1.000000 I-4.475790 J-7.444995
G02 X23.661788 Y9.436370 Z-1.000000 I-7.472374 J-11.316974
G02 X23.993208 Y9.181473 Z-1.000000 I-2.772316 J-3.947502
G03 X24.335094 Y8.899864 Z-1.000000 I14.325304 J17.043234
G03 X24.657197 Y8.693438 Z-1.000000 I1.103969 J1.368099
G02 X24.731157 Y8.655255 Z-1.000000 I-1.180812 J-2.377924
G02 X24.750181 Y8.643694 Z-1.000000 I-0.100961 J-0.187559
G03 X24.887285 Y8.592675 Z-1.000000 I0.171842 J0.252065
G03 X25.031385 Y8.672393 Z-1.000000 I0.016115 J0.140968
G03 X25.068484 Y8.779538 Z-1.000000 I-0.453392 J0.216983
G03 X25.061065 Y9.750984 Z-1.000000 I-2.099875 J0.469714
G02 X25.127334 Y10.362601 Z-1.000000 I0.888737 J0.213103
G02 X25.214501 Y10.486736 Z-1.000000 I0.425631 J-0.206205
G03 X25.285640 Y10.561623 Z-1.000000 I-2.734312 J2.668682
G00 Z0.000000

(End cutting path id: path862)


(Start cutting path id: path862)
(Change tool to Default tool)

G00 Z0.000000
G00 X20.612104 Y16.660996

G01 Z-1.000000 F100.0(Penetrate)
G03 X20.723502 Y16.551564 Z-1.000000 I7.741961 J7.769625 F400.000000
G03 X21.166592 Y16.332858 Z-1.000000 I0.561905 J0.580204
G02 X21.848729 Y16.210624 Z-1.000000 I-1.719031 J-11.557647
G02 X22.473599 Y16.029276 Z-1.000000 I-0.886458 J-4.221699
G02 X22.972026 Y15.825225 Z-1.000000 I-3.074576 J-8.220900
G02 X23.463756 Y15.592854 Z-1.000000 I-4.988599 J-11.193065
G03 X24.052189 Y15.311716 Z-1.000000 I8.111633 J16.221619
G02 X24.612338 Y15.009057 Z-1.000000 I-1.953413 J-4.284972
G03 X25.006157 Y14.784882 Z-1.000000 I2.657125 J4.209893
G02 X25.317806 Y14.577190 Z-1.000000 I-0.736330 J-1.442554
G02 X25.570186 Y14.197537 Z-1.000000 I-0.532768 J-0.627878
G03 X25.633468 Y14.046981 Z-1.000000 I0.850277 J0.268815
G02 X25.660759 Y13.992942 Z-1.000000 I-1.234382 J-0.657316
G03 X25.781872 Y13.821344 Z-1.000000 I0.564670 J0.270000
G03 X25.929000 Y13.729297 Z-1.000000 I0.271561 J0.270453
G03 X25.998717 Y13.708109 Z-1.000000 I0.332123 J0.967545
G03 X26.344770 Y13.641871 Z-1.000000 I0.642335 J2.418722
G02 X26.790684 Y13.582478 Z-1.000000 I-1.937557 J-16.250577
G03 X27.327025 Y13.520192 Z-1.000000 I1.282548 J8.703658
G03 X27.978873 Y13.492498 Z-1.000000 I0.651848 J7.657479
G01 X28.335329 Y13.492498 Z-1.000000
G00 Z0.000000

(End cutting path id: path862)


(Start cutting path id: path862)
(Change tool to Default tool)

G00 Z0.000000
G00 X20.612104 Y16.660996

G01 Z-1.000000 F100.0(Penetrate)
G03 X20.723502 Y16.551564 Z-1.000000 I7.741961 J7.769625 F400.000000
G03 X21.166592 Y16.332858 Z-1.000000 I0.561905 J0.580204
G02 X21.848729 Y16.210624 Z-1.000000 I-1.719031 J-11.557647
G02 X22.473599 Y16.029276 Z-1.000000 I-0.886458 J-4.221699
G02 X22.972026 Y15.825225 Z-1.000000 I-3.074576 J-8.220900
G02 X23.463756 Y15.592854 Z-1.000000 I-4.988599 J-11.193065
G03 X24.052189 Y15.311716 Z-1.000000 I8.111633 J16.221619
G02 X24.612338 Y15.009057 Z-1.000000 I-1.953413 J-4.284972
G03 X25.006157 Y14.784882 Z-1.000000 I2.657125 J4.209893
G02 X25.317806 Y14.577190 Z-1.000000 I-0.736330 J-1.442554
G02 X25.570186 Y14.197537 Z-1.000000 I-0.532768 J-0.627878
G03 X25.633468 Y14.046981 Z-1.000000 I0.850277 J0.268815
G02 X25.660759 Y13.992942 Z-1.000000 I-1.234382 J-0.657316
G03 X25.781872 Y13.821344 Z-1.000000 I0.564670 J0.270000
G03 X25.929000 Y13.729297 Z-1.000000 I0.271561 J0.270453
G03 X25.998717 Y13.708109 Z-1.000000 I0.332123 J0.967545
G03 X26.344770 Y13.641871 Z-1.000000 I0.642335 J2.418722
G02 X26.790684 Y13.582478 Z-1.000000 I-1.937557 J-16.250577
G03 X27.327025 Y13.520192 Z-1.000000 I1.282548 J8.703658
G03 X27.978873 Y13.492498 Z-1.000000 I0.651848 J7.657479
G01 X28.335329 Y13.492498 Z-1.000000
G00 Z0.000000

(End cutting path id: path862)


(Start cutting path id: path862)
(Change tool to Default tool)

G00 Z0.000000
G00 X26.315410 Y19.948326

G01 Z-1.000000 F100.0(Penetrate)
G03 X26.457158 Y19.877639 Z-1.000000 I0.223846 J0.271411 F400.000000
G03 X26.909504 Y19.830101 Z-1.000000 I0.406827 J1.695227
G03 X27.698887 Y19.873403 Z-1.000000 I-0.358466 J13.751380
G03 X28.731393 Y20.000804 Z-1.000000 I-1.106729 J13.216994
G03 X29.065965 Y20.066695 Z-1.000000 I-0.845808 J5.177108
G02 X29.365094 Y20.106315 Z-1.000000 I0.356862 J-1.545262
G03 X29.724501 Y20.133749 Z-1.000000 I-0.165017 J4.529858
G03 X30.038400 Y20.192105 Z-1.000000 I-0.272393 J2.338619
G02 X30.257090 Y20.245043 Z-1.000000 I1.966937 J-7.647277
G02 X30.474069 Y20.288425 Z-1.000000 I0.945072 J-4.162604
G03 X31.012721 Y20.462537 Z-1.000000 I-0.344094 J1.984802
G02 X31.424620 Y20.635614 Z-1.000000 I1.754627 J-3.599092
G02 X31.746863 Y20.733578 Z-1.000000 I1.207823 J-3.394032
G02 X31.979108 Y20.780058 Z-1.000000 I0.572813 J-2.258702
G00 Z0.000000

(End cutting path id: path862)


(Start cutting path id: path862)
(Change tool to Default tool)

G00 Z0.000000
G00 X26.315410 Y19.948326

G01 Z-1.000000 F100.0(Penetrate)
G03 X26.457158 Y19.877639 Z-1.000000 I0.223846 J0.271411 F400.000000
G03 X26.909504 Y19.830101 Z-1.000000 I0.406827 J1.695227
G03 X27.698887 Y19.873403 Z-1.000000 I-0.358466 J13.751380
G03 X28.731393 Y20.000804 Z-1.000000 I-1.106729 J13.216994
G03 X29.065965 Y20.066695 Z-1.000000 I-0.845808 J5.177108
G02 X29.365094 Y20.106315 Z-1.000000 I0.356862 J-1.545262
G03 X29.724501 Y20.133749 Z-1.000000 I-0.165017 J4.529858
G03 X30.038400 Y20.192105 Z-1.000000 I-0.272393 J2.338619
G02 X30.257090 Y20.245043 Z-1.000000 I1.966937 J-7.647277
G02 X30.474069 Y20.288425 Z-1.000000 I0.945072 J-4.162604
G03 X31.012721 Y20.462537 Z-1.000000 I-0.344094 J1.984802
G02 X31.424620 Y20.635614 Z-1.000000 I1.754627 J-3.599092
G02 X31.746863 Y20.733578 Z-1.000000 I1.207823 J-3.394032
G02 X31.979108 Y20.780058 Z-1.000000 I0.572813 J-2.258702
G00 Z0.000000

(End cutting path id: path862)


(Start cutting path id: path862)
(Change tool to Default tool)

G00 Z0.000000
G00 X32.216745 Y26.324927

G01 Z-1.000000 F100.0(Penetrate)
G02 X32.262207 Y26.193423 Z-1.000000 I-0.391980 J-0.209121 F400.000000
G02 X32.295955 Y25.810045 Z-1.000000 I-2.160704 J-0.383377
G01 X32.295955 Y24.978313 Z-1.000000
G01 X32.295955 Y24.661463 Z-1.000000
G02 X32.291849 Y24.287223 Z-1.000000 I-17.056296 J-0.000000
G02 X32.283085 Y23.908943 Z-1.000000 I-155.014053 J3.402054
G02 X32.269036 Y23.728241 Z-1.000000 I-1.710227 J0.042063
G03 X32.256505 Y23.552487 Z-1.000000 I1.471259 J-0.193226
G03 X32.257752 Y22.867053 Z-1.000000 I25.092581 J-0.297073
G02 X32.228065 Y22.285086 Z-1.000000 I-4.387794 J-0.067914
G03 X32.182451 Y21.679137 Z-1.000000 I7.127831 J-0.841258
G02 X32.127188 Y21.176110 Z-1.000000 I-3.303372 J0.108360
G02 X32.073739 Y20.976703 Z-1.000000 I-1.337030 J0.251513
G03 X32.017796 Y20.700834 Z-1.000000 I0.966975 J-0.339697
G02 X32.005534 Y20.509297 Z-1.000000 I-65.258743 J4.081689
G02 X31.990426 Y20.344378 Z-1.000000 I-3.184151 J0.208542
G03 X31.961683 Y20.055082 Z-1.000000 I7.770945 J-0.918153
G03 X31.940916 Y19.750283 Z-1.000000 I12.256451 J-0.988188
G02 X31.928818 Y19.594736 Z-1.000000 I-3.535964 J0.196764
G02 X31.911216 Y19.433433 Z-1.000000 I-8.921392 J0.891947
G03 X31.880671 Y19.052530 Z-1.000000 I5.002547 J-0.592838
G02 X31.833786 Y18.680914 Z-1.000000 I-2.245698 J0.094562
G02 X31.781532 Y18.476234 Z-1.000000 I-2.523114 J0.535133
G03 X31.745146 Y18.284851 Z-1.000000 I0.907185 J-0.271625
G02 X31.668776 Y17.781274 Z-1.000000 I-3.887059 J0.331914
G03 X31.558680 Y17.255087 Z-1.000000 I27.416850 J-6.011127
G02 X31.378785 Y16.650517 Z-1.000000 I-3.347671 J0.667077
G02 X31.136239 Y16.066899 Z-1.000000 I-24.169194 J9.702287
G03 X30.924759 Y15.508669 Z-1.000000 I6.265405 J-2.692760
G02 X30.718670 Y15.038719 Z-1.000000 I-2.570941 J0.847282
G02 X30.472960 Y14.818621 Z-1.000000 I-0.441938 J0.246164
G03 X30.163944 Y14.482449 Z-1.000000 I0.212857 J-0.505775
G03 X30.122112 Y14.345392 Z-1.000000 I3.749403 J-1.219293
G02 X30.055661 Y14.218433 Z-1.000000 I-0.339866 J0.097017
G02 X29.825970 Y14.022809 Z-1.000000 I-0.654745 J0.536107
G02 X29.563117 Y13.893662 Z-1.000000 I-1.058182 J1.821661
G02 X28.781480 Y13.625691 Z-1.000000 I-2.743588 J6.728730
G03 X28.335322 Y13.492490 Z-1.000000 I3.755886 J-13.394222
G03 X28.492332 Y13.184717 Z-1.000000 I4.476764 J2.089872
G02 X28.551810 Y13.056821 Z-1.000000 I-0.864313 J-0.479730
G02 X28.571030 Y12.998709 Z-1.000000 I-0.639174 J-0.243639
G03 X28.649880 Y12.779577 Z-1.000000 I1.585755 J0.446845
G03 X28.818507 Y12.527544 Z-1.000000 I0.803732 J0.355322
G02 X28.942056 Y12.383514 Z-1.000000 I-1.269062 J-1.213611
G02 X29.074356 Y12.188359 Z-1.000000 I-1.569393 J-1.206352
G02 X29.208606 Y11.908238 Z-1.000000 I-1.498006 J-0.890160
G02 X29.353039 Y11.483135 Z-1.000000 I-7.028974 J-2.625245
G02 X29.437451 Y11.076506 Z-1.000000 I-2.139646 J-0.656247
G02 X29.478567 Y10.668834 Z-1.000000 I-18.125214 J-2.033934
G02 X29.472581 Y10.244774 Z-1.000000 I-2.046314 J-0.183187
G03 X29.441282 Y9.655196 Z-1.000000 I4.563279 J-0.537871
G02 X29.444301 Y9.096192 Z-1.000000 I-47.752833 J-0.537405
G02 X29.444216 Y8.957336 Z-1.000000 I-284.392286 J0.104727
G02 X29.437601 Y8.818948 Z-1.000000 I-1.477345 J0.001265
G02 X29.419044 Y8.642849 Z-1.000000 I-8.590621 J0.816220
G03 X29.401321 Y8.462491 Z-1.000000 I5.204514 J-0.602485
G02 X29.313063 Y7.892832 Z-1.000000 I-3.933627 J0.317777
G02 X29.189546 Y7.555666 Z-1.000000 I-1.410523 J0.325521
G02 X29.119691 Y7.472548 Z-1.000000 I-0.217810 J0.112141
G03 X28.969533 Y7.305631 Z-1.000000 I0.359420 J-0.474332
G03 X28.897177 Y7.092638 Z-1.000000 I0.451039 J-0.272009
G02 X28.817999 Y6.799027 Z-1.000000 I-1.003614 J0.113163
G02 X28.670283 Y6.537466 Z-1.000000 I-1.381102 J0.607480
G02 X28.482336 Y6.284145 Z-1.000000 I-5.259871 J3.706095
G03 X28.249648 Y5.981937 Z-1.000000 I22.009810 J-17.187381
G02 X28.011615 Y5.712864 Z-1.000000 I-1.910953 J1.450681
G02 X27.864741 Y5.571639 Z-1.000000 I-11.776233 J12.100312
G03 X27.701657 Y5.412807 Z-1.000000 I6.305836 J-6.637780
G02 X27.180225 Y4.938962 Z-1.000000 I-5.304849 J5.313786
G02 X26.632287 Y4.501427 Z-1.000000 I-13.254203 J16.036744
G02 X26.454519 Y4.369440 Z-1.000000 I-3.703008 J4.801734
G02 X26.275830 Y4.277532 Z-1.000000 I-0.403288 J0.564419
G02 X26.087292 Y4.231719 Z-1.000000 I-0.344992 J1.008922
G03 X25.895372 Y4.164813 Z-1.000000 I0.079708 J-0.537352
G03 X25.766266 Y4.026836 Z-1.000000 I0.162439 J-0.281386
G02 X25.636862 Y3.863290 Z-1.000000 I-0.444199 J0.218500
G02 X25.257461 Y3.622712 Z-1.000000 I-1.152043 J1.397366
G02 X24.810398 Y3.430116 Z-1.000000 I-3.055728 J6.477920
G02 X24.321081 Y3.289225 Z-1.000000 I-1.004189 J2.567420
G02 X23.741028 Y3.234461 Z-1.000000 I-0.581299 J3.057729
G02 X23.561452 Y3.234450 Z-1.000000 I-0.119391 J421.478104
G03 X23.424178 Y3.234461 Z-1.000000 I-0.109385 J-890.673479
G03 X23.186949 Y3.229069 Z-1.000000 I0.000000 J-5.221465
G02 X22.949061 Y3.248091 Z-1.000000 I-0.043400 J0.954261
G02 X22.771260 Y3.342459 Z-1.000000 I0.073334 J0.352855
G03 X22.648132 Y3.460816 Z-1.000000 I-11.163547 J-11.490307
G03 X22.512632 Y3.547711 Z-1.000000 I-0.293484 J-0.308551
G03 X22.433862 Y3.575912 Z-1.000000 I-0.427837 J-1.070912
G02 X22.224869 Y3.668219 Z-1.000000 I0.320144 J1.007588
G02 X21.760872 Y4.026592 Z-1.000000 I1.102362 J1.906825
G02 X21.483261 Y4.334938 Z-1.000000 I3.164754 J3.128442
G02 X21.275735 Y4.620686 Z-1.000000 I2.347188 J1.922892
G02 X21.007036 Y5.073855 Z-1.000000 I6.357551 J4.075848
G02 X20.789964 Y5.610844 Z-1.000000 I2.192416 J1.198630
G02 X20.619732 Y6.299504 Z-1.000000 I13.332198 J3.661006
G03 X20.453707 Y6.957457 Z-1.000000 I-10.866932 J-2.392183
G02 X20.411255 Y7.112553 Z-1.000000 I7.363349 J2.098833
G02 X20.381387 Y7.274308 Z-1.000000 I1.074804 J0.282095
G03 X20.343034 Y7.569391 Z-1.000000 I-7.206864 J-0.786662
G03 X20.278608 Y7.868402 Z-1.000000 I-2.423190 J-0.365665
G02 X20.213895 Y8.122703 Z-1.000000 I4.962656 J1.398243
G02 X20.161215 Y8.383284 Z-1.000000 I5.343903 J1.215967
G02 X20.125329 Y8.634255 Z-1.000000 I3.760083 J0.665700
G03 X20.075705 Y8.858559 Z-1.000000 I-1.050547 J-0.114777
G02 X19.982636 Y9.176678 Z-1.000000 I3.730389 J1.264041
G03 X19.887694 Y9.531866 Z-1.000000 I-9.561648 J-2.365546
G03 X19.808831 Y9.773040 Z-1.000000 I-3.368671 J-0.968057
G03 X19.711407 Y10.007141 Z-1.000000 I-2.825871 J-1.038703
G02 X19.641774 Y10.181743 Z-1.000000 I1.502179 J0.700266
G02 X19.590607 Y10.363598 Z-1.000000 I1.849064 J0.618386
G03 X19.476278 Y10.777444 Z-1.000000 I-4.790849 J-1.100800
G03 X19.347148 Y11.155724 Z-1.000000 I-12.082189 J-3.913218
G02 X19.271108 Y11.378974 Z-1.000000 I6.786536 J2.436097
G02 X19.220645 Y11.591393 Z-1.000000 I1.321794 J0.426214
G02 X19.189783 Y12.011415 Z-1.000000 I2.554924 J0.398872
G03 X19.152805 Y12.304306 Z-1.000000 I-1.106727 J0.009052
G03 X19.081260 Y12.526504 Z-1.000000 I-2.163252 J-0.573920
G03 X18.802606 Y13.008783 Z-1.000000 I-1.631205 J-0.620848
G03 X18.573164 Y13.179810 Z-1.000000 I-0.455043 J-0.371046
G02 X18.433792 Y13.253510 Z-1.000000 I0.329550 J0.791839
G02 X18.248468 Y13.402318 Z-1.000000 I0.663595 J1.016237
G02 X18.156548 Y13.492653 Z-1.000000 I21.617342 J22.088676
G02 X17.819066 Y13.828838 Z-1.000000 I33.761183 J34.228907
G03 X17.443635 Y14.205408 Z-1.000000 I-124.510818 J-123.758818
G00 Z0.000000

(End cutting path id: path862)


(Start cutting path id: path862)
(Change tool to Default tool)

G00 Z0.000000
G00 X32.216745 Y26.324927

G01 Z-1.000000 F100.0(Penetrate)
G02 X32.262207 Y26.193423 Z-1.000000 I-0.391980 J-0.209121 F400.000000
G02 X32.295955 Y25.810045 Z-1.000000 I-2.160704 J-0.383377
G01 X32.295955 Y24.978313 Z-1.000000
G01 X32.295955 Y24.661463 Z-1.000000
G02 X32.291849 Y24.287223 Z-1.000000 I-17.056296 J-0.000000
G02 X32.283085 Y23.908943 Z-1.000000 I-155.014053 J3.402054
G02 X32.269036 Y23.728241 Z-1.000000 I-1.710227 J0.042063
G03 X32.256505 Y23.552487 Z-1.000000 I1.471259 J-0.193226
G03 X32.257752 Y22.867053 Z-1.000000 I25.092581 J-0.297073
G02 X32.228065 Y22.285086 Z-1.000000 I-4.387794 J-0.067914
G03 X32.182451 Y21.679137 Z-1.000000 I7.127831 J-0.841258
G02 X32.127188 Y21.176110 Z-1.000000 I-3.303372 J0.108360
G02 X32.073739 Y20.976703 Z-1.000000 I-1.337030 J0.251513
G03 X32.017796 Y20.700834 Z-1.000000 I0.966975 J-0.339697
G02 X32.005534 Y20.509297 Z-1.000000 I-65.258743 J4.081689
G02 X31.990426 Y20.344378 Z-1.000000 I-3.184151 J0.208542
G03 X31.961683 Y20.055082 Z-1.000000 I7.770945 J-0.918153
G03 X31.940916 Y19.750283 Z-1.000000 I12.256451 J-0.988188
G02 X31.928818 Y19.594736 Z-1.000000 I-3.535964 J0.196764
G02 X31.911216 Y19.433433 Z-1.000000 I-8.921392 J0.891947
G03 X31.880671 Y19.052530 Z-1.000000 I5.002547 J-0.592838
G02 X31.833786 Y18.680914 Z-1.000000 I-2.245698 J0.094562
G02 X31.781532 Y18.476234 Z-1.000000 I-2.523114 J0.535133
G03 X31.745146 Y18.284851 Z-1.000000 I0.907185 J-0.271625
G02 X31.668776 Y17.781274 Z-1.000000 I-3.887059 J0.331914
G03 X31.558680 Y17.255087 Z-1.000000 I27.416850 J-6.011127
G02 X31.378785 Y16.650517 Z-1.000000 I-3.347671 J0.667077
G02 X31.136239 Y16.066899 Z-1.000000 I-24.169194 J9.702287
G03 X30.924759 Y15.508669 Z-1.000000 I6.265405 J-2.692760
G02 X30.718670 Y15.038719 Z-1.000000 I-2.570941 J0.847282
G02 X30.472960 Y14.818621 Z-1.000000 I-0.441938 J0.246164
G03 X30.163944 Y14.482449 Z-1.000000 I0.212857 J-0.505775
G03 X30.122112 Y14.345392 Z-1.000000 I3.749403 J-1.219293
G02 X30.055661 Y14.218433 Z-1.000000 I-0.339866 J0.097017
G02 X29.825970 Y14.022809 Z-1.000000 I-0.654745 J0.536107
G02 X29.563117 Y13.893662 Z-1.000000 I-1.058182 J1.821661
G02 X28.781480 Y13.625691 Z-1.000000 I-2.743588 J6.728730
G03 X28.335322 Y13.492490 Z-1.000000 I3.755886 J-13.394222
G03 X28.492332 Y13.184717 Z-1.000000 I4.476764 J2.089872
G02 X28.551810 Y13.056821 Z-1.000000 I-0.864313 J-0.479730
G02 X28.571030 Y12.998709 Z-1.000000 I-0.639174 J-0.243639
G03 X28.649880 Y12.779577 Z-1.000000 I1.585755 J0.446845
G03 X28.818507 Y12.527544 Z-1.000000 I0.803732 J0.355322
G02 X28.942056 Y12.383514 Z-1.000000 I-1.269062 J-1.213611
G02 X29.074356 Y12.188359 Z-1.000000 I-1.569393 J-1.206352
G02 X29.208606 Y11.908238 Z-1.000000 I-1.498006 J-0.890160
G02 X29.353039 Y11.483135 Z-1.000000 I-7.028974 J-2.625245
G02 X29.437451 Y11.076506 Z-1.000000 I-2.139646 J-0.656247
G02 X29.478567 Y10.668834 Z-1.000000 I-18.125214 J-2.033934
G02 X29.472581 Y10.244774 Z-1.000000 I-2.046314 J-0.183187
G03 X29.441282 Y9.655196 Z-1.000000 I4.563279 J-0.537871
G02 X29.444301 Y9.096192 Z-1.000000 I-47.752833 J-0.537405
G02 X29.444216 Y8.957336 Z-1.000000 I-284.392286 J0.104727
G02 X29.437601 Y8.818948 Z-1.000000 I-1.477345 J0.001265
G02 X29.419044 Y8.642849 Z-1.000000 I-8.590621 J0.816220
G03 X29.401321 Y8.462491 Z-1.000000 I5.204514 J-0.602485
G02 X29.313063 Y7.892832 Z-1.000000 I-3.933627 J0.317777
G02 X29.189546 Y7.555666 Z-1.000000 I-1.410523 J0.325521
G02 X29.119691 Y7.472548 Z-1.000000 I-0.217810 J0.112141
G03 X28.969533 Y7.305631 Z-1.000000 I0.359420 J-0.474332
G03 X28.897177 Y7.092638 Z-1.000000 I0.451039 J-0.272009
G02 X28.817999 Y6.799027 Z-1.000000 I-1.003614 J0.113163
G02 X28.670283 Y6.537466 Z-1.000000 I-1.381102 J0.607480
G02 X28.482336 Y6.284145 Z-1.000000 I-5.259871 J3.706095
G03 X28.249648 Y5.981937 Z-1.000000 I22.009810 J-17.187381
G02 X28.011615 Y5.712864 Z-1.000000 I-1.910953 J1.450681
G02 X27.864741 Y5.571639 Z-1.000000 I-11.776233 J12.100312
G03 X27.701657 Y5.412807 Z-1.000000 I6.305836 J-6.637780
G02 X27.180225 Y4.938962 Z-1.000000 I-5.304849 J5.313786
G02 X26.632287 Y4.501427 Z-1.000000 I-13.254203 J16.036744
G02 X26.454519 Y4.369440 Z-1.000000 I-3.703008 J4.801734
G02 X26.275830 Y4.277532 Z-1.000000 I-0.403288 J0.564419
G02 X26.087292 Y4.231719 Z-1.000000 I-0.344992 J1.008922
G03 X25.895372 Y4.164813 Z-1.000000 I0.079708 J-0.537352
G03 X25.766266 Y4.026836 Z-1.000000 I0.162439 J-0.281386
G02 X25.636862 Y3.863290 Z-1.000000 I-0.444199 J0.218500
G02 X25.257461 Y3.622712 Z-1.000000 I-1.152043 J1.397366
G02 X24.810398 Y3.430116 Z-1.000000 I-3.055728 J6.477920
G02 X24.321081 Y3.289225 Z-1.000000 I-1.004189 J2.567420
G02 X23.741028 Y3.234461 Z-1.000000 I-0.581299 J3.057729
G02 X23.561452 Y3.234450 Z-1.000000 I-0.119391 J421.478104
G03 X23.424178 Y3.234461 Z-1.000000 I-0.109385 J-890.673479
G03 X23.186949 Y3.229069 Z-1.000000 I0.000000 J-5.221465
G02 X22.949061 Y3.248091 Z-1.000000 I-0.043400 J0.954261
G02 X22.771260 Y3.342459 Z-1.000000 I0.073334 J0.352855
G03 X22.648132 Y3.460816 Z-1.000000 I-11.163547 J-11.490307
G03 X22.512632 Y3.547711 Z-1.000000 I-0.293484 J-0.308551
G03 X22.433862 Y3.575912 Z-1.000000 I-0.427837 J-1.070912
G02 X22.224869 Y3.668219 Z-1.000000 I0.320144 J1.007588
G02 X21.760872 Y4.026592 Z-1.000000 I1.102362 J1.906825
G02 X21.483261 Y4.334938 Z-1.000000 I3.164754 J3.128442
G02 X21.275735 Y4.620686 Z-1.000000 I2.347188 J1.922892
G02 X21.007036 Y5.073855 Z-1.000000 I6.357551 J4.075848
G02 X20.789964 Y5.610844 Z-1.000000 I2.192416 J1.198630
G02 X20.619732 Y6.299504 Z-1.000000 I13.332198 J3.661006
G03 X20.453707 Y6.957457 Z-1.000000 I-10.866932 J-2.392183
G02 X20.411255 Y7.112553 Z-1.000000 I7.363349 J2.098833
G02 X20.381387 Y7.274308 Z-1.000000 I1.074804 J0.282095
G03 X20.343034 Y7.569391 Z-1.000000 I-7.206864 J-0.786662
G03 X20.278608 Y7.868402 Z-1.000000 I-2.423190 J-0.365665
G02 X20.213895 Y8.122703 Z-1.000000 I4.962656 J1.398243
G02 X20.161215 Y8.383284 Z-1.000000 I5.343903 J1.215967
G02 X20.125329 Y8.634255 Z-1.000000 I3.760083 J0.665700
G03 X20.075705 Y8.858559 Z-1.000000 I-1.050547 J-0.114777
G02 X19.982636 Y9.176678 Z-1.000000 I3.730389 J1.264041
G03 X19.887694 Y9.531866 Z-1.000000 I-9.561648 J-2.365546
G03 X19.808831 Y9.773040 Z-1.000000 I-3.368671 J-0.968057
G03 X19.711407 Y10.007141 Z-1.000000 I-2.825871 J-1.038703
G02 X19.641774 Y10.181743 Z-1.000000 I1.502179 J0.700266
G02 X19.590607 Y10.363598 Z-1.000000 I1.849064 J0.618386
G03 X19.476278 Y10.777444 Z-1.000000 I-4.790849 J-1.100800
G03 X19.347148 Y11.155724 Z-1.000000 I-12.082189 J-3.913218
G02 X19.271108 Y11.378974 Z-1.000000 I6.786536 J2.436097
G02 X19.220645 Y11.591393 Z-1.000000 I1.321794 J0.426214
G02 X19.189783 Y12.011415 Z-1.000000 I2.554924 J0.398872
G03 X19.152805 Y12.304306 Z-1.000000 I-1.106727 J0.009052
G03 X19.081260 Y12.526504 Z-1.000000 I-2.163252 J-0.573920
G03 X18.802606 Y13.008783 Z-1.000000 I-1.631205 J-0.620848
G03 X18.573164 Y13.179810 Z-1.000000 I-0.455043 J-0.371046
G02 X18.433792 Y13.253510 Z-1.000000 I0.329550 J0.791839
G02 X18.248468 Y13.402318 Z-1.000000 I0.663595 J1.016237
G02 X18.156548 Y13.492653 Z-1.000000 I21.617342 J22.088676
G02 X17.819066 Y13.828838 Z-1.000000 I33.761183 J34.228907
G03 X17.443635 Y14.205408 Z-1.000000 I-124.510818 J-123.758818
G00 Z0.000000

(End cutting path id: path862)


(Start cutting path id: path862)
(Change tool to Default tool)

G00 Z0.000000
G00 X17.443601 Y14.126190

G01 Z-1.000000 F100.0(Penetrate)
G01 X17.443601 Y13.848867 Z-1.000000 F400.000000
G01 X17.443601 Y13.492490 Z-1.000000
G01 X17.443601 Y12.502333 Z-1.000000
G01 X17.443601 Y11.749813 Z-1.000000
G01 X17.443601 Y11.353750 Z-1.000000
G01 X17.443601 Y9.611074 Z-1.000000
G03 X17.444695 Y9.349800 Z-1.000000 I31.206747 J-0.000000
G02 X17.442201 Y9.135798 Z-1.000000 I-5.343912 J-0.044743
G03 X17.439672 Y8.682493 Z-1.000000 I8.600385 J-0.274643
G02 X17.443601 Y8.304066 Z-1.000000 I-18.221987 J-0.378427
G01 X17.443601 Y7.828791 Z-1.000000
G01 X17.443601 Y7.155484 Z-1.000000
G00 Z0.000000

(End cutting path id: path862)


(Start cutting path id: path862)
(Change tool to Default tool)

G00 Z0.000000
G00 X17.443601 Y14.126190

G01 Z-1.000000 F100.0(Penetrate)
G01 X17.443601 Y13.848867 Z-1.000000 F400.000000
G01 X17.443601 Y13.492490 Z-1.000000
G01 X17.443601 Y12.502333 Z-1.000000
G01 X17.443601 Y11.749813 Z-1.000000
G01 X17.443601 Y11.353750 Z-1.000000
G01 X17.443601 Y9.611074 Z-1.000000
G03 X17.444695 Y9.349800 Z-1.000000 I31.206747 J-0.000000
G02 X17.442201 Y9.135798 Z-1.000000 I-5.343912 J-0.044743
G03 X17.439672 Y8.682493 Z-1.000000 I8.600385 J-0.274643
G02 X17.443601 Y8.304066 Z-1.000000 I-18.221987 J-0.378427
G01 X17.443601 Y7.828791 Z-1.000000
G01 X17.443601 Y7.155484 Z-1.000000
G00 Z0.000000

(End cutting path id: path862)


(Start cutting path id: path862)
(Change tool to Default tool)

G00 Z0.000000
G00 X15.582106 Y11.393365

G01 Z-1.000000 F100.0(Penetrate)
G02 X15.503633 Y11.115518 Z-1.000000 I-1.358582 J0.233702 F400.000000
G03 X15.419601 Y10.878483 Z-1.000000 I2.958132 J-1.182110
G03 X15.303380 Y10.443342 Z-1.000000 I5.371856 J-1.667851
G02 X15.155110 Y10.007144 Z-1.000000 I-2.110167 J0.473977
G03 X15.045071 Y9.758882 Z-1.000000 I7.196491 J-3.338260
G03 X14.957752 Y9.492263 Z-1.000000 I1.547214 J-0.654331
G03 X14.879855 Y9.157446 Z-1.000000 I40.177443 J-9.523952
G02 X14.801070 Y8.858562 Z-1.000000 I-4.524244 J1.032755
G03 X14.746587 Y8.666934 Z-1.000000 I6.867335 J-2.056064
G03 X14.700905 Y8.462499 Z-1.000000 I2.338024 J-0.629762
G02 X14.642417 Y8.157093 Z-1.000000 I-12.288045 J2.194955
G03 X14.584027 Y7.868405 Z-1.000000 I68.567697 J-14.018820
G02 X14.523712 Y7.569150 Z-1.000000 I-91.199805 J18.225620
G03 X14.473130 Y7.274311 Z-1.000000 I4.787349 J-0.973069
G02 X14.447582 Y7.113242 Z-1.000000 I-4.518554 J0.634136
G02 X14.416730 Y6.957460 Z-1.000000 I-3.843195 J0.680197
G02 X14.261599 Y6.299938 Z-1.000000 I-20.837583 J4.569196
G02 X14.071324 Y5.610847 Z-1.000000 I-15.838366 J4.002556
G02 X13.857861 Y5.075735 Z-1.000000 I-3.129327 J0.938196
G02 X13.596128 Y4.620689 Z-1.000000 I-4.331474 J2.188579
G02 X13.392523 Y4.335468 Z-1.000000 I-3.342319 J2.170636
G02 X13.124971 Y4.026595 Z-1.000000 I-3.226573 J2.524601
G02 X12.692638 Y3.684720 Z-1.000000 I-1.448368 J1.387299
G02 X12.492855 Y3.594609 Z-1.000000 I-0.517333 J0.880441
G02 X12.437523 Y3.583558 Z-1.000000 I-0.072945 J0.221187
G03 X12.247217 Y3.511239 Z-1.000000 I0.027150 J-0.357997
G03 X12.083554 Y3.349286 Z-1.000000 I0.541818 J-0.711208
G02 X11.977340 Y3.269839 Z-1.000000 I-0.198297 J0.154385
G02 X11.752896 Y3.230463 Z-1.000000 I-0.208695 J0.530212
G03 X11.463052 Y3.234469 Z-1.000000 I-0.289844 J-10.483311
G03 X11.299617 Y3.234447 Z-1.000000 I-0.012288 J-612.071074
G02 X11.106596 Y3.234469 Z-1.000000 I-0.066014 J253.930642
G02 X10.526259 Y3.286097 Z-1.000000 I0.001326 J3.302411
G02 X10.037226 Y3.432540 Z-1.000000 I0.395564 J2.210714
G02 X9.591715 Y3.628692 Z-1.000000 I9.597056 J22.401409
G02 X9.213930 Y3.864241 Z-1.000000 I0.692822 J1.531909
G02 X9.084381 Y4.026079 Z-1.000000 I0.323767 J0.391940
G03 X8.952410 Y4.164813 Z-1.000000 I-0.297832 J-0.151178
G03 X8.760215 Y4.231579 Z-1.000000 I-0.274128 J-0.479105
G02 X8.571793 Y4.277532 Z-1.000000 I0.159740 J1.064244
G02 X8.393133 Y4.369435 Z-1.000000 I0.224505 J0.656050
G02 X8.215337 Y4.501427 Z-1.000000 I3.553479 J4.972363
G02 X7.661400 Y4.956018 Z-1.000000 I7.237897 J9.384457
G02 X7.142403 Y5.451819 Z-1.000000 I5.233638 J5.998034
G03 X6.968438 Y5.608152 Z-1.000000 I-1.117525 J-1.068597
G02 X6.801392 Y5.750015 Z-1.000000 I1.402728 J1.821021
G02 X6.568469 Y6.027126 Z-1.000000 I1.032030 J1.103912
G03 X6.365327 Y6.323752 Z-1.000000 I-6.978794 J-4.561488
G02 X6.149700 Y6.625267 Z-1.000000 I124.381540 J89.178831
G02 X5.992830 Y6.957452 Z-1.000000 I0.842591 J0.601035
G02 X5.944369 Y7.142188 Z-1.000000 I14.935819 J4.016777
G02 X5.937659 Y7.273550 Z-1.000000 I0.321774 J0.082290
G02 X5.970157 Y7.365605 Z-1.000000 I0.253917 J-0.037877
G02 X5.982256 Y7.382071 Z-1.000000 I0.085689 J-0.050284
G02 X6.040956 Y7.429673 Z-1.000000 I0.183708 J-0.166544
G02 X6.274629 Y7.509762 Z-1.000000 I0.316232 J-0.541726
G03 X6.485075 Y7.545094 Z-1.000000 I-0.410931 J3.091979
G03 X6.670692 Y7.607072 Z-1.000000 I-0.160551 J0.789776
G03 X6.931981 Y7.753992 Z-1.000000 I-0.942379 J1.981773
G03 X7.185574 Y7.934933 Z-1.000000 I-2.182713 J3.327296
G03 X7.420049 Y8.141984 Z-1.000000 I-1.483190 J1.915932
G02 X7.621243 Y8.343669 Z-1.000000 I75.119224 J-74.735096
G03 X7.947451 Y8.677984 Z-1.000000 I-13.318931 J13.322235
G03 X8.271618 Y9.056583 Z-1.000000 I-3.431575 J3.266293
G03 X8.706862 Y9.740607 Z-1.000000 I-3.626049 J2.787741
G02 X9.032573 Y10.240613 Z-1.000000 I2.668893 J-1.382465
G02 X9.241272 Y10.398466 Z-1.000000 I0.418167 J-0.335973
G03 X9.501987 Y10.565780 Z-1.000000 I-0.358803 J0.845886
G03 X9.616927 Y10.793435 Z-1.000000 I-0.241895 J0.264974
G02 X9.663977 Y11.155716 Z-1.000000 I7.284260 J-0.761808
G02 X9.763781 Y11.754994 Z-1.000000 I26.883679 J-4.169306
G02 X9.935200 Y12.383511 Z-1.000000 I3.565445 J-0.634789
G03 X10.003154 Y12.595213 Z-1.000000 I-2.276747 J0.847563
G03 X10.048672 Y12.779574 Z-1.000000 I-4.025601 J1.091705
G02 X10.140157 Y13.082376 Z-1.000000 I2.080240 J-0.463279
G03 X10.172442 Y13.175637 Z-1.000000 I-1.337893 J0.515365
G03 X10.178843 Y13.198528 Z-1.000000 I-0.368663 J0.115433
G02 X10.227452 Y13.331883 Z-1.000000 I0.641392 J-0.158255
G02 X10.369465 Y13.488471 Z-1.000000 I0.343865 J-0.169167
G02 X10.434038 Y13.524251 Z-1.000000 I0.398949 J-0.643837
G02 X10.603066 Y13.581619 Z-1.000000 I0.303202 J-0.615647
G02 X10.868955 Y13.611861 Z-1.000000 I0.313542 J-1.572725
G03 X11.040373 Y13.627405 Z-1.000000 I-0.042152 J1.417838
G02 X11.265018 Y13.649371 Z-1.000000 I0.316779 J-2.079962
G03 X11.906398 Y13.699293 Z-1.000000 I-0.414279 J9.467586
G03 X12.572025 Y13.799004 Z-1.000000 I-1.011580 J9.024432
G03 X12.877329 Y13.861328 Z-1.000000 I-1.863994 J9.910042
G02 X13.166119 Y13.918258 Z-1.000000 I1.427333 J-6.479505
G03 X14.193574 Y14.141585 Z-1.000000 I-2.167313 J12.446269
G03 X15.027615 Y14.452864 Z-1.000000 I-1.110312 J4.247972
G02 X15.227719 Y14.548458 Z-1.000000 I3.788186 J-7.672489
G02 X15.463284 Y14.639925 Z-1.000000 I0.850494 J-1.841291
G02 X15.613696 Y14.683369 Z-1.000000 I0.880369 J-2.765955
G02 X15.740528 Y14.715135 Z-1.000000 I1.869896 J-7.196710
G02 X16.097689 Y14.789339 Z-1.000000 I1.354489 J-5.622832
G03 X16.215803 Y14.814345 Z-1.000000 I-0.294717 J1.683514
G02 X16.724724 Y14.902364 Z-1.000000 I0.860127 J-3.457931
G02 X17.047535 Y14.918311 Z-1.000000 I0.322811 J-3.259261
G01 X17.245567 Y14.918311 Z-1.000000
G01 X17.403992 Y14.918311 Z-1.000000
G01 X17.562417 Y14.918311 Z-1.000000
G01 X17.800055 Y14.918311 Z-1.000000
G02 X18.122866 Y14.902365 Z-1.000000 I0.000000 J-3.275526
G02 X18.631787 Y14.814345 Z-1.000000 I-0.351111 J-3.545341
G03 X18.749901 Y14.789337 Z-1.000000 I0.412969 J1.659062
G02 X19.107062 Y14.715135 Z-1.000000 I-0.998316 J-5.701901
G02 X19.219938 Y14.686994 Z-1.000000 I-1.690442 J-7.021026
G02 X19.344700 Y14.652125 Z-1.000000 I-0.802662 J-3.112553
G02 X19.559049 Y14.575719 Z-1.000000 I-0.666000 J-2.207256
G02 X19.740762 Y14.499324 Z-1.000000 I-6.075993 J-14.706699
G03 X20.615507 Y14.176491 Z-1.000000 I3.630020 J8.489350
G03 X21.681470 Y13.918260 Z-1.000000 I2.505500 J8.013328
G02 X21.970521 Y13.864078 Z-1.000000 I-1.943198 J-11.164689
G02 X22.275565 Y13.800986 Z-1.000000 I-5.401871 J-26.886570
G03 X22.941217 Y13.696320 Z-1.000000 I1.309219 J6.157298
G03 X23.582572 Y13.649373 Z-1.000000 I1.120353 J10.901142
G02 X23.807120 Y13.627399 Z-1.000000 I-0.091472 J-2.093012
G03 X23.978635 Y13.611863 Z-1.000000 I0.212756 J1.394297
G02 X24.243874 Y13.585497 Z-1.000000 I-0.056407 J-1.914754
G02 X24.413710 Y13.529763 Z-1.000000 I-0.101509 J-0.595959
G02 X24.474016 Y13.496288 Z-1.000000 I-0.371108 J-0.739619
G02 X24.629841 Y13.331930 Z-1.000000 I-0.226571 J-0.370854
G02 X24.682554 Y13.201990 Z-1.000000 I-0.562565 J-0.303879
G03 X24.690401 Y13.175644 Z-1.000000 I0.947213 J0.267778
G02 X24.716934 Y13.089981 Z-1.000000 I-14.454550 J-4.524116
G02 X24.814528 Y12.739974 Z-1.000000 I-6.817201 J-2.089473
G03 X24.983889 Y12.156096 Z-1.000000 I8.227390 J2.069950
G02 X25.124090 Y11.591392 Z-1.000000 I-3.697703 J-1.217800
G03 X25.195316 Y11.184629 Z-1.000000 I41.304510 J7.023009
G02 X25.255821 Y10.838912 Z-1.000000 I-34.414781 J-6.201155
G02 X25.267790 Y10.743366 Z-1.000000 I-1.099935 J-0.186305
G03 X25.325761 Y10.591452 Z-1.000000 I0.290077 J0.023677
G03 X25.433781 Y10.502601 Z-1.000000 I0.239729 J0.181362
G02 X25.484424 Y10.475960 Z-1.000000 I-0.407898 J-0.836837
G03 X25.642249 Y10.392222 Z-1.000000 I1.647589 J2.914709
G02 X25.892369 Y10.163863 Z-1.000000 I-0.273766 J-0.551010
G02 X26.148429 Y9.743554 Z-1.000000 I-43.058804 J-26.520365
G03 X26.426737 Y9.294227 Z-1.000000 I18.478078 J11.134258
G03 X26.770858 Y8.827327 Z-1.000000 I3.576896 J2.276032
G03 X27.186702 Y8.384827 Z-1.000000 I4.564319 J3.872714
G02 X27.372934 Y8.204362 Z-1.000000 I-21.685346 J-22.564635
G03 X27.549932 Y8.033124 Z-1.000000 I17.359616 J17.766465
G03 X27.848851 Y7.793249 Z-1.000000 I1.513706 J1.580113
G03 X28.176899 Y7.607079 Z-1.000000 I1.447981 J2.169359
G03 X28.425580 Y7.535632 Z-1.000000 I0.340017 J0.714966
G02 X28.652095 Y7.498518 Z-1.000000 I-0.283132 J-2.437814
G02 X28.790255 Y7.448334 Z-1.000000 I-0.109807 J-0.517578
G02 X28.843908 Y7.419148 Z-1.000000 I-1.372137 J-2.586344
G01 X28.929418 Y7.353518 Z-1.000000
G00 Z0.000000

(End cutting path id: path862)


(Start cutting path id: path862)
(Change tool to Default tool)

G00 Z0.000000
G00 X15.582106 Y11.393365

G01 Z-1.000000 F100.0(Penetrate)
G02 X15.503633 Y11.115518 Z-1.000000 I-1.358582 J0.233702 F400.000000
G03 X15.419601 Y10.878483 Z-1.000000 I2.958132 J-1.182110
G03 X15.303380 Y10.443342 Z-1.000000 I5.371856 J-1.667851
G02 X15.155110 Y10.007144 Z-1.000000 I-2.110167 J0.473977
G03 X15.045071 Y9.758882 Z-1.000000 I7.196491 J-3.338260
G03 X14.957752 Y9.492263 Z-1.000000 I1.547214 J-0.654331
G03 X14.879855 Y9.157446 Z-1.000000 I40.177443 J-9.523952
G02 X14.801070 Y8.858562 Z-1.000000 I-4.524244 J1.032755
G03 X14.746587 Y8.666934 Z-1.000000 I6.867335 J-2.056064
G03 X14.700905 Y8.462499 Z-1.000000 I2.338024 J-0.629762
G02 X14.642417 Y8.157093 Z-1.000000 I-12.288045 J2.194955
G03 X14.584027 Y7.868405 Z-1.000000 I68.567697 J-14.018820
G02 X14.523712 Y7.569150 Z-1.000000 I-91.199805 J18.225620
G03 X14.473130 Y7.274311 Z-1.000000 I4.787349 J-0.973069
G02 X14.447582 Y7.113242 Z-1.000000 I-4.518554 J0.634136
G02 X14.416730 Y6.957460 Z-1.000000 I-3.843195 J0.680197
G02 X14.261599 Y6.299938 Z-1.000000 I-20.837583 J4.569196
G02 X14.071324 Y5.610847 Z-1.000000 I-15.838366 J4.002556
G02 X13.857861 Y5.075735 Z-1.000000 I-3.129327 J0.938196
G02 X13.596128 Y4.620689 Z-1.000000 I-4.331474 J2.188579
G02 X13.392523 Y4.335468 Z-1.000000 I-3.342319 J2.170636
G02 X13.124971 Y4.026595 Z-1.000000 I-3.226573 J2.524601
G02 X12.692638 Y3.684720 Z-1.000000 I-1.448368 J1.387299
G02 X12.492855 Y3.594609 Z-1.000000 I-0.517333 J0.880441
G02 X12.437523 Y3.583558 Z-1.000000 I-0.072945 J0.221187
G03 X12.247217 Y3.511239 Z-1.000000 I0.027150 J-0.357997
G03 X12.083554 Y3.349286 Z-1.000000 I0.541818 J-0.711208
G02 X11.977340 Y3.269839 Z-1.000000 I-0.198297 J0.154385
G02 X11.752896 Y3.230463 Z-1.000000 I-0.208695 J0.530212
G03 X11.463052 Y3.234469 Z-1.000000 I-0.289844 J-10.483311
G03 X11.299617 Y3.234447 Z-1.000000 I-0.012288 J-612.071074
G02 X11.106596 Y3.234469 Z-1.000000 I-0.066014 J253.930642
G02 X10.526259 Y3.286097 Z-1.000000 I0.001326 J3.302411
G02 X10.037226 Y3.432540 Z-1.000000 I0.395564 J2.210714
G02 X9.591715 Y3.628692 Z-1.000000 I9.597056 J22.401409
G02 X9.213930 Y3.864241 Z-1.000000 I0.692822 J1.531909
G02 X9.084381 Y4.026079 Z-1.000000 I0.323767 J0.391940
G03 X8.952410 Y4.164813 Z-1.000000 I-0.297832 J-0.151178
G03 X8.760215 Y4.231579 Z-1.000000 I-0.274128 J-0.479105
G02 X8.571793 Y4.277532 Z-1.000000 I0.159740 J1.064244
G02 X8.393133 Y4.369435 Z-1.000000 I0.224505 J0.656050
G02 X8.215337 Y4.501427 Z-1.000000 I3.553479 J4.972363
G02 X7.661400 Y4.956018 Z-1.000000 I7.237897 J9.384457
G02 X7.142403 Y5.451819 Z-1.000000 I5.233638 J5.998034
G03 X6.968438 Y5.608152 Z-1.000000 I-1.117525 J-1.068597
G02 X6.801392 Y5.750015 Z-1.000000 I1.402728 J1.821021
G02 X6.568469 Y6.027126 Z-1.000000 I1.032030 J1.103912
G03 X6.365327 Y6.323752 Z-1.000000 I-6.978794 J-4.561488
G02 X6.149700 Y6.625267 Z-1.000000 I124.381540 J89.178831
G02 X5.992830 Y6.957452 Z-1.000000 I0.842591 J0.601035
G02 X5.944369 Y7.142188 Z-1.000000 I14.935819 J4.016777
G02 X5.937659 Y7.273550 Z-1.000000 I0.321774 J0.082290
G02 X5.970157 Y7.365605 Z-1.000000 I0.253917 J-0.037877
G02 X5.982256 Y7.382071 Z-1.000000 I0.085689 J-0.050284
G02 X6.040956 Y7.429673 Z-1.000000 I0.183708 J-0.166544
G02 X6.274629 Y7.509762 Z-1.000000 I0.316232 J-0.541726
G03 X6.485075 Y7.545094 Z-1.000000 I-0.410931 J3.091979
G03 X6.670692 Y7.607072 Z-1.000000 I-0.160551 J0.789776
G03 X6.931981 Y7.753992 Z-1.000000 I-0.942379 J1.981773
G03 X7.185574 Y7.934933 Z-1.000000 I-2.182713 J3.327296
G03 X7.420049 Y8.141984 Z-1.000000 I-1.483190 J1.915932
G02 X7.621243 Y8.343669 Z-1.000000 I75.119224 J-74.735096
G03 X7.947451 Y8.677984 Z-1.000000 I-13.318931 J13.322235
G03 X8.271618 Y9.056583 Z-1.000000 I-3.431575 J3.266293
G03 X8.706862 Y9.740607 Z-1.000000 I-3.626049 J2.787741
G02 X9.032573 Y10.240613 Z-1.000000 I2.668893 J-1.382465
G02 X9.241272 Y10.398466 Z-1.000000 I0.418167 J-0.335973
G03 X9.501987 Y10.565780 Z-1.000000 I-0.358803 J0.845886
G03 X9.616927 Y10.793435 Z-1.000000 I-0.241895 J0.264974
G02 X9.663977 Y11.155716 Z-1.000000 I7.284260 J-0.761808
G02 X9.763781 Y11.754994 Z-1.000000 I26.883679 J-4.169306
G02 X9.935200 Y12.383511 Z-1.000000 I3.565445 J-0.634789
G03 X10.003154 Y12.595213 Z-1.000000 I-2.276747 J0.847563
G03 X10.048672 Y12.779574 Z-1.000000 I-4.025601 J1.091705
G02 X10.140157 Y13.082376 Z-1.000000 I2.080240 J-0.463279
G03 X10.172442 Y13.175637 Z-1.000000 I-1.337893 J0.515365
G03 X10.178843 Y13.198528 Z-1.000000 I-0.368663 J0.115433
G02 X10.227452 Y13.331883 Z-1.000000 I0.641392 J-0.158255
G02 X10.369465 Y13.488471 Z-1.000000 I0.343865 J-0.169167
G02 X10.434038 Y13.524251 Z-1.000000 I0.398949 J-0.643837
G02 X10.603066 Y13.581619 Z-1.000000 I0.303202 J-0.615647
G02 X10.868955 Y13.611861 Z-1.000000 I0.313542 J-1.572725
G03 X11.040373 Y13.627405 Z-1.000000 I-0.042152 J1.417838
G02 X11.265018 Y13.649371 Z-1.000000 I0.316779 J-2.079962
G03 X11.906398 Y13.699293 Z-1.000000 I-0.414279 J9.467586
G03 X12.572025 Y13.799004 Z-1.000000 I-1.011580 J9.024432
G03 X12.877329 Y13.861328 Z-1.000000 I-1.863994 J9.910042
G02 X13.166119 Y13.918258 Z-1.000000 I1.427333 J-6.479505
G03 X14.193574 Y14.141585 Z-1.000000 I-2.167313 J12.446269
G03 X15.027615 Y14.452864 Z-1.000000 I-1.110312 J4.247972
G02 X15.227719 Y14.548458 Z-1.000000 I3.788186 J-7.672489
G02 X15.463284 Y14.639925 Z-1.000000 I0.850494 J-1.841291
G02 X15.613696 Y14.683369 Z-1.000000 I0.880369 J-2.765955
G02 X15.740528 Y14.715135 Z-1.000000 I1.869896 J-7.196710
G02 X16.097689 Y14.789339 Z-1.000000 I1.354489 J-5.622832
G03 X16.215803 Y14.814345 Z-1.000000 I-0.294717 J1.683514
G02 X16.724724 Y14.902364 Z-1.000000 I0.860127 J-3.457931
G02 X17.047535 Y14.918311 Z-1.000000 I0.322811 J-3.259261
G01 X17.245567 Y14.918311 Z-1.000000
G01 X17.403992 Y14.918311 Z-1.000000
G01 X17.562417 Y14.918311 Z-1.000000
G01 X17.800055 Y14.918311 Z-1.000000
G02 X18.122866 Y14.902365 Z-1.000000 I0.000000 J-3.275526
G02 X18.631787 Y14.814345 Z-1.000000 I-0.351111 J-3.545341
G03 X18.749901 Y14.789337 Z-1.000000 I0.412969 J1.659062
G02 X19.107062 Y14.715135 Z-1.000000 I-0.998316 J-5.701901
G02 X19.219938 Y14.686994 Z-1.000000 I-1.690442 J-7.021026
G02 X19.344700 Y14.652125 Z-1.000000 I-0.802662 J-3.112553
G02 X19.559049 Y14.575719 Z-1.000000 I-0.666000 J-2.207256
G02 X19.740762 Y14.499324 Z-1.000000 I-6.075993 J-14.706699
G03 X20.615507 Y14.176491 Z-1.000000 I3.630020 J8.489350
G03 X21.681470 Y13.918260 Z-1.000000 I2.505500 J8.013328
G02 X21.970521 Y13.864078 Z-1.000000 I-1.943198 J-11.164689
G02 X22.275565 Y13.800986 Z-1.000000 I-5.401871 J-26.886570
G03 X22.941217 Y13.696320 Z-1.000000 I1.309219 J6.157298
G03 X23.582572 Y13.649373 Z-1.000000 I1.120353 J10.901142
G02 X23.807120 Y13.627399 Z-1.000000 I-0.091472 J-2.093012
G03 X23.978635 Y13.611863 Z-1.000000 I0.212756 J1.394297
G02 X24.243874 Y13.585497 Z-1.000000 I-0.056407 J-1.914754
G02 X24.413710 Y13.529763 Z-1.000000 I-0.101509 J-0.595959
G02 X24.474016 Y13.496288 Z-1.000000 I-0.371108 J-0.739619
G02 X24.629841 Y13.331930 Z-1.000000 I-0.226571 J-0.370854
G02 X24.682554 Y13.201990 Z-1.000000 I-0.562565 J-0.303879
G03 X24.690401 Y13.175644 Z-1.000000 I0.947213 J0.267778
G02 X24.716934 Y13.089981 Z-1.000000 I-14.454550 J-4.524116
G02 X24.814528 Y12.739974 Z-1.000000 I-6.817201 J-2.089473
G03 X24.983889 Y12.156096 Z-1.000000 I8.227390 J2.069950
G02 X25.124090 Y11.591392 Z-1.000000 I-3.697703 J-1.217800
G03 X25.195316 Y11.184629 Z-1.000000 I41.304510 J7.023009
G02 X25.255821 Y10.838912 Z-1.000000 I-34.414781 J-6.201155
G02 X25.267790 Y10.743366 Z-1.000000 I-1.099935 J-0.186305
G03 X25.325761 Y10.591452 Z-1.000000 I0.290077 J0.023677
G03 X25.433781 Y10.502601 Z-1.000000 I0.239729 J0.181362
G02 X25.484424 Y10.475960 Z-1.000000 I-0.407898 J-0.836837
G03 X25.642249 Y10.392222 Z-1.000000 I1.647589 J2.914709
G02 X25.892369 Y10.163863 Z-1.000000 I-0.273766 J-0.551010
G02 X26.148429 Y9.743554 Z-1.000000 I-43.058804 J-26.520365
G03 X26.426737 Y9.294227 Z-1.000000 I18.478078 J11.134258
G03 X26.770858 Y8.827327 Z-1.000000 I3.576896 J2.276032
G03 X27.186702 Y8.384827 Z-1.000000 I4.564319 J3.872714
G02 X27.372934 Y8.204362 Z-1.000000 I-21.685346 J-22.564635
G03 X27.549932 Y8.033124 Z-1.000000 I17.359616 J17.766465
G03 X27.848851 Y7.793249 Z-1.000000 I1.513706 J1.580113
G03 X28.176899 Y7.607079 Z-1.000000 I1.447981 J2.169359
G03 X28.425580 Y7.535632 Z-1.000000 I0.340017 J0.714966
G02 X28.652095 Y7.498518 Z-1.000000 I-0.283132 J-2.437814
G02 X28.790255 Y7.448334 Z-1.000000 I-0.109807 J-0.517578
G02 X28.843908 Y7.419148 Z-1.000000 I-1.372137 J-2.586344
G01 X28.929418 Y7.353518 Z-1.000000
G00 Z0.000000

(End cutting path id: path862)


(Start cutting path id: path862)
(Change tool to Default tool)

G00 Z0.000000
G00 X15.621712 Y12.264695

G01 Z-1.000000 F100.0(Penetrate)
G02 X15.675400 Y12.120696 Z-1.000000 I-0.251559 J-0.175798 F400.000000
G02 X15.582102 Y11.393357 Z-1.000000 I-1.590274 J-0.165664
G01 X15.421898 Y11.553564 Z-1.000000
G01 X15.304782 Y11.670680 Z-1.000000
G01 X15.187033 Y11.788429 Z-1.000000
G01 X14.988011 Y11.987451 Z-1.000000
G02 X15.386821 Y12.156765 Z-1.000000 I1.209843 J-2.295377
G03 X15.653001 Y12.315193 Z-1.000000 I-0.222856 J0.677249
G03 X15.810917 Y12.566137 Z-1.000000 I-0.405362 J0.430249
G02 X16.045578 Y13.008778 Z-1.000000 I1.338553 J-0.426095
G02 X16.273459 Y13.180091 Z-1.000000 I0.436695 J-0.343674
G03 X16.413838 Y13.253505 Z-1.000000 I-0.308469 J0.760758
G03 X16.574066 Y13.379553 Z-1.000000 I-0.634342 J0.971213
G03 X16.651475 Y13.453478 Z-1.000000 I-4.685331 J4.983673
G03 X16.870209 Y13.670325 Z-1.000000 I-9.919860 J10.224957
G02 X17.166317 Y13.967607 Z-1.000000 I33.201557 J-32.774253
G03 X17.343753 Y14.196117 Z-1.000000 I-0.801712 J0.805666
G03 X17.443601 Y14.561860 Z-1.000000 I-0.620959 J0.366023
G03 X17.443627 Y14.642480 Z-1.000000 I-79.688309 J0.065892
G02 X17.443601 Y14.918316 Z-1.000000 I1478.142864 J0.261527
G02 X17.443906 Y15.102972 Z-1.000000 I55.916566 J-0.000000
G03 X17.442848 Y15.155954 Z-1.000000 I-1.138889 J0.003761
G03 X17.386167 Y15.371521 Z-1.000000 I-0.524904 J-0.022782
G03 X17.318920 Y15.472804 Z-1.000000 I-0.471034 J-0.239780
G03 X17.196998 Y15.603154 Z-1.000000 I-1.344963 J-1.135805
G02 X17.047538 Y15.750048 Z-1.000000 I8.406901 J8.703255
G02 X16.817351 Y15.982203 Z-1.000000 I27.183984 J27.183765
G03 X16.611869 Y16.184965 Z-1.000000 I-6.785168 J-6.670682
G03 X16.549294 Y16.243635 Z-1.000000 I-2.923262 J-3.055123
G03 X16.255412 Y16.398403 Z-1.000000 I-0.439799 J-0.478711
G03 X16.132271 Y16.421685 Z-1.000000 I-0.358186 J-1.557199
G02 X15.978168 Y16.447553 Z-1.000000 I0.615370 J4.137860
G03 X15.668977 Y16.481155 Z-1.000000 I-0.373268 J-1.995320
G02 X15.225649 Y16.509303 Z-1.000000 I0.220267 J6.974472
G02 X14.863910 Y16.551458 Z-1.000000 I0.833710 J8.727442
G03 X14.552342 Y16.593073 Z-1.000000 I-5.358429 J-38.930556
G03 X14.439188 Y16.607283 Z-1.000000 I-1.607481 J-12.343035
G02 X14.283416 Y16.661513 Z-1.000000 I0.046477 J0.384336
G02 X14.044381 Y16.925018 Z-1.000000 I0.331168 J0.540585
G03 X13.760058 Y17.168988 Z-1.000000 I-0.423361 J-0.205725
G03 X13.336865 Y17.297550 Z-1.000000 I-13.102079 J-42.367955
G03 X12.928485 Y17.408329 Z-1.000000 I-2.414650 J-8.093313
G03 X12.746744 Y17.445811 Z-1.000000 I-0.606098 J-2.479447
G02 X12.579316 Y17.516494 Z-1.000000 I0.065583 J0.388985
G02 X12.405230 Y17.697883 Z-1.000000 I0.428447 J0.585432
G03 X12.135765 Y17.924716 Z-1.000000 I-0.528582 J-0.354453
G02 X11.751321 Y18.108489 Z-1.000000 I3.280775 J7.357231
G02 X11.383840 Y18.307545 Z-1.000000 I3.950636 J7.732070
G02 X10.967631 Y18.551420 Z-1.000000 I12.538911 J21.876659
G03 X10.552108 Y18.776959 Z-1.000000 I-2.872244 J-4.796145
G02 X10.247249 Y18.956181 Z-1.000000 I1.018565 J2.081481
G03 X9.958013 Y19.135514 Z-1.000000 I-1.840280 J-2.645177
G02 X9.737301 Y19.262301 Z-1.000000 I3.154396 J5.746701
G02 X9.522344 Y19.396916 Z-1.000000 I3.499451 J5.826958
G03 X9.180962 Y19.604302 Z-1.000000 I-3.394241 J-5.202641
G03 X8.888644 Y19.758561 Z-1.000000 I-2.881826 J-5.106936
G02 X8.795799 Y19.805731 Z-1.000000 I1.834958 J3.726755
G02 X8.656273 Y19.897936 Z-1.000000 I0.383485 J0.731956
G02 X8.531721 Y20.053976 Z-1.000000 I0.301391 J0.368303
G02 X8.506958 Y20.106938 Z-1.000000 I1.048569 J0.522538
G02 X8.457275 Y20.245586 Z-1.000000 I0.981582 J0.429961
G03 X8.249675 Y20.598808 Z-1.000000 I-0.778435 J-0.219894
G03 X7.887268 Y20.922208 Z-1.000000 I-3.128135 J-3.140676
G02 X7.505988 Y21.258293 Z-1.000000 I3.256254 J4.078460
G03 X7.003550 Y21.710264 Z-1.000000 I-6.110066 J-6.287049
G02 X6.532822 Y22.324692 Z-1.000000 I1.119131 J1.344926
G02 X6.435288 Y22.601608 Z-1.000000 I1.449479 J0.666162
G03 X6.303225 Y22.810938 Z-1.000000 I-0.385799 J-0.097071
G03 X5.956284 Y23.043331 Z-1.000000 I-1.314818 J-1.587727
G02 X5.640928 Y23.222408 Z-1.000000 I3.072330 J5.777600
G02 X5.453074 Y23.357170 Z-1.000000 I0.766956 J1.267432
G02 X5.324078 Y23.473868 Z-1.000000 I1.602527 J1.901042
G02 X5.088581 Y23.705040 Z-1.000000 I20.456963 J21.075207
G03 X4.797909 Y23.973343 Z-1.000000 I-3.834400 J-3.862487
G02 X4.430452 Y24.312927 Z-1.000000 I4.392209 J5.121319
G02 X4.132365 Y24.621857 Z-1.000000 I7.506763 J7.541569
G02 X3.803022 Y25.029852 Z-1.000000 I2.820426 J2.613633
G03 X3.501595 Y25.413982 Z-1.000000 I-3.674855 J-2.573331
G02 X3.338940 Y25.656510 Z-1.000000 I0.854817 J0.749105
G03 X3.168823 Y25.964312 Z-1.000000 I-3.665950 J-1.825197
G03 X2.889150 Y26.182896 Z-1.000000 I-0.430438 J-0.262525
G02 X2.669982 Y26.341364 Z-1.000000 I0.127645 J0.407332
G02 X2.590623 Y26.536275 Z-1.000000 I0.365680 J0.262498
G03 X2.571996 Y26.641777 Z-1.000000 I-2.202661 J-0.334509
G02 X2.533198 Y26.964825 Z-1.000000 I2.003176 J0.404433
G03 X2.513577 Y27.433903 Z-1.000000 I-119.020837 J-4.743704
G02 X2.560637 Y28.313861 Z-1.000000 I4.541434 J0.198360
G02 X2.793593 Y28.635843 Z-1.000000 I0.428894 J-0.065044
G02 X2.986628 Y28.689505 Z-1.000000 I0.230584 J-0.455442
G02 X3.304158 Y28.701304 Z-1.000000 I0.320427 J-4.344501
G00 Z0.000000

(End cutting path id: path862)


(Start cutting path id: path862)
(Change tool to Default tool)

G00 Z0.000000
G00 X15.621712 Y12.264695

G01 Z-1.000000 F100.0(Penetrate)
G02 X15.675400 Y12.120696 Z-1.000000 I-0.251559 J-0.175798 F400.000000
G02 X15.582102 Y11.393357 Z-1.000000 I-1.590274 J-0.165664
G01 X15.421898 Y11.553564 Z-1.000000
G01 X15.304782 Y11.670680 Z-1.000000
G01 X15.187033 Y11.788429 Z-1.000000
G01 X14.988011 Y11.987451 Z-1.000000
G02 X15.386821 Y12.156765 Z-1.000000 I1.209843 J-2.295377
G03 X15.653001 Y12.315193 Z-1.000000 I-0.222856 J0.677249
G03 X15.810917 Y12.566137 Z-1.000000 I-0.405362 J0.430249
G02 X16.045578 Y13.008778 Z-1.000000 I1.338553 J-0.426095
G02 X16.273459 Y13.180091 Z-1.000000 I0.436695 J-0.343674
G03 X16.413838 Y13.253505 Z-1.000000 I-0.308469 J0.760758
G03 X16.574066 Y13.379553 Z-1.000000 I-0.634342 J0.971213
G03 X16.651475 Y13.453478 Z-1.000000 I-4.685331 J4.983673
G03 X16.870209 Y13.670325 Z-1.000000 I-9.919860 J10.224957
G02 X17.166317 Y13.967607 Z-1.000000 I33.201557 J-32.774253
G03 X17.343753 Y14.196117 Z-1.000000 I-0.801712 J0.805666
G03 X17.443601 Y14.561860 Z-1.000000 I-0.620959 J0.366023
G03 X17.443627 Y14.642480 Z-1.000000 I-79.688309 J0.065892
G02 X17.443601 Y14.918316 Z-1.000000 I1478.142864 J0.261527
G02 X17.443906 Y15.102972 Z-1.000000 I55.916566 J-0.000000
G03 X17.442848 Y15.155954 Z-1.000000 I-1.138889 J0.003761
G03 X17.386167 Y15.371521 Z-1.000000 I-0.524904 J-0.022782
G03 X17.318920 Y15.472804 Z-1.000000 I-0.471034 J-0.239780
G03 X17.196998 Y15.603154 Z-1.000000 I-1.344963 J-1.135805
G02 X17.047538 Y15.750048 Z-1.000000 I8.406901 J8.703255
G02 X16.817351 Y15.982203 Z-1.000000 I27.183984 J27.183765
G03 X16.611869 Y16.184965 Z-1.000000 I-6.785168 J-6.670682
G03 X16.549294 Y16.243635 Z-1.000000 I-2.923262 J-3.055123
G03 X16.255412 Y16.398403 Z-1.000000 I-0.439799 J-0.478711
G03 X16.132271 Y16.421685 Z-1.000000 I-0.358186 J-1.557199
G02 X15.978168 Y16.447553 Z-1.000000 I0.615370 J4.137860
G03 X15.668977 Y16.481155 Z-1.000000 I-0.373268 J-1.995320
G02 X15.225649 Y16.509303 Z-1.000000 I0.220267 J6.974472
G02 X14.863910 Y16.551458 Z-1.000000 I0.833710 J8.727442
G03 X14.552342 Y16.593073 Z-1.000000 I-5.358429 J-38.930556
G03 X14.439188 Y16.607283 Z-1.000000 I-1.607481 J-12.343035
G02 X14.283416 Y16.661513 Z-1.000000 I0.046477 J0.384336
G02 X14.044381 Y16.925018 Z-1.000000 I0.331168 J0.540585
G03 X13.760058 Y17.168988 Z-1.000000 I-0.423361 J-0.205725
G03 X13.336865 Y17.297550 Z-1.000000 I-13.102079 J-42.367955
G03 X12.928485 Y17.408329 Z-1.000000 I-2.414650 J-8.093313
G03 X12.746744 Y17.445811 Z-1.000000 I-0.606098 J-2.479447
G02 X12.579316 Y17.516494 Z-1.000000 I0.065583 J0.388985
G02 X12.405230 Y17.697883 Z-1.000000 I0.428447 J0.585432
G03 X12.135765 Y17.924716 Z-1.000000 I-0.528582 J-0.354453
G02 X11.751321 Y18.108489 Z-1.000000 I3.280775 J7.357231
G02 X11.383840 Y18.307545 Z-1.000000 I3.950636 J7.732070
G02 X10.967631 Y18.551420 Z-1.000000 I12.538911 J21.876659
G03 X10.552108 Y18.776959 Z-1.000000 I-2.872244 J-4.796145
G02 X10.247249 Y18.956181 Z-1.000000 I1.018565 J2.081481
G03 X9.958013 Y19.135514 Z-1.000000 I-1.840280 J-2.645177
G02 X9.737301 Y19.262301 Z-1.000000 I3.154396 J5.746701
G02 X9.522344 Y19.396916 Z-1.000000 I3.499451 J5.826958
G03 X9.180962 Y19.604302 Z-1.000000 I-3.394241 J-5.202641
G03 X8.888644 Y19.758561 Z-1.000000 I-2.881826 J-5.106936
G02 X8.795799 Y19.805731 Z-1.000000 I1.834958 J3.726755
G02 X8.656273 Y19.897936 Z-1.000000 I0.383485 J0.731956
G02 X8.531721 Y20.053976 Z-1.000000 I0.301391 J0.368303
G02 X8.506958 Y20.106938 Z-1.000000 I1.048569 J0.522538
G02 X8.457275 Y20.245586 Z-1.000000 I0.981582 J0.429961
G03 X8.249675 Y20.598808 Z-1.000000 I-0.778435 J-0.219894
G03 X7.887268 Y20.922208 Z-1.000000 I-3.128135 J-3.140676
G02 X7.505988 Y21.258293 Z-1.000000 I3.256254 J4.078460
G03 X7.003550 Y21.710264 Z-1.000000 I-6.110066 J-6.287049
G02 X6.532822 Y22.324692 Z-1.000000 I1.119131 J1.344926
G02 X6.435288 Y22.601608 Z-1.000000 I1.449479 J0.666162
G03 X6.303225 Y22.810938 Z-1.000000 I-0.385799 J-0.097071
G03 X5.956284 Y23.043331 Z-1.000000 I-1.314818 J-1.587727
G02 X5.640928 Y23.222408 Z-1.000000 I3.072330 J5.777600
G02 X5.453074 Y23.357170 Z-1.000000 I0.766956 J1.267432
G02 X5.324078 Y23.473868 Z-1.000000 I1.602527 J1.901042
G02 X5.088581 Y23.705040 Z-1.000000 I20.456963 J21.075207
G03 X4.797909 Y23.973343 Z-1.000000 I-3.834400 J-3.862487
G02 X4.430452 Y24.312927 Z-1.000000 I4.392209 J5.121319
G02 X4.132365 Y24.621857 Z-1.000000 I7.506763 J7.541569
G02 X3.803022 Y25.029852 Z-1.000000 I2.820426 J2.613633
G03 X3.501595 Y25.413982 Z-1.000000 I-3.674855 J-2.573331
G02 X3.338940 Y25.656510 Z-1.000000 I0.854817 J0.749105
G03 X3.168823 Y25.964312 Z-1.000000 I-3.665950 J-1.825197
G03 X2.889150 Y26.182896 Z-1.000000 I-0.430438 J-0.262525
G02 X2.669982 Y26.341364 Z-1.000000 I0.127645 J0.407332
G02 X2.590623 Y26.536275 Z-1.000000 I0.365680 J0.262498
G03 X2.571996 Y26.641777 Z-1.000000 I-2.202661 J-0.334509
G02 X2.533198 Y26.964825 Z-1.000000 I2.003176 J0.404433
G03 X2.513577 Y27.433903 Z-1.000000 I-119.020837 J-4.743704
G02 X2.560637 Y28.313861 Z-1.000000 I4.541434 J0.198360
G02 X2.793593 Y28.635843 Z-1.000000 I0.428894 J-0.065044
G02 X2.986628 Y28.689505 Z-1.000000 I0.230584 J-0.455442
G02 X3.304158 Y28.701304 Z-1.000000 I0.320427 J-4.344501
G00 Z0.000000

(End cutting path id: path862)


(Start cutting path id: path862)
(Change tool to Default tool)

G00 Z0.000000
G00 X2.630851 Y26.324927

G01 Z-1.000000 F100.0(Penetrate)
G03 X2.585386 Y26.193422 Z-1.000000 I0.391943 J-0.209116 F400.000000
G03 X2.551638 Y25.810045 Z-1.000000 I2.160675 J-0.383376
G03 X2.564977 Y25.419178 Z-1.000000 I5.733054 J0.000000
G02 X2.589700 Y24.978313 Z-1.000000 I-18.035936 J-1.232520
G02 X2.592190 Y24.822643 Z-1.000000 I-2.798997 J-0.122632
G03 X2.591240 Y24.661463 Z-1.000000 I13.667500 J-0.161180
G01 X2.591240 Y23.908943 Z-1.000000
G01 X2.591240 Y23.552487 Z-1.000000
G03 X2.610880 Y22.866915 Z-1.000000 I11.975106 J-0.000000
G02 X2.631005 Y22.285086 Z-1.000000 I-12.799656 J-0.733981
G03 X2.682047 Y21.653198 Z-1.000000 I4.617671 J0.054998
G02 X2.751685 Y21.136503 Z-1.000000 I-16.820616 J-2.530058
G03 X2.786639 Y20.959938 Z-1.000000 I1.166664 J0.139216
G03 X2.913794 Y20.796642 Z-1.000000 I0.262495 J0.073244
G03 X3.067837 Y20.737241 Z-1.000000 I0.271644 J0.475008
G02 X3.106122 Y20.727012 Z-1.000000 I-0.095782 J-0.435258
G03 X3.195458 Y20.703231 Z-1.000000 I0.301137 J0.951560
G02 X3.462578 Y20.619402 Z-1.000000 I-0.329580 J-1.517712
G02 X3.884277 Y20.437534 Z-1.000000 I-6.833626 J-16.424999
G03 X4.373523 Y20.288412 Z-1.000000 I0.841731 J1.884457
G02 X4.590503 Y20.245027 Z-1.000000 I-0.729698 J-4.213669
G02 X4.809192 Y20.192092 Z-1.000000 I-1.746013 J-7.691494
G03 X5.123090 Y20.133743 Z-1.000000 I0.586372 J2.280967
G03 X5.482499 Y20.106302 Z-1.000000 I0.524675 J4.504582
G02 X5.799467 Y20.061269 Z-1.000000 I-0.055722 J-1.530231
G03 X6.155806 Y19.995207 Z-1.000000 I0.705560 J2.811709
G03 X7.168246 Y19.885353 Z-1.000000 I4.863597 J40.103595
G03 X7.938088 Y19.831038 Z-1.000000 I1.469239 J15.341671
G03 X8.390665 Y19.876742 Z-1.000000 I0.070822 J1.562331
G03 X8.532183 Y19.948313 Z-1.000000 I-0.088048 J0.349797
G00 Z0.000000

(End cutting path id: path862)


(Start cutting path id: path862)
(Change tool to Default tool)

G00 Z0.000000
G00 X2.630851 Y26.324927

G01 Z-1.000000 F100.0(Penetrate)
G03 X2.585386 Y26.193422 Z-1.000000 I0.391943 J-0.209116 F400.000000
G03 X2.551638 Y25.810045 Z-1.000000 I2.160675 J-0.383376
G03 X2.564977 Y25.419178 Z-1.000000 I5.733054 J0.000000
G02 X2.589700 Y24.978313 Z-1.000000 I-18.035936 J-1.232520
G02 X2.592190 Y24.822643 Z-1.000000 I-2.798997 J-0.122632
G03 X2.591240 Y24.661463 Z-1.000000 I13.667500 J-0.161180
G01 X2.591240 Y23.908943 Z-1.000000
G01 X2.591240 Y23.552487 Z-1.000000
G03 X2.610880 Y22.866915 Z-1.000000 I11.975106 J-0.000000
G02 X2.631005 Y22.285086 Z-1.000000 I-12.799656 J-0.733981
G03 X2.682047 Y21.653198 Z-1.000000 I4.617671 J0.054998
G02 X2.751685 Y21.136503 Z-1.000000 I-16.820616 J-2.530058
G03 X2.786639 Y20.959938 Z-1.000000 I1.166664 J0.139216
G03 X2.913794 Y20.796642 Z-1.000000 I0.262495 J0.073244
G03 X3.067837 Y20.737241 Z-1.000000 I0.271644 J0.475008
G02 X3.106122 Y20.727012 Z-1.000000 I-0.095782 J-0.435258
G03 X3.195458 Y20.703231 Z-1.000000 I0.301137 J0.951560
G02 X3.462578 Y20.619402 Z-1.000000 I-0.329580 J-1.517712
G02 X3.884277 Y20.437534 Z-1.000000 I-6.833626 J-16.424999
G03 X4.373523 Y20.288412 Z-1.000000 I0.841731 J1.884457
G02 X4.590503 Y20.245027 Z-1.000000 I-0.729698 J-4.213669
G02 X4.809192 Y20.192092 Z-1.000000 I-1.746013 J-7.691494
G03 X5.123090 Y20.133743 Z-1.000000 I0.586372 J2.280967
G03 X5.482499 Y20.106302 Z-1.000000 I0.524675 J4.504582
G02 X5.799467 Y20.061269 Z-1.000000 I-0.055722 J-1.530231
G03 X6.155806 Y19.995207 Z-1.000000 I0.705560 J2.811709
G03 X7.168246 Y19.885353 Z-1.000000 I4.863597 J40.103595
G03 X7.938088 Y19.831038 Z-1.000000 I1.469239 J15.341671
G03 X8.390665 Y19.876742 Z-1.000000 I0.070822 J1.562331
G03 X8.532183 Y19.948313 Z-1.000000 I-0.088048 J0.349797
G00 Z0.000000

(End cutting path id: path862)


(Start cutting path id: path862)
(Change tool to Default tool)

G00 Z0.000000
G00 X10.037226 Y22.562338

G01 Z-1.000000 F100.0(Penetrate)
G02 X10.636131 Y22.343986 Z-1.000000 I-0.456250 J-2.181950 F400.000000
G03 X11.027383 Y22.147977 Z-1.000000 I3.614838 J6.727055
G02 X11.691177 Y21.828403 Z-1.000000 I-12.111918 J-26.007147
G02 X12.413603 Y21.427380 Z-1.000000 I-4.068896 J-8.181154
G02 X12.638436 Y21.278593 Z-1.000000 I-2.162136 J-3.511474
G03 X12.888878 Y21.104113 Z-1.000000 I10.037765 J14.140888
G03 X13.185797 Y20.907292 Z-1.000000 I6.978204 J10.204774
G03 X13.482973 Y20.742389 Z-1.000000 I1.427751 J2.222760
G03 X13.785612 Y20.634185 Z-1.000000 I0.695498 J1.467925
G02 X13.878956 Y20.609272 Z-1.000000 I-0.706548 J-2.834634
G03 X14.025096 Y20.593216 Z-1.000000 I0.120525 J0.423890
G03 X14.156279 Y20.621632 Z-1.000000 I-0.025243 J0.433540
G00 Z0.000000

(End cutting path id: path862)


(Start cutting path id: path862)
(Change tool to Default tool)

G00 Z0.000000
G00 X10.037226 Y22.562338

G01 Z-1.000000 F100.0(Penetrate)
G02 X10.636131 Y22.343986 Z-1.000000 I-0.456250 J-2.181950 F400.000000
G03 X11.027383 Y22.147977 Z-1.000000 I3.614838 J6.727055
G02 X11.691177 Y21.828403 Z-1.000000 I-12.111918 J-26.007147
G02 X12.413603 Y21.427380 Z-1.000000 I-4.068896 J-8.181154
G02 X12.638436 Y21.278593 Z-1.000000 I-2.162136 J-3.511474
G03 X12.888878 Y21.104113 Z-1.000000 I10.037765 J14.140888
G03 X13.185797 Y20.907292 Z-1.000000 I6.978204 J10.204774
G03 X13.482973 Y20.742389 Z-1.000000 I1.427751 J2.222760
G03 X13.785612 Y20.634185 Z-1.000000 I0.695498 J1.467925
G02 X13.878956 Y20.609272 Z-1.000000 I-0.706548 J-2.834634
G03 X14.025096 Y20.593216 Z-1.000000 I0.120525 J0.423890
G03 X14.156279 Y20.621632 Z-1.000000 I-0.025243 J0.433540
G00 Z0.000000

(End cutting path id: path862)


(Start cutting path id: path862)
(Change tool to Default tool)

G00 Z0.000000
G00 X13.879035 Y21.294939

G01 Z-1.000000 F100.0(Penetrate)
G01 X13.602702 Y21.018605 Z-1.000000 F400.000000
G01 X13.469942 Y20.885845 Z-1.000000
G01 X13.403762 Y20.819665 Z-1.000000
G00 Z0.000000

(End cutting path id: path862)


(Start cutting path id: path862)
(Change tool to Default tool)

G00 Z0.000000
G00 X13.879035 Y21.294939

G01 Z-1.000000 F100.0(Penetrate)
G01 X13.602702 Y21.018605 Z-1.000000 F400.000000
G01 X13.469942 Y20.885845 Z-1.000000
G01 X13.403762 Y20.819665 Z-1.000000
G00 Z0.000000

(End cutting path id: path862)


(Start cutting path id: path862)
(Change tool to Default tool)

G00 Z0.000000
G00 X13.562189 Y21.057306

G01 Z-1.000000 F100.0(Penetrate)
G01 X13.641399 Y21.057306 Z-1.000000 F400.000000
G00 Z0.000000

(End cutting path id: path862)


(Start cutting path id: path862)
(Change tool to Default tool)

G00 Z0.000000
G00 X13.562189 Y21.057306

G01 Z-1.000000 F100.0(Penetrate)
G01 X13.641399 Y21.057306 Z-1.000000 F400.000000
G00 Z0.000000

(End cutting path id: path862)


(Start cutting path id: path862)
(Change tool to Default tool)

G00 Z0.000000
G00 X13.443370 Y21.136518

G01 Z-1.000000 F100.0(Penetrate)
G01 X13.245339 Y20.938487 Z-1.000000 F400.000000
G00 Z0.000000

(End cutting path id: path862)


(Start cutting path id: path862)
(Change tool to Default tool)

G00 Z0.000000
G00 X13.443370 Y21.136518

G01 Z-1.000000 F100.0(Penetrate)
G01 X13.245339 Y20.938487 Z-1.000000 F400.000000
G00 Z0.000000

(End cutting path id: path862)


(Start cutting path id: path862)
(Change tool to Default tool)

G00 Z0.000000
G00 X13.720610 Y21.453364

G01 Z-1.000000 F100.0(Penetrate)
G01 X13.482973 Y21.096907 Z-1.000000 F400.000000
G02 X13.453822 Y21.152878 Z-1.000000 I0.113699 J0.094795
G01 X13.482973 Y21.176117 Z-1.000000
G00 Z0.000000

(End cutting path id: path862)


(Start cutting path id: path862)
(Change tool to Default tool)

G00 Z0.000000
G00 X13.720610 Y21.453364

G01 Z-1.000000 F100.0(Penetrate)
G01 X13.482973 Y21.096907 Z-1.000000 F400.000000
G02 X13.453822 Y21.152878 Z-1.000000 I0.113699 J0.094795
G01 X13.482973 Y21.176117 Z-1.000000
G00 Z0.000000

(End cutting path id: path862)


(Start cutting path id: path862)
(Change tool to Default tool)

G00 Z0.000000
G00 X12.532423 Y17.532342

G01 Z-1.000000 F100.0(Penetrate)
G02 X12.434355 Y17.437823 Z-1.000000 I-3.865470 J3.912487 F400.000000
G02 X11.977935 Y17.255138 Z-1.000000 I-0.461042 J0.490364
G03 X11.770462 Y17.253619 Z-1.000000 I1.231737 J-182.454757
G02 X11.581872 Y17.261838 Z-1.000000 I-0.014480 J1.835620
G03 X11.173831 Y17.290235 Z-1.000000 I-0.764690 J-8.042174
G03 X10.750140 Y17.271898 Z-1.000000 I-0.107228 J-2.426454
G02 X10.528787 Y17.251806 Z-1.000000 I-0.362285 J2.761866
G03 X10.314471 Y17.232288 Z-1.000000 I0.135448 J-2.673720
G02 X9.880846 Y17.183718 Z-1.000000 I-1.475055 J11.209130
G03 X9.443133 Y17.087210 Z-1.000000 I0.165895 J-1.793296
G03 X8.883336 Y16.857097 Z-1.000000 I2.111606 J-5.932873
G03 X8.334157 Y16.591577 Z-1.000000 I10.548632 J-22.518622
G02 X7.664659 Y16.268607 Z-1.000000 I-12.575904 J25.213673
G03 X7.066755 Y15.931287 Z-1.000000 I1.876508 J-4.024700
G02 X6.618682 Y15.663741 Z-1.000000 I-2.756705 J4.107813
G02 X6.155810 Y15.429158 Z-1.000000 I-7.362808 J13.954114
G02 X5.671183 Y15.225220 Z-1.000000 I-2.116258 J4.351164
G03 X5.126047 Y15.020184 Z-1.000000 I6.219072 J-17.362085
G03 X4.740186 Y14.769001 Z-1.000000 I0.421965 J-1.070178
G03 X4.650771 Y14.680678 Z-1.000000 I60.850750 J-61.692089
G00 Z0.000000

(End cutting path id: path862)


(Start cutting path id: path862)
(Change tool to Default tool)

G00 Z0.000000
G00 X12.532423 Y17.532342

G01 Z-1.000000 F100.0(Penetrate)
G02 X12.434355 Y17.437823 Z-1.000000 I-3.865470 J3.912487 F400.000000
G02 X11.977935 Y17.255138 Z-1.000000 I-0.461042 J0.490364
G03 X11.770462 Y17.253619 Z-1.000000 I1.231737 J-182.454757
G02 X11.581872 Y17.261838 Z-1.000000 I-0.014480 J1.835620
G03 X11.173831 Y17.290235 Z-1.000000 I-0.764690 J-8.042174
G03 X10.750140 Y17.271898 Z-1.000000 I-0.107228 J-2.426454
G02 X10.528787 Y17.251806 Z-1.000000 I-0.362285 J2.761866
G03 X10.314471 Y17.232288 Z-1.000000 I0.135448 J-2.673720
G02 X9.880846 Y17.183718 Z-1.000000 I-1.475055 J11.209130
G03 X9.443133 Y17.087210 Z-1.000000 I0.165895 J-1.793296
G03 X8.883336 Y16.857097 Z-1.000000 I2.111606 J-5.932873
G03 X8.334157 Y16.591577 Z-1.000000 I10.548632 J-22.518622
G02 X7.664659 Y16.268607 Z-1.000000 I-12.575904 J25.213673
G03 X7.066755 Y15.931287 Z-1.000000 I1.876508 J-4.024700
G02 X6.618682 Y15.663741 Z-1.000000 I-2.756705 J4.107813
G02 X6.155810 Y15.429158 Z-1.000000 I-7.362808 J13.954114
G02 X5.671183 Y15.225220 Z-1.000000 I-2.116258 J4.351164
G03 X5.126047 Y15.020184 Z-1.000000 I6.219072 J-17.362085
G03 X4.740186 Y14.769001 Z-1.000000 I0.421965 J-1.070178
G03 X4.650771 Y14.680678 Z-1.000000 I60.850750 J-61.692089
G00 Z0.000000

(End cutting path id: path862)


(Start cutting path id: path862)
(Change tool to Default tool)

G00 Z0.000000
G00 X6.551873 Y13.492490

G01 Z-1.000000 F100.0(Penetrate)
G03 X6.363420 Y13.183928 Z-1.000000 I1.831727 J-1.330550 F400.000000
G03 X6.308136 Y13.056821 Z-1.000000 I1.065220 J-0.538884
G03 X6.285637 Y12.991788 Z-1.000000 I1.655540 J-0.609160
G02 X6.205318 Y12.779735 Z-1.000000 I-2.224368 J0.721283
G02 X6.022411 Y12.502387 Z-1.000000 I-0.886583 J0.385700
G03 X5.890448 Y12.343313 Z-1.000000 I1.191529 J-1.122735
G03 X5.761862 Y12.137865 Z-1.000000 I1.393358 J-1.015044
G03 X5.638037 Y11.868632 Z-1.000000 I2.264084 J-1.204377
G03 X5.522172 Y11.485694 Z-1.000000 I2.343049 J-0.917928
G03 X5.454739 Y11.116113 Z-1.000000 I5.437899 J-1.183134
G03 X5.413834 Y10.702164 Z-1.000000 I4.284937 J-0.632425
G03 X5.403290 Y10.284381 Z-1.000000 I8.272126 J-0.417783
G02 X5.401708 Y9.738956 Z-1.000000 I-94.030206 J-0.000000
G03 X5.403449 Y9.175404 Z-1.000000 I31.700843 J-0.183885
G03 X5.416302 Y8.986449 Z-1.000000 I1.692341 J0.020205
G02 X5.436758 Y8.818948 Z-1.000000 I-35.187443 J-4.382168
G03 X5.526300 Y8.150949 Z-1.000000 I23.607517 J2.824495
G03 X5.659899 Y7.630918 Z-1.000000 I2.556913 J0.379710
G03 X5.763717 Y7.461477 Z-1.000000 I0.482817 J0.179299
G03 X5.918172 Y7.313909 Z-1.000000 I1.222113 J1.124537
G00 Z0.000000

(End cutting path id: path862)


(Start cutting path id: path862)
(Change tool to Default tool)

G00 Z0.000000
G00 X6.551873 Y13.492490

G01 Z-1.000000 F100.0(Penetrate)
G03 X6.363420 Y13.183928 Z-1.000000 I1.831727 J-1.330550 F400.000000
G03 X6.308136 Y13.056821 Z-1.000000 I1.065220 J-0.538884
G03 X6.285637 Y12.991788 Z-1.000000 I1.655540 J-0.609160
G02 X6.205318 Y12.779735 Z-1.000000 I-2.224368 J0.721283
G02 X6.022411 Y12.502387 Z-1.000000 I-0.886583 J0.385700
G03 X5.890448 Y12.343313 Z-1.000000 I1.191529 J-1.122735
G03 X5.761862 Y12.137865 Z-1.000000 I1.393358 J-1.015044
G03 X5.638037 Y11.868632 Z-1.000000 I2.264084 J-1.204377
G03 X5.522172 Y11.485694 Z-1.000000 I2.343049 J-0.917928
G03 X5.454739 Y11.116113 Z-1.000000 I5.437899 J-1.183134
G03 X5.413834 Y10.702164 Z-1.000000 I4.284937 J-0.632425
G03 X5.403290 Y10.284381 Z-1.000000 I8.272126 J-0.417783
G02 X5.401708 Y9.738956 Z-1.000000 I-94.030206 J-0.000000
G03 X5.403449 Y9.175404 Z-1.000000 I31.700843 J-0.183885
G03 X5.416302 Y8.986449 Z-1.000000 I1.692341 J0.020205
G02 X5.436758 Y8.818948 Z-1.000000 I-35.187443 J-4.382168
G03 X5.526300 Y8.150949 Z-1.000000 I23.607517 J2.824495
G03 X5.659899 Y7.630918 Z-1.000000 I2.556913 J0.379710
G03 X5.763717 Y7.461477 Z-1.000000 I0.482817 J0.179299
G03 X5.918172 Y7.313909 Z-1.000000 I1.222113 J1.124537
G00 Z0.000000

(End cutting path id: path862)


(Start cutting path id: path862)
(Change tool to Default tool)

G00 Z0.000000
G00 X9.561945 Y10.561621

G01 Z-1.000000 F100.0(Penetrate)
G03 X9.631770 Y10.488496 Z-1.000000 I2.317817 J2.143310 F400.000000
G02 X9.754115 Y10.244770 Z-1.000000 I-0.315238 J-0.310813
G02 X9.788210 Y8.997106 Z-1.000000 I-4.953745 J-0.759672
G03 X9.878795 Y8.541700 Z-1.000000 I0.797692 J-0.078043
G00 Z0.000000

(End cutting path id: path862)


(Start cutting path id: path862)
(Change tool to Default tool)

G00 Z0.000000
G00 X9.561945 Y10.561621

G01 Z-1.000000 F100.0(Penetrate)
G03 X9.631770 Y10.488496 Z-1.000000 I2.317817 J2.143310 F400.000000
G02 X9.754115 Y10.244770 Z-1.000000 I-0.315238 J-0.310813
G02 X9.788210 Y8.997106 Z-1.000000 I-4.953745 J-0.759672
G03 X9.878795 Y8.541700 Z-1.000000 I0.797692 J-0.078043
G00 Z0.000000

(End cutting path id: path862)


(Start cutting path id: path862)
(Change tool to Default tool)

G00 Z0.000000
G00 X13.443361 Y10.403195

G01 Z-1.000000 F100.0(Penetrate)
G03 X13.416849 Y10.257830 Z-1.000000 I6.536081 J-1.267163 F400.000000
G02 X13.320542 Y9.848707 Z-1.000000 I-3.349294 J0.572522
G02 X13.045385 Y9.251554 Z-1.000000 I-2.274833 J0.686232
G03 X12.736389 Y8.739731 Z-1.000000 I9.169395 J-5.884889
G03 X12.622017 Y8.526534 Z-1.000000 I4.492441 J-2.547292
G03 X12.525406 Y8.304062 Z-1.000000 I1.826178 J-0.925255
G02 X12.439682 Y8.088157 Z-1.000000 I-3.957978 J1.446518
G03 X12.351218 Y7.868393 Z-1.000000 I4.769130 J-2.047466
G03 X12.126122 Y6.988927 Z-1.000000 I3.894511 J-1.465326
G03 X12.057181 Y6.046504 Z-1.000000 I6.859749 J-0.975541
G03 X12.057390 Y5.860201 Z-1.000000 I15.644315 J-0.075606
G02 X12.056983 Y5.690047 Z-1.000000 I-8.986072 J-0.063585
G02 X12.036838 Y5.363596 Z-1.000000 I-3.300432 J0.039822
G03 X12.017533 Y5.016740 Z-1.000000 I3.106388 J-0.346856
G03 X12.018333 Y4.655923 Z-1.000000 I81.349228 J0.000000
G03 X12.047393 Y4.303827 Z-1.000000 I2.269543 J0.010066
G02 X12.076274 Y4.046132 Z-1.000000 I-2.625019 J-0.424664
G03 X12.102403 Y3.789143 Z-1.000000 I3.349510 J0.210733
G03 X12.182763 Y3.595764 Z-1.000000 I0.412983 J0.058232
G02 X12.215558 Y3.551308 Z-1.000000 I-1.829718 J-1.384084
G00 Z0.000000

(End cutting path id: path862)


(Start cutting path id: path862)
(Change tool to Default tool)

G00 Z0.000000
G00 X13.443361 Y10.403195

G01 Z-1.000000 F100.0(Penetrate)
G03 X13.416849 Y10.257830 Z-1.000000 I6.536081 J-1.267163 F400.000000
G02 X13.320542 Y9.848707 Z-1.000000 I-3.349294 J0.572522
G02 X13.045385 Y9.251554 Z-1.000000 I-2.274833 J0.686232
G03 X12.736389 Y8.739731 Z-1.000000 I9.169395 J-5.884889
G03 X12.622017 Y8.526534 Z-1.000000 I4.492441 J-2.547292
G03 X12.525406 Y8.304062 Z-1.000000 I1.826178 J-0.925255
G02 X12.439682 Y8.088157 Z-1.000000 I-3.957978 J1.446518
G03 X12.351218 Y7.868393 Z-1.000000 I4.769130 J-2.047466
G03 X12.126122 Y6.988927 Z-1.000000 I3.894511 J-1.465326
G03 X12.057181 Y6.046504 Z-1.000000 I6.859749 J-0.975541
G03 X12.057390 Y5.860201 Z-1.000000 I15.644315 J-0.075606
G02 X12.056983 Y5.690047 Z-1.000000 I-8.986072 J-0.063585
G02 X12.036838 Y5.363596 Z-1.000000 I-3.300432 J0.039822
G03 X12.017533 Y5.016740 Z-1.000000 I3.106388 J-0.346856
G03 X12.018333 Y4.655923 Z-1.000000 I81.349228 J0.000000
G03 X12.047393 Y4.303827 Z-1.000000 I2.269543 J0.010066
G02 X12.076274 Y4.046132 Z-1.000000 I-2.625019 J-0.424664
G03 X12.102403 Y3.789143 Z-1.000000 I3.349510 J0.210733
G03 X12.182763 Y3.595764 Z-1.000000 I0.412983 J0.058232
G02 X12.215558 Y3.551308 Z-1.000000 I-1.829718 J-1.384084
G00 Z0.000000

(End cutting path id: path862)


(Start cutting path id: path862)
(Change tool to Default tool)

G00 Z0.000000
G00 X14.988006 Y11.947843

G01 Z-1.000000 F100.0(Penetrate)
G02 X14.881540 Y11.841386 Z-1.000000 I-502.236283 J502.242179 F400.000000
G03 X14.750171 Y11.710007 Z-1.000000 I363.230823 J-363.367269
G03 X14.109314 Y11.047142 Z-1.000000 I19.558004 J-19.549874
G02 X13.760212 Y10.708760 Z-1.000000 I-3.614629 J3.379870
G03 X13.674811 Y10.625235 Z-1.000000 I0.738298 J-0.840295
G02 X13.482968 Y10.477855 Z-1.000000 I-0.518476 J0.476347
G02 X13.329846 Y10.434863 Z-1.000000 I-0.178075 J0.340060
G03 X13.284936 Y10.430245 Z-1.000000 I0.039229 J-0.602197
G02 X13.164095 Y10.413185 Z-1.000000 I-30.057861 J212.469083
G03 X12.888873 Y10.366045 Z-1.000000 I0.656693 J-4.661061
G03 X12.577425 Y10.255234 Z-1.000000 I0.230598 J-1.141209
G02 X12.255173 Y10.097118 Z-1.000000 I-2.971043 J5.647773
G03 X12.029534 Y9.978341 Z-1.000000 I0.934335 J-2.048648
G02 X11.819504 Y9.852232 Z-1.000000 I-136.046218 J226.342742
G03 X11.528037 Y9.669769 Z-1.000000 I4.662861 J-7.772523
G03 X11.225409 Y9.464289 Z-1.000000 I5.497547 J-8.422274
G03 X10.897019 Y9.217499 Z-1.000000 I3.970994 J-5.625851
G03 X10.591709 Y8.966794 Z-1.000000 I9.342896 J-11.689119
G02 X10.197294 Y8.699531 Z-1.000000 I-1.461954 J1.732828
G03 X10.116631 Y8.654301 Z-1.000000 I1.048441 J-1.964311
G02 X10.082946 Y8.636195 Z-1.000000 I-0.249606 J0.423992
G03 X9.940740 Y8.526253 Z-1.000000 I0.194872 J-0.399000
G03 X9.885121 Y8.432736 Z-1.000000 I0.240423 J-0.206290
G03 X9.858319 Y8.343510 Z-1.000000 I0.603799 J-0.230009
G03 X9.791845 Y7.894756 Z-1.000000 I3.064893 J-0.683302
G02 X9.743144 Y7.432724 Z-1.000000 I-7.657407 J0.573560
G02 X9.637259 Y6.714573 Z-1.000000 I-32.759488 J4.463218
G02 X9.516596 Y5.967291 Z-1.000000 I-137.306752 J21.787393
G02 X9.458619 Y5.709992 Z-1.000000 I-2.214221 J0.363749
G03 X9.378687 Y5.412803 Z-1.000000 I8.358781 J-2.407521
G03 X9.205836 Y4.704036 Z-1.000000 I61.085081 J-15.272625
G02 X9.007457 Y4.185008 Z-1.000000 I-2.058801 J0.489473
G00 Z0.000000

(End cutting path id: path862)


(Start cutting path id: path862)
(Change tool to Default tool)

G00 Z0.000000
G00 X14.988006 Y11.947843

G01 Z-1.000000 F100.0(Penetrate)
G02 X14.881540 Y11.841386 Z-1.000000 I-502.236283 J502.242179 F400.000000
G03 X14.750171 Y11.710007 Z-1.000000 I363.230823 J-363.367269
G03 X14.109314 Y11.047142 Z-1.000000 I19.558004 J-19.549874
G02 X13.760212 Y10.708760 Z-1.000000 I-3.614629 J3.379870
G03 X13.674811 Y10.625235 Z-1.000000 I0.738298 J-0.840295
G02 X13.482968 Y10.477855 Z-1.000000 I-0.518476 J0.476347
G02 X13.329846 Y10.434863 Z-1.000000 I-0.178075 J0.340060
G03 X13.284936 Y10.430245 Z-1.000000 I0.039229 J-0.602197
G02 X13.164095 Y10.413185 Z-1.000000 I-30.057861 J212.469083
G03 X12.888873 Y10.366045 Z-1.000000 I0.656693 J-4.661061
G03 X12.577425 Y10.255234 Z-1.000000 I0.230598 J-1.141209
G02 X12.255173 Y10.097118 Z-1.000000 I-2.971043 J5.647773
G03 X12.029534 Y9.978341 Z-1.000000 I0.934335 J-2.048648
G02 X11.819504 Y9.852232 Z-1.000000 I-136.046218 J226.342742
G03 X11.528037 Y9.669769 Z-1.000000 I4.662861 J-7.772523
G03 X11.225409 Y9.464289 Z-1.000000 I5.497547 J-8.422274
G03 X10.897019 Y9.217499 Z-1.000000 I3.970994 J-5.625851
G03 X10.591709 Y8.966794 Z-1.000000 I9.342896 J-11.689119
G02 X10.197294 Y8.699531 Z-1.000000 I-1.461954 J1.732828
G03 X10.116631 Y8.654301 Z-1.000000 I1.048441 J-1.964311
G02 X10.082946 Y8.636195 Z-1.000000 I-0.249606 J0.423992
G03 X9.940740 Y8.526253 Z-1.000000 I0.194872 J-0.399000
G03 X9.885121 Y8.432736 Z-1.000000 I0.240423 J-0.206290
G03 X9.858319 Y8.343510 Z-1.000000 I0.603799 J-0.230009
G03 X9.791845 Y7.894756 Z-1.000000 I3.064893 J-0.683302
G02 X9.743144 Y7.432724 Z-1.000000 I-7.657407 J0.573560
G02 X9.637259 Y6.714573 Z-1.000000 I-32.759488 J4.463218
G02 X9.516596 Y5.967291 Z-1.000000 I-137.306752 J21.787393
G02 X9.458619 Y5.709992 Z-1.000000 I-2.214221 J0.363749
G03 X9.378687 Y5.412803 Z-1.000000 I8.358781 J-2.407521
G03 X9.205836 Y4.704036 Z-1.000000 I61.085081 J-15.272625
G02 X9.007457 Y4.185008 Z-1.000000 I-2.058801 J0.489473
G00 Z0.000000

(End cutting path id: path862)


(Start cutting path id: path862)
(Change tool to Default tool)

G00 Z0.000000
G00 X9.047069 Y13.769734

