%
(Header)
(Generated by gcodetools from Inkscape.)
(Using default header. To add your own header create file "header" in the output dir.)
M3
(Header end.)
G21 (All units in mm)

(Start cutting path id: path24)
(Change tool to Cone cutter)

G00 Z0.000000
G00 X7.006208 Y0.276276

G01 Z-1.000000 F100.0(Penetrate)
G02 X6.056618 Y0.681521 Z-1.000000 I1.253537 J4.252535 F400.000000
G02 X5.320176 Y1.241773 Z-1.000000 I1.769668 J3.090348
G01 X5.062652 Y1.496854 Z-1.000000
G01 X5.179997 Y1.173752 Z-1.000000
G03 X5.298539 Y0.851115 Z-1.000000 I43.131100 J15.664046
G03 X5.323901 Y0.786566 Z-1.000000 I1.755111 J0.652331
G01 X5.304352 Y0.754355 Z-1.000000
G02 X4.792396 Y0.740206 Z-1.000000 I-0.374982 J4.299000
G02 X4.237947 Y0.782417 Z-1.000000 I0.199210 J6.279181
G02 X3.895419 Y0.848586 Z-1.000000 I0.296752 J2.455797
G02 X2.404333 Y1.680607 Z-1.000000 I0.900422 J3.365786
G02 X1.626916 Y2.989724 Z-1.000000 I1.901470 J2.014578
G02 X1.537200 Y3.548553 Z-1.000000 I2.787980 J0.734207
G02 X1.559328 Y4.098677 Z-1.000000 I2.723266 J0.165966
G02 X2.418878 Y6.077095 Z-1.000000 I4.023805 J-0.572266
G02 X4.909816 Y8.255130 Z-1.000000 I7.445615 J-6.001860
G02 X5.349845 Y8.510715 Z-1.000000 I7.165091 J-11.829201
G02 X5.385968 Y8.520103 Z-1.000000 I0.036175 J-0.065006
G01 X5.388180 Y8.528321 Z-1.000000
G03 X5.216571 Y8.618595 Z-1.000000 I-1.150363 J-1.978568
G02 X5.022382 Y8.734289 Z-1.000000 I0.507256 J1.072235
G02 X4.914682 Y8.839975 Z-1.000000 I0.312575 J0.426249
G02 X4.850287 Y8.971266 Z-1.000000 I0.299116 J0.228147
G02 X4.837096 Y9.131173 Z-1.000000 I0.437595 J0.116595
G02 X4.936435 Y9.384260 Z-1.000000 I0.492678 J-0.047341
G02 X5.256350 Y9.680086 Z-1.000000 I1.010245 J-0.771614
G01 X5.478883 Y9.824000 Z-1.000000
G01 X5.383771 Y9.881993 Z-1.000000
G02 X4.298356 Y10.591577 Z-1.000000 I10.725218 J17.590778
G02 X3.694787 Y11.063661 Z-1.000000 I4.123813 J5.894255
G02 X2.516584 Y12.915413 Z-1.000000 I2.546859 J2.921176
G02 X2.822431 Y14.102289 Z-1.000000 I1.161653 J0.333498
G02 X3.290814 Y14.453308 Z-1.000000 I1.447269 J-1.443165
G02 X3.783685 Y14.626737 Z-1.000000 I0.780020 J-1.429685
G03 X3.904788 Y14.654978 Z-1.000000 I-0.211067 J1.178884
G01 X3.911226 Y14.663537 Z-1.000000
G01 X3.907104 Y14.676114 Z-1.000000
G03 X3.745468 Y14.889324 Z-1.000000 I-7.041587 J-5.170417
G02 X2.919961 Y16.159082 Z-1.000000 I6.824261 J5.339870
G02 X2.418582 Y17.383202 Z-1.000000 I5.835844 J3.105002
G02 X2.290811 Y17.891982 Z-1.000000 I5.922031 J1.757648
G02 X2.120882 Y18.825336 Z-1.000000 I19.786005 J4.084451
G02 X2.080870 Y19.218173 Z-1.000000 I3.540535 J0.559068
G02 X2.058515 Y20.168761 Z-1.000000 I20.758531 J0.963739
G02 X2.121532 Y21.353912 Z-1.000000 I11.043393 J0.007055
G02 X2.294512 Y22.368321 Z-1.000000 I8.254519 J-0.885636
G02 X2.910375 Y24.516237 Z-1.000000 I22.515176 J-5.293435
G02 X3.061046 Y24.624171 Z-1.000000 I0.150671 J-0.051198
G01 X3.088923 Y24.596399 Z-1.000000
G02 X3.062906 Y24.131015 Z-1.000000 I-3.911770 J-0.014737
G03 X3.219914 Y22.822643 Z-1.000000 I2.812564 J-0.326090
G03 X3.864465 Y21.964035 Z-1.000000 I1.762714 J0.652022
G03 X4.431469 Y21.628551 Z-1.000000 I1.907633 J2.577215
G03 X5.917850 Y21.018923 Z-1.000000 I7.971805 J17.319822
G02 X7.685260 Y20.297459 Z-1.000000 I-8.022394 J-22.178508
G02 X8.785658 Y19.710481 Z-1.000000 I-4.178408 J-9.158129
G03 X9.175163 Y19.476973 Z-1.000000 I9.953195 J16.160898
G01 X9.195258 Y19.471540 Z-1.000000
G01 X9.208031 Y19.480406 Z-1.000000
G03 X9.216898 Y19.529512 Z-1.000000 I-0.131540 J0.049107
G02 X9.254080 Y19.781533 Z-1.000000 I0.872700 J0.000000
G02 X9.574921 Y20.716461 Z-1.000000 I12.578907 J-3.794218
G02 X10.111395 Y21.868159 Z-1.000000 I8.758626 J-3.379066
G02 X11.021039 Y23.340786 Z-1.000000 I15.260797 J-8.409364
G02 X11.415586 Y23.832617 Z-1.000000 I3.557386 J-2.449564
G01 X11.461609 Y23.814524 Z-1.000000
G02 X11.454288 Y23.771542 Z-1.000000 I-0.129829 J0.000000
G02 X11.341598 Y23.472494 Z-1.000000 I-6.572768 J2.306042
G03 X11.091134 Y22.279859 Z-1.000000 I3.222275 J-1.299325
G03 X11.279008 Y21.435094 Z-1.000000 I1.751238 J-0.053802
G03 X11.723087 Y20.853789 Z-1.000000 I1.783977 J0.902564
G03 X13.417232 Y19.504330 Z-1.000000 I11.746233 J13.008359
G02 X14.583547 Y18.620805 Z-1.000000 I-11.189947 J-15.983086
G02 X15.409267 Y17.874211 Z-1.000000 I-7.152269 J-8.740194
G02 X16.795838 Y16.244435 Z-1.000000 I-9.291583 J-9.309756
G02 X17.684530 Y14.710714 Z-1.000000 I-7.327723 J-5.270272
G02 X18.072521 Y13.666564 Z-1.000000 I-7.143142 J-3.248452
G02 X18.313149 Y12.562995 Z-1.000000 I-7.743351 J-2.266416
G02 X18.378787 Y11.335884 Z-1.000000 I-6.676626 J-0.972444
G02 X18.226659 Y10.273434 Z-1.000000 I-5.142704 J0.194248
G03 X18.196646 Y10.118644 Z-1.000000 I1.385703 J-0.348986
G01 X18.202889 Y10.100105 Z-1.000000
G03 X18.308535 Y10.103768 Z-1.000000 I0.051115 J0.051115
G03 X18.816101 Y10.804804 Z-1.000000 I-3.655634 J3.181021
G02 X19.159450 Y11.258399 Z-1.000000 I2.212230 J-1.317804
G02 X19.436641 Y11.459493 Z-1.000000 I0.677210 J-0.641886
G03 X19.532061 Y11.537446 Z-1.000000 I-0.110294 J0.232384
G03 X19.739248 Y11.862598 Z-1.000000 I-2.013801 J1.511781
G03 X20.153447 Y12.797998 Z-1.000000 I-6.115403 J3.267332
G03 X20.677208 Y14.488967 Z-1.000000 I-19.551696 J6.982541
G02 X20.972250 Y15.500976 Z-1.000000 I19.638534 J-5.176426
G02 X21.174056 Y16.041989 Z-1.000000 I5.804070 J-1.856857
G02 X21.678669 Y16.857107 Z-1.000000 I2.950812 J-1.262998
G02 X22.233239 Y17.288778 Z-1.000000 I1.314557 J-1.116754
G03 X22.388018 Y17.393437 Z-1.000000 I-0.298551 J0.608303
G03 X22.430373 Y17.466215 Z-1.000000 I-0.092086 J0.102306
G02 X22.465276 Y17.548250 Z-1.000000 I0.235289 J-0.051664
G02 X22.564789 Y17.667674 Z-1.000000 I0.609249 J-0.406498
G02 X23.060806 Y17.754931 Z-1.000000 I0.312379 J-0.322293
G02 X23.337406 Y17.321242 Z-1.000000 I-0.191563 J-0.427226
G02 X23.089247 Y16.915760 Z-1.000000 I-0.465969 J0.006498
G02 X22.628539 Y16.946502 Z-1.000000 I-0.205450 J0.388601
G03 X22.517245 Y16.994950 Z-1.000000 I-0.169854 J-0.238130
G03 X22.427170 Y16.987652 Z-1.000000 I-0.032462 J-0.158858
G03 X22.161830 Y16.833064 Z-1.000000 I0.333732 J-0.877841
G03 X21.848837 Y16.508625 Z-1.000000 I1.291169 J-1.558815
G03 X21.557665 Y15.988524 Z-1.000000 I1.629195 J-1.253637
G03 X21.003053 Y14.294394 Z-1.000000 I17.175486 J-6.560639
G02 X20.438053 Y12.505504 Z-1.000000 I-23.782495 J6.527758
G02 X20.081110 Y11.720615 Z-1.000000 I-4.904686 J1.756888
G03 X20.004513 Y11.571813 Z-1.000000 I2.129394 J-1.190229
G01 X20.006330 Y11.562198 Z-1.000000
G01 X20.016852 Y11.556668 Z-1.000000
G03 X20.100100 Y11.541858 Z-1.000000 I0.239980 J1.107588
G03 X20.170432 Y11.562078 Z-1.000000 I0.012418 J0.089233
G03 X20.308886 Y11.717089 Z-1.000000 I-0.466860 J0.556333
G03 X20.425561 Y11.908408 Z-1.000000 I-2.470373 J1.637775
G03 X20.603630 Y12.244256 Z-1.000000 I-7.442422 J4.161167
G03 X20.787666 Y12.647352 Z-1.000000 I-5.363017 J2.692083
G03 X21.172028 Y13.621692 Z-1.000000 I-30.992585 J12.789066
G02 X21.570758 Y14.544942 Z-1.000000 I9.897997 J-3.726991
G02 X21.788059 Y14.880090 Z-1.000000 I1.498536 J-0.733588
G02 X22.340335 Y15.345695 Z-1.000000 I1.591880 J-1.327860
G02 X22.962910 Y15.561106 Z-1.000000 I0.864685 J-1.491707
G03 X23.193333 Y15.619847 Z-1.000000 I-0.153918 J1.085095
G03 X23.316243 Y15.693426 Z-1.000000 I-0.139449 J0.372388
G02 X23.822545 Y15.773233 Z-1.000000 I0.316208 J-0.360140
G02 X24.096622 Y15.356241 Z-1.000000 I-0.180175 J-0.416992
G02 X23.751607 Y14.905205 Z-1.000000 I-0.467325 J-0.000000
G02 X23.234594 Y15.122479 Z-1.000000 I-0.119292 J0.439904
G03 X23.159445 Y15.185311 Z-1.000000 I-0.120007 J-0.067177
G03 X23.008278 Y15.200561 Z-1.000000 I-0.107903 J-0.312725
G03 X22.309135 Y14.826974 Z-1.000000 I0.147283 J-1.116621
G03 X21.517773 Y13.502658 Z-1.000000 I3.206030 J-2.814408
G02 X20.960081 Y12.151886 Z-1.000000 I-19.711632 J7.347814
G02 X20.629536 Y11.546795 Z-1.000000 I-4.263770 J1.936352
G01 X20.486534 Y11.325482 Z-1.000000
G01 X20.548344 Y11.223692 Z-1.000000
G02 X20.543355 Y10.732090 Z-1.000000 I-0.398150 J-0.241786
G02 X19.736256 Y9.945628 Z-1.000000 I-2.065756 J1.312593
G03 X19.060928 Y9.497722 Z-1.000000 I4.583379 J-7.643640
G03 X18.697867 Y9.186764 Z-1.000000 I1.829872 J-2.503899
G03 X18.269476 Y8.635010 Z-1.000000 I1.977714 J-1.977709
G03 X17.737466 Y7.566217 Z-1.000000 I7.028420 J-4.165325
G02 X17.328104 Y6.671730 Z-1.000000 I-11.251182 J4.608190
G02 X17.002364 Y6.117858 Z-1.000000 I-4.625942 J2.347859
G02 X16.461230 Y5.499347 Z-1.000000 I-2.728452 J1.841143
G02 X15.455328 Y4.742112 Z-1.000000 I-5.134028 J5.773250
G03 X14.753218 Y4.224583 Z-1.000000 I3.262540 J-5.161178
G03 X14.407758 Y3.847718 Z-1.000000 I1.362037 J-1.595304
G02 X13.954672 Y3.378943 Z-1.000000 I-1.792271 J1.278939
G02 X13.670012 Y3.282422 Z-1.000000 I-0.284660 J0.371498
G02 X13.494141 Y3.358891 Z-1.000000 I-0.000000 J0.240476
G02 X13.335498 Y3.641131 Z-1.000000 I0.501294 J0.467477
G02 X13.256412 Y4.095672 Z-1.000000 I2.194661 J0.616004
G02 X13.256518 Y4.753388 Z-1.000000 I4.620486 J0.328110
G01 X13.280078 Y5.119004 Z-1.000000
G01 X13.277775 Y5.118628 Z-1.000000
G03 X12.922268 Y4.998741 Z-1.000000 I53.042074 J-157.876185
G02 X12.131376 Y4.767237 Z-1.000000 I-3.174801 J9.379411
G02 X11.284563 Y4.592524 Z-1.000000 I-2.624234 J10.579803
G03 X8.506664 Y3.412122 Z-1.000000 I1.043743 J-6.315176
G03 X7.445090 Y1.734933 Z-1.000000 I1.652777 J-2.220679
G03 X7.369458 Y1.026162 Z-1.000000 I3.832409 J-0.767373
G03 X7.424060 Y0.331989 Z-1.000000 I3.729012 J-0.055917
G02 X7.413965 Y0.217769 Z-1.000000 I-0.219641 J-0.038144
G01 X7.372240 Y0.189254 Z-1.000000
G02 X7.296561 Y0.199032 Z-1.000000 I0.008572 J0.364113
G02 X7.006222 Y0.276274 Z-1.000000 I1.307357 J5.498374
G01 X7.006208 Y0.276276 Z-1.000000
G00 Z0.000000

(End cutting path id: path24)


(Start cutting path id: path24)
(Change tool to Cone cutter)

G00 Z0.000000
G00 X7.006208 Y0.276276

G01 Z-1.000000 F100.0(Penetrate)
G02 X6.056618 Y0.681521 Z-1.000000 I1.253537 J4.252535 F400.000000
G02 X5.320176 Y1.241773 Z-1.000000 I1.769668 J3.090348
G01 X5.062652 Y1.496854 Z-1.000000
G01 X5.179997 Y1.173752 Z-1.000000
G03 X5.298539 Y0.851115 Z-1.000000 I43.131100 J15.664046
G03 X5.323901 Y0.786566 Z-1.000000 I1.755111 J0.652331
G01 X5.304352 Y0.754355 Z-1.000000
G02 X4.792396 Y0.740206 Z-1.000000 I-0.374982 J4.299000
G02 X4.237947 Y0.782417 Z-1.000000 I0.199210 J6.279181
G02 X3.895419 Y0.848586 Z-1.000000 I0.296752 J2.455797
G02 X2.404333 Y1.680607 Z-1.000000 I0.900422 J3.365786
G02 X1.626916 Y2.989724 Z-1.000000 I1.901470 J2.014578
G02 X1.537200 Y3.548553 Z-1.000000 I2.787980 J0.734207
G02 X1.559328 Y4.098677 Z-1.000000 I2.723266 J0.165966
G02 X2.418878 Y6.077095 Z-1.000000 I4.023805 J-0.572266
G02 X4.909816 Y8.255130 Z-1.000000 I7.445615 J-6.001860
G02 X5.349845 Y8.510715 Z-1.000000 I7.165091 J-11.829201
G02 X5.385968 Y8.520103 Z-1.000000 I0.036175 J-0.065006
G01 X5.388180 Y8.528321 Z-1.000000
G03 X5.216571 Y8.618595 Z-1.000000 I-1.150363 J-1.978568
G02 X5.022382 Y8.734289 Z-1.000000 I0.507256 J1.072235
G02 X4.914682 Y8.839975 Z-1.000000 I0.312575 J0.426249
G02 X4.850287 Y8.971266 Z-1.000000 I0.299116 J0.228147
G02 X4.837096 Y9.131173 Z-1.000000 I0.437595 J0.116595
G02 X4.936435 Y9.384260 Z-1.000000 I0.492678 J-0.047341
G02 X5.256350 Y9.680086 Z-1.000000 I1.010245 J-0.771614
G01 X5.478883 Y9.824000 Z-1.000000
G01 X5.383771 Y9.881993 Z-1.000000
G02 X4.298356 Y10.591577 Z-1.000000 I10.725218 J17.590778
G02 X3.694787 Y11.063661 Z-1.000000 I4.123813 J5.894255
G02 X2.516584 Y12.915413 Z-1.000000 I2.546859 J2.921176
G02 X2.822431 Y14.102289 Z-1.000000 I1.161653 J0.333498
G02 X3.290814 Y14.453308 Z-1.000000 I1.447269 J-1.443165
G02 X3.783685 Y14.626737 Z-1.000000 I0.780020 J-1.429685
G03 X3.904788 Y14.654978 Z-1.000000 I-0.211067 J1.178884
G01 X3.911226 Y14.663537 Z-1.000000
G01 X3.907104 Y14.676114 Z-1.000000
G03 X3.745468 Y14.889324 Z-1.000000 I-7.041587 J-5.170417
G02 X2.919961 Y16.159082 Z-1.000000 I6.824261 J5.339870
G02 X2.418582 Y17.383202 Z-1.000000 I5.835844 J3.105002
G02 X2.290811 Y17.891982 Z-1.000000 I5.922031 J1.757648
G02 X2.120882 Y18.825336 Z-1.000000 I19.786005 J4.084451
G02 X2.080870 Y19.218173 Z-1.000000 I3.540535 J0.559068
G02 X2.058515 Y20.168761 Z-1.000000 I20.758531 J0.963739
G02 X2.121532 Y21.353912 Z-1.000000 I11.043393 J0.007055
G02 X2.294512 Y22.368321 Z-1.000000 I8.254519 J-0.885636
G02 X2.910375 Y24.516237 Z-1.000000 I22.515176 J-5.293435
G02 X3.061046 Y24.624171 Z-1.000000 I0.150671 J-0.051198
G01 X3.088923 Y24.596399 Z-1.000000
G02 X3.062906 Y24.131015 Z-1.000000 I-3.911770 J-0.014737
G03 X3.219914 Y22.822643 Z-1.000000 I2.812564 J-0.326090
G03 X3.864465 Y21.964035 Z-1.000000 I1.762714 J0.652022
G03 X4.431469 Y21.628551 Z-1.000000 I1.907633 J2.577215
G03 X5.917850 Y21.018923 Z-1.000000 I7.971805 J17.319822
G02 X7.685260 Y20.297459 Z-1.000000 I-8.022394 J-22.178508
G02 X8.785658 Y19.710481 Z-1.000000 I-4.178408 J-9.158129
G03 X9.175163 Y19.476973 Z-1.000000 I9.953195 J16.160898
G01 X9.195258 Y19.471540 Z-1.000000
G01 X9.208031 Y19.480406 Z-1.000000
G03 X9.216898 Y19.529512 Z-1.000000 I-0.131540 J0.049107
G02 X9.254080 Y19.781533 Z-1.000000 I0.872700 J0.000000
G02 X9.574921 Y20.716461 Z-1.000000 I12.578907 J-3.794218
G02 X10.111395 Y21.868159 Z-1.000000 I8.758626 J-3.379066
G02 X11.021039 Y23.340786 Z-1.000000 I15.260797 J-8.409364
G02 X11.415586 Y23.832617 Z-1.000000 I3.557386 J-2.449564
G01 X11.461609 Y23.814524 Z-1.000000
G02 X11.454288 Y23.771542 Z-1.000000 I-0.129829 J0.000000
G02 X11.341598 Y23.472494 Z-1.000000 I-6.572768 J2.306042
G03 X11.091134 Y22.279859 Z-1.000000 I3.222275 J-1.299325
G03 X11.279008 Y21.435094 Z-1.000000 I1.751238 J-0.053802
G03 X11.723087 Y20.853789 Z-1.000000 I1.783977 J0.902564
G03 X13.417232 Y19.504330 Z-1.000000 I11.746233 J13.008359
G02 X14.583547 Y18.620805 Z-1.000000 I-11.189947 J-15.983086
G02 X15.409267 Y17.874211 Z-1.000000 I-7.152269 J-8.740194
G02 X16.795838 Y16.244435 Z-1.000000 I-9.291583 J-9.309756
G02 X17.684530 Y14.710714 Z-1.000000 I-7.327723 J-5.270272
G02 X18.072521 Y13.666564 Z-1.000000 I-7.143142 J-3.248452
G02 X18.313149 Y12.562995 Z-1.000000 I-7.743351 J-2.266416
G02 X18.378787 Y11.335884 Z-1.000000 I-6.676626 J-0.972444
G02 X18.226659 Y10.273434 Z-1.000000 I-5.142704 J0.194248
G03 X18.196646 Y10.118644 Z-1.000000 I1.385703 J-0.348986
G01 X18.202889 Y10.100105 Z-1.000000
G03 X18.308535 Y10.103768 Z-1.000000 I0.051115 J0.051115
G03 X18.816101 Y10.804804 Z-1.000000 I-3.655634 J3.181021
G02 X19.159450 Y11.258399 Z-1.000000 I2.212230 J-1.317804
G02 X19.436641 Y11.459493 Z-1.000000 I0.677210 J-0.641886
G03 X19.532061 Y11.537446 Z-1.000000 I-0.110294 J0.232384
G03 X19.739248 Y11.862598 Z-1.000000 I-2.013801 J1.511781
G03 X20.153447 Y12.797998 Z-1.000000 I-6.115403 J3.267332
G03 X20.677208 Y14.488967 Z-1.000000 I-19.551696 J6.982541
G02 X20.972250 Y15.500976 Z-1.000000 I19.638534 J-5.176426
G02 X21.174056 Y16.041989 Z-1.000000 I5.804070 J-1.856857
G02 X21.678669 Y16.857107 Z-1.000000 I2.950812 J-1.262998
G02 X22.233239 Y17.288778 Z-1.000000 I1.314557 J-1.116754
G03 X22.388018 Y17.393437 Z-1.000000 I-0.298551 J0.608303
G03 X22.430373 Y17.466215 Z-1.000000 I-0.092086 J0.102306
G02 X22.465276 Y17.548250 Z-1.000000 I0.235289 J-0.051664
G02 X22.564789 Y17.667674 Z-1.000000 I0.609249 J-0.406498
G02 X23.060806 Y17.754931 Z-1.000000 I0.312379 J-0.322293
G02 X23.337406 Y17.321242 Z-1.000000 I-0.191563 J-0.427226
G02 X23.089247 Y16.915760 Z-1.000000 I-0.465969 J0.006498
G02 X22.628539 Y16.946502 Z-1.000000 I-0.205450 J0.388601
G03 X22.517245 Y16.994950 Z-1.000000 I-0.169854 J-0.238130
G03 X22.427170 Y16.987652 Z-1.000000 I-0.032462 J-0.158858
G03 X22.161830 Y16.833064 Z-1.000000 I0.333732 J-0.877841
G03 X21.848837 Y16.508625 Z-1.000000 I1.291169 J-1.558815
G03 X21.557665 Y15.988524 Z-1.000000 I1.629195 J-1.253637
G03 X21.003053 Y14.294394 Z-1.000000 I17.175486 J-6.560639
G02 X20.438053 Y12.505504 Z-1.000000 I-23.782495 J6.527758
G02 X20.081110 Y11.720615 Z-1.000000 I-4.904686 J1.756888
G03 X20.004513 Y11.571813 Z-1.000000 I2.129394 J-1.190229
G01 X20.006330 Y11.562198 Z-1.000000
G01 X20.016852 Y11.556668 Z-1.000000
G03 X20.100100 Y11.541858 Z-1.000000 I0.239980 J1.107588
G03 X20.170432 Y11.562078 Z-1.000000 I0.012418 J0.089233
G03 X20.308886 Y11.717089 Z-1.000000 I-0.466860 J0.556333
G03 X20.425561 Y11.908408 Z-1.000000 I-2.470373 J1.637775
G03 X20.603630 Y12.244256 Z-1.000000 I-7.442422 J4.161167
G03 X20.787666 Y12.647352 Z-1.000000 I-5.363017 J2.692083
G03 X21.172028 Y13.621692 Z-1.000000 I-30.992585 J12.789066
G02 X21.570758 Y14.544942 Z-1.000000 I9.897997 J-3.726991
G02 X21.788059 Y14.880090 Z-1.000000 I1.498536 J-0.733588
G02 X22.340335 Y15.345695 Z-1.000000 I1.591880 J-1.327860
G02 X22.962910 Y15.561106 Z-1.000000 I0.864685 J-1.491707
G03 X23.193333 Y15.619847 Z-1.000000 I-0.153918 J1.085095
G03 X23.316243 Y15.693426 Z-1.000000 I-0.139449 J0.372388
G02 X23.822545 Y15.773233 Z-1.000000 I0.316208 J-0.360140
G02 X24.096622 Y15.356241 Z-1.000000 I-0.180175 J-0.416992
G02 X23.751607 Y14.905205 Z-1.000000 I-0.467325 J-0.000000
G02 X23.234594 Y15.122479 Z-1.000000 I-0.119292 J0.439904
G03 X23.159445 Y15.185311 Z-1.000000 I-0.120007 J-0.067177
G03 X23.008278 Y15.200561 Z-1.000000 I-0.107903 J-0.312725
G03 X22.309135 Y14.826974 Z-1.000000 I0.147283 J-1.116621
G03 X21.517773 Y13.502658 Z-1.000000 I3.206030 J-2.814408
G02 X20.960081 Y12.151886 Z-1.000000 I-19.711632 J7.347814
G02 X20.629536 Y11.546795 Z-1.000000 I-4.263770 J1.936352
G01 X20.486534 Y11.325482 Z-1.000000
G01 X20.548344 Y11.223692 Z-1.000000
G02 X20.543355 Y10.732090 Z-1.000000 I-0.398150 J-0.241786
G02 X19.736256 Y9.945628 Z-1.000000 I-2.065756 J1.312593
G03 X19.060928 Y9.497722 Z-1.000000 I4.583379 J-7.643640
G03 X18.697867 Y9.186764 Z-1.000000 I1.829872 J-2.503899
G03 X18.269476 Y8.635010 Z-1.000000 I1.977714 J-1.977709
G03 X17.737466 Y7.566217 Z-1.000000 I7.028420 J-4.165325
G02 X17.328104 Y6.671730 Z-1.000000 I-11.251182 J4.608190
G02 X17.002364 Y6.117858 Z-1.000000 I-4.625942 J2.347859
G02 X16.461230 Y5.499347 Z-1.000000 I-2.728452 J1.841143
G02 X15.455328 Y4.742112 Z-1.000000 I-5.134028 J5.773250
G03 X14.753218 Y4.224583 Z-1.000000 I3.262540 J-5.161178
G03 X14.407758 Y3.847718 Z-1.000000 I1.362037 J-1.595304
G02 X13.954672 Y3.378943 Z-1.000000 I-1.792271 J1.278939
G02 X13.670012 Y3.282422 Z-1.000000 I-0.284660 J0.371498
G02 X13.494141 Y3.358891 Z-1.000000 I-0.000000 J0.240476
G02 X13.335498 Y3.641131 Z-1.000000 I0.501294 J0.467477
G02 X13.256412 Y4.095672 Z-1.000000 I2.194661 J0.616004
G02 X13.256518 Y4.753388 Z-1.000000 I4.620486 J0.328110
G01 X13.280078 Y5.119004 Z-1.000000
G01 X13.277775 Y5.118628 Z-1.000000
G03 X12.922268 Y4.998741 Z-1.000000 I53.042074 J-157.876185
G02 X12.131376 Y4.767237 Z-1.000000 I-3.174801 J9.379411
G02 X11.284563 Y4.592524 Z-1.000000 I-2.624234 J10.579803
G03 X8.506664 Y3.412122 Z-1.000000 I1.043743 J-6.315176
G03 X7.445090 Y1.734933 Z-1.000000 I1.652777 J-2.220679
G03 X7.369458 Y1.026162 Z-1.000000 I3.832409 J-0.767373
G03 X7.424060 Y0.331989 Z-1.000000 I3.729012 J-0.055917
G02 X7.413965 Y0.217769 Z-1.000000 I-0.219641 J-0.038144
G01 X7.372240 Y0.189254 Z-1.000000
G02 X7.296561 Y0.199032 Z-1.000000 I0.008572 J0.364113
G02 X7.006222 Y0.276274 Z-1.000000 I1.307357 J5.498374
G01 X7.006208 Y0.276276 Z-1.000000
G00 Z0.000000

(End cutting path id: path24)


(Start cutting path id: path24)
(Change tool to Cone cutter)

G00 Z0.000000
G00 X7.283317 Y0.833890

G01 Z-1.000000 F100.0(Penetrate)
G02 X7.377380 Y1.874991 Z-1.000000 I4.573641 J0.111573 F400.000000
G02 X7.671529 Y2.704756 Z-1.000000 I3.177158 J-0.659271
G02 X8.011672 Y3.209395 Z-1.000000 I2.329091 J-1.202931
G02 X8.514276 Y3.686374 Z-1.000000 I2.578418 J-2.213648
G02 X9.588083 Y4.270969 Z-1.000000 I2.364748 J-3.065154
G02 X11.510451 Y4.746141 Z-1.000000 I3.386478 J-9.574252
G03 X12.169084 Y4.882833 Z-1.000000 I-0.809266 J5.554477
G03 X13.060192 Y5.166032 Z-1.000000 I-2.836045 J10.467398
G03 X14.913906 Y6.050461 Z-1.000000 I-3.746900 J10.238151
G03 X16.259983 Y7.081930 Z-1.000000 I-3.818127 J6.376748
G03 X17.279279 Y8.319022 Z-1.000000 I-4.918871 J5.091347
G03 X17.935366 Y9.663156 Z-1.000000 I-5.170374 J3.355908
G03 X18.192774 Y10.663197 Z-1.000000 I-6.066437 J2.094635
G03 X18.258503 Y11.530028 Z-1.000000 I-4.481721 J0.775741
G01 X18.247472 Y11.531417 Z-1.000000
G03 X18.225863 Y11.412352 Z-1.000000 I0.641316 J-0.177887
G02 X17.831066 Y9.697659 Z-1.000000 I-6.380101 J0.566181
G02 X16.954164 Y8.075262 Z-1.000000 I-6.575010 J2.505598
G02 X15.695667 Y6.711479 Z-1.000000 I-6.365379 J4.611402
G02 X14.199482 Y5.720886 Z-1.000000 I-4.774876 J5.586729
G02 X12.669492 Y5.103009 Z-1.000000 I-4.686425 J9.401327
G02 X10.987178 Y4.708886 Z-1.000000 I-3.461202 J10.986598
G03 X8.345489 Y3.640521 Z-1.000000 I0.968192 J-6.194162
G03 X7.272972 Y2.093128 Z-1.000000 I1.575876 J-2.237641
G03 X7.173611 Y1.447142 Z-1.000000 I3.095816 J-0.806813
G03 X7.202737 Y0.697600 Z-1.000000 I4.208135 J-0.211814
G02 X7.229605 Y0.444333 Z-1.000000 I-5.669277 J-0.729486
G01 X7.225059 Y0.430495 Z-1.000000
G02 X7.132461 Y0.415503 Z-1.000000 I-0.055337 J0.048323
G02 X6.462026 Y0.879542 Z-1.000000 I2.815517 J4.784136
G02 X5.706816 Y1.831637 Z-1.000000 I1.738645 J2.154676
G02 X5.434521 Y3.010332 Z-1.000000 I2.471301 J1.191705
G02 X5.726220 Y4.346167 Z-1.000000 I3.136426 J0.014882
G02 X6.696048 Y5.727093 Z-1.000000 I4.332906 J-2.011991
G02 X7.540145 Y6.422757 Z-1.000000 I4.205095 J-4.242402
G02 X8.723746 Y7.107207 Z-1.000000 I5.251404 J-7.715502
G02 X9.825739 Y7.590177 Z-1.000000 I6.915519 J-14.280452
G02 X10.066096 Y7.635796 Z-1.000000 I0.240357 J-0.610384
G01 X10.072533 Y7.649606 Z-1.000000
G03 X9.935417 Y7.791448 Z-1.000000 I-1.079785 J-0.906612
G02 X9.742447 Y8.191508 Z-1.000000 I0.391456 J0.435389
G02 X9.889148 Y8.556827 Z-1.000000 I0.459102 J0.027754
G02 X10.102987 Y8.715181 Z-1.000000 I0.828505 J-0.895244
G02 X10.347936 Y8.824482 Z-1.000000 I0.624580 J-1.070592
G01 X10.475650 Y8.865570 Z-1.000000
G01 X10.137633 Y9.228491 Z-1.000000
G02 X9.319544 Y10.217798 Z-1.000000 I7.974144 J7.426974
G02 X8.850893 Y10.985852 Z-1.000000 I4.319048 J3.162404
G02 X8.770114 Y12.856705 Z-1.000000 I2.051042 J1.025730
G02 X9.965699 Y13.797949 Z-1.000000 I1.407609 J-0.558022
G03 X10.202641 Y13.857792 Z-1.000000 I-0.160355 J1.133892
G01 X10.216678 Y13.890785 Z-1.000000
G02 X9.691275 Y15.574515 Z-1.000000 I7.398235 J3.232437
G02 X9.568983 Y17.204586 Z-1.000000 I6.805709 J1.330203
G02 X9.900959 Y19.466945 Z-1.000000 I11.169613 J-0.483480
G02 X10.702928 Y21.680171 Z-1.000000 I11.486328 J-2.910192
G02 X10.839031 Y21.940603 Z-1.000000 I3.848784 J-1.845619
G01 X10.857277 Y21.952265 Z-1.000000
G01 X10.873511 Y21.942912 Z-1.000000
G02 X10.900577 Y21.860794 Z-1.000000 I-0.316447 J-0.149822
G03 X11.219566 Y21.056587 Z-1.000000 I2.333365 J0.460163
G03 X11.880038 Y20.300328 Z-1.000000 I2.713161 J1.702977
G03 X12.208848 Y20.043510 Z-1.000000 I4.120173 J4.936230
G03 X12.922079 Y19.539552 Z-1.000000 I16.609647 J22.750317
G02 X14.731112 Y18.186944 Z-1.000000 I-15.038258 J-21.998814
G02 X15.799116 Y17.191892 Z-1.000000 I-7.035758 J-8.622259
G02 X16.985086 Y15.681337 Z-1.000000 I-7.822343 J-7.362339
G02 X17.737342 Y14.208162 Z-1.000000 I-6.682747 J-4.341101
G03 X17.835992 Y13.977668 Z-1.000000 I3.228019 J1.245214
G01 X17.846930 Y13.975765 Z-1.000000
G03 X17.859855 Y14.040406 Z-1.000000 I-0.042013 J0.042013
G03 X17.444366 Y14.953163 Z-1.000000 I-12.716885 J-5.237804
G03 X16.767367 Y16.096034 Z-1.000000 I-8.355992 J-4.177861
G03 X15.799804 Y17.326634 Z-1.000000 I-10.665024 J-7.389737
G03 X14.879250 Y18.225306 Z-1.000000 I-6.799839 J-6.044591
G03 X13.247180 Y19.488093 Z-1.000000 I-15.126646 J-17.864125
G02 X12.127972 Y20.317352 Z-1.000000 I17.274171 J24.483954
G02 X11.715100 Y20.679406 Z-1.000000 I2.858543 J3.676213
G02 X11.058083 Y21.817709 Z-1.000000 I1.740772 J1.763519
G02 X11.087673 Y23.085671 Z-1.000000 I2.232885 J0.582218
G03 X11.146260 Y23.293225 Z-1.000000 I-3.872440 J1.205122
G01 X11.143183 Y23.304418 Z-1.000000
G01 X11.134625 Y23.303643 Z-1.000000
G03 X10.860269 Y22.897748 Z-1.000000 I15.044076 J-10.464384
G03 X9.809238 Y20.958215 Z-1.000000 I10.934828 J-7.180112
G03 X9.271929 Y19.265021 Z-1.000000 I7.772196 J-3.398238
G03 X9.114159 Y16.653852 Z-1.000000 I9.051218 J-1.857238
G03 X9.679082 Y14.291791 Z-1.000000 I7.937783 J0.649859
G02 X9.826292 Y13.924015 Z-1.000000 I-25.919668 J-10.588264
G01 X9.829099 Y13.909170 Z-1.000000
G01 X9.821632 Y13.901147 Z-1.000000
G02 X9.599527 Y13.892590 Z-1.000000 I-0.239260 J3.323542
G03 X8.849031 Y13.785636 Z-1.000000 I0.014452 J-2.787992
G03 X8.352993 Y13.536922 Z-1.000000 I0.409817 J-1.436354
G03 X8.246412 Y13.438350 Z-1.000000 I0.465623 J-0.610360
G03 X8.115365 Y13.271230 Z-1.000000 I1.223794 J-1.094582
G03 X7.981706 Y11.987447 Z-1.000000 I1.117864 J-0.765233
G03 X9.791632 Y9.225554 Z-1.000000 I8.191303 J3.393943
G02 X10.132597 Y8.859624 Z-1.000000 I-10.397159 J-10.029646
G01 X10.131740 Y8.847634 Z-1.000000
G01 X10.116601 Y8.839667 Z-1.000000
G02 X9.884481 Y8.778814 Z-1.000000 I-2.129129 J7.648327
G03 X9.325853 Y8.388496 Z-1.000000 I0.226000 J-0.918370
G03 X9.355995 Y7.993541 Z-1.000000 I0.265079 J-0.178397
G03 X9.506521 Y7.858488 Z-1.000000 I0.785458 J0.724033
G03 X9.662601 Y7.766938 Z-1.000000 I0.508268 J0.687704
G02 X9.802942 Y7.687015 Z-1.000000 I-0.357325 J-0.790619
G01 X9.804101 Y7.667858 Z-1.000000
G02 X9.774517 Y7.651328 Z-1.000000 I-0.051383 J0.057221
G02 X9.523002 Y7.584778 Z-1.000000 I-1.283671 J4.342885
G03 X8.684079 Y7.351641 Z-1.000000 I2.413240 J-10.309813
G03 X7.873480 Y7.052409 Z-1.000000 I3.202694 J-9.923399
G03 X5.590818 Y5.560214 Z-1.000000 I2.869876 J-6.882180
G03 X4.634253 Y3.955881 Z-1.000000 I2.417137 J-2.528527
G03 X4.546966 Y3.271256 Z-1.000000 I2.375504 J-0.650743
G03 X4.653567 Y2.551185 Z-1.000000 I2.739899 J0.037693
G03 X5.400168 Y1.324083 Z-1.000000 I2.621837 J0.754517
G03 X6.887166 Y0.437497 Z-1.000000 I2.724153 J2.878696
G03 X7.228048 Y0.330118 Z-1.000000 I4.524203 J13.767585
G03 X7.261518 Y0.324614 Z-1.000000 I0.037806 J0.125394
G01 X7.278775 Y0.340608 Z-1.000000
G03 X7.283313 Y0.833888 Z-1.000000 I-7.340233 J0.314190
G01 X7.283317 Y0.833890 Z-1.000000
G00 Z0.000000

(End cutting path id: path24)


(Start cutting path id: path24)
(Change tool to Cone cutter)

G00 Z0.000000
G00 X7.283317 Y0.833890

G01 Z-1.000000 F100.0(Penetrate)
G02 X7.377380 Y1.874991 Z-1.000000 I4.573641 J0.111573 F400.000000
G02 X7.671529 Y2.704756 Z-1.000000 I3.177158 J-0.659271
G02 X8.011672 Y3.209395 Z-1.000000 I2.329091 J-1.202931
G02 X8.514276 Y3.686374 Z-1.000000 I2.578418 J-2.213648
G02 X9.588083 Y4.270969 Z-1.000000 I2.364748 J-3.065154
G02 X11.510451 Y4.746141 Z-1.000000 I3.386478 J-9.574252
G03 X12.169084 Y4.882833 Z-1.000000 I-0.809266 J5.554477
G03 X13.060192 Y5.166032 Z-1.000000 I-2.836045 J10.467398
G03 X14.913906 Y6.050461 Z-1.000000 I-3.746900 J10.238151
G03 X16.259983 Y7.081930 Z-1.000000 I-3.818127 J6.376748
G03 X17.279279 Y8.319022 Z-1.000000 I-4.918871 J5.091347
G03 X17.935366 Y9.663156 Z-1.000000 I-5.170374 J3.355908
G03 X18.192774 Y10.663197 Z-1.000000 I-6.066437 J2.094635
G03 X18.258503 Y11.530028 Z-1.000000 I-4.481721 J0.775741
G01 X18.247472 Y11.531417 Z-1.000000
G03 X18.225863 Y11.412352 Z-1.000000 I0.641316 J-0.177887
G02 X17.831066 Y9.697659 Z-1.000000 I-6.380101 J0.566181
G02 X16.954164 Y8.075262 Z-1.000000 I-6.575010 J2.505598
G02 X15.695667 Y6.711479 Z-1.000000 I-6.365379 J4.611402
G02 X14.199482 Y5.720886 Z-1.000000 I-4.774876 J5.586729
G02 X12.669492 Y5.103009 Z-1.000000 I-4.686425 J9.401327
G02 X10.987178 Y4.708886 Z-1.000000 I-3.461202 J10.986598
G03 X8.345489 Y3.640521 Z-1.000000 I0.968192 J-6.194162
G03 X7.272972 Y2.093128 Z-1.000000 I1.575876 J-2.237641
G03 X7.173611 Y1.447142 Z-1.000000 I3.095816 J-0.806813
G03 X7.202737 Y0.697600 Z-1.000000 I4.208135 J-0.211814
G02 X7.229605 Y0.444333 Z-1.000000 I-5.669277 J-0.729486
G01 X7.225059 Y0.430495 Z-1.000000
G02 X7.132461 Y0.415503 Z-1.000000 I-0.055337 J0.048323
G02 X6.462026 Y0.879542 Z-1.000000 I2.815517 J4.784136
G02 X5.706816 Y1.831637 Z-1.000000 I1.738645 J2.154676
G02 X5.434521 Y3.010332 Z-1.000000 I2.471301 J1.191705
G02 X5.726220 Y4.346167 Z-1.000000 I3.136426 J0.014882
G02 X6.696048 Y5.727093 Z-1.000000 I4.332906 J-2.011991
G02 X7.540145 Y6.422757 Z-1.000000 I4.205095 J-4.242402
G02 X8.723746 Y7.107207 Z-1.000000 I5.251404 J-7.715502
G02 X9.825739 Y7.590177 Z-1.000000 I6.915519 J-14.280452
G02 X10.066096 Y7.635796 Z-1.000000 I0.240357 J-0.610384
G01 X10.072533 Y7.649606 Z-1.000000
G03 X9.935417 Y7.791448 Z-1.000000 I-1.079785 J-0.906612
G02 X9.742447 Y8.191508 Z-1.000000 I0.391456 J0.435389
G02 X9.889148 Y8.556827 Z-1.000000 I0.459102 J0.027754
G02 X10.102987 Y8.715181 Z-1.000000 I0.828505 J-0.895244
G02 X10.347936 Y8.824482 Z-1.000000 I0.624580 J-1.070592
G01 X10.475650 Y8.865570 Z-1.000000
G01 X10.137633 Y9.228491 Z-1.000000
G02 X9.319544 Y10.217798 Z-1.000000 I7.974144 J7.426974
G02 X8.850893 Y10.985852 Z-1.000000 I4.319048 J3.162404
G02 X8.770114 Y12.856705 Z-1.000000 I2.051042 J1.025730
G02 X9.965699 Y13.797949 Z-1.000000 I1.407609 J-0.558022
G03 X10.202641 Y13.857792 Z-1.000000 I-0.160355 J1.133892
G01 X10.216678 Y13.890785 Z-1.000000
G02 X9.691275 Y15.574515 Z-1.000000 I7.398235 J3.232437
G02 X9.568983 Y17.204586 Z-1.000000 I6.805709 J1.330203
G02 X9.900959 Y19.466945 Z-1.000000 I11.169613 J-0.483480
G02 X10.702928 Y21.680171 Z-1.000000 I11.486328 J-2.910192
G02 X10.839031 Y21.940603 Z-1.000000 I3.848784 J-1.845619
G01 X10.857277 Y21.952265 Z-1.000000
G01 X10.873511 Y21.942912 Z-1.000000
G02 X10.900577 Y21.860794 Z-1.000000 I-0.316447 J-0.149822
G03 X11.219566 Y21.056587 Z-1.000000 I2.333365 J0.460163
G03 X11.880038 Y20.300328 Z-1.000000 I2.713161 J1.702977
G03 X12.208848 Y20.043510 Z-1.000000 I4.120173 J4.936230
G03 X12.922079 Y19.539552 Z-1.000000 I16.609647 J22.750317
G02 X14.731112 Y18.186944 Z-1.000000 I-15.038258 J-21.998814
G02 X15.799116 Y17.191892 Z-1.000000 I-7.035758 J-8.622259
G02 X16.985086 Y15.681337 Z-1.000000 I-7.822343 J-7.362339
G02 X17.737342 Y14.208162 Z-1.000000 I-6.682747 J-4.341101
G03 X17.835992 Y13.977668 Z-1.000000 I3.228019 J1.245214
G01 X17.846930 Y13.975765 Z-1.000000
G03 X17.859855 Y14.040406 Z-1.000000 I-0.042013 J0.042013
G03 X17.444366 Y14.953163 Z-1.000000 I-12.716885 J-5.237804
G03 X16.767367 Y16.096034 Z-1.000000 I-8.355992 J-4.177861
G03 X15.799804 Y17.326634 Z-1.000000 I-10.665024 J-7.389737
G03 X14.879250 Y18.225306 Z-1.000000 I-6.799839 J-6.044591
G03 X13.247180 Y19.488093 Z-1.000000 I-15.126646 J-17.864125
G02 X12.127972 Y20.317352 Z-1.000000 I17.274171 J24.483954
G02 X11.715100 Y20.679406 Z-1.000000 I2.858543 J3.676213
G02 X11.058083 Y21.817709 Z-1.000000 I1.740772 J1.763519
G02 X11.087673 Y23.085671 Z-1.000000 I2.232885 J0.582218
G03 X11.146260 Y23.293225 Z-1.000000 I-3.872440 J1.205122
G01 X11.143183 Y23.304418 Z-1.000000
G01 X11.134625 Y23.303643 Z-1.000000
G03 X10.860269 Y22.897748 Z-1.000000 I15.044076 J-10.464384
G03 X9.809238 Y20.958215 Z-1.000000 I10.934828 J-7.180112
G03 X9.271929 Y19.265021 Z-1.000000 I7.772196 J-3.398238
G03 X9.114159 Y16.653852 Z-1.000000 I9.051218 J-1.857238
G03 X9.679082 Y14.291791 Z-1.000000 I7.937783 J0.649859
G02 X9.826292 Y13.924015 Z-1.000000 I-25.919668 J-10.588264
G01 X9.829099 Y13.909170 Z-1.000000
G01 X9.821632 Y13.901147 Z-1.000000
G02 X9.599527 Y13.892590 Z-1.000000 I-0.239260 J3.323542
G03 X8.849031 Y13.785636 Z-1.000000 I0.014452 J-2.787992
G03 X8.352993 Y13.536922 Z-1.000000 I0.409817 J-1.436354
G03 X8.246412 Y13.438350 Z-1.000000 I0.465623 J-0.610360
G03 X8.115365 Y13.271230 Z-1.000000 I1.223794 J-1.094582
G03 X7.981706 Y11.987447 Z-1.000000 I1.117864 J-0.765233
G03 X9.791632 Y9.225554 Z-1.000000 I8.191303 J3.393943
G02 X10.132597 Y8.859624 Z-1.000000 I-10.397159 J-10.029646
G01 X10.131740 Y8.847634 Z-1.000000
G01 X10.116601 Y8.839667 Z-1.000000
G02 X9.884481 Y8.778814 Z-1.000000 I-2.129129 J7.648327
G03 X9.325853 Y8.388496 Z-1.000000 I0.226000 J-0.918370
G03 X9.355995 Y7.993541 Z-1.000000 I0.265079 J-0.178397
G03 X9.506521 Y7.858488 Z-1.000000 I0.785458 J0.724033
G03 X9.662601 Y7.766938 Z-1.000000 I0.508268 J0.687704
G02 X9.802942 Y7.687015 Z-1.000000 I-0.357325 J-0.790619
G01 X9.804101 Y7.667858 Z-1.000000
G02 X9.774517 Y7.651328 Z-1.000000 I-0.051383 J0.057221
G02 X9.523002 Y7.584778 Z-1.000000 I-1.283671 J4.342885
G03 X8.684079 Y7.351641 Z-1.000000 I2.413240 J-10.309813
G03 X7.873480 Y7.052409 Z-1.000000 I3.202694 J-9.923399
G03 X5.590818 Y5.560214 Z-1.000000 I2.869876 J-6.882180
G03 X4.634253 Y3.955881 Z-1.000000 I2.417137 J-2.528527
G03 X4.546966 Y3.271256 Z-1.000000 I2.375504 J-0.650743
G03 X4.653567 Y2.551185 Z-1.000000 I2.739899 J0.037693
G03 X5.400168 Y1.324083 Z-1.000000 I2.621837 J0.754517
G03 X6.887166 Y0.437497 Z-1.000000 I2.724153 J2.878696
G03 X7.228048 Y0.330118 Z-1.000000 I4.524203 J13.767585
G03 X7.261518 Y0.324614 Z-1.000000 I0.037806 J0.125394
G01 X7.278775 Y0.340608 Z-1.000000
G03 X7.283313 Y0.833888 Z-1.000000 I-7.340233 J0.314190
G01 X7.283317 Y0.833890 Z-1.000000
G00 Z0.000000

(End cutting path id: path24)


(Start cutting path id: path24)
(Change tool to Cone cutter)

G00 Z0.000000
G00 X7.092862 Y1.233333

G01 Z-1.000000 F100.0(Penetrate)
G02 X7.120716 Y1.867482 Z-1.000000 I7.691887 J-0.020161 F400.000000
G02 X7.172030 Y2.160063 Z-1.000000 I1.675231 J-0.143021
G02 X7.971479 Y3.501897 Z-1.000000 I2.775094 J-0.744300
G02 X9.647601 Y4.504519 Z-1.000000 I3.089133 J-3.261893
G02 X10.398255 Y4.714873 Z-1.000000 I2.624150 J-7.919817
G02 X11.213166 Y4.865284 Z-1.000000 I2.116968 J-9.186735
G03 X12.571847 Y5.178381 Z-1.000000 I-1.096375 J7.862238
G03 X14.160027 Y5.823632 Z-1.000000 I-3.711137 J11.411512
G03 X16.337014 Y7.460634 Z-1.000000 I-3.229043 J6.560231
G03 X17.715209 Y9.727458 Z-1.000000 I-5.128299 J4.670302
G03 X18.072412 Y12.025151 Z-1.000000 I-5.499855 J2.031628
G03 X17.499376 Y14.478720 Z-1.000000 I-6.876796 J-0.312388
G03 X16.012545 Y16.824600 Z-1.000000 I-8.430223 J-3.698999
G03 X13.638309 Y18.913698 Z-1.000000 I-9.002454 J-7.837487
G02 X12.702465 Y19.549942 Z-1.000000 I37.645182 J56.378261
G02 X12.181155 Y19.922247 Z-1.000000 I12.363009 J17.862124
G02 X11.220484 Y20.811271 Z-1.000000 I3.480303 J4.724339
G02 X10.890387 Y21.416849 Z-1.000000 I1.233039 J1.064877
G03 X10.825656 Y21.605119 Z-1.000000 I-2.109218 J-0.619928
G01 X10.812377 Y21.614171 Z-1.000000
G01 X10.793750 Y21.602613 Z-1.000000
G03 X10.569482 Y21.121063 Z-1.000000 I10.913898 J-5.375829
G03 X9.993126 Y19.401495 Z-1.000000 I9.174305 J-4.031369
G03 X9.691890 Y17.419581 Z-1.000000 I11.913735 J-2.824648
G03 X9.789849 Y15.706511 Z-1.000000 I6.810510 J-0.469891
G03 X10.352256 Y13.853900 Z-1.000000 I8.546437 J1.582817
G01 X10.405996 Y13.728998 Z-1.000000
G01 X10.177069 Y13.706748 Z-1.000000
G03 X9.252416 Y13.423737 Z-1.000000 I0.235198 J-2.420455
G03 X8.781892 Y12.949682 Z-1.000000 I0.553371 J-1.019787
G03 X8.715662 Y11.654479 Z-1.000000 I1.347478 J-0.718198
G03 X10.301926 Y9.225485 Z-1.000000 I7.074001 J2.887249
G02 X10.676774 Y8.825725 Z-1.000000 I-12.090252 J-11.712445
G01 X10.676045 Y8.813254 Z-1.000000
G01 X10.660774 Y8.804333 Z-1.000000
G02 X10.475310 Y8.741584 Z-1.000000 I-1.927447 J5.391419
G03 X10.054148 Y8.558007 Z-1.000000 I0.687139 J-2.151336
G03 X9.894623 Y8.414531 Z-1.000000 I0.241740 J-0.429202
G03 X9.862228 Y8.089164 Z-1.000000 I0.268239 J-0.191003
G03 X10.189493 Y7.754761 Z-1.000000 I0.615630 J0.275147
G02 X10.350444 Y7.659471 Z-1.000000 I-0.432185 J-0.913560
G01 X10.351710 Y7.637169 Z-1.000000
G02 X10.318436 Y7.616777 Z-1.000000 I-0.069430 J0.075947
G02 X9.982153 Y7.498448 Z-1.000000 I-3.026444 J8.063949
G03 X9.596228 Y7.361163 Z-1.000000 I2.647538 J-8.053626
G03 X9.029853 Y7.133531 Z-1.000000 I6.733293 J-17.571679
G03 X7.297817 Y6.238711 Z-1.000000 I4.822446 J-11.458146
G03 X7.202617 Y5.999741 Z-1.000000 I0.114114 J-0.183908
G01 X7.196125 Y5.985587 Z-1.000000
G01 X7.175683 Y5.986641 Z-1.000000
G03 X7.048877 Y5.972001 Z-1.000000 I-0.054136 J-0.087587
G03 X6.304749 Y5.119006 Z-1.000000 I5.714175 J-5.735952
G03 X5.893533 Y4.463081 Z-1.000000 I3.537570 J-2.674660
G03 X5.644032 Y3.826597 Z-1.000000 I3.079279 J-1.574218
G03 X5.534139 Y3.162579 Z-1.000000 I2.935262 J-0.826879
G03 X5.576330 Y2.560720 Z-1.000000 I2.447012 J-0.130871
G03 X6.039679 Y1.521788 Z-1.000000 I2.489788 J0.487623
G03 X7.023220 Y0.640034 Z-1.000000 I2.732307 J2.058298
G01 X7.091242 Y0.597644 Z-1.000000
G01 X7.092892 Y1.233345 Z-1.000000
G01 X7.092862 Y1.233333 Z-1.000000
G00 Z0.000000

(End cutting path id: path24)


(Start cutting path id: path24)
(Change tool to Cone cutter)

G00 Z0.000000
G00 X7.092862 Y1.233333

G01 Z-1.000000 F100.0(Penetrate)
G02 X7.120716 Y1.867482 Z-1.000000 I7.691887 J-0.020161 F400.000000
G02 X7.172030 Y2.160063 Z-1.000000 I1.675231 J-0.143021
G02 X7.971479 Y3.501897 Z-1.000000 I2.775094 J-0.744300
G02 X9.647601 Y4.504519 Z-1.000000 I3.089133 J-3.261893
G02 X10.398255 Y4.714873 Z-1.000000 I2.624150 J-7.919817
G02 X11.213166 Y4.865284 Z-1.000000 I2.116968 J-9.186735
G03 X12.571847 Y5.178381 Z-1.000000 I-1.096375 J7.862238
G03 X14.160027 Y5.823632 Z-1.000000 I-3.711137 J11.411512
G03 X16.337014 Y7.460634 Z-1.000000 I-3.229043 J6.560231
G03 X17.715209 Y9.727458 Z-1.000000 I-5.128299 J4.670302
G03 X18.072412 Y12.025151 Z-1.000000 I-5.499855 J2.031628
G03 X17.499376 Y14.478720 Z-1.000000 I-6.876796 J-0.312388
G03 X16.012545 Y16.824600 Z-1.000000 I-8.430223 J-3.698999
G03 X13.638309 Y18.913698 Z-1.000000 I-9.002454 J-7.837487
G02 X12.702465 Y19.549942 Z-1.000000 I37.645182 J56.378261
G02 X12.181155 Y19.922247 Z-1.000000 I12.363009 J17.862124
G02 X11.220484 Y20.811271 Z-1.000000 I3.480303 J4.724339
G02 X10.890387 Y21.416849 Z-1.000000 I1.233039 J1.064877
G03 X10.825656 Y21.605119 Z-1.000000 I-2.109218 J-0.619928
G01 X10.812377 Y21.614171 Z-1.000000
G01 X10.793750 Y21.602613 Z-1.000000
G03 X10.569482 Y21.121063 Z-1.000000 I10.913898 J-5.375829
G03 X9.993126 Y19.401495 Z-1.000000 I9.174305 J-4.031369
G03 X9.691890 Y17.419581 Z-1.000000 I11.913735 J-2.824648
G03 X9.789849 Y15.706511 Z-1.000000 I6.810510 J-0.469891
G03 X10.352256 Y13.853900 Z-1.000000 I8.546437 J1.582817
G01 X10.405996 Y13.728998 Z-1.000000
G01 X10.177069 Y13.706748 Z-1.000000
G03 X9.252416 Y13.423737 Z-1.000000 I0.235198 J-2.420455
G03 X8.781892 Y12.949682 Z-1.000000 I0.553371 J-1.019787
G03 X8.715662 Y11.654479 Z-1.000000 I1.347478 J-0.718198
G03 X10.301926 Y9.225485 Z-1.000000 I7.074001 J2.887249
G02 X10.676774 Y8.825725 Z-1.000000 I-12.090252 J-11.712445
G01 X10.676045 Y8.813254 Z-1.000000
G01 X10.660774 Y8.804333 Z-1.000000
G02 X10.475310 Y8.741584 Z-1.000000 I-1.927447 J5.391419
G03 X10.054148 Y8.558007 Z-1.000000 I0.687139 J-2.151336
G03 X9.894623 Y8.414531 Z-1.000000 I0.241740 J-0.429202
G03 X9.862228 Y8.089164 Z-1.000000 I0.268239 J-0.191003
G03 X10.189493 Y7.754761 Z-1.000000 I0.615630 J0.275147
G02 X10.350444 Y7.659471 Z-1.000000 I-0.432185 J-0.913560
G01 X10.351710 Y7.637169 Z-1.000000
G02 X10.318436 Y7.616777 Z-1.000000 I-0.069430 J0.075947
G02 X9.982153 Y7.498448 Z-1.000000 I-3.026444 J8.063949
G03 X9.596228 Y7.361163 Z-1.000000 I2.647538 J-8.053626
G03 X9.029853 Y7.133531 Z-1.000000 I6.733293 J-17.571679
G03 X7.297817 Y6.238711 Z-1.000000 I4.822446 J-11.458146
G03 X7.202617 Y5.999741 Z-1.000000 I0.114114 J-0.183908
G01 X7.196125 Y5.985587 Z-1.000000
G01 X7.175683 Y5.986641 Z-1.000000
G03 X7.048877 Y5.972001 Z-1.000000 I-0.054136 J-0.087587
G03 X6.304749 Y5.119006 Z-1.000000 I5.714175 J-5.735952
G03 X5.893533 Y4.463081 Z-1.000000 I3.537570 J-2.674660
G03 X5.644032 Y3.826597 Z-1.000000 I3.079279 J-1.574218
G03 X5.534139 Y3.162579 Z-1.000000 I2.935262 J-0.826879
G03 X5.576330 Y2.560720 Z-1.000000 I2.447012 J-0.130871
G03 X6.039679 Y1.521788 Z-1.000000 I2.489788 J0.487623
G03 X7.023220 Y0.640034 Z-1.000000 I2.732307 J2.058298
G01 X7.091242 Y0.597644 Z-1.000000
G01 X7.092892 Y1.233345 Z-1.000000
G01 X7.092862 Y1.233333 Z-1.000000
G00 Z0.000000

(End cutting path id: path24)


(Start cutting path id: path24)
(Change tool to Cone cutter)

G00 Z0.000000
G00 X5.153258 Y0.893163

G01 Z-1.000000 F100.0(Penetrate)
G02 X4.957037 Y1.447885 Z-1.000000 I7.161504 J2.845303 F400.000000
G02 X4.929948 Y1.610456 Z-1.000000 I0.577397 J0.179753
G03 X4.918443 Y1.664296 Z-1.000000 I-0.151894 J-0.004309
G03 X4.829088 Y1.853966 Z-1.000000 I-2.036349 J-0.843451
G03 X4.766489 Y1.931825 Z-1.000000 I-0.234450 J-0.124404
G01 X4.749031 Y1.921986 Z-1.000000
G03 X4.775710 Y1.804786 Z-1.000000 I0.928270 J0.149669
G03 X4.912618 Y1.369311 Z-1.000000 I13.009419 J3.850750
G02 X4.875821 Y1.076619 Z-1.000000 I-0.324086 J-0.107915
G02 X4.674173 Y0.998580 Z-1.000000 I-0.154342 J0.099269
G02 X3.009658 Y2.239505 Z-1.000000 I0.721638 J2.704780
G02 X2.601042 Y4.377876 Z-1.000000 I2.623692 J1.609581
G02 X3.449281 Y6.334366 Z-1.000000 I4.484091 J-0.781961
G02 X5.655758 Y8.433635 Z-1.000000 I7.416229 J-5.585755
G01 X5.954698 Y8.636291 Z-1.000000
G01 X5.823534 Y8.705720 Z-1.000000
G02 X5.494103 Y9.069791 Z-1.000000 I0.336382 J0.635456
G02 X5.518798 Y9.453353 Z-1.000000 I0.408013 J0.166306
G02 X5.726912 Y9.717155 Z-1.000000 I0.963379 J-0.546016
G02 X5.990663 Y9.893431 Z-1.000000 I0.673222 J-0.721850
G01 X6.007788 Y9.914832 Z-1.000000
G01 X5.998933 Y9.932841 Z-1.000000
G02 X5.961956 Y9.953063 Z-1.000000 I0.189442 J0.390320
G02 X5.537299 Y10.215358 Z-1.000000 I30.506764 J49.865501
G02 X3.781000 Y11.671392 Z-1.000000 I4.497059 J7.211709
G02 X3.215969 Y12.737410 Z-1.000000 I1.748970 J1.609776
G02 X3.363962 Y13.756874 Z-1.000000 I1.369114 J0.321723
G02 X4.248640 Y14.544697 Z-1.000000 I1.614789 J-0.922681
G03 X4.455014 Y14.649024 Z-1.000000 I-0.702536 J1.645997
G01 X4.464904 Y14.672192 Z-1.000000
G03 X4.452017 Y14.701728 Z-1.000000 I-0.087387 J-0.020548
G03 X4.241383 Y15.004694 Z-1.000000 I-9.781986 J-6.576112
G02 X3.426638 Y16.409969 Z-1.000000 I6.756691 J4.856191
G02 X2.962950 Y17.809624 Z-1.000000 I6.238366 J2.843327
G02 X2.704880 Y19.743822 Z-1.000000 I12.006141 J2.586231
G02 X2.770621 Y21.427159 Z-1.000000 I9.140741 J0.485972
G02 X2.933275 Y22.456786 Z-1.000000 I20.261829 J-2.673177
G02 X2.991824 Y22.627916 Z-1.000000 I0.605322 J-0.111516
G01 X3.014385 Y22.629494 Z-1.000000
G02 X3.139998 Y22.418928 Z-1.000000 I-1.269633 J-0.900144
G03 X3.411765 Y22.015389 Z-1.000000 I1.636298 J0.808698
G03 X3.815959 Y21.658046 Z-1.000000 I1.677944 J1.490672
G03 X4.347713 Y21.364203 Z-1.000000 I1.750404 J2.539561
G03 X6.019918 Y20.710121 Z-1.000000 I10.644718 J24.749340
G02 X6.851519 Y20.411364 Z-1.000000 I-27.381159 J-77.523278
G02 X7.193290 Y20.281448 Z-1.000000 I-4.830864 J-13.223136
G02 X7.899178 Y19.962387 Z-1.000000 I-2.948963 J-7.464643
G02 X8.802410 Y19.458409 Z-1.000000 I-6.515930 J-12.739263
G03 X9.118391 Y19.271416 Z-1.000000 I8.867557 J14.623942
G01 X9.133099 Y19.267475 Z-1.000000
G01 X9.142339 Y19.273956 Z-1.000000
G03 X9.148474 Y19.309990 Z-1.000000 I-0.096632 J0.034993
G03 X9.115510 Y19.370562 Z-1.000000 I-0.073529 J-0.000760
G03 X8.344081 Y19.842002 Z-1.000000 I-6.970888 J-10.539774
G03 X7.509710 Y20.258368 Z-1.000000 I-4.584291 J-8.142424
G03 X6.008809 Y20.865169 Z-1.000000 I-11.302617 J-25.797014
G02 X4.179960 Y21.651747 Z-1.000000 I6.832831 J18.406202
G02 X3.604200 Y22.047258 Z-1.000000 I1.066317 J2.169105
G02 X3.144331 Y22.700737 Z-1.000000 I1.298071 J1.402034
G02 X2.929170 Y23.632527 Z-1.000000 I2.517861 J1.072141
G01 X2.907943 Y24.045988 Z-1.000000
G01 X2.712768 Y23.433795 Z-1.000000
G03 X2.195752 Y20.726383 Z-1.000000 I10.974317 J-3.498759
G03 X2.351243 Y18.184026 Z-1.000000 I9.813013 J-0.675770
G03 X2.462596 Y17.664389 Z-1.000000 I12.938589 J2.500878
G03 X2.539452 Y17.384774 Z-1.000000 I3.817750 J0.898991
G03 X3.028255 Y16.215475 Z-1.000000 I6.669843 J2.101382
G03 X3.799032 Y15.004375 Z-1.000000 I7.930862 J4.196594
G02 X4.047172 Y14.666871 Z-1.000000 I-12.979005 J-9.802412
G02 X4.067306 Y14.629462 Z-1.000000 I-0.136019 J-0.097331
G01 X4.056482 Y14.602917 Z-1.000000
G02 X3.847685 Y14.528871 Z-1.000000 I-0.520887 J1.137402
G03 X3.312878 Y14.323184 Z-1.000000 I0.622687 J-2.417163
G03 X2.929248 Y14.048155 Z-1.000000 I0.785480 J-1.500716
G03 X2.593423 Y13.530418 Z-1.000000 I0.920013 J-0.964541
G03 X2.542814 Y12.961997 Z-1.000000 I1.073917 J-0.382079
G03 X2.784067 Y12.311615 Z-1.000000 I1.802420 J0.298656
G03 X3.466656 Y11.442269 Z-1.000000 I3.963685 J2.409535
G03 X4.230053 Y10.781027 Z-1.000000 I4.970811 J4.967464
G03 X5.332016 Y10.047928 Z-1.000000 I7.225621 J9.666483
G02 X5.522999 Y9.816695 Z-1.000000 I-0.222950 J-0.378628
G02 X5.465041 Y9.674349 Z-1.000000 I-0.108710 J-0.038710
G03 X5.033948 Y9.349257 Z-1.000000 I0.626254 J-1.278830
G03 X4.931584 Y9.082942 Z-1.000000 I0.295246 J-0.266315
G03 X5.093794 Y8.784318 Z-1.000000 I0.355984 J0.000000
G03 X5.641779 Y8.622107 Z-1.000000 I0.547984 J0.844502
G01 X5.652122 Y8.590729 Z-1.000000
G02 X5.203670 Y8.298050 Z-1.000000 I-2.717428 J3.673831
G03 X3.248014 Y6.871472 Z-1.000000 I5.443626 J-9.516282
G03 X2.182620 Y5.534834 Z-1.000000 I3.689299 J-4.033546
G03 X1.880091 Y4.901385 Z-1.000000 I4.340152 J-2.461774
G03 X1.718471 Y4.356219 Z-1.000000 I3.046216 J-1.199624
G03 X1.650321 Y3.734662 Z-1.000000 I3.333043 J-0.679962
G03 X1.698392 Y3.187020 Z-1.000000 I2.629164 J-0.045148
G03 X2.724871 Y1.556505 Z-1.000000 I2.617860 J0.509691
G03 X4.858699 Y0.837130 Z-1.000000 I2.173739 J2.923405
G03 X5.136044 Y0.861751 Z-1.000000 I0.015444 J1.400431
G01 X5.153291 Y0.893160 Z-1.000000
G01 X5.153258 Y0.893163 Z-1.000000
G00 Z0.000000

(End cutting path id: path24)


(Start cutting path id: path24)
(Change tool to Cone cutter)

G00 Z0.000000
G00 X5.153258 Y0.893163

G01 Z-1.000000 F100.0(Penetrate)
G02 X4.957037 Y1.447885 Z-1.000000 I7.161504 J2.845303 F400.000000
G02 X4.929948 Y1.610456 Z-1.000000 I0.577397 J0.179753
G03 X4.918443 Y1.664296 Z-1.000000 I-0.151894 J-0.004309
G03 X4.829088 Y1.853966 Z-1.000000 I-2.036349 J-0.843451
G03 X4.766489 Y1.931825 Z-1.000000 I-0.234450 J-0.124404
G01 X4.749031 Y1.921986 Z-1.000000
G03 X4.775710 Y1.804786 Z-1.000000 I0.928270 J0.149669
G03 X4.912618 Y1.369311 Z-1.000000 I13.009419 J3.850750
G02 X4.875821 Y1.076619 Z-1.000000 I-0.324086 J-0.107915
G02 X4.674173 Y0.998580 Z-1.000000 I-0.154342 J0.099269
G02 X3.009658 Y2.239505 Z-1.000000 I0.721638 J2.704780
G02 X2.601042 Y4.377876 Z-1.000000 I2.623692 J1.609581
G02 X3.449281 Y6.334366 Z-1.000000 I4.484091 J-0.781961
G02 X5.655758 Y8.433635 Z-1.000000 I7.416229 J-5.585755
G01 X5.954698 Y8.636291 Z-1.000000
G01 X5.823534 Y8.705720 Z-1.000000
G02 X5.494103 Y9.069791 Z-1.000000 I0.336382 J0.635456
G02 X5.518798 Y9.453353 Z-1.000000 I0.408013 J0.166306
G02 X5.726912 Y9.717155 Z-1.000000 I0.963379 J-0.546016
G02 X5.990663 Y9.893431 Z-1.000000 I0.673222 J-0.721850
G01 X6.007788 Y9.914832 Z-1.000000
G01 X5.998933 Y9.932841 Z-1.000000
G02 X5.961956 Y9.953063 Z-1.000000 I0.189442 J0.390320
G02 X5.537299 Y10.215358 Z-1.000000 I30.506764 J49.865501
G02 X3.781000 Y11.671392 Z-1.000000 I4.497059 J7.211709
G02 X3.215969 Y12.737410 Z-1.000000 I1.748970 J1.609776
G02 X3.363962 Y13.756874 Z-1.000000 I1.369114 J0.321723
G02 X4.248640 Y14.544697 Z-1.000000 I1.614789 J-0.922681
G03 X4.455014 Y14.649024 Z-1.000000 I-0.702536 J1.645997
G01 X4.464904 Y14.672192 Z-1.000000
G03 X4.452017 Y14.701728 Z-1.000000 I-0.087387 J-0.020548
G03 X4.241383 Y15.004694 Z-1.000000 I-9.781986 J-6.576112
G02 X3.426638 Y16.409969 Z-1.000000 I6.756691 J4.856191
G02 X2.962950 Y17.809624 Z-1.000000 I6.238366 J2.843327
G02 X2.704880 Y19.743822 Z-1.000000 I12.006141 J2.586231
G02 X2.770621 Y21.427159 Z-1.000000 I9.140741 J0.485972
G02 X2.933275 Y22.456786 Z-1.000000 I20.261829 J-2.673177
G02 X2.991824 Y22.627916 Z-1.000000 I0.605322 J-0.111516
G01 X3.014385 Y22.629494 Z-1.000000
G02 X3.139998 Y22.418928 Z-1.000000 I-1.269633 J-0.900144
G03 X3.411765 Y22.015389 Z-1.000000 I1.636298 J0.808698
G03 X3.815959 Y21.658046 Z-1.000000 I1.677944 J1.490672
G03 X4.347713 Y21.364203 Z-1.000000 I1.750404 J2.539561
G03 X6.019918 Y20.710121 Z-1.000000 I10.644718 J24.749340
G02 X6.851519 Y20.411364 Z-1.000000 I-27.381159 J-77.523278
G02 X7.193290 Y20.281448 Z-1.000000 I-4.830864 J-13.223136
G02 X7.899178 Y19.962387 Z-1.000000 I-2.948963 J-7.464643
G02 X8.802410 Y19.458409 Z-1.000000 I-6.515930 J-12.739263
G03 X9.118391 Y19.271416 Z-1.000000 I8.867557 J14.623942
G01 X9.133099 Y19.267475 Z-1.000000
G01 X9.142339 Y19.273956 Z-1.000000
G03 X9.148474 Y19.309990 Z-1.000000 I-0.096632 J0.034993
G03 X9.115510 Y19.370562 Z-1.000000 I-0.073529 J-0.000760
G03 X8.344081 Y19.842002 Z-1.000000 I-6.970888 J-10.539774
G03 X7.509710 Y20.258368 Z-1.000000 I-4.584291 J-8.142424
G03 X6.008809 Y20.865169 Z-1.000000 I-11.302617 J-25.797014
G02 X4.179960 Y21.651747 Z-1.000000 I6.832831 J18.406202
G02 X3.604200 Y22.047258 Z-1.000000 I1.066317 J2.169105
G02 X3.144331 Y22.700737 Z-1.000000 I1.298071 J1.402034
G02 X2.929170 Y23.632527 Z-1.000000 I2.517861 J1.072141
G01 X2.907943 Y24.045988 Z-1.000000
G01 X2.712768 Y23.433795 Z-1.000000
G03 X2.195752 Y20.726383 Z-1.000000 I10.974317 J-3.498759
G03 X2.351243 Y18.184026 Z-1.000000 I9.813013 J-0.675770
G03 X2.462596 Y17.664389 Z-1.000000 I12.938589 J2.500878
G03 X2.539452 Y17.384774 Z-1.000000 I3.817750 J0.898991
G03 X3.028255 Y16.215475 Z-1.000000 I6.669843 J2.101382
G03 X3.799032 Y15.004375 Z-1.000000 I7.930862 J4.196594
G02 X4.047172 Y14.666871 Z-1.000000 I-12.979005 J-9.802412
G02 X4.067306 Y14.629462 Z-1.000000 I-0.136019 J-0.097331
G01 X4.056482 Y14.602917 Z-1.000000
G02 X3.847685 Y14.528871 Z-1.000000 I-0.520887 J1.137402
G03 X3.312878 Y14.323184 Z-1.000000 I0.622687 J-2.417163
G03 X2.929248 Y14.048155 Z-1.000000 I0.785480 J-1.500716
G03 X2.593423 Y13.530418 Z-1.000000 I0.920013 J-0.964541
G03 X2.542814 Y12.961997 Z-1.000000 I1.073917 J-0.382079
G03 X2.784067 Y12.311615 Z-1.000000 I1.802420 J0.298656
G03 X3.466656 Y11.442269 Z-1.000000 I3.963685 J2.409535
G03 X4.230053 Y10.781027 Z-1.000000 I4.970811 J4.967464
G03 X5.332016 Y10.047928 Z-1.000000 I7.225621 J9.666483
G02 X5.522999 Y9.816695 Z-1.000000 I-0.222950 J-0.378628
G02 X5.465041 Y9.674349 Z-1.000000 I-0.108710 J-0.038710
G03 X5.033948 Y9.349257 Z-1.000000 I0.626254 J-1.278830
G03 X4.931584 Y9.082942 Z-1.000000 I0.295246 J-0.266315
G03 X5.093794 Y8.784318 Z-1.000000 I0.355984 J0.000000
G03 X5.641779 Y8.622107 Z-1.000000 I0.547984 J0.844502
G01 X5.652122 Y8.590729 Z-1.000000
G02 X5.203670 Y8.298050 Z-1.000000 I-2.717428 J3.673831
G03 X3.248014 Y6.871472 Z-1.000000 I5.443626 J-9.516282
G03 X2.182620 Y5.534834 Z-1.000000 I3.689299 J-4.033546
G03 X1.880091 Y4.901385 Z-1.000000 I4.340152 J-2.461774
G03 X1.718471 Y4.356219 Z-1.000000 I3.046216 J-1.199624
G03 X1.650321 Y3.734662 Z-1.000000 I3.333043 J-0.679962
G03 X1.698392 Y3.187020 Z-1.000000 I2.629164 J-0.045148
G03 X2.724871 Y1.556505 Z-1.000000 I2.617860 J0.509691
G03 X4.858699 Y0.837130 Z-1.000000 I2.173739 J2.923405
G03 X5.136044 Y0.861751 Z-1.000000 I0.015444 J1.400431
G01 X5.153291 Y0.893160 Z-1.000000
G01 X5.153258 Y0.893163 Z-1.000000
G00 Z0.000000

(End cutting path id: path24)


(Start cutting path id: path24)
(Change tool to Cone cutter)

G00 Z0.000000
G00 X4.795415 Y1.352308

G01 Z-1.000000 F100.0(Penetrate)
G02 X4.624707 Y1.947358 Z-1.000000 I5.443203 J1.883561 F400.000000
G02 X4.591444 Y2.240971 Z-1.000000 I1.279240 J0.293613
G03 X4.583775 Y2.323834 Z-1.000000 I-0.451471 J-0.000000
G03 X4.519731 Y2.625026 Z-1.000000 I-6.072292 J-1.133768
G02 X4.726883 Y4.484314 Z-1.000000 I2.687317 J0.641778
G02 X6.360003 Y6.373803 Z-1.000000 I4.419996 J-2.169772
G02 X7.612532 Y7.071425 Z-1.000000 I4.347500 J-6.332395
G02 X9.149827 Y7.602025 Z-1.000000 I3.982269 J-9.045455
G03 X9.502508 Y7.714734 Z-1.000000 I-0.772220 J3.024506
G01 X9.498680 Y7.736794 Z-1.000000
G02 X9.343638 Y7.804552 Z-1.000000 I0.005716 J0.224339
G02 X9.141621 Y8.103444 Z-1.000000 I0.730255 J0.711286
G03 X9.053248 Y8.210463 Z-1.000000 I-0.234722 J-0.103829
G03 X8.933370 Y8.247990 Z-1.000000 I-0.119878 J-0.172711
G02 X8.420018 Y8.348919 Z-1.000000 I0.000000 J1.355988
G02 X7.950284 Y8.650098 Z-1.000000 I0.583947 J1.427653
G02 X7.494622 Y9.805663 Z-1.000000 I0.989418 J1.057767
G02 X8.102406 Y10.897910 Z-1.000000 I1.463297 J-0.099031
G01 X8.248461 Y11.002797 Z-1.000000
G01 X8.097915 Y11.320092 Z-1.000000
G01 X7.947370 Y11.637386 Z-1.000000
G01 X7.740373 Y11.586093 Z-1.000000
G02 X7.103331 Y11.515589 Z-1.000000 I-0.582622 J2.351053
G02 X6.564068 Y11.612530 Z-1.000000 I0.039769 J1.769608
G02 X5.843566 Y12.068160 Z-1.000000 I0.610021 J1.762135
G02 X5.386173 Y12.812077 Z-1.000000 I1.396251 J1.371048
G02 X5.313234 Y13.749869 Z-1.000000 I1.810553 J0.612553
G02 X5.680397 Y14.515952 Z-1.000000 I1.536321 J-0.265290
G03 X5.813041 Y14.677776 Z-1.000000 I-2.165253 J1.910079
G01 X5.811520 Y14.688300 Z-1.000000
G02 X5.185909 Y15.288552 Z-1.000000 I1.957898 J2.666758
G02 X4.837712 Y15.905735 Z-1.000000 I1.725887 J1.380509
G02 X4.776098 Y16.160912 Z-1.000000 I1.066960 J0.392653
G02 X4.745145 Y16.665654 Z-1.000000 I4.187815 J0.510135
G02 X4.770865 Y17.171805 Z-1.000000 I4.871043 J0.006203
G02 X4.824147 Y17.430897 Z-1.000000 I1.317732 J-0.135966
G02 X5.651149 Y18.583542 Z-1.000000 I2.154319 J-0.672683
G02 X7.022414 Y19.029402 Z-1.000000 I1.371264 J-1.885765
G02 X7.807280 Y18.932561 Z-1.000000 I0.000000 J-3.228954
G02 X8.672741 Y18.615851 Z-1.000000 I-1.065897 J-4.253598
G03 X8.994239 Y18.467276 Z-1.000000 I3.363026 J6.855055
G01 X9.008683 Y18.469954 Z-1.000000
G01 X9.016642 Y18.485007 Z-1.000000
G03 X9.068434 Y18.798175 Z-1.000000 I-9.574851 J1.744368
G03 X9.004193 Y19.083989 Z-1.000000 I-0.402049 J0.059760
G03 X8.653844 Y19.417716 Z-1.000000 I-0.921547 J-0.616682
G03 X7.566459 Y19.977429 Z-1.000000 I-4.790897 J-7.971432
G03 X5.628777 Y20.730949 Z-1.000000 I-10.702991 J-24.654641
G02 X4.327045 Y21.240136 Z-1.000000 I5.605959 J16.250132
G02 X3.782806 Y21.541027 Z-1.000000 I1.367329 J3.115810
G02 X3.377086 Y21.877141 Z-1.000000 I1.555459 J2.290504
G02 X3.135002 Y22.191082 Z-1.000000 I1.110387 J1.106544
G01 X3.045267 Y22.344195 Z-1.000000
G01 X3.003331 Y22.157765 Z-1.000000
G03 X2.835987 Y21.022761 Z-1.000000 I7.483232 J-1.683163
G03 X2.825245 Y19.672239 Z-1.000000 I10.601990 J-0.759626
G03 X2.986545 Y18.233036 Z-1.000000 I12.919441 J0.719315
G03 X3.247609 Y17.175816 Z-1.000000 I7.213741 J1.220475
G03 X3.640170 Y16.215096 Z-1.000000 I6.919538 J2.266840
G03 X4.172608 Y15.305224 Z-1.000000 I6.734641 J3.330249
G03 X4.369547 Y15.023554 Z-1.000000 I13.497549 J9.227565
G03 X4.617249 Y14.683303 Z-1.000000 I19.943006 J14.258199
G01 X4.694070 Y14.579658 Z-1.000000
G01 X4.515214 Y14.521058 Z-1.000000
G03 X3.514061 Y13.316776 Z-1.000000 I0.458585 J-1.399519
G03 X4.107684 Y11.474059 Z-1.000000 I2.230729 J-0.298355
G03 X4.887034 Y10.780701 Z-1.000000 I4.343090 J4.097045
G03 X5.984265 Y10.078006 Z-1.000000 I5.560221 J7.474083
G02 X6.195198 Y9.951100 Z-1.000000 I-1.404349 J-2.572949
G01 X6.214467 Y9.925986 Z-1.000000
G01 X6.207348 Y9.900654 Z-1.000000
G02 X6.080039 Y9.812305 Z-1.000000 I-0.525041 J0.620672
G03 X5.725579 Y9.551082 Z-1.000000 I0.871914 J-1.554221
G03 X5.577449 Y9.335612 Z-1.000000 I0.432470 J-0.455964
G03 X5.555363 Y9.116289 Z-1.000000 I0.353353 J-0.146356
G03 X5.655262 Y8.935276 Z-1.000000 I0.330239 J0.064182
G03 X5.860240 Y8.802193 Z-1.000000 I0.471749 J0.502202
G03 X6.078319 Y8.757638 Z-1.000000 I0.221224 J0.526819
G02 X6.149605 Y8.697896 Z-1.000000 I-0.000390 J-0.072867
G02 X6.106959 Y8.601239 Z-1.000000 I-0.092479 J-0.016934
G03 X4.527788 Y7.395311 Z-1.000000 I5.638127 J-9.020101
G03 X3.478270 Y6.173341 Z-1.000000 I4.743337 J-5.135614
G03 X3.044286 Y5.400733 Z-1.000000 I4.462278 J-3.014708
G03 X2.765388 Y4.616560 Z-1.000000 I4.319122 J-1.977816
G03 X2.698030 Y4.248347 Z-1.000000 I2.481293 J-0.644179
G03 X2.674320 Y3.775583 Z-1.000000 I4.076773 J-0.441430
G03 X2.700117 Y3.302418 Z-1.000000 I5.052633 J0.038180
G03 X2.750396 Y3.027346 Z-1.000000 I1.753336 J0.178354
G03 X3.400445 Y1.868349 Z-1.000000 I2.585476 J0.688324
G03 X4.540427 Y1.151940 Z-1.000000 I1.986908 J1.896458
G03 X4.747365 Y1.188805 Z-1.000000 I0.068891 J0.212535
G03 X4.795414 Y1.352316 Z-1.000000 I-0.090750 J0.115483
G01 X4.795415 Y1.352308 Z-1.000000
G00 Z0.000000

(End cutting path id: path24)


(Start cutting path id: path24)
(Change tool to Cone cutter)

G00 Z0.000000
G00 X4.795415 Y1.352308

G01 Z-1.000000 F100.0(Penetrate)
G02 X4.624707 Y1.947358 Z-1.000000 I5.443203 J1.883561 F400.000000
G02 X4.591444 Y2.240971 Z-1.000000 I1.279240 J0.293613
G03 X4.583775 Y2.323834 Z-1.000000 I-0.451471 J-0.000000
G03 X4.519731 Y2.625026 Z-1.000000 I-6.072292 J-1.133768
G02 X4.726883 Y4.484314 Z-1.000000 I2.687317 J0.641778
G02 X6.360003 Y6.373803 Z-1.000000 I4.419996 J-2.169772
G02 X7.612532 Y7.071425 Z-1.000000 I4.347500 J-6.332395
G02 X9.149827 Y7.602025 Z-1.000000 I3.982269 J-9.045455
G03 X9.502508 Y7.714734 Z-1.000000 I-0.772220 J3.024506
G01 X9.498680 Y7.736794 Z-1.000000
G02 X9.343638 Y7.804552 Z-1.000000 I0.005716 J0.224339
G02 X9.141621 Y8.103444 Z-1.000000 I0.730255 J0.711286
G03 X9.053248 Y8.210463 Z-1.000000 I-0.234722 J-0.103829
G03 X8.933370 Y8.247990 Z-1.000000 I-0.119878 J-0.172711
G02 X8.420018 Y8.348919 Z-1.000000 I0.000000 J1.355988
G02 X7.950284 Y8.650098 Z-1.000000 I0.583947 J1.427653
G02 X7.494622 Y9.805663 Z-1.000000 I0.989418 J1.057767
G02 X8.102406 Y10.897910 Z-1.000000 I1.463297 J-0.099031
G01 X8.248461 Y11.002797 Z-1.000000
G01 X8.097915 Y11.320092 Z-1.000000
G01 X7.947370 Y11.637386 Z-1.000000
G01 X7.740373 Y11.586093 Z-1.000000
G02 X7.103331 Y11.515589 Z-1.000000 I-0.582622 J2.351053
G02 X6.564068 Y11.612530 Z-1.000000 I0.039769 J1.769608
G02 X5.843566 Y12.068160 Z-1.000000 I0.610021 J1.762135
G02 X5.386173 Y12.812077 Z-1.000000 I1.396251 J1.371048
G02 X5.313234 Y13.749869 Z-1.000000 I1.810553 J0.612553
G02 X5.680397 Y14.515952 Z-1.000000 I1.536321 J-0.265290
G03 X5.813041 Y14.677776 Z-1.000000 I-2.165253 J1.910079
G01 X5.811520 Y14.688300 Z-1.000000
G02 X5.185909 Y15.288552 Z-1.000000 I1.957898 J2.666758
G02 X4.837712 Y15.905735 Z-1.000000 I1.725887 J1.380509
G02 X4.776098 Y16.160912 Z-1.000000 I1.066960 J0.392653
G02 X4.745145 Y16.665654 Z-1.000000 I4.187815 J0.510135
G02 X4.770865 Y17.171805 Z-1.000000 I4.871043 J0.006203
G02 X4.824147 Y17.430897 Z-1.000000 I1.317732 J-0.135966
G02 X5.651149 Y18.583542 Z-1.000000 I2.154319 J-0.672683
G02 X7.022414 Y19.029402 Z-1.000000 I1.371264 J-1.885765
G02 X7.807280 Y18.932561 Z-1.000000 I0.000000 J-3.228954
G02 X8.672741 Y18.615851 Z-1.000000 I-1.065897 J-4.253598
G03 X8.994239 Y18.467276 Z-1.000000 I3.363026 J6.855055
G01 X9.008683 Y18.469954 Z-1.000000
G01 X9.016642 Y18.485007 Z-1.000000
G03 X9.068434 Y18.798175 Z-1.000000 I-9.574851 J1.744368
G03 X9.004193 Y19.083989 Z-1.000000 I-0.402049 J0.059760
G03 X8.653844 Y19.417716 Z-1.000000 I-0.921547 J-0.616682
G03 X7.566459 Y19.977429 Z-1.000000 I-4.790897 J-7.971432
G03 X5.628777 Y20.730949 Z-1.000000 I-10.702991 J-24.654641
G02 X4.327045 Y21.240136 Z-1.000000 I5.605959 J16.250132
G02 X3.782806 Y21.541027 Z-1.000000 I1.367329 J3.115810
G02 X3.377086 Y21.877141 Z-1.000000 I1.555459 J2.290504
G02 X3.135002 Y22.191082 Z-1.000000 I1.110387 J1.106544
G01 X3.045267 Y22.344195 Z-1.000000
G01 X3.003331 Y22.157765 Z-1.000000
G03 X2.835987 Y21.022761 Z-1.000000 I7.483232 J-1.683163
G03 X2.825245 Y19.672239 Z-1.000000 I10.601990 J-0.759626
G03 X2.986545 Y18.233036 Z-1.000000 I12.919441 J0.719315
G03 X3.247609 Y17.175816 Z-1.000000 I7.213741 J1.220475
G03 X3.640170 Y16.215096 Z-1.000000 I6.919538 J2.266840
G03 X4.172608 Y15.305224 Z-1.000000 I6.734641 J3.330249
G03 X4.369547 Y15.023554 Z-1.000000 I13.497549 J9.227565
G03 X4.617249 Y14.683303 Z-1.000000 I19.943006 J14.258199
G01 X4.694070 Y14.579658 Z-1.000000
G01 X4.515214 Y14.521058 Z-1.000000
G03 X3.514061 Y13.316776 Z-1.000000 I0.458585 J-1.399519
G03 X4.107684 Y11.474059 Z-1.000000 I2.230729 J-0.298355
G03 X4.887034 Y10.780701 Z-1.000000 I4.343090 J4.097045
G03 X5.984265 Y10.078006 Z-1.000000 I5.560221 J7.474083
G02 X6.195198 Y9.951100 Z-1.000000 I-1.404349 J-2.572949
G01 X6.214467 Y9.925986 Z-1.000000
G01 X6.207348 Y9.900654 Z-1.000000
G02 X6.080039 Y9.812305 Z-1.000000 I-0.525041 J0.620672
G03 X5.725579 Y9.551082 Z-1.000000 I0.871914 J-1.554221
G03 X5.577449 Y9.335612 Z-1.000000 I0.432470 J-0.455964
G03 X5.555363 Y9.116289 Z-1.000000 I0.353353 J-0.146356
G03 X5.655262 Y8.935276 Z-1.000000 I0.330239 J0.064182
G03 X5.860240 Y8.802193 Z-1.000000 I0.471749 J0.502202
G03 X6.078319 Y8.757638 Z-1.000000 I0.221224 J0.526819
G02 X6.149605 Y8.697896 Z-1.000000 I-0.000390 J-0.072867
G02 X6.106959 Y8.601239 Z-1.000000 I-0.092479 J-0.016934
G03 X4.527788 Y7.395311 Z-1.000000 I5.638127 J-9.020101
G03 X3.478270 Y6.173341 Z-1.000000 I4.743337 J-5.135614
G03 X3.044286 Y5.400733 Z-1.000000 I4.462278 J-3.014708
G03 X2.765388 Y4.616560 Z-1.000000 I4.319122 J-1.977816
G03 X2.698030 Y4.248347 Z-1.000000 I2.481293 J-0.644179
G03 X2.674320 Y3.775583 Z-1.000000 I4.076773 J-0.441430
G03 X2.700117 Y3.302418 Z-1.000000 I5.052633 J0.038180
G03 X2.750396 Y3.027346 Z-1.000000 I1.753336 J0.178354
G03 X3.400445 Y1.868349 Z-1.000000 I2.585476 J0.688324
G03 X4.540427 Y1.151940 Z-1.000000 I1.986908 J1.896458
G03 X4.747365 Y1.188805 Z-1.000000 I0.068891 J0.212535
G03 X4.795414 Y1.352316 Z-1.000000 I-0.090750 J0.115483
G01 X4.795415 Y1.352308 Z-1.000000
G00 Z0.000000

(End cutting path id: path24)


(Start cutting path id: path24)
(Change tool to Cone cutter)

G00 Z0.000000
G00 X9.079011 Y8.392536

G01 Z-1.000000 F100.0(Penetrate)
G03 X9.113673 Y8.435188 Z-1.000000 I-5.210829 J4.270071 F400.000000
G03 X9.200982 Y8.543883 Z-1.000000 I-33.590816 J27.071338
G01 X9.288111 Y8.652717 Z-1.000000
G01 X9.005929 Y8.653200 Z-1.000000
G02 X8.366533 Y8.767891 Z-1.000000 I0.003186 J1.857413
G02 X7.868265 Y9.072685 Z-1.000000 I0.519516 J1.408959
G03 X7.775103 Y9.129773 Z-1.000000 I-0.191138 J-0.207361
G01 X7.759262 Y9.113070 Z-1.000000
G03 X7.924916 Y8.836377 Z-1.000000 I1.126775 J0.486659
G03 X8.147265 Y8.624539 Z-1.000000 I0.871652 J0.692293
G03 X8.458419 Y8.468728 Z-1.000000 I0.642800 J0.895079
G03 X9.002996 Y8.354481 Z-1.000000 I0.847983 J2.687008
G03 X9.039642 Y8.361055 Z-1.000000 I0.007205 J0.065261
G03 X9.079010 Y8.392541 Z-1.000000 I-0.054307 J0.108256
G01 X9.079011 Y8.392536 Z-1.000000
G00 Z0.000000

(End cutting path id: path24)


(Start cutting path id: path24)
(Change tool to Cone cutter)

G00 Z0.000000
G00 X9.079011 Y8.392536

G01 Z-1.000000 F100.0(Penetrate)
G03 X9.113673 Y8.435188 Z-1.000000 I-5.210829 J4.270071 F400.000000
G03 X9.200982 Y8.543883 Z-1.000000 I-33.590816 J27.071338
G01 X9.288111 Y8.652717 Z-1.000000
G01 X9.005929 Y8.653200 Z-1.000000
G02 X8.366533 Y8.767891 Z-1.000000 I0.003186 J1.857413
G02 X7.868265 Y9.072685 Z-1.000000 I0.519516 J1.408959
G03 X7.775103 Y9.129773 Z-1.000000 I-0.191138 J-0.207361
G01 X7.759262 Y9.113070 Z-1.000000
G03 X7.924916 Y8.836377 Z-1.000000 I1.126775 J0.486659
G03 X8.147265 Y8.624539 Z-1.000000 I0.871652 J0.692293
G03 X8.458419 Y8.468728 Z-1.000000 I0.642800 J0.895079
G03 X9.002996 Y8.354481 Z-1.000000 I0.847983 J2.687008
G03 X9.039642 Y8.361055 Z-1.000000 I0.007205 J0.065261
G03 X9.079010 Y8.392541 Z-1.000000 I-0.054307 J0.108256
G01 X9.079011 Y8.392536 Z-1.000000
G00 Z0.000000

(End cutting path id: path24)


(Start cutting path id: path24)
(Change tool to Cone cutter)

G00 Z0.000000
G00 X9.523004 Y8.806758

G01 Z-1.000000 F100.0(Penetrate)
G03 X9.742483 Y8.859520 Z-1.000000 I-0.964652 J4.495627 F400.000000
G03 X9.839931 Y8.891238 Z-1.000000 I-0.243588 J0.913945
G01 X9.935786 Y8.928298 Z-1.000000
G01 X9.604511 Y9.266756 Z-1.000000
G03 X9.270411 Y9.582053 Z-1.000000 I-4.140343 J-4.052593
G01 X9.239815 Y9.584555 Z-1.000000
G01 X9.230084 Y9.587582 Z-1.000000
G01 X9.231235 Y9.604085 Z-1.000000
G01 X9.231385 Y9.642322 Z-1.000000
G03 X9.088589 Y9.838913 Z-1.000000 I-1.263301 J-0.767456
G02 X8.669542 Y10.363962 Z-1.000000 I6.896171 J5.933654
G02 X8.413032 Y10.752611 Z-1.000000 I3.515256 J2.599052
G03 X8.319861 Y10.889838 Z-1.000000 I-1.079412 J-0.632632
G01 X8.297328 Y10.900834 Z-1.000000
G01 X8.272002 Y10.891867 Z-1.000000
G03 X8.067618 Y10.714864 Z-1.000000 I2.566049 J-3.169500
G03 X7.778094 Y10.315096 Z-1.000000 I0.856225 J-0.924829
G03 X7.658482 Y9.822079 Z-1.000000 I1.210349 J-0.554665
G03 X7.671729 Y9.549396 Z-1.000000 I1.439365 J-0.066738
G03 X7.714924 Y9.430955 Z-1.000000 I0.304591 J0.043986
G03 X7.927654 Y9.170472 Z-1.000000 I1.114144 J0.692788
G03 X8.213589 Y8.959427 Z-1.000000 I1.006387 J1.064283
G03 X8.789167 Y8.771784 Z-1.000000 I0.752825 J1.332633
G03 X9.523003 Y8.806763 Z-1.000000 I0.261032 J2.238913
G01 X9.523004 Y8.806758 Z-1.000000
G00 Z0.000000

(End cutting path id: path24)


(Start cutting path id: path24)
(Change tool to Cone cutter)

G00 Z0.000000
G00 X9.523004 Y8.806758

G01 Z-1.000000 F100.0(Penetrate)
G03 X9.742483 Y8.859520 Z-1.000000 I-0.964652 J4.495627 F400.000000
G03 X9.839931 Y8.891238 Z-1.000000 I-0.243588 J0.913945
G01 X9.935786 Y8.928298 Z-1.000000
G01 X9.604511 Y9.266756 Z-1.000000
G03 X9.270411 Y9.582053 Z-1.000000 I-4.140343 J-4.052593
G01 X9.239815 Y9.584555 Z-1.000000
G01 X9.230084 Y9.587582 Z-1.000000
G01 X9.231235 Y9.604085 Z-1.000000
G01 X9.231385 Y9.642322 Z-1.000000
G03 X9.088589 Y9.838913 Z-1.000000 I-1.263301 J-0.767456
G02 X8.669542 Y10.363962 Z-1.000000 I6.896171 J5.933654
G02 X8.413032 Y10.752611 Z-1.000000 I3.515256 J2.599052
G03 X8.319861 Y10.889838 Z-1.000000 I-1.079412 J-0.632632
G01 X8.297328 Y10.900834 Z-1.000000
G01 X8.272002 Y10.891867 Z-1.000000
G03 X8.067618 Y10.714864 Z-1.000000 I2.566049 J-3.169500
G03 X7.778094 Y10.315096 Z-1.000000 I0.856225 J-0.924829
G03 X7.658482 Y9.822079 Z-1.000000 I1.210349 J-0.554665
G03 X7.671729 Y9.549396 Z-1.000000 I1.439365 J-0.066738
G03 X7.714924 Y9.430955 Z-1.000000 I0.304591 J0.043986
G03 X7.927654 Y9.170472 Z-1.000000 I1.114144 J0.692788
G03 X8.213589 Y8.959427 Z-1.000000 I1.006387 J1.064283
G03 X8.789167 Y8.771784 Z-1.000000 I0.752825 J1.332633
G03 X9.523003 Y8.806763 Z-1.000000 I0.261032 J2.238913
G01 X9.523004 Y8.806758 Z-1.000000
G00 Z0.000000

(End cutting path id: path24)


(Start cutting path id: path24)
(Change tool to Cone cutter)

G00 Z0.000000
G00 X7.794836 Y11.714538

G01 Z-1.000000 F100.0(Penetrate)
G03 X7.877108 Y11.774961 Z-1.000000 I-0.045658 J0.148391 F400.000000
G03 X7.886990 Y11.848553 Z-1.000000 I-0.067695 J0.046549
G01 X7.853718 Y11.943983 Z-1.000000
G01 X7.625524 Y11.899803 Z-1.000000
G02 X6.754601 Y11.869579 Z-1.000000 I-0.531212 J2.744028
G02 X6.059471 Y12.091573 Z-1.000000 I0.238189 J1.945170
G01 X5.869110 Y12.194677 Z-1.000000
G01 X5.981546 Y12.078673 Z-1.000000
G03 X6.238301 Y11.882481 Z-1.000000 I0.783921 J0.759807
G03 X6.649093 Y11.710570 Z-1.000000 I1.001162 J1.815580
G03 X6.856036 Y11.672231 Z-1.000000 I0.284361 J0.957208
G03 X7.261287 Y11.662960 Z-1.000000 I0.287227 J3.693591
G03 X7.667241 Y11.689016 Z-1.000000 I-0.198030 J6.260832
G03 X7.794834 Y11.714540 Z-1.000000 I-0.062298 J0.643089
G01 X7.794836 Y11.714538 Z-1.000000
G00 Z0.000000

(End cutting path id: path24)


(Start cutting path id: path24)
(Change tool to Cone cutter)

G00 Z0.000000
G00 X7.794836 Y11.714538

G01 Z-1.000000 F100.0(Penetrate)
G03 X7.877108 Y11.774961 Z-1.000000 I-0.045658 J0.148391 F400.000000
G03 X7.886990 Y11.848553 Z-1.000000 I-0.067695 J0.046549
G01 X7.853718 Y11.943983 Z-1.000000
G01 X7.625524 Y11.899803 Z-1.000000
G02 X6.754601 Y11.869579 Z-1.000000 I-0.531212 J2.744028
G02 X6.059471 Y12.091573 Z-1.000000 I0.238189 J1.945170
G01 X5.869110 Y12.194677 Z-1.000000
G01 X5.981546 Y12.078673 Z-1.000000
G03 X6.238301 Y11.882481 Z-1.000000 I0.783921 J0.759807
G03 X6.649093 Y11.710570 Z-1.000000 I1.001162 J1.815580
G03 X6.856036 Y11.672231 Z-1.000000 I0.284361 J0.957208
G03 X7.261287 Y11.662960 Z-1.000000 I0.287227 J3.693591
G03 X7.667241 Y11.689016 Z-1.000000 I-0.198030 J6.260832
G03 X7.794834 Y11.714540 Z-1.000000 I-0.062298 J0.643089
G01 X7.794836 Y11.714538 Z-1.000000
G00 Z0.000000

(End cutting path id: path24)


(Start cutting path id: path24)
(Change tool to Cone cutter)

G00 Z0.000000
G00 X7.656026 Y12.023355

G01 Z-1.000000 F100.0(Penetrate)
G01 X7.805460 Y12.060975 Z-1.000000 F400.000000
G01 X7.805460 Y12.493197 Z-1.000000
G02 X7.841056 Y12.917148 Z-1.000000 I2.542447 J-0.000000
G02 X7.916815 Y13.151852 Z-1.000000 I0.843236 J-0.142606
G02 X8.189941 Y13.528930 Z-1.000000 I1.236161 J-0.607924
G02 X8.580850 Y13.801077 Z-1.000000 I1.007842 J-1.030830
G02 X9.003503 Y13.945171 Z-1.000000 I0.842616 J-1.779637
G02 X9.472846 Y13.995805 Z-1.000000 I0.469343 J-2.149925
G03 X9.619764 Y14.027943 Z-1.000000 I-0.000000 J0.351883
G01 X9.639409 Y14.072325 Z-1.000000
G03 X9.494578 Y14.393099 Z-1.000000 I-1.430148 J-0.452637
G03 X9.396477 Y14.476063 Z-1.000000 I-0.171307 J-0.103080
G03 X7.976308 Y14.765000 Z-1.000000 I-1.531221 J-3.891549
G03 X6.615084 Y14.549947 Z-1.000000 I-0.100414 J-3.780022
G03 X5.887851 Y14.159426 Z-1.000000 I0.903716 J-2.555301
G03 X5.461831 Y13.681083 Z-1.000000 I0.982103 J-1.303559
G03 X5.408539 Y13.526082 Z-1.000000 I0.357826 J-0.209689
G03 X5.406071 Y13.261873 Z-1.000000 I1.068185 J-0.142093
G03 X5.543841 Y12.722722 Z-1.000000 I2.029716 J0.231480
G03 X5.740904 Y12.439828 Z-1.000000 I0.726245 J0.295816
G03 X6.127908 Y12.174782 Z-1.000000 I1.132359 J1.238340
G03 X6.615085 Y12.006423 Z-1.000000 I0.900050 J1.815407
G03 X7.146886 Y11.956039 Z-1.000000 I0.492523 J2.366796
G03 X7.656027 Y12.023353 Z-1.000000 I-0.036296 J2.233670
G01 X7.656026 Y12.023355 Z-1.000000
G00 Z0.000000

(End cutting path id: path24)


(Start cutting path id: path24)
(Change tool to Cone cutter)

G00 Z0.000000
G00 X7.656026 Y12.023355

G01 Z-1.000000 F100.0(Penetrate)
G01 X7.805460 Y12.060975 Z-1.000000 F400.000000
G01 X7.805460 Y12.493197 Z-1.000000
G02 X7.841056 Y12.917148 Z-1.000000 I2.542447 J-0.000000
G02 X7.916815 Y13.151852 Z-1.000000 I0.843236 J-0.142606
G02 X8.189941 Y13.528930 Z-1.000000 I1.236161 J-0.607924
G02 X8.580850 Y13.801077 Z-1.000000 I1.007842 J-1.030830
G02 X9.003503 Y13.945171 Z-1.000000 I0.842616 J-1.779637
G02 X9.472846 Y13.995805 Z-1.000000 I0.469343 J-2.149925
G03 X9.619764 Y14.027943 Z-1.000000 I-0.000000 J0.351883
G01 X9.639409 Y14.072325 Z-1.000000
G03 X9.494578 Y14.393099 Z-1.000000 I-1.430148 J-0.452637
G03 X9.396477 Y14.476063 Z-1.000000 I-0.171307 J-0.103080
G03 X7.976308 Y14.765000 Z-1.000000 I-1.531221 J-3.891549
G03 X6.615084 Y14.549947 Z-1.000000 I-0.100414 J-3.780022
G03 X5.887851 Y14.159426 Z-1.000000 I0.903716 J-2.555301
G03 X5.461831 Y13.681083 Z-1.000000 I0.982103 J-1.303559
G03 X5.408539 Y13.526082 Z-1.000000 I0.357826 J-0.209689
G03 X5.406071 Y13.261873 Z-1.000000 I1.068185 J-0.142093
G03 X5.543841 Y12.722722 Z-1.000000 I2.029716 J0.231480
G03 X5.740904 Y12.439828 Z-1.000000 I0.726245 J0.295816
G03 X6.127908 Y12.174782 Z-1.000000 I1.132359 J1.238340
G03 X6.615085 Y12.006423 Z-1.000000 I0.900050 J1.815407
G03 X7.146886 Y11.956039 Z-1.000000 I0.492523 J2.366796
G03 X7.656027 Y12.023353 Z-1.000000 I-0.036296 J2.233670
G01 X7.656026 Y12.023355 Z-1.000000
G00 Z0.000000

(End cutting path id: path24)


(Start cutting path id: path24)
(Change tool to Cone cutter)

G00 Z0.000000
G00 X6.138440 Y14.455940

G01 Z-1.000000 F100.0(Penetrate)
G02 X6.873206 Y14.740793 Z-1.000000 I1.377596 J-2.463373 F400.000000
G02 X7.824361 Y14.850289 Z-1.000000 I0.948875 J-4.056632
G02 X8.587529 Y14.800217 Z-1.000000 I-0.003214 J-5.889912
G02 X9.162097 Y14.674722 Z-1.000000 I-0.453069 J-3.452389
G03 X9.391476 Y14.611561 Z-1.000000 I1.136232 J3.678332
G01 X9.405904 Y14.615612 Z-1.000000
G01 X9.411197 Y14.629912 Z-1.000000
G03 X9.399184 Y14.701052 Z-1.000000 I-0.402458 J-0.031378
G03 X9.298889 Y14.812301 Z-1.000000 I-0.157554 J-0.041206
G03 X8.477199 Y15.047324 Z-1.000000 I-1.864029 J-4.963132
G03 X6.449118 Y14.908071 Z-1.000000 I-0.758943 J-3.784858
G03 X5.493134 Y14.008488 Z-1.000000 I0.529201 J-1.520133
G01 X5.513828 Y13.989734 Z-1.000000
G03 X5.677065 Y14.107538 Z-1.000000 I-0.364957 J0.677702
G02 X5.922845 Y14.315191 Z-1.000000 I2.017411 J-2.138551
G02 X6.138461 Y14.455942 Z-1.000000 I1.134652 J-1.502641
G01 X6.138440 Y14.455940 Z-1.000000
G00 Z0.000000

(End cutting path id: path24)


(Start cutting path id: path24)
(Change tool to Cone cutter)

G00 Z0.000000
G00 X6.138440 Y14.455940

G01 Z-1.000000 F100.0(Penetrate)
G02 X6.873206 Y14.740793 Z-1.000000 I1.377596 J-2.463373 F400.000000
G02 X7.824361 Y14.850289 Z-1.000000 I0.948875 J-4.056632
G02 X8.587529 Y14.800217 Z-1.000000 I-0.003214 J-5.889912
G02 X9.162097 Y14.674722 Z-1.000000 I-0.453069 J-3.452389
G03 X9.391476 Y14.611561 Z-1.000000 I1.136232 J3.678332
G01 X9.405904 Y14.615612 Z-1.000000
G01 X9.411197 Y14.629912 Z-1.000000
G03 X9.399184 Y14.701052 Z-1.000000 I-0.402458 J-0.031378
G03 X9.298889 Y14.812301 Z-1.000000 I-0.157554 J-0.041206
G03 X8.477199 Y15.047324 Z-1.000000 I-1.864029 J-4.963132
G03 X6.449118 Y14.908071 Z-1.000000 I-0.758943 J-3.784858
G03 X5.493134 Y14.008488 Z-1.000000 I0.529201 J-1.520133
G01 X5.513828 Y13.989734 Z-1.000000
G03 X5.677065 Y14.107538 Z-1.000000 I-0.364957 J0.677702
G02 X5.922845 Y14.315191 Z-1.000000 I2.017411 J-2.138551
G02 X6.138461 Y14.455942 Z-1.000000 I1.134652 J-1.502641
G01 X6.138440 Y14.455940 Z-1.000000
G00 Z0.000000

(End cutting path id: path24)


(Start cutting path id: path24)
(Change tool to Cone cutter)

G00 Z0.000000
G00 X6.056450 Y14.847890

G01 Z-1.000000 F100.0(Penetrate)
G02 X6.342708 Y15.009928 Z-1.000000 I0.921526 J-1.294106 F400.000000
G02 X6.804108 Y15.174077 Z-1.000000 I1.408446 J-3.228403
G02 X7.026228 Y15.213339 Z-1.000000 I0.312244 J-1.118554
G02 X7.601394 Y15.236133 Z-1.000000 I0.586792 J-7.538411
G02 X8.449086 Y15.169471 Z-1.000000 I0.008196 J-5.318818
G02 X9.102289 Y14.996230 Z-1.000000 I-0.530232 J-3.317301
G03 X9.289645 Y14.948879 Z-1.000000 I0.303313 J0.805799
G01 X9.305289 Y14.968635 Z-1.000000
G02 X9.186213 Y15.349960 Z-1.000000 I2.928428 J1.123705
G02 X9.024514 Y16.121251 Z-1.000000 I11.856725 J2.888329
G02 X8.985708 Y16.429143 Z-1.000000 I3.122425 J0.549939
G02 X8.949182 Y17.105194 Z-1.000000 I15.041042 J1.151646
G01 X8.927811 Y17.782810 Z-1.000000
G01 X8.774762 Y17.861078 Z-1.000000
G03 X7.216969 Y18.326376 Z-1.000000 I-2.039692 J-3.988427
G03 X6.001815 Y18.161115 Z-1.000000 I-0.274187 J-2.534038
G03 X5.614156 Y17.955685 Z-1.000000 I0.743238 J-1.871018
G03 X5.254649 Y17.653807 Z-1.000000 I1.294822 J-1.907017
G03 X4.945100 Y17.205916 Z-1.000000 I1.185478 J-1.150226
G03 X4.835506 Y16.761598 Z-1.000000 I1.056251 J-0.496206
G03 X5.034710 Y15.742005 Z-1.000000 I2.206255 J-0.098205
G03 X5.678029 Y14.926326 Z-1.000000 I2.006971 J0.921350
G03 X5.871004 Y14.790133 Z-1.000000 I1.431836 J1.823985
G03 X5.912608 Y14.778078 Z-1.000000 I0.041638 J0.065881
G03 X5.955234 Y14.787864 Z-1.000000 I0.000047 J0.097532
G03 X6.056447 Y14.847888 Z-1.000000 I-0.307961 J0.634624
G01 X6.056450 Y14.847890 Z-1.000000
G00 Z0.000000

(End cutting path id: path24)


(Start cutting path id: path24)
(Change tool to Cone cutter)

G00 Z0.000000
G00 X6.056450 Y14.847890

G01 Z-1.000000 F100.0(Penetrate)
G02 X6.342708 Y15.009928 Z-1.000000 I0.921526 J-1.294106 F400.000000
G02 X6.804108 Y15.174077 Z-1.000000 I1.408446 J-3.228403
G02 X7.026228 Y15.213339 Z-1.000000 I0.312244 J-1.118554
G02 X7.601394 Y15.236133 Z-1.000000 I0.586792 J-7.538411
G02 X8.449086 Y15.169471 Z-1.000000 I0.008196 J-5.318818
G02 X9.102289 Y14.996230 Z-1.000000 I-0.530232 J-3.317301
G03 X9.289645 Y14.948879 Z-1.000000 I0.303313 J0.805799
G01 X9.305289 Y14.968635 Z-1.000000
G02 X9.186213 Y15.349960 Z-1.000000 I2.928428 J1.123705
G02 X9.024514 Y16.121251 Z-1.000000 I11.856725 J2.888329
G02 X8.985708 Y16.429143 Z-1.000000 I3.122425 J0.549939
G02 X8.949182 Y17.105194 Z-1.000000 I15.041042 J1.151646
G01 X8.927811 Y17.782810 Z-1.000000
G01 X8.774762 Y17.861078 Z-1.000000
G03 X7.216969 Y18.326376 Z-1.000000 I-2.039692 J-3.988427
G03 X6.001815 Y18.161115 Z-1.000000 I-0.274187 J-2.534038
G03 X5.614156 Y17.955685 Z-1.000000 I0.743238 J-1.871018
G03 X5.254649 Y17.653807 Z-1.000000 I1.294822 J-1.907017
G03 X4.945100 Y17.205916 Z-1.000000 I1.185478 J-1.150226
G03 X4.835506 Y16.761598 Z-1.000000 I1.056251 J-0.496206
G03 X5.034710 Y15.742005 Z-1.000000 I2.206255 J-0.098205
G03 X5.678029 Y14.926326 Z-1.000000 I2.006971 J0.921350
G03 X5.871004 Y14.790133 Z-1.000000 I1.431836 J1.823985
G03 X5.912608 Y14.778078 Z-1.000000 I0.041638 J0.065881
G03 X5.955234 Y14.787864 Z-1.000000 I0.000047 J0.097532
G03 X6.056447 Y14.847888 Z-1.000000 I-0.307961 J0.634624
G01 X6.056450 Y14.847890 Z-1.000000
G00 Z0.000000

(End cutting path id: path24)


(Start cutting path id: path24)
(Change tool to Cone cutter)

G00 Z0.000000
G00 X5.439066 Y17.976593

G01 Z-1.000000 F100.0(Penetrate)
G02 X6.771267 Y18.435771 Z-1.000000 I1.375906 J-1.829756 F400.000000
G02 X8.669613 Y18.038277 Z-1.000000 I0.082800 J-4.336364
G03 X8.954099 Y17.913112 Z-1.000000 I3.730818 J8.093826
G01 X8.962987 Y17.915258 Z-1.000000
G01 X8.967275 Y17.925328 Z-1.000000
G03 X8.985558 Y18.115291 Z-1.000000 I-5.648360 J0.639502
G01 X9.000726 Y18.306533 Z-1.000000
G01 X8.828231 Y18.409616 Z-1.000000
G03 X8.356840 Y18.642047 Z-1.000000 I-1.675432 J-2.803698
G03 X7.763857 Y18.831715 Z-1.000000 I-1.689459 J-4.260166
G03 X7.004999 Y18.927499 Z-1.000000 I-0.790327 J-3.207506
G03 X6.394023 Y18.844753 Z-1.000000 I-0.020445 J-2.146071
G03 X5.589841 Y18.428978 Z-1.000000 I0.631781 J-2.207574
G03 X5.088596 Y17.798573 Z-1.000000 I1.136499 J-1.418127
G03 X4.971030 Y17.541548 Z-1.000000 I6.600386 J-3.174481
G03 X4.965571 Y17.515272 Z-1.000000 I0.060507 J-0.026277
G01 X4.973893 Y17.511973 Z-1.000000
G03 X5.090464 Y17.648058 Z-1.000000 I-1.404287 J1.320885
G02 X5.226279 Y17.797264 Z-1.000000 I1.040000 J-0.810245
G02 X5.439074 Y17.976591 Z-1.000000 I1.720358 J-1.825509
G01 X5.439066 Y17.976593 Z-1.000000
G00 Z0.000000

(End cutting path id: path24)


(Start cutting path id: path24)
(Change tool to Cone cutter)

G00 Z0.000000
G00 X5.439066 Y17.976593

G01 Z-1.000000 F100.0(Penetrate)
G02 X6.771267 Y18.435771 Z-1.000000 I1.375906 J-1.829756 F400.000000
G02 X8.669613 Y18.038277 Z-1.000000 I0.082800 J-4.336364
G03 X8.954099 Y17.913112 Z-1.000000 I3.730818 J8.093826
G01 X8.962987 Y17.915258 Z-1.000000
G01 X8.967275 Y17.925328 Z-1.000000
G03 X8.985558 Y18.115291 Z-1.000000 I-5.648360 J0.639502
G01 X9.000726 Y18.306533 Z-1.000000
G01 X8.828231 Y18.409616 Z-1.000000
G03 X8.356840 Y18.642047 Z-1.000000 I-1.675432 J-2.803698
G03 X7.763857 Y18.831715 Z-1.000000 I-1.689459 J-4.260166
G03 X7.004999 Y18.927499 Z-1.000000 I-0.790327 J-3.207506
G03 X6.394023 Y18.844753 Z-1.000000 I-0.020445 J-2.146071
G03 X5.589841 Y18.428978 Z-1.000000 I0.631781 J-2.207574
G03 X5.088596 Y17.798573 Z-1.000000 I1.136499 J-1.418127
G03 X4.971030 Y17.541548 Z-1.000000 I6.600386 J-3.174481
G03 X4.965571 Y17.515272 Z-1.000000 I0.060507 J-0.026277
G01 X4.973893 Y17.511973 Z-1.000000
G03 X5.090464 Y17.648058 Z-1.000000 I-1.404287 J1.320885
G02 X5.226279 Y17.797264 Z-1.000000 I1.040000 J-0.810245
G02 X5.439074 Y17.976591 Z-1.000000 I1.720358 J-1.825509
G01 X5.439066 Y17.976593 Z-1.000000
G00 Z0.000000

(End cutting path id: path24)


(Start cutting path id: path24)
(Change tool to Cone cutter)

G00 Z0.000000
G00 X4.608449 Y18.531237

G01 Z-1.000000 F100.0(Penetrate)
G03 X4.883375 Y18.732610 Z-1.000000 I-0.370814 J0.794616 F400.000000
G03 X5.062190 Y19.025133 Z-1.000000 I-0.653560 J0.600428
G03 X5.117603 Y19.371827 Z-1.000000 I-0.846201 J0.313026
G03 X5.040829 Y19.597412 Z-1.000000 I-0.415380 J-0.015511
G03 X4.818253 Y19.807917 Z-1.000000 I-0.645618 J-0.459716
G03 X4.483723 Y19.949057 Z-1.000000 I-0.594242 J-0.941452
G03 X4.079845 Y19.981223 Z-1.000000 I-0.304209 J-1.267991
G03 X3.767644 Y19.894165 Z-1.000000 I0.063786 J-0.832068
G03 X3.438131 Y19.609575 Z-1.000000 I0.404382 J-0.801273
G03 X3.333381 Y19.277338 Z-1.000000 I0.469803 J-0.330754
G03 X3.485128 Y18.809556 Z-1.000000 I0.803253 J0.002068
G03 X3.889224 Y18.506590 Z-1.000000 I0.687167 J0.495568
G03 X4.264273 Y18.448678 Z-1.000000 I0.340186 J0.959717
G03 X4.608452 Y18.531238 Z-1.000000 I-0.030323 J0.885106
G01 X4.608449 Y18.531237 Z-1.000000
G00 Z0.000000

(End cutting path id: path24)


(Start cutting path id: path24)
(Change tool to Cone cutter)

G00 Z0.000000
G00 X4.608449 Y18.531237

G01 Z-1.000000 F100.0(Penetrate)
G03 X4.883375 Y18.732610 Z-1.000000 I-0.370814 J0.794616 F400.000000
G03 X5.062190 Y19.025133 Z-1.000000 I-0.653560 J0.600428
G03 X5.117603 Y19.371827 Z-1.000000 I-0.846201 J0.313026
G03 X5.040829 Y19.597412 Z-1.000000 I-0.415380 J-0.015511
G03 X4.818253 Y19.807917 Z-1.000000 I-0.645618 J-0.459716
G03 X4.483723 Y19.949057 Z-1.000000 I-0.594242 J-0.941452
G03 X4.079845 Y19.981223 Z-1.000000 I-0.304209 J-1.267991
G03 X3.767644 Y19.894165 Z-1.000000 I0.063786 J-0.832068
G03 X3.438131 Y19.609575 Z-1.000000 I0.404382 J-0.801273
G03 X3.333381 Y19.277338 Z-1.000000 I0.469803 J-0.330754
G03 X3.485128 Y18.809556 Z-1.000000 I0.803253 J0.002068
G03 X3.889224 Y18.506590 Z-1.000000 I0.687167 J0.495568
G03 X4.264273 Y18.448678 Z-1.000000 I0.340186 J0.959717
G03 X4.608452 Y18.531238 Z-1.000000 I-0.030323 J0.885106
G01 X4.608449 Y18.531237 Z-1.000000
G00 Z0.000000

(End cutting path id: path24)


(Start cutting path id: path24)
(Change tool to Cone cutter)

G00 Z0.000000
G00 X3.956265 Y18.362091

G01 Z-1.000000 F100.0(Penetrate)
G02 X3.356041 Y18.840995 Z-1.000000 I0.341183 J1.043204 F400.000000
G02 X3.244846 Y19.548931 Z-1.000000 I0.819935 J0.491487
G02 X3.950459 Y20.292699 Z-1.000000 I0.986526 J-0.229325
G02 X4.937364 Y20.037526 Z-1.000000 I0.277709 J-0.961995
G02 X5.145742 Y19.721466 Z-1.000000 I-0.672050 J-0.669804
G02 X5.219430 Y19.335497 Z-1.000000 I-0.948541 J-0.381110
G02 X5.140682 Y18.940474 Z-1.000000 I-1.055620 J0.005077
G02 X4.926426 Y18.620178 Z-1.000000 I-0.893784 J0.366070
G02 X4.451623 Y18.348197 Z-1.000000 I-0.748196 J0.755714
G02 X3.956265 Y18.362091 Z-1.000000 I-0.224232 J0.842896
G01 X3.956265 Y18.362091 Z-1.000000
G00 Z0.000000

(End cutting path id: path24)


(Start cutting path id: path24)
(Change tool to Cone cutter)

G00 Z0.000000
G00 X3.956265 Y18.362091

G01 Z-1.000000 F100.0(Penetrate)
G02 X3.356041 Y18.840995 Z-1.000000 I0.341183 J1.043204 F400.000000
G02 X3.244846 Y19.548931 Z-1.000000 I0.819935 J0.491487
G02 X3.950459 Y20.292699 Z-1.000000 I0.986526 J-0.229325
G02 X4.937364 Y20.037526 Z-1.000000 I0.277709 J-0.961995
G02 X5.145742 Y19.721466 Z-1.000000 I-0.672050 J-0.669804
G02 X5.219430 Y19.335497 Z-1.000000 I-0.948541 J-0.381110
G02 X5.140682 Y18.940474 Z-1.000000 I-1.055620 J0.005077
G02 X4.926426 Y18.620178 Z-1.000000 I-0.893784 J0.366070
G02 X4.451623 Y18.348197 Z-1.000000 I-0.748196 J0.755714
G02 X3.956265 Y18.362091 Z-1.000000 I-0.224232 J0.842896
G01 X3.956265 Y18.362091 Z-1.000000
G00 Z0.000000

(End cutting path id: path24)


(Start cutting path id: path24)
(Change tool to Cone cutter)

G00 Z0.000000
G00 X4.829519 Y19.985559

G01 Z-1.000000 F100.0(Penetrate)
G03 X4.574461 Y20.143255 Z-1.000000 I-0.615659 J-0.710655 F400.000000
G03 X4.284339 Y20.211955 Z-1.000000 I-0.356453 J-0.858365
G03 X3.896636 Y20.162254 Z-1.000000 I-0.070584 J-0.986414
G03 X3.633986 Y19.991779 Z-1.000000 I0.203499 J-0.601098
G01 X3.554115 Y19.905322 Z-1.000000
G01 X3.700041 Y19.978917 Z-1.000000
G02 X4.243943 Y20.104876 Z-1.000000 I0.529819 J-1.050523
G02 X4.743638 Y19.966427 Z-1.000000 I-0.012147 J-1.014831
G03 X4.821615 Y19.954266 Z-1.000000 I0.054487 J0.093293
G01 X4.829516 Y19.985555 Z-1.000000
G01 X4.829519 Y19.985559 Z-1.000000
G00 Z0.000000

(End cutting path id: path24)


(Start cutting path id: path24)
(Change tool to Cone cutter)

G00 Z0.000000
G00 X4.829519 Y19.985559

G01 Z-1.000000 F100.0(Penetrate)
G03 X4.574461 Y20.143255 Z-1.000000 I-0.615659 J-0.710655 F400.000000
G03 X4.284339 Y20.211955 Z-1.000000 I-0.356453 J-0.858365
G03 X3.896636 Y20.162254 Z-1.000000 I-0.070584 J-0.986414
G03 X3.633986 Y19.991779 Z-1.000000 I0.203499 J-0.601098
G01 X3.554115 Y19.905322 Z-1.000000
G01 X3.700041 Y19.978917 Z-1.000000
G02 X4.243943 Y20.104876 Z-1.000000 I0.529819 J-1.050523
G02 X4.743638 Y19.966427 Z-1.000000 I-0.012147 J-1.014831
G03 X4.821615 Y19.954266 Z-1.000000 I0.054487 J0.093293
G01 X4.829516 Y19.985555 Z-1.000000
G01 X4.829519 Y19.985559 Z-1.000000
G00 Z0.000000

(End cutting path id: path24)


(Start cutting path id: path24)
(Change tool to Cone cutter)

G00 Z0.000000
G00 X11.990652 Y18.821726

G01 Z-1.000000 F100.0(Penetrate)
G03 X11.665954 Y19.173905 Z-1.000000 I-0.804676 J-0.416115 F400.000000
G03 X11.223543 Y19.300964 Z-1.000000 I-0.443190 J-0.709407
G03 X10.931927 Y19.264934 Z-1.000000 I-0.001127 J-1.189022
G03 X10.762827 Y19.184890 Z-1.000000 I0.117767 J-0.467436
G01 X10.766879 Y19.168055 Z-1.000000
G03 X10.849427 Y19.170467 Z-1.000000 I0.035142 J0.211017
G02 X11.408070 Y19.149038 Z-1.000000 I0.239335 J-1.053149
G02 X11.907071 Y18.843129 Z-1.000000 I-0.349983 J-1.130836
G03 X12.024150 Y18.727064 Z-1.000000 I3.153952 J3.064403
G01 X12.032175 Y18.723666 Z-1.000000
G01 X12.034881 Y18.727584 Z-1.000000
G03 X11.990655 Y18.821724 Z-1.000000 I-1.253360 J-0.531358
G01 X11.990652 Y18.821726 Z-1.000000
G00 Z0.000000

(End cutting path id: path24)


(Start cutting path id: path24)
(Change tool to Cone cutter)

G00 Z0.000000
G00 X11.990652 Y18.821726

G01 Z-1.000000 F100.0(Penetrate)
G03 X11.665954 Y19.173905 Z-1.000000 I-0.804676 J-0.416115 F400.000000
G03 X11.223543 Y19.300964 Z-1.000000 I-0.443190 J-0.709407
G03 X10.931927 Y19.264934 Z-1.000000 I-0.001127 J-1.189022
G03 X10.762827 Y19.184890 Z-1.000000 I0.117767 J-0.467436
G01 X10.766879 Y19.168055 Z-1.000000
G03 X10.849427 Y19.170467 Z-1.000000 I0.035142 J0.211017
G02 X11.408070 Y19.149038 Z-1.000000 I0.239335 J-1.053149
G02 X11.907071 Y18.843129 Z-1.000000 I-0.349983 J-1.130836
G03 X12.024150 Y18.727064 Z-1.000000 I3.153952 J3.064403
G01 X12.032175 Y18.723666 Z-1.000000
G01 X12.034881 Y18.727584 Z-1.000000
G03 X11.990655 Y18.821724 Z-1.000000 I-1.253360 J-0.531358
G01 X11.990652 Y18.821726 Z-1.000000
G00 Z0.000000

(End cutting path id: path24)


(Start cutting path id: path24)
(Change tool to Cone cutter)

G00 Z0.000000
G00 X12.025423 Y18.499907

G01 Z-1.000000 F100.0(Penetrate)
G03 X11.716309 Y18.864168 Z-1.000000 I-0.871815 J-0.426540 F400.000000
G03 X11.241634 Y19.057620 Z-1.000000 I-0.647769 J-0.910351
G03 X10.909602 Y19.062103 Z-1.000000 I-0.181689 J-1.158527
G03 X10.650874 Y18.981234 Z-1.000000 I0.100149 J-0.774726
G03 X10.439080 Y18.823688 Z-1.000000 I0.375162 J-0.725478
G03 X10.330441 Y18.650073 Z-1.000000 I0.353369 J-0.341916
G01 X10.307190 Y18.631837 Z-1.000000
G01 X10.271821 Y18.643663 Z-1.000000
G02 X10.250925 Y18.937757 Z-1.000000 I0.148723 J0.158356
G02 X10.835784 Y19.348402 Z-1.000000 I0.996501 J-0.797445
G02 X11.266361 Y19.410561 Z-1.000000 I0.381353 J-1.119255
G02 X11.618104 Y19.315803 Z-1.000000 I-0.034512 J-0.828320
G02 X12.016214 Y18.964525 Z-1.000000 I-0.523931 J-0.995011
G02 X12.199439 Y18.483138 Z-1.000000 I-0.867801 J-0.605865
G02 X12.138913 Y18.421285 Z-1.000000 I-0.055189 J-0.006535
G02 X12.025424 Y18.499929 Z-1.000000 I0.013587 J0.140816
G01 X12.025423 Y18.499907 Z-1.000000
G00 Z0.000000

(End cutting path id: path24)


(Start cutting path id: path24)
(Change tool to Cone cutter)

G00 Z0.000000
G00 X12.025423 Y18.499907

G01 Z-1.000000 F100.0(Penetrate)
G03 X11.716309 Y18.864168 Z-1.000000 I-0.871815 J-0.426540 F400.000000
G03 X11.241634 Y19.057620 Z-1.000000 I-0.647769 J-0.910351
G03 X10.909602 Y19.062103 Z-1.000000 I-0.181689 J-1.158527
G03 X10.650874 Y18.981234 Z-1.000000 I0.100149 J-0.774726
G03 X10.439080 Y18.823688 Z-1.000000 I0.375162 J-0.725478
G03 X10.330441 Y18.650073 Z-1.000000 I0.353369 J-0.341916
G01 X10.307190 Y18.631837 Z-1.000000
G01 X10.271821 Y18.643663 Z-1.000000
G02 X10.250925 Y18.937757 Z-1.000000 I0.148723 J0.158356
G02 X10.835784 Y19.348402 Z-1.000000 I0.996501 J-0.797445
G02 X11.266361 Y19.410561 Z-1.000000 I0.381353 J-1.119255
G02 X11.618104 Y19.315803 Z-1.000000 I-0.034512 J-0.828320
G02 X12.016214 Y18.964525 Z-1.000000 I-0.523931 J-0.995011
G02 X12.199439 Y18.483138 Z-1.000000 I-0.867801 J-0.605865
G02 X12.138913 Y18.421285 Z-1.000000 I-0.055189 J-0.006535
G02 X12.025424 Y18.499929 Z-1.000000 I0.013587 J0.140816
G01 X12.025423 Y18.499907 Z-1.000000
G00 Z0.000000

(End cutting path id: path24)


(Start cutting path id: path24)
(Change tool to Cone cutter)

G00 Z0.000000
G00 X17.988588 Y13.584587

G01 Z-1.000000 F100.0(Penetrate)
G03 X17.942792 Y13.708399 Z-1.000000 I-1.001238 J-0.299967 F400.000000
G01 X17.932858 Y13.710247 Z-1.000000
G01 X17.927790 Y13.694007 Z-1.000000
G03 X17.960768 Y13.556760 Z-1.000000 I1.253821 J0.228686
G03 X18.006563 Y13.432947 Z-1.000000 I0.999571 J0.299337
G01 X18.016498 Y13.431100 Z-1.000000
G01 X18.021566 Y13.447340 Z-1.000000
G03 X17.988588 Y13.584587 Z-1.000000 I-1.253821 J-0.228686
G01 X17.988588 Y13.584587 Z-1.000000
G00 Z0.000000

(End cutting path id: path24)


(Start cutting path id: path24)
(Change tool to Cone cutter)

G00 Z0.000000
G00 X17.988588 Y13.584587

G01 Z-1.000000 F100.0(Penetrate)
G03 X17.942792 Y13.708399 Z-1.000000 I-1.001238 J-0.299967 F400.000000
G01 X17.932858 Y13.710247 Z-1.000000
G01 X17.927790 Y13.694007 Z-1.000000
G03 X17.960768 Y13.556760 Z-1.000000 I1.253821 J0.228686
G03 X18.006563 Y13.432947 Z-1.000000 I0.999571 J0.299337
G01 X18.016498 Y13.431100 Z-1.000000
G01 X18.021566 Y13.447340 Z-1.000000
G03 X17.988588 Y13.584587 Z-1.000000 I-1.253821 J-0.228686
G01 X17.988588 Y13.584587 Z-1.000000
G00 Z0.000000

(End cutting path id: path24)


(Start cutting path id: path24)
(Change tool to Cone cutter)

G00 Z0.000000
G00 X18.048928 Y13.355980

G01 Z-1.000000 F100.0(Penetrate)
G01 X18.038345 Y13.358151 Z-1.000000 F400.000000
G01 X18.028388 Y13.335440 Z-1.000000
G03 X18.035656 Y13.293013 Z-1.000000 I0.103808 J-0.004053
G01 X18.046258 Y13.290810 Z-1.000000
G01 X18.056221 Y13.313526 Z-1.000000
G03 X18.048958 Y13.356000 Z-1.000000 I-0.102954 J0.004252
G01 X18.048928 Y13.355980 Z-1.000000
G00 Z0.000000

(End cutting path id: path24)


(Start cutting path id: path24)
(Change tool to Cone cutter)

G00 Z0.000000
G00 X18.048928 Y13.355980

G01 Z-1.000000 F100.0(Penetrate)
G01 X18.038345 Y13.358151 Z-1.000000 F400.000000
G01 X18.028388 Y13.335440 Z-1.000000
G03 X18.035656 Y13.293013 Z-1.000000 I0.103808 J-0.004053
G01 X18.046258 Y13.290810 Z-1.000000
G01 X18.056221 Y13.313526 Z-1.000000
G03 X18.048958 Y13.356000 Z-1.000000 I-0.102954 J0.004252
G01 X18.048928 Y13.355980 Z-1.000000
G00 Z0.000000

(End cutting path id: path24)


(Start cutting path id: path24)
(Change tool to Cone cutter)

G00 Z0.000000
G00 X18.082938 Y13.219937

G01 Z-1.000000 F100.0(Penetrate)
G01 X18.072355 Y13.222108 Z-1.000000 F400.000000
G01 X18.062398 Y13.199397 Z-1.000000
G03 X18.069668 Y13.156971 Z-1.000000 I0.103787 J-0.004052
G01 X18.080268 Y13.154767 Z-1.000000
G01 X18.090231 Y13.177483 Z-1.000000
G03 X18.082968 Y13.219957 Z-1.000000 I-0.102954 J0.004252
G01 X18.082938 Y13.219937 Z-1.000000
G00 Z0.000000

(End cutting path id: path24)


(Start cutting path id: path24)
(Change tool to Cone cutter)

G00 Z0.000000
G00 X18.082938 Y13.219937

G01 Z-1.000000 F100.0(Penetrate)
G01 X18.072355 Y13.222108 Z-1.000000 F400.000000
G01 X18.062398 Y13.199397 Z-1.000000
G03 X18.069668 Y13.156971 Z-1.000000 I0.103787 J-0.004052
G01 X18.080268 Y13.154767 Z-1.000000
G01 X18.090231 Y13.177483 Z-1.000000
G03 X18.082968 Y13.219957 Z-1.000000 I-0.102954 J0.004252
G01 X18.082938 Y13.219937 Z-1.000000
G00 Z0.000000

(End cutting path id: path24)


(Start cutting path id: path24)
(Change tool to Cone cutter)

G00 Z0.000000
G00 X18.116948 Y13.049884

G01 Z-1.000000 F100.0(Penetrate)
G01 X18.106365 Y13.052055 Z-1.000000 F400.000000
G01 X18.096408 Y13.029344 Z-1.000000
G03 X18.103676 Y12.986900 Z-1.000000 I0.103887 J-0.004056
G01 X18.114278 Y12.984694 Z-1.000000
G01 X18.124241 Y13.007410 Z-1.000000
G03 X18.116978 Y13.049884 Z-1.000000 I-0.102954 J0.004252
G01 X18.116948 Y13.049884 Z-1.000000
G00 Z0.000000

(End cutting path id: path24)


(Start cutting path id: path24)
(Change tool to Cone cutter)

G00 Z0.000000
G00 X18.116948 Y13.049884

G01 Z-1.000000 F100.0(Penetrate)
G01 X18.106365 Y13.052055 Z-1.000000 F400.000000
G01 X18.096408 Y13.029344 Z-1.000000
G03 X18.103676 Y12.986900 Z-1.000000 I0.103887 J-0.004056
G01 X18.114278 Y12.984694 Z-1.000000
G01 X18.124241 Y13.007410 Z-1.000000
G03 X18.116978 Y13.049884 Z-1.000000 I-0.102954 J0.004252
G01 X18.116948 Y13.049884 Z-1.000000
G00 Z0.000000

(End cutting path id: path24)


(Start cutting path id: path24)
(Change tool to Cone cutter)

G00 Z0.000000
G00 X18.150958 Y12.879830

G01 Z-1.000000 F100.0(Penetrate)
G01 X18.140377 Y12.882000 Z-1.000000 F400.000000
G01 X18.130418 Y12.859290 Z-1.000000
G03 X18.137686 Y12.816863 Z-1.000000 I0.103808 J-0.004053
G01 X18.148288 Y12.814660 Z-1.000000
G01 X18.158251 Y12.837376 Z-1.000000
G03 X18.150988 Y12.879850 Z-1.000000 I-0.102954 J0.004252
G01 X18.150958 Y12.879830 Z-1.000000
G00 Z0.000000

(End cutting path id: path24)


(Start cutting path id: path24)
(Change tool to Cone cutter)

G00 Z0.000000
G00 X18.150958 Y12.879830

G01 Z-1.000000 F100.0(Penetrate)
G01 X18.140377 Y12.882000 Z-1.000000 F400.000000
G01 X18.130418 Y12.859290 Z-1.000000
G03 X18.137686 Y12.816863 Z-1.000000 I0.103808 J-0.004053
G01 X18.148288 Y12.814660 Z-1.000000
G01 X18.158251 Y12.837376 Z-1.000000
G03 X18.150988 Y12.879850 Z-1.000000 I-0.102954 J0.004252
G01 X18.150958 Y12.879830 Z-1.000000
G00 Z0.000000

(End cutting path id: path24)


(Start cutting path id: path24)
(Change tool to Cone cutter)

G00 Z0.000000
G00 X18.184258 Y12.711902

G01 Z-1.000000 F100.0(Penetrate)
G01 X18.175363 Y12.711908 Z-1.000000 F400.000000
G03 X18.167108 Y12.669392 Z-1.000000 I0.105354 J-0.042516
G03 X18.175388 Y12.626855 Z-1.000000 I0.113399 J-0.000000
G01 X18.184258 Y12.626872 Z-1.000000
G03 X18.192481 Y12.669387 Z-1.000000 I-0.105790 J0.042515
G03 X18.184258 Y12.711902 Z-1.000000 I-0.114013 J-0.000000
G01 X18.184258 Y12.711902 Z-1.000000
G00 Z0.000000

(End cutting path id: path24)


(Start cutting path id: path24)
(Change tool to Cone cutter)

G00 Z0.000000
G00 X18.184258 Y12.711902

G01 Z-1.000000 F100.0(Penetrate)
G01 X18.175363 Y12.711908 Z-1.000000 F400.000000
G03 X18.167108 Y12.669392 Z-1.000000 I0.105354 J-0.042516
G03 X18.175388 Y12.626855 Z-1.000000 I0.113399 J-0.000000
G01 X18.184258 Y12.626872 Z-1.000000
G03 X18.192481 Y12.669387 Z-1.000000 I-0.105790 J0.042515
G03 X18.184258 Y12.711902 Z-1.000000 I-0.114013 J-0.000000
G01 X18.184258 Y12.711902 Z-1.000000
G00 Z0.000000

(End cutting path id: path24)


(Start cutting path id: path24)
(Change tool to Cone cutter)

G00 Z0.000000
G00 X18.218268 Y12.473826

G01 Z-1.000000 F100.0(Penetrate)
G01 X18.209373 Y12.473832 Z-1.000000 F400.000000
G03 X18.201118 Y12.431316 Z-1.000000 I0.105354 J-0.042516
G03 X18.209397 Y12.388788 Z-1.000000 I0.113373 J-0.000000
G01 X18.218268 Y12.388806 Z-1.000000
G03 X18.226491 Y12.431321 Z-1.000000 I-0.105790 J0.042515
G03 X18.218268 Y12.473836 Z-1.000000 I-0.114013 J-0.000000
G01 X18.218268 Y12.473826 Z-1.000000
G00 Z0.000000

(End cutting path id: path24)


(Start cutting path id: path24)
(Change tool to Cone cutter)

G00 Z0.000000
G00 X18.218268 Y12.473826

G01 Z-1.000000 F100.0(Penetrate)
G01 X18.209373 Y12.473832 Z-1.000000 F400.000000
G03 X18.201118 Y12.431316 Z-1.000000 I0.105354 J-0.042516
G03 X18.209397 Y12.388788 Z-1.000000 I0.113373 J-0.000000
G01 X18.218268 Y12.388806 Z-1.000000
G03 X18.226491 Y12.431321 Z-1.000000 I-0.105790 J0.042515
G03 X18.218268 Y12.473836 Z-1.000000 I-0.114013 J-0.000000
G01 X18.218268 Y12.473826 Z-1.000000
G00 Z0.000000

(End cutting path id: path24)


(Start cutting path id: path24)
(Change tool to Cone cutter)

G00 Z0.000000
G00 X18.253328 Y12.082055

G01 Z-1.000000 F100.0(Penetrate)
G01 X18.244921 Y12.082604 Z-1.000000 F400.000000
G03 X18.236388 Y12.040195 Z-1.000000 I0.108362 J-0.043867
G03 X18.243667 Y11.980570 Z-1.000000 I0.225047 J-0.002783
G01 X18.252058 Y11.980035 Z-1.000000
G03 X18.260578 Y12.022441 Z-1.000000 I-0.108721 J0.043904
G03 X18.253258 Y12.082063 Z-1.000000 I-0.223229 J0.002852
G01 X18.253328 Y12.082055 Z-1.000000
G00 Z0.000000

(End cutting path id: path24)


(Start cutting path id: path24)
(Change tool to Cone cutter)

G00 Z0.000000
G00 X18.253328 Y12.082055

G01 Z-1.000000 F100.0(Penetrate)
G01 X18.244921 Y12.082604 Z-1.000000 F400.000000
G03 X18.236388 Y12.040195 Z-1.000000 I0.108362 J-0.043867
G03 X18.243667 Y11.980570 Z-1.000000 I0.225047 J-0.002783
G01 X18.252058 Y11.980035 Z-1.000000
G03 X18.260578 Y12.022441 Z-1.000000 I-0.108721 J0.043904
G03 X18.253258 Y12.082063 Z-1.000000 I-0.223229 J0.002852
G01 X18.253328 Y12.082055 Z-1.000000
G00 Z0.000000

(End cutting path id: path24)


(Start cutting path id: path24)
(Change tool to Cone cutter)

G00 Z0.000000
G00 X17.467977 Y11.470509

G01 Z-1.000000 F100.0(Penetrate)
G03 X17.111508 Y13.322486 Z-1.000000 I-10.374642 J-1.036619 F400.000000
G03 X16.475573 Y14.912349 Z-1.000000 I-8.258399 J-2.381190
G03 X15.565054 Y16.191119 Z-1.000000 I-5.043135 J-2.627309
G03 X14.482074 Y17.021463 Z-1.000000 I-3.123094 J-2.951896
G03 X12.879301 Y17.357718 Z-1.000000 I-1.369212 J-2.538431
G03 X11.697694 Y16.795239 Z-1.000000 I0.149142 J-1.835650
G03 X11.596429 Y16.634431 Z-1.000000 I0.343384 J-0.328527
G01 X11.627564 Y16.609313 Z-1.000000
G02 X12.209059 Y16.870164 Z-1.000000 I1.141553 J-1.766207
G02 X12.907078 Y16.962831 Z-1.000000 I0.683654 J-2.474396
G02 X13.462916 Y16.902487 Z-1.000000 I-0.015633 J-2.734106
G02 X14.057881 Y16.716796 Z-1.000000 I-0.709306 J-3.318659
G02 X15.226110 Y15.976269 Z-1.000000 I-1.566617 J-3.763183
G02 X16.262782 Y14.721841 Z-1.000000 I-3.785747 J-4.184153
G02 X17.026398 Y13.130905 Z-1.000000 I-7.673700 J-4.661942
G02 X17.421442 Y11.538531 Z-1.000000 I-7.292781 J-2.654419
G03 X17.450222 Y11.464032 Z-1.000000 I0.172485 J0.023824
G01 X17.467982 Y11.470511 Z-1.000000
G01 X17.467977 Y11.470509 Z-1.000000
G00 Z0.000000

(End cutting path id: path24)


(Start cutting path id: path24)
(Change tool to Cone cutter)

G00 Z0.000000
G00 X17.467977 Y11.470509

G01 Z-1.000000 F100.0(Penetrate)
G03 X17.111508 Y13.322486 Z-1.000000 I-10.374642 J-1.036619 F400.000000
G03 X16.475573 Y14.912349 Z-1.000000 I-8.258399 J-2.381190
G03 X15.565054 Y16.191119 Z-1.000000 I-5.043135 J-2.627309
G03 X14.482074 Y17.021463 Z-1.000000 I-3.123094 J-2.951896
G03 X12.879301 Y17.357718 Z-1.000000 I-1.369212 J-2.538431
G03 X11.697694 Y16.795239 Z-1.000000 I0.149142 J-1.835650
G03 X11.596429 Y16.634431 Z-1.000000 I0.343384 J-0.328527
G01 X11.627564 Y16.609313 Z-1.000000
G02 X12.209059 Y16.870164 Z-1.000000 I1.141553 J-1.766207
G02 X12.907078 Y16.962831 Z-1.000000 I0.683654 J-2.474396
G02 X13.462916 Y16.902487 Z-1.000000 I-0.015633 J-2.734106
G02 X14.057881 Y16.716796 Z-1.000000 I-0.709306 J-3.318659
G02 X15.226110 Y15.976269 Z-1.000000 I-1.566617 J-3.763183
G02 X16.262782 Y14.721841 Z-1.000000 I-3.785747 J-4.184153
G02 X17.026398 Y13.130905 Z-1.000000 I-7.673700 J-4.661942
G02 X17.421442 Y11.538531 Z-1.000000 I-7.292781 J-2.654419
G03 X17.450222 Y11.464032 Z-1.000000 I0.172485 J0.023824
G01 X17.467982 Y11.470511 Z-1.000000
G01 X17.467977 Y11.470509 Z-1.000000
G00 Z0.000000

(End cutting path id: path24)


(Start cutting path id: path24)
(Change tool to Cone cutter)

G00 Z0.000000
G00 X17.387537 Y10.441683

G01 Z-1.000000 F100.0(Penetrate)
G03 X17.333056 Y11.330800 Z-1.000000 I-6.735720 J0.033490 F400.000000
G03 X17.155453 Y12.253364 Z-1.000000 I-7.422967 J-0.950615
G03 X16.461128 Y14.140975 Z-1.000000 I-9.803449 J-2.534527
G03 X15.638186 Y15.378769 Z-1.000000 I-4.975166 J-2.415256
G03 X14.554793 Y16.317284 Z-1.000000 I-3.986255 J-3.507032
G03 X13.485011 Y16.784752 Z-1.000000 I-1.925713 J-2.949107
G03 X13.179699 Y16.835949 Z-1.000000 I-0.474602 J-1.894317
G03 X12.789584 Y16.845268 Z-1.000000 I-0.269022 J-3.091666
G03 X12.163870 Y16.737421 Z-1.000000 I0.094315 J-2.416257
G03 X11.656871 Y16.491961 Z-1.000000 I0.566720 J-1.816902
G03 X11.243574 Y16.042087 Z-1.000000 I0.761274 J-1.114162
G03 X11.014908 Y15.356861 Z-1.000000 I1.642309 J-0.928821
G03 X11.024257 Y14.783419 Z-1.000000 I1.957331 J-0.254886
G03 X11.201427 Y14.216154 Z-1.000000 I2.092185 J0.342137
G03 X11.536431 Y13.645481 Z-1.000000 I3.421482 J1.624855
G03 X11.648487 Y13.587676 Z-1.000000 I0.112056 J0.079710
G03 X11.690189 Y13.593239 Z-1.000000 I-0.000000 J0.159087
G03 X11.833875 Y13.638036 Z-1.000000 I-0.533404 J1.963726
G02 X12.916509 Y13.726423 Z-1.000000 I0.708978 J-2.009459
G02 X14.471569 Y13.168228 Z-1.000000 I-0.864487 J-4.853551
G02 X15.509273 Y12.388235 Z-1.000000 I-2.428302 J-4.310894
G02 X16.587025 Y11.091653 Z-1.000000 I-5.846574 J-5.956041
