; generated by Slic3r 1.3.0 on 2020-02-25 at 16:49:04

; external perimeters extrusion width = 0.55mm (6.64mm^3/s)
; perimeters extrusion width = 0.52mm (12.53mm^3/s)
; infill extrusion width = 0.52mm (16.71mm^3/s)
; solid infill extrusion width = 0.52mm (4.18mm^3/s)
; top infill extrusion width = 0.52mm (3.13mm^3/s)

M107
M104 S205 ; set temperature
G28 ; home all axes
G1 Z5 F5000 ; lift nozzle

; Filament gcode

M109 S205 ; set temperature and wait for it to be reached
G21 ; set units to millimeters
G90 ; use absolute coordinates
M82 ; use absolute distances for extrusion
G92 E0
G1 Z0.300 F7800.000
G1 E-2.00000 F2400.00000
G92 E0
G1 X91.731 Y107.570 F7800.000
G1 E2.00000 F2400.00000
G1 F1800
G1 X92.132 Y107.694 E2.00955
G1 X92.531 Y107.946 E2.02028
G1 X92.349 Y108.236 E2.02806
G1 X92.269 Y108.309 E2.03052
G1 X91.996 Y108.411 E2.03714
G1 X91.862 Y108.490 E2.04068
G1 X91.686 Y108.222 E2.04795
G1 X91.478 Y107.974 E2.05533
G1 X91.772 Y107.830 E2.06277
G1 X91.743 Y107.644 E2.06706
G1 X91.989 Y107.902 F7800.000
G1 X91.271 Y108.246 F7800.000
G1 F1800
G1 X91.001 Y108.121 E2.07092
G1 F1800
G1 X90.867 Y108.058 E2.07332
G1 X90.687 Y108.090 E2.07627
G1 F1800
G1 X90.619 Y108.101 E2.07720
G1 F1800
G1 X90.427 Y108.112 E2.07932
G1 E0.07932 F2400.00000
G92 E0
G1 X98.640 Y105.875 F7800.000
G1 E2.00000 F2400.00000
G1 F1800
G1 X98.763 Y105.881 E2.00090
G1 F1800
G1 X98.817 Y105.869 E2.00145
G1 F1800
G1 X98.938 Y105.846 E2.00308
G1 F1800
G1 X99.208 Y105.803 E2.00769
G1 X99.315 Y105.863 E2.00976
G1 F1800
G1 X99.530 Y105.984 E2.01297
G1 X100.049 Y106.170 F7800.000
G1 F1800
G1 X99.787 Y105.736 E2.02449
G1 X99.962 Y105.694 E2.02857
G1 X99.975 Y105.360 E2.03617
G1 X100.475 Y105.489 E2.04792
G1 X100.592 Y105.577 E2.05124
G1 X100.912 Y105.645 E2.05868
G1 X101.548 Y105.527 E2.07338
G1 X102.418 Y105.448 E2.09324
G1 X102.576 Y105.459 E2.09685
G1 X102.868 Y105.432 E2.10350
G1 X103.144 Y105.434 E2.10979
G1 X103.869 Y105.476 E2.12630
G1 X104.201 Y105.123 E2.13732
G1 X103.997 Y104.230 E2.15813
G1 X103.865 Y103.365 E2.17803
G1 X103.809 Y102.541 E2.19681
G1 X103.827 Y101.954 E2.21015
G1 X104.072 Y101.901 E2.21586
G1 X104.269 Y102.362 E2.22725
G1 X104.525 Y103.227 E2.24776
G1 X104.726 Y104.267 E2.27184
G1 X104.834 Y105.384 E2.29735
G1 X105.313 Y105.846 E2.31248
G1 X104.737 Y105.995 E2.32601
G1 X103.879 Y106.090 E2.34563
G1 X103.436 Y106.112 E2.35572
G1 X103.284 Y106.093 E2.35919
G1 X103.020 Y106.150 E2.36533
G1 X102.735 Y106.147 E2.37181
G1 X102.569 Y106.119 E2.37564
G1 X101.670 Y106.059 E2.39612
G1 X101.252 Y106.007 E2.40570
G1 X100.919 Y105.938 E2.41342
G1 X100.633 Y105.987 E2.42004
G1 X100.517 Y106.055 E2.42310
G1 X100.366 Y106.093 E2.42663
G1 X100.289 Y106.145 E2.42874
G1 X100.123 Y106.162 E2.43252
G1 X100.090 Y105.672 F7800.000
G1 E0.43252 F2400.00000
G92 E0
G1 X109.479 Y102.482 F7800.000
G1 E2.00000 F2400.00000
G1 F1800
G1 X109.670 Y102.725 E2.00809
G1 X109.962 Y102.949 E2.01771
G1 F1800
G1 X110.147 Y103.025 E2.02337
G1 X110.483 Y103.074 E2.03298
G1 F1800
G1 X110.747 Y103.055 E2.04104
G1 X110.895 Y103.019 E2.04570
G1 X111.070 Y102.935 E2.05158
G1 X111.242 Y102.781 E2.05861
G1 X111.366 Y102.617 E2.06488
G1 X111.469 Y102.374 E2.07291
G1 F1800
G1 X111.557 Y101.996 E2.08587
G1 X111.575 Y101.837 E2.09118
G1 X111.591 Y101.244 E2.11098
G1 X111.544 Y100.879 E2.12324
G1 X111.504 Y100.734 E2.12824
G1 X111.307 Y100.241 E2.14595
G1 X111.162 Y99.979 E2.15592
G1 X110.634 Y101.504 F7800.000
G1 F1800
G1 X109.858 Y101.430 E2.18243
G1 X109.677 Y101.472 E2.18875
G1 F1800
G1 X109.617 Y101.498 E2.19077
G1 X109.548 Y101.563 E2.19371
G1 F1800
G1 X109.479 Y101.628 E2.19642
G1 X109.412 Y101.767 E2.20085
G1 X109.381 Y101.981 E2.20702
G1 X109.396 Y102.271 E2.21535
G1 X109.479 Y102.482 E2.22184
G1 E0.22184 F2400.00000
G92 E0
G1 X105.752 Y99.037 F7800.000
G1 E2.00000 F2400.00000
G1 F1800
G1 X105.076 Y99.781 E2.02285
G1 X104.754 Y99.898 E2.03065
G1 X104.487 Y99.941 E2.03679
G1 X104.275 Y100.055 E2.04227
G1 X103.903 Y100.159 E2.05104
G1 X103.544 Y100.377 E2.06059
G1 X102.402 Y100.559 E2.08689
G1 X102.319 Y100.629 E2.08933
G1 X101.767 Y100.773 E2.10231
G1 X101.231 Y100.865 E2.11469
G1 X101.064 Y100.938 E2.11882
G1 X99.989 Y101.187 E2.14390
G1 X99.766 Y101.258 E2.14922
G1 X98.786 Y101.433 E2.17184
G1 X97.446 Y101.125 E2.20309
G1 X96.834 Y101.242 E2.21726
G1 X96.481 Y101.382 E2.22591
G1 X96.351 Y101.410 E2.22892
G1 X95.848 Y101.493 E2.24050
G1 X95.395 Y101.509 E2.25082
G1 X94.685 Y101.480 E2.26698
G1 X93.514 Y101.355 E2.29374
G1 X92.741 Y101.204 E2.31164
G1 X92.123 Y101.033 E2.32621
G1 X91.487 Y100.805 E2.34158
G1 X91.233 Y100.695 E2.34787
G1 X91.111 Y100.623 E2.35110
G1 X91.060 Y100.561 E2.35291
G1 X90.888 Y100.490 E2.35715
G1 X90.752 Y100.410 E2.36073
G1 X90.720 Y100.411 E2.36146
G1 X90.454 Y100.186 E2.36939
G1 X90.328 Y100.027 E2.37400
G1 X90.307 Y99.982 E2.37514
G1 X90.245 Y99.596 E2.38401
G1 X90.238 Y98.614 E2.40634
G1 X90.290 Y98.161 E2.41671
G1 X90.354 Y98.011 E2.42042
G1 X90.490 Y97.850 E2.42520
G1 X90.608 Y97.748 E2.42874
G1 X90.973 Y97.517 E2.43857
G1 X91.377 Y97.323 E2.44875
G1 X91.751 Y97.176 E2.45789
G1 X92.174 Y97.052 E2.46792
G1 X92.293 Y96.999 E2.47086
G1 X92.882 Y96.845 E2.48472
G1 X94.014 Y96.656 E2.51080
G1 X94.346 Y96.620 E2.51839
G1 X95.016 Y96.590 E2.53363
G1 X95.705 Y96.592 E2.54930
G1 X96.145 Y96.623 E2.55933
G1 X96.356 Y96.664 E2.56421
G1 X97.176 Y96.934 E2.58383
G1 X97.699 Y96.895 E2.59576
G1 X98.133 Y96.792 E2.60589
G1 X99.230 Y96.657 E2.63103
G1 X99.590 Y96.792 E2.63977
G1 X99.980 Y96.901 E2.64896
G1 X100.294 Y96.964 E2.65624
G1 X100.316 Y96.990 E2.65702
G1 X101.440 Y97.233 E2.68315
G1 X101.778 Y97.343 E2.69122
G1 X102.361 Y97.453 E2.70473
G1 X102.642 Y97.582 E2.71176
G1 X102.807 Y97.593 E2.71551
G1 X103.050 Y97.753 E2.72211
G1 X103.896 Y97.733 E2.74135
G1 X103.935 Y97.866 E2.74450
G1 X104.806 Y98.252 E2.76618
G1 X104.938 Y98.278 E2.76923
G1 X104.955 Y98.499 E2.77427
G1 X105.456 Y98.654 E2.78618
G1 X105.706 Y98.978 E2.79549
G1 X106.532 Y99.057 F7800.000
G1 F1800
G1 X106.268 Y99.266 E2.80313
G1 X105.383 Y100.239 E2.83305
G1 X104.889 Y100.418 E2.84499
G1 X104.662 Y100.455 E2.85022
G1 X104.476 Y100.555 E2.85502
G1 X104.118 Y100.656 E2.86348
G1 X103.615 Y100.959 E2.87684
G1 X103.564 Y100.916 E2.87836
G1 X102.633 Y101.065 E2.89979
G1 X102.562 Y101.125 E2.90191
G1 X102.211 Y101.199 E2.91007
G1 X101.890 Y101.295 E2.91768
G1 X101.385 Y101.382 E2.92933
G1 X101.233 Y101.449 E2.93311
G1 X100.130 Y101.705 E2.95883
G1 X99.894 Y101.779 E2.96447
G1 X98.914 Y101.954 E2.98709
G1 X98.890 Y102.006 E2.98840
G1 X97.436 Y101.672 E3.02231
G1 X96.984 Y101.758 E3.03275
G1 X96.636 Y101.897 E3.04127
G1 X95.902 Y102.027 E3.05823
G1 X94.994 Y102.039 E3.07887
G1 X94.947 Y102.019 E3.08003
G1 X94.630 Y102.015 E3.08724
G1 X93.430 Y101.885 E3.11467
G1 X92.629 Y101.728 E3.13323
G1 X91.961 Y101.544 E3.14897
G1 X91.290 Y101.304 E3.16519
G1 X90.989 Y101.173 E3.17264
G1 X90.731 Y101.005 E3.17965
G1 X90.510 Y100.915 E3.18506
G1 X90.314 Y100.783 E3.19044
G1 X90.074 Y100.565 E3.19781
G1 X89.866 Y100.300 E3.20547
G1 X89.811 Y100.186 E3.20835
G1 X89.710 Y99.641 E3.22096
G1 X89.702 Y98.585 E3.24496
G1 X89.762 Y98.065 E3.25685
G1 X89.838 Y97.836 E3.26235
G1 X89.912 Y97.704 E3.26578
G1 X90.108 Y97.471 E3.27270
G1 X90.289 Y97.316 E3.27811
G1 X90.713 Y97.048 E3.28952
G1 X91.163 Y96.831 E3.30087
G1 X91.578 Y96.669 E3.31101
G1 X91.989 Y96.549 E3.32074
G1 X92.114 Y96.492 E3.32385
G1 X92.770 Y96.321 E3.33927
G1 X93.941 Y96.125 E3.36626
G1 X94.305 Y96.086 E3.37459
G1 X95.005 Y96.055 E3.39050
G1 X95.725 Y96.057 E3.40687
G1 X96.215 Y96.091 E3.41805
G1 X96.491 Y96.145 E3.42443
G1 X97.242 Y96.392 E3.44240
G1 X97.617 Y96.364 E3.45095
G1 X98.038 Y96.264 E3.46079
G1 X98.942 Y96.153 E3.48149
G1 X99.239 Y95.858 E3.49100
G1 X99.401 Y96.149 E3.49856
G1 X99.757 Y96.282 E3.50720
G1 X100.105 Y96.380 E3.51542
G1 X100.579 Y96.475 E3.52640
G1 X100.604 Y96.504 E3.52728
G1 X101.579 Y96.715 E3.54996
G1 X101.910 Y96.823 E3.55788
G1 X102.537 Y96.944 E3.57238
G1 X102.776 Y97.054 E3.57837
G1 X102.983 Y97.068 E3.58309
G1 X103.204 Y97.213 E3.58910
G1 X104.294 Y97.188 E3.61387
G1 X104.379 Y97.477 E3.62072
G1 X104.968 Y97.738 E3.63538
G1 X105.199 Y97.783 E3.64072
G1 X105.445 Y97.886 E3.64679
G1 X105.461 Y98.095 E3.65155
G1 X105.775 Y98.192 E3.65902
G1 X106.157 Y98.684 E3.67320
G1 X106.478 Y99.004 E3.68349
G1 E1.68349 F2400.00000
G92 E0
G1 X103.895 Y96.661 F7800.000
G1 E2.00000 F2400.00000
G1 F1800
G1 X104.189 Y96.332 E2.01005
G1 X104.281 Y96.123 E2.01522
G1 X104.537 Y95.677 E2.02693
G1 X105.154 Y94.758 E2.05209
G1 X104.959 Y94.312 E2.06314
G1 X104.736 Y94.205 E2.06878
G1 X104.218 Y94.096 E2.08080
G1 X104.187 Y94.061 E2.08187
G1 X103.705 Y93.935 E2.09321
G1 X103.147 Y93.728 E2.10672
G1 X102.476 Y93.423 E2.12349
G1 X102.103 Y93.548 E2.13243
G1 X101.592 Y93.824 E2.14562
G1 X101.569 Y93.617 E2.15038
G1 X101.270 Y93.495 E2.15772
G1 X101.431 Y93.115 E2.16709
G1 X101.443 Y92.941 E2.17107
G1 X101.765 Y92.980 E2.17843
G1 X101.859 Y93.035 E2.18092
G1 X102.017 Y93.067 E2.18459
G1 X102.184 Y93.148 E2.18880
G1 X102.453 Y93.128 E2.19492
G1 X102.969 Y93.147 E2.20667
G1 X103.203 Y93.173 E2.21203
G1 X103.391 Y93.238 E2.21655
G1 X103.598 Y93.239 E2.22124
G1 X103.883 Y93.287 E2.22782
G1 X104.824 Y93.519 E2.24985
G1 X105.129 Y93.637 E2.25729
G1 X105.591 Y93.773 E2.26823
G1 X105.950 Y93.824 E2.27647
G1 X106.315 Y93.509 E2.28743
G1 X106.519 Y93.646 E2.29301
G1 X106.420 Y93.939 E2.30005
G1 X106.644 Y94.349 E2.31066
G1 X106.442 Y94.454 E2.31584
G1 X106.276 Y94.460 E2.31962
G1 X106.024 Y94.699 E2.32751
G1 X105.714 Y95.199 E2.34087
G1 X105.390 Y95.670 E2.35387
G1 X104.670 Y96.567 E2.38003
G1 X104.823 Y97.088 E2.39236
G1 X105.130 Y97.224 E2.40000
G1 X105.371 Y97.271 E2.40558
G1 X105.531 Y97.349 E2.40963
G1 X105.952 Y97.491 E2.41973
G1 X105.967 Y97.690 E2.42427
G1 X106.095 Y97.730 E2.42730
G1 X106.559 Y98.329 E2.44454
G1 X106.751 Y98.519 E2.45068
G1 X107.012 Y98.681 E2.45766
G1 X107.285 Y98.740 E2.46402
G1 X107.757 Y98.691 E2.47480
G1 X108.021 Y98.697 E2.48081
G1 X108.267 Y98.773 E2.48665
G1 X109.785 Y99.004 E2.52156
G1 X110.056 Y99.082 E2.52796
G1 X110.639 Y99.344 E2.54251
G1 X110.514 Y99.622 E2.54944
G1 X110.241 Y99.515 E2.55610
G1 X109.625 Y99.395 E2.57037
G1 X109.268 Y99.349 E2.57855
G1 X108.322 Y99.312 E2.60008
G1 X107.931 Y99.404 E2.60919
G1 X107.341 Y99.360 E2.62265
G1 X107.106 Y99.381 E2.62801
G1 X106.854 Y99.485 E2.63421
G1 X106.636 Y99.658 E2.64055
G1 X105.702 Y100.685 E2.67209
G1 X105.025 Y100.939 E2.68853
G1 X104.837 Y100.970 E2.69287
G1 X104.677 Y101.055 E2.69699
G1 X104.333 Y101.152 E2.70513
G1 X104.107 Y101.288 E2.71112
G1 X103.889 Y101.900 E2.72588
G1 X103.404 Y101.484 E2.74041
G1 X102.865 Y101.570 E2.75281
G1 X102.804 Y101.621 E2.75462
G1 X102.343 Y101.718 E2.76533
G1 X102.013 Y101.818 E2.77317
G1 X101.540 Y101.899 E2.78409
G1 X101.402 Y101.959 E2.78752
G1 X100.272 Y102.222 E2.81389
G1 X100.022 Y102.300 E2.81983
G1 X99.281 Y102.433 E2.83695
G1 X99.149 Y102.712 E2.84396
G1 X99.073 Y102.785 E2.84636
G1 X98.709 Y103.964 E2.87441
G1 X98.266 Y105.079 E2.90168
G1 X97.814 Y105.980 E2.92460
G1 X97.661 Y106.234 E2.93134
G1 X97.564 Y106.331 E2.93446
G1 X97.194 Y106.551 E2.94425
G1 X96.768 Y106.770 E2.95514
G1 X96.572 Y106.836 E2.95983
G1 X96.478 Y106.906 E2.96250
G1 X95.442 Y107.328 E2.98794
G1 X94.144 Y107.733 E3.01883
G1 X93.304 Y107.910 E3.03836
G1 X93.142 Y107.923 E3.04206
G1 X93.058 Y107.693 E3.04762
G1 X93.366 Y107.475 E3.05620
G1 X93.631 Y107.332 E3.06305
G1 X94.647 Y106.866 E3.08846
G1 X95.387 Y106.586 E3.10643
G1 X96.353 Y106.286 E3.12943
G1 X97.095 Y106.108 E3.14677
G1 X97.426 Y105.813 E3.15685
G1 X97.599 Y105.076 E3.17405
G1 X97.779 Y104.459 E3.18866
G1 X97.996 Y103.826 E3.20389
G1 X98.308 Y103.047 E3.22295
G1 X98.356 Y102.866 E3.22722
G1 X98.296 Y102.716 E3.23088
G1 X98.324 Y102.426 E3.23751
G1 X97.426 Y102.220 E3.25848
G1 X97.135 Y102.275 E3.26520
G1 X96.792 Y102.411 E3.27359
G1 X95.955 Y102.561 E3.29293
G1 X95.406 Y102.580 E3.30540
G1 X94.880 Y102.573 E3.31736
G1 X94.834 Y102.553 E3.31851
G1 X94.575 Y102.550 E3.32440
G1 X94.411 Y102.518 E3.32819
G1 X93.347 Y102.415 E3.35251
G1 X92.826 Y102.300 E3.36462
G1 X92.517 Y102.253 E3.37174
G1 X91.800 Y102.055 E3.38864
G1 X91.093 Y101.802 E3.40572
G1 X90.745 Y101.651 E3.41433
G1 X90.475 Y101.491 E3.42146
G1 X90.436 Y101.493 E3.42234
G1 X90.401 Y101.449 E3.42361
G1 X90.258 Y101.391 E3.42714
G1 X89.982 Y101.206 E3.43467
G1 X89.694 Y100.944 E3.44352
G1 X89.565 Y100.802 E3.44789
G1 X89.403 Y100.574 E3.45426
G1 X89.263 Y100.236 E3.46257
G1 X89.175 Y99.685 E3.47524
G1 X89.166 Y98.556 E3.50091
G1 X89.253 Y97.877 E3.51648
G1 X89.350 Y97.611 E3.52291
G1 X89.470 Y97.398 E3.52848
G1 X89.726 Y97.093 E3.53752
G1 X89.970 Y96.884 E3.54482
G1 X90.452 Y96.579 E3.55780
G1 X90.948 Y96.340 E3.57031
G1 X91.405 Y96.161 E3.58146
G1 X91.803 Y96.045 E3.59089
G1 X91.935 Y95.986 E3.59418
G1 X92.658 Y95.796 E3.61117
G1 X93.868 Y95.594 E3.63906
G1 X94.265 Y95.551 E3.64812
G1 X94.993 Y95.519 E3.66470
G1 X95.744 Y95.521 E3.68177
G1 X96.285 Y95.559 E3.69410
G1 X96.626 Y95.626 E3.70199
G1 X97.308 Y95.850 E3.71831
G1 X97.535 Y95.833 E3.72348
G1 X97.943 Y95.736 E3.73303
G1 X98.695 Y95.643 E3.75024
G1 X98.924 Y95.417 E3.75755
G1 X98.998 Y95.166 E3.76350
G1 X98.921 Y93.917 E3.79195
G1 X98.933 Y93.039 E3.81192
G1 X99.004 Y92.080 E3.83379
G1 X98.508 Y91.938 E3.84551
G1 X98.292 Y92.017 E3.85074
G1 X97.625 Y92.170 E3.86631
G1 X97.597 Y92.196 E3.86717
G1 X96.907 Y92.336 E3.88317
G1 X96.664 Y92.349 E3.88871
G1 X96.597 Y92.387 E3.89044
G1 X96.173 Y92.448 E3.90018
G1 X95.300 Y92.508 E3.92008
G1 X94.505 Y92.529 E3.93816
G1 X94.447 Y92.271 E3.94418
G1 X95.083 Y92.032 E3.95961
G1 X95.536 Y91.918 E3.97024
G1 X95.687 Y91.862 E3.97389
G1 X96.487 Y91.682 E3.99253
G1 X97.064 Y91.591 E4.00580
G1 X97.830 Y91.510 E4.02331
G1 X98.005 Y91.470 E4.02740
G1 X98.818 Y91.428 E4.04590
G1 X99.134 Y91.262 E4.05403
G1 X99.161 Y91.194 E4.05568
G1 X99.395 Y91.210 E4.06101
G1 X99.455 Y91.451 E4.06666
G1 X99.548 Y92.031 E4.08002
G1 X99.613 Y92.744 E4.09629
G1 X99.636 Y93.618 E4.11616
G1 X99.619 Y94.510 E4.13645
G1 X99.552 Y95.320 E4.15492
G1 X99.773 Y95.716 E4.16524
G1 X100.230 Y95.859 E4.17612
G1 X100.863 Y95.986 E4.19080
G1 X100.892 Y96.018 E4.19178
G1 X101.719 Y96.197 E4.21102
G1 X102.043 Y96.303 E4.21878
G1 X102.613 Y96.410 E4.23196
G1 X102.910 Y96.526 E4.23922
G1 X103.181 Y96.557 E4.24541
G1 X103.359 Y96.674 E4.25024
G1 X103.820 Y96.663 E4.26072
G1 X104.275 Y96.887 F7800.000
G1 E2.26072 F2400.00000
G92 E0
G1 X94.288 Y92.476 F7800.000
G1 E2.00000 F2400.00000
G1 F1800
G1 X93.945 Y92.649 E2.00874
G1 X93.821 Y92.813 E2.01342
G1 X93.545 Y92.962 E2.02055
G1 X93.359 Y93.097 E2.02577
G1 X93.134 Y92.698 E2.03617
G1 X93.033 Y92.689 E2.03847
G1 X93.113 Y92.298 E2.04754
G1 X93.384 Y92.249 E2.05379
G1 X93.574 Y92.262 E2.05811
G1 X94.216 Y92.454 E2.07336
G1 X93.914 Y92.563 F7800.000
G1 X95.681 Y92.183 F7800.000
G1 F1800
G1 X95.775 Y92.162 E2.07347
G1 F1800
G1 X96.481 Y92.046 E2.07655
G1 X96.583 Y92.012 E2.07701
G1 X97.357 Y91.902 E2.08038
G1 F1800
G1 X97.795 Y91.817 E2.08129
G1 X98.847 Y91.725 F7800.000
G1 F1800
G1 X99.229 Y91.731 E2.08162
G1 X99.281 Y92.413 F7800.000
G1 F1800
G1 X99.283 Y92.588 E2.08186
G1 F1800
G1 X99.288 Y94.493 E2.09066
G1 F1800
G1 X99.284 Y94.907 E2.09127
G1 E0.09127 F2400.00000
G92 E0
G1 X101.647 Y93.293 F7800.000
G1 E2.00000 F2400.00000
G1 F1800
G1 X101.777 Y93.350 E2.00026
G1 X101.876 Y93.336 E2.00045
G1 X103.484 Y93.536 F7800.000
G1 F1800
G1 X103.571 Y93.552 E2.00054
G1 F1800
G1 X104.720 Y93.848 E2.00479
G1 X105.022 Y93.963 E2.00595
G1 F1800
G1 X105.204 Y94.033 E2.00723
G1 X105.890 Y94.457 E2.01251
G1 X105.769 Y94.069 F7800.000
G1 F1800
G1 X105.528 Y94.832 E2.01761
G1 X105.107 Y95.460 E2.02242
G1 X104.819 Y95.852 E2.02552
G1 F1800
G1 X104.597 Y96.177 E2.02657
G1 X105.515 Y95.012 F7800.000
G1 F1800
G1 X105.586 Y94.341 E2.04163
G1 X106.213 Y94.119 E2.05648
G1 E0.05648 F2400.00000
G92 E0
G1 X106.803 Y98.904 F7800.000
G1 E2.00000 F2400.00000
G1 F1800
G1 X107.104 Y99.112 E2.00047
G1 X107.148 Y99.047 F7800.000
G1 F1800
G1 X107.009 Y99.040 E2.00101
G1 X107.148 Y99.047 F7800.000
G1 F1800
G1 X107.342 Y99.048 E2.00121
G1 F1800
G1 X107.924 Y99.049 E2.00376
G1 X108.164 Y99.021 E2.00483
G1 E0.00483 F2400.00000
G92 E0
G1 X104.561 Y99.531 F7800.000
G1 E2.00000 F2400.00000
G1 F1800
G1 X105.205 Y98.864 E2.02195
G1 X104.657 Y98.695 E2.03552
G1 X104.654 Y98.649 E2.03662
G1 X103.355 Y99.947 E2.08010
G1 X103.148 Y100.072 E2.08583
G1 X102.306 Y100.207 E2.10601
G1 X104.231 Y98.283 E2.17046
G1 X103.748 Y98.069 E2.18297
G1 X103.654 Y98.071 E2.18520
G1 X101.230 Y100.494 E2.26637
G1 X100.868 Y100.557 E2.27507
G1 X100.687 Y100.636 E2.27975
G1 X100.183 Y100.753 E2.29200
G1 X102.952 Y97.984 E2.38472
G1 X102.839 Y97.910 E2.38791
G1 X102.716 Y97.902 E2.39082
G1 X102.390 Y97.756 E2.39928
G1 X99.152 Y100.994 E2.50773
G1 X98.591 Y101.095 E2.52121
G1 X98.324 Y101.033 E2.52771
G1 X101.740 Y97.618 E2.64209
G1 X101.508 Y97.542 E2.64786
G1 X101.112 Y97.457 E2.65747
G1 X97.682 Y100.886 E2.77231
G1 X97.248 Y100.786 E2.78285
G1 X96.933 Y100.846 E2.79046
G1 X100.463 Y97.316 E2.90868
G1 X99.839 Y97.151 E2.92396
G1 X95.873 Y101.117 E3.05676
G1 X95.584 Y101.167 E3.06370
G1 X95.026 Y101.175 E3.07692
G1 X99.181 Y97.020 E3.21605
G1 X98.436 Y97.112 E3.23383
G1 X98.258 Y97.154 E3.23815
G1 X94.283 Y101.129 E3.37128
G1 X93.570 Y101.053 E3.38825
G1 X97.359 Y97.264 E3.51512
G1 X97.318 Y97.267 E3.51609
G1 X96.752 Y97.082 E3.53018
G1 X92.897 Y100.937 E3.65930
G1 X92.263 Y100.782 E3.67475
G1 X96.110 Y96.935 E3.80359
G1 X95.338 Y96.918 E3.82188
G1 X91.671 Y100.585 E3.94469
G1 X91.269 Y100.426 E3.95493
G1 X91.153 Y100.313 E3.95874
G1 X94.511 Y96.955 E4.07119
G1 X93.580 Y97.098 E4.09352
G1 X90.644 Y100.033 E4.19182
G1 X90.609 Y99.991 E4.19314
G1 X90.572 Y99.760 E4.19866
G1 X90.569 Y99.320 E4.20909
G1 X92.529 Y97.359 E4.27474
G1 X92.133 Y97.475 E4.28453
G1 X91.799 Y97.606 E4.29301
G1 X91.442 Y97.778 E4.30240
G1 X91.135 Y97.972 E4.31100
G1 X90.664 Y98.435 E4.32664
G1 E2.32664 F2400.00000
G92 E0
G1 X98.771 Y102.253 F7800.000
G1 E2.00000 F2400.00000
G1 F1800
G1 X98.701 Y102.865 E2.00212
G1 X98.619 Y103.147 E2.00312
G1 X97.894 Y105.154 E2.01046
G1 F1800
G1 X97.878 Y105.200 E2.01048
G1 X96.425 Y106.575 F7800.000
G1 F1800
G1 X96.002 Y106.743 E2.01122
G1 F1800
G1 X94.499 Y107.286 E2.01875
G1 F1800
G1 X94.219 Y107.394 E2.01931
G1 E0.01931 F2400.00000
G92 E0
G1 X92.159 Y108.047 F7800.000
G1 E2.00000 F2400.00000
G1 F1800
G1 X92.077 Y108.038 E2.00014
G1 X91.928 Y108.102 E2.00043
G1 E0.00043 F2400.00000
G92 E0
G1 X102.055 Y105.783 F7800.000
G1 E2.00000 F2400.00000
G1 F1800
G1 X102.238 Y105.781 E2.00026
G1 F1800
G1 X102.766 Y105.795 E2.00214
G1 X103.261 Y105.766 E2.00390
G1 F1800
G1 X103.448 Y105.781 E2.00402
G1 X104.325 Y105.771 E2.00457
G1 X104.503 Y105.091 F7800.000
G1 F1800
G1 X104.378 Y104.318 E2.00642
G1 F1800
G1 X104.169 Y103.143 E2.01190
G1 F1800
G1 X104.139 Y102.980 E2.01219
M104 S200 ; set temperature
G1 Z0.800 F7800.000
G1 E0.01219 F2400.00000
G92 E0
G1 X92.020 Y107.703 F7800.000
G1 E2.00000 F2400.00000
G1 F900
G1 X92.209 Y107.777 E2.00637
G1 X92.429 Y107.959 E2.01533
G1 X92.297 Y108.206 E2.02409
G1 X92.234 Y108.267 E2.02684
G1 X92.164 Y108.306 E2.02935
G1 X91.991 Y108.357 E2.03500
G1 X91.885 Y108.430 E2.03901
G1 X91.567 Y107.986 E2.05611
G1 X91.932 Y107.657 E2.07151
G1 X91.953 Y107.668 E2.07225
G1 X92.110 Y107.885 F7800.000
G1 X92.874 Y107.770 F7800.000
G1 F1800
G1 X92.930 Y107.947 E2.07509
G1 E0.07509 F2400.00000
G92 E0
G1 X99.387 Y104.456 F7800.000
G1 E2.00000 F2400.00000
G1 F1800
G1 X99.494 Y104.576 E2.00246
G1 X100.206 Y105.168 E2.01664
G1 X99.739 Y105.759 F7800.000
G1 F900
G1 X100.034 Y105.579 E2.02747
G1 X100.026 Y105.412 E2.03272
G1 X100.381 Y105.487 E2.04406
G1 X100.454 Y105.520 E2.04659
G1 X100.598 Y105.634 E2.05235
G1 X100.749 Y105.683 E2.05732
G1 X100.737 Y105.888 E2.06376
G1 X100.608 Y105.914 E2.06790
G1 X100.463 Y106.028 E2.07367
G1 X100.228 Y106.112 E2.08147
G1 X100.078 Y106.205 E2.08700
G1 X100.009 Y106.014 E2.09335
G1 X99.905 Y105.865 E2.09905
G1 X99.802 Y105.800 E2.10287
G1 X100.082 Y105.720 F7800.000
G1 X101.123 Y105.897 F7800.000
G1 F900
G1 X101.124 Y105.687 E2.10943
G1 X101.561 Y105.584 E2.12347
G1 X102.178 Y105.510 E2.14294
G1 X102.895 Y105.478 E2.16543
G1 X103.957 Y105.519 E2.19871
G1 X104.240 Y105.070 E2.21532
G1 X104.034 Y104.180 E2.24393
G1 X103.903 Y103.264 E2.27291
G1 X103.868 Y102.537 E2.29570
G1 X103.892 Y102.170 E2.30720
G1 X104.091 Y102.129 E2.31356
G1 X104.172 Y102.290 E2.31918
G1 X104.298 Y102.625 E2.33040
G1 X104.438 Y103.079 E2.34527
G1 X104.544 Y103.512 E2.35923
G1 X104.676 Y104.236 E2.38228
G1 X104.746 Y104.869 E2.40224
G1 X104.772 Y105.468 E2.42100
G1 X105.067 Y105.820 E2.43537
G1 X104.850 Y105.894 E2.44256
G1 X104.520 Y105.974 E2.45319
G1 X104.006 Y106.050 E2.46945
G1 X103.286 Y106.100 E2.49205
G1 X102.273 Y106.081 E2.52379
G1 X101.527 Y105.995 E2.54731
G1 X101.196 Y105.915 E2.55795
G1 X101.238 Y105.721 F7800.000
G1 E0.55795 F2400.00000
G92 E0
G1 X109.448 Y102.474 F7800.000
G1 E2.00000 F2400.00000
G1 F1800
G1 X109.473 Y102.460 E2.00126
G1 X110.222 Y102.084 F7800.000
G1 F1800
G1 X110.644 Y101.581 E2.00418
G1 X110.358 Y102.025 F7800.000
G1 F1800
G1 X110.307 Y102.017 E2.00444
G1 X109.350 Y101.624 F7800.000
G1 F900
G1 X109.417 Y101.503 E2.00878
G1 X109.583 Y101.332 E2.01623
G1 X109.781 Y101.222 E2.02334
G1 X109.842 Y101.211 E2.02526
G1 X109.989 Y101.253 E2.03005
G1 X110.171 Y101.354 E2.03657
G1 X110.298 Y101.472 E2.04200
G1 X110.220 Y101.646 E2.04796
G1 X110.003 Y101.626 E2.05480
G1 X109.839 Y101.503 E2.06120
G1 X109.518 Y101.765 E2.07416
G1 X109.407 Y101.672 E2.07868
G1 X109.447 Y101.525 F7800.000
G1 E0.07868 F2400.00000
G92 E0
G1 X102.256 Y93.389 F7800.000
G1 E2.00000 F2400.00000
G1 F900
G1 X102.099 Y93.463 E2.00541
G1 X101.948 Y93.588 E2.01156
G1 X101.799 Y93.653 E2.01666
G1 X101.626 Y93.827 E2.02434
G1 X101.564 Y93.568 E2.03269
G1 X101.299 Y93.435 E2.04196
G1 X101.480 Y93.120 E2.05332
G1 X101.463 Y92.978 E2.05780
G1 X101.886 Y93.040 E2.07118
G1 X101.944 Y93.063 E2.07313
G1 X102.088 Y93.169 E2.07873
G1 X102.233 Y93.199 E2.08338
G1 X102.247 Y93.315 E2.08704
G1 X102.083 Y93.387 F7800.000
G1 X101.589 Y92.657 F7800.000
G1 F1800
G1 X101.186 Y92.471 E2.09435
G1 X101.093 Y92.338 E2.09701
G1 F1800
G1 X101.033 Y92.191 E2.09895
G1 E0.09895 F2400.00000
G92 E0
G1 X106.134 Y99.038 F7800.000
G1 E2.00000 F2400.00000
G1 F900
G1 X105.970 Y99.176 E2.00633
G1 X105.278 Y99.951 E2.03703
G1 X103.621 Y100.430 E2.08799
G1 X103.599 Y100.412 E2.08883
G1 X102.289 Y100.903 E2.13015
G1 X101.178 Y101.365 E2.16570
G1 X100.323 Y101.680 E2.19263
G1 X99.656 Y101.880 E2.21319
G1 X98.681 Y102.073 E2.24256
G1 X98.603 Y101.942 E2.24705
G1 X97.370 Y101.509 E2.28566
G1 X96.842 Y101.539 E2.30128
G1 X96.347 Y101.684 E2.31651
G1 X96.072 Y101.728 E2.32474
G1 X95.396 Y101.761 E2.34473
G1 X94.420 Y101.703 E2.37363
G1 X93.212 Y101.534 E2.40968
G1 X92.412 Y101.359 E2.43387
G1 X91.747 Y101.154 E2.45442
G1 X91.073 Y100.880 E2.47590
G1 X90.645 Y100.650 E2.49027
G1 X90.371 Y100.452 E2.50027
G1 X90.170 Y100.239 E2.50893
G1 X90.061 Y100.033 E2.51580
G1 X89.987 Y99.718 E2.52536
G1 X89.964 Y99.419 E2.53422
G1 X89.968 Y98.589 E2.55875
G1 X90.016 Y98.214 E2.56994
G1 X90.095 Y97.977 E2.57731
G1 X90.162 Y97.857 E2.58136
G1 X90.266 Y97.730 E2.58622
G1 X90.456 Y97.561 E2.59372
G1 X90.641 Y97.434 E2.60035
G1 X91.013 Y97.230 E2.61289
G1 X91.380 Y97.067 E2.62476
G1 X91.894 Y96.878 E2.64093
G1 X92.297 Y96.755 E2.65338
G1 X92.956 Y96.597 E2.67342
G1 X93.629 Y96.480 E2.69361
G1 X94.414 Y96.380 E2.71698
G1 X95.093 Y96.330 E2.73708
G1 X95.615 Y96.323 E2.75251
G1 X96.028 Y96.348 E2.76474
G1 X96.341 Y96.396 E2.77410
G1 X96.809 Y96.531 E2.78848
G1 X97.324 Y96.592 E2.80380
G1 X98.117 Y96.306 E2.82871
G1 X98.460 Y96.214 E2.83920
G1 X99.149 Y96.081 E2.85993
G1 X99.249 Y95.981 E2.86412
G1 X99.382 Y96.120 E2.86980
G1 X100.201 Y96.364 E2.89508
G1 X100.891 Y96.602 E2.91664
G1 X102.699 Y97.344 E2.97438
G1 X103.895 Y97.726 E3.01146
G1 X104.054 Y97.610 E3.01727
G1 X104.127 Y97.809 E3.02353
G1 X105.403 Y98.168 E3.06270
G1 X105.643 Y98.492 E3.07460
G1 X106.077 Y98.988 E3.09409
G1 X106.933 Y99.039 F7800.000
G1 F900
G1 X106.578 Y99.208 E3.10573
G1 X106.263 Y99.476 E3.11795
G1 X105.509 Y100.319 E3.15135
G1 X103.523 Y100.887 E3.21239
G1 X102.442 Y101.292 E3.24647
G1 X101.330 Y101.754 E3.28206
G1 X100.455 Y102.076 E3.30962
G1 X99.757 Y102.286 E3.33116
G1 X99.001 Y102.435 E3.35393
G1 X98.904 Y102.546 E3.35829
G1 X98.790 Y102.591 E3.36190
G1 X98.395 Y102.407 E3.37478
G1 X98.322 Y102.287 E3.37894
G1 X97.310 Y101.931 E3.41064
G1 X96.913 Y101.953 E3.42238
G1 X96.440 Y102.092 E3.43696
G1 X96.116 Y102.144 E3.44665
G1 X95.399 Y102.179 E3.46785
G1 X94.893 Y102.161 E3.48282
G1 X94.374 Y102.118 E3.49820
G1 X93.138 Y101.945 E3.53507
G1 X92.306 Y101.763 E3.56025
G1 X91.607 Y101.548 E3.58185
G1 X90.895 Y101.259 E3.60454
G1 X90.423 Y101.005 E3.62038
G1 X90.098 Y100.770 E3.63223
G1 X89.885 Y100.555 E3.64119
G1 X89.716 Y100.291 E3.65044
G1 X89.667 Y100.175 E3.65416
G1 X89.572 Y99.773 E3.66634
G1 X89.546 Y99.435 E3.67639
G1 X89.551 Y98.561 E3.70219
G1 X89.607 Y98.120 E3.71532
G1 X89.711 Y97.806 E3.72511
G1 X89.816 Y97.621 E3.73140
G1 X89.963 Y97.440 E3.73827
G1 X90.198 Y97.231 E3.74756
G1 X90.422 Y97.078 E3.75559
G1 X90.827 Y96.856 E3.76925
G1 X91.223 Y96.680 E3.78203
G1 X91.761 Y96.481 E3.79897
G1 X92.187 Y96.352 E3.81215
G1 X92.872 Y96.188 E3.83294
G1 X93.567 Y96.066 E3.85380
G1 X94.372 Y95.964 E3.87778
G1 X95.075 Y95.912 E3.89859
G1 X95.625 Y95.905 E3.91485
G1 X96.072 Y95.933 E3.92809
G1 X96.431 Y95.988 E3.93882
G1 X96.891 Y96.121 E3.95297
G1 X97.275 Y96.166 E3.96437
G1 X97.992 Y95.907 E3.98689
G1 X98.366 Y95.807 E3.99834
G1 X98.944 Y95.695 E4.01573
G1 X99.256 Y95.383 E4.02878
G1 X99.607 Y95.751 E4.04380
G1 X100.329 Y95.966 E4.06606
G1 X101.039 Y96.212 E4.08824
G1 X102.847 Y96.953 E4.14598
G1 X103.284 Y97.104 E4.15963
G1 X103.817 Y97.266 E4.17611
G1 X104.221 Y96.973 E4.19084
G1 X104.242 Y97.192 E4.19734
G1 X104.376 Y97.277 E4.20205
G1 X104.445 Y97.464 E4.20795
G1 X105.654 Y97.804 E4.24505
G1 X105.971 Y98.233 E4.26079
G1 X106.317 Y98.644 E4.27667
G1 X106.599 Y98.889 E4.28771
G1 X106.865 Y99.008 E4.29631
G1 X104.650 Y96.941 F7800.000
G1 F1800
G1 X104.729 Y96.992 E4.29927
G1 X104.773 Y97.110 E4.30319
G1 X105.912 Y97.430 E4.34026
G1 X106.309 Y97.966 E4.36113
G1 X106.625 Y98.341 E4.37651
G1 X106.833 Y98.523 E4.38515
G1 X107.096 Y98.640 E4.39417
G1 X107.311 Y98.663 E4.40093
G1 X107.999 Y98.618 E4.42253
G1 X109.921 Y98.937 E4.48353
G1 X110.196 Y99.027 E4.49260
G1 X110.433 Y99.133 E4.50071
G1 X110.729 Y99.291 E4.51124
G1 X110.981 Y99.462 E4.52075
G1 X111.206 Y99.671 E4.53039
G1 X111.445 Y99.997 E4.54305
G1 X111.581 Y100.326 E4.55420
G1 X111.725 Y100.832 E4.57067
G1 X111.792 Y101.372 E4.58771
G1 X111.785 Y101.778 E4.60042
G1 X111.722 Y102.166 E4.61273
G1 X111.616 Y102.485 E4.62326
G1 X111.530 Y102.654 E4.62920
G1 X111.355 Y102.898 E4.63860
G1 X111.072 Y103.121 E4.64990
G1 X110.915 Y103.185 E4.65519
G1 X110.697 Y103.230 E4.66217
G1 X110.336 Y103.222 E4.67348
G1 X110.094 Y103.163 E4.68126
G1 X109.903 Y103.065 E4.68798
G1 X109.987 Y102.843 E4.69541
G1 X110.234 Y102.905 E4.70338
G1 X110.430 Y102.926 E4.70957
G1 X110.641 Y102.915 E4.71617
G1 X110.891 Y102.850 E4.72426
G1 X111.191 Y102.616 E4.73618
G1 X111.301 Y102.330 E4.74579
G1 X111.358 Y101.915 E4.75890
G1 X111.191 Y101.757 E4.76610
G1 X111.385 Y101.683 E4.77261
G1 X111.365 Y101.155 E4.78917
G1 X111.297 Y100.807 E4.80027
G1 X111.164 Y100.443 E4.81240
G1 X110.983 Y100.096 E4.82467
G1 X110.780 Y99.871 E4.83414
G1 X110.510 Y99.705 E4.84406
G1 X110.227 Y99.610 E4.85340
G1 X109.738 Y99.505 E4.86907
G1 X109.424 Y99.465 E4.87897
G1 X108.344 Y99.413 E4.91284
G1 X107.903 Y99.467 E4.92676
G1 X107.307 Y99.419 E4.94549
G1 X107.076 Y99.447 E4.95275
G1 X106.814 Y99.572 E4.96187
G1 X106.564 Y99.785 E4.97214
G1 X105.747 Y100.698 E5.01049
G1 X103.947 Y101.218 E5.06919
G1 X103.784 Y101.647 E5.08356
G1 X103.445 Y101.375 E5.09717
G1 X102.601 Y101.692 E5.12540
G1 X101.487 Y102.154 E5.16315
G1 X100.592 Y102.485 E5.19305
G1 X99.860 Y102.704 E5.21695
G1 X99.228 Y102.829 E5.23713
G1 X99.159 Y102.908 E5.24043
G1 X99.070 Y102.943 E5.24343
G1 X98.922 Y103.146 E5.25129
G1 X98.571 Y104.217 E5.28657
G1 X98.154 Y105.204 E5.32014
G1 X97.833 Y105.818 E5.34181
G1 X97.557 Y106.223 E5.35716
G1 X97.443 Y106.303 E5.36153
G1 X97.332 Y106.198 E5.36630
G1 X97.392 Y106.338 E5.37107
G1 X97.217 Y106.460 E5.37775
G1 X96.703 Y106.743 E5.39611
G1 X95.970 Y107.075 E5.42131
G1 X95.154 Y107.382 E5.44864
G1 X94.520 Y107.580 E5.46942
G1 X93.737 Y107.768 E5.49463
G1 X93.347 Y107.817 E5.50694
G1 X93.275 Y107.618 E5.51357
G1 X93.521 Y107.459 E5.52273
G1 X93.996 Y107.210 E5.53954
G1 X94.715 Y106.886 E5.56424
G1 X95.206 Y106.698 E5.58071
G1 X95.934 Y106.456 E5.60471
G1 X96.512 Y106.299 E5.62349
G1 X97.293 Y106.142 E5.64841
G1 X97.496 Y105.812 E5.66055
G1 X97.589 Y105.335 E5.67578
G1 X97.795 Y104.568 E5.70065
G1 X98.032 Y103.860 E5.72404
G1 X98.284 Y103.213 E5.74578
G1 X98.239 Y103.050 E5.75107
G1 X98.308 Y102.841 E5.75796
G1 X98.094 Y102.742 E5.76535
G1 X98.033 Y102.641 E5.76902
G1 X97.248 Y102.365 E5.79509
G1 X96.986 Y102.380 E5.80330
G1 X96.535 Y102.512 E5.81803
G1 X96.161 Y102.573 E5.82991
G1 X95.402 Y102.609 E5.85369
G1 X94.868 Y102.591 E5.87043
G1 X94.326 Y102.546 E5.88744
G1 X93.062 Y102.369 E5.92741
G1 X92.196 Y102.179 E5.95517
G1 X91.462 Y101.954 E5.97921
G1 X90.712 Y101.649 E6.00458
G1 X90.194 Y101.370 E6.02298
G1 X89.817 Y101.098 E6.03754
G1 X89.560 Y100.837 E6.04903
G1 X89.331 Y100.484 E6.06222
G1 X89.196 Y100.098 E6.07500
G1 X89.145 Y99.830 E6.08354
G1 X89.115 Y99.450 E6.09548
G1 X89.121 Y98.533 E6.12421
G1 X89.186 Y98.024 E6.14026
G1 X89.316 Y97.631 E6.15325
G1 X89.460 Y97.377 E6.16236
G1 X89.651 Y97.142 E6.17185
G1 X89.932 Y96.891 E6.18365
G1 X90.197 Y96.710 E6.19370
G1 X90.636 Y96.470 E6.20938
G1 X91.060 Y96.281 E6.22393
G1 X91.624 Y96.073 E6.24272
G1 X92.075 Y95.936 E6.25748
G1 X92.785 Y95.766 E6.28034
G1 X93.503 Y95.641 E6.30318
G1 X94.329 Y95.536 E6.32927
G1 X95.056 Y95.482 E6.35208
G1 X95.635 Y95.475 E6.37022
G1 X96.118 Y95.504 E6.38537
G1 X96.524 Y95.567 E6.39822
G1 X96.977 Y95.698 E6.41299
G1 X97.224 Y95.726 E6.42078
G1 X97.863 Y95.496 E6.44205
G1 X98.270 Y95.387 E6.45523
G1 X98.733 Y95.298 E6.47002
G1 X98.906 Y95.125 E6.47766
G1 X99.024 Y94.905 E6.48550
G1 X98.980 Y94.199 E6.50765
G1 X98.970 Y93.515 E6.52906
G1 X98.998 Y92.790 E6.55177
G1 X99.059 Y92.122 E6.57278
G1 X98.546 Y91.869 E6.59071
G1 X97.849 Y92.073 E6.61344
G1 X96.828 Y92.295 E6.64614
G1 X96.096 Y92.405 E6.66934
G1 X95.189 Y92.475 E6.69783
G1 X94.675 Y92.473 E6.71392
G1 X94.634 Y92.257 E6.72079
G1 X95.068 Y92.086 E6.73538
G1 X95.623 Y91.918 E6.75356
G1 X96.214 Y91.775 E6.77260
G1 X96.937 Y91.641 E6.79561
G1 X97.662 Y91.545 E6.81850
G1 X98.241 Y91.503 E6.83670
G1 X99.059 Y91.484 E6.86231
G1 X99.289 Y91.201 E6.87373
G1 X99.383 Y91.478 E6.88289
G1 X99.520 Y92.258 E6.90771
G1 X99.589 Y93.182 E6.93672
G1 X99.593 Y94.054 E6.96401
G1 X99.549 Y94.821 E6.98808
G1 X99.597 Y94.974 E6.99311
G1 X99.594 Y95.114 E6.99748
G1 X99.840 Y95.372 E7.00863
G1 X100.461 Y95.557 E7.02893
G1 X101.191 Y95.809 E7.05311
G1 X102.999 Y96.551 E7.11430
G1 X103.738 Y96.792 E7.13864
G1 X104.162 Y96.483 E7.15508
G1 X104.583 Y95.692 E7.18315
G1 X104.827 Y95.307 E7.19742
G1 X105.206 Y94.772 E7.21796
G1 X105.090 Y94.265 E7.23425
G1 X104.263 Y94.060 E7.26093
G1 X103.541 Y93.826 E7.28469
G1 X102.938 Y93.572 E7.30518
G1 X102.632 Y93.403 E7.31612
G1 X102.690 Y93.200 E7.32271
G1 X103.069 Y93.218 E7.33457
G1 X103.820 Y93.322 E7.35833
G1 X104.362 Y93.440 E7.37570
G1 X104.855 Y93.575 E7.39170
G1 X105.693 Y93.871 E7.41954
G1 X105.859 Y93.896 E7.42480
G1 X106.129 Y93.761 E7.43425
G1 X106.444 Y93.530 E7.44648
G1 X106.363 Y93.892 E7.45810
G1 X106.477 Y94.356 E7.47306
G1 X106.319 Y94.377 E7.47805
G1 X106.062 Y94.527 E7.48735
G1 X105.753 Y95.054 E7.50650
G1 X105.404 Y95.572 E7.52606
G1 X104.993 Y96.105 E7.54714
G1 X104.611 Y96.540 E7.56525
G1 X104.643 Y96.867 E7.57554
G1 X104.604 Y97.024 F7800.000
G1 E5.57554 F2400.00000
G92 E0
G1 X93.972 Y92.489 F7800.000
G1 E2.00000 F2400.00000
G1 F900
G1 X93.754 Y92.801 E2.01191
G1 X93.702 Y92.837 E2.01389
G1 X93.327 Y92.981 E2.02646
G1 X93.272 Y92.757 E2.03366
G1 X92.967 Y92.663 E2.04366
G1 X93.113 Y92.223 E2.05818
G1 X93.364 Y92.279 E2.06625
G1 X93.580 Y92.275 E2.07301
G1 X93.649 Y92.294 E2.07525
G1 X93.908 Y92.451 E2.08471
G1 X93.633 Y92.663 F7800.000
G1 X95.692 Y92.172 F7800.000
G1 F1200
G1 X97.690 Y91.823 E2.09412
G1 F1200
G1 X97.914 Y91.785 E2.09423
G1 X99.283 Y92.360 F7800.000
G1 F1200
G1 X99.279 Y92.809 E2.09502
G1 F1200
G1 X99.285 Y94.046 E2.10226
G1 F1200
G1 X99.284 Y94.845 E2.10385
G1 X99.286 Y94.862 F7800.000
G1 F1200
G1 X99.301 Y95.009 E2.10436
G1 E0.10436 F2400.00000
G92 E0
G1 X103.416 Y93.511 F7800.000
G1 E2.00000 F2400.00000
G1 F1200
G1 X103.636 Y93.571 E2.00011
G1 F1200
G1 X105.285 Y94.025 E2.00770
G1 X105.877 Y94.417 E2.01085
G1 X105.793 Y94.104 F7800.000
G1 F1200
G1 X105.510 Y94.869 E2.01646
G1 X104.834 Y95.838 E2.02460
G1 F1200
G1 X104.684 Y96.060 E2.02538
G1 E0.02538 F2400.00000
G92 E0
G1 X105.316 Y98.694 F7800.000
G1 E2.00000 F2400.00000
G1 F1200
G1 X104.990 Y98.369 E2.01374
G1 X104.160 Y98.135 E2.03947
G1 X105.474 Y99.449 E2.09493
G1 X105.209 Y99.745 E2.10679
G1 X105.181 Y99.753 E2.10765
G1 X103.295 Y97.867 E2.18725
G1 X102.412 Y97.581 E2.21497
G1 X104.718 Y99.887 E2.31232
G1 X104.256 Y100.021 E2.32670
G1 X101.403 Y97.168 E2.44712
G1 X100.410 Y96.772 E2.47903
G1 X103.765 Y100.127 E2.62066
G1 X103.331 Y100.290 E2.63449
G1 X99.526 Y96.485 E2.79509
G1 X99.027 Y96.336 E2.81063
G1 X98.820 Y96.376 E2.81691
G1 X102.897 Y100.452 E2.98897
G1 X102.463 Y100.615 E3.00280
G1 X98.324 Y96.477 E3.17748
G1 X97.869 Y96.618 E3.19171
G1 X102.037 Y100.786 E3.36762
G1 X101.615 Y100.961 E3.38124
G1 X97.431 Y96.776 E3.55786
G1 X97.210 Y96.856 E3.56485
G1 X96.874 Y96.816 E3.57496
G1 X101.194 Y101.136 E3.75729
G1 X100.758 Y101.297 E3.77115
G1 X96.110 Y96.649 E3.96734
G1 X95.821 Y96.602 E3.97607
G1 X95.443 Y96.579 E3.98738
G1 X100.320 Y101.456 E4.19325
G1 X99.861 Y101.594 E4.20755
G1 X94.859 Y96.591 E4.41869
G1 X94.303 Y96.633 E4.43532
G1 X99.375 Y101.704 E4.64939
G1 X99.050 Y101.768 E4.65927
G1 X98.721 Y101.647 E4.66976
G1 X93.773 Y96.699 E4.87858
G1 X93.255 Y96.778 E4.89421
G1 X97.801 Y101.324 E5.08607
G1 X97.592 Y101.250 E5.09267
G1 X97.155 Y101.275 E5.10574
G1 X92.754 Y96.874 E5.29149
G1 X92.273 Y96.989 E5.30627
G1 X96.653 Y101.369 E5.49115
G1 X96.417 Y101.438 E5.49848
G1 X96.163 Y101.476 E5.50614
G1 X91.816 Y97.129 E5.68963
G1 X91.380 Y97.290 E5.70350
G1 X95.594 Y101.503 E5.88136
G1 X94.963 Y101.469 E5.90020
G1 X90.972 Y97.478 E6.06869
G1 X90.595 Y97.698 E6.08171
G1 X94.301 Y101.404 E6.23815
G1 X93.607 Y101.307 E6.25906
G1 X90.308 Y98.008 E6.39831
G1 X90.263 Y98.144 E6.40260
G1 X90.223 Y98.519 E6.41386
G1 X92.859 Y101.156 E6.52514
G1 X92.681 Y101.117 E6.53061
G1 X92.016 Y100.909 E6.55139
G1 X90.220 Y99.113 E6.62721
G1 X90.239 Y99.501 E6.63881
G1 X90.308 Y99.760 E6.64683
G1 X90.369 Y99.857 E6.65023
G1 X90.807 Y100.297 E6.66875
G1 X90.794 Y100.284 E6.66930
G1 E4.66930 F2400.00000
G92 E0
G1 X94.273 Y107.371 F7800.000
G1 E2.00000 F2400.00000
G1 F1200
G1 X96.293 Y106.636 E2.00660
G1 E0.00660 F2400.00000
G92 E0
G1 X97.921 Y105.094 F7800.000
G1 E2.00000 F2400.00000
G1 F1200
G1 X98.581 Y103.252 E2.00806
G1 X98.669 Y102.772 E2.01007
G1 E0.01007 F2400.00000
G92 E0
G1 X101.878 Y105.791 F7800.000
G1 E2.00000 F2400.00000
G1 F1200
G1 X102.201 Y105.790 E2.00055
G1 F1200
G1 X103.275 Y105.796 E2.00695
G1 F1200
G1 X103.977 Y105.785 E2.00852
G1 X104.417 Y105.612 F7800.000
G1 F1200
G1 X104.382 Y105.592 E2.00926
G1 X104.531 Y104.895 E2.02233
G1 X104.505 Y105.101 F7800.000
G1 F1200
G1 X104.424 Y104.585 E2.02246
G1 F1200
G1 X104.173 Y103.152 E2.03033
G1 F1200
G1 X104.129 Y102.899 E2.03054
G1 E0.03054 F2400.00000
G92 E0
G1 X104.417 Y105.612 F7800.000
G1 E2.00000 F2400.00000
G1 F1200
G1 X104.689 Y105.712 E2.00330
G1 E0.00330 F2400.00000
G92 E0
G1 X107.631 Y99.043 F7800.000
G1 E2.00000 F2400.00000
G1 F1200
G1 X108.239 Y99.049 E2.01091
G1 F1200
G1 X108.534 Y99.069 E2.01477
G1 F1200
G1 X109.448 Y99.166 E2.02193
G1 F1200
G1 X109.851 Y99.226 E2.02276
G1 X110.294 Y99.357 E2.02371
G1 Z1.300 F7800.000
G1 E0.02371 F2400.00000
G92 E0
G1 X91.978 Y108.016 F7800.000
G1 E2.00000 F2400.00000
G1 F1800
G1 X92.011 Y108.015 E2.00119
G1 X91.291 Y108.053 F7800.000
G1 F1800
G1 X91.169 Y108.006 E2.00218
G1 X90.973 Y108.041 E2.00371
G1 X90.741 Y108.037 E2.00548
G1 X91.569 Y107.197 F7800.000
G1 F1800
G1 X91.493 Y107.104 E2.00649
G1 E0.00649 F2400.00000
G92 E0
G1 X99.605 Y105.719 F7800.000
G1 E2.00000 F2400.00000
G1 F1800
G1 X99.189 Y105.796 E2.00302
G1 X98.989 Y105.872 E2.00454
G1 X100.210 Y105.770 F7800.000
G1 F1800
G1 X100.276 Y105.758 E2.00690
G1 X99.932 Y105.069 F7800.000
G1 F1800
G1 X99.601 Y104.683 E2.01124
G1 E0.01124 F2400.00000
G92 E0
G1 X106.138 Y99.051 F7800.000
G1 E2.00000 F2400.00000
G1 F900
G1 X105.982 Y99.185 E2.00608
G1 X105.338 Y99.895 E2.03439
G1 X104.797 Y100.089 E2.05137
G1 X103.421 Y100.669 E2.09549
G1 X102.249 Y101.098 E2.13236
G1 X100.780 Y101.727 E2.17958
G1 X100.262 Y101.924 E2.19598
G1 X99.903 Y102.022 E2.20696
G1 X99.400 Y102.099 E2.22200
G1 X98.778 Y102.071 E2.24040
G1 X97.399 Y101.645 E2.28305
G1 X96.904 Y101.611 E2.29771
G1 X96.357 Y101.773 E2.31457
G1 X96.043 Y101.818 E2.32394
G1 X95.314 Y101.823 E2.34547
G1 X94.643 Y101.769 E2.36538
G1 X93.386 Y101.594 E2.40287
G1 X92.670 Y101.456 E2.42441
G1 X91.763 Y101.214 E2.45214
G1 X91.340 Y101.062 E2.46541
G1 X90.776 Y100.799 E2.48381
G1 X90.396 Y100.566 E2.49698
G1 X90.183 Y100.387 E2.50520
G1 X90.024 Y100.179 E2.51293
G1 X89.887 Y99.881 E2.52263
G1 X89.791 Y99.465 E2.53523
G1 X89.766 Y98.961 E2.55013
G1 X89.814 Y98.470 E2.56472
G1 X89.929 Y98.084 E2.57661
G1 X90.075 Y97.829 E2.58530
G1 X90.269 Y97.616 E2.59381
G1 X90.644 Y97.358 E2.60727
G1 X91.009 Y97.164 E2.61947
G1 X91.251 Y97.057 E2.62727
G1 X91.995 Y96.797 E2.65058
G1 X92.824 Y96.594 E2.67580
G1 X93.511 Y96.468 E2.69642
G1 X94.200 Y96.366 E2.71699
G1 X94.912 Y96.287 E2.73817
G1 X95.445 Y96.253 E2.75395
G1 X95.809 Y96.250 E2.76470
G1 X96.163 Y96.277 E2.77521
G1 X96.464 Y96.332 E2.78424
G1 X96.906 Y96.475 E2.79794
G1 X97.475 Y96.413 E2.81486
G1 X98.365 Y96.141 E2.84237
G1 X99.310 Y95.947 E2.87087
G1 X100.045 Y96.095 E2.89302
G1 X100.371 Y96.196 E2.90312
G1 X102.215 Y96.971 E2.96219
G1 X103.505 Y97.452 E3.00289
G1 X103.515 Y97.528 E3.00514
G1 X104.035 Y97.680 E3.02114
G1 X105.136 Y98.122 E3.05620
G1 X105.449 Y98.226 E3.06593
G1 X105.671 Y98.517 E3.07677
G1 X106.089 Y98.994 E3.09551
G1 X106.981 Y99.036 F7800.000
G1 F900
G1 X106.547 Y99.251 E3.10982
G1 X106.273 Y99.485 E3.12045
G1 X105.578 Y100.253 E3.15106
G1 X104.949 Y100.478 E3.17080
G1 X103.574 Y101.058 E3.21488
G1 X102.404 Y101.486 E3.25172
G1 X100.937 Y102.114 E3.29886
G1 X100.391 Y102.322 E3.31611
G1 X99.997 Y102.429 E3.32819
G1 X99.630 Y102.498 E3.33922
G1 X99.409 Y102.518 E3.34576
G1 X98.706 Y102.486 E3.36657
G1 X97.322 Y102.058 E3.40937
G1 X96.950 Y102.032 E3.42037
G1 X96.446 Y102.182 E3.43590
G1 X96.081 Y102.235 E3.44680
G1 X95.695 Y102.250 E3.45821
G1 X95.292 Y102.240 E3.47012
G1 X94.600 Y102.185 E3.49063
G1 X93.314 Y102.005 E3.52899
G1 X92.582 Y101.865 E3.55103
G1 X91.634 Y101.612 E3.58003
G1 X91.187 Y101.451 E3.59405
G1 X90.572 Y101.164 E3.61410
G1 X90.159 Y100.910 E3.62843
G1 X89.880 Y100.675 E3.63922
G1 X89.660 Y100.386 E3.64993
G1 X89.493 Y100.024 E3.66170
G1 X89.412 Y99.729 E3.67074
G1 X89.375 Y99.511 E3.67730
G1 X89.347 Y98.959 E3.69362
G1 X89.368 Y98.631 E3.70332
G1 X89.462 Y98.153 E3.71773
G1 X89.626 Y97.753 E3.73049
G1 X89.744 Y97.572 E3.73688
G1 X89.985 Y97.308 E3.74745
G1 X90.182 Y97.155 E3.75481
G1 X90.435 Y96.996 E3.76364
G1 X91.097 Y96.669 E3.78546
G1 X91.877 Y96.397 E3.80986
G1 X92.737 Y96.185 E3.83603
G1 X93.443 Y96.056 E3.85723
G1 X94.146 Y95.952 E3.87824
G1 X94.875 Y95.871 E3.89993
G1 X95.430 Y95.835 E3.91636
G1 X95.823 Y95.833 E3.92796
G1 X96.217 Y95.862 E3.93963
G1 X96.567 Y95.927 E3.95014
G1 X96.949 Y96.050 E3.96201
G1 X97.390 Y96.002 E3.97512
G1 X98.262 Y95.735 E4.00205
G1 X99.217 Y95.540 E4.03084
G1 X99.296 Y95.446 E4.03447
G1 X99.372 Y95.534 E4.03790
G1 X100.149 Y95.689 E4.06131
G1 X100.515 Y95.803 E4.07264
G1 X102.369 Y96.582 E4.13206
G1 X103.887 Y97.149 E4.17993
G1 X103.894 Y97.203 E4.18155
G1 X104.172 Y97.284 E4.19010
G1 X105.280 Y97.730 E4.22538
G1 X105.702 Y97.870 E4.23853
G1 X105.995 Y98.252 E4.25277
G1 X106.340 Y98.648 E4.26828
G1 X106.623 Y98.880 E4.27910
G1 X106.912 Y99.006 E4.28842
G1 E2.28842 F2400.00000
G92 E0
G1 X111.487 Y100.323 F7800.000
G1 E2.00000 F2400.00000
G1 F1800
G1 X111.270 Y100.406 E2.00728
G1 X111.133 Y100.156 E2.01620
G1 X110.944 Y99.951 E2.02495
G1 X110.757 Y99.791 E2.03265
G1 X110.566 Y99.679 E2.03960
G1 X110.223 Y99.559 E2.05098
G1 X109.728 Y99.453 E2.06681
G1 X108.345 Y99.374 E2.11022
G1 X107.885 Y99.441 E2.12475
G1 X107.290 Y99.436 E2.14340
G1 X107.074 Y99.470 E2.15025
G1 X106.786 Y99.613 E2.16031
G1 X106.574 Y99.794 E2.16904
G1 X105.824 Y100.621 E2.20400
G1 X105.105 Y100.879 E2.22792
G1 X103.732 Y101.458 E2.27459
G1 X102.562 Y101.886 E2.31360
G1 X101.098 Y102.513 E2.36347
G1 X100.525 Y102.731 E2.38269
G1 X100.093 Y102.849 E2.39671
G1 X99.689 Y102.924 E2.40958
G1 X99.419 Y102.949 E2.41805
G1 X98.873 Y102.924 E2.43516
G1 X98.583 Y103.285 E2.44965
G1 X98.459 Y103.132 E2.45582
G1 X98.355 Y102.828 E2.46589
G1 X97.242 Y102.484 E2.50236
G1 X96.998 Y102.467 E2.51002
G1 X96.539 Y102.603 E2.52503
G1 X96.121 Y102.663 E2.53825
G1 X95.699 Y102.681 E2.55147
G1 X95.270 Y102.670 E2.56491
G1 X94.557 Y102.613 E2.58731
G1 X93.241 Y102.429 E2.62891
G1 X92.491 Y102.285 E2.65282
G1 X92.028 Y102.175 E2.66773
G1 X91.500 Y102.021 E2.68494
G1 X91.029 Y101.851 E2.70063
G1 X90.687 Y101.704 E2.71229
G1 X90.362 Y101.540 E2.72368
G1 X89.915 Y101.265 E2.74014
G1 X89.714 Y101.111 E2.74805
G1 X89.432 Y100.813 E2.76091
G1 X89.285 Y100.600 E2.76902
G1 X89.088 Y100.173 E2.78375
G1 X88.992 Y99.823 E2.79510
G1 X88.947 Y99.558 E2.80353
G1 X88.916 Y98.956 E2.82239
G1 X88.940 Y98.586 E2.83400
G1 X88.981 Y98.307 E2.84283
G1 X89.049 Y98.029 E2.85178
G1 X89.146 Y97.756 E2.86086
G1 X89.250 Y97.541 E2.86835
G1 X89.403 Y97.308 E2.87708
G1 X89.693 Y96.991 E2.89053
G1 X89.935 Y96.803 E2.90014
G1 X90.219 Y96.624 E2.91066
G1 X90.638 Y96.402 E2.92551
G1 X90.938 Y96.268 E2.93579
G1 X91.754 Y95.984 E2.96284
G1 X92.647 Y95.764 E2.99162
G1 X93.372 Y95.631 E3.01473
G1 X94.091 Y95.525 E3.03747
G1 X94.838 Y95.442 E3.06100
G1 X95.415 Y95.405 E3.07913
G1 X95.838 Y95.402 E3.09235
G1 X96.272 Y95.434 E3.10600
G1 X96.672 Y95.509 E3.11875
G1 X96.994 Y95.612 E3.12932
G1 X97.304 Y95.579 E3.13907
G1 X98.155 Y95.318 E3.16697
G1 X98.984 Y95.148 E3.19345
G1 X99.172 Y94.926 E3.20257
G1 X99.393 Y94.965 E3.20961
G1 X99.474 Y95.089 E3.21423
G1 X99.576 Y95.113 E3.21753
G1 X99.600 Y95.141 E3.21869
G1 X100.255 Y95.272 E3.23960
G1 X100.662 Y95.399 E3.25296
G1 X102.527 Y96.182 E3.31630
G1 X104.001 Y96.732 E3.36556
G1 X104.269 Y96.758 E3.37400
G1 X104.284 Y96.869 E3.37751
G1 X104.460 Y96.920 E3.38325
G1 X104.470 Y96.941 E3.38397
G1 X105.428 Y97.326 E3.41628
G1 X105.963 Y97.503 E3.43395
G1 X106.328 Y97.980 E3.45275
G1 X106.641 Y98.338 E3.46764
G1 X106.850 Y98.510 E3.47612
G1 X107.097 Y98.618 E3.48457
G1 X107.300 Y98.647 E3.49098
G1 X108.028 Y98.656 E3.51378
G1 X108.303 Y98.717 E3.52260
G1 X109.892 Y98.976 E3.57300
G1 X110.175 Y99.065 E3.58232
G1 X110.469 Y99.194 E3.59235
G1 X110.782 Y99.365 E3.60353
G1 X111.056 Y99.561 E3.61407
G1 X111.291 Y99.823 E3.62509
G1 X111.433 Y100.097 E3.63477
G1 X111.469 Y100.250 E3.63968
G1 X111.257 Y100.287 F7800.000
G1 E1.63968 F2400.00000
G92 E0
G1 X99.278 Y94.666 F7800.000
G1 E2.00000 F2400.00000
G1 F1800
G1 X99.281 Y92.860 E2.06183
G1 F1800
G1 X99.278 Y92.665 E2.06758
G1 F1800
G1 X99.263 Y92.131 E2.08098
G1 E0.08098 F2400.00000
G92 E0
G1 X98.343 Y103.920 F7800.000
G1 E2.00000 F2400.00000
G1 F1800
G1 X98.087 Y104.634 E2.02780
G1 F1800
G1 X97.934 Y105.081 E2.04309
G1 F1800
G1 X97.815 Y105.443 E2.05383
G1 E0.05383 F2400.00000
G92 E0
G1 X109.353 Y102.132 F7800.000
G1 E2.00000 F2400.00000
G1 F1800
G1 X109.371 Y102.346 E2.00304
G1 X109.438 Y102.503 E2.00545
G1 X109.506 Y102.604 E2.00718
G1 F1800
G1 X109.731 Y102.813 E2.01269
G1 F1800
G1 X109.985 Y102.961 E2.01929
G1 F1800
G1 X110.297 Y103.057 E2.02790
G1 X110.634 Y103.066 E2.03678
G1 F1800
G1 X110.867 Y103.024 E2.04406
G1 X111.089 Y102.914 E2.05168
G1 X111.272 Y102.739 E2.05947
G1 X111.396 Y102.540 E2.06669
G1 F1800
G1 X111.523 Y102.135 E2.08170
G1 F1800
G1 X111.584 Y101.647 E2.10120
G1 X111.582 Y101.285 E2.11551
G1 X111.544 Y100.973 E2.12797
G1 X111.140 Y100.751 E2.14623
G1 X109.569 Y101.510 F7800.000
G1 F1800
G1 X109.474 Y101.597 E2.14699
G1 X109.428 Y101.697 E2.14764
G1 F1800
G1 X109.385 Y101.800 E2.14873
G1 X109.353 Y102.132 E2.15201
G1 E0.15201 F2400.00000
G92 E0
G1 X109.541 Y99.176 F7800.000
G1 E2.00000 F2400.00000
G1 F1200
G1 X108.740 Y99.092 E2.00092
G1 F1200
G1 X108.235 Y99.049 E2.00480
G1 F1200
G1 X107.966 Y99.038 E2.00838
G1 F1200
G1 X107.673 Y99.042 E2.01370
G1 X104.936 Y99.700 F7800.000
G1 F1200
G1 X105.263 Y99.373 E2.02752
G1 X105.724 Y98.864 E2.04809
G1 X105.470 Y98.567 E2.05977
G1 X103.951 Y100.086 E2.12407
G1 X102.933 Y100.506 E2.15702
G1 X105.106 Y98.333 E2.24900
G1 X104.680 Y98.161 E2.26276
G1 X101.990 Y100.851 E2.37662
G1 X100.950 Y101.293 E2.41044
G1 X104.253 Y97.990 E2.55026
G1 X103.806 Y97.838 E2.56438
G1 X99.949 Y101.694 E2.72762
G1 X99.654 Y101.775 E2.73679
G1 X99.204 Y101.842 E2.75041
G1 X103.343 Y97.703 E2.92561
G1 X103.299 Y97.690 E2.92698
G1 X103.286 Y97.593 E2.92990
G1 X102.971 Y97.476 E2.93996
G1 X98.642 Y101.805 E3.12320
G1 X98.185 Y101.663 E3.13752
G1 X102.536 Y97.313 E3.32166
G1 X102.104 Y97.146 E3.33551
G1 X97.728 Y101.522 E3.52073
G1 X97.262 Y101.390 E3.53524
G1 X101.683 Y96.969 E3.72238
G1 X101.261 Y96.792 E3.73606
G1 X96.702 Y101.352 E3.92905
G1 X96.105 Y101.526 E3.94767
G1 X95.899 Y101.556 E3.95388
G1 X100.840 Y96.615 E4.16300
G1 X100.418 Y96.438 E4.17668
G1 X95.290 Y101.567 E4.39377
G1 X94.726 Y101.532 E4.41068
G1 X99.952 Y96.307 E4.63188
G1 X99.473 Y96.211 E4.64648
G1 X99.443 Y96.217 E4.64741
G1 X94.185 Y101.475 E4.86995
G1 X93.661 Y101.401 E4.88581
G1 X98.690 Y96.371 E5.09870
G1 X97.837 Y96.626 E5.12536
G1 X93.147 Y101.316 E5.32387
G1 X92.645 Y101.220 E5.33917
G1 X97.140 Y96.724 E5.52945
G1 X97.024 Y96.737 E5.53293
G1 X96.650 Y96.616 E5.54471
G1 X92.170 Y101.096 E5.73434
G1 X91.700 Y100.968 E5.74893
G1 X96.148 Y96.520 E5.93723
G1 X95.558 Y96.512 E5.95490
G1 X91.265 Y100.804 E6.13659
G1 X90.857 Y100.614 E6.15008
G1 X94.908 Y96.563 E6.32155
G1 X94.222 Y96.650 E6.34223
G1 X90.482 Y100.390 E6.50055
G1 X90.325 Y100.259 E6.50669
G1 X90.199 Y100.075 E6.51335
G1 X93.505 Y96.769 E6.65329
G1 X93.071 Y96.841 E6.66647
G1 X92.758 Y96.918 E6.67611
G1 X90.056 Y99.620 E6.79051
G1 X90.031 Y99.047 E6.80769
G1 X91.915 Y97.162 E6.88747
G1 X91.575 Y97.281 E6.89826
G1 X91.019 Y97.556 E6.91683
G1 X90.708 Y97.771 E6.92814
G1 X90.383 Y98.096 E6.94189
G1 E4.94189 F2400.00000
G92 E0
G1 X101.265 Y93.467 F7800.000
G1 E2.00000 F2400.00000
G1 F1800
G1 X100.651 Y93.543 E2.00411
G1 X101.766 Y93.313 F7800.000
G1 F1800
G1 X101.739 Y93.311 E2.00508
G1 X101.520 Y92.923 F7800.000
G1 F1800
G1 X101.258 Y92.565 E2.00780
G1 X101.234 Y92.426 E2.00867
G1 E0.00867 F2400.00000
G92 E0
G1 X93.488 Y92.571 F7800.000
G1 E2.00000 F2400.00000
G1 F1800
G1 X93.531 Y92.566 E2.00155
G1 E0.00155 F2400.00000
G92 E0
G1 X91.709 Y108.671 F7800.000
G1 E2.00000 F2400.00000
G1 F1800
G1 X91.676 Y108.837 E2.00116
G1 X91.534 Y109.184 E2.00372
G1 E0.00372 F2400.00000
G92 E0
G1 X96.747 Y106.449 F7800.000
G1 E2.00000 F2400.00000
G1 F1800
G1 X96.067 Y106.723 E2.01979
G1 F1800
G1 X95.695 Y106.856 E2.03247
G1 F1800
G1 X94.742 Y107.203 E2.06974
G1 F1800
G1 X94.208 Y107.384 E2.08802
G1 F1800
G1 X93.871 Y107.491 E2.09773
G1 E0.09773 F2400.00000
G92 E0
G1 X104.275 Y105.752 F7800.000
G1 E2.00000 F2400.00000
G1 F1800
G1 X103.286 Y105.792 E2.03151
G1 F1800
G1 X102.400 Y105.791 E2.06437
G1 F1800
G1 X102.071 Y105.791 E2.07473
G1 F1800
G1 X101.920 Y105.788 E2.07846
G1 F1800
G1 X101.841 Y105.783 E2.07998
G1 F1800
G1 X101.709 Y105.772 E2.08200
G1 F1800
G1 X101.644 Y105.766 E2.08264
G1 E0.08264 F2400.00000
G92 E0
G1 X104.593 Y105.274 F7800.000
G1 E2.00000 F2400.00000
G1 F1800
G1 X104.401 Y104.456 E2.02599
G1 F1800
G1 X104.204 Y103.328 E2.06726
G1 F1800
G1 X104.055 Y102.667 E2.08804
G1 E0.08804 F2400.00000
G92 E0
G1 X103.159 Y93.422 F7800.000
G1 E2.00000 F2400.00000
G1 F1800
G1 X103.944 Y93.654 E2.02465
G1 F1800
G1 X105.135 Y93.966 E2.06659
G1 F1800
G1 X105.350 Y94.026 E2.07324
G1 F1800
G1 X105.476 Y94.069 E2.07645
G1 F1800
G1 X105.547 Y94.104 E2.07806
G1 F1800
G1 X105.589 Y94.113 E2.07878
G1 X105.655 Y94.177 E2.08032
G1 F1800
G1 X105.766 Y94.295 E2.08197
G1 F1800
G1 X105.797 Y94.341 E2.08288
G1 F1800
G1 X105.809 Y94.381 E2.08381
G1 X105.748 Y94.534 E2.08747
G1 F1800
G1 X105.605 Y94.747 E2.09429
G1 F1800
G1 X105.470 Y94.931 E2.10185
G1 F1800
G1 X104.882 Y95.779 E2.14016
G1 F1800
G1 X104.439 Y96.332 E2.16275
G1 E0.16275 F2400.00000
G92 E0
G1 X98.229 Y91.734 F7800.000
G1 E2.00000 F2400.00000
G1 F1800
G1 X98.047 Y91.757 E2.00204
G1 F1800
G1 X97.886 Y91.785 E2.00475
G1 F1800
G1 X97.779 Y91.806 E2.00718
G1 F1800
G1 X97.545 Y91.847 E2.01340
G1 F1800
G1 X97.178 Y91.904 E2.02521
G1 F1800
G1 X96.091 Y92.092 E2.06551
G1 F1800
G1 X95.869 Y92.135 E2.07293
G1 F1800
G1 X95.592 Y92.182 E2.08076
G1 F1800
G1 X95.227 Y92.210 E2.08857
M106 S224.4
G1 Z1.800 F7800.000
G1 E0.08857 F2400.00000
G92 E0
G1 X106.161 Y99.042 F7800.000
G1 E2.00000 F2400.00000
G1 F900
G1 X105.998 Y99.170 E2.00614
G1 X105.578 Y99.636 E2.02468
G1 X104.159 Y100.295 E2.07091
G1 X101.796 Y101.436 E2.14843
G1 X101.023 Y101.778 E2.17341
G1 X100.456 Y101.992 E2.19132
G1 X100.153 Y102.071 E2.20056
G1 X99.844 Y102.112 E2.20977
G1 X99.482 Y102.114 E2.22048
G1 X99.062 Y102.057 E2.23299
G1 X98.452 Y101.925 E2.25143
G1 X97.486 Y101.656 E2.28107
G1 X97.006 Y101.665 E2.29525
G1 X96.431 Y101.891 E2.31350
G1 X96.178 Y101.936 E2.32108
G1 X95.777 Y101.951 E2.33295
G1 X95.223 Y101.919 E2.34936
G1 X93.805 Y101.731 E2.39163
G1 X92.958 Y101.581 E2.41701
G1 X92.251 Y101.430 E2.43838
G1 X91.709 Y101.288 E2.45495
G1 X91.194 Y101.118 E2.47096
G1 X90.837 Y100.969 E2.48239
G1 X90.520 Y100.800 E2.49301
G1 X90.282 Y100.639 E2.50150
G1 X90.081 Y100.475 E2.50918
G1 X89.960 Y100.335 E2.51463
G1 X89.783 Y100.053 E2.52447
G1 X89.696 Y99.871 E2.53043
G1 X89.539 Y99.402 E2.54504
G1 X89.491 Y99.085 E2.55452
G1 X89.520 Y98.765 E2.56400
G1 X89.679 Y98.255 E2.57977
G1 X89.872 Y97.875 E2.59238
G1 X90.048 Y97.640 E2.60105
G1 X90.289 Y97.438 E2.61036
G1 X90.727 Y97.167 E2.62557
G1 X91.263 Y96.939 E2.64277
G1 X92.103 Y96.689 E2.66867
G1 X93.058 Y96.483 E2.69754
G1 X94.354 Y96.268 E2.73637
G1 X95.379 Y96.150 E2.76685
G1 X96.003 Y96.134 E2.78527
G1 X96.377 Y96.177 E2.79640
G1 X96.501 Y96.210 E2.80020
G1 X96.864 Y96.366 E2.81188
G1 X97.450 Y96.437 E2.82932
G1 X98.218 Y96.217 E2.85291
G1 X98.962 Y96.044 E2.87548
G1 X99.389 Y95.976 E2.88826
G1 X99.691 Y95.963 E2.89719
G1 X100.113 Y96.004 E2.90972
G1 X100.463 Y96.093 E2.92040
G1 X101.106 Y96.340 E2.94074
G1 X102.074 Y96.775 E2.97211
G1 X104.581 Y97.988 E3.05438
G1 X105.647 Y98.478 E3.08904
G1 X106.104 Y98.993 E3.10940
G1 X106.963 Y99.053 F7800.000
G1 F900
G1 X106.689 Y99.158 E3.11808
G1 X106.284 Y99.476 E3.13327
G1 X105.831 Y99.979 E3.15327
G1 X104.338 Y100.673 E3.20193
G1 X101.971 Y101.816 E3.27957
G1 X101.181 Y102.164 E3.30509
G1 X100.583 Y102.391 E3.32399
G1 X100.234 Y102.482 E3.33465
G1 X99.873 Y102.530 E3.34540
G1 X99.455 Y102.532 E3.35776
G1 X98.990 Y102.469 E3.37162
G1 X98.352 Y102.331 E3.39091
G1 X97.432 Y102.075 E3.41911
G1 X97.089 Y102.081 E3.42927
G1 X96.546 Y102.295 E3.44650
G1 X96.223 Y102.353 E3.45618
G1 X95.773 Y102.369 E3.46950
G1 X95.187 Y102.336 E3.48685
G1 X94.498 Y102.256 E3.50732
G1 X92.878 Y101.991 E3.55582
G1 X92.155 Y101.836 E3.57769
G1 X91.591 Y101.689 E3.59492
G1 X91.048 Y101.510 E3.61179
G1 X90.658 Y101.347 E3.62429
G1 X90.304 Y101.158 E3.63612
G1 X90.032 Y100.975 E3.64582
G1 X89.788 Y100.775 E3.65516
G1 X89.623 Y100.583 E3.66262
G1 X89.417 Y100.254 E3.67409
G1 X89.212 Y99.771 E3.68960
G1 X89.133 Y99.503 E3.69786
G1 X89.073 Y99.099 E3.70994
G1 X89.110 Y98.684 E3.72224
G1 X89.170 Y98.444 E3.72953
G1 X89.291 Y98.099 E3.74033
G1 X89.522 Y97.645 E3.75540
G1 X89.729 Y97.368 E3.76561
G1 X90.050 Y97.094 E3.77807
G1 X90.528 Y96.799 E3.79466
G1 X91.127 Y96.543 E3.81391
G1 X91.999 Y96.284 E3.84080
G1 X92.980 Y96.072 E3.87044
G1 X94.297 Y95.854 E3.90988
G1 X95.350 Y95.733 E3.94122
G1 X96.021 Y95.716 E3.96103
G1 X96.455 Y95.765 E3.97395
G1 X96.639 Y95.815 E3.97957
G1 X96.974 Y95.959 E3.99035
G1 X97.416 Y96.012 E4.00351
G1 X98.113 Y95.813 E4.02493
G1 X98.881 Y95.634 E4.04824
G1 X99.347 Y95.560 E4.06216
G1 X99.702 Y95.544 E4.07267
G1 X100.185 Y95.592 E4.08701
G1 X100.590 Y95.695 E4.09934
G1 X101.266 Y95.954 E4.12076
G1 X102.251 Y96.397 E4.15266
G1 X104.759 Y97.611 E4.23497
G1 X105.905 Y98.137 E4.27223
G1 X106.336 Y98.643 E4.29187
G1 X106.599 Y98.863 E4.30203
G1 X106.896 Y99.018 E4.31192
G1 X108.183 Y99.068 F7800.000
G1 F1800
G1 X108.008 Y99.188 E4.31857
G1 X107.833 Y99.277 E4.32472
G1 X107.236 Y99.409 E4.34388
G1 X106.904 Y99.536 E4.35502
G1 X106.579 Y99.792 E4.36794
G1 X106.062 Y100.346 E4.39168
G1 X104.522 Y101.062 E4.44487
G1 X102.152 Y102.206 E4.52729
G1 X101.344 Y102.563 E4.55494
G1 X100.713 Y102.801 E4.57604
G1 X100.317 Y102.905 E4.58888
G1 X99.902 Y102.960 E4.60197
G1 X99.427 Y102.962 E4.61686
G1 X98.915 Y102.893 E4.63303
G1 X98.249 Y102.749 E4.65439
G1 X97.377 Y102.506 E4.68272
G1 X97.174 Y102.510 E4.68909
G1 X96.664 Y102.710 E4.70625
G1 X96.270 Y102.781 E4.71878
G1 X95.768 Y102.800 E4.73449
G1 X95.150 Y102.764 E4.75390
G1 X94.442 Y102.683 E4.77621
G1 X92.796 Y102.413 E4.82844
G1 X92.055 Y102.255 E4.85217
G1 X91.469 Y102.101 E4.87115
G1 X90.898 Y101.913 E4.88998
G1 X90.473 Y101.736 E4.90438
G1 X90.082 Y101.528 E4.91825
G1 X89.775 Y101.320 E4.92986
G1 X89.486 Y101.084 E4.94155
G1 X89.276 Y100.839 E4.95165
G1 X89.039 Y100.462 E4.96558
G1 X88.916 Y100.204 E4.97455
G1 X88.804 Y99.908 E4.98446
G1 X88.666 Y99.365 E5.00199
G1 X88.642 Y99.113 E5.00993
G1 X88.649 Y98.856 E5.01798
G1 X88.687 Y98.600 E5.02610
G1 X88.757 Y98.320 E5.03511
G1 X88.891 Y97.939 E5.04778
G1 X89.021 Y97.654 E5.05758
G1 X89.162 Y97.408 E5.06646
G1 X89.401 Y97.089 E5.07895
G1 X89.532 Y96.953 E5.08485
G1 X89.803 Y96.741 E5.09563
G1 X90.322 Y96.421 E5.11472
G1 X90.986 Y96.136 E5.13735
G1 X91.892 Y95.867 E5.16695
G1 X92.899 Y95.649 E5.19919
G1 X94.237 Y95.428 E5.24166
G1 X95.320 Y95.303 E5.27582
G1 X96.039 Y95.285 E5.29834
G1 X96.536 Y95.341 E5.31399
G1 X96.781 Y95.408 E5.32193
G1 X97.087 Y95.539 E5.33237
G1 X97.381 Y95.575 E5.34166
G1 X98.005 Y95.396 E5.36196
G1 X98.799 Y95.212 E5.38749
G1 X99.303 Y95.131 E5.40348
G1 X99.714 Y95.113 E5.41636
G1 X100.260 Y95.167 E5.43353
G1 X100.720 Y95.284 E5.44840
G1 X101.432 Y95.557 E5.47227
G1 X102.433 Y96.007 E5.50665
G1 X104.942 Y97.221 E5.59395
G1 X106.135 Y97.769 E5.63505
G1 X106.219 Y97.843 E5.63855
G1 X106.639 Y98.336 E5.65885
G1 X106.840 Y98.503 E5.66702
G1 X107.063 Y98.620 E5.67490
G1 X107.877 Y98.822 E5.70117
G1 X108.051 Y98.925 E5.70751
G1 X108.132 Y99.013 E5.71125
G1 X107.974 Y99.105 F7800.000
G1 X107.688 Y99.089 F7800.000
G1 F1200
G1 X107.236 Y98.922 E5.71247
G1 X105.552 Y98.982 F7800.000
G1 F1200
G1 X105.226 Y98.656 E5.72645
G1 X104.098 Y98.135 E5.76411
G1 X105.440 Y99.477 E5.82166
G1 X105.026 Y99.670 E5.83551
G1 X102.923 Y97.566 E5.92571
G1 X101.748 Y96.997 E5.96531
G1 X104.612 Y99.862 E6.08818
G1 X104.199 Y100.054 E6.10202
G1 X100.660 Y96.516 E6.25376
G1 X100.174 Y96.330 E6.26956
G1 X99.783 Y96.245 E6.28168
G1 X103.789 Y100.251 E6.45349
G1 X103.380 Y100.449 E6.46725
G1 X99.176 Y96.245 E6.64755
G1 X98.667 Y96.341 E6.66328
G1 X102.971 Y100.646 E6.84789
G1 X102.562 Y100.843 E6.86166
G1 X98.175 Y96.456 E7.04984
G1 X97.703 Y96.590 E7.06472
G1 X102.154 Y101.041 E7.25559
G1 X101.744 Y101.237 E7.26938
G1 X97.190 Y96.684 E7.46466
G1 X96.592 Y96.611 E7.48294
G1 X96.451 Y96.551 E7.48760
G1 X101.323 Y101.423 E7.69656
G1 X100.897 Y101.603 E7.71059
G1 X95.687 Y96.394 E7.93400
G1 X95.246 Y96.405 E7.94739
G1 X95.108 Y96.421 E7.95160
G1 X100.453 Y101.766 E8.18084
G1 X100.235 Y101.823 E8.18768
G1 X99.938 Y101.857 E8.19674
G1 X94.564 Y96.483 E8.42722
G1 X94.030 Y96.555 E8.44356
G1 X99.279 Y101.804 E8.66867
G1 X98.487 Y101.619 E8.69333
G1 X93.510 Y96.642 E8.90679
G1 X92.990 Y96.728 E8.92278
G1 X97.663 Y101.401 E9.12318
G1 X97.072 Y101.416 E9.14111
G1 X92.491 Y96.835 E9.33758
G1 X91.996 Y96.946 E9.35297
G1 X96.637 Y101.587 E9.55202
G1 X96.479 Y101.649 E9.55717
G1 X96.132 Y101.689 E9.56776
G1 X91.528 Y97.085 E9.76520
G1 X91.242 Y97.170 E9.77426
G1 X91.077 Y97.240 E9.77969
G1 X95.507 Y101.670 E9.96969
G1 X94.828 Y101.597 E9.99041
G1 X90.665 Y97.434 E10.16897
G1 X90.300 Y97.675 E10.18224
G1 X94.106 Y101.482 E10.34549
G1 X93.381 Y101.363 E10.36777
G1 X90.027 Y98.009 E10.51160
G1 X89.904 Y98.251 E10.51982
G1 X89.847 Y98.435 E10.52568
G1 X92.621 Y101.209 E10.64466
G1 X91.789 Y100.983 E10.67082
G1 X89.757 Y98.952 E10.75796
G1 X89.843 Y99.342 E10.77007
G1 X89.992 Y99.697 E10.78176
G1 X90.135 Y99.924 E10.78988
G1 X90.535 Y100.336 E10.80730
M106 S226.95
G1 Z2.300 F7800.000
G1 X106.123 Y99.037 F7800.000
G1 F900
G1 X105.855 Y99.300 E10.81842
G1 X105.444 Y99.779 E10.83706
G1 X103.461 Y100.822 E10.90326
G1 X101.899 Y101.545 E10.95411
G1 X101.185 Y101.831 E10.97685
G1 X100.709 Y102.000 E10.99175
G1 X100.402 Y102.081 E11.00116
G1 X100.203 Y102.108 E11.00709
G1 X99.890 Y102.104 E11.01633
G1 X99.422 Y102.040 E11.03028
G1 X98.647 Y101.869 E11.05375
G1 X97.441 Y101.548 E11.09061
G1 X96.797 Y101.794 E11.11096
G1 X96.493 Y101.982 E11.12154
G1 X96.340 Y102.034 E11.12633
G1 X96.060 Y102.075 E11.13468
G1 X95.504 Y102.057 E11.15111
G1 X94.656 Y101.951 E11.17635
G1 X93.381 Y101.735 E11.21457
G1 X92.362 Y101.530 E11.24529
G1 X91.550 Y101.334 E11.26996
G1 X91.069 Y101.190 E11.28478
G1 X90.659 Y101.037 E11.29771
G1 X90.323 Y100.869 E11.30884
G1 X90.131 Y100.735 E11.31574
G1 X89.941 Y100.560 E11.32338
G1 X89.837 Y100.426 E11.32839
G1 X89.622 Y100.071 E11.34066
G1 X89.409 Y99.632 E11.35507
G1 X89.262 Y99.245 E11.36730
G1 X89.224 Y99.031 E11.37371
G1 X89.283 Y98.765 E11.38176
G1 X89.388 Y98.499 E11.39020
G1 X89.670 Y97.924 E11.40913
G1 X89.934 Y97.531 E11.42313
G1 X90.257 Y97.254 E11.43570
G1 X90.387 Y97.176 E11.44018
G1 X90.590 Y97.075 E11.44687
G1 X91.249 Y96.836 E11.46759
G1 X92.308 Y96.564 E11.49990
G1 X93.933 Y96.249 E11.54880
G1 X95.245 Y96.052 E11.58799
G1 X95.891 Y96.005 E11.60712
G1 X96.234 Y96.025 E11.61730
G1 X96.468 Y96.092 E11.62448
G1 X97.086 Y96.437 E11.64540
G1 X97.561 Y96.502 E11.65956
G1 X98.663 Y96.209 E11.69324
G1 X99.451 Y96.037 E11.71708
G1 X99.781 Y95.987 E11.72696
G1 X100.130 Y95.972 E11.73726
G1 X100.402 Y96.002 E11.74534
G1 X100.725 Y96.087 E11.75521
G1 X101.188 Y96.252 E11.76973
G1 X102.009 Y96.584 E11.79590
G1 X103.611 Y97.335 E11.84819
G1 X105.518 Y98.343 E11.91190
G1 X105.863 Y98.777 E11.92829
G1 X106.070 Y98.984 E11.93695
G1 X106.791 Y99.033 F7800.000
G1 F3600
G1 X106.455 Y99.297 E11.94957
G1 X106.160 Y99.586 E11.96178
G1 X105.712 Y100.108 E11.98210
G1 X105.316 Y100.326 E11.99546
G1 X103.648 Y101.196 E12.05104
G1 X102.873 Y101.568 E12.07643
G1 X102.062 Y101.929 E12.10268
G1 X101.333 Y102.222 E12.12590
G1 X100.833 Y102.400 E12.14157
G1 X100.483 Y102.492 E12.15226
G1 X100.228 Y102.526 E12.15985
G1 X99.859 Y102.522 E12.17076
G1 X99.349 Y102.452 E12.18598
G1 X98.548 Y102.275 E12.21021
G1 X97.464 Y101.986 E12.24335
G1 X96.984 Y102.170 E12.25855
G1 X96.690 Y102.352 E12.26875
G1 X96.433 Y102.443 E12.27680
G1 X96.093 Y102.492 E12.28695
G1 X95.466 Y102.473 E12.30548
G1 X94.595 Y102.364 E12.33141
G1 X93.305 Y102.145 E12.37008
G1 X92.271 Y101.938 E12.40123
G1 X91.441 Y101.737 E12.42647
G1 X90.936 Y101.587 E12.44204
G1 X90.492 Y101.420 E12.45604
G1 X90.109 Y101.229 E12.46870
G1 X89.869 Y101.062 E12.47735
G1 X89.632 Y100.843 E12.48688
G1 X89.492 Y100.662 E12.49362
G1 X89.255 Y100.270 E12.50716
G1 X89.025 Y99.797 E12.52270
G1 X88.858 Y99.357 E12.53663
G1 X88.804 Y99.021 E12.54668
G1 X88.828 Y98.842 E12.55201
G1 X88.887 Y98.632 E12.55846
G1 X89.005 Y98.331 E12.56802
G1 X89.304 Y97.722 E12.58804
G1 X89.471 Y97.450 E12.59749
G1 X89.619 Y97.254 E12.60473
G1 X89.776 Y97.101 E12.61121
G1 X90.019 Y96.909 E12.62037
G1 X90.186 Y96.809 E12.62613
G1 X90.426 Y96.691 E12.63401
G1 X91.125 Y96.436 E12.65601
G1 X92.217 Y96.156 E12.68929
G1 X93.862 Y95.838 E12.73882
G1 X95.198 Y95.636 E12.77874
G1 X95.880 Y95.587 E12.79892
G1 X96.315 Y95.614 E12.81181
G1 X96.622 Y95.701 E12.82125
G1 X97.215 Y96.033 E12.84131
G1 X97.534 Y96.077 E12.85085
G1 X98.564 Y95.803 E12.88233
G1 X99.375 Y95.626 E12.90685
G1 X99.741 Y95.571 E12.91781
G1 X100.144 Y95.554 E12.92970
G1 X100.478 Y95.590 E12.93963
G1 X100.848 Y95.687 E12.95094
G1 X101.336 Y95.861 E12.96625
G1 X102.173 Y96.200 E12.99292
G1 X102.919 Y96.536 E13.01709
G1 X103.800 Y96.962 E13.04601
G1 X105.763 Y98.000 E13.11162
G1 X106.175 Y98.498 E13.13071
G1 X106.510 Y98.833 E13.14471
G1 X106.730 Y98.989 E13.15268
G1 X107.603 Y99.031 F7800.000
G1 F1800
G1 X106.926 Y99.474 E13.17804
G1 X106.739 Y99.620 E13.18546
G1 X106.474 Y99.880 E13.19708
G1 X105.960 Y100.462 E13.22139
G1 X105.520 Y100.706 E13.23716
G1 X103.841 Y101.580 E13.29645
G1 X103.054 Y101.958 E13.32377
G1 X102.230 Y102.326 E13.35203
G1 X101.485 Y102.625 E13.37718
G1 X100.960 Y102.811 E13.39462
G1 X100.567 Y102.915 E13.40735
G1 X100.255 Y102.956 E13.41721
G1 X99.827 Y102.952 E13.43059
G1 X99.273 Y102.875 E13.44811
G1 X98.446 Y102.693 E13.47462
G1 X97.488 Y102.438 E13.50568
G1 X97.175 Y102.558 E13.51616
G1 X96.772 Y102.787 E13.53067
G1 X96.529 Y102.863 E13.53866
G1 X96.127 Y102.922 E13.55137
G1 X95.427 Y102.902 E13.57330
G1 X94.533 Y102.790 E13.60153
G1 X93.227 Y102.568 E13.64302
G1 X92.178 Y102.358 E13.67650
G1 X91.329 Y102.152 E13.70387
G1 X90.799 Y101.995 E13.72118
G1 X90.320 Y101.815 E13.73720
G1 X89.889 Y101.600 E13.75229
G1 X89.599 Y101.398 E13.76336
G1 X89.313 Y101.135 E13.77552
G1 X89.137 Y100.906 E13.78456
G1 X88.876 Y100.476 E13.80031
G1 X88.630 Y99.968 E13.81800
G1 X88.441 Y99.472 E13.83461
G1 X88.374 Y99.097 E13.84655
G1 X88.374 Y98.994 E13.84977
G1 X88.405 Y98.755 E13.85732
G1 X88.479 Y98.494 E13.86579
G1 X88.611 Y98.157 E13.87714
G1 X88.927 Y97.514 E13.89955
G1 X89.116 Y97.207 E13.91085
G1 X89.295 Y96.970 E13.92018
G1 X89.491 Y96.777 E13.92879
G1 X89.775 Y96.555 E13.94006
G1 X89.980 Y96.431 E13.94757
G1 X90.257 Y96.294 E13.95723
G1 X90.998 Y96.025 E13.98194
G1 X92.122 Y95.737 E14.01828
G1 X93.789 Y95.414 E14.07145
G1 X95.151 Y95.209 E14.11456
G1 X95.868 Y95.156 E14.13710
G1 X96.398 Y95.190 E14.15370
G1 X96.781 Y95.299 E14.16618
G1 X97.347 Y95.617 E14.18652
G1 X97.507 Y95.639 E14.19158
G1 X98.463 Y95.385 E14.22254
G1 X99.297 Y95.202 E14.24927
G1 X99.700 Y95.142 E14.26206
G1 X100.158 Y95.122 E14.27641
G1 X100.556 Y95.166 E14.28895
G1 X100.975 Y95.276 E14.30250
G1 X101.489 Y95.459 E14.31959
G1 X102.342 Y95.804 E14.34840
G1 X103.101 Y96.146 E14.37446
G1 X103.994 Y96.579 E14.40555
G1 X105.996 Y97.637 E14.47647
G1 X106.107 Y97.722 E14.48086
G1 X106.496 Y98.211 E14.50040
G1 X106.789 Y98.503 E14.51336
G1 X107.105 Y98.728 E14.52552
G1 X107.539 Y98.992 E14.54141
G1 X107.113 Y99.127 F7800.000
G1 E12.54141 F2400.00000
G92 E0
G1 X105.016 Y99.609 F7800.000
G1 E2.00000 F2400.00000
G1 F1200
G1 X105.342 Y99.283 E2.01364
G1 X105.696 Y98.871 E2.02971
G1 X105.460 Y98.574 E2.04093
G1 X103.768 Y100.265 E2.11173
G1 X103.113 Y100.610 E2.13361
G1 X102.590 Y100.852 E2.15069
G1 X105.097 Y98.345 E2.25562
G1 X104.710 Y98.140 E2.26858
G1 X101.497 Y101.353 E2.40305
G1 X100.535 Y101.724 E2.43355
G1 X104.323 Y97.936 E2.59208
G1 X103.936 Y97.731 E2.60503
G1 X99.817 Y101.850 E2.77741
G1 X99.293 Y101.782 E2.79304
G1 X103.548 Y97.527 E2.97109
G1 X103.149 Y97.334 E2.98419
G1 X98.808 Y101.675 E3.16585
G1 X98.333 Y101.559 E3.18033
G1 X102.751 Y97.141 E3.36520
G1 X102.343 Y96.957 E3.37843
G1 X97.866 Y101.435 E3.56580
G1 X97.399 Y101.310 E3.58011
G1 X101.933 Y96.776 E3.76986
G1 X101.512 Y96.605 E3.78331
G1 X96.591 Y101.526 E3.98924
G1 X96.449 Y101.581 E3.99373
G1 X96.152 Y101.764 E4.00407
G1 X96.080 Y101.789 E4.00633
G1 X95.874 Y101.819 E4.01249
G1 X95.712 Y101.813 E4.01727
G1 X101.087 Y96.439 E4.24218
G1 X100.642 Y96.292 E4.25604
G1 X95.158 Y101.776 E4.48552
G1 X94.633 Y101.710 E4.50120
G1 X100.107 Y96.236 E4.73028
G1 X99.689 Y96.285 E4.74273
G1 X99.403 Y96.348 E4.75139
G1 X94.124 Y101.627 E4.97231
G1 X93.618 Y101.541 E4.98749
G1 X98.627 Y96.532 E5.19713
G1 X97.822 Y96.746 E5.22180
G1 X93.117 Y101.451 E5.41869
G1 X92.624 Y101.352 E5.43356
G1 X97.276 Y96.700 E5.62822
G1 X97.114 Y96.678 E5.63306
G1 X96.852 Y96.532 E5.64192
G1 X92.137 Y101.248 E5.83927
G1 X91.660 Y101.132 E5.85377
G1 X96.473 Y96.320 E6.05516
G1 X96.326 Y96.277 E6.05968
G1 X95.931 Y96.270 E6.07137
G1 X91.197 Y101.004 E6.26947
G1 X90.758 Y100.851 E6.28323
G1 X95.278 Y96.331 E6.47238
G1 X94.582 Y96.436 E6.49323
G1 X90.358 Y100.660 E6.66998
G1 X90.230 Y100.571 E6.67459
G1 X90.044 Y100.383 E6.68244
G1 X93.870 Y96.556 E6.84257
G1 X93.136 Y96.698 E6.86469
G1 X89.818 Y100.016 E7.00354
G1 X89.626 Y99.617 E7.01666
G1 X92.389 Y96.854 E7.13228
G1 X91.593 Y97.058 E7.15659
G1 X89.494 Y99.158 E7.24446
G1 X89.611 Y98.823 E7.25495
G1 X89.870 Y98.296 E7.27233
G1 X90.086 Y97.974 E7.28382
G1 X90.412 Y97.647 E7.29747
M106 S247.35
G1 Z2.800 F7800.000
G1 X106.035 Y99.036 F7800.000
G1 F900
G1 X105.093 Y100.180 E7.34126
G1 X103.955 Y100.782 E7.37929
G1 X102.681 Y101.360 E7.42063
G1 X102.024 Y101.623 E7.44154
G1 X101.300 Y101.878 E7.46421
G1 X100.933 Y101.987 E7.47552
G1 X100.630 Y102.050 E7.48466
G1 X100.361 Y102.060 E7.49262
G1 X100.056 Y102.021 E7.50170
G1 X98.798 Y101.746 E7.53974
G1 X97.741 Y101.478 E7.57198
G1 X96.994 Y101.538 E7.59411
G1 X96.395 Y102.020 E7.61682
G1 X96.163 Y102.121 E7.62431
G1 X95.842 Y102.159 E7.63385
G1 X95.243 Y102.117 E7.65159
G1 X94.409 Y101.985 E7.67653
G1 X93.180 Y101.754 E7.71350
G1 X92.074 Y101.522 E7.74687
G1 X91.233 Y101.315 E7.77247
G1 X90.593 Y101.119 E7.79223
G1 X90.302 Y101.002 E7.80150
G1 X90.078 Y100.883 E7.80898
G1 X89.966 Y100.796 E7.81321
G1 X89.786 Y100.536 E7.82255
G1 X89.231 Y99.490 E7.85751
G1 X89.125 Y99.258 E7.86505
G1 X89.060 Y99.031 E7.87203
G1 X89.085 Y98.935 E7.87496
G1 X89.287 Y98.478 E7.88973
G1 X89.871 Y97.410 E7.92570
G1 X89.962 Y97.294 E7.93006
G1 X90.059 Y97.215 E7.93375
G1 X90.377 Y97.048 E7.94435
G1 X90.841 Y96.881 E7.95893
G1 X91.509 Y96.695 E7.97943
G1 X92.784 Y96.408 E8.01802
G1 X94.404 Y96.098 E8.06677
G1 X95.369 Y95.951 E8.09562
G1 X95.837 Y95.925 E8.10946
G1 X96.092 Y95.948 E8.11702
G1 X96.277 Y96.001 E8.12272
G1 X96.395 Y96.062 E8.12662
G1 X97.010 Y96.535 E8.14954
G1 X97.723 Y96.608 E8.17074
G1 X98.793 Y96.337 E8.20335
G1 X100.184 Y96.040 E8.24535
G1 X100.460 Y96.020 E8.25353
G1 X100.714 Y96.045 E8.26109
G1 X101.047 Y96.127 E8.27122
G1 X101.704 Y96.342 E8.29164
G1 X102.475 Y96.637 E8.31602
G1 X103.267 Y96.977 E8.34149
G1 X104.110 Y97.376 E8.36905
G1 X104.927 Y97.806 E8.39633
G1 X105.187 Y97.966 E8.40534
G1 X105.606 Y98.527 E8.42603
G1 X105.986 Y98.979 E8.44348
G1 X106.584 Y99.040 F7800.000
G1 F3600
G1 X106.030 Y99.681 E8.46852
G1 X105.364 Y100.509 E8.49991
G1 X104.139 Y101.157 E8.54086
G1 X102.845 Y101.745 E8.58286
G1 X102.171 Y102.014 E8.60431
G1 X101.429 Y102.275 E8.62753
G1 X101.036 Y102.392 E8.63967
G1 X100.681 Y102.466 E8.65037
G1 X100.342 Y102.478 E8.66039
G1 X99.985 Y102.433 E8.67102
G1 X98.703 Y102.153 E8.70981
G1 X97.705 Y101.900 E8.74022
G1 X97.155 Y101.944 E8.75650
G1 X96.624 Y102.371 E8.77666
G1 X96.436 Y102.469 E8.78291
G1 X96.268 Y102.527 E8.78815
G1 X95.847 Y102.577 E8.80069
G1 X95.188 Y102.531 E8.82019
G1 X94.338 Y102.397 E8.84562
G1 X93.098 Y102.164 E8.88290
G1 X91.981 Y101.929 E8.91661
G1 X91.122 Y101.718 E8.94278
G1 X90.454 Y101.513 E8.96340
G1 X90.126 Y101.382 E8.97386
G1 X89.850 Y101.235 E8.98308
G1 X89.677 Y101.100 E8.98958
G1 X89.430 Y100.755 E9.00209
G1 X89.205 Y100.360 E9.01554
G1 X88.854 Y99.672 E9.03836
G1 X88.670 Y99.225 E9.05264
G1 X88.640 Y99.014 E9.05893
G1 X88.690 Y98.797 E9.06552
G1 X88.911 Y98.296 E9.08170
G1 X89.387 Y97.399 E9.11169
G1 X89.528 Y97.170 E9.11964
G1 X89.662 Y96.999 E9.12605
G1 X89.827 Y96.864 E9.13235
G1 X90.208 Y96.665 E9.14506
G1 X90.714 Y96.483 E9.16094
G1 X91.407 Y96.290 E9.18221
G1 X92.699 Y95.999 E9.22131
G1 X94.334 Y95.686 E9.27049
G1 X95.326 Y95.535 E9.30016
G1 X95.844 Y95.506 E9.31549
G1 X96.169 Y95.535 E9.32513
G1 X96.433 Y95.611 E9.33323
G1 X96.620 Y95.708 E9.33945
G1 X97.170 Y96.131 E9.35997
G1 X97.693 Y96.185 E9.37549
G1 X98.697 Y95.931 E9.40609
G1 X100.130 Y95.626 E9.44939
G1 X100.464 Y95.601 E9.45929
G1 X100.785 Y95.632 E9.46880
G1 X101.162 Y95.725 E9.48029
G1 X101.844 Y95.948 E9.50148
G1 X102.632 Y96.250 E9.52641
G1 X103.439 Y96.596 E9.55236
G1 X104.296 Y97.003 E9.58040
G1 X105.134 Y97.443 E9.60836
G1 X105.473 Y97.652 E9.62014
G1 X105.933 Y98.267 E9.64282
G1 X106.536 Y98.982 E9.67045
G1 X106.939 Y99.287 F7800.000
G1 F1800
G1 X106.360 Y99.956 E9.69816
G1 X105.633 Y100.849 E9.73422
G1 X104.329 Y101.543 E9.78048
G1 X103.014 Y102.141 E9.82571
G1 X102.322 Y102.417 E9.84904
G1 X101.562 Y102.684 E9.87426
G1 X101.141 Y102.810 E9.88802
G1 X100.733 Y102.895 E9.90107
G1 X100.323 Y102.910 E9.91393
G1 X99.912 Y102.857 E9.92689
G1 X98.604 Y102.572 E9.96882
G1 X97.668 Y102.335 E9.99904
G1 X97.322 Y102.362 E10.00993
G1 X96.860 Y102.734 E10.02849
G1 X96.606 Y102.865 E10.03743
G1 X96.377 Y102.944 E10.04501
G1 X96.114 Y102.991 E10.05338
G1 X95.852 Y103.008 E10.06161
G1 X95.132 Y102.957 E10.08420
G1 X94.265 Y102.821 E10.11170
G1 X93.014 Y102.586 E10.15155
G1 X91.886 Y102.349 E10.18765
G1 X91.007 Y102.133 E10.21599
G1 X90.311 Y101.919 E10.23880
G1 X89.944 Y101.772 E10.25116
G1 X89.615 Y101.597 E10.26283
G1 X89.379 Y101.413 E10.27222
G1 X89.265 Y101.281 E10.27769
G1 X89.064 Y100.982 E10.28897
G1 X88.826 Y100.564 E10.30402
G1 X88.339 Y99.576 E10.33853
G1 X88.253 Y99.336 E10.34651
G1 X88.210 Y99.098 E10.35407
G1 X88.210 Y98.991 E10.35743
G1 X88.283 Y98.654 E10.36822
G1 X88.524 Y98.108 E10.38692
G1 X89.013 Y97.185 E10.41962
G1 X89.175 Y96.923 E10.42926
G1 X89.354 Y96.696 E10.43831
G1 X89.589 Y96.504 E10.44783
G1 X90.035 Y96.270 E10.46359
G1 X90.583 Y96.073 E10.48184
G1 X91.303 Y95.872 E10.50523
G1 X92.611 Y95.578 E10.54722
G1 X94.261 Y95.262 E10.59982
G1 X95.282 Y95.107 E10.63216
G1 X95.851 Y95.075 E10.65003
G1 X96.249 Y95.111 E10.66251
G1 X96.592 Y95.209 E10.67372
G1 X96.851 Y95.343 E10.68285
G1 X97.336 Y95.716 E10.70199
G1 X97.661 Y95.749 E10.71222
G1 X98.597 Y95.512 E10.74245
G1 X99.650 Y95.277 E10.77626
G1 X100.075 Y95.198 E10.78977
G1 X100.469 Y95.169 E10.80215
G1 X100.857 Y95.206 E10.81436
G1 X101.281 Y95.311 E10.82803
G1 X101.988 Y95.543 E10.85132
G1 X102.794 Y95.851 E10.87834
G1 X103.616 Y96.204 E10.90636
G1 X104.489 Y96.618 E10.93661
G1 X105.347 Y97.069 E10.96698
G1 X105.769 Y97.329 E10.98249
G1 X106.270 Y97.999 E11.00871
G1 X106.951 Y98.825 E11.04223
G1 X106.994 Y99.000 E11.04787
G1 X106.994 Y99.078 E11.05031
G1 X106.958 Y99.214 E11.05471
G1 X106.439 Y99.279 F7800.000
G1 X105.229 Y98.666 F7800.000
G1 F4800
G1 X104.591 Y98.028 E11.08137
G1 X103.761 Y97.588 E11.10914
G1 X103.256 Y97.349 E11.12565
G1 X105.408 Y99.500 E11.21556
G1 X105.111 Y99.860 E11.22934
G1 X102.086 Y96.835 E11.35577
G1 X101.054 Y96.459 E11.38822
G1 X104.738 Y100.144 E11.54217
G1 X104.309 Y100.371 E11.55652
G1 X100.220 Y96.282 E11.72735
G1 X100.080 Y96.292 E11.73150
G1 X99.663 Y96.381 E11.74410
G1 X103.877 Y100.595 E11.92016
G1 X103.425 Y100.800 E11.93481
G1 X99.122 Y96.497 E12.11461
G1 X98.586 Y96.617 E12.13084
G1 X102.974 Y101.005 E12.31420
G1 X102.516 Y101.204 E12.32894
G1 X98.062 Y96.750 E12.51505
G1 X97.592 Y96.869 E12.52939
G1 X97.517 Y96.861 E12.53160
G1 X102.047 Y101.391 E12.72088
G1 X101.562 Y101.562 E12.73608
G1 X96.786 Y96.786 E12.93566
G1 X96.687 Y96.775 E12.93861
G1 X95.960 Y96.229 E12.96547
G1 X95.852 Y96.198 E12.96878
G1 X95.532 Y96.189 E12.97824
G1 X101.066 Y101.722 E13.20945
G1 X100.742 Y101.796 E13.21927
G1 X100.483 Y101.796 E13.22692
G1 X94.939 Y96.252 E13.45857
G1 X94.370 Y96.339 E13.47559
G1 X99.666 Y101.635 E13.69690
G1 X98.816 Y101.441 E13.72267
G1 X93.817 Y96.442 E13.93155
G1 X93.266 Y96.548 E13.94812
G1 X97.937 Y101.219 E14.14331
G1 X97.330 Y101.268 E14.16133
G1 X92.715 Y96.653 E14.35414
G1 X92.179 Y96.773 E14.37038
G1 X96.831 Y101.426 E14.56478
G1 X96.468 Y101.718 E14.57857
G1 X91.643 Y96.894 E14.78016
G1 X91.122 Y97.029 E14.79608
G1 X95.995 Y101.902 E14.99969
G1 X95.272 Y101.835 E15.02114
G1 X90.620 Y97.184 E15.21550
G1 X90.383 Y97.269 E15.22296
G1 X90.164 Y97.384 E15.23026
G1 X94.487 Y101.707 E15.41090
G1 X93.678 Y101.555 E15.43521
G1 X89.889 Y97.766 E15.59354
G1 X89.662 Y98.194 E15.60788
G1 X92.855 Y101.387 E15.74130
G1 X92.010 Y101.198 E15.76689
G1 X89.442 Y98.631 E15.87417
G1 X89.334 Y98.875 E15.88207
G1 X89.445 Y99.147 E15.89073
G1 X89.594 Y99.439 E15.90043
G1 X91.107 Y100.952 E15.96365
G1 X90.641 Y100.785 E15.97829
G1 X90.424 Y100.654 E15.98577
G1 X90.101 Y100.120 E16.00421
G1 X89.919 Y99.764 E16.01602
M106 S226.95
G1 Z3.300 F7800.000
G1 X105.570 Y99.037 F7800.000
G1 F900
G1 X105.201 Y99.775 E16.04039
G1 X104.979 Y100.170 E16.05379
G1 X104.818 Y100.391 E16.06187
G1 X104.646 Y100.540 E16.06858
G1 X104.067 Y100.866 E16.08821
G1 X103.490 Y101.128 E16.10693
G1 X102.932 Y101.353 E16.12473
G1 X101.818 Y101.733 E16.15950
G1 X101.300 Y101.876 E16.17538
G1 X101.009 Y101.935 E16.18414
G1 X100.831 Y101.949 E16.18944
G1 X100.637 Y101.930 E16.19517
G1 X99.811 Y101.730 E16.22030
G1 X98.771 Y101.523 E16.25162
G1 X97.737 Y101.281 E16.28299
G1 X97.575 Y101.292 E16.28780
G1 X97.127 Y101.209 E16.30127
G1 X96.235 Y101.940 E16.33533
G1 X96.148 Y101.993 E16.33834
G1 X95.870 Y102.103 E16.34717
G1 X95.524 Y102.152 E16.35749
G1 X95.226 Y102.138 E16.36632
G1 X94.559 Y102.035 E16.38627
G1 X92.071 Y101.526 E16.46129
G1 X90.681 Y101.175 E16.50365
G1 X90.160 Y100.974 E16.52015
G1 X90.064 Y100.912 E16.52355
G1 X89.337 Y99.508 E16.57025
G1 X89.146 Y99.042 E16.58512
G1 X89.216 Y98.841 E16.59140
G1 X90.060 Y97.176 E16.64657
G1 X90.262 Y97.060 E16.65346
G1 X90.567 Y96.944 E16.66310
G1 X91.226 Y96.757 E16.68334
G1 X92.526 Y96.457 E16.72275
G1 X94.463 Y96.065 E16.78115
G1 X95.091 Y95.960 E16.79996
G1 X95.481 Y95.931 E16.81152
G1 X95.786 Y95.958 E16.82055
G1 X96.022 Y96.030 E16.82784
G1 X96.261 Y96.161 E16.83590
G1 X96.649 Y96.495 E16.85103
G1 X97.336 Y96.901 E16.87461
G1 X98.636 Y96.589 E16.91409
G1 X99.892 Y96.334 E16.95196
G1 X100.556 Y96.168 E16.97218
G1 X100.826 Y96.136 E16.98022
G1 X101.084 Y96.161 E16.98788
G1 X101.538 Y96.268 E17.00167
G1 X102.384 Y96.530 E17.02784
G1 X103.033 Y96.766 E17.04822
G1 X103.980 Y97.173 E17.07869
G1 X104.353 Y97.367 E17.09111
G1 X104.637 Y97.542 E17.10098
G1 X104.814 Y97.695 E17.10788
G1 X104.945 Y97.861 E17.11414
G1 X105.064 Y98.055 E17.12086
G1 X105.536 Y98.970 E17.15127
G1 X106.035 Y99.041 F7800.000
G1 F3600
G1 X105.570 Y99.971 E17.18200
G1 X105.335 Y100.388 E17.19615
G1 X105.117 Y100.685 E17.20702
G1 X104.898 Y100.875 E17.21561
G1 X104.686 Y101.011 E17.22303
G1 X104.252 Y101.241 E17.23756
G1 X103.655 Y101.512 E17.25692
G1 X103.077 Y101.745 E17.27532
G1 X101.941 Y102.132 E17.31080
G1 X101.397 Y102.282 E17.32746
G1 X101.067 Y102.350 E17.33742
G1 X100.826 Y102.368 E17.34455
G1 X100.568 Y102.343 E17.35223
G1 X99.721 Y102.138 E17.37798
G1 X98.682 Y101.931 E17.40926
G1 X97.704 Y101.702 E17.43895
G1 X97.551 Y101.713 E17.44347
G1 X97.241 Y101.655 E17.45279
G1 X96.477 Y102.282 E17.48200
G1 X96.345 Y102.362 E17.48656
G1 X95.975 Y102.509 E17.49832
G1 X95.706 Y102.559 E17.50638
G1 X95.528 Y102.571 E17.51166
G1 X95.184 Y102.554 E17.52185
G1 X94.486 Y102.446 E17.54271
G1 X91.980 Y101.934 E17.61830
G1 X91.108 Y101.726 E17.64478
G1 X90.557 Y101.574 E17.66165
G1 X90.200 Y101.451 E17.67281
G1 X89.959 Y101.342 E17.68063
G1 X89.776 Y101.223 E17.68707
G1 X89.698 Y101.114 E17.69103
G1 X88.960 Y99.689 E17.73846
G1 X88.778 Y99.276 E17.75179
G1 X88.729 Y99.031 E17.75919
G1 X88.745 Y98.924 E17.76236
G1 X88.830 Y98.679 E17.77004
G1 X89.718 Y96.930 E17.82797
G1 X89.862 Y96.798 E17.83376
G1 X90.091 Y96.678 E17.84140
G1 X90.436 Y96.547 E17.85230
G1 X91.122 Y96.352 E17.87338
G1 X92.438 Y96.048 E17.91327
G1 X94.387 Y95.655 E17.97204
G1 X95.041 Y95.545 E17.99163
G1 X95.472 Y95.513 E18.00438
G1 X95.866 Y95.548 E18.01608
G1 X96.197 Y95.649 E18.02631
G1 X96.488 Y95.810 E18.03612
G1 X96.657 Y95.936 E18.04236
G1 X96.899 Y96.157 E18.05206
G1 X97.403 Y96.455 E18.06936
G1 X98.545 Y96.181 E18.10406
G1 X99.799 Y95.927 E18.14187
G1 X100.480 Y95.756 E18.16261
G1 X100.822 Y95.716 E18.17276
G1 X101.152 Y95.748 E18.18258
G1 X101.648 Y95.865 E18.19762
G1 X102.518 Y96.134 E18.22452
G1 X103.187 Y96.378 E18.24556
G1 X104.159 Y96.796 E18.27682
G1 X104.560 Y97.003 E18.29016
G1 X104.885 Y97.204 E18.30147
G1 X105.118 Y97.405 E18.31054
G1 X105.288 Y97.622 E18.31871
G1 X105.428 Y97.850 E18.32660
G1 X106.006 Y98.972 E18.36387
G1 X106.433 Y98.878 F7800.000
G1 F1800
G1 X106.475 Y99.027 E18.36871
G1 X106.438 Y99.196 E18.37415
G1 X105.950 Y100.173 E18.40833
G1 X105.703 Y100.613 E18.42415
G1 X105.570 Y100.813 E18.43167
G1 X105.425 Y100.987 E18.43874
G1 X105.156 Y101.220 E18.44991
G1 X104.903 Y101.383 E18.45932
G1 X104.441 Y101.627 E18.47569
G1 X103.825 Y101.907 E18.49689
G1 X103.227 Y102.148 E18.51706
G1 X102.067 Y102.544 E18.55544
G1 X101.497 Y102.701 E18.57395
G1 X101.127 Y102.777 E18.58581
G1 X100.822 Y102.800 E18.59537
G1 X100.496 Y102.768 E18.60561
G1 X99.628 Y102.558 E18.63359
G1 X98.591 Y102.352 E18.66669
G1 X97.669 Y102.136 E18.69634
G1 X97.527 Y102.146 E18.70082
G1 X97.359 Y102.115 E18.70615
G1 X96.725 Y102.634 E18.73182
G1 X96.547 Y102.742 E18.73834
G1 X96.321 Y102.847 E18.74615
G1 X96.082 Y102.926 E18.75403
G1 X95.761 Y102.987 E18.76428
G1 X95.532 Y103.002 E18.77144
G1 X95.140 Y102.983 E18.78373
G1 X94.411 Y102.870 E18.80684
G1 X91.885 Y102.354 E18.88757
G1 X91.000 Y102.143 E18.91606
G1 X90.430 Y101.985 E18.93460
G1 X90.041 Y101.851 E18.94747
G1 X89.752 Y101.720 E18.95740
G1 X89.502 Y101.558 E18.96673
G1 X89.406 Y101.460 E18.97103
G1 X89.324 Y101.327 E18.97594
G1 X88.572 Y99.875 E19.02713
G1 X88.372 Y99.422 E19.04265
G1 X88.299 Y99.102 E19.05292
G1 X88.326 Y98.821 E19.06177
G1 X88.433 Y98.511 E19.07203
G1 X89.351 Y96.704 E19.13548
G1 X89.421 Y96.604 E19.13933
G1 X89.623 Y96.437 E19.14752
G1 X89.915 Y96.285 E19.15783
G1 X90.301 Y96.138 E19.17076
G1 X91.015 Y95.936 E19.19400
G1 X92.347 Y95.628 E19.23681
G1 X94.309 Y95.232 E19.29950
G1 X94.989 Y95.117 E19.32110
G1 X95.462 Y95.082 E19.33594
G1 X95.682 Y95.088 E19.34283
G1 X95.948 Y95.125 E19.35126
G1 X96.378 Y95.257 E19.36533
G1 X96.722 Y95.447 E19.37763
G1 X96.932 Y95.604 E19.38584
G1 X97.157 Y95.810 E19.39538
G1 X97.472 Y95.996 E19.40686
G1 X98.452 Y95.761 E19.43843
G1 X99.705 Y95.507 E19.47844
G1 X100.403 Y95.332 E19.50097
G1 X100.817 Y95.284 E19.51404
G1 X101.223 Y95.323 E19.52680
G1 X101.761 Y95.450 E19.54412
G1 X102.655 Y95.726 E19.57343
G1 X103.345 Y95.978 E19.59644
G1 X104.343 Y96.406 E19.63043
G1 X104.772 Y96.629 E19.64556
G1 X105.140 Y96.856 E19.65913
G1 X105.430 Y97.107 E19.67112
G1 X105.642 Y97.376 E19.68186
G1 X105.803 Y97.639 E19.69150
G1 X106.405 Y98.808 E19.73269
G1 X106.401 Y98.922 F7800.000
G1 E17.73269 F2400.00000
G92 E0
G1 X104.391 Y100.211 F7800.000
G1 E2.00000 F2400.00000
G1 F1200
G1 X104.721 Y99.882 E2.01393
G1 X104.997 Y99.413 E2.03021
G1 X105.264 Y98.878 E2.04813
G1 X105.217 Y98.787 E2.05117
G1 X103.054 Y100.950 E2.14272
G1 X102.624 Y101.124 E2.15660
G1 X102.105 Y101.301 E2.17299
G1 X105.014 Y98.392 E2.29606
G1 X104.804 Y98.004 E2.30927
G1 X101.228 Y101.580 E2.46061
G1 X100.789 Y101.683 E2.47411
G1 X100.533 Y101.677 E2.48177
G1 X104.515 Y97.695 E2.65028
G1 X104.134 Y97.477 E2.66340
G1 X100.051 Y101.560 E2.83618
G1 X99.564 Y101.450 E2.85115
G1 X103.726 Y97.287 E3.02730
G1 X103.308 Y97.107 E3.04093
G1 X99.065 Y101.350 E3.22049
G1 X98.570 Y101.247 E3.23562
G1 X102.882 Y96.934 E3.41812
G1 X102.444 Y96.775 E3.43209
G1 X98.085 Y101.134 E3.61654
G1 X97.598 Y101.023 E3.63150
G1 X101.988 Y96.632 E3.81729
G1 X101.528 Y96.494 E3.83167
G1 X97.058 Y100.964 E4.02082
G1 X96.850 Y100.925 E4.02716
G1 X95.831 Y101.760 E4.06657
G1 X95.554 Y101.869 E4.07547
G1 X101.027 Y96.397 E4.30703
G1 X100.993 Y96.394 E4.30805
G1 X100.794 Y96.417 E4.31405
G1 X100.280 Y96.546 E4.32990
G1 X94.963 Y101.862 E4.55487
G1 X94.446 Y101.781 E4.57052
G1 X99.522 Y96.706 E4.78528
G1 X98.766 Y96.863 E4.80839
G1 X93.950 Y101.679 E5.01218
G1 X93.453 Y101.578 E5.02735
G1 X97.978 Y97.053 E5.21884
G1 X97.432 Y97.184 E5.23564
G1 X97.317 Y97.116 E5.23965
G1 X92.956 Y101.477 E5.42417
G1 X92.459 Y101.375 E5.43934
G1 X96.941 Y96.894 E5.62897
G1 X96.565 Y96.671 E5.64203
G1 X91.964 Y101.272 E5.83672
G1 X91.487 Y101.151 E5.85146
G1 X96.243 Y96.395 E6.05273
G1 X96.190 Y96.349 E6.05483
G1 X95.957 Y96.232 E6.06263
G1 X95.832 Y96.208 E6.06645
G1 X91.009 Y101.030 E6.27051
G1 X90.539 Y100.902 E6.28510
G1 X95.214 Y96.228 E6.48292
G1 X94.486 Y96.357 E6.50504
G1 X90.166 Y100.677 E6.68784
G1 X89.962 Y100.283 E6.70112
G1 X93.736 Y96.509 E6.86084
G1 X92.987 Y96.660 E6.88372
G1 X89.758 Y99.889 E7.02035
G1 X89.554 Y99.495 E7.03363
G1 X92.217 Y96.832 E7.14630
G1 X91.435 Y97.016 E7.17034
G1 X89.598 Y98.852 E7.24805
G1 X90.213 Y97.639 E7.28874
G1 X90.539 Y97.313 E7.30252
G1 Z3.800 F7800.000
G1 X105.012 Y99.042 F7800.000
G1 F900
G1 X104.701 Y99.561 E7.32041
G1 X104.406 Y100.005 E7.33615
G1 X104.112 Y100.351 E7.34956
G1 X103.790 Y100.643 E7.36241
G1 X103.353 Y100.934 E7.37791
G1 X102.834 Y101.197 E7.39512
G1 X102.104 Y101.478 E7.41823
G1 X101.810 Y101.568 E7.42731
G1 X101.315 Y101.683 E7.44231
G1 X101.145 Y101.704 E7.44737
G1 X100.958 Y101.692 E7.45293
G1 X100.231 Y101.491 E7.47520
G1 X99.052 Y101.309 E7.51044
G1 X97.397 Y100.947 E7.56051
G1 X96.685 Y101.217 E7.58300
G1 X96.269 Y101.612 E7.59995
G1 X96.068 Y101.764 E7.60739
G1 X95.759 Y101.928 E7.61772
G1 X95.341 Y102.060 E7.63070
G1 X95.033 Y102.087 E7.63982
G1 X94.537 Y102.008 E7.65466
G1 X91.934 Y101.452 E7.73330
G1 X90.950 Y101.225 E7.76314
G1 X90.308 Y101.011 E7.78315
G1 X89.624 Y99.543 E7.83099
G1 X89.474 Y99.134 E7.84388
G1 X89.460 Y99.037 E7.84676
G1 X89.462 Y98.984 E7.84834
G1 X89.574 Y98.657 E7.85856
G1 X90.143 Y97.400 E7.89931
G1 X90.303 Y97.079 E7.90990
G1 X90.378 Y97.038 E7.91242
G1 X90.918 Y96.866 E7.92919
G1 X92.087 Y96.597 E7.96463
G1 X94.717 Y96.039 E8.04405
G1 X95.029 Y95.994 E8.05336
G1 X95.224 Y96.002 E8.05913
G1 X95.445 Y96.046 E8.06580
G1 X95.799 Y96.171 E8.07690
G1 X96.127 Y96.360 E8.08806
G1 X96.283 Y96.482 E8.09392
G1 X96.752 Y96.936 E8.11321
G1 X97.496 Y97.113 E8.13581
G1 X99.034 Y96.777 E8.18234
G1 X100.278 Y96.581 E8.21954
G1 X100.859 Y96.409 E8.23744
G1 X101.072 Y96.377 E8.24381
G1 X101.215 Y96.384 E8.24802
G1 X101.544 Y96.446 E8.25791
G1 X101.978 Y96.566 E8.27121
G1 X102.432 Y96.719 E8.28539
G1 X102.893 Y96.911 E8.30013
G1 X103.473 Y97.221 E8.31957
G1 X103.793 Y97.442 E8.33107
G1 X104.095 Y97.713 E8.34304
G1 X104.389 Y98.056 E8.35638
G1 X104.636 Y98.416 E8.36930
G1 X104.974 Y98.978 E8.38866
G1 X105.499 Y99.042 F7800.000
G1 F900
G1 X105.054 Y99.785 E8.41425
G1 X104.740 Y100.256 E8.43100
G1 X104.413 Y100.642 E8.44593
G1 X104.053 Y100.968 E8.46029
G1 X103.557 Y101.299 E8.47790
G1 X103.003 Y101.580 E8.49624
G1 X102.240 Y101.873 E8.52040
G1 X101.918 Y101.972 E8.53036
G1 X101.388 Y102.094 E8.54642
G1 X101.158 Y102.123 E8.55328
G1 X100.888 Y102.106 E8.56126
G1 X100.143 Y101.900 E8.58410
G1 X98.976 Y101.720 E8.61900
G1 X97.429 Y101.382 E8.66579
G1 X96.912 Y101.578 E8.68212
G1 X96.540 Y101.931 E8.69729
G1 X96.304 Y102.110 E8.70603
G1 X95.923 Y102.312 E8.71877
G1 X95.663 Y102.409 E8.72696
G1 X95.423 Y102.470 E8.73430
G1 X95.206 Y102.502 E8.74077
G1 X95.004 Y102.506 E8.74675
G1 X94.461 Y102.418 E8.76300
G1 X91.844 Y101.860 E8.84206
G1 X90.840 Y101.628 E8.87249
G1 X90.233 Y101.437 E8.89130
G1 X90.104 Y101.377 E8.89551
G1 X89.983 Y101.297 E8.89980
G1 X89.691 Y100.704 E8.91933
G1 X89.237 Y99.701 E8.95184
G1 X89.067 Y99.237 E8.96644
G1 X89.040 Y99.057 E8.97183
G1 X89.057 Y98.879 E8.97711
G1 X89.185 Y98.503 E8.98886
G1 X89.766 Y97.221 E9.03044
G1 X89.967 Y96.818 E9.04375
G1 X90.022 Y96.757 E9.04616
G1 X90.202 Y96.658 E9.05223
G1 X90.430 Y96.571 E9.05946
G1 X90.814 Y96.461 E9.07124
G1 X91.997 Y96.189 E9.10712
G1 X94.643 Y95.627 E9.18705
G1 X95.002 Y95.575 E9.19777
G1 X95.283 Y95.587 E9.20607
G1 X95.548 Y95.641 E9.21405
G1 X95.983 Y95.795 E9.22768
G1 X96.360 Y96.012 E9.24056
G1 X96.558 Y96.166 E9.24795
G1 X96.960 Y96.556 E9.26450
G1 X97.500 Y96.684 E9.28090
G1 X98.957 Y96.366 E9.32498
G1 X100.186 Y96.172 E9.36173
G1 X100.769 Y96.001 E9.37967
G1 X101.051 Y95.958 E9.38811
G1 X101.263 Y95.968 E9.39440
G1 X101.638 Y96.038 E9.40567
G1 X102.100 Y96.166 E9.41983
G1 X102.580 Y96.328 E9.43477
G1 X103.072 Y96.533 E9.45054
G1 X103.691 Y96.864 E9.47128
G1 X104.052 Y97.114 E9.48426
G1 X104.394 Y97.420 E9.49782
G1 X104.721 Y97.801 E9.51263
G1 X104.988 Y98.190 E9.52659
G1 X105.461 Y98.977 E9.55372
G1 X105.987 Y99.043 F7800.000
G1 F1800
G1 X105.418 Y100.015 E9.58900
G1 X105.084 Y100.516 E9.60785
G1 X104.723 Y100.942 E9.62534
G1 X104.324 Y101.303 E9.64220
G1 X103.767 Y101.675 E9.66316
G1 X103.178 Y101.973 E9.68384
G1 X102.380 Y102.280 E9.71061
G1 X102.029 Y102.388 E9.72210
G1 X101.463 Y102.519 E9.74030
G1 X101.171 Y102.555 E9.74951
G1 X100.817 Y102.533 E9.76063
G1 X100.053 Y102.322 E9.78546
G1 X98.897 Y102.143 E9.82208
G1 X97.462 Y101.829 E9.86808
G1 X97.145 Y101.949 E9.87868
G1 X96.819 Y102.260 E9.89279
G1 X96.546 Y102.466 E9.90349
G1 X96.093 Y102.709 E9.91960
G1 X95.792 Y102.820 E9.92965
G1 X95.508 Y102.893 E9.93883
G1 X95.241 Y102.932 E9.94726
G1 X94.973 Y102.936 E9.95566
G1 X94.382 Y102.841 E9.97442
G1 X91.750 Y102.280 E10.05867
G1 X90.727 Y102.043 E10.09155
G1 X90.076 Y101.839 E10.11291
G1 X89.893 Y101.753 E10.11926
G1 X89.718 Y101.638 E10.12582
G1 X89.602 Y101.497 E10.13155
G1 X89.302 Y100.888 E10.15281
G1 X88.839 Y99.864 E10.18798
G1 X88.648 Y99.344 E10.20533
G1 X88.608 Y99.078 E10.21376
G1 X88.640 Y98.767 E10.22354
G1 X88.785 Y98.344 E10.23754
G1 X89.377 Y97.036 E10.28251
G1 X89.594 Y96.601 E10.29772
G1 X89.659 Y96.504 E10.30139
G1 X89.772 Y96.404 E10.30613
G1 X90.021 Y96.267 E10.31501
G1 X90.294 Y96.163 E10.32417
G1 X90.706 Y96.044 E10.33758
G1 X91.904 Y95.769 E10.37609
G1 X94.568 Y95.203 E10.46136
G1 X94.975 Y95.145 E10.47425
G1 X95.344 Y95.161 E10.48581
G1 X95.654 Y95.223 E10.49570
G1 X96.172 Y95.407 E10.51292
G1 X96.601 Y95.655 E10.52843
G1 X96.841 Y95.841 E10.53794
G1 X97.174 Y96.165 E10.55250
G1 X97.504 Y96.243 E10.56310
G1 X98.878 Y95.943 E10.60714
G1 X100.091 Y95.752 E10.64561
G1 X100.675 Y95.580 E10.66467
G1 X101.029 Y95.526 E10.67587
G1 X101.314 Y95.540 E10.68480
G1 X101.736 Y95.619 E10.69824
G1 X102.226 Y95.755 E10.71419
G1 X102.731 Y95.925 E10.73087
G1 X103.257 Y96.144 E10.74870
G1 X103.916 Y96.496 E10.77210
G1 X104.319 Y96.775 E10.78747
G1 X104.702 Y97.119 E10.80358
G1 X105.062 Y97.538 E10.82088
G1 X105.350 Y97.957 E10.83681
G1 X105.960 Y98.973 E10.87390
G1 X105.905 Y99.080 F7800.000
G1 E8.87390 F2400.00000
G92 E0
G1 X103.959 Y98.169 F7800.000
G1 E2.00000 F2400.00000
G1 F1200
G1 X103.372 Y97.608 E2.02477
G1 X103.093 Y97.416 E2.03510
G1 X102.551 Y97.126 E2.05382
G1 X102.132 Y96.952 E2.06768
G1 X104.574 Y99.394 E2.17301
G1 X104.335 Y99.764 E2.18645
G1 X101.255 Y96.684 E2.31926
G1 X100.931 Y96.634 E2.32925
G1 X100.656 Y96.694 E2.33786
G1 X104.070 Y100.109 E2.48511
G1 X103.974 Y100.222 E2.48964
G1 X103.764 Y100.412 E2.49829
G1 X100.182 Y96.830 E2.65276
G1 X99.655 Y96.914 E2.66902
G1 X103.412 Y100.670 E2.83103
G1 X103.014 Y100.882 E2.84477
G1 X99.129 Y96.997 E3.01235
G1 X98.619 Y97.097 E3.02818
G1 X102.591 Y101.068 E3.19945
G1 X102.151 Y101.238 E3.21383
G1 X98.119 Y97.206 E3.38770
G1 X97.619 Y97.315 E3.40332
G1 X101.674 Y101.371 E3.57821
G1 X101.405 Y101.433 E3.58662
G1 X101.189 Y101.440 E3.59321
G1 X101.112 Y101.419 E3.59564
G1 X96.992 Y97.298 E3.77334
G1 X96.381 Y97.154 E3.79248
G1 X95.846 Y96.635 E3.81521
G1 X95.730 Y96.545 E3.81968
G1 X95.490 Y96.406 E3.82815
G1 X100.300 Y101.217 E4.03561
G1 X99.579 Y101.105 E4.05786
G1 X94.745 Y96.271 E4.26634
G1 X94.627 Y96.288 E4.26996
G1 X94.235 Y96.371 E4.28218
G1 X98.823 Y100.958 E4.48002
G1 X98.042 Y100.788 E4.50437
G1 X93.732 Y96.478 E4.69025
G1 X93.229 Y96.584 E4.70593
G1 X97.377 Y100.732 E4.88480
G1 X96.935 Y100.900 E4.89921
G1 X92.726 Y96.691 E5.08071
G1 X92.223 Y96.798 E5.09639
G1 X96.530 Y101.105 E5.28213
G1 X96.218 Y101.402 E5.29528
G1 X91.725 Y96.909 E5.48904
G1 X91.229 Y97.023 E5.50455
G1 X95.858 Y101.651 E5.70416
G1 X95.760 Y101.703 E5.70754
G1 X95.408 Y101.812 E5.71876
G1 X90.739 Y97.143 E5.92011
G1 X90.452 Y97.238 E5.92932
G1 X90.380 Y97.393 E5.93456
G1 X94.738 Y101.751 E6.12249
G1 X93.963 Y101.586 E6.14665
G1 X90.188 Y97.810 E6.30947
G1 X89.995 Y98.227 E6.32348
G1 X93.188 Y101.421 E6.46119
G1 X92.413 Y101.255 E6.48535
G1 X89.802 Y98.644 E6.59795
G1 X89.722 Y98.878 E6.60547
G1 X89.917 Y99.368 E6.62156
G1 X91.625 Y101.077 E6.69525
G1 X91.226 Y100.985 E6.70777
G1 X90.773 Y100.834 E6.72232
G1 X90.448 Y100.509 E6.73634
G1 Z4.300 F7800.000
G1 X104.555 Y99.035 F7800.000
G1 F900
G1 X104.171 Y99.520 E6.75463
G1 X103.767 Y99.944 E6.77193
G1 X103.316 Y100.335 E6.78956
G1 X102.864 Y100.648 E6.80581
G1 X102.286 Y100.958 E6.82519
G1 X101.745 Y101.170 E6.84235
G1 X101.342 Y101.271 E6.85463
G1 X101.057 Y101.274 E6.86304
G1 X100.493 Y101.153 E6.88008
G1 X99.900 Y101.091 E6.89770
G1 X99.268 Y100.983 E6.91666
G1 X97.388 Y100.588 E6.97341
G1 X96.632 Y100.879 E6.99733
G1 X96.227 Y101.298 E7.01456
G1 X96.053 Y101.445 E7.02128
G1 X95.678 Y101.686 E7.03445
G1 X95.390 Y101.815 E7.04378
G1 X95.076 Y101.924 E7.05361
G1 X94.754 Y102.001 E7.06339
G1 X93.039 Y101.616 E7.11532
G1 X92.550 Y101.603 E7.12977
G1 X92.187 Y101.710 E7.14096
G1 X92.118 Y101.701 E7.14303
G1 X92.051 Y101.677 E7.14513
G1 X91.556 Y101.344 E7.16275
G1 X90.691 Y101.129 E7.18909
G1 X90.535 Y101.067 E7.19405
G1 X90.267 Y100.472 E7.21333
G1 X89.872 Y99.359 E7.24822
G1 X89.822 Y99.100 E7.25603
G1 X89.837 Y98.881 E7.26250
G1 X89.919 Y98.569 E7.27204
G1 X90.337 Y97.441 E7.30758
G1 X90.544 Y97.011 E7.32167
G1 X90.814 Y96.916 E7.33014
G1 X91.566 Y96.745 E7.35293
G1 X92.048 Y96.408 E7.37031
G1 X92.119 Y96.380 E7.37256
G1 X92.276 Y96.394 E7.37720
G1 X92.609 Y96.514 E7.38767
G1 X93.057 Y96.462 E7.40098
G1 X94.726 Y96.077 E7.45161
G1 X94.995 Y96.134 E7.45971
G1 X95.318 Y96.239 E7.46977
G1 X95.660 Y96.387 E7.48077
G1 X95.847 Y96.492 E7.48710
G1 X96.064 Y96.645 E7.49495
G1 X96.244 Y96.801 E7.50199
G1 X96.590 Y97.165 E7.51682
G1 X97.186 Y97.526 E7.53741
G1 X99.487 Y97.058 E7.60676
G1 X99.944 Y96.984 E7.62045
G1 X100.515 Y96.924 E7.63742
G1 X100.946 Y96.826 E7.65048
G1 X101.267 Y96.803 E7.65997
G1 X101.684 Y96.893 E7.67259
G1 X101.985 Y96.997 E7.68198
G1 X102.479 Y97.217 E7.69796
G1 X102.926 Y97.472 E7.71318
G1 X103.354 Y97.776 E7.72868
G1 X103.698 Y98.072 E7.74211
G1 X104.074 Y98.452 E7.75789
G1 X104.507 Y98.977 E7.77801
G1 X105.060 Y99.045 F7800.000
G1 F900
G1 X104.486 Y99.795 E7.80590
G1 X104.055 Y100.246 E7.82435
G1 X103.573 Y100.665 E7.84322
G1 X103.083 Y101.005 E7.86085
G1 X102.461 Y101.337 E7.88168
G1 X101.880 Y101.565 E7.90011
G1 X101.403 Y101.685 E7.91466
G1 X101.203 Y101.703 E7.92059
G1 X100.999 Y101.689 E7.92662
G1 X100.428 Y101.566 E7.94388
G1 X99.843 Y101.505 E7.96124
G1 X99.190 Y101.394 E7.98083
G1 X97.423 Y101.022 E8.03418
G1 X96.869 Y101.236 E8.05173
G1 X96.513 Y101.604 E8.06684
G1 X96.308 Y101.777 E8.07476
G1 X95.867 Y102.059 E8.09025
G1 X95.545 Y102.204 E8.10068
G1 X95.193 Y102.326 E8.11167
G1 X94.813 Y102.416 E8.12321
G1 X94.717 Y102.421 E8.12607
G1 X92.987 Y102.032 E8.17844
G1 X92.605 Y102.022 E8.18973
G1 X92.276 Y102.120 E8.19987
G1 X92.157 Y102.128 E8.20340
G1 X92.017 Y102.109 E8.20758
G1 X91.860 Y102.051 E8.21252
G1 X91.384 Y101.731 E8.22947
G1 X90.563 Y101.527 E8.25445
G1 X90.315 Y101.429 E8.26234
G1 X90.220 Y101.373 E8.26560
G1 X90.039 Y101.008 E8.27763
G1 X89.878 Y100.623 E8.28998
G1 X89.471 Y99.479 E8.32583
G1 X89.402 Y99.111 E8.33690
G1 X89.423 Y98.813 E8.34572
G1 X89.520 Y98.443 E8.35703
G1 X89.952 Y97.277 E8.39376
G1 X90.224 Y96.712 E8.41231
G1 X90.356 Y96.634 E8.41682
G1 X90.698 Y96.514 E8.42753
G1 X91.394 Y96.356 E8.44860
G1 X91.850 Y96.036 E8.46507
G1 X92.016 Y95.972 E8.47032
G1 X92.223 Y95.959 E8.47646
G1 X92.385 Y95.990 E8.48132
G1 X92.658 Y96.087 E8.48990
G1 X92.985 Y96.050 E8.49963
G1 X94.714 Y95.658 E8.55198
G1 X95.103 Y95.730 E8.56368
G1 X95.466 Y95.848 E8.57497
G1 X95.846 Y96.012 E8.58719
G1 X96.070 Y96.139 E8.59479
G1 X96.321 Y96.316 E8.60388
G1 X96.532 Y96.499 E8.61212
G1 X96.854 Y96.836 E8.62590
G1 X97.263 Y97.084 E8.64003
G1 X99.412 Y96.647 E8.70481
G1 X99.888 Y96.570 E8.71908
G1 X100.447 Y96.511 E8.73566
G1 X100.871 Y96.415 E8.74853
G1 X101.100 Y96.384 E8.75535
G1 X101.301 Y96.386 E8.76127
G1 X101.528 Y96.420 E8.76808
G1 X101.805 Y96.493 E8.77654
G1 X102.138 Y96.608 E8.78695
G1 X102.667 Y96.844 E8.80407
G1 X103.151 Y97.119 E8.82051
G1 X103.611 Y97.447 E8.83720
G1 X103.983 Y97.766 E8.85169
G1 X104.384 Y98.172 E8.86853
G1 X104.838 Y98.721 E8.88958
G1 X105.018 Y98.983 E8.89898
G1 X105.573 Y99.032 F7800.000
G1 F900
G1 X105.292 Y99.470 E8.91528
G1 X104.811 Y100.077 E8.93954
G1 X104.352 Y100.558 E8.96035
G1 X103.837 Y101.005 E8.98170
G1 X103.308 Y101.373 E9.00189
G1 X102.641 Y101.729 E9.02554
G1 X102.019 Y101.973 E9.04647
G1 X101.465 Y102.111 E9.06436
G1 X101.207 Y102.134 E9.07248
G1 X100.939 Y102.116 E9.08090
G1 X100.360 Y101.992 E9.09943
G1 X99.785 Y101.932 E9.11755
G1 X99.109 Y101.816 E9.13900
G1 X97.459 Y101.470 E9.19181
G1 X97.112 Y101.603 E9.20346
G1 X96.807 Y101.918 E9.21717
G1 X96.571 Y102.118 E9.22687
G1 X96.284 Y102.318 E9.23780
G1 X96.061 Y102.444 E9.24584
G1 X95.704 Y102.604 E9.25810
G1 X95.314 Y102.739 E9.27102
G1 X94.874 Y102.844 E9.28519
G1 X94.679 Y102.853 E9.29130
G1 X92.934 Y102.461 E9.34730
G1 X92.662 Y102.454 E9.35583
G1 X92.364 Y102.542 E9.36555
G1 X92.248 Y102.556 E9.36920
G1 X91.912 Y102.529 E9.37975
G1 X91.663 Y102.437 E9.38809
G1 X91.207 Y102.130 E9.40530
G1 X90.432 Y101.938 E9.43029
G1 X90.125 Y101.817 E9.44064
G1 X89.977 Y101.729 E9.44604
G1 X89.851 Y101.598 E9.45170
G1 X89.648 Y101.187 E9.46607
G1 X89.476 Y100.778 E9.47995
G1 X89.059 Y99.603 E9.51901
G1 X89.001 Y99.367 E9.52661
G1 X88.970 Y99.123 E9.53431
G1 X88.997 Y98.743 E9.54624
G1 X89.109 Y98.314 E9.56014
G1 X89.555 Y97.108 E9.60038
G1 X89.866 Y96.464 E9.62279
G1 X89.955 Y96.371 E9.62680
G1 X90.174 Y96.242 E9.63478
G1 X90.579 Y96.100 E9.64821
G1 X91.216 Y95.955 E9.66866
G1 X91.646 Y95.654 E9.68512
G1 X91.894 Y95.558 E9.69344
G1 X92.006 Y95.535 E9.69702
G1 X92.257 Y95.528 E9.70488
G1 X92.498 Y95.573 E9.71254
G1 X92.709 Y95.649 E9.71957
G1 X92.912 Y95.625 E9.72598
G1 X94.690 Y95.227 E9.78301
G1 X94.828 Y95.231 E9.78734
G1 X95.215 Y95.314 E9.79973
G1 X95.618 Y95.445 E9.81302
G1 X96.037 Y95.627 E9.82732
G1 X96.300 Y95.774 E9.83675
G1 X96.587 Y95.977 E9.84775
G1 X96.830 Y96.187 E9.85780
G1 X97.126 Y96.498 E9.87125
G1 X97.342 Y96.629 E9.87917
G1 X99.334 Y96.224 E9.94283
G1 X99.831 Y96.144 E9.95860
G1 X100.376 Y96.086 E9.97576
G1 X100.794 Y95.991 E9.98918
G1 X101.073 Y95.953 E9.99797
G1 X101.335 Y95.956 E10.00620
G1 X101.616 Y95.999 E10.01507
G1 X101.930 Y96.081 E10.02526
G1 X102.296 Y96.208 E10.03739
G1 X102.862 Y96.460 E10.05678
G1 X103.383 Y96.756 E10.07555
G1 X103.877 Y97.108 E10.09453
G1 X104.277 Y97.451 E10.11106
G1 X104.704 Y97.883 E10.13006
G1 X105.181 Y98.462 E10.15356
G1 X105.531 Y98.970 E10.17288
G1 X105.459 Y99.082 F7800.000
G1 E8.17288 F2400.00000
G92 E0
G1 X103.315 Y99.804 F7800.000
G1 E2.00000 F2400.00000
G1 F1200
G1 X104.018 Y99.083 E2.03007
G1 X104.180 Y98.878 E2.03789
G1 X103.938 Y98.584 E2.04928
G1 X101.674 Y100.847 E2.14486
G1 X101.455 Y100.934 E2.15190
G1 X101.126 Y101.016 E2.16204
G1 X100.912 Y101.013 E2.16842
G1 X103.642 Y98.283 E2.28372
G1 X103.326 Y98.001 E2.29635
G1 X100.420 Y100.908 E2.41908
G1 X99.882 Y100.849 E2.43525
G1 X102.983 Y97.747 E2.56622
G1 X102.614 Y97.520 E2.57918
G1 X99.367 Y100.767 E2.71629
G1 X98.868 Y100.669 E2.73149
G1 X102.215 Y97.322 E2.87284
G1 X101.788 Y97.152 E2.88657
G1 X98.374 Y100.565 E3.03071
G1 X97.881 Y100.462 E3.04576
G1 X101.272 Y97.071 E3.18896
G1 X101.170 Y97.078 E3.19200
G1 X100.746 Y97.174 E3.20500
G1 X100.551 Y97.195 E3.21085
G1 X97.388 Y100.358 E3.34443
G1 X97.191 Y100.317 E3.35045
G1 X96.608 Y100.541 E3.36910
G1 X99.865 Y97.284 E3.50665
G1 X99.724 Y97.307 E3.51090
G1 X99.123 Y97.429 E3.52922
G1 X94.903 Y101.648 E3.70741
G1 X94.589 Y101.735 E3.71716
G1 X94.287 Y101.667 E3.72638
G1 X98.373 Y97.581 E3.89893
G1 X97.624 Y97.733 E3.92176
G1 X93.800 Y101.558 E4.08326
G1 X93.312 Y101.448 E4.09818
G1 X97.075 Y97.686 E4.25708
G1 X96.703 Y97.460 E4.27006
G1 X92.805 Y101.359 E4.43468
G1 X92.333 Y101.346 E4.44879
G1 X92.173 Y101.393 E4.45375
G1 X96.365 Y97.201 E4.63078
G1 X96.070 Y96.900 E4.64339
G1 X91.736 Y101.233 E4.82638
G1 X91.566 Y101.118 E4.83253
G1 X91.316 Y101.056 E4.84021
G1 X95.724 Y96.649 E5.02635
G1 X95.314 Y96.462 E5.03981
G1 X90.838 Y100.938 E5.22882
G1 X90.682 Y100.899 E5.23363
G1 X90.557 Y100.621 E5.24271
G1 X94.819 Y96.359 E5.42272
G1 X94.043 Y96.538 E5.44651
G1 X90.391 Y100.191 E5.60076
G1 X90.234 Y99.750 E5.61472
G1 X93.270 Y96.714 E5.74294
G1 X92.723 Y96.777 E5.75940
G1 X92.640 Y96.748 E5.76202
G1 X90.091 Y99.296 E5.86965
G1 X90.089 Y99.112 E5.87515
G1 X90.155 Y98.857 E5.88302
G1 X90.286 Y98.505 E5.89424
G1 X91.794 Y96.996 E5.95793
G1 X91.008 Y97.186 E5.98209
G1 X90.683 Y97.511 E5.99581
M106 S229.5
G1 Z4.800 F7800.000
G1 E3.99581 F2400.00000
G92 E0
G1 X104.122 Y99.041 F7800.000
G1 E2.00000 F2400.00000
G1 F900
G1 X103.565 Y99.557 E2.02244
G1 X103.119 Y99.903 E2.03912
G1 X102.713 Y100.171 E2.05349
G1 X102.252 Y100.420 E2.06897
G1 X101.865 Y100.586 E2.08144
G1 X101.536 Y100.688 E2.09161
G1 X101.286 Y100.735 E2.09912
G1 X101.145 Y100.744 E2.10328
G1 X100.481 Y100.687 E2.12298
G1 X100.214 Y100.630 E2.13103
G1 X98.803 Y100.233 E2.17435
G1 X97.334 Y99.877 E2.21901
G1 X96.981 Y100.203 E2.23322
G1 X96.768 Y100.250 E2.23966
G1 X96.378 Y100.776 E2.25901
G1 X96.162 Y101.008 E2.26839
G1 X95.785 Y101.316 E2.28274
G1 X95.384 Y101.540 E2.29633
G1 X95.008 Y101.691 E2.30829
G1 X94.456 Y101.861 E2.32536
G1 X93.331 Y101.602 E2.35948
G1 X93.061 Y101.585 E2.36747
G1 X92.673 Y101.616 E2.37896
G1 X92.297 Y101.804 E2.39139
G1 X92.137 Y101.828 E2.39614
G1 X91.974 Y101.776 E2.40121
G1 X91.439 Y101.302 E2.42232
G1 X90.755 Y101.099 E2.44340
G1 X90.597 Y100.738 E2.45506
G1 X90.454 Y100.280 E2.46923
G1 X90.270 Y99.572 E2.49084
G1 X90.213 Y99.272 E2.49987
G1 X90.197 Y99.054 E2.50632
G1 X90.212 Y98.827 E2.51303
G1 X90.265 Y98.539 E2.52167
G1 X90.440 Y97.859 E2.54245
G1 X90.618 Y97.290 E2.56004
G1 X90.755 Y96.984 E2.56996
G1 X91.200 Y96.845 E2.58375
G1 X91.659 Y96.632 E2.59868
G1 X91.940 Y96.328 E2.61093
G1 X92.095 Y96.260 E2.61594
G1 X92.223 Y96.260 E2.61971
G1 X92.329 Y96.289 E2.62294
G1 X92.800 Y96.513 E2.63837
G1 X93.279 Y96.490 E2.65254
G1 X94.450 Y96.223 E2.68801
G1 X95.141 Y96.441 E2.70944
G1 X95.498 Y96.598 E2.72094
G1 X95.720 Y96.723 E2.72848
G1 X96.082 Y97.000 E2.74194
G1 X96.323 Y97.246 E2.75213
G1 X96.769 Y97.812 E2.77342
G1 X96.924 Y97.848 E2.77811
G1 X97.444 Y98.171 E2.79621
G1 X98.518 Y97.924 E2.82877
G1 X100.277 Y97.435 E2.88270
G1 X100.461 Y97.398 E2.88824
G1 X100.972 Y97.343 E2.90343
G1 X101.203 Y97.342 E2.91026
G1 X101.522 Y97.391 E2.91979
G1 X101.862 Y97.496 E2.93032
G1 X102.210 Y97.643 E2.94147
G1 X102.697 Y97.901 E2.95775
G1 X103.201 Y98.239 E2.97569
G1 X103.611 Y98.563 E2.99113
G1 X104.068 Y98.989 E3.00959
G1 X104.675 Y99.039 F7800.000
G1 F900
G1 X104.395 Y99.358 E3.02214
G1 X103.836 Y99.875 E3.04465
G1 X103.363 Y100.243 E3.06235
G1 X102.928 Y100.529 E3.07773
G1 X102.434 Y100.796 E3.09431
G1 X102.009 Y100.978 E3.10798
G1 X101.636 Y101.095 E3.11952
G1 X101.337 Y101.150 E3.12850
G1 X101.141 Y101.162 E3.13432
G1 X100.420 Y101.101 E3.15570
G1 X100.114 Y101.036 E3.16492
G1 X98.697 Y100.637 E3.20842
G1 X97.453 Y100.336 E3.24624
G1 X97.181 Y100.587 E3.25719
G1 X97.010 Y100.624 E3.26235
G1 X96.700 Y101.044 E3.27777
G1 X96.455 Y101.306 E3.28836
G1 X96.021 Y101.661 E3.30493
G1 X95.555 Y101.921 E3.32068
G1 X95.151 Y102.083 E3.33356
G1 X94.459 Y102.292 E3.35493
G1 X93.275 Y102.017 E3.39083
G1 X93.065 Y102.004 E3.39706
G1 X92.787 Y102.026 E3.40529
G1 X92.446 Y102.196 E3.41656
G1 X92.303 Y102.235 E3.42091
G1 X92.130 Y102.247 E3.42604
G1 X91.927 Y102.210 E3.43215
G1 X91.725 Y102.114 E3.43874
G1 X91.232 Y101.676 E3.45824
G1 X90.608 Y101.491 E3.47746
G1 X90.444 Y101.406 E3.48290
G1 X90.326 Y101.179 E3.49048
G1 X90.204 Y100.879 E3.50004
G1 X90.052 Y100.395 E3.51504
G1 X89.862 Y99.663 E3.53738
G1 X89.798 Y99.326 E3.54752
