; generated by Slic3r 1.3.0 on 2020-02-28 at 11:59:09

; external perimeters extrusion width = 0.55mm (4.37mm^3/s)
; perimeters extrusion width = 0.70mm (11.44mm^3/s)
; infill extrusion width = 0.63mm (13.45mm^3/s)
; solid infill extrusion width = 0.70mm (3.81mm^3/s)
; top infill extrusion width = 0.70mm (2.86mm^3/s)

M107
M104 S205 ; set temperature
G28 ; home all axes
G1 Z5 F5000 ; lift nozzle

; Filament gcode

M109 S205 ; set temperature and wait for it to be reached
G21 ; set units to millimeters
G90 ; use absolute coordinates
M82 ; use absolute distances for extrusion
G92 E0
G1 Z0.300 F7800.000
G1 E-2.00000 F2400.00000
G92 E0
G1 X98.543 Y103.867 F7800.000
G1 E2.00000 F2400.00000
G1 F600
G1 X98.668 Y103.553 E2.00922
G1 X98.720 Y103.318 E2.01578
G1 X98.569 Y103.356 E2.02001
G1 X98.381 Y103.450 E2.02576
G1 X98.243 Y103.579 E2.03091
G1 X98.110 Y103.836 E2.03880
G1 X97.974 Y104.184 E2.04899
G1 X97.865 Y104.545 E2.05927
G1 X98.960 Y103.450 E2.10151
G1 X98.677 Y104.212 E2.12369
G1 X98.337 Y104.926 E2.14524
G1 X98.228 Y105.091 E2.15063
G1 X97.811 Y105.508 E2.16673
G1 E0.16673 F2400.00000
G92 E0
G1 X99.777 Y105.964 F7800.000
G1 E2.00000 F2400.00000
G1 F600
G1 X99.719 Y105.946 E2.00167
G1 X99.540 Y106.088 E2.00790
G1 X99.512 Y106.126 E2.00918
G1 X99.540 Y106.202 E2.01139
G1 X100.194 Y105.548 E2.03663
G1 X100.899 Y105.752 E2.05665
G1 X100.482 Y106.168 E2.07273
M104 S200 ; set temperature
G1 Z0.600 F7800.000
G1 X99.498 Y106.673 F7800.000

G1 F3600
G1 X99.587 Y106.804 E2.07715
G1 X99.652 Y106.827 E2.07909
G1 X98.966 Y106.132 E2.10643
G1 X98.971 Y105.869 E2.11381
G1 X99.002 Y105.737 E2.11762
G1 X99.130 Y105.524 E2.12457
G1 X100.559 Y106.953 E2.18119
G1 X101.038 Y106.651 E2.19704
G1 X99.451 Y105.064 E2.25987
G1 X99.770 Y105.021 E2.26888
G1 X100.040 Y105.047 E2.27648
G1 X100.346 Y105.339 E2.28832
G1 X100.484 Y105.430 E2.29295
G1 X100.649 Y105.481 E2.29779
G1 X101.608 Y106.441 E2.33580
G1 X101.769 Y106.446 E2.34029
G1 X102.212 Y106.521 E2.35289
G1 X102.489 Y106.540 E2.36066
G1 X101.400 Y105.452 E2.40379
G1 X102.109 Y105.380 E2.42376
G1 X103.297 Y106.567 E2.47079
G1 X104.045 Y106.535 E2.49177
G1 X102.871 Y105.361 E2.53825
G1 X103.638 Y105.392 E2.55975
G1 X103.660 Y105.369 E2.56064
G1 X104.740 Y106.449 E2.60345
G1 X105.071 Y106.391 E2.61286
G1 X105.375 Y106.303 E2.62172
G1 X103.898 Y104.826 E2.68024
G1 X103.741 Y104.123 E2.70042
G1 X103.701 Y103.849 E2.70818
G1 X105.023 Y105.170 E2.76053
G1 X104.987 Y104.781 E2.77148
G1 X104.895 Y104.262 E2.78624
G1 X103.594 Y102.961 E2.83778
G1 X103.564 Y102.488 E2.85106
G1 X103.577 Y102.163 E2.86017
G1 X104.671 Y103.257 E2.90352

G1 E0.90352 F2400.00000
G92 E0
G1 X107.466 Y99.806 F7800.000
G1 E2.00000 F2400.00000

G1 F3600
G1 X107.653 Y99.803 E2.00523
G1 X108.147 Y99.844 E2.01912
G1 X108.264 Y99.823 E2.02246
G1 X107.071 Y98.629 E2.06975
G1 X107.677 Y98.583 E2.08679
G1 X107.790 Y98.593 E2.08997
G1 X107.824 Y98.602 E2.09096
G1 X109.004 Y99.782 E2.13771
G1 X109.844 Y99.841 E2.16130
G1 X108.786 Y98.783 E2.20323
G1 X109.605 Y98.912 E2.22645
G1 X109.736 Y98.952 E2.23030
G1 X111.000 Y100.216 E2.28035

G1 X111.896 Y101.112 F7800.000

G1 F3600
G1 X110.729 Y99.946 E2.32655
G1 X110.900 Y100.215 E2.33549
G1 X111.056 Y100.581 E2.34662
G1 X111.154 Y100.942 E2.35710
G1 X111.182 Y101.180 E2.36381
G1 X112.001 Y101.998 E2.39623
G1 X111.955 Y102.435 E2.40853
G1 X111.886 Y102.664 E2.41524
G1 X111.164 Y101.942 E2.44387
G1 X111.097 Y102.299 E2.45404
G1 X110.992 Y102.550 E2.46168
G1 X111.633 Y103.191 E2.48708
G1 X111.575 Y103.272 E2.48985
G1 X111.385 Y103.441 E2.49697
G1 X111.198 Y103.537 E2.50287
G1 X110.523 Y102.863 E2.52958
G1 X110.200 Y102.896 E2.53870
G1 X109.987 Y102.866 E2.54472
G1 X109.729 Y102.773 E2.55241
G1 X109.536 Y102.657 E2.55871
G1 X110.444 Y103.564 E2.59466
G1 X110.332 Y103.537 E2.59788
G1 X110.102 Y103.420 E2.60509
G1 X109.988 Y103.335 E2.60909
G1 X109.804 Y103.151 E2.61638
G1 X109.643 Y102.936 E2.62390
G1 X109.577 Y102.819 E2.62765
G1 X109.527 Y102.647 E2.63268
G1 X109.998 Y103.118 E2.65133

G1 X109.842 Y102.962 F7800.000

G1 F3600
G1 X109.798 Y102.908 E2.65328
G1 X109.721 Y102.713 E2.65915
G1 X109.696 Y102.534 E2.66420
G1 X109.691 Y102.356 E2.66919
G1 X109.729 Y102.069 E2.67731
G1 X109.175 Y101.514 E2.69928
G1 X109.328 Y101.331 E2.70596
G1 X109.452 Y101.245 E2.71019
G1 X109.549 Y101.208 E2.71310
G1 X109.641 Y101.200 E2.71569
G1 X110.690 Y102.249 E2.75726

G1 X111.145 Y101.923 F7800.000

G1 F3600
G1 X111.623 Y102.401 E2.77616

G1 E0.77616 F2400.00000
G92 E0
G1 X106.840 Y93.714 F7800.000
G1 E2.00000 F2400.00000

G1 F3600
G1 X106.379 Y93.253 E2.01827
G1 X106.102 Y93.421 E2.02735
G1 X105.921 Y93.576 E2.03401
G1 X106.670 Y94.325 E2.06368
G1 X106.863 Y94.669 E2.07475
G1 X107.040 Y94.822 E2.08131
G1 X106.515 Y94.883 E2.09613
G1 X106.479 Y94.915 E2.09747
G1 X105.211 Y93.646 E2.14771
G1 X104.602 Y93.446 E2.16567
G1 X104.100 Y93.317 E2.18018
G1 X106.124 Y95.341 E2.26035
G1 X105.818 Y95.815 E2.27617
G1 X104.824 Y94.821 E2.31553
G1 X104.509 Y95.287 E2.33128
G1 X105.486 Y96.264 E2.36998
G1 X105.139 Y96.697 E2.38554
G1 X104.210 Y95.769 E2.42231
G1 X103.932 Y96.272 E2.43841
G1 X104.966 Y97.306 E2.47938
G1 X105.037 Y97.478 E2.48459
G1 X105.192 Y97.531 E2.48919
G1 X107.466 Y99.806 E2.57928
G1 X107.329 Y99.822 E2.58316
G1 X107.103 Y99.916 E2.59002
G1 X106.928 Y100.048 E2.59616
G1 X103.480 Y96.600 E2.73275
G1 X103.356 Y96.640 E2.73640
G1 X102.514 Y96.416 E2.76079
G1 X106.542 Y100.443 E2.92036
G1 X106.176 Y100.858 E2.93585
G1 X101.431 Y96.113 E3.12384
G1 X100.317 Y95.779 E3.15642
G1 X105.712 Y101.174 E3.37014
G1 X105.129 Y101.373 E3.38738
G1 X98.742 Y94.985 E3.64041
G1 X98.673 Y95.213 E3.64707
G1 X98.635 Y95.246 E3.64847
G1 X98.588 Y95.446 E3.65424
G1 X98.444 Y95.468 E3.65832
G1 X104.546 Y101.571 E3.90007
G1 X104.342 Y101.640 E3.90612
G1 X104.269 Y101.844 E3.91219
G1 X104.246 Y102.051 E3.91802
G1 X97.771 Y95.576 E4.17451
G1 X97.160 Y95.746 E4.19227
G1 X103.333 Y101.919 E4.43681
G1 X102.716 Y102.082 E4.45470
G1 X96.133 Y95.500 E4.71547
G1 X95.973 Y95.470 E4.72004
G1 X95.277 Y95.424 E4.73958
G1 X102.109 Y102.257 E5.01025
G1 X101.511 Y102.439 E5.02777
G1 X94.515 Y95.443 E5.30495
G1 X93.797 Y95.506 E5.32513
G1 X100.900 Y102.609 E5.60651
G1 X100.315 Y102.805 E5.62379
G1 X93.109 Y95.599 E5.90925
G1 X92.451 Y95.721 E5.92800
G1 X99.839 Y103.109 E6.22066
G1 X99.506 Y103.558 E6.23630
G1 X91.827 Y95.879 E6.54050
G1 X91.235 Y96.068 E6.55790
G1 X97.942 Y102.774 E6.82357
G1 X97.605 Y102.680 E6.83336
G1 X97.493 Y102.707 E6.83660
G1 X97.394 Y102.701 E6.83940
G1 X97.170 Y102.783 E6.84607
G1 X90.675 Y96.288 E7.10337
G1 X90.149 Y96.543 E7.11973
G1 X96.543 Y102.937 E7.37303
G1 X95.827 Y103.002 E7.39316
G1 X89.683 Y96.857 E7.63657
G1 X89.489 Y97.018 E7.64361
G1 X89.294 Y97.249 E7.65210
G1 X95.033 Y102.988 E7.87947
G1 X94.170 Y102.906 E7.90377
G1 X89.032 Y97.769 E8.10728
G1 X88.976 Y97.944 E8.11242
G1 X88.923 Y98.440 E8.12640
G1 X93.250 Y102.767 E8.29783
G1 X92.739 Y102.671 E8.31240
G1 X92.229 Y102.527 E8.32724
G1 X88.918 Y99.216 E8.45839
G1 X88.919 Y99.502 E8.46640
G1 X88.955 Y99.910 E8.47788
G1 X88.988 Y100.067 E8.48236
G1 X91.008 Y102.086 E8.56236
G1 X90.498 Y101.821 E8.57847
G1 X90.046 Y101.498 E8.59401
G1 X89.786 Y101.231 E8.60447
G1 X89.691 Y101.104 E8.60890
G1 X89.575 Y100.901 E8.61546
G1 X89.449 Y100.528 E8.62648

G1 E6.62648 F2400.00000
G92 E0
G1 X91.831 Y107.594 F7800.000
G1 E2.00000 F2400.00000

G1 F3600
G1 X92.726 Y108.489 E2.03547
G1 X92.771 Y108.450 E2.03715
G1 X92.987 Y108.369 E2.04360
G1 X93.359 Y108.341 E2.05404
G1 X92.697 Y107.679 E2.08026
G1 X93.179 Y107.381 E2.09615
G1 X94.029 Y108.230 E2.12979
G1 X94.654 Y108.075 E2.14785
G1 X93.698 Y107.118 E2.18575
G1 X94.232 Y106.873 E2.20225
G1 X95.251 Y107.892 E2.24261
G1 X95.403 Y107.844 E2.24707
G1 X95.828 Y107.687 E2.25975
G1 X94.789 Y106.648 E2.30091
G1 X95.366 Y106.445 E2.31806
G1 X96.386 Y107.465 E2.35847
G1 X96.649 Y107.354 E2.36646
G1 X96.923 Y107.221 E2.37499
G1 X95.964 Y106.262 E2.41297
G1 X96.584 Y106.101 E2.43092
G1 X97.440 Y106.957 E2.46483
G1 X97.683 Y106.818 E2.47268
G1 X97.784 Y106.739 E2.47627
G1 X97.884 Y106.620 E2.48061
G1 X97.101 Y105.837 E2.51162
G1 X97.182 Y105.766 E2.51464
G1 X97.297 Y105.252 E2.52939
G1 X98.197 Y106.153 E2.56507
G1 X98.331 Y105.981 E2.57117
G1 X98.486 Y105.660 E2.58114
G1 X97.461 Y104.636 E2.62171
G1 X97.646 Y104.040 E2.63919
G1 X98.748 Y105.142 E2.68285
G1 X98.858 Y104.921 E2.68976
G1 X98.983 Y104.596 E2.69950
G1 X97.846 Y103.459 E2.74458
G1 X97.944 Y103.162 E2.75332
G1 X98.001 Y102.833 E2.76269
G1 X99.216 Y104.048 E2.81081

G1 E0.81081 F2400.00000
G92 E0
G1 X92.008 Y107.771 F7800.000
G1 E2.00000 F2400.00000

G1 F3600
G1 X91.535 Y107.299 E2.01872
G1 X91.423 Y107.340 E2.02207
G1 X91.292 Y107.442 E2.02673
G1 X91.154 Y107.698 E2.03487
G1 X92.308 Y108.852 E2.08062
G1 X92.131 Y108.995 E2.08700
G1 X91.947 Y109.250 E2.09579
G1 X91.899 Y109.224 E2.09730
G1 X91.438 Y108.763 E2.11558

G1 E0.11558 F2400.00000
G92 E0
G1 X98.742 Y94.985 F7800.000
G1 E2.00000 F2400.00000

G1 F3600
G1 X98.691 Y94.153 E2.02335
G1 X99.834 Y95.297 E2.06867
G1 X99.875 Y94.557 E2.08944
G1 X98.685 Y93.367 E2.13659
G1 X98.716 Y92.617 E2.15759
G1 X99.879 Y93.780 E2.20365
G1 X99.845 Y92.966 E2.22649
G1 X98.249 Y91.370 E2.28971
G1 X98.597 Y91.358 E2.29945
G1 X98.809 Y91.255 E2.30605
G1 X98.854 Y91.194 E2.30819
G1 X99.737 Y92.076 E2.34314

G1 X98.526 Y92.427 F7800.000

G1 F3600
G1 X97.520 Y91.421 E2.38301
G1 X96.827 Y91.509 E2.40256
G1 X97.905 Y92.587 E2.44527
G1 X97.262 Y92.724 E2.46370
G1 X96.164 Y91.627 E2.50717
G1 X95.526 Y91.769 E2.52549
G1 X96.596 Y92.839 E2.56787
G1 X96.220 Y92.889 E2.57847
G1 X95.889 Y92.913 E2.58778
G1 X94.914 Y91.938 E2.62641
G1 X94.337 Y92.142 E2.64356
G1 X95.156 Y92.961 E2.67602
G1 X94.892 Y92.951 E2.68344
G1 X94.764 Y92.964 E2.68702
G1 X94.396 Y92.921 E2.69743
G1 X94.359 Y92.944 E2.69866
G1 X93.719 Y92.305 E2.72400
G1 X93.604 Y92.277 E2.72730
G1 X92.934 Y91.974 E2.74792
G1 X92.733 Y91.934 E2.75365
G1 X92.628 Y91.980 E2.75685
G1 X93.945 Y93.312 E2.80933
G1 X93.859 Y93.406 E2.81290
G1 X93.745 Y93.600 E2.81920
G1 X93.383 Y93.531 E2.82951
G1 X92.394 Y92.541 E2.86871

G1 E0.86871 F2400.00000
G92 E0
G1 X101.311 Y93.650 F7800.000
G1 E2.00000 F2400.00000

G1 F3600
G1 X101.274 Y93.739 E2.00269
G1 X101.305 Y93.912 E2.00762
G1 X101.351 Y94.030 E2.01117
G1 X101.512 Y94.204 E2.01781
G1 X101.561 Y94.294 E2.02069
G1 X101.826 Y94.381 E2.02851
G1 X101.941 Y94.387 E2.03172
G1 X101.970 Y94.310 E2.03405
G1 X100.850 Y93.189 E2.07843
G1 X100.926 Y93.035 E2.08324
G1 X101.017 Y92.714 E2.09260
G1 X101.140 Y92.698 E2.09605
G1 X102.384 Y93.943 E2.14536
G1 X102.629 Y93.851 E2.15268
G1 X102.745 Y93.851 E2.15594
G1 X103.356 Y94.134 E2.17481
G1 X102.280 Y93.058 E2.21745
G1 X102.866 Y93.089 E2.23389
G1 X103.128 Y93.125 E2.24129
G1 X104.537 Y94.534 E2.29712

G1 Z0.900 F7800.000
G1 E0.29712 F2400.00000
G92 E0
G1 X105.022 Y97.720 F7800.000
G1 E2.00000 F2400.00000
G1 F1200
G1 X105.516 Y97.226 E2.02107
G1 X106.133 Y97.395 E2.04036
G1 X106.225 Y97.521 E2.04505
G1 X104.414 Y99.332 E2.12224
G1 X104.378 Y99.427 E2.12529
G1 X104.626 Y100.123 E2.14758
G1 X106.660 Y98.090 E2.23424
G1 X106.845 Y98.300 E2.24268
G1 X107.025 Y98.458 E2.24989
G1 X107.203 Y98.551 E2.25594
G1 X104.890 Y100.864 E2.35450
G1 X105.012 Y101.205 E2.36543
G1 X105.477 Y101.078 E2.37997
G1 X106.116 Y100.353 E2.40907
G1 X106.377 Y100.089 E2.42024
G1 X106.622 Y99.907 E2.42946
G1 X106.825 Y99.824 E2.43605
G1 X106.949 Y99.809 E2.43984
G1 X108.174 Y98.584 E2.49204
G1 X109.035 Y98.727 E2.51833
G1 X108.540 Y99.222 E2.53941
G1 X109.734 Y99.237 F7800.000

G1 F3600
G1 X110.364 Y99.068 E2.56231
G1 X110.748 Y99.222 E2.57684
G1 X111.191 Y99.481 E2.59486
G1 X109.824 Y99.847 E2.64457
G1 X110.063 Y99.912 E2.65326
G1 X110.342 Y100.037 E2.66400
G1 X110.463 Y100.128 E2.66933
G1 X110.603 Y100.272 E2.67637
G1 X111.684 Y99.982 E2.71568
G1 X111.759 Y100.085 E2.72016
G1 X111.934 Y100.549 E2.73757
G1 X110.900 Y100.826 E2.77514
G1 X110.981 Y101.063 E2.78394
G1 X111.051 Y101.420 E2.79670
G1 X112.068 Y101.147 E2.83368
G1 X112.107 Y101.461 E2.84478
G1 X112.101 Y101.772 E2.85571
G1 X110.940 Y102.083 E2.89795
G1 X111.302 Y102.424 E2.91543
G1 X110.996 Y102.526 E2.92675
G1 X110.939 Y102.717 E2.93375
G1 X111.976 Y102.439 E2.97144
G1 X111.845 Y102.742 E2.98303
G1 X111.670 Y102.986 E2.99357
G1 X111.387 Y103.210 E3.00624
G1 X111.231 Y103.273 E3.01214
G1 X110.599 Y103.442 E3.03512

G1 X109.354 Y103.142 F7800.000

G1 F3600
G1 X110.251 Y102.901 E3.06774
G1 X109.995 Y102.740 E3.07837
G1 X109.875 Y102.592 E3.08507
G1 X109.803 Y102.388 E3.09266
G1 X108.981 Y102.608 E3.12257
G1 X108.971 Y102.243 E3.13538
G1 X109.003 Y101.968 E3.14511
G1 X110.018 Y101.696 E3.18202

G1 X110.207 Y101.646 F7800.000

G1 F3600
G1 X110.298 Y101.714 E3.18602
G1 X110.537 Y101.736 E3.19444
G1 X110.640 Y101.916 E3.20173
G1 X110.743 Y101.887 E3.20546
G1 X110.827 Y101.811 E3.20946
G1 X110.691 Y101.632 E3.21735
G1 X110.593 Y101.542 E3.22203
G1 X109.577 Y101.815 E3.25896

G1 E1.25896 F2400.00000
G92 E0
G1 X104.084 Y101.661 F7800.000
G1 E2.00000 F2400.00000

G1 F3600
G1 X103.511 Y101.970 E2.02126

G1 X103.403 Y101.356 F7800.000

G1 F3600
G1 X104.838 Y100.582 E2.07440
G1 X104.637 Y100.018 E2.09392
G1 X103.493 Y100.635 E2.13630
G1 X101.021 Y101.296 E2.21972
G1 X104.436 Y99.454 E2.34622
G1 X104.235 Y98.890 E2.36574
G1 X98.550 Y101.958 E2.57637
G1 X97.752 Y102.171 E2.60328
G1 X96.820 Y102.698 E2.63819
G1 X96.720 Y102.704 E2.64147
G1 X96.577 Y102.745 E2.64632
G1 X96.909 Y102.171 E2.66797
G1 X102.144 Y99.346 E2.86191
G1 X102.062 Y99.346 E2.86459
G1 X101.472 Y99.499 E2.88446
G1 X99.567 Y100.095 E2.94955
G1 X99.102 Y100.315 E2.96632
G1 X98.347 Y100.722 E2.99427
G1 X98.528 Y100.625 E3.00095

G1 E1.00095 F2400.00000
G92 E0
G1 X103.587 Y102.733 F7800.000
G1 E2.00000 F2400.00000

G1 F3600
G1 X104.161 Y102.423 E2.02126
G1 X104.316 Y102.475 E2.02658
G1 X104.369 Y102.331 E2.03158
G1 X104.459 Y102.302 E2.03466
G1 X104.653 Y102.856 E2.05383
G1 X103.606 Y103.422 E2.09263
G1 X103.684 Y104.079 E2.11420
G1 X104.818 Y103.467 E2.15621
G1 X104.937 Y104.101 E2.17726
G1 X104.362 Y104.411 E2.19856

G1 E0.19856 F2400.00000
G92 E0
G1 X97.827 Y99.977 F7800.000
G1 E2.00000 F2400.00000

G1 F3600
G1 X97.196 Y99.808 E2.02086
G1 X96.017 Y100.098 E2.05961
G1 X98.024 Y100.636 E2.12592
G1 X97.805 Y100.804 E2.13473
G1 X97.558 Y101.118 E2.14749
G1 X94.838 Y100.389 E2.23734
G1 X94.377 Y100.503 E2.25249
G1 X94.352 Y100.865 E2.26409
G1 X97.180 Y101.623 E2.35753
G1 X97.066 Y101.766 E2.36335
G1 X96.853 Y102.142 E2.37715
G1 X94.311 Y101.461 E2.46115
G1 X94.269 Y102.056 E2.48020
G1 X96.565 Y102.672 E2.55606
G1 X96.496 Y102.824 E2.56142
G1 X95.791 Y102.866 E2.58394
G1 X94.858 Y102.821 E2.61374
G1 X94.228 Y102.652 E2.63457

G1 X93.356 Y102.822 F7800.000
G1 F1200
G1 X94.234 Y101.944 E2.66864
G1 X94.302 Y100.961 E2.69569
G1 X92.571 Y102.692 E2.76289
G1 X91.830 Y102.518 E2.78378
G1 X94.370 Y99.978 E2.88239
G1 X89.951 Y97.079 F7800.000
G1 F1200
G1 X89.416 Y97.616 E2.90318
G1 X89.254 Y97.818 E2.91030
G1 X89.157 Y97.983 E2.91555
G1 X89.083 Y98.149 E2.92055
G1 X89.001 Y98.429 E2.92854
G1 X88.962 Y98.682 E2.93557
G1 X88.944 Y99.001 E2.94436
G1 X91.363 Y96.581 E3.03831
G1 X92.022 Y96.838 E3.05771
G1 X88.944 Y99.916 E3.17722
G1 X88.980 Y100.380 E3.19000
G1 X89.060 Y100.714 E3.19943
G1 X92.680 Y97.094 E3.33997
G1 X93.339 Y97.350 E3.35937
G1 X89.402 Y101.287 E3.51220
G1 X89.592 Y101.479 E3.51961
G1 X89.900 Y101.703 E3.53009
G1 X93.997 Y97.607 E3.68914
G1 X94.656 Y97.863 E3.70854
G1 X90.487 Y102.032 E3.87039
G1 X91.137 Y102.296 E3.88967
G1 X95.314 Y98.119 E4.05182
G1 X95.973 Y98.376 E4.07122
G1 X94.020 Y100.328 E4.14704
G1 X95.234 Y100.029 E4.18137
G1 X96.631 Y98.632 E4.23562
G1 X97.289 Y98.888 E4.25502
G1 X96.448 Y99.730 E4.28769
G1 X97.295 Y99.521 E4.31163
G1 X97.499 Y99.594 E4.31758
G1 X98.400 Y98.692 E4.35258
G1 X98.790 Y98.557 E4.36389
G1 X99.225 Y98.481 E4.37602
G1 X99.459 Y98.548 E4.38271
G1 X98.174 Y99.833 E4.43260
G1 X98.759 Y99.970 E4.44909
G1 X99.060 Y99.862 E4.45787
G1 X100.172 Y98.750 E4.50104
G1 X100.709 Y98.914 E4.51647
G1 X100.705 Y98.936 E4.51709
G1 X100.867 Y98.970 E4.52163
G1 X100.373 Y99.464 E4.54083
G1 X97.003 Y98.674 F7800.000

G1 F3600
G1 X97.643 Y98.543 E4.56174
G1 X98.255 Y98.322 E4.58258
G1 X98.183 Y98.302 E4.58498
G1 X97.936 Y97.884 E4.60051
G1 X95.994 Y98.281 E4.66401
G1 X94.984 Y97.888 E4.69870
G1 X97.621 Y97.350 E4.78489
G1 X97.281 Y96.820 E4.80505
G1 X93.975 Y97.495 E4.91311
G1 X92.965 Y97.102 E4.94780
G1 X96.923 Y96.294 E5.07714
G1 X96.796 Y96.108 E5.08436
G1 X96.837 Y95.713 E5.09709
G1 X91.956 Y96.709 E5.25665
G1 X91.115 Y96.381 E5.28554
G1 X91.887 Y96.139 E5.31144
G1 X93.256 Y95.845 E5.35629

G1 E3.35629 F2400.00000
G92 E0
G1 X93.262 Y93.568 F7800.000
G1 E2.00000 F2400.00000
G1 F1200
G1 X93.757 Y93.072 E2.02163
G1 X93.898 Y92.788 E2.03144
G1 X94.173 Y92.427 E2.04544
G1 X93.851 Y92.232 E2.05705
G1 X93.608 Y92.143 E2.06505
G1 X92.520 Y93.230 E2.11254
G1 X92.454 Y93.081 E2.11757
G1 X92.398 Y92.889 E2.12376
G1 X92.582 Y92.551 E2.13563
G1 X92.634 Y92.524 E2.13744
G1 X92.841 Y92.531 E2.14386
G1 X92.945 Y92.554 E2.14715
G1 X93.113 Y92.637 E2.15294
G1 X94.690 Y92.327 F7800.000
G1 F1200
G1 X94.195 Y92.822 E2.17454
G1 X94.377 Y92.846 E2.18020
G1 X94.851 Y92.857 E2.19484
G1 X95.215 Y92.830 E2.20613
G1 X96.249 Y91.797 E2.25125
G1 X97.136 Y91.619 E2.27920
G1 X97.098 Y91.976 E2.29029
G1 X96.604 Y92.471 E2.31188
G1 X97.181 Y91.759 F7800.000

G1 F3600
G1 X98.459 Y92.282 E2.36894

G1 X99.583 Y91.473 F7800.000

G1 F3600
G1 X98.980 Y91.226 E2.39591
G1 X98.759 Y91.517 E2.41100
G1 X98.543 Y91.548 E2.42004
G1 X98.205 Y91.544 E2.43398
G1 X99.767 Y92.183 E2.50375
G1 X99.853 Y92.853 E2.53167
G1 X98.735 Y92.395 E2.58161
G1 X98.688 Y93.011 E2.60713
G1 X99.893 Y93.504 E2.66097
G1 X99.896 Y94.140 E2.68725
G1 X98.667 Y93.637 E2.74215
G1 X98.676 Y94.248 E2.76743
G1 X98.678 Y94.276 E2.76857
G1 X99.873 Y94.765 E2.82197
G1 X99.831 Y95.382 E2.84755
G1 X98.719 Y94.927 E2.89722
G1 X98.721 Y94.961 E2.89863
G1 X98.636 Y95.119 E2.90603
G1 X98.724 Y95.312 E2.91480
G1 X98.276 Y95.380 E2.93354
G1 X104.770 Y98.039 E3.22366
G1 X104.596 Y98.501 E3.24407
G1 X104.534 Y98.329 E3.25162
G1 X104.181 Y98.433 E3.26683
G1 X97.336 Y95.630 E3.57267
G1 X96.749 Y95.850 E3.59858
G1 X96.743 Y95.907 E3.60096
G1 X96.851 Y96.066 E3.60895
G1 X103.279 Y98.698 E3.89609
G1 X102.376 Y98.963 E3.93499
G1 X97.430 Y96.938 E4.15595
G1 X97.923 Y97.775 E4.19610
G1 X98.527 Y98.022 E4.22306

G1 X99.895 Y95.409 F7800.000

G1 F3600
G1 X99.291 Y95.162 E4.25002

G1 E2.25002 F2400.00000
G92 E0
G1 X100.765 Y93.341 F7800.000
G1 E2.00000 F2400.00000

G1 F3600
G1 X102.202 Y93.929 E2.06417

G1 X101.956 Y93.115 F7800.000

G1 F3600
G1 X101.353 Y92.868 E2.09113

G1 E0.09113 F2400.00000
G92 E0
G1 X106.013 Y94.741 F7800.000
G1 E2.00000 F2400.00000

G1 F3600
G1 X102.482 Y93.295 E2.15777
G1 X102.680 Y93.481 E2.16898
G1 X102.579 Y93.594 E2.17523
G1 X102.629 Y93.621 E2.17756
G1 X103.239 Y93.878 E2.20494
G1 X103.961 Y94.112 E2.23630
G1 X104.787 Y94.316 E2.27149
G1 X104.901 Y94.822 E2.29292
G1 X104.847 Y94.898 E2.29677
G1 X105.806 Y95.291 E2.33960
G1 X105.599 Y95.840 E2.36389
G1 X104.501 Y95.391 E2.41296
G1 X104.277 Y95.746 E2.43032
G1 X104.190 Y95.898 E2.43756
G1 X105.327 Y96.363 E2.48837
G1 X104.918 Y96.831 E2.51402
G1 X103.985 Y96.449 E2.55572
G1 X103.434 Y96.843 E2.58375
G1 X103.297 Y96.802 E2.58965
G1 X104.977 Y97.490 E2.66470
G1 X104.770 Y98.039 E2.68899

G1 X102.884 Y102.012 F7800.000

G1 F3600
G1 X103.112 Y101.400 E2.70763
G1 X103.231 Y100.921 E2.72171
G1 X102.636 Y101.080 E2.73928
G1 X102.187 Y102.290 E2.77612
G1 X101.484 Y102.582 E2.79786
G1 X101.977 Y101.257 E2.83823
G1 X101.317 Y101.434 E2.85773
G1 X100.794 Y102.840 E2.90057
G1 X100.297 Y103.022 E2.91568
G1 X100.097 Y103.116 E2.92199
G1 X100.657 Y101.610 E2.96787
G1 X99.997 Y101.787 E2.98737
G1 X99.318 Y103.613 E3.04299
G1 X98.811 Y103.377 E3.05894
G1 X99.337 Y101.963 E3.10202
G1 X98.677 Y102.140 E3.12152
G1 X98.305 Y103.142 E3.15206
G1 X97.924 Y102.966 E3.16403
G1 X97.838 Y103.092 E3.16840
G1 X97.742 Y103.058 E3.17133
G1 X97.969 Y102.446 E3.18995

G1 X97.593 Y104.233 F7800.000

G1 F3600
G1 X98.265 Y104.764 E3.22536
G1 X98.910 Y104.432 E3.25534
G1 X97.816 Y103.568 E3.31297
G1 X97.975 Y103.154 E3.33133
G1 X98.901 Y103.584 E3.37356
G1 X99.413 Y103.988 E3.40054

G1 X99.659 Y105.150 F7800.000

G1 F3600
G1 X99.116 Y105.514 E3.42017
G1 X99.007 Y105.766 E3.42842
G1 X98.834 Y106.026 E3.43779
G1 X98.763 Y106.227 E3.44418
G1 X98.760 Y106.438 E3.45053
G1 X100.653 Y105.171 E3.51893
G1 X100.730 Y105.203 E3.52142
G1 X100.894 Y105.344 E3.52792
G1 X101.179 Y105.505 E3.53776
G1 X99.099 Y106.897 E3.61294
G1 X99.398 Y107.004 E3.62250
G1 X99.455 Y106.879 E3.62662
G1 X99.874 Y107.064 E3.64037
G1 X100.497 Y106.647 E3.66290
G1 X100.483 Y106.627 E3.66364
G1 X100.730 Y106.489 E3.67214
G1 X100.917 Y106.287 E3.68040
G1 X100.959 Y106.338 E3.68238
G1 X102.182 Y105.519 E3.72658
G1 X103.103 Y105.468 E3.75427
G1 X103.275 Y105.474 E3.75943
G1 X101.856 Y106.423 E3.81068
G1 X102.435 Y106.457 E3.82808
G1 X102.831 Y106.457 E3.83998
G1 X104.193 Y105.546 E3.88918
G1 X104.522 Y106.011 E3.90630
G1 X103.980 Y106.374 E3.92589

G1 X104.767 Y106.207 F7800.000
G1 F1200
G1 X105.262 Y105.713 E3.94853
G1 X105.219 Y105.691 E3.95009
G1 X104.980 Y105.424 E3.96169
G1 X104.959 Y104.937 E3.97746
G1 X104.243 Y105.653 E4.01025
G1 X104.107 Y105.268 E4.02347
G1 X104.440 Y105.130 E4.03514
G1 X104.464 Y105.432 E4.04494
G1 E2.04494 F2400.00000
G92 E0
G1 X98.294 Y105.121 F7800.000
G1 E2.00000 F2400.00000

G1 F3600
G1 X98.330 Y105.062 E2.00287
G1 X97.356 Y105.551 E2.04792
G1 X97.306 Y105.782 E2.05771
G1 X98.836 Y104.758 E2.13382
G1 X98.583 Y105.215 E2.15541
G1 X98.136 Y105.831 E2.18686
G1 X97.923 Y106.093 E2.20081
G1 X97.716 Y106.301 E2.21295
G1 X97.075 Y106.730 E2.24484

G1 X97.009 Y106.623 F7800.000

G1 F3600
G1 X96.496 Y106.219 E2.26584
G1 X95.774 Y106.399 E2.28981
G1 X96.789 Y107.200 E2.33144
G1 X96.179 Y107.468 E2.35290
G1 X95.667 Y107.063 E2.37392

G1 X95.556 Y107.205 F7800.000
G1 F1200
G1 X95.062 Y107.700 E2.39655
G1 X94.715 Y106.968 F7800.000
G1 F1200
G1 X94.121 Y107.562 E2.42376
G1 X94.021 Y107.722 F7800.000

G1 F3600
G1 X93.570 Y107.250 E2.45074
G1 X93.286 Y107.399 E2.46400
G1 X92.985 Y107.593 E2.47880
G1 X93.593 Y108.230 E2.51523
G1 X93.361 Y108.256 E2.52490
G1 X93.196 Y108.251 E2.53174
G1 X93.435 Y108.064 E2.54431

G1 X92.745 Y108.339 F7800.000

G1 F3600
G1 X92.295 Y107.867 E2.57127

G1 X92.391 Y108.767 F7800.000

G1 F3600
G1 X91.241 Y107.564 E2.64009
G1 X91.057 Y107.749 E2.65087
G1 X91.349 Y108.092 E2.66950
G1 X91.294 Y108.161 E2.67318
G1 X91.573 Y108.495 E2.69118
G1 X91.435 Y108.566 E2.69763
G1 X91.885 Y109.038 E2.72459

M106 S242.25
G1 Z1.200 F7800.000
G1 E0.72459 F2400.00000
G92 E0
G1 X99.221 Y106.838 F7800.000
G1 E2.00000 F2400.00000
M106 S255

G1 F3600
G1 X99.831 Y106.603 E2.02158
G1 X101.545 Y105.771 E2.08453
G1 X101.466 Y105.777 E2.08715
G1 X101.298 Y105.731 E2.09290
G1 X101.194 Y105.683 E2.09668
G1 X100.970 Y105.526 E2.10572
G1 X98.829 Y106.351 E2.18150
G1 X98.833 Y106.131 E2.18879
G1 X98.882 Y105.873 E2.19747
G1 X98.974 Y105.702 E2.20389
G1 X99.181 Y105.578 E2.21186
G1 X99.798 Y105.340 E2.23369
M106 S242.25

G1 E0.23369 F2400.00000
G92 E0
G1 X102.364 Y106.314 F7800.000
G1 E2.00000 F2400.00000
G1 F1200
G1 X101.870 Y105.820 E2.02234
G1 X102.498 Y105.572 E2.04393
G1 X102.682 Y105.568 E2.04982
G1 X103.461 Y106.346 E2.08499
G1 X103.813 Y106.338 E2.09625
G1 X104.431 Y106.252 E2.11620
G1 X103.819 Y105.639 E2.14389
G1 X103.962 Y105.653 E2.14846
G1 X104.259 Y105.205 E2.16564
G1 X104.200 Y105.039 E2.17124
G1 X104.331 Y105.086 E2.17566
G1 X104.825 Y105.581 E2.19801
G1 E0.19801 F2400.00000
G92 E0
G1 X101.797 Y99.539 F7800.000
G1 E2.00000 F2400.00000
M106 S255

G1 F3600
G1 X102.568 Y99.244 E2.02929
G1 X104.329 Y98.672 E2.09505
G1 X104.765 Y99.054 E2.11562
G1 X97.180 Y101.979 E2.40428
G1 X96.300 Y102.830 E2.44777
G1 X96.687 Y102.714 E2.46212
G1 X96.907 Y102.743 E2.47001
G1 X105.288 Y99.511 E2.78899
G1 X105.812 Y99.969 E2.81367
G1 X97.795 Y103.060 E3.11876
G1 X97.898 Y103.136 E3.12328
G1 X97.972 Y103.430 E3.13405
G1 X97.950 Y103.660 E3.14227
G1 X106.342 Y100.433 E3.46155
G1 X106.097 Y100.720 E3.47496
G1 X106.041 Y100.756 E3.47735
G1 X105.060 Y101.074 E3.51394
G1 X104.208 Y101.407 E3.54645
G1 X104.151 Y101.492 E3.55006
G1 X104.028 Y101.553 E3.55496
G1 X103.892 Y101.527 E3.55986
G1 X103.544 Y101.653 E3.57301
G1 X100.805 Y102.725 E3.67744
G1 X100.517 Y102.876 E3.68900
G1 X100.172 Y103.104 E3.70368
G1 X100.148 Y103.115 E3.70460
G1 X100.135 Y103.096 E3.70541
G1 X99.811 Y103.298 E3.71897
G1 X99.803 Y103.280 E3.71965
G1 X99.424 Y103.588 E3.73697
G1 X99.319 Y103.689 E3.74215
G1 X99.214 Y103.832 E3.74844
G1 X97.733 Y104.403 E3.80480
G1 X97.527 Y105.142 E3.83205
G1 X98.879 Y104.621 E3.88354
G1 X98.732 Y104.922 E3.89544
G1 X98.622 Y105.086 E3.90247
G1 X98.187 Y105.547 E3.92498
G1 X97.578 Y105.782 E3.94814
M106 S242.25

G1 E1.94814 F2400.00000
G92 E0
G1 X96.063 Y107.093 F7800.000
G1 E2.00000 F2400.00000
G1 F1200
G1 X95.569 Y106.598 E2.02264
G1 X95.245 Y106.695 E2.03358
G1 X94.764 Y106.873 E2.05016
G1 X95.489 Y107.597 E2.08333
G1 X95.075 Y107.735 E2.09745
G1 X95.080 Y107.487 E2.10548
G1 X94.995 Y107.476 E2.10827
G1 X95.259 Y107.367 E2.11752
G1 E0.11752 F2400.00000
G92 E0
G1 X89.580 Y100.972 F7800.000
G1 E2.00000 F2400.00000
G1 F1200
G1 X90.087 Y101.479 E2.02032
G1 X90.465 Y101.754 E2.03355
G1 X90.977 Y102.030 E2.05005
G1 X91.659 Y102.307 E2.07089
G1 X91.649 Y102.327 E2.07153
G1 X91.988 Y102.436 E2.08163
G1 X88.943 Y99.391 E2.20367
G1 X88.945 Y98.448 E2.23038
G1 X93.233 Y102.737 E2.40223
G1 X93.392 Y102.769 E2.40682
G1 X93.714 Y102.695 E2.41618
G1 X93.714 Y102.819 E2.41969
G1 X94.345 Y102.904 E2.43773
G1 X89.086 Y97.645 E2.64849
G1 X89.140 Y97.480 E2.65343
G1 X89.109 Y97.467 E2.65438
G1 X89.284 Y97.209 E2.66323
G1 X89.435 Y97.051 E2.66943
G1 X95.384 Y103.000 E2.90782
G1 X95.938 Y103.019 E2.92351
G1 X96.146 Y102.817 E2.93172
G1 X89.974 Y96.645 E3.17907
G1 X90.133 Y96.546 E3.18439
G1 X90.594 Y96.320 E3.19892
G1 X96.626 Y102.353 E3.44066
G1 X97.106 Y101.889 E3.45958
G1 X91.277 Y96.060 E3.69316
G1 X91.679 Y95.929 E3.70513
G1 X92.010 Y95.848 E3.71478
G1 X97.586 Y101.424 E3.93823
G1 X98.088 Y100.983 E3.95719
G1 X92.786 Y95.681 E4.16966
G1 X93.602 Y95.552 E4.19306
G1 X98.642 Y100.592 E4.39504
G1 X98.852 Y100.456 E4.40212
G1 X99.251 Y100.257 E4.41476
G1 X94.450 Y95.456 E4.60717
G1 X94.812 Y95.423 E4.61747
G1 X95.347 Y95.408 E4.63263
G1 X99.929 Y99.991 E4.81626
G1 X100.619 Y99.736 E4.83709
G1 X99.260 Y98.377 E4.89157
G1 X99.828 Y98.572 E4.90859
G1 X100.794 Y98.967 E4.93816
G1 X101.288 Y99.461 E4.95798
G1 X101.565 Y98.820 F7800.000
M106 S255

G1 F3600
G1 X102.188 Y99.017 E4.98076
G1 X103.092 Y98.712 E5.01398
G1 X97.606 Y96.979 E5.21439
G1 X96.800 Y96.135 E5.25504
G1 X103.394 Y98.217 E5.49588
G1 X103.841 Y98.072 E5.51224
G1 X104.352 Y98.519 E5.53591
G1 X105.648 Y98.929 E5.58324
G1 X106.192 Y98.510 E5.60714
G1 X97.112 Y95.643 E5.93879
G1 X97.411 Y95.534 E5.94986
G1 X98.085 Y95.359 E5.97410
G1 X105.084 Y97.570 E6.22975
G1 X104.959 Y97.282 E6.24067
G1 X104.284 Y96.985 E6.26634
G1 X103.984 Y97.203 E6.27923
G1 X103.960 Y96.911 E6.28942
G1 X100.980 Y95.750 E6.40081
G1 X100.546 Y95.611 E6.41669
G1 X99.934 Y95.471 E6.43854
G1 X99.900 Y95.405 E6.44115
G1 X99.877 Y95.402 E6.44195
G1 X99.849 Y95.326 E6.44477
G1 X98.813 Y94.999 E6.48264
G1 X98.992 Y94.829 E6.49125
G1 X98.823 Y94.733 E6.49803
G1 X98.803 Y94.406 E6.50945
G1 X99.759 Y94.707 E6.54436
G1 X99.781 Y94.124 E6.56469
G1 X98.780 Y93.808 E6.60125
G1 X98.791 Y93.221 E6.62170
G1 X99.775 Y93.532 E6.65767
G1 X99.732 Y92.928 E6.67877
G1 X98.838 Y92.646 E6.71143
G1 X98.927 Y92.090 E6.73104
G1 X99.634 Y92.307 E6.75679
M106 S242.25

G1 E4.75679 F2400.00000
G92 E0
G1 X104.085 Y96.419 F7800.000
G1 E2.00000 F2400.00000
M106 S255

G1 F3600
G1 X104.707 Y96.616 E2.02272
G1 X104.985 Y96.533 E2.03283
G1 X105.309 Y96.166 E2.04987
G1 X104.364 Y95.868 E2.08438
G1 X104.696 Y95.333 E2.10630
G1 X105.698 Y95.649 E2.14289
G1 X105.994 Y95.202 E2.16157
G1 X105.744 Y95.190 E2.17030
G1 X105.742 Y95.024 E2.17609
G1 X105.062 Y94.809 E2.20095
G1 X105.031 Y94.664 E2.20611
G1 X105.040 Y94.283 E2.21937
G1 X105.109 Y94.184 E2.22358
G1 X105.733 Y94.381 E2.24635
M106 S242.25

G1 E0.24635 F2400.00000
G92 E0
G1 X105.822 Y97.803 F7800.000
G1 E2.00000 F2400.00000
M106 S255

G1 F3600
G1 X105.605 Y97.508 E2.01276
G1 X104.630 Y97.205 E2.04832
G1 X104.462 Y97.373 E2.05660
G1 X106.444 Y97.999 E2.12900
M106 S242.25

G1 E0.12900 F2400.00000
G92 E0
G1 X97.488 Y92.182 F7800.000
G1 E2.00000 F2400.00000
G1 F1200
G1 X96.993 Y91.688 E2.02264
G1 X96.393 Y91.774 E2.04226
G1 X96.073 Y91.846 E2.05288
G1 X96.806 Y92.579 E2.08643
G1 X96.459 Y92.638 E2.09781
G1 X96.515 Y92.598 E2.10002
G1 X96.464 Y92.519 E2.10306
G1 X96.498 Y92.434 E2.10604
G1 X96.390 Y92.381 E2.10995
G1 X96.568 Y92.341 E2.11586
G1 E0.11586 F2400.00000
G92 E0
G1 X105.845 Y99.625 F7800.000
G1 E2.00000 F2400.00000
G1 F1200
G1 X105.351 Y99.131 E2.02140
G1 X105.927 Y98.687 E2.04366
G1 X107.149 Y99.909 E2.09654
G1 X107.296 Y99.840 E2.10152
G1 X107.539 Y99.811 E2.10901
G1 X108.099 Y99.839 E2.12617
G1 X106.854 Y98.594 E2.18008
G1 X107.058 Y98.617 E2.18637
G1 X107.662 Y98.586 E2.20488
G1 X107.896 Y98.616 E2.21210
G1 X109.091 Y99.812 E2.26385
G1 X109.830 Y99.860 E2.28651
G1 X110.230 Y99.930 E2.29894
G1 X109.111 Y98.811 E2.34738
G1 X109.664 Y98.901 E2.36456
G1 X109.936 Y98.988 E2.37329
G1 X110.201 Y99.105 E2.38215
G1 X110.553 Y99.300 E2.39445
G1 X110.819 Y99.500 E2.40464
G1 X111.315 Y99.996 E2.42612
G1 X111.947 Y101.647 F7800.000
G1 F1200
G1 X111.142 Y100.842 E2.46096
G1 X111.198 Y101.267 E2.47407
G1 X111.200 Y101.654 E2.48592
G1 X111.172 Y101.893 E2.49328
G1 X111.886 Y102.606 E2.52417
G1 X111.808 Y102.835 E2.53157
G1 X111.678 Y103.089 E2.54029
G1 X111.535 Y103.275 E2.54748
G1 X110.923 Y102.663 E2.57398
G1 E0.57398 F2400.00000
G92 E0
G1 X101.511 Y93.763 F7800.000
G1 E2.00000 F2400.00000
M106 S255

G1 F3600
G1 X101.664 Y93.921 E2.00907
G1 X101.879 Y94.046 E2.01936
G1 X101.975 Y93.909 E2.02627
G1 X100.890 Y93.567 E2.07333
G1 X100.853 Y93.467 E2.07771
G1 X100.906 Y93.278 E2.08583
G1 X101.087 Y93.029 E2.09857
G1 X101.134 Y92.995 E2.10094
G1 X101.214 Y92.977 E2.10436
G1 X101.836 Y93.174 E2.13133
M106 S242.25

G1 E0.13133 F2400.00000
G92 E0
G1 X104.138 Y103.937 F7800.000
G1 E2.00000 F2400.00000
M106 S255

G1 F3600
G1 X104.094 Y103.755 E2.00771
G1 X103.904 Y103.900 E2.01757
G1 X103.742 Y103.745 E2.02686
G1 X103.788 Y104.072 E2.04052
G1 X104.747 Y103.702 E2.08300
G1 X104.868 Y104.362 E2.11072
G1 X103.908 Y104.733 E2.15329
M106 S242.25

M106 S239.7
G1 Z1.500 F7800.000
G1 E0.15329 F2400.00000
G92 E0
G1 X100.005 Y105.890 F7800.000
G1 E2.00000 F2400.00000
G1 F1200
G1 X99.940 Y105.787 E2.00395
G1 X99.772 Y105.788 E2.00941
G1 X99.445 Y105.924 E2.02086
G1 X99.302 Y106.016 E2.02638
G1 X99.215 Y106.105 E2.03040
G1 X99.126 Y106.271 E2.03648
G1 X99.114 Y106.353 E2.03919
G1 X99.168 Y106.545 E2.04562
G1 X99.240 Y106.655 E2.04988
G1 X100.499 Y105.396 E2.10753
G1 X100.682 Y105.706 E2.11919
G1 X100.616 Y105.718 E2.12134
G1 X100.445 Y105.666 E2.12713
G1 X100.406 Y105.754 E2.13026
G1 X100.257 Y105.779 E2.13514
G1 X100.293 Y106.006 E2.14256
G1 X100.199 Y106.214 E2.14994
G1 X100.335 Y106.279 E2.15483
G1 X100.349 Y106.365 E2.15765
G1 X100.518 Y106.366 E2.16313
G1 X100.579 Y106.395 E2.16530
G1 X100.084 Y106.889 E2.18794
G1 E0.18794 F2400.00000
G92 E0
G1 X91.987 Y102.545 F7800.000
G1 E2.00000 F2400.00000
M106 S255

G1 F3600
G1 X91.987 Y101.893 E2.02385
M106 S239.7

G1 X91.363 Y102.487 F7800.000
M106 S255

G1 F3600
G1 X91.363 Y95.943 E2.26319
G1 X90.740 Y96.183 E2.28762
G1 X90.740 Y102.245 E2.50934
G1 X90.116 Y101.916 E2.53514
G1 X90.116 Y96.520 E2.73249
G1 X89.743 Y96.767 E2.74885
G1 X89.492 Y97.014 E2.76172
G1 X89.492 Y101.411 E2.92255
G1 X89.252 Y101.092 E2.93715
G1 X89.112 Y100.816 E2.94848
G1 X88.949 Y100.300 E2.96826
G1 X88.894 Y99.977 E2.98026
G1 X88.869 Y99.621 E2.99330
G1 X88.869 Y98.960 E3.01747
M106 S239.7

G1 X92.356 Y96.231 F7800.000
G1 F1200
G1 X92.851 Y95.737 E3.03688
G1 X93.450 Y95.618 E3.05382
G1 X93.946 Y95.546 E3.06775
G1 X92.156 Y97.336 E3.13802
G1 X91.956 Y98.441 E3.16918
G1 X94.990 Y95.408 E3.28823
G1 X95.350 Y95.373 E3.29827
G1 X95.947 Y95.355 E3.31485
G1 X91.807 Y99.495 E3.47734
G1 X91.818 Y99.722 E3.48364
G1 X91.926 Y100.282 E3.49946
G1 X96.778 Y95.429 E3.68992
G1 X96.910 Y95.453 E3.69365
G1 X97.205 Y95.548 E3.70224
G1 X97.375 Y95.565 E3.70699
G1 X97.572 Y95.540 E3.71249
G1 X92.071 Y101.041 E3.92839
G1 X92.216 Y101.801 E3.94985
G1 X98.810 Y95.207 E4.20865
G1 X99.361 Y95.097 E4.22426
G1 X99.477 Y94.960 E4.22922
G1 X99.518 Y94.941 E4.23049
G1 X99.730 Y95.192 E4.23961
G1 X92.362 Y102.561 E4.52882
G1 X92.389 Y102.703 E4.53286
G1 X93.009 Y102.818 E4.55037
G1 X100.583 Y95.244 E4.84765
G1 X101.043 Y95.390 E4.86104
G1 X101.252 Y95.480 E4.86735
G1 X93.793 Y102.939 E5.16011
G1 X94.604 Y103.033 E5.18277
G1 X101.884 Y95.753 E5.46850
G1 X102.515 Y96.027 E5.48759
G1 X95.469 Y103.073 E5.76416
G1 X95.874 Y103.063 E5.77542
G1 X96.277 Y103.007 E5.78672
G1 X96.510 Y102.937 E5.79345
G1 X103.154 Y96.293 E6.05422
G1 X103.800 Y96.552 E6.07354
G1 X97.373 Y102.979 E6.32581
G1 X97.879 Y103.137 E6.34052
G1 X98.040 Y103.217 E6.34550
G1 X104.429 Y96.827 E6.59630
G1 X104.438 Y96.901 E6.59836
G1 X104.656 Y96.901 E6.60443
G1 X105.080 Y97.082 E6.61721
G1 X98.282 Y103.879 E6.88401
G1 X98.270 Y104.140 E6.89124
G1 X98.302 Y104.088 E6.89291
G1 X98.514 Y103.908 E6.90064
G1 X98.796 Y103.753 E6.90956
G1 X99.133 Y103.667 E6.91923
G1 X99.558 Y103.509 E6.93182
G1 X105.726 Y97.341 E7.17389
G1 X105.765 Y97.355 E7.17504
G1 X105.758 Y97.373 E7.17556
G1 X106.225 Y97.516 E7.18912
G1 X106.324 Y97.648 E7.19368
G1 X101.209 Y102.762 E7.39441
G1 X102.800 Y102.076 E7.44250
G1 X106.725 Y98.151 E7.59655
G1 X106.864 Y98.298 E7.60217
G1 X107.076 Y98.471 E7.60975
G1 X107.238 Y98.543 E7.61468
G1 X104.332 Y101.449 E7.72873
G1 X105.626 Y100.935 E7.76737
G1 X106.300 Y100.183 E7.79538
G1 X106.507 Y100.006 E7.80294
G1 X106.636 Y99.925 E7.80717
G1 X106.841 Y99.846 E7.81327
G1 X108.057 Y98.630 E7.86100
G1 X108.249 Y98.647 E7.86635
G1 X108.822 Y98.769 E7.88262
G1 X107.830 Y99.761 E7.92156
G1 X108.084 Y99.717 E7.92871
G1 X108.763 Y99.733 E7.94757
G1 X109.603 Y98.894 E7.98052
G1 X110.150 Y99.000 E7.99599
G1 X110.010 Y99.097 E8.00073
G1 X110.090 Y99.311 E8.00707
G1 X109.596 Y99.805 E8.02648
G1 X110.769 Y99.251 F7800.000
G1 F1200
G1 X110.275 Y99.746 E8.04589
G1 X110.228 Y99.968 E8.05220
G1 X110.454 Y100.069 E8.05907
G1 X110.703 Y100.243 E8.06749
G1 X111.319 Y99.626 E8.09169
G1 X111.329 Y99.635 E8.09206
G1 X111.440 Y99.763 E8.09676
G1 X111.515 Y99.888 E8.10080
G1 X111.590 Y100.099 E8.10702
G1 X111.621 Y100.249 E8.11127
G1 X111.127 Y100.743 E8.13068
M106 S242.25
G1 Z1.800 F7800.000
G1 E6.13068 F2400.00000
G92 E0
G1 X108.799 Y99.492 F7800.000
G1 E2.00000 F2400.00000
G1 F1200
G1 X108.304 Y98.998 E2.01903
G1 X107.958 Y98.901 E2.02881
G1 X107.723 Y98.768 E2.03615
G1 X107.570 Y98.720 E2.04051
G1 X107.039 Y98.640 E2.05512
G1 X108.096 Y99.697 E2.09580
G1 X107.483 Y99.782 E2.11264
G1 X107.487 Y99.799 E2.11311
G1 X107.332 Y99.839 E2.11746
G1 X104.675 Y97.181 E2.21973
G1 X102.981 Y96.394 E2.27056
G1 X106.783 Y100.197 E2.41688
G1 X106.345 Y100.666 E2.43434
G1 X101.544 Y95.865 E2.61909
G1 X101.503 Y95.824 F7800.000
G1 F1200
G1 X101.522 Y95.714 E2.62213
G1 X101.292 Y95.613 E2.62894
G1 X101.998 Y96.318 E2.65608
G1 X98.332 Y96.279 F7800.000
G1 F1200
G1 X97.650 Y95.597 E2.68234
G1 X96.792 Y95.646 E2.70571
G1 X94.387 Y95.961 F7800.000
G1 F1200
G1 X93.861 Y95.435 E2.72596
G1 X93.084 Y95.565 E2.74740
G1 X94.248 Y96.729 E2.79220
G1 X94.110 Y97.497 E2.81343
G1 X92.650 Y96.037 E2.86961
G1 X92.417 Y96.711 E2.88901
G1 X93.971 Y98.265 E2.94880
G1 X93.907 Y98.616 E2.95850
G1 X94.232 Y98.843 E2.96927
G1 X94.440 Y98.735 E2.97567
G1 X93.946 Y98.240 F7800.000
G1 F1200
G1 X98.562 Y102.856 E3.15330
G1 X98.651 Y102.892 E3.15591
G1 X98.633 Y102.928 E3.15700
G1 X99.238 Y103.532 E3.18025
G1 X99.304 Y103.555 E3.18215
G1 X99.569 Y103.584 E3.18941
G1 X99.861 Y103.553 E3.19741
G1 X100.098 Y103.485 E3.20411
G1 X94.543 Y97.931 E3.41787
G1 X94.605 Y97.899 E3.41977
G1 X94.763 Y97.244 E3.43809
G1 X100.749 Y103.230 E3.66841
G1 X101.407 Y102.981 E3.68756
G1 X94.940 Y96.514 E3.93644
G1 X95.116 Y95.784 E3.95688
G1 X102.036 Y102.704 E4.22317
G1 X102.662 Y102.422 E4.24183
G1 X95.935 Y95.695 E4.50071
G1 X96.792 Y95.646 E4.52408
G1 X103.275 Y102.129 E4.77356
G1 X103.888 Y101.836 E4.79206
G1 X97.936 Y95.883 E5.02113
G1 X98.677 Y96.054 E5.04183
G1 X98.969 Y96.010 E5.04988
G1 X104.506 Y101.546 E5.26293
G1 X104.666 Y101.475 E5.26771
G1 X104.660 Y101.462 E5.26808
G1 X105.130 Y101.264 E5.28198
G1 X99.818 Y95.951 E5.48642
G1 X100.387 Y95.921 E5.50195
G1 X100.433 Y95.761 E5.50647
G1 X100.477 Y95.704 E5.50843
G1 X105.758 Y100.985 E5.71166
G1 E3.71166 F2400.00000
G92 E0
G1 X97.717 Y102.918 F7800.000
G1 E2.00000 F2400.00000
G1 F1200
G1 X92.184 Y97.385 E2.21292
G1 X91.952 Y98.059 E2.23232
G1 X96.938 Y103.045 E2.42420
G1 X96.510 Y103.130 E2.43607
G1 X96.134 Y103.149 E2.44630
G1 X91.719 Y98.733 E2.61621
G1 X91.667 Y98.902 E2.62103
G1 X91.672 Y99.055 E2.62519
G1 X91.912 Y99.833 E2.64735
G1 X95.169 Y103.090 E2.77267
G1 X94.734 Y103.046 E2.78457
G1 X94.127 Y102.955 E2.80126
G1 X92.323 Y101.151 E2.87068
G1 X92.659 Y102.229 E2.90141
G1 X92.536 Y102.271 E2.90494
G1 X93.031 Y102.765 E2.92397
G1 X88.699 Y98.827 F7800.000
M106 S255

G1 F3600
G1 X88.714 Y99.740 E2.95385
G1 X88.746 Y99.984 E2.96189
G1 X88.840 Y100.365 E2.97472
G1 X88.960 Y100.702 E2.98643
G1 X89.061 Y100.924 E2.99441
G1 X89.317 Y101.328 E3.01008
G1 X89.274 Y97.151 E3.14674
G1 X89.537 Y96.835 E3.16018
G1 X89.860 Y96.586 E3.17354
G1 X89.916 Y101.877 E3.34663
G1 X90.346 Y102.137 E3.36308
G1 X90.512 Y102.215 E3.36907
G1 X90.450 Y96.239 E3.56458
G1 X91.040 Y95.988 E3.58556
G1 X91.107 Y102.459 E3.79728
G1 X91.614 Y102.621 E3.81469
G1 X91.701 Y102.591 E3.81770
G1 X91.683 Y100.860 E3.87433
G1 X91.350 Y99.792 E3.91093
G1 X91.321 Y99.567 E3.91837
G1 X91.330 Y99.391 E3.92411
G1 X91.359 Y99.257 E3.92860
G1 X91.657 Y98.394 E3.95848
G1 X91.631 Y95.863 E4.04129
G1 X92.226 Y96.076 E4.06196
G1 X92.233 Y96.728 E4.08330
M106 S242.25

G1 X94.859 Y96.621 F7800.000
G1 F4800
G1 X94.752 Y97.211 E4.09757
G1 X94.888 Y96.649 E4.11131
G1 X94.394 Y96.155 E4.12794
G1 X94.528 Y95.409 E4.14597
G1 X95.059 Y95.940 E4.16383
G1 X99.121 Y95.598 F7800.000
G1 F4800
G1 X98.738 Y95.674 E4.17313
G1 X98.798 Y95.837 E4.17727
G1 X99.180 Y95.925 E4.18661
G1 X99.414 Y95.891 E4.19224
G1 X98.656 Y95.132 E4.21775
G1 X99.011 Y95.076 E4.22630
G1 X99.468 Y95.063 E4.23718
G1 X100.240 Y95.835 E4.26316
G1 Z2.100 F7800.000
G1 X92.669 Y95.696 F7800.000
G1 F1200
G1 X92.175 Y96.190 E4.28281
G1 X92.663 Y96.380 E4.29753
G1 X92.511 Y96.790 E4.30980
G1 X93.828 Y95.473 E4.36213
G1 X94.937 Y95.300 E4.39367
G1 X91.960 Y98.278 E4.51198
G1 X91.522 Y99.460 E4.54742
G1 X91.570 Y99.604 E4.55169
G1 X95.967 Y95.206 E4.72644
G1 X96.508 Y95.216 E4.74163
G1 X96.834 Y95.276 E4.75094
G1 X91.804 Y100.306 E4.95080
G1 X92.038 Y101.008 E4.97160
G1 X97.510 Y95.536 E5.18904
G1 X97.721 Y95.553 E5.19500
G1 X98.689 Y95.293 E5.22316
G1 X92.272 Y101.710 E5.47816
G1 X92.506 Y102.412 E5.49895
G1 X99.783 Y95.136 E5.78810
G1 X99.998 Y95.105 E5.79419
G1 X100.266 Y95.096 E5.80172
G1 X100.515 Y95.114 E5.80875
G1 X100.702 Y95.153 E5.81412
G1 X92.965 Y102.891 E6.12157
G1 X93.765 Y103.027 E6.14438
G1 X101.414 Y95.377 E6.44835
G1 X102.075 Y95.653 E6.46847
G1 X94.581 Y103.147 E6.76628
G1 X95.445 Y103.219 E6.79065
G1 X102.718 Y95.946 E7.07967
G1 X103.361 Y96.239 E7.09953
G1 X96.491 Y103.110 E7.37253
G1 X96.869 Y102.925 E7.38437
G1 X97.038 Y102.867 E7.38938
G1 X97.235 Y102.881 E7.39493
G1 X97.568 Y102.969 E7.40462
G1 X103.985 Y96.552 E7.65960
G1 X104.609 Y96.864 E7.67921
G1 X98.309 Y103.164 E7.92955
G1 X99.009 Y103.401 E7.95030
G1 X105.232 Y97.178 E8.19758
G1 X105.856 Y97.490 E8.21719
G1 X99.999 Y103.346 E8.44989
G1 X100.841 Y103.084 E8.47465
G1 X101.454 Y102.828 E8.49333
G1 X106.453 Y97.829 E8.69197
G1 X106.724 Y98.159 E8.70397
G1 X106.890 Y98.328 E8.71063
G1 X103.190 Y102.028 E8.85767
G1 X105.071 Y101.084 E8.91680
G1 X107.476 Y98.678 E9.01241
G1 X107.930 Y98.830 E9.02585
G1 X108.063 Y98.907 E9.03017
G1 X108.097 Y98.966 E9.03210
G1 X108.073 Y99.017 E9.03368
G1 X107.578 Y99.513 E9.05337
G1 X92.154 Y96.800 F7800.000
M106 S255

G1 F3600
G1 X92.150 Y96.148 E9.07560
G1 X91.545 Y95.912 E9.09772
G1 X91.559 Y98.405 E9.18264
G1 X91.153 Y99.535 E9.22356
G1 X91.572 Y100.818 E9.26951
G1 X91.582 Y102.524 E9.32764
G1 X91.370 Y102.602 E9.33534
G1 X90.978 Y102.484 E9.34928
G1 X90.942 Y95.957 E9.57162
G1 X90.339 Y96.199 E9.59373
G1 X90.373 Y102.241 E9.79956
G1 X90.178 Y102.148 E9.80692
G1 X89.767 Y101.884 E9.82355
G1 X89.737 Y96.561 E10.00488
G1 X89.408 Y96.835 E10.01949
G1 X89.137 Y97.185 E10.03454
G1 X89.160 Y101.266 E10.17356
G1 X88.907 Y100.835 E10.19059
G1 X88.657 Y100.208 E10.21356
G1 X88.589 Y99.968 E10.22209
G1 X88.548 Y99.742 E10.22989
G1 X88.542 Y98.702 E10.26531
M106 S242.25

M106 S239.7
G1 Z2.400 F7800.000
G1 X88.375 Y98.847 F7800.000
M106 S255

G1 F3600
G1 X88.380 Y99.596 E10.28977
G1 X88.447 Y99.971 E10.30221
G1 X88.637 Y100.473 E10.31971
G1 X88.879 Y100.973 E10.33786
G1 X88.983 Y101.144 E10.34441
G1 X88.956 Y97.313 E10.46952
G1 X89.114 Y97.057 E10.47935
G1 X89.297 Y96.815 E10.48925
G1 X89.543 Y96.585 E10.50026
G1 X89.581 Y101.874 E10.67299
G1 X89.893 Y102.097 E10.68552
G1 X90.175 Y102.238 E10.69583
G1 X90.133 Y96.204 E10.89290
G1 X90.723 Y95.973 E10.91361
G1 X90.769 Y102.480 E11.12612
G1 X90.821 Y102.498 E11.12790
G1 X91.360 Y102.283 E11.14686
G1 X91.342 Y99.773 E11.22880
G1 X91.946 Y101.395 E11.28529
G1 X91.950 Y102.047 E11.30660
M106 S239.7

G1 X91.334 Y98.612 F7800.000
M106 S255

G1 F3600
G1 X91.316 Y96.094 E11.38883
G1 X90.863 Y95.922 E11.40465
G1 X90.723 Y95.973 E11.40952
M106 S239.7

G1 X92.266 Y96.228 F7800.000
G1 F1200
G1 X92.155 Y96.257 E11.41277
G1 X92.380 Y96.342 E11.41959
G1 X91.772 Y95.734 E11.44396
G1 X92.555 Y95.574 E11.46661
G1 X100.341 Y103.360 E11.77833
G1 X100.621 Y103.327 E11.78632
G1 X101.132 Y103.207 E11.80117
G1 X93.345 Y95.420 E12.11296
G1 X94.160 Y95.292 E12.13633
G1 X101.825 Y102.957 E12.44323
G1 X102.492 Y102.680 E12.46367
G1 X94.984 Y95.173 E12.76425
G1 X95.623 Y95.126 E12.78239
G1 X95.887 Y95.132 E12.78985
G1 X102.937 Y102.182 E13.07214
G1 X102.676 Y101.656 E13.08877
G1 X103.126 Y101.428 E13.10306
G1 X97.296 Y95.597 E13.33652
G1 X98.041 Y95.400 E13.35836
G1 X103.753 Y101.111 E13.58705
G1 X104.380 Y100.794 E13.60693
G1 X98.808 Y95.223 E13.83001
G1 X99.049 Y95.170 E13.83698
G1 X99.629 Y95.101 E13.85353
G1 X105.658 Y101.129 E14.09491
G1 X106.179 Y100.847 E14.11169
G1 X106.252 Y100.780 E14.11449
G1 X102.324 Y96.852 E14.27178
G1 X104.184 Y97.769 E14.33049
G1 X106.689 Y100.273 E14.43076
G1 X106.964 Y100.004 E14.44166
G1 X107.191 Y99.832 E14.44973
G1 X104.593 Y97.234 E14.55374
G1 X104.719 Y97.069 E14.55962
G1 X105.732 Y97.605 E14.59206
G1 X105.831 Y97.682 E14.59562
G1 X106.218 Y98.165 E14.61312
G1 X106.346 Y98.303 E14.61847
G1 X106.590 Y98.515 E14.62761
G1 X106.567 Y98.545 E14.62871
G1 X107.191 Y98.902 E14.64907
G1 X107.761 Y99.459 E14.67164
G1 E12.67164 F2400.00000
G92 E0
G1 X102.819 Y97.347 F7800.000
G1 E2.00000 F2400.00000
G1 F1200
G1 X102.681 Y97.278 E2.00434
G1 X102.704 Y97.232 E2.00580
G1 X100.716 Y95.245 E2.08538
G1 X101.218 Y95.423 E2.10045
G1 X102.277 Y95.862 E2.13291
G1 X103.016 Y96.600 E2.16248
G1 X99.237 Y103.199 F7800.000
G1 F1200
G1 X92.314 Y96.276 E2.43968
G1 X92.073 Y96.979 E2.46071
G1 X97.974 Y102.880 E2.69699
G1 X97.733 Y102.815 E2.70406
G1 X97.404 Y102.938 E2.71402
G1 X97.209 Y103.058 E2.72049
G1 X91.833 Y97.682 E2.93575
G1 X91.593 Y98.385 E2.95679
G1 X96.494 Y103.287 E3.15304
G1 X96.245 Y103.302 E3.16010
G1 X95.524 Y103.260 E3.18055
G1 X91.501 Y99.237 E3.34165
G1 X92.060 Y100.740 E3.38706
G1 X94.426 Y103.105 E3.48178
G1 X93.283 Y102.906 E3.51464
G1 X92.264 Y101.887 E3.55542
G1 X91.590 Y102.156 E3.57598
G1 X92.084 Y102.651 E3.59578
G1 X104.046 Y96.999 F7800.000
G1 F4800
G1 X104.221 Y96.771 E3.60261
G1 X103.400 Y96.353 E3.62451
G1 X104.511 Y97.464 E3.66190
G1 E1.66190 F2400.00000
G92 E0
G1 X104.430 Y101.787 F7800.000
G1 E2.00000 F2400.00000
G1 F4800
G1 X103.719 Y101.076 E2.02392
G1 X103.134 Y101.372 E2.03952
G1 X103.844 Y102.083 E2.06343
G1 X103.607 Y102.202 E2.06976
G1 X103.461 Y101.907 E2.07759
G1 X103.599 Y101.837 E2.08128
M106 S244.8
G1 Z2.700 F7800.000
G1 X101.141 Y102.888 F7800.000
M106 S255

G1 F3600
G1 X101.808 Y102.826 E2.10189
G1 X102.462 Y102.585 E2.12333
G1 X103.146 Y102.304 E2.14608
G1 X103.597 Y102.095 E2.16136
G1 X100.866 Y102.334 E2.24569
G1 X100.592 Y101.780 E2.26472
G1 X105.067 Y101.388 E2.40293
G1 X106.108 Y100.820 E2.43944
G1 X106.202 Y100.710 E2.44388
G1 X100.317 Y101.225 E2.62565
G1 X100.090 Y100.767 E2.64139
G1 X100.329 Y100.646 E2.64964
G1 X106.721 Y100.087 E2.84706
G1 X107.341 Y99.454 E2.87432
G1 X101.712 Y99.946 E3.04819
G1 X103.089 Y99.248 E3.09571
G1 X107.305 Y98.879 E3.22593
G1 X106.964 Y98.548 E3.24055
G1 X106.786 Y98.346 E3.24885
G1 X104.397 Y98.555 E3.32263
G1 X105.708 Y97.862 E3.36827
G1 X106.358 Y97.805 E3.38834
M106 S244.8

G1 X103.143 Y98.935 F7800.000
M106 S255

G1 F3600
G1 X102.494 Y98.878 E3.41362
G1 X100.927 Y98.097 E3.48149
G1 X104.196 Y98.384 E3.60874
G1 X105.238 Y97.831 E3.65444
G1 X100.236 Y97.394 E3.84909
G1 X100.540 Y96.777 E3.87574
G1 X105.375 Y97.200 E4.06391
G1 X104.301 Y96.652 E4.11067
G1 X103.800 Y96.419 E4.13207
G1 X100.844 Y96.161 E4.24711
G1 X101.148 Y95.544 E4.27376
G1 X101.798 Y95.601 E4.29906
M106 S244.8

G1 X101.402 Y99.697 F7800.000
G1 F1200
G1 X102.206 Y98.893 E4.33052
G1 X101.590 Y98.587 E4.34955
G1 X99.536 Y100.640 E4.42992
G1 X99.375 Y100.722 E4.43493
G1 X99.401 Y100.775 E4.43658
G1 X99.896 Y100.281 F7800.000
G1 F1200
G1 X97.393 Y102.784 E4.53453
G1 X98.136 Y102.963 E4.55569
G1 X100.201 Y100.897 E4.63651
G1 X100.507 Y101.514 E4.65555
G1 X98.884 Y103.137 E4.71905
G1 X99.516 Y103.269 E4.73691
G1 X99.660 Y103.283 E4.74091
G1 X100.812 Y102.130 E4.78603
G1 X101.118 Y102.747 E4.80507
G1 X100.624 Y103.241 E4.82442
G1 E2.82442 F2400.00000
G92 E0
G1 X95.909 Y103.345 F7800.000
G1 E2.00000 F2400.00000
G1 F1200
G1 X100.975 Y98.280 E2.19822
G1 X100.359 Y97.974 E2.21724
G1 X95.024 Y103.309 E2.42603
G1 X94.210 Y103.200 E2.44874
G1 X100.061 Y97.349 E2.67771
G1 X100.958 Y95.531 E2.73380
G1 X93.423 Y103.065 E3.02865
G1 X92.651 Y102.916 E3.05042
G1 X100.452 Y95.115 E3.35570
G1 X99.859 Y95.186 E3.37222
G1 X99.349 Y95.295 E3.38665
G1 X91.887 Y102.758 E3.67866
G1 X91.141 Y102.582 E3.69987
G1 X91.740 Y101.982 E3.72332
G1 X92.268 Y101.856 E3.73834
G1 X92.202 Y101.521 E3.74779
G1 X98.129 Y95.593 E3.97974
G1 X97.843 Y95.657 E3.98787
G1 X97.593 Y95.671 E3.99480
G1 X97.337 Y95.463 E4.00392
G1 X91.556 Y101.244 E4.23015
G1 X91.404 Y100.474 E4.25188
G1 X96.733 Y95.145 E4.46040
G1 X96.625 Y95.112 E4.46353
G1 X96.187 Y95.069 E4.47570
G1 X95.869 Y95.087 E4.48452
G1 X91.253 Y99.703 E4.66516
G1 X91.214 Y99.507 E4.67071
G1 X91.443 Y98.591 E4.69683
G1 X94.826 Y95.208 E4.82920
G1 X93.704 Y95.408 E4.86074
G1 X91.751 Y97.361 E4.93714
G1 X91.915 Y96.707 E4.95581
G1 X91.575 Y96.615 E4.96555
G1 X92.556 Y95.634 E5.00395
G1 X91.711 Y95.824 E5.02792
G1 X91.343 Y95.926 E5.03850
G1 X90.848 Y96.420 E5.05785
G1 X91.448 Y97.207 F7800.000
M106 S255

G1 F3600
G1 X91.443 Y96.555 E5.08316
G1 X90.801 Y96.382 E5.10894
G1 X90.839 Y102.103 E5.33082
G1 X90.199 Y102.257 E5.35634
G1 X90.160 Y96.210 E5.59088
G1 X90.024 Y96.174 E5.59631
G1 X89.753 Y96.307 E5.60802
G1 X89.520 Y96.465 E5.61895
G1 X89.557 Y101.977 E5.83273
G1 X89.388 Y101.838 E5.84122
G1 X89.220 Y101.649 E5.85102
G1 X88.910 Y101.157 E5.87357
G1 X88.885 Y97.305 E6.02297
G1 X88.651 Y97.743 E6.04223
G1 X88.457 Y98.155 E6.05991
G1 X88.324 Y98.490 E6.07386
G1 X88.254 Y98.850 E6.08808
G1 X88.259 Y99.599 E6.11712
G1 X88.259 Y99.502 E6.12087
M106 S244.8

M106 S242.25
G1 Z3.000 F7800.000
G1 X89.654 Y101.820 F7800.000
G1 F1200
G1 X89.160 Y101.326 E6.14062
G1 X88.929 Y101.018 E6.15148
G1 X88.632 Y100.492 E6.16855
G1 X88.293 Y99.835 E6.18944
G1 X88.057 Y99.282 E6.20643
G1 X91.299 Y102.524 E6.33595
G1 X91.629 Y102.608 E6.34556
G1 X92.005 Y102.357 E6.35834
G1 X92.005 Y102.699 E6.36798
G1 X92.530 Y102.814 E6.38315
G1 X88.146 Y98.430 E6.55825
G1 X88.204 Y98.282 E6.56273
G1 X88.455 Y97.798 E6.57814
G1 X93.708 Y103.051 E6.78796
G1 X94.860 Y103.262 E6.82104
G1 X88.777 Y97.179 E7.06401
G1 X89.006 Y96.795 E7.07664
G1 X89.154 Y96.614 E7.08322
G1 X95.923 Y103.384 E7.35361
G1 X96.091 Y103.389 E7.35835
G1 X96.399 Y103.363 E7.36709
G1 X96.746 Y103.266 E7.37727
G1 X89.736 Y96.256 E7.65729
G1 X90.431 Y96.010 E7.67811
G1 X97.323 Y102.902 E7.95340
G1 X97.395 Y102.838 E7.95612
G1 X97.391 Y102.679 E7.96062
G1 X97.945 Y102.685 E7.97626
G1 X98.082 Y102.719 E7.98027
G1 X91.175 Y95.813 E8.25614
G1 X91.942 Y95.638 E8.27834
G1 X99.318 Y103.014 E8.57295
G1 X100.259 Y103.220 E8.60016
G1 X100.495 Y103.250 E8.60690
G1 X92.719 Y95.474 E8.91751
G1 X93.508 Y95.322 E8.94021
G1 X101.377 Y103.190 E9.25449
G1 X101.481 Y103.161 E9.25755
G1 X100.689 Y101.561 E9.30797
G1 X94.304 Y95.177 E9.56296
G1 X95.130 Y95.062 E9.58651
G1 X100.563 Y100.494 E9.80351
G1 X101.188 Y100.179 E9.82329
G1 X96.136 Y95.126 E10.02511
G1 X96.269 Y95.165 E10.02903
G1 X96.598 Y95.340 E10.03957
G1 X96.708 Y95.430 E10.04357
G1 X96.627 Y95.571 E10.04815
G1 X97.252 Y95.738 E10.06644
G1 X97.409 Y95.754 E10.07090
G1 X97.646 Y95.695 E10.07779
G1 X101.814 Y99.863 E10.24427
G1 X102.440 Y99.548 E10.26406
G1 X102.100 Y99.208 E10.27762
G1 X100.235 Y98.275 E10.33653
G1 X100.542 Y97.650 E10.35620
G1 X98.400 Y95.509 E10.44173
G1 X99.171 Y95.338 E10.46402
G1 X100.852 Y97.019 E10.53114
G1 X101.162 Y96.388 E10.55100
G1 X99.956 Y95.182 E10.59915
G1 X100.184 Y95.156 E10.60563
G1 X100.564 Y95.173 E10.61638
G1 X100.977 Y95.262 E10.62830
G1 X101.472 Y95.757 E10.64806
G1 X102.134 Y95.730 F7800.000
M106 S255

G1 F3600
G1 X101.503 Y95.561 E10.66733
G1 X101.249 Y96.078 E10.68432
G1 X105.536 Y97.227 E10.81518
G1 X105.895 Y97.424 E10.82728
G1 X106.035 Y97.533 E10.83250
G1 X105.536 Y97.812 E10.84934
G1 X100.995 Y96.595 E10.98799
G1 X100.741 Y97.112 E11.00498
G1 X104.830 Y98.208 E11.12981
G1 X104.122 Y98.603 E11.15372
G1 X100.487 Y97.629 E11.26469
G1 X100.464 Y97.677 E11.26625
G1 X100.850 Y97.870 E11.27898
G1 X101.139 Y97.812 E11.28766
G1 X101.112 Y98.001 E11.29327
G1 X102.754 Y98.822 E11.34741
G1 X103.383 Y98.991 E11.36664
M106 S242.25

G1 E9.36664 F2400.00000
G92 E0
G1 X106.363 Y97.811 F7800.000
G1 E2.00000 F2400.00000
M106 S255

G1 F3600
G1 X105.732 Y97.980 E2.02225
G1 X103.579 Y99.182 E2.10634
G1 X106.763 Y98.329 E2.21872
G1 X107.022 Y98.638 E2.23248
G1 X107.144 Y98.852 E2.24088
G1 X101.143 Y100.460 E2.45269
G1 X101.160 Y100.547 E2.45571
G1 X100.890 Y100.547 E2.46492
G1 X100.471 Y100.758 E2.48094
G1 X100.693 Y101.206 E2.49797
G1 X107.095 Y99.490 E2.72396
G1 X107.027 Y99.619 E2.72892
G1 X106.468 Y100.284 E2.75853
G1 X100.966 Y101.758 E2.95273
G1 X101.240 Y102.310 E2.97373
G1 X105.702 Y101.114 E3.13124
G1 X104.595 Y101.692 E3.17382
G1 X103.273 Y102.277 E3.22310
G1 X102.144 Y102.693 E3.26411
G1 X101.513 Y102.862 E3.28640
M106 S242.25

M106 S237.15
G1 Z3.300 F7800.000
G1 X105.205 Y101.401 F7800.000
G1 F1200
G1 X105.701 Y100.905 E3.30588
G1 X106.142 Y100.316 E3.32633
G1 X106.291 Y100.071 E3.33429
G1 X106.717 Y99.217 E3.36082
G1 X106.789 Y98.995 E3.36730
G1 X106.777 Y98.903 E3.36987
G1 X103.310 Y102.370 E3.50608
G1 X102.748 Y102.605 E3.52298
G1 X101.850 Y102.905 E3.54931
G1 X106.487 Y98.268 E3.73148
G1 X106.177 Y97.652 E3.75063
G1 X100.630 Y103.199 E3.96857
G1 X100.476 Y103.209 E3.97284
G1 X100.134 Y103.172 E3.98240
G1 X99.807 Y103.097 E3.99173
G1 X105.784 Y97.120 E4.22654
G1 X105.601 Y96.946 E4.23355
G1 X105.249 Y96.728 E4.24503
G1 X99.053 Y102.925 E4.48847
G1 X98.295 Y102.757 E4.51002
G1 X104.637 Y96.415 E4.75916
G1 X103.999 Y96.127 E4.77860
G1 X97.540 Y102.586 E5.03235
G1 X97.394 Y102.564 E5.03646
G1 X97.018 Y102.590 E5.04692
G1 X96.697 Y102.891 E5.05915
G1 X96.444 Y103.077 E5.06788
G1 X96.212 Y103.204 E5.07523
G1 X95.883 Y103.318 E5.08489
G1 X103.336 Y95.865 E5.37769
G1 X102.654 Y95.621 E5.39781
G1 X94.913 Y103.363 E5.70194
G1 X94.114 Y103.236 E5.72441
G1 X101.948 Y95.402 E6.03216
G1 X101.488 Y95.279 E6.04538
G1 X101.188 Y95.236 E6.05381
G1 X93.339 Y103.085 E6.36214
G1 X92.568 Y102.930 E6.38398
G1 X100.124 Y95.374 E6.68079
G1 X98.947 Y95.626 E6.71423
G1 X91.802 Y102.770 E6.99489
G1 X91.052 Y102.595 E7.01630
G1 X97.733 Y95.914 E7.27874
G1 X97.706 Y95.920 E7.27951
G1 X97.447 Y95.763 E7.28791
G1 X97.182 Y95.539 E7.29755
G1 X90.322 Y102.400 E7.56706
G1 X90.202 Y102.367 E7.57051
G1 X89.641 Y102.155 E7.58717
G1 X96.606 Y95.190 E7.86078
G1 X96.318 Y95.094 E7.86922
G1 X96.069 Y95.055 E7.87623
G1 X95.822 Y95.048 E7.88308
G1 X89.111 Y101.759 E8.14670
G1 X88.788 Y101.157 E8.16569
G1 X94.780 Y95.164 E8.40112
G1 X93.634 Y95.386 E8.43356
G1 X88.469 Y100.551 E8.63646
G1 X88.165 Y99.928 E8.65569
G1 X92.469 Y95.624 E8.82479
G1 X91.262 Y95.906 E8.85924
G1 X88.170 Y98.998 E8.98070
G1 X88.241 Y98.813 E8.98622
G1 X88.980 Y97.383 E9.03094
G1 X89.139 Y97.109 E9.03972
G1 X89.673 Y96.569 E9.06083
G1 Z3.600 F7800.000
G1 X89.325 Y101.452 F7800.000
G1 F1200
G1 X89.921 Y102.029 E9.08340
G1 X90.223 Y102.191 E9.09275
G1 X90.546 Y102.312 E9.10214
G1 X91.298 Y102.518 E9.12338
G1 X88.374 Y99.594 E9.23602
G1 X88.239 Y99.252 E9.24603
G1 X88.198 Y99.030 E9.25218
G1 X88.210 Y98.809 E9.25820
G1 X88.279 Y98.591 E9.26442
G1 X92.473 Y102.785 E9.42598
G1 X93.626 Y103.031 E9.45810
G1 X88.559 Y97.963 E9.65332
G1 X88.854 Y97.351 E9.67183
G1 X94.761 Y103.258 E9.89937
G1 X95.242 Y103.338 E9.91265
G1 X95.493 Y103.358 E9.91951
G1 X95.759 Y103.348 E9.92676
G1 X89.158 Y96.747 E10.18105
G1 X89.281 Y96.530 E10.18783
G1 X89.413 Y96.410 E10.19270
G1 X89.612 Y96.294 E10.19899
G1 X96.487 Y103.169 E10.46383
G1 X96.864 Y102.972 E10.47541
G1 X97.053 Y102.827 E10.48190
G1 X90.277 Y96.051 E10.74293
G1 X90.620 Y95.953 E10.75265
G1 X90.998 Y95.864 E10.76321
G1 X97.566 Y102.432 E11.01623
G1 X97.715 Y102.371 E11.02061
G1 X98.625 Y102.583 E11.04607
G1 X91.733 Y95.691 E11.31158
G1 X92.483 Y95.534 E11.33246
G1 X99.748 Y102.799 E11.61233
G1 X100.165 Y102.883 E11.62391
G1 X100.936 Y103.083 E11.64561
G1 X93.235 Y95.378 E11.94235
G1 X93.987 Y95.223 E11.96327
G1 X101.785 Y103.021 E12.26367
G1 X102.504 Y102.832 E12.28391
G1 X94.763 Y95.091 E12.58210
G1 X95.287 Y95.079 E12.59637
G1 X95.750 Y95.170 E12.60923
G1 X103.185 Y102.605 E12.89566
G1 X103.837 Y102.349 E12.91473
G1 X97.484 Y95.996 E13.15949
G1 X98.221 Y95.826 E13.18011
G1 X104.457 Y102.061 E13.42031
G1 X104.745 Y101.899 E13.42931
G1 X105.017 Y101.714 E13.43828
G1 X98.980 Y95.677 E13.67082
G1 X99.739 Y95.528 E13.69187
G1 X105.474 Y101.264 E13.91282
G1 X105.650 Y101.028 E13.92084
G1 X105.834 Y100.716 E13.93070
G1 X100.465 Y95.347 E14.13754
G1 X100.667 Y95.323 E14.14309
G1 X101.022 Y95.352 E14.15280
G1 X101.476 Y95.451 E14.16546
G1 X106.152 Y100.126 E14.34559
G1 X106.464 Y99.531 E14.36390
G1 X102.795 Y95.861 E14.50526
G1 X103.564 Y96.173 E14.52786
G1 X104.174 Y96.480 E14.54647
G1 X104.634 Y96.799 E14.56171
G1 X105.389 Y97.548 E14.59069
M106 S239.7
G1 Z3.900 F7800.000
G1 E12.59069 F2400.00000
G92 E0
G1 X104.443 Y101.347 F7800.000
G1 E2.00000 F2400.00000
G1 F1200
G1 X104.940 Y100.850 E2.01947
G1 X105.304 Y100.421 E2.03506
G1 X105.632 Y99.927 E2.05151
G1 X106.195 Y98.969 E2.08229
G1 X106.089 Y98.778 E2.08836
G1 X102.251 Y102.616 E2.23878
G1 X101.762 Y102.773 E2.25302
G1 X101.208 Y102.901 E2.26879
G1 X101.018 Y102.924 E2.27408
G1 X105.745 Y98.198 E2.45934
G1 X105.385 Y97.634 E2.47787
G1 X100.206 Y102.813 E2.68085
G1 X99.802 Y102.703 E2.69248
G1 X99.448 Y102.648 E2.70240
G1 X104.973 Y97.123 E2.91895
G1 X104.486 Y96.687 E2.93708
G1 X98.648 Y102.524 E3.16587
G1 X97.891 Y102.358 E3.18737
G1 X103.917 Y96.331 E3.42360
G1 X103.503 Y96.110 E3.43660
G1 X103.300 Y96.026 E3.44272
G1 X97.056 Y102.269 E3.68746
G1 X96.870 Y102.340 E3.69296
G1 X96.544 Y102.653 E3.70549
G1 X96.105 Y102.959 E3.72033
G1 X95.835 Y103.091 E3.72865
G1 X95.538 Y103.201 E3.73742
G1 X95.108 Y103.294 E3.74963
G1 X102.629 Y95.773 E4.04442
G1 X101.908 Y95.570 E4.06517
G1 X94.242 Y103.236 E4.36564
G1 X93.479 Y103.076 E4.38727
G1 X101.027 Y95.528 E4.68313
G1 X100.349 Y95.713 E4.70261
G1 X99.836 Y95.795 E4.71699
G1 X92.716 Y102.915 E4.99609
G1 X91.954 Y102.754 E5.01768
G1 X98.708 Y95.999 E5.28243
G1 X97.753 Y96.208 E5.30955
G1 X97.607 Y96.177 E5.31367
G1 X91.197 Y102.586 E5.56491
G1 X90.491 Y102.423 E5.58500
G1 X90.450 Y102.410 E5.58618
G1 X97.063 Y95.797 E5.84537
G1 X96.832 Y95.616 E5.85352
G1 X96.508 Y95.429 E5.86388
G1 X89.757 Y102.179 E6.12847
G1 X89.666 Y102.136 E6.13128
G1 X89.444 Y101.976 E6.13887
G1 X89.299 Y101.714 E6.14716
G1 X95.836 Y95.177 E6.40339
G1 X95.442 Y95.116 E6.41444
G1 X95.226 Y95.113 E6.42043
G1 X94.935 Y95.155 E6.42857
G1 X88.999 Y101.090 E6.66123
G1 X88.711 Y100.455 E6.68057
G1 X93.771 Y95.396 E6.87888
G1 X92.601 Y95.642 E6.91201
G1 X88.451 Y99.791 E7.07465
G1 X88.399 Y99.481 E7.08338
G1 X88.433 Y99.188 E7.09156
G1 X88.601 Y98.718 E7.10537
G1 X91.411 Y95.908 E7.21552
G1 X90.964 Y96.011 E7.22824
G1 X90.555 Y96.129 E7.24003
G1 X90.285 Y96.231 E7.24802
G1 X90.044 Y96.364 E7.25564
G1 X89.440 Y96.956 E7.27910
M106 S242.25
G1 Z4.200 F7800.000
G1 X89.645 Y101.581 F7800.000
G1 F1200
G1 X90.142 Y102.078 E7.29895
G1 X90.284 Y102.169 E7.30372
G1 X90.516 Y102.270 E7.31086
G1 X90.984 Y102.407 E7.32465
G1 X91.533 Y102.528 E7.34052
G1 X88.840 Y99.835 E7.44807
G1 X88.717 Y99.518 E7.45769
G1 X88.649 Y99.276 E7.46478
G1 X88.617 Y99.058 E7.47100
G1 X88.645 Y98.699 E7.48119
G1 X92.749 Y102.803 E7.64512
G1 X92.996 Y102.830 E7.65215
G1 X93.912 Y103.025 E7.67858
G1 X88.880 Y97.993 E7.87958
G1 X89.149 Y97.321 E7.90002
G1 X95.097 Y103.269 E8.13760
G1 X95.350 Y103.248 E8.14478
G1 X95.556 Y103.207 E8.15070
G1 X95.880 Y103.111 E8.16025
G1 X89.444 Y96.675 E8.41729
G1 X89.589 Y96.402 E8.42601
G1 X89.661 Y96.340 E8.42870
G1 X89.914 Y96.204 E8.43682
G1 X96.528 Y102.818 E8.70098
G1 X96.769 Y102.661 E8.70909
G1 X97.067 Y102.416 E8.72000
G1 X90.642 Y95.991 E8.97662
G1 X91.113 Y95.883 E8.99027
G1 X91.363 Y95.770 E8.99801
G1 X97.631 Y102.039 E9.24838
G1 X97.772 Y102.027 E9.25236
G1 X98.771 Y102.237 E9.28120
G1 X92.157 Y95.623 E9.54537
G1 X92.282 Y95.643 E9.54896
G1 X92.974 Y95.500 E9.56892
G1 X99.926 Y102.452 E9.84659
G1 X100.439 Y102.508 E9.86115
G1 X101.075 Y102.660 E9.87963
G1 X93.744 Y95.329 E10.17244
G1 X94.333 Y95.191 E10.18952
G1 X94.521 Y95.164 E10.19487
G1 X101.979 Y102.623 E10.49277
G1 X102.260 Y102.543 E10.50101
G1 X102.684 Y102.386 E10.51377
G1 X95.768 Y95.470 E10.78999
G1 X96.057 Y95.623 E10.79923
G1 X96.305 Y95.790 E10.80767
G1 X96.551 Y95.992 E10.81666
G1 X96.890 Y96.336 E10.83028
G1 X97.226 Y96.408 E10.83998
G1 X97.577 Y96.338 E10.85009
G1 X103.334 Y102.095 E11.08007
G1 X103.553 Y101.985 E11.08697
G1 X103.922 Y101.742 E11.09946
G1 X98.351 Y96.171 E11.32200
G1 X99.145 Y96.024 E11.34480
G1 X104.453 Y101.332 E11.55684
G1 X104.591 Y101.216 E11.56192
G1 X104.924 Y100.862 E11.57565
G1 X99.977 Y95.915 E11.77326
G1 X100.548 Y95.765 E11.78994
G1 X100.742 Y95.739 E11.79546
G1 X105.342 Y100.339 E11.97919
G1 X105.724 Y99.779 E11.99832
G1 X101.862 Y95.918 E12.15255
G1 X102.212 Y96.040 E12.16301
G1 X102.745 Y96.275 E12.17946
G1 X103.345 Y96.618 E12.19897
G1 X103.752 Y96.913 E12.21319
G1 X104.169 Y97.284 E12.22894
G1 X104.666 Y97.781 E12.24879
M106 S249.9
G1 Z4.500 F7800.000
G1 E10.24879 F2400.00000
G92 E0
G1 X104.027 Y100.877 F7800.000
G1 E2.00000 F2400.00000
G1 F1200
G1 X105.020 Y99.870 E2.03839
G1 X105.461 Y99.329 E2.05733
G1 X105.675 Y99.012 E2.06772
G1 X105.696 Y98.958 E2.06929
G1 X105.429 Y98.570 E2.08206
G1 X101.746 Y102.254 E2.22348
G1 X101.344 Y102.372 E2.23484
G1 X100.954 Y102.417 E2.24552
G1 X100.695 Y102.400 E2.25256
G1 X105.022 Y98.074 E2.41867
G1 X104.580 Y97.611 E2.43604
G1 X99.919 Y102.272 E2.61497
G1 X99.661 Y102.247 E2.62202
G1 X99.129 Y102.157 E2.63665
G1 X104.101 Y97.185 E2.82752
G1 X103.574 Y96.808 E2.84512
G1 X98.379 Y102.002 E3.04454
G1 X97.630 Y101.847 E3.06532
G1 X102.995 Y96.482 E3.27131
G1 X102.362 Y96.210 E3.29002
G1 X95.814 Y102.758 E3.54140
G1 X95.656 Y102.833 E3.54616
G1 X95.642 Y102.025 E3.56810
G1 X101.642 Y96.026 E3.79843
G1 X101.313 Y96.015 E3.80735
G1 X100.628 Y96.135 E3.82623
G1 X95.627 Y101.136 E4.01823
G1 X95.616 Y100.424 E4.03754
G1 X95.465 Y100.393 E4.04171
G1 X99.574 Y96.285 E4.19945
G1 X98.435 Y96.519 E4.23101
G1 X94.714 Y100.239 E4.37384
G1 X93.964 Y100.086 E4.39465
G1 X96.008 Y98.041 E4.47313
G1 X94.869 Y98.276 E4.50471
G1 X93.213 Y99.932 E4.56828
G1 X92.463 Y99.778 E4.58908
G1 X93.730 Y98.510 E4.63774
G1 X92.769 Y98.709 E4.66438
G1 X92.638 Y98.697 E4.66793
G1 X91.701 Y99.634 E4.70391
G1 X90.982 Y99.449 E4.72407
G1 X91.477 Y98.954 E4.74305
G1 X95.527 Y98.522 F7800.000
G1 F1200
G1 X97.443 Y96.606 E4.81659
G1 X97.338 Y96.524 E4.82021
G1 X96.986 Y96.159 E4.83399
G1 X95.589 Y97.556 E4.88762
G1 X95.650 Y96.590 E4.91389
G1 X96.474 Y95.766 E4.94552
G1 E2.94552 F2400.00000
G92 E0
G1 X94.888 Y97.869 F7800.000
G1 E2.00000 F2400.00000
M106 S255

G1 F3600
G1 X95.529 Y97.724 E2.01871
G1 X95.566 Y97.146 E2.03521
G1 X89.223 Y98.579 E2.22031
G1 X89.008 Y98.102 E2.23519
G1 X89.026 Y98.054 E2.23667
G1 X95.603 Y96.567 E2.42859
G1 X95.639 Y95.989 E2.44509
G1 X89.249 Y97.433 E2.63158
G1 X89.542 Y96.797 E2.65152
G1 X95.496 Y95.451 E2.82527
G1 X95.241 Y95.382 E2.83279
G1 X94.952 Y95.354 E2.84105
G1 X93.200 Y95.742 E2.89211
G1 X93.199 Y95.768 E2.89287
G1 X92.818 Y95.638 E2.90432
G1 X92.461 Y95.589 E2.91459
G1 X92.218 Y95.622 E2.92155
G1 X91.582 Y95.765 E2.94011
M106 S249.9

G1 X89.922 Y101.885 F7800.000
M106 S255

G1 F3600
G1 X90.691 Y102.230 E2.96466
G1 X91.521 Y102.457 E2.98972
G1 X91.646 Y102.580 E2.99483
G1 X91.934 Y102.775 E3.00496
G1 X92.185 Y102.872 E3.01279
G1 X92.393 Y102.904 E3.01892
G1 X92.531 Y102.904 E3.02294
G1 X92.784 Y102.860 E3.03041
G1 X93.034 Y102.762 E3.03822
G1 X93.136 Y102.763 E3.04118
G1 X89.283 Y100.967 E3.16496
G1 X89.058 Y100.330 E3.18462
G1 X89.093 Y100.258 E3.18694
G1 X95.206 Y103.109 E3.38332
G1 X95.610 Y103.003 E3.39551
G1 X95.605 Y102.675 E3.40505
G1 X89.337 Y99.752 E3.60642
G1 X89.546 Y99.318 E3.62046
G1 X89.969 Y99.427 E3.63317
G1 X95.594 Y102.050 E3.81390
G1 X95.584 Y101.425 E3.83210
G1 X92.608 Y100.038 E3.92770
G1 X93.467 Y100.214 E3.95321
G1 X93.490 Y100.331 E3.95670
G1 X93.713 Y100.264 E3.96348
G1 X94.982 Y100.524 E4.00120
G1 X95.573 Y100.800 E4.02020
M106 S249.9

M106 S244.8
G1 Z4.800 F7800.000
G1 X90.414 Y102.135 F7800.000
G1 F1200
G1 X89.808 Y101.513 E4.04469
G1 X89.507 Y100.842 E4.06545
G1 X89.263 Y100.044 E4.08902
G1 X92.248 Y103.029 E4.20816
G1 X92.501 Y103.041 E4.21533
G1 X92.722 Y103.004 E4.22165
G1 X93.031 Y102.871 E4.23114
G1 X89.061 Y98.902 E4.38961
G1 X89.099 Y98.543 E4.39979
G1 X89.203 Y98.102 E4.41257
G1 X94.068 Y102.967 E4.60679
G1 X94.720 Y103.132 E4.62577
G1 X94.822 Y103.132 E4.62867
G1 X95.099 Y103.058 E4.63676
G1 X89.416 Y97.375 E4.86365
G1 X89.550 Y96.974 E4.87558
G1 X89.679 Y96.697 E4.88419
G1 X95.802 Y102.820 E5.12863
G1 X96.097 Y102.692 E5.13772
G1 X96.427 Y102.505 E5.14843
G1 X90.108 Y96.186 E5.40068
G1 X90.814 Y95.952 E5.42168
G1 X96.953 Y102.090 E5.66673
G1 X97.333 Y101.684 E5.68244
G1 X97.421 Y101.618 E5.68555
G1 X91.342 Y95.539 E5.92822
G1 X91.540 Y95.446 E5.93439
G1 X91.767 Y95.393 E5.94096
G1 X92.006 Y95.387 E5.94773
G1 X92.158 Y95.414 E5.95207
G1 X98.239 Y101.495 E6.19485
G1 X99.458 Y101.773 E6.23012
G1 X93.223 Y95.538 E6.47900
G1 X93.982 Y95.356 E6.50102
G1 X100.644 Y102.019 E6.76701
G1 X101.186 Y102.084 E6.78241
G1 X101.448 Y102.094 E6.78981
G1 X101.642 Y102.076 E6.79531
G1 X95.090 Y95.524 E7.05688
G1 X95.468 Y95.672 E7.06834
G1 X95.751 Y95.813 E7.07727
G1 X96.029 Y95.985 E7.08649
G1 X96.380 Y96.259 E7.09907
G1 X96.620 Y96.496 E7.10859
G1 X96.994 Y96.927 E7.12469
G1 X97.363 Y97.013 E7.13539
G1 X97.494 Y96.987 E7.13915
G1 X102.392 Y101.885 E7.33469
G1 X103.037 Y101.589 E7.35472
G1 X98.267 Y96.820 E7.54513
G1 X99.029 Y96.641 E7.56722
G1 X103.626 Y101.239 E7.75076
G1 X103.933 Y101.025 E7.76130
G1 X104.164 Y100.836 E7.76974
G1 X99.788 Y96.460 E7.94444
G1 X100.620 Y96.351 E7.96812
G1 X104.666 Y100.397 E8.12964
G1 X104.927 Y100.146 E8.13986
G1 X105.128 Y99.918 E8.14844
G1 X101.685 Y96.475 E8.28588
G1 X101.870 Y96.533 E8.29138
G1 X102.315 Y96.720 E8.30498
G1 X102.882 Y97.025 E8.32318
G1 X103.422 Y97.390 E8.34156
G1 X103.881 Y97.759 E8.35818
G1 X104.912 Y98.762 E8.39878
M106 S247.35
G1 Z5.100 F7800.000
G1 X104.438 Y99.849 F7800.000
G1 F1200
G1 X104.987 Y99.292 E8.42036
G1 X104.873 Y99.188 E8.42459
G1 X105.132 Y98.808 E8.43727
G1 X104.856 Y98.513 E8.44842
G1 X101.813 Y101.556 E8.56704
G1 X101.617 Y101.623 E8.57277
G1 X101.226 Y101.712 E8.58381
G1 X100.851 Y101.744 E8.59421
G1 X100.715 Y101.735 E8.59794
G1 X104.372 Y98.078 E8.74051
G1 X104.073 Y97.833 E8.75117
G1 X103.851 Y97.681 E8.75861
G1 X99.933 Y101.599 E8.91138
G1 X99.350 Y101.363 E8.92871
G1 X99.581 Y101.032 E8.93982
G1 X103.292 Y97.321 E9.08451
G1 X102.682 Y97.012 E9.10336
G1 X98.663 Y101.031 E9.26005
G1 X98.230 Y100.757 E9.27418
G1 X98.121 Y100.654 E9.27831
G1 X101.998 Y96.778 E9.42945
G1 X101.776 Y96.726 E9.43572
G1 X101.400 Y96.684 E9.44616
G1 X101.167 Y96.690 E9.45258
G1 X97.723 Y100.134 E9.58688
G1 X97.491 Y99.828 E9.59746
G1 X97.398 Y100.458 E9.61502
G1 X95.141 Y102.716 E9.70304
G1 X94.208 Y103.030 E9.73018
G1 X94.122 Y103.043 E9.73258
G1 X93.936 Y103.002 E9.73783
G1 X99.887 Y97.051 E9.96986
G1 X99.174 Y97.385 E9.99159
G1 X98.741 Y97.657 E10.00568
G1 X98.253 Y98.184 E10.02549
G1 X98.038 Y97.981 E10.03364
G1 X93.186 Y102.833 E10.22284
G1 X92.967 Y102.791 E10.22899
G1 X92.639 Y102.832 E10.23810
G1 X92.322 Y102.988 E10.24784
G1 X92.056 Y103.044 E10.25534
G1 X97.646 Y97.455 E10.47327
G1 X97.396 Y97.065 E10.48604
G1 X97.271 Y96.911 E10.49151
G1 X91.303 Y102.879 E10.72420
G1 X91.116 Y102.744 E10.73057
G1 X90.906 Y102.513 E10.73916
G1 X90.806 Y102.457 E10.74233
G1 X96.829 Y96.434 E10.97720
G1 X96.602 Y96.229 E10.98563
G1 X96.310 Y96.034 E10.99531
G1 X90.146 Y102.198 E11.23566
G1 X90.030 Y102.121 E11.23949
G1 X89.961 Y102.037 E11.24251
G1 X89.770 Y101.656 E11.25426
G1 X95.690 Y95.735 E11.48510
G1 X95.390 Y95.616 E11.49402
G1 X95.009 Y95.498 E11.50501
G1 X89.554 Y100.953 E11.71772
G1 X89.393 Y100.196 E11.73906
G1 X94.075 Y95.513 E11.92164
G1 X93.319 Y95.664 E11.94291
G1 X93.090 Y95.579 E11.94963
G1 X89.305 Y99.365 E12.09722
G1 X89.333 Y99.026 E12.10660
G1 X89.493 Y98.258 E12.12821
G1 X92.379 Y95.372 E12.24075
G1 X92.146 Y95.403 E12.24724
G1 X91.926 Y95.477 E12.25364
G1 X91.691 Y95.617 E12.26116
G1 X91.572 Y95.719 E12.26547
G1 X91.426 Y95.885 E12.27157
G1 X91.175 Y96.036 E12.27966
G1 X90.898 Y96.117 E12.28760
G1 X90.564 Y96.276 E12.29781
G1 X89.996 Y96.836 E12.31982
M106 S249.9
G1 Z5.400 F7800.000
G1 E10.31982 F2400.00000
G92 E0
G1 X90.158 Y101.597 F7800.000
G1 E2.00000 F2400.00000
G1 F1200
G1 X90.747 Y102.169 E2.02323
G1 X90.982 Y102.283 E2.03064
G1 X91.292 Y102.379 E2.03981
G1 X91.692 Y102.633 E2.05321
G1 X91.642 Y102.702 E2.05561
G1 X91.779 Y102.815 E2.06064
G1 X92.059 Y102.952 E2.06945
G1 X92.369 Y103.006 E2.07836
G1 X92.491 Y102.998 E2.08180
G1 X89.728 Y100.236 E2.19233
G1 X89.586 Y99.163 E2.22294
G1 X93.176 Y102.753 E2.36656
G1 X93.448 Y102.740 E2.37426
G1 X94.036 Y102.848 E2.39117
G1 X94.034 Y102.832 E2.39164
G1 X94.236 Y102.881 E2.39751
G1 X89.639 Y98.284 E2.58143
G1 X89.767 Y97.482 E2.60443
G1 X95.045 Y102.760 E2.81562
G1 X95.519 Y102.600 E2.82976
G1 X95.726 Y102.510 E2.83616
G1 X89.944 Y96.728 E3.06749
G1 X90.105 Y96.407 E3.07766
G1 X90.173 Y96.321 E3.08075
G1 X90.267 Y96.248 E3.08411
G1 X90.351 Y96.204 E3.08680
G1 X96.348 Y102.201 E3.32674
G1 X96.762 Y101.889 E3.34142
G1 X96.866 Y101.788 E3.34551
G1 X90.989 Y95.911 E3.58063
G1 X91.272 Y95.757 E3.58974
G1 X91.204 Y95.675 E3.59273
G1 X91.225 Y95.657 E3.59349
G1 X91.406 Y95.543 E3.59957
G1 X91.513 Y95.504 E3.60278
G1 X97.294 Y101.286 E3.83409
G1 X97.468 Y101.026 E3.84294
G1 X97.633 Y100.693 E3.85343
G1 X92.625 Y95.686 E4.05380
G1 X92.959 Y95.688 E4.06323
G1 X93.466 Y95.595 E4.07782
G1 X97.757 Y99.887 E4.24952
G1 X97.772 Y99.341 E4.26497
G1 X97.990 Y99.189 E4.27250
G1 X94.432 Y95.630 E4.41487
G1 X95.175 Y95.886 E4.43709
G1 X95.694 Y96.131 E4.45333
G1 X96.003 Y96.330 E4.46373
G1 X96.250 Y96.524 E4.47262
G1 X97.020 Y97.288 E4.50330
G1 X98.401 Y98.513 F7800.000
G1 F1200
G1 X99.011 Y99.123 E4.52771
G1 X98.633 Y99.688 F7800.000
G1 F1200
G1 X98.139 Y99.193 E4.54749
G1 X98.248 Y99.154 E4.55079
G1 X98.212 Y99.022 E4.55469
G1 X98.558 Y98.670 E4.56865
G1 X101.253 Y101.365 E4.67646
G1 X101.432 Y101.361 E4.68153
G1 X101.836 Y101.305 E4.69307
G1 X102.070 Y101.240 E4.69996
G1 X98.901 Y98.071 E4.82675
G1 X99.423 Y97.649 E4.84572
G1 X102.774 Y101.000 E4.97979
G1 X103.404 Y100.687 E4.99969
G1 X99.986 Y97.270 E5.13642
G1 X100.185 Y97.160 E5.14285
G1 X100.355 Y97.097 E5.14797
G1 X100.575 Y97.068 E5.15426
G1 X100.727 Y97.068 E5.15857
G1 X103.981 Y100.322 E5.28875
G1 X104.343 Y100.067 E5.30128
G1 X104.520 Y99.918 E5.30782
G1 X101.873 Y97.271 E5.41372
G1 X102.458 Y97.508 E5.43161
G1 X103.022 Y97.805 E5.44962
G1 X103.572 Y98.157 E5.46810
G1 X104.137 Y98.599 E5.48839
G1 X105.002 Y99.458 E5.52287
G1 E3.52287 F2400.00000
G92 E0
G1 X97.850 Y99.979 F7800.000
G1 E2.00000 F2400.00000
G1 F1200
G1 X97.358 Y99.472 E2.01997
G1 X97.355 Y99.485 E2.02033
M106 S252.45
G1 Z5.700 F7800.000
G1 X98.927 Y98.838 F7800.000
G1 F1200
G1 X98.432 Y99.333 E2.04078
G1 X98.426 Y99.585 E2.04815
G1 X98.839 Y99.899 E2.06331
G1 X101.259 Y97.479 E2.16328
G1 X101.552 Y97.497 E2.17186
G1 X102.103 Y97.608 E2.18830
G1 X99.393 Y100.319 E2.30030
G1 X99.965 Y100.721 E2.32072
G1 X102.825 Y97.861 E2.43889
G1 X103.261 Y98.054 E2.45283
G1 X103.482 Y98.177 E2.46022
G1 X100.706 Y100.953 E2.57493
G1 X101.076 Y100.929 E2.58576
G1 X101.479 Y100.855 E2.59774
G1 X101.897 Y100.735 E2.61046
G1 X104.091 Y98.541 E2.70110
G1 X104.363 Y98.727 E2.71071
G1 X104.636 Y98.968 E2.72136
G1 X104.134 Y99.472 E2.74215
G1 E0.74215 F2400.00000
G92 E0
G1 X96.314 Y101.677 F7800.000
G1 E2.00000 F2400.00000
G1 F1200
G1 X97.091 Y100.882 E2.03006
G1 X97.270 Y100.645 E2.03809
G1 X97.335 Y100.532 E2.04161
G1 X97.254 Y100.493 E2.04402
G1 X97.536 Y99.926 E2.06115
G1 X97.607 Y99.958 E2.06326
G1 X97.653 Y99.836 E2.06681
G1 X97.734 Y99.470 E2.07692
G1 X97.745 Y99.344 E2.08036
G1 X94.486 Y102.603 E2.20502
G1 X93.863 Y102.833 E2.22295
G1 X93.425 Y102.763 E2.23496
G1 X97.727 Y98.461 E2.39947
G1 X97.691 Y98.241 E2.40551
G1 X97.555 Y97.828 E2.41725
G1 X97.487 Y97.865 E2.41935
G1 X97.463 Y97.824 E2.42064
G1 X92.595 Y102.692 E2.60681
G1 X92.538 Y102.699 E2.60836
G1 X92.310 Y102.817 E2.61531
G1 X92.105 Y102.874 E2.62107
G1 X91.897 Y102.892 E2.62671
G1 X91.664 Y102.859 E2.63307
G1 X91.564 Y102.821 E2.63596
G1 X97.121 Y97.264 E2.84847
G1 X96.966 Y97.033 E2.85600
G1 X97.032 Y96.986 E2.85818
G1 X96.767 Y96.717 E2.86838
G1 X91.051 Y102.434 E3.08700
G1 X90.782 Y102.142 E3.09772
G1 X90.697 Y102.286 E3.10223
G1 X90.424 Y102.159 E3.11035
G1 X96.248 Y96.336 E3.33306
G1 X96.081 Y96.238 E3.33829
G1 X95.636 Y96.046 E3.35138
G1 X90.094 Y101.588 E3.56335
G1 X90.042 Y101.289 E3.57155
G1 X90.012 Y100.769 E3.58564
G1 X94.962 Y95.820 E3.77494
G1 X94.393 Y95.611 E3.79133
G1 X94.274 Y95.606 E3.79455
G1 X89.948 Y99.932 E3.96000
G1 X89.925 Y99.283 E3.97756
G1 X89.943 Y99.036 E3.98428
G1 X93.225 Y95.754 E4.10977
G1 X93.041 Y95.729 E4.11479
G1 X92.721 Y95.586 E4.12426
G1 X92.528 Y95.549 E4.12957
G1 X90.016 Y98.061 E4.22563
G1 X90.053 Y97.550 E4.23948
G1 X90.147 Y97.155 E4.25047
G1 X90.264 Y96.937 E4.25717
G1 X90.350 Y96.826 E4.26096
G1 X90.847 Y96.330 E4.27994
M106 S255
G1 Z6.000 F7800.000
G1 X91.090 Y102.140 F7800.000
G1 F1098.72
G1 X90.565 Y101.614 E4.30113
G1 X90.440 Y101.418 E4.30776
G1 X90.370 Y101.216 E4.31383
G1 X90.350 Y100.842 E4.32450
G1 X90.385 Y100.486 E4.33470
G1 X92.565 Y102.666 E4.42256
G1 X92.671 Y102.642 E4.42564
G1 X92.669 Y102.510 E4.42942
G1 X93.467 Y102.618 E4.45236
G1 X90.381 Y99.532 E4.57673
G1 X90.337 Y98.901 E4.59477
G1 X90.363 Y98.565 E4.60438
G1 X94.411 Y102.613 E4.76755
G1 X95.132 Y102.384 E4.78910
G1 X90.406 Y97.657 E4.97963
G1 X90.346 Y97.015 E4.99801
G1 X90.380 Y96.681 E5.00757
G1 X95.837 Y102.139 E5.22756
G1 X96.108 Y102.012 E5.23608
G1 X96.449 Y101.801 E5.24751
G1 X90.827 Y96.180 E5.47408
G1 X90.876 Y96.165 E5.47552
G1 X90.901 Y96.230 E5.47751
G1 X91.277 Y95.998 E5.49010
G1 X91.324 Y95.988 E5.49145
G1 X91.471 Y95.874 E5.49677
G1 X96.956 Y101.358 E5.71783
G1 X97.241 Y100.983 E5.73124
G1 X97.344 Y100.796 E5.73733
G1 X92.383 Y95.835 E5.93730
G1 X92.816 Y95.922 E5.94988
G1 X92.819 Y95.829 E5.95253
G1 X93.264 Y95.767 E5.96533
G1 X97.574 Y100.076 E6.13905
G1 X97.610 Y99.809 E6.14674
G1 X97.608 Y99.162 E6.16519
G1 X94.431 Y95.984 E6.29326
G1 X95.073 Y96.184 E6.31242
G1 X95.595 Y96.407 E6.32859
G1 X95.863 Y96.562 E6.33743
G1 X96.126 Y96.754 E6.34671
G1 X96.897 Y97.500 E6.37730
G1 E4.37730 F2400.00000
G92 E0
G1 X99.286 Y99.601 F7800.000
G1 E2.00000 F2400.00000
G1 F1098.72
G1 X98.791 Y99.106 E2.02022
G1 X98.879 Y98.930 E2.02593
G1 X98.766 Y98.844 E2.03004
G1 X99.203 Y98.554 E2.04522
G1 X101.160 Y100.511 E2.12527
G1 X101.543 Y100.481 E2.13638
G1 X102.004 Y100.392 E2.14998
G1 X99.798 Y98.185 E2.24022
G1 X100.184 Y97.990 E2.25274
G1 X100.502 Y97.926 E2.26213
G1 X102.740 Y100.163 E2.35364
G1 X103.413 Y99.873 E2.37485
G1 X101.598 Y98.058 E2.44908
G1 X102.065 Y98.198 E2.46318
G1 X102.616 Y98.414 E2.48029
G1 X103.088 Y98.639 E2.49541
G1 X103.215 Y98.711 E2.49962
G1 X103.709 Y99.205 E2.51985
M106 S252.45
G1 Z6.300 F7800.000
G1 E0.51985 F2400.00000
G92 E0
G1 X96.337 Y101.347 F7800.000
G1 E2.00000 F2400.00000
G1 F900
G1 X96.833 Y100.851 E2.01928
G1 X97.111 Y100.497 E2.03165
G1 X97.235 Y100.244 E2.03940
G1 X97.352 Y99.850 E2.05070
G1 X97.413 Y99.356 E2.06437
G1 X94.542 Y102.227 E2.17594
G1 X93.474 Y102.559 E2.20666
G1 X93.293 Y102.560 E2.21164
G1 X97.403 Y98.449 E2.37137
G1 X97.352 Y98.080 E2.38163
G1 X97.235 Y97.702 E2.39249
G1 X92.465 Y102.472 E2.57785
G1 X91.662 Y102.359 E2.60012
G1 X96.883 Y97.138 E2.80299
G1 X96.667 Y96.935 E2.81115
G1 X96.377 Y96.729 E2.82092
G1 X91.045 Y102.061 E3.02813
G1 X90.992 Y101.603 E3.04081
G1 X90.694 Y101.608 E3.04900
G1 X90.722 Y101.469 E3.05290
G1 X95.758 Y96.433 E3.24858
G1 X95.543 Y96.345 E3.25495
G1 X95.067 Y96.208 E3.26856
G1 X90.874 Y100.401 E3.43149
G1 X90.784 Y99.575 E3.45430
G1 X94.358 Y96.001 E3.59318
G1 X93.964 Y95.867 E3.60462
G1 X93.557 Y95.887 E3.61583
G1 X90.871 Y98.573 E3.72020
G1 X90.869 Y98.169 E3.73130
G1 X90.786 Y97.743 E3.74324
G1 X92.524 Y96.004 E3.81079
G1 X91.686 Y96.150 E3.83417
G1 X91.370 Y96.250 E3.84327
G1 X90.803 Y96.809 E3.86515
G1 E1.86515 F2400.00000
G92 E0
G1 X99.687 Y99.089 F7800.000
G1 E2.00000 F2400.00000
G1 F900
G1 X99.091 Y99.404 E2.02180
G1 X99.073 Y99.517 E2.02550
G1 X99.193 Y99.583 E2.02994
G1 X100.181 Y98.595 E2.07518
G1 X100.647 Y98.434 E2.09115
G1 X100.861 Y98.399 E2.09814
G1 X101.092 Y98.390 E2.10562
G1 X101.433 Y98.422 E2.11673
G1 X99.931 Y99.924 E2.18551
G1 X100.154 Y99.995 E2.19308
G1 X100.560 Y100.038 E2.20631
G1 X100.927 Y100.007 E2.21821
G1 X102.326 Y98.608 E2.28228
G1 X102.942 Y98.809 E2.30325
G1 X102.851 Y99.161 E2.31502
G1 X102.356 Y99.656 E2.33767
M106 S255
G1 Z6.600 F7800.000
G1 E0.33767 F2400.00000
G92 E0
G1 X96.627 Y97.579 F7800.000
G1 E2.00000 F2400.00000
G1 F711.512
G1 X96.131 Y97.082 E2.02010
G1 X95.886 Y96.876 E2.02924
G1 X95.727 Y96.776 E2.03462
G1 X95.459 Y96.646 E2.04315
G1 X94.885 Y96.458 E2.06043
G1 X94.441 Y96.347 E2.07355
G1 X97.186 Y99.091 E2.18465
G1 X97.201 Y99.324 E2.19134
G1 X97.174 Y100.033 E2.21163
G1 X93.173 Y96.032 E2.37357
G1 X92.941 Y96.024 E2.38023
G1 X92.263 Y96.076 E2.39967
G1 X96.989 Y100.802 E2.59098
G1 X96.823 Y101.109 E2.60095
G1 X96.602 Y101.369 E2.61073
G1 X91.423 Y96.190 E2.82037
G1 X91.250 Y96.242 E2.82554
G1 X91.129 Y96.320 E2.82966
G1 X91.059 Y96.399 E2.83268
G1 X91.029 Y96.507 E2.83590
G1 X91.064 Y96.716 E2.84194
G1 X91.102 Y96.823 E2.84519
G1 X96.025 Y101.746 E3.04448
G1 X95.613 Y101.903 E3.05711
G1 X95.308 Y101.982 E3.06613
G1 X91.363 Y98.037 E3.22581
G1 X91.242 Y98.870 E3.24989
G1 X94.547 Y102.175 E3.38369
G1 X93.793 Y102.375 E3.40602
G1 X91.368 Y99.950 E3.50418
G1 X91.350 Y100.345 E3.51552
G1 X91.314 Y100.512 E3.52039
G1 X91.225 Y100.761 E3.52796
G1 X92.824 Y102.359 E3.59268
G1 X92.129 Y102.281 E3.61270
G1 X91.808 Y102.213 E3.62209
G1 X91.600 Y102.090 E3.62899
G1 X91.105 Y101.594 E3.64906
G1 E1.64906 F2400.00000
G92 E0
G1 X100.466 Y98.868 F7800.000
G1 E2.00000 F2400.00000
G1 F711.512
G1 X101.159 Y99.561 E2.03172
G1 X101.648 Y98.971 F7800.000
G1 F711.512
G1 X102.142 Y99.465 E2.05435
G1 Z6.900 F7800.000
G1 E0.05435 F2400.00000
G92 E0
G1 X95.976 Y101.054 F7800.000
G1 E2.00000 F2400.00000
G1 F600
G1 X96.583 Y100.444 E2.02462
G1 X96.694 Y100.290 E2.03004
G1 X96.782 Y100.117 E2.03559
G1 X96.861 Y99.880 E2.04275
G1 X96.936 Y99.400 E2.05662
G1 X96.940 Y99.138 E2.06413
G1 X94.186 Y101.891 E2.17547
G1 X92.934 Y102.190 E2.21228
G1 X96.896 Y98.229 E2.37247
G1 X96.844 Y98.007 E2.37897
G1 X96.685 Y98.164 E2.38534
G1 X96.333 Y97.839 E2.39906
G1 X91.983 Y102.188 E2.57493
G1 X91.670 Y102.087 E2.58436
G1 X91.549 Y102.019 E2.58833
G1 X91.501 Y101.901 E2.59198
G1 X91.540 Y101.736 E2.59680
G1 X91.600 Y101.619 E2.60057
G1 X96.101 Y97.118 E2.78259
G1 X95.464 Y96.803 E2.80293
G1 X91.888 Y100.378 E2.94749
G1 X91.742 Y99.756 E2.96576
G1 X91.723 Y99.590 E2.97053
G1 X94.760 Y96.553 E3.09333
G1 X93.990 Y96.371 E3.11597
G1 X91.902 Y98.458 E3.20037
G1 X91.921 Y98.176 E3.20847
G1 X91.894 Y97.967 E3.21450
G1 X91.837 Y97.780 E3.22008
G1 X91.770 Y97.638 E3.22456
G1 X93.187 Y96.221 E3.28189
G1 X92.529 Y96.231 E3.30071
G1 X92.377 Y96.258 E3.30512
G1 X92.212 Y96.319 E3.31017
G1 X92.047 Y96.408 E3.31553
G1 X91.552 Y96.903 E3.33552
G1 Z7.200 F7800.000
G1 E1.33552 F2400.00000
G92 E0
G1 X93.155 Y99.695 F7800.000
G1 E2.00000 F2400.00000
G1 F600
G1 X93.374 Y99.801 E2.00665
G1 X93.339 Y99.880 E2.00899
G1 X94.219 Y100.759 E2.04293
G1 X92.559 Y100.009 F7800.000
G1 F600
G1 X93.053 Y100.503 E2.06203
G1 X93.322 Y100.031 E2.07686
G1 X93.649 Y100.190 E2.08678
G1 X92.224 Y98.765 E2.14178
G1 X92.280 Y98.560 E2.14757
G1 X92.469 Y98.099 E2.16116
G1 X95.046 Y100.677 E2.26064
G1 X95.517 Y100.650 E2.27353
G1 X95.944 Y100.665 E2.28517
G1 X92.899 Y97.620 E2.40271
G1 X93.345 Y97.629 E2.41489
G1 X93.871 Y97.682 E2.42931
G1 X96.530 Y100.342 E2.53198
G1 X96.623 Y100.053 E2.54027
G1 X96.666 Y99.568 E2.55356
G1 X94.868 Y97.770 E2.62295
G1 X95.585 Y97.768 E2.64251
G1 X95.733 Y97.800 E2.64665
G1 X95.878 Y97.875 E2.65110
G1 X96.437 Y98.430 E2.67261
G1 Z7.500 F7800.000
G1 X95.719 Y100.066 F7800.000
G1 F600
G1 X96.215 Y99.570 E2.69332
G1 X96.260 Y99.497 E2.69588
G1 X96.323 Y99.288 E2.70234
G1 X96.346 Y98.853 E2.71522
G1 X96.326 Y98.654 E2.72111
G1 X96.285 Y98.514 E2.72542
G1 X94.566 Y100.234 E2.79730
G1 X93.543 Y100.272 E2.82755
G1 X95.605 Y98.210 E2.91372
G1 X94.658 Y98.172 E2.94172
G1 X92.888 Y99.941 E3.01571
G1 X92.733 Y99.612 E3.02649
G1 X92.714 Y99.408 E3.03254
G1 X92.726 Y99.332 E3.03482
G1 X92.820 Y99.087 E3.04259
G1 X92.936 Y98.910 E3.04883
G1 X93.535 Y98.310 E3.07387
G1 Z7.800 F7800.000
G1 X93.818 Y99.298 F7800.000
G1 F600
G1 X93.772 Y99.388 E3.07715
G1 X93.765 Y99.498 E3.08072
G1 X93.824 Y99.647 E3.08591
G1 X93.934 Y99.774 E3.09134
G1 X94.103 Y99.870 E3.09764
G1 X94.432 Y99.912 E3.10837
G1 X93.324 Y98.804 E3.15911
G1 X93.358 Y98.738 E3.16151
G1 X93.450 Y98.642 E3.16581
G1 X93.644 Y98.547 E3.17280
G1 X93.854 Y98.515 E3.17967
G1 X94.115 Y98.516 E3.18812
G1 X95.449 Y99.850 E3.24921
G1 X95.858 Y99.181 F7800.000
G1 F600
G1 X95.364 Y98.686 E3.27184
G1 Z8.100 F7800.000
G1 E1.27184 F2400.00000
G92 E0
M107
; Filament-specific end gcode 
;END gcode for filament

M104 S0 ; turn off temperature
G28 X0  ; home X axis
M84     ; disable motors

M140 S0 ; set bed temperature
; filament used = 118.4mm (0.8cm3)
; total filament cost = 0.0

; avoid_crossing_perimeters = 0
; bed_shape = 0x0,200x0,200x200,0x200
; bed_temperature = 0
; before_layer_gcode = 
; between_objects_gcode = 
; bridge_acceleration = 0
; bridge_fan_speed = 100
; brim_connections_width = 0
; brim_width = 0
; complete_objects = 0
; cooling = 1
; default_acceleration = 0
; disable_fan_first_layers = 3
; duplicate_distance = 6
; end_filament_gcode = "; Filament-specific end gcode \n;END gcode for filament\n"
; end_gcode = M104 S0 ; turn off temperature\nG28 X0  ; home X axis\nM84     ; disable motors\n
; extruder_clearance_height = 20
; extruder_clearance_radius = 20
; extruder_offset = 0x0
; extrusion_axis = E
; extrusion_multiplier = 1
; fan_always_on = 0
; fan_below_layer_time = 60
; filament_colour = #FFFFFF
; filament_cost = 0
; filament_density = 0
; filament_diameter = 3
; filament_max_volumetric_speed = 0
; filament_notes = ""
; first_layer_acceleration = 0
; first_layer_bed_temperature = 0
; first_layer_extrusion_width = 200%
; first_layer_speed = 30
; first_layer_temperature = 205
; gcode_arcs = 0
; gcode_comments = 0
; gcode_flavor = reprap
; has_heatbed = 1
; infill_acceleration = 0
; infill_first = 0
; interior_brim_width = 0
; layer_gcode = 
; max_fan_speed = 100
; max_layer_height = 0.3
; max_print_speed = 80
; max_volumetric_speed = 0
; min_fan_speed = 35
; min_layer_height = 0.15
; min_print_speed = 10
; min_skirt_length = 0
; notes = 
; nozzle_diameter = 0.5
; only_retract_when_crossing_perimeters = 1
; ooze_prevention = 0
; output_filename_format = [input_filename_base].gcode
; perimeter_acceleration = 0
; post_process = 
; pressure_advance = 0
; printer_notes = 
; resolution = 0
; retract_before_travel = 2
; retract_layer_change = 0
; retract_length = 2
; retract_length_toolchange = 10
; retract_lift = 0
; retract_lift_above = 0
; retract_lift_below = 0
; retract_restart_extra = 0
; retract_restart_extra_toolchange = 0
; retract_speed = 40
; skirt_distance = 6
; skirt_height = 1
; skirts = 0
; slowdown_below_layer_time = 5
; spiral_vase = 0
; standby_temperature_delta = -5
; start_filament_gcode = "; Filament gcode\n"
; start_gcode = G28 ; home all axes\nG1 Z5 F5000 ; lift nozzle\n
; temperature = 200
; threads = 8
; toolchange_gcode = 
; travel_speed = 130
; use_firmware_retraction = 0
; use_relative_e_distances = 0
; use_set_and_wait_bed = 0
; use_set_and_wait_extruder = 0
; use_volumetric_e = 0
; vibration_limit = 0
; wipe = 0
; z_offset = 0
; z_steps_per_mm = 0
; adaptive_slicing = 0
; adaptive_slicing_quality = 75%
; dont_support_bridges = 1
; extrusion_width = 0
; first_layer_height = 0.3
; infill_only_where_needed = 0
; interface_shells = 0
; layer_height = 0.3
; match_horizontal_surfaces = 0
; raft_layers = 0
; regions_overlap = 0
; seam_position = aligned
; sequential_print_priority = 0
; support_material = 0
; support_material_angle = 0
; support_material_buildplate_only = 0
; support_material_contact_distance = 0.2
; support_material_enforce_layers = 0
; support_material_extruder = 1
; support_material_extrusion_width = 0
; support_material_interface_extruder = 1
; support_material_interface_extrusion_width = 0
; support_material_interface_layers = 3
; support_material_interface_spacing = 0
; support_material_interface_speed = 100%
; support_material_max_layers = 0
; support_material_pattern = pillars
; support_material_spacing = 2.5
; support_material_speed = 60
; support_material_threshold = 60%
; xy_size_compensation = 0
; bottom_infill_pattern = rectilinear
; bottom_solid_layers = 3
; bridge_flow_ratio = 1
; bridge_speed = 60
; external_perimeter_extrusion_width = 0
; external_perimeter_speed = 50%
; external_perimeters_first = 0
; extra_perimeters = 1
; fill_angle = 45
; fill_density = 90%
; fill_gaps = 1
; fill_pattern = rectilinear
; gap_fill_speed = 20
; infill_every_layers = 1
; infill_extruder = 1
; infill_extrusion_width = 0
; infill_overlap = 55%
; infill_speed = 80
; overhangs = 1
; perimeter_extruder = 1
; perimeter_extrusion_width = 0
; perimeter_speed = 60
; perimeters = 0
; small_perimeter_speed = 15
; solid_infill_below_area = 70
; solid_infill_every_layers = 0
; solid_infill_extruder = 1
; solid_infill_extrusion_width = 0
; solid_infill_speed = 20
; thin_walls = 1
; top_infill_extrusion_width = 0
; top_infill_pattern = rectilinear
; top_solid_infill_speed = 15
; top_solid_layers = 3
