; generated by Slic3r 1.3.0 on 2020-02-25 at 13:36:54

; external perimeters extrusion width = 0.55mm (4.37mm^3/s)
; perimeters extrusion width = 0.70mm (11.44mm^3/s)
; infill extrusion width = 0.63mm (13.45mm^3/s)
; solid infill extrusion width = 0.70mm (3.81mm^3/s)
; top infill extrusion width = 0.70mm (2.86mm^3/s)

M107
M104 S205 ; set temperature
G28 ; home all axes
G1 Z5 F5000 ; lift nozzle

; Filament gcode
G1 Z6.900 F7800.000
G1 X95.907 Y98.587 F7800.000
G1 F900
G1 X95.677 Y99.581 E4.08418
G1 X95.526 Y99.988 E4.09589
G1 X95.388 Y100.259 E4.10410
G1 X95.111 Y100.673 E4.11751
G1 X94.920 Y100.902 E4.12557
G1 X94.669 Y101.146 E4.13501
G1 X94.231 Y101.479 E4.14985
G1 X93.944 Y101.645 E4.15881
G1 X93.687 Y101.767 E4.16647
G1 X93.162 Y101.969 E4.18166
G1 X92.251 Y102.278 E4.20762
G1 X91.023 Y102.036 E4.24136
G1 X90.261 Y102.071 E4.26193
G1 X89.684 Y102.380 E4.27962
G1 X89.500 Y102.391 E4.28459
G1 X89.271 Y102.295 E4.29127
G1 X88.720 Y101.713 E4.31291
G1 X87.984 Y101.487 E4.33368
G1 X87.887 Y101.275 E4.33995
G1 X87.761 Y100.749 E4.35454
G1 X87.533 Y99.143 E4.39831
G1 X87.510 Y98.786 E4.40796
G1 X87.516 Y98.519 E4.41517
G1 X87.595 Y97.810 E4.43442
G1 X87.810 Y96.450 E4.47155
G1 X87.893 Y96.156 E4.47980
G1 X87.977 Y95.966 E4.48539
G1 X88.353 Y95.830 E4.49616
G1 X88.958 Y95.499 E4.51477
G1 X89.243 Y95.169 E4.52655
G1 X89.358 Y95.098 E4.53017
G1 X89.472 Y95.058 E4.53343
G1 X89.629 Y95.053 E4.53767
G1 X89.690 Y95.069 E4.53938
G1 X90.225 Y95.366 E4.55588
G1 X91.015 Y95.408 E4.57722
G1 X92.249 Y95.165 E4.61116
G1 X93.525 Y95.608 E4.64759
G1 X94.056 Y95.858 E4.66344
G1 X94.394 Y96.077 E4.67428
G1 X94.640 Y96.271 E4.68273
G1 X94.926 Y96.550 E4.69351
G1 X95.155 Y96.826 E4.70320
G1 X95.316 Y97.060 E4.71085
G1 X95.545 Y97.495 E4.72411
G1 X95.628 Y97.708 E4.73029
G1 X95.858 Y98.530 E4.75332
G1 X96.426 Y98.216 F7800.000
G1 F900
G1 X96.623 Y98.445 E4.76147
G1 X96.707 Y98.819 E4.77181
G1 X96.461 Y99.010 E4.78021
G1 X96.287 Y99.764 E4.80106
G1 X96.110 Y100.244 E4.81487
G1 X95.937 Y100.582 E4.82510
G1 X95.621 Y101.054 E4.84044
G1 X95.387 Y101.334 E4.85029
G1 X95.085 Y101.629 E4.86166
G1 X94.584 Y102.009 E4.87862
G1 X94.240 Y102.209 E4.88936
G1 X93.938 Y102.352 E4.89838
G1 X93.378 Y102.567 E4.91456
G1 X92.294 Y102.935 E4.94543
G1 X90.975 Y102.675 E4.98169
G1 X90.434 Y102.699 E4.99630
G1 X89.953 Y102.957 E5.01104
G1 X89.855 Y102.992 E5.01384
G1 X89.489 Y103.028 E5.02375
G1 X89.382 Y103.016 E5.02668
G1 X89.215 Y102.976 E5.03130
G1 X88.991 Y102.873 E5.03794
G1 X88.878 Y102.797 E5.04162
G1 X88.370 Y102.270 E5.06137
G1 X87.820 Y102.101 E5.07687
G1 X87.578 Y101.986 E5.08412
G1 X87.529 Y101.946 E5.08581
G1 X87.422 Y101.787 E5.09099
G1 X87.296 Y101.510 E5.09922
G1 X87.135 Y100.865 E5.11714
G1 X86.901 Y99.208 E5.16228
G1 X86.874 Y98.800 E5.17332
G1 X86.881 Y98.477 E5.18204
G1 X86.964 Y97.728 E5.20235
G1 X87.123 Y96.648 E5.23182
G1 X87.192 Y96.301 E5.24134
G1 X87.294 Y95.940 E5.25148
G1 X87.405 Y95.689 E5.25886
G1 X87.536 Y95.486 E5.26540
G1 X87.668 Y95.403 E5.26959
G1 X88.090 Y95.249 E5.28172
G1 X88.552 Y94.997 E5.29593
G1 X88.781 Y94.731 E5.30538
G1 X88.876 Y94.649 E5.30877
G1 X89.082 Y94.522 E5.31530
G1 X89.390 Y94.425 E5.32402
G1 X89.754 Y94.429 E5.33383
G1 X89.894 Y94.465 E5.33772
G1 X90.077 Y94.542 E5.34308
G1 X90.413 Y94.740 E5.35360
G1 X90.969 Y94.769 E5.36863
G1 X92.295 Y94.508 E5.40509
G1 X93.755 Y95.016 E5.44679
G1 X94.108 Y95.168 E5.45715
G1 X94.377 Y95.308 E5.46534
G1 X94.764 Y95.560 E5.47778
G1 X95.059 Y95.792 E5.48791
G1 X95.394 Y96.118 E5.50052
G1 X95.662 Y96.442 E5.51188
G1 X95.860 Y96.730 E5.52130
G1 X96.124 Y97.230 E5.53655
G1 X96.232 Y97.508 E5.54460
G1 X96.406 Y98.144 E5.56237
G1 E3.56237 F2400.00000
G92 E0
G1 X99.115 Y98.720 F7800.000
G1 E2.00000 F2400.00000
G1 F900
G1 X100.019 Y97.973 E2.03163
G1 X100.487 Y97.629 E2.04731
G1 X100.932 Y97.350 E2.06146
G1 X101.070 Y97.283 E2.06561
G1 X101.282 Y97.265 E2.07135
G1 X101.508 Y97.271 E2.07745
G1 X101.911 Y97.327 E2.08843
G1 X102.209 Y97.399 E2.09670
G1 X102.493 Y97.488 E2.10472
G1 X103.169 Y97.764 E2.12442
G1 X103.820 Y98.104 E2.14423
G1 X104.506 Y98.541 E2.16618
G1 X104.748 Y98.720 E2.17428
G1 X104.196 Y99.110 E2.19250
G1 X103.665 Y99.427 E2.20921
G1 X102.981 Y99.765 E2.22978
G1 X102.521 Y99.945 E2.24312
G1 X101.926 Y100.111 E2.25978
G1 X101.492 Y100.173 E2.27159
G1 X101.265 Y100.178 E2.27772
G1 X101.061 Y100.160 E2.28325
G1 X100.825 Y100.033 E2.29047
G1 X100.388 Y99.749 E2.30453
G1 X99.859 Y99.346 E2.32248
G1 X99.173 Y98.769 E2.34667
G1 X98.174 Y98.723 F7800.000
G1 F900
G1 X98.829 Y98.132 E2.37047
G1 X99.628 Y97.472 E2.39844
G1 X100.129 Y97.103 E2.41523
G1 X100.623 Y96.793 E2.43095
G1 X100.859 Y96.679 E2.43802
G1 X101.264 Y96.629 E2.44904
G1 X101.560 Y96.637 E2.45702
G1 X102.030 Y96.701 E2.46982
G1 X102.380 Y96.787 E2.47952
G1 X102.708 Y96.889 E2.48881
G1 X103.437 Y97.186 E2.51004
G1 X104.139 Y97.553 E2.53140
G1 X104.866 Y98.017 E2.55467
G1 X105.251 Y98.301 E2.56757
G1 X105.751 Y98.717 E2.58513
G1 X105.233 Y99.155 E2.60343
G1 X104.543 Y99.643 E2.62621
G1 X103.969 Y99.986 E2.64426
G1 X103.238 Y100.347 E2.66626
G1 X102.722 Y100.549 E2.68119
G1 X102.057 Y100.735 E2.69984
G1 X101.544 Y100.807 E2.71379
G1 X101.244 Y100.815 E2.72191
G1 X100.938 Y100.787 E2.73019
G1 X100.816 Y100.749 E2.73365
G1 X100.501 Y100.581 E2.74327
G1 X100.022 Y100.269 E2.75869
G1 X99.461 Y99.843 E2.77768
G1 X98.533 Y99.061 E2.81043
G1 X98.228 Y98.774 E2.82171
G1 X97.555 Y98.526 F7800.000
G1 F1800
G1 X98.463 Y97.708 E2.84689
G1 X99.283 Y97.030 E2.86883
G1 X99.814 Y96.639 E2.88241
G1 X100.351 Y96.302 E2.89548
G1 X100.667 Y96.149 E2.90272
G1 X100.865 Y96.099 E2.90693
G1 X101.249 Y96.068 E2.91486
G1 X101.606 Y96.077 E2.92223
G1 X102.135 Y96.150 E2.93323
G1 X102.530 Y96.246 E2.94161
G1 X102.898 Y96.361 E2.94956
G1 X103.673 Y96.677 E2.96681
G1 X104.420 Y97.068 E2.98418
G1 X105.183 Y97.554 E3.00284
G1 X105.597 Y97.859 E3.01343
G1 X105.956 Y98.158 E3.02306
G1 X106.139 Y98.334 E3.02829
G1 X106.293 Y98.516 E3.03319
G1 X106.549 Y98.721 E3.03997
G1 X106.360 Y98.858 E3.04478
G1 X106.047 Y99.201 E3.05435
G1 X105.576 Y99.599 E3.06706
G1 X104.850 Y100.113 E3.08540
G1 X104.237 Y100.479 E3.10010
G1 X103.465 Y100.861 E3.11787
G1 X102.900 Y101.081 E3.13036
G1 X102.172 Y101.285 E3.14594
G1 X101.591 Y101.367 E3.15804
G1 X101.225 Y101.376 E3.16559
G1 X100.849 Y101.341 E3.17337
G1 X100.579 Y101.258 E3.17918
G1 X100.215 Y101.064 E3.18769
G1 X99.699 Y100.727 E3.20039
G1 X99.111 Y100.281 E3.21560
G1 X98.160 Y99.480 E3.24123
G1 X97.530 Y98.888 E3.25905
G1 X96.963 Y99.330 E3.27388
G1 X96.825 Y99.925 E3.28645
G1 X96.624 Y100.469 E3.29842
G1 X96.421 Y100.866 E3.30760
G1 X96.070 Y101.391 E3.32061
G1 X95.799 Y101.716 E3.32934
G1 X95.451 Y102.054 E3.33934
G1 X94.896 Y102.476 E3.35372
G1 X94.501 Y102.705 E3.36312
G1 X94.159 Y102.867 E3.37093
G1 X93.569 Y103.094 E3.38396
G1 X92.424 Y103.483 E3.40887
G1 X92.283 Y103.504 E3.41181
G1 X90.933 Y103.238 E3.44017
G1 X90.587 Y103.253 E3.44731
G1 X90.181 Y103.471 E3.45681
G1 X89.830 Y103.570 E3.46431
G1 X89.475 Y103.590 E3.47165
G1 X89.285 Y103.570 E3.47559
G1 X89.031 Y103.508 E3.48098
G1 X88.715 Y103.364 E3.48813
G1 X88.532 Y103.239 E3.49270
G1 X88.359 Y103.084 E3.49749
G1 X88.061 Y102.762 E3.50653
G1 X87.617 Y102.625 E3.51610
G1 X87.274 Y102.463 E3.52392
G1 X87.110 Y102.327 E3.52832
G1 X86.931 Y102.062 E3.53491
G1 X86.715 Y101.544 E3.54648
G1 X86.583 Y100.967 E3.55867
G1 X86.343 Y99.266 E3.59408
G1 X86.313 Y98.812 E3.60346
G1 X86.321 Y98.439 E3.61113
G1 X86.408 Y97.657 E3.62736
G1 X86.570 Y96.552 E3.65037
G1 X86.646 Y96.170 E3.65840
G1 X86.765 Y95.749 E3.66743
G1 X86.904 Y95.436 E3.67448
G1 X87.015 Y95.242 E3.67909
G1 X87.140 Y95.083 E3.68324
G1 X87.292 Y94.967 E3.68720
G1 X87.440 Y94.889 E3.69064
G1 X87.859 Y94.737 E3.69982
G1 X88.194 Y94.553 E3.70771
G1 X88.383 Y94.335 E3.71365
G1 X88.542 Y94.196 E3.71801
G1 X88.839 Y94.013 E3.72520
G1 X89.174 Y93.895 E3.73252
G1 X89.330 Y93.866 E3.73579
G1 X89.667 Y93.855 E3.74274
G1 X89.855 Y93.876 E3.74664
G1 X90.074 Y93.932 E3.75128
G1 X90.329 Y94.040 E3.75700
G1 X90.579 Y94.187 E3.76298
G1 X90.929 Y94.206 E3.77021
G1 X92.272 Y93.941 E3.79841
G1 X92.411 Y93.954 E3.80128
G1 X93.959 Y94.493 E3.83507
G1 X94.349 Y94.662 E3.84383
G1 X94.660 Y94.824 E3.85106
G1 X95.091 Y95.103 E3.86164
G1 X95.429 Y95.370 E3.87052
G1 X95.806 Y95.738 E3.88138
G1 X96.110 Y96.104 E3.89118
G1 X96.341 Y96.439 E3.89958
G1 X96.635 Y96.997 E3.91257
G1 X96.765 Y97.332 E3.91997
G1 X96.934 Y97.946 E3.93310
G1 X97.140 Y98.186 E3.93962
G1 X97.167 Y98.305 E3.94214
G1 X97.490 Y98.489 E3.94980
G1 X97.908 Y98.880 F7800.000
G1 E1.94980 F2400.00000
G92 E0
G1 X100.846 Y98.246 F7800.000
G1 E2.00000 F2400.00000
G1 F1200
G1 X100.598 Y98.402 E2.00949
G1 X100.163 Y98.722 E2.02697
G1 X99.860 Y98.972 E2.03968
G1 X100.001 Y99.091 E2.04565
G1 X101.341 Y97.752 E2.10697
G1 X101.475 Y97.667 E2.11211
G1 X101.720 Y97.661 E2.12005
G1 X102.039 Y97.705 E2.13048
G1 X102.377 Y97.793 E2.14179
G1 X100.621 Y99.550 E2.22220
G1 X100.982 Y99.776 E2.23600
G1 X101.210 Y99.783 E2.24338
G1 X101.509 Y99.741 E2.25315
G1 X103.153 Y98.096 E2.32844
G1 X103.854 Y98.474 E2.35420
G1 X103.359 Y98.969 E2.37685
G1 E0.37685 F2400.00000
G92 E0
G1 X94.200 Y100.722 F7800.000
G1 E2.00000 F2400.00000
G1 F1200
G1 X94.701 Y100.221 E2.01930
G1 X94.849 Y100.044 E2.02561
G1 X95.086 Y99.690 E2.03722
G1 X95.190 Y99.485 E2.04347
G1 X95.314 Y99.151 E2.05318
G1 X95.450 Y98.564 E2.06961
G1 X92.240 Y101.774 E2.19334
G1 X91.960 Y101.869 E2.20141
G1 X91.356 Y101.750 E2.21819
G1 X95.308 Y97.797 E2.37055
G1 X95.213 Y97.512 E2.37876
G1 X95.031 Y97.166 E2.38940
G1 X90.539 Y101.658 E2.56253
G1 X89.841 Y101.689 E2.58157
G1 X89.339 Y101.950 E2.59701
G1 X94.629 Y96.660 E2.80093
G1 X94.467 Y96.502 E2.80711
G1 X94.127 Y96.254 E2.81858
G1 X88.897 Y101.484 E3.02017
G1 X88.819 Y101.401 E3.02326
G1 X88.247 Y101.226 E3.03957
G1 X93.525 Y95.948 E3.24300
G1 X92.851 Y95.714 E3.26245
G1 X88.083 Y100.482 E3.44624
G1 X87.970 Y99.686 E3.46815
G1 X91.991 Y95.665 E3.62315
G1 X91.307 Y95.800 E3.64216
G1 X90.966 Y95.782 E3.65146
G1 X87.903 Y98.845 E3.76954
G1 X88.030 Y97.810 E3.79798
G1 X90.165 Y95.675 E3.88025
G1 X89.837 Y95.493 E3.89047
G1 X89.611 Y95.755 E3.89989
G1 X88.862 Y96.164 E3.92315
G1 X88.714 Y96.218 E3.92744
G1 X88.220 Y96.712 E3.94650
M106 S232.05
G1 Z7.200 F7800.000
G1 X95.698 Y98.661 F7800.000
G1 F900
G1 X95.647 Y99.203 E3.96119
G1 X95.566 Y99.575 E3.97148
G1 X95.435 Y99.931 E3.98169
G1 X95.255 Y100.275 E3.99218
G1 X95.058 Y100.558 E4.00147
G1 X94.796 Y100.855 E4.01217
G1 X94.489 Y101.127 E4.02323
G1 X94.120 Y101.380 E4.03528
G1 X93.827 Y101.535 E4.04423
G1 X93.538 Y101.661 E4.05273
G1 X92.055 Y102.166 E4.09499
G1 X91.045 Y101.990 E4.12266
G1 X90.584 Y101.975 E4.13509
G1 X90.093 Y102.038 E4.14847
G1 X89.698 Y102.251 E4.16056
G1 X89.557 Y102.276 E4.16441
G1 X89.371 Y102.227 E4.16960
G1 X88.829 Y101.720 E4.18963
G1 X88.137 Y101.468 E4.20950
G1 X88.047 Y101.138 E4.21872
G1 X88.011 Y100.874 E4.22590
G1 X87.855 Y98.951 E4.27795
G1 X87.855 Y98.481 E4.29063
G1 X88.007 Y96.646 E4.34031
G1 X88.058 Y96.256 E4.35092
G1 X88.137 Y95.985 E4.35852
G1 X88.464 Y95.858 E4.36799
G1 X89.028 Y95.560 E4.38520
G1 X89.333 Y95.249 E4.39694
G1 X89.425 Y95.189 E4.39992
G1 X89.551 Y95.164 E4.40337
G1 X89.651 Y95.182 E4.40612
G1 X90.235 Y95.427 E4.42320
G1 X90.765 Y95.499 E4.43764
G1 X92.055 Y95.278 E4.47294
G1 X93.546 Y95.785 E4.51543
G1 X93.952 Y95.969 E4.52744
G1 X94.247 Y96.142 E4.53668
G1 X94.517 Y96.339 E4.54569
G1 X94.775 Y96.568 E4.55500
G1 X95.052 Y96.879 E4.56622
G1 X95.278 Y97.206 E4.57694
G1 X95.439 Y97.513 E4.58631
G1 X95.517 Y97.710 E4.59201
G1 X95.633 Y98.151 E4.60432
G1 X95.688 Y98.586 E4.61615
G1 X96.328 Y98.580 F7800.000
G1 F900
G1 X96.337 Y98.650 E4.61804
G1 X96.277 Y99.301 E4.63568
G1 X96.177 Y99.754 E4.64819
G1 X96.018 Y100.189 E4.66070
G1 X95.799 Y100.606 E4.67339
G1 X95.559 Y100.951 E4.68473
G1 X95.246 Y101.305 E4.69749
G1 X94.880 Y101.629 E4.71066
G1 X94.450 Y101.924 E4.72474
G1 X94.103 Y102.109 E4.73534
G1 X93.766 Y102.255 E4.74524
G1 X92.366 Y102.725 E4.78510
G1 X92.127 Y102.823 E4.79206
G1 X90.980 Y102.624 E4.82349
G1 X90.615 Y102.612 E4.83334
G1 X90.290 Y102.653 E4.84216
G1 X89.944 Y102.840 E4.85279
G1 X89.767 Y102.894 E4.85776
G1 X89.547 Y102.916 E4.86373
G1 X89.317 Y102.885 E4.86999
G1 X89.097 Y102.803 E4.87632
G1 X89.005 Y102.748 E4.87922
G1 X88.486 Y102.272 E4.89823
G1 X87.909 Y102.061 E4.91480
G1 X87.722 Y101.959 E4.92053
G1 X87.583 Y101.758 E4.92713
G1 X87.522 Y101.630 E4.93094
G1 X87.421 Y101.250 E4.94154
G1 X87.379 Y100.943 E4.94992
G1 X87.219 Y98.977 E5.00314
G1 X87.220 Y98.455 E5.01722
G1 X87.375 Y96.578 E5.06801
G1 X87.432 Y96.140 E5.07993
G1 X87.484 Y95.922 E5.08597
G1 X87.587 Y95.678 E5.09313
G1 X87.774 Y95.445 E5.10119
G1 X88.199 Y95.279 E5.11349
G1 X88.644 Y95.044 E5.12706
G1 X88.928 Y94.755 E5.13800
G1 X89.197 Y94.594 E5.14646
G1 X89.346 Y94.550 E5.15065
G1 X89.596 Y94.526 E5.15742
G1 X89.833 Y94.569 E5.16393
G1 X90.404 Y94.808 E5.18062
G1 X90.754 Y94.856 E5.19017
G1 X92.122 Y94.622 E5.22761
G1 X93.787 Y95.196 E5.27510
G1 X94.244 Y95.403 E5.28866
G1 X94.597 Y95.610 E5.29967
G1 X94.916 Y95.844 E5.31037
G1 X95.225 Y96.117 E5.32147
G1 X95.553 Y96.485 E5.33477
G1 X95.823 Y96.876 E5.34761
G1 X96.018 Y97.248 E5.35893
G1 X96.122 Y97.511 E5.36656
G1 X96.258 Y98.029 E5.38101
G1 X96.319 Y98.506 E5.39397
G1 X96.884 Y98.509 F7800.000
G1 F900
G1 X96.911 Y98.535 E5.39472
G1 X96.832 Y99.387 E5.41235
G1 X96.717 Y99.911 E5.42341
G1 X96.531 Y100.417 E5.43452
G1 X96.279 Y100.897 E5.44570
G1 X96.001 Y101.297 E5.45575
G1 X95.644 Y101.702 E5.46687
G1 X95.226 Y102.071 E5.47836
G1 X94.742 Y102.404 E5.49048
G1 X94.347 Y102.614 E5.49970
G1 X93.967 Y102.778 E5.50821
G1 X92.562 Y103.251 E5.53877
G1 X92.214 Y103.394 E5.54653
G1 X90.922 Y103.183 E5.57351
G1 X90.641 Y103.173 E5.57930
G1 X90.465 Y103.196 E5.58296
G1 X90.160 Y103.361 E5.59010
G1 X89.877 Y103.446 E5.59619
G1 X89.538 Y103.480 E5.60322
G1 X89.180 Y103.433 E5.61066
G1 X88.852 Y103.310 E5.61788
G1 X88.686 Y103.210 E5.62188
G1 X88.513 Y103.074 E5.62640
G1 X88.183 Y102.758 E5.63584
G1 X87.676 Y102.573 E5.64695
G1 X87.398 Y102.420 E5.65350
G1 X87.288 Y102.317 E5.65659
G1 X87.097 Y102.040 E5.66353
G1 X87.000 Y101.838 E5.66816
G1 X86.869 Y101.350 E5.67858
G1 X86.822 Y101.003 E5.68578
G1 X86.658 Y98.999 E5.72722
G1 X86.659 Y98.431 E5.73893
G1 X86.817 Y96.519 E5.77848
G1 X86.880 Y96.038 E5.78847
G1 X86.946 Y95.762 E5.79432
G1 X87.095 Y95.407 E5.80226
G1 X87.194 Y95.250 E5.80608
G1 X87.402 Y95.020 E5.81247
G1 X87.537 Y94.935 E5.81576
G1 X87.965 Y94.768 E5.82523
G1 X88.305 Y94.589 E5.83315
G1 X88.570 Y94.318 E5.84096
G1 X88.860 Y94.129 E5.84809
G1 X89.004 Y94.066 E5.85133
G1 X89.229 Y94.000 E5.85616
G1 X89.499 Y93.964 E5.86178
G1 X89.650 Y93.966 E5.86490
G1 X89.994 Y94.029 E5.87209
G1 X90.553 Y94.263 E5.88458
G1 X90.745 Y94.289 E5.88858
G1 X92.171 Y94.047 E5.91839
G1 X93.998 Y94.676 E5.95823
G1 X94.502 Y94.905 E5.96963
G1 X94.905 Y95.140 E5.97925
G1 X95.269 Y95.407 E5.98855
G1 X95.621 Y95.719 E5.99825
G1 X95.994 Y96.138 E6.00980
G1 X96.304 Y96.586 E6.02103
G1 X96.528 Y97.015 E6.03100
G1 X96.655 Y97.336 E6.03813
G1 X96.809 Y97.922 E6.05062
G1 X96.875 Y98.435 E6.06127
G1 X96.877 Y98.515 F7800.000
G1 E4.06127 F2400.00000
G92 E0
G1 X99.630 Y98.725 F7800.000
G1 E2.00000 F2400.00000
G1 F900
G1 X100.600 Y97.990 E2.03281
G1 X100.999 Y97.737 E2.04556
G1 X101.104 Y97.687 E2.04869
G1 X101.239 Y97.674 E2.05236
G1 X101.772 Y97.720 E2.06680
G1 X102.357 Y97.858 E2.08301
G1 X103.035 Y98.104 E2.10246
G1 X103.681 Y98.410 E2.12174
G1 X104.232 Y98.730 E2.13894
G1 X103.323 Y99.211 E2.16667
G1 X102.704 Y99.469 E2.18476
G1 X102.164 Y99.638 E2.20004
G1 X101.624 Y99.744 E2.21488
G1 X101.210 Y99.768 E2.22605
G1 X101.081 Y99.748 E2.22958
G1 X100.997 Y99.707 E2.23211
G1 X100.319 Y99.250 E2.25417
G1 X99.690 Y98.770 E2.27551
G1 X98.594 Y98.721 F7800.000
G1 F900
G1 X100.243 Y97.464 E2.33147
G1 X100.692 Y97.178 E2.34581
G1 X100.906 Y97.078 E2.35220
G1 X101.209 Y97.038 E2.36045
G1 X101.868 Y97.091 E2.37827
G1 X102.225 Y97.163 E2.38810
G1 X102.550 Y97.252 E2.39718
G1 X103.280 Y97.517 E2.41814
G1 X103.977 Y97.847 E2.43894
G1 X104.720 Y98.279 E2.46211
G1 X105.081 Y98.521 E2.47385
G1 X105.338 Y98.720 E2.48263
G1 X105.101 Y98.907 E2.49078
G1 X104.383 Y99.370 E2.51382
G1 X103.594 Y99.786 E2.53787
G1 X102.922 Y100.067 E2.55752
G1 X102.320 Y100.255 E2.57455
G1 X101.704 Y100.376 E2.59148
G1 X101.212 Y100.405 E2.60476
G1 X100.898 Y100.361 E2.61333
G1 X100.662 Y100.248 E2.62037
G1 X99.948 Y99.767 E2.64362
G1 X98.652 Y98.769 E2.68774
G1 X97.734 Y98.723 F7800.000
G1 F900
G1 X98.070 Y98.417 E2.69711
G1 X99.616 Y97.225 E2.73734
G1 X99.929 Y97.000 E2.74529
G1 X100.421 Y96.686 E2.75732
G1 X100.714 Y96.549 E2.76398
G1 X100.866 Y96.509 E2.76723
G1 X101.183 Y96.478 E2.77380
G1 X101.382 Y96.478 E2.77790
G1 X101.952 Y96.536 E2.78970
G1 X102.354 Y96.618 E2.79817
G1 X102.719 Y96.717 E2.80596
G1 X103.496 Y96.999 E2.82299
G1 X104.238 Y97.351 E2.83991
G1 X105.017 Y97.803 E2.85848
G1 X105.409 Y98.066 E2.86821
G1 X105.680 Y98.276 E2.87528
G1 X105.981 Y98.540 E2.88353
G1 X106.062 Y98.687 E2.88698
G1 X106.068 Y98.771 E2.88872
G1 X105.777 Y99.089 E2.89760
G1 X105.427 Y99.364 E2.90678
G1 X104.666 Y99.854 E2.92543
G1 X103.834 Y100.294 E2.94483
G1 X103.114 Y100.594 E2.96089
G1 X102.458 Y100.800 E2.97507
G1 X101.774 Y100.933 E2.98943
G1 X101.214 Y100.966 E3.00099
G1 X101.037 Y100.957 E3.00465
G1 X100.736 Y100.901 E3.01095
G1 X100.367 Y100.726 E3.01937
G1 X99.621 Y100.222 E3.03793
G1 X98.475 Y99.348 E3.06763
G1 X97.788 Y98.775 E3.08607
G1 X98.173 Y98.607 F7800.000
G1 X100.932 Y98.961 F7800.000
G1 F1200
G1 X100.921 Y98.969 E3.08651
G1 X100.980 Y99.009 E3.08882
G1 X100.438 Y98.466 E3.11365
G1 X101.032 Y98.066 E3.13684
G1 X101.121 Y98.071 E3.13973
G1 X102.303 Y99.253 E3.19384
G1 X102.602 Y98.473 F7800.000
G1 F1200
G1 X103.096 Y98.967 E3.21648
G1 E1.21648 F2400.00000
G92 E0
G1 X94.574 Y97.267 F7800.000
G1 E2.00000 F2400.00000
G1 F1200
G1 X94.077 Y96.771 E2.02029
G1 X93.870 Y96.587 E2.02828
G1 X93.651 Y96.426 E2.03613
G1 X93.412 Y96.287 E2.04412
G1 X93.065 Y96.129 E2.05512
G1 X92.169 Y95.825 E2.08245
G1 X95.302 Y98.958 E2.21039
G1 X95.265 Y99.352 E2.22184
G1 X95.201 Y99.644 E2.23046
G1 X95.154 Y99.772 E2.23441
G1 X91.167 Y95.786 E2.39724
G1 X90.529 Y95.895 E2.41596
G1 X90.281 Y95.861 E2.42319
G1 X94.815 Y100.396 E2.60841
G1 X94.592 Y100.653 E2.61823
G1 X94.335 Y100.878 E2.62811
G1 X89.225 Y95.768 E2.83683
G1 X89.165 Y95.829 E2.83931
G1 X88.614 Y96.119 E2.85729
G1 X93.733 Y101.238 E3.06636
G1 X93.027 Y101.495 E3.08804
G1 X88.362 Y96.829 E3.27859
G1 X88.288 Y97.718 E3.30435
G1 X92.309 Y101.739 E3.46858
G1 X92.251 Y101.759 E3.47034
G1 X91.357 Y101.603 E3.49656
G1 X91.206 Y101.598 E3.50092
G1 X88.243 Y98.635 E3.62194
G1 X88.325 Y99.679 E3.65218
G1 X90.295 Y101.650 E3.73267
G1 X90.142 Y101.670 E3.73714
G1 X89.849 Y101.828 E3.74675
G1 X89.419 Y101.416 E3.76393
G1 X88.915 Y101.232 E3.77943
G1 X88.421 Y100.737 E3.79964
M106 S234.6
G1 Z7.500 F7800.000
G1 X88.353 Y101.464 F7800.000
G1 F900
G1 X88.327 Y101.289 E3.80441
G1 X88.341 Y100.044 E3.83800
G1 X88.247 Y98.778 E3.87224
G1 X88.254 Y98.502 E3.87969
G1 X88.338 Y97.495 E3.90696
G1 X88.323 Y96.202 E3.94184
G1 X88.351 Y95.980 E3.94787
G1 X88.818 Y95.826 E3.96112
G1 X89.233 Y95.555 E3.97450
G1 X89.532 Y95.309 E3.98494
G1 X90.347 Y95.617 E4.00844
G1 X91.873 Y95.388 E4.05006
G1 X92.198 Y95.517 E4.05950
G1 X93.040 Y95.775 E4.08327
G1 X93.560 Y95.957 E4.09812
G1 X94.091 Y96.210 E4.11400
G1 X94.500 Y96.491 E4.12738
G1 X94.790 Y96.750 E4.13787
G1 X95.004 Y96.993 E4.14660
G1 X95.182 Y97.254 E4.15513
G1 X95.306 Y97.492 E4.16237
G1 X95.411 Y97.763 E4.17021
G1 X95.512 Y98.211 E4.18259
G1 X95.537 Y98.472 E4.18965
G1 X95.540 Y98.926 E4.20192
G1 X95.517 Y99.185 E4.20894
G1 X95.460 Y99.505 E4.21769
G1 X95.305 Y99.955 E4.23053
G1 X95.177 Y100.196 E4.23788
G1 X94.981 Y100.479 E4.24719
G1 X94.809 Y100.676 E4.25424
G1 X94.590 Y100.882 E4.26235
G1 X94.129 Y101.212 E4.27763
G1 X93.866 Y101.352 E4.28568
G1 X93.523 Y101.500 E4.29576
G1 X92.137 Y101.946 E4.33504
G1 X91.879 Y102.055 E4.34259
G1 X90.412 Y101.841 E4.38259
G1 X89.575 Y102.109 E4.40630
G1 X89.470 Y102.095 E4.40917
G1 X89.250 Y101.896 E4.41717
G1 X88.744 Y101.588 E4.43314
G1 X88.424 Y101.487 E4.44220
G1 X87.944 Y101.982 F7800.000
G1 F900
G1 X87.789 Y101.755 E4.44958
G1 X87.728 Y101.583 E4.45452
G1 X87.691 Y101.333 E4.46134
G1 X87.705 Y100.064 E4.49558
G1 X87.611 Y98.794 E4.52991
G1 X87.619 Y98.468 E4.53872
G1 X87.702 Y97.472 E4.56569
G1 X87.686 Y96.164 E4.60097
G1 X87.725 Y95.871 E4.60895
G1 X87.756 Y95.764 E4.61195
G1 X87.942 Y95.462 E4.62151
G1 X88.042 Y95.413 E4.62450
G1 X88.540 Y95.248 E4.63867
G1 X88.857 Y95.042 E4.64887
G1 X89.119 Y94.826 E4.65802
G1 X89.244 Y94.759 E4.66187
G1 X89.432 Y94.706 E4.66712
G1 X89.529 Y94.695 E4.66977
G1 X89.727 Y94.712 E4.67512
G1 X90.416 Y94.964 E4.69492
G1 X91.947 Y94.734 E4.73668
G1 X92.408 Y94.916 E4.75005
G1 X93.239 Y95.171 E4.77349
G1 X93.791 Y95.365 E4.78927
G1 X94.110 Y95.502 E4.79863
G1 X94.421 Y95.665 E4.80810
G1 X94.893 Y95.990 E4.82358
G1 X95.236 Y96.296 E4.83598
G1 X95.513 Y96.611 E4.84730
G1 X95.729 Y96.927 E4.85762
G1 X95.886 Y97.230 E4.86682
G1 X96.016 Y97.564 E4.87649
G1 X96.090 Y97.835 E4.88406
G1 X96.142 Y98.124 E4.89198
G1 X96.172 Y98.439 E4.90052
G1 X96.176 Y98.952 E4.91437
G1 X96.147 Y99.269 E4.92295
G1 X96.080 Y99.648 E4.93334
G1 X96.004 Y99.914 E4.94081
G1 X95.884 Y100.221 E4.94970
G1 X95.721 Y100.527 E4.95904
G1 X95.483 Y100.871 E4.97033
G1 X95.267 Y101.117 E4.97917
G1 X95.006 Y101.364 E4.98886
G1 X94.750 Y101.565 E4.99763
G1 X94.454 Y101.759 E5.00719
G1 X94.141 Y101.926 E5.01674
G1 X93.754 Y102.092 E5.02812
G1 X93.261 Y102.265 E5.04219
G1 X92.355 Y102.544 E5.06777
G1 X91.963 Y102.710 E5.07925
G1 X90.466 Y102.491 E5.12008
G1 X89.722 Y102.730 E5.14117
G1 X89.544 Y102.746 E5.14599
G1 X89.364 Y102.722 E5.15089
G1 X89.155 Y102.642 E5.15692
G1 X88.868 Y102.407 E5.16692
G1 X88.479 Y102.171 E5.17919
G1 X88.011 Y102.014 E5.19251
G1 X87.626 Y102.443 F7800.000
G1 F900
G1 X87.521 Y102.354 E5.19534
G1 X87.344 Y102.109 E5.20158
G1 X87.277 Y101.987 E5.20445
G1 X87.182 Y101.719 E5.21030
G1 X87.129 Y101.372 E5.21754
G1 X87.144 Y100.081 E5.24414
G1 X87.050 Y98.809 E5.27044
G1 X87.058 Y98.438 E5.27808
G1 X87.142 Y97.452 E5.29848
G1 X87.125 Y96.131 E5.32570
G1 X87.174 Y95.755 E5.33352
G1 X87.229 Y95.568 E5.33753
G1 X87.404 Y95.243 E5.34515
G1 X87.527 Y95.082 E5.34932
G1 X87.664 Y94.974 E5.35290
G1 X87.829 Y94.893 E5.35669
G1 X88.295 Y94.739 E5.36681
G1 X88.525 Y94.589 E5.37246
G1 X88.805 Y94.358 E5.37995
G1 X89.016 Y94.245 E5.38489
G1 X89.344 Y94.152 E5.39192
G1 X89.506 Y94.134 E5.39527
G1 X89.841 Y94.162 E5.40221
G1 X90.478 Y94.388 E5.41613
G1 X91.906 Y94.173 E5.44589
G1 X92.041 Y94.168 E5.44867
G1 X92.594 Y94.387 E5.46093
G1 X93.414 Y94.638 E5.47861
G1 X93.995 Y94.842 E5.49129
G1 X94.351 Y94.995 E5.49929
G1 X94.711 Y95.184 E5.50766
G1 X95.240 Y95.548 E5.52090
G1 X95.630 Y95.896 E5.53166
G1 X95.962 Y96.274 E5.54205
G1 X96.211 Y96.639 E5.55114
G1 X96.398 Y96.998 E5.55950
G1 X96.549 Y97.389 E5.56812
G1 X96.637 Y97.711 E5.57501
G1 X96.698 Y98.047 E5.58205
G1 X96.733 Y98.410 E5.58956
G1 X96.736 Y98.975 E5.60121
G1 X96.704 Y99.343 E5.60882
G1 X96.627 Y99.775 E5.61786
G1 X96.536 Y100.094 E5.62471
G1 X96.394 Y100.456 E5.63272
G1 X96.200 Y100.819 E5.64119
G1 X95.926 Y101.216 E5.65115
G1 X95.671 Y101.507 E5.65911
G1 X95.372 Y101.789 E5.66759
G1 X95.078 Y102.021 E5.67530
G1 X94.740 Y102.242 E5.68363
G1 X94.384 Y102.432 E5.69194
G1 X93.957 Y102.615 E5.70151
G1 X93.437 Y102.797 E5.71288
G1 X92.548 Y103.071 E5.73206
G1 X92.099 Y103.262 E5.74211
G1 X91.948 Y103.274 E5.74523
G1 X90.514 Y103.065 E5.77510
G1 X89.851 Y103.277 E5.78945
G1 X89.513 Y103.308 E5.79643
G1 X89.243 Y103.272 E5.80205
G1 X89.047 Y103.212 E5.80627
G1 X88.875 Y103.130 E5.81020
G1 X88.695 Y103.007 E5.81470
G1 X88.531 Y102.858 E5.81926
G1 X88.246 Y102.685 E5.82614
G1 X87.863 Y102.563 E5.83441
G1 X87.690 Y102.482 E5.83836
G1 X87.626 Y102.382 F7800.000
G1 X89.209 Y96.200 F7800.000
G1 F1200
G1 X88.714 Y96.695 E5.85763
G1 X88.725 Y97.601 E5.88259
G1 X90.364 Y95.962 E5.94641
G1 X90.524 Y96.023 E5.95113
G1 X91.344 Y95.900 E5.97395
G1 X88.658 Y98.586 E6.07856
G1 X88.636 Y99.009 E6.09022
G1 X88.672 Y99.490 E6.10350
G1 X92.278 Y95.883 E6.24395
G1 X92.981 Y96.098 E6.26418
G1 X88.728 Y100.351 E6.42978
G1 X88.718 Y101.239 E6.45424
G1 X88.748 Y101.248 E6.45510
G1 X93.659 Y96.338 E6.64633
G1 X94.010 Y96.508 E6.65707
G1 X94.245 Y96.670 E6.66492
G1 X89.322 Y101.593 E6.85664
G1 X89.417 Y101.660 E6.85987
G1 X90.111 Y101.438 E6.87993
G1 X90.358 Y101.474 E6.88680
G1 X94.724 Y97.108 E7.05681
G1 X94.883 Y97.334 E7.06443
G1 X95.048 Y97.701 E7.07551
G1 X91.158 Y101.591 E7.22700
G1 X91.548 Y101.648 E7.23783
G1 X92.261 Y101.406 E7.25857
G1 X95.150 Y98.517 E7.37108
G1 X95.133 Y98.855 E7.38039
G1 X95.087 Y99.114 E7.38765
G1 X94.974 Y99.441 E7.39719
G1 X94.881 Y99.617 E7.40267
G1 X94.726 Y99.841 E7.41016
G1 X94.599 Y99.986 E7.41548
G1 X94.101 Y100.484 E7.43487
G1 E5.43487 F2400.00000
G92 E0
G1 X100.068 Y98.728 F7800.000
G1 E2.00000 F2400.00000
G1 F900
G1 X100.893 Y98.190 E2.02657
G1 X101.063 Y98.123 E2.03149
G1 X101.228 Y98.111 E2.03596
G1 X101.617 Y98.139 E2.04649
G1 X102.094 Y98.230 E2.05958
G1 X102.569 Y98.365 E2.07290
G1 X103.484 Y98.711 E2.09929
G1 X103.047 Y98.905 E2.11219
G1 X102.538 Y99.089 E2.12677
G1 X101.947 Y99.247 E2.14328
G1 X101.543 Y99.313 E2.15433
G1 X101.201 Y99.333 E2.16358
G1 X101.022 Y99.312 E2.16844
G1 X100.784 Y99.190 E2.17566
G1 X100.131 Y98.769 E2.19662
G1 X98.964 Y98.728 F7800.000
G1 F900
G1 X99.364 Y98.436 E2.20998
G1 X100.356 Y97.768 E2.24224
G1 X100.605 Y97.623 E2.25002
G1 X100.820 Y97.529 E2.25634
G1 X100.961 Y97.493 E2.26027
G1 X101.228 Y97.474 E2.26749
G1 X101.700 Y97.508 E2.28025
G1 X102.241 Y97.610 E2.29509
G1 X102.769 Y97.761 E2.30991
G1 X103.469 Y98.025 E2.33009
G1 X104.196 Y98.373 E2.35184
G1 X104.819 Y98.734 E2.37126
G1 X103.863 Y99.238 E2.40040
G1 X103.284 Y99.495 E2.41748
G1 X102.729 Y99.696 E2.43340
G1 X102.081 Y99.869 E2.45150
G1 X101.614 Y99.945 E2.46427
G1 X101.201 Y99.970 E2.47543
G1 X100.856 Y99.927 E2.48481
G1 X100.466 Y99.742 E2.49646
G1 X99.901 Y99.377 E2.51460
G1 X99.026 Y98.770 E2.54333
G1 X98.030 Y98.715 F7800.000
G1 F900
G1 X99.042 Y97.976 E2.56916
G1 X100.058 Y97.292 E2.59440
G1 X100.351 Y97.122 E2.60139
G1 X100.638 Y96.996 E2.60785
G1 X100.872 Y96.938 E2.61281
G1 X101.228 Y96.912 E2.62017
G1 X101.773 Y96.951 E2.63142
G1 X102.370 Y97.064 E2.64395
G1 X102.945 Y97.228 E2.65628
G1 X103.689 Y97.509 E2.67267
G1 X104.458 Y97.877 E2.69024
G1 X105.169 Y98.289 E2.70717
G1 X105.425 Y98.472 E2.71367
G1 X105.705 Y98.722 E2.72140
G1 X105.401 Y98.990 E2.72975
G1 X104.837 Y99.358 E2.74365
G1 X104.108 Y99.743 E2.76063
G1 X103.493 Y100.015 E2.77449
G1 X102.897 Y100.231 E2.78755
G1 X102.199 Y100.417 E2.80244
G1 X101.676 Y100.503 E2.81337
G1 X101.201 Y100.532 E2.82318
G1 X100.955 Y100.517 E2.82825
G1 X100.713 Y100.471 E2.83333
G1 X100.560 Y100.419 E2.83666
G1 X100.185 Y100.228 E2.84532
G1 X99.589 Y99.843 E2.85996
G1 X98.822 Y99.311 E2.87919
G1 X98.088 Y98.763 E2.89808
G1 X98.519 Y98.613 F7800.000
G1 X101.207 Y98.723 F7800.000
G1 F1200
G1 X101.890 Y98.725 E2.91169
G1 F1200
G1 X102.587 Y98.733 E2.92358
M106 S239.7
G1 Z7.800 F7800.000
G1 E0.92358 F2400.00000
G92 E0
G1 X88.651 Y95.970 F7800.000
G1 E2.00000 F2400.00000
G1 F900
G1 X89.039 Y95.861 E2.01087
G1 X89.094 Y95.827 E2.01262
G1 X89.291 Y95.783 E2.01806
G1 X89.564 Y95.601 E2.02691
G1 X89.922 Y95.681 E2.03681
G1 X90.041 Y95.666 E2.04004
G1 X90.202 Y95.702 E2.04450
G1 X91.669 Y95.508 E2.08439
G1 X91.972 Y95.633 E2.09324
G1 X93.399 Y96.066 E2.13348
G1 X93.966 Y96.303 E2.15006
G1 X94.241 Y96.461 E2.15861
G1 X94.506 Y96.654 E2.16744
G1 X94.776 Y96.900 E2.17730
G1 X94.978 Y97.139 E2.18573
G1 X95.132 Y97.384 E2.19357
G1 X95.217 Y97.574 E2.19918
G1 X95.292 Y97.832 E2.20641
G1 X95.341 Y98.107 E2.21396
G1 X95.373 Y98.554 E2.22603
G1 X95.361 Y99.116 E2.24121
G1 X95.309 Y99.534 E2.25256
G1 X95.248 Y99.778 E2.25936
G1 X95.183 Y99.957 E2.26450
G1 X95.058 Y100.189 E2.27159
G1 X94.894 Y100.415 E2.27913
G1 X94.745 Y100.578 E2.28509
G1 X94.503 Y100.795 E2.29385
G1 X94.250 Y100.977 E2.30226
G1 X93.985 Y101.130 E2.31053
G1 X93.704 Y101.261 E2.31889
G1 X93.115 Y101.471 E2.33576
G1 X91.981 Y101.808 E2.36768
G1 X91.646 Y101.934 E2.37731
G1 X90.381 Y101.766 E2.41175
G1 X89.887 Y101.758 E2.42508
G1 X89.565 Y101.847 E2.43409
G1 X89.209 Y101.615 E2.44554
G1 X88.650 Y101.500 E2.46094
G1 X88.770 Y100.598 E2.48548
G1 X88.791 Y100.239 E2.49519
G1 X88.773 Y99.717 E2.50928
G1 X88.686 Y98.923 E2.53082
G1 X88.677 Y98.681 E2.53735
G1 X88.785 Y97.556 E2.56784
G1 X88.791 Y97.200 E2.57746
G1 X88.750 Y96.668 E2.59185
G1 X88.658 Y96.044 E2.60885
G1 X88.117 Y95.520 F7800.000
G1 F900
G1 X88.155 Y95.468 E2.61060
G1 X88.231 Y95.427 E2.61293
G1 X88.781 Y95.273 E2.62835
G1 X88.852 Y95.230 E2.63057
G1 X89.037 Y95.188 E2.63570
G1 X89.293 Y95.018 E2.64398
G1 X89.453 Y94.965 E2.64852
G1 X89.596 Y94.957 E2.65240
G1 X89.953 Y95.037 E2.66226
G1 X90.070 Y95.022 E2.66545
G1 X90.230 Y95.057 E2.66986
G1 X91.763 Y94.860 E2.71157
G1 X92.186 Y95.033 E2.72390
G1 X93.604 Y95.464 E2.76389
G1 X93.951 Y95.595 E2.77389
G1 X94.259 Y95.738 E2.78304
G1 X94.588 Y95.927 E2.79327
G1 X94.908 Y96.160 E2.80397
G1 X95.235 Y96.458 E2.81589
G1 X95.492 Y96.763 E2.82664
G1 X95.694 Y97.084 E2.83688
G1 X95.815 Y97.354 E2.84488
G1 X95.913 Y97.687 E2.85423
G1 X95.972 Y98.030 E2.86361
G1 X96.009 Y98.537 E2.87734
G1 X95.996 Y99.162 E2.89419
G1 X95.935 Y99.650 E2.90747
G1 X95.857 Y99.964 E2.91620
G1 X95.764 Y100.218 E2.92349
G1 X95.597 Y100.528 E2.93297
G1 X95.387 Y100.817 E2.94263
G1 X95.193 Y101.030 E2.95041
G1 X94.902 Y101.291 E2.96094
G1 X94.596 Y101.511 E2.97110
G1 X94.279 Y101.695 E2.98100
G1 X93.945 Y101.850 E2.99093
G1 X93.312 Y102.076 E3.00905
G1 X92.183 Y102.411 E3.04082
G1 X91.754 Y102.573 E3.05319
G1 X91.563 Y102.564 E3.05835
G1 X90.334 Y102.401 E3.09180
G1 X89.968 Y102.395 E3.10168
G1 X89.640 Y102.485 E3.11085
G1 X89.485 Y102.489 E3.11504
G1 X89.275 Y102.416 E3.12104
G1 X88.963 Y102.213 E3.13106
G1 X88.634 Y102.146 E3.14012
G1 X88.148 Y101.986 E3.15393
G1 X88.025 Y101.715 E3.16195
G1 X88.015 Y101.454 E3.16901
G1 X88.137 Y100.538 E3.19393
G1 X88.154 Y100.231 E3.20222
G1 X88.139 Y99.762 E3.21487
G1 X88.051 Y98.969 E3.23640
G1 X88.041 Y98.662 E3.24469
G1 X88.150 Y97.520 E3.27564
G1 X88.155 Y97.218 E3.28378
G1 X88.119 Y96.743 E3.29663
G1 X88.038 Y96.247 E3.31018
G1 X88.012 Y95.962 E3.31792
G1 X88.022 Y95.763 E3.32330
G1 X88.081 Y95.586 E3.32832
G1 X87.626 Y95.250 F7800.000
G1 F900
G1 X87.792 Y95.025 E3.33409
G1 X88.023 Y94.904 E3.33947
G1 X88.554 Y94.755 E3.35084
G1 X88.637 Y94.703 E3.35286
G1 X88.813 Y94.664 E3.35657
G1 X89.025 Y94.523 E3.36181
G1 X89.181 Y94.456 E3.36531
G1 X89.348 Y94.413 E3.36887
G1 X89.517 Y94.393 E3.37238
G1 X89.669 Y94.399 E3.37551
G1 X89.980 Y94.468 E3.38207
G1 X90.095 Y94.454 E3.38447
G1 X90.253 Y94.488 E3.38781
G1 X91.792 Y94.296 E3.41976
G1 X91.930 Y94.322 E3.42266
G1 X92.374 Y94.505 E3.43256
G1 X93.785 Y94.933 E3.46295
G1 X94.168 Y95.078 E3.47140
G1 X94.517 Y95.240 E3.47931
G1 X94.893 Y95.456 E3.48826
G1 X95.263 Y95.725 E3.49769
G1 X95.640 Y96.068 E3.50818
G1 X95.945 Y96.431 E3.51796
G1 X96.190 Y96.818 E3.52740
G1 X96.343 Y97.160 E3.53513
G1 X96.459 Y97.560 E3.54370
G1 X96.529 Y97.961 E3.55210
G1 X96.570 Y98.523 E3.56371
G1 X96.556 Y99.202 E3.57771
G1 X96.487 Y99.753 E3.58915
G1 X96.394 Y100.128 E3.59712
G1 X96.277 Y100.448 E3.60414
G1 X96.073 Y100.827 E3.61300
G1 X95.822 Y101.172 E3.62180
G1 X95.588 Y101.429 E3.62897
G1 X95.254 Y101.728 E3.63821
G1 X94.901 Y101.982 E3.64716
G1 X94.538 Y102.193 E3.65582
G1 X94.157 Y102.369 E3.66446
G1 X93.487 Y102.609 E3.67914
G1 X92.362 Y102.943 E3.70332
G1 X91.844 Y103.138 E3.71473
G1 X91.514 Y103.123 E3.72154
G1 X90.293 Y102.961 E3.74693
G1 X90.039 Y102.957 E3.75215
G1 X89.742 Y103.039 E3.75851
G1 X89.567 Y103.055 E3.76214
G1 X89.409 Y103.046 E3.76539
G1 X89.272 Y103.017 E3.76827
G1 X89.017 Y102.918 E3.77391
G1 X88.746 Y102.741 E3.78058
G1 X88.496 Y102.690 E3.78586
G1 X88.119 Y102.574 E3.79398
G1 X87.809 Y102.433 E3.80101
G1 X87.729 Y102.352 E3.80334
G1 X87.632 Y102.206 E3.80695
G1 X87.496 Y101.904 E3.81377
G1 X87.467 Y101.772 E3.81656
G1 X87.453 Y101.428 E3.82367
G1 X87.578 Y100.485 E3.84328
G1 X87.593 Y100.224 E3.84865
G1 X87.579 Y99.802 E3.85735
G1 X87.492 Y99.010 E3.87379
G1 X87.479 Y98.645 E3.88131
G1 X87.590 Y97.488 E3.90526
G1 X87.594 Y97.234 E3.91049
G1 X87.562 Y96.810 E3.91926
G1 X87.481 Y96.318 E3.92955
G1 X87.450 Y95.973 E3.93667
G1 X87.464 Y95.694 E3.94244
G1 X87.494 Y95.542 E3.94562
G1 X87.590 Y95.316 E3.95069
G1 X87.657 Y95.249 F7800.000
G1 X89.605 Y101.244 F7800.000
G1 F1200
G1 X89.111 Y100.749 E3.97077
G1 X89.156 Y100.411 E3.98057
G1 X89.175 Y99.856 E3.99652
G1 X90.700 Y101.381 E4.05845
G1 X91.804 Y101.528 E4.09045
G1 X89.094 Y98.818 E4.20055
G1 X89.067 Y98.453 E4.21105
G1 X89.121 Y97.888 E4.22736
G1 X92.534 Y101.301 E4.36602
G1 X93.267 Y101.077 E4.38804
G1 X89.179 Y96.989 E4.55409
G1 X89.110 Y96.172 E4.57765
G1 X89.281 Y96.134 E4.58269
G1 X93.952 Y100.805 E4.77243
G1 X94.351 Y100.546 E4.78611
G1 X94.509 Y100.405 E4.79218
G1 X90.171 Y96.067 E4.96838
G1 X91.017 Y95.955 E4.99287
G1 X94.881 Y99.820 E5.14986
G1 X94.932 Y99.650 E5.15496
G1 X94.973 Y99.317 E5.16459
G1 X94.981 Y98.962 E5.17479
G1 X92.218 Y96.199 E5.28702
G1 X92.937 Y96.418 E5.30860
G1 X93.437 Y96.627 E5.32418
G1 X93.647 Y96.748 E5.33114
G1 X93.856 Y96.900 E5.33856
G1 X94.068 Y97.093 E5.34680
G1 X94.565 Y97.590 E5.36698
G1 E3.36698 F2400.00000
G92 E0
G1 X99.363 Y98.722 F7800.000
G1 E2.00000 F2400.00000
G1 F900
G1 X99.701 Y98.504 E2.01085
G1 X100.391 Y98.117 E2.03219
G1 X100.765 Y97.975 E2.04299
G1 X101.092 Y97.931 E2.05188
G1 X101.691 Y97.974 E2.06810
G1 X102.265 Y98.087 E2.08386
G1 X102.925 Y98.277 E2.10240
G1 X103.467 Y98.477 E2.11799
G1 X104.042 Y98.727 E2.13490
G1 X102.973 Y99.149 E2.16591
G1 X102.484 Y99.300 E2.17971
G1 X102.039 Y99.409 E2.19208
G1 X101.544 Y99.490 E2.20560
G1 X101.198 Y99.513 E2.21495
G1 X100.789 Y99.474 E2.22603
G1 X100.392 Y99.326 E2.23747
G1 X99.664 Y98.916 E2.26001
G1 X99.426 Y98.762 E2.26766
G1 X98.329 Y98.721 F7800.000
G1 F900
G1 X99.412 Y98.023 E2.29420
G1 X100.145 Y97.612 E2.31152
G1 X100.470 Y97.476 E2.31880
G1 X100.651 Y97.424 E2.32267
G1 X101.055 Y97.371 E2.33107
G1 X101.275 Y97.371 E2.33561
G1 X101.772 Y97.418 E2.34590
G1 X102.397 Y97.541 E2.35902
G1 X103.100 Y97.744 E2.37411
G1 X103.676 Y97.957 E2.38676
G1 X104.284 Y98.221 E2.40044
G1 X104.956 Y98.576 E2.41609
G1 X105.078 Y98.618 E2.41874
G1 X105.065 Y98.838 E2.42328
G1 X104.970 Y98.859 E2.42527
G1 X104.435 Y99.149 E2.43782
G1 X104.094 Y99.309 E2.44559
G1 X103.159 Y99.679 E2.46632
G1 X102.633 Y99.841 E2.47765
G1 X102.150 Y99.958 E2.48789
G1 X101.609 Y100.047 E2.49921
G1 X101.209 Y100.075 E2.50747
G1 X100.971 Y100.067 E2.51236
G1 X100.675 Y100.024 E2.51854
G1 X100.493 Y99.975 E2.52243
G1 X100.146 Y99.831 E2.53016
G1 X99.374 Y99.397 E2.54842
G1 X98.392 Y98.762 E2.57253
G1 X98.819 Y98.622 F7800.000
G1 X100.051 Y98.672 F7800.000
G1 F1200
G1 X100.921 Y98.722 E2.60293
G1 F1200
G1 X101.455 Y98.724 E2.62284
G1 F1200
G1 X102.099 Y98.728 E2.64489
G1 F1200
G1 X103.131 Y98.745 E2.67694
M106 S244.8
G1 Z8.100 F7800.000
G1 E0.67694 F2400.00000
G92 E0
G1 X89.053 Y95.948 F7800.000
G1 E2.00000 F2400.00000
G1 F900
G1 X89.950 Y95.810 E2.02449
G1 X91.030 Y95.680 E2.05382
G1 X91.435 Y95.648 E2.06477
G1 X91.907 Y95.809 E2.07824
G1 X93.064 Y96.130 E2.11062
G1 X93.591 Y96.302 E2.12557
G1 X93.837 Y96.402 E2.13274
G1 X94.171 Y96.572 E2.14284
G1 X94.511 Y96.797 E2.15384
G1 X94.672 Y96.933 E2.15953
G1 X94.810 Y97.084 E2.16505
G1 X94.944 Y97.296 E2.17183
G1 X95.034 Y97.520 E2.17834
G1 X95.092 Y97.743 E2.18456
G1 X95.153 Y98.172 E2.19625
G1 X95.173 Y98.780 E2.21265
G1 X95.151 Y99.287 E2.22632
G1 X95.094 Y99.679 E2.23702
G1 X94.987 Y100.045 E2.24731
G1 X94.873 Y100.270 E2.25412
G1 X94.658 Y100.526 E2.26314
G1 X94.391 Y100.735 E2.27229
G1 X94.142 Y100.888 E2.28017
G1 X93.841 Y101.037 E2.28924
G1 X93.502 Y101.173 E2.29909
G1 X93.024 Y101.325 E2.31263
G1 X91.846 Y101.653 E2.34560
G1 X91.426 Y101.797 E2.35757
G1 X89.729 Y101.598 E2.40366
G1 X89.051 Y101.487 E2.42220
G1 X89.197 Y100.864 E2.43947
G1 X89.259 Y100.267 E2.45566
G1 X89.235 Y99.691 E2.47120
G1 X89.118 Y98.746 E2.49689
G1 X89.127 Y98.553 E2.50210
G1 X89.229 Y97.786 E2.52299
G1 X89.264 Y97.209 E2.53859
G1 X89.195 Y96.583 E2.55557
G1 X89.070 Y96.021 E2.57109
G1 X88.356 Y95.462 F7800.000
G1 F900
G1 X88.864 Y95.334 E2.58523
G1 X89.864 Y95.180 E2.61252
G1 X90.967 Y95.047 E2.64251
G1 X91.516 Y95.005 E2.65735
G1 X92.095 Y95.202 E2.67384
G1 X93.247 Y95.521 E2.70611
G1 X93.809 Y95.705 E2.72205
G1 X94.101 Y95.823 E2.73056
G1 X94.491 Y96.022 E2.74237
G1 X94.892 Y96.287 E2.75532
G1 X95.114 Y96.474 E2.76316
G1 X95.318 Y96.698 E2.77133
G1 X95.512 Y97.005 E2.78113
G1 X95.639 Y97.321 E2.79033
G1 X95.716 Y97.619 E2.79863
G1 X95.787 Y98.117 E2.81219
G1 X95.809 Y98.783 E2.83017
G1 X95.785 Y99.346 E2.84538
G1 X95.717 Y99.814 E2.85813
G1 X95.582 Y100.276 E2.87112
G1 X95.385 Y100.649 E2.88249
G1 X95.122 Y100.962 E2.89352
G1 X94.751 Y101.259 E2.90633
G1 X94.451 Y101.445 E2.91586
G1 X94.100 Y101.618 E2.92642
G1 X93.717 Y101.771 E2.93756
G1 X93.205 Y101.934 E2.95203
G1 X92.034 Y102.261 E2.98483
G1 X91.512 Y102.440 E2.99972
G1 X91.169 Y102.417 E3.00898
G1 X89.639 Y102.227 E3.05059
G1 X88.708 Y102.075 E3.07604
G1 X88.345 Y101.974 E3.08620
G1 X88.362 Y101.643 E3.09513
G1 X88.569 Y100.758 E3.11965
G1 X88.622 Y100.247 E3.13350
G1 X88.601 Y99.747 E3.14701
G1 X88.482 Y98.747 E3.17418
G1 X88.493 Y98.497 E3.18094
G1 X88.596 Y97.725 E3.20195
G1 X88.626 Y97.224 E3.21547
G1 X88.567 Y96.687 E3.23005
G1 X88.358 Y95.754 E3.25586
G1 X88.356 Y95.537 E3.26169
G1 X87.889 Y95.234 F7800.000
G1 F900
G1 X87.926 Y95.159 E3.26343
G1 X88.104 Y94.972 E3.26875
G1 X88.371 Y94.870 E3.27463
G1 X88.760 Y94.783 E3.28284
G1 X89.788 Y94.625 E3.30428
G1 X90.912 Y94.489 E3.32762
G1 X91.498 Y94.444 E3.33974
G1 X91.632 Y94.452 E3.34250
G1 X92.260 Y94.666 E3.35617
G1 X93.409 Y94.984 E3.38076
G1 X94.001 Y95.178 E3.39359
G1 X94.334 Y95.312 E3.40099
G1 X94.774 Y95.537 E3.41118
G1 X95.228 Y95.837 E3.42239
G1 X95.504 Y96.069 E3.42982
G1 X95.766 Y96.357 E3.43785
G1 X96.012 Y96.748 E3.44737
G1 X96.173 Y97.146 E3.45621
G1 X96.267 Y97.510 E3.46395
G1 X96.346 Y98.068 E3.47557
G1 X96.370 Y98.786 E3.49039
G1 X96.343 Y99.399 E3.50303
G1 X96.266 Y99.933 E3.51415
G1 X96.107 Y100.480 E3.52590
G1 X95.929 Y100.840 E3.53416
G1 X95.837 Y100.983 E3.53767
G1 X95.532 Y101.347 E3.54746
G1 X95.415 Y101.458 E3.55078
G1 X95.069 Y101.721 E3.55973
G1 X94.723 Y101.935 E3.56813
G1 X94.329 Y102.130 E3.57720
G1 X93.906 Y102.299 E3.58658
G1 X93.366 Y102.472 E3.59826
G1 X92.201 Y102.796 E3.62320
G1 X91.636 Y102.990 E3.63549
G1 X91.489 Y103.000 E3.63854
G1 X91.117 Y102.976 E3.64622
G1 X89.559 Y102.782 E3.67857
G1 X88.587 Y102.623 E3.69888
G1 X88.197 Y102.514 E3.70722
G1 X88.033 Y102.410 E3.71123
G1 X87.889 Y102.222 E3.71611
G1 X87.811 Y102.026 E3.72045
G1 X87.788 Y101.884 E3.72342
G1 X87.805 Y101.565 E3.73001
G1 X88.015 Y100.665 E3.74906
G1 X88.060 Y100.230 E3.75807
G1 X88.042 Y99.796 E3.76702
G1 X87.931 Y98.967 E3.78425
G1 X87.920 Y98.748 E3.78879
G1 X87.935 Y98.446 E3.79500
G1 X88.038 Y97.671 E3.81113
G1 X88.064 Y97.238 E3.82007
G1 X88.014 Y96.779 E3.82957
G1 X87.798 Y95.818 E3.84987
G1 X87.795 Y95.497 E3.85650
G1 X87.856 Y95.302 E3.86071
G1 X87.972 Y95.225 F7800.000
G1 E1.86071 F2400.00000
G92 E0
G1 X90.070 Y96.226 F7800.000
G1 E2.00000 F2400.00000
G1 F1200
G1 X89.575 Y96.720 E2.02095
G1 X89.655 Y97.440 E2.04264
G1 X89.642 Y97.652 E2.04899
G1 X91.213 Y96.080 E2.11555
G1 X91.601 Y96.045 E2.12721
G1 X92.088 Y96.203 E2.14257
G1 X89.526 Y98.766 E2.25113
G1 X89.508 Y98.969 E2.25723
G1 X89.597 Y99.692 E2.27906
G1 X92.870 Y96.420 E2.41767
G1 X93.622 Y96.666 E2.44138
G1 X89.637 Y100.651 E2.61019
G1 X89.577 Y101.216 E2.62723
G1 X90.018 Y101.268 E2.64051
G1 X94.286 Y97.000 E2.82132
G1 X94.477 Y97.144 E2.82850
G1 X94.549 Y97.223 E2.83169
G1 X94.623 Y97.340 E2.83585
G1 X94.704 Y97.580 E2.84342
G1 X90.911 Y101.373 E3.00409
G1 X91.110 Y101.396 E3.01008
G1 X91.410 Y101.293 E3.01960
G1 X92.212 Y101.070 E3.04454
G1 X94.783 Y98.499 E3.15344
G1 X94.765 Y98.980 E3.16785
G1 X94.719 Y99.297 E3.17745
G1 X94.640 Y99.567 E3.18588
G1 X94.597 Y99.653 E3.18877
G1 X94.460 Y99.820 E3.19523
G1 X93.965 Y100.316 E3.21622
G1 E1.21622 F2400.00000
G92 E0
G1 X100.208 Y98.576 F7800.000
G1 E2.00000 F2400.00000
G1 F900
G1 X100.621 Y98.453 E2.01161
G1 X100.815 Y98.422 E2.01692
G1 X101.079 Y98.408 E2.02406
G1 X101.519 Y98.435 E2.03593
G1 X102.232 Y98.570 E2.05550
G1 X102.227 Y98.880 E2.06386
G1 X101.691 Y98.984 E2.07860
G1 X101.372 Y99.024 E2.08728
G1 X101.063 Y99.037 E2.09562
G1 X100.751 Y99.014 E2.10404
G1 X100.206 Y98.858 E2.11933
G1 X100.208 Y98.651 E2.12492
G1 X98.682 Y98.722 F7800.000
G1 F900
G1 X99.796 Y98.147 E2.15075
G1 X100.088 Y98.027 E2.15727
G1 X100.495 Y97.906 E2.16603
G1 X100.755 Y97.863 E2.17145
G1 X101.082 Y97.846 E2.17820
G1 X101.581 Y97.878 E2.18850
G1 X102.019 Y97.948 E2.19765
G1 X102.516 Y98.059 E2.20814
G1 X103.305 Y98.284 E2.22505
G1 X104.243 Y98.608 E2.24550
G1 X104.252 Y98.820 E2.24987
G1 X103.501 Y99.100 E2.26638
G1 X102.749 Y99.322 E2.28256
G1 X102.268 Y99.443 E2.29278
G1 X101.779 Y99.538 E2.30304
G1 X101.418 Y99.583 E2.31054
G1 X101.054 Y99.598 E2.31805
G1 X100.682 Y99.571 E2.32574
G1 X100.506 Y99.540 E2.32942
G1 X99.980 Y99.375 E2.34078
G1 X99.361 Y99.084 E2.35488
G1 X98.748 Y98.757 E2.36918
G1 X99.176 Y98.641 F7800.000
M106 S247.35
G1 Z8.400 F7800.000
G1 E0.36918 F2400.00000
G92 E0
G1 X89.496 Y101.480 F7800.000
G1 E2.00000 F2400.00000
G1 F900
G1 X89.661 Y100.975 E2.01434
G1 X89.752 Y100.307 E2.03252
G1 X89.719 Y99.684 E2.04935
G1 X89.591 Y98.901 E2.07077
G1 X89.579 Y98.696 E2.07630
G1 X89.738 Y97.588 E2.10649
G1 X89.740 Y96.905 E2.12491
G1 X89.592 Y96.245 E2.14318
G1 X89.492 Y95.959 E2.15134
G1 X90.816 Y95.817 E2.18725
G1 X91.237 Y95.818 E2.19861
G1 X91.944 Y96.021 E2.21846
G1 X93.353 Y96.382 E2.25768
G1 X93.740 Y96.509 E2.26868
G1 X94.031 Y96.634 E2.27722
G1 X94.255 Y96.755 E2.28409
G1 X94.460 Y96.914 E2.29109
G1 X94.551 Y97.009 E2.29464
G1 X94.679 Y97.189 E2.30058
G1 X94.768 Y97.382 E2.30632
G1 X94.844 Y97.619 E2.31304
G1 X94.902 Y97.922 E2.32136
G1 X94.946 Y98.506 E2.33717
G1 X94.936 Y99.173 E2.35515
G1 X94.894 Y99.571 E2.36594
G1 X94.803 Y99.959 E2.37670
G1 X94.673 Y100.261 E2.38557
G1 X94.446 Y100.537 E2.39522
G1 X94.181 Y100.729 E2.40404
G1 X93.728 Y100.939 E2.41751
G1 X93.470 Y101.024 E2.42483
G1 X91.877 Y101.441 E2.46926
G1 X91.337 Y101.600 E2.48446
G1 X91.172 Y101.630 E2.48897
G1 X90.782 Y101.622 E2.49950
G1 X89.570 Y101.490 E2.53238
G1 X88.665 Y101.975 F7800.000
G1 F900
G1 X89.039 Y100.832 E2.56481
G1 X89.114 Y100.281 E2.57982
G1 X89.086 Y99.752 E2.59410
G1 X88.959 Y98.972 E2.61544
G1 X88.941 Y98.684 E2.62320
G1 X88.973 Y98.367 E2.63180
G1 X89.103 Y97.538 E2.65445
G1 X89.104 Y96.975 E2.66964
G1 X88.980 Y96.420 E2.68499
G1 X88.763 Y95.799 E2.70271
G1 X88.675 Y95.455 E2.71229
G1 X89.243 Y95.349 E2.72788
G1 X89.997 Y95.257 E2.74837
G1 X90.777 Y95.183 E2.76950
G1 X91.152 Y95.172 E2.77964
G1 X91.356 Y95.191 E2.78515
G1 X92.111 Y95.407 E2.80634
G1 X93.532 Y95.771 E2.84590
G1 X93.965 Y95.914 E2.85821
G1 X94.309 Y96.061 E2.86830
G1 X94.589 Y96.214 E2.87692
G1 X94.897 Y96.452 E2.88741
G1 X95.032 Y96.593 E2.89268
G1 X95.239 Y96.885 E2.90233
G1 X95.362 Y97.151 E2.91025
G1 X95.461 Y97.462 E2.91904
G1 X95.533 Y97.838 E2.92936
G1 X95.582 Y98.488 E2.94695
G1 X95.571 Y99.211 E2.96646
G1 X95.522 Y99.676 E2.97909
G1 X95.409 Y100.159 E2.99247
G1 X95.235 Y100.563 E3.00432
G1 X95.168 Y100.665 E3.00763
G1 X94.902 Y100.983 E3.01881
G1 X94.765 Y101.103 E3.02372
G1 X94.509 Y101.275 E3.03204
G1 X94.287 Y101.393 E3.03882
G1 X93.952 Y101.534 E3.04863
G1 X93.651 Y101.634 E3.05718
G1 X92.047 Y102.053 E3.10190
G1 X91.485 Y102.219 E3.11772
G1 X91.223 Y102.267 E3.12489
G1 X90.745 Y102.256 E3.13780
G1 X89.991 Y102.185 E3.15824
G1 X89.060 Y102.065 E3.18355
G1 X88.739 Y101.992 E3.19244
G1 E1.19244 F2400.00000
G92 E0
G1 X88.144 Y95.333 F7800.000
G1 E2.00000 F2400.00000
G1 F900
G1 X88.194 Y95.216 E2.00263
G1 X88.302 Y95.084 E2.00614
G1 X88.507 Y94.947 E2.01122
G1 X88.688 Y94.883 E2.01518
G1 X89.158 Y94.795 E2.02503
G1 X89.936 Y94.700 E2.04120
G1 X90.742 Y94.623 E2.05788
G1 X91.171 Y94.610 E2.06672
G1 X91.460 Y94.638 E2.07271
G1 X92.258 Y94.866 E2.08981
G1 X93.689 Y95.233 E2.12026
G1 X94.163 Y95.389 E2.13055
G1 X94.554 Y95.556 E2.13931
G1 X94.885 Y95.736 E2.14707
G1 X95.092 Y95.880 E2.15227
G1 X95.283 Y96.044 E2.15745
G1 X95.457 Y96.225 E2.16263
G1 X95.733 Y96.617 E2.17251
G1 X95.886 Y96.948 E2.18004
G1 X96.005 Y97.323 E2.18814
G1 X96.090 Y97.763 E2.19738
G1 X96.143 Y98.471 E2.21201
G1 X96.131 Y99.244 E2.22794
G1 X96.076 Y99.769 E2.23883
G1 X95.944 Y100.336 E2.25082
G1 X95.730 Y100.829 E2.26189
G1 X95.619 Y101.000 E2.26609
G1 X95.303 Y101.376 E2.27622
G1 X95.107 Y101.548 E2.28159
G1 X94.798 Y101.757 E2.28929
G1 X94.528 Y101.900 E2.29559
G1 X94.149 Y102.059 E2.30406
G1 X93.810 Y102.172 E2.31142
G1 X92.197 Y102.593 E2.34577
G1 X91.615 Y102.765 E2.35828
G1 X91.268 Y102.829 E2.36555
G1 X90.712 Y102.817 E2.37701
G1 X89.928 Y102.742 E2.39324
G1 X88.962 Y102.618 E2.41333
G1 X88.585 Y102.532 E2.42130
G1 X88.388 Y102.426 E2.42590
G1 X88.224 Y102.267 E2.43060
G1 X88.145 Y102.110 E2.43424
G1 X88.131 Y102.002 E2.43648
G1 X88.165 Y101.703 E2.44269
G1 X88.490 Y100.706 E2.46429
G1 X88.551 Y100.258 E2.47362
G1 X88.528 Y99.812 E2.48281
G1 X88.401 Y99.034 E2.49906
G1 X88.379 Y98.674 E2.50650
G1 X88.416 Y98.296 E2.51433
G1 X88.542 Y97.493 E2.53107
G1 X88.543 Y97.036 E2.54050
G1 X88.440 Y96.574 E2.55026
G1 X88.226 Y95.962 E2.56362
G1 X88.151 Y95.671 E2.56982
G1 X88.136 Y95.408 E2.57525
G1 X88.267 Y95.300 F7800.000
G1 E0.57525 F2400.00000
G92 E0
G1 X90.061 Y100.683 F7800.000
G1 E2.00000 F2400.00000
G1 F1200
G1 X90.556 Y101.177 E2.01907
G1 X91.071 Y101.234 E2.03319
G1 X91.368 Y101.241 E2.04130
G1 X91.497 Y101.210 E2.04491
G1 X90.130 Y99.843 E2.09762
G1 X90.105 Y99.369 E2.11056
G1 X90.015 Y98.820 E2.12572
G1 X92.205 Y101.010 E2.21015
G1 X92.925 Y100.821 E2.23044
G1 X90.046 Y97.943 E2.34143
G1 X90.126 Y97.388 E2.35672
G1 X90.127 Y97.115 E2.36415
G1 X93.635 Y100.623 E2.49939
G1 X93.981 Y100.492 E2.50949
G1 X94.241 Y100.320 E2.51797
G1 X90.172 Y96.252 E2.67481
G1 X90.602 Y96.206 E2.68659
G1 X90.900 Y96.207 E2.69472
G1 X91.090 Y96.261 E2.70010
G1 X94.516 Y99.687 E2.83219
G1 X94.548 Y99.382 E2.84055
G1 X94.557 Y98.819 E2.85590
G1 X92.329 Y96.592 E2.94179
G1 X92.928 Y96.745 E2.95863
G1 X93.268 Y96.857 E2.96841
G1 X93.507 Y96.959 E2.97548
G1 X93.659 Y97.042 E2.98021
G1 X93.786 Y97.140 E2.98458
G1 X94.284 Y97.638 E3.00379
G1 E1.00379 F2400.00000
G92 E0
G1 X99.525 Y98.829 F7800.000
G1 E2.00000 F2400.00000
G1 F900
G1 X99.525 Y98.617 E2.00438
G1 X100.081 Y98.440 E2.01639
G1 X100.607 Y98.345 E2.02742
G1 X101.158 Y98.329 E2.03877
G1 X101.542 Y98.358 E2.04671
G1 X102.358 Y98.471 E2.06368
G1 X102.961 Y98.603 E2.07642
G1 X102.963 Y98.836 E2.08122
G1 X102.301 Y98.990 E2.09523
G1 X101.421 Y99.101 E2.11350
G1 X101.049 Y99.119 E2.12119
G1 X100.674 Y99.106 E2.12892
G1 X100.297 Y99.054 E2.13676
G1 X99.596 Y98.852 E2.15179
G1 X99.648 Y98.656 F7800.000
G1 E0.15179 F2400.00000
G92 E0
G1 X103.276 Y98.348 F7800.000
G1 E2.00000 F2400.00000
G1 F1800
G1 X103.341 Y98.428 E2.00172
G1 F1800
G1 X103.472 Y98.587 E2.00599
G1 F1800
G1 X103.574 Y98.719 E2.01003
G1 X103.665 Y98.724 E2.01224
G1 F1800
G1 X103.736 Y98.725 E2.01378
G1 F1800
G1 X103.809 Y98.720 E2.01508
G1 F1800
G1 X103.885 Y98.710 E2.01615
G1 F1800
G1 X104.080 Y98.716 E2.01822
G1 F1800
G1 X104.281 Y98.720 E2.01970
G1 F1800
G1 X104.358 Y98.722 E2.02051
G1 F1800
G1 X104.530 Y98.725 E2.02279
G1 E0.02279 F2400.00000
G92 E0
G1 X99.251 Y98.430 F7800.000
G1 E2.00000 F2400.00000
G1 F1800
G1 X99.026 Y98.721 E2.00598
G1 X98.925 Y98.715 E2.00764
G1 F1800
G1 X98.695 Y98.721 E2.01086
G1 F1800
G1 X98.480 Y98.729 E2.01314
G1 X100.271 Y98.724 F7800.000
G1 F1200
G1 X100.362 Y98.727 E2.01330
G1 F1200
G1 X101.503 Y98.722 E2.01956
G1 F1200
G1 X101.875 Y98.724 E2.02055
M106 S249.9
G1 Z8.700 F7800.000
G1 E0.02055 F2400.00000
G92 E0
G1 X90.037 Y101.440 F7800.000
G1 E2.00000 F2400.00000
G1 F900
G1 X90.183 Y101.016 E2.01210
G1 X90.257 Y100.641 E2.02243
G1 X90.282 Y100.220 E2.03379
G1 X90.213 Y99.605 E2.05050
G1 X90.059 Y98.859 E2.07104
G1 X90.048 Y98.710 E2.07505
G1 X90.065 Y98.548 E2.07946
G1 X90.204 Y97.893 E2.09753
G1 X90.273 Y97.398 E2.11101
G1 X90.253 Y96.724 E2.12920
G1 X90.049 Y96.011 E2.14921
G1 X90.688 Y95.977 E2.16647
G1 X90.917 Y95.991 E2.17267
G1 X93.122 Y96.500 E2.23372
G1 X93.528 Y96.627 E2.24519
G1 X93.865 Y96.785 E2.25522
G1 X94.156 Y96.983 E2.26472
G1 X94.279 Y97.093 E2.26917
G1 X94.476 Y97.348 E2.27786
G1 X94.569 Y97.555 E2.28399
G1 X94.629 Y97.766 E2.28991
G1 X94.685 Y98.155 E2.30051
G1 X94.706 Y98.590 E2.31226
G1 X94.688 Y99.271 E2.33064
G1 X94.653 Y99.555 E2.33836
G1 X94.602 Y99.787 E2.34475
G1 X94.534 Y99.977 E2.35021
G1 X94.363 Y100.259 E2.35910
G1 X94.002 Y100.570 E2.37195
G1 X93.811 Y100.689 E2.37803
G1 X93.313 Y100.889 E2.39250
G1 X91.141 Y101.411 E2.45276
G1 X90.895 Y101.454 E2.45950
G1 X90.667 Y101.468 E2.46568
G1 X90.112 Y101.445 E2.48065
G1 X89.108 Y101.951 F7800.000
G1 F900
G1 X89.472 Y101.129 E2.50490
G1 X89.568 Y100.851 E2.51284
G1 X89.625 Y100.560 E2.52082
G1 X89.644 Y100.237 E2.52955
G1 X89.585 Y99.704 E2.54401
G1 X89.428 Y98.947 E2.56488
G1 X89.410 Y98.700 E2.57154
G1 X89.436 Y98.449 E2.57837
G1 X89.578 Y97.783 E2.59673
G1 X89.636 Y97.363 E2.60817
G1 X89.620 Y96.822 E2.62276
G1 X89.479 Y96.328 E2.63664
G1 X89.112 Y95.496 E2.66116
G1 X89.435 Y95.423 E2.67010
G1 X89.661 Y95.395 E2.67624
G1 X90.691 Y95.340 E2.70408
G1 X91.162 Y95.389 E2.71684
G1 X93.290 Y95.887 E2.77579
G1 X93.759 Y96.033 E2.78906
G1 X94.169 Y96.226 E2.80129
G1 X94.336 Y96.330 E2.80658
G1 X94.553 Y96.486 E2.81381
G1 X94.728 Y96.642 E2.82011
G1 X94.888 Y96.820 E2.82659
G1 X95.034 Y97.040 E2.83371
G1 X95.167 Y97.336 E2.84246
G1 X95.252 Y97.633 E2.85078
G1 X95.319 Y98.094 E2.86336
G1 X95.342 Y98.583 E2.87657
G1 X95.323 Y99.318 E2.89641
G1 X95.280 Y99.663 E2.90576
G1 X95.214 Y99.963 E2.91406
G1 X95.115 Y100.240 E2.92199
G1 X94.946 Y100.546 E2.93143
G1 X94.695 Y100.828 E2.94161
G1 X94.371 Y101.089 E2.95283
G1 X94.110 Y101.251 E2.96112
G1 X93.771 Y101.403 E2.97114
G1 X93.128 Y101.596 E2.98925
G1 X92.084 Y101.827 E3.01810
G1 X91.275 Y102.032 E3.04062
G1 X90.970 Y102.086 E3.04898
G1 X90.679 Y102.104 E3.05684
G1 X90.334 Y102.097 E3.06615
G1 X89.784 Y102.061 E3.08102
G1 X89.182 Y101.967 E3.09746
G1 X88.540 Y102.062 F7800.000
G1 F900
G1 X88.558 Y101.862 E3.10160
G1 X88.593 Y101.729 E3.10442
G1 X88.950 Y100.924 E3.12258
G1 X89.025 Y100.705 E3.12736
G1 X89.068 Y100.490 E3.13188
G1 X89.082 Y100.252 E3.13678
G1 X89.030 Y99.792 E3.14632
G1 X88.872 Y99.024 E3.16248
G1 X88.847 Y98.692 E3.16935
G1 X88.882 Y98.361 E3.17620
G1 X89.025 Y97.686 E3.19043
G1 X89.075 Y97.332 E3.19779
G1 X89.062 Y96.909 E3.20651
G1 X88.950 Y96.519 E3.21488
G1 X88.594 Y95.712 E3.23304
G1 X88.535 Y95.440 E3.23878
G1 X88.546 Y95.336 E3.24094
G1 X88.600 Y95.226 E3.24347
G1 X88.743 Y95.092 E3.24751
G1 X88.856 Y95.023 E3.25024
G1 X89.099 Y94.924 E3.25564
G1 X89.338 Y94.870 E3.26070
G1 X89.612 Y94.836 E3.26638
G1 X90.694 Y94.778 E3.28872
G1 X91.060 Y94.802 E3.29627
G1 X91.274 Y94.840 E3.30076
G1 X93.437 Y95.345 E3.34654
G1 X93.963 Y95.509 E3.35789
G1 X94.438 Y95.733 E3.36872
G1 X94.648 Y95.864 E3.37382
G1 X94.904 Y96.048 E3.38032
G1 X95.124 Y96.243 E3.38637
G1 X95.333 Y96.476 E3.39283
G1 X95.527 Y96.769 E3.40006
G1 X95.695 Y97.143 E3.40852
G1 X95.801 Y97.515 E3.41648
G1 X95.878 Y98.041 E3.42744
G1 X95.903 Y98.578 E3.43851
G1 X95.882 Y99.360 E3.45465
G1 X95.834 Y99.757 E3.46289
G1 X95.754 Y100.119 E3.47052
G1 X95.627 Y100.471 E3.47824
G1 X95.415 Y100.856 E3.48730
G1 X95.262 Y101.052 E3.49243
G1 X95.071 Y101.245 E3.49802
G1 X94.697 Y101.547 E3.50793
G1 X94.374 Y101.747 E3.51576
G1 X93.978 Y101.925 E3.52471
G1 X93.663 Y102.034 E3.53159
G1 X93.261 Y102.141 E3.54016
G1 X92.214 Y102.372 E3.56226
G1 X91.393 Y102.581 E3.57971
G1 X91.035 Y102.644 E3.58720
G1 X90.690 Y102.665 E3.59433
G1 X90.310 Y102.657 E3.60216
G1 X89.731 Y102.619 E3.61413
G1 X89.299 Y102.565 E3.62310
G1 X89.111 Y102.525 E3.62706
G1 X88.861 Y102.423 E3.63262
G1 X88.717 Y102.334 E3.63612
G1 X88.604 Y102.225 E3.63936
G1 X88.557 Y102.134 E3.64146
G1 X88.699 Y101.939 F7800.000
G1 E1.64146 F2400.00000
G92 E0
G1 X93.624 Y100.092 F7800.000
G1 E2.00000 F2400.00000
G1 F1200
G1 X94.119 Y99.596 E2.02171
G1 X94.204 Y99.455 E2.02680
G1 X94.273 Y99.201 E2.03496
G1 X94.301 Y98.977 E2.04196
G1 X94.317 Y98.367 E2.06086
G1 X91.927 Y100.756 E2.16552
G1 X90.624 Y101.060 E2.20697
G1 X90.632 Y101.019 E2.20825
G1 X94.189 Y97.463 E2.36404
G1 X94.137 Y97.368 E2.36737
G1 X93.991 Y97.223 E2.37376
G1 X93.897 Y97.155 E2.37736
G1 X93.610 Y97.009 E2.38731
G1 X90.622 Y99.998 E2.51822
G1 X90.594 Y99.752 E2.52588
G1 X90.464 Y99.123 E2.54578
G1 X92.811 Y96.776 E2.64856
G1 X91.972 Y96.583 E2.67521
G1 X90.628 Y97.927 E2.73408
G1 X90.663 Y97.680 E2.74181
G1 X90.639 Y96.884 E2.76647
G1 X91.134 Y96.389 E2.78813
G1 E0.78813 F2400.00000
G92 E0
G1 X102.176 Y98.717 F7800.000
G1 E2.00000 F2400.00000
G1 F1800
G1 X101.761 Y98.729 E2.00723
G1 F1800
G1 X101.594 Y98.726 E2.01068
G1 F1800
G1 X100.972 Y98.723 E2.02529
G1 F1800
G1 X100.033 Y98.726 E2.04530
G1 F1800
G1 X99.964 Y98.721 E2.04650
G1 F1800
G1 X99.834 Y98.725 E2.04844
G1 F1800
G1 X99.720 Y98.732 E2.04971
G1 F1800
G1 X99.574 Y98.719 E2.05095
G1 F1800
G1 X98.991 Y98.715 E2.05755
G1 E0.05755 F2400.00000
G92 E0
G1 X102.409 Y98.722 F7800.000
G1 E2.00000 F2400.00000
G1 F1800
G1 X102.686 Y98.719 E2.00571
G1 F1800
G1 X102.771 Y98.721 E2.00723
G1 F1800
G1 X102.835 Y98.727 E2.00818
G1 F1800
G1 X102.898 Y98.733 E2.00892
G1 F1800
G1 X102.957 Y98.744 E2.00942
G1 F1800
G1 X103.081 Y98.754 E2.01011
G1 X103.259 Y98.705 E2.01113
G1 F1800
G1 X103.351 Y98.700 E2.01184
G1 F1800
G1 X103.398 Y98.707 E2.01232
G1 F1800
G1 X103.452 Y98.712 E2.01306
G1 F1800
G1 X103.620 Y98.723 E2.01585
G1 F1800
G1 X103.672 Y98.729 E2.01654
G1 F1800
G1 X103.718 Y98.729 E2.01702
G1 F1800
G1 X103.856 Y98.689 E2.01803
M106 S255
G1 Z9.000 F7800.000
G1 E0.01803 F2400.00000
G92 E0
G1 X90.785 Y101.124 F7800.000
G1 E2.00000 F2400.00000
G1 F796.697
G1 X90.856 Y100.826 E2.00828
G1 X90.878 Y100.362 E2.02081
G1 X90.826 Y99.933 E2.03246
G1 X90.549 Y98.880 E2.06183
G1 X90.526 Y98.730 E2.06593
G1 X90.843 Y97.384 E2.10324
G1 X90.879 Y96.960 E2.11470
G1 X90.829 Y96.330 E2.13175
G1 X91.332 Y96.465 E2.14579
G1 X91.673 Y96.593 E2.15563
G1 X92.279 Y96.913 E2.17411
G1 X92.803 Y97.157 E2.18969
G1 X93.537 Y97.393 E2.21050
G1 X94.019 Y97.508 E2.22388
G1 X94.251 Y97.600 E2.23059
G1 X94.333 Y97.753 E2.23529
G1 X94.393 Y97.976 E2.24150
G1 X94.443 Y98.546 E2.25695
G1 X94.440 Y98.986 E2.26880
G1 X94.388 Y99.494 E2.28260
G1 X94.319 Y99.720 E2.28897
G1 X94.234 Y99.849 E2.29313
G1 X94.078 Y99.916 E2.29772
G1 X92.967 Y100.226 E2.32883
G1 X92.440 Y100.455 E2.34434
G1 X91.676 Y100.850 E2.36754
G1 X91.369 Y100.942 E2.37617
G1 X91.211 Y101.013 E2.38086
G1 X90.858 Y101.105 E2.39071
G1 X89.772 Y101.804 F7800.000
G1 F796.697
G1 X90.006 Y101.390 E2.40354
G1 X90.140 Y101.088 E2.41246
G1 X90.224 Y100.737 E2.42220
G1 X90.240 Y100.386 E2.43168
G1 X90.200 Y100.053 E2.44073
G1 X89.928 Y99.020 E2.46954
G1 X89.889 Y98.724 E2.47759
G1 X89.901 Y98.571 E2.48172
G1 X90.213 Y97.293 E2.51721
G1 X90.241 Y96.959 E2.52627
G1 X90.214 Y96.616 E2.53555
G1 X90.125 Y96.305 E2.54426
G1 X89.956 Y95.952 E2.55483
G1 X89.784 Y95.654 E2.56410
G1 X90.136 Y95.617 E2.57366
G1 X90.741 Y95.648 E2.59001
G1 X91.526 Y95.859 E2.61194
G1 X91.934 Y96.012 E2.62369
G1 X92.561 Y96.344 E2.64282
G1 X93.035 Y96.563 E2.65690
G1 X93.709 Y96.780 E2.67600
G1 X94.211 Y96.901 E2.68994
G1 X94.497 Y97.014 E2.69823
G1 X94.686 Y97.142 E2.70439
G1 X94.782 Y97.251 E2.70830
G1 X94.879 Y97.408 E2.71328
G1 X94.937 Y97.550 E2.71743
G1 X95.017 Y97.850 E2.72581
G1 X95.058 Y98.152 E2.73402
G1 X95.078 Y98.531 E2.74426
G1 X95.075 Y99.011 E2.75720
G1 X95.012 Y99.621 E2.77376
G1 X94.886 Y100.014 E2.78489
G1 X94.686 Y100.299 E2.79428
G1 X94.483 Y100.434 E2.80085
G1 X94.289 Y100.517 E2.80656
G1 X93.180 Y100.826 E2.83760
G1 X92.713 Y101.029 E2.85135
G1 X91.915 Y101.442 E2.87557
G1 X91.592 Y101.539 E2.88468
G1 X91.423 Y101.615 E2.88968
G1 X90.700 Y101.803 E2.90982
G1 X90.413 Y101.836 E2.91761
G1 X90.102 Y101.836 E2.92600
G1 X89.847 Y101.812 E2.93292
G1 X89.116 Y101.969 F7800.000
G1 F900
G1 X89.174 Y101.724 E2.93812
G1 X89.504 Y101.138 E2.95198
G1 X89.607 Y100.907 E2.95719
G1 X89.667 Y100.658 E2.96247
G1 X89.678 Y100.407 E2.96765
G1 X89.648 Y100.158 E2.97281
G1 X89.381 Y99.143 E2.99445
G1 X89.339 Y98.921 E2.99910
G1 X89.327 Y98.719 E3.00327
G1 X89.346 Y98.478 E3.00824
G1 X89.657 Y97.213 E3.03509
G1 X89.679 Y96.957 E3.04039
G1 X89.660 Y96.716 E3.04538
G1 X89.599 Y96.505 E3.04990
G1 X89.460 Y96.214 E3.05656
G1 X89.190 Y95.747 E3.06766
G1 X89.136 Y95.603 E3.07083
G1 X89.112 Y95.482 E3.07338
G1 X89.138 Y95.419 E3.07478
G1 X89.253 Y95.274 E3.07859
G1 X89.500 Y95.164 E3.08417
G1 X89.712 Y95.098 E3.08874
G1 X90.109 Y95.056 E3.09697
G1 X90.403 Y95.059 E3.10302
G1 X90.837 Y95.093 E3.11201
G1 X91.698 Y95.325 E3.13038
G1 X92.164 Y95.500 E3.14065
G1 X92.810 Y95.841 E3.15570
G1 X93.239 Y96.040 E3.16545
G1 X93.860 Y96.240 E3.17889
G1 X94.380 Y96.365 E3.18991
G1 X94.741 Y96.507 E3.19790
G1 X94.908 Y96.603 E3.20188
G1 X95.072 Y96.733 E3.20619
G1 X95.234 Y96.915 E3.21120
G1 X95.380 Y97.153 E3.21698
G1 X95.469 Y97.371 E3.22183
G1 X95.568 Y97.740 E3.22969
G1 X95.616 Y98.099 E3.23716
G1 X95.639 Y98.518 E3.24580
G1 X95.636 Y99.033 E3.25642
G1 X95.562 Y99.734 E3.27094
G1 X95.485 Y100.024 E3.27712
G1 X95.387 Y100.273 E3.28266
G1 X95.168 Y100.607 E3.29088
G1 X95.060 Y100.719 E3.29409
G1 X94.892 Y100.847 E3.29844
G1 X94.732 Y100.937 E3.30222
G1 X94.475 Y101.047 E3.30799
G1 X93.368 Y101.356 E3.33167
G1 X92.953 Y101.536 E3.34099
G1 X92.126 Y101.963 E3.36017
G1 X91.788 Y102.065 E3.36745
G1 X91.610 Y102.145 E3.37149
G1 X90.803 Y102.356 E3.38867
G1 X90.446 Y102.396 E3.39608
G1 X90.076 Y102.397 E3.40370
G1 X89.783 Y102.369 E3.40977
G1 X89.636 Y102.330 E3.41290
G1 X89.504 Y102.255 E3.41602
G1 X89.380 Y102.235 E3.41861
G1 X89.268 Y102.185 E3.42115
G1 X89.156 Y102.033 E3.42504
G1 X89.187 Y101.916 F7800.000
G1 E1.42504 F2400.00000
G92 E0
G1 X91.244 Y99.892 F7800.000
G1 E2.00000 F2400.00000
G1 F1062.26
G1 X91.798 Y100.446 E2.02537
G1 X91.876 Y100.406 E2.02821
G1 X91.847 Y100.290 E2.03208
G1 X92.154 Y100.262 E2.04208
G1 X92.514 Y100.084 E2.05508
G1 X90.928 Y98.497 E2.12773
G1 X91.143 Y97.634 E2.15652
G1 X93.299 Y99.790 E2.25519
G1 X94.006 Y99.592 E2.27897
G1 X94.032 Y99.444 E2.28383
G1 X91.888 Y97.300 E2.38199
G1 X92.262 Y97.483 E2.39548
G1 X93.118 Y97.758 E2.42458
G1 X93.521 Y97.855 E2.43799
G1 X94.015 Y98.349 E2.46063
G1 Z9.300 F7800.000
G1 X91.281 Y99.384 F7800.000
G1 F600
G1 X91.161 Y99.151 E2.46770
G1 X91.021 Y98.718 E2.47997
G1 X91.092 Y98.479 E2.48672
G1 X91.274 Y98.046 E2.49939
G1 X93.462 Y98.225 E2.55861
G1 X94.119 Y98.207 E2.57636
G1 X94.148 Y98.446 E2.58285
G1 X94.151 Y98.942 E2.59624
G1 X94.119 Y99.226 E2.60394
G1 X93.718 Y99.208 E2.61476
G1 X93.233 Y99.225 E2.62785
G1 X91.356 Y99.381 E2.67866
G1 X90.912 Y100.004 F7800.000
G1 F600
G1 X90.828 Y99.894 E2.68238
G1 X90.581 Y99.412 E2.69699
G1 X90.483 Y99.161 E2.70428
G1 X90.382 Y98.754 E2.71558
G1 X90.397 Y98.586 E2.72013
G1 X90.492 Y98.264 E2.72918
G1 X90.679 Y97.821 E2.74215
G1 X90.841 Y97.532 E2.75109
G1 X90.931 Y97.412 E2.75514
G1 X91.441 Y97.421 E2.76890
G1 X93.479 Y97.588 E2.82407
G1 X94.389 Y97.579 E2.84860
G1 X94.539 Y97.611 E2.85275
G1 X94.646 Y97.738 E2.85723
G1 X94.739 Y98.030 E2.86550
G1 X94.783 Y98.406 E2.87572
G1 X94.787 Y98.976 E2.89108
G1 X94.737 Y99.418 E2.90309
G1 X94.699 Y99.576 E2.90748
G1 X94.606 Y99.763 E2.91308
G1 X94.554 Y99.817 E2.91512
G1 X94.469 Y99.849 E2.91758
G1 X94.296 Y99.870 E2.92227
G1 X93.715 Y99.844 E2.93796
G1 X93.272 Y99.860 E2.94992
G1 X91.604 Y100.007 E2.99510
G1 X91.082 Y100.028 E3.00918
G1 X90.986 Y100.014 E3.01180
G1 X90.561 Y100.446 F7800.000
G1 F900
G1 X90.353 Y100.195 E3.01854
G1 X90.069 Y99.643 E3.03132
G1 X89.950 Y99.337 E3.03809
G1 X89.834 Y98.914 E3.04714
G1 X89.819 Y98.755 E3.05042
G1 X89.843 Y98.481 E3.05609
G1 X89.963 Y98.075 E3.06481
G1 X90.174 Y97.575 E3.07600
G1 X90.370 Y97.225 E3.08427
G1 X90.518 Y97.029 E3.08932
G1 X90.660 Y96.926 E3.09295
G1 X90.925 Y96.852 E3.09861
G1 X91.157 Y96.850 E3.10340
G1 X91.474 Y96.862 E3.10993
G1 X93.494 Y97.027 E3.15171
G1 X94.196 Y97.008 E3.16619
G1 X94.461 Y97.021 E3.17166
G1 X94.675 Y97.067 E3.17615
G1 X94.787 Y97.111 E3.17864
G1 X94.895 Y97.176 E3.18125
G1 X95.029 Y97.303 E3.18504
G1 X95.194 Y97.586 E3.19179
G1 X95.290 Y97.919 E3.19894
G1 X95.343 Y98.372 E3.20833
G1 X95.347 Y99.006 E3.22140
G1 X95.290 Y99.516 E3.23198
G1 X95.235 Y99.744 E3.23682
G1 X95.172 Y99.906 E3.24039
G1 X95.057 Y100.103 E3.24509
G1 X94.921 Y100.245 E3.24914
G1 X94.786 Y100.329 E3.25243
G1 X94.619 Y100.391 E3.25611
G1 X94.305 Y100.431 E3.26263
G1 X93.712 Y100.405 E3.27485
G1 X93.306 Y100.419 E3.28323
G1 X91.640 Y100.566 E3.31770
G1 X91.053 Y100.591 E3.32981
G1 X90.747 Y100.546 E3.33619
G1 X90.624 Y100.488 E3.33899
G1 X90.575 Y100.357 F7800.000
G1 E1.33899 F2400.00000
G92 E0
G1 X91.686 Y98.720 F7800.000
G1 E2.00000 F2400.00000
G1 F600
G1 X92.190 Y98.719 E2.01143
G1 F600
G1 X92.693 Y98.717 E2.02103
G1 F600
G1 X93.196 Y98.715 E2.02882
G1 F600
G1 X93.831 Y98.709 E2.03669
G1 Z9.600 F7800.000
G1 X90.991 Y99.052 F7800.000
G1 F600
G1 X90.895 Y98.757 E2.04505
G1 X90.900 Y98.657 E2.04775
G1 X90.970 Y98.437 E2.05398
G1 X91.155 Y98.136 E2.06350
G1 X91.244 Y98.050 E2.06684
G1 X91.319 Y98.009 E2.06914
G1 X91.510 Y97.964 E2.07443
G1 X91.915 Y97.951 E2.08538
G1 X93.365 Y98.017 E2.12452
G1 X94.172 Y98.035 E2.14631
G1 X94.381 Y98.079 E2.15208
G1 X94.433 Y98.263 E2.15724
G1 X94.469 Y98.529 E2.16447
G1 X94.473 Y98.822 E2.17238
G1 X94.447 Y99.118 E2.18040
G1 X94.414 Y99.254 E2.18418
G1 X94.361 Y99.372 E2.18765
G1 X94.164 Y99.409 E2.19306
G1 X93.445 Y99.422 E2.21248
G1 X91.868 Y99.493 E2.25505
G1 X91.529 Y99.481 E2.26421
G1 X91.362 Y99.449 E2.26878
G1 X91.223 Y99.375 E2.27304
G1 X91.154 Y99.307 E2.27566
G1 X91.026 Y99.118 E2.28181
G1 E0.28181 F2400.00000
G92 E0
G1 X94.741 Y99.789 F7800.000
G1 E2.00000 F2400.00000
G1 F600
G1 X94.647 Y99.859 E2.00243
G1 X94.527 Y99.911 E2.00511
G1 X94.222 Y99.969 E2.01151
G1 X93.462 Y99.982 E2.02717
G1 X91.871 Y100.054 E2.05999
G1 X91.465 Y100.040 E2.06837
G1 X91.203 Y99.989 E2.07387
G1 X91.034 Y99.921 E2.07763
G1 X90.869 Y99.814 E2.08168
G1 X90.723 Y99.669 E2.08593
G1 X90.558 Y99.431 E2.09190
G1 X90.477 Y99.279 E2.09545
G1 X90.361 Y98.955 E2.10253
G1 X90.335 Y98.806 E2.10565
G1 X90.351 Y98.532 E2.11132
G1 X90.451 Y98.221 E2.11803
G1 X90.565 Y97.999 E2.12318
G1 X90.728 Y97.769 E2.12899
G1 X90.891 Y97.612 E2.13367
G1 X91.133 Y97.477 E2.13936
G1 X91.435 Y97.405 E2.14577
G1 X91.919 Y97.390 E2.15575
G1 X93.383 Y97.457 E2.18597
G1 X94.236 Y97.475 E2.20355
G1 X94.554 Y97.542 E2.21024
G1 X94.709 Y97.626 E2.21386
G1 X94.793 Y97.705 E2.21624
G1 X94.925 Y97.942 E2.22184
G1 X94.983 Y98.149 E2.22627
G1 X95.029 Y98.487 E2.23329
G1 X95.034 Y98.843 E2.24064
G1 X95.001 Y99.209 E2.24820
G1 X94.947 Y99.436 E2.25301
G1 X94.844 Y99.664 E2.25818
G1 X94.789 Y99.731 E2.25998
G1 X94.628 Y99.757 F7800.000
G1 X94.154 Y98.722 F7800.000
G1 F600
G1 X92.861 Y98.721 E2.29858
G1 F600
G1 X91.685 Y98.722 E2.33828
G1 Z9.900 F7800.000
G1 X94.085 Y99.004 F7800.000
G1 F600
G1 X93.264 Y99.071 E2.36050
G1 X92.080 Y99.119 E2.39246
G1 X91.822 Y99.099 E2.39945
G1 X91.604 Y99.009 E2.40581
G1 X91.519 Y98.912 E2.40928
G1 X91.423 Y98.727 E2.41492
G1 X91.501 Y98.551 E2.42012
G1 X91.588 Y98.448 E2.42375
G1 X91.693 Y98.384 E2.42706
G1 X91.853 Y98.343 E2.43153
G1 X92.279 Y98.325 E2.44303
G1 X93.595 Y98.392 E2.47858
G1 X93.897 Y98.420 E2.48675
G1 X94.086 Y98.466 E2.49201
G1 X94.104 Y98.690 E2.49807
G1 X94.090 Y98.929 E2.50455
G1 X94.353 Y99.480 F7800.000
G1 F600
G1 X94.041 Y99.570 E2.51124
G1 X93.299 Y99.631 E2.52660
G1 X92.070 Y99.680 E2.55194
G1 X91.738 Y99.654 E2.55881
G1 X91.603 Y99.624 E2.56165
G1 X91.325 Y99.497 E2.56794
G1 X91.205 Y99.403 E2.57110
G1 X91.069 Y99.251 E2.57530
G1 X90.962 Y99.081 E2.57944
G1 X90.907 Y98.946 E2.58244
G1 X90.874 Y98.802 E2.58549
G1 X90.873 Y98.662 E2.58838
G1 X90.902 Y98.519 E2.59139
G1 X91.011 Y98.274 E2.59692
G1 X91.210 Y98.031 E2.60338
G1 X91.324 Y97.944 E2.60633
G1 X91.491 Y97.857 E2.61021
G1 X91.771 Y97.785 E2.61618
G1 X92.282 Y97.764 E2.62672
G1 X93.636 Y97.833 E2.65465
G1 X93.988 Y97.866 E2.66196
G1 X94.302 Y97.941 E2.66861
G1 X94.465 Y98.042 E2.67256
G1 X94.525 Y98.113 E2.67448
G1 X94.592 Y98.249 E2.67760
G1 X94.650 Y98.485 E2.68261
G1 X94.666 Y98.684 E2.68673
G1 X94.650 Y98.960 E2.69242
G1 X94.612 Y99.136 E2.69615
G1 X94.561 Y99.266 E2.69901
G1 X94.457 Y99.408 E2.70264
G1 X94.415 Y99.437 E2.70370
G1 X94.215 Y99.397 F7800.000
G1 X93.037 Y98.722 F7800.000
G1 F600
G1 X91.794 Y98.715 E2.70646
G1 Z10.200 F7800.000
G1 E0.70646 F2400.00000
G92 E0
G1 X94.094 Y99.032 F7800.000
G1 E2.00000 F2400.00000
G1 F600
G1 X93.949 Y99.132 E2.00362
G1 X93.809 Y99.182 E2.00668
G1 X93.365 Y99.255 E2.01595
G1 X92.687 Y99.309 E2.02998
G1 X92.142 Y99.308 E2.04121
G1 X91.919 Y99.260 E2.04590
G1 X91.720 Y99.157 E2.05053
G1 X91.572 Y99.018 E2.05471
G1 X91.509 Y98.921 E2.05711
G1 X91.470 Y98.814 E2.05944
G1 X91.464 Y98.665 E2.06251
G1 X91.578 Y98.417 E2.06814
G1 X91.666 Y98.328 E2.07072
G1 X91.808 Y98.228 E2.07430
G1 X91.940 Y98.173 E2.07724
G1 X92.079 Y98.141 E2.08018
G1 X92.474 Y98.123 E2.08833
G1 X93.154 Y98.165 E2.10236
G1 X93.626 Y98.221 E2.11218
G1 X93.935 Y98.301 E2.11874
G1 X94.092 Y98.400 E2.12258
G1 X94.179 Y98.547 E2.12609
G1 X94.207 Y98.670 E2.12868
G1 X94.205 Y98.796 E2.13128
G1 X94.134 Y98.969 E2.13515
G1 X93.925 Y98.986 F7800.000
G1 X93.926 Y98.708 F7800.000
G1 F600
G1 X93.300 Y98.722 E2.14617
G1 F600
G1 X92.880 Y98.720 E2.15485
G1 F600
G1 X92.078 Y98.717 E2.17352
G1 F600
G1 X92.029 Y98.720 E2.17453
G1 F600
G1 X91.969 Y98.718 E2.17565
G1 F600
G1 X91.917 Y98.730 E2.17645
G1 F600
G1 X91.884 Y98.734 E2.17682
G1 F600
G1 X91.791 Y98.733 E2.17765
G1 F600
G1 X91.744 Y98.733 E2.17789
G1 Z10.500 F7800.000
G1 X92.774 Y98.854 F7800.000
G1 F600
G1 X92.497 Y98.870 E2.18360
G1 X92.331 Y98.843 E2.18707
G1 X92.343 Y98.584 E2.19243
G1 X92.589 Y98.567 E2.19751
G1 X92.777 Y98.582 E2.20138
G1 X92.775 Y98.779 E2.20544
G1 X92.774 Y98.854 F7800.000
G1 E0.20544 F2400.00000
G92 E0
M107
; Filament-specific end gcode 
;END gcode for filament

M104 S0 ; turn off temperature
G28 X0  ; home X axis
M84     ; disable motors

M140 S0 ; set bed temperature
; filament used = 236.3mm (1.7cm3)
; total filament cost = 0.0

; avoid_crossing_perimeters = 0
; bed_shape = 0x0,200x0,200x200,0x200
; bed_temperature = 0
; before_layer_gcode = 
; between_objects_gcode = 
; bridge_acceleration = 0
; bridge_fan_speed = 100
; brim_connections_width = 0
; brim_width = 0
; complete_objects = 0
; cooling = 1
; default_acceleration = 0
; disable_fan_first_layers = 3
; duplicate_distance = 6
; end_filament_gcode = "; Filament-specific end gcode \n;END gcode for filament\n"
; end_gcode = M104 S0 ; turn off temperature\nG28 X0  ; home X axis\nM84     ; disable motors\n
; extruder_clearance_height = 20
; extruder_clearance_radius = 20
; extruder_offset = 0x0
; extrusion_axis = E
; extrusion_multiplier = 1
; fan_always_on = 0
; fan_below_layer_time = 60
; filament_colour = #FFFFFF
; filament_cost = 0
; filament_density = 0
; filament_diameter = 3
; filament_max_volumetric_speed = 0
; filament_notes = ""
; first_layer_acceleration = 0
; first_layer_bed_temperature = 0
; first_layer_extrusion_width = 200%
; first_layer_speed = 30
; first_layer_temperature = 205
; gcode_arcs = 0
; gcode_comments = 0
; gcode_flavor = reprap
; has_heatbed = 1
; infill_acceleration = 0
; infill_first = 0
; interior_brim_width = 0
; layer_gcode = 
; max_fan_speed = 100
; max_layer_height = 0.3
; max_print_speed = 80
; max_volumetric_speed = 0
; min_fan_speed = 35
; min_layer_height = 0.15
; min_print_speed = 10
; min_skirt_length = 0
; notes = 
; nozzle_diameter = 0.5
; only_retract_when_crossing_perimeters = 1
; ooze_prevention = 0
; output_filename_format = [input_filename_base].gcode
; perimeter_acceleration = 0
; post_process = 
; pressure_advance = 0
; printer_notes = 
; resolution = 0
; retract_before_travel = 2
; retract_layer_change = 0
; retract_length = 2
; retract_length_toolchange = 10
; retract_lift = 0
; retract_lift_above = 0
; retract_lift_below = 0
; retract_restart_extra = 0
; retract_restart_extra_toolchange = 0
; retract_speed = 40
; skirt_distance = 6
; skirt_height = 1
; skirts = 0
; slowdown_below_layer_time = 5
; spiral_vase = 0
; standby_temperature_delta = -5
; start_filament_gcode = "; Filament gcode\n"
; start_gcode = G28 ; home all axes\nG1 Z5 F5000 ; lift nozzle\n
; temperature = 200
; threads = 8
; toolchange_gcode = 
; travel_speed = 130
; use_firmware_retraction = 0
; use_relative_e_distances = 0
; use_set_and_wait_bed = 0
; use_set_and_wait_extruder = 0
; use_volumetric_e = 0
; vibration_limit = 0
; wipe = 0
; z_offset = 0
; z_steps_per_mm = 0
; adaptive_slicing = 0
; adaptive_slicing_quality = 75%
; dont_support_bridges = 1
; extrusion_width = 0
; first_layer_height = 0.3
; infill_only_where_needed = 0
; interface_shells = 0
; layer_height = 0.3
; match_horizontal_surfaces = 0
; raft_layers = 0
; regions_overlap = 0
; seam_position = aligned
; sequential_print_priority = 0
; support_material = 0
; support_material_angle = 0
; support_material_buildplate_only = 0
; support_material_contact_distance = 0.2
; support_material_enforce_layers = 0
; support_material_extruder = 1
; support_material_extrusion_width = 0
; support_material_interface_extruder = 1
; support_material_interface_extrusion_width = 0
; support_material_interface_layers = 3
; support_material_interface_spacing = 0
; support_material_interface_speed = 100%
; support_material_max_layers = 0
; support_material_pattern = pillars
; support_material_spacing = 2.5
; support_material_speed = 60
; support_material_threshold = 60%
; xy_size_compensation = 0
; bottom_infill_pattern = rectilinear
; bottom_solid_layers = 3
; bridge_flow_ratio = 1
; bridge_speed = 60
; external_perimeter_extrusion_width = 0
; external_perimeter_speed = 50%
; external_perimeters_first = 0
; extra_perimeters = 1
; fill_angle = 45
; fill_density = 90%
; fill_gaps = 1
; fill_pattern = rectilinear
; gap_fill_speed = 20
; infill_every_layers = 1
; infill_extruder = 1
; infill_extrusion_width = 0
; infill_overlap = 55%
; infill_speed = 80
; overhangs = 1
; perimeter_extruder = 1
; perimeter_extrusion_width = 0
; perimeter_speed = 60
; perimeters = 3
; small_perimeter_speed = 15
; solid_infill_below_area = 70
; solid_infill_every_layers = 0
; solid_infill_extruder = 1
; solid_infill_extrusion_width = 0
; solid_infill_speed = 20
; thin_walls = 1
; top_infill_extrusion_width = 0
; top_infill_pattern = rectilinear
; top_solid_infill_speed = 15
; top_solid_layers = 3
