; generated by Slic3r 1.3.0 on 2021-03-11 at 14:32:42

; external perimeters extrusion width = 0.55mm (4.37mm^3/s)
; perimeters extrusion width = 0.70mm (11.44mm^3/s)
; infill extrusion width = 0.63mm (13.45mm^3/s)
; solid infill extrusion width = 0.70mm (3.81mm^3/s)
; top infill extrusion width = 0.70mm (2.86mm^3/s)

M107
M104 S200 ; set temperature
G28 ; home all axes
G1 Z5 F5000 ; lift nozzle

; Filament gcode

M109 S200 ; set temperature and wait for it to be reached
G21 ; set units to millimeters
G90 ; use absolute coordinates
M82 ; use absolute distances for extrusion
G92 E0
G1 Z0.300 F7800.000
G1 E-2.00000 F2400.00000
G92 E0
G1 X91.253 Y95.533 F7800.000
G1 E2.00000 F2400.00000
G1 F1800
G1 X89.784 Y96.189 E2.32923
G1 X88.455 Y97.712 E2.74262
G1 X88.050 Y98.736 E2.96789
G1 X91.679 Y95.107 E4.01787
G1 X92.125 Y94.908 E4.11778
G1 X92.858 Y94.809 E4.26900
G1 X91.169 Y96.498 E4.75754
G1 X91.481 Y96.457 E4.82192
G1 X91.937 Y96.517 E4.91600
G1 X92.003 Y96.545 E4.93071
G1 X93.875 Y94.673 E5.47230
G1 X94.260 Y94.621 E5.55163
G1 X94.806 Y94.623 E5.66345
G1 X92.574 Y96.855 E6.30938
G1 X92.728 Y96.974 E6.34927
G1 X92.992 Y97.317 E6.43792
G1 X95.684 Y94.626 E7.21678
G1 X96.358 Y94.628 E7.35460
G1 X96.527 Y94.664 E7.39001
G1 X93.213 Y97.978 E8.34890
G1 X93.245 Y98.222 E8.39936
G1 X93.185 Y98.678 E8.49345
G1 X93.038 Y99.034 E8.57216
G1 X97.254 Y94.817 E9.79204
G1 X97.981 Y94.971 E9.94408
G1 X91.753 Y101.200 E11.74615
G1 X92.002 Y101.832 E11.88512
G1 X98.671 Y95.162 E13.81482
G1 X99.340 Y95.375 E13.95835
G1 X90.204 Y104.510 E16.60160
G1 X90.450 Y104.601 E16.65525
G1 X90.907 Y104.688 E16.75036
G1 X100.009 Y95.587 E19.38379
G1 X100.459 Y95.730 E19.48054
G1 X100.651 Y95.825 E19.52438
G1 X91.646 Y104.830 E22.12994
G1 X92.385 Y104.972 E22.28390
G1 X101.240 Y96.117 E24.84605
G1 X101.829 Y96.409 E24.98054
G1 X93.177 Y105.061 E27.48384
G1 X94.001 Y105.118 E27.65275
G1 X102.352 Y96.767 E30.06908
G1 X102.834 Y97.166 E30.19708
G1 X94.825 Y105.175 E32.51458
G1 X95.648 Y105.233 E32.68349
G1 X103.316 Y97.565 E34.90214
G1 X103.798 Y97.964 E35.03015
G1 X96.472 Y105.290 E37.14996
G1 X97.295 Y105.347 E37.31887
G1 X104.280 Y98.363 E39.33985
G1 X104.762 Y98.761 E39.46786
G1 X98.606 Y104.918 E41.24909
G1 X100.020 Y104.216 E41.57209
G1 X101.127 Y103.098 E41.89404
G1 X101.504 Y102.900 E41.98118
G1 X105.244 Y99.160 E43.06321
G1 X105.346 Y99.245 E43.09019
G1 X105.581 Y99.505 E43.16202
G1 X107.013 Y98.272 E43.54859
G1 X103.352 Y101.933 E44.60783
G1 X104.999 Y101.072 E44.98800
G1 X105.661 Y100.505 E45.16635
G1 X108.179 Y97.987 E45.89488
G1 X109.294 Y97.753 E46.12797
G1 X106.475 Y100.573 E46.94376
G1 X106.863 Y101.066 E47.07210
G1 X111.122 Y96.807 E48.30441
G1 X111.149 Y97.547 E48.45604
G1 X111.167 Y97.643 E48.47589
G1 X107.251 Y101.559 E49.60891
G1 X107.639 Y102.051 E49.73725
G1 X111.305 Y98.385 E50.79810
G1 X111.444 Y99.127 E50.95259
G1 X108.273 Y102.298 E51.86996
G1 X108.872 Y102.580 E52.00536
G1 X111.583 Y99.869 E52.78966
G1 X111.721 Y100.612 E52.94415
G1 X109.471 Y102.862 E53.59538
G1 X109.994 Y103.109 E53.71374
G1 X110.084 Y103.130 E53.73272
G1 X111.849 Y101.365 E54.24330
G1 X111.969 Y102.126 E54.40090
G1 X110.744 Y103.351 E54.75538
G1 X111.325 Y103.546 E54.88088
G1 X111.366 Y103.609 E54.89627
G1 X112.085 Y102.891 E55.10424
G1 X112.203 Y103.654 E55.26221
G1 X111.716 Y104.141 E55.40328
G1 E53.40328 F2400.00000
G92 E0
G1 X93.464 Y98.607 F7800.000
G1 E2.00000 F2400.00000
G1 F1800
G1 X93.435 Y98.677 E2.01554
G1 X93.155 Y99.043 E2.10986
G1 X92.789 Y99.324 E2.20418
G1 X92.719 Y99.353 E2.21972
G1 X91.504 Y100.568 E2.57121
G1 X90.528 Y99.781 F7800.000
G1 F1800
G1 X91.003 Y99.307 E2.70839
G1 X90.659 Y99.043 E2.79708
G1 X90.540 Y98.888 E2.83693
G1 X89.075 Y100.354 E3.26081
G1 X87.701 Y100.895 E3.56299
G1 X87.701 Y100.847 E3.57272
G1 X90.230 Y98.318 E4.30438
G1 X90.202 Y98.252 E4.31902
G1 X90.142 Y97.796 E4.41319
G1 X90.183 Y97.484 E4.47756
G1 X87.697 Y99.970 E5.19688
G1 X87.695 Y99.634 E5.26569
G1 X88.050 Y98.736 E5.46323
G1 E3.46323 F2400.00000
G92 E0
G1 X89.476 Y103.477 F7800.000
G1 E2.00000 F2400.00000
G1 F1800
G1 X88.802 Y103.742 E2.14804
G1 X88.990 Y103.963 E2.20730
G1 X89.902 Y103.050 E2.47124
G1 X91.355 Y102.478 E2.79069
G1 X89.561 Y104.273 E3.30990
G1 Z0.600 F7800.000
G1 X89.548 Y103.643 F7800.000
G1 F3401.54
G1 X89.248 Y103.761 E3.37896
G1 X89.559 Y104.128 E3.48188
G1 X90.309 Y104.404 E3.65292
G1 X89.083 Y103.178 E4.02411
G1 X89.715 Y102.929 E4.16957
G1 X91.527 Y104.741 E4.71836
G1 X92.618 Y104.951 E4.95610
G1 X90.347 Y102.680 E5.64364
G1 X90.979 Y102.432 E5.78911
G1 X93.628 Y105.081 E6.59134
G1 X94.575 Y105.147 E6.79460
G1 X91.612 Y102.183 E7.69218
G1 X92.204 Y101.949 E7.82856
G1 X92.168 Y101.859 E7.84941
G1 X95.522 Y105.212 E8.86508
G1 X96.469 Y105.278 E9.06833
G1 X91.596 Y100.406 E10.54398
G1 X91.244 Y99.513 E10.74954
G1 X91.461 Y99.541 E10.79622
G1 X91.595 Y99.523 E10.82527
G1 X97.416 Y105.344 E12.58803
G1 X98.131 Y105.394 E12.74162
G1 X98.275 Y105.323 E12.77601
G1 X92.282 Y99.330 E14.59095
G1 X92.343 Y99.304 E14.60508
G1 X92.709 Y99.024 E14.70380
G1 X92.773 Y98.940 E14.72646
G1 X98.864 Y105.030 E16.57093
G1 X99.453 Y104.738 E16.71167
G1 X93.102 Y98.387 E18.63498
G1 X93.174 Y98.214 E18.67516
G1 X93.225 Y97.775 E18.76989
G1 X93.204 Y97.608 E18.80584
G1 X100.041 Y104.446 E20.87663
G1 E18.87663 F2400.00000
G92 E0
G1 X105.957 Y99.790 F7800.000
G1 E2.00000 F2400.00000
G1 F3401.54
G1 X106.063 Y99.700 E2.02985
G1 X106.487 Y100.125 E2.15856
G1 X107.212 Y101.046 E2.40947
G1 X108.292 Y102.125 E2.73642
G1 X111.097 Y97.002 F7800.000
G1 F3401.54
G1 X110.574 Y96.479 E2.89481
G1 X110.283 Y96.587 E2.96128
G1 X110.029 Y96.815 E3.03434
G1 X111.129 Y97.915 E3.36728
G1 X111.149 Y98.315 E3.45305
G1 X111.264 Y98.931 E3.58742
G1 X109.555 Y97.222 E4.10520
G1 X109.080 Y97.628 E4.23899
G1 X111.467 Y100.015 E4.96174
G1 X111.669 Y101.098 E5.19772
G1 X108.399 Y97.828 E6.18796
G1 X107.671 Y97.981 E6.34727
G1 X111.805 Y102.115 E7.59909
G1 X111.872 Y102.570 E7.69775
G1 X111.828 Y102.573 E7.70729
G1 X111.820 Y103.011 E7.80096
G1 X106.943 Y98.134 E9.27787
G1 X106.629 Y98.200 E9.34657
G1 X106.360 Y98.432 E9.42265
G1 X110.872 Y102.943 E10.78899
G1 X110.531 Y102.829 E10.86584
G1 X109.972 Y102.794 E10.98581
G1 X109.724 Y102.677 E11.04459
G1 X105.886 Y98.839 E12.20675
G1 X105.413 Y99.247 E12.34051
G1 X106.422 Y100.255 E12.64605
G1 X105.947 Y100.661 E12.77985
G1 X102.640 Y97.355 E13.78123
G1 X101.609 Y96.501 E14.06784
G1 X100.215 Y95.810 E14.40116
G1 X105.472 Y101.068 E15.99332
G1 X104.900 Y101.376 E16.13256
G1 X98.872 Y95.348 E17.95816
G1 X97.801 Y95.008 E18.19876
G1 X97.611 Y94.968 E18.24038
G1 X104.322 Y101.679 E20.27273
G1 X103.743 Y101.981 E20.41251
G1 X96.493 Y94.731 E22.60814
G1 X95.912 Y94.608 E22.73532
G1 X95.488 Y94.607 E22.82618
G1 X103.165 Y102.284 E25.15111
G1 X102.587 Y102.587 E25.29088
G1 X94.604 Y94.604 E27.70832
G1 X93.722 Y94.603 E27.89709
G1 X102.008 Y102.889 E30.40636
G1 X101.573 Y103.117 E30.51160
G1 X101.465 Y103.227 E30.54456
G1 X92.949 Y94.711 E33.12335
G1 X92.176 Y94.819 E33.29052
G1 X101.026 Y103.669 E35.97078
G1 X100.588 Y104.112 E36.10418
G1 X91.462 Y94.985 E38.86808
G1 X90.853 Y95.257 E39.01090
G1 X92.094 Y96.498 E39.38666
G1 X91.925 Y96.476 E39.42300
G1 X91.488 Y96.529 E39.51736
G1 X91.315 Y96.600 E39.55744
G1 X90.244 Y95.529 E39.88180
G1 X89.764 Y95.744 E39.99431
G1 X89.677 Y95.843 E40.02268
G1 X90.762 Y96.929 E40.35140
G1 X90.678 Y96.994 E40.37411
G1 X90.398 Y97.359 E40.47266
G1 X90.373 Y97.420 E40.48690
G1 X89.266 Y96.314 E40.82189
G1 X88.856 Y96.784 E40.95559
G1 X90.179 Y98.107 E41.35627
G1 X90.161 Y98.240 E41.38490
G1 X90.214 Y98.680 E41.47971
G1 X90.398 Y99.123 E41.58257
G1 X90.674 Y99.484 E41.67978
G1 X88.445 Y97.255 E42.35476
G1 X88.192 Y97.882 E42.49968
G1 X90.355 Y100.045 E43.15458
G1 X89.722 Y100.294 E43.30004
G1 X87.942 Y98.514 E43.83910
G1 X87.693 Y99.145 E43.98448
G1 X89.090 Y100.542 E44.40770
G1 X88.458 Y100.791 E44.55316
G1 X87.680 Y100.013 E44.78897
G1 X90.521 Y99.331 F7800.000
G1 F3401.54
G1 X90.583 Y99.306 E44.80320
G1 X90.219 Y99.028 E44.90146
G1 X90.987 Y99.796 E45.13407
G1 Z0.900 F7800.000
G1 X90.509 Y99.801 F7800.000
G1 F3361.06
G1 X91.022 Y99.288 E45.28941
G1 X90.678 Y99.024 E45.38224
G1 X90.560 Y98.869 E45.42394
G1 X89.056 Y100.373 E45.87932
G1 X87.682 Y100.914 E46.19566
G1 X87.681 Y100.866 E46.20584
G1 X90.249 Y98.299 E46.98343
G1 X90.222 Y98.233 E46.99875
G1 X90.161 Y97.776 E47.09731
G1 X90.202 Y97.465 E47.16469
G1 X87.677 Y99.990 E47.92936
G1 X87.676 Y99.653 E48.00139
G1 X88.031 Y98.755 E48.20814
G1 E46.20814 F2400.00000
G92 E0
G1 X91.485 Y100.587 F7800.000
G1 E2.00000 F2400.00000
G1 F3361.06
G1 X92.738 Y99.333 E2.37962
G1 X92.808 Y99.304 E2.39589
G1 X93.174 Y99.024 E2.49461
G1 X93.455 Y98.658 E2.59333
G1 X93.484 Y98.588 E2.60960
G1 E0.60960 F2400.00000
G92 E0
G1 X91.233 Y95.553 F7800.000
G1 E2.00000 F2400.00000
G1 F3361.06
G1 X89.764 Y96.209 E2.34459
G1 X88.436 Y97.731 E2.77728
G1 X88.031 Y98.755 E3.01307
G1 X91.699 Y95.087 E4.12383
G1 X92.145 Y94.888 E4.22856
G1 X92.882 Y94.785 E4.38778
G1 X91.150 Y96.517 E4.91228
G1 X91.460 Y96.476 E4.97939
G1 X91.918 Y96.536 E5.07816
G1 X91.984 Y96.564 E5.09353
G1 X93.905 Y94.643 E5.67534
G1 X94.202 Y94.601 E5.73960
G1 X94.826 Y94.603 E5.87308
G1 X92.554 Y96.875 E6.56099
G1 X92.709 Y96.993 E6.60274
G1 X92.973 Y97.337 E6.69553
G1 X95.704 Y94.606 E7.52253
G1 X96.377 Y94.608 E7.66677
G1 X96.547 Y94.644 E7.70383
G1 X93.194 Y97.997 E8.71926
G1 X93.225 Y98.242 E8.77208
G1 X93.166 Y98.698 E8.87056
G1 X93.019 Y99.053 E8.95294
G1 X97.274 Y94.798 E10.24154
G1 X98.001 Y94.952 E10.40067
G1 X91.734 Y101.219 E12.29859
G1 X91.982 Y101.851 E12.44406
G1 X98.691 Y95.143 E14.47557
G1 X99.359 Y95.355 E14.62581
G1 X90.185 Y104.529 E17.40416
G1 X90.431 Y104.620 E17.46030
G1 X90.888 Y104.708 E17.55986
G1 X100.028 Y95.567 E20.32795
G1 X100.479 Y95.710 E20.42921
G1 X100.671 Y95.806 E20.47510
G1 X91.627 Y104.850 E23.21402
G1 X92.366 Y104.992 E23.37515
G1 X101.260 Y96.098 E26.06865
G1 X101.849 Y96.389 E26.20942
G1 X93.158 Y105.080 E28.84131
G1 X93.982 Y105.137 E29.01812
G1 X102.372 Y96.747 E31.55896
G1 X102.854 Y97.146 E31.69294
G1 X94.805 Y105.195 E34.13037
G1 X95.629 Y105.252 E34.30715
G1 X103.336 Y97.545 E36.64114
G1 X103.818 Y97.944 E36.77512
G1 X96.452 Y105.310 E39.00566
G1 X97.276 Y105.367 E39.18245
G1 X104.300 Y98.343 E41.30954
G1 X104.782 Y98.742 E41.44352
G1 X98.586 Y104.937 E43.31971
G1 X100.001 Y104.236 E43.65783
G1 X101.108 Y103.117 E43.99482
G1 X101.485 Y102.920 E44.08604
G1 X105.264 Y99.141 E45.23033
G1 X105.365 Y99.225 E45.25857
G1 X105.601 Y99.486 E45.33376
G1 X107.033 Y98.253 E45.73837
G1 X103.333 Y101.953 E46.85884
G1 X104.979 Y101.091 E47.25677
G1 X105.643 Y100.524 E47.44373
G1 X108.199 Y97.968 E48.21776
G1 X109.314 Y97.734 E48.46174
G1 X106.472 Y100.575 E49.32222
G1 X106.647 Y100.750 E49.37516
G1 X106.881 Y101.047 E49.45618
G1 X111.071 Y96.858 E50.72504
G1 X111.106 Y97.703 E50.90626
G1 X107.269 Y101.540 E52.06830
G1 X107.657 Y102.033 E52.20263
G1 X111.191 Y98.499 E53.27294
G1 X111.330 Y99.241 E53.43465
G1 X108.406 Y102.165 E54.32022
G1 X109.008 Y102.444 E54.46235
G1 X111.469 Y99.983 E55.20745
G1 X111.607 Y100.726 E55.36915
G1 X109.681 Y102.652 E55.95252
G1 X110.094 Y102.678 E56.04109
G1 X110.425 Y102.789 E56.11585
G1 X111.681 Y101.533 E56.49627
G1 X111.738 Y101.895 E56.57468
G1 X111.687 Y101.898 E56.58573
G1 X111.677 Y102.418 E56.69701
G1 X111.005 Y103.090 E56.90050
G1 E54.90050 F2400.00000
G92 E0
G1 X89.541 Y104.292 F7800.000
G1 E2.00000 F2400.00000
G1 F3361.06
G1 X91.374 Y102.459 E2.55504
G1 X89.921 Y103.031 E2.88940
G1 X88.970 Y103.982 E3.17733
G1 X88.783 Y103.761 E3.23933
G1 X89.456 Y103.497 E3.39416
M106 S255
G1 Z1.200 F7800.000
G1 X89.548 Y103.643 F7800.000
G1 F3350.85
G1 X89.249 Y103.761 E3.46315
G1 X89.559 Y104.128 E3.56605
G1 X90.308 Y104.403 E3.73695
G1 X89.083 Y103.178 E4.10797
G1 X89.715 Y102.929 E4.25346
G1 X91.527 Y104.741 E4.80215
G1 X92.618 Y104.951 E5.03991
G1 X90.348 Y102.681 E5.72738
G1 X90.980 Y102.432 E5.87284
G1 X93.628 Y105.081 E6.67504
G1 X94.575 Y105.147 E6.87831
G1 X91.612 Y102.183 E7.77589
G1 X92.204 Y101.949 E7.91227
G1 X92.168 Y101.859 E7.93311
G1 X95.522 Y105.212 E8.94878
G1 X96.469 Y105.278 E9.15203
G1 X91.597 Y100.406 E10.62758
G1 X91.244 Y99.513 E10.83323
G1 X91.462 Y99.541 E10.88013
G1 X91.595 Y99.523 E10.90897
G1 X97.416 Y105.344 E12.67174
G1 X98.131 Y105.394 E12.82533
G1 X98.275 Y105.323 E12.85972
G1 X92.282 Y99.330 E14.67466
G1 X92.343 Y99.304 E14.68878
G1 X92.709 Y99.024 E14.78750
G1 X92.773 Y98.940 E14.81017
G1 X98.864 Y105.031 E16.65465
G1 X99.453 Y104.738 E16.79539
G1 X93.102 Y98.387 E18.71870
G1 X93.166 Y98.232 E18.75459
G1 X93.225 Y97.776 E18.85307
G1 X93.204 Y97.608 E18.88941
G1 X100.041 Y104.446 E20.96019
G1 X100.466 Y104.236 E21.06167
G1 X100.588 Y104.112 E21.09891
G1 X91.462 Y94.985 E23.86281
G1 X91.680 Y94.888 E23.91399
G1 X92.176 Y94.819 E24.02125
G1 X101.026 Y103.669 E26.70151
G1 X101.465 Y103.227 E26.83491
G1 X92.949 Y94.711 E29.41370
G1 X93.722 Y94.603 E29.58087
G1 X102.008 Y102.889 E32.09015
G1 X102.587 Y102.587 E32.22992
G1 X94.604 Y94.604 E34.64740
G1 X95.488 Y94.607 E34.83668
G1 X103.165 Y102.284 E37.16164
G1 X103.743 Y101.981 E37.30142
G1 X96.493 Y94.731 E39.49707
G1 X97.611 Y94.968 E39.74168
G1 X104.322 Y101.679 E41.77404
G1 X104.900 Y101.376 E41.91381
G1 X98.872 Y95.348 E43.73941
G1 X100.014 Y95.710 E43.99593
G1 X100.215 Y95.810 E44.04404
G1 X105.472 Y101.068 E45.63621
G1 X105.947 Y100.661 E45.77000
G1 X102.640 Y97.355 E46.77135
G1 X104.900 Y99.225 E47.39946
G1 X105.135 Y99.486 E47.47464
G1 X105.413 Y99.247 E47.55311
G1 X105.957 Y99.790 E47.71775
G1 X106.063 Y99.700 E47.74760
G1 X106.806 Y100.445 E47.97305
G1 X107.529 Y101.363 E48.22322
G1 X108.167 Y102.000 E48.41635
G1 X108.227 Y101.939 E48.43472
G1 X109.039 Y102.125 E48.61317
G1 X109.290 Y102.243 E48.67268
G1 X105.886 Y98.839 E49.70354
G1 X106.360 Y98.432 E49.83730
G1 X110.447 Y102.518 E51.07493
G1 X110.586 Y102.527 E51.10492
G1 X111.251 Y102.750 E51.25507
G1 X111.566 Y103.236 E51.37905
G1 X111.583 Y103.132 E51.40156
G1 X111.535 Y102.725 E51.48930
G1 X106.943 Y98.134 E52.87977
G1 X107.671 Y97.981 E53.03908
G1 X111.551 Y101.860 E54.21393
G1 X111.540 Y101.256 E54.34336
G1 X111.474 Y100.903 E54.42024
G1 X108.399 Y97.828 E55.35150
G1 X108.992 Y97.704 E55.48118
G1 X109.080 Y97.628 E55.50606
G1 X111.272 Y99.820 E56.16984
G1 X111.112 Y98.962 E56.35673
G1 X111.102 Y98.769 E56.39819
G1 X109.555 Y97.222 E56.86669
G1 X110.023 Y96.810 E57.00036
G1 X111.053 Y97.839 E57.31224
G1 E55.31224 F2400.00000
G92 E0
G1 X92.094 Y96.498 F7800.000
G1 E2.00000 F2400.00000
G1 F3350.85
G1 X90.853 Y95.257 E2.37576
G1 X90.244 Y95.529 E2.51858
G1 X91.315 Y96.600 E2.84294
G1 X91.044 Y96.713 E2.90582
G1 X90.762 Y96.929 E2.98175
G1 X89.677 Y95.843 E3.31046
G1 X89.266 Y96.314 E3.44416
G1 X90.373 Y97.420 E3.77914
G1 X90.222 Y97.785 E3.86366
G1 X90.179 Y98.107 E3.93336
G1 X88.856 Y96.784 E4.33404
G1 X88.445 Y97.255 E4.46774
G1 X90.987 Y99.796 E5.23732
G1 X90.354 Y100.045 E5.38279
G1 X88.192 Y97.882 E6.03767
G1 X87.942 Y98.514 E6.18306
G1 X89.722 Y100.293 E6.72208
G1 X89.090 Y100.542 E6.86754
G1 X87.693 Y99.145 E7.29072
G1 X87.676 Y99.188 E7.30061
G1 X87.680 Y100.013 E7.47722
G1 X88.458 Y100.791 E7.71303
G1 X88.147 Y100.914 E7.78471
G1 X88.145 Y100.478 E7.87811
G1 Z1.500 F7800.000
G1 X90.509 Y99.801 F7800.000
G1 F3216.28
G1 X91.022 Y99.288 E8.03345
G1 X90.678 Y99.024 E8.12628
G1 X90.560 Y98.869 E8.16799
G1 X89.056 Y100.372 E8.62328
G1 X87.682 Y100.914 E8.93969
G1 X87.681 Y100.866 E8.94987
G1 X90.249 Y98.299 E9.72746
G1 X90.222 Y98.232 E9.74285
G1 X90.161 Y97.776 E9.84135
G1 X90.202 Y97.465 E9.90873
G1 X91.699 Y95.087 F7800.000
G1 F3216.28
G1 X88.031 Y98.755 E11.01949
G1 X87.676 Y99.653 E11.22624
G1 X87.677 Y99.990 E11.29827
G1 X89.737 Y97.930 E11.92205
G1 X89.756 Y97.785 E11.95339
G1 X89.933 Y97.358 E12.05225
G1 X90.213 Y96.994 E12.15071
G1 X90.578 Y96.713 E12.24934
G1 X91.004 Y96.536 E12.34798
G1 X91.150 Y96.517 E12.37944
G1 X92.882 Y94.785 E12.90397
G1 X93.905 Y94.643 E13.12527
G1 X91.984 Y96.564 E13.70707
G1 X92.343 Y96.713 E13.79034
G1 X92.554 Y96.875 E13.84728
G1 X94.826 Y94.603 E14.53520
G1 X95.704 Y94.606 E14.72325
G1 X92.973 Y97.337 E15.55030
G1 X93.166 Y97.785 E15.65478
G1 X93.194 Y97.997 E15.70059
G1 X96.547 Y94.644 E16.71601
G1 X97.274 Y94.798 E16.87514
G1 X93.484 Y98.588 E18.02285
G1 X93.455 Y98.658 E18.03912
G1 X93.174 Y99.024 E18.13784
G1 X92.808 Y99.304 E18.23657
G1 X92.738 Y99.333 E18.25283
G1 X91.485 Y100.587 E18.63244
G1 X91.734 Y101.219 E18.77789
G1 X98.001 Y94.952 E20.67577
G1 X98.266 Y95.008 E20.73385
G1 X98.691 Y95.143 E20.82925
G1 X91.982 Y101.851 E22.86077
G1 E20.86077 F2400.00000
G92 E0
G1 X89.456 Y103.497 F7800.000
G1 E2.00000 F2400.00000
G1 F3216.28
G1 X88.784 Y103.761 E2.15472
G1 X88.971 Y103.982 E2.21669
G1 X89.921 Y103.031 E2.50455
G1 X91.374 Y102.459 E2.83892
G1 X89.541 Y104.292 E3.39389
G1 X90.185 Y104.529 E3.54079
G1 X99.359 Y95.355 E6.31913
G1 X100.028 Y95.567 E6.46937
G1 X90.888 Y104.708 E9.23746
G1 X91.627 Y104.849 E9.39863
G1 X100.671 Y95.806 E12.13751
G1 X101.260 Y96.098 E12.27828
G1 X92.366 Y104.992 E14.97178
G1 X92.638 Y105.044 E15.03123
G1 X93.158 Y105.080 E15.14278
G1 X101.849 Y96.389 E17.77470
G1 X102.075 Y96.501 E17.82869
G1 X102.372 Y96.747 E17.91128
G1 X93.982 Y105.138 E20.45217
G1 X94.805 Y105.195 E20.62896
G1 X102.854 Y97.146 E23.06640
G1 X103.336 Y97.545 E23.20038
G1 X95.629 Y105.252 E25.53437
G1 X96.452 Y105.310 E25.71116
G1 X103.818 Y97.944 E27.94170
G1 X104.300 Y98.343 E28.07568
G1 X97.276 Y105.367 E30.20277
G1 X97.666 Y105.394 E30.28655
G1 X98.586 Y104.937 E30.50650
G1 X104.782 Y98.742 E32.38272
G1 X105.264 Y99.141 E32.51670
G1 X101.485 Y102.920 E33.66102
G1 X103.333 Y101.953 E34.10756
G1 X107.094 Y98.200 E35.24545
G1 X108.199 Y97.968 E35.48705
G1 X105.643 Y100.524 E36.26108
G1 X106.063 Y100.165 E36.37940
G1 X106.472 Y100.575 E36.50354
G1 X109.314 Y97.734 E37.36402
G1 X109.457 Y97.704 E37.39546
G1 X110.221 Y97.050 E37.61076
G1 X110.716 Y96.587 E37.75598
G1 X110.986 Y96.486 E37.81767
G1 X111.000 Y96.928 E37.91238
G1 X106.912 Y101.016 E39.15036
G1 X107.307 Y101.503 E39.28448
G1 X111.038 Y97.771 E40.41458
G1 X111.082 Y98.608 E40.59412
G1 X107.818 Y101.872 E41.58265
G1 X108.535 Y102.036 E41.74017
G1 X111.197 Y99.375 E42.54626
G1 X111.335 Y100.117 E42.70796
G1 X109.164 Y102.288 E43.36551
G1 X109.227 Y102.318 E43.38053
G1 X109.968 Y102.365 E43.53953
G1 X111.431 Y100.902 E43.98242
G1 X111.429 Y101.308 E44.06942
G1 X111.455 Y101.476 E44.10569
G1 X111.404 Y101.479 E44.11672
G1 X111.397 Y101.817 E44.18896
G1 X110.661 Y102.553 E44.41206
G1 Z1.800 F7800.000
G1 E42.41206 F2400.00000
G92 E0
G1 X110.978 Y97.764 F7800.000
G1 E2.00000 F2400.00000
G1 F3312.81
G1 X110.013 Y96.799 E2.29223
G1 X109.555 Y97.222 E2.42573
G1 X111.026 Y98.693 E2.87144
G1 X111.077 Y99.625 E3.07129
G1 X109.080 Y97.628 E3.67610
G1 X108.992 Y97.704 E3.70098
G1 X108.399 Y97.828 E3.83067
G1 X111.280 Y100.709 E4.70297
G1 X111.325 Y100.950 E4.75546
G1 X111.321 Y101.630 E4.90129
G1 X107.671 Y97.981 E6.00649
G1 X106.943 Y98.134 E6.16580
G1 X111.249 Y102.440 E7.46983
G1 X111.263 Y102.651 E7.51506
G1 X111.249 Y102.740 E7.53454
G1 X110.991 Y102.342 E7.63609
G1 X110.641 Y102.225 E7.71517
G1 X110.120 Y102.192 E7.82692
G1 X106.360 Y98.432 E8.96574
G1 X105.886 Y98.839 E9.09950
G1 X109.006 Y101.958 E10.04409
G1 X108.151 Y101.763 E10.23187
G1 X108.073 Y101.843 E10.25567
G1 X107.591 Y101.230 E10.42278
G1 X106.528 Y100.165 E10.74493
G1 X106.422 Y100.255 E10.77478
G1 X105.413 Y99.247 E11.08032
G1 X105.135 Y99.486 E11.15879
G1 X104.900 Y99.225 E11.23397
G1 X102.640 Y97.355 E11.86208
G1 X105.947 Y100.661 E12.86342
G1 X105.472 Y101.068 E12.99721
G1 X100.215 Y95.810 E14.58938
G1 X100.014 Y95.710 E14.63749
G1 X98.872 Y95.348 E14.89401
G1 X104.900 Y101.376 E16.71961
G1 X104.322 Y101.679 E16.85938
G1 X97.611 Y94.968 E18.89174
G1 X96.493 Y94.731 E19.13635
G1 X103.743 Y101.981 E21.33200
G1 X103.165 Y102.284 E21.47178
G1 X95.488 Y94.607 E23.79676
G1 X94.604 Y94.604 E23.98604
G1 X102.587 Y102.587 E26.40356
G1 X102.008 Y102.889 E26.54333
G1 X93.722 Y94.603 E29.05261
G1 X92.949 Y94.711 E29.21978
G1 X101.465 Y103.227 E31.79858
G1 X101.026 Y103.669 E31.93197
G1 X92.176 Y94.819 E34.61223
G1 X91.680 Y94.888 E34.71949
G1 X91.462 Y94.985 E34.77067
G1 X100.588 Y104.112 E37.53458
G1 X100.466 Y104.236 E37.57181
G1 X100.041 Y104.446 E37.67329
G1 X93.204 Y97.608 E39.74406
G1 X93.225 Y97.776 E39.78040
G1 X93.166 Y98.232 E39.87888
G1 X93.102 Y98.387 E39.91478
G1 X99.453 Y104.738 E41.83809
G1 X98.864 Y105.031 E41.97882
G1 X92.773 Y98.940 E43.82331
G1 X92.709 Y99.024 E43.84598
G1 X92.343 Y99.304 E43.94470
G1 X92.282 Y99.330 E43.95882
G1 X98.275 Y105.323 E45.77377
G1 X98.131 Y105.394 E45.80815
G1 X97.416 Y105.344 E45.96175
G1 X91.595 Y99.523 E47.72451
G1 X91.461 Y99.541 E47.75356
G1 X91.244 Y99.513 E47.80024
G1 X91.597 Y100.406 E48.00594
G1 X96.469 Y105.278 E49.48144
G1 X95.522 Y105.212 E49.68469
G1 X92.168 Y101.859 E50.70036
G1 X92.204 Y101.949 E50.72120
G1 X91.612 Y102.183 E50.85758
G1 X94.575 Y105.147 E51.75517
G1 X93.629 Y105.081 E51.95842
G1 X90.980 Y102.432 E52.76064
G1 X90.348 Y102.681 E52.90609
G1 X92.618 Y104.951 E53.59354
G1 X91.527 Y104.741 E53.83130
G1 X89.715 Y102.929 E54.37999
G1 X89.083 Y103.178 E54.52547
G1 X90.308 Y104.403 E54.89644
G1 X89.559 Y104.128 E55.06725
G1 X89.249 Y103.761 E55.17018
G1 X89.548 Y103.643 E55.23916
G1 E53.23916 F2400.00000
G92 E0
G1 X88.145 Y100.478 F7800.000
G1 E2.00000 F2400.00000
G1 F3312.81
G1 X88.147 Y100.914 E2.09339
G1 X88.458 Y100.791 E2.16508
G1 X87.680 Y100.013 E2.40089
G1 X87.676 Y99.188 E2.57749
G1 X87.693 Y99.145 E2.58739
G1 X89.090 Y100.542 E3.01056
G1 X89.722 Y100.293 E3.15602
G1 X87.942 Y98.514 E3.69503
G1 X88.192 Y97.882 E3.84041
G1 X90.354 Y100.045 E4.49529
G1 X90.987 Y99.796 E4.64076
G1 X88.445 Y97.255 E5.41034
G1 X88.856 Y96.784 E5.54404
G1 X90.179 Y98.107 E5.94472
G1 X90.222 Y97.785 E6.01442
G1 X90.373 Y97.420 E6.09894
G1 X89.266 Y96.314 E6.43392
G1 X89.677 Y95.843 E6.56762
G1 X90.762 Y96.929 E6.89634
G1 X91.044 Y96.713 E6.97227
G1 X91.315 Y96.600 E7.03515
G1 X90.244 Y95.529 E7.35950
G1 X90.853 Y95.257 E7.50232
G1 X92.094 Y96.498 E7.87808
G1 Z2.100 F7800.000
G1 X91.233 Y95.553 F7800.000
G1 F3262.69
G1 X89.764 Y96.209 E8.22268
G1 X88.436 Y97.731 E8.65537
G1 X88.031 Y98.755 E8.89115
G1 X91.699 Y95.087 E10.00191
G1 X92.145 Y94.888 E10.10664
G1 X92.882 Y94.785 E10.26586
G1 X91.150 Y96.517 E10.79037
G1 X91.461 Y96.476 E10.85772
G1 X91.918 Y96.537 E10.95632
G1 X91.984 Y96.564 E10.97164
G1 X93.905 Y94.643 E11.55345
G1 X94.202 Y94.601 E11.61771
G1 X94.826 Y94.603 E11.75120
G1 X92.554 Y96.875 E12.43913
G1 X92.709 Y96.993 E12.48088
G1 X92.973 Y97.337 E12.57367
G1 X95.704 Y94.606 E13.40069
G1 X96.377 Y94.608 E13.54492
G1 X96.547 Y94.644 E13.58198
G1 X93.194 Y97.997 E14.59740
G1 X93.225 Y98.242 E14.65022
G1 X93.166 Y98.698 E14.74870
G1 X93.019 Y99.053 E14.83108
G1 X97.274 Y94.798 E16.11968
G1 X98.001 Y94.952 E16.27882
G1 X91.734 Y101.219 E18.17671
G1 X91.982 Y101.851 E18.32219
G1 X98.691 Y95.143 E20.35371
G1 X99.359 Y95.355 E20.50394
G1 X90.185 Y104.529 E23.28229
G1 X90.431 Y104.620 E23.33843
G1 X90.888 Y104.708 E23.43799
G1 X100.028 Y95.567 E26.20609
G1 X100.479 Y95.710 E26.30735
G1 X100.671 Y95.806 E26.35324
G1 X91.627 Y104.850 E29.09213
G1 X92.366 Y104.992 E29.25326
G1 X101.260 Y96.098 E31.94675
G1 X101.849 Y96.389 E32.08752
G1 X93.158 Y105.080 E34.71941
G1 X93.982 Y105.138 E34.89620
G1 X102.372 Y96.747 E37.43708
G1 X102.854 Y97.146 E37.57106
G1 X94.805 Y105.195 E40.00850
G1 X95.629 Y105.252 E40.18529
G1 X103.336 Y97.545 E42.51928
G1 X103.818 Y97.944 E42.65326
G1 X96.452 Y105.310 E44.88380
G1 X97.276 Y105.367 E45.06059
G1 X104.300 Y98.343 E47.18768
G1 X104.782 Y98.742 E47.32166
G1 X98.586 Y104.937 E49.19787
G1 X100.001 Y104.236 E49.53601
G1 X101.108 Y103.117 E49.87299
G1 X101.485 Y102.920 E49.96422
G1 X105.264 Y99.141 E51.10851
G1 X105.365 Y99.225 E51.13675
G1 X105.601 Y99.486 E51.21194
G1 X107.033 Y98.253 E51.61655
G1 X103.333 Y101.953 E52.73703
G1 X104.979 Y101.091 E53.13496
G1 X105.643 Y100.524 E53.32192
G1 X108.198 Y97.968 E54.09591
G1 X109.314 Y97.734 E54.33992
G1 X106.472 Y100.575 E55.20040
G1 X106.912 Y101.016 E55.33379
G1 X110.929 Y96.999 E56.55036
G1 X110.970 Y97.839 E56.73041
G1 X107.344 Y101.465 E57.82859
G1 X107.571 Y101.753 E57.90717
G1 X107.646 Y101.675 E57.93044
G1 X107.947 Y101.743 E57.99653
G1 X111.014 Y98.676 E58.92538
G1 X111.063 Y99.508 E59.10383
G1 X108.664 Y101.907 E59.83035
G1 X109.041 Y102.001 E59.91358
G1 X109.427 Y102.025 E59.99636
G1 X111.202 Y100.250 E60.53381
G1 X111.217 Y100.331 E60.55139
G1 X111.213 Y101.053 E60.70611
G1 X111.121 Y101.060 E60.72588
G1 X111.118 Y101.215 E60.75916
G1 X110.245 Y102.088 E61.02338
G1 E59.02338 F2400.00000
G92 E0
G1 X93.484 Y98.588 F7800.000
G1 E2.00000 F2400.00000
G1 F3262.69
G1 X93.455 Y98.658 E2.01627
G1 X93.174 Y99.024 E2.11499
G1 X92.808 Y99.304 E2.21371
G1 X92.738 Y99.333 E2.22998
G1 X91.485 Y100.587 E2.60958
G1 X90.509 Y99.801 F7800.000
G1 F3262.69
G1 X91.022 Y99.288 E2.76493
G1 X90.678 Y99.024 E2.85775
G1 X90.560 Y98.869 E2.89946
G1 X89.056 Y100.373 E3.35479
G1 X87.682 Y100.914 E3.67117
G1 X87.681 Y100.866 E3.68135
G1 X90.249 Y98.299 E4.45894
G1 X90.222 Y98.233 E4.47426
G1 X90.161 Y97.776 E4.57282
G1 X90.202 Y97.465 E4.64020
G1 X87.677 Y99.990 E5.40487
G1 X87.676 Y99.653 E5.47690
G1 X88.031 Y98.755 E5.68366
G1 E3.68366 F2400.00000
G92 E0
G1 X89.456 Y103.497 F7800.000
G1 E2.00000 F2400.00000
G1 F3262.69
G1 X88.783 Y103.761 E2.15480
G1 X88.971 Y103.982 E2.21679
G1 X89.921 Y103.031 E2.50463
G1 X91.374 Y102.459 E2.83899
G1 X89.541 Y104.292 E3.39398
G1 Z2.400 F7800.000
G1 X89.548 Y103.643 F7800.000
G1 F3494.72
G1 X89.248 Y103.761 E3.46304
G1 X89.559 Y104.128 E3.56599
G1 X90.309 Y104.403 E3.73693
G1 X89.083 Y103.178 E4.10803
G1 X89.715 Y102.929 E4.25351
G1 X91.527 Y104.741 E4.80224
G1 X92.618 Y104.951 E5.03999
G1 X90.347 Y102.680 E5.72748
G1 X90.980 Y102.432 E5.87295
G1 X93.628 Y105.081 E6.67516
G1 X94.575 Y105.146 E6.87838
G1 X91.612 Y102.183 E7.77591
G1 X92.204 Y101.949 E7.91229
G1 X92.168 Y101.859 E7.93313
G1 X95.522 Y105.212 E8.94880
G1 X96.469 Y105.278 E9.15205
G1 X91.597 Y100.406 E10.62766
G1 X91.244 Y99.513 E10.83326
G1 X91.462 Y99.541 E10.88016
G1 X91.595 Y99.523 E10.90900
G1 X97.416 Y105.344 E12.67176
G1 X98.131 Y105.394 E12.82535
G1 X98.275 Y105.323 E12.85974
G1 X92.282 Y99.330 E14.67468
G1 X92.343 Y99.304 E14.68881
G1 X92.709 Y99.024 E14.78753
G1 X92.773 Y98.940 E14.81019
G1 X98.864 Y105.030 E16.65467
G1 X99.453 Y104.738 E16.79541
G1 X93.102 Y98.387 E18.71872
G1 X93.166 Y98.232 E18.75461
G1 X93.225 Y97.776 E18.85309
G1 X93.204 Y97.608 E18.88943
G1 X100.041 Y104.446 E20.96022
G1 X100.466 Y104.236 E21.06170
G1 X100.588 Y104.112 E21.09893
G1 X91.462 Y94.985 E23.86284
G1 X91.680 Y94.888 E23.91401
G1 X92.176 Y94.819 E24.02128
G1 X101.026 Y103.669 E26.70154
G1 X101.465 Y103.227 E26.83493
G1 X92.949 Y94.711 E29.41373
G1 X93.722 Y94.603 E29.58090
G1 X102.008 Y102.889 E32.09017
G1 X102.587 Y102.587 E32.22994
G1 X94.604 Y94.604 E34.64739
G1 X95.488 Y94.607 E34.83665
G1 X103.165 Y102.284 E37.16162
G1 X103.743 Y101.981 E37.30139
G1 X96.493 Y94.731 E39.49704
G1 X97.611 Y94.968 E39.74165
G1 X104.322 Y101.679 E41.77401
G1 X104.900 Y101.376 E41.91378
G1 X98.872 Y95.348 E43.73938
G1 X100.014 Y95.710 E43.99591
G1 X100.215 Y95.810 E44.04401
G1 X105.472 Y101.068 E45.63618
G1 X105.947 Y100.661 E45.76997
G1 X102.640 Y97.355 E46.77134
G1 X104.900 Y99.225 E47.39944
G1 X105.135 Y99.486 E47.47463
G1 X105.413 Y99.247 E47.55310
G1 X106.422 Y100.255 E47.85863
G1 X106.528 Y100.165 E47.88848
G1 X107.910 Y101.550 E48.30736
G1 X108.000 Y101.664 E48.33864
G1 X108.074 Y101.587 E48.36164
G1 X108.800 Y101.752 E48.52101
G1 X105.886 Y98.839 E49.40327
G1 X106.360 Y98.432 E49.53704
G1 X109.371 Y101.443 E50.44896
G1 X109.826 Y101.017 E50.58242
G1 X106.943 Y98.134 E51.45556
G1 X107.671 Y97.981 E51.61489
G1 X110.281 Y100.591 E52.40526
G1 X110.736 Y100.165 E52.53872
G1 X108.399 Y97.828 E53.24639
G1 X108.992 Y97.704 E53.37607
G1 X109.080 Y97.628 E53.40095
G1 X111.000 Y99.548 E53.98222
G1 X110.951 Y98.618 E54.18151
G1 X109.547 Y97.214 E54.60673
G1 X110.003 Y96.789 E54.74020
G1 X110.903 Y97.689 E55.01278
G1 E53.01278 F2400.00000
G92 E0
G1 X92.094 Y96.498 F7800.000
G1 E2.00000 F2400.00000
G1 F3494.72
G1 X90.853 Y95.257 E2.37576
G1 X90.244 Y95.529 E2.51858
G1 X91.315 Y96.600 E2.84294
G1 X91.044 Y96.713 E2.90582
G1 X90.762 Y96.929 E2.98175
G1 X89.677 Y95.843 E3.31046
G1 X89.266 Y96.314 E3.44416
G1 X90.373 Y97.420 E3.77915
G1 X90.222 Y97.785 E3.86367
G1 X90.179 Y98.107 E3.93336
G1 X88.856 Y96.784 E4.33404
G1 X88.445 Y97.255 E4.46774
G1 X90.987 Y99.796 E5.23732
G1 X90.354 Y100.045 E5.38279
G1 X88.192 Y97.882 E6.03768
G1 X87.942 Y98.514 E6.18306
G1 X89.722 Y100.294 E6.72210
G1 X89.090 Y100.542 E6.86756
G1 X87.693 Y99.145 E7.29076
G1 X87.676 Y99.188 E7.30065
G1 X87.680 Y100.013 E7.47726
G1 X88.458 Y100.791 E7.71307
G1 X88.147 Y100.914 E7.78475
G1 X88.145 Y100.478 E7.87815
G1 E5.87815 F2400.00000
G92 E0
G1 X109.477 Y101.234 F7800.000
G1 E2.00000 F2400.00000
G1 F873.681
G1 X110.268 Y102.025 E2.32581
G1 X110.691 Y102.051 E2.44932
G1 X110.900 Y102.121 E2.51351
G1 X111.082 Y102.402 E2.61084
G1 X111.080 Y101.758 E2.79849
G1 X110.035 Y100.712 E3.22923
G1 X110.592 Y100.191 E3.45157
G1 X111.086 Y100.685 E3.65530
G1 Z2.700 F7800.000
G1 X110.464 Y99.934 F7800.000
G1 F829.094
G1 X110.960 Y99.437 E3.85992
G1 X110.907 Y98.412 E4.15903
G1 X107.791 Y101.528 E5.44297
G1 X107.544 Y101.472 E5.51676
G1 X107.469 Y101.550 E5.54833
G1 X107.080 Y101.160 E5.70887
G1 X107.693 Y100.547 E5.96166
G1 X106.472 Y100.575 F7800.000
G1 F3316.38
G1 X109.314 Y97.734 E6.82215
G1 X108.198 Y97.968 E7.06620
G1 X105.642 Y100.524 E7.84028
G1 X104.979 Y101.091 E8.02710
G1 X103.333 Y101.953 E8.42502
G1 X107.033 Y98.253 E9.54550
G1 X105.601 Y99.486 E9.95011
G1 X105.365 Y99.225 E10.02530
G1 X105.264 Y99.141 E10.05353
G1 X101.485 Y102.920 E11.19783
G1 X101.108 Y103.117 E11.28905
G1 X100.001 Y104.236 E11.62604
G1 X98.586 Y104.937 E11.96413
G1 X104.782 Y98.742 E13.84029
G1 X104.300 Y98.343 E13.97428
G1 X97.276 Y105.367 E16.10136
G1 X96.452 Y105.310 E16.27815
G1 X103.818 Y97.944 E18.50869
G1 X103.336 Y97.545 E18.64267
G1 X95.629 Y105.252 E20.97663
G1 X94.805 Y105.195 E21.15342
G1 X102.854 Y97.146 E23.59083
G1 X102.372 Y96.747 E23.72481
G1 X93.982 Y105.137 E26.26567
G1 X93.158 Y105.080 E26.44246
G1 X101.849 Y96.389 E29.07436
G1 X101.260 Y96.098 E29.21513
G1 X92.366 Y104.992 E31.90862
G1 X91.627 Y104.850 E32.06977
G1 X100.671 Y95.806 E34.80871
G1 X100.479 Y95.710 E34.85460
G1 X100.028 Y95.567 E34.95586
G1 X90.888 Y104.708 E37.72396
G1 X90.431 Y104.620 E37.82352
G1 X90.185 Y104.529 E37.87967
G1 X99.359 Y95.355 E40.65803
G1 X98.691 Y95.143 E40.80826
G1 X91.982 Y101.851 E42.83978
G1 X91.733 Y101.219 E42.98524
G1 X98.001 Y94.952 E44.88318
G1 X97.274 Y94.798 E45.04232
G1 X93.019 Y99.053 E46.33092
G1 X93.166 Y98.698 E46.41330
G1 X93.225 Y98.242 E46.51178
G1 X93.194 Y97.997 E46.56460
G1 X96.547 Y94.644 E47.58002
G1 X96.377 Y94.608 E47.61708
G1 X95.704 Y94.606 E47.76133
G1 X92.973 Y97.337 E48.58833
G1 X92.709 Y96.993 E48.68111
G1 X92.554 Y96.875 E48.72286
G1 X94.826 Y94.603 E49.41075
G1 X94.202 Y94.601 E49.54421
G1 X93.905 Y94.643 E49.60847
G1 X91.984 Y96.564 E50.19028
G1 X91.918 Y96.536 E50.20564
G1 X91.460 Y96.476 E50.30443
G1 X91.150 Y96.517 E50.37153
G1 X92.882 Y94.785 E50.89602
G1 X92.145 Y94.888 E51.05523
G1 X91.699 Y95.087 E51.15997
G1 X88.031 Y98.755 E52.27073
G1 X88.436 Y97.731 E52.50651
G1 X89.764 Y96.209 E52.93920
G1 X91.233 Y95.553 E53.28379
G1 E51.28379 F2400.00000
G92 E0
G1 X93.484 Y98.588 F7800.000
G1 E2.00000 F2400.00000
G1 F3316.38
G1 X93.455 Y98.658 E2.01627
G1 X93.174 Y99.024 E2.11499
G1 X92.808 Y99.304 E2.21371
G1 X92.738 Y99.333 E2.22998
G1 X91.485 Y100.587 E2.60963
G1 X90.509 Y99.801 F7800.000
G1 F3316.38
G1 X91.022 Y99.288 E2.76497
G1 X90.678 Y99.024 E2.85779
G1 X90.560 Y98.869 E2.89950
G1 X89.056 Y100.373 E3.35492
G1 X87.682 Y100.914 E3.67122
G1 X87.681 Y100.866 E3.68140
G1 X90.249 Y98.299 E4.45899
G1 X90.221 Y98.232 E4.47453
G1 X90.161 Y97.776 E4.57288
G1 X90.202 Y97.465 E4.64026
G1 X87.677 Y99.990 E5.40493
G1 X87.676 Y99.653 E5.47696
G1 X88.031 Y98.755 E5.68371
G1 E3.68371 F2400.00000
G92 E0
G1 X89.456 Y103.496 F7800.000
G1 E2.00000 F2400.00000
G1 F3316.38
G1 X88.783 Y103.761 E2.15490
G1 X88.970 Y103.982 E2.21691
G1 X89.921 Y103.031 E2.50489
G1 X91.374 Y102.459 E2.83926
G1 X89.541 Y104.292 E3.39439
G1 Z3.000 F7800.000
G1 X89.548 Y103.643 F7800.000
G1 F3037.42
G1 X89.248 Y103.761 E3.46345
G1 X89.559 Y104.128 E3.56638
G1 X90.309 Y104.404 E3.73750
G1 X89.083 Y103.178 E4.10879
G1 X89.715 Y102.929 E4.25425
G1 X91.528 Y104.741 E4.80310
G1 X92.618 Y104.951 E5.04084
G1 X90.347 Y102.680 E5.72844
G1 X90.979 Y102.431 E5.87390
G1 X93.629 Y105.081 E6.67617
G1 X94.575 Y105.146 E6.87942
G1 X91.611 Y102.183 E7.77701
G1 X92.204 Y101.949 E7.91339
G1 X92.168 Y101.859 E7.93424
G1 X95.522 Y105.212 E8.94990
G1 X96.469 Y105.278 E9.15315
G1 X91.596 Y100.405 E10.62886
G1 X91.244 Y99.513 E10.83436
G1 X91.459 Y99.541 E10.88063
G1 X91.595 Y99.523 E10.91009
G1 X97.416 Y105.344 E12.67284
G1 X98.131 Y105.394 E12.82644
G1 X98.275 Y105.323 E12.86082
G1 X92.282 Y99.330 E14.67576
G1 X92.343 Y99.304 E14.68988
G1 X92.709 Y99.024 E14.78860
G1 X92.773 Y98.940 E14.81126
G1 X98.864 Y105.030 E16.65572
G1 X99.453 Y104.738 E16.79647
G1 X93.102 Y98.387 E18.71977
G1 X93.166 Y98.232 E18.75566
G1 X93.225 Y97.776 E18.85414
G1 X93.204 Y97.608 E18.89048
G1 X100.041 Y104.446 E20.96128
G1 X100.466 Y104.236 E21.06276
G1 X100.588 Y104.112 E21.09999
G1 X91.462 Y94.985 E23.86389
G1 X91.680 Y94.888 E23.91507
G1 X92.176 Y94.819 E24.02234
G1 X101.026 Y103.669 E26.70260
G1 X101.465 Y103.226 E26.83599
G1 X92.949 Y94.711 E29.41479
G1 X93.722 Y94.603 E29.58196
G1 X102.008 Y102.889 E32.09125
G1 X102.587 Y102.587 E32.23102
G1 X94.604 Y94.604 E34.64846
G1 X95.488 Y94.607 E34.83770
G1 X103.165 Y102.284 E37.16266
G1 X103.743 Y101.981 E37.30243
G1 X96.493 Y94.731 E39.49808
G1 X97.611 Y94.968 E39.74269
G1 X104.322 Y101.679 E41.77505
G1 X104.900 Y101.376 E41.91482
G1 X98.872 Y95.348 E43.74042
G1 X100.014 Y95.710 E43.99694
G1 X100.215 Y95.810 E44.04505
G1 X105.472 Y101.068 E45.63722
G1 X105.947 Y100.662 E45.77101
G1 X102.640 Y97.355 E46.77239
G1 X104.900 Y99.225 E47.40048
G1 X105.135 Y99.486 E47.47567
G1 X105.413 Y99.247 E47.55413
G1 X106.422 Y100.255 E47.85967
G1 X106.528 Y100.165 E47.88952
G1 X107.105 Y100.744 E48.06460
G1 X107.460 Y100.412 E48.16848
G1 X105.886 Y98.839 E48.64486
G1 X106.360 Y98.432 E48.77862
G1 X107.914 Y99.986 E49.24939
G1 X108.369 Y99.560 E49.38285
G1 X106.943 Y98.134 E49.81473
G1 X107.671 Y97.981 E49.97407
G1 X108.824 Y99.134 E50.32317
G1 X109.279 Y98.708 E50.45663
G1 X108.399 Y97.828 E50.72305
G1 X108.992 Y97.704 E50.85273
G1 X109.080 Y97.628 E50.87760
G1 X109.734 Y98.282 E51.07566
G1 X110.189 Y97.856 E51.20912
G1 X109.537 Y97.204 E51.40665
G1 X109.992 Y96.778 E51.54012
G1 X110.583 Y97.369 E51.71901
G1 E49.71901 F2400.00000
G92 E0
G1 X92.094 Y96.498 F7800.000
G1 E2.00000 F2400.00000
G1 F3037.42
G1 X90.853 Y95.257 E2.37577
G1 X90.244 Y95.529 E2.51859
G1 X91.315 Y96.600 E2.84295
G1 X91.044 Y96.713 E2.90585
G1 X90.762 Y96.929 E2.98176
G1 X89.677 Y95.843 E3.31049
G1 X89.266 Y96.314 E3.44418
G1 X90.373 Y97.420 E3.77917
G1 X90.222 Y97.785 E3.86369
G1 X90.179 Y98.107 E3.93338
G1 X88.856 Y96.784 E4.33407
G1 X88.445 Y97.255 E4.46776
G1 X90.987 Y99.796 E5.23735
G1 X90.355 Y100.045 E5.38281
G1 X88.192 Y97.882 E6.03773
G1 X87.942 Y98.514 E6.18312
G1 X89.723 Y100.294 E6.72219
G1 X89.090 Y100.543 E6.86765
G1 X87.693 Y99.145 E7.29089
G1 X87.676 Y99.188 E7.30078
G1 X87.680 Y100.013 E7.47739
G1 X88.458 Y100.791 E7.71322
G1 X88.147 Y100.914 E7.78492
G1 X88.145 Y100.478 E7.87832
G1 E5.87832 F2400.00000
G92 E0
M107
; Filament-specific end gcode 
;END gcode for filament

M104 S0 ; turn off temperature
G28 X0  ; home X axis
M84     ; disable motors

M140 S0 ; set bed temperature
; filament used = 581.4mm (0.5cm3)
; total filament cost = 0.0

; avoid_crossing_perimeters = 0
; bed_shape = 0x0,200x0,200x200,0x200
; bed_temperature = 0
; before_layer_gcode = 
; between_objects_gcode = 
; bridge_acceleration = 0
; bridge_fan_speed = 100
; brim_connections_width = 0
; brim_width = 0
; complete_objects = 0
; cooling = 1
; default_acceleration = 0
; disable_fan_first_layers = 3
; duplicate_distance = 6
; end_filament_gcode = "; Filament-specific end gcode \n;END gcode for filament\n"
; end_gcode = M104 S0 ; turn off temperature\nG28 X0  ; home X axis\nM84     ; disable motors\n
; extruder_clearance_height = 20
; extruder_clearance_radius = 20
; extruder_offset = 0x0
; extrusion_axis = E
; extrusion_multiplier = 1
; fan_always_on = 0
; fan_below_layer_time = 60
; filament_colour = #FFFFFF
; filament_cost = 0
; filament_density = 0
; filament_diameter = 1
; filament_max_volumetric_speed = 0
; filament_notes = ""
; first_layer_acceleration = 0
; first_layer_bed_temperature = 0
; first_layer_extrusion_width = 200%
; first_layer_speed = 30
; first_layer_temperature = 200
; gcode_arcs = 0
; gcode_comments = 0
; gcode_flavor = reprap
; has_heatbed = 1
; infill_acceleration = 0
; infill_first = 0
; interior_brim_width = 0
; layer_gcode = 
; max_fan_speed = 100
; max_layer_height = 0.3
; max_print_speed = 80
; max_volumetric_speed = 0
; min_fan_speed = 35
; min_layer_height = 0.15
; min_print_speed = 10
; min_skirt_length = 0
; notes = 
; nozzle_diameter = 0.5
; only_retract_when_crossing_perimeters = 1
; ooze_prevention = 0
; output_filename_format = [input_filename_base].gcode
; perimeter_acceleration = 0
; post_process = 
; pressure_advance = 0
; printer_notes = 
; resolution = 0
; retract_before_travel = 2
; retract_layer_change = 0
; retract_length = 2
; retract_length_toolchange = 10
; retract_lift = 0
; retract_lift_above = 0
; retract_lift_below = 0
; retract_restart_extra = 0
; retract_restart_extra_toolchange = 0
; retract_speed = 40
; skirt_distance = 6
; skirt_height = 1
; skirts = 0
; slowdown_below_layer_time = 5
; spiral_vase = 0
; standby_temperature_delta = -5
; start_filament_gcode = "; Filament gcode\n"
; start_gcode = G28 ; home all axes\nG1 Z5 F5000 ; lift nozzle\n
; temperature = 200
; threads = 4
; toolchange_gcode = 
; travel_speed = 130
; use_firmware_retraction = 0
; use_relative_e_distances = 0
; use_set_and_wait_bed = 0
; use_set_and_wait_extruder = 0
; use_volumetric_e = 0
; vibration_limit = 0
; wipe = 0
; z_offset = 0
; z_steps_per_mm = 0
; adaptive_slicing = 0
; adaptive_slicing_quality = 75%
; dont_support_bridges = 1
; extrusion_width = 0
; first_layer_height = 0.3
; infill_only_where_needed = 0
; interface_shells = 0
; layer_height = 0.3
; match_horizontal_surfaces = 0
; raft_layers = 0
; regions_overlap = 0
; seam_position = aligned
; sequential_print_priority = 0
; support_material = 0
; support_material_angle = 0
; support_material_buildplate_only = 0
; support_material_contact_distance = 0.2
; support_material_enforce_layers = 0
; support_material_extruder = 1
; support_material_extrusion_width = 0
; support_material_interface_extruder = 1
; support_material_interface_extrusion_width = 0
; support_material_interface_layers = 3
; support_material_interface_spacing = 0
; support_material_interface_speed = 100%
; support_material_max_layers = 0
; support_material_pattern = pillars
; support_material_spacing = 2.5
; support_material_speed = 60
; support_material_threshold = 60%
; xy_size_compensation = 0
; bottom_infill_pattern = rectilinear
; bottom_solid_layers = 0
; bridge_flow_ratio = 1
; bridge_speed = 60
; external_perimeter_extrusion_width = 0
; external_perimeter_speed = 50%
; external_perimeters_first = 0
; extra_perimeters = 1
; fill_angle = 45
; fill_density = 90%
; fill_gaps = 1
; fill_pattern = rectilinear
; gap_fill_speed = 20
; infill_every_layers = 1
; infill_extruder = 1
; infill_extrusion_width = 0
; infill_overlap = 55%
; infill_speed = 80
; overhangs = 1
; perimeter_extruder = 1
; perimeter_extrusion_width = 0
; perimeter_speed = 60
; perimeters = 0
; small_perimeter_speed = 15
; solid_infill_below_area = 70
; solid_infill_every_layers = 0
; solid_infill_extruder = 1
; solid_infill_extrusion_width = 0
; solid_infill_speed = 20
; thin_walls = 1
; top_infill_extrusion_width = 0
; top_infill_pattern = rectilinear
; top_solid_infill_speed = 15
; top_solid_layers = 0
