; generated by Slic3r 1.3.0 on 2020-03-03 at 17:17:36

; external perimeters extrusion width = 0.55mm (6.64mm^3/s)
; perimeters extrusion width = 0.52mm (12.53mm^3/s)
; infill extrusion width = 0.52mm (16.71mm^3/s)
; solid infill extrusion width = 0.52mm (4.18mm^3/s)
; top infill extrusion width = 0.52mm (3.13mm^3/s)

M107
M104 S205 ; set temperature
G28 ; home all axes
G1 Z5 F5000 ; lift nozzle

; Filament gcode

M109 S205 ; set temperature and wait for it to be reached
G21 ; set units to millimeters
G90 ; use absolute coordinates
M82 ; use absolute distances for extrusion
G92 E0
G1 Z0.500 F7800.000
G1 E-2.00000 F2400.00000
G92 E0
G1 X103.377 Y97.213 F7800.000
G1 E2.00000 F2400.00000
G1 F600
G1 X103.318 Y97.460 E2.00611
G1 F600
G1 X103.313 Y97.516 E2.00782
G1 F600
G1 X103.310 Y97.565 E2.00961
G1 F600
G1 X103.302 Y97.658 E2.01339
G1 F600
G1 X103.298 Y97.744 E2.01721
G1 F600
G1 X103.286 Y97.887 E2.02446
G1 F600
G1 X103.275 Y98.040 E2.03291
G1 F600
G1 X103.232 Y98.380 E2.05306
G1 X103.171 Y98.602 E2.06657
G1 F600
G1 X103.141 Y98.795 E2.07717
G1 F600
G1 X103.097 Y98.894 E2.08258
G1 F600
G1 X103.068 Y98.945 E2.08518
G1 F600
G1 X103.034 Y98.997 E2.08773
G1 F600
G1 X103.001 Y99.051 E2.08993
G1 F600
G1 X102.967 Y99.095 E2.09150
G1 F600
G1 X102.813 Y99.241 E2.09616
M104 S200 ; set temperature
G1 Z1.000 F7800.000
G1 E0.09616 F2400.00000
G92 E0
G1 X100.141 Y103.465 F7800.000
G1 E2.00000 F2400.00000
G1 F1800
G1 X100.245 Y103.492 E2.00336
G1 X100.325 Y103.551 E2.00648
G1 X100.428 Y103.748 E2.01344
G1 X100.451 Y103.912 E2.01862
G1 X100.426 Y104.242 E2.02899
G1 X100.261 Y104.793 E2.04701

G1 F3600
G1 X100.207 Y104.971 E2.05216
G1 X100.064 Y105.273 E2.06146
G1 X99.890 Y105.520 E2.06985
G1 X99.759 Y105.616 E2.07437
G1 X99.575 Y105.661 E2.07962
G1 X99.420 Y105.644 E2.08394
G1 X99.032 Y105.468 E2.09578
G1 X98.717 Y105.652 E2.10592
G1 X98.569 Y105.467 E2.11251

G1 F1800
G1 X98.359 Y105.204 E2.12305
G1 X98.051 Y104.751 E2.14020
G1 X97.667 Y104.365 E2.15725
G1 X97.590 Y104.252 E2.16154
G1 X97.560 Y104.187 E2.16377
G1 X97.569 Y103.879 E2.17340

G1 F3600
G1 X97.549 Y103.505 E2.18382
G1 X97.341 Y103.010 E2.19874
G1 X97.004 Y102.056 E2.22684
G1 X96.670 Y100.467 E2.27195
G1 X96.587 Y99.553 E2.29744
G1 X96.629 Y98.583 E2.32440
G1 X96.771 Y97.866 E2.34471
G1 X96.911 Y97.459 E2.35666
G1 X97.130 Y96.949 E2.37209
G1 X97.368 Y96.607 E2.38365
G1 X98.058 Y95.763 E2.41393
G1 X98.313 Y95.548 E2.42321
G1 X98.871 Y95.206 E2.44139
G1 X99.193 Y95.064 E2.45117
G1 X99.700 Y94.926 E2.46575
G1 X100.085 Y94.853 E2.47664
G1 X100.478 Y94.804 E2.48763
G1 X101.180 Y94.843 E2.50718
G1 X102.288 Y95.107 E2.53880
G1 X103.019 Y95.513 E2.56203
G1 X103.266 Y95.709 E2.57079
G1 X103.392 Y95.853 E2.57611
G1 X103.722 Y96.337 E2.59239
G1 X103.821 Y96.534 E2.59850
G1 X103.928 Y96.851 E2.60780
G1 X103.987 Y97.096 E2.61479
G1 X104.024 Y97.401 E2.62332
G1 X104.032 Y97.763 E2.63339
G1 X103.988 Y98.207 E2.64579

G1 F1800
G1 X103.868 Y98.727 E2.66251

G1 F3600
G1 X103.681 Y99.304 E2.67936
G1 X103.539 Y99.577 E2.68789
G1 X103.193 Y100.014 E2.70338
G1 X102.888 Y100.267 E2.71438
G1 X102.558 Y100.445 E2.72480
G1 X102.330 Y100.543 E2.73169
G1 X102.100 Y100.608 E2.73833
G1 X101.674 Y100.637 E2.75018
G1 X101.566 Y100.622 E2.75321
G1 X101.432 Y100.569 E2.75721
G1 X101.311 Y100.488 E2.76127
G1 X101.400 Y100.323 E2.76649
G1 X101.981 Y99.573 E2.79284
G1 X102.193 Y99.194 E2.80491
G1 X102.401 Y98.657 E2.82088
G1 X102.498 Y97.922 E2.84149
G1 X102.391 Y97.147 E2.86321
G1 X102.111 Y96.552 E2.88148
G1 X102.069 Y96.216 E2.89089
G1 X101.921 Y96.071 E2.89665
G1 X101.700 Y95.957 E2.90355
G1 X101.423 Y95.746 E2.91322
G1 X101.125 Y95.580 E2.92271
G1 X100.743 Y95.486 E2.93364
G1 X100.313 Y95.456 E2.94561
G1 X99.880 Y95.533 E2.95782
G1 X99.541 Y95.634 E2.96763
G1 X98.768 Y95.990 E2.99128
G1 X98.489 Y96.161 E3.00039
G1 X98.321 Y96.325 E3.00688
G1 X97.894 Y97.104 E3.03158
G1 X97.746 Y97.425 E3.04139
G1 X97.663 Y97.654 E3.04815
G1 X97.416 Y98.542 E3.07377
G1 X97.363 Y98.913 E3.08417
G1 X97.366 Y99.860 E3.11048
G1 X97.326 Y100.446 E3.12680
G1 X97.338 Y100.883 E3.13894
G1 X97.443 Y101.147 E3.14682
G1 X97.685 Y101.566 E3.16027
G1 X98.029 Y102.312 E3.18310
G1 X98.517 Y103.035 E3.20732
G1 X98.625 Y103.234 E3.21360
G1 X98.763 Y103.609 E3.22472
G1 X98.814 Y103.971 E3.23486

G1 F1800
G1 X98.838 Y104.151 E3.24054
G1 X98.943 Y104.164 E3.24384

G1 F3600
G1 X99.159 Y104.190 E3.24989

G1 F1800
G1 X99.326 Y104.211 E3.25517
G1 X99.487 Y103.868 E3.26701
G1 X99.724 Y103.674 E3.27662
G1 X100.069 Y103.487 E3.28890
G1 X100.182 Y104.155 F7800.000
G1 F600
G1 X99.857 Y103.830 E3.30519
G1 X99.668 Y103.973 E3.31361
G1 X99.547 Y104.229 E3.32365
G1 X100.003 Y104.685 E3.34651
G1 X99.927 Y104.736 E3.34979
G1 X100.019 Y104.828 E3.35440
G1 X99.973 Y104.981 E3.36005
G1 X99.847 Y105.238 E3.37019
G1 X99.074 Y104.464 E3.40897
G1 X98.301 Y104.369 E3.43659
G1 X98.251 Y104.055 E3.44785
G1 X97.981 Y104.081 E3.45745
G1 X98.889 Y104.988 E3.50295
G1 X98.844 Y104.993 E3.50454
G1 X98.854 Y105.102 E3.50840
G1 X98.542 Y104.643 E3.52808
G1 X98.306 Y104.406 E3.53992
G1 X98.153 Y104.114 F7800.000
G1 F600
G1 X98.150 Y104.238 E3.54431
G1 X98.296 Y104.395 E3.55192
G1 X98.269 Y104.230 E3.55784
G1 X97.828 Y103.789 E3.57996
G1 X97.833 Y103.547 E3.58854
G1 X98.122 Y103.374 E3.60048
G1 X98.447 Y103.699 E3.61678
G1 X97.950 Y103.122 F7800.000
G1 F600
G1 X97.650 Y102.547 E3.63486
G1 F600
G1 X97.403 Y101.944 E3.64957
G1 F600
G1 X97.294 Y101.632 E3.65527
G1 F600
G1 X97.207 Y101.404 E3.65814
G1 F600
G1 X97.110 Y101.114 E3.66000
G1 F600
G1 X97.056 Y100.929 E3.66039
G1 F600
G1 X97.000 Y100.445 E3.66438
G1 F600
G1 X96.994 Y100.133 E3.66809
G1 F600
G1 X96.977 Y99.543 E3.67778
G1 X96.989 Y98.898 E3.68838
G1 X97.014 Y98.625 E3.69289
G1 X97.111 Y98.147 E3.70090
G1 X97.299 Y97.530 E3.71150
G1 F600
G1 X97.463 Y97.133 E3.71701
G1 X97.649 Y96.819 E3.72169
G1 F600
G1 X97.944 Y96.381 E3.72610
G1 F600
G1 X98.104 Y96.147 E3.72651
G1 F600
G1 X98.303 Y95.937 E3.72835
G1 X98.498 Y95.794 E3.72988
G1 X99.021 Y95.505 E3.73367
G1 X99.421 Y95.335 E3.73642
G1 X99.771 Y95.235 E3.73873
G1 X100.308 Y95.141 E3.74218
G1 F600
G1 X100.493 Y95.136 E3.74430
G1 X100.909 Y95.167 E3.74905
G1 F600
G1 X101.240 Y95.232 E3.75462
G1 X101.400 Y95.292 E3.75743
G1 F600
G1 X102.219 Y95.635 E3.77722
G1 X102.811 Y95.856 F7800.000
G1 F600
G1 X103.136 Y96.181 E3.79180
G1 X103.487 Y97.165 F7800.000
G1 F600
G1 X102.327 Y96.006 E3.84382
G1 X102.361 Y96.270 E3.85226
G1 X102.640 Y96.863 E3.87305
G1 X102.654 Y96.967 E3.87639
G1 X103.759 Y98.073 E3.92599
G1 X103.755 Y98.140 E3.92814
G1 X103.729 Y98.136 E3.92897
G1 X103.657 Y98.537 E3.94188
G1 X103.676 Y98.541 E3.94249
G1 X103.661 Y98.608 E3.94469
G1 X102.756 Y97.703 E3.98529
G1 X102.763 Y97.758 E3.98705
G1 X102.695 Y98.277 E4.00364
G1 X103.518 Y99.100 E4.04060
G1 X103.452 Y99.301 E4.04732
G1 X103.321 Y99.537 E4.05588
G1 X102.577 Y98.794 E4.08925
G1 X102.396 Y99.247 E4.10474
G1 X103.038 Y99.889 E4.13354
G1 X102.813 Y100.076 E4.14284
G1 X102.669 Y100.154 E4.14804
G1 X102.167 Y99.653 E4.17053
G1 X101.890 Y100.010 E4.18487
G1 X102.215 Y100.335 E4.19945
G1 Z1.500 F7800.000
G1 E2.19945 F2400.00000
G92 E0
G1 X98.771 Y103.804 F7800.000
G1 E2.00000 F2400.00000
G1 F1800
G1 X99.235 Y103.895 E2.01481
G1 X99.385 Y103.660 E2.02355
G1 X99.455 Y103.592 E2.02660
G1 X99.580 Y103.526 E2.03104
G1 X99.880 Y103.469 E2.04058
G1 X100.047 Y103.488 E2.04585
G1 X100.173 Y103.553 E2.05030
G1 X100.298 Y103.690 E2.05612
G1 X100.365 Y103.834 E2.06109
G1 X100.396 Y104.084 E2.06898
G1 X100.345 Y104.591 E2.08493
G1 X100.213 Y105.166 E2.10342
G1 X100.102 Y105.466 E2.11343
G1 X99.970 Y105.679 E2.12128
G1 X99.793 Y105.753 E2.12727
G1 X99.635 Y105.755 E2.13222
G1 X99.478 Y105.714 E2.13731
G1 X99.136 Y105.497 E2.15000
G1 X98.778 Y105.437 E2.16138
G1 X98.646 Y105.795 E2.17330
G1 X98.004 Y104.759 E2.21147
G1 X97.547 Y104.318 E2.23134
G1 X97.460 Y104.213 E2.23560
G1 X97.344 Y103.959 E2.24436
G1 X97.317 Y103.670 E2.25344
G1 X97.246 Y103.450 E2.26069
G1 X96.889 Y102.910 E2.28096
G1 X96.588 Y102.305 E2.30211
G1 X96.405 Y101.777 E2.31960

G1 F3600
G1 X96.318 Y101.524 E2.32704
G1 X96.146 Y100.860 E2.34610
G1 X96.087 Y100.549 E2.35488
G1 X96.018 Y99.757 E2.37698
G1 X96.032 Y99.270 E2.39052
G1 X96.087 Y98.741 E2.40528

G1 F1800
G1 X96.283 Y97.808 E2.43515
G1 X96.459 Y97.285 E2.45242
G1 X96.818 Y96.555 E2.47789
G1 X96.989 Y96.265 E2.48844
G1 X97.194 Y95.981 E2.49940

G1 F3600
G1 X97.269 Y95.889 E2.50271

G1 F1800
G1 X97.490 Y95.640 E2.51312
G1 X97.798 Y95.344 E2.52650
G1 X98.174 Y95.029 E2.54187
G1 X98.510 Y94.811 E2.55440
G1 X98.828 Y94.646 E2.56563

G1 F3600
G1 X99.239 Y94.473 E2.57802
G1 X99.608 Y94.363 E2.58872
G1 X99.959 Y94.287 E2.59869
G1 X100.368 Y94.264 E2.61007
G1 X101.244 Y94.297 E2.63441
G1 X101.812 Y94.393 E2.65042
G1 X102.255 Y94.552 E2.66348

G1 F1800
G1 X102.591 Y94.699 E2.67498
G1 X102.828 Y94.832 E2.68349
G1 X103.071 Y95.006 E2.69284
G1 X103.350 Y95.278 E2.70504
G1 X103.678 Y95.700 E2.72178
G1 X103.847 Y95.952 E2.73130
G1 X104.008 Y96.260 E2.74219
G1 X104.135 Y96.603 E2.75364
G1 X104.206 Y96.978 E2.76557
G1 X104.247 Y97.443 E2.78020
G1 X104.238 Y97.791 E2.79111
G1 X104.184 Y98.353 E2.80877
G1 X104.130 Y98.667 E2.81877
G1 X103.901 Y99.399 E2.84278
G1 X103.772 Y99.691 E2.85276
G1 X103.453 Y100.185 E2.87119
G1 X103.319 Y100.323 E2.87720
G1 X103.056 Y100.545 E2.88796
G1 X102.773 Y100.737 E2.89870
G1 X102.575 Y100.832 E2.90558
G1 X102.240 Y100.954 E2.91673
G1 X101.847 Y101.058 E2.92946
G1 X101.607 Y101.100 E2.93708
G1 X101.341 Y101.097 E2.94542

G1 F3600
G1 X100.898 Y101.022 E2.95791
G1 X100.693 Y100.954 E2.96391
G1 X100.500 Y100.858 E2.96989
G1 X100.329 Y100.742 E2.97563
G1 X100.151 Y100.590 E2.98215
G1 X100.043 Y100.445 E2.98714
G1 X99.935 Y100.160 E2.99562
G1 X99.918 Y99.990 E3.00036
G1 X100.605 Y99.903 E3.01958
G1 X101.054 Y99.780 E3.03251
G1 X101.241 Y99.683 E3.03836

G1 F1800
G1 X101.512 Y99.511 E3.04841
G1 X102.255 Y98.908 E3.07840
G1 X102.313 Y98.678 E3.08583
G1 X102.343 Y98.349 E3.09618
G1 X102.452 Y97.948 E3.10918
G1 X102.484 Y97.619 E3.11954
G1 X102.432 Y97.394 E3.12677
G1 X102.314 Y97.263 E3.13228
G1 X102.243 Y96.960 E3.14203
G1 X102.092 Y96.681 E3.15196
G1 X102.054 Y96.679 E3.15317
G1 X101.946 Y96.418 E3.16199
G1 X101.639 Y96.392 E3.17166
G1 X101.275 Y96.075 E3.18677
G1 X101.213 Y95.919 E3.19204
G1 X100.793 Y95.804 E3.20569
G1 X100.722 Y95.946 E3.21067
G1 X100.264 Y95.853 E3.22530
G1 X99.835 Y95.884 E3.23877
G1 X99.621 Y95.941 E3.24572
G1 X99.182 Y96.133 E3.26071
G1 X98.917 Y96.344 E3.27130
G1 X98.862 Y96.362 E3.27312
G1 X98.443 Y96.733 E3.29064
G1 X98.311 Y96.927 E3.29801
G1 X98.173 Y97.221 E3.30817
G1 X97.966 Y97.536 E3.31997
G1 X97.798 Y97.887 E3.33218
G1 X97.721 Y98.130 E3.34013
G1 X97.620 Y98.690 E3.35796
G1 X97.587 Y99.039 E3.36895
G1 X97.597 Y99.400 E3.38025
G1 X97.638 Y99.787 E3.39242
G1 X97.626 Y100.176 E3.40461
G1 X97.668 Y100.434 E3.41280
G1 X97.841 Y101.172 E3.43654
G1 X98.131 Y101.968 E3.46306
G1 X98.528 Y102.727 E3.48988
G1 X98.753 Y103.211 E3.50660
G1 X98.737 Y103.350 E3.51098
G1 X98.766 Y103.729 E3.52289
G1 X99.525 Y105.493 F7800.000
G1 F1200
G1 X99.882 Y105.117 E3.53830
G1 X99.969 Y104.883 E3.54571
G1 X100.091 Y104.333 E3.56243
G1 X99.153 Y105.271 E3.60184
G1 X98.653 Y105.176 E3.61695
G1 X100.085 Y103.745 E3.67711
G1 X100.058 Y103.735 E3.67798
G1 X99.874 Y103.773 E3.68355
G1 X99.600 Y104.205 E3.69874
G1 X99.125 Y104.111 E3.71314
G1 X98.330 Y104.906 E3.74652
G1 X98.173 Y104.653 E3.75536
G1 X98.080 Y104.562 E3.75923
G1 X98.628 Y104.014 E3.78228
G1 X98.535 Y103.995 E3.78510
G1 X98.501 Y103.546 E3.79849
G1 X97.777 Y104.271 E3.82892
G1 X97.660 Y104.149 E3.83393
G1 X97.597 Y104.011 E3.83845
G1 X97.584 Y103.870 E3.84265
G1 X98.434 Y103.020 E3.87839
G1 X98.240 Y102.619 E3.89160
G1 X97.455 Y103.405 E3.92462
G1 X97.218 Y103.047 E3.93735
G1 X98.037 Y102.229 E3.97174
G1 X97.905 Y101.977 E3.98020
G1 X97.849 Y101.823 E3.98507
G1 X97.000 Y102.671 E4.02071
G1 X96.806 Y102.271 E4.03392
G1 X97.690 Y101.387 E4.07105
G1 X97.596 Y101.131 E4.07916
G1 X97.550 Y100.933 E4.08520
G1 X96.653 Y101.830 E4.12287
G1 X96.561 Y101.564 E4.13123
G1 X96.513 Y101.376 E4.13699
G1 X97.437 Y100.452 E4.17583
G1 X97.364 Y100.041 E4.18824
G1 X97.367 Y99.928 E4.19160
G1 X96.392 Y100.903 E4.23257
G1 X96.345 Y100.654 E4.24010
G1 X96.321 Y100.380 E4.24828
G1 X97.345 Y99.356 E4.29132
G1 X97.334 Y98.773 E4.30863
G1 X96.282 Y99.825 E4.35282
G1 X96.316 Y99.197 E4.37152
G1 X97.433 Y98.080 E4.41842
G1 X97.472 Y97.865 E4.42491
G1 X97.565 Y97.569 E4.43415
G1 X97.767 Y97.152 E4.44792
G1 X96.448 Y98.470 E4.50332
G1 X96.530 Y98.082 E4.51513
G1 X96.676 Y97.649 E4.52869
G1 X99.644 Y94.680 E4.65344
G1 X99.183 Y94.862 E4.66817
G1 X98.885 Y95.015 E4.67813
G1 X98.638 Y95.176 E4.68689
G1 X98.244 Y95.498 E4.70201
G1 X97.969 Y95.793 E4.71400
G1 X97.952 Y95.779 E4.71466
G1 X97.627 Y96.104 E4.72831
G1 X97.442 Y97.477 F7800.000
G1 F1200
G1 X97.640 Y97.176 E4.73900
G1 X97.779 Y96.879 E4.74876
G1 X97.960 Y96.613 E4.75833
G1 X98.484 Y96.149 E4.77910
G1 X98.550 Y96.127 E4.78118
G1 X98.799 Y95.930 E4.79063
G1 X99.137 Y95.782 E4.80158
G1 X100.384 Y94.534 E4.85400
G1 X100.970 Y94.543 E4.87140
G1 X99.909 Y95.604 E4.91601
G1 X100.129 Y95.588 E4.92259
G1 X100.325 Y95.628 E4.92852
G1 X100.406 Y95.465 E4.93392
G1 X100.591 Y95.516 E4.93963
G1 X101.523 Y94.584 E4.97878
G1 X101.876 Y94.644 E4.98942
G1 X102.014 Y94.687 E4.99373
G1 X101.058 Y95.643 E5.03394
G1 X101.368 Y95.728 E5.04350
G1 X101.424 Y95.871 E5.04806
G1 X102.435 Y94.860 E5.09056
G1 X102.820 Y95.069 E5.10357
G1 X101.738 Y96.151 E5.14904
G1 X102.078 Y96.180 E5.15917
G1 X102.143 Y96.340 E5.16430
G1 X103.139 Y95.344 E5.20615
G1 X103.407 Y95.671 E5.21870
G1 X102.349 Y96.728 E5.26313
G1 X102.481 Y96.970 E5.27131
G1 X102.523 Y97.149 E5.27677
G1 X103.651 Y96.020 E5.32421
G1 X103.783 Y96.271 E5.33261
G1 X103.840 Y96.425 E5.33752
G1 X102.706 Y97.560 E5.38519
G1 X102.750 Y97.753 E5.39109
G1 X102.712 Y98.148 E5.40287
G1 X103.951 Y96.908 E5.45497
G1 X103.985 Y97.294 E5.46648
G1 X103.981 Y97.473 E5.47180
G1 X102.898 Y98.556 E5.51731
G1 X102.795 Y98.985 E5.53043
G1 X101.922 Y99.694 E5.56383
G1 X101.778 Y99.785 E5.56890
G1 X101.653 Y99.937 E5.57475
G1 X101.608 Y99.892 E5.57665
G1 X101.504 Y99.950 E5.58018
G1 X100.966 Y100.488 E5.60278
G1 X101.078 Y100.482 E5.60611
G1 X101.089 Y100.654 E5.61124
G1 X101.162 Y100.818 E5.61656
G1 X101.169 Y100.773 E5.61791
G1 X101.247 Y100.801 E5.62036
G1 X103.927 Y98.121 E5.73298
G1 X103.926 Y98.134 E5.73338
G1 X103.879 Y98.406 E5.74156
G1 X103.716 Y98.925 E5.75775
G1 X101.922 Y100.719 E5.83314
M106 S249.9
G1 Z2.000 F7800.000
G1 E3.83314 F2400.00000
G92 E0
G1 X98.399 Y102.910 F7800.000
G1 E2.00000 F2400.00000
G1 F1800
G1 X98.628 Y103.144 E2.01023
G1 X99.072 Y103.013 E2.02472
G1 X99.269 Y103.046 E2.03100
M106 S255

G1 F3600
G1 X99.319 Y103.061 E2.03245
M106 S249.9

G1 F1800
G1 X99.607 Y103.164 E2.04201
G1 X99.935 Y103.357 E2.05394
G1 X100.126 Y103.526 E2.06192
G1 X100.243 Y103.717 E2.06893
G1 X100.287 Y103.850 E2.07332
G1 X100.318 Y104.129 E2.08210
G1 X100.288 Y104.460 E2.09252
G1 X100.191 Y104.749 E2.10207
G1 X100.076 Y104.982 E2.11020
G1 X99.867 Y105.285 E2.12174
G1 X99.773 Y105.373 E2.12576
G1 X99.593 Y105.461 E2.13204
G1 X99.419 Y105.485 E2.13753
G1 X99.283 Y105.461 E2.14185
G1 X99.040 Y105.345 E2.15031
G1 X98.792 Y105.315 E2.15811
G1 X98.589 Y105.433 E2.16547
G1 X98.495 Y105.578 E2.17088
G1 X98.354 Y105.444 E2.17698
G1 X98.271 Y105.331 E2.18136
G1 X97.961 Y104.805 E2.20049
G1 X97.518 Y104.348 E2.22039
G1 X97.399 Y104.202 E2.22630
G1 X97.287 Y104.015 E2.23314
G1 X97.104 Y103.614 E2.24694
G1 X96.848 Y103.276 E2.26022
G1 X96.494 Y102.643 E2.28291
G1 X96.376 Y102.384 E2.29183
G1 X96.140 Y101.732 E2.31356
G1 X95.895 Y100.805 E2.34357
G1 X95.835 Y100.244 E2.36125
G1 X95.773 Y99.948 E2.37072
G1 X95.761 Y99.742 E2.37716
G1 X95.778 Y99.398 E2.38796
G1 X95.905 Y98.393 E2.41968
G1 X96.148 Y97.509 E2.44840
G1 X96.649 Y96.434 E2.48554
G1 X96.884 Y96.071 E2.49908
G1 X97.610 Y95.268 E2.53298
G1 X97.906 Y95.024 E2.54499
G1 X98.161 Y94.887 E2.55404
G1 X98.544 Y94.618 E2.56871
G1 X98.707 Y94.543 E2.57433
G1 X99.613 Y94.243 E2.60420
G1 X100.527 Y94.148 E2.63297
G1 X100.899 Y94.173 E2.64465
G1 X100.958 Y94.266 E2.64807
G1 X101.230 Y94.185 E2.65696
G1 X101.595 Y94.183 E2.66839
G1 X101.833 Y94.232 E2.67601
G1 X102.247 Y94.374 E2.68971
G1 X102.610 Y94.537 E2.70217
G1 X103.148 Y94.888 E2.72228
G1 X103.275 Y95.016 E2.72793
G1 X103.396 Y95.221 E2.73539
G1 X103.668 Y95.452 E2.74655
G1 X103.935 Y95.869 E2.76206
G1 X104.154 Y96.367 E2.77911
G1 X104.276 Y96.985 E2.79882
G1 X104.299 Y97.238 E2.80678
G1 X104.284 Y97.631 E2.81909
G1 X104.227 Y98.035 E2.83187
G1 X104.185 Y98.540 E2.84774
G1 X104.056 Y99.117 E2.86627
G1 X103.813 Y99.782 E2.88842
G1 X103.591 Y100.151 E2.90190
G1 X103.365 Y100.401 E2.91248
G1 X103.114 Y100.624 E2.92298
G1 X102.840 Y100.815 E2.93344
G1 X102.344 Y101.049 E2.95061
G1 X101.930 Y101.192 E2.96433
G1 X101.639 Y101.253 E2.97366
G1 X101.275 Y101.282 E2.98507
G1 X100.944 Y101.274 E2.99544
G1 X100.775 Y101.248 E3.00080
G1 X100.327 Y101.096 E3.01562
G1 X100.023 Y100.943 E3.02628
G1 X99.755 Y100.739 E3.03682
G1 X99.441 Y100.358 E3.05228
M106 S255

G1 F3600
G1 X99.212 Y99.989 E3.06434
G1 X99.082 Y99.645 E3.07456
G1 X99.039 Y99.289 E3.08452
G1 X99.068 Y98.954 E3.09386
G1 X99.237 Y98.583 E3.10518
G1 X99.660 Y99.274 E3.12770
G1 X99.829 Y99.447 E3.13442
G1 X99.864 Y99.461 E3.13545
M106 S249.9

G1 F1800
G1 X100.187 Y99.591 E3.14638
G1 X100.444 Y99.652 E3.15464
G1 X100.625 Y99.839 E3.16279
G1 X100.983 Y99.993 E3.17497
G1 X101.738 Y99.991 E3.19863
G1 X101.551 Y99.519 E3.21453
G1 X101.698 Y99.384 E3.22081
G1 X101.848 Y99.381 E3.22549
G1 X102.048 Y99.231 E3.23332
G1 X102.173 Y98.897 E3.24447
G1 X102.200 Y98.728 E3.24983
G1 X102.311 Y98.554 E3.25629
G1 X102.426 Y98.295 E3.26516
G1 X102.446 Y98.085 E3.27177
G1 X102.425 Y97.829 E3.27983
G1 X102.460 Y97.621 E3.28642
G1 X102.455 Y97.463 E3.29139
G1 X102.411 Y97.348 E3.29523
G1 X102.475 Y97.206 E3.30011
G1 X102.473 Y97.044 E3.30522
G1 X102.302 Y96.609 E3.31985
G1 X102.313 Y96.562 E3.32135
G1 X102.234 Y96.286 E3.33033
G1 X102.090 Y96.111 E3.33743
G1 X101.756 Y95.899 E3.34981
G1 X101.386 Y95.897 E3.36141
G1 X101.304 Y96.113 E3.36863
G1 X101.103 Y95.887 E3.37810
G1 X100.864 Y95.838 E3.38573
G1 X100.707 Y95.748 E3.39140
G1 X100.473 Y95.787 E3.39883
G1 X100.198 Y95.909 E3.40824
G1 X99.952 Y95.931 E3.41600
G1 X99.638 Y95.989 E3.42598
G1 X99.645 Y95.961 E3.42688
G1 X99.468 Y95.959 E3.43243
G1 X99.378 Y96.006 E3.43558
G1 X99.076 Y96.056 E3.44516
G1 X98.904 Y96.164 E3.45151
G1 X98.647 Y96.442 E3.46338
G1 X98.605 Y96.521 E3.46620
G1 X98.373 Y96.684 E3.47506
G1 X98.055 Y97.001 E3.48913
G1 X97.912 Y97.213 E3.49713
G1 X97.813 Y97.425 E3.50446
G1 X97.618 Y97.960 E3.52229
G1 X97.515 Y98.549 E3.54101
G1 X97.477 Y99.036 E3.55632
G1 X97.494 Y100.060 E3.58839
G1 X97.784 Y101.195 E3.62507
G1 X97.941 Y101.559 E3.63750
G1 X98.043 Y101.860 E3.64743
G1 X98.173 Y102.112 E3.65632
G1 X98.270 Y102.397 E3.66573
G1 X98.381 Y102.837 E3.67996
G1 X99.688 Y104.270 F7800.000
G1 F1200
G1 X99.730 Y103.971 E3.68921
G1 X99.708 Y103.779 E3.69512
G1 X99.635 Y103.639 E3.69996
G1 X99.522 Y103.539 E3.70456
G1 X99.267 Y103.389 E3.71364
G1 X98.949 Y103.281 E3.72393
G1 X98.755 Y103.337 E3.73009
G1 X100.013 Y104.595 E3.78454
G1 X98.710 Y105.129 F7800.000
G1 F1200
G1 X98.385 Y104.804 E3.79860
G1 X98.138 Y104.384 E3.81353
G1 X97.585 Y103.795 E3.83826
G1 X97.500 Y103.654 E3.84328
G1 X97.308 Y103.233 E3.85747
G1 X96.999 Y102.805 E3.87364
G1 X99.283 Y105.090 E3.97257
G1 X99.576 Y105.216 E3.98233
G1 X99.631 Y105.213 E3.98400
G1 X99.675 Y105.191 E3.98549
G1 X99.814 Y105.008 E3.99254
G1 X96.459 Y101.653 E4.13781
G1 X96.383 Y101.442 E4.14467
G1 X96.211 Y100.793 E4.16524
G1 X97.988 Y102.570 E4.24219
G1 X97.944 Y102.441 E4.24637
G1 X97.814 Y102.188 E4.25507
G1 X97.707 Y101.874 E4.26523
G1 X97.559 Y101.529 E4.27675
G1 X96.097 Y100.067 E4.34002
G1 X96.031 Y99.729 E4.35056
G1 X96.032 Y99.390 E4.36095
G1 X97.341 Y100.699 E4.41762
G1 X97.234 Y100.279 E4.43089
G1 X97.229 Y99.974 E4.44021
G1 X96.093 Y98.839 E4.48939
G1 X96.164 Y98.298 E4.50610
G1 X97.218 Y99.352 E4.55173
G1 X97.247 Y98.769 E4.56959
G1 X96.296 Y97.817 E4.61079
G1 X96.385 Y97.493 E4.62108
G1 X96.448 Y97.358 E4.62566
G1 X97.329 Y98.239 E4.66383
G1 X97.369 Y98.012 E4.67087
G1 X97.461 Y97.759 E4.67913
G1 X96.643 Y96.940 E4.71458
G1 X96.837 Y96.523 E4.72868
G1 X97.633 Y97.318 E4.76311
G1 X97.704 Y97.165 E4.76829
G1 X97.861 Y96.934 E4.77683
G1 X97.076 Y96.149 E4.81083
G1 X97.366 Y95.828 E4.82409
G1 X98.160 Y96.621 E4.85847
G1 X98.262 Y96.520 E4.86286
G1 X98.441 Y96.395 E4.86954
G1 X98.483 Y96.332 E4.87186
G1 X97.657 Y95.506 E4.90763
G1 X97.741 Y95.413 E4.91148
G1 X97.980 Y95.217 E4.92093
G1 X98.777 Y96.014 E4.95547
G1 X99.086 Y95.815 E4.96672
G1 X99.175 Y95.800 E4.96948
G1 X98.362 Y94.987 E5.00468
G1 X98.593 Y94.825 E5.01331
G1 X98.748 Y94.760 E5.01844
G1 X99.686 Y95.698 E5.05906
G1 X99.909 Y95.700 E5.06591
G1 X100.255 Y95.655 E5.07657
G1 X99.207 Y94.608 E5.12192
G1 X99.540 Y94.497 E5.13266
G1 X99.693 Y94.481 E5.13736
G1 X100.717 Y95.506 E5.18172
G1 X100.949 Y95.467 E5.18892
G1 X101.178 Y95.599 E5.19702
G1 X101.353 Y95.635 E5.20249
G1 X101.459 Y95.635 E5.20571
G1 X100.247 Y94.424 E5.25816
G1 X100.494 Y94.419 E5.26572
G1 X100.610 Y94.600 E5.27229
G1 X100.938 Y94.503 E5.28276
G1 X102.126 Y95.690 E5.33417
G1 X103.100 Y95.440 F7800.000
G1 F1200
G1 X102.716 Y95.056 E5.35077
G1 X102.243 Y94.748 E5.36805
G1 X101.928 Y94.606 E5.37863
G1 X101.519 Y94.471 E5.39184
G1 X103.960 Y96.912 E5.49753
G1 X104.018 Y97.208 E5.50676
G1 X104.037 Y97.412 E5.51304
G1 X104.030 Y97.594 E5.51863
G1 X102.493 Y96.058 E5.58516
G1 X102.582 Y96.412 E5.59635
G1 X102.733 Y96.798 E5.60903
G1 X102.735 Y96.911 E5.61251
G1 X103.969 Y98.146 E5.66594
G1 X103.913 Y98.702 E5.68305
G1 X102.719 Y97.508 E5.73474
G1 X102.689 Y97.684 E5.74023
G1 X102.709 Y97.926 E5.74764
G1 X102.693 Y98.094 E5.75281
G1 X103.797 Y99.198 E5.80060
G1 X103.633 Y99.646 E5.81521
G1 X102.541 Y98.554 E5.86249
G1 X102.442 Y98.720 E5.86843
G1 X102.422 Y98.844 E5.87227
G1 X102.367 Y98.992 E5.87709
G1 X103.420 Y100.045 E5.92270
G1 X103.121 Y100.358 E5.93595
G1 X102.158 Y99.395 E5.97766
G1 X101.927 Y99.566 E5.98645
G1 X102.066 Y99.915 E5.99792
G1 X102.771 Y100.620 E6.02845
G1 X102.354 Y100.816 E6.04254
G1 X101.791 Y100.252 E6.06692
G1 X101.181 Y100.254 E6.08562
G1 X101.891 Y100.964 E6.11636
G1 X101.741 Y100.995 E6.12106
G1 X101.333 Y101.018 E6.13356
G1 X100.446 Y100.131 E6.17198
G1 X100.218 Y100.033 E6.17958
G1 X100.076 Y99.887 E6.18581
G1 X100.105 Y99.956 E6.18811
G1 X99.912 Y100.039 E6.19455
G1 X99.943 Y100.156 E6.19826
G1 X99.876 Y100.174 E6.20039
G1 X100.483 Y100.781 E6.22667
G1 X100.210 Y100.591 E6.23685
G1 X100.143 Y100.514 E6.23997
G1 X100.201 Y100.499 E6.24180
G1 X99.522 Y100.034 F7800.000
G1 F1200
G1 X99.287 Y99.139 E6.24365
G1 X99.265 Y99.172 F7800.000
G1 F1200
G1 X99.597 Y99.945 E6.25200
G1 Z2.500 F7800.000
G1 E4.25200 F2400.00000
G92 E0
G1 X98.446 Y102.933 F7800.000
G1 E2.00000 F2400.00000
G1 F900
G1 X97.851 Y103.185 E2.02022
G1 X97.572 Y102.566 E2.04148
G1 X98.150 Y102.283 E2.06161
G1 X98.415 Y102.865 E2.08162
G1 E0.08162 F2400.00000
G92 E0
G1 X99.796 Y99.211 F7800.000
G1 E2.00000 F2400.00000
G1 F1800
G1 X100.122 Y99.247 E2.01026
G1 X100.248 Y99.311 E2.01468
G1 X100.473 Y99.479 E2.02346
G1 X100.660 Y99.519 E2.02947
G1 X101.341 Y99.454 E2.05090
G1 X101.679 Y99.361 E2.06186
G1 X101.929 Y99.205 E2.07110
G1 X102.204 Y98.890 E2.08419
G1 X102.390 Y98.570 E2.09576
G1 X102.498 Y98.189 E2.10818
G1 X102.529 Y97.777 E2.12112
G1 X102.488 Y97.438 E2.13182
G1 X102.378 Y97.087 E2.14332
G1 X102.063 Y96.437 E2.16593
G1 X101.930 Y96.295 E2.17203
G1 X101.690 Y96.128 E2.18118
G1 X101.391 Y95.972 E2.19174
G1 X101.149 Y95.890 E2.19974
G1 X100.848 Y95.825 E2.20938
G1 X100.482 Y95.795 E2.22089
G1 X100.139 Y95.813 E2.23165
G1 X99.519 Y95.959 E2.25160
G1 X98.908 Y96.207 E2.27225
G1 X98.610 Y96.407 E2.28348
G1 X98.482 Y96.554 E2.28959
G1 X98.015 Y96.987 E2.30954
G1 X97.867 Y97.168 E2.31684
G1 X97.407 Y97.916 E2.34434
G1 X97.278 Y98.358 E2.35877
G1 X97.144 Y99.288 E2.38817
G1 X97.156 Y99.518 E2.39539
G1 X97.116 Y99.760 E2.40310
G1 X97.151 Y100.223 E2.41762
G1 X97.226 Y100.382 E2.42313
G1 X97.258 Y100.531 E2.42792
G1 X97.357 Y100.713 E2.43439
G1 X97.381 Y100.830 E2.43813
G1 X97.500 Y100.978 E2.44409
G1 X97.520 Y101.116 E2.44843
G1 X97.680 Y101.256 E2.45508
G1 X97.910 Y101.648 E2.46932
G1 X98.170 Y101.832 E2.47932
G1 X98.580 Y102.190 E2.49634
G1 X98.799 Y102.351 E2.50487
M106 S255

G1 F3600
G1 X98.988 Y102.490 E2.51138
M106 S249.9

G1 F1800
G1 X99.458 Y102.837 E2.52969
G1 X99.805 Y103.190 E2.54518
G1 X99.999 Y103.446 E2.55523
G1 X100.067 Y103.560 E2.55940
G1 X100.154 Y103.858 E2.56912
G1 X100.165 Y104.011 E2.57392
G1 X100.131 Y104.272 E2.58217
G1 X100.012 Y104.540 E2.59137
G1 X99.828 Y104.797 E2.60127
G1 X99.513 Y105.085 E2.61462
G1 X99.335 Y105.182 E2.62096
G1 X99.116 Y105.226 E2.62796
G1 X99.019 Y105.207 E2.63104
G1 X98.667 Y105.058 E2.64302
G1 X98.403 Y105.061 E2.65128
G1 X98.218 Y105.204 E2.65861
G1 X98.027 Y104.884 E2.67028
G1 X97.408 Y104.194 E2.69930
G1 X96.843 Y103.397 E2.72992
G1 X96.527 Y102.846 E2.74980
G1 X96.190 Y102.046 E2.77698
G1 X95.931 Y101.274 E2.80250
G1 X95.792 Y100.290 E2.83362
G1 X95.717 Y99.930 E2.84512
G1 X95.716 Y99.521 E2.85793
G1 X95.819 Y98.547 E2.88859
G1 X95.918 Y98.072 E2.90379
G1 X96.061 Y97.595 E2.91939
G1 X96.490 Y96.594 E2.95350
G1 X96.738 Y96.172 E2.96882
G1 X96.971 Y95.840 E2.98151
G1 X97.324 Y95.467 E2.99759
G1 X97.622 Y95.244 E3.00925
G1 X97.850 Y95.043 E3.01876
G1 X98.052 Y94.965 E3.02555
G1 X98.274 Y94.814 E3.03396
G1 X98.538 Y94.691 E3.04309
G1 X98.665 Y94.578 E3.04841
G1 X98.840 Y94.483 E3.05465
G1 X99.155 Y94.380 E3.06503
G1 X99.563 Y94.278 E3.07820
G1 X100.473 Y94.162 E3.10691
G1 X101.105 Y94.226 E3.12681
G1 X101.399 Y94.188 E3.13608
G1 X101.600 Y94.189 E3.14239
G1 X101.748 Y94.213 E3.14707
G1 X102.118 Y94.327 E3.15920
G1 X102.484 Y94.484 E3.17166
G1 X102.958 Y94.796 E3.18942
G1 X103.235 Y95.031 E3.20082
G1 X103.497 Y95.304 E3.21268
G1 X103.722 Y95.626 E3.22497
G1 X103.960 Y96.120 E3.24214
G1 X104.067 Y96.501 E3.25455
G1 X104.149 Y97.072 E3.27260
G1 X104.159 Y97.351 E3.28134
G1 X104.069 Y98.343 E3.31253
G1 X104.010 Y98.719 E3.32444
G1 X103.841 Y99.372 E3.34558
G1 X103.719 Y99.718 E3.35708
G1 X103.604 Y99.947 E3.36507
G1 X103.362 Y100.277 E3.37791
G1 X103.207 Y100.454 E3.38527
G1 X102.825 Y100.752 E3.40044
G1 X102.585 Y100.909 E3.40942
G1 X102.188 Y101.102 E3.42325
G1 X101.670 Y101.260 E3.44019
G1 X101.346 Y101.309 E3.45047
G1 X101.048 Y101.322 E3.45982
G1 X100.709 Y101.298 E3.47044
G1 X100.433 Y101.245 E3.47925
G1 X99.969 Y101.045 E3.49507
G1 X99.591 Y100.802 E3.50916
G1 X99.309 Y100.553 E3.52092
G1 X99.080 Y100.281 E3.53208
G1 X98.851 Y99.906 E3.54581
G1 X98.745 Y99.635 E3.55494
G1 X98.652 Y99.159 E3.57013
G1 X98.648 Y98.725 E3.58372
G1 X98.691 Y98.515 E3.59042
M106 S255

G1 F3600
G1 X98.729 Y98.330 E3.59568
G1 X98.819 Y98.100 E3.60253
G1 X98.923 Y97.914 E3.60846
G1 X99.056 Y97.739 E3.61456
G1 X99.304 Y97.528 E3.62359
G1 X99.373 Y97.493 E3.62574
G1 X99.514 Y97.469 E3.62972
G1 X99.672 Y97.488 E3.63414
G1 X99.861 Y97.556 E3.63972
G1 X99.766 Y98.189 E3.65750
G1 X99.769 Y98.442 E3.66453
M106 S249.9

G1 F1800
G1 X99.764 Y98.580 E3.66884
G1 X99.707 Y98.705 E3.67314
G1 X99.707 Y98.886 E3.67882
G1 X99.776 Y99.138 E3.68702
G1 X99.157 Y98.979 F7800.000
G1 F1200
G1 X99.190 Y98.658 E3.69808
G1 X99.244 Y98.454 E3.70534
G1 X99.375 Y97.746 E3.73004
G1 X99.617 Y99.403 F7800.000
G1 F1200
G1 X99.094 Y99.926 E3.75318
G1 X99.258 Y100.190 E3.76287
G1 X99.348 Y100.297 E3.76728
G1 X100.150 Y99.496 E3.80273
G1 X100.455 Y99.711 E3.81441
G1 X100.542 Y99.730 E3.81717
G1 X99.664 Y100.607 E3.85598
G1 X100.047 Y100.850 E3.87016
G1 X101.145 Y99.752 E3.91873
G1 X101.172 Y99.770 E3.91974
G1 X101.319 Y99.735 E3.92446
G1 X101.581 Y99.710 E3.93270
G1 X101.900 Y99.622 E3.94306
G1 X100.502 Y101.020 E4.00490
G1 X100.891 Y101.060 E4.01713
G1 X101.097 Y101.051 E4.02357
G1 X103.772 Y98.375 E4.14192
G1 X103.549 Y99.223 E4.16935
G1 X101.936 Y100.836 E4.24069
G1 X102.618 Y98.904 F7800.000
G1 F1200
G1 X103.852 Y97.670 E4.29527
G1 X103.897 Y97.176 E4.31076
G1 X103.891 Y97.006 E4.31610
G1 X102.778 Y98.119 E4.36533
G1 X102.792 Y97.929 E4.37126
G1 X102.744 Y97.528 E4.38392
G1 X103.818 Y96.454 E4.43142
G1 X103.725 Y96.108 E4.44263
G1 X103.664 Y95.982 E4.44700
G1 X102.592 Y97.054 E4.49443
G1 X102.388 Y96.633 E4.50907
G1 X103.445 Y95.575 E4.55585
G1 X103.331 Y95.412 E4.56209
G1 X103.161 Y95.234 E4.56978
G1 X102.150 Y96.245 E4.61451
G1 X102.047 Y96.135 E4.61923
G1 X101.804 Y95.966 E4.62849
G1 X102.824 Y94.946 E4.67361
G1 X102.447 Y94.698 E4.68774
G1 X101.399 Y95.745 E4.73408
G1 X101.100 Y95.643 E4.74396
G1 X100.916 Y95.603 E4.74986
G1 X101.998 Y94.521 E4.79775
G1 X101.728 Y94.451 E4.80647
G1 X101.423 Y94.471 E4.81605
G1 X100.358 Y95.535 E4.86312
G1 X99.917 Y95.554 E4.87695
G1 X99.652 Y95.616 E4.88545
G1 X100.824 Y94.445 E4.93727
G1 X100.641 Y94.426 E4.94302
G1 X100.155 Y94.488 E4.95833
G1 X98.721 Y95.922 E5.02176
G1 X98.546 Y95.993 E5.02769
G1 X98.166 Y96.248 E5.04200
G1 X98.015 Y96.420 E5.04916
G1 X97.543 Y96.859 E5.06932
G1 X97.359 Y97.084 E5.07841
G1 X97.039 Y97.604 E5.09753
G1 X96.131 Y98.512 E5.13768
G1 X96.298 Y97.902 E5.15745
G1 X96.435 Y97.583 E5.16833
G1 X99.372 Y94.646 E5.29826
G1 X99.171 Y94.712 E5.30488
G1 X99.072 Y94.765 E5.30839
G1 X98.937 Y94.886 E5.31407
G1 X98.647 Y95.022 E5.32408
G1 X98.412 Y95.181 E5.33297
G1 X98.235 Y95.249 E5.33888
G1 X97.770 Y95.622 E5.35753
G1 X97.445 Y95.947 E5.37190
G1 X96.131 Y98.512 F7800.000
G1 F1200
G1 X96.076 Y98.776 E5.38032
G1 X96.027 Y99.242 E5.39499
G1 X97.002 Y98.266 E5.43814
G1 X96.897 Y98.997 E5.46124
G1 X95.978 Y99.916 E5.50187
G1 X95.978 Y100.049 E5.50603
G1 X96.059 Y100.461 E5.51915
G1 X96.858 Y99.661 E5.55452
G1 X96.896 Y100.171 E5.57051
G1 X96.921 Y100.223 E5.57232
G1 X96.136 Y101.008 E5.60705
G1 X96.183 Y101.338 E5.61747
G1 X96.245 Y101.525 E5.62362
G1 X97.101 Y100.669 E5.66149
G1 X97.149 Y100.853 E5.66744
G1 X97.260 Y100.991 E5.67296
G1 X97.278 Y101.117 E5.67696
G1 X96.402 Y101.993 E5.71571
G1 X96.583 Y102.437 E5.73071
G1 X97.564 Y101.457 E5.77408
G1 X97.753 Y101.779 E5.78577
G1 X97.820 Y101.826 E5.78833
G1 X97.370 Y102.276 E5.80821
G1 X97.261 Y102.384 F7800.000
G1 F1200
G1 X96.774 Y102.872 E5.82976
G1 X97.002 Y103.269 E5.84409
G1 X97.456 Y102.816 E5.86414
G1 X97.650 Y103.247 E5.87894
G1 X97.257 Y103.640 E5.89632
G1 X97.516 Y104.006 E5.91035
G1 X98.058 Y103.464 E5.93433
G1 X99.143 Y103.004 E5.97118
G1 X97.804 Y104.344 E6.03045
G1 X98.907 Y103.240 F7800.000
G1 F1200
G1 X98.768 Y103.137 E6.03585
G1 X98.844 Y103.303 E6.04156
G1 X99.232 Y102.915 E6.05874
G1 X99.342 Y102.996 E6.06302
G1 X99.558 Y103.215 E6.07262
G1 X98.099 Y104.673 E6.13713
G1 X98.211 Y104.800 E6.14241
G1 X98.598 Y104.800 E6.15451
G1 X99.831 Y103.567 E6.20903
G1 X99.897 Y103.771 E6.21574
G1 X99.881 Y103.994 E6.22271
G1 X99.804 Y104.166 E6.22862
G1 X99.672 Y104.352 E6.23575
G1 X99.345 Y104.679 E6.25021
M106 S252.45
G1 Z3.000 F7800.000
G1 E4.25021 F2400.00000
G92 E0
G1 X103.280 Y96.861 F7800.000
G1 E2.00000 F2400.00000
G1 F900
G1 X103.082 Y96.915 E2.00609
G1 X102.941 Y96.628 E2.01552
G1 X102.686 Y96.221 E2.02969
G1 X102.490 Y95.978 E2.03894
G1 X102.273 Y95.794 E2.04733
G1 X101.942 Y95.610 E2.05854
G1 X101.562 Y95.438 E2.07084
G1 X101.248 Y95.343 E2.08056
G1 X100.929 Y95.291 E2.09009
G1 X100.697 Y95.290 E2.09695
G1 X100.433 Y95.338 E2.10488
G1 X100.006 Y95.332 E2.11749
G1 X99.440 Y95.446 E2.13455
G1 X99.168 Y95.536 E2.14302
G1 X98.950 Y95.631 E2.15007
G1 X98.886 Y95.678 E2.15238
G1 X98.666 Y95.748 E2.15923
G1 X98.294 Y95.948 E2.17171
G1 X97.962 Y96.223 E2.18443
G1 X97.670 Y96.539 E2.19714
G1 X97.369 Y96.918 E2.21144
G1 X97.172 Y97.234 E2.22246
G1 X96.913 Y97.784 E2.24041
G1 X96.808 Y98.182 E2.25258
G1 X96.742 Y98.770 E2.27007
G1 X96.755 Y99.325 E2.28645
G1 X96.796 Y99.776 E2.29984
G1 X96.931 Y100.341 E2.31700
G1 X97.120 Y100.797 E2.33159
G1 X97.512 Y101.438 E2.35378
G1 X98.131 Y102.176 E2.38224
G1 X98.778 Y102.824 E2.40931
G1 X99.267 Y103.389 E2.43138
G1 X99.348 Y103.535 E2.43630
G1 X99.415 Y103.745 E2.44283
G1 X99.402 Y103.894 E2.44723
G1 X99.315 Y104.084 E2.45344
G1 X99.105 Y104.291 E2.46213
G1 X98.861 Y104.463 E2.47096
G1 X98.692 Y104.409 E2.47620
G1 X98.243 Y104.151 E2.49149
G1 X98.086 Y104.031 E2.49733
G1 X97.695 Y103.663 E2.51321
G1 X97.548 Y103.484 E2.52005
G1 X97.163 Y102.932 E2.53994
G1 X97.060 Y102.752 E2.54607
G1 X96.763 Y102.137 E2.56623
G1 X96.473 Y101.394 E2.58979
G1 X96.365 Y100.965 E2.60287
G1 X96.326 Y100.699 E2.61082
G1 X96.248 Y99.600 E2.64337
G1 X96.384 Y98.536 E2.67506
G1 X96.725 Y97.353 E2.71144
G1 X97.063 Y96.694 E2.73332
G1 X97.185 Y96.504 E2.74001
G1 X97.431 Y96.185 E2.75190
G1 X97.600 Y96.004 E2.75920
G1 X97.820 Y95.810 E2.76789
G1 X98.340 Y95.464 E2.78635
G1 X98.794 Y95.241 E2.80129
G1 X99.296 Y95.050 E2.81714
G1 X99.571 Y94.982 E2.82553
G1 X100.310 Y94.854 E2.84767
G1 X101.056 Y94.790 E2.86981
G1 X101.455 Y94.826 E2.88164
G1 X101.691 Y94.874 E2.88877
G1 X102.043 Y94.997 E2.89977
G1 X102.217 Y95.081 E2.90549
G1 X102.406 Y95.208 E2.91221
G1 X102.651 Y95.426 E2.92191
G1 X102.829 Y95.619 E2.92965
G1 X102.932 Y95.775 E2.93518
G1 X103.198 Y96.352 E2.95396
G1 X103.234 Y96.470 E2.95761
G1 X103.275 Y96.787 E2.96703
G1 E0.96703 F2400.00000
G92 E0
G1 X102.912 Y99.620 F7800.000
G1 E2.00000 F2400.00000
G1 F900
G1 X102.786 Y99.822 E2.00704
G1 X102.651 Y99.992 E2.01345
G1 X102.330 Y100.291 E2.02643
G1 X102.070 Y100.460 E2.03557
G1 X101.706 Y100.621 E2.04735
G1 X101.247 Y100.726 E2.06126
G1 X100.678 Y100.747 E2.07810
G1 X100.375 Y100.694 E2.08717
G1 X100.152 Y100.631 E2.09401
G1 X99.958 Y100.546 E2.10028
G1 X99.759 Y100.433 E2.10703
G1 X99.528 Y100.271 E2.11537
G1 X99.389 Y100.149 E2.12084
G1 X99.190 Y99.893 E2.13044
G1 X99.025 Y99.598 E2.14040
G1 X98.944 Y99.399 E2.14675
G1 X98.843 Y98.813 E2.16434
G1 X98.834 Y98.667 E2.16867
G1 X98.866 Y98.358 E2.17782
G1 X99.016 Y97.866 E2.19303
G1 X99.233 Y97.915 E2.19960
G1 X99.179 Y98.435 E2.21504
G1 X99.617 Y98.851 E2.23289
G1 X99.856 Y99.199 E2.24535
G1 X100.222 Y99.577 E2.26091
G1 X100.547 Y99.773 E2.27212
G1 X100.911 Y99.897 E2.28349
G1 X101.440 Y99.954 E2.29920
G1 X101.805 Y99.904 E2.31008
G1 X102.093 Y99.806 E2.31909
G1 X102.542 Y99.618 E2.33346
G1 X102.774 Y99.479 E2.34147
G1 X102.860 Y99.566 E2.34508
G1 E0.34508 F2400.00000
G92 E0
G1 X99.671 Y97.861 F7800.000
G1 E2.00000 F2400.00000
G1 F1800
G1 X99.629 Y98.269 E2.01282
G1 X99.946 Y98.570 E2.02652
G1 X100.190 Y98.925 E2.04001
G1 X100.492 Y99.237 E2.05361
G1 X100.730 Y99.381 E2.06232
G1 X101.005 Y99.475 E2.07140
G1 X101.433 Y99.521 E2.08490
G1 X101.705 Y99.483 E2.09351
G1 X101.941 Y99.404 E2.10129
G1 X102.347 Y99.233 E2.11509
G1 X102.591 Y99.087 E2.12398
G1 X102.674 Y98.876 E2.13109
G1 X102.713 Y98.602 E2.13976
G1 X102.847 Y98.251 E2.15152
G1 X102.871 Y98.092 E2.15655
G1 X102.869 Y97.899 E2.16259
G1 X102.814 Y97.483 E2.17575
G1 X102.722 Y97.158 E2.18631
G1 X102.564 Y96.837 E2.19751
G1 X102.335 Y96.471 E2.21104
G1 X102.181 Y96.280 E2.21874
G1 X102.028 Y96.150 E2.22503
G1 X101.748 Y95.995 E2.23503
G1 X101.411 Y95.842 E2.24664
G1 X101.150 Y95.763 E2.25516
G1 X100.893 Y95.721 E2.26331
G1 X100.735 Y95.720 E2.26828
G1 X100.469 Y95.769 E2.27673
G1 X100.046 Y95.763 E2.28999
G1 X99.550 Y95.862 E2.30582
G1 X99.322 Y95.938 E2.31334
G1 X99.166 Y96.006 E2.31868
G1 X99.084 Y96.066 E2.32187
G1 X98.834 Y96.146 E2.33008
G1 X98.535 Y96.307 E2.34071
G1 X98.259 Y96.536 E2.35195
G1 X97.997 Y96.819 E2.36402
G1 X97.722 Y97.166 E2.37790
G1 X97.551 Y97.440 E2.38802
G1 X97.319 Y97.932 E2.40505
G1 X97.232 Y98.262 E2.41573
G1 X97.173 Y98.789 E2.43235
G1 X97.185 Y99.300 E2.44835
G1 X97.221 Y99.706 E2.46111
G1 X97.342 Y100.207 E2.47726
G1 X97.505 Y100.602 E2.49061
G1 X97.862 Y101.186 E2.51206
G1 X98.449 Y101.885 E2.54064
G1 X99.094 Y102.531 E2.56922
G1 X99.621 Y103.142 E2.59450
G1 X99.742 Y103.359 E2.60228
G1 X99.847 Y103.712 E2.61380
G1 X99.840 Y103.924 E2.62047
G1 X99.808 Y104.042 E2.62428
G1 X99.682 Y104.315 E2.63369
G1 X99.550 Y104.475 E2.64018
G1 X99.370 Y104.630 E2.64764
G1 X99.090 Y104.828 E2.65839
G1 X98.926 Y104.888 E2.66386
G1 X98.779 Y104.889 E2.66845
G1 X98.517 Y104.805 E2.67705
G1 X98.005 Y104.510 E2.69556
G1 X97.808 Y104.360 E2.70331
G1 X97.380 Y103.957 E2.72173
G1 X97.205 Y103.744 E2.73037
G1 X96.799 Y103.162 E2.75257
G1 X96.679 Y102.953 E2.76013
G1 X96.368 Y102.309 E2.78250
G1 X96.062 Y101.525 E2.80886
G1 X95.943 Y101.049 E2.82424
G1 X95.898 Y100.742 E2.83397
G1 X95.873 Y100.257 E2.84916
G1 X95.819 Y99.812 E2.86319
G1 X95.817 Y99.575 E2.87063
G1 X95.961 Y98.449 E2.90617
G1 X96.319 Y97.209 E2.94658
G1 X96.691 Y96.477 E2.97229
G1 X96.833 Y96.256 E2.98053
G1 X97.103 Y95.906 E2.99436
G1 X97.300 Y95.696 E3.00338
G1 X97.553 Y95.472 E3.01397
G1 X97.918 Y95.215 E3.02794
G1 X98.135 Y95.085 E3.03586
G1 X98.623 Y94.846 E3.05288
G1 X99.167 Y94.639 E3.07111
G1 X99.483 Y94.561 E3.08130
G1 X100.248 Y94.429 E3.10560
G1 X100.665 Y94.379 E3.11876
G1 X101.065 Y94.358 E3.13129
G1 X101.518 Y94.399 E3.14554
G1 X101.806 Y94.458 E3.15475
G1 X102.208 Y94.599 E3.16808
G1 X102.432 Y94.707 E3.17587
G1 X102.671 Y94.867 E3.18487
G1 X102.953 Y95.119 E3.19674
G1 X103.168 Y95.353 E3.20668
G1 X103.309 Y95.565 E3.21464
G1 X103.602 Y96.200 E3.23654
G1 X103.695 Y96.615 E3.24988
G1 X103.726 Y97.076 E3.26435
G1 X103.645 Y98.424 E3.30661
G1 X103.577 Y98.898 E3.32161
G1 X103.378 Y99.599 E3.34444
G1 X103.247 Y99.896 E3.35461
G1 X103.139 Y100.070 E3.36103
G1 X102.974 Y100.277 E3.36929
G1 X102.588 Y100.636 E3.38582
G1 X102.287 Y100.832 E3.39706
G1 X102.097 Y100.930 E3.40376
G1 X101.839 Y101.032 E3.41245
G1 X101.452 Y101.131 E3.42494
G1 X101.287 Y101.155 E3.43018
G1 X100.648 Y101.178 E3.45019
G1 X100.280 Y101.114 E3.46189
G1 X100.007 Y101.037 E3.47078
G1 X99.764 Y100.931 E3.47907
G1 X99.529 Y100.797 E3.48755
G1 X99.261 Y100.610 E3.49778
G1 X99.075 Y100.445 E3.50559
G1 X98.830 Y100.131 E3.51803
G1 X98.636 Y99.785 E3.53045
G1 X98.528 Y99.518 E3.53947
G1 X98.415 Y98.863 E3.56030
G1 X98.403 Y98.669 E3.56638
G1 X98.445 Y98.270 E3.57895
G1 X98.600 Y97.753 E3.59586
G1 X98.667 Y97.622 E3.60048
G1 X98.923 Y97.287 E3.61366
G1 X99.061 Y97.148 E3.61982
G1 X99.230 Y97.015 E3.62653
G1 X99.336 Y96.960 E3.63028
M106 S255

G1 F3600
G1 X99.577 Y96.837 E3.63779
G1 X100.004 Y96.693 E3.65030
G1 X100.960 Y96.603 E3.67700
G1 X101.166 Y96.680 E3.68309
G1 X101.692 Y96.983 E3.69996
G1 X101.972 Y97.614 E3.71912
G1 X101.996 Y97.768 E3.72346
G1 X101.949 Y98.182 E3.73503
G1 X101.906 Y98.248 E3.73722
G1 X101.753 Y98.377 E3.74277
G1 X101.628 Y98.250 E3.74772
G1 X101.361 Y97.854 E3.76100
G1 X101.077 Y97.640 E3.77087
G1 X100.807 Y97.543 E3.77885
G1 X100.567 Y97.518 E3.78556
G1 X100.379 Y97.586 E3.79110
M106 S252.45

G1 F1800
G1 X100.094 Y97.776 E3.80181
G1 X99.744 Y97.847 E3.81300
G1 X100.178 Y97.151 F7800.000
G1 F1200
G1 X100.485 Y97.087 E3.82117
G1 X100.897 Y97.081 E3.83192
G1 X101.256 Y97.238 E3.84212
G1 F1200
G1 X101.334 Y97.284 E3.84399
G1 X101.372 Y97.249 E3.84504
G1 F1200
G1 X101.511 Y97.127 E3.84764
G1 X100.803 Y96.834 F7800.000
G1 F1200
G1 X99.890 Y97.283 E3.88202
G1 X98.952 Y97.603 E3.91547
G1 X99.043 Y98.666 F7800.000
G1 F1200
G1 X99.509 Y99.510 E3.94319
G1 F1200
G1 X99.753 Y99.807 E3.95570
G1 X99.892 Y99.934 E3.96185
G1 F1200
G1 X100.312 Y100.184 E3.97583
G1 X100.708 Y100.299 E3.98762
G1 F1200
G1 X101.026 Y100.323 E3.99491
G1 F1200
G1 X101.427 Y100.318 E4.00199
G1 F1200
G1 X101.783 Y100.238 E4.00657
G1 F1200
G1 X102.040 Y100.132 E4.00839
G1 F1200
G1 X102.266 Y100.010 E4.00861
G1 X102.969 Y99.370 F7800.000
G1 F1200
G1 X103.104 Y98.963 E4.01836
G1 X103.237 Y98.380 E4.03196
G1 F1200
G1 X103.269 Y98.105 E4.03701
G1 F1200
G1 X103.268 Y97.634 E4.04782
G1 F1200
G1 X103.225 Y97.099 E4.06249
G1 X102.633 Y95.773 F7800.000
G1 F1200
G1 X102.324 Y95.505 E4.06251
G1 F1200
G1 X102.069 Y95.340 E4.06369
G1 X101.659 Y95.167 E4.06541
G1 X101.312 Y95.082 E4.06680
G1 X101.051 Y95.049 E4.06782
G1 E2.06782 F2400.00000
G92 E0
G1 X96.519 Y99.345 F7800.000
G1 E2.00000 F2400.00000
G1 F1200
G1 X96.528 Y99.825 E2.00063
G1 F1200
G1 X96.631 Y100.447 E2.00556
G1 F1200
G1 X96.680 Y100.664 E2.00848
G1 F1200
G1 X96.776 Y100.988 E2.01472
G1 F1200
G1 X96.891 Y101.261 E2.02205
G1 F1200
G1 X97.153 Y101.789 E2.03908
G1 X97.669 Y102.244 F7800.000
G1 F1200
G1 X97.343 Y101.918 E2.05541
G1 X97.100 Y102.038 E2.06503
G1 X97.360 Y102.555 E2.08552
G1 X97.566 Y102.849 E2.09826
G1 X98.740 Y104.024 E2.15715
G1 X98.519 Y103.875 E2.16661
G1 X98.163 Y103.540 E2.18393
G1 X97.891 Y103.174 E2.20010
M106 S255
G1 Z3.500 F7800.000
G1 E0.20010 F2400.00000
G92 E0
G1 X96.373 Y99.111 F7800.000
G1 E2.00000 F2400.00000
G1 F900
G1 X96.591 Y99.104 E2.00682
G1 X96.676 Y99.476 E2.01876
G1 X96.783 Y99.774 E2.02867
G1 X97.123 Y100.518 E2.05428
G1 X97.635 Y101.256 E2.08242
G1 X98.721 Y102.495 E2.13401
G1 X99.032 Y102.884 E2.14961
G1 X99.162 Y103.089 E2.15720
G1 X99.252 Y103.385 E2.16691
G1 X99.270 Y103.526 E2.17134
G1 X99.269 Y103.692 E2.17656
G1 X99.246 Y103.802 E2.18008
G1 X99.193 Y103.914 E2.18395
G1 X99.068 Y104.075 E2.19033
G1 X98.969 Y104.164 E2.19449
G1 X98.827 Y104.245 E2.19962
G1 X98.546 Y104.296 E2.20856
G1 X98.312 Y104.271 E2.21595
G1 X98.042 Y104.166 E2.22501
G1 X97.709 Y103.941 E2.23761
G1 X97.364 Y103.604 E2.25271
G1 X96.862 Y102.874 E2.28043
G1 X96.734 Y102.618 E2.28939
G1 X96.493 Y102.000 E2.31016
G1 X96.368 Y101.589 E2.32362
G1 X96.271 Y101.153 E2.33761
G1 X96.225 Y100.845 E2.34736
G1 X96.255 Y99.802 E2.38004
G1 X96.360 Y99.185 E2.39965
G1 X96.448 Y98.833 F7800.000
G1 F1800
G1 X96.687 Y97.671 E2.42552
G1 E0.42552 F2400.00000
G92 E0
G1 X96.487 Y100.664 F7800.000
G1 E2.00000 F2400.00000
G1 F672.344
G1 X96.812 Y100.339 E2.01377
G1 X96.915 Y100.566 E2.02123
G1 X97.025 Y100.725 E2.02702
G1 X96.524 Y101.226 E2.04825
G1 X96.637 Y101.712 E2.06321
G1 X97.270 Y101.078 E2.09006
G1 X97.523 Y101.425 E2.10290
G1 X96.785 Y102.163 E2.13418
G1 X96.953 Y102.594 E2.14804
G1 X97.803 Y101.744 E2.18405
G1 X98.083 Y102.063 E2.19676
G1 X97.171 Y102.975 E2.23540
G1 X97.415 Y103.330 E2.24830
G1 X98.363 Y102.382 E2.28844
G1 X98.638 Y102.706 E2.30117
G1 X97.691 Y103.652 E2.34129
G1 X97.815 Y103.773 E2.34646
G1 X98.027 Y103.916 E2.35412
G1 X98.898 Y103.045 E2.39101
G1 X98.935 Y103.105 E2.39313
G1 X98.999 Y103.313 E2.39963
G1 X99.003 Y103.505 E2.40539
G1 X98.920 Y103.622 E2.40969
G1 X98.593 Y103.948 E2.42353
G1 E0.42353 F2400.00000
G92 E0
G1 X99.888 Y98.877 F7800.000
G1 E2.00000 F2400.00000
G1 F1800
G1 X99.955 Y99.063 E2.00621
G1 X100.140 Y99.314 E2.01597
G1 X100.511 Y99.656 E2.03177
G1 X100.643 Y99.733 E2.03656
G1 X101.531 Y100.109 E2.06676
G1 X101.763 Y100.141 E2.07410
G1 X101.936 Y100.125 E2.07954
G1 X102.039 Y100.088 E2.08296
G1 X102.149 Y100.285 E2.09002
G1 X101.938 Y100.453 E2.09847
G1 X101.675 Y100.606 E2.10798
G1 X101.037 Y100.821 E2.12907
G1 X100.723 Y100.869 E2.13902
G1 X100.284 Y100.855 E2.15280
G1 X100.027 Y100.806 E2.16096
G1 X99.759 Y100.723 E2.16975
G1 X99.435 Y100.575 E2.18091
G1 X99.240 Y100.448 E2.18819
G1 X99.073 Y100.306 E2.19507
G1 X98.877 Y100.094 E2.20410
G1 X98.764 Y99.940 E2.21011
G1 X98.519 Y99.527 E2.22514
G1 X98.441 Y99.303 E2.23254
G1 X98.354 Y98.928 E2.24462
G1 X98.315 Y98.504 E2.25795
G1 X98.328 Y98.262 E2.26552
G1 X98.418 Y97.777 E2.28097
G1 X98.539 Y97.463 E2.29153
G1 X98.654 Y97.240 E2.29936
G1 X98.772 Y97.060 E2.30612
G1 X99.104 Y96.658 E2.32243
G1 X99.387 Y96.451 E2.33342
G1 X99.772 Y96.230 E2.34732
G1 X100.170 Y96.136 E2.36013
G1 X100.616 Y96.097 E2.37413
G1 X101.010 Y96.137 E2.38655
G1 X101.335 Y96.209 E2.39695
G1 X101.675 Y96.337 E2.40835
G1 X101.944 Y96.493 E2.41809
G1 X102.237 Y96.753 E2.43034
G1 X102.503 Y97.096 E2.44394
G1 X102.695 Y97.478 E2.45733
G1 X102.746 Y97.736 E2.46555
G1 X102.735 Y97.872 E2.46984
G1 X102.556 Y98.321 E2.48497
G1 X102.244 Y98.825 E2.50353
G1 X102.153 Y98.881 E2.50686
G1 X101.918 Y98.950 E2.51455
G1 X101.693 Y99.059 E2.52239
G1 X101.570 Y99.027 E2.52636
G1 X101.504 Y98.986 E2.52881
M106 S255

G1 F3600
G1 X101.187 Y98.791 E2.53913
G1 X100.951 Y98.728 E2.54593
G1 X101.016 Y98.437 E2.55420
G1 X101.082 Y98.384 E2.55655
M106 S255

G1 F1800
G1 X101.215 Y98.134 E2.56542
G1 X101.197 Y97.924 E2.57202
G1 X101.049 Y97.458 E2.58732
G1 X100.834 Y97.246 E2.59678
G1 X100.527 Y97.267 E2.60643
G1 X100.403 Y97.430 E2.61285
G1 X100.277 Y97.697 E2.62209
G1 X100.209 Y97.779 E2.62542
G1 X100.080 Y98.008 E2.63366
G1 X99.994 Y98.387 E2.64582
G1 X99.896 Y98.680 E2.65549
G1 X99.891 Y98.802 E2.65931
G1 X101.514 Y98.757 F7800.000
G1 F672.344
G1 X102.096 Y98.176 E2.68610
G1 X102.281 Y97.867 E2.69781
G1 X102.363 Y97.904 E2.70073
G1 X102.480 Y97.612 E2.71097
G1 X102.450 Y97.441 E2.71661
G1 X102.362 Y97.259 E2.72320
G1 X101.466 Y98.155 E2.76445
G1 X101.453 Y98.003 E2.76943
G1 X101.336 Y97.634 E2.78202
G1 X102.088 Y96.881 E2.81667
G1 X102.034 Y96.834 E2.81902
G1 X101.909 Y96.812 E2.82318
G1 X101.908 Y96.787 E2.82399
G1 X101.852 Y96.787 E2.82581
G1 X101.852 Y96.673 E2.82951
G1 X101.721 Y96.597 E2.83444
G1 X101.092 Y97.227 E2.86344
G1 X100.834 Y96.972 E2.87526
G1 X100.685 Y96.982 E2.88009
G1 X101.243 Y96.424 E2.90578
G1 X101.064 Y96.390 E2.91173
G1 X100.846 Y96.431 E2.91897
G1 X100.846 Y96.368 E2.92103
G1 X100.644 Y96.372 E2.92759
G1 X99.235 Y97.131 F7800.000
G1 F672.344
G1 X99.560 Y96.806 E2.94255
G1 X99.780 Y96.644 E2.95144
G1 X100.042 Y96.495 E2.96125
G1 X100.400 Y96.394 E2.97339
G1 X100.644 Y96.372 E2.98137
G1 X98.598 Y98.418 E3.07559
G1 X98.588 Y98.475 E3.07747
G1 X98.578 Y98.658 E3.08345
G1 X98.618 Y99.050 E3.09627
G1 X99.804 Y97.864 E3.15089
G1 X99.748 Y98.110 E3.15910
G1 X99.637 Y98.440 E3.17044
G1 X99.627 Y98.692 E3.17865
G1 X98.764 Y99.555 E3.21840
G1 X99.020 Y99.950 E3.23373
G1 X99.794 Y99.176 E3.26938
G1 X99.985 Y99.436 E3.27989
G1 X100.089 Y99.532 E3.28450
G1 X99.474 Y100.146 E3.31281
G1 X99.774 Y100.201 E3.32272
G1 X99.754 Y100.491 E3.33217
G1 X99.775 Y100.497 E3.33287
G1 X100.430 Y99.842 E3.36305
G1 X100.651 Y99.966 E3.37130
G1 X100.648 Y100.275 E3.38136
G1 X100.323 Y100.600 E3.39633
G1 X100.910 Y100.381 F7800.000
G1 F672.344
G1 X101.629 Y100.376 E3.39838
G1 E1.39838 F2400.00000
G92 E0
G1 X102.650 Y95.905 F7800.000
G1 E2.00000 F2400.00000
G1 F1800
G1 X101.953 Y95.408 E2.03758
G1 X101.652 Y95.260 E2.05233
G1 X101.380 Y95.197 E2.06459
G1 F1800
G1 X101.225 Y95.160 E2.07078
G1 F1800
G1 X100.599 Y95.103 E2.09273
G1 Z4.000 F7800.000
G1 E0.09273 F2400.00000
G92 E0
G1 X97.198 Y101.848 F7800.000
G1 E2.00000 F2400.00000
G1 F600
G1 X97.692 Y102.250 E2.01996
G1 X98.023 Y102.602 E2.03509
G1 X98.189 Y102.839 E2.04414
G1 X98.258 Y103.028 E2.05047
G1 X98.271 Y103.303 E2.05907
G1 X98.068 Y103.364 E2.06572
G1 X97.995 Y103.336 E2.06816
G1 X97.661 Y103.069 E2.08156
G1 X97.457 Y102.765 E2.09302
G1 X97.351 Y102.563 E2.10015
G1 X97.276 Y102.365 E2.10678
G1 X97.209 Y101.922 E2.12083
G1 X97.589 Y102.494 F7800.000
G1 F600
G1 X97.875 Y102.882 E2.12173
G1 X98.028 Y103.053 E2.12216
G1 E0.12216 F2400.00000
G92 E0
G1 X99.865 Y97.305 F7800.000
G1 E2.00000 F2400.00000
G1 F617.815
G1 X99.685 Y97.337 E2.00573
G1 X99.444 Y97.499 E2.01480
G1 X99.297 Y97.851 E2.02674
G1 X99.227 Y98.379 E2.04344
G1 X99.141 Y98.745 E2.05521
G1 X99.124 Y98.970 E2.06227
G1 X99.147 Y99.195 E2.06935
G1 X99.223 Y99.476 E2.07848
G1 X99.362 Y99.746 E2.08797
G1 X99.216 Y99.883 E2.09422
G1 X99.093 Y99.810 E2.09873
G1 X98.820 Y99.536 E2.11085
G1 X98.718 Y99.382 E2.11662
G1 X98.570 Y99.085 E2.12702
G1 X98.471 Y98.691 E2.13972
G1 X98.439 Y98.221 E2.15447
G1 X98.448 Y98.044 E2.16004
G1 X98.484 Y97.849 E2.16624
G1 X98.593 Y97.503 E2.17759
G1 X98.728 Y97.190 E2.18826
G1 X98.958 Y96.829 E2.20168
G1 X99.252 Y96.503 E2.21543
G1 X99.597 Y96.241 E2.22899
G1 X99.904 Y96.066 E2.24005
G1 X100.222 Y95.956 E2.25059
G1 X100.551 Y95.883 E2.26114
G1 X100.914 Y95.865 E2.27252
G1 X101.257 Y95.887 E2.28328
G1 X101.446 Y95.926 E2.28933
G1 X101.802 Y96.057 E2.30121
G1 X102.040 Y96.180 E2.30960
G1 X102.221 Y96.309 E2.31657
G1 X102.433 Y96.502 E2.32554
G1 X102.743 Y96.885 E2.34098
G1 X102.877 Y97.130 E2.34971
G1 X102.966 Y97.345 E2.35700
G1 X103.049 Y97.621 E2.36604
G1 X103.087 Y98.012 E2.37834
G1 X103.064 Y98.366 E2.38943
G1 X103.032 Y98.544 E2.39510
M106 S255

G1 F3600
G1 X102.965 Y98.771 E2.40169
G1 X102.715 Y99.303 E2.41800
G1 X102.652 Y99.400 E2.42123
M106 S255

G1 F617.815
G1 X102.555 Y99.532 E2.42636
G1 X102.482 Y99.589 E2.42924
G1 X102.264 Y99.725 E2.43730
G1 X102.170 Y99.748 E2.44032
G1 X101.654 Y99.671 E2.45667
G1 X100.900 Y99.473 E2.48107
G1 X100.628 Y99.336 E2.49060
G1 X100.434 Y99.177 E2.49845
G1 X100.283 Y98.964 E2.50662
G1 X100.244 Y98.842 E2.51064
G1 X100.636 Y98.582 E2.52540
G1 X100.737 Y98.448 E2.53064
G1 X100.821 Y98.184 E2.53933
G1 X101.156 Y98.310 E2.55055
G1 X101.693 Y97.977 E2.57034
G1 X101.250 Y97.647 E2.58763
G1 X100.934 Y97.576 E2.59777
G1 X100.919 Y97.554 E2.59861
G1 X100.699 Y97.485 E2.60582
G1 X100.490 Y97.485 E2.61237
G1 X100.069 Y97.323 E2.62649
G1 X99.939 Y97.312 E2.63056
G1 X99.339 Y97.044 F7800.000
G1 F600
G1 X99.117 Y97.292 E2.63626
G1 X98.928 Y97.727 E2.64440
G1 X98.854 Y98.091 E2.65076
G1 X98.812 Y98.637 E2.66018
G1 F600
G1 X98.825 Y98.836 E2.66230
G1 F600
G1 X98.839 Y98.985 E2.66314
G1 X98.873 Y99.104 E2.66383
G1 E0.66383 F2400.00000
G92 E0
G1 X100.999 Y99.121 F7800.000
G1 E2.00000 F2400.00000
G1 F600
G1 X100.674 Y98.796 E2.01586
G1 X100.770 Y98.733 E2.01982
G1 X100.896 Y98.564 E2.02710
G1 X101.039 Y98.618 E2.03240
G1 X101.130 Y98.562 E2.03609
G1 X102.001 Y99.432 E2.07860
G1 X102.283 Y99.474 E2.08845
G1 X102.354 Y99.427 E2.09138
G1 X102.247 Y99.147 E2.10174
G1 X102.357 Y99.098 E2.10587
G1 X101.556 Y98.297 E2.14495
G1 X101.983 Y98.033 E2.16226
G1 X102.731 Y98.782 E2.19879
G1 X102.824 Y98.184 F7800.000
G1 F600
G1 X100.768 Y96.128 E2.29920
G1 X100.446 Y96.142 E2.31033
G1 X100.158 Y96.208 E2.32053
G1 X101.286 Y97.337 E2.37562
G1 X101.078 Y97.271 E2.38315
G1 X101.078 Y97.223 E2.38480
G1 X100.731 Y97.223 E2.39676
G1 X100.327 Y97.068 E2.41170
G1 X99.684 Y96.425 E2.44312
G1 X101.962 Y96.632 F7800.000
G1 F600
G1 X102.287 Y96.957 E2.45898
G1 Z4.500 F7800.000
G1 X101.982 Y97.968 F7800.000
G1 F600
G1 X101.801 Y97.419 E2.47606
G1 X101.579 Y97.157 E2.48622
G1 X101.410 Y97.065 E2.49188
G1 X101.173 Y96.662 E2.50571
G1 X101.097 Y96.575 E2.50912
G1 X101.188 Y96.419 E2.51446
G1 X101.590 Y96.516 E2.52667
G1 X101.933 Y96.695 E2.53812
G1 X102.140 Y96.866 E2.54603
G1 X102.319 Y97.080 E2.55428
G1 X102.489 Y97.355 E2.56383
G1 X102.583 Y97.610 E2.57188
G1 X102.665 Y98.094 E2.58637
G1 X102.670 Y98.300 E2.59245
G1 X102.597 Y98.700 E2.60446
G1 X102.484 Y99.020 E2.61451
G1 X102.417 Y99.142 E2.61862
G1 X102.181 Y99.406 E2.62906
G1 X102.014 Y99.551 E2.63561
G1 X101.732 Y99.690 E2.64489
G1 X101.458 Y99.758 E2.65323
G1 X101.259 Y99.772 E2.65915
G1 X100.999 Y99.757 E2.66682
G1 X100.656 Y99.641 E2.67754
G1 X100.325 Y99.482 E2.68837
G1 X100.197 Y99.191 E2.69776
G1 X99.987 Y98.885 E2.70874
G1 X100.044 Y98.668 E2.71538
G1 X100.277 Y98.536 E2.72328
G1 X100.606 Y98.561 E2.73302
G1 X100.966 Y98.648 E2.74398
G1 X101.532 Y98.611 E2.76074
G1 X101.939 Y98.029 E2.78170
G1 X101.506 Y97.898 F7800.000
G1 F1800
G1 X101.419 Y97.634 E2.79042
G1 X101.303 Y97.497 E2.79604
G1 X101.114 Y97.394 E2.80278
G1 X100.820 Y96.912 E2.82046
G1 X100.703 Y96.779 E2.82600
G1 X100.454 Y96.611 E2.83541
G1 X100.275 Y96.584 E2.84108
G1 X100.097 Y96.588 E2.84665
G1 X99.844 Y96.672 E2.85501
G1 X99.514 Y96.848 E2.86670
G1 X99.378 Y96.663 E2.87389
G1 X99.591 Y96.451 E2.88330
G1 X99.940 Y96.218 E2.89644
G1 X100.265 Y96.077 E2.90755
G1 X100.615 Y95.991 E2.91881
G1 X100.901 Y95.967 E2.92782
G1 X101.282 Y95.999 E2.93978
G1 X101.755 Y96.117 E2.95504
G1 X102.172 Y96.335 E2.96979
G1 X102.445 Y96.559 E2.98084
G1 X102.669 Y96.828 E2.99179
G1 X102.878 Y97.165 E3.00423
G1 X103.000 Y97.499 E3.01537
G1 X103.094 Y98.053 E3.03294
G1 X103.101 Y98.333 E3.04173
G1 X103.015 Y98.811 E3.05692
G1 X102.878 Y99.197 E3.06976
G1 X102.770 Y99.392 E3.07674
G1 X102.484 Y99.713 E3.09019
G1 X102.254 Y99.913 E3.09973
G1 X101.881 Y100.097 E3.11278
G1 X101.533 Y100.182 E3.12397
M106 S255

G1 F3600
G1 X101.262 Y100.203 E3.13155
G1 X100.916 Y100.183 E3.14115
G1 X100.493 Y100.040 E3.15356
G1 X100.095 Y99.849 E3.16582
G1 X99.968 Y99.738 E3.17051
G1 X99.820 Y99.402 E3.18072
G1 X99.694 Y99.219 E3.18689
M106 S255

G1 F1800
G1 X99.610 Y99.097 E3.19151
G1 X99.570 Y98.995 E3.19496
G1 X99.555 Y98.855 E3.19937
G1 X99.592 Y98.639 E3.20623
G1 X99.692 Y98.392 E3.21456
G1 X99.762 Y98.334 E3.21742
M106 S255

G1 F3600
G1 X100.143 Y98.118 E3.22959
G1 X100.223 Y98.098 E3.23188
G1 X100.291 Y98.105 E3.23378
M106 S255

G1 F1800
G1 X100.555 Y98.133 E3.24210
G1 X100.731 Y98.101 E3.24769
G1 X100.801 Y98.165 E3.25065
G1 X101.004 Y98.214 E3.25718
G1 X101.298 Y98.195 E3.26643
G1 X101.463 Y97.959 E3.27543
G1 X102.189 Y98.037 F7800.000
G1 F600
G1 X102.042 Y99.248 E3.30419
G1 X101.225 Y99.506 F7800.000
G1 F600
G1 X101.550 Y99.181 E3.31793
G1 X101.588 Y98.874 E3.32719
G1 X101.238 Y98.897 E3.33766
G1 X100.701 Y99.433 E3.36033
G1 X100.483 Y99.335 E3.36748
G1 X100.395 Y99.141 E3.37383
G1 X100.720 Y98.816 E3.38756
G1 X102.307 Y98.129 F7800.000
G1 F600
G1 X102.319 Y97.967 E3.38976
G1 X102.252 Y97.698 E3.39352
G1 X102.133 Y97.393 E3.39796
G1 F600
G1 X102.069 Y97.260 E3.39923
G1 X101.774 Y96.940 E3.40295
G1 F600
G1 X101.607 Y96.847 E3.40368
G1 X101.427 Y96.687 E3.40461
G1 X100.980 Y96.348 F7800.000
G1 F600
G1 X100.449 Y96.324 E3.40815
G1 F600
G1 X100.294 Y96.336 E3.40848
G1 Z5.000 F7800.000
G1 E1.40848 F2400.00000
G92 E0
G1 X100.586 Y98.730 F7800.000
G1 E2.00000 F2400.00000
G1 F600
G1 X100.913 Y98.855 E2.01032
G1 X101.372 Y98.915 E2.02402
G1 X101.709 Y98.888 E2.03399
G1 X102.050 Y98.750 E2.04486
G1 X102.101 Y98.692 E2.04715
G1 X102.276 Y98.783 E2.05298
G1 X102.228 Y98.975 E2.05884
G1 X102.145 Y99.129 E2.06398
G1 X101.969 Y99.356 E2.07249
G1 X101.865 Y99.448 E2.07658
G1 X101.660 Y99.579 E2.08377
G1 X101.283 Y99.725 E2.09570
G1 X101.013 Y99.734 E2.10369
G1 X100.725 Y99.698 E2.11227
G1 X100.491 Y99.611 E2.11965
G1 X100.195 Y99.452 E2.12957
G1 X100.083 Y99.368 E2.13371
G1 X99.831 Y99.100 E2.14459
G1 X99.764 Y98.987 E2.14846
G1 X99.682 Y98.789 E2.15479
G1 X99.618 Y98.537 E2.16248
G1 X99.696 Y98.094 E2.17576
G1 X99.779 Y97.965 E2.18029
G1 X100.014 Y97.803 E2.18871
G1 X100.137 Y97.939 E2.19415
G1 X100.139 Y98.123 E2.19958
G1 X100.290 Y98.480 E2.21102
G1 X100.529 Y98.682 E2.22028
G1 X101.609 Y98.465 F7800.000
G1 F1800
G1 X101.793 Y98.390 E2.22652
G1 X101.988 Y98.167 E2.23577
G1 X102.082 Y97.913 E2.24428
G1 X102.111 Y97.636 E2.25300
G1 X102.076 Y97.349 E2.26204
G1 X101.996 Y97.148 E2.26883
G1 X101.870 Y96.944 E2.27633
G1 X101.697 Y96.755 E2.28434
G1 X101.843 Y96.577 E2.29156
G1 X102.143 Y96.774 E2.30278
G1 X102.319 Y96.980 E2.31128
G1 X102.491 Y97.231 E2.32079
G1 X102.618 Y97.528 E2.33091
G1 X102.712 Y97.975 E2.34523
G1 X102.744 Y98.385 E2.35811
G1 X102.705 Y98.839 E2.37238
G1 X102.632 Y99.132 E2.38185
G1 X102.506 Y99.364 E2.39010
G1 X102.284 Y99.652 E2.40149
G1 X102.128 Y99.789 E2.40797
G1 X101.864 Y99.959 E2.41783
G1 X101.645 Y100.060 E2.42538
G1 X101.358 Y100.153 E2.43482
G1 X100.993 Y100.165 E2.44626
G1 X100.622 Y100.119 E2.45796
G1 X100.313 Y100.004 E2.46828
G1 X99.963 Y99.816 E2.48073
G1 X99.795 Y99.690 E2.48731
G1 X99.496 Y99.371 E2.50101
G1 X99.377 Y99.175 E2.50820
G1 X99.273 Y98.925 E2.51667
G1 X99.179 Y98.553 E2.52869
G1 X99.262 Y98.082 E2.54367
M106 S255

G1 F3600
G1 X99.285 Y97.952 E2.54733
G1 X99.370 Y97.793 E2.55233
G1 X99.478 Y97.651 E2.55731
G1 X99.687 Y97.506 E2.56436
G1 X99.901 Y97.316 E2.57231
G1 X100.103 Y97.263 E2.57811
G1 X100.190 Y97.304 E2.58076
G1 X100.250 Y97.362 E2.58310
G1 X100.404 Y97.588 E2.59069
M106 S255

G1 F1800
G1 X100.566 Y97.771 E2.59834
G1 X100.568 Y98.034 E2.60656
G1 X100.646 Y98.217 E2.61280
G1 X100.808 Y98.354 E2.61945
G1 X101.019 Y98.435 E2.62652
G1 X101.384 Y98.482 E2.63804
G1 X101.534 Y98.471 E2.64276
G1 X102.348 Y98.578 F7800.000
G1 F600
G1 X102.391 Y97.998 E2.64744
G1 X102.386 Y97.861 E2.64855
G1 F600
G1 X102.374 Y97.638 E2.64941
G1 X101.659 Y99.334 F7800.000
G1 F600
G1 X100.828 Y99.277 E2.66913
G1 X100.407 Y99.100 E2.67994
G1 X100.137 Y98.859 E2.68849
G1 F600
G1 X99.838 Y98.495 E2.69686
G1 X99.874 Y98.289 F7800.000
G1 F600
G1 X100.007 Y98.681 E2.70186
G1 X100.422 Y99.337 E2.71122
G1 Z5.500 F7800.000
G1 X101.093 Y97.688 F7800.000
G1 F600
G1 X100.979 Y97.970 E2.72020
G1 X100.737 Y98.094 E2.72824
G1 X100.458 Y98.376 E2.73996
G1 X100.336 Y98.885 E2.75542
G1 X100.037 Y98.743 E2.76521
G1 X99.926 Y98.610 E2.77033
G1 X99.866 Y98.500 E2.77401
G1 X99.803 Y98.241 E2.78190
G1 X99.854 Y97.906 E2.79190
G1 X100.013 Y97.613 E2.80176
G1 X100.256 Y97.428 E2.81077
G1 X100.379 Y97.380 E2.81469
G1 X100.500 Y97.370 E2.81825
G1 X100.832 Y97.418 E2.82819
G1 X101.035 Y97.513 E2.83480
G1 X101.083 Y97.575 E2.83711
M106 S255

G1 F3600
G1 X101.112 Y97.620 E2.83861
M106 S255

G1 X100.991 Y99.296 F7800.000
G1 F1800
G1 X100.648 Y99.357 E2.84952
G1 X100.427 Y99.338 E2.85648
G1 X100.155 Y99.275 E2.86522
G1 X99.900 Y99.168 E2.87388
G1 X99.747 Y99.066 E2.87963
G1 X99.568 Y98.853 E2.88835
G1 X99.465 Y98.664 E2.89510
G1 X99.390 Y98.397 E2.90379
G1 X99.371 Y98.257 E2.90820
G1 X99.383 Y98.054 E2.91458
G1 X99.443 Y97.771 E2.92363
G1 X99.679 Y97.333 E2.93920
G1 X99.914 Y97.133 E2.94889
G1 X100.064 Y97.041 E2.95440
G1 X100.282 Y96.957 E2.96171
G1 X100.571 Y96.944 E2.97076
M106 S255

G1 F3600
G1 X100.960 Y97.005 E2.98171
G1 X101.194 Y97.107 E2.98881
G1 X101.302 Y97.172 E2.99229
G1 X101.392 Y97.262 E2.99584
G1 X101.482 Y97.400 E3.00041
G1 X101.538 Y97.529 E3.00432
G1 X101.550 Y97.607 E3.00650
G1 X101.531 Y97.761 E3.01083
G1 X101.448 Y97.948 E3.01650
M106 S255

G1 F1800
G1 X101.345 Y98.266 E3.02696
G1 X100.994 Y98.445 E3.03932
G1 X100.848 Y98.593 E3.04581
G1 X100.777 Y98.892 E3.05545
G1 X100.956 Y99.230 E3.06743
G1 X100.129 Y98.527 F7800.000
G1 F600
G1 X100.144 Y98.228 E3.07152
G1 X100.421 Y97.588 E3.08107
G1 X100.415 Y97.822 F7800.000
G1 F600
G1 X100.254 Y98.006 E3.08664
G1 X100.034 Y98.325 E3.09549
G1 X100.028 Y98.089 F7800.000
G1 F600
G1 X100.856 Y97.656 E3.10489
G1 X100.867 Y97.682 F7800.000
G1 F600
G1 X100.499 Y97.770 E3.11216
G1 X100.415 Y97.822 E3.11406
G1 Z6.000 F7800.000
G1 X101.469 Y97.991 F7800.000
G1 F600
G1 X101.395 Y98.011 E3.11647
G1 X101.213 Y98.007 E3.12218
G1 X100.562 Y97.876 E3.14299
G1 X100.424 Y97.821 E3.14763
G1 X100.341 Y97.749 E3.15106
G1 X100.298 Y97.677 E3.15371
G1 X100.255 Y97.533 E3.15843
G1 X100.394 Y97.283 E3.16739
G1 X100.460 Y97.228 E3.17007
G1 X100.589 Y97.172 E3.17449
G1 X100.847 Y97.143 E3.18260
G1 X101.155 Y97.214 E3.19251
G1 X101.266 Y97.271 E3.19640
G1 X101.386 Y97.367 E3.20122
G1 X101.488 Y97.506 E3.20661
G1 X101.572 Y97.798 E3.21614
G1 X101.519 Y97.935 E3.22071
G1 X101.319 Y97.681 F7800.000
G1 F600
G1 X101.023 Y97.577 E3.22580
G1 X100.777 Y97.527 E3.22986
G1 X100.668 Y97.530 E3.23165
G1 X100.505 Y97.605 E3.23454
G1 E1.23454 F2400.00000
G92 E0
M107
; Filament-specific end gcode 
;END gcode for filament

M104 S0 ; turn off temperature
G28 X0  ; home X axis
M84     ; disable motors

M140 S0 ; set bed temperature
; filament used = 24.1mm (0.2cm3)
; total filament cost = 0.0

; avoid_crossing_perimeters = 0
; bed_shape = 0x0,200x0,200x200,0x200
; bed_temperature = 0
; before_layer_gcode = 
; between_objects_gcode = 
; bridge_acceleration = 0
; bridge_fan_speed = 100
; brim_connections_width = 0
; brim_width = 0
; complete_objects = 0
; cooling = 1
; default_acceleration = 0
; disable_fan_first_layers = 3
; duplicate_distance = 6
; end_filament_gcode = "; Filament-specific end gcode \n;END gcode for filament\n"
; end_gcode = M104 S0 ; turn off temperature\nG28 X0  ; home X axis\nM84     ; disable motors\n
; extruder_clearance_height = 20
; extruder_clearance_radius = 20
; extruder_offset = 0x0
; extrusion_axis = E
; extrusion_multiplier = 1
; fan_always_on = 0
; fan_below_layer_time = 60
; filament_colour = #FFFFFF
; filament_cost = 0
; filament_density = 0
; filament_diameter = 3
; filament_max_volumetric_speed = 0
; filament_notes = ""
; first_layer_acceleration = 0
; first_layer_bed_temperature = 0
; first_layer_extrusion_width = 200%
; first_layer_speed = 30
; first_layer_temperature = 205
; gcode_arcs = 0
; gcode_comments = 0
; gcode_flavor = reprap
; has_heatbed = 1
; infill_acceleration = 0
; infill_first = 0
; interior_brim_width = 0
; layer_gcode = 
; max_fan_speed = 100
; max_layer_height = 0.3
; max_print_speed = 80
; max_volumetric_speed = 0
; min_fan_speed = 35
; min_layer_height = 0.15
; min_print_speed = 10
; min_skirt_length = 0
; notes = 
; nozzle_diameter = 0.5
; only_retract_when_crossing_perimeters = 1
; ooze_prevention = 0
; output_filename_format = [input_filename_base].gcode
; perimeter_acceleration = 0
; post_process = 
; pressure_advance = 0
; printer_notes = 
; resolution = 0
; retract_before_travel = 2
; retract_layer_change = 0
; retract_length = 2
; retract_length_toolchange = 10
; retract_lift = 0
; retract_lift_above = 0
; retract_lift_below = 0
; retract_restart_extra = 0
; retract_restart_extra_toolchange = 0
; retract_speed = 40
; skirt_distance = 6
; skirt_height = 1
; skirts = 0
; slowdown_below_layer_time = 5
; spiral_vase = 0
; standby_temperature_delta = -5
; start_filament_gcode = "; Filament gcode\n"
; start_gcode = G28 ; home all axes\nG1 Z5 F5000 ; lift nozzle\n
; temperature = 200
; threads = 8
; toolchange_gcode = 
; travel_speed = 130
; use_firmware_retraction = 0
; use_relative_e_distances = 0
; use_set_and_wait_bed = 0
; use_set_and_wait_extruder = 0
; use_volumetric_e = 0
; vibration_limit = 0
; wipe = 0
; z_offset = 0
; z_steps_per_mm = 0
; adaptive_slicing = 0
; adaptive_slicing_quality = 75%
; dont_support_bridges = 1
; extrusion_width = 0
; first_layer_height = 0.5
; infill_only_where_needed = 0
; interface_shells = 0
; layer_height = 0.5
; match_horizontal_surfaces = 0
; raft_layers = 0
; regions_overlap = 0
; seam_position = aligned
; sequential_print_priority = 0
; support_material = 0
; support_material_angle = 0
; support_material_buildplate_only = 0
; support_material_contact_distance = 0.2
; support_material_enforce_layers = 0
; support_material_extruder = 1
; support_material_extrusion_width = 0
; support_material_interface_extruder = 1
; support_material_interface_extrusion_width = 0
; support_material_interface_layers = 3
; support_material_interface_spacing = 0
; support_material_interface_speed = 100%
; support_material_max_layers = 0
; support_material_pattern = pillars
; support_material_spacing = 2.5
; support_material_speed = 60
; support_material_threshold = 60%
; xy_size_compensation = 0
; bottom_infill_pattern = rectilinear
; bottom_solid_layers = 0
; bridge_flow_ratio = 1
; bridge_speed = 60
; external_perimeter_extrusion_width = 0
; external_perimeter_speed = 50%
; external_perimeters_first = 0
; extra_perimeters = 1
; fill_angle = 45
; fill_density = 5%
; fill_gaps = 1
; fill_pattern = rectilinear
; gap_fill_speed = 20
; infill_every_layers = 1
; infill_extruder = 1
; infill_extrusion_width = 0
; infill_overlap = 55%
; infill_speed = 80
; overhangs = 1
; perimeter_extruder = 1
; perimeter_extrusion_width = 0
; perimeter_speed = 60
; perimeters = 1
; small_perimeter_speed = 15
; solid_infill_below_area = 70
; solid_infill_every_layers = 0
; solid_infill_extruder = 1
; solid_infill_extrusion_width = 0
; solid_infill_speed = 20
; thin_walls = 1
; top_infill_extrusion_width = 0
; top_infill_pattern = rectilinear
; top_solid_infill_speed = 15
; top_solid_layers = 0
