%
(Header)
(Generated by gcodetools from Inkscape.)
(Using default header. To add your own header create file "header" in the output dir.)
M3
(Header end.)
G21 (All units in mm)

(Start cutting path id: path3277)
(Change tool to Cone cutter)

G00 Z0.000000
G00 X28.616337 Y13.289802

G01 Z-1.000000 F100.0(Penetrate)
G02 X28.522340 Y13.154812 Z-1.000000 I-0.341370 J0.137483 F400.000000
G02 X28.147421 Y12.864092 Z-1.000000 I-2.057420 J2.266183
G02 X27.517860 Y12.524847 Z-1.000000 I-2.242942 J3.408601
G02 X26.496239 Y12.153286 Z-1.000000 I-3.728104 J8.660295
G03 X26.040821 Y12.012010 Z-1.000000 I7.088514 J-23.655243
G03 X25.561317 Y11.853337 Z-1.000000 I8.463996 J-26.381752
G02 X25.078992 Y11.707140 Z-1.000000 I-2.366736 J6.939484
G02 X24.731573 Y11.632670 Z-1.000000 I-0.936548 J3.521567
G03 X24.197547 Y11.513037 Z-1.000000 I0.763367 J-4.659296
G03 X23.347104 Y11.236998 Z-1.000000 I3.462744 J-12.116375
G02 X22.164253 Y10.859881 Z-1.000000 I-5.220969 J14.332304
G02 X21.186610 Y10.643886 Z-1.000000 I-2.626255 J9.566509
G02 X20.170851 Y10.521968 Z-1.000000 I-1.790206 J10.622751
G02 X19.811306 Y10.544756 Z-1.000000 I-0.096042 J1.332487
G02 X18.719224 Y10.872192 Z-1.000000 I1.214277 J6.034817
G02 X17.796324 Y11.359013 Z-1.000000 I1.931756 J4.780379
G02 X16.879050 Y12.136336 Z-1.000000 I2.869881 J4.316453
G02 X16.324656 Y12.933815 Z-1.000000 I2.471283 J2.309436
G01 X16.242706 Y13.097817 Z-1.000000
G01 X16.242706 Y12.987523 Z-1.000000
G02 X16.206412 Y12.672313 Z-1.000000 I-1.386912 J0.000000
G02 X16.052598 Y12.172944 Z-1.000000 I-3.662861 J0.854845
G03 X15.996539 Y11.872760 Z-1.000000 I0.779923 J-0.300975
G03 X16.050398 Y9.789308 Z-1.000000 I38.899804 J-0.036836
G03 X16.181494 Y8.045493 Z-1.000000 I38.921865 J2.049227
G03 X16.339441 Y6.833304 Z-1.000000 I18.955926 J1.853550
G02 X16.525427 Y5.560093 Z-1.000000 I-38.221047 J-6.233395
G02 X16.655504 Y4.386009 Z-1.000000 I-32.369899 J-4.180502
G03 X16.688797 Y4.084171 Z-1.000000 I8.586601 J0.794339
G03 X16.764756 Y3.533580 Z-1.000000 I28.620833 J3.667997
G02 X16.948845 Y2.033776 Z-1.000000 I-30.401532 J-4.492756
G02 X16.992128 Y1.210023 Z-1.000000 I-9.114930 J-0.891940
G02 X16.934433 Y0.567089 Z-1.000000 I-3.335281 J-0.024760
G02 X16.833482 Y0.368983 Z-1.000000 I-0.388734 J0.073318
G02 X16.726918 Y0.298303 Z-1.000000 I-0.204881 J0.193224
G02 X16.598589 Y0.281473 Z-1.000000 I-0.100726 J0.270369
G02 X16.470072 Y0.318942 Z-1.000000 I0.034271 J0.356690
G02 X16.335540 Y0.415614 Z-1.000000 I0.249316 J0.488900
G02 X16.096733 Y0.704309 Z-1.000000 I1.249203 J1.276451
G02 X15.873842 Y1.111142 Z-1.000000 I2.281094 J1.514214
G02 X15.549076 Y2.081237 Z-1.000000 I5.019133 J2.219705
G02 X15.005170 Y4.825975 Z-1.000000 I39.978447 J9.348509
G03 X14.429105 Y8.209046 Z-1.000000 I-238.036936 J-38.792044
G03 X14.261617 Y9.012444 Z-1.000000 I-13.579998 J-2.411926
G02 X14.125002 Y9.739034 Z-1.000000 I7.274752 J1.743954
G02 X14.002005 Y10.903687 Z-1.000000 I18.596776 J2.552793
G03 X13.922598 Y11.837986 Z-1.000000 I-43.420730 J-3.219838
G03 X13.892635 Y12.044842 Z-1.000000 I-2.154910 J-0.206542
G03 X13.839525 Y12.246244 Z-1.000000 I-1.557393 J-0.302986
G03 X13.731534 Y12.525333 Z-1.000000 I-3.106916 J-1.041752
G02 X13.535976 Y13.019161 Z-1.000000 I6.426062 J2.830385
G02 X13.409390 Y13.438259 Z-1.000000 I4.499147 J1.587605
G03 X13.359340 Y13.508311 Z-1.000000 I-0.114543 J-0.028931
G01 X13.327970 Y13.491309 Z-1.000000
G02 X13.291783 Y13.239900 Z-1.000000 I-0.891421 J-0.000000
G02 X13.124842 Y12.800310 Z-1.000000 I-2.931174 J0.861663
G02 X12.913272 Y12.464456 Z-1.000000 I-1.473452 J0.693631
G02 X12.257792 Y11.737533 Z-1.000000 I-7.672971 J6.259866
G02 X11.325847 Y11.031908 Z-1.000000 I-2.978170 J2.965141
G02 X9.945752 Y10.448714 Z-1.000000 I-3.361547 J6.030351
G02 X9.368261 Y10.368939 Z-1.000000 I-0.546035 J1.822638
G02 X8.193141 Y10.477694 Z-1.000000 I0.128907 J7.795967
G02 X7.305598 Y10.676266 Z-1.000000 I1.461220 J8.613900
G02 X6.025938 Y11.082572 Z-1.000000 I5.118610 J18.339344
G03 X5.229809 Y11.335814 Z-1.000000 I-4.041624 J-11.327821
G03 X4.660739 Y11.465157 Z-1.000000 I-1.583629 J-5.650944
G02 X4.342909 Y11.536935 Z-1.000000 I0.582584 J3.319223
G02 X3.670821 Y11.739630 Z-1.000000 I4.179328 J15.073219
G03 X3.002321 Y11.956916 Z-1.000000 I-99.823922 J-305.980556
G03 X2.616757 Y12.080965 Z-1.000000 I-32.902205 J-101.603970
G02 X1.934709 Y12.337889 Z-1.000000 I2.181707 J6.825484
G02 X1.426446 Y12.599915 Z-1.000000 I1.762866 J4.043465
G02 X0.960382 Y12.928851 Z-1.000000 I1.993552 J3.319279
G02 X0.829095 Y13.091248 Z-1.000000 I0.329615 J0.400738
G02 X0.782934 Y13.281520 Z-1.000000 I0.366937 J0.189756
G02 X0.829571 Y13.472717 Z-1.000000 I0.417380 J-0.000522
G02 X0.962634 Y13.592767 Z-1.000000 I0.226238 J-0.116993
G02 X1.876603 Y13.884275 Z-1.000000 I2.669855 J-6.792285
G02 X3.114453 Y14.135578 Z-1.000000 I3.560852 J-14.365509
G02 X5.876067 Y14.519897 Z-1.000000 I11.319619 J-71.225413
G03 X6.549387 Y14.603098 Z-1.000000 I-10.051444 J84.109702
G03 X6.728496 Y14.628698 Z-1.000000 I-0.762520 J5.974202
G02 X6.907471 Y14.655342 Z-1.000000 I1.538249 J-9.718253
G02 X7.512181 Y14.738019 Z-1.000000 I15.540362 J-111.411862
G03 X8.116195 Y14.824885 Z-1.000000 I-4.188156 J31.265269
G03 X8.474601 Y14.885949 Z-1.000000 I-1.699790 J11.059025
G02 X8.832546 Y14.949876 Z-1.000000 I4.052164 J-21.655075
G02 X8.997057 Y14.974809 Z-1.000000 I0.772208 J-4.539956
G03 X9.094142 Y14.997103 Z-1.000000 I-0.070511 J0.529593
G01 X9.093299 Y15.006609 Z-1.000000
G02 X8.060767 Y15.191096 Z-1.000000 I2.142758 J14.974177
G02 X7.503074 Y15.348023 Z-1.000000 I0.968787 J4.512360
G02 X6.731050 Y15.686983 Z-1.000000 I1.821779 J5.197997
G02 X5.292769 Y16.527906 Z-1.000000 I10.127698 J18.972470
G02 X4.579309 Y17.046338 Z-1.000000 I3.917662 J6.141579
G02 X3.744995 Y17.802625 Z-1.000000 I7.550095 J9.167388
G03 X3.025105 Y18.510068 Z-1.000000 I-49.973739 J-50.133018
G03 X2.741328 Y18.774968 Z-1.000000 I-7.285271 J-7.519951
G02 X2.093797 Y19.487536 Z-1.000000 I3.202053 J3.560297
G02 X1.546847 Y20.389679 Z-1.000000 I4.621812 J3.418984
G02 X1.123194 Y21.419608 Z-1.000000 I7.965159 J3.878501
G02 X1.116295 Y21.657617 Z-1.000000 I0.383485 J0.130219
G03 X1.115296 Y21.741974 Z-1.000000 I-0.146497 J0.040450
G03 X1.074280 Y21.796843 Z-1.000000 I-0.095936 J-0.028951
G02 X1.030787 Y21.844023 Z-1.000000 I0.072205 J0.110199
G01 X1.034514 Y21.869849 Z-1.000000
G01 X1.066306 Y21.879644 Z-1.000000
G02 X1.194038 Y21.839560 Z-1.000000 I-0.107477 J-0.566042
G03 X1.594965 Y21.668354 Z-1.000000 I5.252191 J11.744461
G03 X2.183716 Y21.436629 Z-1.000000 I10.218615 J25.098942
G02 X3.342735 Y20.940900 Z-1.000000 I-5.481035 J-14.417492
G02 X4.681821 Y20.245145 Z-1.000000 I-9.515549 J-19.950623
G03 X5.846767 Y19.641876 Z-1.000000 I9.075504 J16.098883
G03 X6.755994 Y19.262764 Z-1.000000 I4.460514 J9.417816
G02 X7.644024 Y18.912062 Z-1.000000 I-5.737139 J-15.826975
G02 X8.471158 Y18.528526 Z-1.000000 I-6.041091 J-14.111877
G02 X9.738987 Y17.870310 Z-1.000000 I-21.336995 J-42.648623
G02 X10.278291 Y17.555683 Z-1.000000 I-4.317748 J-8.020589
G03 X10.625029 Y17.363355 Z-1.000000 I1.889719 J2.998152
G03 X11.565334 Y16.933243 Z-1.000000 I10.493018 J21.696801
G02 X12.394086 Y16.551549 Z-1.000000 I-7.518751 J-17.415634
G02 X12.822398 Y16.317217 Z-1.000000 I-2.389991 J-4.877022
G03 X13.022500 Y16.199413 Z-1.000000 I4.454829 J7.338145
G01 X13.034316 Y16.196279 Z-1.000000
G01 X13.042744 Y16.201784 Z-1.000000
G03 X13.063916 Y16.263649 Z-1.000000 I-0.357654 J0.156955
G02 X13.092492 Y16.324696 Z-1.000000 I0.171412 J-0.043026
G02 X13.231884 Y16.494180 Z-1.000000 I1.514160 J-1.103254
G03 X13.353234 Y16.664544 Z-1.000000 I-0.601343 J0.556738
G01 X13.337237 Y16.691237 Z-1.000000
G02 X13.158132 Y16.758275 Z-1.000000 I0.000000 J0.272778
G02 X12.816053 Y17.144949 Z-1.000000 I1.305284 J1.499394
G02 X12.656151 Y17.520184 Z-1.000000 I0.889213 J0.600616
G02 X12.573853 Y18.272355 Z-1.000000 I3.610344 J0.775609
G02 X12.658600 Y18.757524 Z-1.000000 I1.380700 J0.008813
G02 X12.881129 Y19.108381 Z-1.000000 I0.922471 J-0.339075
G03 X13.085042 Y19.319163 Z-1.000000 I-11.146535 J10.987324
G03 X13.318566 Y19.569115 Z-1.000000 I-15.436670 J14.656154
G02 X13.557138 Y19.813288 Z-1.000000 I4.134073 J-3.800609
G02 X13.700719 Y19.937165 Z-1.000000 I1.202178 J-1.248247
G02 X13.861234 Y20.027174 Z-1.000000 I0.386204 J-0.500592
G02 X14.036481 Y20.065471 Z-1.000000 I0.214437 J-0.561157
G02 X14.587335 Y19.997576 Z-1.000000 I0.096907 J-1.482326
G02 X15.251726 Y19.675452 Z-1.000000 I-0.803390 J-2.503245
G03 X15.397633 Y19.592303 Z-1.000000 I0.630585 J0.936941
G03 X15.489831 Y19.562312 Z-1.000000 I0.161644 J0.340209
G02 X15.904856 Y19.280599 Z-1.000000 I-0.115768 J-0.617118
G02 X16.105215 Y18.588448 Z-1.000000 I-1.095356 J-0.692151
G02 X16.027787 Y17.884459 Z-1.000000 I-3.239119 J0.000000
G02 X15.818251 Y17.299664 Z-1.000000 I-2.432354 J0.541594
G01 X15.751991 Y17.168915 Z-1.000000
G01 X15.848911 Y17.116725 Z-1.000000
G02 X16.155918 Y16.821595 Z-1.000000 I-0.376229 J-0.698614
G02 X16.270196 Y16.403347 Z-1.000000 I-0.708235 J-0.418248
G01 X16.270196 Y16.282502 Z-1.000000
G01 X16.507752 Y16.431644 Z-1.000000
G02 X17.014065 Y16.716297 Z-1.000000 I3.188012 J-5.077920
G02 X17.878812 Y17.117279 Z-1.000000 I7.221760 J-14.441295
G03 X18.709835 Y17.499938 Z-1.000000 I-6.706204 J15.657580
G03 X19.363689 Y17.849974 Z-1.000000 I-4.953039 J10.037813
G02 X20.338022 Y18.388640 Z-1.000000 I14.211318 J-24.554776
G02 X21.314802 Y18.879203 Z-1.000000 I12.760175 J-24.189551
G02 X21.809920 Y19.098788 Z-1.000000 I4.167351 J-8.728495
G02 X22.718409 Y19.455234 Z-1.000000 I11.921985 J-29.050132
G03 X23.211729 Y19.644570 Z-1.000000 I-11.428964 J30.515837
G03 X23.364605 Y19.709275 Z-1.000000 I-1.176352 J2.992266
G03 X23.945390 Y19.989000 Z-1.000000 I-5.885316 J12.962314
G03 X24.615751 Y20.347160 Z-1.000000 I-8.988802 J17.630607
G02 X26.088476 Y21.112383 Z-1.000000 I13.197240 J-23.599198
G02 X27.214284 Y21.597611 Z-1.000000 I6.397034 J-13.293517
G03 X27.694169 Y21.784928 Z-1.000000 I-13.604084 J35.560557
G03 X27.874229 Y21.860370 Z-1.000000 I-2.022989 J5.080931
G02 X28.052976 Y21.939004 Z-1.000000 I199.495161 J-453.239303
G02 X28.215902 Y22.010603 Z-1.000000 I188.654036 J-429.070913
G02 X28.371976 Y22.060114 Z-1.000000 I0.309221 J-0.704007
G01 X28.399953 Y22.048010 Z-1.000000
G01 X28.400774 Y22.018214 Z-1.000000
G02 X28.358473 Y21.971702 Z-1.000000 I-0.116324 J0.063301
G03 X28.321427 Y21.919951 Z-1.000000 I0.050888 J-0.075563
G03 X28.321183 Y21.833968 Z-1.000000 I0.160446 J-0.043447
G02 X28.309297 Y21.567668 Z-1.000000 I-0.431326 J-0.114163
G02 X27.802304 Y20.403432 Z-1.000000 I-9.517751 J3.452211
G02 X27.370549 Y19.715372 Z-1.000000 I-4.163428 J2.133044
G02 X26.762905 Y19.028547 Z-1.000000 I-4.755945 J3.595443
G03 X26.297674 Y18.571683 Z-1.000000 I33.292860 J-34.367925
G03 X25.785117 Y18.055168 Z-1.000000 I42.030982 J-42.221440
G02 X25.012947 Y17.328092 Z-1.000000 I-9.464939 J9.278387
G02 X24.478260 Y16.919768 Z-1.000000 I-3.497676 J4.025859
G02 X23.615840 Y16.373786 Z-1.000000 I-11.488207 J17.192379
G02 X22.732156 Y15.873800 Z-1.000000 I-10.514374 J17.552372
G02 X21.896152 Y15.522807 Z-1.000000 I-2.308242 J4.326719
G02 X20.738572 Y15.246351 Z-1.000000 I-2.536540 J8.059299
G03 X20.300679 Y15.169452 Z-1.000000 I3.666341 J-22.162911
G01 X20.287151 Y15.162471 Z-1.000000
G01 X20.289042 Y15.156781 Z-1.000000
G03 X20.373681 Y15.151371 Z-1.000000 I0.084639 J0.659407
G02 X20.471022 Y15.144198 Z-1.000000 I0.000000 J-0.664060
G02 X20.921344 Y15.070211 Z-1.000000 I-2.126630 J-14.351190
G03 X21.371725 Y14.993486 Z-1.000000 I4.125174 J22.854886
G03 X21.783484 Y14.932052 Z-1.000000 I3.052038 J19.045470
G02 X22.195938 Y14.874978 Z-1.000000 I-158.882119 J-1149.752669
G02 X22.484676 Y14.834892 Z-1.000000 I-74.582209 J-538.256607
G03 X22.773596 Y14.796207 Z-1.000000 I3.926047 J28.223285
G03 X23.433347 Y14.712810 Z-1.000000 I18.858526 J146.538490
G02 X25.177081 Y14.488856 Z-1.000000 I-25.552894 J-205.858510
G02 X25.839396 Y14.393423 Z-1.000000 I-3.954605 J-29.791348
G02 X26.786374 Y14.228788 Z-1.000000 I-4.126037 J-26.538681
G02 X27.489259 Y14.076074 Z-1.000000 I-2.840908 J-14.769565
G02 X28.414121 Y13.802204 Z-1.000000 I-2.271951 J-9.370963
G02 X28.561477 Y13.699286 Z-1.000000 I-0.111005 J-0.315885
G02 X28.622851 Y13.591489 Z-1.000000 I-0.279966 J-0.230768
G02 X28.642417 Y13.474624 Z-1.000000 I-0.311511 J-0.112224
G02 X28.632926 Y13.351833 Z-1.000000 I-0.976818 J0.013740
G02 X28.616327 Y13.289811 Z-1.000000 I-0.262734 J0.037083
G01 X28.616337 Y13.289802 Z-1.000000
G00 Z0.000000

(End cutting path id: path3277)


(Start cutting path id: path3277)
(Change tool to Cone cutter)

G00 Z0.000000
G00 X28.616337 Y13.289802

G01 Z-1.000000 F100.0(Penetrate)
G02 X28.522340 Y13.154812 Z-1.000000 I-0.341370 J0.137483 F400.000000
G02 X28.147421 Y12.864092 Z-1.000000 I-2.057420 J2.266183
G02 X27.517860 Y12.524847 Z-1.000000 I-2.242942 J3.408601
G02 X26.496239 Y12.153286 Z-1.000000 I-3.728104 J8.660295
G03 X26.040821 Y12.012010 Z-1.000000 I7.088514 J-23.655243
G03 X25.561317 Y11.853337 Z-1.000000 I8.463996 J-26.381752
G02 X25.078992 Y11.707140 Z-1.000000 I-2.366736 J6.939484
G02 X24.731573 Y11.632670 Z-1.000000 I-0.936548 J3.521567
G03 X24.197547 Y11.513037 Z-1.000000 I0.763367 J-4.659296
G03 X23.347104 Y11.236998 Z-1.000000 I3.462744 J-12.116375
G02 X22.164253 Y10.859881 Z-1.000000 I-5.220969 J14.332304
G02 X21.186610 Y10.643886 Z-1.000000 I-2.626255 J9.566509
G02 X20.170851 Y10.521968 Z-1.000000 I-1.790206 J10.622751
G02 X19.811306 Y10.544756 Z-1.000000 I-0.096042 J1.332487
G02 X18.719224 Y10.872192 Z-1.000000 I1.214277 J6.034817
G02 X17.796324 Y11.359013 Z-1.000000 I1.931756 J4.780379
G02 X16.879050 Y12.136336 Z-1.000000 I2.869881 J4.316453
G02 X16.324656 Y12.933815 Z-1.000000 I2.471283 J2.309436
G01 X16.242706 Y13.097817 Z-1.000000
G01 X16.242706 Y12.987523 Z-1.000000
G02 X16.206412 Y12.672313 Z-1.000000 I-1.386912 J0.000000
G02 X16.052598 Y12.172944 Z-1.000000 I-3.662861 J0.854845
G03 X15.996539 Y11.872760 Z-1.000000 I0.779923 J-0.300975
G03 X16.050398 Y9.789308 Z-1.000000 I38.899804 J-0.036836
G03 X16.181494 Y8.045493 Z-1.000000 I38.921865 J2.049227
G03 X16.339441 Y6.833304 Z-1.000000 I18.955926 J1.853550
G02 X16.525427 Y5.560093 Z-1.000000 I-38.221047 J-6.233395
G02 X16.655504 Y4.386009 Z-1.000000 I-32.369899 J-4.180502
G03 X16.688797 Y4.084171 Z-1.000000 I8.586601 J0.794339
G03 X16.764756 Y3.533580 Z-1.000000 I28.620833 J3.667997
G02 X16.948845 Y2.033776 Z-1.000000 I-30.401532 J-4.492756
G02 X16.992128 Y1.210023 Z-1.000000 I-9.114930 J-0.891940
G02 X16.934433 Y0.567089 Z-1.000000 I-3.335281 J-0.024760
G02 X16.833482 Y0.368983 Z-1.000000 I-0.388734 J0.073318
G02 X16.726918 Y0.298303 Z-1.000000 I-0.204881 J0.193224
G02 X16.598589 Y0.281473 Z-1.000000 I-0.100726 J0.270369
G02 X16.470072 Y0.318942 Z-1.000000 I0.034271 J0.356690
G02 X16.335540 Y0.415614 Z-1.000000 I0.249316 J0.488900
G02 X16.096733 Y0.704309 Z-1.000000 I1.249203 J1.276451
G02 X15.873842 Y1.111142 Z-1.000000 I2.281094 J1.514214
G02 X15.549076 Y2.081237 Z-1.000000 I5.019133 J2.219705
G02 X15.005170 Y4.825975 Z-1.000000 I39.978447 J9.348509
G03 X14.429105 Y8.209046 Z-1.000000 I-238.036936 J-38.792044
G03 X14.261617 Y9.012444 Z-1.000000 I-13.579998 J-2.411926
G02 X14.125002 Y9.739034 Z-1.000000 I7.274752 J1.743954
G02 X14.002005 Y10.903687 Z-1.000000 I18.596776 J2.552793
G03 X13.922598 Y11.837986 Z-1.000000 I-43.420730 J-3.219838
G03 X13.892635 Y12.044842 Z-1.000000 I-2.154910 J-0.206542
G03 X13.839525 Y12.246244 Z-1.000000 I-1.557393 J-0.302986
G03 X13.731534 Y12.525333 Z-1.000000 I-3.106916 J-1.041752
G02 X13.535976 Y13.019161 Z-1.000000 I6.426062 J2.830385
G02 X13.409390 Y13.438259 Z-1.000000 I4.499147 J1.587605
G03 X13.359340 Y13.508311 Z-1.000000 I-0.114543 J-0.028931
G01 X13.327970 Y13.491309 Z-1.000000
G02 X13.291783 Y13.239900 Z-1.000000 I-0.891421 J-0.000000
G02 X13.124842 Y12.800310 Z-1.000000 I-2.931174 J0.861663
G02 X12.913272 Y12.464456 Z-1.000000 I-1.473452 J0.693631
G02 X12.257792 Y11.737533 Z-1.000000 I-7.672971 J6.259866
G02 X11.325847 Y11.031908 Z-1.000000 I-2.978170 J2.965141
G02 X9.945752 Y10.448714 Z-1.000000 I-3.361547 J6.030351
G02 X9.368261 Y10.368939 Z-1.000000 I-0.546035 J1.822638
G02 X8.193141 Y10.477694 Z-1.000000 I0.128907 J7.795967
G02 X7.305598 Y10.676266 Z-1.000000 I1.461220 J8.613900
G02 X6.025938 Y11.082572 Z-1.000000 I5.118610 J18.339344
G03 X5.229809 Y11.335814 Z-1.000000 I-4.041624 J-11.327821
G03 X4.660739 Y11.465157 Z-1.000000 I-1.583629 J-5.650944
G02 X4.342909 Y11.536935 Z-1.000000 I0.582584 J3.319223
G02 X3.670821 Y11.739630 Z-1.000000 I4.179328 J15.073219
G03 X3.002321 Y11.956916 Z-1.000000 I-99.823922 J-305.980556
G03 X2.616757 Y12.080965 Z-1.000000 I-32.902205 J-101.603970
G02 X1.934709 Y12.337889 Z-1.000000 I2.181707 J6.825484
G02 X1.426446 Y12.599915 Z-1.000000 I1.762866 J4.043465
G02 X0.960382 Y12.928851 Z-1.000000 I1.993552 J3.319279
G02 X0.829095 Y13.091248 Z-1.000000 I0.329615 J0.400738
G02 X0.782934 Y13.281520 Z-1.000000 I0.366937 J0.189756
G02 X0.829571 Y13.472717 Z-1.000000 I0.417380 J-0.000522
G02 X0.962634 Y13.592767 Z-1.000000 I0.226238 J-0.116993
G02 X1.876603 Y13.884275 Z-1.000000 I2.669855 J-6.792285
G02 X3.114453 Y14.135578 Z-1.000000 I3.560852 J-14.365509
G02 X5.876067 Y14.519897 Z-1.000000 I11.319619 J-71.225413
G03 X6.549387 Y14.603098 Z-1.000000 I-10.051444 J84.109702
G03 X6.728496 Y14.628698 Z-1.000000 I-0.762520 J5.974202
G02 X6.907471 Y14.655342 Z-1.000000 I1.538249 J-9.718253
G02 X7.512181 Y14.738019 Z-1.000000 I15.540362 J-111.411862
G03 X8.116195 Y14.824885 Z-1.000000 I-4.188156 J31.265269
G03 X8.474601 Y14.885949 Z-1.000000 I-1.699790 J11.059025
G02 X8.832546 Y14.949876 Z-1.000000 I4.052164 J-21.655075
G02 X8.997057 Y14.974809 Z-1.000000 I0.772208 J-4.539956
G03 X9.094142 Y14.997103 Z-1.000000 I-0.070511 J0.529593
G01 X9.093299 Y15.006609 Z-1.000000
G02 X8.060767 Y15.191096 Z-1.000000 I2.142758 J14.974177
G02 X7.503074 Y15.348023 Z-1.000000 I0.968787 J4.512360
G02 X6.731050 Y15.686983 Z-1.000000 I1.821779 J5.197997
G02 X5.292769 Y16.527906 Z-1.000000 I10.127698 J18.972470
G02 X4.579309 Y17.046338 Z-1.000000 I3.917662 J6.141579
G02 X3.744995 Y17.802625 Z-1.000000 I7.550095 J9.167388
G03 X3.025105 Y18.510068 Z-1.000000 I-49.973739 J-50.133018
G03 X2.741328 Y18.774968 Z-1.000000 I-7.285271 J-7.519951
G02 X2.093797 Y19.487536 Z-1.000000 I3.202053 J3.560297
G02 X1.546847 Y20.389679 Z-1.000000 I4.621812 J3.418984
G02 X1.123194 Y21.419608 Z-1.000000 I7.965159 J3.878501
G02 X1.116295 Y21.657617 Z-1.000000 I0.383485 J0.130219
G03 X1.115296 Y21.741974 Z-1.000000 I-0.146497 J0.040450
G03 X1.074280 Y21.796843 Z-1.000000 I-0.095936 J-0.028951
G02 X1.030787 Y21.844023 Z-1.000000 I0.072205 J0.110199
G01 X1.034514 Y21.869849 Z-1.000000
G01 X1.066306 Y21.879644 Z-1.000000
G02 X1.194038 Y21.839560 Z-1.000000 I-0.107477 J-0.566042
G03 X1.594965 Y21.668354 Z-1.000000 I5.252191 J11.744461
G03 X2.183716 Y21.436629 Z-1.000000 I10.218615 J25.098942
G02 X3.342735 Y20.940900 Z-1.000000 I-5.481035 J-14.417492
G02 X4.681821 Y20.245145 Z-1.000000 I-9.515549 J-19.950623
G03 X5.846767 Y19.641876 Z-1.000000 I9.075504 J16.098883
G03 X6.755994 Y19.262764 Z-1.000000 I4.460514 J9.417816
G02 X7.644024 Y18.912062 Z-1.000000 I-5.737139 J-15.826975
G02 X8.471158 Y18.528526 Z-1.000000 I-6.041091 J-14.111877
G02 X9.738987 Y17.870310 Z-1.000000 I-21.336995 J-42.648623
G02 X10.278291 Y17.555683 Z-1.000000 I-4.317748 J-8.020589
G03 X10.625029 Y17.363355 Z-1.000000 I1.889719 J2.998152
G03 X11.565334 Y16.933243 Z-1.000000 I10.493018 J21.696801
G02 X12.394086 Y16.551549 Z-1.000000 I-7.518751 J-17.415634
G02 X12.822398 Y16.317217 Z-1.000000 I-2.389991 J-4.877022
G03 X13.022500 Y16.199413 Z-1.000000 I4.454829 J7.338145
G01 X13.034316 Y16.196279 Z-1.000000
G01 X13.042744 Y16.201784 Z-1.000000
G03 X13.063916 Y16.263649 Z-1.000000 I-0.357654 J0.156955
G02 X13.092492 Y16.324696 Z-1.000000 I0.171412 J-0.043026
G02 X13.231884 Y16.494180 Z-1.000000 I1.514160 J-1.103254
G03 X13.353234 Y16.664544 Z-1.000000 I-0.601343 J0.556738
G01 X13.337237 Y16.691237 Z-1.000000
G02 X13.158132 Y16.758275 Z-1.000000 I0.000000 J0.272778
G02 X12.816053 Y17.144949 Z-1.000000 I1.305284 J1.499394
G02 X12.656151 Y17.520184 Z-1.000000 I0.889213 J0.600616
G02 X12.573853 Y18.272355 Z-1.000000 I3.610344 J0.775609
G02 X12.658600 Y18.757524 Z-1.000000 I1.380700 J0.008813
G02 X12.881129 Y19.108381 Z-1.000000 I0.922471 J-0.339075
G03 X13.085042 Y19.319163 Z-1.000000 I-11.146535 J10.987324
G03 X13.318566 Y19.569115 Z-1.000000 I-15.436670 J14.656154
G02 X13.557138 Y19.813288 Z-1.000000 I4.134073 J-3.800609
G02 X13.700719 Y19.937165 Z-1.000000 I1.202178 J-1.248247
G02 X13.861234 Y20.027174 Z-1.000000 I0.386204 J-0.500592
G02 X14.036481 Y20.065471 Z-1.000000 I0.214437 J-0.561157
G02 X14.587335 Y19.997576 Z-1.000000 I0.096907 J-1.482326
G02 X15.251726 Y19.675452 Z-1.000000 I-0.803390 J-2.503245
G03 X15.397633 Y19.592303 Z-1.000000 I0.630585 J0.936941
G03 X15.489831 Y19.562312 Z-1.000000 I0.161644 J0.340209
G02 X15.904856 Y19.280599 Z-1.000000 I-0.115768 J-0.617118
G02 X16.105215 Y18.588448 Z-1.000000 I-1.095356 J-0.692151
G02 X16.027787 Y17.884459 Z-1.000000 I-3.239119 J0.000000
G02 X15.818251 Y17.299664 Z-1.000000 I-2.432354 J0.541594
G01 X15.751991 Y17.168915 Z-1.000000
G01 X15.848911 Y17.116725 Z-1.000000
G02 X16.155918 Y16.821595 Z-1.000000 I-0.376229 J-0.698614
G02 X16.270196 Y16.403347 Z-1.000000 I-0.708235 J-0.418248
G01 X16.270196 Y16.282502 Z-1.000000
G01 X16.507752 Y16.431644 Z-1.000000
G02 X17.014065 Y16.716297 Z-1.000000 I3.188012 J-5.077920
G02 X17.878812 Y17.117279 Z-1.000000 I7.221760 J-14.441295
G03 X18.709835 Y17.499938 Z-1.000000 I-6.706204 J15.657580
G03 X19.363689 Y17.849974 Z-1.000000 I-4.953039 J10.037813
G02 X20.338022 Y18.388640 Z-1.000000 I14.211318 J-24.554776
G02 X21.314802 Y18.879203 Z-1.000000 I12.760175 J-24.189551
G02 X21.809920 Y19.098788 Z-1.000000 I4.167351 J-8.728495
G02 X22.718409 Y19.455234 Z-1.000000 I11.921985 J-29.050132
G03 X23.211729 Y19.644570 Z-1.000000 I-11.428964 J30.515837
G03 X23.364605 Y19.709275 Z-1.000000 I-1.176352 J2.992266
G03 X23.945390 Y19.989000 Z-1.000000 I-5.885316 J12.962314
G03 X24.615751 Y20.347160 Z-1.000000 I-8.988802 J17.630607
G02 X26.088476 Y21.112383 Z-1.000000 I13.197240 J-23.599198
G02 X27.214284 Y21.597611 Z-1.000000 I6.397034 J-13.293517
G03 X27.694169 Y21.784928 Z-1.000000 I-13.604084 J35.560557
G03 X27.874229 Y21.860370 Z-1.000000 I-2.022989 J5.080931
G02 X28.052976 Y21.939004 Z-1.000000 I199.495161 J-453.239303
G02 X28.215902 Y22.010603 Z-1.000000 I188.654036 J-429.070913
G02 X28.371976 Y22.060114 Z-1.000000 I0.309221 J-0.704007
G01 X28.399953 Y22.048010 Z-1.000000
G01 X28.400774 Y22.018214 Z-1.000000
G02 X28.358473 Y21.971702 Z-1.000000 I-0.116324 J0.063301
G03 X28.321427 Y21.919951 Z-1.000000 I0.050888 J-0.075563
G03 X28.321183 Y21.833968 Z-1.000000 I0.160446 J-0.043447
G02 X28.309297 Y21.567668 Z-1.000000 I-0.431326 J-0.114163
G02 X27.802304 Y20.403432 Z-1.000000 I-9.517751 J3.452211
G02 X27.370549 Y19.715372 Z-1.000000 I-4.163428 J2.133044
G02 X26.762905 Y19.028547 Z-1.000000 I-4.755945 J3.595443
G03 X26.297674 Y18.571683 Z-1.000000 I33.292860 J-34.367925
G03 X25.785117 Y18.055168 Z-1.000000 I42.030982 J-42.221440
G02 X25.012947 Y17.328092 Z-1.000000 I-9.464939 J9.278387
G02 X24.478260 Y16.919768 Z-1.000000 I-3.497676 J4.025859
G02 X23.615840 Y16.373786 Z-1.000000 I-11.488207 J17.192379
G02 X22.732156 Y15.873800 Z-1.000000 I-10.514374 J17.552372
G02 X21.896152 Y15.522807 Z-1.000000 I-2.308242 J4.326719
G02 X20.738572 Y15.246351 Z-1.000000 I-2.536540 J8.059299
G03 X20.300679 Y15.169452 Z-1.000000 I3.666341 J-22.162911
G01 X20.287151 Y15.162471 Z-1.000000
G01 X20.289042 Y15.156781 Z-1.000000
G03 X20.373681 Y15.151371 Z-1.000000 I0.084639 J0.659407
G02 X20.471022 Y15.144198 Z-1.000000 I0.000000 J-0.664060
G02 X20.921344 Y15.070211 Z-1.000000 I-2.126630 J-14.351190
G03 X21.371725 Y14.993486 Z-1.000000 I4.125174 J22.854886
G03 X21.783484 Y14.932052 Z-1.000000 I3.052038 J19.045470
G02 X22.195938 Y14.874978 Z-1.000000 I-158.882119 J-1149.752669
G02 X22.484676 Y14.834892 Z-1.000000 I-74.582209 J-538.256607
G03 X22.773596 Y14.796207 Z-1.000000 I3.926047 J28.223285
G03 X23.433347 Y14.712810 Z-1.000000 I18.858526 J146.538490
G02 X25.177081 Y14.488856 Z-1.000000 I-25.552894 J-205.858510
G02 X25.839396 Y14.393423 Z-1.000000 I-3.954605 J-29.791348
G02 X26.786374 Y14.228788 Z-1.000000 I-4.126037 J-26.538681
G02 X27.489259 Y14.076074 Z-1.000000 I-2.840908 J-14.769565
G02 X28.414121 Y13.802204 Z-1.000000 I-2.271951 J-9.370963
G02 X28.561477 Y13.699286 Z-1.000000 I-0.111005 J-0.315885
G02 X28.622851 Y13.591489 Z-1.000000 I-0.279966 J-0.230768
G02 X28.642417 Y13.474624 Z-1.000000 I-0.311511 J-0.112224
G02 X28.632926 Y13.351833 Z-1.000000 I-0.976818 J0.013740
G02 X28.616327 Y13.289811 Z-1.000000 I-0.262734 J0.037083
G01 X28.616337 Y13.289802 Z-1.000000
G00 Z0.000000

(End cutting path id: path3277)


(Start cutting path id: path3277)
(Change tool to Cone cutter)

G00 Z0.000000
G00 X28.535547 Y13.581308

G01 Z-1.000000 F100.0(Penetrate)
G03 X28.431242 Y13.689098 Z-1.000000 I-0.228105 J-0.116369 F400.000000
G03 X28.065839 Y13.840723 Z-1.000000 I-0.861240 J-1.559406
G03 X27.088426 Y14.086655 Z-1.000000 I-3.944877 J-13.612952
G03 X25.921892 Y14.299785 Z-1.000000 I-4.107960 J-19.185317
G03 X23.931268 Y14.582444 Z-1.000000 I-15.974724 J-105.351189
G03 X23.643450 Y14.601412 Z-1.000000 I-0.287818 J-2.174137
G01 X23.642414 Y14.588950 Z-1.000000
G03 X24.287955 Y14.493467 Z-1.000000 I2.821793 J16.847637
G02 X25.808889 Y14.275635 Z-1.000000 I-6.747390 J-52.529910
G02 X26.801819 Y14.096132 Z-1.000000 I-3.566075 J-22.561859
G02 X28.001027 Y13.814775 Z-1.000000 I-4.165681 J-20.451403
G02 X28.341691 Y13.686552 Z-1.000000 I-0.468479 J-1.761312
G02 X28.437848 Y13.442212 Z-1.000000 I-0.086839 J-0.175265
G02 X28.080138 Y12.993635 Z-1.000000 I-0.873669 J0.329780
G02 X27.523058 Y12.699769 Z-1.000000 I-1.743499 J2.630181
G02 X26.018134 Y12.156986 Z-1.000000 I-7.654547 J18.865378
G03 X25.496512 Y11.988958 Z-1.000000 I17.320303 J-54.662344
G03 X25.299597 Y11.921730 Z-1.000000 I2.571579 J-7.854334
G02 X25.100635 Y11.863174 Z-1.000000 I-0.627889 J1.766148
G02 X24.763392 Y11.795688 Z-1.000000 I-1.179313 J5.016923
G03 X24.196564 Y11.670418 Z-1.000000 I0.889170 J-5.368381
G03 X23.309610 Y11.391971 Z-1.000000 I3.733328 J-13.443876
G02 X21.862303 Y10.966485 Z-1.000000 I-4.844141 J13.803259
G02 X20.445075 Y10.708119 Z-1.000000 I-3.097653 J12.975530
G02 X20.070092 Y10.684678 Z-1.000000 I-0.370708 J2.919229
G02 X19.840125 Y10.708999 Z-1.000000 I0.001619 J1.114715
G02 X18.648736 Y11.083071 Z-1.000000 I1.367625 J6.440055
G02 X17.786355 Y11.575409 Z-1.000000 I1.618270 J3.836009
G02 X16.906188 Y12.376283 Z-1.000000 I3.552052 J4.787824
G02 X16.437153 Y13.075290 Z-1.000000 I2.217884 J1.995071
G02 X16.278732 Y13.491944 Z-1.000000 I2.334554 J1.126093
G02 X16.186748 Y13.955216 Z-1.000000 I2.798904 J0.796499
G01 X16.167728 Y14.120203 Z-1.000000
G01 X16.163928 Y13.967141 Z-1.000000
G03 X16.214506 Y13.476896 Z-1.000000 I1.936990 J-0.047895
G03 X16.396507 Y12.975025 Z-1.000000 I2.215610 J0.519544
G03 X16.569938 Y12.709391 Z-1.000000 I1.257389 J0.631510
G03 X17.163766 Y12.047994 Z-1.000000 I8.510400 J7.043687
G03 X17.706904 Y11.547262 Z-1.000000 I4.891578 J4.760901
G03 X18.091998 Y11.280863 Z-1.000000 I1.747130 J2.114035
G03 X19.336380 Y10.716793 Z-1.000000 I3.609769 J6.308796
G03 X20.108092 Y10.586998 Z-1.000000 I0.775998 J2.254740
G03 X20.648311 Y10.627236 Z-1.000000 I0.006422 J3.560267
G03 X21.769698 Y10.838972 Z-1.000000 I-2.369048 J15.622249
G03 X22.360255 Y10.997291 Z-1.000000 I-1.724188 J7.612123
G03 X23.364324 Y11.334182 Z-1.000000 I-6.943690 J22.359652
G02 X24.222602 Y11.608586 Z-1.000000 I4.145976 J-11.488277
G02 X24.766948 Y11.726219 Z-1.000000 I1.255867 J-4.493224
G03 X25.051908 Y11.786093 Z-1.000000 I-0.411280 J2.665464
G03 X25.495638 Y11.920929 Z-1.000000 I-1.766491 J6.610866
G02 X25.936796 Y12.067395 Z-1.000000 I8.982207 J-26.316919
G02 X26.418444 Y12.218771 Z-1.000000 I10.092322 J-31.269815
G03 X27.495280 Y12.613587 Z-1.000000 I-3.073674 J10.049157
G03 X28.107920 Y12.945096 Z-1.000000 I-1.530977 J3.561147
G03 X28.468802 Y13.253824 Z-1.000000 I-1.081693 J1.629714
G03 X28.586960 Y13.468228 Z-1.000000 I-0.383309 J0.351001
G01 X28.586338 Y13.475937 Z-1.000000
G03 X28.535510 Y13.581309 Z-1.000000 I-2.392060 J-1.088915
G01 X28.535547 Y13.581308 Z-1.000000
G00 Z0.000000

(End cutting path id: path3277)


(Start cutting path id: path3277)
(Change tool to Cone cutter)

G00 Z0.000000
G00 X28.535547 Y13.581308

G01 Z-1.000000 F100.0(Penetrate)
G03 X28.431242 Y13.689098 Z-1.000000 I-0.228105 J-0.116369 F400.000000
G03 X28.065839 Y13.840723 Z-1.000000 I-0.861240 J-1.559406
G03 X27.088426 Y14.086655 Z-1.000000 I-3.944877 J-13.612952
G03 X25.921892 Y14.299785 Z-1.000000 I-4.107960 J-19.185317
G03 X23.931268 Y14.582444 Z-1.000000 I-15.974724 J-105.351189
G03 X23.643450 Y14.601412 Z-1.000000 I-0.287818 J-2.174137
G01 X23.642414 Y14.588950 Z-1.000000
G03 X24.287955 Y14.493467 Z-1.000000 I2.821793 J16.847637
G02 X25.808889 Y14.275635 Z-1.000000 I-6.747390 J-52.529910
G02 X26.801819 Y14.096132 Z-1.000000 I-3.566075 J-22.561859
G02 X28.001027 Y13.814775 Z-1.000000 I-4.165681 J-20.451403
G02 X28.341691 Y13.686552 Z-1.000000 I-0.468479 J-1.761312
G02 X28.437848 Y13.442212 Z-1.000000 I-0.086839 J-0.175265
G02 X28.080138 Y12.993635 Z-1.000000 I-0.873669 J0.329780
G02 X27.523058 Y12.699769 Z-1.000000 I-1.743499 J2.630181
G02 X26.018134 Y12.156986 Z-1.000000 I-7.654547 J18.865378
G03 X25.496512 Y11.988958 Z-1.000000 I17.320303 J-54.662344
G03 X25.299597 Y11.921730 Z-1.000000 I2.571579 J-7.854334
G02 X25.100635 Y11.863174 Z-1.000000 I-0.627889 J1.766148
G02 X24.763392 Y11.795688 Z-1.000000 I-1.179313 J5.016923
G03 X24.196564 Y11.670418 Z-1.000000 I0.889170 J-5.368381
G03 X23.309610 Y11.391971 Z-1.000000 I3.733328 J-13.443876
G02 X21.862303 Y10.966485 Z-1.000000 I-4.844141 J13.803259
G02 X20.445075 Y10.708119 Z-1.000000 I-3.097653 J12.975530
G02 X20.070092 Y10.684678 Z-1.000000 I-0.370708 J2.919229
G02 X19.840125 Y10.708999 Z-1.000000 I0.001619 J1.114715
G02 X18.648736 Y11.083071 Z-1.000000 I1.367625 J6.440055
G02 X17.786355 Y11.575409 Z-1.000000 I1.618270 J3.836009
G02 X16.906188 Y12.376283 Z-1.000000 I3.552052 J4.787824
G02 X16.437153 Y13.075290 Z-1.000000 I2.217884 J1.995071
G02 X16.278732 Y13.491944 Z-1.000000 I2.334554 J1.126093
G02 X16.186748 Y13.955216 Z-1.000000 I2.798904 J0.796499
G01 X16.167728 Y14.120203 Z-1.000000
G01 X16.163928 Y13.967141 Z-1.000000
G03 X16.214506 Y13.476896 Z-1.000000 I1.936990 J-0.047895
G03 X16.396507 Y12.975025 Z-1.000000 I2.215610 J0.519544
G03 X16.569938 Y12.709391 Z-1.000000 I1.257389 J0.631510
G03 X17.163766 Y12.047994 Z-1.000000 I8.510400 J7.043687
G03 X17.706904 Y11.547262 Z-1.000000 I4.891578 J4.760901
G03 X18.091998 Y11.280863 Z-1.000000 I1.747130 J2.114035
G03 X19.336380 Y10.716793 Z-1.000000 I3.609769 J6.308796
G03 X20.108092 Y10.586998 Z-1.000000 I0.775998 J2.254740
G03 X20.648311 Y10.627236 Z-1.000000 I0.006422 J3.560267
G03 X21.769698 Y10.838972 Z-1.000000 I-2.369048 J15.622249
G03 X22.360255 Y10.997291 Z-1.000000 I-1.724188 J7.612123
G03 X23.364324 Y11.334182 Z-1.000000 I-6.943690 J22.359652
G02 X24.222602 Y11.608586 Z-1.000000 I4.145976 J-11.488277
G02 X24.766948 Y11.726219 Z-1.000000 I1.255867 J-4.493224
G03 X25.051908 Y11.786093 Z-1.000000 I-0.411280 J2.665464
G03 X25.495638 Y11.920929 Z-1.000000 I-1.766491 J6.610866
G02 X25.936796 Y12.067395 Z-1.000000 I8.982207 J-26.316919
G02 X26.418444 Y12.218771 Z-1.000000 I10.092322 J-31.269815
G03 X27.495280 Y12.613587 Z-1.000000 I-3.073674 J10.049157
G03 X28.107920 Y12.945096 Z-1.000000 I-1.530977 J3.561147
G03 X28.468802 Y13.253824 Z-1.000000 I-1.081693 J1.629714
G03 X28.586960 Y13.468228 Z-1.000000 I-0.383309 J0.351001
G01 X28.586338 Y13.475937 Z-1.000000
G03 X28.535510 Y13.581309 Z-1.000000 I-2.392060 J-1.088915
G01 X28.535547 Y13.581308 Z-1.000000
G00 Z0.000000

(End cutting path id: path3277)


(Start cutting path id: path3277)
(Change tool to Cone cutter)

G00 Z0.000000
G00 X28.354944 Y13.579508

G01 Z-1.000000 F100.0(Penetrate)
G03 X28.239090 Y13.640363 Z-1.000000 I-0.222400 J-0.282692 F400.000000
G03 X27.420517 Y13.869313 Z-1.000000 I-4.496351 J-14.498133
G03 X26.268847 Y14.108019 Z-1.000000 I-3.535073 J-14.157899
G03 X23.570843 Y14.506628 Z-1.000000 I-12.812711 J-77.393356
G02 X21.924657 Y14.740723 Z-1.000000 I8.962170 J68.928388
G02 X21.164794 Y14.878190 Z-1.000000 I2.288040 J14.816182
G03 X20.108783 Y15.036208 Z-1.000000 I-1.932506 J-9.307037
G03 X18.717498 Y15.104817 Z-1.000000 I-1.491689 J-16.108382
G02 X17.134380 Y15.185811 Z-1.000000 I0.109703 J17.656682
G02 X16.533146 Y15.315218 Z-1.000000 I0.254757 J2.645010
G03 X16.286834 Y15.395529 Z-1.000000 I-3.251369 J-9.554078
G03 X16.265043 Y15.398848 Z-1.000000 I-0.021791 J-0.069862
G01 X16.253149 Y15.388397 Z-1.000000
G03 X16.242703 Y15.226620 Z-1.000000 I1.247447 J-0.161777
G01 X16.242703 Y15.054393 Z-1.000000
G01 X16.387066 Y15.018403 Z-1.000000
G03 X16.533126 Y14.994116 Z-1.000000 I0.225244 J0.903250
G03 X17.095132 Y14.957943 Z-1.000000 I1.146746 J13.432690
G02 X18.054925 Y14.901621 Z-1.000000 I-1.366244 J-31.488754
G02 X18.607506 Y14.846030 Z-1.000000 I-0.776365 J-10.491251
G02 X18.813722 Y14.819643 Z-1.000000 I-20.486038 J-160.920036
G02 X19.569926 Y14.722268 Z-1.000000 I-307.899525 J-2394.113721
G03 X21.038928 Y14.556945 Z-1.000000 I5.849686 J45.369172
G03 X21.957941 Y14.492527 Z-1.000000 I1.701389 J17.684888
G02 X23.499007 Y14.371939 Z-1.000000 I-1.000044 J-22.687480
G02 X24.162043 Y14.244336 Z-1.000000 I-0.484827 J-4.305616
G02 X25.159809 Y13.895177 Z-1.000000 I-2.045678 J-7.445990
G02 X25.425977 Y13.702303 Z-1.000000 I-0.294268 J-0.686186
G02 X25.655070 Y13.359129 Z-1.000000 I-1.166363 J-1.026685
G02 X25.746867 Y13.047179 Z-1.000000 I-0.866717 J-0.424528
G02 X25.747363 Y12.661126 Z-1.000000 I-1.661954 J-0.195162
G02 X25.680927 Y12.473172 Z-1.000000 I-0.442997 J0.050867
G03 X25.666006 Y12.440985 Z-1.000000 I0.114535 J-0.072649
G03 X25.619447 Y12.276505 Z-1.000000 I3.012268 J-0.941499
G01 X25.577197 Y12.110165 Z-1.000000
G01 X25.962648 Y12.229988 Z-1.000000
G03 X27.424610 Y12.745480 Z-1.000000 I-6.121072 J19.690546
G03 X27.962284 Y13.020772 Z-1.000000 I-1.151382 J2.911475
G03 X28.373227 Y13.344581 Z-1.000000 I-1.449152 J2.261772
G03 X28.424177 Y13.464105 Z-1.000000 I-0.114721 J0.119524
G03 X28.409303 Y13.517792 Z-1.000000 I-0.104330 J0.000000
G03 X28.354937 Y13.579476 Z-1.000000 I-0.194866 J-0.116950
G01 X28.354944 Y13.579508 Z-1.000000
G00 Z0.000000

(End cutting path id: path3277)


(Start cutting path id: path3277)
(Change tool to Cone cutter)

G00 Z0.000000
G00 X28.354944 Y13.579508

G01 Z-1.000000 F100.0(Penetrate)
G03 X28.239090 Y13.640363 Z-1.000000 I-0.222400 J-0.282692 F400.000000
G03 X27.420517 Y13.869313 Z-1.000000 I-4.496351 J-14.498133
G03 X26.268847 Y14.108019 Z-1.000000 I-3.535073 J-14.157899
G03 X23.570843 Y14.506628 Z-1.000000 I-12.812711 J-77.393356
G02 X21.924657 Y14.740723 Z-1.000000 I8.962170 J68.928388
G02 X21.164794 Y14.878190 Z-1.000000 I2.288040 J14.816182
G03 X20.108783 Y15.036208 Z-1.000000 I-1.932506 J-9.307037
G03 X18.717498 Y15.104817 Z-1.000000 I-1.491689 J-16.108382
G02 X17.134380 Y15.185811 Z-1.000000 I0.109703 J17.656682
G02 X16.533146 Y15.315218 Z-1.000000 I0.254757 J2.645010
G03 X16.286834 Y15.395529 Z-1.000000 I-3.251369 J-9.554078
G03 X16.265043 Y15.398848 Z-1.000000 I-0.021791 J-0.069862
G01 X16.253149 Y15.388397 Z-1.000000
G03 X16.242703 Y15.226620 Z-1.000000 I1.247447 J-0.161777
G01 X16.242703 Y15.054393 Z-1.000000
G01 X16.387066 Y15.018403 Z-1.000000
G03 X16.533126 Y14.994116 Z-1.000000 I0.225244 J0.903250
G03 X17.095132 Y14.957943 Z-1.000000 I1.146746 J13.432690
G02 X18.054925 Y14.901621 Z-1.000000 I-1.366244 J-31.488754
G02 X18.607506 Y14.846030 Z-1.000000 I-0.776365 J-10.491251
G02 X18.813722 Y14.819643 Z-1.000000 I-20.486038 J-160.920036
G02 X19.569926 Y14.722268 Z-1.000000 I-307.899525 J-2394.113721
G03 X21.038928 Y14.556945 Z-1.000000 I5.849686 J45.369172
G03 X21.957941 Y14.492527 Z-1.000000 I1.701389 J17.684888
G02 X23.499007 Y14.371939 Z-1.000000 I-1.000044 J-22.687480
G02 X24.162043 Y14.244336 Z-1.000000 I-0.484827 J-4.305616
G02 X25.159809 Y13.895177 Z-1.000000 I-2.045678 J-7.445990
G02 X25.425977 Y13.702303 Z-1.000000 I-0.294268 J-0.686186
G02 X25.655070 Y13.359129 Z-1.000000 I-1.166363 J-1.026685
G02 X25.746867 Y13.047179 Z-1.000000 I-0.866717 J-0.424528
G02 X25.747363 Y12.661126 Z-1.000000 I-1.661954 J-0.195162
G02 X25.680927 Y12.473172 Z-1.000000 I-0.442997 J0.050867
G03 X25.666006 Y12.440985 Z-1.000000 I0.114535 J-0.072649
G03 X25.619447 Y12.276505 Z-1.000000 I3.012268 J-0.941499
G01 X25.577197 Y12.110165 Z-1.000000
G01 X25.962648 Y12.229988 Z-1.000000
G03 X27.424610 Y12.745480 Z-1.000000 I-6.121072 J19.690546
G03 X27.962284 Y13.020772 Z-1.000000 I-1.151382 J2.911475
G03 X28.373227 Y13.344581 Z-1.000000 I-1.449152 J2.261772
G03 X28.424177 Y13.464105 Z-1.000000 I-0.114721 J0.119524
G03 X28.409303 Y13.517792 Z-1.000000 I-0.104330 J0.000000
G03 X28.354937 Y13.579476 Z-1.000000 I-0.194866 J-0.116950
G01 X28.354944 Y13.579508 Z-1.000000
G00 Z0.000000

(End cutting path id: path3277)


(Start cutting path id: path3277)
(Change tool to Cone cutter)

G00 Z0.000000
G00 X25.618716 Y13.093249

G01 Z-1.000000 F100.0(Penetrate)
G03 X25.454680 Y13.441970 Z-1.000000 I-1.105408 J-0.307035 F400.000000
G03 X25.208031 Y13.682811 Z-1.000000 I-0.753294 J-0.524741
G03 X24.702638 Y13.915151 Z-1.000000 I-1.002587 J-1.515016
G03 X23.483055 Y14.173637 Z-1.000000 I-2.497509 J-8.777329
G03 X23.072814 Y14.219238 Z-1.000000 I-0.969905 J-6.857456
G03 X22.278450 Y14.271307 Z-1.000000 I-2.082866 J-25.690692
G02 X21.200139 Y14.341263 Z-1.000000 I1.825855 J36.489425
G02 X20.546094 Y14.409449 Z-1.000000 I1.075506 J13.487296
G02 X19.555441 Y14.539296 Z-1.000000 I29.604943 J229.711788
G02 X19.198706 Y14.589014 Z-1.000000 I3.970250 J29.791796
G03 X17.340233 Y14.832178 Z-1.000000 I-9.391395 J-64.553671
G03 X16.985141 Y14.846351 Z-1.000000 I-0.270805 J-2.329412
G01 X16.984777 Y14.840346 Z-1.000000
G03 X17.576342 Y14.752011 Z-1.000000 I4.754628 J29.816021
G02 X20.987653 Y14.193942 Z-1.000000 I-9.998242 J-71.821474
G02 X21.524466 Y14.009097 Z-1.000000 I-0.361752 J-1.922484
G02 X21.954313 Y13.624022 Z-1.000000 I-0.528975 J-1.022927
G02 X22.401759 Y12.690346 Z-1.000000 I-3.086057 J-2.052987
G02 X22.464816 Y12.288273 Z-1.000000 I-1.287683 J-0.407929
G02 X22.406159 Y11.683801 Z-1.000000 I-3.009452 J-0.013048
G02 X22.258411 Y11.172509 Z-1.000000 I-3.132937 J0.628329
G01 X22.203926 Y11.154074 Z-1.000000
G01 X22.193265 Y11.153216 Z-1.000000
G01 X22.191786 Y11.143544 Z-1.000000
G01 X22.242373 Y11.124023 Z-1.000000
G03 X23.048010 Y11.390257 Z-1.000000 I-3.042728 J10.559494
G02 X24.045471 Y11.720537 Z-1.000000 I4.838889 J-12.942321
G02 X24.684712 Y11.863961 Z-1.000000 I1.493438 J-5.160010
G03 X25.170432 Y11.964615 Z-1.000000 I-0.883417 J5.485338
G03 X25.371252 Y12.038519 Z-1.000000 I-0.254851 J1.002306
G03 X25.446753 Y12.102025 Z-1.000000 I-0.090301 J0.183993
G03 X25.505224 Y12.222883 Z-1.000000 I-0.307017 J0.223106
G02 X25.544443 Y12.360155 Z-1.000000 I12.622195 J-3.531944
G02 X25.593434 Y12.525358 Z-1.000000 I18.156267 J-5.294398
G03 X25.647339 Y12.841821 Z-1.000000 I-1.240940 J0.374201
G03 X25.618754 Y13.093253 Z-1.000000 I-0.804526 J0.035874
G01 X25.618716 Y13.093249 Z-1.000000
G00 Z0.000000

(End cutting path id: path3277)


(Start cutting path id: path3277)
(Change tool to Cone cutter)

G00 Z0.000000
G00 X25.618716 Y13.093249

G01 Z-1.000000 F100.0(Penetrate)
G03 X25.454680 Y13.441970 Z-1.000000 I-1.105408 J-0.307035 F400.000000
G03 X25.208031 Y13.682811 Z-1.000000 I-0.753294 J-0.524741
G03 X24.702638 Y13.915151 Z-1.000000 I-1.002587 J-1.515016
G03 X23.483055 Y14.173637 Z-1.000000 I-2.497509 J-8.777329
G03 X23.072814 Y14.219238 Z-1.000000 I-0.969905 J-6.857456
G03 X22.278450 Y14.271307 Z-1.000000 I-2.082866 J-25.690692
G02 X21.200139 Y14.341263 Z-1.000000 I1.825855 J36.489425
G02 X20.546094 Y14.409449 Z-1.000000 I1.075506 J13.487296
G02 X19.555441 Y14.539296 Z-1.000000 I29.604943 J229.711788
G02 X19.198706 Y14.589014 Z-1.000000 I3.970250 J29.791796
G03 X17.340233 Y14.832178 Z-1.000000 I-9.391395 J-64.553671
G03 X16.985141 Y14.846351 Z-1.000000 I-0.270805 J-2.329412
G01 X16.984777 Y14.840346 Z-1.000000
G03 X17.576342 Y14.752011 Z-1.000000 I4.754628 J29.816021
G02 X20.987653 Y14.193942 Z-1.000000 I-9.998242 J-71.821474
G02 X21.524466 Y14.009097 Z-1.000000 I-0.361752 J-1.922484
G02 X21.954313 Y13.624022 Z-1.000000 I-0.528975 J-1.022927
G02 X22.401759 Y12.690346 Z-1.000000 I-3.086057 J-2.052987
G02 X22.464816 Y12.288273 Z-1.000000 I-1.287683 J-0.407929
G02 X22.406159 Y11.683801 Z-1.000000 I-3.009452 J-0.013048
G02 X22.258411 Y11.172509 Z-1.000000 I-3.132937 J0.628329
G01 X22.203926 Y11.154074 Z-1.000000
G01 X22.193265 Y11.153216 Z-1.000000
G01 X22.191786 Y11.143544 Z-1.000000
G01 X22.242373 Y11.124023 Z-1.000000
G03 X23.048010 Y11.390257 Z-1.000000 I-3.042728 J10.559494
G02 X24.045471 Y11.720537 Z-1.000000 I4.838889 J-12.942321
G02 X24.684712 Y11.863961 Z-1.000000 I1.493438 J-5.160010
G03 X25.170432 Y11.964615 Z-1.000000 I-0.883417 J5.485338
G03 X25.371252 Y12.038519 Z-1.000000 I-0.254851 J1.002306
G03 X25.446753 Y12.102025 Z-1.000000 I-0.090301 J0.183993
G03 X25.505224 Y12.222883 Z-1.000000 I-0.307017 J0.223106
G02 X25.544443 Y12.360155 Z-1.000000 I12.622195 J-3.531944
G02 X25.593434 Y12.525358 Z-1.000000 I18.156267 J-5.294398
G03 X25.647339 Y12.841821 Z-1.000000 I-1.240940 J0.374201
G03 X25.618754 Y13.093253 Z-1.000000 I-0.804526 J0.035874
G01 X25.618716 Y13.093249 Z-1.000000
G00 Z0.000000

(End cutting path id: path3277)


(Start cutting path id: path3277)
(Change tool to Cone cutter)

G00 Z0.000000
G00 X25.657806 Y12.614149

G01 Z-1.000000 F100.0(Penetrate)
G01 X25.649759 Y12.595827 Z-1.000000 F400.000000
G03 X25.655606 Y12.561449 Z-1.000000 I0.083280 J-0.003522
G01 X25.664168 Y12.559698 Z-1.000000
G01 X25.672216 Y12.578059 Z-1.000000
G03 X25.666335 Y12.612393 Z-1.000000 I-0.083085 J0.003439
G01 X25.657776 Y12.614149 Z-1.000000
G01 X25.657806 Y12.614149 Z-1.000000
G00 Z0.000000

(End cutting path id: path3277)


(Start cutting path id: path3277)
(Change tool to Cone cutter)

G00 Z0.000000
G00 X25.657806 Y12.614149

G01 Z-1.000000 F100.0(Penetrate)
G01 X25.649759 Y12.595827 Z-1.000000 F400.000000
G03 X25.655606 Y12.561449 Z-1.000000 I0.083280 J-0.003522
G01 X25.664168 Y12.559698 Z-1.000000
G01 X25.672216 Y12.578059 Z-1.000000
G03 X25.666335 Y12.612393 Z-1.000000 I-0.083085 J0.003439
G01 X25.657776 Y12.614149 Z-1.000000
G01 X25.657806 Y12.614149 Z-1.000000
G00 Z0.000000

(End cutting path id: path3277)


(Start cutting path id: path3277)
(Change tool to Cone cutter)

G00 Z0.000000
G00 X25.575306 Y12.339172

G01 Z-1.000000 F100.0(Penetrate)
G01 X25.567259 Y12.320850 Z-1.000000 F400.000000
G03 X25.573106 Y12.286472 Z-1.000000 I0.083280 J-0.003522
G01 X25.581668 Y12.284721 Z-1.000000
G01 X25.589716 Y12.303082 Z-1.000000
G03 X25.583835 Y12.337416 Z-1.000000 I-0.083085 J0.003439
G01 X25.575276 Y12.339172 Z-1.000000
G01 X25.575306 Y12.339172 Z-1.000000
G00 Z0.000000

(End cutting path id: path3277)


(Start cutting path id: path3277)
(Change tool to Cone cutter)

G00 Z0.000000
G00 X25.575306 Y12.339172

G01 Z-1.000000 F100.0(Penetrate)
G01 X25.567259 Y12.320850 Z-1.000000 F400.000000
G03 X25.573106 Y12.286472 Z-1.000000 I0.083280 J-0.003522
G01 X25.581668 Y12.284721 Z-1.000000
G01 X25.589716 Y12.303082 Z-1.000000
G03 X25.583835 Y12.337416 Z-1.000000 I-0.083085 J0.003439
G01 X25.575276 Y12.339172 Z-1.000000
G01 X25.575306 Y12.339172 Z-1.000000
G00 Z0.000000

(End cutting path id: path3277)


(Start cutting path id: path3277)
(Change tool to Cone cutter)

G00 Z0.000000
G00 X24.602007 Y14.020650

G01 Z-1.000000 F100.0(Penetrate)
G01 X24.599705 Y14.012975 Z-1.000000 F400.000000
G03 X24.657007 Y13.982740 Z-1.000000 I0.156404 J0.227003
G03 X24.723058 Y13.970955 Z-1.000000 I0.063494 J0.164869
G01 X24.725747 Y13.983733 Z-1.000000
G03 X24.641956 Y14.015243 Z-1.000000 I-0.267257 J-0.583514
G03 X24.602007 Y14.020653 Z-1.000000 I-0.037250 J-0.124871
G01 X24.602007 Y14.020650 Z-1.000000
G00 Z0.000000

(End cutting path id: path3277)


(Start cutting path id: path3277)
(Change tool to Cone cutter)

G00 Z0.000000
G00 X24.602007 Y14.020650

G01 Z-1.000000 F100.0(Penetrate)
G01 X24.599705 Y14.012975 Z-1.000000 F400.000000
G03 X24.657007 Y13.982740 Z-1.000000 I0.156404 J0.227003
G03 X24.723058 Y13.970955 Z-1.000000 I0.063494 J0.164869
G01 X24.725747 Y13.983733 Z-1.000000
G03 X24.641956 Y14.015243 Z-1.000000 I-0.267257 J-0.583514
G03 X24.602007 Y14.020653 Z-1.000000 I-0.037250 J-0.124871
G01 X24.602007 Y14.020650 Z-1.000000
G00 Z0.000000

(End cutting path id: path3277)


(Start cutting path id: path3277)
(Change tool to Cone cutter)

G00 Z0.000000
G00 X24.085181 Y14.176437

G01 Z-1.000000 F100.0(Penetrate)
G03 X23.489684 Y14.296371 Z-1.000000 I-1.152196 J-4.182534 F400.000000
G03 X22.512181 Y14.379968 Z-1.000000 I-1.452080 J-11.222456
G02 X21.838508 Y14.408702 Z-1.000000 I20.624564 J491.449007
G02 X21.536013 Y14.422258 Z-1.000000 I4.461255 J102.935955
G03 X21.262169 Y14.429680 Z-1.000000 I-0.330598 J-7.142680
G01 X21.261036 Y14.424358 Z-1.000000
G03 X21.289668 Y14.417330 Z-1.000000 I0.035381 J0.082302
G03 X21.989725 Y14.369348 Z-1.000000 I3.787712 J50.132079
G02 X22.690909 Y14.326100 Z-1.000000 I-147.516720 J-2397.401116
G02 X22.924647 Y14.311538 Z-1.000000 I-15.256798 J-246.773146
G02 X23.536193 Y14.247458 Z-1.000000 I-0.461232 J-7.351989
G02 X24.049244 Y14.145989 Z-1.000000 I-0.775801 J-5.270393
G03 X24.423456 Y14.053515 Z-1.000000 I22.403628 J89.856937
G03 X24.492016 Y14.037554 Z-1.000000 I0.731268 J2.985876
G01 X24.560756 Y14.022374 Z-1.000000
G01 X24.492016 Y14.052804 Z-1.000000
G03 X24.421731 Y14.078927 Z-1.000000 I-0.249167 J-0.562783
G03 X24.085181 Y14.176376 Z-1.000000 I-3.901609 J-12.844700
G01 X24.085181 Y14.176437 Z-1.000000
G00 Z0.000000

(End cutting path id: path3277)


(Start cutting path id: path3277)
(Change tool to Cone cutter)

G00 Z0.000000
G00 X24.085181 Y14.176437

G01 Z-1.000000 F100.0(Penetrate)
G03 X23.489684 Y14.296371 Z-1.000000 I-1.152196 J-4.182534 F400.000000
G03 X22.512181 Y14.379968 Z-1.000000 I-1.452080 J-11.222456
G02 X21.838508 Y14.408702 Z-1.000000 I20.624564 J491.449007
G02 X21.536013 Y14.422258 Z-1.000000 I4.461255 J102.935955
G03 X21.262169 Y14.429680 Z-1.000000 I-0.330598 J-7.142680
G01 X21.261036 Y14.424358 Z-1.000000
G03 X21.289668 Y14.417330 Z-1.000000 I0.035381 J0.082302
G03 X21.989725 Y14.369348 Z-1.000000 I3.787712 J50.132079
G02 X22.690909 Y14.326100 Z-1.000000 I-147.516720 J-2397.401116
G02 X22.924647 Y14.311538 Z-1.000000 I-15.256798 J-246.773146
G02 X23.536193 Y14.247458 Z-1.000000 I-0.461232 J-7.351989
G02 X24.049244 Y14.145989 Z-1.000000 I-0.775801 J-5.270393
G03 X24.423456 Y14.053515 Z-1.000000 I22.403628 J89.856937
G03 X24.492016 Y14.037554 Z-1.000000 I0.731268 J2.985876
G01 X24.560756 Y14.022374 Z-1.000000
G01 X24.492016 Y14.052804 Z-1.000000
G03 X24.421731 Y14.078927 Z-1.000000 I-0.249167 J-0.562783
G03 X24.085181 Y14.176376 Z-1.000000 I-3.901609 J-12.844700
G01 X24.085181 Y14.176437 Z-1.000000
G00 Z0.000000

(End cutting path id: path3277)


(Start cutting path id: path3277)
(Change tool to Cone cutter)

G00 Z0.000000
G00 X23.427003 Y14.620489

G01 Z-1.000000 F100.0(Penetrate)
G01 X23.426567 Y14.613683 Z-1.000000 F400.000000
G03 X23.460853 Y14.606799 Z-1.000000 I0.035454 J0.087759
G03 X23.509051 Y14.612658 Z-1.000000 I0.002258 J0.182593
G01 X23.509503 Y14.619479 Z-1.000000
G03 X23.475217 Y14.626359 Z-1.000000 I-0.035539 J-0.088231
G03 X23.427013 Y14.620479 Z-1.000000 I-0.002384 J-0.180979
G01 X23.427003 Y14.620489 Z-1.000000
G00 Z0.000000

(End cutting path id: path3277)


(Start cutting path id: path3277)
(Change tool to Cone cutter)

G00 Z0.000000
G00 X23.427003 Y14.620489

G01 Z-1.000000 F100.0(Penetrate)
G01 X23.426567 Y14.613683 Z-1.000000 F400.000000
G03 X23.460853 Y14.606799 Z-1.000000 I0.035454 J0.087759
G03 X23.509051 Y14.612658 Z-1.000000 I0.002258 J0.182593
G01 X23.509503 Y14.619479 Z-1.000000
G03 X23.475217 Y14.626359 Z-1.000000 I-0.035539 J-0.088231
G03 X23.427013 Y14.620479 Z-1.000000 I-0.002384 J-0.180979
G01 X23.427003 Y14.620489 Z-1.000000
G00 Z0.000000

(End cutting path id: path3277)


(Start cutting path id: path3277)
(Change tool to Cone cutter)

G00 Z0.000000
G00 X23.207022 Y14.647989

G01 Z-1.000000 F100.0(Penetrate)
G01 X23.206584 Y14.641179 Z-1.000000 F400.000000
G03 X23.240872 Y14.634289 Z-1.000000 I0.035455 J0.087679
G03 X23.289060 Y14.640148 Z-1.000000 I0.002257 J0.182536
G01 X23.289512 Y14.646969 Z-1.000000
G03 X23.255226 Y14.653849 Z-1.000000 I-0.035539 J-0.088231
G03 X23.207022 Y14.647969 Z-1.000000 I-0.002384 J-0.180979
G01 X23.207022 Y14.647989 Z-1.000000
G00 Z0.000000

(End cutting path id: path3277)


(Start cutting path id: path3277)
(Change tool to Cone cutter)

G00 Z0.000000
G00 X23.207022 Y14.647989

G01 Z-1.000000 F100.0(Penetrate)
G01 X23.206584 Y14.641179 Z-1.000000 F400.000000
G03 X23.240872 Y14.634289 Z-1.000000 I0.035455 J0.087679
G03 X23.289060 Y14.640148 Z-1.000000 I0.002257 J0.182536
G01 X23.289512 Y14.646969 Z-1.000000
G03 X23.255226 Y14.653849 Z-1.000000 I-0.035539 J-0.088231
G03 X23.207022 Y14.647969 Z-1.000000 I-0.002384 J-0.180979
G01 X23.207022 Y14.647989 Z-1.000000
G00 Z0.000000

(End cutting path id: path3277)


(Start cutting path id: path3277)
(Change tool to Cone cutter)

G00 Z0.000000
G00 X23.014538 Y14.675489

G01 Z-1.000000 F100.0(Penetrate)
G01 X23.014100 Y14.668678 Z-1.000000 F400.000000
G03 X23.048388 Y14.661789 Z-1.000000 I0.035455 J0.087692
G03 X23.096576 Y14.667648 Z-1.000000 I0.002257 J0.182536
G01 X23.097028 Y14.674469 Z-1.000000
G03 X23.062742 Y14.681349 Z-1.000000 I-0.035539 J-0.088231
G03 X23.014538 Y14.675469 Z-1.000000 I-0.002384 J-0.180979
G01 X23.014538 Y14.675489 Z-1.000000
G00 Z0.000000

(End cutting path id: path3277)


(Start cutting path id: path3277)
(Change tool to Cone cutter)

G00 Z0.000000
G00 X23.014538 Y14.675489

G01 Z-1.000000 F100.0(Penetrate)
G01 X23.014100 Y14.668678 Z-1.000000 F400.000000
G03 X23.048388 Y14.661789 Z-1.000000 I0.035455 J0.087692
G03 X23.096576 Y14.667648 Z-1.000000 I0.002257 J0.182536
G01 X23.097028 Y14.674469 Z-1.000000
G03 X23.062742 Y14.681349 Z-1.000000 I-0.035539 J-0.088231
G03 X23.014538 Y14.675469 Z-1.000000 I-0.002384 J-0.180979
G01 X23.014538 Y14.675489 Z-1.000000
G00 Z0.000000

(End cutting path id: path3277)


(Start cutting path id: path3277)
(Change tool to Cone cutter)

G00 Z0.000000
G00 X22.794556 Y14.702989

G01 Z-1.000000 F100.0(Penetrate)
G01 X22.794119 Y14.696181 Z-1.000000 F400.000000
G03 X22.828406 Y14.689289 Z-1.000000 I0.035476 J0.087764
G03 X22.876594 Y14.695148 Z-1.000000 I0.002257 J0.182536
G01 X22.877046 Y14.701969 Z-1.000000
G03 X22.842760 Y14.708849 Z-1.000000 I-0.035539 J-0.088231
G03 X22.794556 Y14.702969 Z-1.000000 I-0.002384 J-0.180979
G01 X22.794556 Y14.702989 Z-1.000000
G00 Z0.000000

(End cutting path id: path3277)


(Start cutting path id: path3277)
(Change tool to Cone cutter)

G00 Z0.000000
G00 X22.794556 Y14.702989

G01 Z-1.000000 F100.0(Penetrate)
G01 X22.794119 Y14.696181 Z-1.000000 F400.000000
G03 X22.828406 Y14.689289 Z-1.000000 I0.035476 J0.087764
G03 X22.876594 Y14.695148 Z-1.000000 I0.002257 J0.182536
G01 X22.877046 Y14.701969 Z-1.000000
G03 X22.842760 Y14.708849 Z-1.000000 I-0.035539 J-0.088231
G03 X22.794556 Y14.702969 Z-1.000000 I-0.002384 J-0.180979
G01 X22.794556 Y14.702989 Z-1.000000
G00 Z0.000000

(End cutting path id: path3277)


(Start cutting path id: path3277)
(Change tool to Cone cutter)

G00 Z0.000000
G00 X22.602072 Y14.730489

G01 Z-1.000000 F100.0(Penetrate)
G01 X22.601635 Y14.723681 Z-1.000000 F400.000000
G03 X22.635922 Y14.716789 Z-1.000000 I0.035476 J0.087764
G03 X22.684110 Y14.722648 Z-1.000000 I0.002257 J0.182536
G01 X22.684562 Y14.729469 Z-1.000000
G03 X22.650276 Y14.736349 Z-1.000000 I-0.035539 J-0.088231
G03 X22.602072 Y14.730469 Z-1.000000 I-0.002384 J-0.180979
G01 X22.602072 Y14.730489 Z-1.000000
G00 Z0.000000

(End cutting path id: path3277)


(Start cutting path id: path3277)
(Change tool to Cone cutter)

G00 Z0.000000
G00 X22.602072 Y14.730489

G01 Z-1.000000 F100.0(Penetrate)
G01 X22.601635 Y14.723681 Z-1.000000 F400.000000
G03 X22.635922 Y14.716789 Z-1.000000 I0.035476 J0.087764
G03 X22.684110 Y14.722648 Z-1.000000 I0.002257 J0.182536
G01 X22.684562 Y14.729469 Z-1.000000
G03 X22.650276 Y14.736349 Z-1.000000 I-0.035539 J-0.088231
G03 X22.602072 Y14.730469 Z-1.000000 I-0.002384 J-0.180979
G01 X22.602072 Y14.730489 Z-1.000000
G00 Z0.000000

(End cutting path id: path3277)


(Start cutting path id: path3277)
(Change tool to Cone cutter)

G00 Z0.000000
G00 X22.395316 Y14.757133

G01 Z-1.000000 F100.0(Penetrate)
G01 X22.395310 Y14.749941 Z-1.000000 F400.000000
G03 X22.429686 Y14.743263 Z-1.000000 I0.034376 J0.085141
G03 X22.464047 Y14.749923 Z-1.000000 I-0.000000 J0.091975
G01 X22.464056 Y14.757133 Z-1.000000
G03 X22.429686 Y14.763785 Z-1.000000 I-0.034370 J-0.085473
G03 X22.395316 Y14.757133 Z-1.000000 I-0.000000 J-0.092124
G01 X22.395316 Y14.757133 Z-1.000000
G00 Z0.000000

(End cutting path id: path3277)


(Start cutting path id: path3277)
(Change tool to Cone cutter)

G00 Z0.000000
G00 X22.395316 Y14.757133

G01 Z-1.000000 F100.0(Penetrate)
G01 X22.395310 Y14.749941 Z-1.000000 F400.000000
G03 X22.429686 Y14.743263 Z-1.000000 I0.034376 J0.085141
G03 X22.464047 Y14.749923 Z-1.000000 I-0.000000 J0.091975
G01 X22.464056 Y14.757133 Z-1.000000
G03 X22.429686 Y14.763785 Z-1.000000 I-0.034370 J-0.085473
G03 X22.395316 Y14.757133 Z-1.000000 I-0.000000 J-0.092124
G01 X22.395316 Y14.757133 Z-1.000000
G00 Z0.000000

(End cutting path id: path3277)


(Start cutting path id: path3277)
(Change tool to Cone cutter)

G00 Z0.000000
G00 X22.202867 Y14.784631

G01 Z-1.000000 F100.0(Penetrate)
G01 X22.202861 Y14.777439 Z-1.000000 F400.000000
G03 X22.237237 Y14.770761 Z-1.000000 I0.034376 J0.085141
G03 X22.271598 Y14.777421 Z-1.000000 I-0.000000 J0.091975
G01 X22.271607 Y14.784631 Z-1.000000
G03 X22.237237 Y14.791283 Z-1.000000 I-0.034370 J-0.085473
G03 X22.202867 Y14.784631 Z-1.000000 I0.000000 J-0.092124
G01 X22.202867 Y14.784631 Z-1.000000
G00 Z0.000000

(End cutting path id: path3277)


(Start cutting path id: path3277)
(Change tool to Cone cutter)

G00 Z0.000000
G00 X22.202867 Y14.784631

G01 Z-1.000000 F100.0(Penetrate)
G01 X22.202861 Y14.777439 Z-1.000000 F400.000000
G03 X22.237237 Y14.770761 Z-1.000000 I0.034376 J0.085141
G03 X22.271598 Y14.777421 Z-1.000000 I-0.000000 J0.091975
G01 X22.271607 Y14.784631 Z-1.000000
G03 X22.237237 Y14.791283 Z-1.000000 I-0.034370 J-0.085473
G03 X22.202867 Y14.784631 Z-1.000000 I0.000000 J-0.092124
G01 X22.202867 Y14.784631 Z-1.000000
G00 Z0.000000

(End cutting path id: path3277)


(Start cutting path id: path3277)
(Change tool to Cone cutter)

G00 Z0.000000
G00 X22.012102 Y14.812702

G01 Z-1.000000 F100.0(Penetrate)
G01 X22.010351 Y14.804140 Z-1.000000 F400.000000
G01 X22.028712 Y14.796092 Z-1.000000
G03 X22.063046 Y14.801973 Z-1.000000 I0.003439 J0.083085
G01 X22.064802 Y14.810532 Z-1.000000
G01 X22.046480 Y14.818579 Z-1.000000
G03 X22.012102 Y14.812732 Z-1.000000 I-0.003522 J-0.083280
G01 X22.012102 Y14.812702 Z-1.000000
G00 Z0.000000

(End cutting path id: path3277)


(Start cutting path id: path3277)
(Change tool to Cone cutter)

G00 Z0.000000
G00 X22.012102 Y14.812702

G01 Z-1.000000 F100.0(Penetrate)
G01 X22.010351 Y14.804140 Z-1.000000 F400.000000
G01 X22.028712 Y14.796092 Z-1.000000
G03 X22.063046 Y14.801973 Z-1.000000 I0.003439 J0.083085
G01 X22.064802 Y14.810532 Z-1.000000
G01 X22.046480 Y14.818579 Z-1.000000
G03 X22.012102 Y14.812732 Z-1.000000 I-0.003522 J-0.083280
G01 X22.012102 Y14.812702 Z-1.000000
G00 Z0.000000

(End cutting path id: path3277)


(Start cutting path id: path3277)
(Change tool to Cone cutter)

G00 Z0.000000
G00 X21.489647 Y14.895195

G01 Z-1.000000 F100.0(Penetrate)
G01 X21.487896 Y14.886635 Z-1.000000 F400.000000
G01 X21.506257 Y14.878585 Z-1.000000
G03 X21.540591 Y14.884466 Z-1.000000 I0.003439 J0.083085
G01 X21.542347 Y14.893025 Z-1.000000
G01 X21.524025 Y14.901072 Z-1.000000
G03 X21.489647 Y14.895225 Z-1.000000 I-0.003522 J-0.083280
G01 X21.489647 Y14.895195 Z-1.000000
G00 Z0.000000

(End cutting path id: path3277)


(Start cutting path id: path3277)
(Change tool to Cone cutter)

G00 Z0.000000
G00 X21.489647 Y14.895195

G01 Z-1.000000 F100.0(Penetrate)
G01 X21.487896 Y14.886635 Z-1.000000 F400.000000
G01 X21.506257 Y14.878585 Z-1.000000
G03 X21.540591 Y14.884466 Z-1.000000 I0.003439 J0.083085
G01 X21.542347 Y14.893025 Z-1.000000
G01 X21.524025 Y14.901072 Z-1.000000
G03 X21.489647 Y14.895225 Z-1.000000 I-0.003522 J-0.083280
G01 X21.489647 Y14.895195 Z-1.000000
G00 Z0.000000

(End cutting path id: path3277)


(Start cutting path id: path3277)
(Change tool to Cone cutter)

G00 Z0.000000
G00 X20.696932 Y15.494839

G01 Z-1.000000 F100.0(Penetrate)
G01 X20.670758 Y15.495913 Z-1.000000 F400.000000
G02 X20.462198 Y15.668128 Z-1.000000 I1.479357 J2.003964
G03 X20.127596 Y15.912169 Z-1.000000 I-1.229443 J-1.334271
G03 X19.748095 Y16.072996 Z-1.000000 I-0.886340 J-1.563318
G03 X19.499388 Y16.126370 Z-1.000000 I-0.481836 J-1.639065
G03 X19.336233 Y16.129726 Z-1.000000 I-0.095936 J-0.696464
G02 X19.171230 Y16.114114 Z-1.000000 I-6.337895 J66.103510
G02 X18.566297 Y16.057876 Z-1.000000 I-72.069841 J771.955487
G03 X16.466149 Y15.833260 Z-1.000000 I6.837826 J-73.863798
G03 X16.070087 Y15.754899 Z-1.000000 I0.326602 J-2.690841
G03 X16.029960 Y15.702194 Z-1.000000 I0.014587 J-0.052733
G03 X16.070032 Y15.644058 Z-1.000000 I0.062162 J-0.000032
G03 X16.136754 Y15.634411 Z-1.000000 I0.054950 J0.144493
G03 X16.182500 Y15.652658 Z-1.000000 I-0.006278 J0.082207
G01 X16.200741 Y15.653159 Z-1.000000
G01 X16.206020 Y15.635608 Z-1.000000
G01 X16.212333 Y15.619525 Z-1.000000
G01 X16.233520 Y15.621858 Z-1.000000
G01 X16.257522 Y15.628060 Z-1.000000
G01 X16.264190 Y15.616358 Z-1.000000
G01 X16.275954 Y15.586879 Z-1.000000
G03 X16.499646 Y15.501601 Z-1.000000 I0.588212 J1.206919
G03 X17.208797 Y15.375053 Z-1.000000 I0.995952 J3.530885
G03 X18.776054 Y15.323095 Z-1.000000 I1.359074 J17.331630
G03 X19.802180 Y15.355077 Z-1.000000 I-0.320679 J26.765918
G03 X20.229912 Y15.396345 Z-1.000000 I-0.235878 J4.682144
G03 X20.711111 Y15.479053 Z-1.000000 I-1.226689 J8.578112
G01 X20.724871 Y15.495855 Z-1.000000
G01 X20.718999 Y15.501531 Z-1.000000
G01 X20.696941 Y15.494855 Z-1.000000
G01 X20.696932 Y15.494839 Z-1.000000
G00 Z0.000000

(End cutting path id: path3277)


(Start cutting path id: path3277)
(Change tool to Cone cutter)

G00 Z0.000000
G00 X20.696932 Y15.494839

G01 Z-1.000000 F100.0(Penetrate)
G01 X20.670758 Y15.495913 Z-1.000000 F400.000000
G02 X20.462198 Y15.668128 Z-1.000000 I1.479357 J2.003964
G03 X20.127596 Y15.912169 Z-1.000000 I-1.229443 J-1.334271
G03 X19.748095 Y16.072996 Z-1.000000 I-0.886340 J-1.563318
G03 X19.499388 Y16.126370 Z-1.000000 I-0.481836 J-1.639065
G03 X19.336233 Y16.129726 Z-1.000000 I-0.095936 J-0.696464
G02 X19.171230 Y16.114114 Z-1.000000 I-6.337895 J66.103510
G02 X18.566297 Y16.057876 Z-1.000000 I-72.069841 J771.955487
G03 X16.466149 Y15.833260 Z-1.000000 I6.837826 J-73.863798
G03 X16.070087 Y15.754899 Z-1.000000 I0.326602 J-2.690841
G03 X16.029960 Y15.702194 Z-1.000000 I0.014587 J-0.052733
G03 X16.070032 Y15.644058 Z-1.000000 I0.062162 J-0.000032
G03 X16.136754 Y15.634411 Z-1.000000 I0.054950 J0.144493
G03 X16.182500 Y15.652658 Z-1.000000 I-0.006278 J0.082207
G01 X16.200741 Y15.653159 Z-1.000000
G01 X16.206020 Y15.635608 Z-1.000000
G01 X16.212333 Y15.619525 Z-1.000000
G01 X16.233520 Y15.621858 Z-1.000000
G01 X16.257522 Y15.628060 Z-1.000000
G01 X16.264190 Y15.616358 Z-1.000000
G01 X16.275954 Y15.586879 Z-1.000000
G03 X16.499646 Y15.501601 Z-1.000000 I0.588212 J1.206919
G03 X17.208797 Y15.375053 Z-1.000000 I0.995952 J3.530885
G03 X18.776054 Y15.323095 Z-1.000000 I1.359074 J17.331630
G03 X19.802180 Y15.355077 Z-1.000000 I-0.320679 J26.765918
G03 X20.229912 Y15.396345 Z-1.000000 I-0.235878 J4.682144
G03 X20.711111 Y15.479053 Z-1.000000 I-1.226689 J8.578112
G01 X20.724871 Y15.495855 Z-1.000000
G01 X20.718999 Y15.501531 Z-1.000000
G01 X20.696941 Y15.494855 Z-1.000000
G01 X20.696932 Y15.494839 Z-1.000000
G00 Z0.000000

(End cutting path id: path3277)


(Start cutting path id: path3277)
(Change tool to Cone cutter)

G00 Z0.000000
G00 X20.114762 Y15.170172

G01 Z-1.000000 F100.0(Penetrate)
G01 X20.113011 Y15.161610 Z-1.000000 F400.000000
G01 X20.131372 Y15.153562 Z-1.000000
G03 X20.165706 Y15.159443 Z-1.000000 I0.003439 J0.083085
G01 X20.167462 Y15.168002 Z-1.000000
G01 X20.149140 Y15.176049 Z-1.000000
G03 X20.114762 Y15.170202 Z-1.000000 I-0.003522 J-0.083280
G01 X20.114762 Y15.170172 Z-1.000000
G00 Z0.000000

(End cutting path id: path3277)


(Start cutting path id: path3277)
(Change tool to Cone cutter)

G00 Z0.000000
G00 X20.114762 Y15.170172

G01 Z-1.000000 F100.0(Penetrate)
G01 X20.113011 Y15.161610 Z-1.000000 F400.000000
G01 X20.131372 Y15.153562 Z-1.000000
G03 X20.165706 Y15.159443 Z-1.000000 I0.003439 J0.083085
G01 X20.167462 Y15.168002 Z-1.000000
G01 X20.149140 Y15.176049 Z-1.000000
G03 X20.114762 Y15.170202 Z-1.000000 I-0.003522 J-0.083280
G01 X20.114762 Y15.170172 Z-1.000000
G00 Z0.000000

(End cutting path id: path3277)


(Start cutting path id: path3277)
(Change tool to Cone cutter)

G00 Z0.000000
G00 X20.357277 Y14.546248

G01 Z-1.000000 F100.0(Penetrate)
G03 X19.840706 Y14.597665 Z-1.000000 I-2.428975 J-21.782609 F400.000000
G01 X19.827027 Y14.592688 Z-1.000000
G01 X19.830106 Y14.583522 Z-1.000000
G03 X20.559844 Y14.491429 Z-1.000000 I4.275467 J30.941289
G03 X21.041251 Y14.442479 Z-1.000000 I2.208132 J19.324515
G03 X21.137296 Y14.439959 Z-1.000000 I0.068103 J0.764104
G01 X21.137772 Y14.449565 Z-1.000000
G03 X20.357277 Y14.546245 Z-1.000000 I-4.357335 J-31.977702
G01 X20.357277 Y14.546248 Z-1.000000
G00 Z0.000000

(End cutting path id: path3277)


(Start cutting path id: path3277)
(Change tool to Cone cutter)

G00 Z0.000000
G00 X20.357277 Y14.546248

G01 Z-1.000000 F100.0(Penetrate)
G03 X19.840706 Y14.597665 Z-1.000000 I-2.428975 J-21.782609 F400.000000
G01 X19.827027 Y14.592688 Z-1.000000
G01 X19.830106 Y14.583522 Z-1.000000
G03 X20.559844 Y14.491429 Z-1.000000 I4.275467 J30.941289
G03 X21.041251 Y14.442479 Z-1.000000 I2.208132 J19.324515
G03 X21.137296 Y14.439959 Z-1.000000 I0.068103 J0.764104
G01 X21.137772 Y14.449565 Z-1.000000
G03 X20.357277 Y14.546245 Z-1.000000 I-4.357335 J-31.977702
G01 X20.357277 Y14.546248 Z-1.000000
G00 Z0.000000

(End cutting path id: path3277)


(Start cutting path id: path3277)
(Change tool to Cone cutter)

G00 Z0.000000
G00 X19.632357 Y14.620489

G01 Z-1.000000 F100.0(Penetrate)
G01 X19.631921 Y14.613682 Z-1.000000 F400.000000
G03 X19.666207 Y14.606799 Z-1.000000 I0.035455 J0.087773
G03 X19.714405 Y14.612658 Z-1.000000 I0.002258 J0.182593
G01 X19.714857 Y14.619479 Z-1.000000
G03 X19.680571 Y14.626359 Z-1.000000 I-0.035539 J-0.088231
G03 X19.632367 Y14.620479 Z-1.000000 I-0.002384 J-0.180979
G01 X19.632357 Y14.620489 Z-1.000000
G00 Z0.000000

(End cutting path id: path3277)


(Start cutting path id: path3277)
(Change tool to Cone cutter)

G00 Z0.000000
G00 X19.632357 Y14.620489

G01 Z-1.000000 F100.0(Penetrate)
G01 X19.631921 Y14.613682 Z-1.000000 F400.000000
G03 X19.666207 Y14.606799 Z-1.000000 I0.035455 J0.087773
G03 X19.714405 Y14.612658 Z-1.000000 I0.002258 J0.182593
G01 X19.714857 Y14.619479 Z-1.000000
G03 X19.680571 Y14.626359 Z-1.000000 I-0.035539 J-0.088231
G03 X19.632367 Y14.620479 Z-1.000000 I-0.002384 J-0.180979
G01 X19.632357 Y14.620489 Z-1.000000
G00 Z0.000000

(End cutting path id: path3277)


(Start cutting path id: path3277)
(Change tool to Cone cutter)

G00 Z0.000000
G00 X19.439881 Y14.647987

G01 Z-1.000000 F100.0(Penetrate)
G01 X19.439443 Y14.641177 Z-1.000000 F400.000000
G03 X19.473731 Y14.634287 Z-1.000000 I0.035455 J0.087679
G03 X19.521919 Y14.640146 Z-1.000000 I0.002257 J0.182536
G01 X19.522371 Y14.646967 Z-1.000000
G03 X19.488085 Y14.653847 Z-1.000000 I-0.035539 J-0.088231
G03 X19.439881 Y14.647967 Z-1.000000 I-0.002384 J-0.180979
G01 X19.439881 Y14.647987 Z-1.000000
G00 Z0.000000

(End cutting path id: path3277)


(Start cutting path id: path3277)
(Change tool to Cone cutter)

G00 Z0.000000
G00 X19.439881 Y14.647987

G01 Z-1.000000 F100.0(Penetrate)
G01 X19.439443 Y14.641177 Z-1.000000 F400.000000
G03 X19.473731 Y14.634287 Z-1.000000 I0.035455 J0.087679
G03 X19.521919 Y14.640146 Z-1.000000 I0.002257 J0.182536
G01 X19.522371 Y14.646967 Z-1.000000
G03 X19.488085 Y14.653847 Z-1.000000 I-0.035539 J-0.088231
G03 X19.439881 Y14.647967 Z-1.000000 I-0.002384 J-0.180979
G01 X19.439881 Y14.647987 Z-1.000000
G00 Z0.000000

(End cutting path id: path3277)


(Start cutting path id: path3277)
(Change tool to Cone cutter)

G00 Z0.000000
G00 X19.233128 Y14.674640

G01 Z-1.000000 F100.0(Penetrate)
G01 X19.233122 Y14.667448 Z-1.000000 F400.000000
G03 X19.267498 Y14.660770 Z-1.000000 I0.034376 J0.085141
G03 X19.301859 Y14.667430 Z-1.000000 I-0.000000 J0.091975
G01 X19.301868 Y14.674640 Z-1.000000
G03 X19.267490 Y14.681290 Z-1.000000 I-0.034378 J-0.085539
G03 X19.233128 Y14.674640 Z-1.000000 I0.000000 J-0.092102
G01 X19.233128 Y14.674640 Z-1.000000
G00 Z0.000000

(End cutting path id: path3277)


(Start cutting path id: path3277)
(Change tool to Cone cutter)

G00 Z0.000000
G00 X19.233128 Y14.674640

G01 Z-1.000000 F100.0(Penetrate)
G01 X19.233122 Y14.667448 Z-1.000000 F400.000000
G03 X19.267498 Y14.660770 Z-1.000000 I0.034376 J0.085141
G03 X19.301859 Y14.667430 Z-1.000000 I-0.000000 J0.091975
G01 X19.301868 Y14.674640 Z-1.000000
G03 X19.267490 Y14.681290 Z-1.000000 I-0.034378 J-0.085539
G03 X19.233128 Y14.674640 Z-1.000000 I0.000000 J-0.092102
G01 X19.233128 Y14.674640 Z-1.000000
G00 Z0.000000

(End cutting path id: path3277)


(Start cutting path id: path3277)
(Change tool to Cone cutter)

G00 Z0.000000
G00 X19.040644 Y14.702138

G01 Z-1.000000 F100.0(Penetrate)
G01 X19.040638 Y14.694946 Z-1.000000 F400.000000
G03 X19.075014 Y14.688268 Z-1.000000 I0.034376 J0.085141
G03 X19.109375 Y14.694928 Z-1.000000 I-0.000000 J0.091975
G01 X19.109384 Y14.702138 Z-1.000000
G03 X19.075006 Y14.708788 Z-1.000000 I-0.034378 J-0.085539
G03 X19.040644 Y14.702138 Z-1.000000 I0.000000 J-0.092102
G01 X19.040644 Y14.702138 Z-1.000000
G00 Z0.000000

(End cutting path id: path3277)


(Start cutting path id: path3277)
(Change tool to Cone cutter)

G00 Z0.000000
G00 X19.040644 Y14.702138

G01 Z-1.000000 F100.0(Penetrate)
G01 X19.040638 Y14.694946 Z-1.000000 F400.000000
G03 X19.075014 Y14.688268 Z-1.000000 I0.034376 J0.085141
G03 X19.109375 Y14.694928 Z-1.000000 I-0.000000 J0.091975
G01 X19.109384 Y14.702138 Z-1.000000
G03 X19.075006 Y14.708788 Z-1.000000 I-0.034378 J-0.085539
G03 X19.040644 Y14.702138 Z-1.000000 I0.000000 J-0.092102
G01 X19.040644 Y14.702138 Z-1.000000
G00 Z0.000000

(End cutting path id: path3277)


(Start cutting path id: path3277)
(Change tool to Cone cutter)

G00 Z0.000000
G00 X18.834937 Y14.730480

G01 Z-1.000000 F100.0(Penetrate)
G01 X18.834500 Y14.723672 Z-1.000000 F400.000000
G03 X18.868787 Y14.716780 Z-1.000000 I0.035476 J0.087764
G03 X18.916975 Y14.722639 Z-1.000000 I0.002257 J0.182536
G01 X18.917427 Y14.729460 Z-1.000000
G03 X18.883141 Y14.736340 Z-1.000000 I-0.035539 J-0.088231
G03 X18.834937 Y14.730460 Z-1.000000 I-0.002384 J-0.180979
G01 X18.834937 Y14.730480 Z-1.000000
G00 Z0.000000

(End cutting path id: path3277)


(Start cutting path id: path3277)
(Change tool to Cone cutter)

G00 Z0.000000
G00 X18.834937 Y14.730480

G01 Z-1.000000 F100.0(Penetrate)
G01 X18.834500 Y14.723672 Z-1.000000 F400.000000
G03 X18.868787 Y14.716780 Z-1.000000 I0.035476 J0.087764
G03 X18.916975 Y14.722639 Z-1.000000 I0.002257 J0.182536
G01 X18.917427 Y14.729460 Z-1.000000
G03 X18.883141 Y14.736340 Z-1.000000 I-0.035539 J-0.088231
G03 X18.834937 Y14.730460 Z-1.000000 I-0.002384 J-0.180979
G01 X18.834937 Y14.730480 Z-1.000000
G00 Z0.000000

(End cutting path id: path3277)


(Start cutting path id: path3277)
(Change tool to Cone cutter)

G00 Z0.000000
G00 X18.600678 Y14.757133

G01 Z-1.000000 F100.0(Penetrate)
G01 X18.600673 Y14.749942 Z-1.000000 F400.000000
G03 X18.635048 Y14.743263 Z-1.000000 I0.034375 J0.085124
G03 X18.669409 Y14.749923 Z-1.000000 I-0.000000 J0.091975
G01 X18.669418 Y14.757133 Z-1.000000
G03 X18.635040 Y14.763783 Z-1.000000 I-0.034378 J-0.085539
G03 X18.600678 Y14.757133 Z-1.000000 I0.000000 J-0.092102
G01 X18.600678 Y14.757133 Z-1.000000
G00 Z0.000000

(End cutting path id: path3277)


(Start cutting path id: path3277)
(Change tool to Cone cutter)

G00 Z0.000000
G00 X18.600678 Y14.757133

G01 Z-1.000000 F100.0(Penetrate)
G01 X18.600673 Y14.749942 Z-1.000000 F400.000000
G03 X18.635048 Y14.743263 Z-1.000000 I0.034375 J0.085124
G03 X18.669409 Y14.749923 Z-1.000000 I-0.000000 J0.091975
G01 X18.669418 Y14.757133 Z-1.000000
G03 X18.635040 Y14.763783 Z-1.000000 I-0.034378 J-0.085539
G03 X18.600678 Y14.757133 Z-1.000000 I0.000000 J-0.092102
G01 X18.600678 Y14.757133 Z-1.000000
G00 Z0.000000

(End cutting path id: path3277)


(Start cutting path id: path3277)
(Change tool to Cone cutter)

G00 Z0.000000
G00 X18.380698 Y14.784629

G01 Z-1.000000 F100.0(Penetrate)
G01 X18.380692 Y14.777437 Z-1.000000 F400.000000
G03 X18.415068 Y14.770759 Z-1.000000 I0.034376 J0.085141
G03 X18.449429 Y14.777419 Z-1.000000 I-0.000000 J0.091975
G01 X18.449438 Y14.784629 Z-1.000000
G03 X18.415060 Y14.791279 Z-1.000000 I-0.034378 J-0.085539
G03 X18.380698 Y14.784629 Z-1.000000 I0.000000 J-0.092102
G01 X18.380698 Y14.784629 Z-1.000000
G00 Z0.000000

(End cutting path id: path3277)


(Start cutting path id: path3277)
(Change tool to Cone cutter)

G00 Z0.000000
G00 X18.380698 Y14.784629

G01 Z-1.000000 F100.0(Penetrate)
G01 X18.380692 Y14.777437 Z-1.000000 F400.000000
G03 X18.415068 Y14.770759 Z-1.000000 I0.034376 J0.085141
G03 X18.449429 Y14.777419 Z-1.000000 I-0.000000 J0.091975
G01 X18.449438 Y14.784629 Z-1.000000
G03 X18.415060 Y14.791279 Z-1.000000 I-0.034378 J-0.085539
G03 X18.380698 Y14.784629 Z-1.000000 I0.000000 J-0.092102
G01 X18.380698 Y14.784629 Z-1.000000
G00 Z0.000000

(End cutting path id: path3277)


(Start cutting path id: path3277)
(Change tool to Cone cutter)

G00 Z0.000000
G00 X18.272407 Y14.565220

G01 Z-1.000000 F100.0(Penetrate)
G01 X18.270656 Y14.556660 Z-1.000000 F400.000000
G01 X18.289017 Y14.548610 Z-1.000000
G03 X18.323351 Y14.554491 Z-1.000000 I0.003439 J0.083085
G01 X18.325107 Y14.563050 Z-1.000000
G01 X18.306785 Y14.571097 Z-1.000000
G03 X18.272407 Y14.565250 Z-1.000000 I-0.003522 J-0.083280
G01 X18.272407 Y14.565220 Z-1.000000
G00 Z0.000000

(End cutting path id: path3277)


(Start cutting path id: path3277)
(Change tool to Cone cutter)

G00 Z0.000000
G00 X18.272407 Y14.565220

G01 Z-1.000000 F100.0(Penetrate)
G01 X18.270656 Y14.556660 Z-1.000000 F400.000000
G01 X18.289017 Y14.548610 Z-1.000000
G03 X18.323351 Y14.554491 Z-1.000000 I0.003439 J0.083085
G01 X18.325107 Y14.563050 Z-1.000000
G01 X18.306785 Y14.571097 Z-1.000000
G03 X18.272407 Y14.565250 Z-1.000000 I-0.003522 J-0.083280
G01 X18.272407 Y14.565220 Z-1.000000
G00 Z0.000000

(End cutting path id: path3277)


(Start cutting path id: path3277)
(Change tool to Cone cutter)

G00 Z0.000000
G00 X18.382398 Y14.455229

G01 Z-1.000000 F100.0(Penetrate)
G01 X18.380647 Y14.446667 Z-1.000000 F400.000000
G01 X18.399008 Y14.438619 Z-1.000000
G03 X18.433342 Y14.444500 Z-1.000000 I0.003439 J0.083085
G01 X18.435098 Y14.453059 Z-1.000000
G01 X18.416776 Y14.461106 Z-1.000000
G03 X18.382398 Y14.455259 Z-1.000000 I-0.003522 J-0.083280
G01 X18.382398 Y14.455229 Z-1.000000
G00 Z0.000000

(End cutting path id: path3277)


(Start cutting path id: path3277)
(Change tool to Cone cutter)

G00 Z0.000000
G00 X18.382398 Y14.455229

G01 Z-1.000000 F100.0(Penetrate)
G01 X18.380647 Y14.446667 Z-1.000000 F400.000000
G01 X18.399008 Y14.438619 Z-1.000000
G03 X18.433342 Y14.444500 Z-1.000000 I0.003439 J0.083085
G01 X18.435098 Y14.453059 Z-1.000000
G01 X18.416776 Y14.461106 Z-1.000000
G03 X18.382398 Y14.455259 Z-1.000000 I-0.003522 J-0.083280
G01 X18.382398 Y14.455229 Z-1.000000
G00 Z0.000000

(End cutting path id: path3277)


(Start cutting path id: path3277)
(Change tool to Cone cutter)

G00 Z0.000000
G00 X18.437408 Y14.537722

G01 Z-1.000000 F100.0(Penetrate)
G01 X18.435657 Y14.529160 Z-1.000000 F400.000000
G01 X18.454018 Y14.521112 Z-1.000000
G03 X18.488352 Y14.526993 Z-1.000000 I0.003439 J0.083085
G01 X18.490108 Y14.535552 Z-1.000000
G01 X18.471786 Y14.543599 Z-1.000000
G03 X18.437408 Y14.537752 Z-1.000000 I-0.003522 J-0.083280
G01 X18.437408 Y14.537722 Z-1.000000
G00 Z0.000000

(End cutting path id: path3277)


(Start cutting path id: path3277)
(Change tool to Cone cutter)

G00 Z0.000000
G00 X18.437408 Y14.537722

G01 Z-1.000000 F100.0(Penetrate)
G01 X18.435657 Y14.529160 Z-1.000000 F400.000000
G01 X18.454018 Y14.521112 Z-1.000000
G03 X18.488352 Y14.526993 Z-1.000000 I0.003439 J0.083085
G01 X18.490108 Y14.535552 Z-1.000000
G01 X18.471786 Y14.543599 Z-1.000000
G03 X18.437408 Y14.537752 Z-1.000000 I-0.003522 J-0.083280
G01 X18.437408 Y14.537722 Z-1.000000
G00 Z0.000000

(End cutting path id: path3277)


(Start cutting path id: path3277)
(Change tool to Cone cutter)

G00 Z0.000000
G00 X18.573178 Y14.509654

G01 Z-1.000000 F100.0(Penetrate)
G01 X18.573172 Y14.502462 Z-1.000000 F400.000000
G03 X18.607548 Y14.495784 Z-1.000000 I0.034376 J0.085141
G03 X18.641909 Y14.502444 Z-1.000000 I-0.000000 J0.091975
G01 X18.641918 Y14.509654 Z-1.000000
G03 X18.607540 Y14.516304 Z-1.000000 I-0.034378 J-0.085539
G03 X18.573178 Y14.509654 Z-1.000000 I0.000000 J-0.092102
G01 X18.573178 Y14.509654 Z-1.000000
G00 Z0.000000

(End cutting path id: path3277)


(Start cutting path id: path3277)
(Change tool to Cone cutter)

G00 Z0.000000
G00 X18.573178 Y14.509654

G01 Z-1.000000 F100.0(Penetrate)
G01 X18.573172 Y14.502462 Z-1.000000 F400.000000
G03 X18.607548 Y14.495784 Z-1.000000 I0.034376 J0.085141
G03 X18.641909 Y14.502444 Z-1.000000 I-0.000000 J0.091975
G01 X18.641918 Y14.509654 Z-1.000000
G03 X18.607540 Y14.516304 Z-1.000000 I-0.034378 J-0.085539
G03 X18.573178 Y14.509654 Z-1.000000 I0.000000 J-0.092102
G01 X18.573178 Y14.509654 Z-1.000000
G00 Z0.000000

(End cutting path id: path3277)


(Start cutting path id: path3277)
(Change tool to Cone cutter)

G00 Z0.000000
G00 X18.738167 Y14.482156

G01 Z-1.000000 F100.0(Penetrate)
G01 X18.738161 Y14.474964 Z-1.000000 F400.000000
G03 X18.772537 Y14.468286 Z-1.000000 I0.034376 J0.085141
G03 X18.806898 Y14.474946 Z-1.000000 I-0.000000 J0.091975
G01 X18.806907 Y14.482156 Z-1.000000
G03 X18.772537 Y14.488808 Z-1.000000 I-0.034370 J-0.085473
G03 X18.738167 Y14.482156 Z-1.000000 I0.000000 J-0.092124
G01 X18.738167 Y14.482156 Z-1.000000
G00 Z0.000000

(End cutting path id: path3277)


(Start cutting path id: path3277)
(Change tool to Cone cutter)

G00 Z0.000000
G00 X18.738167 Y14.482156

G01 Z-1.000000 F100.0(Penetrate)
G01 X18.738161 Y14.474964 Z-1.000000 F400.000000
G03 X18.772537 Y14.468286 Z-1.000000 I0.034376 J0.085141
G03 X18.806898 Y14.474946 Z-1.000000 I-0.000000 J0.091975
G01 X18.806907 Y14.482156 Z-1.000000
G03 X18.772537 Y14.488808 Z-1.000000 I-0.034370 J-0.085473
G03 X18.738167 Y14.482156 Z-1.000000 I0.000000 J-0.092124
G01 X18.738167 Y14.482156 Z-1.000000
G00 Z0.000000

(End cutting path id: path3277)


(Start cutting path id: path3277)
(Change tool to Cone cutter)

G00 Z0.000000
G00 X18.875657 Y14.454659

G01 Z-1.000000 F100.0(Penetrate)
G01 X18.875652 Y14.447468 Z-1.000000 F400.000000
G03 X18.910027 Y14.440789 Z-1.000000 I0.034375 J0.085124
G03 X18.944388 Y14.447449 Z-1.000000 I-0.000000 J0.091975
G01 X18.944397 Y14.454659 Z-1.000000
G03 X18.910019 Y14.461309 Z-1.000000 I-0.034378 J-0.085539
G03 X18.875657 Y14.454659 Z-1.000000 I0.000000 J-0.092102
G01 X18.875657 Y14.454659 Z-1.000000
G00 Z0.000000

(End cutting path id: path3277)


(Start cutting path id: path3277)
(Change tool to Cone cutter)

G00 Z0.000000
G00 X18.875657 Y14.454659

G01 Z-1.000000 F100.0(Penetrate)
G01 X18.875652 Y14.447468 Z-1.000000 F400.000000
G03 X18.910027 Y14.440789 Z-1.000000 I0.034375 J0.085124
G03 X18.944388 Y14.447449 Z-1.000000 I-0.000000 J0.091975
G01 X18.944397 Y14.454659 Z-1.000000
G03 X18.910019 Y14.461309 Z-1.000000 I-0.034378 J-0.085539
G03 X18.875657 Y14.454659 Z-1.000000 I0.000000 J-0.092102
G01 X18.875657 Y14.454659 Z-1.000000
G00 Z0.000000

(End cutting path id: path3277)


(Start cutting path id: path3277)
(Change tool to Cone cutter)

G00 Z0.000000
G00 X19.040644 Y14.427161

G01 Z-1.000000 F100.0(Penetrate)
G01 X19.040638 Y14.419969 Z-1.000000 F400.000000
G03 X19.075014 Y14.413291 Z-1.000000 I0.034376 J0.085141
G03 X19.109375 Y14.419951 Z-1.000000 I-0.000000 J0.091975
G01 X19.109384 Y14.427161 Z-1.000000
G03 X19.075006 Y14.433811 Z-1.000000 I-0.034378 J-0.085539
G03 X19.040644 Y14.427161 Z-1.000000 I0.000000 J-0.092102
G01 X19.040644 Y14.427161 Z-1.000000
G00 Z0.000000

(End cutting path id: path3277)


(Start cutting path id: path3277)
(Change tool to Cone cutter)

G00 Z0.000000
G00 X19.040644 Y14.427161

G01 Z-1.000000 F100.0(Penetrate)
G01 X19.040638 Y14.419969 Z-1.000000 F400.000000
G03 X19.075014 Y14.413291 Z-1.000000 I0.034376 J0.085141
G03 X19.109375 Y14.419951 Z-1.000000 I-0.000000 J0.091975
G01 X19.109384 Y14.427161 Z-1.000000
G03 X19.075006 Y14.433811 Z-1.000000 I-0.034378 J-0.085539
G03 X19.040644 Y14.427161 Z-1.000000 I0.000000 J-0.092102
G01 X19.040644 Y14.427161 Z-1.000000
G00 Z0.000000

(End cutting path id: path3277)


(Start cutting path id: path3277)
(Change tool to Cone cutter)

G00 Z0.000000
G00 X18.565578 Y14.293648

G01 Z-1.000000 F100.0(Penetrate)
G01 X18.565563 Y14.281510 Z-1.000000 F400.000000
G03 X18.599488 Y14.259478 Z-1.000000 I0.068164 J0.067826
G01 X18.614857 Y14.262767 Z-1.000000
G01 X18.614878 Y14.274868 Z-1.000000
G03 X18.580946 Y14.296928 Z-1.000000 I-0.068047 J-0.067540
G01 X18.565568 Y14.293638 Z-1.000000
G01 X18.565578 Y14.293648 Z-1.000000
G00 Z0.000000

(End cutting path id: path3277)


(Start cutting path id: path3277)
(Change tool to Cone cutter)

G00 Z0.000000
G00 X18.565578 Y14.293648

G01 Z-1.000000 F100.0(Penetrate)
G01 X18.565563 Y14.281510 Z-1.000000 F400.000000
G03 X18.599488 Y14.259478 Z-1.000000 I0.068164 J0.067826
G01 X18.614857 Y14.262767 Z-1.000000
G01 X18.614878 Y14.274868 Z-1.000000
G03 X18.580946 Y14.296928 Z-1.000000 I-0.068047 J-0.067540
G01 X18.565568 Y14.293638 Z-1.000000
G01 X18.565578 Y14.293648 Z-1.000000
G00 Z0.000000

(End cutting path id: path3277)


(Start cutting path id: path3277)
(Change tool to Cone cutter)

G00 Z0.000000
G00 X18.415068 Y14.351598

G01 Z-1.000000 F100.0(Penetrate)
G01 X18.410329 Y14.343263 Z-1.000000 F400.000000
G01 X18.428818 Y14.326458 Z-1.000000
G03 X18.493625 Y14.313124 Z-1.000000 I0.064807 J0.150824
G01 X18.497558 Y14.326458 Z-1.000000
G03 X18.454475 Y14.346467 Z-1.000000 I-0.093140 J-0.144157
G03 X18.415068 Y14.351598 Z-1.000000 I-0.034969 J-0.114686
G01 X18.415068 Y14.351598 Z-1.000000
G00 Z0.000000

(End cutting path id: path3277)


(Start cutting path id: path3277)
(Change tool to Cone cutter)

G00 Z0.000000
G00 X18.415068 Y14.351598

G01 Z-1.000000 F100.0(Penetrate)
G01 X18.410329 Y14.343263 Z-1.000000 F400.000000
G01 X18.428818 Y14.326458 Z-1.000000
G03 X18.493625 Y14.313124 Z-1.000000 I0.064807 J0.150824
G01 X18.497558 Y14.326458 Z-1.000000
G03 X18.454475 Y14.346467 Z-1.000000 I-0.093140 J-0.144157
G03 X18.415068 Y14.351598 Z-1.000000 I-0.034969 J-0.114686
G01 X18.415068 Y14.351598 Z-1.000000
G00 Z0.000000

(End cutting path id: path3277)


(Start cutting path id: path3277)
(Change tool to Cone cutter)

G00 Z0.000000
G00 X17.914936 Y14.840197

G01 Z-1.000000 F100.0(Penetrate)
G01 X17.913185 Y14.831635 Z-1.000000 F400.000000
G01 X17.931546 Y14.823587 Z-1.000000
G03 X17.965880 Y14.829468 Z-1.000000 I0.003439 J0.083085
G01 X17.967636 Y14.838027 Z-1.000000
G01 X17.949314 Y14.846074 Z-1.000000
G03 X17.914936 Y14.840227 Z-1.000000 I-0.003522 J-0.083280
G01 X17.914936 Y14.840197 Z-1.000000
G00 Z0.000000

(End cutting path id: path3277)


(Start cutting path id: path3277)
(Change tool to Cone cutter)

G00 Z0.000000
G00 X17.914936 Y14.840197

G01 Z-1.000000 F100.0(Penetrate)
G01 X17.913185 Y14.831635 Z-1.000000 F400.000000
G01 X17.931546 Y14.823587 Z-1.000000
G03 X17.965880 Y14.829468 Z-1.000000 I0.003439 J0.083085
G01 X17.967636 Y14.838027 Z-1.000000
G01 X17.949314 Y14.846074 Z-1.000000
G03 X17.914936 Y14.840227 Z-1.000000 I-0.003522 J-0.083280
G01 X17.914936 Y14.840197 Z-1.000000
G00 Z0.000000

(End cutting path id: path3277)


(Start cutting path id: path3277)
(Change tool to Cone cutter)

G00 Z0.000000
G00 X16.732540 Y14.922669

G01 Z-1.000000 F100.0(Penetrate)
G01 X16.730789 Y14.914107 Z-1.000000 F400.000000
G01 X16.749150 Y14.906059 Z-1.000000
G03 X16.783484 Y14.911940 Z-1.000000 I0.003439 J0.083085
G01 X16.785240 Y14.920499 Z-1.000000
G01 X16.766912 Y14.928548 Z-1.000000
G03 X16.732540 Y14.922699 Z-1.000000 I-0.003519 J-0.083236
G01 X16.732540 Y14.922669 Z-1.000000
G00 Z0.000000

(End cutting path id: path3277)


(Start cutting path id: path3277)
(Change tool to Cone cutter)

G00 Z0.000000
G00 X16.732540 Y14.922669

G01 Z-1.000000 F100.0(Penetrate)
G01 X16.730789 Y14.914107 Z-1.000000 F400.000000
G01 X16.749150 Y14.906059 Z-1.000000
G03 X16.783484 Y14.911940 Z-1.000000 I0.003439 J0.083085
G01 X16.785240 Y14.920499 Z-1.000000
G01 X16.766912 Y14.928548 Z-1.000000
G03 X16.732540 Y14.922699 Z-1.000000 I-0.003519 J-0.083236
G01 X16.732540 Y14.922669 Z-1.000000
G00 Z0.000000

(End cutting path id: path3277)


(Start cutting path id: path3277)
(Change tool to Cone cutter)

G00 Z0.000000
G00 X16.703320 Y14.867099

G01 Z-1.000000 F100.0(Penetrate)
G01 X16.703315 Y14.859908 Z-1.000000 F400.000000
G03 X16.737690 Y14.853229 Z-1.000000 I0.034375 J0.085124
G03 X16.772051 Y14.859889 Z-1.000000 I-0.000000 J0.091975
G01 X16.772060 Y14.867099 Z-1.000000
G03 X16.737682 Y14.873749 Z-1.000000 I-0.034378 J-0.085539
G03 X16.703320 Y14.867099 Z-1.000000 I0.000000 J-0.092102
G01 X16.703320 Y14.867099 Z-1.000000
G00 Z0.000000

(End cutting path id: path3277)


(Start cutting path id: path3277)
(Change tool to Cone cutter)

G00 Z0.000000
G00 X16.703320 Y14.867099

G01 Z-1.000000 F100.0(Penetrate)
G01 X16.703315 Y14.859908 Z-1.000000 F400.000000
G03 X16.737690 Y14.853229 Z-1.000000 I0.034375 J0.085124
G03 X16.772051 Y14.859889 Z-1.000000 I-0.000000 J0.091975
G01 X16.772060 Y14.867099 Z-1.000000
G03 X16.737682 Y14.873749 Z-1.000000 I-0.034378 J-0.085539
G03 X16.703320 Y14.867099 Z-1.000000 I0.000000 J-0.092102
G01 X16.703320 Y14.867099 Z-1.000000
G00 Z0.000000

(End cutting path id: path3277)


(Start cutting path id: path3277)
(Change tool to Cone cutter)

G00 Z0.000000
G00 X16.644240 Y14.788104

G01 Z-1.000000 F100.0(Penetrate)
G03 X16.614050 Y14.752370 Z-1.000000 I0.127432 J-0.138280 F400.000000
G01 X16.614910 Y14.743024 Z-1.000000
G01 X16.655365 Y14.740139 Z-1.000000
G03 X16.682710 Y14.796604 Z-1.000000 I-0.044624 J0.056465
G01 X16.673970 Y14.803623 Z-1.000000
G03 X16.644240 Y14.788104 Z-1.000000 I0.013897 J-0.062859
G01 X16.644240 Y14.788104 Z-1.000000
G00 Z0.000000

(End cutting path id: path3277)


(Start cutting path id: path3277)
(Change tool to Cone cutter)

G00 Z0.000000
G00 X16.644240 Y14.788104

G01 Z-1.000000 F100.0(Penetrate)
G03 X16.614050 Y14.752370 Z-1.000000 I0.127432 J-0.138280 F400.000000
G01 X16.614910 Y14.743024 Z-1.000000
G01 X16.655365 Y14.740139 Z-1.000000
G03 X16.682710 Y14.796604 Z-1.000000 I-0.044624 J0.056465
G01 X16.673970 Y14.803623 Z-1.000000
G03 X16.644240 Y14.788104 Z-1.000000 I0.013897 J-0.062859
G01 X16.644240 Y14.788104 Z-1.000000
G00 Z0.000000

(End cutting path id: path3277)


(Start cutting path id: path3277)
(Change tool to Cone cutter)

G00 Z0.000000
G00 X16.470790 Y14.834173

G01 Z-1.000000 F100.0(Penetrate)
G02 X16.420932 Y14.818574 Z-1.000000 I-0.096796 J0.221902 F400.000000
G02 X16.393990 Y14.818993 Z-1.000000 I-0.012492 J0.063206
G01 X16.387883 Y14.813338 Z-1.000000
G01 X16.397890 Y14.793313 Z-1.000000
G01 X16.432024 Y14.779048 Z-1.000000
G03 X16.489610 Y14.793588 Z-1.000000 I-0.000374 J0.122788
G01 X16.499531 Y14.823282 Z-1.000000
G01 X16.470770 Y14.834188 Z-1.000000
G01 X16.470790 Y14.834173 Z-1.000000
G00 Z0.000000

(End cutting path id: path3277)


(Start cutting path id: path3277)
(Change tool to Cone cutter)

G00 Z0.000000
G00 X16.470790 Y14.834173

G01 Z-1.000000 F100.0(Penetrate)
G02 X16.420932 Y14.818574 Z-1.000000 I-0.096796 J0.221902 F400.000000
G02 X16.393990 Y14.818993 Z-1.000000 I-0.012492 J0.063206
G01 X16.387883 Y14.813338 Z-1.000000
G01 X16.397890 Y14.793313 Z-1.000000
G01 X16.432024 Y14.779048 Z-1.000000
G03 X16.489610 Y14.793588 Z-1.000000 I-0.000374 J0.122788
G01 X16.499531 Y14.823282 Z-1.000000
G01 X16.470770 Y14.834188 Z-1.000000
G01 X16.470790 Y14.834173 Z-1.000000
G00 Z0.000000

(End cutting path id: path3277)


(Start cutting path id: path3277)
(Change tool to Cone cutter)

G00 Z0.000000
G00 X16.485070 Y14.950167

G01 Z-1.000000 F100.0(Penetrate)
G01 X16.483319 Y14.941607 Z-1.000000 F400.000000
G01 X16.501680 Y14.933557 Z-1.000000
G03 X16.536014 Y14.939438 Z-1.000000 I0.003439 J0.083085
G01 X16.537770 Y14.947997 Z-1.000000
G01 X16.519448 Y14.956044 Z-1.000000
G03 X16.485070 Y14.950197 Z-1.000000 I-0.003522 J-0.083280
G01 X16.485070 Y14.950167 Z-1.000000
G00 Z0.000000

(End cutting path id: path3277)


(Start cutting path id: path3277)
(Change tool to Cone cutter)

G00 Z0.000000
G00 X16.485070 Y14.950167

G01 Z-1.000000 F100.0(Penetrate)
G01 X16.483319 Y14.941607 Z-1.000000 F400.000000
G01 X16.501680 Y14.933557 Z-1.000000
G03 X16.536014 Y14.939438 Z-1.000000 I0.003439 J0.083085
G01 X16.537770 Y14.947997 Z-1.000000
G01 X16.519448 Y14.956044 Z-1.000000
G03 X16.485070 Y14.950197 Z-1.000000 I-0.003522 J-0.083280
G01 X16.485070 Y14.950167 Z-1.000000
G00 Z0.000000

(End cutting path id: path3277)


(Start cutting path id: path3277)
(Change tool to Cone cutter)

G00 Z0.000000
G00 X16.263360 Y14.784608

G01 Z-1.000000 F100.0(Penetrate)
G01 X16.263354 Y14.777416 Z-1.000000 F400.000000
G03 X16.297730 Y14.770738 Z-1.000000 I0.034376 J0.085141
G03 X16.332091 Y14.777398 Z-1.000000 I-0.000000 J0.091975
G01 X16.332100 Y14.784608 Z-1.000000
G03 X16.297730 Y14.791260 Z-1.000000 I-0.034370 J-0.085473
G03 X16.263360 Y14.784608 Z-1.000000 I-0.000000 J-0.092124
G01 X16.263360 Y14.784608 Z-1.000000
G00 Z0.000000

(End cutting path id: path3277)


(Start cutting path id: path3277)
(Change tool to Cone cutter)

G00 Z0.000000
G00 X16.263360 Y14.784608

G01 Z-1.000000 F100.0(Penetrate)
G01 X16.263354 Y14.777416 Z-1.000000 F400.000000
G03 X16.297730 Y14.770738 Z-1.000000 I0.034376 J0.085141
G03 X16.332091 Y14.777398 Z-1.000000 I-0.000000 J0.091975
G01 X16.332100 Y14.784608 Z-1.000000
G03 X16.297730 Y14.791260 Z-1.000000 I-0.034370 J-0.085473
G03 X16.263360 Y14.784608 Z-1.000000 I-0.000000 J-0.092124
G01 X16.263360 Y14.784608 Z-1.000000
G00 Z0.000000

(End cutting path id: path3277)


(Start cutting path id: path3277)
(Change tool to Cone cutter)

G00 Z0.000000
G00 X16.141344 Y14.594857

G01 Z-1.000000 F100.0(Penetrate)
G03 X16.135045 Y14.546844 Z-1.000000 I0.186048 J-0.048830 F400.000000
G03 X16.140788 Y14.484866 Z-1.000000 I0.322504 J-0.001369
G01 X16.147005 Y14.484663 Z-1.000000
G03 X16.153298 Y14.532666 Z-1.000000 I-0.187255 J0.048963
G03 X16.147541 Y14.594654 Z-1.000000 I-0.319295 J0.001610
G01 X16.141338 Y14.594856 Z-1.000000
G01 X16.141344 Y14.594857 Z-1.000000
G00 Z0.000000

(End cutting path id: path3277)


(Start cutting path id: path3277)
(Change tool to Cone cutter)

G00 Z0.000000
G00 X16.141344 Y14.594857

G01 Z-1.000000 F100.0(Penetrate)
G03 X16.135045 Y14.546844 Z-1.000000 I0.186048 J-0.048830 F400.000000
G03 X16.140788 Y14.484866 Z-1.000000 I0.322504 J-0.001369
G01 X16.147005 Y14.484663 Z-1.000000
G03 X16.153298 Y14.532666 Z-1.000000 I-0.187255 J0.048963
G03 X16.147541 Y14.594654 Z-1.000000 I-0.319295 J0.001610
G01 X16.141338 Y14.594856 Z-1.000000
G01 X16.141344 Y14.594857 Z-1.000000
G00 Z0.000000

(End cutting path id: path3277)


(Start cutting path id: path3277)
(Change tool to Cone cutter)

G00 Z0.000000
G00 X16.088533 Y14.047092

G01 Z-1.000000 F100.0(Penetrate)
G01 X16.072483 Y14.441445 Z-1.000000 F400.000000
G01 X16.010503 Y14.349565 Z-1.000000
G03 X15.952091 Y14.255516 Z-1.000000 I1.216363 J-0.820618
G03 X15.709018 Y13.820610 Z-1.000000 I25.831064 J-14.722625
G02 X15.356581 Y13.269967 Z-1.000000 I-4.214917 J2.309628
G02 X15.201095 Y13.134716 Z-1.000000 I-0.383780 J0.284199
G02 X14.992013 Y13.073152 Z-1.000000 I-0.247495 J0.454720
G02 X14.570270 Y13.087776 Z-1.000000 I-0.144011 J1.935553
G02 X14.340042 Y13.175191 Z-1.000000 I0.080982 J0.560172
G02 X13.881862 Y13.540941 Z-1.000000 I1.763892 J2.679510
G02 X13.631279 Y13.822351 Z-1.000000 I1.672743 J1.741775
G02 X13.442038 Y14.120196 Z-1.000000 I1.686847 J1.280809
G03 X13.372975 Y14.214448 Z-1.000000 I-0.346920 J-0.181776
G01 X13.355538 Y14.207266 Z-1.000000
G03 X13.457856 Y13.613792 Z-1.000000 I1.764728 J-0.001309
G03 X13.978397 Y12.458715 Z-1.000000 I7.356878 J2.620583
G03 X14.271107 Y12.031832 Z-1.000000 I2.352312 J1.299165
G03 X14.543928 Y11.783898 Z-1.000000 I1.044765 J0.875565
G02 X14.770780 Y11.626289 Z-1.000000 I-15.028078 J-21.872456
G02 X14.888109 Y11.542110 Z-1.000000 I-4.176325 J-5.944849
G03 X15.003581 Y11.470106 Z-1.000000 I0.538616 J0.735176
G01 X15.020531 Y11.472690 Z-1.000000
G03 X15.077883 Y11.620894 Z-1.000000 I-0.138983 J0.138983
G03 X14.959871 Y12.765555 Z-1.000000 I-10.304675 J-0.483975
G01 X14.999613 Y12.806759 Z-1.000000
G02 X15.068539 Y12.752185 Z-1.000000 I-0.010316 J-0.083843
G02 X15.183972 Y12.255454 Z-1.000000 I-1.910913 J-0.705845
G02 X15.177791 Y11.693523 Z-1.000000 I-2.460665 J-0.253934
G03 X15.165268 Y11.505175 Z-1.000000 I1.603137 J-0.201184
G01 X15.176191 Y11.494165 Z-1.000000
G03 X15.198521 Y11.498802 Z-1.000000 I-0.000000 J0.056079
G03 X15.339800 Y11.565195 Z-1.000000 I-1.043908 J2.404886
G03 X15.684567 Y11.870874 Z-1.000000 I-0.410707 J0.810492
G03 X16.038596 Y12.610972 Z-1.000000 I-2.395143 J1.600452
G03 X16.091856 Y12.923076 Z-1.000000 I-1.128559 J0.353184
G03 X16.088516 Y14.047089 Z-1.000000 I-14.895006 J0.517748
G01 X16.088533 Y14.047092 Z-1.000000
G00 Z0.000000

(End cutting path id: path3277)


(Start cutting path id: path3277)
(Change tool to Cone cutter)

G00 Z0.000000
G00 X16.088533 Y14.047092

G01 Z-1.000000 F100.0(Penetrate)
G01 X16.072483 Y14.441445 Z-1.000000 F400.000000
G01 X16.010503 Y14.349565 Z-1.000000
G03 X15.952091 Y14.255516 Z-1.000000 I1.216363 J-0.820618
G03 X15.709018 Y13.820610 Z-1.000000 I25.831064 J-14.722625
G02 X15.356581 Y13.269967 Z-1.000000 I-4.214917 J2.309628
G02 X15.201095 Y13.134716 Z-1.000000 I-0.383780 J0.284199
G02 X14.992013 Y13.073152 Z-1.000000 I-0.247495 J0.454720
G02 X14.570270 Y13.087776 Z-1.000000 I-0.144011 J1.935553
G02 X14.340042 Y13.175191 Z-1.000000 I0.080982 J0.560172
G02 X13.881862 Y13.540941 Z-1.000000 I1.763892 J2.679510
G02 X13.631279 Y13.822351 Z-1.000000 I1.672743 J1.741775
G02 X13.442038 Y14.120196 Z-1.000000 I1.686847 J1.280809
G03 X13.372975 Y14.214448 Z-1.000000 I-0.346920 J-0.181776
G01 X13.355538 Y14.207266 Z-1.000000
G03 X13.457856 Y13.613792 Z-1.000000 I1.764728 J-0.001309
G03 X13.978397 Y12.458715 Z-1.000000 I7.356878 J2.620583
G03 X14.271107 Y12.031832 Z-1.000000 I2.352312 J1.299165
G03 X14.543928 Y11.783898 Z-1.000000 I1.044765 J0.875565
G02 X14.770780 Y11.626289 Z-1.000000 I-15.028078 J-21.872456
G02 X14.888109 Y11.542110 Z-1.000000 I-4.176325 J-5.944849
G03 X15.003581 Y11.470106 Z-1.000000 I0.538616 J0.735176
G01 X15.020531 Y11.472690 Z-1.000000
G03 X15.077883 Y11.620894 Z-1.000000 I-0.138983 J0.138983
G03 X14.959871 Y12.765555 Z-1.000000 I-10.304675 J-0.483975
G01 X14.999613 Y12.806759 Z-1.000000
G02 X15.068539 Y12.752185 Z-1.000000 I-0.010316 J-0.083843
G02 X15.183972 Y12.255454 Z-1.000000 I-1.910913 J-0.705845
G02 X15.177791 Y11.693523 Z-1.000000 I-2.460665 J-0.253934
G03 X15.165268 Y11.505175 Z-1.000000 I1.603137 J-0.201184
G01 X15.176191 Y11.494165 Z-1.000000
G03 X15.198521 Y11.498802 Z-1.000000 I-0.000000 J0.056079
G03 X15.339800 Y11.565195 Z-1.000000 I-1.043908 J2.404886
G03 X15.684567 Y11.870874 Z-1.000000 I-0.410707 J0.810492
G03 X16.038596 Y12.610972 Z-1.000000 I-2.395143 J1.600452
G03 X16.091856 Y12.923076 Z-1.000000 I-1.128559 J0.353184
G03 X16.088516 Y14.047089 Z-1.000000 I-14.895006 J0.517748
G01 X16.088533 Y14.047092 Z-1.000000
G00 Z0.000000

(End cutting path id: path3277)


(Start cutting path id: path3277)
(Change tool to Cone cutter)

G00 Z0.000000
G00 X15.273412 Y13.321046

G01 Z-1.000000 F100.0(Penetrate)
G02 X15.073901 Y13.216993 Z-1.000000 I-0.332623 J0.394471 F400.000000
G02 X14.771070 Y13.186915 Z-1.000000 I-0.243477 J0.911857
G02 X14.471171 Y13.245884 Z-1.000000 I0.073442 J1.165599
G02 X14.235373 Y13.367638 Z-1.000000 I0.281479 J0.834338
G03 X14.183961 Y13.396847 Z-1.000000 I-0.156430 J-0.215486
G01 X14.180383 Y13.391238 Z-1.000000
G03 X14.442381 Y13.227289 Z-1.000000 I0.605143 J0.675730
G03 X14.762073 Y13.153523 Z-1.000000 I0.386694 J0.946245
G03 X15.082645 Y13.187744 Z-1.000000 I0.061756 J0.940100
G03 X15.287165 Y13.303554 Z-1.000000 I-0.137535 J0.481383
G01 X15.288383 Y13.319512 Z-1.000000
G01 X15.273415 Y13.321044 Z-1.000000
G01 X15.273412 Y13.321046 Z-1.000000
G00 Z0.000000

(End cutting path id: path3277)


(Start cutting path id: path3277)
(Change tool to Cone cutter)

G00 Z0.000000
G00 X15.273412 Y13.321046

G01 Z-1.000000 F100.0(Penetrate)
G02 X15.073901 Y13.216993 Z-1.000000 I-0.332623 J0.394471 F400.000000
G02 X14.771070 Y13.186915 Z-1.000000 I-0.243477 J0.911857
G02 X14.471171 Y13.245884 Z-1.000000 I0.073442 J1.165599
G02 X14.235373 Y13.367638 Z-1.000000 I0.281479 J0.834338
G03 X14.183961 Y13.396847 Z-1.000000 I-0.156430 J-0.215486
G01 X14.180383 Y13.391238 Z-1.000000
G03 X14.442381 Y13.227289 Z-1.000000 I0.605143 J0.675730
G03 X14.762073 Y13.153523 Z-1.000000 I0.386694 J0.946245
G03 X15.082645 Y13.187744 Z-1.000000 I0.061756 J0.940100
G03 X15.287165 Y13.303554 Z-1.000000 I-0.137535 J0.481383
G01 X15.288383 Y13.319512 Z-1.000000
G01 X15.273415 Y13.321044 Z-1.000000
G01 X15.273412 Y13.321046 Z-1.000000
G00 Z0.000000

(End cutting path id: path3277)


(Start cutting path id: path3277)
(Change tool to Cone cutter)

G00 Z0.000000
G00 X15.071182 Y12.449143

G01 Z-1.000000 F100.0(Penetrate)
G01 X15.063135 Y12.430821 Z-1.000000 F400.000000
G03 X15.068982 Y12.396443 Z-1.000000 I0.083280 J-0.003522
G01 X15.077544 Y12.394692 Z-1.000000
G01 X15.085592 Y12.413053 Z-1.000000
G03 X15.079711 Y12.447387 Z-1.000000 I-0.083085 J0.003439
G01 X15.071152 Y12.449143 Z-1.000000
G01 X15.071182 Y12.449143 Z-1.000000
G00 Z0.000000

(End cutting path id: path3277)


(Start cutting path id: path3277)
(Change tool to Cone cutter)

G00 Z0.000000
G00 X15.071182 Y12.449143

G01 Z-1.000000 F100.0(Penetrate)
G01 X15.063135 Y12.430821 Z-1.000000 F400.000000
G03 X15.068982 Y12.396443 Z-1.000000 I0.083280 J-0.003522
G01 X15.077544 Y12.394692 Z-1.000000
G01 X15.085592 Y12.413053 Z-1.000000
G03 X15.079711 Y12.447387 Z-1.000000 I-0.083085 J0.003439
G01 X15.071152 Y12.449143 Z-1.000000
G01 X15.071182 Y12.449143 Z-1.000000
G00 Z0.000000

(End cutting path id: path3277)


(Start cutting path id: path3277)
(Change tool to Cone cutter)

G00 Z0.000000
G00 X15.095022 Y12.078497

G01 Z-1.000000 F100.0(Penetrate)
G03 X15.089937 Y11.934134 Z-1.000000 I2.046861 J-0.144363 F400.000000
G03 X15.095022 Y11.789771 Z-1.000000 I2.051946 J-0.000000
G01 X15.100092 Y11.789773 Z-1.000000
G03 X15.105122 Y11.934134 Z-1.000000 I-2.068973 J0.144361
G03 X15.100092 Y12.078495 Z-1.000000 I-2.074038 J-0.000000
G01 X15.095022 Y12.078497 Z-1.000000
G01 X15.095022 Y12.078497 Z-1.000000
G00 Z0.000000

(End cutting path id: path3277)


(Start cutting path id: path3277)
(Change tool to Cone cutter)

G00 Z0.000000
G00 X15.095022 Y12.078497

G01 Z-1.000000 F100.0(Penetrate)
G03 X15.089937 Y11.934134 Z-1.000000 I2.046861 J-0.144363 F400.000000
G03 X15.095022 Y11.789771 Z-1.000000 I2.051946 J-0.000000
G01 X15.100092 Y11.789773 Z-1.000000
G03 X15.105122 Y11.934134 Z-1.000000 I-2.068973 J0.144361
G03 X15.100092 Y12.078495 Z-1.000000 I-2.074038 J-0.000000
G01 X15.095022 Y12.078497 Z-1.000000
G01 X15.095022 Y12.078497 Z-1.000000
G00 Z0.000000

(End cutting path id: path3277)


(Start cutting path id: path3277)
(Change tool to Cone cutter)

G00 Z0.000000
G00 X15.641410 Y11.678982

G01 Z-1.000000 F100.0(Penetrate)
G02 X15.183579 Y11.405893 Z-1.000000 I-0.856629 J0.915809 F400.000000
G02 X14.905064 Y11.431986 Z-1.000000 I-0.109810 J0.327366
G02 X14.535483 Y11.672912 Z-1.000000 I1.604119 J2.864654
G02 X14.235375 Y11.935758 Z-1.000000 I1.613967 J2.145519
G02 X14.096757 Y12.098962 Z-1.000000 I1.046653 J1.029451
G02 X13.960398 Y12.312008 Z-1.000000 I1.653784 J1.208656
G03 X13.897621 Y12.393876 Z-1.000000 I-0.308592 J-0.171627
G01 X13.885158 Y12.384968 Z-1.000000
G03 X14.143400 Y11.996967 Z-1.000000 I1.440101 J0.678549
G03 X14.634088 Y11.555069 Z-1.000000 I2.372301 J2.140847
G03 X14.919295 Y11.389689 Z-1.000000 I0.933741 J1.281668
G03 X15.060700 Y11.363871 Z-1.000000 I0.123283 J0.275076
G03 X15.322711 Y11.432370 Z-1.000000 I-0.041889 J0.695575
G03 X15.625000 Y11.637353 Z-1.000000 I-0.552696 J1.140447
G03 X15.770113 Y11.776927 Z-1.000000 I-2.666334 J2.917362
G01 X15.775243 Y11.789419 Z-1.000000
G01 X15.769937 Y11.791920 Z-1.000000
G03 X15.641406 Y11.678982 Z-1.000000 I1.747649 J-2.118544
G01 X15.641410 Y11.678982 Z-1.000000
G00 Z0.000000

(End cutting path id: path3277)


(Start cutting path id: path3277)
(Change tool to Cone cutter)

G00 Z0.000000
G00 X15.641410 Y11.678982

G01 Z-1.000000 F100.0(Penetrate)
G02 X15.183579 Y11.405893 Z-1.000000 I-0.856629 J0.915809 F400.000000
G02 X14.905064 Y11.431986 Z-1.000000 I-0.109810 J0.327366
G02 X14.535483 Y11.672912 Z-1.000000 I1.604119 J2.864654
G02 X14.235375 Y11.935758 Z-1.000000 I1.613967 J2.145519
G02 X14.096757 Y12.098962 Z-1.000000 I1.046653 J1.029451
G02 X13.960398 Y12.312008 Z-1.000000 I1.653784 J1.208656
G03 X13.897621 Y12.393876 Z-1.000000 I-0.308592 J-0.171627
G01 X13.885158 Y12.384968 Z-1.000000
G03 X14.143400 Y11.996967 Z-1.000000 I1.440101 J0.678549
G03 X14.634088 Y11.555069 Z-1.000000 I2.372301 J2.140847
G03 X14.919295 Y11.389689 Z-1.000000 I0.933741 J1.281668
G03 X15.060700 Y11.363871 Z-1.000000 I0.123283 J0.275076
G03 X15.322711 Y11.432370 Z-1.000000 I-0.041889 J0.695575
G03 X15.625000 Y11.637353 Z-1.000000 I-0.552696 J1.140447
G03 X15.770113 Y11.776927 Z-1.000000 I-2.666334 J2.917362
G01 X15.775243 Y11.789419 Z-1.000000
G01 X15.769937 Y11.791920 Z-1.000000
G03 X15.641406 Y11.678982 Z-1.000000 I1.747649 J-2.118544
G01 X15.641410 Y11.678982 Z-1.000000
G00 Z0.000000

(End cutting path id: path3277)


(Start cutting path id: path3277)
(Change tool to Cone cutter)

G00 Z0.000000
G00 X15.830583 Y11.734973

G01 Z-1.000000 F100.0(Penetrate)
G02 X15.443494 Y11.385365 Z-1.000000 I-0.994824 J0.712378 F400.000000
G02 X15.025385 Y11.274189 Z-1.000000 I-0.418109 J0.730625
G02 X14.890474 Y11.303627 Z-1.000000 I0.000000 J0.323867
G02 X14.620313 Y11.459799 Z-1.000000 I0.688970 J1.503600
G02 X14.366243 Y11.653425 Z-1.000000 I2.843325 J3.994442
G02 X14.188311 Y11.811850 Z-1.000000 I1.722829 J2.114085
G03 X14.044353 Y11.930896 Z-1.000000 I-0.812524 J-0.835992
G01 X14.031191 Y11.921840 Z-1.000000
G02 X14.042918 Y11.864894 Z-1.000000 I-0.655645 J-0.164703
G02 X14.122061 Y11.359404 Z-1.000000 I-52.863767 J-8.535617
G01 X14.198801 Y10.853418 Z-1.000000
G01 X14.310235 Y10.749473 Z-1.000000
G03 X14.522130 Y10.638349 Z-1.000000 I0.308571 J0.330805
G03 X15.019059 Y10.594412 Z-1.000000 I0.420268 J1.921154
G03 X15.522182 Y10.677956 Z-1.000000 I-0.079357 J2.034640
G03 X15.745975 Y10.811425 Z-1.000000 I-0.152046 J0.509298
G03 X15.833009 Y10.964189 Z-1.000000 I-0.235141 J0.235141
G03 X15.910000 Y11.452924 Z-1.000000 I-2.551296 J0.652341
G02 X15.932959 Y11.810336 Z-1.000000 I90.568870 J-5.638414
G02 X15.936240 Y11.849243 Z-1.000000 I1.081794 J-0.071635
G01 X15.927090 Y11.853378 Z-1.000000
G03 X15.830585 Y11.734973 Z-1.000000 I0.899550 J-0.831706
G01 X15.830583 Y11.734973 Z-1.000000
G00 Z0.000000

