; generated by Slic3r 1.3.0 on 2019-11-11 at 11:36:07

; external perimeters extrusion width = 0.55mm (4.37mm^3/s)
; perimeters extrusion width = 0.70mm (11.44mm^3/s)
; infill extrusion width = 0.63mm (13.45mm^3/s)
; solid infill extrusion width = 0.70mm (3.81mm^3/s)
; top infill extrusion width = 0.70mm (2.86mm^3/s)

M107
M104 S205 ; set temperature
G28 ; home all axes
G1 Z5 F5000 ; lift nozzle

; Filament gcode

M109 S205 ; set temperature and wait for it to be reached
G21 ; set units to millimeters
G90 ; use absolute coordinates
M82 ; use absolute distances for extrusion
G92 E0
G1 Z0.300 F7800.000
G1 E-2.00000 F2400.00000
G92 E0
G1 X94.255 Y90.769 F7800.000
G1 E2.00000 F2400.00000
G1 F1800
G1 X93.209 Y91.816 E2.03366
G1 X92.514 Y93.339 E2.07172
G1 X92.501 Y93.404 E2.07322
G1 X95.454 Y90.452 E2.16813
G1 X96.558 Y89.923 E2.19596
G1 X96.882 Y89.904 E2.20334
G1 X92.291 Y94.495 E2.35091
G1 X92.125 Y95.360 E2.37094
G1 X92.180 Y95.487 E2.37409
G1 X97.739 Y89.928 E2.55279
G1 X98.470 Y90.078 E2.56976
G1 X92.447 Y96.100 E2.76337
G1 X92.623 Y96.504 E2.77338
G1 X92.772 Y96.657 E2.77823
G1 X99.090 Y90.339 E2.98133
G1 X99.697 Y90.613 E2.99647
G1 X93.207 Y97.102 E3.20510
G1 X93.476 Y97.377 E3.21384
G1 X93.592 Y97.599 E3.21952
G1 X100.245 Y90.946 E3.43340
G1 X100.793 Y91.279 E3.44798
G1 X93.895 Y98.177 E3.66975
G1 X94.015 Y98.406 E3.67562
G1 X94.135 Y98.817 E3.68537
G1 X101.322 Y91.631 E3.91642
G1 X101.844 Y91.990 E3.93082
G1 X94.327 Y99.507 E4.17248
G1 X94.482 Y100.233 E4.18936
G1 X102.364 Y92.350 E4.44277
G1 X102.831 Y92.765 E4.45696
G1 X94.671 Y100.924 E4.71926
G1 X94.713 Y101.077 E4.72286
G1 X94.913 Y101.564 E4.73482
G1 X103.297 Y93.179 E5.00437
G1 X103.763 Y93.594 E5.01856
G1 X95.168 Y102.189 E5.29487
G1 X95.231 Y102.341 E5.29862
G1 X95.498 Y102.740 E5.30953
G1 X104.174 Y94.064 E5.58845
G1 X104.573 Y94.546 E5.60267
G1 X95.850 Y103.269 E5.88309
G1 X95.973 Y103.453 E5.88813
G1 X96.343 Y103.657 E5.89772
G1 X104.972 Y95.028 E6.17514
G1 X105.371 Y95.510 E6.18936
G1 X96.910 Y103.971 E6.46137
G1 X96.996 Y104.019 E6.46360
G1 X97.340 Y104.422 E6.47566
G1 X105.697 Y96.065 E6.74434
G1 X106.022 Y96.621 E6.75898
G1 X97.731 Y104.911 E7.02551
G1 X97.414 Y106.109 E7.05367
G1 X106.346 Y97.178 E7.34081
G1 X106.670 Y97.732 E7.35541
G1 X97.129 Y107.275 E7.66217
G1 X96.874 Y108.410 E7.68861
G1 X106.883 Y98.403 E8.01035
G1 X107.095 Y99.071 E8.02630
G1 X97.234 Y108.933 E8.34333
G1 X97.515 Y109.347 E8.35471
G1 X97.648 Y109.399 E8.35796
G1 X107.308 Y99.740 E8.66849
G1 X107.432 Y100.131 E8.67783
G1 X107.468 Y100.460 E8.68535
G1 X98.279 Y109.649 E8.98076
G1 X98.854 Y109.877 E8.99482
G1 X98.922 Y109.887 E8.99637
G1 X107.555 Y101.254 E9.27393
G1 X107.643 Y102.048 E9.29208
G1 X99.682 Y110.008 E9.54800
G1 X100.443 Y110.129 E9.56550
G1 X107.645 Y102.926 E9.79705
G1 X107.541 Y103.911 E9.81957
G1 X101.388 Y110.064 E10.01739
G1 X102.067 Y110.018 E10.03287
G1 X102.449 Y109.884 E10.04206
G1 X107.335 Y104.998 E10.19915
G1 X106.935 Y106.253 E10.22909
G1 X106.898 Y106.316 E10.23076
G1 X103.947 Y109.267 E10.32563
M104 S200 ; set temperature
G1 Z0.600 F7800.000
G1 E8.32563 F2400.00000
G92 E0
G1 X107.106 Y106.225 F7800.000
G1 E2.00000 F2400.00000
G1 F4643.92
G1 X102.792 Y101.911 E2.14514
G1 X102.779 Y102.043 E2.14830
G1 X102.914 Y102.292 E2.15502
G1 X102.698 Y102.698 E2.16595
G1 X106.860 Y106.860 E2.30600
G1 X106.532 Y107.413 E2.32130
G1 X102.255 Y103.136 E2.46523
G1 X101.652 Y103.414 E2.48103
G1 X106.177 Y107.939 E2.63329
G1 X105.719 Y108.361 E2.64813
G1 X100.887 Y103.530 E2.81070
G1 X100.806 Y102.568 F7800.000
G1 F4643.92
G1 X100.903 Y102.428 E2.81475
G1 X101.062 Y102.370 E2.81879
G1 X101.150 Y102.276 E2.82183
G1 X101.307 Y102.188 E2.82612
G1 X99.253 Y100.134 E2.89523
G1 X99.347 Y100.136 E2.89746
G1 X99.661 Y99.907 E2.90670
G1 X99.827 Y99.827 E2.91109
G1 X101.921 Y101.921 E2.98153
G1 X102.011 Y101.885 E2.98384
G1 X102.401 Y101.850 E2.99316
G1 X102.702 Y101.873 E3.00035
G1 X102.795 Y101.914 E3.00275
G1 X100.348 Y99.467 E3.08508
G1 X100.403 Y99.428 E3.08669
G1 X100.600 Y99.140 E3.09499
G1 X100.766 Y99.004 E3.10010
G1 X107.319 Y105.557 E3.32059
G1 X107.490 Y105.017 E3.33406
G1 X107.507 Y104.864 E3.33773
G1 X101.347 Y98.704 E3.54500
G1 X101.425 Y98.551 E3.54908
G1 X101.628 Y98.273 E3.55727
G1 X101.623 Y98.100 E3.56140
G1 X107.591 Y104.067 E3.76220
G1 X104.162 Y94.472 F7800.000
G1 F4643.92
G1 X102.840 Y93.150 E3.80668
G1 X101.905 Y92.319 E3.83647
G1 X100.496 Y91.349 E3.87716
G1 X99.637 Y90.828 E3.90107
G1 X106.272 Y97.463 E4.12433
G1 X106.689 Y98.178 E4.14404
G1 X106.960 Y99.032 E4.16536
G1 X98.154 Y90.226 E4.46168
G1 X97.614 Y90.160 E4.47463
G1 X97.209 Y90.161 E4.48428
G1 X107.371 Y100.323 E4.82621
G1 X107.451 Y100.577 E4.83255
G1 X107.539 Y101.372 E4.85159
G1 X96.651 Y90.485 E5.21794
G1 X96.549 Y90.893 E5.22797
G1 X96.456 Y91.170 E5.23492
G1 X107.648 Y102.362 E5.61151
G1 X107.711 Y102.936 E5.62523
G1 X107.675 Y103.271 E5.63325
G1 X96.247 Y91.842 E6.01780
G1 X96.150 Y92.279 E6.02843
G1 X95.919 Y92.395 E6.03459
G1 X101.787 Y98.263 E6.23204
G1 X101.415 Y98.228 E6.24093
G1 X101.129 Y98.150 E6.24798
G1 X100.876 Y98.233 E6.25431
G1 X95.119 Y92.476 E6.44802
G1 X93.595 Y91.834 E6.48737
G1 X100.038 Y98.276 E6.70415
G1 X99.932 Y98.292 E6.70669
G1 X99.711 Y98.494 E6.71382
G1 X99.782 Y98.901 E6.72365
G1 X98.929 Y98.048 E6.75235
G1 X98.919 Y97.899 E6.75591
G1 X98.879 Y97.782 E6.75884
G1 X98.858 Y97.577 E6.76375
G1 X98.770 Y97.384 E6.76879
G1 X98.660 Y97.221 E6.77346
G1 X98.569 Y97.124 E6.77664
G1 X98.412 Y97.004 E6.78133
G1 X98.024 Y96.818 E6.79157
G1 X97.696 Y96.724 E6.79970
G1 X97.651 Y96.770 E6.80123
G1 X93.084 Y92.203 E6.95490
G1 X92.619 Y92.619 E6.96974
G1 X97.872 Y97.872 E7.14650
G1 X97.893 Y98.084 E7.15157
G1 X97.974 Y98.330 E7.15772
G1 X98.103 Y98.481 E7.16246
G1 X98.330 Y98.643 E7.16909
G1 X98.493 Y98.813 E7.17468
G1 X98.591 Y98.865 E7.17732
G1 X98.660 Y98.989 E7.18071
G1 X98.565 Y99.252 E7.18735
G1 X98.542 Y99.423 E7.19146
G1 X92.417 Y93.297 E7.39759
G1 X92.274 Y94.036 E7.41548
G1 X100.806 Y102.568 E7.70256
G1 X100.693 Y102.730 E7.70727
G1 X100.659 Y102.923 E7.71194
G1 X100.570 Y103.213 E7.71914
G1 X92.132 Y94.775 E8.00306
G1 X92.105 Y94.914 E8.00643
G1 X92.604 Y96.058 E8.03613
G1 X93.457 Y96.932 E8.06518
G1 X93.510 Y97.034 E8.06792
G1 X105.245 Y108.768 E8.46277
G1 X104.697 Y109.101 E8.47803
G1 X94.177 Y98.582 E8.83199
G1 X94.281 Y98.937 E8.84079
G1 X94.447 Y99.733 E8.86014
G1 X104.149 Y109.435 E9.18659
G1 X104.039 Y109.502 E9.18966
G1 X103.518 Y109.685 E9.20279
G1 X94.853 Y101.019 E9.49437
G1 X95.211 Y101.896 E9.51689
G1 X95.959 Y103.007 E9.54877
G1 X97.014 Y103.581 E9.57734
G1 X97.511 Y104.162 E9.59554
G1 X97.755 Y104.396 E9.60356
G1 X97.672 Y104.719 E9.61151
G1 X102.866 Y109.914 E9.78629
G1 X102.513 Y110.038 E9.79519
G1 X102.334 Y110.050 E9.79946
G1 X102.331 Y109.963 E9.80153
G1 X102.034 Y109.963 E9.80860
G1 X97.492 Y105.421 E9.96143
G1 X97.380 Y105.846 E9.97189
G1 X97.440 Y105.855 E9.97333
G1 X97.405 Y106.214 E9.98192
G1 X101.136 Y109.945 E10.10747
G1 X100.928 Y109.928 E10.11245
G1 X99.936 Y109.626 E10.13711
G1 X97.326 Y107.016 E10.22493
G1 X97.276 Y107.527 E10.23714
G1 X97.561 Y108.132 E10.25306
G1 X98.444 Y109.015 E10.28278
G1 X98.154 Y108.865 E10.29057
G1 X98.026 Y108.597 E10.29763
G1 E8.29763 F2400.00000
G92 E0
G1 X93.588 Y91.162 F7800.000
G1 E2.00000 F2400.00000
G1 F1160.98
G1 X94.082 Y91.656 E2.01988
G1 X95.743 Y92.370 E2.07126
G1 X94.541 Y91.168 E2.11958
G1 X95.114 Y91.011 E2.13647
G1 X95.220 Y90.899 E2.14085
G1 X96.207 Y91.887 E2.18055
G1 X96.295 Y91.680 E2.18695
G1 X96.458 Y91.190 E2.20162
G1 X95.684 Y90.416 E2.23274
G1 X95.856 Y90.228 E2.23998
G1 X96.207 Y89.992 E2.25201
G1 X96.702 Y90.487 E2.27189
G1 Z0.900 F7800.000
G1 X97.371 Y90.276 F7800.000
G1 F1200
G1 X96.673 Y90.975 E2.30388
G1 X96.570 Y91.384 E2.31752
G1 X96.391 Y91.919 E2.33580
G1 X96.328 Y92.050 E2.34051
G1 X96.235 Y92.491 E2.35508
G1 X97.231 Y91.495 E2.40065
G1 X97.090 Y92.113 E2.42115
G1 X97.070 Y92.735 E2.44130
G1 X96.574 Y93.231 E2.46401
G1 X95.605 Y93.121 F7800.000
G1 F1200
G1 X96.227 Y92.499 E2.49249
G1 X96.663 Y92.290 E2.50813
G1 X96.730 Y91.996 E2.51787
G1 X95.475 Y92.453 F7800.000
G1 F1200
G1 X94.981 Y92.947 E2.54051
G1 X94.216 Y92.633 F7800.000
G1 F1200
G1 X94.714 Y92.135 E2.56332
G1 X94.204 Y92.582 F7800.000
G1 F4800
G1 X92.272 Y94.514 E2.62835
G1 X92.105 Y95.379 E2.64931
G1 X92.161 Y95.506 E2.65261
G1 X94.800 Y92.867 E2.74143
G1 X94.997 Y92.960 E2.74661
G1 X95.460 Y93.088 E2.75804
G1 X92.428 Y96.120 E2.86006
G1 X92.604 Y96.523 E2.87053
G1 X92.753 Y96.676 E2.87560
G1 X96.148 Y93.281 E2.98986
G1 X96.623 Y93.442 E3.00179
G1 X96.702 Y93.428 E3.00369
G1 X96.797 Y93.513 E3.00671
G1 X93.188 Y97.122 E3.12815
G1 X94.116 Y98.837 F7800.000
G1 F4800
G1 X101.269 Y91.684 E3.36884
G1 X100.721 Y91.351 E3.38409
G1 X93.875 Y98.196 E3.61445
G1 X93.573 Y97.618 E3.62998
G1 X100.150 Y91.041 E3.85129
G1 X99.756 Y90.845 E3.86176
G1 X99.535 Y90.775 E3.86727
G1 X97.202 Y93.108 E3.94578
G1 X97.208 Y92.660 E3.95645
G1 X97.307 Y92.196 E3.96774
G1 X97.355 Y92.074 E3.97085
G1 X98.868 Y90.561 E4.02177
G1 E2.02177 F2400.00000
G92 E0
G1 X100.876 Y92.076 F7800.000
G1 E2.00000 F2400.00000
G1 F4800
G1 X100.862 Y92.067 E2.00041
G1 X100.814 Y92.138 E2.00245
G1 X101.341 Y91.611 E2.02019
G1 X101.863 Y91.970 E2.03526
G1 X94.307 Y99.526 E2.28951
G1 X94.448 Y100.201 E2.30592
G1 X94.462 Y100.252 E2.30718
G1 X97.577 Y97.138 E2.41198
G1 X97.624 Y97.283 E2.41560
G1 X97.904 Y97.691 E2.42739
G1 X94.652 Y100.943 E2.53682
G1 X94.694 Y101.096 E2.54059
G1 X94.893 Y101.583 E2.55311
G1 X98.179 Y98.297 E2.66367
G1 X98.208 Y98.329 E2.66468
G1 X98.309 Y98.559 E2.67066
G1 X98.350 Y99.008 E2.68138
G1 X95.149 Y102.208 E2.78908
G1 X95.211 Y102.360 E2.79299
G1 X95.481 Y102.757 E2.80441
G1 X98.572 Y99.666 E2.90842
G1 X98.703 Y99.960 E2.91608
G1 X98.925 Y100.194 E2.92375
G1 X95.837 Y103.282 E3.02766
G1 X95.967 Y103.473 E3.03314
G1 X96.335 Y103.665 E3.04303
G1 X99.488 Y100.512 E3.14914
G1 X99.867 Y100.453 E3.15825
G1 X100.123 Y100.359 E3.16475
G1 X100.474 Y100.163 E3.17432
G1 X100.652 Y100.041 E3.17945
G1 X100.723 Y99.963 E3.18196
G1 X101.074 Y99.807 E3.19109
G1 X96.907 Y103.974 E3.33132
G1 X97.056 Y104.055 E3.33536
G1 X97.150 Y104.165 E3.33878
G1 X97.450 Y104.312 E3.34674
G1 X105.717 Y96.045 E3.62491
G1 X106.041 Y96.602 E3.64023
G1 X97.929 Y104.714 E3.91321
G1 X97.825 Y105.699 E3.93677
G1 X100.637 Y102.887 E4.03139
G1 X100.657 Y102.921 E4.03234
G1 X100.540 Y103.096 E4.03735
G1 X100.853 Y103.551 E4.05049
G1 X97.793 Y106.612 E4.15349
G1 X98.060 Y107.226 E4.16941
G1 X101.630 Y103.655 E4.28955
G1 X101.865 Y103.652 E4.29515
G1 X102.599 Y103.373 E4.31382
G1 X102.700 Y103.325 E4.31648
G1 X103.097 Y103.002 E4.32866
G1 X103.269 Y102.897 E4.33345
G1 X98.473 Y107.694 E4.49484
G1 X98.938 Y108.109 E4.50969
G1 X107.327 Y99.720 E4.79196
G1 X107.451 Y100.112 E4.80173
G1 X107.487 Y100.441 E4.80961
G1 X99.390 Y108.539 E5.08209
G1 X99.656 Y108.812 E5.09118
G1 X99.858 Y108.951 E5.09700
G1 X107.575 Y101.235 E5.35667
G1 X107.662 Y102.028 E5.37567
G1 X100.379 Y109.311 E5.62072
G1 X100.551 Y109.429 E5.62566
G1 X100.830 Y109.564 E5.63306
G1 X100.993 Y109.578 E5.63695
G1 X107.665 Y102.907 E5.86143
G1 X107.560 Y103.892 E5.88500
G1 X101.819 Y109.633 E6.07818
G1 X102.004 Y109.633 E6.08258
G1 X102.974 Y109.359 E6.10658
G1 X107.130 Y105.203 E6.24640
G1 X106.834 Y106.081 E6.26843
G1 X106.389 Y106.825 E6.28905
G1 X104.629 Y108.585 E6.34829
G1 X103.253 Y102.914 F7800.000
G1 F4800
G1 X107.115 Y99.052 E6.47824
G1 X106.902 Y98.383 E6.49493
G1 X103.439 Y101.846 E6.61146
G1 X103.462 Y101.785 E6.61303
G1 X103.279 Y101.462 E6.62185
G1 X103.011 Y101.393 E6.62843
G1 X106.690 Y97.715 E6.75222
G1 X106.366 Y97.158 E6.76755
G1 X102.019 Y101.505 E6.91381
G1 X101.666 Y101.634 E6.92275
G1 X101.355 Y101.822 E6.93140
G1 X101.118 Y101.917 E6.93749
G1 X100.650 Y102.233 E6.95090
G1 X100.676 Y102.285 E6.95229
G1 X100.597 Y102.370 E6.95505
G1 X100.438 Y102.428 E6.95908
G1 X100.234 Y102.721 E6.96758
G1 X100.104 Y103.235 E6.98020
G1 X100.172 Y103.352 E6.98340
G1 E4.98340 F2400.00000
G92 E0
G1 X102.131 Y98.750 F7800.000
G1 E2.00000 F2400.00000
G1 F4800
G1 X105.390 Y95.491 E2.10968
G1 X104.991 Y95.009 E2.12457
G1 X101.844 Y98.156 E2.23046
G1 X101.459 Y97.660 E2.24540
G1 X104.592 Y94.527 E2.35084
G1 X104.194 Y94.045 E2.36573
G1 X100.714 Y97.524 E2.48281
G1 X100.658 Y97.510 E2.48419
G1 X100.231 Y97.522 E2.49436
G1 X100.035 Y97.558 E2.49909
G1 X99.965 Y97.595 E2.50098
G1 X99.724 Y97.633 E2.50678
G1 X103.783 Y93.574 E2.64335
G1 X103.316 Y93.160 E2.65820
G1 X98.883 Y97.593 E2.80737
G1 X98.697 Y97.411 E2.81357
G1 X98.391 Y97.205 E2.82236
G1 X102.850 Y92.745 E2.97240
G1 X102.384 Y92.331 E2.98725
G1 X97.715 Y97.000 E3.14435
G1 X97.360 Y97.003 E3.15279
G1 X97.134 Y97.182 E3.15966
G1 X97.072 Y97.486 E3.16703
G1 X97.111 Y97.603 E3.16998
G1 E1.16998 F2400.00000
G92 E0
G1 X97.378 Y107.206 F7800.000
G1 E2.00000 F2400.00000
G1 F1200
G1 X97.872 Y106.711 E2.02128
G1 X98.130 Y107.295 E2.04070
G1 X98.227 Y107.371 E2.04444
G1 X97.397 Y108.201 E2.08016
G1 X97.698 Y108.841 E2.10168
G1 X97.746 Y108.866 E2.10333
G1 X98.764 Y107.847 E2.14718
G1 X99.298 Y108.328 E2.16904
G1 X98.410 Y109.216 E2.20725
G1 X98.914 Y109.462 E2.22432
G1 X99.124 Y109.516 E2.23093
G1 X99.808 Y108.833 E2.26033
G1 X100.408 Y109.246 E2.28253
G1 X99.914 Y109.741 E2.30381
G1 E0.30381 F2400.00000
G92 E0
G1 X99.276 Y98.987 F7800.000
G1 E2.00000 F2400.00000
G1 F1200
G1 X99.771 Y98.492 E2.02192
G1 X99.412 Y97.807 F7800.000
G1 F1200
G1 X98.917 Y98.301 E2.04383
M106 S255
G1 Z1.200 F7800.000
G1 E0.04383 F2400.00000
G92 E0
G1 X98.966 Y100.728 F7800.000
G1 E2.00000 F2400.00000
G1 F4184.31
G1 X99.268 Y100.694 E2.00722
G1 X99.433 Y100.641 E2.01134
G1 X99.655 Y100.536 E2.01719
G1 X101.251 Y102.132 E2.07090
G1 X101.455 Y102.000 E2.07667
G1 X101.424 Y101.943 E2.07820
G1 X101.731 Y101.731 E2.08708
G1 X100.250 Y100.250 E2.13689
G1 X100.745 Y100.054 E2.14956
G1 X100.868 Y99.987 E2.15289
G1 X102.294 Y101.413 E2.20088
G1 X102.784 Y101.022 E2.21579
G1 X101.518 Y99.756 E2.25839
G1 X101.702 Y99.686 E2.26308
G1 X102.036 Y99.393 E2.27364
G1 X103.146 Y100.503 E2.31099
G1 E0.31099 F2400.00000
G92 E0
G1 X101.750 Y97.345 F7800.000
G1 E2.00000 F2400.00000
G1 F4184.31
G1 X97.736 Y93.331 E2.13505
G1 X97.639 Y93.576 E2.14131
G1 X97.372 Y93.714 E2.14846
G1 X97.263 Y93.739 E2.15113
G1 X100.710 Y97.187 E2.26715
G1 X100.384 Y97.226 E2.27496
G1 X100.236 Y97.204 E2.27855
G1 X99.893 Y97.250 E2.28678
G1 X96.458 Y93.815 E2.40237
G1 X96.074 Y93.967 E2.41218
G1 X95.590 Y93.828 E2.42417
G1 X98.652 Y96.890 E2.52721
G1 X98.583 Y96.860 E2.52901
G1 X98.232 Y96.817 E2.53741
G1 X98.055 Y96.898 E2.54205
G1 X97.934 Y96.969 E2.54538
G1 X97.922 Y96.997 E2.54610
G1 X97.880 Y96.999 E2.54711
G1 X94.403 Y93.522 E2.66411
G1 X94.160 Y93.460 E2.67008
G1 X93.455 Y93.123 E2.68867
G1 X93.129 Y93.129 E2.69644
G1 X97.563 Y97.563 E2.84566
G1 X97.634 Y97.763 E2.85071
G1 X97.883 Y98.119 E2.86104
G1 X98.098 Y98.602 E2.87362
G1 X98.062 Y98.615 E2.87453
G1 X98.186 Y99.067 E2.88569
G1 X92.623 Y93.504 E3.07287
G1 X92.387 Y94.149 E3.08920
G1 X98.746 Y100.508 E3.30319
G1 X98.810 Y100.738 E3.30887
G1 X98.959 Y100.941 E3.31485
G1 X99.306 Y101.188 E3.32498
G1 X99.432 Y101.193 E3.32798
G1 X100.780 Y102.542 E3.37336
G1 X100.676 Y102.689 E3.37765
G1 X100.621 Y102.975 E3.38457
G1 X100.545 Y103.187 E3.38994
G1 X92.132 Y94.775 E3.67302
G1 X92.105 Y94.914 E3.67639
G1 X92.604 Y96.058 E3.70609
G1 X93.457 Y96.932 E3.73513
G1 X93.510 Y97.034 E3.73787
G1 X104.870 Y108.394 E4.12013
G1 X104.422 Y108.639 E4.13228
G1 X104.286 Y108.690 E4.13575
G1 X94.177 Y98.582 E4.47588
G1 X94.281 Y98.937 E4.48468
G1 X94.447 Y99.733 E4.50402
G1 X103.551 Y108.836 E4.81034
G1 X102.803 Y108.849 E4.82815
G1 X102.663 Y108.829 E4.83150
G1 X98.033 Y104.199 E4.98730
G1 X98.045 Y104.185 E4.98775
G1 X97.805 Y103.877 E4.99703
G1 X97.616 Y103.745 E5.00251
G1 X97.564 Y103.731 E5.00379
G1 X94.853 Y101.019 E5.09503
G1 X101.119 Y103.761 F7800.000
G1 F4184.31
G1 X105.381 Y108.023 E5.23844
G1 X105.843 Y107.605 E5.25328
G1 X101.754 Y103.516 E5.39087
G1 X102.244 Y103.318 E5.40345
G1 X102.286 Y103.376 E5.40515
G1 X102.414 Y103.295 E5.40876
G1 X106.227 Y107.108 E5.53707
G1 X106.560 Y106.560 E5.55233
G1 X102.931 Y102.931 E5.67443
G1 X103.143 Y102.802 E5.68032
G1 X103.403 Y102.522 E5.68942
G1 X106.825 Y105.944 E5.80458
G1 X107.055 Y105.293 E5.82100
G1 X103.741 Y101.979 E5.93252
G1 X103.817 Y101.879 E5.93551
G1 X103.971 Y101.500 E5.94526
G1 X103.992 Y101.349 E5.94887
G1 X107.258 Y104.615 E6.05876
G1 X107.360 Y103.837 E6.07743
G1 X102.394 Y98.871 E6.24454
G1 X102.510 Y98.106 E6.26295
G1 X107.458 Y103.054 E6.42944
G1 X107.487 Y102.809 E6.43530
G1 X107.415 Y102.129 E6.45157
G1 X98.058 Y92.772 E6.76642
G1 X98.287 Y92.121 E6.78286
G1 X107.315 Y101.149 E7.08664
G1 X107.253 Y100.531 E7.10142
G1 X107.106 Y100.058 E7.11320
G1 X98.669 Y91.622 E7.39707
G1 X99.071 Y91.407 E7.40792
G1 X99.312 Y91.384 E7.41368
G1 X106.705 Y98.777 E7.66244
G1 X105.861 Y97.052 F7800.000
G1 F4184.31
G1 X100.430 Y91.620 E7.84520
G1 X101.864 Y92.514 E7.88540
G1 X103.568 Y93.980 E7.93889
G1 X103.607 Y93.941 E7.94020
G1 X104.909 Y95.518 E7.98884
G1 X105.057 Y95.775 E7.99591
G1 X104.963 Y95.830 E7.99850
G1 X105.396 Y96.587 E8.01925
G1 E6.01925 F2400.00000
G92 E0
G1 X99.532 Y91.288 F7800.000
G1 E2.00000 F2400.00000
G1 F1046.08
G1 X99.037 Y90.794 E2.02263
G1 X98.789 Y91.624 F7800.000
G1 F1046.08
G1 X97.995 Y90.830 E2.05900
G1 X97.687 Y91.028 E2.07085
G1 X97.577 Y91.143 E2.07601
G1 X97.473 Y91.387 E2.08458
G1 X98.294 Y92.208 E2.12214
G1 X98.181 Y92.437 E2.13042
G1 X98.005 Y92.959 E2.14825
G1 X97.985 Y92.978 E2.14913
G1 X97.230 Y92.222 E2.18371
G1 X97.223 Y92.730 E2.20013
G1 X97.160 Y93.063 E2.21111
G1 X97.072 Y93.143 E2.21497
G1 X97.573 Y93.644 E2.23789
G1 X97.555 Y93.648 E2.23847
G1 X97.566 Y93.637 E2.23896
G1 E0.23896 F2400.00000
G92 E0
G1 X98.064 Y106.694 F7800.000
G1 E2.00000 F2400.00000
G1 F1046.08
G1 X100.187 Y108.817 E2.09720
G1 X101.049 Y109.411 E2.13109
G1 X101.320 Y109.542 E2.14083
G1 X102.052 Y109.603 E2.16462
G1 X100.769 Y108.320 E2.22338
G1 X101.801 Y108.901 E2.26174
G1 X102.287 Y108.968 E2.27761
G1 X102.492 Y108.964 E2.28425
G1 X102.986 Y109.459 E2.30688
G1 E0.30688 F2400.00000
G92 E0
G1 X99.521 Y107.072 F7800.000
G1 E2.00000 F2400.00000
G1 F1046.08
G1 X97.827 Y105.378 E2.07755
G1 X97.709 Y105.880 E2.09424
G1 X98.064 Y106.694 E2.12298
G1 Z1.500 F7800.000
G1 E0.12298 F2400.00000
G92 E0
G1 X104.178 Y107.274 F7800.000
G1 E2.00000 F2400.00000
G1 F4233.96
G1 X105.817 Y105.635 E2.05516
G1 X106.133 Y105.165 E2.06863
G1 X106.438 Y104.625 E2.08339
G1 X106.788 Y103.889 E2.10277
G1 X106.819 Y103.752 E2.10611
G1 X102.938 Y107.633 E2.23671
G1 X102.470 Y107.572 E2.24795
G1 X102.203 Y107.487 E2.25459
G1 X107.073 Y102.617 E2.41844
G1 X107.190 Y102.153 E2.42983
G1 X107.157 Y101.652 E2.44178
G1 X101.615 Y107.194 E2.62826
G1 X101.258 Y106.911 E2.63911
G1 X101.147 Y106.781 E2.64316
G1 X107.096 Y100.832 E2.84333
G1 X107.035 Y100.012 E2.86290
G1 X100.742 Y106.305 E3.07464
G1 X100.684 Y106.236 E3.07680
G1 X100.255 Y105.912 E3.08959
G1 X102.859 Y103.307 E3.17723
G1 X102.613 Y103.465 E3.18419
G1 X101.925 Y103.728 E3.20172
G1 X101.797 Y103.768 E3.20491
G1 X101.526 Y103.760 E3.21136
G1 X99.791 Y105.495 E3.26976
G1 X99.766 Y105.473 E3.27054
G1 X99.539 Y105.492 E3.27595
G1 X99.081 Y105.323 E3.28757
G1 X100.841 Y103.564 E3.34678
G1 X100.635 Y103.323 E3.35431
G1 X100.613 Y102.911 E3.36415
G1 X98.530 Y104.994 E3.43424
G1 X98.072 Y104.692 E3.44729
G1 X98.014 Y104.628 E3.44933
G1 X102.266 Y100.377 E3.59240
G1 X102.347 Y100.214 E3.59671
G1 X102.347 Y100.125 E3.59883
G1 X102.286 Y100.029 E3.60153
G1 X101.927 Y100.062 E3.61011
G1 X101.609 Y100.153 E3.61798
G1 X97.565 Y104.196 E3.75404
G1 X97.007 Y104.037 E3.76786
G1 X96.904 Y103.977 E3.77070
G1 X100.135 Y100.746 E3.87944
G1 X100.035 Y100.799 E3.88213
G1 X99.629 Y100.941 E3.89236
G1 X99.334 Y100.890 E3.89949
G1 X99.165 Y100.835 E3.90372
G1 X96.337 Y103.663 E3.99888
G1 X95.982 Y103.476 E4.00843
G1 X95.844 Y103.275 E4.01422
G1 X98.825 Y100.294 E4.11455
G1 X98.769 Y100.125 E4.11878
G1 X98.556 Y99.682 E4.13048
G1 X95.484 Y102.754 E4.23385
G1 X95.211 Y102.359 E4.24528
G1 X95.149 Y102.208 E4.24916
G1 X98.309 Y99.049 E4.35548
G1 X98.119 Y98.357 E4.37254
G1 X94.893 Y101.583 E4.48109
G1 X94.694 Y101.096 E4.49362
G1 X94.652 Y100.943 E4.49738
G1 X97.902 Y97.693 E4.60674
G1 X97.624 Y97.283 E4.61855
G1 X97.577 Y97.138 E4.62217
G1 X94.462 Y100.252 E4.72697
G1 X94.307 Y99.526 E4.74464
G1 X101.414 Y92.420 E4.98375
G1 X101.043 Y92.329 E4.99282
G1 X100.646 Y92.307 E5.00229
G1 X94.116 Y98.837 E5.22203
G1 X93.995 Y98.425 E5.23223
G1 X93.875 Y98.196 E5.23838
G1 X98.646 Y93.426 E5.39890
G1 X98.422 Y93.447 E5.40425
G1 X98.191 Y93.569 E5.41047
G1 X98.074 Y93.590 E5.41329
G1 X97.836 Y93.715 E5.41968
G1 X97.526 Y93.784 E5.42725
G1 X97.422 Y93.769 E5.42974
G1 X93.573 Y97.618 E5.55927
G1 X93.457 Y97.397 E5.56521
G1 X93.188 Y97.122 E5.57436
G1 X95.915 Y94.395 E5.66612
G1 X95.220 Y94.209 E5.68323
G1 X92.753 Y96.676 E5.76626
G1 X92.611 Y96.530 E5.77111
G1 X92.654 Y96.516 E5.77219
G1 X92.537 Y96.011 E5.78452
G1 X94.520 Y94.028 E5.85127
G1 X94.254 Y93.959 E5.85781
G1 X93.938 Y93.808 E5.86615
G1 X93.858 Y93.809 E5.86806
G1 X92.370 Y95.297 E5.91810
G1 X92.359 Y95.249 E5.91927
G1 X92.622 Y94.524 E5.93761
G1 X93.027 Y94.281 E5.94884
G1 X93.392 Y94.275 E5.95754
G1 X97.111 Y97.603 F7800.000
G1 F4233.96
G1 X97.072 Y97.486 E5.96049
G1 X97.134 Y97.182 E5.96787
G1 X97.360 Y97.003 E5.97474
G1 X97.451 Y96.997 E5.97691
G1 X97.459 Y96.975 E5.97747
G1 X97.897 Y96.712 E5.98963
G1 X97.993 Y96.722 E5.99192
G1 X102.050 Y92.664 E6.12846
G1 X102.302 Y92.763 E6.13489
G1 X102.612 Y92.983 E6.14394
G1 X98.702 Y96.893 E6.27551
G1 X98.811 Y96.922 E6.27819
G1 X99.256 Y96.957 E6.28880
G1 X99.407 Y96.930 E6.29246
G1 X99.542 Y96.934 E6.29567
G1 X103.126 Y93.350 E6.41627
G1 X103.602 Y93.755 E6.43114
G1 X100.347 Y97.010 E6.54067
G1 X100.629 Y97.064 E6.54749
G1 X100.792 Y97.045 E6.55141
G1 X101.141 Y97.097 E6.55980
G1 X104.097 Y94.141 E6.65927
G1 X104.496 Y94.623 E6.67416
G1 X102.086 Y97.033 E6.75525
G1 X102.255 Y97.009 E6.75933
G1 X102.466 Y97.232 E6.76664
G1 X102.641 Y97.271 E6.77091
G1 X102.695 Y97.305 E6.77242
G1 X104.894 Y95.106 E6.84643
G1 X105.291 Y95.590 E6.86132
G1 X103.066 Y97.815 E6.93618
G1 X103.111 Y97.870 E6.93788
G1 X103.270 Y98.237 E6.94739
G1 X103.289 Y98.473 E6.95303
G1 X105.612 Y96.150 E7.03118
G1 X105.932 Y96.711 E7.04654
G1 X105.444 Y97.199 E7.06297
G1 X105.859 Y96.783 F7800.000
G1 F4233.96
G1 X103.378 Y99.265 E7.14646
G1 X103.393 Y99.364 E7.14884
G1 X103.489 Y99.549 E7.15381
G1 X103.675 Y99.669 E7.15906
G1 X103.751 Y99.773 E7.16213
G1 X106.165 Y97.359 E7.24337
G1 X106.372 Y97.750 E7.25390
G1 X106.436 Y97.969 E7.25933
G1 X104.061 Y100.343 E7.33922
G1 X104.142 Y100.494 E7.34330
G1 X104.269 Y101.016 E7.35608
G1 X106.636 Y98.650 E7.43569
G1 X106.835 Y99.331 E7.45258
G1 X104.092 Y102.075 E7.54490
G1 X103.429 Y100.463 F7800.000
G1 F1058.49
G1 X103.923 Y99.969 E7.56650
G1 X103.737 Y99.632 E7.57840
G1 X103.511 Y99.485 E7.58674
G1 X103.465 Y99.398 E7.58978
G1 X102.452 Y100.411 E7.63403
G1 X102.356 Y100.258 E7.63960
G1 X102.307 Y99.864 E7.65187
G1 X102.064 Y99.886 E7.65940
G1 X102.358 Y99.607 E7.67193
G1 X102.406 Y99.428 E7.67766
G1 X103.109 Y98.725 E7.70836
G1 X103.169 Y98.499 E7.71558
G1 X103.125 Y98.272 E7.72272
G1 X103.170 Y97.953 E7.73266
G1 X103.084 Y97.720 E7.74034
G1 X102.590 Y98.215 E7.76193
G1 E5.76193 F2400.00000
G92 E0
G1 X99.275 Y105.369 F7800.000
G1 E2.00000 F2400.00000
G1 F1058.49
G1 X98.781 Y105.864 E2.01936
G1 X99.222 Y106.345 E2.03744
G1 X99.949 Y105.618 E2.06589
G1 X100.035 Y105.611 E2.06829
G1 X100.488 Y106.001 E2.08485
G1 X99.652 Y106.837 E2.11758
G1 X100.062 Y107.350 E2.13576
G1 X100.966 Y106.447 E2.17114
G1 X101.320 Y106.863 E2.18628
G1 X101.404 Y106.930 E2.18927
G1 X100.471 Y107.863 E2.22581
G1 X100.557 Y107.971 E2.22963
G1 X101.027 Y108.230 E2.24448
G1 X101.919 Y107.338 E2.27940
G1 X102.030 Y107.426 E2.28334
G1 X102.578 Y107.601 E2.29927
G1 X101.617 Y108.562 E2.33690
G1 X102.008 Y108.782 E2.34929
G1 X102.283 Y108.820 E2.35698
G1 X103.352 Y107.751 E2.39883
G1 X103.670 Y107.748 E2.40766
G1 X104.007 Y107.622 E2.41760
G1 X104.581 Y107.444 E2.43423
G1 X103.214 Y108.811 E2.48775
G1 E0.48775 F2400.00000
G92 E0
G1 X105.514 Y107.434 F7800.000
G1 E2.00000 F2400.00000
G1 F1058.49
G1 X106.008 Y106.939 E2.01936
G1 X106.288 Y105.737 F7800.000
G1 F1058.49
G1 X106.931 Y105.094 E2.04452
G1 E0.04452 F2400.00000
G92 E0
G1 X100.521 Y92.208 F7800.000
G1 E2.00000 F2400.00000
G1 F1058.49
G1 X101.015 Y91.713 E2.02017
G1 X99.566 Y92.201 F7800.000
G1 F1058.49
G1 X100.323 Y91.445 E2.05101
G1 X99.935 Y91.393 E2.06228
G1 X99.562 Y91.429 E2.07311
G1 X99.222 Y91.597 E2.08403
G1 X98.662 Y92.144 E2.10660
G1 Z1.800 F7800.000
G1 X99.116 Y92.895 F7800.000
G1 F995.82
G1 X99.610 Y93.389 E2.12627
G1 X99.733 Y93.413 E2.12978
G1 X100.255 Y93.332 E2.14467
G1 X100.422 Y93.352 E2.14940
G1 X100.480 Y93.322 E2.15123
G1 X99.608 Y92.450 E2.18593
G1 X99.758 Y92.317 E2.19156
G1 X99.803 Y92.309 E2.19284
G1 X100.441 Y92.345 E2.21084
G1 X101.253 Y93.157 E2.24312
G1 X101.843 Y92.809 F7800.000
G1 F995.82
G1 X102.337 Y93.304 E2.26280
G1 E0.26280 F2400.00000
G92 E0
G1 X106.982 Y100.394 F7800.000
G1 E2.00000 F2400.00000
G1 F995.82
G1 X106.488 Y99.900 E2.01967
G1 X106.548 Y100.862 E2.04679
G1 X107.077 Y101.391 E2.06783
G1 X107.146 Y102.362 E2.09524
G1 X106.599 Y101.815 E2.11702
G1 X106.412 Y102.530 E2.13781
G1 X107.036 Y103.154 E2.16264
G1 X106.872 Y103.891 E2.18389
G1 X106.189 Y103.208 E2.21106
G1 X106.085 Y103.454 E2.21858
G1 X105.845 Y103.766 E2.22965
G1 X106.660 Y104.581 E2.26210
G1 X106.364 Y105.186 E2.28106
G1 X105.473 Y104.295 E2.31650
G1 X105.102 Y104.826 E2.33472
G1 X106.029 Y105.754 E2.37163
G1 X105.669 Y106.295 E2.38993
G1 X104.709 Y105.335 E2.42812
G1 X104.188 Y105.716 E2.44628
G1 X105.249 Y106.777 E2.48848
G1 X104.759 Y107.188 E2.50649
G1 X103.592 Y106.021 E2.55293
G1 X103.331 Y106.070 E2.56040
G1 X102.774 Y106.106 E2.57609
G1 X104.093 Y107.424 E2.62857
G1 X103.551 Y107.608 E2.64469
G1 X103.403 Y107.611 E2.64883
G1 X103.374 Y107.607 E2.64967
G1 X101.695 Y105.928 E2.71647
G1 X101.357 Y105.879 E2.72606
G1 X101.073 Y105.713 E2.73535
G1 X100.794 Y105.845 E2.74402
G1 X101.268 Y106.403 E2.76464
G1 X101.763 Y106.897 E2.78431
G1 E0.78431 F2400.00000
G92 E0
G1 X101.192 Y103.835 F7800.000
G1 E2.00000 F2400.00000
G1 F3983.28
G1 X103.338 Y105.981 E2.07221
G1 X103.736 Y105.955 E2.08171
G1 X104.094 Y105.888 E2.09037
G1 X104.112 Y105.874 E2.09092
G1 X101.888 Y103.650 E2.16576
G1 X102.074 Y103.591 E2.17041
G1 X102.462 Y103.343 E2.18137
G1 X104.611 Y105.492 E2.25368
G1 X104.778 Y105.373 E2.25857
G1 X105.038 Y105.038 E2.26865
G1 X102.999 Y102.999 E2.33728
G1 X103.102 Y102.933 E2.34019
G1 X103.446 Y102.565 E2.35218
G1 X105.401 Y104.520 E2.41796
G1 X105.764 Y104.002 E2.43300
G1 X103.856 Y102.094 E2.49723
G1 X104.006 Y101.880 E2.50344
G1 X104.108 Y101.559 E2.51146
G1 X104.182 Y101.576 E2.51326
G1 X104.191 Y101.548 E2.51395
G1 X106.111 Y103.469 E2.57858
G1 X106.328 Y102.804 E2.59521
G1 X104.398 Y100.874 E2.66013
G1 X104.429 Y100.766 E2.66282
G1 X104.361 Y99.956 E2.68215
G1 X106.470 Y102.065 E2.75311
G1 X106.416 Y101.131 E2.77539
G1 X103.571 Y98.286 E2.87112
G1 X103.611 Y98.083 E2.87603
G1 X103.612 Y97.902 E2.88033
G1 X103.551 Y97.711 E2.88511
G1 X103.510 Y97.428 E2.89190
G1 X103.374 Y97.208 E2.89807
G1 X106.310 Y100.144 E2.99686
G1 X105.958 Y98.910 E3.02738
G1 X100.370 Y93.322 E3.21541
G1 X100.624 Y93.269 E3.22160
G1 X101.226 Y93.298 E3.23593
G1 X105.318 Y97.390 E3.37362
G1 X102.978 Y96.811 F7800.000
G1 F3983.28
G1 X99.640 Y93.474 E3.48592
G1 X99.180 Y93.556 E3.49704
G1 X99.077 Y93.509 E3.49974
G1 X98.723 Y93.437 E3.50834
G1 X102.096 Y96.810 E3.62184
G1 X101.860 Y96.845 E3.62751
G1 X101.660 Y96.847 E3.63228
G1 X101.327 Y96.923 E3.64039
G1 X97.888 Y93.484 E3.75611
G1 X97.724 Y93.569 E3.76053
G1 X97.486 Y93.612 E3.76626
G1 X97.492 Y93.688 E3.76808
G1 X97.263 Y93.739 E3.77366
G1 X100.353 Y96.829 E3.87763
G1 X100.160 Y96.804 E3.88225
G1 X99.995 Y96.749 E3.88639
G1 X99.345 Y96.702 E3.90190
G1 X96.458 Y93.815 E3.99906
G1 X96.165 Y93.931 E4.00655
G1 X95.982 Y94.220 E4.01469
G1 X98.383 Y96.621 E4.09548
G1 X98.297 Y96.646 E4.09761
G1 X98.035 Y96.875 E4.10588
G1 X98.007 Y96.867 E4.10659
G1 X97.914 Y97.033 E4.11112
G1 X95.572 Y94.691 E4.18993
G1 X95.064 Y94.901 E4.20301
G1 X94.841 Y94.841 E4.20850
G1 X97.955 Y97.955 E4.31328
G1 X98.025 Y98.480 E4.32588
G1 X98.155 Y99.036 E4.33947
G1 X93.637 Y94.518 E4.49149
G1 X93.583 Y94.505 E4.49282
G1 X93.029 Y94.791 E4.50765
G1 X98.642 Y100.404 E4.69653
G1 X98.661 Y100.474 E4.69825
G1 X98.647 Y100.757 E4.70499
G1 X98.689 Y100.910 E4.70877
G1 X99.050 Y101.457 E4.72437
G1 X99.362 Y101.545 E4.73207
G1 X99.542 Y101.617 E4.73669
G1 X99.795 Y101.557 E4.74287
G1 X100.725 Y102.487 E4.77418
G1 X100.714 Y102.504 E4.77467
G1 X100.833 Y102.597 E4.77826
G1 X100.670 Y103.171 E4.79245
G1 X100.676 Y103.319 E4.79597
G1 X92.658 Y95.301 E5.06575
G1 X92.758 Y95.914 E5.08054
G1 X92.905 Y96.195 E5.08808
G1 X93.296 Y96.629 E5.10196
G1 X93.225 Y96.695 E5.10426
G1 X93.457 Y96.932 E5.11214
G1 X93.510 Y97.034 E5.11488
G1 X102.296 Y105.820 E5.41053
G1 X102.038 Y105.784 E5.41674
G1 X101.589 Y105.521 E5.42911
G1 X101.263 Y105.667 E5.43762
G1 X94.177 Y98.582 E5.67603
G1 X94.281 Y98.937 E5.68482
G1 X94.447 Y99.733 E5.70417
G1 X100.191 Y105.476 E5.89743
G1 X100.005 Y105.492 E5.90188
G1 X99.551 Y105.326 E5.91338
G1 X99.199 Y105.142 E5.92283
G1 X98.537 Y104.692 E5.94186
G1 X94.861 Y101.028 E6.06536
G1 X100.725 Y102.487 F7800.000
G1 F3983.28
G1 X101.079 Y101.960 E6.08046
G1 X99.959 Y100.840 E6.11815
G1 X100.616 Y100.616 E6.13467
G1 X101.427 Y101.427 E6.16194
G1 X102.039 Y101.223 F7800.000
G1 F995.82
G1 X101.545 Y100.728 E6.18117
G1 X101.556 Y100.569 E6.18558
G1 X101.434 Y100.341 E6.19268
G1 X101.446 Y100.229 E6.19578
G1 X101.315 Y100.126 E6.20036
G1 X101.456 Y100.085 E6.20441
G1 X101.787 Y100.055 E6.21355
G1 X102.282 Y100.549 E6.23280
G1 E4.23280 F2400.00000
G92 E0
G1 X94.064 Y94.383 F7800.000
G1 E2.00000 F2400.00000
G1 F995.82
G1 X93.569 Y93.888 E2.02264
G1 X93.450 Y93.831 E2.02692
G1 X93.023 Y93.839 E2.04075
G1 X92.660 Y94.057 E2.05447
G1 X93.305 Y94.703 E2.08403
G1 X93.019 Y94.850 E2.09447
G1 X93.132 Y94.565 E2.10443
G1 X93.154 Y94.551 E2.10525
G1 Z2.100 F7800.000
G1 X93.436 Y95.105 F7800.000
G1 F925.621
G1 X93.203 Y95.223 E2.11368
G1 X93.362 Y95.179 E2.11899
G1 X93.930 Y94.611 E2.14501
G1 X94.083 Y94.533 E2.15057
G1 X94.874 Y94.746 E2.17708
G1 X94.380 Y95.240 E2.19971
G1 X93.686 Y95.743 F7800.000
G1 F3702.49
G1 X93.579 Y95.730 E2.20229
G1 X93.087 Y95.865 E2.21443
G1 X92.833 Y95.995 E2.22121
G1 X92.866 Y96.192 E2.22595
G1 X92.993 Y96.436 E2.23250
G1 X94.152 Y95.277 E2.27149
G1 X94.938 Y95.372 E2.29033
G1 X93.341 Y96.968 E2.34404
G1 X93.607 Y97.263 E2.35348
G1 X93.716 Y97.475 E2.35915
G1 X97.546 Y93.645 E2.48804
G1 X97.701 Y93.657 E2.49174
G1 X98.191 Y93.569 E2.50358
G1 X98.561 Y93.376 E2.51352
G1 X98.681 Y93.391 E2.51638
G1 X93.977 Y98.095 E2.67468
G1 X94.009 Y98.244 E2.67829
G1 X93.980 Y98.254 E2.67900
G1 X94.133 Y98.820 E2.69296
G1 X99.455 Y93.498 E2.87204
G1 X99.671 Y93.550 E2.87733
G1 X99.718 Y93.542 E2.87846
G1 X100.108 Y93.726 E2.88872
G1 X94.327 Y99.506 E3.08323
G1 X94.486 Y100.229 E3.10083
G1 X97.930 Y96.785 E3.21672
G1 X97.893 Y96.986 E3.22159
G1 X97.940 Y97.655 E3.23755
G1 X94.679 Y100.916 E3.34727
G1 X94.728 Y101.090 E3.35158
G1 X94.921 Y101.555 E3.36355
G1 X98.127 Y98.349 E3.47143
G1 X98.351 Y99.006 E3.48795
G1 X95.179 Y102.178 E3.59468
G1 X95.259 Y102.371 E3.59965
G1 X95.479 Y102.760 E3.61027
G1 X98.542 Y99.696 E3.71334
G1 X98.612 Y99.992 E3.72059
G1 X98.563 Y99.998 E3.72178
G1 X98.544 Y100.369 E3.73062
G1 X98.588 Y100.531 E3.73462
G1 X95.832 Y103.287 E3.82735
G1 X96.021 Y103.560 E3.83526
G1 X96.290 Y103.710 E3.84259
G1 X98.825 Y101.175 E3.92790
G1 X98.860 Y101.308 E3.93118
G1 X99.376 Y101.504 E3.94432
G1 X96.850 Y104.031 E4.02934
G1 X97.262 Y104.226 E4.04019
G1 X97.330 Y104.131 E4.04297
G1 X97.516 Y104.245 E4.04816
G1 X100.536 Y101.226 E4.14977
G1 X100.839 Y101.288 E4.15713
G1 X100.821 Y101.331 E4.15824
G1 X100.838 Y101.609 E4.16487
G1 X100.634 Y102.009 E4.17557
G1 X98.014 Y104.628 E4.26371
G1 X98.072 Y104.692 E4.26575
G1 X98.530 Y104.994 E4.27880
G1 X100.703 Y102.821 E4.35190
G1 X100.747 Y103.091 E4.35841
G1 X100.700 Y103.105 E4.35958
G1 X100.687 Y103.561 E4.37044
G1 X100.743 Y103.662 E4.37317
G1 X99.081 Y105.323 E4.42908
G1 X99.539 Y105.492 E4.44070
G1 X99.766 Y105.473 E4.44612
G1 X99.791 Y105.495 E4.44690
G1 X101.342 Y103.943 E4.49911
G1 X101.441 Y103.995 E4.50177
G1 X101.888 Y104.043 E4.51245
G1 X102.341 Y103.825 E4.52442
G1 X100.318 Y105.848 E4.59249
G1 X100.449 Y105.837 E4.59560
G1 X101.124 Y105.521 E4.61333
G1 X101.378 Y105.670 E4.62033
G1 X105.232 Y101.815 E4.75004
G1 X105.100 Y102.344 E4.76301
G1 X104.620 Y103.233 E4.78706
G1 X104.385 Y103.543 E4.79630
G1 X103.336 Y104.592 E4.83160
G1 X104.209 Y101.957 F7800.000
G1 F3702.49
G1 X105.452 Y100.714 E4.87343
G1 X105.436 Y99.850 E4.89400
G1 X104.516 Y100.770 E4.92496
G1 X104.480 Y100.296 E4.93627
G1 X104.368 Y100.037 E4.94299
G1 X105.298 Y99.107 E4.97428
G1 X105.115 Y98.408 E4.99146
G1 X104.086 Y99.438 E5.02610
G1 X103.958 Y99.245 E5.03161
G1 X103.729 Y98.974 E5.04005
G1 X103.723 Y98.920 E5.04134
G1 X104.896 Y97.747 E5.08082
G1 X104.613 Y97.149 E5.09656
G1 X103.685 Y98.077 E5.12781
G1 X103.645 Y97.912 E5.13185
G1 X103.400 Y97.481 E5.14365
G1 X104.336 Y96.545 E5.17513
G1 X104.215 Y96.282 E5.18202
G1 X103.995 Y96.005 E5.19044
G1 X102.915 Y97.085 E5.22677
G1 X102.587 Y96.818 E5.23684
G1 X102.379 Y96.740 E5.24212
G1 X103.604 Y95.515 E5.28334
G1 X103.213 Y95.025 E5.29825
G1 X101.591 Y96.647 E5.35282
G1 X101.297 Y96.723 E5.36004
G1 X100.888 Y96.769 E5.36983
G1 X100.504 Y96.853 E5.37919
G1 X102.689 Y94.668 E5.45274
G1 X102.093 Y94.384 E5.46847
G1 X99.678 Y96.799 E5.54973
G1 X99.529 Y96.748 E5.55347
G1 X99.325 Y96.732 E5.55834
G1 X99.334 Y96.644 E5.56042
G1 X98.995 Y96.600 E5.56854
G1 X101.396 Y94.199 E5.64933
G1 X101.052 Y94.089 E5.65794
G1 X100.670 Y94.045 E5.66709
G1 X98.124 Y96.590 E5.75274
G1 X97.832 Y96.646 E5.75983
G1 X97.643 Y96.811 E5.76579
G1 X97.494 Y97.052 E5.77252
G1 X97.464 Y97.250 E5.77730
G1 X100.280 Y93.885 F7800.000
G1 F925.621
G1 X100.774 Y93.390 E5.79639
G1 X100.880 Y93.334 E5.79966
G1 X101.107 Y93.292 E5.80595
G1 X101.752 Y93.323 E5.82359
G1 X101.001 Y94.074 E5.85259
G1 X101.409 Y94.219 E5.86441
G1 X101.652 Y94.222 E5.87105
G1 X101.727 Y94.257 E5.87332
G1 X102.391 Y93.594 E5.89895
G1 X102.936 Y93.958 E5.91686
G1 X102.349 Y94.545 E5.93951
G1 X102.937 Y94.868 E5.95781
G1 X103.478 Y94.327 E5.97870
G1 X103.885 Y94.829 E5.99636
G1 X103.370 Y95.344 E6.01624
G1 X103.774 Y95.850 E6.03392
G1 X104.292 Y95.332 E6.05392
G1 X104.700 Y95.834 E6.07158
G1 X104.177 Y96.357 E6.09178
G1 X104.248 Y96.446 E6.09490
G1 X104.484 Y96.959 E6.11033
G1 X105.031 Y96.412 E6.13146
G1 X105.342 Y97.011 E6.14988
G1 X104.772 Y97.581 E6.17190
G1 X105.065 Y98.198 E6.19055
G1 X105.650 Y97.613 E6.21314
G1 X105.766 Y97.840 E6.22009
G1 X105.891 Y98.282 E6.23264
G1 X105.261 Y98.912 E6.25698
G1 X105.448 Y99.635 E6.27737
G1 X106.092 Y98.991 E6.30224
G1 X106.295 Y99.697 E6.32232
G1 X105.556 Y100.437 E6.35086
G1 X105.573 Y101.329 E6.37524
G1 X106.381 Y100.521 E6.40645
G1 X106.434 Y101.379 E6.42991
G1 X105.320 Y102.493 E6.47293
G1 X105.183 Y103.038 E6.48827
G1 X104.641 Y104.042 E6.51944
G1 X104.519 Y104.204 E6.52497
G1 X106.270 Y102.453 E6.59259
G1 X106.025 Y103.130 E6.61225
G1 X104.994 Y104.578 E6.66080
G1 X104.767 Y104.865 E6.67077
G1 X104.272 Y105.360 E6.68990
G1 X102.758 Y105.964 F7800.000
G1 F925.621
G1 X104.028 Y104.695 E6.73893
G1 X104.596 Y104.277 E6.75816
G1 X105.013 Y103.709 E6.77741
M106 S247.35
G1 Z2.400 F7800.000
G1 E4.77741 F2400.00000
G92 E0
G1 X100.532 Y103.895 F7800.000
G1 E2.00000 F2400.00000
G1 F1200
G1 X102.253 Y105.616 E2.06731
G1 X102.728 Y105.329 E2.08264
G1 X102.814 Y105.256 E2.08577
G1 X101.662 Y104.103 E2.13083
G1 X101.697 Y104.100 E2.13182
G1 X101.671 Y103.947 E2.13610
G1 X101.930 Y103.827 E2.14400
G1 X102.224 Y103.745 E2.15244
G1 X103.333 Y104.854 E2.19580
G1 X103.445 Y104.768 E2.19968
G1 X103.570 Y104.734 E2.20328
G1 X103.901 Y104.501 E2.21448
G1 X102.720 Y103.319 E2.26069
G1 X102.965 Y103.153 E2.26887
G1 X103.232 Y102.910 E2.27886
G1 X104.349 Y104.027 E2.32255
G1 X104.601 Y103.695 E2.33407
G1 X104.719 Y103.476 E2.34096
G1 X103.693 Y102.450 E2.38107
G1 X103.966 Y102.149 E2.39230
G1 X104.074 Y101.910 E2.39956
G1 X105.042 Y102.878 E2.43742
G1 X105.080 Y102.808 E2.43960
G1 X105.243 Y102.157 E2.45816
G1 X104.361 Y101.275 E2.49264
G1 X104.519 Y100.814 E2.50612
G1 X104.538 Y100.531 E2.51395
G1 X105.434 Y101.427 E2.54897
G1 X105.416 Y100.488 E2.57494
G1 X104.343 Y99.415 E2.61689
G1 X104.229 Y99.131 E2.62535
G1 X104.005 Y98.787 E2.63669
G1 X103.753 Y98.468 E2.64792
G1 X103.734 Y98.215 E2.65495
G1 X103.753 Y97.903 E2.66357
G1 X105.213 Y99.363 E2.72066
G1 X104.970 Y98.440 E2.74706
G1 X104.753 Y97.983 E2.76105
G1 X101.045 Y94.274 E2.90605
G1 X101.298 Y94.359 E2.91343
G1 X101.508 Y94.362 E2.91924
G1 X102.106 Y94.638 E2.93746
G1 X102.612 Y94.920 E2.95346
G1 X103.107 Y95.415 E2.97282
G1 X102.472 Y96.623 F7800.000
G1 F1200
G1 X99.579 Y93.729 E3.08595
G1 X99.132 Y93.503 E3.09980
G1 X98.552 Y93.268 E3.11710
G1 X98.198 Y93.226 E3.12696
G1 X98.126 Y93.198 E3.12909
G1 X101.650 Y96.722 E3.26688
G1 X101.362 Y96.746 E3.27487
G1 X100.852 Y96.845 E3.28923
G1 X96.690 Y92.683 E3.45196
G1 X96.476 Y92.869 E3.45980
G1 X96.265 Y93.179 E3.47017
G1 X99.691 Y96.605 E3.60412
G1 X99.201 Y96.542 E3.61777
G1 X98.683 Y96.518 E3.63213
G1 X95.966 Y93.802 E3.73832
G1 X95.700 Y94.457 E3.75787
G1 X97.963 Y96.720 E3.84635
G1 X97.838 Y97.305 E3.86291
G1 X97.828 Y97.414 E3.86592
G1 X97.848 Y97.526 E3.86905
G1 X95.376 Y95.054 E3.96567
G1 X94.731 Y95.330 E3.98508
G1 X98.154 Y98.753 E4.11891
G1 X98.337 Y99.271 E4.13412
G1 X98.532 Y100.053 E4.15638
G1 X93.795 Y95.315 E4.34160
G1 X93.567 Y95.288 E4.34795
G1 X93.086 Y95.420 E4.36175
G1 X93.015 Y95.456 E4.36395
G1 X98.556 Y100.998 E4.58060
G1 X98.620 Y101.273 E4.58842
G1 X98.764 Y101.513 E4.59617
G1 X98.843 Y101.815 E4.60480
G1 X99.471 Y102.055 E4.62337
G1 X99.585 Y102.027 E4.62664
G1 X100.595 Y103.037 E4.66611
G1 X100.671 Y103.787 E4.68697
G1 X100.665 Y104.027 E4.69361
G1 X93.861 Y97.224 E4.95964
G1 X93.956 Y97.409 E4.96539
G1 X94.073 Y97.953 E4.98080
G1 X94.245 Y98.529 E4.99741
G1 X101.685 Y105.969 E5.28831
G1 X101.180 Y106.386 E5.30641
G1 X94.541 Y99.747 E5.56599
G1 X94.781 Y100.594 E5.59034
G1 X95.004 Y101.131 E5.60640
G1 X100.518 Y106.645 E5.82198
G1 X100.294 Y106.689 E5.82830
G1 X99.786 Y106.309 E5.84582
G1 X99.239 Y105.814 E5.86622
G1 X98.975 Y105.503 E5.87750
G1 X97.775 Y104.383 E5.92287
G1 X97.095 Y103.908 E5.94583
G1 X96.546 Y103.594 E5.96329
G1 X96.051 Y103.099 E5.98265
G1 E3.98265 F2400.00000
G92 E0
G1 X99.091 Y101.533 F7800.000
G1 E2.00000 F2400.00000
G1 F1200
G1 X99.296 Y101.483 E2.00583
G1 X99.584 Y101.348 E2.01463
G1 X99.766 Y101.286 E2.01993
G1 X100.729 Y102.249 E2.05758
G1 Z2.700 F7800.000
G1 E0.05758 F2400.00000
G92 E0
G1 X104.206 Y102.157 F7800.000
G1 E2.00000 F2400.00000
G1 F1200
G1 X104.845 Y101.517 E2.02926
G1 E0.02926 F2400.00000
G92 E0
G1 X104.144 Y99.261 F7800.000
G1 E2.00000 F2400.00000
G1 F1200
G1 X104.638 Y98.766 E2.02263
G1 X104.385 Y97.941 F7800.000
G1 F1200
G1 X103.805 Y98.521 E2.04919
G1 X102.861 Y96.961 F7800.000
G1 F1200
G1 X103.473 Y96.350 E2.07719
G1 X103.055 Y95.834 E2.09870
G1 X102.185 Y96.703 E2.13851
G1 X101.822 Y96.614 E2.15063
G1 X101.355 Y96.599 E2.16575
G1 X102.595 Y95.360 E2.22251
G1 X102.042 Y94.978 E2.24426
G1 X100.285 Y96.735 E2.32466
G1 X100.220 Y96.745 E2.32680
G1 X100.044 Y96.709 E2.33263
G1 X99.440 Y96.645 E2.35228
G1 X101.497 Y94.588 E2.44646
G1 X100.949 Y94.202 E2.46816
G1 X98.615 Y96.536 E2.57502
G1 X98.338 Y96.488 E2.58413
G1 X98.202 Y96.489 E2.58852
G1 X98.121 Y96.226 E2.59742
G1 X97.718 Y96.499 E2.61319
G1 X100.424 Y93.794 E2.73706
G1 X99.865 Y93.417 E2.75885
G1 E0.75885 F2400.00000
G92 E0
G1 X97.490 Y92.056 F7800.000
G1 E2.00000 F2400.00000
G1 F1200
G1 X96.995 Y92.551 E2.02267
G1 X96.559 Y93.135 E2.04627
G1 X96.290 Y93.538 E2.06195
G1 X95.961 Y94.362 E2.09066
G1 X95.743 Y94.737 E2.10471
G1 X98.177 Y92.303 E2.21615
G1 X98.397 Y92.499 E2.22569
G1 X98.533 Y92.725 E2.23423
G1 X98.642 Y92.772 E2.23808
G1 X93.889 Y97.525 E2.45570
G1 X93.916 Y97.578 E2.45760
G1 X94.068 Y98.281 E2.48089
G1 X99.268 Y93.080 E2.71899
G1 X99.574 Y93.267 E2.73058
G1 X99.731 Y93.331 E2.73608
G1 X99.865 Y93.417 E2.74125
G1 X94.273 Y99.010 E2.99730
G1 X94.383 Y99.382 E3.00984
G1 X94.464 Y99.753 E3.02215
G1 X97.632 Y96.585 E3.16719
G1 X97.822 Y96.681 E3.17408
G1 X97.806 Y96.833 E3.17905
G1 X97.886 Y97.266 E3.19328
G1 X94.648 Y100.503 E3.34149
G1 X94.813 Y101.085 E3.36107
G1 X94.869 Y101.217 E3.36571
G1 X98.124 Y97.962 E3.51474
G1 X98.305 Y98.447 E3.53151
G1 X98.356 Y98.664 E3.53871
G1 X95.143 Y101.877 E3.68581
G1 X95.347 Y102.368 E3.70303
G1 X95.435 Y102.520 E3.70869
G1 X98.476 Y99.478 E3.84794
G1 X98.416 Y100.472 E3.88020
G1 X95.776 Y103.113 E4.00108
G1 X96.083 Y103.648 E4.02108
G1 X96.141 Y103.682 E4.02323
G1 X98.438 Y101.385 E4.12840
G1 X98.486 Y101.991 E4.14810
G1 X98.681 Y102.076 E4.15499
G1 X96.666 Y104.091 E4.24727
G1 X96.984 Y104.364 E4.26083
G1 X97.154 Y104.537 E4.26869
G1 X99.584 Y102.107 E4.37993
G1 X99.800 Y101.978 E4.38809
G1 X100.289 Y101.810 E4.40481
G1 X100.426 Y101.856 E4.40951
G1 X100.376 Y101.955 E4.41314
G1 X100.372 Y102.253 E4.42277
G1 X97.627 Y104.998 E4.54844
G1 X97.878 Y105.237 E4.55965
G1 X98.084 Y105.475 E4.56986
G1 X100.498 Y103.062 E4.68034
G1 X100.501 Y103.661 E4.69973
G1 X100.619 Y103.875 E4.70764
G1 X98.517 Y105.977 E4.80386
G1 X98.697 Y106.185 E4.81277
G1 X98.987 Y106.442 E4.82529
G1 X101.244 Y104.185 E4.92862
G1 X101.322 Y104.192 E4.93118
G1 X101.711 Y104.151 E4.94384
G1 X102.038 Y104.185 E4.95449
G1 X102.305 Y104.057 E4.96407
G1 X99.481 Y106.881 E5.09334
G1 X99.956 Y107.340 E5.11473
G1 X100.389 Y106.908 E5.13454
G1 X100.284 Y106.435 E5.15022
G1 X100.696 Y106.387 E5.16364
G1 X100.962 Y106.265 E5.17311
G1 X100.989 Y106.308 E5.17475
G1 X104.676 Y102.621 E5.34354
G1 X104.541 Y103.111 E5.35998
G1 X104.372 Y103.410 E5.37110
G1 X104.162 Y103.936 E5.38944
G1 X103.651 Y104.580 E5.41605
G1 X103.156 Y105.075 E5.43873
G1 E3.43873 F2400.00000
G92 E0
G1 X93.518 Y96.962 F7800.000
G1 E2.00000 F2400.00000
G1 F1200
G1 X94.393 Y96.087 E2.04006
G1 X94.694 Y96.124 E2.04990
G1 X95.352 Y95.676 E2.07566
G1 X95.366 Y95.686 E2.07621
G1 X95.700 Y95.412 E2.09021
G1 X95.877 Y94.934 E2.10672
G1 X96.082 Y94.511 E2.12194
G1 X96.237 Y94.243 E2.13197
M106 S249.9
G1 Z3.000 F7800.000
G1 X102.240 Y95.594 F7800.000
G1 F1200
G1 X102.735 Y96.089 E2.15160
G1 X102.459 Y96.745 F7800.000
G1 F1200
G1 X97.422 Y91.708 E2.35153
G1 X96.976 Y91.969 E2.36603
G1 X96.884 Y92.101 E2.37057
G1 X101.492 Y96.710 E2.55351
G1 X100.735 Y96.800 E2.57490
G1 X100.645 Y96.795 E2.57743
G1 X96.501 Y92.651 E2.74193
G1 X96.318 Y92.982 E2.75256
G1 X96.189 Y93.271 E2.76143
G1 X99.550 Y96.631 E2.89484
G1 X99.147 Y96.570 E2.90630
G1 X98.734 Y96.429 E2.91854
G1 X98.582 Y96.414 E2.92282
G1 X98.380 Y96.230 E2.93049
G1 X98.329 Y96.265 E2.93222
G1 X98.243 Y96.215 E2.93501
G1 X98.227 Y96.239 E2.93585
G1 X95.909 Y93.922 E3.02783
G1 X95.699 Y94.450 E3.04379
G1 X95.628 Y94.572 E3.04775
G1 X97.804 Y96.748 E3.13412
G1 X97.771 Y97.264 E3.14863
G1 X97.945 Y97.821 E3.16502
G1 X95.329 Y95.205 E3.26889
G1 X95.165 Y95.609 E3.28112
G1 X95.394 Y95.795 E3.28941
G1 X95.144 Y95.952 E3.29769
G1 X98.415 Y99.223 E3.42753
G1 X98.476 Y99.595 E3.43811
G1 X98.399 Y100.139 E3.45355
G1 X94.554 Y96.293 E3.60620
G1 X94.010 Y96.681 E3.62495
G1 X98.233 Y100.904 E3.79260
G1 X98.220 Y100.949 E3.79392
G1 X98.231 Y101.108 E3.79837
G1 X98.058 Y101.661 E3.81464
G1 X94.074 Y97.677 E3.97277
G1 X94.129 Y97.931 E3.98005
G1 X94.431 Y98.966 E4.01030
G1 X97.876 Y102.410 E4.14704
G1 X97.772 Y103.238 E4.17046
G1 X94.759 Y100.225 E4.29008
G1 X94.880 Y100.565 E4.30021
G1 X95.509 Y101.907 E4.34181
G1 X100.600 Y106.998 E4.54389
G1 X100.697 Y107.194 E4.55004
G1 X100.756 Y107.154 E4.55204
G1 X101.511 Y107.910 E4.58201
G1 X101.346 Y108.076 E4.58859
G1 X101.181 Y108.093 E4.59327
G1 X100.526 Y107.838 E4.61299
G1 X98.656 Y105.986 E4.68687
G1 X100.262 Y106.660 F7800.000
G1 F1200
G1 X100.406 Y106.565 E4.69171
G1 X100.633 Y106.541 E4.69813
G1 X100.615 Y106.550 E4.69868
G1 X101.130 Y107.250 E4.72310
G1 X101.446 Y106.912 E4.73608
G1 X101.964 Y107.431 E4.75665
G1 X101.577 Y105.768 F7800.000
G1 F1200
G1 X102.072 Y106.262 E4.77627
G1 X102.113 Y106.209 E4.77817
G1 X102.685 Y106.763 E4.80054
G1 X103.137 Y106.393 E4.81696
G1 X101.702 Y104.958 E4.87392
G1 X101.940 Y104.259 E4.89462
G1 X103.598 Y105.918 E4.96047
G1 X103.873 Y105.620 E4.97185
G1 X103.980 Y105.364 E4.97963
G1 X102.378 Y103.762 E5.04321
G1 X102.886 Y103.335 E5.06185
G1 X104.341 Y104.790 E5.11961
G1 X104.389 Y104.722 E5.12195
G1 X104.606 Y104.120 E5.13992
G1 X103.364 Y102.878 E5.18922
G1 X103.847 Y102.426 E5.20780
G1 X104.761 Y103.340 E5.24407
G1 X104.905 Y102.548 E5.26665
G1 X104.165 Y101.808 E5.29602
G1 X104.440 Y101.148 E5.31609
G1 X104.934 Y101.642 E5.33572
G1 E3.33572 F2400.00000
G92 E0
G1 X100.322 Y103.925 F7800.000
G1 E2.00000 F2400.00000
G1 F1200
G1 X99.141 Y102.744 E2.04686
G1 X98.565 Y103.099 E2.06587
G1 X100.602 Y105.137 E2.14674
G1 X100.612 Y105.248 E2.14987
G1 X100.520 Y105.797 E2.16549
G1 X100.656 Y106.102 E2.17487
G1 X100.628 Y106.095 E2.17566
G1 X97.803 Y103.269 E2.28782
G1 Z3.300 F7800.000
G1 X96.937 Y104.539 F7800.000
G1 F1200
G1 X97.431 Y104.044 E2.31045
G1 X97.604 Y104.259 E2.31937
G1 X98.092 Y104.323 E2.33530
G1 X97.406 Y105.010 E2.36674
G1 X97.730 Y105.423 E2.38375
G1 X97.664 Y105.477 E2.38652
G1 X97.768 Y105.587 E2.39141
G1 X99.986 Y103.369 E2.49296
G1 X100.092 Y103.622 E2.50184
G1 X100.159 Y104.007 E2.51450
G1 X100.160 Y104.134 E2.51861
G1 X98.203 Y106.091 E2.60818
G1 X98.611 Y106.622 E2.62987
G1 X100.149 Y105.085 E2.70026
G1 X100.191 Y105.575 E2.71620
G1 X100.291 Y105.882 E2.72663
G1 X99.072 Y107.101 E2.78246
G1 X99.542 Y107.571 E2.80396
G1 X100.603 Y106.509 E2.85257
G1 X100.723 Y106.746 E2.86116
G1 X101.023 Y107.029 E2.87451
G1 X100.011 Y108.040 E2.92083
G1 X100.058 Y108.087 E2.92294
G1 X100.608 Y108.383 E2.94319
G1 X104.768 Y104.223 E3.13361
G1 X104.655 Y104.558 E3.14504
G1 X104.511 Y104.763 E3.15317
G1 X104.150 Y105.630 E3.18356
G1 X103.885 Y105.917 E3.19619
G1 X103.331 Y106.599 E3.22464
G1 X102.834 Y107.096 E3.24740
G1 X102.354 Y105.698 F7800.000
G1 F1200
G1 X104.978 Y103.073 E3.36754
G1 X105.028 Y102.598 E3.38300
G1 X105.122 Y102.084 E3.39993
G1 X105.124 Y101.988 E3.40302
G1 X103.948 Y103.165 E3.45688
G1 X104.332 Y102.522 E3.48113
G1 X104.146 Y102.453 E3.48757
G1 X104.415 Y101.758 E3.51172
G1 X105.132 Y101.041 E3.54453
G1 X104.442 Y102.670 F7800.000
G1 F1200
G1 X104.401 Y102.739 E3.54711
G1 X104.386 Y102.726 E3.54774
G1 X102.381 Y104.732 E3.63953
G1 E1.63953 F2400.00000
G92 E0
G1 X104.124 Y98.879 F7800.000
G1 E2.00000 F2400.00000
G1 F1200
G1 X104.618 Y98.384 E2.02263
G1 X104.299 Y97.625 F7800.000
G1 F1200
G1 X103.749 Y98.175 E2.04781
G1 X103.512 Y97.612 F7800.000
G1 F1200
G1 X104.007 Y97.118 E2.07045
G1 X103.671 Y96.548 E2.09184
G1 X103.022 Y97.198 E2.12159
G1 X102.342 Y96.974 E2.14477
G1 X103.274 Y96.041 E2.18746
G1 X102.890 Y95.521 E2.20840
G1 X101.591 Y96.820 E2.26788
G1 X101.434 Y96.796 E2.27301
G1 X101.209 Y96.795 E2.28029
G1 X100.652 Y96.854 E2.29843
G1 X102.460 Y95.046 E2.38121
G1 X102.026 Y94.575 E2.40193
G1 X99.769 Y96.832 E2.50526
G1 X99.291 Y96.761 E2.52089
G1 X99.006 Y96.691 E2.53041
G1 X101.577 Y94.120 E2.64812
G1 X101.120 Y93.672 E2.66883
G1 X98.369 Y96.423 E2.79478
G1 X98.246 Y96.346 E2.79947
G1 X98.119 Y96.318 E2.80370
G1 X97.881 Y96.109 E2.81395
G1 X97.718 Y96.170 E2.81958
G1 X100.679 Y93.208 E2.95514
G1 X100.263 Y92.720 E2.97591
G1 X94.341 Y98.643 E3.24704
G1 X94.250 Y98.375 E3.25617
G1 X94.165 Y97.913 E3.27137
G1 X99.977 Y92.101 E3.53747
G1 X99.944 Y92.017 E3.54038
G1 X99.503 Y91.671 E3.55855
G1 X95.763 Y95.411 E3.72978
G1 X95.828 Y95.062 E3.74128
G1 X96.030 Y94.369 E3.76466
G1 X96.133 Y94.136 E3.77289
G1 X98.936 Y91.333 E3.90120
G1 X98.248 Y91.408 E3.92360
G1 X97.536 Y91.829 E3.95038
G1 X97.007 Y92.358 E3.97460
G1 X97.029 Y92.336 E3.97561
G1 X97.762 Y96.125 F7800.000
G1 F1200
G1 X94.744 Y99.143 E4.11377
G1 X94.958 Y99.834 E4.13718
G1 X97.803 Y96.989 E4.26740
G1 X97.873 Y97.217 E4.27511
G1 X98.051 Y97.646 E4.29015
G1 X94.996 Y100.701 E4.43001
G1 X95.598 Y101.004 F7800.000
G1 F1200
G1 X95.579 Y100.818 E4.43606
G1 X95.754 Y100.309 E4.45348
G1 X96.123 Y99.743 E4.47535
G1 X96.460 Y100.141 E4.49225
G1 X98.329 Y98.273 E4.57777
G1 X98.358 Y98.334 E4.57997
G1 X98.424 Y98.977 E4.60090
G1 X98.399 Y99.107 E4.60519
G1 X96.920 Y100.586 E4.67292
G1 X96.092 Y100.509 F7800.000
G1 F1200
G1 X95.260 Y101.341 E4.71101
G1 X95.549 Y101.957 E4.73302
G1 X96.223 Y101.283 E4.76390
G1 X96.379 Y102.032 E4.78867
G1 X95.845 Y102.565 E4.81310
G1 E2.81310 F2400.00000
G92 E0
G1 X94.761 Y100.031 F7800.000
G1 E2.00000 F2400.00000
G1 F1200
G1 X95.317 Y99.475 E2.02544
G1 X95.541 Y99.625 E2.03416
G1 X95.453 Y99.340 E2.04383
M106 S252.45
G1 Z3.600 F7800.000
G1 X97.138 Y99.349 F7800.000
G1 F1200
G1 X97.633 Y99.844 E2.06377
G1 X97.949 Y100.106 E2.07542
G1 X97.991 Y100.062 E2.07717
G1 X98.033 Y99.847 E2.08340
G1 X98.204 Y99.467 E2.09524
G1 X96.024 Y97.287 E2.18295
G1 X96.009 Y97.248 E2.18413
G1 X96.004 Y96.458 E2.20660
G1 X95.966 Y96.281 E2.21176
G1 X98.135 Y98.450 E2.29903
G1 X97.938 Y98.012 E2.31271
G1 X97.608 Y97.098 E2.34036
G1 X97.623 Y96.991 E2.34342
G1 X96.017 Y95.384 E2.40805
G1 X96.184 Y94.604 E2.43076
G1 X97.774 Y96.193 E2.49471
G1 X98.315 Y95.890 E2.51235
G1 X98.786 Y96.306 E2.53023
G1 X98.920 Y96.392 E2.53476
G1 X96.372 Y93.844 E2.63726
G1 X96.545 Y93.069 E2.65984
G1 X100.425 Y96.949 E2.81593
G1 X100.969 Y96.994 E2.83147
G1 X101.403 Y96.979 E2.84379
G1 X96.824 Y92.400 E3.02798
G1 X97.055 Y91.935 E3.04274
G1 X97.181 Y91.809 E3.04781
G1 X102.415 Y97.043 E3.25835
G1 X102.710 Y97.108 E3.26695
G1 X103.111 Y97.249 E3.27903
G1 X103.639 Y97.510 E3.29578
G1 X104.053 Y97.961 E3.31321
G1 X104.210 Y98.092 E3.31902
G1 X104.458 Y98.521 E3.33311
G1 X104.469 Y98.612 E3.33571
G1 X104.620 Y98.742 E3.34139
G1 X104.853 Y99.017 E3.35164
G1 X104.590 Y98.270 E3.37417
G1 X97.669 Y91.349 E3.65257
G1 X97.733 Y91.311 E3.65470
G1 X98.494 Y91.226 E3.67646
G1 X103.062 Y95.795 E3.86026
G1 E1.86026 F2400.00000
G92 E0
G1 X100.150 Y91.935 F7800.000
G1 E2.00000 F2400.00000
G1 F1200
G1 X99.656 Y91.441 E2.01989
G1 E0.01989 F2400.00000
G92 E0
G1 X105.212 Y100.472 F7800.000
G1 E2.00000 F2400.00000
G1 F1200
G1 X104.718 Y99.977 E2.01989
G1 X104.641 Y100.459 E2.03377
G1 X104.608 Y100.823 E2.04417
G1 X105.320 Y101.534 E2.07278
G1 X105.332 Y102.502 E2.10031
G1 X104.382 Y101.552 E2.13854
G1 X104.269 Y102.133 E2.15538
G1 X104.171 Y102.297 E2.16080
G1 X105.255 Y103.380 E2.20439
G1 X105.153 Y104.234 E2.22883
G1 X103.739 Y102.820 E2.28571
G1 X103.253 Y103.288 E2.30493
G1 X104.994 Y105.030 E2.37497
G1 X104.919 Y105.482 E2.38802
G1 X104.815 Y105.806 E2.39769
G1 X102.910 Y103.901 E2.47432
G1 X102.821 Y104.139 E2.48157
G1 X102.794 Y104.740 E2.49867
G1 X104.559 Y106.505 E2.56966
G1 X104.489 Y106.696 E2.57544
G1 X104.173 Y107.074 E2.58946
G1 X102.703 Y105.604 E2.64861
G1 X102.687 Y105.731 E2.65225
G1 X102.445 Y106.301 E2.66987
G1 X103.762 Y107.619 E2.72288
G1 X103.633 Y107.793 E2.72906
G1 X103.296 Y108.108 E2.74216
G1 X102.083 Y106.895 E2.79100
G1 X101.804 Y107.113 E2.80106
G1 X101.489 Y107.256 E2.81091
G1 X102.908 Y108.675 E2.86800
G1 X102.646 Y109.042 E2.88082
G1 X102.345 Y109.068 E2.88940
G1 X100.733 Y107.456 E2.95425
G1 X100.594 Y108.272 F7800.000
G1 F1200
G1 X100.100 Y107.778 E2.97414
G1 X99.653 Y107.263 E2.99352
G1 X98.733 Y106.314 E3.03112
G1 X98.215 Y105.648 E3.05512
G1 X98.582 Y105.675 E3.06559
G1 X98.527 Y105.250 E3.07777
G1 X101.073 Y107.796 E3.18018
G1 X101.104 Y107.704 E3.18292
G1 X100.682 Y107.204 E3.20153
G1 X100.595 Y107.033 E3.20699
G1 X100.104 Y105.871 E3.24287
G1 X98.765 Y104.532 E3.29673
G1 X99.252 Y104.064 E3.31595
G1 X99.905 Y104.717 E3.34220
M106 S249.9
G1 Z3.900 F7800.000
G1 X99.493 Y105.622 F7800.000
G1 F1200
G1 X99.285 Y105.316 E3.35234
G1 X99.264 Y105.314 E3.35291
G1 X98.903 Y105.894 E3.37163
G1 X98.872 Y106.243 E3.38123
G1 X99.987 Y105.128 E3.42443
G1 X100.263 Y105.765 E3.44343
G1 X99.007 Y107.021 E3.49208
G1 X99.420 Y107.520 E3.50982
G1 X100.523 Y106.417 E3.55255
G1 X100.899 Y106.953 E3.57049
G1 X99.844 Y108.008 E3.61134
G1 X100.122 Y108.328 E3.62295
G1 X100.311 Y108.454 E3.62916
G1 X101.337 Y107.428 E3.66888
G1 X101.500 Y107.597 E3.67532
G1 X101.688 Y107.688 E3.68103
G1 X101.980 Y107.697 E3.68903
G1 X100.860 Y108.817 E3.73238
G1 E1.73238 F2400.00000
G92 E0
G1 X103.481 Y108.934 F7800.000
G1 E2.00000 F2400.00000
G1 F1200
G1 X104.013 Y108.387 E2.02089
G1 X104.536 Y107.191 E2.05664
G1 X104.847 Y106.779 E2.07077
G1 X104.903 Y106.600 E2.07593
G1 X102.158 Y109.345 E2.18223
G1 X101.409 Y109.180 E2.20321
G1 X105.290 Y105.300 E2.35347
G1 X105.373 Y104.579 E2.37336
G1 X105.438 Y104.239 E2.38283
G1 X103.249 Y106.428 E2.46760
G1 X103.152 Y105.613 E2.49009
G1 X105.575 Y103.190 E2.58392
G1 X105.665 Y102.187 E2.61149
G1 X103.222 Y104.630 E2.70609
G1 X103.261 Y104.245 E2.71670
G1 X103.519 Y103.694 E2.73337
G1 X104.057 Y103.196 E2.75343
G1 X104.445 Y102.569 E2.77362
G1 X104.460 Y102.480 E2.77608
G1 X105.653 Y101.287 E2.82231
G1 X105.648 Y100.535 E2.84289
G1 X105.624 Y100.404 E2.84655
G1 X104.743 Y101.284 E2.88064
G1 X104.808 Y101.100 E2.88600
G1 X104.714 Y101.088 E2.88861
G1 X104.772 Y100.344 E2.90905
G1 X105.481 Y99.634 E2.93651
G1 X105.360 Y98.985 E2.95460
G1 X105.321 Y98.882 E2.95762
G1 X104.632 Y99.570 E2.98428
G1 X104.533 Y99.190 E2.99505
G1 X104.341 Y98.949 E3.00347
G1 X105.069 Y98.221 E3.03165
G1 X104.825 Y97.553 E3.05114
G1 X103.942 Y98.435 E3.08531
G1 X103.442 Y98.023 E3.10305
G1 X104.500 Y96.965 E3.14403
G1 X104.176 Y96.377 E3.16242
G1 X102.885 Y97.667 E3.21240
G1 X102.243 Y97.397 E3.23149
G1 X103.812 Y95.829 E3.29224
G1 X103.437 Y95.291 E3.31018
G1 X101.520 Y97.209 E3.38442
G1 X101.277 Y97.168 E3.39116
G1 X100.663 Y97.153 E3.40797
G1 X103.038 Y94.777 E3.49995
G1 X102.627 Y94.277 E3.51770
G1 X99.868 Y97.035 E3.62452
G1 X99.274 Y96.891 E3.64126
G1 X99.158 Y96.833 E3.64482
G1 X102.193 Y93.798 E3.76234
G1 X101.790 Y93.289 E3.78013
G1 X98.609 Y96.470 E3.90332
G1 X98.518 Y96.411 E3.90627
G1 X98.457 Y96.331 E3.90903
G1 X98.528 Y96.261 E3.91177
G1 X98.238 Y95.928 E3.92386
G1 X101.414 Y92.751 E4.04687
G1 X101.195 Y92.472 E4.05660
G1 X101.055 Y92.199 E4.06501
G1 X97.573 Y95.681 E4.19985
G1 X97.490 Y95.652 E4.20224
G1 X97.160 Y96.093 E4.21732
G1 X96.551 Y96.703 E4.24093
G1 X96.608 Y95.733 E4.26752
G1 X100.697 Y91.643 E4.42590
G1 X100.294 Y91.346 E4.43963
G1 X100.124 Y91.305 E4.44442
G1 X96.678 Y94.750 E4.57785
G1 X96.695 Y94.574 E4.58270
G1 X96.867 Y93.649 E4.60845
G1 X99.389 Y91.127 E4.70613
G1 X99.253 Y91.093 E4.70998
G1 X98.923 Y91.131 E4.71906
G1 X98.307 Y91.297 E4.73653
G1 X97.390 Y92.213 E4.77204
G1 X97.813 Y91.791 E4.78840
G1 E2.78840 F2400.00000
G92 E0
G1 X97.655 Y95.599 F7800.000
G1 E2.00000 F2400.00000
G1 F1200
G1 X97.564 Y95.871 E2.00786
G1 X97.481 Y96.530 E2.02606
G1 X97.517 Y96.649 E2.02946
G1 X96.731 Y97.435 E2.05988
G1 X96.794 Y97.589 E2.06445
G1 X97.082 Y97.996 E2.07810
G1 X97.739 Y97.339 E2.10354
G1 X97.936 Y97.825 E2.11790
G1 X97.979 Y98.011 E2.12314
G1 X97.457 Y98.534 E2.14338
M106 S252.45
G1 Z4.200 F7800.000
G1 E0.14338 F2400.00000
G92 E0
G1 X97.296 Y93.990 F7800.000
G1 E2.00000 F2400.00000
G1 F1200
G1 X100.451 Y97.145 E2.12292
G1 X100.789 Y97.228 E2.13251
G1 X101.584 Y97.360 E2.15470
G1 X97.292 Y93.069 E2.32189
G1 X97.287 Y92.721 E2.33149
G1 X97.384 Y92.243 E2.34493
G1 X102.790 Y97.649 E2.55555
G1 E0.55555 F2400.00000
G92 E0
G1 X101.322 Y92.509 F7800.000
G1 E2.00000 F2400.00000
G1 F1200
G1 X100.686 Y91.880 E2.02463
G1 X99.825 Y91.244 E2.05413
G1 X99.527 Y91.172 E2.06256
G1 X99.015 Y91.119 E2.07675
G1 X104.355 Y96.459 E2.28481
G1 X105.019 Y97.691 E2.32337
G1 X105.175 Y97.918 E2.33095
G1 X105.400 Y98.423 E2.34618
G1 X98.241 Y91.263 E2.62514
G1 X97.852 Y91.368 E2.63623
G1 X97.640 Y91.580 E2.64451
G1 X105.836 Y99.777 E2.96385
G1 X105.994 Y100.625 E2.98762
G1 X106.076 Y100.934 E2.99644
G1 X104.816 Y99.675 E3.04550
G1 X104.779 Y100.555 E3.06977
G1 X106.033 Y101.810 E3.11865
G1 X105.996 Y102.152 E3.12814
G1 X106.003 Y102.698 E3.14318
G1 X104.721 Y101.416 E3.19314
G1 X104.604 Y102.121 E3.21285
G1 X104.566 Y102.179 E3.21475
G1 X105.945 Y103.558 E3.26847
G1 X105.872 Y104.402 E3.29182
G1 X104.210 Y102.741 E3.35655
G1 X103.823 Y103.271 E3.37465
G1 X105.764 Y105.212 E3.45028
G1 X105.669 Y106.035 E3.47311
G1 X104.256 Y104.623 E3.52814
G1 X104.460 Y104.523 E3.53439
G1 X104.214 Y103.982 E3.55077
G1 X103.753 Y104.120 E3.56402
G1 X103.637 Y104.003 E3.56856
G1 X103.781 Y105.066 E3.59809
G1 X105.591 Y106.876 E3.66863
G1 X105.529 Y107.731 E3.69226
G1 X103.932 Y106.135 E3.75447
G1 X103.908 Y106.220 E3.75692
G1 X103.736 Y106.532 E3.76671
G1 X103.717 Y106.618 E3.76914
G1 X103.777 Y106.823 E3.77505
G1 X103.748 Y106.869 E3.77653
G1 X105.278 Y108.398 E3.83612
G1 X104.848 Y108.887 E3.85404
G1 X103.385 Y107.424 E3.91105
G1 X103.296 Y107.545 E3.91519
G1 X103.044 Y107.791 E3.92489
G1 X102.888 Y107.845 E3.92943
G1 X104.323 Y109.280 E3.98532
G1 X103.581 Y109.456 E4.00633
G1 X102.162 Y108.037 E4.06161
G1 X102.126 Y108.161 E4.06518
G1 X100.891 Y107.547 E4.10317
G1 X100.698 Y107.324 E4.11130
G1 X100.389 Y106.894 E4.12589
G1 X99.646 Y105.995 E4.15801
G1 X99.794 Y105.995 E4.16209
G1 X99.662 Y105.752 E4.16971
G1 X99.534 Y105.740 E4.17326
G1 X99.475 Y105.696 E4.17529
G1 X99.320 Y105.946 E4.18340
G1 X99.305 Y106.097 E4.18758
G1 X102.591 Y109.384 E4.31562
G1 X101.949 Y109.256 E4.33366
G1 X100.864 Y108.535 E4.36953
G1 X100.666 Y108.377 E4.37651
G1 X100.171 Y107.881 E4.39582
M106 S249.9
G1 Z4.500 F7800.000
G1 X100.680 Y106.799 F7800.000
G1 F1200
G1 X99.880 Y107.599 E4.42698
G1 X99.900 Y107.772 E4.43179
G1 X99.964 Y107.942 E4.43679
G1 X100.177 Y108.220 E4.44643
G1 X101.104 Y107.293 E4.48253
G1 X101.384 Y107.620 E4.49440
G1 X101.384 Y107.587 E4.49531
G1 X101.616 Y107.699 E4.50241
G1 X100.669 Y108.646 E4.53932
G1 X101.179 Y109.054 E4.55732
G1 X102.205 Y108.028 E4.59729
G1 X102.404 Y108.147 E4.60367
G1 X102.951 Y108.200 E4.61882
G1 X101.788 Y109.363 E4.66414
G1 X102.551 Y109.518 E4.68561
G1 X103.964 Y108.105 E4.74063
G1 X104.188 Y108.026 E4.74719
G1 X104.908 Y107.868 E4.76750
G1 X105.559 Y107.428 E4.78914
G1 X103.597 Y109.390 E4.86557
G1 X105.377 Y108.528 F7800.000
G1 F1200
G1 X106.034 Y107.852 E4.89153
G1 X106.395 Y106.592 E4.92763
G1 X105.715 Y107.272 E4.95411
G1 X105.754 Y106.414 E4.97778
G1 X105.631 Y106.438 E4.98125
G1 X106.476 Y105.593 E5.01418
G1 X106.480 Y104.671 E5.03958
G1 X105.071 Y106.080 E5.09446
G1 X104.834 Y105.964 E5.10174
G1 X104.846 Y105.851 E5.10486
G1 X104.660 Y105.573 E5.11408
G1 X106.583 Y103.650 E5.18901
G1 X106.730 Y102.585 E5.21862
G1 X104.409 Y104.906 E5.30904
G1 X104.346 Y104.766 E5.31327
G1 X104.237 Y104.160 E5.33023
G1 X106.789 Y101.608 E5.42968
G1 X106.804 Y100.675 E5.45538
G1 X104.811 Y102.668 E5.53304
G1 X104.853 Y101.991 E5.55173
G1 X104.902 Y101.658 E5.56099
G1 X106.667 Y99.894 E5.62975
G1 X106.476 Y99.167 E5.65045
G1 X104.877 Y100.766 E5.71274
G1 X104.889 Y100.247 E5.72704
G1 X104.783 Y99.942 E5.73593
G1 X106.260 Y98.465 E5.79349
G1 X105.959 Y97.847 E5.81240
G1 X104.547 Y99.260 E5.86745
G1 X104.142 Y98.747 E5.88545
G1 X105.659 Y97.230 E5.94456
G1 X105.292 Y96.678 E5.96281
G1 X103.664 Y98.306 E6.02624
G1 X103.585 Y98.247 E6.02897
G1 X103.675 Y98.132 E6.03301
G1 X103.353 Y97.953 E6.04316
G1 X103.207 Y97.846 E6.04816
G1 X104.921 Y96.132 E6.11493
G1 X104.738 Y95.788 E6.12565
G1 X104.580 Y95.555 E6.13342
G1 X102.442 Y97.693 E6.21671
G1 X102.186 Y97.656 E6.22384
G1 X102.183 Y97.481 E6.22867
G1 X101.856 Y97.525 E6.23776
G1 X101.729 Y97.488 E6.24141
G1 X104.166 Y95.050 E6.33638
G1 X103.753 Y94.546 E6.35436
G1 X100.842 Y97.456 E6.46777
G1 X100.099 Y97.282 E6.48881
G1 X103.324 Y94.056 E6.61448
G1 X102.879 Y93.583 E6.63238
G1 X99.442 Y97.020 E6.76628
G1 X99.363 Y96.981 E6.76873
G1 X98.938 Y96.633 E6.78385
G1 X98.927 Y96.618 E6.78437
G1 X102.447 Y93.098 E6.92152
G1 X102.014 Y92.613 E6.93943
G1 X98.544 Y96.082 E7.07462
G1 X98.301 Y95.407 E7.09438
G1 X101.577 Y92.132 E7.22201
G1 X101.214 Y91.788 E7.23576
G1 X101.091 Y91.699 E7.23995
G1 X98.093 Y94.698 E7.35678
G1 X97.987 Y94.123 E7.37288
G1 X97.903 Y93.970 E7.37770
G1 X100.531 Y91.341 E7.48011
G1 X100.379 Y91.271 E7.48472
G1 X99.748 Y91.206 E7.50221
G1 X97.841 Y93.113 E7.57649
G1 X97.843 Y92.563 E7.59165
G1 X98.070 Y91.966 E7.60923
G1 X98.566 Y91.470 E7.62856
G1 E5.62856 F2400.00000
G92 E0
G1 X106.210 Y106.778 F7800.000
G1 E2.00000 F2400.00000
G1 F1200
G1 X106.197 Y107.053 E2.00760
G1 X106.000 Y106.988 E2.01334
G1 X105.179 Y107.808 E2.04531
M106 S252.45
G1 Z4.800 F7800.000
G1 E0.04531 F2400.00000
G92 E0
G1 X105.831 Y104.916 F7800.000
G1 E2.00000 F2400.00000
G1 F1200
G1 X105.843 Y104.928 E2.00045
G1 X105.337 Y104.422 E2.02029
G1 X105.200 Y104.217 E2.02713
G1 X105.024 Y103.846 E2.03850
G1 X104.884 Y103.359 E2.05256
G1 X104.832 Y103.105 E2.05976
G1 X104.858 Y103.018 E2.06227
G1 X106.660 Y104.821 E2.13297
G1 X106.768 Y104.005 F7800.000
G1 F1200
G1 X106.665 Y104.002 E2.13585
G1 X106.657 Y103.893 E2.13887
G1 X105.051 Y102.287 E2.20186
G1 X105.049 Y101.987 E2.21018
G1 X105.099 Y101.412 E2.22621
G1 X106.664 Y102.977 E2.28760
G1 X107.533 Y101.997 F7800.000
G1 F1200
G1 X104.773 Y99.237 E2.39584
G1 X104.980 Y99.814 E2.41284
G1 X104.975 Y100.033 E2.41891
G1 X105.012 Y100.400 E2.42915
G1 X107.565 Y102.953 E2.52928
G1 X107.570 Y103.125 E2.53406
G1 X107.501 Y103.814 E2.55324
G1 X106.798 Y103.111 E2.58081
G1 X106.746 Y103.524 E2.59235
G1 X106.274 Y103.510 E2.60544
G1 X107.417 Y104.653 E2.65026
G1 X107.350 Y105.297 E2.66822
G1 X107.348 Y105.509 E2.67408
G1 X106.621 Y104.781 E2.70261
G1 X106.617 Y105.702 E2.72813
G1 X107.237 Y106.322 E2.75245
G1 X107.053 Y107.062 E2.77361
G1 X106.233 Y106.242 E2.80578
G1 X105.919 Y106.852 E2.82481
G1 X106.705 Y107.638 E2.85561
G1 X106.346 Y108.203 E2.87418
G1 X105.526 Y107.383 E2.90631
G1 X104.940 Y107.721 E2.92508
G1 X105.843 Y108.624 E2.96049
G1 X105.288 Y108.993 E2.97897
G1 X104.344 Y108.049 E3.01600
G1 X103.554 Y108.183 E3.03822
G1 X104.677 Y109.306 E3.08226
G1 X103.935 Y109.488 E3.10345
G1 X102.646 Y108.199 E3.15400
G1 X101.921 Y108.120 E3.17423
G1 X101.436 Y107.913 E3.18885
G1 X103.050 Y109.528 E3.25218
G1 X102.018 Y109.236 E3.28194
G1 X100.992 Y108.394 E3.31874
G1 X100.497 Y107.898 E3.33817
G1 E1.33817 F2400.00000
G92 E0
G1 X106.410 Y98.102 F7800.000
G1 E2.00000 F2400.00000
G1 F1200
G1 X99.613 Y91.305 E2.26658
G1 X99.340 Y91.279 E2.27421
G1 X98.993 Y91.343 E2.28399
G1 X98.829 Y91.445 E2.28934
G1 X107.171 Y99.787 E2.61649
G1 X107.495 Y100.880 E2.64811
G1 X107.501 Y101.041 E2.65258
G1 X98.422 Y91.962 E3.00866
G1 X98.425 Y92.889 E3.03438
G1 X103.078 Y97.542 E3.21684
G1 X102.455 Y97.511 E3.23412
G1 X102.163 Y97.551 E3.24231
G1 X98.539 Y93.927 E3.38445
G1 X98.619 Y94.500 E3.40048
G1 X98.694 Y94.734 E3.40730
G1 X98.683 Y94.996 E3.41458
G1 X101.163 Y97.475 E3.51183
G1 X100.947 Y97.436 E3.51790
G1 X100.305 Y97.225 E3.53665
G1 X100.140 Y97.144 E3.54175
G1 X99.652 Y96.761 E3.55896
G1 X99.293 Y96.273 E3.57576
G1 X99.168 Y95.717 E3.59156
G1 X99.178 Y95.490 E3.59786
G1 X102.205 Y92.973 F7800.000
G1 F1200
G1 X102.699 Y93.467 E3.61725
G1 Z5.100 F7800.000
G1 E1.61725 F2400.00000
G92 E0
G1 X99.359 Y92.164 F7800.000
G1 E2.00000 F2400.00000
G1 F1200
G1 X99.859 Y91.665 E2.01925
G1 X100.482 Y91.542 E2.03652
G1 X100.718 Y91.556 E2.04298
G1 X100.825 Y91.605 E2.04618
G1 X98.942 Y93.488 E2.11869
G1 X98.921 Y93.708 E2.12471
G1 X99.008 Y94.330 E2.14180
G1 X101.424 Y91.913 E2.23486
G1 X101.977 Y92.268 E2.25274
G1 X99.014 Y95.231 E2.36684
G1 X98.988 Y95.741 E2.38074
G1 X99.080 Y96.072 E2.39011
G1 X102.472 Y92.680 E2.52074
G1 X102.987 Y93.073 E2.53836
G1 X99.326 Y96.733 E2.67932
G1 X99.418 Y96.812 E2.68262
G1 X99.483 Y96.936 E2.68643
G1 X99.778 Y97.168 E2.69665
G1 X99.793 Y97.174 E2.69710
G1 X103.491 Y93.476 E2.83952
G1 X103.764 Y93.694 E2.84903
G1 X103.974 Y93.901 E2.85705
G1 X100.451 Y97.423 E2.99270
G1 X100.880 Y97.440 E3.00439
G1 X101.182 Y97.416 E3.01262
G1 X101.413 Y97.369 E3.01904
G1 X104.408 Y94.374 E3.13441
G1 X104.854 Y94.836 E3.15188
G1 X102.429 Y97.260 E3.24526
G1 X102.935 Y97.269 E3.25904
G1 X103.152 Y97.445 E3.26666
G1 X105.309 Y95.288 E3.34972
G1 X105.731 Y95.773 E3.36723
G1 X103.656 Y97.849 E3.44716
G1 X104.046 Y98.366 E3.46481
G1 X106.140 Y96.272 E3.54546
G1 X106.472 Y96.721 E3.56066
G1 X106.511 Y96.808 E3.56327
G1 X104.419 Y98.901 E3.64386
G1 X104.705 Y99.320 E3.65767
G1 X104.768 Y99.459 E3.66184
G1 X106.794 Y97.433 E3.73987
G1 X107.077 Y98.057 E3.75854
G1 X105.050 Y100.084 E3.83661
G1 X105.150 Y100.317 E3.84351
G1 X105.230 Y100.812 E3.85716
G1 X107.304 Y98.738 E3.93702
G1 X107.470 Y99.479 E3.95770
G1 X105.379 Y101.570 E4.03823
G1 X105.392 Y102.464 E4.06259
G1 X107.636 Y100.220 E4.14902
G1 X107.669 Y100.366 E4.15310
G1 X107.701 Y101.063 E4.17210
G1 X105.480 Y103.284 E4.25762
G1 X105.582 Y103.672 E4.26855
G1 X105.682 Y103.838 E4.27384
G1 X105.752 Y103.631 E4.27981
G1 X105.952 Y103.334 E4.28955
G1 X106.024 Y103.301 E4.29172
G1 X106.197 Y102.968 E4.30192
G1 X106.616 Y103.055 E4.31356
G1 X107.741 Y101.930 E4.35691
G1 X107.784 Y102.671 E4.37714
G1 X107.773 Y102.806 E4.38081
G1 X106.792 Y103.787 E4.41858
G1 X106.812 Y104.674 E4.44276
G1 X107.690 Y103.796 E4.47659
G1 X107.607 Y104.786 E4.50365
G1 X106.631 Y105.763 E4.54125
G1 X106.472 Y106.511 E4.56209
G1 X106.005 Y107.296 E4.58696
G1 X107.287 Y106.023 E4.63614
G1 X107.136 Y106.632 E4.65322
G1 X106.849 Y107.095 E4.66804
G1 X106.299 Y107.909 E4.69481
G1 X105.804 Y108.404 E4.71387
G1 X103.924 Y109.377 F7800.000
G1 F1200
G1 X105.679 Y107.622 E4.78146
G1 X104.913 Y108.002 E4.80473
G1 X104.325 Y108.069 E4.82085
G1 X102.863 Y109.531 E4.87717
G1 X102.156 Y109.331 E4.89719
G1 X103.352 Y108.135 E4.94325
G1 X102.518 Y108.061 E4.96603
G1 X101.476 Y109.102 E5.00615
G1 X101.364 Y109.010 E5.01010
G1 X101.114 Y108.558 E5.02419
G1 X101.855 Y107.816 E5.05275
M106 S255
G1 Z5.400 F7800.000
G1 X102.277 Y108.826 F7800.000
G1 F1125.35
G1 X101.783 Y108.332 E5.07189
G1 X101.730 Y108.236 E5.07487
G1 X101.792 Y108.120 E5.07847
G1 X102.444 Y108.081 E5.09634
G1 X103.763 Y109.400 E5.14741
G1 X104.554 Y109.279 E5.16930
G1 X103.327 Y108.052 E5.21679
G1 X104.153 Y107.967 E5.23953
G1 X105.239 Y109.053 E5.28156
G1 X105.820 Y108.721 E5.29985
G1 X104.825 Y107.726 E5.33835
G1 X105.444 Y107.433 E5.35709
G1 X106.383 Y108.372 E5.39345
G1 X106.757 Y107.835 E5.41138
G1 X105.893 Y106.970 E5.44484
G1 X106.251 Y106.417 E5.46288
G1 X107.131 Y107.297 E5.49695
G1 X107.226 Y107.161 E5.50148
G1 X107.373 Y106.626 E5.51666
G1 X106.538 Y105.792 E5.54895
G1 X106.706 Y105.048 E5.56982
G1 X107.568 Y105.909 E5.60316
G1 X107.702 Y105.416 E5.61716
G1 X107.720 Y105.150 E5.62446
G1 X106.863 Y104.293 E5.65763
G1 X106.885 Y103.402 E5.68201
G1 X107.777 Y104.295 E5.71656
G1 X107.835 Y103.441 E5.74000
G1 X106.903 Y102.509 E5.77606
G1 X106.909 Y102.213 E5.78415
G1 X106.890 Y102.026 E5.78930
G1 X106.792 Y101.486 E5.80432
G1 X107.812 Y102.506 E5.84379
G1 E3.84379 F2400.00000
G92 E0
G1 X106.125 Y100.819 F7800.000
G1 E2.00000 F2400.00000
G1 F1125.35
G1 X106.258 Y101.443 E2.01747
G1 X106.324 Y101.309 E2.02155
G1 X106.465 Y101.159 E2.02719
G1 X105.630 Y100.324 E2.05948
G1 X105.506 Y99.831 E2.07341
G1 X104.929 Y98.711 E2.10788
G1 X107.752 Y101.534 E2.21714
G1 X107.710 Y100.846 E2.23603
G1 X107.644 Y100.514 E2.24529
G1 X106.440 Y99.310 E2.29187
G1 X106.324 Y99.710 E2.30327
G1 X105.720 Y99.122 E2.32633
G1 X105.952 Y98.822 E2.33670
G1 X99.674 Y92.544 E2.57967
G1 X100.003 Y92.113 E2.59451
G1 X100.092 Y92.051 E2.59750
G1 X107.416 Y99.374 E2.88095
G1 X107.307 Y98.829 E2.89615
G1 X107.018 Y98.064 E2.91854
G1 X100.954 Y92.000 E3.15325
G1 X101.747 Y92.502 E3.17894
G1 X102.260 Y92.777 E3.19488
G1 X102.843 Y93.217 E3.21487
G1 X103.977 Y94.126 E3.25463
G1 X104.941 Y95.076 E3.29167
G1 E1.29167 F2400.00000
G92 E0
G1 X103.119 Y96.901 F7800.000
G1 E2.00000 F2400.00000
G1 F1125.35
G1 X99.467 Y93.249 E2.14136
G1 X99.529 Y94.223 E2.16807
G1 X102.272 Y96.966 E2.27426
G1 X101.568 Y97.173 E2.29436
G1 X99.418 Y95.024 E2.37754
G1 X99.371 Y95.263 E2.38420
G1 X99.387 Y95.905 E2.40178
G1 X100.659 Y97.177 E2.45102
G1 X100.339 Y97.094 E2.46008
G1 X100.163 Y96.754 E2.47055
G1 X99.882 Y96.513 E2.48068
G1 X99.881 Y96.399 E2.48378
G1 Z5.700 F7800.000
G1 E0.48378 F2400.00000
G92 E0
G1 X100.769 Y92.848 F7800.000
G1 E2.00000 F2400.00000
G1 F925.117
G1 X100.274 Y93.344 E2.01964
G1 X100.087 Y93.644 E2.02955
G1 X100.101 Y94.450 E2.05217
G1 X102.073 Y92.478 E2.13036
G1 X102.672 Y92.814 E2.14959
G1 X100.012 Y95.474 E2.25505
G1 X99.917 Y95.957 E2.26887
G1 X99.919 Y96.501 E2.28410
G1 X103.278 Y93.142 E2.41726
G1 X103.845 Y93.509 E2.43620
G1 X100.485 Y96.869 E2.56941
G1 X101.041 Y96.771 E2.58523
G1 X101.136 Y96.675 E2.58901
G1 X101.312 Y96.706 E2.59401
G1 X101.711 Y96.577 E2.60577
G1 X104.385 Y93.903 E2.71176
G1 X104.564 Y94.044 E2.71818
G1 X104.876 Y94.346 E2.73033
G1 X102.744 Y96.478 E2.81485
G1 X103.042 Y96.529 E2.82333
G1 X103.407 Y96.749 E2.83528
G1 X105.346 Y94.810 E2.91214
G1 X105.682 Y95.173 E2.92600
G1 X105.771 Y95.319 E2.93080
G1 X103.957 Y97.133 E3.00270
G1 X104.303 Y97.550 E3.01790
G1 X104.401 Y97.623 E3.02132
G1 X106.124 Y95.900 E3.08960
G1 X106.477 Y96.482 E3.10867
G1 X104.918 Y98.041 E3.17047
G1 X105.265 Y98.453 E3.18559
G1 X105.364 Y98.528 E3.18908
G1 X106.761 Y97.132 E3.24444
G1 X107.019 Y97.807 E3.26471
G1 X105.938 Y98.889 E3.30760
G1 X105.993 Y98.922 E3.30941
G1 X105.993 Y98.970 E3.31077
G1 X106.199 Y99.174 E3.31889
G1 X106.316 Y99.434 E3.32687
G1 X107.250 Y98.510 E3.36369
G1 X107.410 Y99.285 E3.38585
G1 X106.571 Y100.123 E3.41910
G1 X106.744 Y100.773 E3.43795
G1 X106.755 Y100.874 E3.44079
G1 X107.570 Y100.059 E3.47311
G1 X107.627 Y100.337 E3.48108
G1 X107.662 Y100.901 E3.49690
G1 X106.843 Y101.720 E3.52938
G1 X106.931 Y102.566 E3.55322
G1 X107.717 Y101.780 E3.58436
G1 X107.769 Y102.662 E3.60914
G1 X106.928 Y103.503 E3.64246
G1 X106.890 Y104.475 E3.66973
G1 X107.703 Y103.662 E3.70197
G1 X107.638 Y104.661 E3.73005
G1 X106.653 Y105.646 E3.76910
G1 X106.430 Y106.524 E3.79449
G1 X105.858 Y107.376 E3.82325
G1 X107.358 Y105.876 E3.88273
G1 X107.170 Y106.614 E3.90407
G1 X106.309 Y107.859 E3.94653
G1 X105.813 Y108.354 E3.96615
G1 X104.029 Y109.204 F7800.000
G1 F925.117
G1 X105.819 Y107.415 E4.03710
G1 X105.133 Y107.765 E4.05868
G1 X104.832 Y107.946 E4.06854
G1 X104.210 Y108.090 E4.08643
G1 X103.173 Y109.126 E4.12753
G1 X103.044 Y109.079 E4.13139
G1 X102.936 Y108.986 E4.13538
G1 X103.178 Y108.708 E4.14572
G1 X103.715 Y108.584 E4.16117
G1 Z6.000 F7800.000
G1 X105.112 Y108.672 F7800.000
G1 F600
G1 X105.080 Y108.709 E4.16256
G1 X105.140 Y108.700 E4.16430
G1 X104.617 Y108.178 E4.18567
G1 X105.120 Y107.601 E4.20778
G1 X105.975 Y108.456 E4.24275
G1 X106.264 Y108.291 E4.25237
G1 X106.517 Y107.919 E4.26539
G1 X105.721 Y107.123 E4.29795
G1 X106.089 Y106.530 E4.31814
G1 X106.459 Y106.783 E4.33109
G1 X106.954 Y107.278 E4.35133
G1 X107.332 Y106.043 F7800.000
G1 F600
G1 X106.837 Y105.549 E4.37155
G1 X106.840 Y105.132 E4.38362
G1 X106.621 Y105.126 E4.38996
G1 X106.769 Y104.516 E4.40810
G1 X107.465 Y105.212 E4.43657
G1 X107.481 Y104.265 E4.46398
G1 X106.867 Y103.651 E4.48910
G1 X106.930 Y102.750 E4.51522
G1 X107.498 Y103.318 E4.53843
G1 X107.503 Y103.020 E4.54704
G1 X107.434 Y102.290 E4.56825
G1 X106.907 Y101.763 E4.58983
G1 X106.830 Y100.722 E4.62000
G1 X107.354 Y101.247 E4.64145
G1 X107.319 Y100.776 E4.65509
G1 X107.183 Y100.112 E4.67471
G1 X106.655 Y99.583 E4.69633
G1 X106.583 Y99.272 E4.70557
G1 X106.345 Y98.540 E4.72784
G1 X106.060 Y98.025 E4.74487
G1 X106.931 Y98.896 E4.78051
G1 X106.378 Y97.379 E4.82719
G1 X102.035 Y93.035 E5.00488
G1 X102.669 Y93.170 E5.02364
G1 X102.852 Y93.269 E5.02966
G1 X104.044 Y94.081 E5.07139
G1 X104.541 Y94.578 E5.09170
G1 E3.09170 F2400.00000
G92 E0
G1 X104.649 Y96.614 F7800.000
G1 E2.00000 F2400.00000
G1 F600
G1 X101.249 Y93.214 E2.13909
G1 X101.049 Y93.331 E2.14580
G1 X101.001 Y93.414 E2.14855
G1 X100.842 Y93.586 E2.15534
G1 X100.847 Y93.776 E2.16084
G1 X103.080 Y96.009 E2.25219
G1 X102.895 Y95.979 E2.25763
G1 X102.702 Y95.911 E2.26354
G1 X102.317 Y95.709 E2.27610
G1 X101.786 Y95.678 E2.29152
G1 X101.107 Y94.999 E2.31929
G1 Z6.300 F7800.000
G1 X102.798 Y94.144 F7800.000
G1 F600
G1 X102.303 Y94.639 E2.33849
G1 X102.225 Y94.742 E2.34204
G1 X102.330 Y95.039 E2.35070
G1 X102.641 Y95.214 E2.36050
G1 X103.719 Y94.136 E2.40232
G1 X104.082 Y94.237 E2.41263
G1 X104.288 Y94.351 E2.41908
G1 X104.344 Y94.426 E2.42165
G1 X103.226 Y95.543 E2.46500
G1 X103.403 Y95.626 E2.47034
G1 X103.793 Y95.701 E2.48124
G1 X103.911 Y95.772 E2.48502
G1 X104.618 Y95.065 E2.51244
G1 X105.010 Y95.587 E2.53034
G1 X104.516 Y96.082 E2.54951
G1 E0.54951 F2400.00000
G92 E0
M107
; Filament-specific end gcode 
;END gcode for filament

M104 S0 ; turn off temperature
G28 X0  ; home X axis
M84     ; disable motors

M140 S0 ; set bed temperature
; filament used = 89.5mm (0.6cm3)
; total filament cost = 0.0

; avoid_crossing_perimeters = 0
; bed_shape = 0x0,200x0,200x200,0x200
; bed_temperature = 0
; before_layer_gcode = 
; between_objects_gcode = 
; bridge_acceleration = 0
; bridge_fan_speed = 100
; brim_connections_width = 0
; brim_width = 0
; complete_objects = 0
; cooling = 1
; default_acceleration = 0
; disable_fan_first_layers = 3
; duplicate_distance = 6
; end_filament_gcode = "; Filament-specific end gcode \n;END gcode for filament\n"
; end_gcode = M104 S0 ; turn off temperature\nG28 X0  ; home X axis\nM84     ; disable motors\n
; extruder_clearance_height = 20
; extruder_clearance_radius = 20
; extruder_offset = 0x0
; extrusion_axis = E
; extrusion_multiplier = 1
; fan_always_on = 0
; fan_below_layer_time = 60
; filament_colour = #FFFFFF
; filament_cost = 0
; filament_density = 0
; filament_diameter = 3
; filament_max_volumetric_speed = 0
; filament_notes = ""
; first_layer_acceleration = 0
; first_layer_bed_temperature = 0
; first_layer_extrusion_width = 200%
; first_layer_speed = 30
; first_layer_temperature = 205
; gcode_arcs = 0
; gcode_comments = 0
; gcode_flavor = reprap
; has_heatbed = 1
; infill_acceleration = 0
; infill_first = 0
; interior_brim_width = 0
; layer_gcode = 
; max_fan_speed = 100
; max_layer_height = 0.3
; max_print_speed = 80
; max_volumetric_speed = 0
; min_fan_speed = 35
; min_layer_height = 0.15
; min_print_speed = 10
; min_skirt_length = 0
; notes = 
; nozzle_diameter = 0.5
; only_retract_when_crossing_perimeters = 1
; ooze_prevention = 0
; output_filename_format = [input_filename_base].gcode
; perimeter_acceleration = 0
; post_process = 
; pressure_advance = 0
; printer_notes = 
; resolution = 0
; retract_before_travel = 2
; retract_layer_change = 0
; retract_length = 2
; retract_length_toolchange = 10
; retract_lift = 0
; retract_lift_above = 0
; retract_lift_below = 0
; retract_restart_extra = 0
; retract_restart_extra_toolchange = 0
; retract_speed = 40
; skirt_distance = 6
; skirt_height = 1
; skirts = 0
; slowdown_below_layer_time = 5
; spiral_vase = 0
; standby_temperature_delta = -5
; start_filament_gcode = "; Filament gcode\n"
; start_gcode = G28 ; home all axes\nG1 Z5 F5000 ; lift nozzle\n
; temperature = 200
; threads = 8
; toolchange_gcode = 
; travel_speed = 130
; use_firmware_retraction = 0
; use_relative_e_distances = 0
; use_set_and_wait_bed = 0
; use_set_and_wait_extruder = 0
; use_volumetric_e = 0
; vibration_limit = 0
; wipe = 0
; z_offset = 0
; z_steps_per_mm = 0
; adaptive_slicing = 0
; adaptive_slicing_quality = 75%
; dont_support_bridges = 1
; extrusion_width = 0
; first_layer_height = 0.3
; infill_only_where_needed = 0
; interface_shells = 0
; layer_height = 0.3
; match_horizontal_surfaces = 0
; raft_layers = 0
; regions_overlap = 0
; seam_position = aligned
; sequential_print_priority = 0
; support_material = 0
; support_material_angle = 0
; support_material_buildplate_only = 0
; support_material_contact_distance = 0.2
; support_material_enforce_layers = 0
; support_material_extruder = 1
; support_material_extrusion_width = 0
; support_material_interface_extruder = 1
; support_material_interface_extrusion_width = 0
; support_material_interface_layers = 3
; support_material_interface_spacing = 0
; support_material_interface_speed = 100%
; support_material_max_layers = 0
; support_material_pattern = pillars
; support_material_spacing = 2.5
; support_material_speed = 60
; support_material_threshold = 60%
; xy_size_compensation = 0
; bottom_infill_pattern = rectilinear
; bottom_solid_layers = 0
; bridge_flow_ratio = 1
; bridge_speed = 60
; external_perimeter_extrusion_width = 0
; external_perimeter_speed = 50%
; external_perimeters_first = 0
; extra_perimeters = 1
; fill_angle = 45
; fill_density = 90%
; fill_gaps = 1
; fill_pattern = rectilinear
; gap_fill_speed = 20
; infill_every_layers = 1
; infill_extruder = 1
; infill_extrusion_width = 0
; infill_overlap = 55%
; infill_speed = 80
; overhangs = 1
; perimeter_extruder = 1
; perimeter_extrusion_width = 0
; perimeter_speed = 60
; perimeters = 0
; small_perimeter_speed = 15
; solid_infill_below_area = 70
; solid_infill_every_layers = 0
; solid_infill_extruder = 1
; solid_infill_extrusion_width = 0
; solid_infill_speed = 20
; thin_walls = 1
; top_infill_extrusion_width = 0
; top_infill_pattern = rectilinear
; top_solid_infill_speed = 15
; top_solid_layers = 0
