; generated by Slic3r 1.3.0 on 2019-11-27 at 11:49:01

; external perimeters extrusion width = 0.55mm (4.37mm^3/s)
; perimeters extrusion width = 0.70mm (11.44mm^3/s)
; infill extrusion width = 0.63mm (13.45mm^3/s)
; solid infill extrusion width = 0.70mm (3.81mm^3/s)
; top infill extrusion width = 0.70mm (2.86mm^3/s)

M107
M104 S205 ; set temperature
G28 ; home all axes
G1 Z5 F5000 ; lift nozzle

; Filament gcode

M109 S205 ; set temperature and wait for it to be reached
G21 ; set units to millimeters
G90 ; use absolute coordinates
M82 ; use absolute distances for extrusion
G92 E0
G1 Z0.300 F7800.000
M104 S200 ; set temperature
G1 Z0.600 F7800.000
G1 E-2.00000 F2400.00000
G92 E0
G1 X102.024 Y94.095 F7800.000
G1 E2.00000 F2400.00000
G1 F1965.99
G1 X101.467 Y93.539 E2.01872
G1 X101.250 Y93.576 E2.02395
G1 X100.976 Y93.544 E2.03052
G1 X100.742 Y93.464 E2.03641
G1 X100.592 Y93.351 E2.04087
G1 X100.455 Y93.214 E2.04548
G1 X100.317 Y93.006 E2.05141
G1 X100.265 Y92.679 E2.05931
G1 X99.994 Y92.809 E2.06646
G1 X99.919 Y92.872 E2.06879
G1 X101.213 Y94.165 E2.11231
G1 X101.175 Y94.169 E2.11321
G1 X101.021 Y94.855 E2.12993
G1 X99.167 Y93.001 E2.19231
G1 X98.891 Y92.806 E2.20036
G1 X98.656 Y92.547 E2.20867
G1 X98.369 Y92.485 E2.21567
G1 X98.326 Y92.460 E2.21684
G1 X97.763 Y92.477 E2.23024
G1 X101.132 Y95.846 E2.34361
G1 X101.386 Y96.560 E2.36163
G1 X101.773 Y96.487 E2.37100
G1 X103.129 Y97.844 E2.41664
G1 X102.532 Y97.941 E2.43103
G1 X102.508 Y98.103 E2.43493
G1 X97.449 Y93.044 E2.60516
G1 X97.383 Y93.164 E2.60841
G1 X97.407 Y93.883 E2.62554
G1 X102.310 Y98.787 E2.79053
G1 X102.222 Y98.983 E2.79565
G1 X101.722 Y99.079 E2.80777
G1 X95.982 Y93.339 E3.00093
G1 X95.986 Y93.396 E3.00229
G1 X96.441 Y94.679 E3.03469
G1 X100.983 Y99.221 E3.18751
G1 X100.244 Y99.363 E3.20542
G1 X96.404 Y95.523 E3.33461
G1 X96.268 Y96.105 E3.34882
G1 X96.202 Y96.202 E3.35162
G1 X102.274 Y102.274 E3.55595
G1 X103.200 Y103.602 E3.59446
G1 X104.100 Y104.303 E3.62161
G1 X104.299 Y104.479 E3.62792
G1 X104.955 Y105.151 E3.65027
G1 X105.137 Y105.421 E3.65801
G1 X105.320 Y105.937 E3.67105
G1 X105.307 Y106.188 E3.67702
G1 X95.904 Y96.785 E3.99341
G1 X95.862 Y96.905 E3.99644
G1 X95.310 Y97.072 E4.01015
G1 X104.984 Y106.746 E4.33566
G1 X104.564 Y107.046 E4.34794
G1 X104.456 Y107.099 E4.35081
G1 X94.730 Y97.373 E4.67807
G1 X94.637 Y97.407 E4.68044
G1 X94.445 Y97.541 E4.68599
G1 X94.500 Y97.856 E4.69359
G1 X94.612 Y98.136 E4.70077
G1 X103.751 Y107.275 E5.00831
G1 X103.534 Y107.284 E5.01349
G1 X103.399 Y107.335 E5.01692
G1 X103.238 Y107.358 E5.02079
G1 X103.020 Y107.424 E5.02622
G1 X94.924 Y99.328 E5.29864
G1 X95.187 Y100.344 E5.32359
G1 X95.275 Y100.561 E5.32917
G1 X97.454 Y102.739 E5.40247
G1 X97.108 Y102.693 E5.41075
G1 X96.705 Y102.809 E5.42074
G1 X96.097 Y101.896 E5.44684
G1 X95.741 Y101.026 E5.46921
G1 E3.46921 F2400.00000
G92 E0
G1 X98.251 Y104.418 F7800.000
G1 E2.00000 F2400.00000
G1 F1965.99
G1 X98.229 Y104.547 E2.00313
G1 X98.267 Y104.667 E2.00611
G1 X98.358 Y104.525 E2.01012
G1 X97.786 Y103.952 E2.02938
G1 X97.793 Y103.909 E2.03042
G1 X97.761 Y103.856 E2.03190
G1 X97.793 Y103.323 E2.04461
G1 X97.632 Y103.223 E2.04911
G1 X97.603 Y103.176 E2.05042
G1 X97.624 Y102.909 E2.05679
G1 X98.929 Y104.214 E2.10069
G1 X99.583 Y105.750 F7800.000
G1 F1965.99
G1 X99.704 Y105.955 E2.10635
G1 X99.786 Y106.222 E2.11299
G1 X99.805 Y106.406 E2.11740
G1 X99.853 Y106.544 E2.12088
G1 X100.050 Y106.919 E2.13095
G1 X100.182 Y107.084 E2.13597
G1 X100.305 Y107.286 E2.14160
G1 X100.402 Y107.366 E2.14461
G1 X100.713 Y107.324 E2.15208
G1 X101.016 Y107.860 E2.16675
G1 X101.361 Y108.140 E2.17732
G1 X101.410 Y108.118 E2.17859
G1 X101.509 Y108.013 E2.18202
G1 X101.502 Y107.669 E2.19022
G1 X99.118 Y105.285 E2.27044
G1 X99.222 Y105.192 E2.27375
G1 X99.352 Y104.995 E2.27938
G1 X99.460 Y104.746 E2.28583
G1 X101.777 Y107.062 E2.36378
G1 E0.36378 F2400.00000
G92 E0
G1 X103.487 Y97.320 F7800.000
G1 E2.00000 F2400.00000
G1 F1965.99
G1 X102.440 Y96.278 E2.03515
G1 X101.952 Y95.921 E2.04953
G1 X101.898 Y95.910 E2.05084
G1 X101.307 Y96.022 E2.06515
G1 Z0.900 F7800.000
G1 E0.06515 F2400.00000
G92 E0
G1 X98.957 Y92.494 F7800.000
G1 E2.00000 F2400.00000
G1 F1200
G1 X99.452 Y92.000 E2.02263
G1 X98.792 Y91.580 F7800.000
G1 F1200
G1 X98.024 Y92.349 E2.05780
G1 X97.401 Y92.747 F7800.000
G1 F1200
G1 X96.907 Y93.242 E2.08043
G1 X96.152 Y92.918 F7800.000
G1 F1200
G1 X97.244 Y91.827 E2.13041
G1 E0.13041 F2400.00000
G92 E0
G1 X95.355 Y93.694 F7800.000
G1 E2.00000 F2400.00000
G1 F1200
G1 X95.338 Y93.458 E2.00766
G1 X95.296 Y93.504 E2.00969
G1 X95.217 Y93.681 E2.01595
G1 X95.007 Y94.042 E2.02947
G1 X95.849 Y93.199 E2.06803
G1 X95.877 Y93.510 E2.07811
G1 X96.071 Y94.056 E2.09689
G1 X94.316 Y95.811 E2.17722
G1 X94.284 Y95.869 E2.17937
G1 X94.250 Y96.491 E2.19954
G1 X94.170 Y97.036 E2.21735
G1 X96.353 Y94.853 E2.31728
G1 X96.395 Y94.972 E2.32137
G1 X96.191 Y95.844 E2.35038
G1 X95.956 Y96.187 E2.36384
G1 X95.879 Y96.406 E2.37134
G1 X95.384 Y96.900 E2.39399
G1 X96.483 Y96.469 F7800.000
G1 F4800
G1 X96.327 Y96.905 E2.40500
G1 X95.926 Y97.027 E2.41498
G1 X94.539 Y98.414 E2.46165
G1 X94.753 Y99.081 F7800.000
G1 F4800
G1 X101.330 Y92.504 E2.68296
G1 X100.941 Y92.589 E2.69241
G1 X100.604 Y92.726 E2.70108
G1 X100.465 Y92.804 E2.70488
G1 X100.241 Y92.968 E2.71148
G1 X100.124 Y93.103 E2.71572
G1 X99.987 Y93.080 E2.71901
G1 X99.850 Y93.103 E2.72233
G1 X96.018 Y96.935 E2.85127
G1 X96.268 Y96.570 E2.86180
G1 X96.502 Y95.570 E2.88625
G1 X99.314 Y92.757 E2.98087
G1 X99.122 Y92.546 E2.98767
G1 X98.948 Y92.504 E2.99193
G1 X98.867 Y92.505 E2.99387
G1 X98.791 Y92.460 E2.99594
G1 X98.729 Y92.462 E2.99743
G1 X97.389 Y93.802 E3.04252
G1 X97.383 Y93.629 E3.04664
G1 X97.765 Y92.939 E3.06542
G1 X98.264 Y92.927 E3.07728
G1 X96.584 Y93.726 F7800.000
G1 F4800
G1 X96.282 Y93.569 E3.08538
G1 X95.980 Y93.800 E3.09444
G1 X96.107 Y94.203 E3.10448
G1 X97.049 Y93.261 E3.13618
G1 X97.086 Y93.280 E3.13717
G1 X97.105 Y93.472 E3.14177
G1 X97.256 Y93.934 E3.15334
G1 X96.338 Y94.853 E3.18425
G1 E1.18425 F2400.00000
G92 E0
G1 X97.457 Y98.138 F7800.000
G1 E2.00000 F2400.00000
G1 F4800
G1 X97.437 Y97.908 E2.00550
G1 X97.453 Y97.779 E2.00858
G1 X97.517 Y97.560 E2.01402
G1 X97.617 Y97.506 E2.01673
G1 X97.724 Y97.396 E2.02039
G1 X98.090 Y97.506 E2.02946
G1 X100.968 Y94.627 E2.12631
G1 X100.928 Y94.806 E2.13068
G1 X101.122 Y95.354 E2.14450
G1 X98.619 Y97.858 E2.22875
G1 X98.710 Y97.994 E2.23264
G1 X98.794 Y98.177 E2.23744
G1 X98.810 Y98.335 E2.24121
G1 X98.853 Y98.504 E2.24537
G1 X101.353 Y96.004 E2.32948
G1 X101.389 Y96.105 E2.33204
G1 X102.320 Y95.918 E2.35463
G1 X99.932 Y98.307 E2.43500
G1 X100.285 Y98.204 E2.44375
G1 X100.564 Y98.280 E2.45064
G1 X100.815 Y98.304 E2.45663
G1 X102.869 Y96.250 E2.52575
G1 X103.323 Y96.677 E2.54058
G1 X101.191 Y98.809 E2.61232
G1 E0.61232 F2400.00000
G92 E0
G1 X101.462 Y94.133 F7800.000
G1 E2.00000 F2400.00000
G1 F4800
G1 X102.295 Y93.301 E2.02802
G1 X102.185 Y93.027 E2.03504
G1 X101.940 Y92.774 E2.04340
G1 X100.758 Y93.957 E2.08320
G1 X101.223 Y93.491 F7800.000
G1 F4800
G1 X94.923 Y99.791 E2.29518
G1 X95.100 Y100.495 E2.31245
G1 X97.923 Y97.673 E2.40741
G1 X98.007 Y97.980 E2.41499
G1 X98.141 Y98.138 E2.41992
G1 X98.258 Y98.218 E2.42330
G1 X95.326 Y101.150 E2.52196
G1 X95.582 Y101.775 E2.53803
G1 X98.503 Y98.854 E2.63633
G1 X98.470 Y99.113 E2.64255
G1 X98.479 Y99.177 E2.64409
G1 X98.499 Y99.259 E2.64610
G1 X98.662 Y99.577 E2.65458
G1 X95.917 Y102.321 E2.74693
G1 X96.245 Y102.808 E2.76089
G1 X96.338 Y102.781 E2.76320
G1 X99.213 Y99.906 E2.85996
G1 X99.534 Y100.065 E2.86847
G1 X99.921 Y99.782 E2.87988
G1 X100.041 Y99.736 E2.88292
G1 X100.452 Y99.461 E2.89470
G1 X100.488 Y99.512 E2.89619
G1 X97.229 Y102.771 E3.00587
G1 X97.326 Y102.784 E3.00820
G1 X97.634 Y103.247 E3.02143
G1 X100.856 Y100.025 E3.12985
G1 X101.226 Y100.535 E3.14486
G1 X97.785 Y103.977 E3.26067
G1 X97.772 Y104.183 E3.26557
G1 X97.784 Y104.437 E3.27163
G1 X97.766 Y104.589 E3.27526
G1 X97.797 Y104.675 E3.27745
G1 X97.952 Y104.431 E3.28435
G1 X98.158 Y104.307 E3.29005
G1 X98.418 Y104.225 E3.29655
G1 X100.315 Y102.328 E3.36037
G1 X100.340 Y102.371 E3.36155
G1 X100.401 Y102.740 E3.37045
G1 X100.714 Y102.810 E3.37808
G1 X99.149 Y104.375 E3.43075
G1 X99.284 Y104.506 E3.43523
G1 X99.368 Y104.638 E3.43895
G1 X99.461 Y104.944 E3.44655
G1 X101.574 Y102.831 E3.51765
G1 X102.210 Y102.520 E3.53448
G1 X102.406 Y102.379 E3.54023
G1 X102.529 Y102.179 E3.54583
G1 X102.765 Y102.521 E3.55572
G1 X99.262 Y106.024 E3.67359
G1 X99.318 Y106.212 E3.67827
G1 X99.340 Y106.406 E3.68291
G1 X99.465 Y106.701 E3.69054
G1 X103.128 Y103.039 E3.81379
G1 X103.200 Y103.136 E3.81668
G1 X103.599 Y103.448 E3.82873
G1 X99.808 Y107.240 E3.95632
G1 X99.937 Y107.366 E3.96063
G1 X100.248 Y107.324 E3.96810
G1 X100.377 Y107.551 E3.97432
G1 X104.095 Y103.833 E4.09942
G1 X104.546 Y104.263 E4.11425
G1 X101.723 Y107.086 E4.20925
G1 X101.881 Y107.182 E4.21364
G1 X102.004 Y107.310 E4.21788
G1 X102.220 Y107.470 E4.22427
G1 X104.974 Y104.716 E4.31694
G1 X105.140 Y104.959 E4.32394
G1 X105.269 Y105.302 E4.33266
G1 X103.296 Y107.275 E4.39904
G1 E2.39904 F2400.00000
G92 E0
G1 X101.231 Y107.578 F7800.000
G1 E2.00000 F2400.00000
G1 F4800
G1 X101.366 Y107.682 E2.00406
G1 X101.498 Y107.583 E2.00797
G1 X101.504 Y107.305 E2.01459
G1 X100.766 Y108.043 E2.03943
G1 E0.03943 F2400.00000
G92 E0
G1 X99.255 Y106.124 F7800.000
G1 E2.00000 F2400.00000
G1 F1200
G1 X98.761 Y106.618 E2.02131
G1 X98.405 Y105.979 F7800.000
G1 F1200
G1 X98.900 Y105.484 E2.04262
G1 E0.04262 F2400.00000
G92 E0
G1 X100.460 Y102.448 F7800.000
G1 E2.00000 F2400.00000
G1 F1200
G1 X100.955 Y101.953 E2.02133
G1 X101.476 Y102.448 F7800.000
G1 F1200
G1 X101.971 Y101.953 E2.04264
G1 X101.103 Y100.492 F7800.000
G1 F1200
G1 X102.541 Y99.054 E2.10460
G1 X101.414 Y99.270 E2.13958
G1 X100.723 Y99.961 E2.16935
G1 X100.623 Y99.822 E2.17458
G1 X100.919 Y99.765 E2.18378
G1 E0.18378 F2400.00000
G92 E0
G1 X101.357 Y94.774 F7800.000
G1 E2.00000 F2400.00000
G1 F1200
G1 X101.851 Y94.279 E2.02131
G1 X102.124 Y94.237 E2.02971
G1 X102.354 Y94.130 E2.03743
G1 X102.477 Y94.034 E2.04222
G1 X102.467 Y94.235 E2.04837
G1 X102.522 Y94.519 E2.05718
G1 X101.259 Y95.782 E2.11163
G1 X101.297 Y95.890 E2.11512
G1 X101.885 Y95.782 E2.13332
G1 X102.125 Y95.827 E2.14078
G1 X102.839 Y95.113 E2.17156
G1 X102.984 Y95.211 E2.17689
G1 X103.136 Y95.369 E2.18357
G1 X103.375 Y95.488 E2.19170
G1 X102.670 Y96.193 E2.22207
G1 X102.897 Y96.378 E2.23099
G1 X103.148 Y96.625 E2.24174
G1 X103.789 Y95.984 E2.26935
G1 X104.159 Y96.525 E2.28931
G1 X103.573 Y97.111 E2.31457
G1 X103.642 Y97.246 E2.31919
G1 X103.753 Y97.601 E2.33054
G1 X103.759 Y97.765 E2.33552
G1 X103.670 Y97.908 E2.34067
G1 X103.189 Y98.376 E2.36113
G1 X102.579 Y98.476 E2.37994
G1 X102.552 Y98.655 E2.38546
G1 X102.235 Y99.359 E2.40901
G1 X104.417 Y97.177 E2.50306
G1 X104.652 Y97.853 E2.52486
G1 X101.508 Y100.998 E2.66040
G1 X101.919 Y101.497 E2.68011
G1 X104.798 Y98.618 E2.80419
G1 X104.910 Y98.884 E2.81300
G1 X105.030 Y99.297 E2.82609
G1 X102.324 Y102.003 E2.94271
G1 X102.695 Y102.542 E2.96266
G1 X105.219 Y100.019 E3.07141
G1 X105.200 Y100.151 E3.07549
G1 X105.071 Y100.426 E3.08473
G1 X105.015 Y100.643 E3.09157
G1 X105.027 Y100.803 E3.09645
G1 X105.097 Y100.992 E3.10258
G1 X105.129 Y101.019 E3.10386
G1 X103.068 Y103.080 E3.19267
G1 X103.153 Y103.195 E3.19703
G1 X103.552 Y103.506 E3.21246
G1 X105.694 Y101.367 E3.30473
G1 X105.758 Y101.472 E3.30849
G1 X105.857 Y101.838 E3.32004
G1 X105.821 Y102.148 E3.32955
G1 X104.061 Y103.909 E3.40544
G1 X104.528 Y104.352 E3.42507
G1 X105.534 Y103.346 E3.46845
G1 X105.493 Y103.469 E3.47242
G1 X105.461 Y104.330 E3.49866
G1 X104.966 Y104.824 E3.51997
M106 S255
G1 Z1.200 F7800.000
G1 X105.772 Y102.248 F7800.000
G1 F2940.14
G1 X101.659 Y98.136 E3.65836
G1 X101.638 Y98.482 E3.66661
G1 X101.562 Y98.919 E3.67717
G1 X105.774 Y103.131 E3.81890
G1 X105.723 Y103.367 E3.82464
G1 X105.566 Y103.804 E3.83570
G1 X102.899 Y101.137 E3.92544
G1 X102.857 Y101.427 E3.93241
G1 X102.760 Y101.666 E3.93854
G1 X102.669 Y101.788 E3.94216
G1 X105.493 Y104.612 E4.03720
G1 X105.482 Y105.108 E4.04901
G1 X105.440 Y105.440 E4.05697
G1 X102.263 Y102.263 E4.16386
G1 X101.755 Y102.628 E4.17874
G1 X101.675 Y102.556 E4.18129
G1 X105.295 Y106.176 E4.30309
G1 X105.219 Y106.397 E4.30866
G1 X105.016 Y106.777 E4.31891
G1 X101.168 Y102.930 E4.44837
G1 X100.950 Y103.023 E4.45401
G1 X100.536 Y103.043 E4.46388
G1 X100.375 Y103.017 E4.46776
G1 X104.638 Y107.281 E4.61122
G1 X104.397 Y107.421 E4.61785
G1 X104.032 Y107.556 E4.62711
G1 E2.62711 F2400.00000
G92 E0
G1 X98.762 Y105.810 F7800.000
G1 E2.00000 F2400.00000
G1 F2940.14
G1 X99.069 Y106.426 E2.01638
G1 X99.236 Y106.659 E2.02319
G1 X99.774 Y107.060 E2.03916
G1 X99.755 Y107.086 E2.03993
G1 X100.019 Y107.245 E2.04728
G1 X100.220 Y107.268 E2.05209
G1 X98.297 Y105.345 E2.11680
G1 X97.974 Y104.842 E2.13101
G1 X97.946 Y104.113 E2.14837
G1 X101.983 Y108.149 E2.28420
G1 X102.134 Y108.159 E2.28779
G1 X102.470 Y108.120 E2.29585
G1 X102.458 Y108.099 E2.29644
G1 X102.679 Y107.965 E2.30260
G1 X95.275 Y100.561 E2.55174
G1 X95.187 Y100.344 E2.55732
G1 X94.924 Y99.328 E2.58228
G1 X103.286 Y107.690 E2.86364
G1 X103.717 Y107.574 E2.87426
G1 X103.743 Y107.654 E2.87627
G1 X104.032 Y107.556 E2.88355
G1 X94.612 Y98.136 E3.20053
G1 X94.582 Y98.034 E3.20305
G1 X94.197 Y97.294 E3.22289
G1 X94.139 Y96.781 E3.23517
G1 X100.253 Y102.895 E3.44090
G1 X100.320 Y102.803 E3.44363
G1 X100.247 Y102.676 E3.44711
G1 X100.365 Y102.213 E3.45850
G1 X100.400 Y102.162 E3.45996
G1 X94.229 Y95.990 E3.66763
G1 X94.262 Y95.375 E3.68230
G1 X94.341 Y95.221 E3.68640
G1 X98.270 Y99.151 E3.81863
G1 X98.260 Y99.033 E3.82146
G1 X98.003 Y98.433 E3.83698
G1 X97.933 Y98.221 E3.84230
G1 X97.745 Y97.924 E3.85067
G1 X97.664 Y97.664 E3.85713
G1 X94.656 Y94.656 E3.95835
G1 X94.750 Y94.018 E3.97370
G1 X94.875 Y93.994 E3.97673
G1 X98.091 Y97.210 E4.08493
G1 X98.262 Y97.213 E4.08900
G1 X98.514 Y97.263 E4.09511
G1 X98.680 Y97.317 E4.09927
G1 X98.908 Y97.432 E4.10535
G1 X99.161 Y97.615 E4.11277
G1 X99.260 Y97.713 E4.11610
G1 X99.417 Y97.787 E4.12021
G1 X99.538 Y97.776 E4.12310
G1 X95.685 Y93.923 E4.25274
G1 X95.753 Y93.922 E4.25438
G1 X96.066 Y94.175 E4.26394
G1 X96.290 Y94.250 E4.26956
G1 X96.483 Y94.282 E4.27423
G1 X96.678 Y94.355 E4.27917
G1 X96.854 Y94.376 E4.28340
G1 X96.924 Y94.405 E4.28520
G1 X97.020 Y94.378 E4.28758
G1 X100.282 Y97.639 E4.39733
G1 X100.716 Y97.627 E4.40767
G1 X101.325 Y97.801 E4.42274
G1 X97.425 Y93.902 E4.55396
G1 X97.470 Y93.743 E4.55788
G1 X97.542 Y93.137 E4.57239
G1 X105.166 Y100.761 E4.82892
G1 X105.241 Y100.559 E4.83406
G1 X105.242 Y100.400 E4.83784
G1 X105.136 Y99.929 E4.84932
G1 X105.045 Y99.759 E4.85391
G1 X97.856 Y92.570 E5.09580
G1 X98.419 Y92.253 E5.11119
G1 X104.709 Y98.542 E5.32281
G1 X104.682 Y98.339 E5.32768
G1 X104.293 Y97.246 E5.35529
G1 X99.477 Y92.429 E5.51737
G1 X99.709 Y92.447 E5.52293
G1 X100.074 Y92.443 E5.53161
G1 X100.080 Y92.355 E5.53372
G1 X100.266 Y92.337 E5.53816
G1 X102.498 Y94.569 E5.61326
G1 X102.750 Y100.988 F7800.000
G1 F2940.14
G1 X101.181 Y99.419 E5.66606
G1 X100.868 Y99.538 E5.67402
G1 X100.520 Y99.639 E5.68266
G1 X101.978 Y101.097 E5.73174
G1 X101.609 Y101.232 E5.74108
G1 X101.374 Y101.374 E5.74762
G1 X99.923 Y99.923 E5.79644
G1 X99.487 Y100.174 E5.80841
G1 X99.345 Y100.226 E5.81200
G1 X100.824 Y101.705 E5.86177
G1 X100.729 Y101.771 E5.86451
G1 X100.754 Y101.821 E5.86585
G1 X100.692 Y101.887 E5.86802
G1 X100.557 Y101.936 E5.87142
G1 X100.400 Y102.162 E5.87796
G1 E3.87796 F2400.00000
G92 E0
G1 X98.468 Y92.294 F7800.000
G1 E2.00000 F2400.00000
G1 F735.034
G1 X97.974 Y91.799 E2.02183
G1 X97.767 Y91.875 E2.02869
G1 X97.623 Y91.899 E2.03327
G1 X97.207 Y92.073 E2.04733
G1 X97.844 Y92.710 E2.07542
G1 X97.528 Y93.145 E2.09219
G1 X97.466 Y93.372 E2.09955
G1 X96.696 Y92.603 E2.13353
G1 X96.591 Y92.650 E2.13715
G1 X96.284 Y93.192 E2.15657
G1 X96.240 Y93.187 E2.15795
G1 X97.301 Y94.248 E2.20479
G1 X97.204 Y94.190 E2.20833
G1 X96.838 Y94.122 E2.21995
G1 X96.441 Y93.801 E2.23586
G1 X95.822 Y93.809 E2.25520
G1 X95.328 Y93.314 E2.27703
G1 Z1.500 F7800.000
G1 E0.27703 F2400.00000
G92 E0
G1 X97.887 Y93.064 F7800.000
G1 E2.00000 F2400.00000
G1 F661.613
G1 X98.382 Y92.569 E2.02053
G1 X98.417 Y93.512 F7800.000
G1 F661.613
G1 X97.922 Y94.006 E2.04104
G1 E0.04104 F2400.00000
G92 E0
G1 X95.273 Y95.037 F7800.000
G1 E2.00000 F2400.00000
G1 F2646.45
G1 X94.728 Y95.071 E2.01299
G1 X94.474 Y95.113 E2.01910
G1 X94.296 Y95.466 E2.02853
G1 X94.007 Y95.614 E2.03623
G1 X93.984 Y96.326 E2.05317
G1 X95.738 Y94.572 E2.11218
G1 X96.350 Y94.534 E2.12677
G1 X96.482 Y94.578 E2.13009
G1 X96.617 Y94.574 E2.13330
G1 X93.957 Y97.234 E2.22280
G1 X94.011 Y97.479 E2.22879
G1 X94.114 Y97.597 E2.23251
G1 X94.237 Y97.834 E2.23887
G1 X97.654 Y94.418 E2.35385
G1 X97.855 Y94.387 E2.35868
G1 X98.100 Y94.315 E2.36475
G1 X98.860 Y93.968 E2.38464
G1 X99.086 Y93.610 E2.39471
G1 X98.993 Y93.375 E2.40072
G1 X99.038 Y93.238 E2.40416
G1 X99.149 Y93.105 E2.40827
G1 X99.353 Y92.988 E2.41389
G1 X100.038 Y92.800 E2.43078
G1 X100.220 Y92.732 E2.43540
G1 X94.538 Y98.414 E2.62660
G1 X94.582 Y98.499 E2.62888
G1 X94.753 Y99.081 E2.64330
G1 X101.459 Y92.375 E2.86896
G1 X101.679 Y92.510 E2.87510
G1 X101.967 Y92.748 E2.88399
G1 X97.484 Y97.231 E3.03484
G1 X97.590 Y97.212 E3.03741
G1 X97.616 Y97.169 E3.03860
G1 X97.886 Y97.043 E3.04569
G1 X98.208 Y97.098 E3.05346
G1 X98.394 Y97.202 E3.05852
G1 X102.389 Y93.206 E3.19296
G1 X102.482 Y93.318 E3.19641
G1 X102.635 Y93.581 E3.20366
G1 X102.701 Y93.775 E3.20854
G1 X101.068 Y95.408 E3.26349
G1 X101.332 Y95.516 E3.27027
G1 X101.432 Y95.723 E3.27574
G1 X101.529 Y95.828 E3.27915
G1 X102.853 Y94.505 E3.32368
G1 X102.867 Y94.548 E3.32478
G1 X102.799 Y94.571 E3.32650
G1 X102.899 Y94.946 E3.33573
G1 X102.990 Y95.127 E3.34056
G1 X103.044 Y95.194 E3.34260
G1 X100.782 Y97.456 E3.41873
G1 X101.167 Y97.461 E3.42789
G1 X101.398 Y97.487 E3.43343
G1 X101.573 Y97.546 E3.43782
G1 X103.494 Y95.625 E3.50247
G1 X103.602 Y95.714 E3.50581
G1 X103.650 Y95.662 E3.50750
G1 X103.967 Y96.033 E3.51911
G1 X101.996 Y98.004 E3.58546
G1 X102.097 Y98.373 E3.59455
G1 X102.118 Y98.763 E3.60384
G1 X104.240 Y96.641 E3.67523
G1 X104.562 Y97.110 E3.68877
G1 X104.639 Y97.057 E3.69100
G1 X104.666 Y97.096 E3.69213
G1 X97.970 Y103.791 E3.91742
G1 X98.073 Y103.906 E3.92109
G1 X98.164 Y104.119 E3.92659
G1 X98.218 Y104.258 E3.93014
G1 X98.231 Y104.412 E3.93381
G1 X99.800 Y102.843 E3.98659
G1 X99.774 Y102.630 E3.99171
G1 X99.831 Y102.469 E3.99577
G1 X99.893 Y102.148 E4.00355
G1 X100.110 Y101.897 E4.01144
G1 X100.282 Y101.753 E4.01678
G1 X100.666 Y101.496 E4.02777
G1 X100.629 Y101.439 E4.02940
G1 X100.973 Y101.201 E4.03935
G1 X101.469 Y100.796 E4.05458
G1 X101.635 Y100.553 E4.06159
G1 X101.754 Y100.313 E4.06796
G1 X101.797 Y99.998 E4.07552
G1 X102.262 Y99.680 E4.08893
G1 X102.693 Y99.950 E4.10101
G1 X104.981 Y97.662 E4.17801
G1 X105.296 Y98.228 E4.19342
G1 X103.118 Y100.406 E4.26673
G1 X103.301 Y100.699 E4.27496
G1 X103.366 Y100.848 E4.27883
G1 X103.397 Y101.007 E4.28268
G1 X105.579 Y98.825 E4.35611
G1 X105.732 Y99.371 E4.36960
G1 X105.751 Y99.535 E4.37351
G1 X98.556 Y106.729 E4.61560
G1 X98.741 Y106.851 E4.62087
G1 X98.919 Y106.934 E4.62553
G1 X99.198 Y106.969 E4.63222
G1 X105.810 Y100.357 E4.85470
G1 X105.851 Y100.856 E4.86661
G1 X105.821 Y100.850 E4.86734
G1 X105.657 Y101.390 E4.88077
G1 X102.059 Y104.988 E5.00184
G1 X102.241 Y105.051 E5.00640
G1 X102.404 Y105.158 E5.01107
G1 X102.593 Y105.335 E5.01722
G1 X105.509 Y102.420 E5.11532
G1 X105.549 Y102.778 E5.12389
G1 X105.628 Y103.033 E5.13025
G1 X105.644 Y103.165 E5.13342
G1 X103.028 Y105.782 E5.22147
G1 X101.875 Y105.173 F7800.000
G1 F2646.45
G1 X100.167 Y106.881 E5.27895
G1 X100.382 Y106.903 E5.28409
G1 X100.545 Y107.028 E5.28899
G1 X100.592 Y107.145 E5.29199
G1 X100.667 Y107.262 E5.29529
G1 X102.466 Y105.463 E5.35582
G1 X102.696 Y105.586 E5.36204
G1 X102.909 Y105.633 E5.36722
G1 X103.084 Y105.726 E5.37193
G1 X101.035 Y107.775 E5.44087
G1 X101.307 Y107.961 E5.44873
G1 X101.620 Y108.070 E5.45661
G1 X105.269 Y104.421 E5.57942
G1 X105.161 Y105.410 E5.60310
G1 X102.907 Y107.665 E5.67896
G1 E3.67896 F2400.00000
G92 E0
G1 X98.190 Y106.215 F7800.000
G1 E2.00000 F2400.00000
G1 F2646.45
G1 X101.382 Y103.023 E2.10739
G1 X100.992 Y103.041 E2.11666
G1 X100.600 Y102.980 E2.12612
G1 X100.568 Y102.956 E2.12707
G1 X98.140 Y105.384 E2.20876
G1 X98.191 Y105.273 E2.21166
G1 X98.215 Y105.080 E2.21629
G1 X98.231 Y104.412 E2.23219
G1 X97.426 Y103.455 F7800.000
G1 F2646.45
G1 X100.973 Y99.908 E2.35155
G1 X100.225 Y100.216 E2.37081
G1 X99.785 Y100.439 E2.38255
G1 X99.474 Y100.526 E2.39022
G1 X96.845 Y103.155 E2.47869
G1 X96.279 Y102.840 E2.49410
G1 X98.860 Y100.259 E2.58094
G1 X98.713 Y100.060 E2.58683
G1 X98.635 Y99.777 E2.59381
G1 X98.579 Y99.659 E2.59692
G1 X95.921 Y102.317 E2.68637
G1 X95.631 Y101.895 E2.69856
G1 X95.582 Y101.775 E2.70164
G1 X98.339 Y99.018 E2.79443
G1 X98.273 Y98.719 E2.80172
G1 X98.261 Y98.567 E2.80533
G1 X98.159 Y98.318 E2.81175
G1 X95.326 Y101.150 E2.90706
G1 X95.187 Y100.809 E2.91583
G1 X95.100 Y100.495 E2.92357
G1 X97.897 Y97.698 E3.01768
G1 X97.754 Y97.471 E3.02407
G1 X97.664 Y97.199 E3.03088
G1 X97.722 Y96.993 E3.03598
G1 X94.923 Y99.791 E3.13014
G1 X94.831 Y99.348 E3.14090
G1 X94.753 Y99.081 E3.14753
G1 E1.14753 F2400.00000
G92 E0
G1 X98.394 Y97.202 F7800.000
G1 E2.00000 F2400.00000
G1 F2646.45
G1 X98.580 Y97.299 E2.00499
G1 X98.806 Y97.372 E2.01065
G1 X99.115 Y97.362 E2.01800
G1 X100.972 Y95.504 E2.08050
G1 X100.991 Y95.585 E2.08246
G1 X101.138 Y95.770 E2.08809
G1 X101.199 Y95.828 E2.09010
G1 X101.407 Y95.950 E2.09583
G1 X99.995 Y97.362 E2.14334
G1 E0.14334 F2400.00000
G92 E0
G1 X102.864 Y99.993 F7800.000
G1 E2.00000 F2400.00000
G1 F661.613
G1 X102.286 Y100.571 E2.02646
G1 X102.772 Y101.163 F7800.000
G1 F661.613
G1 X103.266 Y100.669 E2.04910
G1 Z1.800 F7800.000
G1 X102.023 Y100.632 F7800.000
G1 F638.35
G1 X101.528 Y100.137 E2.06803
G1 X101.510 Y100.093 E2.06934
G1 X101.520 Y99.827 E2.07655
G1 X101.414 Y99.698 E2.08108
G1 X101.296 Y99.605 E2.08515
G1 X101.551 Y99.333 E2.09523
G1 X101.614 Y99.321 E2.09697
G1 X102.267 Y99.974 E2.12200
G1 X102.741 Y99.650 E2.13754
G1 X103.000 Y99.804 E2.14571
G1 X102.066 Y98.870 E2.18152
G1 X102.113 Y98.762 E2.18471
G1 X102.154 Y98.453 E2.19314
G1 X102.135 Y98.037 E2.20443
G1 X102.630 Y98.531 E2.22337
G1 E0.22337 F2400.00000
G92 E0
G1 X101.180 Y101.180 F7800.000
G1 E2.00000 F2400.00000
G1 F2553.4
G1 X100.253 Y100.253 E2.03117
G1 X99.740 Y100.441 E2.04416
G1 X99.625 Y100.506 E2.04732
G1 X100.732 Y101.613 E2.08455
G1 X100.632 Y101.722 E2.08808
G1 X100.443 Y102.006 E2.09619
G1 X100.473 Y102.035 E2.09717
G1 X100.429 Y102.190 E2.10103
G1 X100.458 Y103.101 F7800.000
G1 F2553.4
G1 X102.254 Y104.897 E2.16146
G1 X102.460 Y104.941 E2.16647
G1 X102.508 Y104.984 E2.16800
G1 X102.706 Y105.051 E2.17296
G1 X102.870 Y105.158 E2.17763
G1 X103.247 Y105.504 E2.18979
G1 X103.392 Y105.667 E2.19499
G1 X103.449 Y106.004 E2.20312
G1 X103.692 Y106.216 E2.21080
G1 X104.215 Y105.976 E2.22447
G1 X101.236 Y102.998 E2.32470
G1 X101.620 Y102.817 E2.33479
G1 X101.815 Y102.696 E2.34026
G1 X105.038 Y105.919 E2.44870
G1 X105.109 Y105.109 E2.46804
G1 X102.335 Y102.335 E2.56139
G1 X102.828 Y101.947 E2.57631
G1 X105.277 Y104.396 E2.65874
G1 X105.402 Y104.116 E2.66604
G1 X105.482 Y103.828 E2.67314
G1 X105.490 Y103.728 E2.67552
G1 X103.258 Y101.496 E2.75063
G1 X103.569 Y100.926 E2.76608
G1 X105.297 Y102.655 E2.82425
G1 X105.307 Y102.396 E2.83039
G1 X105.451 Y101.927 E2.84208
G1 X103.776 Y100.252 E2.89843
G1 X103.785 Y100.158 E2.90069
G1 X103.710 Y99.940 E2.90617
G1 X103.585 Y99.786 E2.91088
G1 X103.454 Y99.711 E2.91446
G1 X103.364 Y99.628 E2.91738
G1 X103.114 Y99.106 E2.93115
G1 X102.864 Y98.739 E2.94172
G1 X102.798 Y98.582 E2.94576
G1 X102.783 Y98.378 E2.95062
G1 X105.736 Y101.332 E3.05000
G1 X105.746 Y101.307 E3.05062
G1 X105.783 Y101.320 E3.05154
G1 X105.740 Y100.454 E3.07217
G1 X102.336 Y97.050 E3.18670
G1 X102.174 Y96.831 E3.19318
G1 X101.874 Y96.523 E3.20342
G1 X101.767 Y96.381 E3.20765
G1 X101.742 Y96.201 E3.21197
G1 X101.752 Y96.066 E3.21519
G1 X101.709 Y95.835 E3.22079
G1 X101.650 Y95.608 E3.22635
G1 X101.539 Y95.431 E3.23133
G1 X101.527 Y95.361 E3.23303
G1 X105.642 Y99.475 E3.37148
G1 X105.556 Y99.205 E3.37822
G1 X105.416 Y98.852 E3.38726
G1 X105.314 Y98.739 E3.39088
G1 X105.236 Y98.805 E3.39331
G1 X104.834 Y98.325 E3.40820
G1 X104.706 Y98.081 E3.41476
G1 X104.493 Y97.589 E3.42752
G1 X104.544 Y97.563 E3.42888
G1 X104.390 Y97.342 E3.43529
G1 X100.037 Y92.990 E3.58176
G1 X100.056 Y92.959 E3.58262
G1 X100.209 Y92.793 E3.58799
G1 X100.387 Y92.671 E3.59311
G1 X100.530 Y92.602 E3.59690
G1 X102.773 Y94.844 E3.67237
G1 X101.597 Y95.430 F7800.000
G1 F2553.4
G1 X99.581 Y93.415 E3.74017
G1 X99.471 Y93.480 E3.74321
G1 X99.194 Y93.571 E3.75016
G1 X98.973 Y93.687 E3.75610
G1 X100.918 Y95.633 E3.82156
G1 X100.853 Y95.822 E3.82632
G1 X100.831 Y96.014 E3.83090
G1 X100.866 Y96.174 E3.83481
G1 X100.927 Y96.364 E3.83955
G1 X101.106 Y96.683 E3.84827
G1 X101.177 Y96.772 E3.85097
G1 X98.380 Y93.975 E3.94509
G1 X97.778 Y94.255 E3.96087
G1 X100.771 Y97.247 E4.06157
G1 X100.528 Y97.238 E4.06735
G1 X99.965 Y97.110 E4.08109
G1 X99.734 Y97.092 E4.08660
G1 X97.076 Y94.433 E4.17606
G1 X96.873 Y94.505 E4.18119
G1 X96.683 Y94.513 E4.18571
G1 X96.338 Y94.576 E4.19405
G1 X98.719 Y96.957 E4.27417
G1 X98.683 Y96.942 E4.27510
G1 X98.493 Y96.954 E4.27963
G1 X98.371 Y96.941 E4.28254
G1 X98.057 Y97.176 E4.29188
G1 X95.874 Y94.993 E4.36534
G1 X95.681 Y95.094 E4.37053
G1 X95.172 Y95.172 E4.38278
G1 X97.664 Y97.664 E4.46665
G1 X97.745 Y97.924 E4.47311
G1 X97.909 Y98.182 E4.48039
G1 X98.038 Y98.460 E4.48768
G1 X98.056 Y98.455 E4.48810
G1 X98.129 Y98.884 E4.49845
G1 X98.176 Y99.057 E4.50272
G1 X94.415 Y95.296 E4.62927
G1 X93.845 Y95.607 E4.64472
G1 X98.694 Y100.456 E4.80790
G1 X98.713 Y100.525 E4.80960
G1 X98.762 Y100.592 E4.81157
G1 X98.701 Y100.652 E4.81362
G1 X98.983 Y101.071 E4.82564
G1 X99.322 Y101.182 E4.83413
G1 X99.440 Y101.202 E4.83698
G1 X100.429 Y102.190 E4.87023
G1 X100.303 Y102.627 E4.88104
G1 X100.318 Y102.961 E4.88898
G1 X93.804 Y96.447 E5.10815
G1 X93.797 Y96.729 E5.11484
G1 X94.096 Y97.095 E5.12609
G1 X94.582 Y98.034 E5.15125
G1 X94.612 Y98.136 E5.15377
G1 X101.426 Y104.949 E5.38304
G1 X101.153 Y105.096 E5.39041
G1 X101.350 Y105.495 E5.40100
G1 X101.502 Y105.686 E5.40683
G1 X101.656 Y105.824 E5.41172
G1 X101.877 Y106.102 E5.42018
G1 X101.977 Y106.382 E5.42725
G1 X94.924 Y99.328 E5.66458
G1 X95.187 Y100.344 E5.68953
G1 X95.275 Y100.561 E5.69512
G1 X102.627 Y107.912 E5.94248
G1 X102.487 Y107.989 E5.94628
G1 X102.273 Y108.055 E5.95160
G1 X102.181 Y108.064 E5.95380
G1 X102.003 Y108.044 E5.95807
G1 X101.812 Y107.979 E5.96286
G1 X100.712 Y106.879 E5.99988
G1 X100.531 Y106.552 E6.00876
G1 X100.385 Y106.440 E6.01315
G1 X100.259 Y106.426 E6.01615
G1 X98.499 Y104.666 E6.07538
G1 X98.428 Y104.941 E6.08215
G1 X98.371 Y104.972 E6.08369
G1 X98.305 Y105.073 E6.08655
G1 X98.124 Y105.172 E6.09146
G1 X99.915 Y106.963 E6.15173
G1 X99.794 Y106.982 E6.15466
G1 X99.540 Y106.938 E6.16080
G1 X99.011 Y106.734 E6.17427
G1 X98.849 Y106.612 E6.17912
G1 X98.702 Y106.439 E6.18450
G1 X98.607 Y106.285 E6.18881
G1 X98.498 Y106.014 E6.19576
G1 X98.468 Y105.830 E6.20020
G1 X98.479 Y105.687 E6.20360
G1 X98.589 Y105.637 E6.20648
G1 E4.20648 F2400.00000
G92 E0
G1 X102.627 Y107.912 F7800.000
G1 E2.00000 F2400.00000
G1 F2553.4
G1 X103.027 Y107.702 E2.01075
G1 X103.223 Y107.627 E2.01574
G1 X101.614 Y106.019 E2.06986
G1 X101.838 Y106.188 E2.07651
G1 X102.186 Y105.994 E2.08599
G1 X102.337 Y106.013 E2.08961
G1 X102.434 Y106.049 E2.09208
G1 X102.767 Y106.290 E2.10186
G1 X103.931 Y107.454 E2.14103
G1 X104.317 Y107.325 E2.15073
G1 X104.549 Y107.192 E2.15709
G1 X103.666 Y106.309 E2.18680
G1 X103.815 Y106.088 E2.19313
G1 X103.784 Y105.546 E2.20606
G1 X104.912 Y106.674 E2.24404
G1 Z2.100 F7800.000
G1 X103.540 Y107.031 F7800.000
G1 F2221.84
G1 X105.026 Y105.545 E2.29404
G1 X105.115 Y104.575 E2.31721
G1 X103.683 Y106.007 E2.36538
G1 X103.227 Y106.216 E2.37732
G1 X103.030 Y106.061 E2.38328
G1 X102.921 Y105.927 E2.38739
G1 X103.028 Y105.782 E2.39169
G1 X105.346 Y103.463 E2.46969
G1 X105.368 Y103.228 E2.47531
G1 X105.202 Y102.726 E2.48789
G1 X102.593 Y105.335 E2.57567
G1 X102.404 Y105.158 E2.58182
G1 X102.241 Y105.051 E2.58649
G1 X102.069 Y104.978 E2.59091
G1 X105.183 Y101.864 E2.69569
G1 X105.232 Y101.666 E2.70055
G1 X105.306 Y101.480 E2.70531
G1 X105.401 Y101.307 E2.70999
G1 X105.650 Y100.951 E2.72035
G1 X105.676 Y100.966 E2.72106
G1 X105.712 Y100.673 E2.72809
G1 X105.699 Y100.468 E2.73299
G1 X101.315 Y104.851 E2.88048
G1 X101.079 Y104.886 E2.88617
G1 X100.905 Y104.979 E2.89087
G1 X100.798 Y104.974 E2.89341
G1 X100.399 Y105.220 E2.90457
G1 X100.624 Y105.543 E2.91392
G1 X103.083 Y107.488 F7800.000
G1 F2221.84
G1 X103.913 Y106.658 E2.94183
G1 X103.534 Y106.692 E2.95088
G1 X103.344 Y106.636 E2.95559
G1 X103.166 Y106.525 E2.96059
G1 X101.693 Y107.997 E3.01014
G1 X101.535 Y107.970 E3.01395
G1 X101.199 Y107.818 E3.02273
G1 X101.075 Y107.735 E3.02629
G1 X102.324 Y106.485 E3.06834
G1 X102.233 Y106.515 E3.07063
G1 X101.874 Y106.529 E3.07917
G1 X101.755 Y106.173 E3.08810
G1 X100.647 Y107.282 E3.12541
G1 X100.545 Y107.028 E3.13191
G1 X100.382 Y106.903 E3.13681
G1 X100.167 Y106.881 E3.14195
G1 X101.670 Y105.377 E3.19255
G1 X101.614 Y105.321 E3.19446
G1 X101.353 Y105.254 E3.20085
G1 X101.155 Y105.148 E3.20620
G1 X101.089 Y105.078 E3.20849
G1 X99.279 Y106.887 E3.26940
G1 X99.145 Y106.874 E3.27261
G1 X98.832 Y106.796 E3.28028
G1 X98.581 Y106.704 E3.28663
G1 X102.991 Y102.295 E3.43502
G1 X102.239 Y102.831 E3.45700
G1 X102.034 Y102.947 E3.46259
G1 X101.893 Y103.001 E3.46619
G1 X101.917 Y103.069 E3.46790
G1 X101.516 Y103.219 E3.47806
G1 X101.152 Y103.253 E3.48677
G1 X98.087 Y106.317 E3.58989
G1 X97.962 Y106.043 E3.59707
G1 X97.945 Y105.839 E3.60193
G1 X97.989 Y105.728 E3.60476
G1 X98.097 Y105.649 E3.60795
G1 X98.486 Y105.574 E3.61739
G1 X98.711 Y105.376 E3.62452
G1 X98.847 Y104.912 E3.63601
G1 X98.813 Y104.710 E3.64088
G1 X100.541 Y102.982 E3.69903
G1 X100.396 Y102.814 E3.70431
G1 X100.373 Y102.270 E3.71727
G1 X98.385 Y104.257 E3.78415
G1 X98.343 Y104.187 E3.78609
G1 X97.932 Y103.830 E3.79906
G1 X100.553 Y101.209 E3.88727
G1 X100.597 Y101.122 E3.88960
G1 X100.593 Y101.026 E3.89187
G1 X100.664 Y100.862 E3.89614
G1 X100.610 Y100.764 E3.89879
G1 X100.469 Y100.696 E3.90253
G1 X100.370 Y100.697 E3.90488
G1 X100.096 Y100.785 E3.91172
G1 X97.406 Y103.475 E4.00226
G1 X97.328 Y103.426 E4.00443
G1 X97.077 Y103.338 E4.01077
G1 X96.813 Y103.187 E4.01801
G1 X99.087 Y100.913 E4.09453
G1 X98.846 Y100.822 E4.10066
G1 X98.809 Y100.678 E4.10420
G1 X98.656 Y100.463 E4.11047
G1 X96.275 Y102.844 E4.19057
G1 X95.916 Y102.322 E4.20564
G1 X98.537 Y99.701 E4.29384
G1 X98.445 Y99.356 E4.30233
G1 X98.329 Y99.028 E4.31061
G1 X95.597 Y101.760 E4.40253
G1 X95.339 Y101.137 E4.41857
G1 X98.109 Y98.367 E4.51178
G1 X97.983 Y97.760 E4.52652
G1 X97.975 Y97.620 E4.52986
G1 X95.112 Y100.484 E4.62621
G1 X94.931 Y99.783 E4.64342
G1 X101.911 Y92.804 E4.87827
G1 X101.801 Y92.712 E4.88168
G1 X101.526 Y92.560 E4.88915
G1 X101.312 Y92.521 E4.89431
G1 X100.824 Y93.009 E4.91074
G1 X100.815 Y92.990 E4.91125
G1 X100.847 Y92.986 E4.91202
G1 X100.241 Y97.116 F7800.000
G1 F2221.84
G1 X100.956 Y96.401 E4.93609
G1 X100.925 Y96.106 E4.94316
G1 X100.829 Y95.870 E4.94921
G1 X100.899 Y95.835 E4.95106
G1 X100.848 Y95.628 E4.95614
G1 X99.449 Y97.028 E5.00324
G1 X99.264 Y96.965 E5.00788
G1 X98.689 Y96.906 E5.02163
G1 X97.510 Y98.085 F7800.000
G1 F2221.84
G1 X97.495 Y97.706 E5.03066
G1 X97.531 Y97.379 E5.03849
G1 X97.656 Y97.136 E5.04499
G1 X97.889 Y96.954 E5.05202
G1 X97.946 Y96.952 E5.05339
G1 X97.970 Y96.847 E5.05595
G1 X98.512 Y96.872 E5.06888
G1 X98.689 Y96.906 E5.07316
G1 X102.337 Y93.258 E5.19592
G1 X102.352 Y93.283 E5.19661
G1 X102.330 Y93.292 E5.19716
G1 X102.418 Y93.613 E5.20510
G1 X102.549 Y93.928 E5.21320
G1 X100.993 Y95.483 E5.26553
G1 X101.138 Y95.539 E5.26922
G1 X101.339 Y95.662 E5.27483
G1 X101.465 Y95.774 E5.27883
G1 X101.512 Y95.845 E5.28087
G1 X102.729 Y94.628 E5.32184
G1 X102.733 Y94.882 E5.32790
G1 X102.768 Y95.081 E5.33270
G1 X102.936 Y95.302 E5.33931
G1 X101.888 Y96.350 E5.37459
G1 X102.003 Y96.501 E5.37911
G1 X102.209 Y96.910 E5.39000
G1 X103.435 Y95.684 E5.43125
G1 X103.601 Y95.808 E5.43616
G1 X103.839 Y96.066 E5.44452
G1 X103.875 Y96.125 E5.44617
G1 X102.540 Y97.460 E5.49108
G1 X102.768 Y97.928 E5.50347
G1 X102.816 Y98.065 E5.50693
G1 X104.207 Y96.674 E5.55375
G1 X104.442 Y97.043 E5.56417
G1 X104.402 Y97.058 E5.56518
G1 X104.466 Y97.296 E5.57106
G1 X102.961 Y98.801 E5.62169
G1 X103.014 Y99.020 E5.62705
G1 X103.216 Y99.395 E5.63719
G1 X103.228 Y99.415 E5.63774
G1 X104.745 Y97.898 E5.68878
G1 X104.874 Y98.074 E5.69398
G1 X104.957 Y98.020 E5.69634
G1 X105.224 Y98.300 E5.70554
G1 X103.713 Y99.811 E5.75640
G1 X103.846 Y99.804 E5.75958
G1 X104.029 Y100.059 E5.76704
G1 X104.043 Y100.209 E5.77063
G1 X104.027 Y100.378 E5.77468
G1 X105.713 Y98.691 E5.83144
G1 X105.786 Y98.807 E5.83469
G1 X105.828 Y99.018 E5.83980
G1 X105.798 Y99.488 E5.85101
G1 X103.126 Y102.160 E5.94092
G1 E3.94092 F2400.00000
G92 E0
G1 X94.758 Y99.076 F7800.000
G1 E2.00000 F2400.00000
G1 F2221.84
G1 X101.228 Y92.605 E2.21772
G1 X100.846 Y92.818 E2.22813
G1 X100.332 Y93.312 E2.24509
G1 X100.276 Y93.266 E2.24682
G1 X99.940 Y93.478 E2.25626
G1 X99.659 Y93.571 E2.26330
G1 X99.114 Y93.838 E2.27774
G1 X94.591 Y98.362 E2.42995
G1 X94.545 Y98.139 E2.43534
G1 X94.340 Y97.731 E2.44621
G1 X97.654 Y94.418 E2.55771
G1 X97.573 Y94.420 E2.55964
G1 X97.338 Y94.505 E2.56560
G1 X97.148 Y94.513 E2.57011
G1 X96.824 Y94.570 E2.57795
G1 X96.572 Y95.045 E2.59074
G1 X96.228 Y95.387 E2.60229
G1 X95.705 Y95.662 E2.61634
G1 X95.497 Y95.694 E2.62136
G1 X93.972 Y97.219 E2.67268
G1 X93.868 Y97.113 E2.67621
G1 X93.857 Y97.122 E2.67654
G1 X93.709 Y96.601 E2.68943
G1 X94.277 Y96.033 E2.70854
G1 Z2.400 F7800.000
G1 E0.70854 F2400.00000
G92 E0
G1 X95.830 Y101.115 F7800.000
G1 E2.00000 F2400.00000
G1 F2061.2
G1 X96.158 Y101.906 E2.02038
G1 X96.503 Y102.517 E2.03706
G1 X96.801 Y102.950 E2.04958
G1 X97.421 Y103.306 E2.06660
G1 X97.794 Y103.426 E2.07591
G1 X97.929 Y103.512 E2.07972
G1 X98.190 Y103.631 E2.08655
G1 X98.493 Y103.926 E2.09660
G1 X98.809 Y104.187 E2.10636
G1 X98.934 Y104.414 E2.11252
G1 X98.974 Y104.419 E2.11348
G1 X99.250 Y104.602 E2.12137
G1 X99.279 Y104.711 E2.12405
G1 X99.417 Y104.702 E2.12734
G1 X95.364 Y100.650 E2.26370
G1 X95.234 Y100.337 E2.27177
G1 X94.976 Y99.381 E2.29533
G1 X100.955 Y105.359 E2.49650
G1 X100.864 Y105.220 E2.50045
G1 X101.263 Y104.974 E2.51160
G1 X101.370 Y104.979 E2.51415
G1 X101.426 Y104.949 E2.51565
G1 X94.662 Y98.186 E2.74322
G1 X94.551 Y97.701 E2.75505
G1 X94.579 Y97.692 E2.75576
G1 X94.507 Y97.341 E2.76428
G1 X94.314 Y96.957 E2.77452
G1 X98.462 Y101.105 E2.91410
G1 X98.430 Y100.653 E2.92488
G1 X98.449 Y100.282 E2.93372
G1 X98.513 Y100.275 E2.93524
G1 X94.639 Y96.401 E3.06560
G1 X94.851 Y96.334 E3.07089
G1 X95.209 Y96.090 E3.08120
G1 X98.297 Y99.178 E3.18512
G1 X98.053 Y98.457 E3.20323
G1 X97.988 Y98.222 E3.20904
G1 X97.947 Y97.947 E3.21566
G1 X95.674 Y95.674 E3.29212
G1 X95.723 Y95.542 E3.29548
G1 X95.860 Y95.290 E3.30229
G1 X96.016 Y95.135 E3.30753
G1 X97.965 Y97.084 E3.37312
G1 X98.301 Y96.798 E3.38361
G1 X98.396 Y96.882 E3.38663
G1 X98.617 Y96.855 E3.39193
G1 X96.349 Y94.587 E3.46823
G1 X96.419 Y94.454 E3.47181
G1 X96.556 Y94.397 E3.47533
G1 X96.813 Y94.171 E3.48349
G1 X99.589 Y96.946 E3.57687
G1 X99.729 Y96.965 E3.58025
G1 X99.865 Y97.011 E3.58365
G1 X100.555 Y97.128 E3.60031
G1 X100.640 Y97.116 E3.60235
G1 X97.668 Y94.145 E3.70235
G1 X97.908 Y94.100 E3.70816
G1 X98.352 Y93.947 E3.71931
G1 X100.891 Y96.486 E3.80475
G1 X100.881 Y96.242 E3.81055
G1 X100.831 Y96.014 E3.81612
G1 X100.853 Y95.822 E3.82071
G1 X100.916 Y95.631 E3.82550
G1 X98.974 Y93.688 E3.89086
G1 X99.597 Y93.431 E3.90691
G1 X100.954 Y94.787 E3.95255
G1 X101.350 Y94.303 E3.96744
G1 X100.119 Y93.071 E4.00889
G1 X100.388 Y92.814 E4.01776
G1 X100.617 Y92.689 E4.02396
G1 X101.851 Y93.923 E4.06549
G1 X102.713 Y94.785 F7800.000
G1 F2061.2
G1 X101.902 Y93.974 E4.09277
G1 X101.545 Y94.254 E4.10357
G1 X101.425 Y94.378 E4.10767
G1 X101.963 Y94.916 E4.12578
G1 X101.774 Y95.072 E4.13162
G1 X101.713 Y95.227 E4.13560
G1 X101.648 Y95.481 E4.14183
G1 X100.715 Y94.549 E4.17321
G1 E2.17321 F2400.00000
G92 E0
G1 X102.852 Y95.805 F7800.000
G1 E2.00000 F2400.00000
G1 F2061.2
G1 X101.999 Y94.952 E2.02871
G1 X102.117 Y95.275 E2.03689
G1 X102.250 Y95.844 E2.05080
G1 X102.298 Y96.131 E2.05773
G1 X105.803 Y99.636 E2.17567
G1 X105.748 Y100.088 E2.18651
G1 X105.657 Y100.372 E2.19358
G1 X102.779 Y97.494 E2.29042
G1 X102.902 Y97.942 E2.30148
G1 X102.928 Y98.127 E2.30593
G1 X102.957 Y98.117 E2.30665
G1 X103.126 Y98.507 E2.31676
G1 X103.221 Y98.669 E2.32124
G1 X103.447 Y99.042 E2.33162
G1 X104.065 Y99.660 E2.35241
G1 X104.023 Y99.674 E2.35347
G1 X103.912 Y99.507 E2.35824
G1 X104.140 Y97.092 F7800.000
G1 F2061.2
G1 X103.061 Y96.014 E2.39454
G1 X103.420 Y96.213 E2.40430
G1 X103.675 Y96.627 E2.41587
G1 X105.632 Y101.227 F7800.000
G1 F2061.2
G1 X104.121 Y99.716 E2.46670
G1 X104.051 Y100.014 E2.47397
G1 X104.020 Y100.021 E2.47473
G1 X103.998 Y100.231 E2.47976
G1 X103.934 Y100.410 E2.48428
G1 X105.284 Y101.760 E2.52970
G1 X105.148 Y101.980 E2.53585
G1 X105.065 Y102.422 E2.54657
G1 X103.618 Y100.976 E2.59525
G1 X103.277 Y101.515 E2.61044
G1 X105.332 Y103.570 E2.67958
G1 X105.368 Y103.788 E2.68485
G1 X105.302 Y104.073 E2.69181
G1 X105.193 Y104.312 E2.69804
G1 X102.900 Y102.019 E2.77518
G1 X102.821 Y102.104 E2.77795
G1 X102.428 Y102.428 E2.79006
G1 X105.037 Y105.037 E2.87787
G1 X104.994 Y105.615 E2.89166
G1 X104.952 Y105.833 E2.89695
G1 X101.926 Y102.807 E2.99878
G1 X101.760 Y102.918 E3.00354
G1 X101.792 Y102.972 E3.00504
G1 X101.517 Y103.181 E3.01327
G1 X101.450 Y103.211 E3.01502
G1 X104.215 Y105.976 E3.10806
G1 X103.692 Y106.216 E3.12173
G1 X103.496 Y106.061 E3.12769
G1 X103.114 Y105.619 E3.14159
G1 X102.668 Y105.158 E3.15684
G1 X102.475 Y105.005 E3.16270
G1 X102.254 Y104.897 E3.16856
G1 X100.765 Y103.408 E3.21864
G1 X101.231 Y103.873 F7800.000
G1 F2061.2
G1 X101.048 Y103.896 E3.22302
G1 X100.633 Y103.904 E3.23290
G1 X100.378 Y103.665 E3.24120
G1 X100.246 Y103.513 E3.24600
G1 X100.253 Y102.987 E3.25852
G1 X100.237 Y102.880 E3.26110
G1 X98.921 Y101.564 E3.30538
G1 X99.076 Y101.471 E3.30967
G1 X99.548 Y101.309 E3.32154
G1 X100.171 Y101.932 E3.34250
G1 E1.34250 F2400.00000
G92 E0
G1 X98.128 Y105.176 F7800.000
G1 E2.00000 F2400.00000
G1 F2061.2
G1 X99.849 Y106.896 E2.05788
G1 X100.308 Y106.985 E2.06901
G1 X100.493 Y107.005 E2.07345
G1 X100.662 Y106.999 E2.07746
G1 X100.870 Y107.054 E2.08258
G1 X101.028 Y107.207 E2.08781
G1 X101.133 Y107.366 E2.09235
G1 X101.292 Y107.524 E2.09768
G1 X101.505 Y107.732 E2.10477
G1 X101.602 Y107.769 E2.10724
G1 X98.875 Y105.041 E2.19903
G1 X98.930 Y104.995 E2.20074
G1 X98.984 Y104.906 E2.20322
G1 X99.138 Y104.600 E2.21136
G1 X99.019 Y104.467 E2.21562
G1 X98.961 Y104.246 E2.22104
G1 X101.482 Y106.768 E2.30589
G1 X101.274 Y106.560 F7800.000
G1 F2061.2
G1 X102.588 Y107.874 E2.35009
G1 X103.163 Y107.568 E2.36559
G1 X102.106 Y106.510 E2.40117
G1 X102.321 Y106.439 E2.40656
G1 X102.766 Y106.692 E2.41875
G1 X103.078 Y106.775 E2.42644
G1 X103.090 Y106.841 E2.42801
G1 X103.253 Y106.777 E2.43218
G1 X103.835 Y107.359 E2.45179
G1 X104.317 Y107.158 E2.46420
G1 X104.437 Y107.080 E2.46761
G1 X103.848 Y106.491 E2.48742
G1 X103.915 Y106.453 E2.48925
G1 X103.788 Y106.138 E2.49733
G1 X103.815 Y106.088 E2.49869
G1 X103.784 Y105.546 E2.51162
G1 X104.837 Y106.599 E2.54706
G1 E0.54706 F2400.00000
G92 E0
G1 X101.748 Y106.153 F7800.000
G1 E2.00000 F2400.00000
G1 F2061.2
G1 X101.168 Y105.573 E2.01952
G1 X101.254 Y105.584 E2.02159
G1 X101.283 Y105.688 E2.02415
G1 Z2.700 F7800.000
G1 E0.02415 F2400.00000
G92 E0
G1 X103.306 Y105.503 F7800.000
G1 E2.00000 F2400.00000
G1 F1911.99
G1 X103.295 Y105.470 E2.00083
G1 X103.375 Y105.435 E2.00289
G1 X105.187 Y103.623 E2.06386
G1 X105.046 Y103.983 E2.07305
G1 X105.005 Y104.175 E2.07773
G1 X104.984 Y104.706 E2.09037
G1 X104.083 Y105.607 E2.12070
G1 X103.207 Y106.483 F7800.000
G1 F1911.99
G1 X104.033 Y105.657 E2.14850
G1 X103.877 Y105.405 E2.15554
G1 X103.772 Y105.038 E2.16465
G1 X102.757 Y106.052 E2.19879
G1 X102.577 Y105.772 E2.20671
G1 X102.364 Y105.564 E2.21380
G1 X103.666 Y104.263 E2.25759
G1 X103.606 Y104.195 E2.25972
G1 X103.487 Y103.560 E2.27510
G1 X101.901 Y105.147 E2.32848
G1 X101.630 Y105.069 E2.33519
G1 X101.398 Y105.049 E2.34071
G1 X101.164 Y105.003 E2.34641
G1 X105.565 Y100.602 E2.49451
G1 X105.554 Y100.279 E2.50219
G1 X105.570 Y100.039 E2.50790
G1 X105.694 Y99.592 E2.51896
G1 X103.271 Y102.015 E2.60050
G1 X103.899 Y100.982 E2.62926
G1 X104.029 Y100.627 E2.63826
G1 X104.093 Y100.311 E2.64592
G1 X105.587 Y98.818 E2.69618
G1 X105.399 Y98.671 E2.70186
G1 X105.164 Y98.763 E2.70785
G1 X105.025 Y98.499 E2.71494
G1 X104.325 Y99.199 E2.73850
G1 X104.135 Y98.998 E2.74507
G1 X103.751 Y99.335 E2.75723
G1 X103.582 Y99.517 E2.76314
G1 X103.422 Y99.221 E2.77114
G1 X104.710 Y97.933 E2.81449
G1 X104.553 Y97.715 E2.82089
G1 X104.467 Y97.545 E2.82542
G1 X104.409 Y97.353 E2.83019
G1 X103.037 Y98.725 E2.87637
G1 X102.854 Y98.027 E2.89355
G1 X104.171 Y96.710 E2.93788
G1 X104.033 Y96.470 E2.94446
G1 X103.715 Y96.285 E2.95322
G1 X102.614 Y97.386 E2.99027
G1 X102.593 Y97.347 E2.99133
G1 X102.650 Y97.323 E2.99279
G1 X102.538 Y97.015 E3.00060
G1 X102.507 Y96.612 E3.01021
G1 X103.184 Y95.935 E3.03299
G1 X102.962 Y95.763 E3.03968
G1 X102.975 Y95.745 E3.04020
G1 X102.845 Y95.623 E3.04446
G1 X102.749 Y95.489 E3.04837
G1 X102.273 Y95.965 E3.06439
G1 X102.137 Y95.692 E3.07166
G1 X102.103 Y95.704 E3.07251
G1 X102.075 Y95.628 E3.07444
G1 X102.113 Y95.369 E3.08067
G1 X102.196 Y95.161 E3.08601
G1 X102.754 Y94.604 E3.10476
G1 X101.074 Y94.521 F7800.000
G1 F1911.99
G1 X101.147 Y94.540 E3.10654
G1 X101.212 Y94.874 E3.11463
G1 X101.606 Y94.726 E3.12465
G1 X101.558 Y94.822 E3.12720
G1 X101.612 Y94.865 E3.12882
G1 X100.696 Y95.781 E3.15964
G1 X100.348 Y97.009 F7800.000
G1 F1911.99
G1 X100.897 Y96.457 E3.17817
G1 X100.950 Y96.166 E3.18520
G1 X100.885 Y96.006 E3.18931
G1 X100.880 Y95.697 E3.19665
G1 X100.973 Y95.503 E3.20179
G1 X99.490 Y96.986 E3.25168
G1 X98.932 Y96.899 E3.26514
G1 X98.709 Y96.886 E3.27044
G1 X101.074 Y94.521 E3.35002
G1 X100.855 Y94.464 E3.35542
G1 X101.346 Y93.842 E3.37429
G1 X101.523 Y93.673 E3.38011
G1 X101.875 Y93.443 E3.39010
G1 X102.108 Y93.334 E3.39622
G1 X102.224 Y93.257 E3.39953
G1 X102.079 Y93.069 E3.40518
G1 X101.853 Y92.862 E3.41249
G1 X98.007 Y96.707 E3.54188
G1 X97.878 Y96.631 E3.54544
G1 X97.445 Y96.896 E3.55753
G1 X97.410 Y97.305 E3.56730
G1 X97.875 Y96.840 F7800.000
G1 F1911.99
G1 X94.983 Y99.732 E3.66461
G1 X95.163 Y100.432 E3.68183
G1 X97.991 Y97.605 E3.77698
G1 X98.220 Y98.256 E3.79342
G1 X95.387 Y101.089 E3.88873
G1 X95.646 Y101.711 E3.90477
G1 X98.417 Y98.941 E3.99799
G1 X98.482 Y99.202 E4.00440
G1 X98.466 Y99.502 E4.01154
G1 X98.402 Y99.494 E4.01310
G1 X98.332 Y99.906 E4.02305
G1 X96.028 Y102.211 E4.10059
G1 X96.349 Y102.770 E4.11595
G1 X98.044 Y101.075 E4.17299
G1 X98.007 Y101.198 E4.17604
G1 X98.011 Y101.263 E4.17758
G1 X97.896 Y102.104 E4.19779
G1 X96.805 Y103.195 E4.23451
G1 X97.318 Y103.563 E4.24953
G1 X98.270 Y102.611 E4.28157
G1 X98.555 Y102.501 E4.28883
G1 X98.900 Y102.582 E4.29729
G1 X99.001 Y102.464 E4.30097
G1 X99.630 Y102.085 E4.31845
G1 X99.689 Y102.073 E4.31989
G1 X97.813 Y103.949 E4.38304
G1 X98.131 Y104.234 E4.39321
G1 X98.299 Y104.344 E4.39798
G1 X100.049 Y102.594 E4.45686
G1 X100.088 Y102.980 E4.46611
G1 X100.086 Y103.186 E4.47102
G1 X100.194 Y103.330 E4.47530
G1 X98.813 Y104.710 E4.52173
G1 X98.962 Y104.718 E4.52528
G1 X99.019 Y104.932 E4.53056
G1 X99.131 Y105.058 E4.53457
G1 X98.930 Y105.460 E4.54527
G1 X98.765 Y105.598 E4.55038
G1 X98.648 Y105.636 E4.55332
G1 X98.710 Y105.695 E4.55536
G1 X100.477 Y103.928 E4.61482
G1 X100.569 Y104.016 E4.61785
G1 X100.684 Y104.186 E4.62275
G1 X100.873 Y104.329 E4.62838
G1 X100.903 Y104.383 E4.62984
G1 X98.795 Y106.491 E4.70077
G1 X99.053 Y106.625 E4.70769
G1 X99.332 Y106.834 E4.71600
G1 X100.705 Y105.462 E4.76219
G1 X100.691 Y105.480 E4.76273
G1 X100.923 Y105.793 E4.77200
G1 X101.209 Y105.838 E4.77890
G1 X99.890 Y107.158 E4.82330
G1 X100.135 Y107.285 E4.82987
G1 X100.224 Y107.375 E4.83287
G1 X100.448 Y107.480 E4.83877
G1 X101.406 Y106.522 E4.87100
G1 X101.563 Y106.595 E4.87511
G1 X102.022 Y106.721 E4.88644
G1 X102.026 Y106.604 E4.88923
G1 X102.207 Y106.603 E4.89353
G1 X101.064 Y107.746 E4.93199
G1 X101.244 Y107.834 E4.93677
G1 X101.638 Y107.945 E4.94651
G1 X101.745 Y107.945 E4.94905
G1 X103.080 Y106.610 E4.99397
G1 X103.229 Y106.692 E4.99801
G1 X103.492 Y106.759 E5.00447
G1 X103.742 Y106.747 E5.01042
G1 X103.849 Y106.722 E5.01305
G1 X103.197 Y107.374 E5.03501
G1 E3.03501 F2400.00000
G92 E0
G1 X103.812 Y104.117 F7800.000
G1 E2.00000 F2400.00000
G1 F1911.99
G1 X105.128 Y102.800 E2.04431
G1 X105.099 Y102.567 E2.04989
G1 X105.093 Y102.060 E2.06195
G1 X104.999 Y102.048 E2.06420
G1 X103.501 Y103.546 E2.11461
G1 X103.368 Y103.422 E2.11893
G1 X102.938 Y103.673 E2.13079
G1 X103.022 Y104.026 E2.13940
G1 X99.175 Y105.230 F7800.000
G1 F1911.99
G1 X99.236 Y105.288 E2.14141
G1 X99.041 Y105.363 E2.14638
G1 X98.200 Y106.205 E2.17470
G1 E0.17470 F2400.00000
G92 E0
G1 X96.744 Y103.256 F7800.000
G1 E2.00000 F2400.00000
G1 F1911.99
G1 X97.266 Y102.734 E2.01756
G1 X97.209 Y102.791 E2.01947
G1 E0.01947 F2400.00000
G92 E0
G1 X94.806 Y99.028 F7800.000
G1 E2.00000 F2400.00000
G1 F1911.99
G1 X101.094 Y92.739 E2.21160
G1 X100.852 Y92.890 E2.21838
G1 X100.241 Y93.389 E2.23714
G1 X99.713 Y93.620 E2.25086
G1 X99.431 Y93.706 E2.25788
G1 X99.297 Y93.724 E2.26110
G1 X99.297 Y93.768 E2.26215
G1 X99.159 Y93.794 E2.26549
G1 X94.616 Y98.337 E2.41835
G1 X94.512 Y97.834 E2.43057
G1 X94.541 Y97.824 E2.43128
G1 X94.491 Y97.581 E2.43718
G1 X95.305 Y96.766 E2.46459
G1 X95.949 Y96.275 E2.48386
G1 X96.038 Y96.034 E2.48998
G1 X98.175 Y93.897 E2.56188
M106 S244.8
G1 Z3.000 F7800.000
G1 X98.059 Y93.379 F7800.000
G1 F1200
G1 X97.424 Y92.744 E2.59095
G1 X97.295 Y92.819 E2.59578
G1 X97.295 Y93.404 E2.61471
G1 X97.022 Y93.131 E2.62723
G1 X96.965 Y93.220 E2.63067
G1 X100.766 Y97.022 E2.80469
G1 X100.444 Y97.086 E2.81532
G1 X100.352 Y97.083 E2.81830
G1 X99.784 Y96.975 E2.83701
G1 X96.590 Y93.781 E2.98325
G1 X96.301 Y94.427 E3.00618
G1 X98.613 Y96.740 E3.11204
G1 X98.347 Y96.596 E3.12183
G1 X98.194 Y96.710 E3.12802
G1 X97.889 Y96.888 E3.13945
G1 X97.884 Y96.946 E3.14135
G1 X96.027 Y95.090 E3.22634
G1 X95.935 Y95.237 E3.23199
G1 X95.718 Y95.716 E3.24900
G1 X97.974 Y97.972 E3.35226
G1 X98.111 Y98.407 E3.36702
G1 X98.340 Y98.922 E3.38529
G1 X98.410 Y99.344 E3.39914
G1 X95.417 Y96.351 E3.53618
G1 X94.885 Y96.755 E3.55780
G1 X98.338 Y100.208 E3.71587
G1 X98.303 Y100.421 E3.72286
G1 X98.225 Y100.689 E3.73191
G1 X98.236 Y100.835 E3.73663
G1 X98.188 Y100.993 E3.74200
G1 X94.571 Y97.377 E3.90759
G1 X94.702 Y98.012 E3.92857
G1 X94.885 Y98.627 E3.94935
G1 X97.982 Y101.724 E4.09114
G1 X97.876 Y102.553 E4.11821
G1 X95.197 Y99.874 E4.24086
G1 X95.341 Y100.282 E4.25485
G1 X95.863 Y101.403 E4.29487
G1 X95.968 Y101.581 E4.30157
G1 X96.820 Y102.433 E4.34057
G1 X96.708 Y102.491 E4.34466
G1 X96.462 Y102.075 E4.36028
G1 X97.912 Y102.590 F7800.000
G1 F1200
G1 X100.889 Y105.566 E4.49654
G1 X101.245 Y104.986 F7800.000
G1 F1200
G1 X100.922 Y104.948 E4.50708
G1 X100.859 Y104.834 E4.51129
G1 X100.671 Y104.692 E4.51893
G1 X100.555 Y104.520 E4.52564
G1 X100.429 Y104.400 E4.53125
G1 X100.283 Y104.078 E4.54270
G1 X100.287 Y104.029 E4.54432
G1 X98.670 Y102.411 E4.61836
G1 X99.166 Y102.106 E4.63723
G1 X99.276 Y102.082 E4.64087
G1 X99.992 Y102.798 E4.67364
G1 X100.751 Y104.492 F7800.000
G1 F1200
G1 X101.680 Y105.422 E4.71619
G1 X101.817 Y105.420 E4.72061
G1 X101.950 Y105.452 E4.72505
G1 X102.331 Y105.636 E4.73874
G1 X102.412 Y105.628 E4.74139
G1 X102.676 Y105.716 E4.75040
G1 X102.899 Y105.850 E4.75883
G1 X103.213 Y106.257 E4.77546
G1 X103.337 Y106.173 E4.78030
G1 X103.573 Y106.502 E4.79343
G1 X103.667 Y106.472 E4.79661
G1 X101.209 Y104.015 E4.90910
G1 X101.196 Y103.955 E4.91108
G1 X101.227 Y103.840 E4.91493
G1 X101.348 Y103.659 E4.92199
G1 X101.405 Y103.526 E4.92669
G1 X101.525 Y103.395 E4.93243
G1 X103.810 Y105.680 E5.03704
G1 X103.753 Y105.389 E5.04666
G1 X104.273 Y105.207 E5.06448
G1 X103.550 Y104.484 E5.09758
G1 X103.581 Y104.446 E5.09916
G1 X103.701 Y104.501 E5.10344
G1 X103.815 Y104.085 E5.11741
G1 X103.851 Y103.850 E5.12512
G1 X104.955 Y104.953 E5.17563
G1 X104.935 Y104.744 E5.18241
G1 X104.940 Y104.438 E5.19233
G1 X105.067 Y104.129 E5.20312
G1 X102.989 Y102.051 E5.29826
G1 X103.102 Y101.906 E5.30422
G1 X103.355 Y101.481 E5.32021
G1 X105.029 Y103.156 E5.39686
G1 X104.945 Y102.136 E5.42997
G1 X103.702 Y100.893 E5.48688
G1 X103.941 Y100.446 E5.50330
G1 X104.012 Y100.267 E5.50952
G1 X105.309 Y101.564 E5.56890
G1 X105.357 Y101.513 E5.57117
G1 X105.459 Y101.318 E5.57831
G1 X105.483 Y101.047 E5.58710
G1 X105.467 Y100.786 E5.59556
G1 X104.198 Y99.517 E5.65365
G1 X104.305 Y99.304 E5.66138
G1 X104.620 Y99.004 E5.67547
G1 X105.599 Y99.983 E5.72030
G1 X104.723 Y98.782 F7800.000
G1 F1200
G1 X102.628 Y96.687 E5.81621
G1 X102.808 Y97.130 E5.83171
G1 X103.115 Y98.198 E5.86767
G1 X103.166 Y98.303 E5.87144
G1 X104.191 Y99.328 E5.91838
G1 X104.070 Y99.466 E5.92433
G1 X103.949 Y99.241 E5.93260
G1 X103.660 Y98.797 E5.94973
G1 X103.985 Y96.965 F7800.000
G1 F1200
G1 X103.490 Y96.470 E5.97237
G1 E3.97237 F2400.00000
G92 E0
G1 X101.846 Y93.423 F7800.000
G1 E2.00000 F2400.00000
G1 F1200
G1 X101.327 Y92.903 E2.02377
G1 X101.135 Y92.763 E2.03148
G1 X101.009 Y92.699 E2.03603
G1 X100.837 Y92.675 E2.04166
G1 X100.732 Y92.704 E2.04520
G1 X100.553 Y92.798 E2.05172
G1 X100.401 Y92.913 E2.05791
G1 X101.608 Y94.120 E2.11315
G1 X101.226 Y94.545 E2.13165
G1 X101.176 Y94.624 E2.13467
G1 X99.890 Y93.338 E2.19353
G1 X99.845 Y93.380 E2.19553
G1 X99.659 Y93.433 E2.20180
G1 X99.669 Y93.551 E2.20562
G1 X99.274 Y93.493 E2.21853
G1 X99.106 Y93.490 E2.22397
G1 X101.545 Y95.929 E2.33561
G1 X101.582 Y96.228 E2.34539
G1 X101.585 Y96.454 E2.35270
G1 X101.560 Y96.601 E2.35752
G1 X101.503 Y96.608 E2.35938
G1 X101.358 Y96.677 E2.36460
G1 X98.035 Y93.355 E2.51669
G1 E0.51669 F2400.00000
G92 E0
G1 X103.543 Y103.541 F7800.000
G1 E2.00000 F2400.00000
G1 F1200
G1 X102.523 Y102.521 E2.04668
G1 X102.023 Y102.957 E2.06815
G1 X103.545 Y104.479 E2.13784
G1 X103.586 Y104.692 E2.14488
G1 X103.618 Y104.728 E2.14642
G1 X103.674 Y105.435 E2.16939
G1 X104.044 Y104.978 E2.18842
G1 X103.779 Y104.713 F7800.000
G1 F1200
G1 X103.854 Y104.686 E2.19100
G1 X103.979 Y104.913 E2.19936
G1 X104.623 Y105.557 E2.22886
G1 E0.22886 F2400.00000
G92 E0
G1 X103.601 Y107.342 F7800.000
G1 E2.00000 F2400.00000
G1 F1200
G1 X103.031 Y106.772 E2.02609
G1 X102.677 Y106.718 E2.03768
G1 X102.330 Y106.580 E2.04977
G1 X102.263 Y106.583 E2.05194
G1 X101.990 Y106.667 E2.06120
G1 X103.002 Y107.679 E2.10755
G1 X102.810 Y107.778 E2.11455
G1 X102.553 Y107.839 E2.12310
G1 X102.234 Y107.847 E2.13343
G1 X100.947 Y106.559 E2.19236
G1 X101.234 Y106.846 F7800.000
G1 F1200
G1 X97.352 Y102.965 E2.37005
G1 X96.993 Y103.147 E2.38309
G1 X97.328 Y103.401 E2.39671
G1 X97.869 Y103.962 E2.42194
G1 X98.083 Y104.286 E2.43448
G1 X98.287 Y104.719 E2.44998
G1 X98.375 Y104.860 E2.45538
G1 X98.825 Y105.287 E2.47544
G1 X98.762 Y105.311 E2.47762
G1 X101.370 Y107.919 E2.59702
G1 X101.235 Y107.936 E2.60142
G1 X101.096 Y107.927 E2.60594
G1 X100.986 Y107.898 E2.60962
G1 X100.821 Y107.809 E2.61568
G1 X100.644 Y107.620 E2.62407
G1 X100.240 Y107.034 E2.64712
G1 X100.188 Y107.061 E2.64901
G1 X100.127 Y106.992 E2.65197
G1 X99.968 Y106.877 E2.65834
G1 X99.386 Y106.514 E2.68054
G1 X99.049 Y106.357 E2.69258
G1 X98.916 Y106.325 E2.69699
G1 X98.812 Y106.270 E2.70081
G1 X98.713 Y106.198 E2.70477
G1 X98.218 Y105.702 E2.72746
M106 S249.9
G1 Z3.300 F7800.000
G1 X97.811 Y104.190 F7800.000
G1 F1200
G1 X98.305 Y103.695 E2.74817
G1 X98.563 Y103.727 E2.75586
G1 X98.699 Y103.674 E2.76019
G1 X98.853 Y103.710 E2.76488
G1 X99.428 Y103.006 E2.79178
G1 X99.540 Y102.943 E2.79560
G1 X99.661 Y102.769 E2.80189
G1 X99.693 Y102.754 E2.80293
G1 X99.741 Y102.802 E2.80493
G1 X99.759 Y102.902 E2.80795
G1 X99.843 Y103.099 E2.81430
G1 X98.113 Y104.829 E2.88675
G1 X98.262 Y105.098 E2.89585
G1 X98.364 Y105.427 E2.90605
G1 X98.410 Y105.474 E2.90800
G1 X99.964 Y103.920 E2.97306
G1 X100.092 Y104.394 E2.98759
G1 X100.186 Y104.640 E2.99539
G1 X98.919 Y105.907 E3.04844
G1 X99.289 Y106.138 E3.06137
G1 X99.285 Y106.203 E3.06329
G1 X99.425 Y106.343 E3.06913
G1 X100.542 Y105.225 E3.11594
G1 X100.704 Y105.505 E3.12551
G1 X100.797 Y105.589 E3.12921
G1 X100.974 Y105.687 E3.13520
G1 X100.959 Y105.751 E3.13715
G1 X99.824 Y106.886 E3.18468
G1 X99.940 Y107.002 E3.18954
G1 X99.900 Y107.040 E3.19119
G1 X100.116 Y107.536 E3.20720
G1 X101.196 Y106.456 E3.25242
G1 X101.330 Y106.577 E3.25778
G1 X101.801 Y106.792 E3.27311
G1 X100.629 Y107.964 E3.32223
G1 X100.811 Y107.990 E3.32767
G1 X101.129 Y107.881 E3.33764
G1 X101.100 Y107.778 E3.34079
G1 X101.616 Y107.749 E3.35611
G1 X101.772 Y107.763 E3.36072
G1 X102.749 Y106.786 E3.40167
G1 X102.947 Y106.728 E3.40777
G1 X102.931 Y106.675 E3.40941
G1 X103.353 Y106.765 E3.42218
G1 X103.729 Y106.747 E3.43334
G1 X103.235 Y107.242 E3.45405
G1 X102.555 Y106.274 F7800.000
G1 F1200
G1 X103.814 Y105.015 E3.50679
G1 X103.778 Y104.624 E3.51839
G1 X103.617 Y104.225 E3.53114
G1 X101.666 Y106.176 E3.61284
G1 X101.559 Y106.053 E3.61765
G1 X101.605 Y105.747 E3.62682
G1 X101.757 Y105.371 E3.63883
G1 X101.861 Y104.994 E3.65041
G1 E1.65041 F2400.00000
G92 E0
G1 X104.408 Y105.408 F7800.000
G1 E2.00000 F2400.00000
G1 F1200
G1 X104.902 Y104.913 E2.02072
G1 X104.945 Y104.603 E2.03001
G1 X104.933 Y104.266 E2.03999
G1 X104.873 Y104.022 E2.04744
G1 X104.894 Y103.935 E2.05007
G1 X103.882 Y104.946 E2.09243
G1 X103.851 Y104.946 E2.09335
G1 X103.843 Y104.847 E2.09628
G1 X103.922 Y104.436 E2.10869
G1 X104.009 Y104.428 E2.11128
G1 X103.899 Y103.943 E2.12601
G1 X105.065 Y102.777 E2.17483
G1 X105.024 Y102.672 E2.17817
G1 X104.977 Y102.692 E2.17968
G1 X104.865 Y101.990 E2.20074
G1 X103.613 Y103.242 E2.25317
G1 X103.610 Y103.227 E2.25363
G1 X103.377 Y103.238 E2.26052
G1 X103.171 Y103.083 E2.26816
G1 X103.112 Y103.250 E2.27339
G1 X103.086 Y103.251 E2.27419
G1 X103.067 Y103.381 E2.27808
G1 X102.956 Y103.697 E2.28799
G1 X102.991 Y103.864 E2.29304
G1 X101.861 Y104.994 E2.34039
G1 X101.853 Y104.281 E2.36152
G1 X101.905 Y103.964 E2.37103
G1 X105.410 Y100.459 E2.51784
G1 X105.393 Y100.169 E2.52643
G1 X105.346 Y100.169 E2.52783
G1 X105.539 Y99.343 E2.55295
G1 X103.824 Y101.058 E2.62475
G1 X103.954 Y100.840 E2.63227
G1 X103.989 Y100.746 E2.63521
G1 X104.044 Y100.544 E2.64143
G1 X104.147 Y99.929 E2.65988
G1 X104.229 Y99.710 E2.66683
G1 X104.561 Y99.423 E2.67982
G1 X104.518 Y99.377 E2.68168
G1 X105.014 Y98.881 E2.70246
G1 X103.634 Y99.151 F7800.000
G1 F1200
G1 X104.153 Y98.631 E2.72625
G1 X104.333 Y98.396 E2.73582
G1 X104.592 Y98.150 E2.74737
G1 X104.551 Y98.121 E2.74899
G1 X104.681 Y97.983 E2.75513
G1 X104.491 Y97.678 E2.76676
G1 X104.372 Y97.334 E2.77854
G1 X103.141 Y98.566 E2.83493
G1 X102.971 Y98.141 E2.84973
G1 X102.884 Y97.744 E2.86290
G1 X104.006 Y96.622 E2.91425
G1 X103.651 Y96.379 E2.92817
G1 X103.383 Y96.166 E2.93925
G1 X102.784 Y96.765 E2.96670
G1 X102.785 Y96.574 E2.97290
G1 X102.889 Y96.660 E2.97728
G1 X101.302 Y97.050 F7800.000
G1 F1200
G1 X101.796 Y96.556 E2.99992
G1 X101.779 Y96.316 E3.00771
G1 X101.669 Y95.701 E3.02793
G1 X100.239 Y97.131 E3.09339
G1 X100.095 Y97.156 E3.09812
G1 X99.751 Y97.145 E3.10925
G1 X99.314 Y97.073 E3.12360
G1 X101.683 Y94.704 E3.23206
G1 X102.130 Y94.096 E3.25648
G1 X101.914 Y94.141 E3.26360
G1 X101.957 Y93.448 E3.28607
G1 X98.554 Y96.851 E3.44187
G1 X98.492 Y96.831 E3.44396
G1 X97.939 Y96.483 E3.46512
G1 X101.624 Y92.799 E3.63380
G1 X101.480 Y92.694 E3.63954
G1 X101.341 Y92.640 E3.64439
G1 X101.132 Y92.691 E3.65133
G1 X100.933 Y92.802 E3.65871
G1 X100.596 Y93.059 E3.67243
G1 X100.197 Y93.242 E3.68663
G1 X94.870 Y98.569 E3.93051
G1 X94.832 Y98.454 E3.93444
G1 X94.754 Y97.986 E3.94980
G1 X94.942 Y97.602 E3.96363
G1 X95.343 Y97.277 E3.98034
G1 X95.435 Y97.062 E3.98792
G1 X95.637 Y96.935 E3.99564
G1 X96.025 Y96.532 E4.01376
G1 X96.049 Y96.408 E4.01782
G1 X99.457 Y93.000 E4.17387
G1 X98.959 Y92.654 E4.19350
G1 X98.859 Y92.616 E4.19697
G1 X96.338 Y95.137 E4.31238
G1 X96.401 Y94.921 E4.31966
G1 X96.668 Y94.318 E4.34099
G1 X97.188 Y93.305 E4.37787
G1 X97.704 Y92.788 E4.40152
G1 E2.40152 F2400.00000
G92 E0
G1 X101.624 Y92.799 F7800.000
G1 E2.00000 F2400.00000
G1 F1200
G1 X101.767 Y92.903 E2.00574
G1 X102.124 Y93.262 E2.02213
G1 X102.106 Y93.299 E2.02346
G1 X101.498 Y93.906 E2.05128
G1 E0.05128 F2400.00000
G92 E0
G1 X97.114 Y100.256 F7800.000
G1 E2.00000 F2400.00000
G1 F1200
G1 X98.361 Y99.008 E2.05712
G1 X98.389 Y98.902 E2.06067
G1 X98.336 Y98.378 E2.07772
G1 X98.234 Y98.154 E2.08571
G1 X96.629 Y99.758 E2.15914
G1 X96.326 Y99.400 E2.17433
G1 X95.927 Y100.012 E2.19798
G1 X95.775 Y100.456 E2.21319
G1 X95.752 Y100.635 E2.21904
G1 X95.597 Y100.791 E2.22614
G1 X95.333 Y100.072 E2.25092
G1 X97.940 Y97.465 E2.37026
G1 X97.765 Y96.931 E2.38845
G1 X97.798 Y96.624 E2.39844
G1 X95.109 Y99.314 E2.52157
G1 X94.870 Y98.569 E2.54687
M106 S252.45
G1 Z3.600 F7800.000
G1 E0.54687 F2400.00000
G92 E0
G1 X97.971 Y99.692 F7800.000
G1 E2.00000 F2400.00000
G1 F1200
G1 X97.477 Y99.198 E2.01915
G1 X97.247 Y98.879 E2.02991
G1 X96.980 Y98.427 E2.04429
G1 X96.665 Y97.761 E2.06447
G1 X96.533 Y97.401 E2.07496
G1 X96.532 Y97.341 E2.07661
G1 X98.238 Y99.047 E2.14268
G1 X98.235 Y98.812 E2.14910
G1 X97.960 Y98.173 E2.16816
G1 X97.781 Y97.677 E2.18260
G1 X96.415 Y96.311 E2.23552
G1 X96.444 Y95.828 E2.24876
G1 X96.519 Y95.503 E2.25791
G1 X97.756 Y96.739 E2.30581
G1 X97.830 Y96.260 E2.31910
G1 X98.096 Y96.352 E2.32681
G1 X98.216 Y96.287 E2.33056
G1 X96.690 Y94.761 E2.38968
G1 X96.842 Y94.000 E2.41092
G1 X100.036 Y97.194 E2.53462
G1 X100.387 Y97.253 E2.54436
G1 X100.815 Y97.293 E2.55615
G1 X101.027 Y97.273 E2.56197
G1 X97.037 Y93.283 E2.71652
G1 X97.236 Y92.882 E2.72878
G1 X97.393 Y92.726 E2.73483
G1 X102.022 Y97.356 E2.91415
G1 X102.322 Y97.436 E2.92262
G1 X102.312 Y97.154 E2.93036
G1 X102.388 Y96.883 E2.93805
G1 X102.429 Y96.850 E2.93950
G1 X97.940 Y92.361 E3.11333
G1 X98.300 Y92.404 E3.12326
G1 X98.879 Y92.635 E3.14032
G1 X99.353 Y92.861 E3.15471
G1 X103.076 Y96.584 E3.29889
G1 X103.394 Y97.815 F7800.000
G1 F1200
G1 X103.414 Y98.044 E3.30520
G1 X103.314 Y98.044 E3.30792
G1 X103.626 Y98.528 E3.32371
G1 X104.020 Y99.066 E3.34197
G1 X104.319 Y98.740 E3.35409
G1 X102.899 Y97.320 E3.40908
G1 X102.883 Y97.130 E3.41432
G1 X102.766 Y96.675 E3.42717
G1 X102.760 Y96.268 E3.43832
G1 X104.435 Y97.943 E3.50321
G1 X104.319 Y97.680 E3.51110
G1 X104.046 Y97.301 E3.52389
G1 X103.644 Y96.887 E3.53969
G1 X102.962 Y96.264 E3.56500
G1 X102.657 Y95.928 E3.57741
G1 X102.546 Y95.733 E3.58356
G1 X102.488 Y95.512 E3.58981
G1 X102.551 Y95.146 E3.59998
G1 X100.179 Y92.775 E3.69181
G1 X100.427 Y92.679 E3.69909
G1 X100.626 Y92.660 E3.70456
G1 X100.870 Y92.692 E3.71130
G1 X101.027 Y92.779 E3.71621
G1 X101.403 Y93.087 E3.72953
G1 X101.903 Y93.586 E3.74889
G1 E1.74889 F2400.00000
G92 E0
G1 X105.064 Y98.897 F7800.000
G1 E2.00000 F2400.00000
G1 F1200
G1 X105.558 Y99.391 E2.02028
G1 X105.336 Y100.135 F7800.000
G1 F1200
G1 X104.193 Y98.992 E2.06716
G1 X104.101 Y99.250 E2.07509
G1 X104.070 Y99.576 E2.08461
G1 X104.344 Y99.759 E2.09415
G1 X104.134 Y99.900 E2.10148
G1 X105.323 Y101.088 E2.15021
G1 X105.275 Y101.303 E2.15658
G1 X105.259 Y101.278 E2.15744
G1 X104.891 Y101.623 E2.17207
G1 X103.813 Y100.545 E2.21627
G1 X103.804 Y100.728 E2.22158
G1 X103.751 Y100.711 E2.22318
G1 X103.617 Y101.066 E2.23421
G1 X103.529 Y101.228 E2.23953
G1 X104.713 Y102.411 E2.28808
G1 X104.715 Y102.559 E2.29236
G1 X104.768 Y102.759 E2.29835
G1 X105.146 Y103.439 E2.32094
G1 X105.174 Y103.572 E2.32485
G1 X105.158 Y103.678 E2.32798
G1 X105.117 Y103.782 E2.33122
G1 X103.254 Y101.919 E2.40765
G1 X103.080 Y102.243 E2.41832
G1 X102.878 Y102.509 E2.42801
G1 X103.585 Y103.216 E2.45701
G1 X103.533 Y103.571 E2.46741
G1 X103.679 Y104.110 E2.48360
G1 X103.684 Y104.281 E2.48857
G1 X102.458 Y103.055 E2.53887
G1 X102.363 Y103.264 E2.54551
G1 X102.297 Y103.624 E2.55613
G1 X102.288 Y103.852 E2.56274
G1 X103.744 Y105.307 E2.62245
G1 X103.731 Y105.313 E2.62284
G1 X103.986 Y105.667 E2.63549
G1 X103.986 Y105.736 E2.63751
G1 X104.312 Y105.951 E2.64881
G1 X104.069 Y106.214 E2.65920
G1 X103.931 Y106.409 E2.66612
G1 X103.889 Y106.420 E2.66737
G1 X102.213 Y104.743 E2.73614
G1 X102.170 Y104.980 E2.74313
G1 X102.105 Y105.192 E2.74955
G1 X101.958 Y105.451 E2.75818
G1 X102.144 Y105.639 E2.76586
G1 X102.254 Y105.643 E2.76903
G1 X102.282 Y105.778 E2.77301
G1 X102.832 Y106.328 E2.79560
G1 X102.818 Y106.315 E2.79616
G1 X103.381 Y107.313 F7800.000
G1 F1200
G1 X102.886 Y106.819 E2.81644
G1 X102.500 Y106.769 E2.82774
G1 X102.343 Y106.775 E2.83228
G1 X101.987 Y106.867 E2.84296
G1 X102.863 Y107.743 E2.87887
G1 X102.683 Y107.766 E2.88413
G1 X102.570 Y107.742 E2.88748
G1 X102.323 Y107.646 E2.89515
G1 X102.152 Y107.614 E2.90019
G1 X101.992 Y107.638 E2.90489
G1 X101.863 Y107.692 E2.90894
G1 X98.803 Y104.632 E3.03445
G1 X98.750 Y105.029 E3.04605
G1 X98.780 Y105.121 E3.04887
G1 X98.849 Y105.227 E3.05254
G1 X99.059 Y105.473 E3.06190
G1 X99.588 Y105.965 E3.08286
G1 X99.650 Y105.903 E3.08543
G1 X99.954 Y106.569 E3.10667
G1 X100.052 Y106.730 E3.11214
G1 X100.427 Y107.205 E3.12969
G1 X100.922 Y107.699 E3.14996
G1 E1.14996 F2400.00000
G92 E0
G1 X99.924 Y104.805 F7800.000
G1 E2.00000 F2400.00000
G1 F1200
G1 X99.025 Y103.905 E2.03688
G1 X98.909 Y103.970 E2.04074
G1 X98.803 Y104.632 E2.06018
G1 E0.06018 F2400.00000
G92 E0
G1 X103.091 Y102.722 F7800.000
G1 E2.00000 F2400.00000
G1 F1200
G1 X103.159 Y102.252 E2.01377
G1 X103.508 Y102.571 E2.02747
G1 X103.784 Y102.532 E2.03556
G1 X103.847 Y102.919 E2.04693
G1 X103.982 Y103.244 E2.05712
G1 X104.037 Y103.498 E2.06467
G1 X104.033 Y103.664 E2.06947
G1 X104.900 Y104.531 E2.10504
M106 S255
G1 Z3.900 F7800.000
G1 X104.397 Y104.183 F7800.000
G1 F1116.09
G1 X104.891 Y103.689 E2.12427
G1 X104.129 Y103.372 F7800.000
G1 F1116.09
G1 X104.767 Y102.734 E2.14910
G1 X104.103 Y103.121 F7800.000
G1 F1116.09
G1 X104.598 Y102.626 E2.16834
G1 X104.681 Y102.489 E2.17274
G1 X104.464 Y102.215 E2.18236
G1 X104.462 Y102.180 E2.18334
G1 X104.323 Y101.985 E2.18992
G1 X103.600 Y102.708 E2.21805
G1 X103.340 Y102.534 E2.22665
G1 X103.412 Y102.295 E2.23351
G1 X103.584 Y101.807 E2.24775
G1 X105.203 Y100.188 E2.31071
G1 X105.228 Y99.588 E2.32724
G1 X105.275 Y99.289 E2.33556
G1 X105.315 Y99.160 E2.33928
G1 X103.858 Y100.617 E2.39593
G1 X103.853 Y99.966 E2.41383
G1 X104.001 Y99.985 E2.41793
G1 X104.088 Y99.544 E2.43030
G1 X104.142 Y99.416 E2.43412
G1 X105.141 Y98.417 E2.47296
G1 X104.943 Y98.188 E2.48130
G1 X104.752 Y97.890 E2.49103
G1 X103.899 Y98.742 E2.52420
G1 X103.753 Y98.654 E2.52890
G1 X103.512 Y99.033 E2.54126
G1 X103.148 Y98.577 E2.55730
G1 X104.422 Y97.303 E2.60686
G1 X104.040 Y96.769 E2.62492
G1 X102.660 Y98.149 E2.67860
G1 X102.457 Y97.995 E2.68561
G1 X102.078 Y97.814 E2.69715
G1 X102.833 Y97.059 E2.72653
G1 X102.964 Y97.149 E2.73089
G1 X103.332 Y96.856 E2.74383
G1 X103.249 Y96.644 E2.75010
G1 X103.605 Y96.288 E2.76396
G1 X103.127 Y95.849 E2.78180
G1 X101.393 Y97.583 E2.84926
G1 X100.612 Y97.447 E2.87105
G1 X102.700 Y95.360 E2.95224
G1 X102.630 Y95.247 E2.95590
G1 X102.524 Y94.983 E2.96372
G1 X102.515 Y94.629 E2.97346
G1 X99.800 Y97.343 E3.07904
G1 X99.215 Y97.203 E3.09557
G1 X99.087 Y97.140 E3.09951
G1 X102.456 Y93.770 E3.23055
G1 X102.418 Y93.697 E3.23282
G1 X102.191 Y93.445 E3.24216
G1 X102.018 Y93.293 E3.24850
G1 X98.586 Y96.724 E3.38199
G1 X98.272 Y96.447 E3.39350
G1 X98.200 Y96.237 E3.39961
G1 X98.175 Y96.218 E3.40046
G1 X101.514 Y92.880 E3.53032
G1 X101.209 Y92.713 E3.53988
G1 X101.038 Y92.659 E3.54482
G1 X100.844 Y92.634 E3.55021
G1 X97.050 Y96.427 E3.69775
G1 X97.059 Y96.031 E3.70864
G1 X97.119 Y95.442 E3.72494
G1 X99.959 Y92.602 E3.83537
G1 X99.254 Y92.390 E3.85560
G1 X97.183 Y94.461 E3.93616
G1 X97.388 Y93.435 E3.96495
G1 X97.446 Y93.283 E3.96943
G1 X98.202 Y92.526 E3.99885
G1 E1.99885 F2400.00000
G92 E0
G1 X103.289 Y102.666 F7800.000
G1 E2.00000 F2400.00000
G1 F1116.09
G1 X103.783 Y102.171 E2.01923
G1 X103.694 Y102.653 E2.03271
G1 X103.690 Y102.849 E2.03810
G1 X103.565 Y102.967 E2.04283
G1 X103.728 Y103.169 E2.04996
G1 X102.774 Y104.122 E2.08706
G1 X102.736 Y104.587 E2.09987
G1 X102.761 Y104.876 E2.10786
G1 X102.812 Y105.027 E2.11224
G1 X103.842 Y103.997 E2.15229
G1 X103.865 Y104.415 E2.16381
G1 X103.908 Y104.636 E2.17000
G1 X103.980 Y104.801 E2.17496
G1 X103.126 Y105.655 E2.20817
G1 X103.210 Y105.851 E2.21403
G1 X103.239 Y105.979 E2.21765
G1 X103.201 Y106.302 E2.22658
G1 X102.894 Y106.455 E2.23602
G1 X102.797 Y106.451 E2.23871
G1 X102.989 Y106.733 E2.24813
G1 X104.295 Y105.428 E2.29891
G1 X104.333 Y105.439 E2.30000
G1 X104.287 Y105.497 E2.30203
G1 X104.703 Y105.962 E2.31920
G1 X104.208 Y106.457 E2.33843
G1 X103.484 Y106.239 F7800.000
G1 F1116.09
G1 X103.544 Y106.328 E2.34139
G1 X103.087 Y106.683 E2.35731
G1 X103.056 Y106.666 E2.35827
G1 X102.253 Y107.470 E2.38953
G1 X101.750 Y107.362 F7800.000
G1 F1116.09
G1 X102.244 Y106.868 E2.40876
G1 X102.220 Y106.790 E2.41099
G1 X102.201 Y106.831 E2.41224
G1 X102.110 Y106.790 E2.41498
G1 X101.927 Y106.888 E2.42069
G1 X101.764 Y106.634 E2.42901
G1 X101.633 Y106.575 E2.43295
G1 X100.527 Y107.681 E2.47597
G1 X100.395 Y107.599 E2.48025
G1 X100.193 Y107.417 E2.48773
G1 X100.074 Y107.231 E2.49382
G1 X101.077 Y106.228 E2.53284
G1 X100.851 Y106.056 E2.54063
G1 X100.598 Y105.803 E2.55049
G1 X99.851 Y106.550 E2.57953
G1 X99.801 Y106.450 E2.58260
G1 X99.477 Y106.020 E2.59740
G1 X100.230 Y105.267 E2.62669
G1 X100.145 Y105.053 E2.63302
G1 X100.029 Y104.882 E2.63871
G1 X99.882 Y104.715 E2.64482
G1 X99.382 Y105.211 E2.66416
G1 Z4.200 F7800.000
G1 E0.66416 F2400.00000
G92 E0
G1 X100.794 Y107.357 F7800.000
G1 E2.00000 F2400.00000
G1 F835.299
G1 X100.858 Y107.465 E2.00361
G1 X101.003 Y107.612 E2.00958
G1 X101.186 Y107.749 E2.01617
G1 X100.299 Y106.863 E2.05232
G1 X100.252 Y106.784 E2.05496
G1 X100.209 Y106.655 E2.05888
G1 X100.223 Y106.283 E2.06960
G1 X100.146 Y106.002 E2.07800
G1 X100.010 Y105.751 E2.08624
G1 X100.374 Y106.115 E2.10108
G1 X100.374 Y106.287 E2.10603
G1 X100.583 Y106.297 E2.11205
G1 X100.732 Y106.399 E2.11727
G1 X101.081 Y106.566 E2.12842
G1 X102.094 Y107.578 E2.16969
G1 X102.296 Y107.578 E2.17554
G1 X102.800 Y107.665 E2.19027
G1 X103.192 Y107.598 E2.20175
G1 X102.301 Y106.707 E2.23810
G1 X102.500 Y106.658 E2.24402
G1 X102.696 Y106.584 E2.25007
G1 X102.884 Y106.904 E2.26076
G1 X103.369 Y106.696 E2.27596
G1 X103.863 Y107.190 E2.29612
G1 X103.493 Y106.214 F7800.000
G1 F835.299
G1 X104.116 Y106.837 E2.32150
G1 X104.419 Y106.411 E2.33658
G1 X104.587 Y106.390 E2.34146
G1 X104.603 Y106.246 E2.34564
G1 X103.872 Y105.514 E2.37546
G1 X103.830 Y105.207 E2.38440
G1 X103.669 Y104.829 E2.39623
G1 X103.534 Y104.252 E2.41332
G1 X103.673 Y104.237 E2.41736
G1 X104.168 Y104.732 E2.43752
G1 X103.991 Y104.640 F7800.000
G1 F835.299
G1 X103.496 Y104.146 E2.45768
G1 X103.434 Y103.990 E2.46252
G1 X103.381 Y103.668 E2.47192
G1 X103.381 Y103.292 E2.48277
G1 X103.407 Y103.007 E2.49101
G1 X103.901 Y103.502 E2.51117
G1 E0.51117 F2400.00000
G92 E0
G1 X98.770 Y96.395 F7800.000
G1 E2.00000 F2400.00000
G1 F835.299
G1 X99.265 Y96.890 E2.02020
G1 X99.602 Y97.173 E2.03285
G1 X99.975 Y97.358 E2.04488
G1 X100.332 Y97.457 E2.05556
G1 X100.886 Y97.551 E2.07175
G1 X97.800 Y94.465 E2.19757
G1 X97.744 Y94.270 E2.20341
G1 X97.722 Y94.050 E2.20978
G1 X97.711 Y93.415 E2.22809
G1 X101.621 Y97.325 E2.38750
G1 X101.635 Y97.257 E2.38951
G1 X102.322 Y97.301 E2.40937
G1 X102.274 Y97.508 E2.41548
G1 X102.568 Y97.639 E2.42476
G1 X102.933 Y97.882 E2.43742
G1 X103.159 Y98.097 E2.44638
G1 X103.736 Y98.775 E2.47207
G1 X103.818 Y99.004 E2.47907
G1 X103.886 Y99.590 E2.49609
G1 X104.939 Y100.643 E2.53902
G1 X105.063 Y100.141 E2.55394
G1 X104.858 Y100.093 E2.56002
G1 X105.020 Y99.764 E2.57060
G1 X97.901 Y92.644 E2.86085
G1 X97.982 Y92.434 E2.86735
G1 X98.581 Y92.364 E2.88473
G1 X105.304 Y99.087 E3.15881
G1 X105.329 Y98.943 E3.16304
G1 X105.310 Y98.878 E3.16499
G1 X104.026 Y97.070 E3.22891
G1 X103.865 Y96.890 E3.23587
G1 X103.271 Y96.357 E3.25889
G1 X103.231 Y96.388 E3.26033
G1 X102.850 Y95.819 E3.28008
G1 X102.737 Y95.559 E3.28823
G1 X99.807 Y92.629 E3.40768
G1 X100.388 Y92.670 E3.42447
G1 X100.471 Y92.695 E3.42697
G1 X100.790 Y92.868 E3.43744
G1 X101.196 Y93.136 E3.45146
G1 X101.485 Y93.363 E3.46206
G1 X102.312 Y94.174 E3.49542
G1 Z4.500 F7800.000
G1 E1.49542 F2400.00000
G92 E0
G1 X98.291 Y93.227 F7800.000
G1 E2.00000 F2400.00000
G1 F913.095
G1 X98.786 Y92.733 E2.02012
G1 X99.023 Y92.571 E2.02838
G1 X99.283 Y92.464 E2.03648
G1 X99.475 Y92.501 E2.04211
G1 X99.842 Y92.635 E2.05335
G1 X98.313 Y94.165 E2.11560
G1 X98.307 Y94.471 E2.12441
G1 X98.411 Y95.025 E2.14064
G1 X100.654 Y92.783 E2.23190
G1 X100.776 Y92.800 E2.23545
G1 X100.931 Y92.862 E2.24026
G1 X101.327 Y93.068 E2.25311
G1 X98.574 Y95.821 E2.36514
G1 X98.570 Y96.168 E2.37513
G1 X98.635 Y96.484 E2.38442
G1 X98.712 Y96.642 E2.38946
G1 X101.894 Y93.461 E2.51892
G1 X102.257 Y93.771 E2.53266
G1 X102.391 Y93.922 E2.53849
G1 X99.163 Y97.150 E2.66985
G1 X99.390 Y97.335 E2.67828
G1 X99.595 Y97.437 E2.68488
G1 X99.775 Y97.497 E2.69033
G1 X102.748 Y94.524 E2.81132
G1 X102.962 Y94.929 E2.82452
G1 X103.053 Y95.178 E2.83214
G1 X100.540 Y97.691 E2.93440
G1 X100.914 Y97.751 E2.94532
G1 X101.450 Y97.740 E2.96073
G1 X103.406 Y95.783 E3.04035
G1 X103.890 Y96.259 E3.05986
G1 X102.284 Y97.864 E3.12518
G1 X102.449 Y97.984 E3.13105
G1 X102.733 Y98.141 E3.14038
G1 X102.865 Y98.242 E3.14517
G1 X104.316 Y96.791 E3.20421
G1 X104.696 Y97.370 E3.22414
G1 X103.346 Y98.720 E3.27908
G1 X103.757 Y99.268 E3.29879
G1 X105.104 Y97.921 E3.35359
G1 X105.310 Y98.222 E3.36408
G1 X105.137 Y98.193 E3.36913
G1 X104.993 Y98.462 E3.37789
G1 X104.856 Y98.819 E3.38890
G1 X104.764 Y99.206 E3.40035
G1 X104.234 Y99.749 E3.42219
G1 X104.009 Y100.206 F7800.000
G1 F913.095
G1 X104.504 Y99.712 E3.44231
G1 X104.813 Y99.908 E3.45286
G1 X105.165 Y100.038 E3.46364
G1 X105.400 Y99.813 E3.47299
G1 X104.305 Y100.908 E3.51756
G1 X104.983 Y100.229 F7800.000
G1 F913.095
G1 X104.948 Y100.264 E3.51898
G1 X105.478 Y99.735 E3.54052
G1 X105.699 Y99.746 E3.54690
G1 X105.717 Y99.518 E3.55348
G1 X105.774 Y99.808 E3.56198
G1 X105.808 Y100.401 E3.57909
G1 X105.062 Y101.148 E3.60946
G1 X105.099 Y101.250 E3.61260
G1 X104.927 Y101.283 E3.61763
G1 X104.413 Y101.797 E3.63854
G1 X104.425 Y102.208 E3.65037
G1 X104.409 Y102.198 E3.65090
G1 X104.632 Y102.511 E3.66196
G1 X104.507 Y102.633 E3.66698
G1 X104.552 Y102.655 E3.66843
G1 X105.426 Y101.780 E3.70400
G1 X105.416 Y102.089 E3.71288
G1 X105.754 Y102.113 E3.72266
G1 X105.727 Y102.477 E3.73316
G1 X105.232 Y102.971 E3.75329
G1 X105.241 Y101.965 F7800.000
G1 F913.095
G1 X105.853 Y101.354 E3.77816
G1 X105.865 Y101.268 E3.78066
G1 X105.808 Y100.401 E3.80565
G1 E1.80565 F2400.00000
G92 E0
G1 X103.965 Y102.876 F7800.000
G1 E2.00000 F2400.00000
G1 F913.095
G1 X104.459 Y102.381 E2.02012
G1 X104.531 Y102.599 E2.02671
G1 X104.584 Y102.547 E2.02886
G1 X104.732 Y102.745 E2.03596
G1 X105.067 Y102.797 E2.04572
G1 X104.029 Y103.834 E2.08795
G1 X104.166 Y103.813 E2.09194
G1 X104.250 Y104.162 E2.10229
G1 X104.315 Y104.205 E2.10450
G1 X104.399 Y104.183 E2.10702
G1 X104.449 Y104.294 E2.11052
G1 X104.536 Y104.350 E2.11350
G1 X105.621 Y103.265 E2.15766
G1 X105.665 Y103.302 E2.15930
G1 X105.582 Y104.327 E2.18889
G1 X105.088 Y104.821 E2.20901
G1 X104.577 Y106.301 F7800.000
G1 F913.095
G1 X104.693 Y106.185 E2.21371
G1 X104.083 Y106.795 E2.23853
G1 X102.146 Y107.653 F7800.000
G1 F913.095
G1 X102.907 Y106.892 E2.26951
G1 X102.385 Y106.858 E2.28456
G1 X101.970 Y106.750 E2.29690
G1 X101.062 Y107.658 E2.33383
G1 X100.957 Y107.668 E2.33688
G1 X100.788 Y107.573 E2.34245
G1 X100.641 Y107.405 E2.34887
G1 X100.590 Y107.268 E2.35310
G1 X100.687 Y106.955 E2.36252
G1 X101.212 Y106.429 E2.38391
G1 Z4.800 F7800.000
G1 X102.200 Y107.108 F7800.000
G1 F706.355
G1 X102.694 Y107.603 E2.40291
G1 X102.915 Y107.621 E2.40894
G1 X103.238 Y107.598 E2.41772
G1 X103.548 Y107.505 E2.42651
G1 X102.834 Y106.791 E2.45395
G1 X103.190 Y106.723 E2.46381
G1 X103.581 Y106.587 E2.47505
G1 X104.154 Y107.161 E2.49709
G1 X104.593 Y106.867 E2.51142
G1 X104.709 Y106.764 E2.51564
G1 X104.173 Y106.228 E2.53624
G1 X104.611 Y105.715 E2.55457
G1 X105.105 Y106.209 E2.57356
G1 E0.57356 F2400.00000
G92 E0
G1 X105.165 Y102.740 F7800.000
G1 E2.00000 F2400.00000
G1 F706.355
G1 X104.671 Y102.245 E2.01899
G1 X104.558 Y102.102 E2.02395
G1 X104.442 Y101.722 E2.03475
G1 X104.411 Y101.081 E2.05219
G1 X105.959 Y102.628 E2.11165
G1 X106.030 Y101.794 E2.13439
G1 X104.280 Y100.044 E2.20162
G1 X104.211 Y99.703 E2.21108
G1 X104.065 Y99.246 E2.22412
G1 X103.860 Y98.745 E2.23881
G1 X103.814 Y98.672 E2.24116
G1 X106.101 Y100.960 E2.32906
G1 E0.32906 F2400.00000
G92 E0
G1 X102.526 Y94.668 F7800.000
G1 E2.00000 F2400.00000
G1 F706.355
G1 X101.716 Y93.883 E2.03065
G1 X101.244 Y93.524 E2.04674
G1 X100.859 Y93.287 E2.05904
G1 X100.549 Y93.128 E2.06851
G1 X100.265 Y93.029 E2.07668
G1 X99.942 Y92.990 E2.08551
G1 X104.850 Y97.898 E2.27407
G1 X105.412 Y98.699 E2.30066
G1 X105.634 Y99.074 E2.31250
G1 X105.775 Y99.450 E2.32339
G1 X105.857 Y99.811 E2.33345
G1 X99.020 Y92.973 E2.59614
G1 X98.859 Y93.271 E2.60533
G1 X98.836 Y93.428 E2.60966
G1 X98.869 Y93.362 E2.61165
G1 X99.425 Y93.608 E2.62815
G1 X99.236 Y94.094 E2.64232
G1 X102.635 Y97.493 E2.77291
G1 X101.978 Y97.480 E2.79076
G1 X101.749 Y97.513 E2.79704
G1 X98.898 Y94.662 E2.90657
G1 X98.927 Y95.046 E2.91703
G1 X98.897 Y95.213 E2.92164
G1 X98.879 Y95.548 E2.93076
G1 X100.963 Y97.632 E3.01082
G1 X100.635 Y97.623 E3.01974
G1 X100.069 Y97.408 E3.03619
G1 X99.785 Y97.185 E3.04598
G1 X99.740 Y97.098 E3.04865
G1 X99.638 Y97.011 E3.05231
G1 X99.470 Y96.769 E3.06030
G1 X99.468 Y96.550 E3.06625
G1 X99.366 Y96.186 E3.07652
G1 X99.374 Y96.043 E3.08042
G1 Z5.100 F7800.000
G1 E1.08042 F2400.00000
G92 E0
G1 X100.022 Y93.423 F7800.000
G1 E2.00000 F2400.00000
G1 F600.126
G1 X99.467 Y93.993 E2.02260
G1 X99.338 Y94.325 E2.03272
G1 X99.388 Y95.002 E2.05199
G1 X100.987 Y93.404 E2.11620
G1 X101.239 Y93.450 E2.12346
G1 X101.659 Y93.678 E2.13703
G1 X99.295 Y96.042 E2.23195
G1 X99.253 Y96.242 E2.23773
G1 X99.272 Y96.849 E2.25498
G1 X99.360 Y96.924 E2.25825
G1 X102.228 Y94.055 E2.37342
G1 X102.464 Y94.221 E2.38162
G1 X102.754 Y94.475 E2.39257
G1 X99.851 Y97.379 E2.50917
G1 X100.162 Y97.464 E2.51833
G1 X100.281 Y97.458 E2.52173
G1 X100.867 Y97.308 E2.53890
G1 X103.279 Y94.896 E2.63577
G1 X103.567 Y95.191 E2.64747
G1 X103.578 Y95.181 E2.64789
G1 X103.728 Y95.394 E2.65527
G1 X101.987 Y97.134 E2.72516
G1 X102.343 Y97.138 E2.73524
G1 X102.664 Y97.404 E2.74708
G1 X104.084 Y95.984 E2.80410
G1 X104.469 Y96.545 E2.82343
G1 X103.168 Y97.846 E2.87567
G1 X103.444 Y98.162 E2.88758
G1 X103.589 Y98.371 E2.89480
G1 X104.829 Y97.131 E2.94459
G1 X105.205 Y97.702 E2.96399
G1 X104.706 Y98.200 E2.98402
G1 X105.128 Y97.779 F7800.000
G1 F600.126
G1 X103.996 Y98.910 E3.02945
G1 X104.332 Y99.521 E3.04923
G1 X104.429 Y99.423 E3.05314
G1 X104.156 Y99.043 E3.06643
G1 X104.564 Y98.469 E3.08643
G1 X104.880 Y98.973 E3.10330
G1 X105.506 Y98.346 E3.12844
G1 X105.519 Y98.366 E3.12912
G1 X105.578 Y98.324 E3.13119
G1 X105.645 Y98.478 E3.13595
G1 X105.658 Y98.473 E3.13635
G1 X105.826 Y98.973 E3.15132
G1 X104.608 Y100.190 E3.20019
G1 X104.747 Y100.645 E3.21368
G1 X104.926 Y100.571 E3.21918
G1 X105.040 Y100.705 E3.22416
G1 X106.087 Y99.658 E3.26620
G1 X106.158 Y99.802 E3.27076
G1 X106.300 Y100.300 E3.28545
G1 X106.284 Y100.407 E3.28855
G1 X105.412 Y101.279 E3.32356
G1 X105.578 Y102.059 E3.34620
G1 X106.176 Y101.462 E3.37020
G1 X106.194 Y102.057 E3.38712
G1 X106.146 Y102.330 E3.39498
G1 X106.082 Y102.502 E3.40019
G1 X105.587 Y102.996 E3.42005
G1 Z5.400 F7800.000
G1 X105.689 Y102.285 F7800.000
G1 F600
G1 X106.273 Y102.868 E3.44258
G1 X106.304 Y102.648 E3.44866
G1 X106.340 Y101.857 E3.47025
G1 X105.681 Y101.198 E3.49569
G1 X105.610 Y100.344 E3.51908
G1 X105.613 Y100.052 E3.52706
G1 X106.108 Y100.546 E3.54614
G1 X105.958 Y100.185 F7800.000
G1 F600
G1 X105.969 Y100.196 E3.54655
G1 X105.464 Y99.691 E3.56604
G1 X105.270 Y99.273 E3.57861
G1 X105.147 Y98.948 E3.58809
G1 X104.928 Y98.560 E3.60025
G1 X104.981 Y98.486 E3.60274
G1 X104.601 Y98.148 E3.61661
G1 X104.862 Y98.011 E3.62467
G1 X105.357 Y98.505 E3.64376
G1 E1.64376 F2400.00000
G92 E0
G1 X103.749 Y95.837 F7800.000
G1 E2.00000 F2400.00000
G1 F600
G1 X103.254 Y95.341 E2.01912
G1 X102.261 Y94.635 E2.05236
G1 X101.863 Y94.297 E2.06660
G1 X101.722 Y94.216 E2.07104
G1 X101.708 Y94.488 E2.07845
G1 X101.506 Y94.502 E2.08400
G1 X104.859 Y97.855 E2.21339
G1 X104.828 Y98.325 E2.22624
G1 X104.252 Y97.792 E2.24766
G1 X103.698 Y97.328 E2.26737
G1 X102.889 Y96.757 E2.29438
G1 X102.843 Y96.749 E2.29564
G1 X100.018 Y93.924 E2.40468
G1 X99.987 Y93.966 E2.40611
G1 X100.003 Y94.818 E2.42936
G1 X101.893 Y96.708 E2.50229
G1 X101.515 Y96.830 E2.51311
G1 X101.389 Y96.824 E2.51658
G1 X101.014 Y96.714 E2.52724
G1 X101.002 Y96.726 E2.52769
G1 X99.912 Y95.636 E2.56975
G1 X99.849 Y95.758 E2.57348
G1 X99.818 Y95.916 E2.57788
G1 X99.812 Y96.446 E2.59235
G1 X100.307 Y96.940 E2.61143
G1 E0.61143 F2400.00000
G92 E0
G1 X101.561 Y94.558 F7800.000
G1 E2.00000 F2400.00000
G1 F600
G1 X100.866 Y93.863 E2.02682
G1 X100.653 Y93.837 E2.03268
G1 X100.078 Y93.840 E2.04835
G1 X100.018 Y93.924 E2.05117
G1 Z5.700 F7800.000
G1 X100.906 Y94.953 F7800.000
G1 F600
G1 X101.401 Y94.458 E2.07337
G1 X101.483 Y94.504 E2.07637
G1 X101.881 Y94.511 E2.08899
G1 X102.018 Y94.537 E2.09344
G1 X102.237 Y94.679 E2.10174
G1 X101.135 Y95.782 E2.15124
G1 X101.650 Y96.054 E2.16974
G1 X101.849 Y96.126 E2.17646
G1 X102.904 Y95.071 E2.22383
G1 X103.527 Y95.505 E2.24795
G1 X102.627 Y96.406 E2.28840
G1 X103.325 Y96.766 E2.31335
G1 X104.041 Y96.050 E2.34549
G1 X104.121 Y96.160 E2.34982
G1 X104.220 Y96.368 E2.35712
G1 X104.345 Y96.519 E2.36337
G1 X104.454 Y96.695 E2.36992
G1 X103.959 Y97.189 E2.39212
G1 E0.39212 F2400.00000
G92 E0
M107
; Filament-specific end gcode 
;END gcode for filament

M104 S0 ; turn off temperature
G28 X0  ; home X axis
M84     ; disable motors

M140 S0 ; set bed temperature
; filament used = 60.1mm (0.4cm3)
; total filament cost = 0.0

; avoid_crossing_perimeters = 0
; bed_shape = 0x0,200x0,200x200,0x200
; bed_temperature = 0
; before_layer_gcode = 
; between_objects_gcode = 
; bridge_acceleration = 0
; bridge_fan_speed = 100
; brim_connections_width = 0
; brim_width = 0
; complete_objects = 0
; cooling = 1
; default_acceleration = 0
; disable_fan_first_layers = 3
; duplicate_distance = 6
; end_filament_gcode = "; Filament-specific end gcode \n;END gcode for filament\n"
; end_gcode = M104 S0 ; turn off temperature\nG28 X0  ; home X axis\nM84     ; disable motors\n
; extruder_clearance_height = 20
; extruder_clearance_radius = 20
; extruder_offset = 0x0
; extrusion_axis = E
; extrusion_multiplier = 1
; fan_always_on = 0
; fan_below_layer_time = 60
; filament_colour = #FFFFFF
; filament_cost = 0
; filament_density = 0
; filament_diameter = 3
; filament_max_volumetric_speed = 0
; filament_notes = ""
; first_layer_acceleration = 0
; first_layer_bed_temperature = 0
; first_layer_extrusion_width = 200%
; first_layer_speed = 30
; first_layer_temperature = 205
; gcode_arcs = 0
; gcode_comments = 0
; gcode_flavor = reprap
; has_heatbed = 1
; infill_acceleration = 0
; infill_first = 0
; interior_brim_width = 0
; layer_gcode = 
; max_fan_speed = 100
; max_layer_height = 0.3
; max_print_speed = 80
; max_volumetric_speed = 0
; min_fan_speed = 35
; min_layer_height = 0.15
; min_print_speed = 10
; min_skirt_length = 0
; notes = 
; nozzle_diameter = 0.5
; only_retract_when_crossing_perimeters = 1
; ooze_prevention = 0
; output_filename_format = [input_filename_base].gcode
; perimeter_acceleration = 0
; post_process = 
; pressure_advance = 0
; printer_notes = 
; resolution = 0
; retract_before_travel = 2
; retract_layer_change = 0
; retract_length = 2
; retract_length_toolchange = 10
; retract_lift = 0
; retract_lift_above = 0
; retract_lift_below = 0
; retract_restart_extra = 0
; retract_restart_extra_toolchange = 0
; retract_speed = 40
; skirt_distance = 6
; skirt_height = 1
; skirts = 0
; slowdown_below_layer_time = 5
; spiral_vase = 0
; standby_temperature_delta = -5
; start_filament_gcode = "; Filament gcode\n"
; start_gcode = G28 ; home all axes\nG1 Z5 F5000 ; lift nozzle\n
; temperature = 200
; threads = 8
; toolchange_gcode = 
; travel_speed = 130
; use_firmware_retraction = 0
; use_relative_e_distances = 0
; use_set_and_wait_bed = 0
; use_set_and_wait_extruder = 0
; use_volumetric_e = 0
; vibration_limit = 0
; wipe = 0
; z_offset = 0
; z_steps_per_mm = 0
; adaptive_slicing = 0
; adaptive_slicing_quality = 75%
; dont_support_bridges = 1
; extrusion_width = 0
; first_layer_height = 0.3
; infill_only_where_needed = 0
; interface_shells = 0
; layer_height = 0.3
; match_horizontal_surfaces = 0
; raft_layers = 0
; regions_overlap = 0
; seam_position = aligned
; sequential_print_priority = 0
; support_material = 0
; support_material_angle = 0
; support_material_buildplate_only = 0
; support_material_contact_distance = 0.2
; support_material_enforce_layers = 0
; support_material_extruder = 1
; support_material_extrusion_width = 0
; support_material_interface_extruder = 1
; support_material_interface_extrusion_width = 0
; support_material_interface_layers = 3
; support_material_interface_spacing = 0
; support_material_interface_speed = 100%
; support_material_max_layers = 0
; support_material_pattern = pillars
; support_material_spacing = 2.5
; support_material_speed = 60
; support_material_threshold = 60%
; xy_size_compensation = 0
; bottom_infill_pattern = rectilinear
; bottom_solid_layers = 0
; bridge_flow_ratio = 1
; bridge_speed = 60
; external_perimeter_extrusion_width = 0
; external_perimeter_speed = 50%
; external_perimeters_first = 0
; extra_perimeters = 1
; fill_angle = 45
; fill_density = 90%
; fill_gaps = 1
; fill_pattern = rectilinear
; gap_fill_speed = 20
; infill_every_layers = 1
; infill_extruder = 1
; infill_extrusion_width = 0
; infill_overlap = 55%
; infill_speed = 80
; overhangs = 1
; perimeter_extruder = 1
; perimeter_extrusion_width = 0
; perimeter_speed = 60
; perimeters = 0
; small_perimeter_speed = 15
; solid_infill_below_area = 70
; solid_infill_every_layers = 0
; solid_infill_extruder = 1
; solid_infill_extrusion_width = 0
; solid_infill_speed = 20
; thin_walls = 1
; top_infill_extrusion_width = 0
; top_infill_pattern = rectilinear
; top_solid_infill_speed = 15
; top_solid_layers = 0
