%
(Header)
(Generated by gcodetools from Inkscape.)
(Using default header. To add your own header create file "header" in the output dir.)
M3
(Header end.)
G21 (All units in mm)

(Start cutting path id: path863)
(Change tool to Default tool)

G00 Z0.000000
G00 X13.129909 Y19.082305

G01 Z-1.000000 F100.0(Penetrate)
G03 X12.576862 Y19.801386 Z-1.000000 I-14.356444 J-10.469358 F400.000000
G02 X12.021250 Y20.559867 Z-1.000000 I7.468760 J6.053854
G02 X11.641504 Y21.299678 Z-1.000000 I3.194259 J2.106985
G03 X11.354088 Y22.037430 Z-1.000000 I-60.257553 J-23.050493
G03 X10.470531 Y24.172828 Z-1.000000 I-72.954573 J-28.935682
G02 X9.968089 Y26.470117 Z-1.000000 I5.666437 J2.442901
G02 X10.907527 Y28.676816 Z-1.000000 I2.900540 J0.068498
G02 X13.456495 Y28.908398 Z-1.000000 I1.426289 J-1.555092
G02 X15.848183 Y25.123828 Z-1.000000 I-2.760190 J-4.392332
G03 X16.960339 Y21.709083 Z-1.000000 I9.091338 J1.072495
G03 X17.588073 Y24.483145 Z-1.000000 I-5.566329 J2.717642
G02 X18.757144 Y28.111230 Z-1.000000 I6.043384 J0.055048
G02 X20.213299 Y29.230091 Z-1.000000 I2.651843 J-1.944276
G02 X22.105606 Y29.073969 Z-1.000000 I0.786384 J-2.014575
G02 X22.919265 Y27.977165 Z-1.000000 I-0.905808 J-1.522176
G02 X23.019747 Y26.634291 Z-1.000000 I-3.912837 J-0.967979
G02 X21.855377 Y22.271326 Z-1.000000 I-13.462180 J1.255877
G03 X21.123850 Y19.574826 Z-1.000000 I7.798475 J-3.563106
G03 X23.104025 Y21.401059 Z-1.000000 I-8.205827 J10.884197
G02 X25.786982 Y23.663833 Z-1.000000 I9.182262 J-8.165382
G02 X27.432994 Y24.396747 Z-1.000000 I3.452664 J-5.539351
G02 X29.283665 Y24.311530 Z-1.000000 I0.799490 J-2.775637
G02 X30.640217 Y22.349763 Z-1.000000 I-0.776097 J-1.986575
G02 X29.733824 Y20.114859 Z-1.000000 I-3.119048 J-0.036282
G02 X27.529831 Y18.455125 Z-1.000000 I-6.860623 J6.817126
G02 X25.120820 Y17.252968 Z-1.000000 I-16.427441 J29.904266
G02 X23.873885 Y16.713040 Z-1.000000 I-18.872805 J41.875912
G02 X22.456174 Y16.291354 Z-1.000000 I-2.714679 J6.532749
G00 Z0.000000

(End cutting path id: path863)


(Start cutting path id: path863)
(Change tool to Default tool)

G00 Z0.000000
G00 X13.129909 Y19.082305

G01 Z-1.000000 F100.0(Penetrate)
G03 X12.576862 Y19.801386 Z-1.000000 I-14.356444 J-10.469358 F400.000000
G02 X12.021250 Y20.559867 Z-1.000000 I7.468760 J6.053854
G02 X11.641504 Y21.299678 Z-1.000000 I3.194259 J2.106985
G03 X11.354088 Y22.037430 Z-1.000000 I-60.257553 J-23.050493
G03 X10.470531 Y24.172828 Z-1.000000 I-72.954573 J-28.935682
G02 X9.968089 Y26.470117 Z-1.000000 I5.666437 J2.442901
G02 X10.907527 Y28.676816 Z-1.000000 I2.900540 J0.068498
G02 X13.456495 Y28.908398 Z-1.000000 I1.426289 J-1.555092
G02 X15.848183 Y25.123828 Z-1.000000 I-2.760190 J-4.392332
G03 X16.960339 Y21.709083 Z-1.000000 I9.091338 J1.072495
G03 X17.588073 Y24.483145 Z-1.000000 I-5.566329 J2.717642
G02 X18.757144 Y28.111230 Z-1.000000 I6.043384 J0.055048
G02 X20.213299 Y29.230091 Z-1.000000 I2.651843 J-1.944276
G02 X22.105606 Y29.073969 Z-1.000000 I0.786384 J-2.014575
G02 X22.919265 Y27.977165 Z-1.000000 I-0.905808 J-1.522176
G02 X23.019747 Y26.634291 Z-1.000000 I-3.912837 J-0.967979
G02 X21.855377 Y22.271326 Z-1.000000 I-13.462180 J1.255877
G03 X21.123850 Y19.574826 Z-1.000000 I7.798475 J-3.563106
G03 X23.104025 Y21.401059 Z-1.000000 I-8.205827 J10.884197
G02 X25.786982 Y23.663833 Z-1.000000 I9.182262 J-8.165382
G02 X27.432994 Y24.396747 Z-1.000000 I3.452664 J-5.539351
G02 X29.283665 Y24.311530 Z-1.000000 I0.799490 J-2.775637
G02 X30.640217 Y22.349763 Z-1.000000 I-0.776097 J-1.986575
G02 X29.733824 Y20.114859 Z-1.000000 I-3.119048 J-0.036282
G02 X27.529831 Y18.455125 Z-1.000000 I-6.860623 J6.817126
G02 X25.120820 Y17.252968 Z-1.000000 I-16.427441 J29.904266
G02 X23.873885 Y16.713040 Z-1.000000 I-18.872805 J41.875912
G02 X22.456174 Y16.291354 Z-1.000000 I-2.714679 J6.532749
G00 Z0.000000

(End cutting path id: path863)


(Start cutting path id: path863)
(Change tool to Default tool)

G00 Z0.000000
G00 X24.121578 Y16.619701

G01 Z-1.000000 F100.0(Penetrate)
G03 X26.900200 Y16.602180 Z-1.000000 I1.420395 J4.920879 F400.000000
G02 X31.948313 Y15.948954 Z-1.000000 I1.745217 J-6.345463
G02 X32.812606 Y15.122009 Z-1.000000 I-1.275801 J-2.198558
G02 X33.094110 Y13.992923 Z-1.000000 I-1.531275 J-0.981413
G02 X28.341534 Y11.560642 Z-1.000000 I-3.129266 J0.255148
G03 X24.621199 Y12.187014 Z-1.000000 I-2.652128 J-4.390664
G03 X27.289593 Y10.735037 Z-1.000000 I7.700283 J10.973392
G02 X30.004119 Y7.918499 Z-1.000000 I-1.804246 J-4.455271
G02 X29.395538 Y5.551039 Z-1.000000 I-2.036470 J-0.738455
G02 X26.952765 Y5.078296 Z-1.000000 I-1.626164 J1.855207
G02 X24.459605 Y6.444731 Z-1.000000 I2.881504 J8.215207
G02 X22.289633 Y8.245533 Z-1.000000 I31.873951 J40.616019
G03 X21.566704 Y8.777310 Z-1.000000 I-3.446662 J-3.928314
G02 X20.921503 Y9.294110 Z-1.000000 I1.699450 J2.782835
G02 X20.433142 Y9.905725 Z-1.000000 I2.974662 J2.875984
G03 X19.958067 Y10.545277 Z-1.000000 I-5.578477 J-3.647602
G00 Z0.000000

(End cutting path id: path863)


(Start cutting path id: path863)
(Change tool to Default tool)

G00 Z0.000000
G00 X24.121578 Y16.619701

G01 Z-1.000000 F100.0(Penetrate)
G03 X26.900200 Y16.602180 Z-1.000000 I1.420395 J4.920879 F400.000000
G02 X31.948313 Y15.948954 Z-1.000000 I1.745217 J-6.345463
G02 X32.812606 Y15.122009 Z-1.000000 I-1.275801 J-2.198558
G02 X33.094110 Y13.992923 Z-1.000000 I-1.531275 J-0.981413
G02 X28.341534 Y11.560642 Z-1.000000 I-3.129266 J0.255148
G03 X24.621199 Y12.187014 Z-1.000000 I-2.652128 J-4.390664
G03 X27.289593 Y10.735037 Z-1.000000 I7.700283 J10.973392
G02 X30.004119 Y7.918499 Z-1.000000 I-1.804246 J-4.455271
G02 X29.395538 Y5.551039 Z-1.000000 I-2.036470 J-0.738455
G02 X26.952765 Y5.078296 Z-1.000000 I-1.626164 J1.855207
G02 X24.459605 Y6.444731 Z-1.000000 I2.881504 J8.215207
G02 X22.289633 Y8.245533 Z-1.000000 I31.873951 J40.616019
G03 X21.566704 Y8.777310 Z-1.000000 I-3.446662 J-3.928314
G02 X20.921503 Y9.294110 Z-1.000000 I1.699450 J2.782835
G02 X20.433142 Y9.905725 Z-1.000000 I2.974662 J2.875984
G03 X19.958067 Y10.545277 Z-1.000000 I-5.578477 J-3.647602
G00 Z0.000000

(End cutting path id: path863)


(Start cutting path id: path863)
(Change tool to Default tool)

G00 Z0.000000
G00 X21.123850 Y8.903541

G01 Z-1.000000 F100.0(Penetrate)
G03 X22.932671 Y5.545330 Z-1.000000 I8.792291 J2.569516 F400.000000
G02 X21.622805 Y0.574849 Z-1.000000 I-2.389383 J-2.028162
G02 X18.871912 Y1.782569 Z-1.000000 I-0.746975 J2.035365
G02 X17.881973 Y4.470854 Z-1.000000 I34.093099 J14.080916
G02 X17.312647 Y6.721807 Z-1.000000 I16.682093 J5.416820
G03 X16.960339 Y8.575194 Z-1.000000 I-146.024677 J-26.797487
G00 Z0.000000

(End cutting path id: path863)


(Start cutting path id: path863)
(Change tool to Default tool)

G00 Z0.000000
G00 X21.123850 Y8.903541

G01 Z-1.000000 F100.0(Penetrate)
G03 X22.932671 Y5.545330 Z-1.000000 I8.792291 J2.569516 F400.000000
G02 X21.622805 Y0.574849 Z-1.000000 I-2.389383 J-2.028162
G02 X18.871912 Y1.782569 Z-1.000000 I-0.746975 J2.035365
G02 X17.881973 Y4.470854 Z-1.000000 I34.093099 J14.080916
G02 X17.312647 Y6.721807 Z-1.000000 I16.682093 J5.416820
G03 X16.960339 Y8.575194 Z-1.000000 I-146.024677 J-26.797487
G00 Z0.000000

(End cutting path id: path863)


(Start cutting path id: path863)
(Change tool to Default tool)

G00 Z0.000000
G00 X16.793799 Y9.888583

G01 Z-1.000000 F100.0(Penetrate)
G02 X16.648349 Y8.882462 Z-1.000000 I-4.456441 J0.130672 F400.000000
G03 X16.454889 Y7.918499 Z-1.000000 I7.958131 J-2.098530
G02 X16.354535 Y7.217801 Z-1.000000 I-90.715733 J12.634786
G02 X16.171770 Y6.440937 Z-1.000000 I-4.653325 J0.684810
G02 X15.907488 Y5.716328 Z-1.000000 I-10.960441 J3.587035
G03 X15.628016 Y4.963375 Z-1.000000 I13.413225 J-5.406898
G02 X15.098338 Y3.548190 Z-1.000000 I-23.496654 J7.987650
G02 X14.330832 Y2.172423 Z-1.000000 I-6.075167 J2.487214
G02 X12.774901 Y0.981435 Z-1.000000 I-2.785030 J2.026576
G02 X10.883944 Y1.522951 Z-1.000000 I-0.584691 J1.530617
G02 X10.990008 Y6.329151 Z-1.000000 I3.085045 J2.336189
G03 X12.630288 Y8.903541 Z-1.000000 I-9.426085 J7.815606
G00 Z0.000000

(End cutting path id: path863)


(Start cutting path id: path863)
(Change tool to Default tool)

G00 Z0.000000
G00 X16.793799 Y9.888583

G01 Z-1.000000 F100.0(Penetrate)
G02 X16.648349 Y8.882462 Z-1.000000 I-4.456441 J0.130672 F400.000000
G03 X16.454889 Y7.918499 Z-1.000000 I7.958131 J-2.098530
G02 X16.354535 Y7.217801 Z-1.000000 I-90.715733 J12.634786
G02 X16.171770 Y6.440937 Z-1.000000 I-4.653325 J0.684810
G02 X15.907488 Y5.716328 Z-1.000000 I-10.960441 J3.587035
G03 X15.628016 Y4.963375 Z-1.000000 I13.413225 J-5.406898
G02 X15.098338 Y3.548190 Z-1.000000 I-23.496654 J7.987650
G02 X14.330832 Y2.172423 Z-1.000000 I-6.075167 J2.487214
G02 X12.774901 Y0.981435 Z-1.000000 I-2.785030 J2.026576
G02 X10.883944 Y1.522951 Z-1.000000 I-0.584691 J1.530617
G02 X10.990008 Y6.329151 Z-1.000000 I3.085045 J2.336189
G03 X12.630288 Y8.903541 Z-1.000000 I-9.426085 J7.815606
G00 Z0.000000

(End cutting path id: path863)


(Start cutting path id: path863)
(Change tool to Default tool)

G00 Z0.000000
G00 X11.797585 Y13.172055

G01 Z-1.000000 F100.0(Penetrate)
G03 X10.537123 Y12.966759 Z-1.000000 I2.907696 J-21.824571 F400.000000
G02 X9.132938 Y12.709906 Z-1.000000 I-14.161136 J73.450544
G02 X6.164052 Y12.258132 Z-1.000000 I-12.604186 J72.848795
G02 X3.137483 Y12.480719 Z-1.000000 I-0.975620 J7.422033
G02 X1.286188 Y14.175449 Z-1.000000 I0.768982 J2.698550
G02 X1.989686 Y16.677343 Z-1.000000 I2.032046 J0.778470
G02 X6.166843 Y17.334692 Z-1.000000 I2.689304 J-3.488672
G03 X8.633317 Y17.112221 Z-1.000000 I1.660669 J4.627588
G00 Z0.000000

(End cutting path id: path863)


(Start cutting path id: path863)
(Change tool to Default tool)

G00 Z0.000000
G00 X11.797585 Y13.172055

G01 Z-1.000000 F100.0(Penetrate)
G03 X10.537123 Y12.966759 Z-1.000000 I2.907696 J-21.824571 F400.000000
G02 X9.132938 Y12.709906 Z-1.000000 I-14.161136 J73.450544
G02 X6.164052 Y12.258132 Z-1.000000 I-12.604186 J72.848795
G02 X3.137483 Y12.480719 Z-1.000000 I-0.975620 J7.422033
G02 X1.286188 Y14.175449 Z-1.000000 I0.768982 J2.698550
G02 X1.989686 Y16.677343 Z-1.000000 I2.032046 J0.778470
G02 X6.166843 Y17.334692 Z-1.000000 I2.689304 J-3.488672
G03 X8.633317 Y17.112221 Z-1.000000 I1.660669 J4.627588
G00 Z0.000000

(End cutting path id: path863)


(Start cutting path id: path863)
(Change tool to Default tool)

G00 Z0.000000
G00 X11.297964 Y16.291354

G01 Z-1.000000 F100.0(Penetrate)
G02 X7.469926 Y17.763008 Z-1.000000 I5.124300 J19.043771 F400.000000
G02 X3.987655 Y20.396335 Z-1.000000 I5.650733 J11.091554
G02 X3.098913 Y22.492245 Z-1.000000 I2.462520 J2.280582
G02 X4.143404 Y24.498638 Z-1.000000 I2.214864 J0.122051
G02 X5.953936 Y24.818139 Z-1.000000 I1.303933 J-2.099393
G02 X7.634075 Y24.192077 Z-1.000000 I-1.227813 J-5.862526
G02 X9.915491 Y22.533118 Z-1.000000 I-5.635942 J-10.148793
G02 X11.631045 Y20.888215 Z-1.000000 I-58.492763 J-62.722170
G00 Z0.000000

(End cutting path id: path863)


(Start cutting path id: path863)
(Change tool to Default tool)

G00 Z0.000000
G00 X11.297964 Y16.291354

G01 Z-1.000000 F100.0(Penetrate)
G02 X7.469926 Y17.763008 Z-1.000000 I5.124300 J19.043771 F400.000000
G02 X3.987655 Y20.396335 Z-1.000000 I5.650733 J11.091554
G02 X3.098913 Y22.492245 Z-1.000000 I2.462520 J2.280582
G02 X4.143404 Y24.498638 Z-1.000000 I2.214864 J0.122051
G02 X5.953936 Y24.818139 Z-1.000000 I1.303933 J-2.099393
G02 X7.634075 Y24.192077 Z-1.000000 I-1.227813 J-5.862526
G02 X9.915491 Y22.533118 Z-1.000000 I-5.635942 J-10.148793
G02 X11.631045 Y20.888215 Z-1.000000 I-58.492763 J-62.722170
G00 Z0.000000

(End cutting path id: path863)


(Start cutting path id: path863)
(Change tool to Default tool)

G00 Z0.000000
G00 X16.960339 Y21.709083

G01 Z-1.000000 F100.0(Penetrate)
G01 X16.960339 Y20.888215 Z-1.000000 F400.000000
G00 Z0.000000

(End cutting path id: path863)


(Start cutting path id: path863)
(Change tool to Default tool)

G00 Z0.000000
G00 X16.960339 Y21.709083

G01 Z-1.000000 F100.0(Penetrate)
G01 X16.960339 Y20.888215 Z-1.000000 F400.000000
G00 Z0.000000

(End cutting path id: path863)


(Start cutting path id: path863)
(Change tool to Default tool)

G00 Z0.000000
G00 X21.123850 Y19.574826

G01 Z-1.000000 F100.0(Penetrate)
G01 X20.790769 Y19.246479 Z-1.000000 F400.000000
G00 Z0.000000

(End cutting path id: path863)


(Start cutting path id: path863)
(Change tool to Default tool)

G00 Z0.000000
G00 X21.123850 Y19.574826

G01 Z-1.000000 F100.0(Penetrate)
G01 X20.790769 Y19.246479 Z-1.000000 F400.000000
G00 Z0.000000

(End cutting path id: path863)


(Start cutting path id: path863)
(Change tool to Default tool)

G00 Z0.000000
G00 X21.790012 Y13.007881

G01 Z-1.000000 F100.0(Penetrate)
G01 X24.454659 Y12.351187 Z-1.000000 F400.000000
G00 Z0.000000

(End cutting path id: path863)


(Start cutting path id: path863)
(Change tool to Default tool)

G00 Z0.000000
G00 X21.790012 Y13.007881

G01 Z-1.000000 F100.0(Penetrate)
G01 X24.454659 Y12.351187 Z-1.000000 F400.000000
G00 Z0.000000

(End cutting path id: path863)


(Start cutting path id: path863)
(Change tool to Default tool)

G00 Z0.000000
G00 X10.132181 Y12.679535

G01 Z-1.000000 F100.0(Penetrate)
G02 X7.059881 Y11.193282 Z-1.000000 I-6.218762 J8.936513 F400.000000
G03 X3.638652 Y8.082673 Z-1.000000 I1.553203 J-5.145040
G03 X3.553555 Y6.956064 Z-1.000000 I1.699073 J-0.694856
G03 X4.058984 Y5.965654 Z-1.000000 I2.326117 J0.562900
G03 X5.324309 Y5.242774 Z-1.000000 I1.636718 J1.396053
G03 X6.801373 Y5.326198 Z-1.000000 I0.560330 J3.196887
G03 X10.877317 Y7.555766 Z-1.000000 I-3.087004 J10.483913
G03 X13.796071 Y10.545277 Z-1.000000 I-16.585283 J19.112331
G00 Z0.000000

(End cutting path id: path863)


(Start cutting path id: path863)
(Change tool to Default tool)

G00 Z0.000000
G00 X10.132181 Y12.679535

G01 Z-1.000000 F100.0(Penetrate)
G02 X7.059881 Y11.193282 Z-1.000000 I-6.218762 J8.936513 F400.000000
G03 X3.638652 Y8.082673 Z-1.000000 I1.553203 J-5.145040
G03 X3.553555 Y6.956064 Z-1.000000 I1.699073 J-0.694856
G03 X4.058984 Y5.965654 Z-1.000000 I2.326117 J0.562900
G03 X5.324309 Y5.242774 Z-1.000000 I1.636718 J1.396053
G03 X6.801373 Y5.326198 Z-1.000000 I0.560330 J3.196887
G03 X10.877317 Y7.555766 Z-1.000000 I-3.087004 J10.483913
G03 X13.796071 Y10.545277 Z-1.000000 I-16.585283 J19.112331
G00 Z0.000000

(End cutting path id: path863)


(Footer)
M5
G00 X0.0000 Y0.0000
M2
(Using default footer. To add your own footer create file "footer" in the output dir.)
(end)
%