%
(Header)
(Generated by gcodetools from Inkscape.)
(Using default header. To add your own header create file "header" in the output dir.)
M3
(Header end.)
G21 (All units in mm)

(Start cutting path id: path38)
(Change tool to Cone cutter)

G00 Z0.000000
G00 X10.911788 Y0.218535

G01 Z-1.000000 F100.0(Penetrate)
G03 X10.962957 Y0.424787 Z-1.000000 I-2.526906 J0.736376 F400.000000
G03 X11.050742 Y0.894296 Z-1.000000 I-13.022696 J2.677832
G02 X11.140815 Y1.363505 Z-1.000000 I10.331364 J-1.740050
G02 X11.300360 Y2.051439 Z-1.000000 I22.377987 J-4.827396
G03 X11.469825 Y2.737339 Z-1.000000 I-312.466782 J77.565095
G03 X11.721916 Y3.765725 Z-1.000000 I-704.208449 J173.169342
G02 X12.145860 Y5.217238 Z-1.000000 I16.508717 J-4.034044
G01 X12.223060 Y5.235181 Z-1.000000
G02 X12.244957 Y5.172673 Z-1.000000 I-0.054010 J-0.054010
G02 X12.180950 Y4.859008 Z-1.000000 I-1.773470 J0.198536
G03 X12.091868 Y4.535235 Z-1.000000 I7.110943 J-2.130632
G03 X11.960357 Y3.980011 Z-1.000000 I20.806657 J-5.221467
G02 X11.835904 Y3.422933 Z-1.000000 I-535.452034 J119.329247
G02 X11.662823 Y2.651439 Z-1.000000 I-1025.841069 J229.737716
G03 X11.494457 Y1.878971 Z-1.000000 I59.739815 J-13.425358
G03 X11.391285 Y1.365725 Z-1.000000 I26.213269 J-5.536366
G02 X11.084743 Y0.173465 Z-1.000000 I-9.595691 J1.831607
G02 X10.963389 Y0.051253 Z-1.000000 I-0.181821 J0.059188
G01 X10.912894 Y0.077215 Z-1.000000
G02 X10.911789 Y0.218535 Z-1.000000 I0.235017 J0.072501
G01 X10.911788 Y0.218535 Z-1.000000
G00 Z0.000000

(End cutting path id: path38)


(Start cutting path id: path38)
(Change tool to Cone cutter)

G00 Z0.000000
G00 X10.911788 Y0.218535

G01 Z-1.000000 F100.0(Penetrate)
G03 X10.962957 Y0.424787 Z-1.000000 I-2.526906 J0.736376 F400.000000
G03 X11.050742 Y0.894296 Z-1.000000 I-13.022696 J2.677832
G02 X11.140815 Y1.363505 Z-1.000000 I10.331364 J-1.740050
G02 X11.300360 Y2.051439 Z-1.000000 I22.377987 J-4.827396
G03 X11.469825 Y2.737339 Z-1.000000 I-312.466782 J77.565095
G03 X11.721916 Y3.765725 Z-1.000000 I-704.208449 J173.169342
G02 X12.145860 Y5.217238 Z-1.000000 I16.508717 J-4.034044
G01 X12.223060 Y5.235181 Z-1.000000
G02 X12.244957 Y5.172673 Z-1.000000 I-0.054010 J-0.054010
G02 X12.180950 Y4.859008 Z-1.000000 I-1.773470 J0.198536
G03 X12.091868 Y4.535235 Z-1.000000 I7.110943 J-2.130632
G03 X11.960357 Y3.980011 Z-1.000000 I20.806657 J-5.221467
G02 X11.835904 Y3.422933 Z-1.000000 I-535.452034 J119.329247
G02 X11.662823 Y2.651439 Z-1.000000 I-1025.841069 J229.737716
G03 X11.494457 Y1.878971 Z-1.000000 I59.739815 J-13.425358
G03 X11.391285 Y1.365725 Z-1.000000 I26.213269 J-5.536366
G02 X11.084743 Y0.173465 Z-1.000000 I-9.595691 J1.831607
G02 X10.963389 Y0.051253 Z-1.000000 I-0.181821 J0.059188
G01 X10.912894 Y0.077215 Z-1.000000
G02 X10.911789 Y0.218535 Z-1.000000 I0.235017 J0.072501
G01 X10.911788 Y0.218535 Z-1.000000
G00 Z0.000000

(End cutting path id: path38)


(Start cutting path id: path38)
(Change tool to Cone cutter)

G00 Z0.000000
G00 X10.363945 Y0.546131

G01 Z-1.000000 F100.0(Penetrate)
G02 X10.373716 Y0.639694 Z-1.000000 I0.452848 J0.000000 F400.000000
G02 X10.569079 Y1.517560 Z-1.000000 I40.493559 J-8.550892
G03 X10.773371 Y2.394490 Z-1.000000 I-457.275348 J106.990361
G03 X10.861907 Y2.780010 Z-1.000000 I-88.278869 J20.476480
G02 X11.035185 Y3.492505 Z-1.000000 I23.807752 J-5.412692
G02 X11.561643 Y5.480011 Z-1.000000 I185.901392 J-48.178802
G02 X11.768928 Y6.153299 Z-1.000000 I9.895316 J-2.677918
G02 X11.827007 Y6.247153 Z-1.000000 I0.237797 J-0.082257
G01 X11.872962 Y6.224155 Z-1.000000
G02 X11.655449 Y5.132692 Z-1.000000 I-12.512203 J1.926099
G03 X10.962101 Y2.263330 Z-1.000000 I399.883986 J-98.145702
G03 X10.679193 Y1.028151 Z-1.000000 I73.820002 J-17.557907
G02 X10.533291 Y0.549560 Z-1.000000 I-3.092579 J0.681260
G02 X10.465509 Y0.485294 Z-1.000000 I-0.102675 J0.040414
G02 X10.393967 Y0.493133 Z-1.000000 I-0.027244 J0.081733
G02 X10.363945 Y0.546134 Z-1.000000 I0.031772 J0.053001
G01 X10.363945 Y0.546131 Z-1.000000
G00 Z0.000000

(End cutting path id: path38)


(Start cutting path id: path38)
(Change tool to Cone cutter)

G00 Z0.000000
G00 X10.363945 Y0.546131

G01 Z-1.000000 F100.0(Penetrate)
G02 X10.373716 Y0.639694 Z-1.000000 I0.452848 J0.000000 F400.000000
G02 X10.569079 Y1.517560 Z-1.000000 I40.493559 J-8.550892
G03 X10.773371 Y2.394490 Z-1.000000 I-457.275348 J106.990361
G03 X10.861907 Y2.780010 Z-1.000000 I-88.278869 J20.476480
G02 X11.035185 Y3.492505 Z-1.000000 I23.807752 J-5.412692
G02 X11.561643 Y5.480011 Z-1.000000 I185.901392 J-48.178802
G02 X11.768928 Y6.153299 Z-1.000000 I9.895316 J-2.677918
G02 X11.827007 Y6.247153 Z-1.000000 I0.237797 J-0.082257
G01 X11.872962 Y6.224155 Z-1.000000
G02 X11.655449 Y5.132692 Z-1.000000 I-12.512203 J1.926099
G03 X10.962101 Y2.263330 Z-1.000000 I399.883986 J-98.145702
G03 X10.679193 Y1.028151 Z-1.000000 I73.820002 J-17.557907
G02 X10.533291 Y0.549560 Z-1.000000 I-3.092579 J0.681260
G02 X10.465509 Y0.485294 Z-1.000000 I-0.102675 J0.040414
G02 X10.393967 Y0.493133 Z-1.000000 I-0.027244 J0.081733
G02 X10.363945 Y0.546134 Z-1.000000 I0.031772 J0.053001
G01 X10.363945 Y0.546131 Z-1.000000
G00 Z0.000000

(End cutting path id: path38)


(Start cutting path id: path38)
(Change tool to Cone cutter)

G00 Z0.000000
G00 X13.493609 Y3.755925

G01 Z-1.000000 F100.0(Penetrate)
G02 X13.661917 Y3.817230 Z-1.000000 I0.189918 J-0.259717 F400.000000
G02 X13.862239 Y3.780745 Z-1.000000 I0.027926 J-0.414851
G03 X14.047710 Y3.761979 Z-1.000000 I0.120429 J0.264322
G03 X14.184697 Y3.854835 Z-1.000000 I-0.051257 J0.223092
G02 X14.302663 Y4.021613 Z-1.000000 I8.079646 J-5.589835
G02 X14.368164 Y4.108586 Z-1.000000 I2.266151 J-1.638517
G03 X15.698823 Y6.227956 Z-1.000000 I-9.455408 J7.414052
G03 X15.783484 Y6.991810 Z-1.000000 I-1.017290 J0.499369
G02 X15.780583 Y7.046816 Z-1.000000 I0.147650 J0.035365
G02 X15.861794 Y7.591810 Z-1.000000 I15.013585 J-1.958654
G03 X15.851159 Y8.445913 Z-1.000000 I-2.371580 J0.397589
G03 X15.478120 Y9.576049 Z-1.000000 I-4.583248 J-0.886220
G01 X15.009059 Y10.555459 Z-1.000000
G01 X14.653738 Y10.612279 Z-1.000000
G03 X14.329482 Y10.563395 Z-1.000000 I-0.085350 J-0.533727
G03 X13.722369 Y10.153347 Z-1.000000 I1.192457 J-2.420007
G03 X13.074346 Y9.367375 Z-1.000000 I2.257382 J-2.521308
G03 X12.589444 Y8.256535 Z-1.000000 I4.113309 J-2.456790
G03 X12.464121 Y7.596554 Z-1.000000 I3.324979 J-0.973264
G03 X12.441572 Y6.627963 Z-1.000000 I7.176719 J-0.651636
G03 X12.533509 Y5.664663 Z-1.000000 I9.453453 J0.416193
G03 X12.624846 Y5.384272 Z-1.000000 I0.869276 J0.128095
G02 X12.742374 Y5.108356 Z-1.000000 I-1.645207 J-0.863777
G02 X12.933555 Y4.458559 Z-1.000000 I-8.987783 J-2.997371
G03 X13.268101 Y3.786154 Z-1.000000 I1.734747 J0.443674
G03 X13.493610 Y3.755930 Z-1.000000 I0.128508 J0.102432
G01 X13.493609 Y3.755925 Z-1.000000
G00 Z0.000000

(End cutting path id: path38)


(Start cutting path id: path38)
(Change tool to Cone cutter)

G00 Z0.000000
G00 X13.493609 Y3.755925

G01 Z-1.000000 F100.0(Penetrate)
G02 X13.661917 Y3.817230 Z-1.000000 I0.189918 J-0.259717 F400.000000
G02 X13.862239 Y3.780745 Z-1.000000 I0.027926 J-0.414851
G03 X14.047710 Y3.761979 Z-1.000000 I0.120429 J0.264322
G03 X14.184697 Y3.854835 Z-1.000000 I-0.051257 J0.223092
G02 X14.302663 Y4.021613 Z-1.000000 I8.079646 J-5.589835
G02 X14.368164 Y4.108586 Z-1.000000 I2.266151 J-1.638517
G03 X15.698823 Y6.227956 Z-1.000000 I-9.455408 J7.414052
G03 X15.783484 Y6.991810 Z-1.000000 I-1.017290 J0.499369
G02 X15.780583 Y7.046816 Z-1.000000 I0.147650 J0.035365
G02 X15.861794 Y7.591810 Z-1.000000 I15.013585 J-1.958654
G03 X15.851159 Y8.445913 Z-1.000000 I-2.371580 J0.397589
G03 X15.478120 Y9.576049 Z-1.000000 I-4.583248 J-0.886220
G01 X15.009059 Y10.555459 Z-1.000000
G01 X14.653738 Y10.612279 Z-1.000000
G03 X14.329482 Y10.563395 Z-1.000000 I-0.085350 J-0.533727
G03 X13.722369 Y10.153347 Z-1.000000 I1.192457 J-2.420007
G03 X13.074346 Y9.367375 Z-1.000000 I2.257382 J-2.521308
G03 X12.589444 Y8.256535 Z-1.000000 I4.113309 J-2.456790
G03 X12.464121 Y7.596554 Z-1.000000 I3.324979 J-0.973264
G03 X12.441572 Y6.627963 Z-1.000000 I7.176719 J-0.651636
G03 X12.533509 Y5.664663 Z-1.000000 I9.453453 J0.416193
G03 X12.624846 Y5.384272 Z-1.000000 I0.869276 J0.128095
G02 X12.742374 Y5.108356 Z-1.000000 I-1.645207 J-0.863777
G02 X12.933555 Y4.458559 Z-1.000000 I-8.987783 J-2.997371
G03 X13.268101 Y3.786154 Z-1.000000 I1.734747 J0.443674
G03 X13.493610 Y3.755930 Z-1.000000 I0.128508 J0.102432
G01 X13.493609 Y3.755925 Z-1.000000
G00 Z0.000000

(End cutting path id: path38)


(Start cutting path id: path38)
(Change tool to Cone cutter)

G00 Z0.000000
G00 X19.792516 Y2.751537

G01 Z-1.000000 F100.0(Penetrate)
G03 X19.487373 Y3.141032 Z-1.000000 I-14.787752 J-11.270944 F400.000000
G03 X19.063945 Y3.656444 Z-1.000000 I-26.322039 J-21.192766
G02 X18.412548 Y4.520639 Z-1.000000 I8.024422 J6.726095
G02 X17.802876 Y5.522868 Z-1.000000 I10.194806 J6.888219
G03 X16.366058 Y8.033734 Z-1.000000 I-60.673614 J-33.053347
G03 X16.259059 Y8.094296 Z-1.000000 I-0.106999 J-0.064239
G03 X16.199778 Y8.048132 Z-1.000000 I0.000000 J-0.061144
G03 X16.074957 Y7.365725 Z-1.000000 I5.053632 J-1.276997
G02 X15.898582 Y6.403009 Z-1.000000 I-7.276259 J0.835541
G02 X15.733352 Y6.017034 Z-1.000000 I-1.306343 J0.330870
G03 X15.616810 Y5.819741 Z-1.000000 I3.545953 J-2.227676
G03 X15.364358 Y5.351439 Z-1.000000 I19.762278 J-10.955645
G02 X15.103311 Y4.888275 Z-1.000000 I-7.698986 J4.034124
G02 X14.651745 Y4.172868 Z-1.000000 I-18.833265 J11.387378
G02 X14.014155 Y3.536831 Z-1.000000 I-1.853319 J1.220254
G02 X13.725970 Y3.566557 Z-1.000000 I-0.125811 J0.192100
G03 X13.623447 Y3.599499 Z-1.000000 I-0.083329 J-0.083329
G03 X13.466364 Y3.523697 Z-1.000000 I0.050352 J-0.305002
G02 X13.298614 Y3.403300 Z-1.000000 I-0.614192 J0.678696
G02 X13.209171 Y3.380009 Z-1.000000 I-0.089443 J0.160095
G02 X13.026821 Y3.487922 Z-1.000000 I0.000000 J0.208023
G02 X12.809187 Y4.108580 Z-1.000000 I1.756948 J0.964561
G03 X12.730239 Y4.446514 Z-1.000000 I-2.996373 J-0.521824
G03 X12.444776 Y5.345157 Z-1.000000 I-21.542409 J-6.348498
G02 X12.225013 Y6.250110 Z-1.000000 I4.885117 J1.665483
G02 X12.192573 Y7.038014 Z-1.000000 I3.660393 J0.545329
G03 X12.211599 Y7.805822 Z-1.000000 I-9.391205 J0.616856
G01 X12.179763 Y7.837152 Z-1.000000
G03 X12.128900 Y7.811506 Z-1.000000 I0.000000 J-0.063261
G03 X11.817879 Y7.347803 Z-1.000000 I4.887024 J-3.614045
G02 X10.760014 Y5.843344 Z-1.000000 I-11.578335 J7.017192
G02 X9.808560 Y4.867177 Z-1.000000 I-5.779600 J4.681514
G02 X9.248459 Y4.539213 Z-1.000000 I-1.198250 J1.404133
G02 X8.397853 Y4.347436 Z-1.000000 I-1.151725 J3.126068
G02 X7.960751 Y4.369287 Z-1.000000 I-0.141275 J1.556767
G02 X7.819282 Y4.458953 Z-1.000000 I0.043323 J0.224786
G02 X7.700461 Y4.808951 Z-1.000000 I0.498225 J0.364311
G02 X7.794592 Y5.523431 Z-1.000000 I2.345625 J0.054410
G03 X7.872870 Y5.825010 Z-1.000000 I-4.790618 J1.404411
G03 X7.930367 Y6.122866 Z-1.000000 I-4.615288 J1.045388
G02 X8.365894 Y7.198054 Z-1.000000 I2.553360 J-0.408487
G02 X10.191845 Y9.350952 Z-1.000000 I12.541360 J-8.786008
G03 X10.491083 Y9.747432 Z-1.000000 I-1.169263 J1.193650
G01 X10.434343 Y9.797669 Z-1.000000
G02 X10.164244 Y9.641241 Z-1.000000 I-0.966157 J1.356828
G02 X9.230418 Y9.243894 Z-1.000000 I-7.358675 J15.998033
G03 X8.296427 Y8.845775 Z-1.000000 I6.288552 J-16.047615
G03 X7.952894 Y8.654293 Z-1.000000 I1.083792 J-2.348313
G02 X7.145840 Y8.236609 Z-1.000000 I-2.347490 J3.547310
G02 X5.737465 Y7.793580 Z-1.000000 I-4.066118 J10.465949
G02 X4.855454 Y7.726118 Z-1.000000 I-0.646575 J2.653928
G02 X4.172259 Y7.928998 Z-1.000000 I0.152813 J1.766361
G03 X4.018534 Y7.989069 Z-1.000000 I-0.329162 J-0.615609
G03 X3.865771 Y8.008578 Z-1.000000 I-0.152763 J-0.588353
G02 X3.550540 Y8.165138 Z-1.000000 I-0.000000 J0.395637
G02 X3.304173 Y8.749064 Z-1.000000 I1.022086 J0.775169
G02 X3.344839 Y9.070187 Z-1.000000 I0.588067 J0.088667
G02 X3.581894 Y9.403063 Z-1.000000 I0.872543 J-0.370530
G02 X5.480819 Y10.692040 Z-1.000000 I5.577714 J-6.173866
G02 X6.838866 Y11.008578 Z-1.000000 I1.358047 J-2.754953
G02 X6.881386 Y10.910665 Z-1.000000 I-0.000000 J-0.058189
G02 X6.566656 Y10.717204 Z-1.000000 I-0.509290 J0.475794
G03 X5.199450 Y10.181227 Z-1.000000 I2.262923 J-7.784186
G03 X3.992707 Y9.428088 Z-1.000000 I3.406067 J-6.800830
G03 X3.762356 Y9.146598 Z-1.000000 I0.476917 J-0.625272
G03 X3.678239 Y8.781129 Z-1.000000 I0.751886 J-0.365469
G01 X3.678239 Y8.374025 Z-1.000000
G01 X4.171096 Y8.236607 Z-1.000000
G03 X5.359636 Y8.081455 Z-1.000000 I1.136492 J4.076110
G03 X6.425304 Y8.264337 Z-1.000000 I-0.042353 J3.443106
G03 X7.220322 Y8.571218 Z-1.000000 I-3.363711 J9.897424
G03 X7.621096 Y8.782865 Z-1.000000 I-1.176328 J2.712759
G02 X8.340356 Y9.166451 Z-1.000000 I2.994898 J-4.749575
G02 X9.378239 Y9.561842 Z-1.000000 I4.224427 J-9.529047
G03 X9.879352 Y9.755535 Z-1.000000 I-1.412925 J4.400527
G03 X10.314995 Y9.988050 Z-1.000000 I-1.617071 J3.554134
G02 X10.745363 Y10.196478 Z-1.000000 I1.228114 J-1.987309
G02 X10.909660 Y10.204100 Z-1.000000 I0.094375 J-0.259761
G03 X11.070025 Y10.220911 Z-1.000000 I0.057867 J0.221275
G03 X11.644331 Y10.572386 Z-1.000000 I-1.787326 J3.565412
G02 X12.484725 Y11.138893 Z-1.000000 I7.396428 J-10.065755
G02 X12.629747 Y11.180010 Z-1.000000 I0.145022 J-0.235190
G01 X12.668554 Y11.109343 Z-1.000000
G02 X12.481107 Y10.946279 Z-1.000000 I-0.368517 J0.234350
G03 X11.358948 Y10.247321 Z-1.000000 I2.121665 J-4.656555
G03 X9.999535 Y8.912275 Z-1.000000 I6.737913 J-8.220528
G02 X9.478766 Y8.315558 Z-1.000000 I-23.478510 J19.964639
G02 X9.286997 Y8.116689 Z-1.000000 I-2.793998 J2.502354
G03 X9.069619 Y7.865756 Z-1.000000 I1.278259 J-1.326948
G03 X8.499041 Y7.021453 Z-1.000000 I14.091967 J-10.138273
G03 X8.112048 Y6.128533 Z-1.000000 I2.645575 J-1.676918
G03 X7.963229 Y4.948888 Z-1.000000 I4.526773 J-1.170289
G01 X7.963949 Y4.589194 Z-1.000000
G01 X8.501236 Y4.613814 Z-1.000000
G03 X9.458820 Y4.994813 Z-1.000000 I-0.072192 J1.575314
G03 X11.494030 Y7.194293 Z-1.000000 I-8.706314 J10.097420
G03 X12.291989 Y8.443074 Z-1.000000 I-9.132817 J6.715116
G03 X12.718077 Y9.418036 Z-1.000000 I-5.119214 J2.817840
G03 X13.146234 Y10.993715 Z-1.000000 I-13.959314 J4.639159
G03 X13.084205 Y11.137535 Z-1.000000 I-0.132386 J0.028189
G03 X12.305917 Y11.489479 Z-1.000000 I-1.825203 J-2.999724
G03 X12.005610 Y11.474440 Z-1.000000 I-0.129730 J-0.415329
G02 X11.858487 Y11.437782 Z-1.000000 I-0.188134 J0.441492
G02 X10.492521 Y11.344661 Z-1.000000 I-3.344256 J38.991048
G03 X9.125773 Y11.240377 Z-1.000000 I1.354653 J-26.762602
G03 X8.521092 Y11.143403 Z-1.000000 I0.543133 J-5.320425
G02 X7.919380 Y11.026770 Z-1.000000 I-2.646361 J12.042183
G02 X7.728235 Y11.010067 Z-1.000000 I-0.200479 J1.192179
G02 X7.667166 Y11.100036 Z-1.000000 I-0.000515 J0.065362
G02 X7.813945 Y11.220969 Z-1.000000 I0.185223 J-0.075269
G03 X8.091740 Y11.279133 Z-1.000000 I-2.113532 J10.786900
G03 X8.606802 Y11.397689 Z-1.000000 I-8.292388 J37.203956
G02 X9.503693 Y11.532583 Z-1.000000 I1.250575 J-5.265788
G02 X11.827053 Y11.608579 Z-1.000000 I2.323360 J-35.477183
G01 X11.849019 Y11.657656 Z-1.000000
G03 X11.551130 Y11.917451 Z-1.000000 I-1.186983 J-1.060349
G03 X11.083394 Y12.204261 Z-1.000000 I-3.594202 J-5.336706
G03 X10.943703 Y12.255158 Z-1.000000 I-0.229568 J-0.412920
G03 X10.689542 Y12.267457 Z-1.000000 I-0.169771 J-0.876053
G03 X8.714873 Y12.043430 Z-1.000000 I5.147932 J-54.190832
G02 X8.051382 Y12.006940 Z-1.000000 I-0.570442 J4.321963
G02 X7.086301 Y12.078200 Z-1.000000 I0.197334 J9.243268
G03 X6.120647 Y12.196628 Z-1.000000 I-15.230805 J-120.195212
G03 X5.692516 Y12.243449 Z-1.000000 I-2.790557 J-23.535821
G02 X5.266517 Y12.302063 Z-1.000000 I0.580810 J5.798607
G02 X4.663945 Y12.423856 Z-1.000000 I2.058638 J11.736650
G03 X4.063044 Y12.557037 Z-1.000000 I-9.648813 J-42.112266
G03 X3.678230 Y12.634971 Z-1.000000 I-3.681625 J-17.189811
G02 X3.182172 Y12.771956 Z-1.000000 I0.597940 J3.131958
G02 X2.263945 Y13.151574 Z-1.000000 I4.078538 J11.165573
G03 X1.574167 Y13.458725 Z-1.000000 I-10.650887 J-22.990936
G03 X1.363945 Y13.536369 Z-1.000000 I-0.877419 J-2.052200
G02 X0.702067 Y13.851274 Z-1.000000 I0.782412 J2.497528
G02 X0.369199 Y14.194623 Z-1.000000 I0.614746 J0.929009
G02 X0.207843 Y14.786168 Z-1.000000 I0.920487 J0.568861
G02 X0.390539 Y15.211609 Z-1.000000 I0.616823 J-0.012933
G02 X1.926379 Y15.888442 Z-1.000000 I1.652380 J-1.668560
G02 X3.847176 Y15.383359 Z-1.000000 I0.163191 J-3.284267
G02 X3.935249 Y15.299389 Z-1.000000 I-0.165641 J-0.261907
G01 X3.932026 Y15.262375 Z-1.000000
G02 X3.882551 Y15.239967 Z-1.000000 I-0.054492 J0.054492
G02 X2.391651 Y15.161889 Z-1.000000 I-3.790072 J58.097821
G03 X0.900275 Y15.074360 Z-1.000000 I1.541830 J-39.020074
G03 X0.768099 Y15.035396 Z-1.000000 I0.025804 J-0.331201
G03 X0.689556 Y14.940002 Z-1.000000 I0.077954 J-0.144215
G03 X0.634634 Y14.607573 Z-1.000000 I1.163617 J-0.362999
G03 X0.712194 Y14.293337 Z-1.000000 I0.613246 J-0.015327
G03 X0.950207 Y14.042077 Z-1.000000 I0.612310 J0.341664
G03 X1.279543 Y13.853461 Z-1.000000 I2.357336 J3.734239
G03 X1.346597 Y13.837154 Z-1.000000 I0.067054 J0.129706
G02 X1.415424 Y13.823405 Z-1.000000 I-0.000000 J-0.179141
G02 X2.366042 Y13.412914 Z-1.000000 I-14.977214 J-35.990353
G03 X4.517973 Y12.642614 Z-1.000000 I6.057483 J13.531357
G03 X5.835532 Y12.465452 Z-1.000000 I1.321259 J4.838290
G02 X6.204852 Y12.443150 Z-1.000000 I-0.002622 J-3.112500
G02 X6.978233 Y12.327876 Z-1.000000 I-1.658314 J-13.777727
G03 X8.252778 Y12.216084 Z-1.000000 I1.266139 J7.113823
G03 X9.396108 Y12.330676 Z-1.000000 I-0.006781 J5.828672
G02 X9.586779 Y12.357610 Z-1.000000 I0.325972 J-1.619240
G02 X10.188579 Y12.395816 Z-1.000000 I1.327450 J-16.150649
G03 X10.766160 Y12.447481 Z-1.000000 I-0.292391 J6.523087
G01 X10.792133 Y12.476966 Z-1.000000
G03 X10.639523 Y12.734465 Z-1.000000 I-0.290204 J0.001980
G03 X9.709090 Y13.060115 Z-1.000000 I-1.491863 J-2.770469
G02 X9.202735 Y13.172842 Z-1.000000 I1.168900 J6.444165
G02 X8.516529 Y13.375676 Z-1.000000 I3.184884 J12.036906
G03 X7.832575 Y13.587424 Z-1.000000 I-6.992911 J-21.376902
G03 X7.621091 Y13.637356 Z-1.000000 I-0.581211 J-1.988848
G02 X7.416819 Y13.702183 Z-1.000000 I0.149844 J0.826409
G02 X7.021091 Y13.916332 Z-1.000000 I1.561418 J3.358073
G03 X5.647896 Y14.673263 Z-1.000000 I-7.816150 J-12.555706
G03 X4.976622 Y14.905798 Z-1.000000 I-1.322530 J-2.732653
G02 X4.823344 Y15.032247 Z-1.000000 I0.046738 J0.212779
G02 X4.882932 Y15.122868 Z-1.000000 I0.059588 J0.025719
G02 X5.357312 Y15.024503 Z-1.000000 I-0.000000 J-1.193062
G02 X6.892520 Y14.252025 Z-1.000000 I-5.969524 J-13.775486
G03 X7.508814 Y13.943583 Z-1.000000 I2.900381 J5.025284
G03 X8.178234 Y13.701436 Z-1.000000 I2.437120 J5.691085
G03 X9.900357 Y13.230010 Z-1.000000 I11.402537 J38.272412
G03 X9.978437 Y13.251643 Z-1.000000 I0.019933 J0.079779
G03 X9.989723 Y13.306330 Z-1.000000 I-0.035922 J0.035922
G03 X9.724587 Y13.890231 Z-1.000000 I-6.224856 J-2.474419
G02 X9.461897 Y14.489704 Z-1.000000 I4.765705 J2.445631
G02 X9.421510 Y14.715725 Z-1.000000 I0.618800 J0.227190
G03 X9.377225 Y14.907503 Z-1.000000 I-0.440930 J-0.000816
G03 X9.307050 Y14.951439 Z-1.000000 I-0.070175 J-0.034074
G02 X9.108523 Y15.050219 Z-1.000000 I0.000000 J0.248888
G02 X8.341959 Y16.227830 Z-1.000000 I7.971569 J6.027385
G03 X7.905649 Y16.746146 Z-1.000000 I-1.544103 J-0.857002
G03 X7.106806 Y17.222723 Z-1.000000 I-2.088253 J-2.592552
G02 X6.235622 Y17.644313 Z-1.000000 I3.539796 J8.425639
G02 X5.766129 Y17.961560 Z-1.000000 I1.511974 J2.743588
G03 X5.405623 Y18.244238 Z-1.000000 I-7.305487 J-8.945663
G03 X4.583675 Y18.851440 Z-1.000000 I-34.556043 J-45.917328
G02 X3.799703 Y19.491047 Z-1.000000 I5.215419 J7.192853
G02 X3.553777 Y19.794297 Z-1.000000 I0.893346 J0.975818
G03 X3.328722 Y20.118795 Z-1.000000 I-2.329069 J-1.375029
G03 X3.064798 Y20.399648 Z-1.000000 I-2.003741 J-1.618531
G02 X2.216869 Y21.272668 Z-1.000000 I7.042574 J7.688453
G02 X1.762750 Y21.907083 Z-1.000000 I3.242719 J2.800902
G01 X1.539025 Y22.288840 Z-1.000000
G01 X1.698786 Y22.709716 Z-1.000000
G02 X1.883543 Y23.104551 Z-1.000000 I2.724145 J-1.034079
G02 X1.953405 Y23.162211 Z-1.000000 I0.109651 J-0.061701
G02 X2.447740 Y23.163890 Z-1.000000 I0.249714 J-0.749215
G02 X3.206802 Y22.753874 Z-1.000000 I-0.744994 J-2.286843
G03 X3.300760 Y22.700377 Z-1.000000 I0.214836 J0.268061
G03 X4.093886 Y22.420406 Z-1.000000 I7.316038 J19.462108
G02 X7.202290 Y20.979102 Z-1.000000 I-4.681574 J-14.169100
G02 X8.470630 Y19.741645 Z-1.000000 I-2.083597 J-3.404322
G03 X8.741840 Y19.390476 Z-1.000000 I2.227206 J1.439773
G03 X9.167993 Y18.980011 Z-1.000000 I3.478313 J3.184800
G02 X9.613413 Y18.584559 Z-1.000000 I-8.695836 J-10.243184
G02 X10.206802 Y18.015725 Z-1.000000 I-17.408440 J-18.753841
G03 X10.801427 Y17.461868 Z-1.000000 I9.398742 J9.494438
G03 X10.867136 Y17.437154 Z-1.000000 I0.065709 J0.074995
G03 X10.940584 Y17.449245 Z-1.000000 I-0.000000 J0.229123
G03 X11.266441 Y17.572292 Z-1.000000 I-1.607698 J4.750566
G02 X12.389668 Y17.910208 Z-1.000000 I2.187458 J-5.235330
G02 X13.691150 Y18.035299 Z-1.000000 I1.322339 J-6.924923
G03 X14.229486 Y18.104716 Z-1.000000 I-0.006253 J2.170637
G03 X14.277206 Y18.187154 Z-1.000000 I-0.016780 J0.064744
G02 X14.241687 Y18.338378 Z-1.000000 I2.023753 J0.555122
G02 X14.180536 Y18.680011 Z-1.000000 I10.284458 J2.017156
G03 X13.958934 Y19.500250 Z-1.000000 I-4.066150 J-0.658488
G03 X13.844216 Y19.554387 Z-1.000000 I-0.085686 J-0.032957
G03 X13.795824 Y19.498846 Z-1.000000 I0.022949 J-0.068848
G03 X13.728514 Y18.934048 Z-1.000000 I4.252555 J-0.793208
G01 X13.674667 Y18.932751 Z-1.000000
G02 X13.632344 Y19.883045 Z-1.000000 I8.381446 J0.849373
G03 X13.592524 Y21.497947 Z-1.000000 I-22.051666 J0.264197
G03 X13.509930 Y21.877837 Z-1.000000 I-1.274716 J-0.078220
G02 X13.397556 Y22.254497 Z-1.000000 I2.387041 J0.917247
G02 X13.282500 Y22.929327 Z-1.000000 I7.583175 J1.640131
G03 X13.171341 Y23.603413 Z-1.000000 I-8.761912 J-1.098657
G03 X13.109023 Y23.775865 Z-1.000000 I-0.623147 J-0.127697
G02 X13.040067 Y23.944928 Z-1.000000 I0.774729 J0.414583
G02 X13.021093 Y24.078035 Z-1.000000 I0.457398 J0.133107
G03 X12.703445 Y24.945127 Z-1.000000 I-1.342284 J0.000000
G03 X11.230220 Y26.194299 Z-1.000000 I-4.482862 J-3.793593
G02 X10.927633 Y26.388530 Z-1.000000 I2.827171 J4.737194
G02 X10.484599 Y26.707974 Z-1.000000 I7.223148 J10.484674
G03 X10.043244 Y27.022622 Z-1.000000 I-6.086983 J-8.071307
G03 X9.995637 Y27.037153 Z-1.000000 I-0.047607 J-0.070715
G03 X9.949888 Y27.020922 Z-1.000000 I0.000000 J-0.072587
G03 X9.716846 Y26.810834 Z-1.000000 I1.911447 J-2.354593
G01 X9.490528 Y26.584515 Z-1.000000
G01 X9.686373 Y25.975120 Z-1.000000
G02 X9.878601 Y25.364753 Z-1.000000 I-52.081073 J-16.737770
G02 X9.900829 Y25.280010 Z-1.000000 I-0.979795 J-0.302287
G03 X9.924250 Y25.195663 Z-1.000000 I0.748778 J0.162495
G03 X10.280018 Y24.165724 Z-1.000000 I112.538788 J38.297397
G02 X10.709231 Y22.869521 Z-1.000000 I-37.011726 J-12.974897
G02 X11.398626 Y20.579555 Z-1.000000 I-114.851183 J-35.824734
G03 X11.805160 Y19.485177 Z-1.000000 I7.665585 J2.224878
G03 X12.096297 Y19.053782 Z-1.000000 I1.442635 J0.659656
G02 X12.612374 Y18.409286 Z-1.000000 I-3.603648 J-3.414472
G02 X12.675148 Y18.192873 Z-1.000000 I-0.306854 J-0.206319
G01 X12.620118 Y18.172475 Z-1.000000
G02 X11.864162 Y19.085874 Z-1.000000 I9.556968 J8.679155
G02 X11.422092 Y19.869771 Z-1.000000 I2.732253 J2.057423
G02 X10.823404 Y21.680011 Z-1.000000 I14.248258 J5.716346
G02 X10.801454 Y21.765872 Z-1.000000 I6.180552 J1.625771
G02 X10.668999 Y22.301907 Z-1.000000 I242.748050 J60.267636
G03 X10.519802 Y22.832764 Z-1.000000 I-8.150662 J-2.004354
G03 X10.275208 Y23.544764 Z-1.000000 I-14.914324 J-4.725503
G02 X9.321172 Y26.324408 Z-1.000000 I56.620630 J20.987020
G02 X9.249659 Y26.787716 Z-1.000000 I1.465058 J0.463309
G02 X9.314142 Y26.973634 Z-1.000000 I0.300262 J-0.000000
G02 X9.425792 Y27.011087 Z-1.000000 I0.084443 J-0.066586
G03 X9.566890 Y27.033038 Z-1.000000 I0.045303 J0.173255
G03 X9.680814 Y27.172519 Z-1.000000 I-0.152443 J0.240777
G02 X9.782308 Y27.347231 Z-1.000000 I0.582111 J-0.221327
G02 X9.851794 Y27.380011 Z-1.000000 I0.069486 J-0.057258
G02 X10.148520 Y27.298877 Z-1.000000 I-0.000000 J-0.583168
G02 X10.814192 Y26.811186 Z-1.000000 I-2.135259 J-3.612664
G03 X11.146315 Y26.550175 Z-1.000000 I2.180646 J2.432945
G03 X11.234377 Y26.522868 Z-1.000000 I0.088062 J0.128338
G02 X11.642192 Y26.347411 Z-1.000000 I0.000000 J-0.561673
G02 X12.857867 Y24.808581 Z-1.000000 I-7.957341 J-7.535903
G02 X13.185030 Y24.145397 Z-1.000000 I-2.569523 J-1.679893
G02 X13.459565 Y23.094296 Z-1.000000 I-6.251544 J-2.194230
G03 X13.606979 Y22.363443 Z-1.000000 I14.329510 J2.509994
G03 X13.787402 Y21.659667 Z-1.000000 I13.467161 J3.077472
G02 X13.944041 Y20.754737 Z-1.000000 I-4.179837 J-1.189531
G02 X13.876392 Y20.303736 Z-1.000000 I-1.069318 J-0.070179
G03 X13.841666 Y20.082224 Z-1.000000 I0.507956 J-0.193108
G03 X13.895152 Y19.945342 Z-1.000000 I0.233125 J0.012201
G02 X14.129533 Y19.505161 Z-1.000000 I-0.949669 J-0.788156
G02 X14.474834 Y17.972868 Z-1.000000 I-11.746412 J-3.452097
G01 X14.487038 Y17.961708 Z-1.000000
G03 X14.778236 Y17.951438 Z-1.000000 I0.291198 J4.123217
G03 X15.007177 Y18.022494 Z-1.000000 I0.000000 J0.404350
G03 X15.078236 Y18.157513 Z-1.000000 I-0.092745 J0.135019
G02 X15.104504 Y18.359102 Z-1.000000 I0.786670 J-0.000000
G02 X15.299786 Y18.993227 Z-1.000000 I8.101513 J-2.147773
G03 X15.746830 Y20.622657 Z-1.000000 I-11.301969 J3.976805
G03 X15.879401 Y21.894295 Z-1.000000 I-6.727228 J1.344056
G03 X15.815881 Y23.378141 Z-1.000000 I-13.929504 J0.146997
G03 X15.594293 Y24.851439 Z-1.000000 I-13.952577 J-1.345198
G03 X15.498369 Y25.186272 Z-1.000000 I-2.230918 J-0.457962
G03 X15.108217 Y26.160419 Z-1.000000 I-19.374555 J-7.194424
G01 X14.692516 Y27.126542 Z-1.000000
G01 X14.420629 Y27.079223 Z-1.000000
G02 X14.167335 Y27.073206 Z-1.000000 I-0.146742 J0.843007
G02 X14.094141 Y27.120242 Z-1.000000 I0.012549 J0.099995
G03 X14.025307 Y27.183056 Z-1.000000 I-0.144665 J-0.089407
G03 X13.916821 Y27.208582 Z-1.000000 I-0.108486 J-0.217771
G03 X13.853629 Y27.149170 Z-1.000000 I0.000000 J-0.063313
G03 X13.797835 Y25.280487 Z-1.000000 I29.357686 J-1.811714
G02 X13.761019 Y23.363300 Z-1.000000 I-45.283039 J-0.089369
G02 X13.713935 Y23.201916 Z-1.000000 I-0.348354 J0.014072
G01 X13.663604 Y23.214271 Z-1.000000
G02 X13.609083 Y25.483290 Z-1.000000 I51.761116 J2.378902
G02 X13.668528 Y27.288992 Z-1.000000 I25.809428 J0.054161
G02 X13.743101 Y27.453043 Z-1.000000 I0.256049 J-0.017417
G02 X13.888799 Y27.522592 Z-1.000000 I0.171142 J-0.171142
G02 X14.049883 Y27.485473 Z-1.000000 I0.026674 J-0.252331
G03 X14.225468 Y27.403409 Z-1.000000 I0.425034 J0.680523
G03 X14.372282 Y27.380007 Z-1.000000 I0.146814 J0.448824
G02 X14.695917 Y27.207439 Z-1.000000 I-0.000000 J-0.389757
G02 X15.714112 Y25.380541 Z-1.000000 I-10.523883 J-7.062525
G02 X16.024568 Y24.231981 Z-1.000000 I-3.361697 J-1.524905
G02 X16.086559 Y21.746412 Z-1.000000 I-16.036478 J-1.643514
G03 X16.173300 Y21.484378 Z-1.000000 I0.379235 J-0.019837
G03 X16.283497 Y21.508577 Z-1.000000 I0.048869 J0.040466
G02 X16.875473 Y23.221747 Z-1.000000 I11.938315 J-3.166358
G02 X17.481502 Y24.294291 Z-1.000000 I5.241223 J-2.254004
G03 X17.817259 Y24.767531 Z-1.000000 I-43.419721 J31.161403
G03 X18.209909 Y25.332859 Z-1.000000 I-61.600738 J43.204041
G02 X18.616471 Y25.885839 Z-1.000000 I8.982305 J-6.178009
G02 X18.809638 Y26.096955 Z-1.000000 I1.490692 J-1.170025
G02 X19.020178 Y26.198779 Z-1.000000 I0.267710 J-0.284964
G02 X19.176940 Y26.151245 Z-1.000000 I0.028048 J-0.189760
G03 X19.345875 Y26.037863 Z-1.000000 I0.474206 J0.524002
G03 X19.474822 Y26.008576 Z-1.000000 I0.128947 J0.269232
G02 X19.644579 Y25.885919 Z-1.000000 I0.000000 J-0.178800
G02 X19.934920 Y24.617371 Z-1.000000 I-6.554294 J-2.167625
G02 X20.009707 Y22.960780 Z-1.000000 I-9.627573 J-1.264622
G02 X19.837030 Y22.194291 Z-1.000000 I-2.178097 J0.087994
G03 X19.735500 Y21.934138 Z-1.000000 I4.185460 J-1.783339
G03 X19.532486 Y21.337148 Z-1.000000 I21.850748 J-7.763660
G02 X19.317814 Y20.746540 Z-1.000000 I-8.680845 J2.820959
G02 X19.214099 Y20.547037 Z-1.000000 I-1.083884 J0.436767
G03 X19.125155 Y20.352528 Z-1.000000 I0.613021 J-0.397909
G03 X19.127249 Y20.247265 Z-1.000000 I0.170037 J-0.049269
G01 X19.171485 Y20.232670 Z-1.000000
G03 X19.276079 Y20.351662 Z-1.000000 I-0.192896 J0.275020
G02 X19.519350 Y20.771996 Z-1.000000 I5.172307 J-2.712950
G02 X20.356513 Y22.051315 Z-1.000000 I48.847633 J-31.051401
G02 X22.107653 Y24.036191 Z-1.000000 I8.451323 J-5.691210
G02 X23.024384 Y24.380005 Z-1.000000 I0.916731 J-1.050255
G02 X23.162677 Y24.334145 Z-1.000000 I-0.000000 J-0.231443
G02 X23.553634 Y23.985614 Z-1.000000 I-1.786996 J-2.398064
G02 X23.784835 Y23.453293 Z-1.000000 I-0.624358 J-0.587544
G02 X23.638694 Y22.667776 Z-1.000000 I-1.621580 J-0.104666
G01 X23.242252 Y21.808576 Z-1.000000
G02 X23.011016 Y21.345771 Z-1.000000 I-7.557420 J3.486816
G02 X22.918788 Y21.208576 Z-1.000000 I-0.748104 J0.403311
G03 X22.824510 Y21.072313 Z-1.000000 I0.761288 J-0.627462
G03 X22.531503 Y20.534021 Z-1.000000 I11.710692 J-6.723360
G02 X22.214466 Y20.013065 Z-1.000000 I-3.825880 J1.971356
G02 X21.792778 Y19.493994 Z-1.000000 I-4.219785 J2.997289
G03 X21.354902 Y18.992301 Z-1.000000 I8.334389 J-7.716159
G03 X21.335380 Y18.937829 Z-1.000000 I0.066234 J-0.054472
G03 X21.409180 Y18.885760 Z-1.000000 I0.055268 J0.000000
G03 X22.878238 Y19.486933 Z-1.000000 I-5.723685 J16.082216
G02 X24.305767 Y19.983905 Z-1.000000 I3.192064 J-6.870311
G02 X26.092523 Y20.256785 Z-1.000000 I2.523036 J-10.534173
G02 X27.248630 Y20.178813 Z-1.000000 I0.291814 J-4.283078
G02 X27.467692 Y19.974141 Z-1.000000 I-0.057856 J-0.281492
G03 X27.526106 Y19.797527 Z-1.000000 I1.836378 J0.509404
G03 X27.609149 Y19.607498 Z-1.000000 I2.211993 J0.853486
G02 X27.622004 Y19.430143 Z-1.000000 I-0.213416 J-0.104612
G02 X27.453762 Y19.124176 Z-1.000000 I-0.872396 J0.280465
G02 X26.696884 Y18.365954 Z-1.000000 I-4.575603 J3.810611
G02 X25.921095 Y17.843139 Z-1.000000 I-2.911874 J3.483851
G02 X24.424110 Y17.141577 Z-1.000000 I-7.547555 J14.156975
G02 X22.921095 Y16.621502 Z-1.000000 I-5.599914 J13.751850
G03 X22.408572 Y16.468220 Z-1.000000 I6.676928 J-23.258815
G03 X21.935380 Y16.314784 Z-1.000000 I6.210870 J-19.960560
G02 X21.457247 Y16.184644 Z-1.000000 I-1.327382 J3.933375
G02 X20.692523 Y16.055032 Z-1.000000 I-2.080880 J9.956661
G03 X19.542569 Y15.811283 Z-1.000000 I0.962322 J-7.374510
G03 X19.449666 Y15.686870 Z-1.000000 I0.036854 J-0.124413
G01 X19.459720 Y15.659236 Z-1.000000
G03 X19.708839 Y15.377833 Z-1.000000 I5.385158 J4.516373
G02 X19.957513 Y15.092721 Z-1.000000 I-4.052781 J-3.785836
G02 X20.041483 Y14.969102 Z-1.000000 I-0.671159 J-0.546220
G03 X20.142600 Y14.929206 Z-1.000000 I0.074987 J0.041965
G03 X20.918025 Y15.248892 Z-1.000000 I-1.555680 J4.873699
G03 X21.712123 Y15.673447 Z-1.000000 I-11.483784 J22.434451
G03 X21.849666 Y15.768594 Z-1.000000 I-0.423535 J0.759249
G02 X22.358728 Y16.018714 Z-1.000000 I0.755123 J-0.893779
G02 X23.992523 Y16.229539 Z-1.000000 I2.075661 J-9.649434
G02 X26.055178 Y16.232886 Z-1.000000 I1.070072 J-23.879008
G02 X26.778238 Y16.113765 Z-1.000000 I-0.125288 J-3.014543
G02 X28.226349 Y15.535533 Z-1.000000 I-2.314040 J-7.897650
G02 X29.309457 Y14.812726 Z-1.000000 I-2.623571 J-5.104263
G02 X29.502162 Y14.376475 Z-1.000000 I-0.352133 J-0.416235
G02 X29.274217 Y13.853538 Z-1.000000 I-0.779513 J0.028636
G02 X28.812913 Y13.638141 Z-1.000000 I-0.527023 J0.527023
G02 X25.913576 Y13.556056 Z-1.000000 I-2.133058 J24.097064
G03 X24.126189 Y13.592800 Z-1.000000 I-2.545081 J-80.311279
G03 X23.221093 Y13.581446 Z-1.000000 I-0.194231 J-20.596831
G02 X22.354877 Y13.605787 Z-1.000000 I-0.238999 J6.919911
G02 X20.854678 Y13.796693 Z-1.000000 I1.910296 J21.001651
G03 X20.674499 Y13.726206 Z-1.000000 I-0.030667 J-0.187139
G03 X20.536392 Y13.388749 Z-1.000000 I0.531027 J-0.414316
G02 X20.473611 Y12.939355 Z-1.000000 I-9.223347 J1.059425
G02 X20.433168 Y12.762049 Z-1.000000 I-1.471263 J0.242329
G03 X20.498019 Y12.677726 Z-1.000000 I0.063162 J-0.018523
G03 X22.250142 Y12.808699 Z-1.000000 I-0.460879 J17.950737
G02 X23.154144 Y12.833707 Z-1.000000 I0.581988 J-4.686404
G02 X24.806807 Y12.633956 Z-1.000000 I-1.091111 J-15.964091
G02 X26.536026 Y12.196310 Z-1.000000 I-2.025901 J-11.639760
G02 X27.521901 Y11.723814 Z-1.000000 I-1.410582 J-4.207989
G03 X27.898104 Y11.495825 Z-1.000000 I4.647055 J7.243693
G03 X28.278236 Y11.291491 Z-1.000000 I4.110098 J7.190451
G02 X29.466047 Y10.559954 Z-1.000000 I-3.707181 J-7.349526
G02 X29.689093 Y10.247947 Z-1.000000 I-0.369992 J-0.500227
G02 X29.701832 Y10.097087 Z-1.000000 I-0.326113 J-0.103505
G02 X29.620933 Y9.759755 Z-1.000000 I-1.782448 J0.249099
G02 X29.344399 Y9.506276 Z-1.000000 I-0.372038 J0.128295
G02 X28.406803 Y9.456029 Z-1.000000 I-0.598323 J2.391764
G03 X27.719028 Y9.526381 Z-1.000000 I-1.317299 J-9.481108
G03 X26.435374 Y9.585967 Z-1.000000 I-2.175180 J-33.002963
G02 X23.383900 Y9.862181 Z-1.000000 I0.652643 J24.203724
G02 X22.106803 Y10.256049 Z-1.000000 I0.704762 J4.552555
G02 X21.730262 Y10.456139 Z-1.000000 I2.098421 J4.403262
G02 X21.093368 Y10.852791 Z-1.000000 I7.663577 J13.014878
G03 X20.462630 Y11.255640 Z-1.000000 I-15.271296 J-23.214979
G03 X20.427244 Y11.265718 Z-1.000000 I-0.035386 J-0.057084
G02 X20.391780 Y11.275476 Z-1.000000 I0.000000 J0.069319
G02 X20.044156 Y11.493820 Z-1.000000 I4.416135 J7.416819
G01 X19.699472 Y11.721922 Z-1.000000
G01 X19.378095 Y11.408106 Z-1.000000
G02 X19.046670 Y11.118162 Z-1.000000 I-2.810608 J2.878317
G02 X18.974618 Y11.092383 Z-1.000000 I-0.074871 J0.095682
G03 X18.899324 Y11.071468 Z-1.000000 I0.003513 J-0.158631
G03 X18.678232 Y10.922861 Z-1.000000 I0.919281 J-1.606444
G02 X18.451649 Y10.790356 Z-1.000000 I-0.602415 J0.770142
G02 X18.271089 Y10.753339 Z-1.000000 I-0.185324 J0.445098
G03 X18.098699 Y10.731171 Z-1.000000 I0.006932 J-0.735268
G01 X18.078232 Y10.704919 Z-1.000000
G03 X18.091077 Y10.662639 Z-1.000000 I0.076005 J0.000000
G03 X18.410026 Y10.209269 Z-1.000000 I9.935708 J6.650962
G03 X19.051061 Y9.488942 Z-1.000000 I4.269072 J3.153742
G03 X20.330700 Y8.410571 Z-1.000000 I10.926984 J11.667985
G02 X20.734294 Y8.093055 Z-1.000000 I-8.283678 J-10.944600
G02 X21.469670 Y7.479501 Z-1.000000 I-30.212365 J-36.958594
G03 X22.355397 Y6.812671 Z-1.000000 I5.990100 J7.034783
G03 X23.521089 Y6.119889 Z-1.000000 I7.635848 J11.521167
G03 X24.405491 Y5.724714 Z-1.000000 I3.389523 J6.398529
G03 X25.245535 Y5.484013 Z-1.000000 I2.038696 J5.528794
G03 X25.485199 Y5.508336 Z-1.000000 I0.081333 J0.391513
G03 X25.738392 Y5.696534 Z-1.000000 I-0.271538 J0.629731
G03 X25.932427 Y5.976084 Z-1.000000 I-1.405622 J1.182751
G03 X25.963946 Y6.096015 Z-1.000000 I-0.212409 J0.119931
G03 X25.837668 Y6.584371 Z-1.000000 I-1.007448 J0.000000
G03 X25.109859 Y7.637093 Z-1.000000 I-5.672434 J-3.143738
G03 X24.788528 Y7.975164 Z-1.000000 I-3.160816 J-2.682552
G03 X24.348532 Y8.352768 Z-1.000000 I-4.388296 J-4.668238
G03 X22.103765 Y9.786166 Z-1.000000 I-8.590017 J-10.977956
G03 X20.588126 Y10.275257 Z-1.000000 I-2.268774 J-4.437738
G02 X19.657123 Y10.521220 Z-1.000000 I0.683729 J4.472979
G02 X19.195578 Y10.807208 Z-1.000000 I0.513414 J1.344007
G01 X19.222174 Y10.864462 Z-1.000000
G02 X19.708013 Y10.742728 Z-1.000000 I-0.260446 J-2.069785
G03 X20.183909 Y10.583054 Z-1.000000 I2.131283 J5.563105
G03 X20.571544 Y10.492937 Z-1.000000 I1.040693 J3.597743
G02 X20.949940 Y10.378228 Z-1.000000 I-0.290254 J-1.638944
G02 X22.628433 Y9.590620 Z-1.000000 I-14.701501 J-33.513115
G02 X24.236787 Y8.680261 Z-1.000000 I-8.114886 J-16.212712
G02 X24.956387 Y8.111420 Z-1.000000 I-2.395292 J-3.769691
G02 X26.011161 Y6.792047 Z-1.000000 I-4.739584 J-4.870373
G02 X26.221089 Y6.047738 Z-1.000000 I-1.214529 J-0.744309
G02 X25.964459 Y5.436642 Z-1.000000 I-0.855896 J-0.000000
G02 X25.336231 Y5.180011 Z-1.000000 I-0.628228 J0.640630
G02 X25.132504 Y5.207964 Z-1.000000 I-0.000000 J0.756375
G02 X25.071094 Y5.254161 Z-1.000000 I0.028455 J0.101739
G03 X25.008619 Y5.302624 Z-1.000000 I-0.096101 J-0.059386
G03 X24.688372 Y5.373496 Z-1.000000 I-0.578736 J-1.856139
G02 X23.908149 Y5.612290 Z-1.000000 I0.332846 J2.481545
G02 X22.578232 Y6.420750 Z-1.000000 I4.049708 J8.159863
G03 X22.053594 Y6.768479 Z-1.000000 I-4.005173 J-5.473188
G03 X21.935374 Y6.805137 Z-1.000000 I-0.134592 J-0.225095
G02 X21.821026 Y6.846391 Z-1.000000 I0.013468 J0.216431
G02 X21.366081 Y7.220482 Z-1.000000 I3.003102 J4.115861
G03 X20.918625 Y7.620034 Z-1.000000 I-11.898388 J-12.874615
G03 X20.350284 Y8.096758 Z-1.000000 I-17.511295 J-20.299471
G02 X18.555256 Y9.685264 Z-1.000000 I18.791212 J23.042723
G02 X18.147786 Y10.210149 Z-1.000000 I1.582040 J1.648744
G01 X17.896735 Y10.654570 Z-1.000000
G01 X17.548135 Y10.531577 Z-1.000000
G02 X17.196055 Y10.427631 Z-1.000000 I-1.172188 J3.322135
G02 X17.017455 Y10.404540 Z-1.000000 I-0.197430 J0.824782
G01 X16.986823 Y10.343056 Z-1.000000
G03 X17.392517 Y9.884138 Z-1.000000 I2.502348 J1.803351
G03 X17.964543 Y9.386583 Z-1.000000 I8.171258 J8.816679
G03 X18.379120 Y9.079196 Z-1.000000 I3.521534 J4.316278
G02 X18.778102 Y8.757202 Z-1.000000 I-1.638975 J-2.439039
G02 X19.279120 Y8.212816 Z-1.000000 I-4.243566 J-4.408247
G03 X19.753602 Y7.638357 Z-1.000000 I41.680205 J33.943107
G03 X20.028232 Y7.318557 Z-1.000000 I13.186822 J11.046451
G02 X20.290579 Y6.995969 Z-1.000000 I-3.999529 J-3.520613
G02 X20.306803 Y6.947316 Z-1.000000 I-0.064838 J-0.048653
G03 X20.321179 Y6.897082 Z-1.000000 I0.094954 J0.000000
G03 X20.608862 Y6.462798 Z-1.000000 I8.010963 J4.994278
G02 X21.100168 Y5.462707 Z-1.000000 I-2.933186 J-2.061688
G02 X21.258957 Y4.365727 Z-1.000000 I-3.388689 J-1.050497
G02 X21.198031 Y3.492846 Z-1.000000 I-7.735045 J0.101331
G02 X21.087111 Y3.012009 Z-1.000000 I-2.440993 J0.309878
G02 X20.925934 Y2.744765 Z-1.000000 I-0.690866 J0.234440
G02 X20.732980 Y2.638105 Z-1.000000 I-0.264363 J0.250386
G03 X20.516934 Y2.556467 Z-1.000000 I0.138840 J-0.694117
G03 X20.443544 Y2.470394 Z-1.000000 I0.085117 J-0.146899
G02 X20.254076 Y2.390651 Z-1.000000 I-0.132994 J0.051032
G02 X19.792517 Y2.751539 Z-1.000000 I0.458770 J1.062344
G01 X19.792516 Y2.751537 Z-1.000000
G00 Z0.000000

(End cutting path id: path38)


(Start cutting path id: path38)
(Change tool to Cone cutter)

G00 Z0.000000
G00 X19.792516 Y2.751537

G01 Z-1.000000 F100.0(Penetrate)
G03 X19.487373 Y3.141032 Z-1.000000 I-14.787752 J-11.270944 F400.000000
G03 X19.063945 Y3.656444 Z-1.000000 I-26.322039 J-21.192766
G02 X18.412548 Y4.520639 Z-1.000000 I8.024422 J6.726095
G02 X17.802876 Y5.522868 Z-1.000000 I10.194806 J6.888219
G03 X16.366058 Y8.033734 Z-1.000000 I-60.673614 J-33.053347
G03 X16.259059 Y8.094296 Z-1.000000 I-0.106999 J-0.064239
G03 X16.199778 Y8.048132 Z-1.000000 I0.000000 J-0.061144
G03 X16.074957 Y7.365725 Z-1.000000 I5.053632 J-1.276997
G02 X15.898582 Y6.403009 Z-1.000000 I-7.276259 J0.835541
G02 X15.733352 Y6.017034 Z-1.000000 I-1.306343 J0.330870
G03 X15.616810 Y5.819741 Z-1.000000 I3.545953 J-2.227676
G03 X15.364358 Y5.351439 Z-1.000000 I19.762278 J-10.955645
G02 X15.103311 Y4.888275 Z-1.000000 I-7.698986 J4.034124
G02 X14.651745 Y4.172868 Z-1.000000 I-18.833265 J11.387378
G02 X14.014155 Y3.536831 Z-1.000000 I-1.853319 J1.220254
G02 X13.725970 Y3.566557 Z-1.000000 I-0.125811 J0.192100
G03 X13.623447 Y3.599499 Z-1.000000 I-0.083329 J-0.083329
G03 X13.466364 Y3.523697 Z-1.000000 I0.050352 J-0.305002
G02 X13.298614 Y3.403300 Z-1.000000 I-0.614192 J0.678696
G02 X13.209171 Y3.380009 Z-1.000000 I-0.089443 J0.160095
G02 X13.026821 Y3.487922 Z-1.000000 I0.000000 J0.208023
G02 X12.809187 Y4.108580 Z-1.000000 I1.756948 J0.964561
G03 X12.730239 Y4.446514 Z-1.000000 I-2.996373 J-0.521824
G03 X12.444776 Y5.345157 Z-1.000000 I-21.542409 J-6.348498
G02 X12.225013 Y6.250110 Z-1.000000 I4.885117 J1.665483
G02 X12.192573 Y7.038014 Z-1.000000 I3.660393 J0.545329
G03 X12.211599 Y7.805822 Z-1.000000 I-9.391205 J0.616856
G01 X12.179763 Y7.837152 Z-1.000000
G03 X12.128900 Y7.811506 Z-1.000000 I0.000000 J-0.063261
G03 X11.817879 Y7.347803 Z-1.000000 I4.887024 J-3.614045
G02 X10.760014 Y5.843344 Z-1.000000 I-11.578335 J7.017192
G02 X9.808560 Y4.867177 Z-1.000000 I-5.779600 J4.681514
G02 X9.248459 Y4.539213 Z-1.000000 I-1.198250 J1.404133
G02 X8.397853 Y4.347436 Z-1.000000 I-1.151725 J3.126068
G02 X7.960751 Y4.369287 Z-1.000000 I-0.141275 J1.556767
G02 X7.819282 Y4.458953 Z-1.000000 I0.043323 J0.224786
G02 X7.700461 Y4.808951 Z-1.000000 I0.498225 J0.364311
G02 X7.794592 Y5.523431 Z-1.000000 I2.345625 J0.054410
G03 X7.872870 Y5.825010 Z-1.000000 I-4.790618 J1.404411
G03 X7.930367 Y6.122866 Z-1.000000 I-4.615288 J1.045388
G02 X8.365894 Y7.198054 Z-1.000000 I2.553360 J-0.408487
G02 X10.191845 Y9.350952 Z-1.000000 I12.541360 J-8.786008
G03 X10.491083 Y9.747432 Z-1.000000 I-1.169263 J1.193650
G01 X10.434343 Y9.797669 Z-1.000000
G02 X10.164244 Y9.641241 Z-1.000000 I-0.966157 J1.356828
G02 X9.230418 Y9.243894 Z-1.000000 I-7.358675 J15.998033
G03 X8.296427 Y8.845775 Z-1.000000 I6.288552 J-16.047615
G03 X7.952894 Y8.654293 Z-1.000000 I1.083792 J-2.348313
G02 X7.145840 Y8.236609 Z-1.000000 I-2.347490 J3.547310
G02 X5.737465 Y7.793580 Z-1.000000 I-4.066118 J10.465949
G02 X4.855454 Y7.726118 Z-1.000000 I-0.646575 J2.653928
G02 X4.172259 Y7.928998 Z-1.000000 I0.152813 J1.766361
G03 X4.018534 Y7.989069 Z-1.000000 I-0.329162 J-0.615609
G03 X3.865771 Y8.008578 Z-1.000000 I-0.152763 J-0.588353
G02 X3.550540 Y8.165138 Z-1.000000 I-0.000000 J0.395637
G02 X3.304173 Y8.749064 Z-1.000000 I1.022086 J0.775169
G02 X3.344839 Y9.070187 Z-1.000000 I0.588067 J0.088667
G02 X3.581894 Y9.403063 Z-1.000000 I0.872543 J-0.370530
G02 X5.480819 Y10.692040 Z-1.000000 I5.577714 J-6.173866
G02 X6.838866 Y11.008578 Z-1.000000 I1.358047 J-2.754953
G02 X6.881386 Y10.910665 Z-1.000000 I-0.000000 J-0.058189
G02 X6.566656 Y10.717204 Z-1.000000 I-0.509290 J0.475794
G03 X5.199450 Y10.181227 Z-1.000000 I2.262923 J-7.784186
G03 X3.992707 Y9.428088 Z-1.000000 I3.406067 J-6.800830
G03 X3.762356 Y9.146598 Z-1.000000 I0.476917 J-0.625272
G03 X3.678239 Y8.781129 Z-1.000000 I0.751886 J-0.365469
G01 X3.678239 Y8.374025 Z-1.000000
G01 X4.171096 Y8.236607 Z-1.000000
G03 X5.359636 Y8.081455 Z-1.000000 I1.136492 J4.076110
G03 X6.425304 Y8.264337 Z-1.000000 I-0.042353 J3.443106
G03 X7.220322 Y8.571218 Z-1.000000 I-3.363711 J9.897424
G03 X7.621096 Y8.782865 Z-1.000000 I-1.176328 J2.712759
G02 X8.340356 Y9.166451 Z-1.000000 I2.994898 J-4.749575
G02 X9.378239 Y9.561842 Z-1.000000 I4.224427 J-9.529047
G03 X9.879352 Y9.755535 Z-1.000000 I-1.412925 J4.400527
G03 X10.314995 Y9.988050 Z-1.000000 I-1.617071 J3.554134
G02 X10.745363 Y10.196478 Z-1.000000 I1.228114 J-1.987309
G02 X10.909660 Y10.204100 Z-1.000000 I0.094375 J-0.259761
G03 X11.070025 Y10.220911 Z-1.000000 I0.057867 J0.221275
G03 X11.644331 Y10.572386 Z-1.000000 I-1.787326 J3.565412
G02 X12.484725 Y11.138893 Z-1.000000 I7.396428 J-10.065755
G02 X12.629747 Y11.180010 Z-1.000000 I0.145022 J-0.235190
G01 X12.668554 Y11.109343 Z-1.000000
G02 X12.481107 Y10.946279 Z-1.000000 I-0.368517 J0.234350
G03 X11.358948 Y10.247321 Z-1.000000 I2.121665 J-4.656555
G03 X9.999535 Y8.912275 Z-1.000000 I6.737913 J-8.220528
G02 X9.478766 Y8.315558 Z-1.000000 I-23.478510 J19.964639
G02 X9.286997 Y8.116689 Z-1.000000 I-2.793998 J2.502354
G03 X9.069619 Y7.865756 Z-1.000000 I1.278259 J-1.326948
G03 X8.499041 Y7.021453 Z-1.000000 I14.091967 J-10.138273
G03 X8.112048 Y6.128533 Z-1.000000 I2.645575 J-1.676918
G03 X7.963229 Y4.948888 Z-1.000000 I4.526773 J-1.170289
G01 X7.963949 Y4.589194 Z-1.000000
G01 X8.501236 Y4.613814 Z-1.000000
G03 X9.458820 Y4.994813 Z-1.000000 I-0.072192 J1.575314
G03 X11.494030 Y7.194293 Z-1.000000 I-8.706314 J10.097420
G03 X12.291989 Y8.443074 Z-1.000000 I-9.132817 J6.715116
G03 X12.718077 Y9.418036 Z-1.000000 I-5.119214 J2.817840
G03 X13.146234 Y10.993715 Z-1.000000 I-13.959314 J4.639159
G03 X13.084205 Y11.137535 Z-1.000000 I-0.132386 J0.028189
G03 X12.305917 Y11.489479 Z-1.000000 I-1.825203 J-2.999724
G03 X12.005610 Y11.474440 Z-1.000000 I-0.129730 J-0.415329
G02 X11.858487 Y11.437782 Z-1.000000 I-0.188134 J0.441492
G02 X10.492521 Y11.344661 Z-1.000000 I-3.344256 J38.991048
G03 X9.125773 Y11.240377 Z-1.000000 I1.354653 J-26.762602
G03 X8.521092 Y11.143403 Z-1.000000 I0.543133 J-5.320425
G02 X7.919380 Y11.026770 Z-1.000000 I-2.646361 J12.042183
G02 X7.728235 Y11.010067 Z-1.000000 I-0.200479 J1.192179
G02 X7.667166 Y11.100036 Z-1.000000 I-0.000515 J0.065362
G02 X7.813945 Y11.220969 Z-1.000000 I0.185223 J-0.075269
G03 X8.091740 Y11.279133 Z-1.000000 I-2.113532 J10.786900
G03 X8.606802 Y11.397689 Z-1.000000 I-8.292388 J37.203956
G02 X9.503693 Y11.532583 Z-1.000000 I1.250575 J-5.265788
G02 X11.827053 Y11.608579 Z-1.000000 I2.323360 J-35.477183
G01 X11.849019 Y11.657656 Z-1.000000
G03 X11.551130 Y11.917451 Z-1.000000 I-1.186983 J-1.060349
G03 X11.083394 Y12.204261 Z-1.000000 I-3.594202 J-5.336706
G03 X10.943703 Y12.255158 Z-1.000000 I-0.229568 J-0.412920
G03 X10.689542 Y12.267457 Z-1.000000 I-0.169771 J-0.876053
G03 X8.714873 Y12.043430 Z-1.000000 I5.147932 J-54.190832
G02 X8.051382 Y12.006940 Z-1.000000 I-0.570442 J4.321963
G02 X7.086301 Y12.078200 Z-1.000000 I0.197334 J9.243268
G03 X6.120647 Y12.196628 Z-1.000000 I-15.230805 J-120.195212
G03 X5.692516 Y12.243449 Z-1.000000 I-2.790557 J-23.535821
G02 X5.266517 Y12.302063 Z-1.000000 I0.580810 J5.798607
G02 X4.663945 Y12.423856 Z-1.000000 I2.058638 J11.736650
G03 X4.063044 Y12.557037 Z-1.000000 I-9.648813 J-42.112266
G03 X3.678230 Y12.634971 Z-1.000000 I-3.681625 J-17.189811
G02 X3.182172 Y12.771956 Z-1.000000 I0.597940 J3.131958
G02 X2.263945 Y13.151574 Z-1.000000 I4.078538 J11.165573
G03 X1.574167 Y13.458725 Z-1.000000 I-10.650887 J-22.990936
G03 X1.363945 Y13.536369 Z-1.000000 I-0.877419 J-2.052200
G02 X0.702067 Y13.851274 Z-1.000000 I0.782412 J2.497528
G02 X0.369199 Y14.194623 Z-1.000000 I0.614746 J0.929009
G02 X0.207843 Y14.786168 Z-1.000000 I0.920487 J0.568861
G02 X0.390539 Y15.211609 Z-1.000000 I0.616823 J-0.012933
G02 X1.926379 Y15.888442 Z-1.000000 I1.652380 J-1.668560
G02 X3.847176 Y15.383359 Z-1.000000 I0.163191 J-3.284267
G02 X3.935249 Y15.299389 Z-1.000000 I-0.165641 J-0.261907
G01 X3.932026 Y15.262375 Z-1.000000
G02 X3.882551 Y15.239967 Z-1.000000 I-0.054492 J0.054492
G02 X2.391651 Y15.161889 Z-1.000000 I-3.790072 J58.097821
G03 X0.900275 Y15.074360 Z-1.000000 I1.541830 J-39.020074
G03 X0.768099 Y15.035396 Z-1.000000 I0.025804 J-0.331201
G03 X0.689556 Y14.940002 Z-1.000000 I0.077954 J-0.144215
G03 X0.634634 Y14.607573 Z-1.000000 I1.163617 J-0.362999
G03 X0.712194 Y14.293337 Z-1.000000 I0.613246 J-0.015327
G03 X0.950207 Y14.042077 Z-1.000000 I0.612310 J0.341664
G03 X1.279543 Y13.853461 Z-1.000000 I2.357336 J3.734239
G03 X1.346597 Y13.837154 Z-1.000000 I0.067054 J0.129706
G02 X1.415424 Y13.823405 Z-1.000000 I-0.000000 J-0.179141
G02 X2.366042 Y13.412914 Z-1.000000 I-14.977214 J-35.990353
G03 X4.517973 Y12.642614 Z-1.000000 I6.057483 J13.531357
G03 X5.835532 Y12.465452 Z-1.000000 I1.321259 J4.838290
G02 X6.204852 Y12.443150 Z-1.000000 I-0.002622 J-3.112500
G02 X6.978233 Y12.327876 Z-1.000000 I-1.658314 J-13.777727
G03 X8.252778 Y12.216084 Z-1.000000 I1.266139 J7.113823
G03 X9.396108 Y12.330676 Z-1.000000 I-0.006781 J5.828672
G02 X9.586779 Y12.357610 Z-1.000000 I0.325972 J-1.619240
G02 X10.188579 Y12.395816 Z-1.000000 I1.327450 J-16.150649
G03 X10.766160 Y12.447481 Z-1.000000 I-0.292391 J6.523087
G01 X10.792133 Y12.476966 Z-1.000000
G03 X10.639523 Y12.734465 Z-1.000000 I-0.290204 J0.001980
G03 X9.709090 Y13.060115 Z-1.000000 I-1.491863 J-2.770469
G02 X9.202735 Y13.172842 Z-1.000000 I1.168900 J6.444165
G02 X8.516529 Y13.375676 Z-1.000000 I3.184884 J12.036906
G03 X7.832575 Y13.587424 Z-1.000000 I-6.992911 J-21.376902
G03 X7.621091 Y13.637356 Z-1.000000 I-0.581211 J-1.988848
G02 X7.416819 Y13.702183 Z-1.000000 I0.149844 J0.826409
G02 X7.021091 Y13.916332 Z-1.000000 I1.561418 J3.358073
G03 X5.647896 Y14.673263 Z-1.000000 I-7.816150 J-12.555706
G03 X4.976622 Y14.905798 Z-1.000000 I-1.322530 J-2.732653
G02 X4.823344 Y15.032247 Z-1.000000 I0.046738 J0.212779
G02 X4.882932 Y15.122868 Z-1.000000 I0.059588 J0.025719
G02 X5.357312 Y15.024503 Z-1.000000 I-0.000000 J-1.193062
G02 X6.892520 Y14.252025 Z-1.000000 I-5.969524 J-13.775486
G03 X7.508814 Y13.943583 Z-1.000000 I2.900381 J5.025284
G03 X8.178234 Y13.701436 Z-1.000000 I2.437120 J5.691085
G03 X9.900357 Y13.230010 Z-1.000000 I11.402537 J38.272412
G03 X9.978437 Y13.251643 Z-1.000000 I0.019933 J0.079779
G03 X9.989723 Y13.306330 Z-1.000000 I-0.035922 J0.035922
G03 X9.724587 Y13.890231 Z-1.000000 I-6.224856 J-2.474419
G02 X9.461897 Y14.489704 Z-1.000000 I4.765705 J2.445631
G02 X9.421510 Y14.715725 Z-1.000000 I0.618800 J0.227190
G03 X9.377225 Y14.907503 Z-1.000000 I-0.440930 J-0.000816
G03 X9.307050 Y14.951439 Z-1.000000 I-0.070175 J-0.034074
G02 X9.108523 Y15.050219 Z-1.000000 I0.000000 J0.248888
G02 X8.341959 Y16.227830 Z-1.000000 I7.971569 J6.027385
G03 X7.905649 Y16.746146 Z-1.000000 I-1.544103 J-0.857002
G03 X7.106806 Y17.222723 Z-1.000000 I-2.088253 J-2.592552
G02 X6.235622 Y17.644313 Z-1.000000 I3.539796 J8.425639
G02 X5.766129 Y17.961560 Z-1.000000 I1.511974 J2.743588
G03 X5.405623 Y18.244238 Z-1.000000 I-7.305487 J-8.945663
G03 X4.583675 Y18.851440 Z-1.000000 I-34.556043 J-45.917328
G02 X3.799703 Y19.491047 Z-1.000000 I5.215419 J7.192853
G02 X3.553777 Y19.794297 Z-1.000000 I0.893346 J0.975818
G03 X3.328722 Y20.118795 Z-1.000000 I-2.329069 J-1.375029
G03 X3.064798 Y20.399648 Z-1.000000 I-2.003741 J-1.618531
G02 X2.216869 Y21.272668 Z-1.000000 I7.042574 J7.688453
G02 X1.762750 Y21.907083 Z-1.000000 I3.242719 J2.800902
G01 X1.539025 Y22.288840 Z-1.000000
G01 X1.698786 Y22.709716 Z-1.000000
G02 X1.883543 Y23.104551 Z-1.000000 I2.724145 J-1.034079
G02 X1.953405 Y23.162211 Z-1.000000 I0.109651 J-0.061701
G02 X2.447740 Y23.163890 Z-1.000000 I0.249714 J-0.749215
G02 X3.206802 Y22.753874 Z-1.000000 I-0.744994 J-2.286843
G03 X3.300760 Y22.700377 Z-1.000000 I0.214836 J0.268061
G03 X4.093886 Y22.420406 Z-1.000000 I7.316038 J19.462108
G02 X7.202290 Y20.979102 Z-1.000000 I-4.681574 J-14.169100
G02 X8.470630 Y19.741645 Z-1.000000 I-2.083597 J-3.404322
G03 X8.741840 Y19.390476 Z-1.000000 I2.227206 J1.439773
G03 X9.167993 Y18.980011 Z-1.000000 I3.478313 J3.184800
G02 X9.613413 Y18.584559 Z-1.000000 I-8.695836 J-10.243184
G02 X10.206802 Y18.015725 Z-1.000000 I-17.408440 J-18.753841
G03 X10.801427 Y17.461868 Z-1.000000 I9.398742 J9.494438
G03 X10.867136 Y17.437154 Z-1.000000 I0.065709 J0.074995
G03 X10.940584 Y17.449245 Z-1.000000 I-0.000000 J0.229123
G03 X11.266441 Y17.572292 Z-1.000000 I-1.607698 J4.750566
G02 X12.389668 Y17.910208 Z-1.000000 I2.187458 J-5.235330
G02 X13.691150 Y18.035299 Z-1.000000 I1.322339 J-6.924923
G03 X14.229486 Y18.104716 Z-1.000000 I-0.006253 J2.170637
G03 X14.277206 Y18.187154 Z-1.000000 I-0.016780 J0.064744
G02 X14.241687 Y18.338378 Z-1.000000 I2.023753 J0.555122
G02 X14.180536 Y18.680011 Z-1.000000 I10.284458 J2.017156
G03 X13.958934 Y19.500250 Z-1.000000 I-4.066150 J-0.658488
G03 X13.844216 Y19.554387 Z-1.000000 I-0.085686 J-0.032957
G03 X13.795824 Y19.498846 Z-1.000000 I0.022949 J-0.068848
G03 X13.728514 Y18.934048 Z-1.000000 I4.252555 J-0.793208
G01 X13.674667 Y18.932751 Z-1.000000
G02 X13.632344 Y19.883045 Z-1.000000 I8.381446 J0.849373
G03 X13.592524 Y21.497947 Z-1.000000 I-22.051666 J0.264197
G03 X13.509930 Y21.877837 Z-1.000000 I-1.274716 J-0.078220
G02 X13.397556 Y22.254497 Z-1.000000 I2.387041 J0.917247
G02 X13.282500 Y22.929327 Z-1.000000 I7.583175 J1.640131
G03 X13.171341 Y23.603413 Z-1.000000 I-8.761912 J-1.098657
G03 X13.109023 Y23.775865 Z-1.000000 I-0.623147 J-0.127697
G02 X13.040067 Y23.944928 Z-1.000000 I0.774729 J0.414583
G02 X13.021093 Y24.078035 Z-1.000000 I0.457398 J0.133107
G03 X12.703445 Y24.945127 Z-1.000000 I-1.342284 J0.000000
G03 X11.230220 Y26.194299 Z-1.000000 I-4.482862 J-3.793593
G02 X10.927633 Y26.388530 Z-1.000000 I2.827171 J4.737194
G02 X10.484599 Y26.707974 Z-1.000000 I7.223148 J10.484674
G03 X10.043244 Y27.022622 Z-1.000000 I-6.086983 J-8.071307
G03 X9.995637 Y27.037153 Z-1.000000 I-0.047607 J-0.070715
G03 X9.949888 Y27.020922 Z-1.000000 I0.000000 J-0.072587
G03 X9.716846 Y26.810834 Z-1.000000 I1.911447 J-2.354593
G01 X9.490528 Y26.584515 Z-1.000000
G01 X9.686373 Y25.975120 Z-1.000000
G02 X9.878601 Y25.364753 Z-1.000000 I-52.081073 J-16.737770
G02 X9.900829 Y25.280010 Z-1.000000 I-0.979795 J-0.302287
G03 X9.924250 Y25.195663 Z-1.000000 I0.748778 J0.162495
G03 X10.280018 Y24.165724 Z-1.000000 I112.538788 J38.297397
G02 X10.709231 Y22.869521 Z-1.000000 I-37.011726 J-12.974897
G02 X11.398626 Y20.579555 Z-1.000000 I-114.851183 J-35.824734
G03 X11.805160 Y19.485177 Z-1.000000 I7.665585 J2.224878
G03 X12.096297 Y19.053782 Z-1.000000 I1.442635 J0.659656
G02 X12.612374 Y18.409286 Z-1.000000 I-3.603648 J-3.414472
G02 X12.675148 Y18.192873 Z-1.000000 I-0.306854 J-0.206319
G01 X12.620118 Y18.172475 Z-1.000000
G02 X11.864162 Y19.085874 Z-1.000000 I9.556968 J8.679155
G02 X11.422092 Y19.869771 Z-1.000000 I2.732253 J2.057423
G02 X10.823404 Y21.680011 Z-1.000000 I14.248258 J5.716346
G02 X10.801454 Y21.765872 Z-1.000000 I6.180552 J1.625771
G02 X10.668999 Y22.301907 Z-1.000000 I242.748050 J60.267636
G03 X10.519802 Y22.832764 Z-1.000000 I-8.150662 J-2.004354
G03 X10.275208 Y23.544764 Z-1.000000 I-14.914324 J-4.725503
G02 X9.321172 Y26.324408 Z-1.000000 I56.620630 J20.987020
G02 X9.249659 Y26.787716 Z-1.000000 I1.465058 J0.463309
G02 X9.314142 Y26.973634 Z-1.000000 I0.300262 J-0.000000
G02 X9.425792 Y27.011087 Z-1.000000 I0.084443 J-0.066586
G03 X9.566890 Y27.033038 Z-1.000000 I0.045303 J0.173255
G03 X9.680814 Y27.172519 Z-1.000000 I-0.152443 J0.240777
G02 X9.782308 Y27.347231 Z-1.000000 I0.582111 J-0.221327
G02 X9.851794 Y27.380011 Z-1.000000 I0.069486 J-0.057258
G02 X10.148520 Y27.298877 Z-1.000000 I-0.000000 J-0.583168
G02 X10.814192 Y26.811186 Z-1.000000 I-2.135259 J-3.612664
G03 X11.146315 Y26.550175 Z-1.000000 I2.180646 J2.432945
G03 X11.234377 Y26.522868 Z-1.000000 I0.088062 J0.128338
G02 X11.642192 Y26.347411 Z-1.000000 I0.000000 J-0.561673
G02 X12.857867 Y24.808581 Z-1.000000 I-7.957341 J-7.535903
G02 X13.185030 Y24.145397 Z-1.000000 I-2.569523 J-1.679893
G02 X13.459565 Y23.094296 Z-1.000000 I-6.251544 J-2.194230
G03 X13.606979 Y22.363443 Z-1.000000 I14.329510 J2.509994
G03 X13.787402 Y21.659667 Z-1.000000 I13.467161 J3.077472
G02 X13.944041 Y20.754737 Z-1.000000 I-4.179837 J-1.189531
G02 X13.876392 Y20.303736 Z-1.000000 I-1.069318 J-0.070179
G03 X13.841666 Y20.082224 Z-1.000000 I0.507956 J-0.193108
G03 X13.895152 Y19.945342 Z-1.000000 I0.233125 J0.012201
G02 X14.129533 Y19.505161 Z-1.000000 I-0.949669 J-0.788156
G02 X14.474834 Y17.972868 Z-1.000000 I-11.746412 J-3.452097
G01 X14.487038 Y17.961708 Z-1.000000
G03 X14.778236 Y17.951438 Z-1.000000 I0.291198 J4.123217
G03 X15.007177 Y18.022494 Z-1.000000 I0.000000 J0.404350
G03 X15.078236 Y18.157513 Z-1.000000 I-0.092745 J0.135019
G02 X15.104504 Y18.359102 Z-1.000000 I0.786670 J-0.000000
G02 X15.299786 Y18.993227 Z-1.000000 I8.101513 J-2.147773
G03 X15.746830 Y20.622657 Z-1.000000 I-11.301969 J3.976805
G03 X15.879401 Y21.894295 Z-1.000000 I-6.727228 J1.344056
G03 X15.815881 Y23.378141 Z-1.000000 I-13.929504 J0.146997
G03 X15.594293 Y24.851439 Z-1.000000 I-13.952577 J-1.345198
G03 X15.498369 Y25.186272 Z-1.000000 I-2.230918 J-0.457962
G03 X15.108217 Y26.160419 Z-1.000000 I-19.374555 J-7.194424
G01 X14.692516 Y27.126542 Z-1.000000
G01 X14.420629 Y27.079223 Z-1.000000
G02 X14.167335 Y27.073206 Z-1.000000 I-0.146742 J0.843007
G02 X14.094141 Y27.120242 Z-1.000000 I0.012549 J0.099995
G03 X14.025307 Y27.183056 Z-1.000000 I-0.144665 J-0.089407
G03 X13.916821 Y27.208582 Z-1.000000 I-0.108486 J-0.217771
G03 X13.853629 Y27.149170 Z-1.000000 I0.000000 J-0.063313
G03 X13.797835 Y25.280487 Z-1.000000 I29.357686 J-1.811714
G02 X13.761019 Y23.363300 Z-1.000000 I-45.283039 J-0.089369
G02 X13.713935 Y23.201916 Z-1.000000 I-0.348354 J0.014072
G01 X13.663604 Y23.214271 Z-1.000000
G02 X13.609083 Y25.483290 Z-1.000000 I51.761116 J2.378902
G02 X13.668528 Y27.288992 Z-1.000000 I25.809428 J0.054161
G02 X13.743101 Y27.453043 Z-1.000000 I0.256049 J-0.017417
G02 X13.888799 Y27.522592 Z-1.000000 I0.171142 J-0.171142
G02 X14.049883 Y27.485473 Z-1.000000 I0.026674 J-0.252331
G03 X14.225468 Y27.403409 Z-1.000000 I0.425034 J0.680523
G03 X14.372282 Y27.380007 Z-1.000000 I0.146814 J0.448824
G02 X14.695917 Y27.207439 Z-1.000000 I-0.000000 J-0.389757
G02 X15.714112 Y25.380541 Z-1.000000 I-10.523883 J-7.062525
G02 X16.024568 Y24.231981 Z-1.000000 I-3.361697 J-1.524905
G02 X16.086559 Y21.746412 Z-1.000000 I-16.036478 J-1.643514
G03 X16.173300 Y21.484378 Z-1.000000 I0.379235 J-0.019837
G03 X16.283497 Y21.508577 Z-1.000000 I0.048869 J0.040466
G02 X16.875473 Y23.221747 Z-1.000000 I11.938315 J-3.166358
G02 X17.481502 Y24.294291 Z-1.000000 I5.241223 J-2.254004
G03 X17.817259 Y24.767531 Z-1.000000 I-43.419721 J31.161403
G03 X18.209909 Y25.332859 Z-1.000000 I-61.600738 J43.204041
G02 X18.616471 Y25.885839 Z-1.000000 I8.982305 J-6.178009
G02 X18.809638 Y26.096955 Z-1.000000 I1.490692 J-1.170025
G02 X19.020178 Y26.198779 Z-1.000000 I0.267710 J-0.284964
G02 X19.176940 Y26.151245 Z-1.000000 I0.028048 J-0.189760
G03 X19.345875 Y26.037863 Z-1.000000 I0.474206 J0.524002
G03 X19.474822 Y26.008576 Z-1.000000 I0.128947 J0.269232
G02 X19.644579 Y25.885919 Z-1.000000 I0.000000 J-0.178800
G02 X19.934920 Y24.617371 Z-1.000000 I-6.554294 J-2.167625
G02 X20.009707 Y22.960780 Z-1.000000 I-9.627573 J-1.264622
G02 X19.837030 Y22.194291 Z-1.000000 I-2.178097 J0.087994
G03 X19.735500 Y21.934138 Z-1.000000 I4.185460 J-1.783339
G03 X19.532486 Y21.337148 Z-1.000000 I21.850748 J-7.763660
G02 X19.317814 Y20.746540 Z-1.000000 I-8.680845 J2.820959
G02 X19.214099 Y20.547037 Z-1.000000 I-1.083884 J0.436767
G03 X19.125155 Y20.352528 Z-1.000000 I0.613021 J-0.397909
G03 X19.127249 Y20.247265 Z-1.000000 I0.170037 J-0.049269
G01 X19.171485 Y20.232670 Z-1.000000
G03 X19.276079 Y20.351662 Z-1.000000 I-0.192896 J0.275020
G02 X19.519350 Y20.771996 Z-1.000000 I5.172307 J-2.712950
G02 X20.356513 Y22.051315 Z-1.000000 I48.847633 J-31.051401
G02 X22.107653 Y24.036191 Z-1.000000 I8.451323 J-5.691210
G02 X23.024384 Y24.380005 Z-1.000000 I0.916731 J-1.050255
G02 X23.162677 Y24.334145 Z-1.000000 I-0.000000 J-0.231443
G02 X23.553634 Y23.985614 Z-1.000000 I-1.786996 J-2.398064
G02 X23.784835 Y23.453293 Z-1.000000 I-0.624358 J-0.587544
G02 X23.638694 Y22.667776 Z-1.000000 I-1.621580 J-0.104666
G01 X23.242252 Y21.808576 Z-1.000000
G02 X23.011016 Y21.345771 Z-1.000000 I-7.557420 J3.486816
G02 X22.918788 Y21.208576 Z-1.000000 I-0.748104 J0.403311
G03 X22.824510 Y21.072313 Z-1.000000 I0.761288 J-0.627462
G03 X22.531503 Y20.534021 Z-1.000000 I11.710692 J-6.723360
G02 X22.214466 Y20.013065 Z-1.000000 I-3.825880 J1.971356
G02 X21.792778 Y19.493994 Z-1.000000 I-4.219785 J2.997289
G03 X21.354902 Y18.992301 Z-1.000000 I8.334389 J-7.716159
G03 X21.335380 Y18.937829 Z-1.000000 I0.066234 J-0.054472
G03 X21.409180 Y18.885760 Z-1.000000 I0.055268 J0.000000
G03 X22.878238 Y19.486933 Z-1.000000 I-5.723685 J16.082216
G02 X24.305767 Y19.983905 Z-1.000000 I3.192064 J-6.870311
G02 X26.092523 Y20.256785 Z-1.000000 I2.523036 J-10.534173
G02 X27.248630 Y20.178813 Z-1.000000 I0.291814 J-4.283078
G02 X27.467692 Y19.974141 Z-1.000000 I-0.057856 J-0.281492
G03 X27.526106 Y19.797527 Z-1.000000 I1.836378 J0.509404
G03 X27.609149 Y19.607498 Z-1.000000 I2.211993 J0.853486
G02 X27.622004 Y19.430143 Z-1.000000 I-0.213416 J-0.104612
G02 X27.453762 Y19.124176 Z-1.000000 I-0.872396 J0.280465
G02 X26.696884 Y18.365954 Z-1.000000 I-4.575603 J3.810611
G02 X25.921095 Y17.843139 Z-1.000000 I-2.911874 J3.483851
G02 X24.424110 Y17.141577 Z-1.000000 I-7.547555 J14.156975
G02 X22.921095 Y16.621502 Z-1.000000 I-5.599914 J13.751850
G03 X22.408572 Y16.468220 Z-1.000000 I6.676928 J-23.258815
G03 X21.935380 Y16.314784 Z-1.000000 I6.210870 J-19.960560
G02 X21.457247 Y16.184644 Z-1.000000 I-1.327382 J3.933375
G02 X20.692523 Y16.055032 Z-1.000000 I-2.080880 J9.956661
G03 X19.542569 Y15.811283 Z-1.000000 I0.962322 J-7.374510
G03 X19.449666 Y15.686870 Z-1.000000 I0.036854 J-0.124413
G01 X19.459720 Y15.659236 Z-1.000000
G03 X19.708839 Y15.377833 Z-1.000000 I5.385158 J4.516373
G02 X19.957513 Y15.092721 Z-1.000000 I-4.052781 J-3.785836
G02 X20.041483 Y14.969102 Z-1.000000 I-0.671159 J-0.546220
G03 X20.142600 Y14.929206 Z-1.000000 I0.074987 J0.041965
G03 X20.918025 Y15.248892 Z-1.000000 I-1.555680 J4.873699
G03 X21.712123 Y15.673447 Z-1.000000 I-11.483784 J22.434451
G03 X21.849666 Y15.768594 Z-1.000000 I-0.423535 J0.759249
G02 X22.358728 Y16.018714 Z-1.000000 I0.755123 J-0.893779
G02 X23.992523 Y16.229539 Z-1.000000 I2.075661 J-9.649434
G02 X26.055178 Y16.232886 Z-1.000000 I1.070072 J-23.879008
G02 X26.778238 Y16.113765 Z-1.000000 I-0.125288 J-3.014543
G02 X28.226349 Y15.535533 Z-1.000000 I-2.314040 J-7.897650
G02 X29.309457 Y14.812726 Z-1.000000 I-2.623571 J-5.104263
G02 X29.502162 Y14.376475 Z-1.000000 I-0.352133 J-0.416235
G02 X29.274217 Y13.853538 Z-1.000000 I-0.779513 J0.028636
G02 X28.812913 Y13.638141 Z-1.000000 I-0.527023 J0.527023
G02 X25.913576 Y13.556056 Z-1.000000 I-2.133058 J24.097064
G03 X24.126189 Y13.592800 Z-1.000000 I-2.545081 J-80.311279
G03 X23.221093 Y13.581446 Z-1.000000 I-0.194231 J-20.596831
G02 X22.354877 Y13.605787 Z-1.000000 I-0.238999 J6.919911
G02 X20.854678 Y13.796693 Z-1.000000 I1.910296 J21.001651
G03 X20.674499 Y13.726206 Z-1.000000 I-0.030667 J-0.187139
G03 X20.536392 Y13.388749 Z-1.000000 I0.531027 J-0.414316
G02 X20.473611 Y12.939355 Z-1.000000 I-9.223347 J1.059425
G02 X20.433168 Y12.762049 Z-1.000000 I-1.471263 J0.242329
G03 X20.498019 Y12.677726 Z-1.000000 I0.063162 J-0.018523
G03 X22.250142 Y12.808699 Z-1.000000 I-0.460879 J17.950737
G02 X23.154144 Y12.833707 Z-1.000000 I0.581988 J-4.686404
G02 X24.806807 Y12.633956 Z-1.000000 I-1.091111 J-15.964091
G02 X26.536026 Y12.196310 Z-1.000000 I-2.025901 J-11.639760
G02 X27.521901 Y11.723814 Z-1.000000 I-1.410582 J-4.207989
G03 X27.898104 Y11.495825 Z-1.000000 I4.647055 J7.243693
G03 X28.278236 Y11.291491 Z-1.000000 I4.110098 J7.190451
G02 X29.466047 Y10.559954 Z-1.000000 I-3.707181 J-7.349526
G02 X29.689093 Y10.247947 Z-1.000000 I-0.369992 J-0.500227
G02 X29.701832 Y10.097087 Z-1.000000 I-0.326113 J-0.103505
G02 X29.620933 Y9.759755 Z-1.000000 I-1.782448 J0.249099
G02 X29.344399 Y9.506276 Z-1.000000 I-0.372038 J0.128295
G02 X28.406803 Y9.456029 Z-1.000000 I-0.598323 J2.391764
G03 X27.719028 Y9.526381 Z-1.000000 I-1.317299 J-9.481108
G03 X26.435374 Y9.585967 Z-1.000000 I-2.175180 J-33.002963
G02 X23.383900 Y9.862181 Z-1.000000 I0.652643 J24.203724
G02 X22.106803 Y10.256049 Z-1.000000 I0.704762 J4.552555
G02 X21.730262 Y10.456139 Z-1.000000 I2.098421 J4.403262
G02 X21.093368 Y10.852791 Z-1.000000 I7.663577 J13.014878
G03 X20.462630 Y11.255640 Z-1.000000 I-15.271296 J-23.214979
G03 X20.427244 Y11.265718 Z-1.000000 I-0.035386 J-0.057084
G02 X20.391780 Y11.275476 Z-1.000000 I0.000000 J0.069319
G02 X20.044156 Y11.493820 Z-1.000000 I4.416135 J7.416819
G01 X19.699472 Y11.721922 Z-1.000000
G01 X19.378095 Y11.408106 Z-1.000000
G02 X19.046670 Y11.118162 Z-1.000000 I-2.810608 J2.878317
G02 X18.974618 Y11.092383 Z-1.000000 I-0.074871 J0.095682
G03 X18.899324 Y11.071468 Z-1.000000 I0.003513 J-0.158631
G03 X18.678232 Y10.922861 Z-1.000000 I0.919281 J-1.606444
G02 X18.451649 Y10.790356 Z-1.000000 I-0.602415 J0.770142
G02 X18.271089 Y10.753339 Z-1.000000 I-0.185324 J0.445098
G03 X18.098699 Y10.731171 Z-1.000000 I0.006932 J-0.735268
G01 X18.078232 Y10.704919 Z-1.000000
G03 X18.091077 Y10.662639 Z-1.000000 I0.076005 J0.000000
G03 X18.410026 Y10.209269 Z-1.000000 I9.935708 J6.650962
G03 X19.051061 Y9.488942 Z-1.000000 I4.269072 J3.153742
G03 X20.330700 Y8.410571 Z-1.000000 I10.926984 J11.667985
G02 X20.734294 Y8.093055 Z-1.000000 I-8.283678 J-10.944600
G02 X21.469670 Y7.479501 Z-1.000000 I-30.212365 J-36.958594
G03 X22.355397 Y6.812671 Z-1.000000 I5.990100 J7.034783
G03 X23.521089 Y6.119889 Z-1.000000 I7.635848 J11.521167
G03 X24.405491 Y5.724714 Z-1.000000 I3.389523 J6.398529
G03 X25.245535 Y5.484013 Z-1.000000 I2.038696 J5.528794
G03 X25.485199 Y5.508336 Z-1.000000 I0.081333 J0.391513
G03 X25.738392 Y5.696534 Z-1.000000 I-0.271538 J0.629731
G03 X25.932427 Y5.976084 Z-1.000000 I-1.405622 J1.182751
G03 X25.963946 Y6.096015 Z-1.000000 I-0.212409 J0.119931
G03 X25.837668 Y6.584371 Z-1.000000 I-1.007448 J0.000000
G03 X25.109859 Y7.637093 Z-1.000000 I-5.672434 J-3.143738
G03 X24.788528 Y7.975164 Z-1.000000 I-3.160816 J-2.682552
G03 X24.348532 Y8.352768 Z-1.000000 I-4.388296 J-4.668238
G03 X22.103765 Y9.786166 Z-1.000000 I-8.590017 J-10.977956
G03 X20.588126 Y10.275257 Z-1.000000 I-2.268774 J-4.437738
G02 X19.657123 Y10.521220 Z-1.000000 I0.683729 J4.472979
G02 X19.195578 Y10.807208 Z-1.000000 I0.513414 J1.344007
G01 X19.222174 Y10.864462 Z-1.000000
G02 X19.708013 Y10.742728 Z-1.000000 I-0.260446 J-2.069785
G03 X20.183909 Y10.583054 Z-1.000000 I2.131283 J5.563105
G03 X20.571544 Y10.492937 Z-1.000000 I1.040693 J3.597743
G02 X20.949940 Y10.378228 Z-1.000000 I-0.290254 J-1.638944
G02 X22.628433 Y9.590620 Z-1.000000 I-14.701501 J-33.513115
G02 X24.236787 Y8.680261 Z-1.000000 I-8.114886 J-16.212712
G02 X24.956387 Y8.111420 Z-1.000000 I-2.395292 J-3.769691
G02 X26.011161 Y6.792047 Z-1.000000 I-4.739584 J-4.870373
G02 X26.221089 Y6.047738 Z-1.000000 I-1.214529 J-0.744309
G02 X25.964459 Y5.436642 Z-1.000000 I-0.855896 J-0.000000
G02 X25.336231 Y5.180011 Z-1.000000 I-0.628228 J0.640630
G02 X25.132504 Y5.207964 Z-1.000000 I-0.000000 J0.756375
G02 X25.071094 Y5.254161 Z-1.000000 I0.028455 J0.101739
G03 X25.008619 Y5.302624 Z-1.000000 I-0.096101 J-0.059386
G03 X24.688372 Y5.373496 Z-1.000000 I-0.578736 J-1.856139
G02 X23.908149 Y5.612290 Z-1.000000 I0.332846 J2.481545
G02 X22.578232 Y6.420750 Z-1.000000 I4.049708 J8.159863
G03 X22.053594 Y6.768479 Z-1.000000 I-4.005173 J-5.473188
G03 X21.935374 Y6.805137 Z-1.000000 I-0.134592 J-0.225095
G02 X21.821026 Y6.846391 Z-1.000000 I0.013468 J0.216431
G02 X21.366081 Y7.220482 Z-1.000000 I3.003102 J4.115861
G03 X20.918625 Y7.620034 Z-1.000000 I-11.898388 J-12.874615
G03 X20.350284 Y8.096758 Z-1.000000 I-17.511295 J-20.299471
G02 X18.555256 Y9.685264 Z-1.000000 I18.791212 J23.042723
G02 X18.147786 Y10.210149 Z-1.000000 I1.582040 J1.648744
G01 X17.896735 Y10.654570 Z-1.000000
G01 X17.548135 Y10.531577 Z-1.000000
G02 X17.196055 Y10.427631 Z-1.000000 I-1.172188 J3.322135
G02 X17.017455 Y10.404540 Z-1.000000 I-0.197430 J0.824782
G01 X16.986823 Y10.343056 Z-1.000000
G03 X17.392517 Y9.884138 Z-1.000000 I2.502348 J1.803351
G03 X17.964543 Y9.386583 Z-1.000000 I8.171258 J8.816679
G03 X18.379120 Y9.079196 Z-1.000000 I3.521534 J4.316278
G02 X18.778102 Y8.757202 Z-1.000000 I-1.638975 J-2.439039
G02 X19.279120 Y8.212816 Z-1.000000 I-4.243566 J-4.408247
G03 X19.753602 Y7.638357 Z-1.000000 I41.680205 J33.943107
G03 X20.028232 Y7.318557 Z-1.000000 I13.186822 J11.046451
G02 X20.290579 Y6.995969 Z-1.000000 I-3.999529 J-3.520613
G02 X20.306803 Y6.947316 Z-1.000000 I-0.064838 J-0.048653
G03 X20.321179 Y6.897082 Z-1.000000 I0.094954 J0.000000
G03 X20.608862 Y6.462798 Z-1.000000 I8.010963 J4.994278
G02 X21.100168 Y5.462707 Z-1.000000 I-2.933186 J-2.061688
G02 X21.258957 Y4.365727 Z-1.000000 I-3.388689 J-1.050497
G02 X21.198031 Y3.492846 Z-1.000000 I-7.735045 J0.101331
G02 X21.087111 Y3.012009 Z-1.000000 I-2.440993 J0.309878
G02 X20.925934 Y2.744765 Z-1.000000 I-0.690866 J0.234440
G02 X20.732980 Y2.638105 Z-1.000000 I-0.264363 J0.250386
G03 X20.516934 Y2.556467 Z-1.000000 I0.138840 J-0.694117
G03 X20.443544 Y2.470394 Z-1.000000 I0.085117 J-0.146899
G02 X20.254076 Y2.390651 Z-1.000000 I-0.132994 J0.051032
G02 X19.792517 Y2.751539 Z-1.000000 I0.458770 J1.062344
G01 X19.792516 Y2.751537 Z-1.000000
G00 Z0.000000

(End cutting path id: path38)


(Start cutting path id: path38)
(Change tool to Cone cutter)

G00 Z0.000000
G00 X20.478231 Y2.970837

G01 Z-1.000000 F100.0(Penetrate)
G01 X20.506232 Y2.996437 Z-1.000000 F400.000000
G02 X20.640658 Y2.956257 Z-1.000000 I-0.031423 J-0.350082
G03 X20.846200 Y3.035793 Z-1.000000 I0.068576 J0.128136
G03 X21.058699 Y4.134389 Z-1.000000 I-3.530535 J1.252754
G03 X21.007203 Y5.121308 Z-1.000000 I-5.299797 J0.218266
G03 X20.833977 Y5.668763 Z-1.000000 I-1.771761 J-0.259488
G03 X20.548853 Y6.178731 Z-1.000000 I-6.163167 J-3.111142
G03 X20.473055 Y6.254639 Z-1.000000 I-0.198158 J-0.122073
G02 X20.398633 Y6.330675 Z-1.000000 I0.116452 J0.188420
G02 X20.217040 Y6.689455 Z-1.000000 I2.726494 J1.605330
G03 X20.034904 Y7.034109 Z-1.000000 I-2.208874 J-0.946853
G03 X19.977265 Y7.065726 Z-1.000000 I-0.057639 J-0.036729
G02 X19.912709 Y7.094440 Z-1.000000 I-0.000000 J0.086924
G02 X19.356634 Y7.754013 Z-1.000000 I9.625907 J8.679647
G03 X18.773018 Y8.400524 Z-1.000000 I-5.099379 J-4.016620
G03 X17.966609 Y9.100112 Z-1.000000 I-6.784833 J-7.006250
G02 X17.140528 Y9.780796 Z-1.000000 I11.170674 J14.398389
G02 X16.833770 Y10.090831 Z-1.000000 I1.991770 J2.277492
G03 X16.439961 Y10.223054 Z-1.000000 I-0.307465 J-0.263179
G03 X16.209110 Y9.954423 Z-1.000000 I0.062771 J-0.287450
G03 X16.299976 Y8.586391 Z-1.000000 I5.264366 J-0.337368
G03 X16.603755 Y7.973534 Z-1.000000 I1.287595 J0.256515
G02 X16.937406 Y7.520984 Z-1.000000 I-2.385802 J-2.108250
G02 X17.495669 Y6.508583 Z-1.000000 I-11.498074 J-7.000439
G03 X18.345827 Y4.966130 Z-1.000000 I18.449742 J9.163480
G03 X18.825252 Y4.322869 Z-1.000000 I3.651813 J2.221420
G02 X18.937511 Y4.191073 Z-1.000000 I-2.213904 J-1.999433
G02 X19.375815 Y3.637154 Z-1.000000 I-38.807552 J-31.157923
G03 X19.818121 Y3.086729 Z-1.000000 I19.059359 J14.862640
G03 X20.035430 Y2.840425 Z-1.000000 I4.027589 J3.334442
G03 X20.253910 Y2.709194 Z-1.000000 I0.341305 J0.320739
G03 X20.369406 Y2.749665 Z-1.000000 I0.028321 J0.104215
G03 X20.462584 Y2.903599 Z-1.000000 I-0.835310 J0.610792
G03 X20.478231 Y2.970839 Z-1.000000 I-0.136654 J0.067240
G01 X20.478231 Y2.970837 Z-1.000000
G00 Z0.000000

(End cutting path id: path38)


(Start cutting path id: path38)
(Change tool to Cone cutter)

G00 Z0.000000
G00 X20.478231 Y2.970837

G01 Z-1.000000 F100.0(Penetrate)
G01 X20.506232 Y2.996437 Z-1.000000 F400.000000
G02 X20.640658 Y2.956257 Z-1.000000 I-0.031423 J-0.350082
G03 X20.846200 Y3.035793 Z-1.000000 I0.068576 J0.128136
G03 X21.058699 Y4.134389 Z-1.000000 I-3.530535 J1.252754
G03 X21.007203 Y5.121308 Z-1.000000 I-5.299797 J0.218266
G03 X20.833977 Y5.668763 Z-1.000000 I-1.771761 J-0.259488
G03 X20.548853 Y6.178731 Z-1.000000 I-6.163167 J-3.111142
G03 X20.473055 Y6.254639 Z-1.000000 I-0.198158 J-0.122073
G02 X20.398633 Y6.330675 Z-1.000000 I0.116452 J0.188420
G02 X20.217040 Y6.689455 Z-1.000000 I2.726494 J1.605330
G03 X20.034904 Y7.034109 Z-1.000000 I-2.208874 J-0.946853
G03 X19.977265 Y7.065726 Z-1.000000 I-0.057639 J-0.036729
G02 X19.912709 Y7.094440 Z-1.000000 I-0.000000 J0.086924
G02 X19.356634 Y7.754013 Z-1.000000 I9.625907 J8.679647
G03 X18.773018 Y8.400524 Z-1.000000 I-5.099379 J-4.016620
G03 X17.966609 Y9.100112 Z-1.000000 I-6.784833 J-7.006250
G02 X17.140528 Y9.780796 Z-1.000000 I11.170674 J14.398389
G02 X16.833770 Y10.090831 Z-1.000000 I1.991770 J2.277492
G03 X16.439961 Y10.223054 Z-1.000000 I-0.307465 J-0.263179
G03 X16.209110 Y9.954423 Z-1.000000 I0.062771 J-0.287450
G03 X16.299976 Y8.586391 Z-1.000000 I5.264366 J-0.337368
G03 X16.603755 Y7.973534 Z-1.000000 I1.287595 J0.256515
G02 X16.937406 Y7.520984 Z-1.000000 I-2.385802 J-2.108250
G02 X17.495669 Y6.508583 Z-1.000000 I-11.498074 J-7.000439
G03 X18.345827 Y4.966130 Z-1.000000 I18.449742 J9.163480
G03 X18.825252 Y4.322869 Z-1.000000 I3.651813 J2.221420
G02 X18.937511 Y4.191073 Z-1.000000 I-2.213904 J-1.999433
G02 X19.375815 Y3.637154 Z-1.000000 I-38.807552 J-31.157923
G03 X19.818121 Y3.086729 Z-1.000000 I19.059359 J14.862640
G03 X20.035430 Y2.840425 Z-1.000000 I4.027589 J3.334442
G03 X20.253910 Y2.709194 Z-1.000000 I0.341305 J0.320739
G03 X20.369406 Y2.749665 Z-1.000000 I0.028321 J0.104215
G03 X20.462584 Y2.903599 Z-1.000000 I-0.835310 J0.610792
G03 X20.478231 Y2.970839 Z-1.000000 I-0.136654 J0.067240
G01 X20.478231 Y2.970837 Z-1.000000
G00 Z0.000000

(End cutting path id: path38)


(Start cutting path id: path38)
(Change tool to Cone cutter)

G00 Z0.000000
G00 X17.698030 Y10.793390

G01 Z-1.000000 F100.0(Penetrate)
G03 X18.876822 Y11.329557 Z-1.000000 I-1.808251 J5.539442 F400.000000
G03 X19.567729 Y11.909632 Z-1.000000 I-1.449585 J2.428044
G03 X20.158487 Y13.616554 Z-1.000000 I-1.847666 J1.595159
G03 X19.405719 Y15.444368 Z-1.000000 I-2.920485 J-0.133857
G03 X17.462039 Y17.105363 Z-1.000000 I-7.418624 J-6.713468
G03 X17.135373 Y16.928644 Z-1.000000 I-0.115533 J-0.176719
G02 X17.109456 Y16.863071 Z-1.000000 I-0.095912 J0.000000
G02 X17.049663 Y16.837154 Z-1.000000 I-0.059793 J0.056016
G02 X16.996529 Y16.869732 Z-1.000000 I-0.000000 J0.059619
G02 X16.963953 Y17.005567 Z-1.000000 I0.266911 J0.135835
G03 X16.844671 Y17.193721 Z-1.000000 I-0.208037 J0.000000
G03 X15.861879 Y17.525429 Z-1.000000 I-1.924066 J-4.078893
G02 X15.122484 Y17.689321 Z-1.000000 I10.037181 J47.032302
G02 X14.778239 Y17.774592 Z-1.000000 I2.363620 J10.279620
G03 X12.725826 Y17.898992 Z-1.000000 I-1.334488 J-5.023966
G03 X11.136928 Y17.266826 Z-1.000000 I0.496562 J-3.560933
G02 X10.888464 Y17.113595 Z-1.000000 I-1.280748 J1.798676
G02 X10.810695 Y17.094297 Z-1.000000 I-0.077769 J0.147051
G03 X10.494288 Y16.943179 Z-1.000000 I0.000000 J-0.406801
G03 X9.924638 Y15.997805 Z-1.000000 I3.135109 J-2.533423
G03 X9.803977 Y15.590008 Z-1.000000 I1.670275 J-0.715959
G03 X9.737778 Y14.911833 Z-1.000000 I4.597727 J-0.791119
G03 X9.824759 Y14.252667 Z-1.000000 I2.147080 J-0.052000
G03 X10.117667 Y13.622868 Z-1.000000 I2.248325 J0.662641
G03 X11.880909 Y11.955804 Z-1.000000 I4.451291 J2.942085
G03 X15.035381 Y10.754864 Z-1.000000 I5.201114 J8.918256
G03 X16.596512 Y10.609974 Z-1.000000 I1.454945 J7.193710
G03 X17.698038 Y10.793394 Z-1.000000 I-0.053867 J3.722803
G01 X17.698030 Y10.793390 Z-1.000000
G00 Z0.000000

(End cutting path id: path38)


(Start cutting path id: path38)
(Change tool to Cone cutter)

G00 Z0.000000
G00 X17.698030 Y10.793390

G01 Z-1.000000 F100.0(Penetrate)
G03 X18.876822 Y11.329557 Z-1.000000 I-1.808251 J5.539442 F400.000000
G03 X19.567729 Y11.909632 Z-1.000000 I-1.449585 J2.428044
G03 X20.158487 Y13.616554 Z-1.000000 I-1.847666 J1.595159
G03 X19.405719 Y15.444368 Z-1.000000 I-2.920485 J-0.133857
G03 X17.462039 Y17.105363 Z-1.000000 I-7.418624 J-6.713468
G03 X17.135373 Y16.928644 Z-1.000000 I-0.115533 J-0.176719
G02 X17.109456 Y16.863071 Z-1.000000 I-0.095912 J0.000000
G02 X17.049663 Y16.837154 Z-1.000000 I-0.059793 J0.056016
G02 X16.996529 Y16.869732 Z-1.000000 I-0.000000 J0.059619
G02 X16.963953 Y17.005567 Z-1.000000 I0.266911 J0.135835
G03 X16.844671 Y17.193721 Z-1.000000 I-0.208037 J0.000000
G03 X15.861879 Y17.525429 Z-1.000000 I-1.924066 J-4.078893
G02 X15.122484 Y17.689321 Z-1.000000 I10.037181 J47.032302
G02 X14.778239 Y17.774592 Z-1.000000 I2.363620 J10.279620
G03 X12.725826 Y17.898992 Z-1.000000 I-1.334488 J-5.023966
G03 X11.136928 Y17.266826 Z-1.000000 I0.496562 J-3.560933
G02 X10.888464 Y17.113595 Z-1.000000 I-1.280748 J1.798676
G02 X10.810695 Y17.094297 Z-1.000000 I-0.077769 J0.147051
G03 X10.494288 Y16.943179 Z-1.000000 I0.000000 J-0.406801
G03 X9.924638 Y15.997805 Z-1.000000 I3.135109 J-2.533423
G03 X9.803977 Y15.590008 Z-1.000000 I1.670275 J-0.715959
G03 X9.737778 Y14.911833 Z-1.000000 I4.597727 J-0.791119
G03 X9.824759 Y14.252667 Z-1.000000 I2.147080 J-0.052000
G03 X10.117667 Y13.622868 Z-1.000000 I2.248325 J0.662641
G03 X11.880909 Y11.955804 Z-1.000000 I4.451291 J2.942085
G03 X15.035381 Y10.754864 Z-1.000000 I5.201114 J8.918256
G03 X16.596512 Y10.609974 Z-1.000000 I1.454945 J7.193710
G03 X17.698038 Y10.793394 Z-1.000000 I-0.053867 J3.722803
G01 X17.698030 Y10.793390 Z-1.000000
G00 Z0.000000

(End cutting path id: path38)


(Start cutting path id: path38)
(Change tool to Cone cutter)

G00 Z0.000000
G00 X16.032541 Y10.337073

G01 Z-1.000000 F100.0(Penetrate)
G03 X15.632427 Y10.531191 Z-1.000000 I-0.459147 J-0.436975 F400.000000
G03 X15.401787 Y10.396083 Z-1.000000 I-0.021328 J-0.228006
G03 X15.401025 Y10.343356 Z-1.000000 I0.061411 J-0.027256
G03 X15.678231 Y9.721272 Z-1.000000 I10.375679 J4.250684
G01 X15.978231 Y9.099543 Z-1.000000
G01 X16.032541 Y9.689778 Z-1.000000
G03 X16.059197 Y10.270404 Z-1.000000 I-6.310300 J0.580626
G03 X16.032541 Y10.337076 Z-1.000000 I-0.096707 J0.000000
G01 X16.032541 Y10.337073 Z-1.000000
G00 Z0.000000

(End cutting path id: path38)


(Start cutting path id: path38)
(Change tool to Cone cutter)

G00 Z0.000000
G00 X16.032541 Y10.337073

G01 Z-1.000000 F100.0(Penetrate)
G03 X15.632427 Y10.531191 Z-1.000000 I-0.459147 J-0.436975 F400.000000
G03 X15.401787 Y10.396083 Z-1.000000 I-0.021328 J-0.228006
G03 X15.401025 Y10.343356 Z-1.000000 I0.061411 J-0.027256
G03 X15.678231 Y9.721272 Z-1.000000 I10.375679 J4.250684
G01 X15.978231 Y9.099543 Z-1.000000
G01 X16.032541 Y9.689778 Z-1.000000
G03 X16.059197 Y10.270404 Z-1.000000 I-6.310300 J0.580626
G03 X16.032541 Y10.337076 Z-1.000000 I-0.096707 J0.000000
G01 X16.032541 Y10.337073 Z-1.000000
G00 Z0.000000

(End cutting path id: path38)


(Start cutting path id: path38)
(Change tool to Cone cutter)

G00 Z0.000000
G00 X13.685373 Y10.328107

G01 Z-1.000000 F100.0(Penetrate)
G03 X14.035444 Y10.678047 Z-1.000000 I-5.915046 J6.267329 F400.000000
G03 X14.049659 Y10.713800 Z-1.000000 I-0.037854 J0.035753
G01 X14.020277 Y10.758317 Z-1.000000
G03 X13.481205 Y10.956845 Z-1.000000 I-2.207884 J-5.164017
G03 X13.359876 Y10.915787 Z-1.000000 I-0.032390 J-0.104082
G03 X13.238595 Y10.614475 Z-1.000000 I0.571903 J-0.405262
G02 X13.168623 Y10.217896 Z-1.000000 I-7.723788 J1.158317
G02 X13.133594 Y10.097624 Z-1.000000 I-0.740540 J0.150443
G03 X13.212537 Y10.020959 Z-1.000000 I0.055875 J-0.021441
G03 X13.685373 Y10.328107 Z-1.000000 I-0.605591 J1.449797
G01 X13.685373 Y10.328107 Z-1.000000
G00 Z0.000000

(End cutting path id: path38)


(Start cutting path id: path38)
(Change tool to Cone cutter)

G00 Z0.000000
G00 X13.685373 Y10.328107

G01 Z-1.000000 F100.0(Penetrate)
G03 X14.035444 Y10.678047 Z-1.000000 I-5.915046 J6.267329 F400.000000
G03 X14.049659 Y10.713800 Z-1.000000 I-0.037854 J0.035753
G01 X14.020277 Y10.758317 Z-1.000000
G03 X13.481205 Y10.956845 Z-1.000000 I-2.207884 J-5.164017
G03 X13.359876 Y10.915787 Z-1.000000 I-0.032390 J-0.104082
G03 X13.238595 Y10.614475 Z-1.000000 I0.571903 J-0.405262
G02 X13.168623 Y10.217896 Z-1.000000 I-7.723788 J1.158317
G02 X13.133594 Y10.097624 Z-1.000000 I-0.740540 J0.150443
G03 X13.212537 Y10.020959 Z-1.000000 I0.055875 J-0.021441
G03 X13.685373 Y10.328107 Z-1.000000 I-0.605591 J1.449797
G01 X13.685373 Y10.328107 Z-1.000000
G00 Z0.000000

(End cutting path id: path38)


(Start cutting path id: path38)
(Change tool to Cone cutter)

G00 Z0.000000
G00 X17.513585 Y12.688992

G01 Z-1.000000 F100.0(Penetrate)
G01 X17.513585 Y12.688992 Z-1.000000 F400.000000
G01 X17.513585 Y12.688992 Z-1.000000
G00 Z0.000000

(End cutting path id: path38)


(Start cutting path id: path38)
(Change tool to Cone cutter)

G00 Z0.000000
G00 X17.513585 Y12.688992

G01 Z-1.000000 F100.0(Penetrate)
G01 X17.513585 Y12.688992 Z-1.000000 F400.000000
G01 X17.513585 Y12.688992 Z-1.000000
G00 Z0.000000

(End cutting path id: path38)


(Start cutting path id: path38)
(Change tool to Cone cutter)

G00 Z0.000000
G00 X19.179423 Y16.850684

G01 Z-1.000000 F100.0(Penetrate)
G03 X19.404909 Y17.268467 Z-1.000000 I-0.744390 J0.671503 F400.000000
G03 X19.308145 Y17.342742 Z-1.000000 I-0.064031 J0.016750
G03 X18.802793 Y17.041347 Z-1.000000 I7.120437 J-12.513274
G03 X18.547630 Y16.867833 Z-1.000000 I2.097145 J-3.358352
G03 X18.394522 Y16.672617 Z-1.000000 I0.276761 J-0.374714
G03 X18.413414 Y16.546405 Z-1.000000 I0.113741 J-0.047494
G03 X18.653525 Y16.485100 Z-1.000000 I0.162265 J0.134668
G03 X19.179423 Y16.850684 Z-1.000000 I-0.519997 J1.309070
G01 X19.179423 Y16.850684 Z-1.000000
G00 Z0.000000

(End cutting path id: path38)


(Start cutting path id: path38)
(Change tool to Cone cutter)

G00 Z0.000000
G00 X19.179423 Y16.850684

G01 Z-1.000000 F100.0(Penetrate)
G03 X19.404909 Y17.268467 Z-1.000000 I-0.744390 J0.671503 F400.000000
G03 X19.308145 Y17.342742 Z-1.000000 I-0.064031 J0.016750
G03 X18.802793 Y17.041347 Z-1.000000 I7.120437 J-12.513274
G03 X18.547630 Y16.867833 Z-1.000000 I2.097145 J-3.358352
G03 X18.394522 Y16.672617 Z-1.000000 I0.276761 J-0.374714
G03 X18.413414 Y16.546405 Z-1.000000 I0.113741 J-0.047494
G03 X18.653525 Y16.485100 Z-1.000000 I0.162265 J0.134668
G03 X19.179423 Y16.850684 Z-1.000000 I-0.519997 J1.309070
G01 X19.179423 Y16.850684 Z-1.000000
G00 Z0.000000

(End cutting path id: path38)


(Start cutting path id: path38)
(Change tool to Cone cutter)

G00 Z0.000000
G00 X19.050438 Y17.408320

G01 Z-1.000000 F100.0(Penetrate)
G03 X19.910157 Y17.994420 Z-1.000000 I-16.062612 J24.485003 F400.000000
G03 X20.351744 Y18.329749 Z-1.000000 I-4.805500 J6.786664
G03 X21.527494 Y19.427047 Z-1.000000 I-7.458842 J9.170674
G03 X22.221517 Y20.329499 Z-1.000000 I-4.326820 J4.045593
G03 X23.477885 Y22.660148 Z-1.000000 I-17.296191 J10.827704
G03 X23.649659 Y23.447719 Z-1.000000 I-1.719592 J0.787572
G03 X23.452019 Y23.925249 Z-1.000000 I-0.675714 J-0.000000
G03 X22.975298 Y24.122872 Z-1.000000 I-0.476721 J-0.476178
G03 X22.734603 Y24.044463 Z-1.000000 I-0.000000 J-0.408639
G03 X21.341872 Y22.932312 Z-1.000000 I11.931530 J-16.369814
G03 X19.896903 Y21.222716 Z-1.000000 I4.886578 J-5.595636
G03 X18.168522 Y17.761955 Z-1.000000 I18.908967 J-11.605535
G02 X17.950703 Y17.290316 Z-1.000000 I-4.259291 J1.680972
G02 X17.854299 Y17.172011 Z-1.000000 I-0.348746 J0.185753
G03 X17.797085 Y17.065627 Z-1.000000 I0.102800 J-0.123863
G03 X17.830529 Y16.954358 Z-1.000000 I0.148025 J-0.016169
G03 X18.041778 Y16.897955 Z-1.000000 I0.145366 J0.120643
G03 X19.050441 Y17.408320 Z-1.000000 I-1.761032 J4.732345
G01 X19.050438 Y17.408320 Z-1.000000
G00 Z0.000000

(End cutting path id: path38)


(Start cutting path id: path38)
(Change tool to Cone cutter)

G00 Z0.000000
G00 X19.050438 Y17.408320

G01 Z-1.000000 F100.0(Penetrate)
G03 X19.910157 Y17.994420 Z-1.000000 I-16.062612 J24.485003 F400.000000
G03 X20.351744 Y18.329749 Z-1.000000 I-4.805500 J6.786664
G03 X21.527494 Y19.427047 Z-1.000000 I-7.458842 J9.170674
G03 X22.221517 Y20.329499 Z-1.000000 I-4.326820 J4.045593
G03 X23.477885 Y22.660148 Z-1.000000 I-17.296191 J10.827704
G03 X23.649659 Y23.447719 Z-1.000000 I-1.719592 J0.787572
G03 X23.452019 Y23.925249 Z-1.000000 I-0.675714 J-0.000000
G03 X22.975298 Y24.122872 Z-1.000000 I-0.476721 J-0.476178
G03 X22.734603 Y24.044463 Z-1.000000 I-0.000000 J-0.408639
G03 X21.341872 Y22.932312 Z-1.000000 I11.931530 J-16.369814
G03 X19.896903 Y21.222716 Z-1.000000 I4.886578 J-5.595636
G03 X18.168522 Y17.761955 Z-1.000000 I18.908967 J-11.605535
G02 X17.950703 Y17.290316 Z-1.000000 I-4.259291 J1.680972
G02 X17.854299 Y17.172011 Z-1.000000 I-0.348746 J0.185753
G03 X17.797085 Y17.065627 Z-1.000000 I0.102800 J-0.123863
G03 X17.830529 Y16.954358 Z-1.000000 I0.148025 J-0.016169
G03 X18.041778 Y16.897955 Z-1.000000 I0.145366 J0.120643
G03 X19.050441 Y17.408320 Z-1.000000 I-1.761032 J4.732345
G01 X19.050438 Y17.408320 Z-1.000000
G00 Z0.000000

(End cutting path id: path38)


(Start cutting path id: path38)
(Change tool to Cone cutter)

G00 Z0.000000
G00 X17.779076 Y17.437160

G01 Z-1.000000 F100.0(Penetrate)
G03 X18.455315 Y18.775419 Z-1.000000 I-19.137159 J10.510224 F400.000000
G03 X18.506802 Y19.009206 Z-1.000000 I-0.505029 J0.233787
G01 X18.486919 Y19.016920 Z-1.000000
G03 X17.863945 Y18.305354 Z-1.000000 I16.604081 J-15.165323
G03 X17.267732 Y17.397747 Z-1.000000 I3.567202 J-2.992951
G03 X17.328231 Y17.235797 Z-1.000000 I0.105525 J-0.052855
G03 X17.564113 Y17.239173 Z-1.000000 I0.114011 J0.276229
G03 X17.779076 Y17.437160 Z-1.000000 I-0.187049 J0.418778
G01 X17.779076 Y17.437160 Z-1.000000
G00 Z0.000000

(End cutting path id: path38)


(Start cutting path id: path38)
(Change tool to Cone cutter)

G00 Z0.000000
G00 X17.779076 Y17.437160

G01 Z-1.000000 F100.0(Penetrate)
G03 X18.455315 Y18.775419 Z-1.000000 I-19.137159 J10.510224 F400.000000
G03 X18.506802 Y19.009206 Z-1.000000 I-0.505029 J0.233787
G01 X18.486919 Y19.016920 Z-1.000000
G03 X17.863945 Y18.305354 Z-1.000000 I16.604081 J-15.165323
G03 X17.267732 Y17.397747 Z-1.000000 I3.567202 J-2.992951
G03 X17.328231 Y17.235797 Z-1.000000 I0.105525 J-0.052855
G03 X17.564113 Y17.239173 Z-1.000000 I0.114011 J0.276229
G03 X17.779076 Y17.437160 Z-1.000000 I-0.187049 J0.418778
G01 X17.779076 Y17.437160 Z-1.000000
G00 Z0.000000

(End cutting path id: path38)


(Start cutting path id: path38)
(Change tool to Cone cutter)

G00 Z0.000000
G00 X17.972873 Y18.719800

G01 Z-1.000000 F100.0(Penetrate)
G03 X18.666177 Y19.797456 Z-1.000000 I-4.451374 J3.625614 F400.000000
G03 X19.542460 Y21.889015 Z-1.000000 I-16.112107 J7.979696
G03 X19.762216 Y22.963734 Z-1.000000 I-3.939108 J1.365286
G03 X19.721553 Y24.452372 Z-1.000000 I-7.664711 J0.535508
G03 X19.469612 Y25.655450 Z-1.000000 I-7.440083 J-0.930137
G03 X19.351102 Y25.700650 Z-1.000000 I-0.076537 J-0.022714
G02 X19.262871 Y25.694072 Z-1.000000 I-0.050445 J0.081618
G02 X19.142088 Y25.790160 Z-1.000000 I0.115091 J0.268627
G03 X19.020723 Y25.903258 Z-1.000000 I-0.355833 J-0.260174
G03 X18.950674 Y25.910398 Z-1.000000 I-0.042242 J-0.067250
G03 X18.502046 Y25.557728 Z-1.000000 I0.329052 J-0.880268
G03 X17.359991 Y23.565730 Z-1.000000 I12.590955 J-8.542041
G03 X16.876066 Y22.478740 Z-1.000000 I20.504575 J-9.779803
G03 X16.490233 Y21.465730 Z-1.000000 I17.420653 J-7.215118
G03 X16.297967 Y20.628983 Z-1.000000 I3.716130 J-1.294348
G03 X16.075479 Y17.923292 Z-1.000000 I39.079365 J-4.575476
G03 X16.150430 Y17.740007 Z-1.000000 I0.234328 J-0.011144
G03 X16.492516 Y17.537180 Z-1.000000 I0.642851 J0.694335
G01 X16.921088 Y17.393505 Z-1.000000
G01 X17.092516 Y17.621456 Z-1.000000
G02 X17.267415 Y17.846694 Z-1.000000 I7.391006 J-5.558641
G02 X17.972873 Y18.719799 Z-1.000000 I111.619126 J-89.465339
G01 X17.972873 Y18.719800 Z-1.000000
G00 Z0.000000

(End cutting path id: path38)


(Start cutting path id: path38)
(Change tool to Cone cutter)

G00 Z0.000000
G00 X17.972873 Y18.719800

G01 Z-1.000000 F100.0(Penetrate)
G03 X18.666177 Y19.797456 Z-1.000000 I-4.451374 J3.625614 F400.000000
G03 X19.542460 Y21.889015 Z-1.000000 I-16.112107 J7.979696
G03 X19.762216 Y22.963734 Z-1.000000 I-3.939108 J1.365286
G03 X19.721553 Y24.452372 Z-1.000000 I-7.664711 J0.535508
G03 X19.469612 Y25.655450 Z-1.000000 I-7.440083 J-0.930137
G03 X19.351102 Y25.700650 Z-1.000000 I-0.076537 J-0.022714
G02 X19.262871 Y25.694072 Z-1.000000 I-0.050445 J0.081618
G02 X19.142088 Y25.790160 Z-1.000000 I0.115091 J0.268627
G03 X19.020723 Y25.903258 Z-1.000000 I-0.355833 J-0.260174
G03 X18.950674 Y25.910398 Z-1.000000 I-0.042242 J-0.067250
G03 X18.502046 Y25.557728 Z-1.000000 I0.329052 J-0.880268
G03 X17.359991 Y23.565730 Z-1.000000 I12.590955 J-8.542041
G03 X16.876066 Y22.478740 Z-1.000000 I20.504575 J-9.779803
G03 X16.490233 Y21.465730 Z-1.000000 I17.420653 J-7.215118
G03 X16.297967 Y20.628983 Z-1.000000 I3.716130 J-1.294348
G03 X16.075479 Y17.923292 Z-1.000000 I39.079365 J-4.575476
G03 X16.150430 Y17.740007 Z-1.000000 I0.234328 J-0.011144
G03 X16.492516 Y17.537180 Z-1.000000 I0.642851 J0.694335
G01 X16.921088 Y17.393505 Z-1.000000
G01 X17.092516 Y17.621456 Z-1.000000
G02 X17.267415 Y17.846694 Z-1.000000 I7.391006 J-5.558641
G02 X17.972873 Y18.719799 Z-1.000000 I111.619126 J-89.465339
G01 X17.972873 Y18.719800 Z-1.000000
G00 Z0.000000

(End cutting path id: path38)


(Start cutting path id: path38)
(Change tool to Cone cutter)

G00 Z0.000000
G00 X15.957459 Y18.915730

G01 Z-1.000000 F100.0(Penetrate)
G03 X15.989097 Y20.045745 Z-1.000000 I-43.013751 J1.769736 F400.000000
G03 X15.974799 Y20.082137 Z-1.000000 I-0.051513 J0.000766
G03 X15.838185 Y20.054062 Z-1.000000 I-0.059489 J-0.056948
G03 X15.250976 Y18.148659 Z-1.000000 I15.761167 J-5.900474
G03 X15.324046 Y17.929304 Z-1.000000 I0.210998 J-0.051562
G03 X15.687344 Y17.789959 Z-1.000000 I0.390652 J0.475237
G01 X15.910741 Y17.780059 Z-1.000000
G01 X15.957459 Y18.915730 Z-1.000000
G00 Z0.000000

(End cutting path id: path38)


(Start cutting path id: path38)
(Change tool to Cone cutter)

G00 Z0.000000
G00 X15.957459 Y18.915730

G01 Z-1.000000 F100.0(Penetrate)
G03 X15.989097 Y20.045745 Z-1.000000 I-43.013751 J1.769736 F400.000000
G03 X15.974799 Y20.082137 Z-1.000000 I-0.051513 J0.000766
G03 X15.838185 Y20.054062 Z-1.000000 I-0.059489 J-0.056948
G03 X15.250976 Y18.148659 Z-1.000000 I15.761167 J-5.900474
G03 X15.324046 Y17.929304 Z-1.000000 I0.210998 J-0.051562
G03 X15.687344 Y17.789959 Z-1.000000 I0.390652 J0.475237
G01 X15.910741 Y17.780059 Z-1.000000
G01 X15.957459 Y18.915730 Z-1.000000
G00 Z0.000000

(End cutting path id: path38)


(Start cutting path id: path38)
(Change tool to Cone cutter)

G00 Z0.000000
G00 X11.284663 Y17.953196

G01 Z-1.000000 F100.0(Penetrate)
G02 X10.910094 Y18.761600 Z-1.000000 I2.667745 J1.727061 F400.000000
G02 X10.482841 Y20.608587 Z-1.000000 I13.773631 J4.159089
G03 X9.938583 Y22.067960 Z-1.000000 I-3.955599 J-0.644026
G03 X8.751828 Y23.415983 Z-1.000000 I-4.535671 J-2.796650
G02 X8.363274 Y23.747219 Z-1.000000 I6.094156 J7.542228
G02 X7.880569 Y24.199247 Z-1.000000 I10.876089 J12.097933
G03 X6.460390 Y25.360500 Z-1.000000 I-7.329489 J-7.514712
G03 X6.166049 Y25.367030 Z-1.000000 I-0.152201 J-0.223459
G03 X6.107724 Y25.296313 Z-1.000000 I0.074887 J-0.121174
G03 X6.078229 Y25.135171 Z-1.000000 I0.425439 J-0.161142
G02 X6.012296 Y25.035080 Z-1.000000 I-0.108939 J0.000000
G02 X5.778229 Y25.006269 Z-1.000000 I-0.166507 J0.387519
G03 X5.506303 Y25.021963 Z-1.000000 I-0.211693 J-1.304309
G01 X5.478229 Y24.992579 Z-1.000000
G03 X5.617015 Y24.264291 Z-1.000000 I1.980255 J0.000000
G03 X6.468475 Y22.488749 Z-1.000000 I12.990416 J5.137616
G02 X6.912191 Y21.558091 Z-1.000000 I-6.159108 J-3.507623
G01 X6.851447 Y21.507478 Z-1.000000
G02 X6.693353 Y21.666390 Z-1.000000 I0.253715 J0.410505
G02 X5.934349 Y23.008584 Z-1.000000 I19.486518 J11.905231
G02 X5.336417 Y24.403931 Z-1.000000 I8.857730 J4.621490
G02 X5.221087 Y25.099114 Z-1.000000 I2.037547 J0.695183
G02 X5.362118 Y25.359533 Z-1.000000 I0.310952 J0.000000
G02 X5.584719 Y25.336381 Z-1.000000 I0.097036 J-0.148717
G03 X5.785179 Y25.285191 Z-1.000000 I0.143379 J0.143379
G03 X5.976919 Y25.451442 Z-1.000000 I-0.085884 J0.292744
G02 X6.268669 Y25.568886 Z-1.000000 I0.207588 J-0.094583
G02 X7.488479 Y24.851441 Z-1.000000 I-1.704043 J-4.292934
G02 X7.899829 Y24.499718 Z-1.000000 I-7.805830 J-9.545523
G02 X8.303642 Y24.122871 Z-1.000000 I-8.558646 J-9.575849
G03 X8.709104 Y23.748315 Z-1.000000 I7.246663 J7.437887
G03 X9.017586 Y23.497682 Z-1.000000 I3.547310 J4.050920
G02 X10.134022 Y22.232064 Z-1.000000 I-2.522955 J-3.350794
G02 X10.717999 Y20.529840 Z-1.000000 I-4.138192 J-2.370961
G03 X10.946235 Y19.429079 Z-1.000000 I8.733950 J1.236884
G03 X11.316443 Y18.352351 Z-1.000000 I8.725406 J2.398025
G02 X11.376102 Y17.976303 Z-1.000000 I-0.749340 J-0.311637
G01 X11.284663 Y17.953194 Z-1.000000
G01 X11.284663 Y17.953196 Z-1.000000
G00 Z0.000000

(End cutting path id: path38)


(Start cutting path id: path38)
(Change tool to Cone cutter)

G00 Z0.000000
G00 X11.284663 Y17.953196

G01 Z-1.000000 F100.0(Penetrate)
G02 X10.910094 Y18.761600 Z-1.000000 I2.667745 J1.727061 F400.000000
G02 X10.482841 Y20.608587 Z-1.000000 I13.773631 J4.159089
G03 X9.938583 Y22.067960 Z-1.000000 I-3.955599 J-0.644026
G03 X8.751828 Y23.415983 Z-1.000000 I-4.535671 J-2.796650
G02 X8.363274 Y23.747219 Z-1.000000 I6.094156 J7.542228
G02 X7.880569 Y24.199247 Z-1.000000 I10.876089 J12.097933
G03 X6.460390 Y25.360500 Z-1.000000 I-7.329489 J-7.514712
G03 X6.166049 Y25.367030 Z-1.000000 I-0.152201 J-0.223459
G03 X6.107724 Y25.296313 Z-1.000000 I0.074887 J-0.121174
G03 X6.078229 Y25.135171 Z-1.000000 I0.425439 J-0.161142
G02 X6.012296 Y25.035080 Z-1.000000 I-0.108939 J0.000000
G02 X5.778229 Y25.006269 Z-1.000000 I-0.166507 J0.387519
G03 X5.506303 Y25.021963 Z-1.000000 I-0.211693 J-1.304309
G01 X5.478229 Y24.992579 Z-1.000000
G03 X5.617015 Y24.264291 Z-1.000000 I1.980255 J0.000000
G03 X6.468475 Y22.488749 Z-1.000000 I12.990416 J5.137616
G02 X6.912191 Y21.558091 Z-1.000000 I-6.159108 J-3.507623
G01 X6.851447 Y21.507478 Z-1.000000
G02 X6.693353 Y21.666390 Z-1.000000 I0.253715 J0.410505
G02 X5.934349 Y23.008584 Z-1.000000 I19.486518 J11.905231
G02 X5.336417 Y24.403931 Z-1.000000 I8.857730 J4.621490
G02 X5.221087 Y25.099114 Z-1.000000 I2.037547 J0.695183
G02 X5.362118 Y25.359533 Z-1.000000 I0.310952 J0.000000
G02 X5.584719 Y25.336381 Z-1.000000 I0.097036 J-0.148717
G03 X5.785179 Y25.285191 Z-1.000000 I0.143379 J0.143379
G03 X5.976919 Y25.451442 Z-1.000000 I-0.085884 J0.292744
G02 X6.268669 Y25.568886 Z-1.000000 I0.207588 J-0.094583
G02 X7.488479 Y24.851441 Z-1.000000 I-1.704043 J-4.292934
G02 X7.899829 Y24.499718 Z-1.000000 I-7.805830 J-9.545523
G02 X8.303642 Y24.122871 Z-1.000000 I-8.558646 J-9.575849
G03 X8.709104 Y23.748315 Z-1.000000 I7.246663 J7.437887
G03 X9.017586 Y23.497682 Z-1.000000 I3.547310 J4.050920
G02 X10.134022 Y22.232064 Z-1.000000 I-2.522955 J-3.350794
G02 X10.717999 Y20.529840 Z-1.000000 I-4.138192 J-2.370961
G03 X10.946235 Y19.429079 Z-1.000000 I8.733950 J1.236884
G03 X11.316443 Y18.352351 Z-1.000000 I8.725406 J2.398025
G02 X11.376102 Y17.976303 Z-1.000000 I-0.749340 J-0.311637
G01 X11.284663 Y17.953194 Z-1.000000
G01 X11.284663 Y17.953196 Z-1.000000
G00 Z0.000000

(End cutting path id: path38)


(Start cutting path id: path38)
(Change tool to Cone cutter)

G00 Z0.000000
G00 X10.417230 Y17.038587

G01 Z-1.000000 F100.0(Penetrate)
G01 X10.634462 Y17.240016 Z-1.000000 F400.000000
G01 X10.177774 Y17.711635 Z-1.000000
G03 X9.040155 Y18.784423 Z-1.000000 I-12.373971 J-11.982178
G03 X8.935883 Y18.780525 Z-1.000000 I-0.050036 J-0.058134
G03 X8.793113 Y17.582964 Z-1.000000 I0.689490 J-0.689490
G03 X10.122200 Y16.837159 Z-1.000000 I1.329087 J0.811369
G03 X10.191593 Y16.858588 Z-1.000000 I0.000000 J0.123069
G03 X10.417230 Y17.038587 Z-1.000000 I-1.095944 J1.605243
G01 X10.417230 Y17.038587 Z-1.000000
G00 Z0.000000

(End cutting path id: path38)


(Start cutting path id: path38)
(Change tool to Cone cutter)

G00 Z0.000000
G00 X10.417230 Y17.038587

G01 Z-1.000000 F100.0(Penetrate)
G01 X10.634462 Y17.240016 Z-1.000000 F400.000000
G01 X10.177774 Y17.711635 Z-1.000000
G03 X9.040155 Y18.784423 Z-1.000000 I-12.373971 J-11.982178
G03 X8.935883 Y18.780525 Z-1.000000 I-0.050036 J-0.058134
G03 X8.793113 Y17.582964 Z-1.000000 I0.689490 J-0.689490
G03 X10.122200 Y16.837159 Z-1.000000 I1.329087 J0.811369
G03 X10.191593 Y16.858588 Z-1.000000 I0.000000 J0.123069
G03 X10.417230 Y17.038587 Z-1.000000 I-1.095944 J1.605243
G01 X10.417230 Y17.038587 Z-1.000000
G00 Z0.000000

(End cutting path id: path38)


(Start cutting path id: path38)
(Change tool to Cone cutter)

G00 Z0.000000
G00 X9.847142 Y16.362698

G01 Z-1.000000 F100.0(Penetrate)
G03 X9.868088 Y16.493780 Z-1.000000 I-0.100295 J0.083241 F400.000000
G03 X9.536210 Y17.150700 Z-1.000000 I-3.727409 J-1.470807
G02 X9.141621 Y17.824672 Z-1.000000 I10.991146 J6.887449
G02 X8.563945 Y18.932304 Z-1.000000 I29.130599 J15.897288
G03 X7.968234 Y20.012638 Z-1.000000 I-13.146014 J-6.544492
G03 X7.831947 Y20.137158 Z-1.000000 I-0.281022 J-0.170732
G02 X7.107838 Y20.544013 Z-1.000000 I3.258200 J6.646663
G02 X6.549659 Y20.955526 Z-1.000000 I2.776144 J4.349891
G03 X4.177701 Y22.429359 Z-1.000000 I-6.178140 J-7.297376
G03 X2.213514 Y22.837159 Z-1.000000 I-1.964187 J-4.526397
G03 X1.946922 Y22.658991 Z-1.000000 I0.000000 J-0.288534
G03 X1.924796 Y22.139761 Z-1.000000 I0.700327 J-0.289930
G03 X2.015848 Y21.971333 Z-1.000000 I0.487510 J0.154722
G03 X2.817082 Y21.045051 Z-1.000000 I16.223252 J13.223439
G02 X3.631166 Y20.123770 Z-1.000000 I-24.227152 J-22.228491
G02 X3.751508 Y19.946871 Z-1.000000 I-0.758411 J-0.645321
G03 X4.170557 Y19.451138 Z-1.000000 I1.360909 J0.725412
G03 X6.506802 Y17.821730 Z-1.000000 I18.135647 J23.513332
G03 X9.053763 Y16.374223 Z-1.000000 I17.627525 J28.052004
G03 X9.603450 Y16.238684 Z-1.000000 I0.563205 J1.101702
G03 X9.728683 Y16.267985 Z-1.000000 I0.003012 J0.269397
G03 X9.847142 Y16.362698 Z-1.000000 I-0.170145 J0.334239
G01 X9.847142 Y16.362698 Z-1.000000
G00 Z0.000000

(End cutting path id: path38)


(Start cutting path id: path38)
(Change tool to Cone cutter)

G00 Z0.000000
G00 X9.847142 Y16.362698

G01 Z-1.000000 F100.0(Penetrate)
G03 X9.868088 Y16.493780 Z-1.000000 I-0.100295 J0.083241 F400.000000
G03 X9.536210 Y17.150700 Z-1.000000 I-3.727409 J-1.470807
G02 X9.141621 Y17.824672 Z-1.000000 I10.991146 J6.887449
G02 X8.563945 Y18.932304 Z-1.000000 I29.130599 J15.897288
G03 X7.968234 Y20.012638 Z-1.000000 I-13.146014 J-6.544492
G03 X7.831947 Y20.137158 Z-1.000000 I-0.281022 J-0.170732
G02 X7.107838 Y20.544013 Z-1.000000 I3.258200 J6.646663
G02 X6.549659 Y20.955526 Z-1.000000 I2.776144 J4.349891
G03 X4.177701 Y22.429359 Z-1.000000 I-6.178140 J-7.297376
G03 X2.213514 Y22.837159 Z-1.000000 I-1.964187 J-4.526397
G03 X1.946922 Y22.658991 Z-1.000000 I0.000000 J-0.288534
G03 X1.924796 Y22.139761 Z-1.000000 I0.700327 J-0.289930
G03 X2.015848 Y21.971333 Z-1.000000 I0.487510 J0.154722
G03 X2.817082 Y21.045051 Z-1.000000 I16.223252 J13.223439
G02 X3.631166 Y20.123770 Z-1.000000 I-24.227152 J-22.228491
G02 X3.751508 Y19.946871 Z-1.000000 I-0.758411 J-0.645321
G03 X4.170557 Y19.451138 Z-1.000000 I1.360909 J0.725412
G03 X6.506802 Y17.821730 Z-1.000000 I18.135647 J23.513332
G03 X9.053763 Y16.374223 Z-1.000000 I17.627525 J28.052004
G03 X9.603450 Y16.238684 Z-1.000000 I0.563205 J1.101702
G03 X9.728683 Y16.267985 Z-1.000000 I0.003012 J0.269397
G03 X9.847142 Y16.362698 Z-1.000000 I-0.170145 J0.334239
G01 X9.847142 Y16.362698 Z-1.000000
G00 Z0.000000

(End cutting path id: path38)


(Start cutting path id: path38)
(Change tool to Cone cutter)

G00 Z0.000000
G00 X9.592516 Y15.842207

G01 Z-1.000000 F100.0(Penetrate)
G03 X9.523381 Y15.982287 Z-1.000000 I-0.176481 J0.000000 F400.000000
G03 X9.031941 Y16.271791 Z-1.000000 I-1.431169 J-1.867574
G03 X8.538399 Y16.394053 Z-1.000000 I-0.607175 J-1.393730
G01 X8.500290 Y16.311641 Z-1.000000
G02 X8.606839 Y16.186583 Z-1.000000 I-0.793077 J-0.783615
G02 X8.987096 Y15.646648 Z-1.000000 I-14.543664 J-10.646462
G01 X9.357966 Y15.099002 Z-1.000000
G01 X9.475241 Y15.377917 Z-1.000000
G03 X9.570030 Y15.661367 Z-1.000000 I-1.831189 J0.769944
G03 X9.592516 Y15.842204 Z-1.000000 I-0.715914 J0.180837
G01 X9.592516 Y15.842207 Z-1.000000
G00 Z0.000000

(End cutting path id: path38)


(Start cutting path id: path38)
(Change tool to Cone cutter)

G00 Z0.000000
G00 X9.592516 Y15.842207

G01 Z-1.000000 F100.0(Penetrate)
G03 X9.523381 Y15.982287 Z-1.000000 I-0.176481 J0.000000 F400.000000
G03 X9.031941 Y16.271791 Z-1.000000 I-1.431169 J-1.867574
G03 X8.538399 Y16.394053 Z-1.000000 I-0.607175 J-1.393730
G01 X8.500290 Y16.311641 Z-1.000000
G02 X8.606839 Y16.186583 Z-1.000000 I-0.793077 J-0.783615
G02 X8.987096 Y15.646648 Z-1.000000 I-14.543664 J-10.646462
G01 X9.357966 Y15.099002 Z-1.000000
G01 X9.475241 Y15.377917 Z-1.000000
G03 X9.570030 Y15.661367 Z-1.000000 I-1.831189 J0.769944
G03 X9.592516 Y15.842204 Z-1.000000 I-0.715914 J0.180837
G01 X9.592516 Y15.842207 Z-1.000000
G00 Z0.000000

(End cutting path id: path38)


(Start cutting path id: path38)
(Change tool to Cone cutter)

G00 Z0.000000
G00 X8.692516 Y14.054233

G01 Z-1.000000 F100.0(Penetrate)
G02 X6.904775 Y14.568849 Z-1.000000 I3.759706 J16.423531 F400.000000
G02 X6.310611 Y14.884803 Z-1.000000 I0.725904 J2.081739
G03 X6.021830 Y15.067240 Z-1.000000 I-1.303738 J-1.743919
G03 X5.376412 Y15.377013 Z-1.000000 I-4.458388 J-8.461886
G02 X3.959586 Y16.206675 Z-1.000000 I2.740742 J6.305002
G02 X3.763887 Y16.601444 Z-1.000000 I0.299420 J0.394324
G02 X3.875298 Y16.671500 Z-1.000000 I0.077774 J-0.000069
G02 X4.393019 Y16.299666 Z-1.000000 I-0.789044 J-1.644962
G03 X4.777743 Y15.973018 Z-1.000000 I1.915579 J1.866266
G03 X5.263945 Y15.691680 Z-1.000000 I1.896459 J2.716634
G02 X5.771254 Y15.436737 Z-1.000000 I-4.650678 J-9.886566
G02 X6.260115 Y15.158204 Z-1.000000 I-5.065054 J-9.458088
G03 X6.970770 Y14.820196 Z-1.000000 I2.037217 J3.367133
G03 X8.967489 Y14.188876 Z-1.000000 I9.394037 J26.237932
