%
(Header)
(Generated by gcodetools from Inkscape.)
(Using default header. To add your own header create file "header" in the output dir.)
M3
(Header end.)
G21 (All units in mm)

(Start cutting path id: path4520)
(Change tool to Cone cutter)

G00 Z0.000000
G00 X9.322053 Y19.893033

G01 Z-1.000000 F100.0(Penetrate)
G03 X9.204464 Y19.877727 Z-1.000000 I-0.000477 J-0.455670 F400.000000
G03 X9.050364 Y19.826998 Z-1.000000 I0.359051 J-1.350114
G02 X8.724321 Y19.739363 Z-1.000000 I-0.547265 J1.385745
G02 X8.049769 Y19.677318 Z-1.000000 I-0.877989 J5.847572
G03 X7.404810 Y19.565335 Z-1.000000 I0.082150 J-2.386437
G03 X7.062381 Y19.361605 Z-1.000000 I0.269225 J-0.842158
G03 X7.057306 Y19.253041 Z-1.000000 I0.054563 J-0.056951
G03 X7.163636 Y19.244628 Z-1.000000 I0.057430 J0.049702
G02 X7.497278 Y19.468932 Z-1.000000 I1.204893 J-1.431938
G02 X7.700725 Y19.527009 Z-1.000000 I0.240555 J-0.457293
G02 X7.921297 Y19.540776 Z-1.000000 I0.830730 J-11.535716
G02 X8.428373 Y19.566001 Z-1.000000 I4.353266 J-82.401456
G03 X8.932931 Y19.606889 Z-1.000000 I-0.344767 J7.388033
G03 X9.250358 Y19.660966 Z-1.000000 I-0.344759 J2.982360
G02 X9.557234 Y19.666250 Z-1.000000 I0.166132 J-0.734639
G02 X9.978635 Y19.521977 Z-1.000000 I-0.294290 J-1.547152
G02 X10.348768 Y19.159481 Z-1.000000 I-0.394223 J-0.772740
G02 X10.425791 Y18.688672 Z-1.000000 I-0.647791 J-0.347682
G02 X10.280717 Y18.314406 Z-1.000000 I-0.988569 J0.167943
G02 X10.118254 Y18.210071 Z-1.000000 I-0.195398 J0.125604
G03 X9.978307 Y18.018588 Z-1.000000 I0.023498 J-0.164057
G03 X10.200644 Y17.718265 Z-1.000000 I0.406030 J0.068132
G03 X10.446369 Y17.614486 Z-1.000000 I0.946832 J1.899081
G01 X10.476736 Y17.621415 Z-1.000000
G03 X10.671114 Y18.052618 Z-1.000000 I-0.472468 J0.472392
G03 X10.570446 Y19.142746 Z-1.000000 I-3.566956 J0.220320
G03 X10.454077 Y19.326915 Z-1.000000 I-0.338340 J-0.084935
G03 X9.940272 Y19.662852 Z-1.000000 I-1.768616 J-2.144150
G03 X9.503682 Y19.858538 Z-1.000000 I-2.297033 J-4.539997
G03 X9.322053 Y19.893033 Z-1.000000 I-0.182149 J-0.463653
G01 X9.322053 Y19.893033 Z-1.000000
G00 Z0.000000

(End cutting path id: path4520)


(Start cutting path id: path4520)
(Change tool to Cone cutter)

G00 Z0.000000
G00 X16.074028 Y19.701845

G01 Z-1.000000 F100.0(Penetrate)
G03 X15.903579 Y19.702633 Z-1.000000 I-0.105333 J-4.347343 F400.000000
G03 X15.739447 Y19.696185 Z-1.000000 I0.050629 J-3.380760
G03 X14.063329 Y19.190565 Z-1.000000 I0.244634 J-3.841914
G03 X12.721938 Y17.959137 Z-1.000000 I2.078664 J-3.610583
G01 X12.744003 Y17.937447 Z-1.000000
G03 X12.997401 Y18.157873 Z-1.000000 I-1.081796 J1.499483
G02 X14.294887 Y19.120162 Z-1.000000 I3.473181 J-3.327137
G02 X15.763346 Y19.560969 Z-1.000000 I1.960866 J-3.865886
G02 X16.940415 Y19.484054 Z-1.000000 I0.376099 J-3.289454
G02 X17.961386 Y19.012560 Z-1.000000 I-0.726749 J-2.914848
G02 X18.812810 Y18.057965 Z-1.000000 I-1.693328 J-2.367314
G02 X18.817332 Y17.470474 Z-1.000000 I-0.536600 J-0.297894
G02 X18.693820 Y17.341356 Z-1.000000 I-0.293428 J0.157054
G02 X18.601616 Y17.342176 Z-1.000000 I-0.045425 J0.076505
G03 X18.466114 Y17.321381 Z-1.000000 I-0.055553 J-0.089879
G03 X17.696615 Y16.295042 Z-1.000000 I7.010139 J-6.057500
G02 X16.898046 Y15.550123 Z-1.000000 I-1.882153 J1.217206
G02 X15.259590 Y14.949175 Z-1.000000 I-2.767406 J5.011141
G03 X13.573943 Y14.463229 Z-1.000000 I2.107823 J-10.478166
G03 X12.699298 Y13.976882 Z-1.000000 I1.232140 J-3.245529
G03 X12.143301 Y13.407051 Z-1.000000 I1.665491 J-2.181223
G03 X12.028880 Y13.052384 Z-1.000000 I0.486132 J-0.352623
G01 X12.069404 Y13.032280 Z-1.000000
G03 X12.187994 Y13.172503 Z-1.000000 I-0.250718 J0.332297
G02 X13.039710 Y14.031411 Z-1.000000 I1.806329 J-0.939457
G02 X15.274055 Y14.810813 Z-1.000000 I3.654936 J-6.885417
G02 X16.856552 Y14.967385 Z-1.000000 I1.713967 J-9.247745
G02 X17.237511 Y14.838483 Z-1.000000 I0.008423 J-0.602503
G02 X17.622879 Y14.373295 Z-1.000000 I-0.885605 J-1.125862
G02 X17.954467 Y13.458655 Z-1.000000 I-3.289776 J-1.710083
G02 X17.938504 Y13.167568 Z-1.000000 I-0.531844 J-0.116816
G02 X17.750072 Y12.853644 Z-1.000000 I-0.813592 J0.274842
G03 X17.506604 Y12.543811 Z-1.000000 I1.606707 J-1.513134
G03 X17.285937 Y12.139202 Z-1.000000 I2.500071 J-1.625974
G02 X16.691484 Y11.313016 Z-1.000000 I-2.317046 J1.040198
G02 X15.954535 Y10.910942 Z-1.000000 I-1.169482 J1.267102
G02 X15.661322 Y10.865146 Z-1.000000 I-0.378334 J1.460753
G02 X15.291035 Y10.873202 Z-1.000000 I-0.133734 J2.366970
G02 X14.971504 Y10.996881 Z-1.000000 I0.064190 J0.640438
G02 X14.625020 Y11.367524 Z-1.000000 I0.843126 J1.135442
G03 X13.988396 Y12.031113 Z-1.000000 I-2.013366 J-1.294382
G03 X13.429463 Y12.208375 Z-1.000000 I-0.560282 J-0.796821
G02 X13.162003 Y12.234070 Z-1.000000 I0.002086 J1.426546
G02 X12.880424 Y12.314036 Z-1.000000 I0.319685 J1.661427
G03 X12.619806 Y12.367924 Z-1.000000 I-0.297948 J-0.783816
G03 X12.543957 Y12.329126 Z-1.000000 I-0.003834 J-0.086045
G02 X12.471586 Y12.256555 Z-1.000000 I-0.212025 J0.139069
G02 X12.335788 Y12.191395 Z-1.000000 I-0.306162 J0.463979
G01 X12.338370 Y12.166005 Z-1.000000
G03 X12.871619 Y12.132905 Z-1.000000 I0.619977 J5.676061
G02 X13.834575 Y11.887290 Z-1.000000 I-0.032413 J-2.137567
G02 X14.538859 Y11.255577 Z-1.000000 I-0.901482 J-1.713495
G02 X14.819991 Y10.520797 Z-1.000000 I-1.446929 J-0.974777
G02 X14.762123 Y9.651228 Z-1.000000 I-2.125828 J-0.295240
G02 X14.383974 Y9.022006 Z-1.000000 I-1.324790 J0.367929
G02 X13.110605 Y8.083356 Z-1.000000 I-4.396018 J4.630575
G03 X12.096913 Y7.479091 Z-1.000000 I10.878497 J-19.401736
G03 X11.746500 Y7.220493 Z-1.000000 I1.625461 J-2.569297
G02 X10.848581 Y6.653397 Z-1.000000 I-2.402535 J2.809670
G02 X10.101272 Y6.487184 Z-1.000000 I-0.782961 J1.757177
G02 X9.217226 Y6.930736 Z-1.000000 I-0.019615 J1.063678
G02 X8.612643 Y8.561956 Z-1.000000 I2.675279 J1.919196
G02 X8.633093 Y9.210258 Z-1.000000 I2.718662 J0.238714
G02 X8.781820 Y9.677642 Z-1.000000 I1.546501 J-0.234759
G02 X9.279167 Y10.376246 Z-1.000000 I2.511078 J-1.261340
G02 X9.923920 Y10.851187 Z-1.000000 I1.756948 J-1.710021
G03 X10.384402 Y11.109376 Z-1.000000 I-2.981884 J5.857958
G01 X10.405664 Y11.147404 Z-1.000000
G01 X10.383622 Y11.162426 Z-1.000000
G03 X9.974861 Y10.978228 Z-1.000000 I1.672863 J-4.257960
G02 X9.207420 Y10.794375 Z-1.000000 I-0.763772 J1.494489
G02 X8.327118 Y10.981400 Z-1.000000 I0.004784 J2.187763
G02 X7.891633 Y11.263040 Z-1.000000 I0.668367 J1.510961
G02 X6.858613 Y12.300224 Z-1.000000 I8.778347 J9.776135
G03 X6.180445 Y13.009799 Z-1.000000 I-10.436518 J-9.295718
G03 X5.996379 Y13.141705 Z-1.000000 I-0.525169 J-0.538459
G01 X5.971620 Y13.112316 Z-1.000000
G03 X6.361776 Y12.651784 Z-1.000000 I3.928272 J2.932443
G02 X6.924711 Y12.050022 Z-1.000000 I-24.028762 J-23.042541
G02 X7.173069 Y11.763135 Z-1.000000 I-5.358418 J-4.889743
G03 X7.705795 Y11.221754 Z-1.000000 I3.267272 J2.682246
G03 X8.147250 Y10.936748 Z-1.000000 I1.308899 J1.542999
G01 X8.498810 Y10.770087 Z-1.000000
G01 X7.753552 Y10.438023 Z-1.000000
G03 X7.008938 Y10.104630 Z-1.000000 I88.033086 J-197.615089
G03 X6.517745 Y9.881438 Z-1.000000 I30.425366 J-67.611211
G03 X6.064531 Y9.601680 Z-1.000000 I0.905959 J-1.974662
G03 X4.925975 Y8.605380 Z-1.000000 I11.021164 J-13.743517
G02 X3.783099 Y7.637034 Z-1.000000 I-8.782589 J9.206920
G02 X3.438603 Y7.488437 Z-1.000000 I-0.480142 J0.639497
G03 X3.056171 Y7.407786 Z-1.000000 I0.888398 J-5.159665
G03 X2.428575 Y7.235615 Z-1.000000 I3.499868 J-13.987616
G02 X1.803663 Y7.106137 Z-1.000000 I-1.063404 J3.559627
G02 X1.516027 Y7.127446 Z-1.000000 I-0.089083 J0.749474
G02 X1.343992 Y7.293884 Z-1.000000 I0.065343 J0.239671
G02 X1.238049 Y8.028044 Z-1.000000 I2.282094 J0.704041
G02 X1.351839 Y8.824191 Z-1.000000 I3.117872 J-0.039419
G02 X1.733629 Y9.808488 Z-1.000000 I5.159502 J-1.435082
G02 X2.505084 Y11.022721 Z-1.000000 I6.608116 J-3.346238
G02 X3.378228 Y11.914077 Z-1.000000 I4.405891 J-3.442540
G02 X4.169100 Y12.430852 Z-1.000000 I2.844237 J-3.489253
G02 X4.944842 Y12.716566 Z-1.000000 I1.565105 J-3.053453
G03 X5.026009 Y12.771554 Z-1.000000 I-0.031738 J0.134247
G01 X5.008358 Y12.807126 Z-1.000000
G03 X3.676321 Y12.371760 Z-1.000000 I-0.076050 J-2.022740
G03 X1.912865 Y10.357523 Z-1.000000 I4.581108 J-5.789810
G03 X1.295395 Y8.997189 Z-1.000000 I5.810474 J-3.457741
G03 X1.127986 Y7.952573 Z-1.000000 I3.226545 J-1.052806
G03 X1.238335 Y7.173086 Z-1.000000 I2.760601 J-0.006744
G03 X1.407222 Y6.994115 Z-1.000000 I0.259433 J0.075644
G03 X1.689771 Y6.951397 Z-1.000000 I0.251373 J0.706858
G03 X2.117260 Y7.023675 Z-1.000000 I-0.071724 J1.724544
G02 X2.548302 Y7.144307 Z-1.000000 I3.150597 J-10.427248
G02 X3.195841 Y7.301653 Z-1.000000 I5.957561 J-23.106577
G03 X3.839499 Y7.466907 Z-1.000000 I-2.747376 J12.037070
G03 X3.981978 Y7.526173 Z-1.000000 I-0.183155 J0.641215
G03 X4.106924 Y7.617073 Z-1.000000 I-0.318163 J0.568649
G03 X5.115902 Y8.577710 Z-1.000000 I-36.265809 J39.100975
G02 X6.170715 Y9.471237 Z-1.000000 I6.798787 J-6.956629
G02 X7.068037 Y10.005964 Z-1.000000 I3.276178 J-4.477476
G02 X8.479417 Y10.563461 Z-1.000000 I4.866600 J-10.255165
G02 X8.580565 Y10.489596 Z-1.000000 I0.023604 J-0.073865
G01 X8.616603 Y10.442088 Z-1.000000
G03 X8.731504 Y10.447466 Z-1.000000 I0.049325 J0.176264
G02 X8.862693 Y10.345855 Z-1.000000 I0.034770 J-0.090604
G02 X8.634021 Y9.595293 Z-1.000000 I-2.152709 J0.245746
G03 X8.453221 Y8.818954 Z-1.000000 I1.436187 J-0.743692
G03 X8.674268 Y7.601649 Z-1.000000 I3.895501 J0.078650
G03 X9.080142 Y6.837208 Z-1.000000 I2.748840 J0.969509
G03 X9.513233 Y6.468354 Z-1.000000 I1.010590 J0.747903
G03 X10.307096 Y6.374742 Z-1.000000 I0.521329 J1.008135
G03 X11.615678 Y6.988462 Z-1.000000 I-0.890886 J3.601506
G02 X12.243336 Y7.406381 Z-1.000000 I4.742010 J-6.441570
G02 X12.371628 Y7.441906 Z-1.000000 I0.128292 J-0.213890
G02 X12.576811 Y7.338783 Z-1.000000 I0.000000 J-0.255686
G02 X14.670922 Y4.348929 Z-1.000000 I-51.653915 J-38.406999
G02 X15.652172 Y2.632155 Z-1.000000 I-13.032505 J-8.587748
G02 X16.187224 Y1.255951 Z-1.000000 I-7.803024 J-3.825839
G03 X16.435049 Y0.508031 Z-1.000000 I11.047428 J3.245578
G03 X16.516142 Y0.366045 Z-1.000000 I0.467596 J0.172909
G03 X16.623184 Y0.270859 Z-1.000000 I0.347723 J0.283255
G01 X16.659535 Y0.274855 Z-1.000000
G03 X16.732837 Y0.593044 Z-1.000000 I-0.217687 J0.217687
G03 X15.830631 Y2.675402 Z-1.000000 I-14.071606 J-4.860064
G02 X15.707176 Y2.948373 Z-1.000000 I2.195023 J1.157128
G02 X15.115561 Y4.550182 Z-1.000000 I75.781407 J28.899424
G03 X14.935925 Y4.931679 Z-1.000000 I-2.054549 J-0.734388
G01 X14.891669 Y4.926898 Z-1.000000
G03 X14.885566 Y4.805137 Z-1.000000 I0.215577 J-0.071839
G03 X14.948269 Y4.675335 Z-1.000000 I0.310418 J0.069906
G02 X15.023024 Y4.540549 Z-1.000000 I-0.352155 J-0.283436
G02 X15.114930 Y4.196735 Z-1.000000 I-2.277105 J-0.792888
G01 X15.182220 Y3.842030 Z-1.000000
G01 X14.974680 Y4.080387 Z-1.000000
G02 X14.818348 Y4.323192 Z-1.000000 I0.767343 J0.665789
G02 X14.823742 Y4.409935 Z-1.000000 I0.083710 J0.038334
G03 X14.828820 Y4.472482 Z-1.000000 I-0.058624 J0.036239
G01 X14.786002 Y4.501125 Z-1.000000
G02 X14.025011 Y4.904079 Z-1.000000 I0.000000 J0.920055
G02 X14.232561 Y5.315563 Z-1.000000 I0.217995 J0.148130
G01 X14.240835 Y5.335823 Z-1.000000
G03 X14.132571 Y5.421845 Z-1.000000 I-0.351080 J-0.330715
G02 X13.996163 Y5.548888 Z-1.000000 I0.212753 J0.365190
G02 X13.955218 Y5.681585 Z-1.000000 I0.194555 J0.132697
G03 X13.915060 Y5.818457 Z-1.000000 I-0.253331 J-0.000000
G03 X13.746420 Y6.006731 Z-1.000000 I-0.668907 J-0.429486
G02 X13.605449 Y6.194530 Z-1.000000 I0.303493 J0.374626
G02 X13.603029 Y6.348229 Z-1.000000 I0.189989 J0.079860
G02 X13.693654 Y6.391631 Z-1.000000 I0.068247 J-0.026187
G02 X13.921887 Y6.245720 Z-1.000000 I-0.162703 J-0.505957
G01 X14.174079 Y5.971516 Z-1.000000
G01 X13.928175 Y6.406092 Z-1.000000
G03 X13.665509 Y6.829005 Z-1.000000 I-5.362041 J-3.037269
G03 X13.463411 Y7.091603 Z-1.000000 I-2.295924 J-1.557900
G02 X13.276852 Y7.354206 Z-1.000000 I1.241667 J1.079680
G02 X13.245179 Y7.473351 Z-1.000000 I0.208262 J0.119145
G03 X13.219302 Y7.593592 Z-1.000000 I-0.292297 J0.000000
G03 X13.136378 Y7.713595 Z-1.000000 I-0.369856 J-0.166924
G02 X13.123006 Y7.814919 Z-1.000000 I0.059373 J0.059380
G02 X13.320649 Y8.032453 Z-1.000000 I0.598091 J-0.344851
G01 X13.614979 Y8.241251 Z-1.000000
G01 X13.888554 Y7.683408 Z-1.000000
G02 X14.107494 Y7.126978 Z-1.000000 I-3.312921 J-1.624830
G02 X14.093578 Y7.004814 Z-1.000000 I-0.148590 J-0.044949
G03 X14.086737 Y6.961949 Z-1.000000 I0.053211 J-0.030470
G01 X14.103678 Y6.956394 Z-1.000000
G02 X14.178332 Y6.964102 Z-1.000000 I0.042600 J-0.047220
G02 X14.364677 Y6.804198 Z-1.000000 I-0.343875 J-0.589268
G02 X14.484070 Y6.590958 Z-1.000000 I-0.560029 J-0.453605
G02 X14.462157 Y6.528735 Z-1.000000 I-0.049536 J-0.017525
G03 X14.432725 Y6.462766 Z-1.000000 I0.033750 J-0.054608
G03 X14.516877 Y6.224343 Z-1.000000 I0.774351 J0.139248
G01 X14.655237 Y5.971522 Z-1.000000
G01 X14.635107 Y6.274656 Z-1.000000
G01 X14.614977 Y6.577791 Z-1.000000
G01 X15.324387 Y6.651371 Z-1.000000
G02 X16.031767 Y6.695595 Z-1.000000 I0.895795 J-8.649114
G02 X16.211778 Y6.670871 Z-1.000000 I0.012499 J-0.576682
G02 X16.357148 Y6.576991 Z-1.000000 I-0.091324 J-0.300901
G02 X16.652016 Y6.167743 Z-1.000000 I-2.016894 J-1.764048
G03 X16.948392 Y5.748300 Z-1.000000 I2.608125 J1.528451
G03 X17.202940 Y5.513677 Z-1.000000 I1.053951 J0.888066
G02 X17.728826 Y4.883804 Z-1.000000 I-0.938567 J-1.318087
G02 X17.666446 Y4.526918 Z-1.000000 I-0.285225 J-0.134040
G02 X17.293269 Y4.531235 Z-1.000000 I-0.184480 J0.184480
G02 X17.177783 Y5.038850 Z-1.000000 I0.367052 J0.350451
G01 X17.161784 Y5.068442 Z-1.000000
G03 X17.101053 Y5.059600 Z-1.000000 I-0.020168 J-0.074458
G02 X16.997345 Y5.052237 Z-1.000000 I-0.058877 J0.095244
G02 X16.535664 Y5.306132 Z-1.000000 I1.162316 J2.660259
G03 X16.070318 Y5.601873 Z-1.000000 I-5.600803 J-8.298835
G03 X16.016185 Y5.616814 Z-1.000000 I-0.054133 J-0.090595
G02 X15.964395 Y5.634713 Z-1.000000 I-0.000000 J0.083873
G02 X15.564627 Y5.971519 Z-1.000000 I4.666324 J5.944305
G03 X15.158737 Y6.292480 Z-1.000000 I-2.644644 J-2.927317
G03 X15.048292 Y6.326853 Z-1.000000 I-0.110445 J-0.160248
G01 X15.031216 Y6.293338 Z-1.000000
G03 X15.175332 Y6.152015 Z-1.000000 I0.491648 J0.357222
G02 X15.420176 Y5.969689 Z-1.000000 I-2.774910 J-3.981972
G02 X15.628776 Y5.792279 Z-1.000000 I-2.563025 J-3.224961
G03 X15.842359 Y5.621833 Z-1.000000 I1.426810 J1.568869
G03 X16.451390 Y5.218085 Z-1.000000 I8.837944 J12.670322
G02 X17.025567 Y4.782074 Z-1.000000 I-2.192221 J-3.482978
G02 X17.367711 Y4.386037 Z-1.000000 I-1.456034 J-1.603705
G03 X17.727802 Y4.121501 Z-1.000000 I0.547195 J0.367501
G03 X17.892850 Y4.230696 Z-1.000000 I0.036677 J0.123895
G03 X17.786865 Y4.876194 Z-1.000000 I-1.189345 J0.136170
G03 X17.175893 Y5.755174 Z-1.000000 I-2.897605 J-1.362272
G02 X16.757292 Y6.206173 Z-1.000000 I8.075705 J7.915353
G02 X16.509879 Y6.513010 Z-1.000000 I3.496007 J3.072109
G01 X16.275295 Y6.830609 Z-1.000000
G01 X15.394193 Y6.768979 Z-1.000000
G01 X14.513090 Y6.707969 Z-1.000000
G01 X14.127569 Y7.492848 Z-1.000000
G02 X13.863225 Y8.246795 Z-1.000000 I3.013591 J1.479920
G02 X13.925059 Y8.406025 Z-1.000000 I0.150247 J0.033275
G03 X14.475585 Y8.911652 Z-1.000000 I-1.645045 J2.343643
G03 X14.818740 Y9.473285 Z-1.000000 I-1.705263 J1.427557
G03 X15.000554 Y10.032146 Z-1.000000 I-3.172230 J1.341025
G03 X15.021878 Y10.344324 Z-1.000000 I-0.951026 J0.221780
G02 X15.118601 Y10.558229 Z-1.000000 I0.236311 J0.021967
G02 X15.521232 Y10.707834 Z-1.000000 I0.468451 J-0.644139
G03 X16.471759 Y11.046879 Z-1.000000 I-0.162275 J1.956891
G03 X17.266456 Y11.907793 Z-1.000000 I-1.502067 J2.183779
G02 X17.611579 Y12.442593 Z-1.000000 I5.461014 J-3.145405
G02 X17.850085 Y12.719715 Z-1.000000 I1.707161 J-1.228076
G03 X18.075046 Y13.243116 Z-1.000000 I-0.521016 J0.533981
G03 X17.871465 Y14.194508 Z-1.000000 I-2.180335 J0.030924
G03 X17.442682 Y14.841329 Z-1.000000 I-2.359904 J-1.098869
G03 X16.967723 Y15.193845 Z-1.000000 I-1.119231 J-1.011760
G02 X16.934956 Y15.251051 Z-1.000000 I0.024588 J0.052070
G02 X16.978433 Y15.312711 Z-1.000000 I0.074985 J-0.006714
G03 X17.307282 Y15.561079 Z-1.000000 I-0.404256 J0.877139
G03 X17.944438 Y16.439717 Z-1.000000 I-5.058422 J4.338520
G02 X18.354763 Y16.978828 Z-1.000000 I2.770754 J-1.683153
G02 X18.665798 Y17.205729 Z-1.000000 I0.760800 J-0.716268
G03 X18.959979 Y17.419569 Z-1.000000 I-0.428790 J0.899164
G03 X19.026163 Y17.585591 Z-1.000000 I-0.175142 J0.166022
G03 X18.839207 Y18.279907 Z-1.000000 I-1.382750 J-0.000000
G03 X18.153866 Y19.087426 Z-1.000000 I-2.591078 J-1.504463
G03 X17.367676 Y19.502312 Z-1.000000 I-1.397230 J-1.695345
G03 X16.074028 Y19.701845 Z-1.000000 I-1.417012 J-4.893664
G01 X16.074028 Y19.701845 Z-1.000000
G00 Z0.000000

(End cutting path id: path4520)


(Start cutting path id: path4520)
(Change tool to Cone cutter)

G00 Z0.000000
G00 X8.506357 Y18.964134

G01 Z-1.000000 F100.0(Penetrate)
G03 X8.485718 Y18.909413 Z-1.000000 I0.050182 J-0.050179 F400.000000
G03 X8.529626 Y18.598109 Z-1.000000 I2.063798 J0.132340
G01 X8.586426 Y18.581499 Z-1.000000
G03 X8.618298 Y18.686780 Z-1.000000 I-0.082429 J0.082419
G03 X8.537254 Y18.957839 Z-1.000000 I-1.490823 J-0.298100
G01 X8.506357 Y18.964129 Z-1.000000
G01 X8.506357 Y18.964134 Z-1.000000
G00 Z0.000000

(End cutting path id: path4520)


(Start cutting path id: path4520)
(Change tool to Cone cutter)

G00 Z0.000000
G00 X6.500765 Y18.796845

G01 Z-1.000000 F100.0(Penetrate)
G03 X6.465549 Y18.789501 Z-1.000000 I0.058001 J-0.366236 F400.000000
G03 X6.398877 Y18.771057 Z-1.000000 I0.551497 J-2.123299
G02 X6.196178 Y18.714043 Z-1.000000 I-2.624562 J8.942116
G02 X5.773111 Y18.602509 Z-1.000000 I-11.089721 J41.207040
G03 X5.022701 Y18.207394 Z-1.000000 I0.461084 J-1.785854
G03 X4.827861 Y17.779266 Z-1.000000 I0.372949 J-0.428129
G02 X4.780291 Y17.565295 Z-1.000000 I-0.505012 J-0.000000
G02 X4.611516 Y17.316389 Z-1.000000 I-0.863819 J0.404055
G02 X4.385443 Y17.139622 Z-1.000000 I-0.686112 J0.644540
G02 X4.123482 Y17.042812 Z-1.000000 I-0.437555 J0.781166
G03 X3.493871 Y16.622224 Z-1.000000 I0.194581 J-0.972833
G03 X3.205274 Y15.673048 Z-1.000000 I1.416587 J-0.949176
G02 X3.153647 Y15.337957 Z-1.000000 I-1.113294 J-0.000000
G02 X3.034210 Y15.129669 Z-1.000000 I-0.536812 J0.169432
G03 X2.974267 Y14.699905 Z-1.000000 I0.286166 J-0.258976
G03 X3.509666 Y14.165551 Z-1.000000 I1.052890 J0.519549
G03 X3.971784 Y13.968287 Z-1.000000 I2.090929 J4.258364
G03 X4.117821 Y13.943546 Z-1.000000 I0.139990 J0.382945
G01 X4.130889 Y13.971519 Z-1.000000
G03 X4.041721 Y14.037256 Z-1.000000 I-0.171669 J-0.139513
G02 X3.912178 Y14.224685 Z-1.000000 I0.077071 J0.191750
G02 X4.034171 Y14.395106 Z-1.000000 I0.174922 J0.003659
G02 X4.231510 Y14.394513 Z-1.000000 I0.097744 J-0.307987
G02 X4.388876 Y14.280646 Z-1.000000 I-0.097202 J-0.300010
G03 X4.495641 Y14.182085 Z-1.000000 I0.304197 J0.222410
G01 X4.523464 Y14.197636 Z-1.000000
G03 X4.416240 Y14.434296 Z-1.000000 I-0.314785 J0.000000
G03 X4.131024 Y14.541650 Z-1.000000 I-0.285216 J-0.325201
G03 X3.993994 Y14.509650 Z-1.000000 I0.000000 J-0.309391
G03 X3.803361 Y14.380020 Z-1.000000 I0.370205 J-0.749411
G02 X3.234879 Y14.396163 Z-1.000000 I-0.275816 J0.304767
G02 X3.167539 Y15.024649 Z-1.000000 I0.361587 J0.356594
G03 X3.272231 Y15.266394 Z-1.000000 I-0.714703 J0.453058
G03 X3.324137 Y15.632805 Z-1.000000 I-1.607889 J0.414656
G02 X3.364275 Y16.004478 Z-1.000000 I2.385547 J-0.069620
G02 X3.434192 Y16.214546 Z-1.000000 I0.806423 J-0.151730
G02 X3.893783 Y16.838128 Z-1.000000 I1.958255 J-0.962117
G02 X4.239196 Y16.975527 Z-1.000000 I0.345412 J-0.365472
G03 X4.802411 Y17.192406 Z-1.000000 I0.000000 J0.839750
G03 X4.817792 Y17.498780 Z-1.000000 I-0.145468 J0.160876
G01 X4.811923 Y17.535738 Z-1.000000
G02 X4.980052 Y17.861031 Z-1.000000 I2.957978 J-1.322738
G02 X5.451161 Y18.329070 Z-1.000000 I1.132913 J-0.669227
G02 X6.073096 Y18.496859 Z-1.000000 I0.621935 J-1.068753
G03 X6.302042 Y18.543808 Z-1.000000 I-0.000000 J0.581700
G03 X6.462391 Y18.663519 Z-1.000000 I-0.167877 J0.392111
G03 X6.522227 Y18.771665 Z-1.000000 I-0.255303 J0.211882
G01 X6.500751 Y18.796848 Z-1.000000
G01 X6.500765 Y18.796845 Z-1.000000
G00 Z0.000000

(End cutting path id: path4520)


(Start cutting path id: path4520)
(Change tool to Cone cutter)

G00 Z0.000000
G00 X11.554683 Y18.568550

G01 Z-1.000000 F100.0(Penetrate)
G03 X11.453696 Y18.544674 Z-1.000000 I0.046511 J-0.422245 F400.000000
G03 X11.248404 Y18.464154 Z-1.000000 I1.996020 J-5.390949
G03 X11.034037 Y18.336084 Z-1.000000 I0.329450 J-0.794885
G01 X11.046523 Y18.299380 Z-1.000000
G03 X11.224628 Y18.319008 Z-1.000000 I0.018691 J0.648283
G03 X11.415693 Y18.393090 Z-1.000000 I-0.207728 J0.819178
G02 X12.194063 Y18.223711 Z-1.000000 I0.289786 J-0.541470
G02 X12.281701 Y17.256022 Z-1.000000 I-0.726986 J-0.553652
G01 X12.293352 Y17.246086 Z-1.000000
G03 X12.376041 Y17.324576 Z-1.000000 I-0.257820 J0.354414
G03 X12.472896 Y17.511393 Z-1.000000 I-0.405022 J0.328498
G03 X12.447741 Y17.578026 Z-1.000000 I-0.057691 J0.016286
G02 X12.379690 Y17.649598 Z-1.000000 I0.114158 J0.176678
G02 X12.294285 Y17.844685 Z-1.000000 I0.835848 J0.482157
G03 X12.197949 Y18.035875 Z-1.000000 I-0.623725 J-0.194413
G03 X11.932028 Y18.339637 Z-1.000000 I-1.859530 J-1.359604
G03 X11.691121 Y18.534651 Z-1.000000 I-1.285847 J-1.342137
G03 X11.554683 Y18.568559 Z-1.000000 I-0.114173 J-0.167953
G01 X11.554683 Y18.568550 Z-1.000000
G00 Z0.000000

(End cutting path id: path4520)


(Start cutting path id: path4520)
(Change tool to Cone cutter)

G00 Z0.000000
G00 X7.007037 Y18.564170

G01 Z-1.000000 F100.0(Penetrate)
G03 X7.008443 Y18.538037 Z-1.000000 I0.048941 J-0.010471 F400.000000
G03 X7.084391 Y18.319524 Z-1.000000 I6.775707 J2.232559
G03 X7.213808 Y18.002034 Z-1.000000 I4.433614 J1.622133
G01 X7.233442 Y17.989346 Z-1.000000
G03 X7.297207 Y18.071865 Z-1.000000 I0.000000 J0.065895
G03 X7.112690 Y18.452224 Z-1.000000 I-1.046860 J-0.272908
G03 X7.017932 Y18.567065 Z-1.000000 I-1.422303 J-1.077060
G01 X7.007028 Y18.564164 Z-1.000000
G01 X7.007037 Y18.564170 Z-1.000000
G00 Z0.000000

(End cutting path id: path4520)


(Start cutting path id: path4520)
(Change tool to Cone cutter)

G00 Z0.000000
G00 X16.541308 Y18.183051

G01 Z-1.000000 F100.0(Penetrate)
G01 X15.933152 Y18.126448 Z-1.000000 F400.000000
G03 X15.343367 Y18.012743 Z-1.000000 I0.283797 J-3.058504
G03 X14.893564 Y17.817654 Z-1.000000 I0.578307 J-1.949444
G03 X14.480181 Y17.554594 Z-1.000000 I3.381942 J-5.770860
G01 X14.462762 Y17.521438 Z-1.000000
G01 X14.481444 Y17.508957 Z-1.000000
G03 X14.893564 Y17.700048 Z-1.000000 I-2.106186 J5.082293
G02 X15.336755 Y17.888230 Z-1.000000 I1.491690 J-2.897123
G02 X15.933152 Y18.052869 Z-1.000000 I1.709927 J-5.031615
G01 X16.541308 Y18.183051 Z-1.000000
G00 Z0.000000

(End cutting path id: path4520)


(Start cutting path id: path4520)
(Change tool to Cone cutter)

G00 Z0.000000
G00 X10.203155 Y18.091239

G01 Z-1.000000 F100.0(Penetrate)
G02 X10.368689 Y18.054047 Z-1.000000 I0.000000 J-0.386976 F400.000000
G02 X10.405664 Y17.995642 Z-1.000000 I-0.027640 J-0.058405
G02 X10.327625 Y17.870768 Z-1.000000 I-0.138929 J0.000000
G02 X10.127058 Y17.859798 Z-1.000000 I-0.113291 J0.232338
G02 X10.063421 Y17.990088 Z-1.000000 I0.035092 J0.097826
G02 X10.203158 Y18.091236 Z-1.000000 I0.139737 J-0.045949
G01 X10.203155 Y18.091239 Z-1.000000
G00 Z0.000000

(End cutting path id: path4520)


(Start cutting path id: path4520)
(Change tool to Cone cutter)

G00 Z0.000000
G00 X8.698175 Y18.050360

G01 Z-1.000000 F100.0(Penetrate)
G01 X8.692748 Y18.045207 Z-1.000000 F400.000000
G03 X8.688073 Y18.023318 Z-1.000000 I0.069592 J-0.026304
G03 X8.696368 Y17.907280 Z-1.000000 I0.464084 J-0.025142
G03 X8.744677 Y17.740309 Z-1.000000 I1.006431 J0.200708
G03 X8.816929 Y17.617208 Z-1.000000 I0.407231 J0.156265
G01 X8.848451 Y17.615784 Z-1.000000
G03 X8.862317 Y17.661541 Z-1.000000 I-0.035837 J0.035839
G03 X8.791848 Y17.898792 Z-1.000000 I-1.324248 J-0.264242
G03 X8.718255 Y18.043040 Z-1.000000 I-0.824800 J-0.329900
G01 X8.698138 Y18.050360 Z-1.000000
G01 X8.698175 Y18.050360 Z-1.000000
G00 Z0.000000

(End cutting path id: path4520)


(Start cutting path id: path4520)
(Change tool to Cone cutter)

G00 Z0.000000
G00 X5.168105 Y17.557922

G01 Z-1.000000 F100.0(Penetrate)
G01 X5.161227 Y17.544391 Z-1.000000 F400.000000
G03 X5.191374 Y17.445981 Z-1.000000 I0.728781 J0.169432
G03 X5.275954 Y17.310264 Z-1.000000 I0.393452 J0.150989
G03 X5.345456 Y17.279948 Z-1.000000 I0.069502 J0.064515
G01 X5.383815 Y17.332010 Z-1.000000
G03 X5.281940 Y17.484345 Z-1.000000 I-0.307469 J-0.095389
G03 X5.186009 Y17.556197 Z-1.000000 I-0.768659 J-0.926297
G01 X5.168113 Y17.557926 Z-1.000000
G01 X5.168105 Y17.557922 Z-1.000000
G00 Z0.000000

(End cutting path id: path4520)


(Start cutting path id: path4520)
(Change tool to Cone cutter)

G00 Z0.000000
G00 X13.955231 Y17.381199

G01 Z-1.000000 F100.0(Penetrate)
G01 X13.947132 Y17.381848 Z-1.000000 F400.000000
G03 X13.828821 Y17.292527 Z-1.000000 I2.380619 J-3.276283
G03 X13.664661 Y17.147022 Z-1.000000 I1.126594 J-1.436389
G01 X13.651468 Y17.115174 Z-1.000000
G01 X13.690979 Y17.093622 Z-1.000000
G03 X13.867184 Y17.254163 Z-1.000000 I-0.388559 J0.603440
G03 X13.955920 Y17.373025 Z-1.000000 I-2.454102 J1.924666
G01 X13.955234 Y17.381203 Z-1.000000
G01 X13.955231 Y17.381199 Z-1.000000
G00 Z0.000000

(End cutting path id: path4520)


(Start cutting path id: path4520)
(Change tool to Cone cutter)

G00 Z0.000000
G00 X10.410067 Y17.376209

G01 Z-1.000000 F100.0(Penetrate)
G03 X10.344409 Y17.342762 Z-1.000000 I0.012017 J-0.104759 F400.000000
G03 X10.258499 Y17.194454 Z-1.000000 I0.292307 J-0.268360
G02 X9.949004 Y16.750660 Z-1.000000 I-0.867943 J0.275474
G02 X9.317651 Y16.464289 Z-1.000000 I-0.915409 J1.179024
G03 X9.212092 Y16.411254 Z-1.000000 I0.041527 J-0.214220
G01 X9.223941 Y16.378757 Z-1.000000
G03 X9.800520 Y16.518606 Z-1.000000 I0.043601 J1.078745
G03 X10.210070 Y16.938488 Z-1.000000 I-0.521079 J0.917934
G02 X10.350847 Y17.113016 Z-1.000000 I0.530559 J-0.283916
G02 X10.421384 Y17.118355 Z-1.000000 I0.038937 J-0.045796
G01 X10.472711 Y17.126939 Z-1.000000
G03 X10.506914 Y17.222751 Z-1.000000 I-0.117098 J0.095812
G03 X10.465078 Y17.351977 Z-1.000000 I-0.220499 J-0.000000
G03 X10.410064 Y17.376204 Z-1.000000 I-0.048191 J-0.034857
G01 X10.410067 Y17.376209 Z-1.000000
G00 Z0.000000

(End cutting path id: path4520)


(Start cutting path id: path4520)
(Change tool to Cone cutter)

G00 Z0.000000
G00 X10.452837 Y16.928425

G01 Z-1.000000 F100.0(Penetrate)
G01 X10.436996 Y16.919647 Z-1.000000 F400.000000
G03 X10.422017 Y16.772456 Z-1.000000 I0.715722 J-0.147191
G03 X10.446519 Y16.646052 Z-1.000000 I0.338310 J0.000000
G01 X10.472957 Y16.646044 Z-1.000000
G03 X10.497565 Y16.772768 Z-1.000000 I-0.313985 J0.126723
G03 X10.472957 Y16.899495 Z-1.000000 I-0.338612 J-0.000000
G03 X10.459962 Y16.922983 Z-1.000000 I-0.105157 J-0.042840
G01 X10.452827 Y16.928425 Z-1.000000
G01 X10.452837 Y16.928425 Z-1.000000
G00 Z0.000000

(End cutting path id: path4520)


(Start cutting path id: path4520)
(Change tool to Cone cutter)

G00 Z0.000000
G00 X6.969931 Y16.880633

G01 Z-1.000000 F100.0(Penetrate)
G03 X6.783191 Y16.833938 Z-1.000000 I0.020738 J-0.479685 F400.000000
G03 X6.549819 Y16.668691 Z-1.000000 I0.366728 J-0.765332
G03 X6.481334 Y16.301010 Z-1.000000 I0.233760 J-0.233759
G03 X6.830942 Y16.034120 Z-1.000000 I0.418100 J0.185255
G03 X6.909429 Y16.085765 Z-1.000000 I0.010523 J0.069471
G03 X6.867416 Y16.173109 Z-1.000000 I-0.072349 J0.018976
G02 X6.594371 Y16.407156 Z-1.000000 I0.254145 J0.572788
G02 X6.608305 Y16.576240 Z-1.000000 I0.117410 J0.075441
G02 X7.000778 Y16.697977 Z-1.000000 I0.299067 J-0.270652
G02 X7.274321 Y16.417756 Z-1.000000 I-0.084852 J-0.356453
G01 X7.339103 Y16.113363 Z-1.000000
G01 X7.351030 Y16.432220 Z-1.000000
G03 X7.221591 Y16.778067 Z-1.000000 I-0.478761 J0.017961
G03 X6.969911 Y16.880633 Z-1.000000 I-0.237641 J-0.223058
G01 X6.969931 Y16.880633 Z-1.000000
G00 Z0.000000

(End cutting path id: path4520)


(Start cutting path id: path4520)
(Change tool to Cone cutter)

G00 Z0.000000
G00 X12.016302 Y16.633472

G01 Z-1.000000 F100.0(Penetrate)
G01 X11.991352 Y16.629305 Z-1.000000 F400.000000
G03 X11.825742 Y16.366814 Z-1.000000 I2.032595 J-1.465890
G03 X11.651092 Y16.007153 Z-1.000000 I3.592920 J-1.966946
G03 X11.631409 Y15.910855 Z-1.000000 I0.225729 J-0.096299
G01 X11.655286 Y15.902752 Z-1.000000
G03 X11.825742 Y16.164305 Z-1.000000 I-1.616253 J1.239642
G03 X12.000392 Y16.523966 Z-1.000000 I-3.592920 J1.966946
G03 X12.020075 Y16.620265 Z-1.000000 I-0.225729 J0.096299
G01 X12.018739 Y16.629934 Z-1.000000
G01 X12.016275 Y16.633470 Z-1.000000
G01 X12.016302 Y16.633472 Z-1.000000
G00 Z0.000000

(End cutting path id: path4520)


(Start cutting path id: path4520)
(Change tool to Cone cutter)

G00 Z0.000000
G00 X8.714526 Y16.465553

G01 Z-1.000000 F100.0(Penetrate)
G03 X8.409340 Y16.333251 Z-1.000000 I-0.010308 J-0.394365 F400.000000
G03 X8.282466 Y15.979406 Z-1.000000 I0.376624 J-0.334711
G01 X8.315278 Y15.960247 Z-1.000000
G03 X8.377429 Y16.028463 Z-1.000000 I-0.060759 J0.117777
G02 X8.494089 Y16.223824 Z-1.000000 I0.683173 J-0.275445
G02 X8.649747 Y16.355497 Z-1.000000 I0.449570 J-0.373619
G03 X8.730851 Y16.436102 Z-1.000000 I-0.113695 J0.195503
G01 X8.714529 Y16.465552 Z-1.000000
G01 X8.714526 Y16.465553 Z-1.000000
G00 Z0.000000

(End cutting path id: path4520)


(Start cutting path id: path4520)
(Change tool to Cone cutter)

G00 Z0.000000
G00 X10.634588 Y16.122169

G01 Z-1.000000 F100.0(Penetrate)
G01 X10.626045 Y16.081096 Z-1.000000 F400.000000
G03 X11.042750 Y15.085725 Z-1.000000 I23.660031 J9.320204
G02 X11.622201 Y13.462321 Z-1.000000 I-10.534587 J-4.675287
G02 X11.677948 Y12.772596 Z-1.000000 I-1.791358 J-0.491902
G02 X11.512257 Y12.166893 Z-1.000000 I-1.955500 J0.209415
G02 X11.227021 Y11.782692 Z-1.000000 I-1.038293 J0.472862
G02 X10.839549 Y11.457144 Z-1.000000 I-7.549834 J8.592567
G02 X10.651568 Y11.320443 Z-1.000000 I-1.520139 J1.892780
G01 X10.658425 Y11.306126 Z-1.000000
G03 X10.879233 Y11.394023 Z-1.000000 I-0.549602 J1.701966
G03 X11.268278 Y11.635263 Z-1.000000 I-0.900199 J1.886063
G03 X11.508772 Y11.887088 Z-1.000000 I-0.750469 J0.957451
G03 X11.798848 Y12.496968 Z-1.000000 I-1.581489 J1.126125
G03 X11.869137 Y13.194591 Z-1.000000 I-2.012505 J0.555121
G03 X11.709919 Y14.115380 Z-1.000000 I-4.537488 J-0.310438
G03 X11.506256 Y14.485743 Z-1.000000 I-0.897615 J-0.252421
G02 X11.446079 Y14.591988 Z-1.000000 I0.211894 J0.190180
G02 X11.420096 Y14.764350 Z-1.000000 I0.558699 J0.172362
G03 X11.383746 Y14.910909 Z-1.000000 I-0.313628 J-0.000000
G03 X11.323246 Y14.947362 Z-1.000000 I-0.060500 J-0.031978
G02 X11.251944 Y14.987082 Z-1.000000 I0.000000 J0.083856
G02 X10.948415 Y15.553003 Z-1.000000 I4.407954 J2.728549
G03 X10.663363 Y16.118086 Z-1.000000 I-7.803310 J-3.581881
G01 X10.634588 Y16.122163 Z-1.000000
G01 X10.634588 Y16.122169 Z-1.000000
G00 Z0.000000

(End cutting path id: path4520)


(Start cutting path id: path4520)
(Change tool to Cone cutter)

G00 Z0.000000
G00 X11.600593 Y15.734131

G01 Z-1.000000 F100.0(Penetrate)
G01 X11.581972 Y15.732759 Z-1.000000 F400.000000
G03 X11.521353 Y15.656778 Z-1.000000 I0.349608 J-0.341097
G03 X11.437158 Y15.500661 Z-1.000000 I0.942363 J-0.608983
G03 X11.421351 Y15.429112 Z-1.000000 I0.170378 J-0.075162
G03 X11.445820 Y15.378471 Z-1.000000 I0.062022 J-0.001263
G03 X11.521353 Y15.353012 Z-1.000000 I0.075533 J0.099316
G03 X11.582573 Y15.393023 Z-1.000000 I0.000000 J0.066842
G03 X11.621355 Y15.581307 Z-1.000000 I-0.422463 J0.185153
G03 X11.612916 Y15.712726 Z-1.000000 I-1.148930 J-0.007796
G01 X11.600605 Y15.734132 Z-1.000000
G01 X11.600593 Y15.734131 Z-1.000000
G00 Z0.000000

(End cutting path id: path4520)


(Start cutting path id: path4520)
(Change tool to Cone cutter)

G00 Z0.000000
G00 X8.223348 Y15.718407

G01 Z-1.000000 F100.0(Penetrate)
G01 X8.192866 Y15.693152 Z-1.000000 F400.000000
G03 X8.174923 Y15.486968 Z-1.000000 I1.175672 J-0.206184
G02 X8.134917 Y15.205884 Z-1.000000 I-1.007478 J-0.000000
G02 X8.047883 Y15.048618 Z-1.000000 I-0.390727 J0.113520
G01 X8.054693 Y15.029468 Z-1.000000
G03 X8.098827 Y15.040468 Z-1.000000 I0.009188 J0.057176
G03 X8.241606 Y15.191887 Z-1.000000 I-0.377679 J0.499152
G03 X8.276179 Y15.305867 Z-1.000000 I-0.170596 J0.113981
G02 X8.308778 Y15.413856 Z-1.000000 I0.195163 J-0.000000
G02 X8.388753 Y15.475044 Z-1.000000 I0.128915 J-0.085636
G01 X8.416605 Y15.528415 Z-1.000000
G03 X8.337809 Y15.647994 Z-1.000000 I-0.235815 J-0.069638
G03 X8.256043 Y15.708433 Z-1.000000 I-0.578014 J-0.696447
G03 X8.223349 Y15.718435 Z-1.000000 I-0.033516 J-0.051119
G01 X8.223348 Y15.718407 Z-1.000000
G00 Z0.000000

(End cutting path id: path4520)


(Start cutting path id: path4520)
(Change tool to Cone cutter)

G00 Z0.000000
G00 X3.458729 Y15.707697

G01 Z-1.000000 F100.0(Penetrate)
G01 X3.651804 Y15.479402 Z-1.000000 F400.000000
G03 X3.850731 Y15.263272 Z-1.000000 I2.705996 J2.291011
G01 X3.880098 Y15.251108 Z-1.000000
G01 X3.898580 Y15.287536 Z-1.000000
G03 X3.687023 Y15.514621 Z-1.000000 I-1.061533 J-0.776856
G01 X3.458729 Y15.707697 Z-1.000000
G00 Z0.000000

(End cutting path id: path4520)


(Start cutting path id: path4520)
(Change tool to Cone cutter)

G00 Z0.000000
G00 X5.978769 Y14.978791

G01 Z-1.000000 F100.0(Penetrate)
G03 X5.799557 Y14.896555 Z-1.000000 I-0.001176 J-0.233829 F400.000000
G03 X5.497025 Y14.434155 Z-1.000000 I1.674247 J-1.425568
G02 X5.048625 Y13.915489 Z-1.000000 I-1.201107 J0.585229
G02 X4.726611 Y13.909016 Z-1.000000 I-0.165965 J0.243399
G03 X4.562496 Y13.965524 Z-1.000000 I-0.204587 J-0.327610
G01 X4.523473 Y13.930396 Z-1.000000
G03 X4.560735 Y13.850746 Z-1.000000 I0.103760 J0.000000
G03 X4.751138 Y13.740465 Z-1.000000 I0.415146 J0.497252
G03 X5.168094 Y13.800689 Z-1.000000 I0.153063 J0.413769
G03 X5.647334 Y14.408995 Z-1.000000 I-0.893150 J1.196580
G02 X6.045405 Y14.806440 Z-1.000000 I0.694809 J-0.297831
G02 X6.312720 Y14.693263 Z-1.000000 I0.079124 J-0.185393
G03 X6.394929 Y14.577219 Z-1.000000 I0.268361 J0.102973
G03 X6.486929 Y14.544841 Z-1.000000 I0.088232 J0.103808
G01 X6.506527 Y14.582857 Z-1.000000
G03 X6.316494 Y14.799548 Z-1.000000 I-0.927812 J-0.621996
G03 X6.110134 Y14.944608 Z-1.000000 I-0.767501 J-0.872526
G03 X5.978769 Y14.978780 Z-1.000000 I-0.132749 J-0.240731
G01 X5.978769 Y14.978791 Z-1.000000
G00 Z0.000000

(End cutting path id: path4520)


(Start cutting path id: path4520)
(Change tool to Cone cutter)

G00 Z0.000000
G00 X7.737830 Y14.793263

G01 Z-1.000000 F100.0(Penetrate)
G03 X7.676338 Y14.775482 Z-1.000000 I0.033008 J-0.229366 F400.000000
G03 X7.426520 Y14.649871 Z-1.000000 I1.244096 J-2.785523
G02 X7.075232 Y14.480242 Z-1.000000 I-1.544560 J2.750092
G02 X6.842891 Y14.411515 Z-1.000000 I-0.457355 J1.119063
G01 X6.602647 Y14.366235 Z-1.000000
G01 X6.856099 Y14.353035 Z-1.000000
G03 X7.098248 Y14.384439 Z-1.000000 I0.035747 J0.673642
G03 X7.439098 Y14.540451 Z-1.000000 I-0.485897 J1.511913
G03 X7.748584 Y14.770249 Z-1.000000 I-1.102084 J1.807564
G01 X7.737830 Y14.793273 Z-1.000000
G01 X7.737830 Y14.793263 Z-1.000000
G00 Z0.000000

(End cutting path id: path4520)


(Start cutting path id: path4520)
(Change tool to Cone cutter)

G00 Z0.000000
G00 X13.947055 Y14.325983

G01 Z-1.000000 F100.0(Penetrate)
G03 X13.893192 Y14.322688 Z-1.000000 I-0.011094 J-0.260553 F400.000000
G03 X13.835114 Y14.306483 Z-1.000000 I0.046143 J-0.277549
G01 X13.828666 Y14.275060 Z-1.000000
G03 X13.896124 Y14.245473 Z-1.000000 I0.071630 J0.071620
G03 X14.022920 Y14.266872 Z-1.000000 I0.012783 J0.310604
G01 X14.029453 Y14.298303 Z-1.000000
G03 X13.999374 Y14.316666 Z-1.000000 I-0.053004 J-0.053004
G03 X13.947063 Y14.325983 Z-1.000000 I-0.060567 J-0.188554
G01 X13.947055 Y14.325983 Z-1.000000
G00 Z0.000000

(End cutting path id: path4520)


(Start cutting path id: path4520)
(Change tool to Cone cutter)

G00 Z0.000000
G00 X14.766525 Y13.920336

G01 Z-1.000000 F100.0(Penetrate)
G03 X14.666407 Y13.915344 Z-1.000000 I0.000000 J-1.006550 F400.000000
G03 X14.589173 Y13.901476 Z-1.000000 I0.050058 J-0.500771
G01 X14.589157 Y13.877852 Z-1.000000
G03 X14.766525 Y13.854936 Z-1.000000 I0.177368 J0.674962
G03 X14.944508 Y13.877826 Z-1.000000 I-0.000000 J0.703420
G01 X14.944506 Y13.901476 Z-1.000000
G03 X14.867010 Y13.915359 Z-1.000000 I-0.127230 J-0.486968
G03 X14.766525 Y13.920336 Z-1.000000 I-0.100485 J-1.011935
G01 X14.766525 Y13.920336 Z-1.000000
G00 Z0.000000

(End cutting path id: path4520)


(Start cutting path id: path4520)
(Change tool to Cone cutter)

G00 Z0.000000
G00 X15.569642 Y13.920336

G01 Z-1.000000 F100.0(Penetrate)
G03 X15.515779 Y13.917041 Z-1.000000 I-0.011094 J-0.260553 F400.000000
G03 X15.457701 Y13.900836 Z-1.000000 I0.046143 J-0.277549
G01 X15.451252 Y13.869411 Z-1.000000
G03 X15.518711 Y13.839826 Z-1.000000 I0.071631 J0.071631
G03 X15.645507 Y13.861225 Z-1.000000 I0.012783 J0.310604
G01 X15.652040 Y13.892656 Z-1.000000
G03 X15.621964 Y13.911013 Z-1.000000 I-0.053023 J-0.053055
G03 X15.569650 Y13.920326 Z-1.000000 I-0.060503 J-0.188284
G01 X15.569642 Y13.920336 Z-1.000000
G00 Z0.000000

(End cutting path id: path4520)


(Start cutting path id: path4520)
(Change tool to Cone cutter)

G00 Z0.000000
G00 X12.164095 Y13.894546

G01 Z-1.000000 F100.0(Penetrate)
G01 X12.151116 Y13.892332 Z-1.000000 F400.000000
G03 X12.128875 Y13.881336 Z-1.000000 I0.046041 J-0.121120
G03 X12.052337 Y13.806133 Z-1.000000 I0.127542 J-0.206358
G03 X12.028252 Y13.724109 Z-1.000000 I0.127632 J-0.082024
G01 X12.078417 Y13.691503 Z-1.000000
G03 X12.168500 Y13.786369 Z-1.000000 I-0.069325 J0.156033
G03 X12.182685 Y13.876480 Z-1.000000 I-0.204080 J0.078298
G01 X12.164100 Y13.894538 Z-1.000000
G01 X12.164095 Y13.894546 Z-1.000000
G00 Z0.000000

(End cutting path id: path4520)


(Start cutting path id: path4520)
(Change tool to Cone cutter)

G00 Z0.000000
G00 X7.211432 Y13.881976

G01 Z-1.000000 F100.0(Penetrate)
G01 X7.508907 Y13.552427 Z-1.000000 F400.000000
G03 X7.811659 Y13.233978 Z-1.000000 I6.451916 J5.830755
G01 X7.838455 Y13.222879 Z-1.000000
G01 X7.854179 Y13.256143 Z-1.000000
G03 X7.540981 Y13.584501 Z-1.000000 I-2.367888 J-1.945013
G01 X7.211432 Y13.881976 Z-1.000000
G00 Z0.000000

(End cutting path id: path4520)


(Start cutting path id: path4520)
(Change tool to Cone cutter)

G00 Z0.000000
G00 X15.882211 Y13.817196

G01 Z-1.000000 F100.0(Penetrate)
G01 X15.866282 Y13.789343 Z-1.000000 F400.000000
G03 X15.933151 Y13.730406 Z-1.000000 I0.123384 J0.072586
G03 X16.139533 Y13.661057 Z-1.000000 I0.526721 J1.225751
G03 X16.287856 Y13.642986 Z-1.000000 I0.148323 J0.599656
G01 X16.304125 Y13.671079 Z-1.000000
G03 X16.237546 Y13.730406 Z-1.000000 I-0.122208 J-0.070125
G03 X16.030796 Y13.799404 Z-1.000000 I-0.514335 J-1.196927
G03 X15.882212 Y13.817196 Z-1.000000 I-0.148584 J-0.611527
G01 X15.882211 Y13.817196 Z-1.000000
G00 Z0.000000

(End cutting path id: path4520)


(Start cutting path id: path4520)
(Change tool to Cone cutter)

G00 Z0.000000
G00 X16.560804 Y13.627266

G01 Z-1.000000 F100.0(Penetrate)
G01 X16.539011 Y13.597156 Z-1.000000 F400.000000
G03 X16.592254 Y13.527263 Z-1.000000 I0.123537 J0.038881
G03 X16.722953 Y13.488706 Z-1.000000 I0.130699 J0.202237
G01 X16.744450 Y13.527263 Z-1.000000
G03 X16.666479 Y13.601071 Z-1.000000 I-0.178176 J-0.110138
G03 X16.560809 Y13.627266 Z-1.000000 I-0.102914 J-0.188919
G01 X16.560804 Y13.627266 Z-1.000000
G00 Z0.000000

(End cutting path id: path4520)


(Start cutting path id: path4520)
(Change tool to Cone cutter)

G00 Z0.000000
G00 X5.347974 Y13.523489

G01 Z-1.000000 F100.0(Penetrate)
G01 X5.325799 Y13.483614 Z-1.000000 F400.000000
G03 X5.436025 Y13.375065 Z-1.000000 I0.260454 J0.154237
G03 X5.616631 Y13.327086 Z-1.000000 I0.180607 J0.315940
G01 X5.639163 Y13.375065 Z-1.000000
G03 X5.495882 Y13.489671 Z-1.000000 I-0.349487 J-0.290061
G03 X5.347977 Y13.523489 Z-1.000000 I-0.141156 J-0.277011
G01 X5.347974 Y13.523489 Z-1.000000
G00 Z0.000000

(End cutting path id: path4520)


(Start cutting path id: path4520)
(Change tool to Cone cutter)

G00 Z0.000000
G00 X5.537905 Y12.905899

G01 Z-1.000000 F100.0(Penetrate)
G03 X5.466862 Y12.900165 Z-1.000000 I-0.000000 J-0.442959 F400.000000
G03 X5.410864 Y12.884519 Z-1.000000 I0.041949 J-0.258173
G01 X5.410904 Y12.858041 Z-1.000000
G03 X5.537905 Y12.833579 Z-1.000000 I0.127000 J0.317442
G03 X5.664307 Y12.858081 Z-1.000000 I-0.000000 J0.338306
G01 X5.664315 Y12.884519 Z-1.000000
G03 X5.608593 Y12.900132 Z-1.000000 I-0.098305 J-0.243610
G03 X5.537905 Y12.905899 Z-1.000000 I-0.070688 J-0.430313
G01 X5.537905 Y12.905899 Z-1.000000
G00 Z0.000000

(End cutting path id: path4520)


(Start cutting path id: path4520)
(Change tool to Cone cutter)

G00 Z0.000000
G00 X12.020075 Y12.196489

G01 Z-1.000000 F100.0(Penetrate)
G03 X11.966212 Y12.193194 Z-1.000000 I-0.011094 J-0.260553 F400.000000
G03 X11.908134 Y12.176989 Z-1.000000 I0.046143 J-0.277549
G01 X11.908134 Y12.176359 Z-1.000000
G01 X11.901687 Y12.144931 Z-1.000000
G03 X11.969144 Y12.115349 Z-1.000000 I0.071629 J0.071634
G03 X12.096000 Y12.137158 Z-1.000000 I0.012613 J0.306481
G01 X12.102474 Y12.168799 Z-1.000000
G03 X12.072398 Y12.187157 Z-1.000000 I-0.053030 J-0.053061
G03 X12.020084 Y12.196479 Z-1.000000 I-0.060566 J-0.188449
G01 X12.020075 Y12.196489 Z-1.000000
G00 Z0.000000

(End cutting path id: path4520)


(Start cutting path id: path4520)
(Change tool to Cone cutter)

G00 Z0.000000
G00 X4.920944 Y11.080803

G01 Z-1.000000 F100.0(Penetrate)
G03 X4.867067 Y11.077508 Z-1.000000 I-0.011097 J-0.260656 F400.000000
G03 X4.809003 Y11.061303 Z-1.000000 I0.046089 J-0.277275
G01 X4.802391 Y11.029584 Z-1.000000
G03 X4.870012 Y10.999673 Z-1.000000 I0.071775 J0.070872
G03 X4.996863 Y11.021477 Z-1.000000 I0.012614 J0.306511
G01 X5.003341 Y11.053123 Z-1.000000
G03 X4.973266 Y11.071489 Z-1.000000 I-0.053009 J-0.052997
G03 X4.920949 Y11.080803 Z-1.000000 I-0.060504 J-0.188268
G01 X4.920944 Y11.080803 Z-1.000000
G00 Z0.000000

(End cutting path id: path4520)


(Start cutting path id: path4520)
(Change tool to Cone cutter)

G00 Z0.000000
G00 X4.361213 Y10.890244

G01 Z-1.000000 F100.0(Penetrate)
G03 X4.013638 Y10.774201 Z-1.000000 I-0.001942 J-0.572738 F400.000000
G03 X3.206536 Y10.016689 Z-1.000000 I3.160787 J-4.176435
G01 X3.220706 Y9.998679 Z-1.000000
G03 X3.358732 Y10.094679 Z-1.000000 I-0.287053 J0.559944
G02 X3.777214 Y10.445691 Z-1.000000 I4.217125 J-4.602762
G02 X4.117826 Y10.677049 Z-1.000000 I2.179205 J-2.841880
G03 X4.371772 Y10.862050 Z-1.000000 I-0.893214 J1.492882
G01 X4.361213 Y10.890250 Z-1.000000
G01 X4.361213 Y10.890244 Z-1.000000
G00 Z0.000000

(End cutting path id: path4520)


(Start cutting path id: path4520)
(Change tool to Cone cutter)

G00 Z0.000000
G00 X9.048478 Y10.661950

G01 Z-1.000000 F100.0(Penetrate)
G02 X9.236810 Y10.617479 Z-1.000000 I0.000000 J-0.421028 F400.000000
G02 X9.262935 Y10.554402 Z-1.000000 I-0.023308 J-0.046602
G02 X9.121992 Y10.443973 Z-1.000000 I-0.153930 J0.051307
G02 X8.917664 Y10.526722 Z-1.000000 I-0.019677 J0.245054
G02 X8.919581 Y10.607280 Z-1.000000 I0.044639 J0.039240
G02 X9.048478 Y10.661937 Z-1.000000 I0.128897 J-0.124659
G01 X9.048478 Y10.661950 Z-1.000000
G00 Z0.000000

(End cutting path id: path4520)


(Start cutting path id: path4520)
(Change tool to Cone cutter)

G00 Z0.000000
G00 X7.242878 Y9.267658

G01 Z-1.000000 F100.0(Penetrate)
G03 X7.199312 Y9.251488 Z-1.000000 I0.000000 J-0.066777 F400.000000
G03 X7.008294 Y9.065149 Z-1.000000 I1.399763 J-1.625982
G03 X6.865741 Y8.880197 Z-1.000000 I1.098229 J-0.993878
G01 X6.875594 Y8.862011 Z-1.000000
G03 X6.919061 Y8.878282 Z-1.000000 I0.000000 J0.066193
G03 X7.109548 Y9.065149 Z-1.000000 I-1.475408 J1.694519
G03 X7.252610 Y9.249560 Z-1.000000 I-1.143048 J1.034448
G01 X7.242878 Y9.267658 Z-1.000000
G01 X7.242878 Y9.267658 Z-1.000000
G00 Z0.000000

(End cutting path id: path4520)


(Start cutting path id: path4520)
(Change tool to Cone cutter)

G00 Z0.000000
G00 X14.016235 Y9.021124

G01 Z-1.000000 F100.0(Penetrate)
G03 X13.984204 Y9.013385 Z-1.000000 I0.002737 J-0.081486 F400.000000
G03 X13.672851 Y8.863897 Z-1.000000 I10.411155 J-22.083302
G02 X13.240966 Y8.698395 Z-1.000000 I-1.146126 J2.344603
G02 X13.140792 Y8.712330 Z-1.000000 I-0.034292 J0.120514
G01 X13.081303 Y8.703762 Z-1.000000
G03 X13.042692 Y8.602896 Z-1.000000 I0.112442 J-0.100866
G02 X12.979924 Y8.512791 Z-1.000000 I-0.096058 J0.000000
G02 X12.764085 Y8.500387 Z-1.000000 I-0.128220 J0.347042
G03 X12.202968 Y8.530754 Z-1.000000 I-0.361699 J-1.484111
G03 X11.935812 Y8.390953 Z-1.000000 I0.057212 J-0.434495
G01 X11.926653 Y8.351948 Z-1.000000
G01 X11.949012 Y8.344413 Z-1.000000
G02 X12.136743 Y8.418669 Z-1.000000 I0.229224 J-0.305077
G02 X12.525723 Y8.407303 Z-1.000000 I0.153618 J-1.404399
G03 X13.113692 Y8.456837 Z-1.000000 I0.197557 J1.169363
G03 X13.853981 Y8.870181 Z-1.000000 I-0.807159 J2.315193
G03 X14.020177 Y9.011232 Z-1.000000 I-3.328792 J4.090642
G01 X14.016239 Y9.021119 Z-1.000000
G01 X14.016235 Y9.021124 Z-1.000000
G00 Z0.000000

(End cutting path id: path4520)


(Start cutting path id: path4520)
(Change tool to Cone cutter)

G00 Z0.000000
G00 X13.481034 Y7.928708

G01 Z-1.000000 F100.0(Penetrate)
G01 X13.460307 Y7.920177 Z-1.000000 F400.000000
G03 X13.448334 Y7.885308 Z-1.000000 I0.044790 J-0.034869
G03 X13.466815 Y7.787803 Z-1.000000 I0.266451 J-0.000000
G03 X13.516254 Y7.712357 Z-1.000000 I0.205751 J0.080904
G03 X13.583575 Y7.679389 Z-1.000000 I0.081761 J0.081739
G03 X13.635753 Y7.697267 Z-1.000000 I0.007833 J0.062221
G01 X13.646753 Y7.749639 Z-1.000000
G03 X13.568463 Y7.869589 Z-1.000000 I-0.324819 J-0.126481
G03 X13.509613 Y7.917996 Z-1.000000 I-0.278013 J-0.278013
G03 X13.481043 Y7.928699 Z-1.000000 I-0.036850 J-0.054885
G01 X13.481034 Y7.928708 Z-1.000000
G00 Z0.000000

(End cutting path id: path4520)


(Start cutting path id: path4520)
(Change tool to Cone cutter)

G00 Z0.000000
G00 X12.778540 Y7.647586

G01 Z-1.000000 F100.0(Penetrate)
G02 X12.822006 Y7.636749 Z-1.000000 I0.010842 J-0.049103 F400.000000
G02 X13.074127 Y7.391620 Z-1.000000 I-1.746361 J-2.048393
G02 X13.352290 Y6.979088 Z-1.000000 I-1.315581 J-1.187119
G01 X13.296134 Y6.935032 Z-1.000000
G01 X13.231966 Y6.902059 Z-1.000000
G03 X13.311854 Y6.714913 Z-1.000000 I0.311210 J0.022224
G02 X13.395994 Y6.566594 Z-1.000000 I-0.290254 J-0.262685
G01 X13.368454 Y6.529385 Z-1.000000
G02 X12.976916 Y6.743881 Z-1.000000 I0.000000 J0.464602
G02 X13.043936 Y7.037543 Z-1.000000 I0.178176 J0.113815
G03 X13.076623 Y7.111783 Z-1.000000 I-0.037641 J0.060889
G03 X12.994876 Y7.296026 Z-1.000000 I-0.434343 J-0.082457
G03 X12.883457 Y7.377756 Z-1.000000 I-0.192440 J-0.145533
G01 X12.843309 Y7.350106 Z-1.000000
G01 X12.795278 Y7.311784 Z-1.000000
G02 X12.636397 Y7.392236 Z-1.000000 I0.067734 J0.330874
G02 X12.603064 Y7.519848 Z-1.000000 I0.080776 J0.089259
G02 X12.687347 Y7.543803 Z-1.000000 I0.050356 J-0.016925
G03 X12.755303 Y7.540898 Z-1.000000 I0.035888 J0.043241
G03 X12.776017 Y7.605433 Z-1.000000 I-0.031834 J0.045810
G02 X12.771515 Y7.639402 Z-1.000000 I0.077176 J0.027511
G01 X12.778617 Y7.647563 Z-1.000000
G01 X12.778540 Y7.647586 Z-1.000000
G00 Z0.000000

(End cutting path id: path4520)


(Start cutting path id: path4520)
(Change tool to Cone cutter)

G00 Z0.000000
G00 X11.198090 Y7.441933

G01 Z-1.000000 F100.0(Penetrate)
G03 X11.154529 Y7.425766 Z-1.000000 I0.000000 J-0.066768 F400.000000
G03 X10.963507 Y7.239424 Z-1.000000 I1.399993 J-1.626240
G03 X10.820954 Y7.054474 Z-1.000000 I1.099257 J-0.994686
G01 X10.830807 Y7.036286 Z-1.000000
G03 X10.874268 Y7.052555 Z-1.000000 I0.000000 J0.066185
G03 X11.064761 Y7.239424 Z-1.000000 I-1.475447 J1.694590
G03 X11.207822 Y7.423833 Z-1.000000 I-1.144077 J1.035252
G01 X11.198090 Y7.441933 Z-1.000000
G01 X11.198090 Y7.441933 Z-1.000000
G00 Z0.000000

(End cutting path id: path4520)


(Start cutting path id: path4520)
(Change tool to Cone cutter)

G00 Z0.000000
G00 X13.613733 Y7.411743

G01 Z-1.000000 F100.0(Penetrate)
G01 X13.596642 Y7.414863 Z-1.000000 F400.000000
G01 X13.585443 Y7.409943 Z-1.000000
G03 X13.572283 Y7.356357 Z-1.000000 I0.037658 J-0.037658
G03 X13.665933 Y7.152719 Z-1.000000 I0.842318 J0.264018
G03 X13.800107 Y6.981859 Z-1.000000 I0.859757 J0.537043
G01 X13.833224 Y6.981655 Z-1.000000
G01 X13.843431 Y7.023134 Z-1.000000
G03 X13.752714 Y7.239509 Z-1.000000 I-1.188023 J-0.370881
G03 X13.661909 Y7.375233 Z-1.000000 I-0.733557 J-0.392539
G03 X13.613725 Y7.411829 Z-1.000000 I-0.101091 J-0.083084
G01 X13.613733 Y7.411743 Z-1.000000
G00 Z0.000000

(End cutting path id: path4520)


(Start cutting path id: path4520)
(Change tool to Cone cutter)

G00 Z0.000000
G00 X4.026005 Y7.391613

G01 Z-1.000000 F100.0(Penetrate)
G01 X4.078203 Y6.814274 Z-1.000000 F400.000000
G03 X4.451347 Y5.485393 Z-1.000000 I3.778326 J0.344108
G03 X4.966223 Y5.006788 Z-1.000000 I0.883266 J0.433955
G03 X5.360297 Y4.960600 Z-1.000000 I0.281463 J0.697225
G03 X5.985686 Y5.160871 Z-1.000000 I-0.309461 J2.042947
G02 X6.493020 Y5.380026 Z-1.000000 I2.026174 J-3.993689
G02 X6.685661 Y5.413692 Z-1.000000 I0.192642 J-0.534335
G03 X7.420405 Y5.541655 Z-1.000000 I-0.000000 J2.173374
G03 X8.184354 Y5.952038 Z-1.000000 I-0.993453 J2.765619
G03 X8.694209 Y6.529951 Z-1.000000 I-1.121975 J1.503708
G03 X8.659180 Y6.788485 Z-1.000000 I-0.187301 J0.106263
G01 X8.627715 Y6.786037 Z-1.000000
G03 X8.440320 Y6.488494 Z-1.000000 I2.089045 J-1.523488
G02 X7.988905 Y6.027171 Z-1.000000 I-1.026223 J0.552659
G02 X6.826538 Y5.574060 Z-1.000000 I-2.143432 J3.781088
G03 X6.151894 Y5.376608 Z-1.000000 I1.391548 J-6.005835
G03 X5.746699 Y5.189796 Z-1.000000 I0.829769 J-2.332608
G02 X5.352962 Y5.049292 Z-1.000000 I-0.584125 J1.014966
G02 X5.100181 Y5.082882 Z-1.000000 I-0.071201 J0.432124
G02 X4.625988 Y5.519585 Z-1.000000 I0.429067 J0.941704
G02 X4.157445 Y6.768988 Z-1.000000 I3.871029 J2.164244
G01 X4.026005 Y7.391613 Z-1.000000
G00 Z0.000000

(End cutting path id: path4520)


(Start cutting path id: path4520)
(Change tool to Cone cutter)

G00 Z0.000000
G00 X14.668415 Y5.872167

G01 Z-1.000000 F100.0(Penetrate)
G03 X14.636481 Y5.808712 Z-1.000000 I0.035664 J-0.057711 F400.000000
G03 X14.702375 Y5.473439 Z-1.000000 I1.560569 J0.132600
G03 X14.822211 Y5.160325 Z-1.000000 I2.573389 J0.805406
G01 X14.847024 Y5.155840 Z-1.000000
G03 X15.007429 Y5.734204 Z-1.000000 I-0.430945 J0.430945
G03 X14.668414 Y5.872167 Z-1.000000 I-0.219887 J-0.054816
G01 X14.668415 Y5.872167 Z-1.000000
G00 Z0.000000

(End cutting path id: path4520)


(Start cutting path id: path4520)
(Change tool to Cone cutter)

G00 Z0.000000
G00 X15.319336 Y5.768392

G01 Z-1.000000 F100.0(Penetrate)
G01 X15.310313 Y5.763044 Z-1.000000 F400.000000
G03 X15.297956 Y5.740102 Z-1.000000 I0.060736 J-0.047511
G03 X15.280235 Y5.610686 Z-1.000000 I0.333816 J-0.111630
G03 X15.311796 Y5.461494 Z-1.000000 I0.484220 J0.024499
G01 X15.369075 Y5.455542 Z-1.000000
G03 X15.395446 Y5.591050 Z-1.000000 I-0.155723 J0.100625
G03 X15.344093 Y5.755208 Z-1.000000 I-0.743065 J-0.142339
G01 X15.319346 Y5.768402 Z-1.000000
G01 X15.319336 Y5.768392 Z-1.000000
G00 Z0.000000

(End cutting path id: path4520)


(Start cutting path id: path4520)
(Change tool to Cone cutter)

G00 Z0.000000
G00 X15.835043 Y5.170928

G01 Z-1.000000 F100.0(Penetrate)
G03 X15.796340 Y5.145557 Z-1.000000 I0.015581 J-0.065975 F400.000000
G03 X15.736923 Y5.037599 Z-1.000000 I0.355874 J-0.266193
G03 X15.749017 Y4.981082 Z-1.000000 I0.049693 J-0.018919
G01 X15.793523 Y4.980999 Z-1.000000
G03 X15.874826 Y5.106091 Z-1.000000 I-0.248885 J0.250730
G03 X15.862693 Y5.162754 Z-1.000000 I-0.049830 J0.018961
G01 X15.849593 Y5.170531 Z-1.000000
G01 X15.835023 Y5.170954 Z-1.000000
G01 X15.835043 Y5.170928 Z-1.000000
G00 Z0.000000

(End cutting path id: path4520)


(Start cutting path id: path4520)
(Change tool to Cone cutter)

G00 Z0.000000
G00 X15.943211 Y4.684152

G01 Z-1.000000 F100.0(Penetrate)
G01 X15.939940 Y4.673727 Z-1.000000 F400.000000
G03 X15.949511 Y4.602392 Z-1.000000 I0.590366 J0.042897
G02 X16.009007 Y4.246582 Z-1.000000 I-6.182233 J-1.216630
G02 X16.023091 Y4.070334 Z-1.000000 I-1.528972 J-0.210866
G03 X16.054432 Y3.920260 Z-1.000000 I0.420348 J0.009475
G01 X16.096041 Y3.892353 Z-1.000000
G02 X16.142572 Y3.864049 Z-1.000000 I0.000000 J-0.052399
G02 X16.228741 Y3.636386 Z-1.000000 I-0.934041 J-0.483669
G03 X16.324584 Y3.398093 Z-1.000000 I0.915109 J0.229641
G03 X16.484077 Y3.189232 Z-1.000000 I0.858975 J0.490615
G02 X17.377852 Y1.710578 Z-1.000000 I-2.551998 J-2.552008
G02 X17.042550 Y1.396211 Z-1.000000 I-0.243815 J-0.075948
G03 X16.916782 Y1.408790 Z-1.000000 I-0.085898 J-0.223820
G03 X16.849474 Y1.363511 Z-1.000000 I0.016356 J-0.096982
G03 X16.849235 Y1.295026 Z-1.000000 I0.055733 J-0.034437
G03 X16.933754 Y1.224522 Z-1.000000 I0.145499 J0.088508
G02 X17.026416 Y1.135763 Z-1.000000 I-0.059369 J-0.154729
G02 X17.136892 Y0.757242 Z-1.000000 I-1.445715 J-0.627330
G03 X17.255274 Y0.403622 Z-1.000000 I1.124428 J0.179801
G03 X17.356382 Y0.342790 Z-1.000000 I0.101108 J0.053609
G03 X17.427443 Y0.421496 Z-1.000000 I0.000000 J0.071433
G03 X17.242554 Y1.458476 Z-1.000000 I-7.044726 J-0.721074
G03 X16.766496 Y3.053595 Z-1.000000 I-20.603628 J-5.280490
G03 X16.604211 Y3.326966 Z-1.000000 I-0.733430 J-0.250541
G02 X16.444977 Y3.558504 Z-1.000000 I0.743028 J0.681519
G02 X16.145107 Y4.247690 Z-1.000000 I6.442100 J3.212840
G03 X15.962698 Y4.681794 Z-1.000000 I-5.566113 J-2.083479
G01 X15.943227 Y4.684153 Z-1.000000
G01 X15.943211 Y4.684152 Z-1.000000
G00 Z0.000000

(End cutting path id: path4520)


(Start cutting path id: path4520)
(Change tool to Cone cutter)

G00 Z0.000000
G00 X16.519292 Y2.637052

G01 Z-1.000000 F100.0(Penetrate)
G01 X16.509278 Y2.618226 Z-1.000000 F400.000000
G03 X16.499162 Y2.532023 Z-1.000000 I0.564460 J-0.109934
G03 X16.520559 Y2.405229 Z-1.000000 I0.310615 J-0.012785
G01 X16.551992 Y2.398695 Z-1.000000
G03 X16.581770 Y2.466434 Z-1.000000 I-0.072042 J0.072084
G03 X16.560192 Y2.593028 Z-1.000000 I-0.305613 J0.013044
G03 X16.532105 Y2.636876 Z-1.000000 I-0.128797 J-0.051582
G01 X16.519312 Y2.637048 Z-1.000000
G01 X16.519292 Y2.637052 Z-1.000000
G00 Z0.000000

(End cutting path id: path4520)


(Start cutting path id: path4520)
(Change tool to Cone cutter)

G00 Z0.000000
G00 X16.235655 Y2.535163

G01 Z-1.000000 F100.0(Penetrate)
G01 X16.223055 Y2.537452 Z-1.000000 F400.000000
G01 X16.211755 Y2.531963 Z-1.000000
G03 X16.190044 Y2.475547 Z-1.000000 I0.052769 J-0.052693
G03 X16.221855 Y2.325052 Z-1.000000 I0.487094 J0.024349
G01 X16.284016 Y2.301849 Z-1.000000
G03 X16.316185 Y2.375362 Z-1.000000 I-0.030473 J0.057130
G03 X16.266954 Y2.503924 Z-1.000000 I-0.607314 J-0.158857
G03 X16.235695 Y2.535105 Z-1.000000 I-0.064123 J-0.033024
G01 X16.235655 Y2.535163 Z-1.000000
G00 Z0.000000

(End cutting path id: path4520)


(Footer)
M5
G00 X0.0000 Y0.0000
M2
(Using default footer. To add your own footer create file "footer" in the output dir.)
(end)
%