%
(Header)
(Generated by gcodetools from Inkscape.)
(Using default header. To add your own header create file "header" in the output dir.)
M3
(Header end.)
G21 (All units in mm)

(Start cutting path id: path34543)
(Change tool to Cone cutter)

G00 Z0.000000
G00 X13.537161 Y0.536410

G01 Z-1.000000 F100.0(Penetrate)
G02 X13.526009 Y0.583671 Z-1.000000 I0.080750 J0.044000 F400.000000
G02 X13.555271 Y1.046880 Z-1.000000 I8.396601 J-0.297903
G03 X13.637670 Y4.115149 Z-1.000000 I-23.930509 J2.177899
G03 X13.379932 Y5.775460 Z-1.000000 I-7.195242 J-0.266791
G02 X13.333057 Y5.986849 Z-1.000000 I1.984881 J0.551031
G02 X13.325412 Y6.101690 Z-1.000000 I0.573345 J0.095844
G01 X13.343419 Y6.105123 Z-1.000000
G02 X13.439000 Y5.840180 Z-1.000000 I-2.039370 J-0.885437
G02 X13.552511 Y5.305380 Z-1.000000 I-3.567049 J-1.036549
G02 X13.704381 Y3.893390 Z-1.000000 I-24.826096 J-3.384397
G02 X13.766628 Y2.243610 Z-1.000000 I-20.034888 J-1.581986
G02 X13.694381 Y0.914290 Z-1.000000 I-13.077389 J0.044114
G02 X13.598805 Y0.539645 Z-1.000000 I-1.335066 J0.141077
G01 X13.537157 Y0.536410 Z-1.000000
G01 X13.537161 Y0.536410 Z-1.000000
G00 Z0.000000

(End cutting path id: path34543)


(Start cutting path id: path34543)
(Change tool to Cone cutter)

G00 Z0.000000
G00 X13.328046 Y1.415010

G01 Z-1.000000 F100.0(Penetrate)
G03 X13.266384 Y2.118308 Z-1.000000 I-4.563145 J-0.045726 F400.000000
G03 X13.161147 Y2.417410 Z-1.000000 I-0.906267 J-0.150798
G03 X12.986199 Y2.676114 Z-1.000000 I-1.644195 J-0.923376
G03 X12.932183 Y2.702010 Z-1.000000 I-0.054071 J-0.043503
G02 X12.872079 Y2.724316 Z-1.000000 I0.000097 J0.092390
G02 X12.340167 Y3.210560 Z-1.000000 I7.602372 J8.850448
G02 X11.863262 Y3.745773 Z-1.000000 I3.499062 J3.597946
G02 X11.750669 Y3.975830 Z-1.000000 I0.507587 J0.391000
G03 X11.644654 Y4.209776 Z-1.000000 I-0.728117 J-0.188960
G03 X11.363105 Y4.545940 Z-1.000000 I-1.813080 J-1.232532
G02 X11.063602 Y4.859404 Z-1.000000 I4.353704 J4.459616
G01 X11.064240 Y4.881320 Z-1.000000
G01 X11.087519 Y4.883987 Z-1.000000
G02 X11.324409 Y4.718010 Z-1.000000 I-1.519831 J-2.421214
G02 X11.759346 Y4.241547 Z-1.000000 I-1.175265 J-1.509581
G02 X11.868130 Y3.870550 Z-1.000000 I-0.578231 J-0.370997
G03 X11.893974 Y3.802583 Z-1.000000 I0.102293 J-0.000000
G03 X12.369890 Y3.306360 Z-1.000000 I6.802737 J6.048005
G03 X12.878683 Y2.875404 Z-1.000000 I3.526330 J3.647414
G03 X12.959276 Y2.870290 Z-1.000000 I0.044253 J0.059811
G02 X13.049499 Y2.899072 Z-1.000000 I0.115420 J-0.206003
G02 X13.154167 Y2.891290 Z-1.000000 I0.031086 J-0.289667
G03 X13.276075 Y2.965360 Z-1.000000 I0.025098 J0.096049
G03 X13.213487 Y3.152600 Z-1.000000 I-0.185428 J0.042098
G02 X13.117877 Y3.268574 Z-1.000000 I0.273249 J0.322669
G02 X13.058918 Y3.428490 Z-1.000000 I0.473850 J0.265527
G01 X13.024368 Y3.602840 Z-1.000000
G01 X13.119768 Y3.436620 Z-1.000000
G03 X13.226871 Y3.444502 Z-1.000000 I0.051660 J0.029649
G03 X13.268439 Y3.815310 Z-1.000000 I-0.669286 J0.262762
G03 X13.006855 Y5.404066 Z-1.000000 I-64.505231 J-9.804700
G03 X12.893870 Y5.927370 Z-1.000000 I-7.102142 J-1.259548
G02 X12.807193 Y6.276585 Z-1.000000 I26.838968 J6.846904
G02 X12.711558 Y6.682830 Z-1.000000 I36.295362 J8.758786
G03 X12.601724 Y7.084231 Z-1.000000 I-4.889724 J-1.122228
G03 X12.480007 Y7.409250 Z-1.000000 I-3.324695 J-1.059774
G02 X12.356534 Y7.733340 Z-1.000000 I3.613604 J1.562284
G02 X12.301906 Y7.946790 Z-1.000000 I1.508247 J0.499723
G03 X12.155120 Y8.122003 Z-1.000000 I-0.227761 J-0.041716
G03 X12.015124 Y8.053840 Z-1.000000 I-0.037577 J-0.100668
G02 X11.864626 Y7.955798 Z-1.000000 I-0.135119 J0.042882
G02 X11.550645 Y8.104540 Z-1.000000 I0.057533 J0.527212
G03 X11.301036 Y8.313073 Z-1.000000 I-1.425223 J-1.452304
G03 X11.219280 Y8.339080 Z-1.000000 I-0.081756 J-0.115500
G02 X11.069648 Y8.420108 Z-1.000000 I0.000000 J0.178674
G02 X10.941063 Y8.765430 Z-1.000000 I0.701631 J0.457863
G03 X10.862954 Y8.947643 Z-1.000000 I-0.367982 J-0.049894
G03 X10.763485 Y8.987210 Z-1.000000 I-0.084527 J-0.067682
G03 X10.630398 Y8.944109 Z-1.000000 I0.061056 J-0.415548
G03 X10.514743 Y8.856460 Z-1.000000 I0.200591 J-0.384816
G02 X10.332943 Y8.786247 Z-1.000000 I-0.164001 J0.154172
G02 X10.077228 Y8.891160 Z-1.000000 I0.035802 J0.451364
G03 X9.899530 Y9.022626 Z-1.000000 I-1.139759 J-1.354744
G03 X9.852770 Y9.036440 Z-1.000000 I-0.046760 J-0.072236
G01 X9.824472 Y9.012741 Z-1.000000
G03 X9.798376 Y8.731350 Z-1.000000 I1.658301 J-0.295695
G02 X9.750283 Y8.437910 Z-1.000000 I-0.969631 J0.008254
G02 X9.546276 Y7.961360 Z-1.000000 I-2.799493 J0.916500
G02 X8.951787 Y6.915510 Z-1.000000 I-21.802272 J11.701096
G02 X8.900097 Y6.886270 Z-1.000000 I-0.051690 J0.031068
G01 X8.855585 Y6.945949 Z-1.000000
G02 X9.058302 Y7.418220 Z-1.000000 I2.121332 J-0.630918
G03 X9.527252 Y8.320310 Z-1.000000 I-10.389898 J5.974105
G03 X9.632524 Y8.647580 Z-1.000000 I-1.241690 J0.579976
G03 X9.608364 Y8.887027 Z-1.000000 I-0.419218 J0.078644
G01 X9.534951 Y8.887300 Z-1.000000
G01 X9.520588 Y8.889473 Z-1.000000
G02 X9.524146 Y9.002260 Z-1.000000 I0.449811 J0.042259
G03 X9.509264 Y9.166813 Z-1.000000 I-0.333854 J0.052755
G01 X9.458187 Y9.190460 Z-1.000000
G01 X9.408509 Y9.201963 Z-1.000000
G01 X9.399317 Y9.253660 Z-1.000000
G03 X9.469320 Y9.535924 Z-1.000000 I-0.870432 J0.365685
G03 X9.436017 Y9.667310 Z-1.000000 I-0.204317 J0.018124
G03 X9.370661 Y9.699004 Z-1.000000 I-0.059428 J-0.039315
G03 X9.171121 Y9.645210 Z-1.000000 I0.048004 J-0.575044
G03 X8.973677 Y9.526193 Z-1.000000 I0.501814 J-1.055768
G03 X8.873276 Y9.422710 Z-1.000000 I0.271907 J-0.364257
G02 X8.811382 Y9.374922 Z-1.000000 I-0.107504 J0.075261
G01 X8.788118 Y9.391110 Z-1.000000
G01 X8.756980 Y9.406731 Z-1.000000
G03 X8.413731 Y9.112060 Z-1.000000 I1.973023 J-2.645537
G03 X8.093486 Y8.716228 Z-1.000000 I1.591095 J-1.614726
G03 X8.003340 Y8.468520 Z-1.000000 I0.512268 J-0.326682
G02 X7.963029 Y8.194612 Z-1.000000 I-8.743588 J1.146861
G02 X7.913487 Y7.918140 Z-1.000000 I-8.945437 J1.460301
G03 X7.893864 Y7.643415 Z-1.000000 I1.115390 J-0.217732
G03 X7.943510 Y7.320370 Z-1.000000 I1.597974 J0.080240
G02 X8.007223 Y6.999499 Z-1.000000 I-2.692923 J-0.701474
G02 X7.998410 Y6.922890 Z-1.000000 I-0.153342 J-0.021172
G03 X7.998596 Y6.852154 Z-1.000000 I0.091259 J-0.035128
G03 X8.082658 Y6.707570 Z-1.000000 I0.507958 J0.198600
G03 X8.201338 Y6.638043 Z-1.000000 I0.151652 J0.122809
G03 X8.307804 Y6.668970 Z-1.000000 I0.021423 J0.124968
G02 X8.638276 Y6.801777 Z-1.000000 I0.345102 J-0.381170
G02 X8.794763 Y6.682970 Z-1.000000 I0.004457 J-0.156591
G01 X8.779322 Y6.641884 Z-1.000000
G02 X8.638839 Y6.574170 Z-1.000000 I-0.280386 J0.402122
G03 X8.471701 Y6.515490 Z-1.000000 I0.512060 J-1.725862
G03 X8.307923 Y6.439690 Z-1.000000 I0.730804 J-1.793856
G02 X8.157670 Y6.423231 Z-1.000000 I-0.096218 J0.184306
G02 X7.973773 Y6.529490 Z-1.000000 I0.106944 J0.397341
G02 X7.842877 Y6.720835 Z-1.000000 I0.444402 J0.444452
G02 X7.799550 Y6.925470 Z-1.000000 I0.468412 J0.206082
G03 X7.781131 Y7.145193 Z-1.000000 I-1.366329 J-0.003901
G03 X7.718921 Y7.411380 Z-1.000000 I-2.070092 J-0.343437
G02 X7.680981 Y7.674259 Z-1.000000 I0.842885 J0.255826
G02 X7.723031 Y7.923740 Z-1.000000 I0.799067 J-0.006398
G03 X7.785857 Y8.174752 Z-1.000000 I-1.519722 J0.513740
G03 X7.789132 Y8.321840 Z-1.000000 I-0.511864 J0.084978
G01 X7.728189 Y8.352613 Z-1.000000
G03 X7.346371 Y8.071000 Z-1.000000 I0.976530 J-1.723654
G02 X6.227627 Y7.139533 Z-1.000000 I-8.154943 J8.656966
G02 X5.596307 Y6.786770 Z-1.000000 I-1.736408 J2.366253
G02 X5.485879 Y6.822909 Z-1.000000 I-0.033861 J0.083315
G02 X5.514298 Y6.919870 Z-1.000000 I0.057900 J0.035675
G03 X6.403460 Y7.477159 Z-1.000000 I-2.045317 J4.251309
G03 X7.977631 Y8.876730 Z-1.000000 I-11.821714 J14.881564
G02 X8.910323 Y9.764062 Z-1.000000 I20.893001 J-21.027209
G02 X8.982513 Y9.792010 Z-1.000000 I0.072190 J-0.079258
G03 X9.051217 Y9.813859 Z-1.000000 I0.000000 J0.118945
G03 X9.097426 Y9.873310 Z-1.000000 I-0.074976 J0.105959
G01 X9.078634 Y9.919166 Z-1.000000
G03 X8.931122 Y9.948910 Z-1.000000 I-0.137972 J-0.303596
G03 X8.753737 Y9.914742 Z-1.000000 I0.021741 J-0.590416
G03 X8.704021 Y9.866110 Z-1.000000 I0.028076 J-0.078428
G02 X8.656236 Y9.823943 Z-1.000000 I-0.064227 J0.024624
G02 X8.534204 Y9.824110 Z-1.000000 I-0.060678 J0.246492
G03 X8.405876 Y9.830125 Z-1.000000 I-0.079030 J-0.314151
G03 X8.355158 Y9.796510 Z-1.000000 I0.011045 J-0.071734
G02 X8.304255 Y9.755450 Z-1.000000 I-0.083868 J0.051891
G02 X8.177909 Y9.733710 Z-1.000000 I-0.126345 J0.356264
G03 X8.049535 Y9.715606 Z-1.000000 I0.000000 J-0.464199
G03 X8.009707 Y9.685410 Z-1.000000 I0.019185 J-0.066668
G02 X7.968812 Y9.652734 Z-1.000000 I-0.066178 J0.040896
G02 X7.643070 Y9.559430 Z-1.000000 I-1.058522 J3.080237
G03 X7.310797 Y9.471161 Z-1.000000 I1.186113 J-5.134422
G03 X7.248098 Y9.440760 Z-1.000000 I0.063330 J-0.210470
G02 X7.185584 Y9.409652 Z-1.000000 I-0.134466 J0.191854
G02 X6.879760 Y9.321990 Z-1.000000 I-1.480642 J4.588181
G03 X6.342659 Y9.072143 Z-1.000000 I0.382478 J-1.524450
G03 X6.231118 Y8.854130 Z-1.000000 I0.157288 J-0.218013
G01 X6.214771 Y8.818635 Z-1.000000
G02 X5.802980 Y8.488090 Z-1.000000 I-5.493069 J6.421464
G03 X4.315326 Y7.087940 Z-1.000000 I5.599378 J-7.439704
G03 X4.286373 Y6.708390 Z-1.000000 I0.246005 J-0.209645
G01 X4.329868 Y6.685985 Z-1.000000
G03 X4.405728 Y6.716390 Z-1.000000 I-0.008603 J0.131302
G02 X4.487711 Y6.745423 Z-1.000000 I0.080445 J-0.096890
G02 X4.571986 Y6.714390 Z-1.000000 I-0.001642 J-0.134407
G03 X4.664787 Y6.671665 Z-1.000000 I0.126126 J0.151806
G03 X4.872439 Y6.663190 Z-1.000000 I0.136527 J0.796968
G02 X5.070774 Y6.653333 Z-1.000000 I0.063392 J-0.724769
G02 X5.109243 Y6.619990 Z-1.000000 I-0.009378 J-0.049683
G02 X5.012282 Y6.434893 Z-1.000000 I-0.137619 J-0.045854
G02 X4.653653 Y6.486860 Z-1.000000 I-0.122358 J0.419047
G03 X4.569751 Y6.513789 Z-1.000000 I-0.092563 J-0.144229
G03 X4.333650 Y6.502960 Z-1.000000 I-0.062058 J-1.226234
G02 X4.124869 Y6.519949 Z-1.000000 I-0.067046 J0.467431
G02 X4.053417 Y6.591260 Z-1.000000 I0.032835 J0.104352
G02 X4.051033 Y6.709728 Z-1.000000 I0.199419 J0.063270
G02 X4.146341 Y6.931140 Z-1.000000 I0.836163 J-0.228710
G02 X4.893326 Y7.917577 Z-1.000000 I5.190588 J-3.154556
G02 X5.710233 Y8.609320 Z-1.000000 I3.325689 J-3.099210
G03 X6.266401 Y9.099257 Z-1.000000 I-1.491129 J2.253348
G03 X6.245642 Y9.230890 Z-1.000000 I-0.066193 J0.057014
G03 X6.199011 Y9.241275 Z-1.000000 I-0.038574 J-0.063319
G03 X5.737163 Y9.176090 Z-1.000000 I0.808891 J-7.399842
G02 X5.272238 Y9.094877 Z-1.000000 I-310.123739 J1774.009456
G02 X5.068862 Y9.059520 Z-1.000000 I-26.216737 J150.199842
G03 X4.868715 Y9.014608 Z-1.000000 I0.349601 J-2.026376
G03 X4.778296 Y8.979120 Z-1.000000 I0.125836 J-0.453554
G02 X4.486832 Y8.884403 Z-1.000000 I-0.430510 J0.828959
G02 X3.238297 Y8.747500 Z-1.000000 I-2.326151 J15.452512
G03 X2.430400 Y8.660894 Z-1.000000 I0.736839 J-10.685074
G03 X2.046977 Y8.574010 Z-1.000000 I0.363347 J-2.492932
G02 X1.343755 Y8.438125 Z-1.000000 I-0.966018 J3.111699
G02 X1.209153 Y8.506210 Z-1.000000 I-0.011657 J0.144050
G03 X1.167862 Y8.533209 Z-1.000000 I-0.049562 J-0.030723
G03 X1.040556 Y8.530210 Z-1.000000 I-0.054695 J-0.381717
G02 X0.808444 Y8.585628 Z-1.000000 I-0.054607 J0.285085
G02 X0.710375 Y8.785370 Z-1.000000 I0.154378 J0.199742
G02 X0.800196 Y8.977225 Z-1.000000 I0.249808 J0.000000
G02 X1.446507 Y9.399210 Z-1.000000 I2.123755 J-2.546797
G03 X1.810522 Y9.596812 Z-1.000000 I-2.588151 J5.201884
G03 X1.919347 Y9.678090 Z-1.000000 I-0.318624 J0.540107
G02 X2.265151 Y9.919588 Z-1.000000 I1.027293 J-1.102666
G02 X2.889618 Y10.170000 Z-1.000000 I1.733616 J-3.419373
G03 X3.235885 Y10.282057 Z-1.000000 I-2.731792 J9.032506
G03 X3.421420 Y10.353560 Z-1.000000 I-0.911579 J2.641826
G02 X3.606854 Y10.420386 Z-1.000000 I0.672096 J-1.574293
G02 X3.684526 Y10.431660 Z-1.000000 I0.077672 J-0.261924
G03 X3.759687 Y10.447009 Z-1.000000 I0.000000 J0.191696
G03 X3.888852 Y10.518660 Z-1.000000 I-0.280105 J0.657193
G02 X3.999463 Y10.564139 Z-1.000000 I0.156101 J-0.222409
G01 X4.033919 Y10.543460 Z-1.000000
G03 X4.191631 Y10.450333 Z-1.000000 I0.132390 J0.044098
G03 X4.691126 Y10.664790 Z-1.000000 I-0.222949 J1.208196
G02 X4.852251 Y10.726120 Z-1.000000 I0.194139 J-0.267721
G02 X6.085842 Y10.804500 Z-1.000000 I1.688733 J-16.831533
G03 X6.255735 Y10.823347 Z-1.000000 I-0.019912 J0.954640
G03 X6.326635 Y10.852300 Z-1.000000 I-0.040817 J0.201241
G02 X6.396345 Y10.867912 Z-1.000000 I0.055918 J-0.086244
G02 X6.634346 Y10.810300 Z-1.000000 I-0.159907 J-1.181000
G03 X6.879019 Y10.739614 Z-1.000000 I0.732797 J2.077713
G03 X7.178081 Y10.686740 Z-1.000000 I0.695107 J3.059400
G02 X7.473971 Y10.632663 Z-1.000000 I-0.346693 J-2.733500
G02 X7.543205 Y10.599140 Z-1.000000 I-0.041937 J-0.174867
G03 X7.750575 Y10.505671 Z-1.000000 I0.292540 J0.372257
G03 X8.453954 Y10.432510 Z-1.000000 I0.824364 J4.507789
G03 X8.520484 Y10.512837 Z-1.000000 I0.001617 J0.066376
G03 X8.408660 Y10.643450 Z-1.000000 I-0.176496 J-0.037932
G01 X8.383284 Y10.686080 Z-1.000000
G02 X8.423187 Y10.753510 Z-1.000000 I0.098990 J-0.013057
G01 X8.429778 Y10.818349 Z-1.000000
G03 X8.245737 Y10.950030 Z-1.000000 I-0.393471 J-0.355476
G03 X7.961155 Y11.052469 Z-1.000000 I-0.996109 J-2.320756
G03 X7.834772 Y11.070640 Z-1.000000 I-0.126383 J-0.430413
G02 X7.481538 Y11.121314 Z-1.000000 I0.000000 J1.256491
G02 X7.032699 Y11.305620 Z-1.000000 I0.652806 J2.228451
G03 X6.928618 Y11.343350 Z-1.000000 I-0.178588 J-0.330225
G03 X6.596850 Y11.394020 Z-1.000000 I-0.690718 J-3.411082
G02 X5.999214 Y11.510410 Z-1.000000 I0.352764 J3.403902
G02 X5.388485 Y11.743440 Z-1.000000 I1.093719 J3.783266
G03 X5.092307 Y11.866459 Z-1.000000 I-1.290331 J-2.688518
G03 X4.836410 Y11.938610 Z-1.000000 I-0.681668 J-1.927807
G02 X3.723972 Y12.246435 Z-1.000000 I1.985908 J9.340807
G02 X3.209241 Y12.496350 Z-1.000000 I0.765408 J2.231488
G02 X3.132473 Y12.563298 Z-1.000000 I0.191412 J0.296980
G02 X2.963346 Y12.782890 Z-1.000000 I1.997653 J1.713490
G02 X2.861660 Y13.013670 Z-1.000000 I0.553907 J0.381853
G02 X2.882999 Y13.131570 Z-1.000000 I0.147975 J0.034099
G02 X3.043545 Y13.232420 Z-1.000000 I0.191591 J-0.126785
G02 X4.581348 Y13.363190 Z-1.000000 I2.057102 J-15.083360
G02 X5.455564 Y13.357903 Z-1.000000 I0.371361 J-10.874096
G02 X5.801724 Y13.305890 Z-1.000000 I-0.078742 J-1.701952
G02 X6.315214 Y13.122520 Z-1.000000 I-0.722392 J-2.833552
G02 X7.754285 Y12.395340 Z-1.000000 I-10.808056 J-23.176409
G02 X8.045230 Y12.201154 Z-1.000000 I-0.944322 J-1.729913
G02 X8.820585 Y11.537540 Z-1.000000 I-10.484081 J-13.034169
G03 X8.930474 Y11.499358 Z-1.000000 I0.099602 J0.109434
G03 X9.016827 Y11.551240 Z-1.000000 I-0.007710 J0.110637
G03 X9.025799 Y11.663864 Z-1.000000 I-0.103983 J0.064953
G03 X8.890006 Y11.851740 Z-1.000000 I-0.475533 J-0.200692
G03 X8.088820 Y12.525572 Z-1.000000 I-17.989890 J-20.576749
G03 X7.916412 Y12.639250 Z-1.000000 I-0.669143 J-0.827269
G02 X7.440027 Y12.974050 Z-1.000000 I1.072260 J2.032034
G02 X6.968074 Y13.504550 Z-1.000000 I2.303244 J2.524236
G02 X6.798479 Y13.788285 Z-1.000000 I1.594598 J1.145686
G02 X6.665888 Y14.123030 Z-1.000000 I2.093625 J1.022905
G03 X6.547300 Y14.465260 Z-1.000000 I-5.117872 J-1.581766
G03 X6.487504 Y14.586570 Z-1.000000 I-0.697670 J-0.268501
G02 X6.427574 Y14.707776 Z-1.000000 I0.645339 J0.394505
G02 X6.314120 Y15.033980 Z-1.000000 I4.604331 J1.784223
G01 X6.211771 Y15.365180 Z-1.000000
G01 X6.367558 Y15.600580 Z-1.000000
G02 X6.606713 Y15.811634 Z-1.000000 I0.511259 J-0.338305
G02 X6.725189 Y15.777740 Z-1.000000 I0.040623 J-0.082015
G03 X6.770153 Y15.752666 Z-1.000000 I0.044925 J0.027709
G03 X6.870377 Y15.777910 Z-1.000000 I-0.000155 J0.212195
G02 X6.971434 Y15.805443 Z-1.000000 I0.110415 J-0.206040
G01 X7.012350 Y15.783910 Z-1.000000
G03 X7.053870 Y15.739279 Z-1.000000 I0.133207 J0.082292
G03 X7.524367 Y15.414010 Z-1.000000 I8.088284 J11.196676
G02 X7.992636 Y15.084903 Z-1.000000 I-5.551456 J-8.396575
G02 X8.095942 Y14.987490 Z-1.000000 I-0.370007 J-0.495872
G02 X8.357825 Y14.604133 Z-1.000000 I-1.769393 J-1.489854
G02 X9.303221 Y12.771190 Z-1.000000 I-40.079225 J-21.832354
G03 X9.609121 Y12.200350 Z-1.000000 I7.595692 J3.702979
G03 X9.652443 Y12.175530 Z-1.000000 I0.043322 J0.025399
G03 X9.707963 Y12.187711 Z-1.000000 I0.000000 J0.132612
G03 X9.921429 Y12.299520 Z-1.000000 I-0.998976 J2.166935
G01 X10.131579 Y12.423530 Z-1.000000
G01 X9.982864 Y12.578750 Z-1.000000
G02 X9.847453 Y12.739276 Z-1.000000 I1.191436 J1.142409
G02 X9.834149 Y12.779620 Z-1.000000 I0.054518 J0.040344
G03 X9.780805 Y12.932433 Z-1.000000 I-0.245556 J-0.000000
G03 X9.251674 Y13.512120 Z-1.000000 I-4.511832 J-3.587015
G02 X8.940810 Y13.964026 Z-1.000000 I0.929135 J0.972023
G02 X8.592274 Y15.084170 Z-1.000000 I5.672300 J2.379246
G02 X8.534062 Y15.461233 Z-1.000000 I3.530163 J0.738025
G02 X8.502548 Y15.976460 Z-1.000000 I6.558252 J0.659709
G03 X8.462132 Y16.486568 Z-1.000000 I-4.482839 J-0.098522
G03 X8.410180 Y16.650610 Z-1.000000 I-0.502229 J-0.068807
G02 X8.375599 Y16.804132 Z-1.000000 I0.276306 J0.142893
G02 X8.419960 Y16.936790 Z-1.000000 I0.245648 J-0.008398
G02 X8.526791 Y17.023097 Z-1.000000 I0.203777 J-0.142966
G02 X8.646348 Y17.032390 Z-1.000000 I0.073685 J-0.174262
G03 X8.765004 Y17.036542 Z-1.000000 I0.052160 J0.206911
G03 X8.836474 Y17.095790 Z-1.000000 I-0.039465 J0.120337
G02 X8.988941 Y17.142116 Z-1.000000 I0.100330 J-0.056143
G02 X9.546723 Y16.734470 Z-1.000000 I-0.980426 J-1.926945
G03 X9.865500 Y16.432885 Z-1.000000 I4.601094 J4.544105
G03 X9.904846 Y16.417990 Z-1.000000 I0.039347 J0.044523
G01 X9.929282 Y16.439119 Z-1.000000
G03 X9.950421 Y16.730490 Z-1.000000 I-1.997420 J0.291371
G02 X10.097728 Y16.985410 Z-1.000000 I0.294229 J0.000000
G02 X10.285754 Y16.923750 Z-1.000000 I0.066363 J-0.115145
G02 X10.331963 Y16.721649 Z-1.000000 I-0.504034 J-0.221578
G01 X10.293354 Y16.708550 Z-1.000000
G01 X10.267864 Y16.703248 Z-1.000000
G03 X10.262674 Y16.563260 Z-1.000000 I0.402573 J-0.085016
G02 X10.256542 Y16.441085 Z-1.000000 I-0.330905 J-0.044634
G01 X10.232684 Y16.437640 Z-1.000000
G02 X10.195296 Y16.549436 Z-1.000000 I0.259627 J0.148977
G02 X10.194484 Y16.742730 Z-1.000000 I0.798887 J0.100005
G03 X10.182607 Y16.909834 Z-1.000000 I-0.447244 J0.052187
G01 X10.142134 Y16.941010 Z-1.000000
G03 X9.851956 Y16.657132 Z-1.000000 I0.000000 J-0.290247
G03 X10.120984 Y15.979230 Z-1.000000 I0.936798 J-0.020562
G02 X10.161121 Y15.915808 Z-1.000000 I-0.125475 J-0.123819
G02 X10.300123 Y15.488170 Z-1.000000 I-5.963820 J-2.174927
G03 X10.425062 Y15.052384 Z-1.000000 I667.734109 J191.203080
G03 X10.458603 Y14.936090 Z-1.000000 I46.340036 J13.302014
G03 X10.500329 Y14.825078 Z-1.000000 I0.737558 J0.213880
G03 X10.526443 Y14.790820 Z-1.000000 I0.091694 J0.042813
G02 X10.699065 Y14.507870 Z-1.000000 I-0.343536 J-0.403716
G02 X10.768615 Y13.755620 Z-1.000000 I-2.680578 J-0.627175
G03 X10.797159 Y13.575729 Z-1.000000 I0.450536 J-0.020722
G03 X10.907207 Y13.387960 Z-1.000000 I0.603801 J0.227744
G03 X11.031487 Y13.277249 Z-1.000000 I0.443984 J0.373287
G01 X11.055448 Y13.289960 Z-1.000000
G01 X11.111939 Y13.303098 Z-1.000000
G02 X11.169896 Y13.064010 Z-1.000000 I-0.479465 J-0.242794
G03 X11.270727 Y12.872297 Z-1.000000 I0.235618 J0.001550
G03 X11.451922 Y12.867270 Z-1.000000 I0.094423 J0.135388
G03 X11.491711 Y12.922030 Z-1.000000 I-0.046621 J0.075710
G03 X11.486162 Y13.008500 Z-1.000000 I-0.141584 J0.034327
G02 X11.482655 Y13.082257 Z-1.000000 I0.109896 J0.042187
G01 X11.513252 Y13.105500 Z-1.000000
G03 X11.719466 Y13.310433 Z-1.000000 I0.000000 J0.206218
G03 X11.521152 Y14.408470 Z-1.000000 I-3.034353 J0.018900
G02 X11.475974 Y14.559649 Z-1.000000 I1.014188 J0.385416
G02 X11.427362 Y14.832690 Z-1.000000 I3.270142 J0.723064
G03 X11.379891 Y15.106085 Z-1.000000 I-3.701390 J-0.501875
G03 X11.342152 Y15.234360 Z-1.000000 I-0.849577 J-0.180259
G02 X11.303682 Y15.362567 Z-1.000000 I0.875051 J0.332444
G02 X11.257522 Y15.612960 Z-1.000000 I3.300640 J0.737927
G03 X11.199316 Y15.857726 Z-1.000000 I-1.402994 J-0.204332
G03 X11.124529 Y16.011160 Z-1.000000 I-0.618659 J-0.206604
G02 X11.034023 Y16.159758 Z-1.000000 I1.926151 J1.275020
G02 X10.848617 Y16.505110 Z-1.000000 I10.251046 J5.725818
G03 X10.663772 Y16.850903 Z-1.000000 I-11.643577 J-6.001794
G03 X10.545083 Y17.053090 Z-1.000000 I-4.109432 J-2.276428
G02 X10.478637 Y17.278132 Z-1.000000 I0.375366 J0.233161
G01 X10.540283 Y17.313240 Z-1.000000
G02 X10.590057 Y17.267598 Z-1.000000 I-0.094362 J-0.152866
G02 X10.789590 Y16.978150 Z-1.000000 I-3.913657 J-2.911403
G02 X11.215650 Y16.145310 Z-1.000000 I-4.175472 J-2.661464
G02 X11.543988 Y15.079780 Z-1.000000 I-6.536236 J-2.597466
G02 X11.701039 Y14.176257 Z-1.000000 I-9.432358 J-2.104946
G02 X11.731821 Y13.580550 Z-1.000000 I-4.057017 J-0.508289
G03 X11.740192 Y12.992155 Z-1.000000 I8.303547 J-0.176125
G01 X11.763261 Y12.953150 Z-1.000000
G03 X11.909136 Y12.944977 Z-1.000000 I0.080474 J0.130437
G03 X12.103789 Y13.113980 Z-1.000000 I-0.203180 J0.430618
G03 X12.116179 Y13.167099 Z-1.000000 I-0.066114 J0.043425
G03 X12.037749 Y13.649090 Z-1.000000 I-6.303089 J-0.778266
G02 X11.820164 Y15.142743 Z-1.000000 I13.431749 J2.719321
G02 X11.860722 Y15.620510 Z-1.000000 I1.377343 J0.123681
G03 X11.921408 Y15.866808 Z-1.000000 I-7.024919 J1.861512
G03 X11.949822 Y16.011160 Z-1.000000 I-2.409250 J0.549206
G02 X12.372209 Y17.564205 Z-1.000000 I7.864149 J-1.304877
G02 X12.745857 Y18.083940 Z-1.000000 I1.177067 J-0.452039
G02 X12.834514 Y18.134794 Z-1.000000 I0.191890 J-0.231828
G02 X13.036728 Y18.190170 Z-1.000000 I0.434555 J-1.189942
G02 X13.226468 Y18.176040 Z-1.000000 I0.068215 J-0.365012
G02 X13.367505 Y18.075580 Z-1.000000 I-0.100600 J-0.290464
G02 X13.463806 Y17.909960 Z-1.000000 I-0.543116 J-0.426606
G02 X13.559201 Y17.605720 Z-1.000000 I-1.765958 J-0.720795
G03 X13.649460 Y17.314035 Z-1.000000 I1.865637 J0.417496
G01 X13.685474 Y17.289640 Z-1.000000
G03 X13.733780 Y17.307523 Z-1.000000 I0.000000 J0.074185
G03 X14.184717 Y17.717970 Z-1.000000 I-6.772262 J7.893267
G02 X14.884917 Y18.126440 Z-1.000000 I1.185871 J-1.228447
G02 X15.120923 Y17.995750 Z-1.000000 I0.053792 J-0.181301
G02 X15.176296 Y17.388238 Z-1.000000 I-1.641151 J-0.455865
G02 X15.001540 Y16.660080 Z-1.000000 I-2.556591 J0.228525
G03 X14.830040 Y16.211810 Z-1.000000 I13.447465 J-5.401706
G03 X14.621781 Y15.615980 Z-1.000000 I23.561527 J-8.569704
G02 X14.189668 Y14.482961 Z-1.000000 I-14.132252 J4.740875
G02 X14.082833 Y14.358940 Z-1.000000 I-0.249666 J0.107044
G03 X14.038297 Y14.307796 Z-1.000000 I0.060418 J-0.097575
G03 X14.018233 Y14.212850 Z-1.000000 I0.214620 J-0.094946
G02 X14.002694 Y14.110589 Z-1.000000 I-0.344246 J0.000000
G02 X13.935663 Y13.947550 Z-1.000000 I-0.952687 J0.296381
G03 X13.877758 Y13.787038 Z-1.000000 I0.573270 J-0.297511
G03 X13.883773 Y13.708460 Z-1.000000 I0.134599 J-0.029215
G02 X13.882882 Y13.650336 Z-1.000000 I-0.072700 J-0.027954
G01 X13.850113 Y13.628560 Z-1.000000
G03 X13.806430 Y13.612732 Z-1.000000 I0.000000 J-0.068191
G01 X13.797723 Y13.584960 Z-1.000000
G02 X13.795828 Y13.543007 Z-1.000000 I-0.064575 J-0.018103
G02 X13.710553 Y13.355380 Z-1.000000 I-1.529946 J0.582159
G03 X13.635475 Y13.051231 Z-1.000000 I0.563910 J-0.300541
G03 X13.713153 Y12.895860 Z-1.000000 I0.196443 J0.001109
G03 X13.936087 Y12.810676 Z-1.000000 I0.257488 J0.339557
G03 X14.027933 Y12.870460 Z-1.000000 I0.007264 J0.089285
G02 X14.057464 Y12.919662 Z-1.000000 I0.134011 J-0.046970
G02 X14.629837 Y13.524250 Z-1.000000 I21.846298 J-20.109010
G03 X15.208775 Y14.125906 Z-1.000000 I-50.475264 J49.148801
G03 X15.585547 Y14.529310 Z-1.000000 I-22.327132 J21.230740
G02 X15.970358 Y14.920670 Z-1.000000 I5.841280 J-5.358662
G02 X16.076362 Y14.995070 Z-1.000000 I0.303828 J-0.320173
G03 X16.179152 Y15.070738 Z-1.000000 I-0.168602 J0.336683
G03 X16.327905 Y15.256570 Z-1.000000 I-0.945193 J0.909054
G02 X16.809483 Y15.828084 Z-1.000000 I2.691464 J-1.779268
G02 X17.965183 Y16.795720 Z-1.000000 I8.989277 J-9.562405
G03 X18.666659 Y17.455929 Z-1.000000 I-2.494936 J3.353650
G03 X18.702931 Y17.671240 Z-1.000000 I-0.164215 J0.138375
G03 X18.438420 Y17.806626 Z-1.000000 I-0.207697 J-0.079702
G03 X16.517113 Y17.093820 Z-1.000000 I2.701462 J-10.227320
G03 X16.051898 Y16.812858 Z-1.000000 I1.306116 J-2.688291
G03 X15.500134 Y16.345500 Z-1.000000 I3.134705 J-4.260224
G02 X14.971253 Y15.851546 Z-1.000000 I-12.679655 J13.046103
G02 X14.933530 Y15.837020 Z-1.000000 I-0.037936 J0.042273
G02 X14.725465 Y16.389142 Z-1.000000 I-0.000891 J0.314929
G02 X16.627699 Y17.317660 Z-1.000000 I2.669661 J-3.056483
G03 X16.732625 Y17.348499 Z-1.000000 I-0.111954 J0.574824
G03 X16.960703 Y17.450850 Z-1.000000 I-1.091003 J2.736483
G02 X17.589734 Y17.720461 Z-1.000000 I2.611763 J-5.224917
G02 X18.298223 Y17.933470 Z-1.000000 I2.315264 J-6.416039
G02 X18.797564 Y17.936912 Z-1.000000 I0.256985 J-1.059395
G02 X18.981168 Y17.777700 Z-1.000000 I-0.057382 J-0.251645
G02 X18.961725 Y17.504122 Z-1.000000 I-0.302288 J-0.115997
G02 X18.560430 Y17.022520 Z-1.000000 I-1.477579 J0.823202
G02 X18.174423 Y16.723461 Z-1.000000 I-5.088663 J6.169489
G02 X18.128555 Y16.708550 Z-1.000000 I-0.045868 J0.063092
G03 X18.082676 Y16.693365 Z-1.000000 I-0.000000 J-0.076898
G03 X17.466490 Y16.216350 Z-1.000000 I11.921851 J-16.036603
G03 X16.490017 Y15.312916 Z-1.000000 I6.112325 J-7.585903
G03 X16.516011 Y15.208080 Z-1.000000 I0.046732 J-0.044053
G03 X16.569059 Y15.209732 Z-1.000000 I0.024364 J0.070164
G03 X17.023227 Y15.420120 Z-1.000000 I-2.591268 J6.189229
G02 X18.086618 Y15.822848 Z-1.000000 I2.370757 J-4.654620
G02 X19.561955 Y16.076410 Z-1.000000 I2.265969 J-8.765557
G02 X20.230176 Y16.073696 Z-1.000000 I0.319316 J-3.643414
G02 X20.393505 Y15.996710 Z-1.000000 I-0.025472 J-0.265788
G02 X20.469334 Y15.843207 Z-1.000000 I-0.188717 J-0.188706
G02 X20.442475 Y15.628720 Z-1.000000 I-0.421707 J-0.056116
G02 X20.305323 Y15.443039 Z-1.000000 I-0.425151 J0.170541
G02 X19.843376 Y15.144370 Z-1.000000 I-1.635175 J2.022522
G03 X19.339300 Y14.881137 Z-1.000000 I9.675238 J-19.141768
G03 X19.132206 Y14.760920 Z-1.000000 I1.807697 J-3.352551
G03 X18.929031 Y14.633813 Z-1.000000 I34.532296 J-55.424088
G03 X18.609188 Y14.432450 Z-1.000000 I99.873462 J-158.993113
G02 X18.280669 Y14.250645 Z-1.000000 I-1.750007 J2.774521
G02 X18.040908 Y14.159290 Z-1.000000 I-0.661406 J1.375553
G03 X17.829603 Y14.073224 Z-1.000000 I0.295104 J-1.026954
G01 X17.821065 Y14.041190 Z-1.000000
G03 X17.861979 Y14.014482 Z-1.000000 I0.048729 J0.029955
G03 X18.390741 Y13.962190 Z-1.000000 I0.943635 J6.842332
G02 X19.632765 Y13.632716 Z-1.000000 I-0.192889 J-3.232911
G02 X19.887678 Y13.222390 Z-1.000000 I-0.202788 J-0.410326
G02 X19.746961 Y12.897487 Z-1.000000 I-0.445445 J0.000000
G02 X19.391230 Y12.756770 Z-1.000000 I-0.355731 J0.379284
G03 X19.255664 Y12.740433 Z-1.000000 I0.000000 J-0.570631
G03 X19.061538 Y12.676270 Z-1.000000 I0.306378 J-1.252701
G02 X18.869704 Y12.598237 Z-1.000000 I-3.088195 J7.317139
G02 X18.522021 Y12.464900 Z-1.000000 I-9.579207 J24.458243
G03 X18.174656 Y12.330866 Z-1.000000 I6.838162 J-18.239061
G03 X17.999000 Y12.257430 Z-1.000000 I1.932711 J-4.869761
G02 X17.135338 Y11.981850 Z-1.000000 I-1.736893 J3.952249
G02 X17.040134 Y12.059400 Z-1.000000 I-0.016017 J0.077550
G01 X17.062251 Y12.095442 Z-1.000000
G02 X17.154384 Y12.117500 Z-1.000000 I0.092133 J-0.181379
G03 X17.315722 Y12.147435 Z-1.000000 I-0.000000 J0.449741
G03 X17.999917 Y12.442550 Z-1.000000 I-3.316600 J8.629889
G02 X18.293492 Y12.573261 Z-1.000000 I2.409649 J-5.017014
G02 X18.339814 Y12.582410 Z-1.000000 I0.046322 J-0.112686
G03 X18.386529 Y12.590416 Z-1.000000 I0.000000 J0.140287
G03 X18.571346 Y12.664110 Z-1.000000 I-0.829721 J2.349467
G02 X18.756532 Y12.740744 Z-1.000000 I1.430250 J-3.194119
G02 X19.045034 Y12.844740 Z-1.000000 I3.071948 J-8.069935
G03 X19.588444 Y13.100309 Z-1.000000 I-0.870493 J2.556415
G03 X19.655220 Y13.219720 Z-1.000000 I-0.073380 J0.119411
G03 X19.626721 Y13.365235 Z-1.000000 I-0.385754 J0.000000
G03 X19.553524 Y13.469300 Z-1.000000 I-0.262692 J-0.106998
G03 X19.257271 Y13.647020 Z-1.000000 I-0.607134 J-0.676291
G03 X18.725409 Y13.770760 Z-1.000000 I-0.776782 J-2.133874
G03 X17.437553 Y13.872792 Z-1.000000 I-2.404075 J-22.165695
G03 X17.337344 Y13.840360 Z-1.000000 I-0.007423 J-0.148091
G02 X17.252375 Y13.787165 Z-1.000000 I-0.267227 J0.332382
G02 X17.192062 Y13.771660 Z-1.000000 I-0.070479 J0.149102
G03 X16.970724 Y13.722897 Z-1.000000 I0.048753 J-0.748007
G03 X16.369988 Y13.453320 Z-1.000000 I2.230706 J-5.775132
G02 X15.941698 Y13.254312 Z-1.000000 I-2.692091 J5.233345
G02 X15.608229 Y13.135870 Z-1.000000 I-1.271416 J3.050968
G03 X14.334647 Y12.671408 Z-1.000000 I3.105706 J-10.494374
G03 X14.250697 Y12.543150 Z-1.000000 I0.056000 J-0.128258
G03 X14.269252 Y12.484791 Z-1.000000 I0.101051 J-0.000000
G01 X14.304887 Y12.466350 Z-1.000000
G02 X14.345083 Y12.447257 Z-1.000000 I0.000000 J-0.051860
G02 X14.393687 Y12.357320 Z-1.000000 I-0.211466 J-0.172382
G03 X14.456801 Y12.280747 Z-1.000000 I0.126858 J0.040264
G03 X14.673641 Y12.204570 Z-1.000000 I0.342059 J0.626968
G02 X14.918747 Y12.159793 Z-1.000000 I-4.668633 J-26.248808
G02 X15.035206 Y12.136670 Z-1.000000 I-1.029030 J-5.487619
G03 X15.152466 Y12.120881 Z-1.000000 I0.169172 J0.813041
G03 X15.950488 Y12.079370 Z-1.000000 I2.360488 J37.687749
G02 X16.727763 Y12.025376 Z-1.000000 I-0.584386 J-14.034228
G01 X16.749544 Y12.001370 Z-1.000000
G01 X16.769620 Y11.973745 Z-1.000000
G03 X17.006784 Y11.917970 Z-1.000000 I0.454086 J1.398722
G02 X17.731735 Y11.685466 Z-1.000000 I-0.350994 J-2.340861
G02 X18.023951 Y11.398900 Z-1.000000 I-0.310986 J-0.609390
G02 X18.063514 Y11.243579 Z-1.000000 I-0.294868 J-0.157808
G02 X18.026851 Y11.009950 Z-1.000000 I-0.728197 J-0.005415
G02 X17.812492 Y10.705629 Z-1.000000 I-0.608099 J0.200679
G02 X17.379964 Y10.505570 Z-1.000000 I-0.645408 J0.827782
G02 X17.069135 Y10.441488 Z-1.000000 I-97.494923 J472.115255
G02 X16.749544 Y10.375930 Z-1.000000 I-49.841255 J242.159432
G03 X16.430067 Y10.310005 Z-1.000000 I15.949836 J-78.101329
G03 X16.123789 Y10.245390 Z-1.000000 I13.431106 J-64.422006
G02 X15.819396 Y10.225626 Z-1.000000 I-0.219809 J1.031467
G02 X15.397374 Y10.303890 Z-1.000000 I0.167280 J2.079000
G03 X14.636591 Y10.488935 Z-1.000000 I-2.324662 J-7.901045
G01 X14.599355 Y10.458210 Z-1.000000
G03 X14.604373 Y10.429921 Z-1.000000 I0.082251 J-0.000000
G03 X14.687465 Y10.217850 Z-1.000000 I4.790755 J1.754765
G02 X14.711371 Y9.897356 Z-1.000000 I-0.469457 J-0.196157
G02 X14.565321 Y9.733230 Z-1.000000 I-0.230534 J0.058099
G03 X14.451448 Y9.661744 Z-1.000000 I0.121478 J-0.319948
G03 X14.425012 Y9.600290 Z-1.000000 I0.058211 J-0.061454
G02 X14.221652 Y9.312547 Z-1.000000 I-0.305250 J0.000000
G02 X13.781921 Y9.372540 Z-1.000000 I-0.161669 J0.456563
G03 X13.341006 Y9.637131 Z-1.000000 I-2.080144 J-2.966692
G03 X13.177820 Y9.678990 Z-1.000000 I-0.175907 J-0.346752
G02 X13.119913 Y9.690769 Z-1.000000 I0.004937 J0.172499
G02 X12.885013 Y9.793240 Z-1.000000 I1.209016 J3.091973
G03 X12.648894 Y9.890250 Z-1.000000 I-0.919669 J-1.902584
G03 X12.550862 Y9.907490 Z-1.000000 I-0.104071 J-0.304439
G03 X12.457649 Y9.812016 Z-1.000000 I-0.001319 J-0.091952
G03 X12.565762 Y9.518060 Z-1.000000 I0.506470 J0.019414
G02 X12.639641 Y9.355339 Z-1.000000 I-0.295094 J-0.232111
G02 X12.676770 Y8.927760 Z-1.000000 I-2.127894 J-0.400179
G03 X12.736760 Y8.388101 Z-1.000000 I2.205488 J-0.027995
G03 X12.980307 Y7.654900 Z-1.000000 I4.344785 J1.036154
G02 X13.182390 Y7.115831 Z-1.000000 I-5.438826 J-2.346290
G02 X13.315493 Y6.608680 Z-1.000000 I-4.679145 J-1.499093
G02 X13.355215 Y6.276494 Z-1.000000 I-1.947416 J-0.401333
G01 X13.328023 Y6.248340 Z-1.000000
G01 X13.295554 Y6.271702 Z-1.000000
G02 X13.152833 Y6.771090 Z-1.000000 I5.469757 J1.833296
G03 X13.007334 Y7.285558 Z-1.000000 I-6.151497 J-1.461922
G03 X12.913214 Y7.499270 Z-1.000000 I-1.145905 J-0.377082
G02 X12.813380 Y7.708764 Z-1.000000 I1.509601 J0.847932
G02 X12.797837 Y7.790100 Z-1.000000 I0.205040 J0.081336
G03 X12.772553 Y7.850246 Z-1.000000 I-0.084180 J-0.000000
G03 X12.710667 Y7.875500 Z-1.000000 I-0.061886 J-0.063200
G02 X12.654152 Y7.906184 Z-1.000000 I-0.000000 J0.067387
G02 X12.623497 Y8.009670 Z-1.000000 I0.159346 J0.103486
G03 X12.602204 Y8.136610 Z-1.000000 I-0.389036 J0.000000
G03 X12.538177 Y8.256650 Z-1.000000 I-0.409650 J-0.141406
G01 X12.495554 Y8.244359 Z-1.000000
G03 X12.517837 Y8.020780 Z-1.000000 I0.607325 J-0.052371
G02 X12.570512 Y7.787189 Z-1.000000 I-1.828953 J-0.535167
G02 X12.571667 Y7.684840 Z-1.000000 I-0.343516 J-0.055057
G03 X12.582526 Y7.586148 Z-1.000000 I0.202107 J-0.027705
G03 X12.711908 Y7.307090 Z-1.000000 I1.833427 J0.680524
G02 X12.832697 Y7.021901 Z-1.000000 I-1.204711 J-0.678420
G02 X12.913940 Y6.626070 Z-1.000000 I-2.256106 J-0.669309
G03 X12.973756 Y6.221729 Z-1.000000 I6.680906 J0.781738
G03 X13.028457 Y5.986820 Z-1.000000 I2.304778 J0.412870
G02 X13.120256 Y5.612202 Z-1.000000 I-4.631036 J-1.333376
G02 X13.204599 Y5.119170 Z-1.000000 I-7.945349 J-1.612944
G03 X13.280332 Y4.729093 Z-1.000000 I3.699835 J0.515926
G03 X13.313549 Y4.683320 Z-1.000000 I0.073448 J0.018361
G02 X13.344259 Y4.637979 Z-1.000000 I-0.036057 J-0.057493
G02 X13.367169 Y4.388710 Z-1.000000 I-1.395044 J-0.253903
G03 X13.370727 Y4.127242 Z-1.000000 I12.596339 J0.040636
G03 X13.406209 Y2.761540 Z-1.000000 I343.245118 J8.234535
G02 X13.418720 Y1.397528 Z-1.000000 I-36.285067 J-1.014869
G02 X13.389719 Y1.047200 Z-1.000000 I-2.410577 J0.023187
G01 X13.360473 Y1.047051 Z-1.000000
G02 X13.327959 Y1.416370 Z-1.000000 I2.348094 J0.392809
G01 X13.328046 Y1.415010 Z-1.000000
G00 Z0.000000

(End cutting path id: path34543)


(Start cutting path id: path34543)
(Change tool to Cone cutter)

G00 Z0.000000
G00 X11.970869 Y8.164710

G01 Z-1.000000 F100.0(Penetrate)
G02 X12.056966 Y8.256539 Z-1.000000 I0.275776 J-0.172284 F400.000000
G02 X12.132772 Y8.280940 Z-1.000000 I0.075806 J-0.105554
G03 X12.212711 Y8.303532 Z-1.000000 I0.000000 J0.152721
G03 X12.364733 Y8.423580 Z-1.000000 I-0.432302 J0.703725
G03 X12.458086 Y8.586633 Z-1.000000 I-0.253182 J0.253205
G03 X12.507374 Y8.971860 Z-1.000000 I-1.480785 J0.385227
G03 X12.487715 Y9.373913 Z-1.000000 I-4.121036 J-0.000000
G03 X12.453804 Y9.518410 Z-1.000000 I-0.557823 J-0.054683
G03 X12.300467 Y9.666259 Z-1.000000 I-0.233587 J-0.088818
G03 X11.780956 Y9.746570 Z-1.000000 I-0.488816 J-1.441575
G03 X11.572652 Y9.688660 Z-1.000000 I0.008697 J-0.434877
G03 X11.301524 Y9.470690 Z-1.000000 I0.562777 J-0.977636
G03 X11.106998 Y9.179190 Z-1.000000 I0.865266 J-0.788072
G03 X11.054543 Y8.943610 Z-1.000000 I0.502778 J-0.235580
G03 X11.160343 Y8.561073 Z-1.000000 I0.744462 J0.000000
G03 X11.347046 Y8.455270 Z-1.000000 I0.186703 J0.111829
G02 X11.399686 Y8.437304 Z-1.000000 I-0.000000 J-0.086101
G02 X11.610492 Y8.251880 Z-1.000000 I-1.349858 J-1.747177
G03 X11.852168 Y8.116294 Z-1.000000 I0.361910 J0.361907
G03 X11.970868 Y8.164780 Z-1.000000 I0.025743 J0.106517
G01 X11.970869 Y8.164710 Z-1.000000
G00 Z0.000000

(End cutting path id: path34543)


(Start cutting path id: path34543)
(Change tool to Cone cutter)

G00 Z0.000000
G00 X12.372732 Y8.233810

G01 Z-1.000000 F100.0(Penetrate)
G01 X12.354652 Y8.237511 Z-1.000000 F400.000000
G03 X12.337622 Y8.198610 Z-1.000000 I0.041409 J-0.041306
G03 X12.350007 Y8.126117 Z-1.000000 I0.174872 J-0.007429
G01 X12.368142 Y8.122410 Z-1.000000
G03 X12.385149 Y8.161199 Z-1.000000 I-0.041177 J0.041177
G03 X12.372642 Y8.233750 Z-1.000000 I-0.175018 J0.007183
G01 X12.372732 Y8.233810 Z-1.000000
G00 Z0.000000

(End cutting path id: path34543)


(Start cutting path id: path34543)
(Change tool to Cone cutter)

G00 Z0.000000
G00 X1.985201 Y8.749220

G01 Z-1.000000 F100.0(Penetrate)
G02 X2.355378 Y8.838428 Z-1.000000 I0.735184 J-2.238058 F400.000000
G02 X3.084421 Y8.921690 Z-1.000000 I1.358510 J-8.661783
G03 X4.117392 Y9.032714 Z-1.000000 I-1.058211 J14.706521
G03 X5.039832 Y9.201810 Z-1.000000 I-1.705951 J11.906751
G02 X5.565314 Y9.302842 Z-1.000000 I1.948091 J-8.715213
G02 X5.998699 Y9.356300 Z-1.000000 I0.933843 J-5.787244
G03 X6.431739 Y9.409507 Z-1.000000 I-0.503233 J5.884554
G03 X6.725115 Y9.472780 Z-1.000000 I-0.447197 J2.785257
G02 X7.016459 Y9.548909 Z-1.000000 I3.685218 J-13.507718
G02 X7.416520 Y9.645680 Z-1.000000 I6.649274 J-26.613466
G03 X7.813713 Y9.750730 Z-1.000000 I-1.634533 J6.983569
G03 X8.019278 Y9.823790 Z-1.000000 I-0.569525 J1.928159
G02 X8.225064 Y9.889352 Z-1.000000 I0.477269 J-1.142306
G02 X8.402964 Y9.910090 Z-1.000000 I0.187297 J-0.833313
G03 X8.733875 Y9.997977 Z-1.000000 I-0.007372 J0.694665
G03 X8.748486 Y10.102850 Z-1.000000 I-0.032311 J0.057956
G03 X8.704533 Y10.125912 Z-1.000000 I-0.059025 J-0.059076
G03 X8.542564 Y10.140650 Z-1.000000 I-0.161969 J-0.882676
G02 X8.420842 Y10.166421 Z-1.000000 I0.000000 J0.300347
G01 X8.410650 Y10.199250 Z-1.000000
G01 X8.392301 Y10.246731 Z-1.000000
G03 X7.800208 Y10.374720 Z-1.000000 I-1.250148 J-4.349798
G02 X7.311838 Y10.468419 Z-1.000000 I0.835235 J5.672894
G02 X7.015680 Y10.560980 Z-1.000000 I0.512114 J2.158638
G03 X6.717961 Y10.630734 Z-1.000000 I-0.391126 J-0.999154
G03 X6.085869 Y10.642280 Z-1.000000 I-0.399706 J-4.574077
G03 X5.448679 Y10.592229 Z-1.000000 I0.590542 J-11.599195
G03 X4.981719 Y10.524710 Z-1.000000 I0.661789 J-6.225372
G02 X4.516480 Y10.441434 Z-1.000000 I-9.956539 J54.282883
G02 X4.313418 Y10.408010 Z-1.000000 I-1.823667 J10.445966
G03 X4.111734 Y10.368606 Z-1.000000 I0.408800 J-2.628254
G03 X3.790399 Y10.284670 Z-1.000000 I1.593498 J-6.757464
G02 X3.470169 Y10.195217 Z-1.000000 I-6.250991 J21.759924
G02 X3.267381 Y10.142550 Z-1.000000 I-2.506256 J9.233238
G03 X2.624768 Y9.923823 Z-1.000000 I0.960014 J-3.873845
G03 X2.137883 Y9.647310 Z-1.000000 I1.090419 J-2.486922
G02 X1.757324 Y9.392760 Z-1.000000 I-4.399870 J6.166174
G02 X1.426376 Y9.201930 Z-1.000000 I-2.795476 J4.465685
G03 X1.092044 Y9.016946 Z-1.000000 I4.854896 J-9.169134
G03 X1.015496 Y8.964550 Z-1.000000 I0.303731 J-0.525852
G03 X0.969840 Y8.825614 Z-1.000000 I0.084024 J-0.104581
G03 X1.073609 Y8.745190 Z-1.000000 I0.104508 J0.027687
G02 X1.199666 Y8.728455 Z-1.000000 I-0.003395 J-0.508705
G02 X1.291533 Y8.687990 Z-1.000000 I-0.081377 J-0.309264
G03 X1.470679 Y8.643620 Z-1.000000 I0.154015 J0.238005
G03 X1.985201 Y8.749590 Z-1.000000 I-0.204052 J2.292825
G01 X1.985201 Y8.749220 Z-1.000000
G00 Z0.000000

(End cutting path id: path34543)


(Start cutting path id: path34543)
(Change tool to Cone cutter)

G00 Z0.000000
G00 X2.078967 Y9.148580

G01 Z-1.000000 F100.0(Penetrate)
G02 X2.141410 Y9.189030 Z-1.000000 I0.131289 J-0.134251 F400.000000
G02 X2.308514 Y9.239080 Z-1.000000 I0.379419 J-0.962792
G01 X2.482854 Y9.275580 Z-1.000000
G01 X2.337571 Y9.187080 Z-1.000000
G02 X2.102135 Y9.101839 Z-1.000000 I-0.328714 J0.540150
G01 X2.078967 Y9.148480 Z-1.000000
G01 X2.078967 Y9.148580 Z-1.000000
G00 Z0.000000

(End cutting path id: path34543)


(Start cutting path id: path34543)
(Change tool to Cone cutter)

G00 Z0.000000
G00 X10.451792 Y9.005830

G01 Z-1.000000 F100.0(Penetrate)
G02 X10.505501 Y9.066278 Z-1.000000 I0.107255 J-0.041213 F400.000000
G02 X10.686366 Y9.129260 Z-1.000000 I0.299232 J-0.568117
G03 X10.862442 Y9.205709 Z-1.000000 I-0.079424 J0.423920
G03 X11.030574 Y9.382390 Z-1.000000 I-0.412246 J0.560638
G02 X11.191043 Y9.580738 Z-1.000000 I1.113442 J-0.736716
G02 X11.432715 Y9.792260 Z-1.000000 I1.511283 J-1.482883
G03 X11.655263 Y10.009889 Z-1.000000 I-0.713066 J0.951786
G03 X11.725995 Y10.166020 Z-1.000000 I-0.283696 J0.222610
G03 X11.694561 Y10.519136 Z-1.000000 I-0.643432 J0.120679
G03 X11.513759 Y10.724790 Z-1.000000 I-0.365079 J-0.138657
G03 X11.183124 Y10.791594 Z-1.000000 I-0.276382 J-0.516295
G03 X10.646400 Y10.643990 Z-1.000000 I0.147595 J-1.586323
G03 X9.793605 Y10.026148 Z-1.000000 I1.240485 J-2.609687
G03 X9.601716 Y9.546120 Z-1.000000 I0.504474 J-0.480028
G03 X9.662159 Y9.404162 Z-1.000000 I0.196924 J0.000000
G03 X10.108249 Y9.059040 Z-1.000000 I1.825721 J1.898989
G03 X10.374591 Y8.961083 Z-1.000000 I0.376317 J0.612125
G03 X10.451792 Y9.005840 Z-1.000000 I0.010873 J0.070205
G01 X10.451792 Y9.005830 Z-1.000000
G00 Z0.000000

(End cutting path id: path34543)


(Start cutting path id: path34543)
(Change tool to Cone cutter)

G00 Z0.000000
G00 X14.233223 Y9.673000

G01 Z-1.000000 F100.0(Penetrate)
G02 X14.283978 Y9.771340 Z-1.000000 I0.244745 J-0.064049 F400.000000
G02 X14.407657 Y9.881360 Z-1.000000 I0.433821 J-0.363153
G03 X14.499917 Y9.998569 Z-1.000000 I-0.128495 J0.196060
G03 X14.514226 Y10.179740 Z-1.000000 I-0.327632 J0.117027
G03 X14.340636 Y10.621052 Z-1.000000 I-1.238467 J-0.232354
G03 X13.912728 Y11.130520 Z-1.000000 I-2.095808 J-1.325857
G03 X13.558612 Y11.360505 Z-1.000000 I-0.882190 J-0.970723
G03 X13.285773 Y11.406260 Z-1.000000 I-0.226697 J-0.515452
G03 X13.000509 Y11.347054 Z-1.000000 I0.098194 J-1.189949
G03 X12.712436 Y11.211620 Z-1.000000 I0.455220 J-1.342354
G02 X12.435107 Y11.042486 Z-1.000000 I-19.642094 J31.895239
G02 X12.322253 Y10.975870 Z-1.000000 I-3.367045 J5.575187
G03 X12.219484 Y10.898579 Z-1.000000 I0.264245 J-0.458319
G03 X12.111063 Y10.772480 Z-1.000000 I0.614772 J-0.638247
G03 X11.687784 Y10.020678 Z-1.000000 I3.411603 J-2.415856
G03 X11.717357 Y9.865230 Z-1.000000 I0.129031 J-0.055990
G01 X11.742846 Y9.857286 Z-1.000000
G03 X12.088014 Y9.933930 Z-1.000000 I-0.941319 J5.054827
G02 X12.799263 Y9.986551 Z-1.000000 I0.500460 J-1.931361
G02 X13.408128 Y9.793680 Z-1.000000 I-0.169054 J-1.591163
G03 X14.074672 Y9.567984 Z-1.000000 I0.949168 J1.706066
G03 X14.233224 Y9.672970 Z-1.000000 I0.020636 J0.141051
G01 X14.233223 Y9.673000 Z-1.000000
G00 Z0.000000

(End cutting path id: path34543)


(Start cutting path id: path34543)
(Change tool to Cone cutter)

G00 Z0.000000
G00 X9.784817 Y10.029070

G01 Z-1.000000 F100.0(Penetrate)
G03 X9.881784 Y10.110924 Z-1.000000 I-0.143406 J0.268245 F400.000000
G03 X9.998920 Y10.305100 Z-1.000000 I-0.769107 J0.596383
G02 X10.120179 Y10.480316 Z-1.000000 I0.543503 J-0.246565
G02 X10.211905 Y10.518340 Z-1.000000 I0.091726 J-0.091625
G03 X10.297397 Y10.553713 Z-1.000000 I0.000000 J0.120998
G03 X10.347283 Y10.653540 Z-1.000000 I-0.124299 J0.124493
G02 X10.393192 Y10.743321 Z-1.000000 I0.153113 J-0.021665
G02 X10.453188 Y10.755480 Z-1.000000 I0.039566 J-0.041132
G03 X10.538429 Y10.746008 Z-1.000000 I0.060881 J0.159596
G03 X10.657063 Y10.784980 Z-1.000000 I-0.051341 J0.356339
G02 X11.101580 Y11.039640 Z-1.000000 I0.364848 J-0.121565
G02 X11.664130 Y10.837380 Z-1.000000 I-0.455142 J-2.149346
G02 X11.832476 Y10.931672 Z-1.000000 I0.169212 J-0.104681
G02 X11.926225 Y10.838330 Z-1.000000 I0.000406 J-0.093342
G01 X11.976129 Y10.813292 Z-1.000000
G03 X12.083022 Y10.955210 Z-1.000000 I-0.189205 J0.253725
G02 X12.217297 Y11.289307 Z-1.000000 I0.388681 J0.037819
G02 X12.507355 Y11.535670 Z-1.000000 I23.003290 J-26.789278
G02 X13.203887 Y11.621005 Z-1.000000 I0.503367 J-1.223315
G03 X13.702547 Y11.595770 Z-1.000000 I0.380382 J2.577007
G03 X13.809343 Y11.692147 Z-1.000000 I-0.141451 J0.264102
G03 X13.843909 Y11.805050 Z-1.000000 I-0.167106 J0.112903
G02 X13.874127 Y11.894761 Z-1.000000 I0.148276 J0.000000
G01 X13.922479 Y11.908500 Z-1.000000
G03 X14.224763 Y12.035185 Z-1.000000 I0.084961 J0.221257
G03 X14.149740 Y12.430680 Z-1.000000 I-0.327854 J0.142671
G02 X14.120466 Y12.479194 Z-1.000000 I0.083796 J0.083654
G02 X14.106160 Y12.571120 Z-1.000000 I0.303398 J0.094291
G03 X13.981142 Y12.664520 Z-1.000000 I-0.167772 J-0.094196
G03 X13.816171 Y12.696640 Z-1.000000 I-0.587543 J-2.578000
G03 X13.732589 Y12.748981 Z-1.000000 I-0.235941 J-0.283865
G03 X13.544445 Y12.819910 Z-1.000000 I-0.639155 J-1.410399
G03 X12.575062 Y12.984157 Z-1.000000 I-1.124766 J-3.695589
G03 X12.110770 Y12.877510 Z-1.000000 I-0.036445 J-0.905318
G02 X11.999425 Y12.836987 Z-1.000000 I-0.197364 J0.369065
G02 X11.708725 Y12.793110 Z-1.000000 I-0.528468 J2.516343
G03 X11.419192 Y12.742226 Z-1.000000 I0.167243 J-1.800799
G03 X11.139233 Y12.644510 Z-1.000000 I0.465743 J-1.784269
G02 X10.862022 Y12.539176 Z-1.000000 I-1.128215 J2.551713
G02 X10.760790 Y12.523360 Z-1.000000 I-0.101232 J0.316071
G03 X10.315750 Y12.408209 Z-1.000000 I0.000000 J-0.917581
G03 X9.434192 Y11.787580 Z-1.000000 I2.447340 J-4.412673
G03 X9.148695 Y11.493568 Z-1.000000 I1.698706 J-1.935127
G03 X9.036141 Y11.306320 Z-1.000000 I0.563965 J-0.466450
G02 X8.940720 Y11.105778 Z-1.000000 I-1.951161 J0.805425
G02 X8.876790 Y11.012420 Z-1.000000 I-0.480536 J0.260491
G03 X8.694487 Y10.668984 Z-1.000000 I0.691010 J-0.586907
G03 X8.699658 Y10.377050 Z-1.000000 I0.492449 J-0.137290
G03 X8.796656 Y10.261742 Z-1.000000 I0.187950 J0.059654
G03 X9.107683 Y10.164910 Z-1.000000 I0.425291 J0.818121
G02 X9.219675 Y10.146679 Z-1.000000 I-0.191158 J-1.527355
G01 X9.223909 Y10.141510 Z-1.000000
G01 X9.228275 Y10.136256 Z-1.000000
G03 X9.383721 Y10.111710 Z-1.000000 I0.521903 J2.800704
G03 X9.511210 Y10.127627 Z-1.000000 I0.033236 J0.252328
G03 X9.543532 Y10.175310 Z-1.000000 I-0.019011 J0.047683
G02 X9.571737 Y10.240541 Z-1.000000 I0.089534 J0.000000
G02 X9.694438 Y10.317320 Z-1.000000 I0.255256 J-0.271491
G03 X9.820002 Y10.397527 Z-1.000000 I-0.131460 J0.344189
G03 X9.876841 Y10.495150 Z-1.000000 I-0.146924 J0.150902
G02 X9.918009 Y10.551289 Z-1.000000 I0.091466 J-0.023910
G01 X9.953139 Y10.543150 Z-1.000000
G02 X9.952557 Y10.476704 Z-1.000000 I-0.053074 J-0.032761
G02 X9.770736 Y10.258810 Z-1.000000 I-0.958897 J0.615343
G03 X9.556787 Y10.041225 Z-1.000000 I2.398759 J-2.572663
G03 X9.543542 Y10.006750 Z-1.000000 I0.038247 J-0.034475
G01 X9.584772 Y9.969191 Z-1.000000
G03 X9.784757 Y10.029350 Z-1.000000 I-0.049099 J0.525696
G01 X9.784817 Y10.029070 Z-1.000000
G00 Z0.000000

(End cutting path id: path34543)


(Start cutting path id: path34543)
(Change tool to Cone cutter)

G00 Z0.000000
G00 X10.071835 Y11.674340

G01 Z-1.000000 F100.0(Penetrate)
G03 X9.985170 Y11.748279 Z-1.000000 I-0.257565 J-0.214136 F400.000000
G03 X9.914224 Y11.767740 Z-1.000000 I-0.070946 J-0.119589
G02 X10.005131 Y11.971815 Z-1.000000 I0.120078 J0.068796
G03 X10.357190 Y12.058270 Z-1.000000 I-1.344505 J6.235113
G02 X11.083767 Y12.267132 Z-1.000000 I5.077720 J-16.295846
G03 X11.383352 Y12.388010 Z-1.000000 I-0.328335 J1.245436
G01 X11.422843 Y12.376661 Z-1.000000
G03 X11.499579 Y12.414510 Z-1.000000 I-0.041301 J0.180448
G02 X11.593337 Y12.411665 Z-1.000000 I0.028578 J-0.604579
G03 X11.664097 Y12.406510 Z-1.000000 I0.108635 J1.002910
G02 X12.098259 Y12.592029 Z-1.000000 I0.533076 J-0.646751
G03 X12.464379 Y12.685400 Z-1.000000 I-0.170150 J1.431663
G02 X12.677802 Y12.748131 Z-1.000000 I0.426796 J-1.057617
G01 X12.721646 Y12.734700 Z-1.000000
G01 X12.708956 Y12.657928 Z-1.000000
G02 X11.871152 Y12.316270 Z-1.000000 I-2.852428 J5.796589
G03 X11.212707 Y12.076828 Z-1.000000 I3.453958 J-10.523158
G03 X11.138633 Y12.023350 Z-1.000000 I0.069958 J-0.174940
G02 X10.408935 Y11.781036 Z-1.000000 I-1.958992 J4.679393
G03 X10.071833 Y11.673850 Z-1.000000 I0.679775 J-2.721608
G01 X10.071835 Y11.674340 Z-1.000000
G00 Z0.000000

(End cutting path id: path34543)


(Start cutting path id: path34543)
(Change tool to Cone cutter)

G00 Z0.000000
G00 X16.119896 Y10.435700

G01 Z-1.000000 F100.0(Penetrate)
G02 X16.242574 Y10.484285 Z-1.000000 I0.274270 J-0.513368 F400.000000
G02 X16.450226 Y10.524800 Z-1.000000 I0.389486 J-1.443828
G03 X16.661032 Y10.558309 Z-1.000000 I-0.363182 J2.964656
G03 X16.876673 Y10.608100 Z-1.000000 I-0.634051 J3.237868
G02 X17.090833 Y10.654976 Z-1.000000 I0.618751 J-2.314207
G02 X17.138183 Y10.652600 Z-1.000000 I0.018359 J-0.107136
G03 X17.185393 Y10.649835 Z-1.000000 I0.030275 J0.112494
G03 X17.301711 Y10.675000 Z-1.000000 I-0.128847 J0.876954
G02 X17.418579 Y10.707605 Z-1.000000 I0.827068 J-2.738752
G02 X17.577394 Y10.745600 Z-1.000000 I1.263743 J-4.931407
G03 X17.707499 Y10.816078 Z-1.000000 I-0.058488 J0.263299
G03 X17.822004 Y10.984870 Z-1.000000 I-0.358198 J0.366229
G03 X17.826817 Y11.246656 Z-1.000000 I-0.327799 J0.136964
G03 X17.631522 Y11.492440 Z-1.000000 I-0.478132 J-0.179433
G03 X17.064716 Y11.733610 Z-1.000000 I-0.928982 J-1.396676
G03 X16.168340 Y11.815980 Z-1.000000 I-0.773338 J-3.497214
G02 X15.606568 Y11.816990 Z-1.000000 I-0.266174 J8.179587
G01 X15.587315 Y11.836980 Z-1.000000
G01 X15.569167 Y11.862572 Z-1.000000
G03 X15.369449 Y11.913080 Z-1.000000 I-0.385940 J-1.105963
G02 X15.152181 Y11.951653 Z-1.000000 I1.156646 J7.146164
G02 X14.873569 Y12.009280 Z-1.000000 I2.074821 J10.733553
G03 X14.411683 Y11.994675 Z-1.000000 I-0.202013 J-0.922214
G03 X14.185728 Y11.812240 Z-1.000000 I0.102551 J-0.358161
G03 X14.194812 Y11.710955 Z-1.000000 I0.081691 J-0.043723
G03 X14.272438 Y11.702870 Z-1.000000 I0.042765 J0.033904
G02 X14.898015 Y11.980550 Z-1.000000 I0.805161 J-0.970412
G02 X15.291908 Y11.849480 Z-1.000000 I0.066036 J-0.458947
G01 X15.280271 Y11.805923 Z-1.000000
G02 X14.771601 Y11.708740 Z-1.000000 I-0.898740 J3.324307
G03 X14.298741 Y11.631937 Z-1.000000 I0.571452 J-5.012335
G03 X14.228900 Y11.594140 Z-1.000000 I0.028984 J-0.136983
G02 X14.162379 Y11.551480 Z-1.000000 I-0.130363 J0.130085
G02 X14.068235 Y11.534640 Z-1.000000 I-0.094144 J0.254736
G03 X13.922161 Y11.460651 Z-1.000000 I0.000000 J-0.181190
G03 X13.949912 Y11.373420 Z-1.000000 I0.045655 J-0.033506
G02 X13.998230 Y11.336103 Z-1.000000 I-0.029122 J-0.087646
G02 X14.018312 Y11.268350 Z-1.000000 I-0.104250 J-0.067753
G03 X14.043077 Y11.210872 Z-1.000000 I0.079083 J0.000000
G03 X14.105482 Y11.186050 Z-1.000000 I0.062405 J0.066034
G02 X14.169256 Y11.162549 Z-1.000000 I0.000000 J-0.098283
G02 X14.192652 Y11.111850 Z-1.000000 I-0.043236 J-0.050699
G03 X14.211278 Y11.045961 Z-1.000000 I0.125853 J-0.000000
G03 X14.294350 Y10.946380 Z-1.000000 I0.384287 J0.236138
G02 X14.388159 Y10.848733 Z-1.000000 I-0.612612 J-0.682416
G02 X14.457924 Y10.748680 Z-1.000000 I-0.569695 J-0.471588
G03 X14.538514 Y10.671574 Z-1.000000 I0.173679 J0.100858
G03 X14.690377 Y10.627050 Z-1.000000 I0.187621 J0.358689
G02 X15.519761 Y10.498889 Z-1.000000 I-0.571878 J-6.448596
G02 X15.690019 Y10.405480 Z-1.000000 I-0.075106 J-0.338767
G03 X15.831591 Y10.352604 Z-1.000000 I0.128816 J0.128934
G03 X16.119892 Y10.435680 Z-1.000000 I-0.050252 J0.716178
G01 X16.119896 Y10.435700 Z-1.000000
G00 Z0.000000

(End cutting path id: path34543)


(Start cutting path id: path34543)
(Change tool to Cone cutter)

G00 Z0.000000
G00 X8.844155 Y11.314790

G01 Z-1.000000 F100.0(Penetrate)
G03 X8.818391 Y11.398135 Z-1.000000 I-0.138074 J0.002973 F400.000000
G03 X8.727337 Y11.478080 Z-1.000000 I-0.216911 J-0.155226
G02 X8.615765 Y11.552288 Z-1.000000 I0.336367 J0.626707
G02 X8.241212 Y11.872390 Z-1.000000 I5.988420 J7.386263
G03 X7.857218 Y12.178635 Z-1.000000 I-2.748354 J-3.052246
G03 X7.502950 Y12.392120 Z-1.000000 I-1.676652 J-2.381626
G02 X7.132735 Y12.582779 Z-1.000000 I22.834540 J44.794156
G02 X6.986624 Y12.660810 Z-1.000000 I3.537642 J6.799951
G03 X6.637396 Y12.827377 Z-1.000000 I-1.647055 J-3.003866
G03 X5.884934 Y13.111860 Z-1.000000 I-5.626703 J-13.745339
G03 X5.560890 Y13.177016 Z-1.000000 I-0.399818 J-1.150065
G03 X4.606445 Y13.191660 Z-1.000000 I-0.633120 J-10.153639
G03 X3.130958 Y13.035202 Z-1.000000 I0.316349 J-10.018891
G03 X3.111763 Y12.920100 Z-1.000000 I0.011083 J-0.061000
G02 X3.200045 Y12.847125 Z-1.000000 I-0.155849 J-0.278429
G02 X3.260201 Y12.743750 Z-1.000000 I-0.266471 J-0.224254
G03 X3.335316 Y12.658899 Z-1.000000 I0.146962 J0.054427
G03 X3.822235 Y12.453930 Z-1.000000 I1.557793 J3.019808
G02 X4.334191 Y12.269868 Z-1.000000 I-3.544197 J-10.661920
G02 X4.405492 Y12.228000 Z-1.000000 I-0.092760 J-0.239618
G03 X4.477348 Y12.189279 Z-1.000000 I0.131827 J0.158602
G03 X4.768223 Y12.117700 Z-1.000000 I0.810499 J2.666829
G02 X5.059395 Y12.040128 Z-1.000000 I-0.381666 J-2.017861
G02 X5.452652 Y11.880520 Z-1.000000 I-1.344005 J-3.875761
G03 X5.887984 Y11.718287 Z-1.000000 I1.221107 J2.611498
G03 X6.870397 Y11.478860 Z-1.000000 I3.724760 J13.148127
G02 X7.129331 Y11.416162 Z-1.000000 I-0.742517 J-3.632537
G02 X7.393199 Y11.332220 Z-1.000000 I-1.084217 J-3.864874
G03 X7.658288 Y11.256761 Z-1.000000 I0.718406 J2.020408
G03 X7.933126 Y11.215710 Z-1.000000 I0.454010 J2.099075
G02 X8.196554 Y11.155588 Z-1.000000 I-0.080473 J-0.959768
G02 X8.392899 Y11.039870 Z-1.000000 I-0.244150 J-0.638696
G01 X8.574036 Y10.887470 Z-1.000000
G01 X8.708050 Y11.051240 Z-1.000000
G03 X8.820813 Y11.222869 Z-1.000000 I-0.762635 J0.623922
G03 X8.844155 Y11.314690 Z-1.000000 I-0.186222 J0.096215
G01 X8.844155 Y11.314790 Z-1.000000
G00 Z0.000000

(End cutting path id: path34543)


(Start cutting path id: path34543)
(Change tool to Cone cutter)

G00 Z0.000000
G00 X3.760549 Y12.815070

G01 Z-1.000000 F100.0(Penetrate)
G01 X3.768608 Y12.842446 Z-1.000000 F400.000000
G02 X3.907219 Y12.884370 Z-1.000000 I0.208688 J-0.439870
G02 X4.062498 Y12.888695 Z-1.000000 I0.095781 J-0.649143
G01 X4.080966 Y12.868470 Z-1.000000
G02 X3.959138 Y12.724754 Z-1.000000 I-0.145682 J0.000000
G02 X3.760549 Y12.814870 Z-1.000000 I-0.032068 J0.193204
G01 X3.760549 Y12.815070 Z-1.000000
G00 Z0.000000

(End cutting path id: path34543)


(Start cutting path id: path34543)
(Change tool to Cone cutter)

G00 Z0.000000
G00 X9.357640 Y11.895600

G01 Z-1.000000 F100.0(Penetrate)
G03 X9.407276 Y12.072910 Z-1.000000 I-0.132779 J0.132773 F400.000000
G03 X9.144554 Y12.768360 Z-1.000000 I-2.973751 J-0.726053
G03 X7.972929 Y14.716524 Z-1.000000 I-17.212434 J-9.025166
G03 X7.465313 Y15.223070 Z-1.000000 I-1.596165 J-1.091918
G03 X6.982395 Y15.505075 Z-1.000000 I-2.272000 J-3.336183
G03 X6.744757 Y15.579360 Z-1.000000 I-0.354606 J-0.717146
G01 X6.492662 Y15.616560 Z-1.000000
G01 X6.624819 Y15.479090 Z-1.000000
G02 X7.017620 Y14.974672 Z-1.000000 I-2.218243 J-2.132546
G01 X6.974079 Y14.918980 Z-1.000000
G02 X6.915247 Y14.961303 Z-1.000000 I0.037101 J0.113627
G02 X6.797298 Y15.156950 Z-1.000000 I0.949992 J0.706095
G03 X6.698771 Y15.277029 Z-1.000000 I-0.293262 J-0.140165
G01 X6.667001 Y15.254450 Z-1.000000
G01 X6.638369 Y15.228369 Z-1.000000
G02 X6.576228 Y15.292850 Z-1.000000 I0.044471 J0.105041
G03 X6.505643 Y15.392841 Z-1.000000 I-0.229928 J-0.087401
G01 X6.460792 Y15.391050 Z-1.000000
G03 X6.418692 Y15.230066 Z-1.000000 I0.116652 J-0.116503
G03 X6.687737 Y14.580960 Z-1.000000 I2.831991 J0.793508
G02 X6.744399 Y14.467043 Z-1.000000 I-1.083876 J-0.610163
G02 X6.930439 Y14.023170 Z-1.000000 I-16.338847 J-7.109016
G03 X7.157887 Y13.608643 Z-1.000000 I1.855265 J0.748306
G03 X7.542748 Y13.166000 Z-1.000000 I2.505511 J1.789815
G03 X7.981797 Y12.772812 Z-1.000000 I6.913650 J7.278313
G03 X8.029122 Y12.755510 Z-1.000000 I0.047326 J0.056074
G02 X8.077276 Y12.739293 Z-1.000000 I-0.000000 J-0.079602
G02 X8.449840 Y12.435900 Z-1.000000 I-4.307501 J-5.670020
G03 X8.823615 Y12.135713 Z-1.000000 I3.880543 J4.449032
G03 X8.882710 Y12.116260 Z-1.000000 I0.059094 J0.080032
G02 X8.937723 Y12.095142 Z-1.000000 I0.000000 J-0.082215
G02 X9.044287 Y11.970980 Z-1.000000 I-0.427254 J-0.474508
G03 X9.210397 Y11.853961 Z-1.000000 I0.230799 J0.151215
G03 X9.357632 Y11.895380 Z-1.000000 I0.036670 J0.152051
G01 X9.357640 Y11.895600 Z-1.000000
G00 Z0.000000

(End cutting path id: path34543)


(Start cutting path id: path34543)
(Change tool to Cone cutter)

G00 Z0.000000
G00 X10.580748 Y12.631740

G01 Z-1.000000 F100.0(Penetrate)
G03 X10.729917 Y13.001220 Z-1.000000 I-0.286749 J0.330620 F400.000000
G03 X10.417370 Y14.464500 Z-1.000000 I-6.147218 J-0.547988
G02 X10.308842 Y14.809312 Z-1.000000 I6.313415 J2.176613
G02 X10.299076 Y14.879150 Z-1.000000 I0.244840 J0.069838
G03 X10.290636 Y14.949221 Z-1.000000 I-0.295094 J0.000000
G03 X10.205336 Y15.262390 Z-1.000000 I-6.021562 J-1.471933
G03 X9.881122 Y16.016146 Z-1.000000 I-3.449083 J-1.036952
G03 X9.453527 Y16.574330 Z-1.000000 I-2.294710 J-1.314985
G03 X9.021116 Y16.979938 Z-1.000000 I-6.896776 J-6.919226
G03 X8.973565 Y16.997920 Z-1.000000 I-0.047551 J-0.053880
G03 X8.925524 Y16.983077 Z-1.000000 I0.000000 J-0.085165
G03 X8.846781 Y16.911420 Z-1.000000 I0.216768 J-0.317299
G03 X8.816737 Y16.818318 Z-1.000000 I0.101365 J-0.084108
G03 X8.868724 Y16.590620 Z-1.000000 I0.749256 J0.051280
G02 X8.918936 Y16.345153 Z-1.000000 I-0.653888 J-0.261626
G01 X8.875374 Y16.300580 Z-1.000000
G02 X8.816946 Y16.329259 Z-1.000000 I0.000000 J0.073857
G02 X8.788200 Y16.413430 Z-1.000000 I0.108857 J0.084171
G03 X8.727073 Y16.579337 Z-1.000000 I-0.255711 J0.000000
G03 X8.644026 Y16.582500 Z-1.000000 I-0.042979 J-0.036645
G01 X8.634506 Y16.557503 Z-1.000000
G03 X8.673628 Y15.806670 Z-1.000000 I27.470727 J1.054922
G03 X8.765687 Y15.060132 Z-1.000000 I6.605336 J0.435593
G03 X8.896760 Y14.577300 Z-1.000000 I2.881047 J0.522897
G03 X9.228666 Y13.862182 Z-1.000000 I4.415490 J1.614769
G03 X9.624091 Y13.302530 Z-1.000000 I3.084558 J1.759893
G02 X9.977389 Y12.888685 Z-1.000000 I-40.440744 J-34.881783
G02 X10.095747 Y12.744320 Z-1.000000 I-4.814194 J-4.067637
G03 X10.269346 Y12.584832 Z-1.000000 I0.594227 J0.472579
G03 X10.421005 Y12.527870 Z-1.000000 I0.198634 J0.298483
G01 X10.452166 Y12.535308 Z-1.000000
G03 X10.580816 Y12.631780 Z-1.000000 I-0.619950 J0.960746
G01 X10.580748 Y12.631740 Z-1.000000
G00 Z0.000000

(End cutting path id: path34543)


(Start cutting path id: path34543)
(Change tool to Cone cutter)

G00 Z0.000000
G00 X9.279704 Y16.362550

G01 Z-1.000000 F100.0(Penetrate)
G02 X9.258767 Y16.422497 Z-1.000000 I0.124315 J0.077046 F400.000000
G01 X9.269129 Y16.452250 Z-1.000000
G01 X9.290964 Y16.452283 Z-1.000000
G02 X9.331239 Y16.390350 Z-1.000000 I-0.125162 J-0.125454
G01 X9.317225 Y16.352597 Z-1.000000
G01 X9.279744 Y16.362650 Z-1.000000
G01 X9.279704 Y16.362550 Z-1.000000
G00 Z0.000000

(End cutting path id: path34543)


(Start cutting path id: path34543)
(Change tool to Cone cutter)

G00 Z0.000000
G00 X11.042767 Y12.879420

G01 Z-1.000000 F100.0(Penetrate)
G03 X11.025297 Y13.010379 Z-1.000000 I-0.263046 J0.031554 F400.000000
G03 X10.941069 Y13.130920 Z-1.000000 I-0.305132 J-0.123513
G03 X10.870969 Y13.128432 Z-1.000000 I-0.033770 J-0.037312
G03 X10.822093 Y13.006810 Z-1.000000 I0.126881 J-0.121622
G03 X10.838545 Y12.781856 Z-1.000000 I1.546198 J0.000000
G03 X10.862053 Y12.735080 Z-1.000000 I0.082402 J0.012117
G03 X10.959446 Y12.729685 Z-1.000000 I0.051709 J0.051688
G03 X11.042775 Y12.879420 Z-1.000000 I-0.141494 J0.176797
G01 X11.042767 Y12.879420 Z-1.000000
G00 Z0.000000

(End cutting path id: path34543)


(Start cutting path id: path34543)
(Change tool to Cone cutter)

G00 Z0.000000
G00 X14.599448 Y12.930020

G01 Z-1.000000 F100.0(Penetrate)
G03 X14.580664 Y12.969828 Z-1.000000 I-0.051573 J0.000000 F400.000000
G03 X14.526798 Y12.989920 Z-1.000000 I-0.056072 J-0.068074
G01 X14.516028 Y13.007615 Z-1.000000
G02 X14.556898 Y13.051620 Z-1.000000 I0.092842 J-0.045247
G02 X14.663233 Y13.093664 Z-1.000000 I0.191538 J-0.328933
G02 X14.760295 Y13.098520 Z-1.000000 I0.062201 J-0.270825
G03 X15.436137 Y13.157923 Z-1.000000 I0.202264 J1.573107
G03 X16.294012 Y13.578460 Z-1.000000 I-0.938528 J2.999830
G02 X16.456677 Y13.671005 Z-1.000000 I0.584101 J-0.837441
G02 X16.991370 Y13.894640 Z-1.000000 I4.077107 J-8.996989
G03 X18.155391 Y14.390520 Z-1.000000 I-6.311551 J16.429781
G03 X18.899808 Y14.790010 Z-1.000000 I-3.332749 J7.103629
G02 X19.281965 Y15.011809 Z-1.000000 I5.591605 J-9.194131
G02 X19.754422 Y15.262840 Z-1.000000 I7.642576 J-13.813738
G03 X20.185451 Y15.541360 Z-1.000000 I-1.141797 J2.239788
G03 X20.268443 Y15.675060 Z-1.000000 I-0.147881 J0.184403
G03 X20.287611 Y15.838827 Z-1.000000 I-0.806059 J0.177350
G03 X20.271743 Y15.877910 Z-1.000000 I-0.053880 J0.000887
G03 X20.138081 Y15.930888 Z-1.000000 I-0.128211 J-0.128371
G03 X18.957828 Y15.838010 Z-1.000000 I0.366894 J-12.207798
G03 X18.044513 Y15.631397 Z-1.000000 I0.618012 J-4.853794
G03 X16.807642 Y15.129540 Z-1.000000 I3.113403 J-9.448373
G03 X15.994959 Y14.678579 Z-1.000000 I3.764313 J-7.741483
G03 X15.674436 Y14.418110 Z-1.000000 I0.903791 J-1.439613
G03 X15.383982 Y14.116308 Z-1.000000 I399.098239 J-384.382092
G03 X14.995515 Y13.712140 Z-1.000000 I745.078324 J-716.524279
G02 X14.599516 Y13.316445 Z-1.000000 I-9.864692 J9.476271
G02 X14.445022 Y13.184120 Z-1.000000 I-1.251361 J1.304657
G03 X14.346803 Y13.053140 Z-1.000000 I0.182408 J-0.239101
G03 X14.361052 Y12.966200 Z-1.000000 I0.081280 J-0.031316
G03 X14.530150 Y12.870700 Z-1.000000 I0.209923 J0.174244
G03 X14.599333 Y12.930200 Z-1.000000 I0.009005 J0.059500
G01 X14.599448 Y12.930020 Z-1.000000
G00 Z0.000000

(End cutting path id: path34543)


(Start cutting path id: path34543)
(Change tool to Cone cutter)

G00 Z0.000000
G00 X18.202463 Y15.248320

G01 Z-1.000000 F100.0(Penetrate)
G02 X18.253062 Y15.322278 Z-1.000000 I0.079350 J0.000000 F400.000000
G02 X18.512311 Y15.368700 Z-1.000000 I0.248029 J-0.638030
G01 X18.534859 Y15.339997 Z-1.000000
G02 X18.493031 Y15.283600 Z-1.000000 I-0.084801 J0.019185
G02 X18.252616 Y15.203861 Z-1.000000 I-0.317276 J0.554297
G01 X18.202465 Y15.248300 Z-1.000000
G01 X18.202463 Y15.248320 Z-1.000000
G00 Z0.000000

(End cutting path id: path34543)


(Start cutting path id: path34543)
(Change tool to Cone cutter)

G00 Z0.000000
G00 X18.667370 Y15.391360

G01 Z-1.000000 F100.0(Penetrate)
G01 X18.681960 Y15.413112 Z-1.000000 F400.000000
G02 X18.903456 Y15.487960 Z-1.000000 I0.701218 J-1.709935
G03 X19.138428 Y15.555021 Z-1.000000 I-2.276649 J8.422238
G03 X19.232613 Y15.587160 Z-1.000000 I-0.389021 J1.294120
G02 X19.280495 Y15.585492 Z-1.000000 I0.021978 J-0.057182
G01 X19.287743 Y15.561360 Z-1.000000
G02 X19.237057 Y15.518454 Z-1.000000 I-0.091186 J0.056331
G02 X19.041630 Y15.460940 Z-1.000000 I-0.380713 J0.932842
G03 X18.835024 Y15.416489 Z-1.000000 I0.741713 J-3.949845
G03 X18.750424 Y15.390040 Z-1.000000 I0.161499 J-0.665092
G02 X18.680557 Y15.377621 Z-1.000000 I-0.067232 J0.175495
G01 X18.667374 Y15.390990 Z-1.000000
G01 X18.667370 Y15.391360 Z-1.000000
G00 Z0.000000

(End cutting path id: path34543)


(Start cutting path id: path34543)
(Change tool to Cone cutter)

G00 Z0.000000
G00 X19.582650 Y15.468960

G01 Z-1.000000 F100.0(Penetrate)
G02 X19.500297 Y15.510298 Z-1.000000 I0.055879 J0.214023 F400.000000
G02 X19.480953 Y15.550560 Z-1.000000 I0.032229 J0.040262
G01 X19.503669 Y15.576369 Z-1.000000
G02 X19.626237 Y15.569060 Z-1.000000 I0.041956 J-0.327767
G03 X19.745726 Y15.565744 Z-1.000000 I0.067249 J0.268786
G01 X19.771519 Y15.596960 Z-1.000000
G02 X19.789405 Y15.643400 Z-1.000000 I0.069233 J0.000000
G02 X19.829639 Y15.661260 Z-1.000000 I0.040234 J-0.036389
G02 X19.894491 Y15.584346 Z-1.000000 I0.000000 J-0.065798
G02 X19.795829 Y15.464090 Z-1.000000 I-0.155003 J0.026569
G02 X19.704504 Y15.433864 Z-1.000000 I-0.368236 J0.959502
G01 X19.694131 Y15.435590 Z-1.000000
G01 X19.683417 Y15.440924 Z-1.000000
G03 X19.582657 Y15.468990 Z-1.000000 I-1.007609 J-3.422524
G01 X19.582650 Y15.468960 Z-1.000000
G00 Z0.000000

(End cutting path id: path34543)


(Start cutting path id: path34543)
(Change tool to Cone cutter)

G00 Z0.000000
G00 X13.092547 Y13.212310

G01 Z-1.000000 F100.0(Penetrate)
G02 X13.187188 Y13.371293 Z-1.000000 I1.133712 J-0.567228 F400.000000
G02 X13.569717 Y13.895140 Z-1.000000 I12.820084 J-8.960019
G03 X14.164030 Y14.828648 Z-1.000000 I-5.211472 J3.973794
G03 X14.509852 Y15.690410 Z-1.000000 I-4.088214 J2.140854
G02 X14.622355 Y16.032833 Z-1.000000 I4.734742 J-1.365905
G02 X14.661897 Y16.101750 Z-1.000000 I0.224332 J-0.082911
G03 X14.702361 Y16.169569 Z-1.000000 I-0.205602 J0.168653
G03 X14.733337 Y16.276090 Z-1.000000 I-0.485461 J0.198934
G02 X14.761573 Y16.385150 Z-1.000000 I0.738335 J-0.132972
G02 X14.840882 Y16.591170 Z-1.000000 I2.681108 J-0.913837
G03 X15.003214 Y17.147090 Z-1.000000 I-2.177775 J0.937585
G03 X15.016229 Y17.666260 Z-1.000000 I-1.881838 J0.306923
G03 X14.791349 Y17.844016 Z-1.000000 I-0.200441 J-0.022452
G03 X14.217557 Y17.568760 Z-1.000000 I0.120457 J-0.986786
G03 X13.606476 Y16.836597 Z-1.000000 I3.264165 J-3.345443
G03 X13.205605 Y16.068140 Z-1.000000 I3.201078 J-2.158653
G02 X13.013913 Y15.574601 Z-1.000000 I-116.482652 J44.958239
G02 X12.967112 Y15.457950 Z-1.000000 I-6.536818 J2.554885
G03 X12.880226 Y15.190223 Z-1.000000 I1.702001 J-0.700316
G03 X12.714203 Y14.411920 Z-1.000000 I14.272941 J-3.451479
G03 X12.690801 Y14.236635 Z-1.000000 I1.733013 J-0.320580
G03 X12.673373 Y13.917950 Z-1.000000 I5.700391 J-0.471550
G02 X12.648886 Y13.601395 Z-1.000000 I-3.145680 J0.084104
G02 X12.615043 Y13.463540 Z-1.000000 I-0.623921 J0.080091
G03 X12.587086 Y13.327603 Z-1.000000 I0.432403 J-0.159773
G03 X12.600723 Y13.187500 Z-1.000000 I0.474231 J-0.024555
G03 X12.670692 Y13.090536 Z-1.000000 I0.156710 J0.039355
G03 X12.822782 Y13.046250 Z-1.000000 I0.152090 J0.239018
G03 X12.981632 Y13.091247 Z-1.000000 I-0.000000 J0.302887
G03 X13.092520 Y13.212320 Z-1.000000 I-0.157315 J0.255398
G01 X13.092547 Y13.212310 Z-1.000000
G00 Z0.000000

(End cutting path id: path34543)


(Start cutting path id: path34543)
(Change tool to Cone cutter)

G00 Z0.000000
G00 X14.082908 Y16.954360

G01 Z-1.000000 F100.0(Penetrate)
G02 X14.415164 Y17.440566 Z-1.000000 I2.255029 J-1.184378 F400.000000
G01 X14.483221 Y17.415130 Z-1.000000
G02 X14.335947 Y16.970857 Z-1.000000 I-0.743741 J-0.000000
G02 X14.042667 Y16.823610 Z-1.000000 I-0.293280 J0.218447
G01 X14.033900 Y16.835487 Z-1.000000
G02 X14.082907 Y16.954360 Z-1.000000 I0.668426 J-0.206031
G01 X14.082908 Y16.954360 Z-1.000000
G00 Z0.000000

(End cutting path id: path34543)


(Start cutting path id: path34543)
(Change tool to Cone cutter)

G00 Z0.000000
G00 X13.566582 Y13.366610

G01 Z-1.000000 F100.0(Penetrate)
G03 X13.704190 Y13.661777 Z-1.000000 I-2.232566 J1.220488 F400.000000
G03 X13.725101 Y13.772670 Z-1.000000 I-0.284489 J0.111065
G01 X13.692867 Y13.797920 Z-1.000000
G03 X13.607334 Y13.743570 Z-1.000000 I0.038227 J-0.154638
G03 X13.242809 Y13.233680 Z-1.000000 I4.006833 J-3.249769
G03 X13.204731 Y13.101230 Z-1.000000 I0.211319 J-0.132450
G03 X13.294405 Y13.055747 Z-1.000000 I0.056371 J0.000000
G03 X13.566582 Y13.366560 Z-1.000000 I-0.560311 J0.765240
G01 X13.566582 Y13.366610 Z-1.000000
G00 Z0.000000

(End cutting path id: path34543)


(Start cutting path id: path34543)
(Change tool to Cone cutter)

G00 Z0.000000
G00 X12.374528 Y13.437810

G01 Z-1.000000 F100.0(Penetrate)
G01 X12.407969 Y13.419424 Z-1.000000 F400.000000
G02 X12.409558 Y13.350710 Z-1.000000 I-0.090109 J-0.036459
G01 X12.413218 Y13.310768 Z-1.000000
G01 X12.434198 Y13.307810 Z-1.000000
G03 X12.472696 Y13.376510 Z-1.000000 I-0.095224 J0.098498
G03 X12.534547 Y13.758170 Z-1.000000 I-3.222684 J0.718106
G03 X12.535989 Y14.115871 Z-1.000000 I-1.817187 J0.186180
G01 X12.497467 Y14.151340 Z-1.000000
G01 X12.473288 Y14.168518 Z-1.000000
G01 X12.481717 Y14.194840 Z-1.000000
G03 X12.699130 Y14.534431 Z-1.000000 I-0.298835 J0.430711
G03 X12.643597 Y15.111880 Z-1.000000 I-1.068657 J0.188623
G02 X12.643604 Y15.201806 Z-1.000000 I0.117280 J0.044954
G02 X12.712697 Y15.292180 Z-1.000000 I0.187901 J-0.072056
G03 X12.786152 Y15.389247 Z-1.000000 I-0.125101 J0.170996
G03 X12.826366 Y15.597500 Z-1.000000 I-0.602630 J0.224379
G02 X12.855905 Y15.814923 Z-1.000000 I0.997842 J-0.024846
G02 X12.904916 Y15.911660 Z-1.000000 I0.237022 J-0.059303
G03 X12.968545 Y16.005357 Z-1.000000 I-0.449662 J0.373816
G03 X13.259878 Y16.561940 Z-1.000000 I-15.898354 J8.676232
G01 X13.541976 Y17.124400 Z-1.000000
G01 X13.397086 Y17.555360 Z-1.000000
G03 X13.113476 Y17.973327 Z-1.000000 I-0.891574 J-0.299769
G03 X12.876655 Y17.996200 Z-1.000000 I-0.134896 J-0.159252
G03 X12.752690 Y17.864975 Z-1.000000 I0.146604 J-0.262658
G03 X12.377493 Y16.968850 Z-1.000000 I7.850525 J-3.813534
G02 X12.314543 Y16.794919 Z-1.000000 I-13.313538 J4.720128
G02 X12.270192 Y16.678290 Z-1.000000 I-6.106963 J2.255585
G03 X12.232762 Y16.559852 Z-1.000000 I0.874975 J-0.341650
G03 X12.199182 Y16.387720 Z-1.000000 I1.802790 J-0.441037
G02 X12.166566 Y16.214837 Z-1.000000 I-2.123780 J0.311148
G02 X12.071415 Y15.835650 Z-1.000000 I-10.350711 J2.395826
G03 X12.007454 Y15.453904 Z-1.000000 I1.904303 J-0.515293
G03 X12.003985 Y14.841860 Z-1.000000 I4.921558 J-0.333929
G03 X12.058652 Y14.230043 Z-1.000000 I9.382813 J0.530021
G03 X12.098725 Y14.068080 Z-1.000000 I0.687437 J0.084148
G02 X12.138600 Y13.906726 Z-1.000000 I-0.642356 J-0.244347
G02 X12.158695 Y13.575130 Z-1.000000 I-2.725833 J-0.331596
G03 X12.215614 Y13.282825 Z-1.000000 I0.779022 J0.000000
G01 X12.274922 Y13.288000 Z-1.000000
G02 X12.323712 Y13.403824 Z-1.000000 I0.328901 J-0.070359
G02 X12.374532 Y13.437790 Z-1.000000 I0.066145 J-0.043965
G01 X12.374528 Y13.437810 Z-1.000000
G00 Z0.000000

(End cutting path id: path34543)


(Start cutting path id: path34543)
(Change tool to Cone cutter)

G00 Z0.000000
G00 X12.679634 Y17.104600

G01 Z-1.000000 F100.0(Penetrate)
G02 X12.754738 Y17.205243 Z-1.000000 I0.336284 J-0.172605 F400.000000
G01 X12.784667 Y17.204910 Z-1.000000
G01 X12.790120 Y17.169738 Z-1.000000
G02 X12.715057 Y17.069180 Z-1.000000 I-0.336619 J0.172979
G01 X12.685153 Y17.069517 Z-1.000000
G01 X12.679637 Y17.104580 Z-1.000000
G01 X12.679634 Y17.104600 Z-1.000000
G00 Z0.000000

(End cutting path id: path34543)


(Start cutting path id: path34543)
(Change tool to Cone cutter)

G00 Z0.000000
G00 X13.001336 Y17.811510

G01 Z-1.000000 F100.0(Penetrate)
G01 X13.004988 Y17.847558 Z-1.000000 F400.000000
G02 X13.056026 Y17.869610 Z-1.000000 I0.051038 J-0.048036
G02 X13.126062 Y17.849103 Z-1.000000 I-0.000000 J-0.129847
G01 X13.146626 Y17.811510 Z-1.000000
G02 X13.130112 Y17.769895 Z-1.000000 I-0.060692 J-0.000000
G02 X13.091936 Y17.753410 Z-1.000000 I-0.038176 J0.035962
G02 X13.044947 Y17.767174 Z-1.000000 I0.000000 J0.087090
G02 X13.001336 Y17.811510 Z-1.000000 I0.075614 J0.117995
G01 X13.001336 Y17.811510 Z-1.000000
G00 Z0.000000

(End cutting path id: path34543)


(Start cutting path id: path34543)
(Change tool to Cone cutter)

G00 Z0.000000
G00 X12.619203 Y3.326800

G01 Z-1.000000 F100.0(Penetrate)
G01 X12.478318 Y3.486620 Z-1.000000 F400.000000
G01 X12.638127 Y3.345730 Z-1.000000
G02 X12.788597 Y3.186746 Z-1.000000 I-0.801668 J-0.909434
G01 X12.779013 Y3.166990 Z-1.000000
G01 X12.762994 Y3.173632 Z-1.000000
G02 X12.619203 Y3.326800 Z-1.000000 I2.414814 J2.411069
G01 X12.619203 Y3.326800 Z-1.000000
G00 Z0.000000

(End cutting path id: path34543)


(Start cutting path id: path34543)
(Change tool to Cone cutter)

G00 Z0.000000
G00 X12.418080 Y3.876780

G01 Z-1.000000 F100.0(Penetrate)
G02 X12.159152 Y4.287082 Z-1.000000 I2.221252 J1.688608 F400.000000
G01 X12.184864 Y4.329260 Z-1.000000
G02 X12.246292 Y4.300644 Z-1.000000 I-0.000000 J-0.080240
G02 X12.274914 Y4.222100 Z-1.000000 I-0.093460 J-0.078544
G03 X12.299990 Y4.126087 Z-1.000000 I0.196347 J0.000000
G03 X12.397092 Y4.004310 Z-1.000000 I0.420651 J0.235814
G02 X12.702821 Y3.639333 Z-1.000000 I-1.160158 J-1.282365
G01 X12.666547 Y3.573840 Z-1.000000
G01 X12.651822 Y3.580809 Z-1.000000
G02 X12.418074 Y3.876830 Z-1.000000 I7.946932 J6.515459
G01 X12.418080 Y3.876780 Z-1.000000
G00 Z0.000000

(End cutting path id: path34543)


(Start cutting path id: path34543)
(Change tool to Cone cutter)

G00 Z0.000000
G00 X12.654151 Y3.922480

G01 Z-1.000000 F100.0(Penetrate)
G03 X12.536220 Y4.113059 Z-1.000000 I-1.253641 J-0.643977 F400.000000
G03 X12.470445 Y4.172340 Z-1.000000 I-0.176479 J-0.129682
G02 X12.411641 Y4.230517 Z-1.000000 I0.084842 J0.144562
G02 X12.391145 Y4.304370 Z-1.000000 I0.122806 J0.073853
G03 X12.370913 Y4.402288 Z-1.000000 I-0.247061 J-0.000000
G03 X11.994378 Y5.223580 Z-1.000000 I-18.553969 J-8.009406
G01 X12.001600 Y5.239685 Z-1.000000
G01 X12.034818 Y5.235180 Z-1.000000
G02 X12.087194 Y5.182790 Z-1.000000 I-0.085032 J-0.137385
G02 X12.246476 Y4.892940 Z-1.000000 I-2.733647 J-1.690917
G03 X12.428197 Y4.573303 Z-1.000000 I2.509554 J1.215266
G03 X12.853062 Y3.973000 Z-1.000000 I9.311588 J6.139782
G02 X12.921041 Y3.841197 Z-1.000000 I-0.343740 J-0.260721
G01 X12.900402 Y3.821820 Z-1.000000
G03 X12.820677 Y3.825520 Z-1.000000 I-0.045457 J-0.118689
G03 X12.782007 Y3.788920 Z-1.000000 I0.015399 J-0.054998
G01 X12.753881 Y3.782698 Z-1.000000
G02 X12.654153 Y3.922940 Z-1.000000 I0.434645 J0.414664
G01 X12.654151 Y3.922480 Z-1.000000
G00 Z0.000000

(End cutting path id: path34543)


(Start cutting path id: path34543)
(Change tool to Cone cutter)

G00 Z0.000000
G00 X11.546323 Y4.742930

G01 Z-1.000000 F100.0(Penetrate)
G02 X11.367913 Y4.959027 Z-1.000000 I1.261584 J1.223262 F400.000000
G01 X11.383031 Y4.976380 Z-1.000000
G02 X11.911248 Y4.568151 Z-1.000000 I-0.830029 J-1.619842
G02 X11.856299 Y4.445500 Z-1.000000 I-0.054949 J-0.049017
G01 X11.837841 Y4.452923 Z-1.000000
G02 X11.546323 Y4.742930 Z-1.000000 I7.883589 J8.216199
G01 X11.546323 Y4.742930 Z-1.000000
G00 Z0.000000

(End cutting path id: path34543)


(Start cutting path id: path34543)
(Change tool to Cone cutter)

G00 Z0.000000
G00 X11.816553 Y4.860280

G01 Z-1.000000 F100.0(Penetrate)
G03 X11.388071 Y5.382693 Z-1.000000 I-3.698788 J-2.596812 F400.000000
G03 X11.269979 Y5.433360 Z-1.000000 I-0.118346 J-0.112879
G02 X11.229559 Y5.447658 Z-1.000000 I0.000051 J0.064426
G02 X10.933838 Y5.704740 Z-1.000000 I3.380872 J4.187635
G03 X10.629446 Y5.944760 Z-1.000000 I-1.571964 J-1.680537
G03 X10.499430 Y5.991450 Z-1.000000 I-0.160985 J-0.243915
G03 X10.397738 Y5.979122 Z-1.000000 I-0.023419 J-0.232402
G01 X10.388619 Y5.952550 Z-1.000000
G03 X10.430570 Y5.913419 Z-1.000000 I0.092846 J0.057483
G03 X10.491911 Y5.898250 Z-1.000000 I0.061341 J0.116445
G02 X10.549933 Y5.877204 Z-1.000000 I-0.000000 J-0.090504
G02 X10.638053 Y5.775950 Z-1.000000 I-0.272232 J-0.325891
G02 X10.666146 Y5.701720 Z-1.000000 I-0.172754 J-0.107811
G01 X10.652033 Y5.692250 Z-1.000000
G01 X10.578744 Y5.638085 Z-1.000000
G03 X10.734913 Y5.375280 Z-1.000000 I0.534342 J0.139724
G01 X10.790192 Y5.385105 Z-1.000000
G03 X10.786953 Y5.479060 Z-1.000000 I-0.087761 J0.044008
G01 X10.797471 Y5.492661 Z-1.000000
G02 X10.844773 Y5.462460 Z-1.000000 I-0.027195 J-0.094737
G02 X10.955037 Y5.259739 Z-1.000000 I-0.407150 J-0.352804
G02 X10.937483 Y5.142840 Z-1.000000 I-0.135765 J-0.039381
G01 X10.875261 Y5.125340 Z-1.000000
G02 X10.705919 Y5.252440 Z-1.000000 I0.226314 J0.477893
G02 X10.553569 Y5.457550 Z-1.000000 I1.107793 J0.981975
G02 X10.531520 Y5.535330 Z-1.000000 I0.126166 J0.077780
G03 X10.509467 Y5.613196 Z-1.000000 I-0.148495 J0.000000
G03 X10.353893 Y5.823790 Z-1.000000 I-1.324191 J-0.815472
G02 X10.212093 Y6.036774 Z-1.000000 I0.724005 J0.635720
G02 X10.194082 Y6.151070 Z-1.000000 I0.177116 J0.086478
G02 X10.250167 Y6.227454 Z-1.000000 I0.099352 J-0.014167
G02 X10.415292 Y6.256730 Z-1.000000 I0.135399 J-0.283372
G02 X10.861393 Y6.128889 Z-1.000000 I-0.119976 J-1.260910
G02 X11.318138 Y5.805530 Z-1.000000 I-0.822007 J-1.645342
G03 X11.556404 Y5.582916 Z-1.000000 I6.544587 J6.765921
G03 X11.686870 Y5.472800 Z-1.000000 I1.727180 J1.914026
G02 X11.786795 Y5.364935 Z-1.000000 I-0.293333 J-0.371958
G01 X11.783320 Y5.329200 Z-1.000000
G01 X11.747863 Y5.319163 Z-1.000000
G02 X11.705160 Y5.347900 Z-1.000000 I0.017093 J0.071497
G03 X11.365624 Y5.711298 Z-1.000000 I-1.559681 J-1.116949
G03 X10.831645 Y6.068020 Z-1.000000 I-2.037797 J-2.472367
G03 X10.699445 Y6.116719 Z-1.000000 I-0.245665 J-0.463103
G01 X10.661482 Y6.105620 Z-1.000000
G03 X10.670328 Y5.908962 Z-1.000000 I0.094184 J-0.094292
G03 X11.712281 Y5.229870 Z-1.000000 I3.401845 J4.080666
G02 X11.926155 Y5.095913 Z-1.000000 I-0.564524 J-1.139022
G02 X11.974977 Y5.026470 Z-1.000000 I-0.088216 J-0.113904
G01 X11.959877 Y5.003281 Z-1.000000
G02 X11.906637 Y5.019470 Z-1.000000 I-0.007358 J0.071441
G03 X11.837133 Y5.041635 Z-1.000000 I-0.062379 J-0.075550
G01 X11.810017 Y5.012470 Z-1.000000
G03 X11.829841 Y4.934753 Z-1.000000 I0.162250 J0.000000
G03 X11.897187 Y4.852950 Z-1.000000 I0.247198 J0.134887
G03 X11.967836 Y4.815928 Z-1.000000 I0.122611 J0.148060
G01 X11.984357 Y4.828450 Z-1.000000
G01 X11.999497 Y4.839563 Z-1.000000
G02 X12.054097 Y4.806450 Z-1.000000 I-0.040135 J-0.127749
G02 X12.084572 Y4.736717 Z-1.000000 I-0.073557 J-0.073672
G02 X12.059197 Y4.672060 Z-1.000000 I-0.086698 J-0.003282
G01 X11.999938 Y4.668332 Z-1.000000
G02 X11.816564 Y4.860940 Z-1.000000 I0.542411 J0.700005
G01 X11.816553 Y4.860280 Z-1.000000
G00 Z0.000000

(End cutting path id: path34543)


(Start cutting path id: path34543)
(Change tool to Cone cutter)

G00 Z0.000000
G00 X2.554728 Y10.175250

G01 Z-1.000000 F100.0(Penetrate)
G03 X2.513805 Y10.194703 Z-1.000000 I-0.047728 J-0.047633 F400.000000
G03 X2.234958 Y10.207650 Z-1.000000 I-0.257678 J-2.540460
G02 X1.956188 Y10.231854 Z-1.000000 I-0.009160 J1.511973
G02 X1.788391 Y10.289150 Z-1.000000 I0.105943 J0.584618
G03 X1.622677 Y10.355448 Z-1.000000 I-0.422301 J-0.815307
G03 X1.499909 Y10.372950 Z-1.000000 I-0.122768 J-0.421817
G02 X1.305874 Y10.445396 Z-1.000000 I0.000000 J0.296068
G02 X1.233420 Y10.604190 Z-1.000000 I0.137784 J0.158794
G02 X1.371562 Y10.911504 Z-1.000000 I0.410902 J-0.000000
G02 X1.893222 Y11.189800 Z-1.000000 I0.839886 J-0.946283
G03 X2.133731 Y11.253900 Z-1.000000 I-4.817081 J18.557470
G03 X2.308514 Y11.303460 Z-1.000000 I-2.563592 J9.373922
G02 X2.959790 Y11.427417 Z-1.000000 I0.963242 J-3.288013
G02 X4.305498 Y11.486050 Z-1.000000 I1.287802 J-14.084693
G02 X5.453486 Y11.386286 Z-1.000000 I-0.031717 J-7.019803
G02 X6.550775 Y11.102770 Z-1.000000 I-1.135075 J-6.658245
G03 X7.308092 Y10.871583 Z-1.000000 I3.229454 J9.222993
G03 X7.442558 Y10.869600 Z-1.000000 I0.071268 J0.272550
G02 X7.572361 Y10.875150 Z-1.000000 I0.079914 J-0.348339
G02 X7.654365 Y10.838300 Z-1.000000 I-0.022528 J-0.159802
G03 X7.733257 Y10.792107 Z-1.000000 I0.179337 J0.215818
G03 X7.779562 Y10.790300 Z-1.000000 I0.025816 J0.067340
G02 X8.098860 Y10.771887 Z-1.000000 I0.133996 J-0.454035
G02 X8.207000 Y10.608370 Z-1.000000 I-0.069555 J-0.163517
G01 X8.174333 Y10.578000 Z-1.000000
G02 X7.933862 Y10.628270 Z-1.000000 I0.067298 J0.922221
G03 X7.701115 Y10.696357 Z-1.000000 I-0.744330 J-2.112560
G03 X7.428203 Y10.746730 Z-1.000000 I-0.661741 J-2.820705
G02 X7.155593 Y10.797717 Z-1.000000 I0.366364 J2.713097
G02 X6.938647 Y10.864020 Z-1.000000 I0.433993 J1.808112
G03 X6.723645 Y10.939583 Z-1.000000 I-2.020466 J-5.405216
G03 X6.034529 Y11.161800 Z-1.000000 I-18.026080 J-54.721103
G03 X5.334429 Y11.316110 Z-1.000000 I-1.217338 J-3.857705
G03 X4.407360 Y11.371590 Z-1.000000 I-0.868210 J-6.734375
G03 X2.698794 Y11.240976 Z-1.000000 I0.128167 J-12.916804
G03 X1.832868 Y10.999670 Z-1.000000 I0.496412 J-3.455706
G03 X1.439955 Y10.710460 Z-1.000000 I0.410703 J-0.969475
G03 X1.476059 Y10.578230 Z-1.000000 I0.063458 J-0.053717
G03 X2.062937 Y10.391554 Z-1.000000 I3.702115 J10.622982
G03 X2.185545 Y10.373760 Z-1.000000 I0.126097 J0.437548
G02 X2.668571 Y10.294366 Z-1.000000 I-0.008751 J-1.562273
G02 X2.744363 Y10.189380 Z-1.000000 I-0.034817 J-0.104986
G02 X2.685983 Y10.126469 Z-1.000000 I-0.063086 J0.000000
G02 X2.554728 Y10.175080 Z-1.000000 I-0.012543 J0.167641
G01 X2.554728 Y10.175250 Z-1.000000
G00 Z0.000000

(End cutting path id: path34543)


(Start cutting path id: path34543)
(Change tool to Cone cutter)

G00 Z0.000000
G00 X5.911530 Y11.012270

G01 Z-1.000000 F100.0(Penetrate)
G01 X5.895367 Y11.043286 Z-1.000000 F400.000000
G01 X5.922688 Y11.066270 Z-1.000000
G02 X6.038873 Y11.049303 Z-1.000000 I0.009705 J-0.339818
G02 X6.085929 Y11.012270 Z-1.000000 I-0.027486 J-0.083337
G01 X6.067999 Y10.980101 Z-1.000000
G02 X5.911588 Y11.012270 Z-1.000000 I-0.000000 J0.396333
G01 X5.911530 Y11.012270 Z-1.000000
G00 Z0.000000

(End cutting path id: path34543)


(Start cutting path id: path34543)
(Change tool to Cone cutter)

G00 Z0.000000
G00 X5.446625 Y11.128500

G01 Z-1.000000 F100.0(Penetrate)
G01 X5.452969 Y11.159307 Z-1.000000 F400.000000
G02 X5.650021 Y11.128500 Z-1.000000 I-0.000000 J-0.645613
G02 X5.688833 Y11.097784 Z-1.000000 I-0.021450 J-0.066983
G01 X5.679078 Y11.080200 Z-1.000000
G02 X5.565341 Y11.091049 Z-1.000000 I-0.007665 J0.521246
G02 X5.446625 Y11.128500 Z-1.000000 I0.126007 J0.606319
G01 X5.446625 Y11.128500 Z-1.000000
G00 Z0.000000

(End cutting path id: path34543)


(Start cutting path id: path34543)
(Change tool to Cone cutter)

G00 Z0.000000
G00 X17.537069 Y12.867850

G01 Z-1.000000 F100.0(Penetrate)
G02 X17.798741 Y13.025685 Z-1.000000 I0.464525 J-0.474300 F400.000000
G02 X18.376804 Y13.137440 Z-1.000000 I0.754206 J-2.350273
G02 X18.436507 Y13.126866 Z-1.000000 I0.008844 J-0.123903
G01 X18.434914 Y13.111340 Z-1.000000
G03 X18.236281 Y13.052930 Z-1.000000 I0.319986 J-1.455117
G03 X17.973623 Y12.940170 Z-1.000000 I0.995922 J-2.682142
G02 X17.566488 Y12.809858 Z-1.000000 I-0.647631 J1.322237
G01 X17.537067 Y12.867870 Z-1.000000
G01 X17.537069 Y12.867850 Z-1.000000
G00 Z0.000000

(End cutting path id: path34543)


(Start cutting path id: path34543)
(Change tool to Cone cutter)

G00 Z0.000000
G00 X17.505109 Y17.050500

G01 Z-1.000000 F100.0(Penetrate)
G02 X17.602211 Y17.189383 Z-1.000000 I0.147872 J0.000000 F400.000000
G02 X17.778854 Y17.150300 Z-1.000000 I0.057714 J-0.157878
G01 X17.777139 Y17.135929 Z-1.000000
G02 X17.650636 Y17.066800 Z-1.000000 I-0.533953 J0.826791
G02 X17.525591 Y17.032273 Z-1.000000 I-0.170560 J0.374017
G01 X17.505109 Y17.050600 Z-1.000000
G01 X17.505109 Y17.050500 Z-1.000000
G00 Z0.000000

(End cutting path id: path34543)


(Footer)
M5
G00 X0.0000 Y0.0000
M2
(Using default footer. To add your own footer create file "footer" in the output dir.)
(end)
%