; generated by Slic3r 1.3.0 on 2020-12-11 at 11:15:45

; external perimeters extrusion width = 0.55mm (6.64mm^3/s)
; perimeters extrusion width = 0.52mm (12.53mm^3/s)
; infill extrusion width = 0.52mm (16.71mm^3/s)
; solid infill extrusion width = 0.52mm (4.18mm^3/s)
; top infill extrusion width = 0.52mm (3.13mm^3/s)

M107
M104 S205 ; set temperature
G28 ; home all axes
G1 Z5 F5000 ; lift nozzle

; Filament gcode

M109 S205 ; set temperature and wait for it to be reached
G21 ; set units to millimeters
G90 ; use absolute coordinates
M82 ; use absolute distances for extrusion
G92 E0
G1 Z0.500 F7800.000
G1 E-2.00000 F2400.00000
G92 E0
G1 X76.526 Y94.606 F7800.000
G1 E2.00000 F2400.00000
G1 F1800
G1 X76.426 Y94.706 E2.00887
G1 X77.294 Y93.838 E2.08636
G1 X77.399 Y93.766 E2.09444
G1 X77.433 Y93.763 E2.09654
G1 X77.523 Y93.676 E2.10446
G1 X77.625 Y93.640 E2.11126
G1 X77.700 Y93.568 E2.11783
G1 X77.907 Y93.465 E2.13248
G1 X78.166 Y93.364 E2.14997
G1 X78.277 Y93.360 E2.15698
G1 X78.379 Y93.297 E2.16456
G1 X78.431 Y93.295 E2.16785
G1 X76.556 Y95.171 E2.33534
G1 X76.555 Y95.194 E2.33679
G1 X76.533 Y95.194 E2.33819
G1 X76.000 Y95.727 E2.38579
G1 X75.986 Y95.755 E2.38776
G1 X75.987 Y96.110 E2.41017
G1 X76.019 Y96.274 E2.42074
G1 X76.043 Y96.278 E2.42227
G1 X79.125 Y93.196 E2.69751
G1 X79.410 Y93.171 E2.71558
G1 X79.414 Y93.191 E2.71684
G1 X79.713 Y93.203 E2.73570
G1 X76.117 Y96.799 E3.05679
G1 X76.122 Y96.844 E3.05968
G1 X76.176 Y96.906 E3.06486
G1 X76.193 Y97.108 E3.07771
G1 X76.250 Y97.261 E3.08797
G1 X80.239 Y93.272 E3.44418
G1 X80.712 Y93.393 E3.47504
G1 X76.417 Y97.688 E3.85859
G1 X76.451 Y97.762 E3.86370
G1 X76.516 Y97.774 E3.86789
G1 X76.528 Y97.928 E3.87767
G1 X76.605 Y98.095 E3.88924
G1 X81.146 Y93.554 E4.29473
G1 X81.365 Y93.641 E4.30967
G1 X81.553 Y93.742 E4.32308
G1 X76.819 Y98.475 E4.74577
G1 X77.051 Y98.838 E4.77296
G1 X81.927 Y93.962 E5.20837
G1 X82.268 Y94.215 E5.23521
G1 X77.297 Y99.186 E5.67912
G1 X77.567 Y99.511 E5.70578
G1 X82.594 Y94.485 E6.15464
G1 X82.889 Y94.784 E6.18119
G1 X77.864 Y99.809 E6.62996
G1 X78.165 Y100.102 E6.65652
G1 X83.155 Y95.113 E7.10210
G1 X83.408 Y95.454 E7.12894
G1 X78.493 Y100.369 E7.56790
G1 X78.838 Y100.619 E7.59478
G1 X83.655 Y95.802 E8.02497
G1 X83.901 Y96.150 E8.05190
G1 X79.224 Y100.827 E8.46954
G1 X79.344 Y100.891 E8.47810
G1 X79.649 Y100.997 E8.49848
G1 X84.148 Y96.498 E8.90025
G1 X84.390 Y96.850 E8.92725
G1 X80.141 Y101.100 E9.30673
G1 X80.705 Y101.131 E9.34240
G1 X84.639 Y97.196 E9.69375
G1 X84.904 Y97.525 E9.72046
G1 X81.291 Y101.139 E10.04316
G1 X81.866 Y101.159 E10.07947
G1 X85.189 Y97.836 E10.37625
G1 X85.512 Y98.107 E10.40290
G1 X82.421 Y101.198 E10.67889
G1 X82.956 Y101.258 E10.71287
G1 X85.873 Y98.340 E10.97339
G1 X86.296 Y98.513 E11.00219
G1 X83.467 Y101.342 E11.25482
G1 X83.960 Y101.443 E11.28660
G1 X86.770 Y98.633 E11.53753
G1 X87.246 Y98.751 E11.56854
G1 X84.433 Y101.565 E11.81980
G1 X84.861 Y101.731 E11.84882
G1 X87.758 Y98.835 E12.10747
G1 X88.300 Y98.887 E12.14188
G1 X85.244 Y101.943 E12.41477
G1 E10.41477 F2400.00000
G92 E0
G1 X88.453 Y95.166 F7800.000
G1 E2.00000 F2400.00000
G1 F1800
G1 X89.419 Y94.200 E2.08624
G1 X89.070 Y94.218 E2.10827
G1 X88.688 Y94.337 E2.13356
G1 X88.114 Y94.910 E2.18476
G1 X88.115 Y94.886 E2.18625
G1 X88.178 Y94.846 E2.19099
G1 E0.19099 F2400.00000
G92 E0
G1 X89.076 Y92.164 F7800.000
G1 E2.00000 F2400.00000
G1 F1800
G1 X88.819 Y92.109 E2.01665
G1 X88.726 Y92.134 E2.02273
G1 X88.728 Y92.244 E2.02967
G1 X88.818 Y92.423 E2.04227
G1 X89.586 Y91.655 E2.11088
G1 X89.838 Y91.768 E2.12832
G1 X89.963 Y91.872 E2.13860
G1 X89.054 Y92.781 E2.21976
G1 X89.223 Y92.992 E2.23685
G1 X89.337 Y93.093 E2.24643
G1 X90.152 Y92.278 E2.31922
G1 X90.201 Y92.437 E2.32974
G1 X90.349 Y92.676 E2.34747
G1 X89.628 Y93.397 E2.41186
G1 X89.767 Y93.587 E2.42675
G1 X89.851 Y93.768 E2.43934
G1 X90.673 Y92.946 E2.51274
G1 X90.842 Y92.988 E2.52376
G1 X90.980 Y92.986 E2.53245
G1 X91.173 Y92.911 E2.54555
G1 X91.318 Y92.808 E2.55676
G1 X91.565 Y92.515 E2.58097
G1 X91.587 Y92.627 E2.58819
G1 X89.217 Y94.997 E2.79987
G1 X89.371 Y94.956 E2.80996
G1 X89.532 Y94.968 E2.82017
G1 X89.758 Y95.050 E2.83536
G1 X91.805 Y93.003 E3.01814
G1 X91.895 Y93.069 E3.02518
G1 X92.024 Y93.121 E3.03398
G1 X92.210 Y93.130 E3.04573
G1 X92.293 Y93.110 E3.05114
G1 X90.074 Y95.329 E3.24932
G1 X90.191 Y95.536 E3.26430
G1 X90.235 Y95.763 E3.27890
G1 X91.951 Y94.047 E3.43209
G1 X91.962 Y94.222 E3.44318
G1 X92.073 Y94.520 E3.46320
G1 X89.781 Y96.811 E3.66781
G1 X89.376 Y97.415 E3.71376
G1 X89.038 Y98.149 E3.76480
G1 X92.235 Y94.952 E4.05034
G1 X92.312 Y95.266 E4.07079
G1 X92.322 Y95.460 E4.08303
G1 X85.613 Y102.168 E4.68212
G1 X85.979 Y102.398 E4.70936
G1 X91.982 Y96.394 E5.24549
G1 X91.608 Y97.087 E5.29522
G1 X91.162 Y97.808 E5.34877
G1 X86.345 Y102.625 E5.77894
G1 X86.736 Y102.830 E5.80675
G1 X90.917 Y98.649 E6.18015
G1 X91.233 Y98.732 E6.20080
G1 X91.439 Y98.721 E6.21381
G1 X87.169 Y102.991 E6.59509
G1 X87.627 Y103.127 E6.62528
G1 X92.151 Y98.603 E7.02926
G1 X92.879 Y98.471 E7.07597
G1 X87.979 Y103.370 E7.51353
G1 X88.204 Y103.740 E7.54086
G1 X93.622 Y98.322 E8.02475
G1 X94.380 Y98.159 E8.07365
G1 X88.431 Y104.107 E8.60483
G1 X88.595 Y104.342 E8.62291
G1 X88.699 Y104.434 E8.63168
G1 X95.164 Y97.969 E9.20901
G1 X95.906 Y97.822 E9.25676
G1 X89.049 Y104.679 E9.86909
G1 X89.416 Y104.906 E9.89636
G1 X96.614 Y97.709 E10.53912
G1 X97.283 Y97.634 E10.58164
G1 X89.763 Y105.154 E11.25316
G1 X90.058 Y105.453 E11.27972
G1 X91.472 Y104.040 E11.40597
G1 X91.700 Y104.406 E11.43323
G1 X90.315 Y105.792 E11.55699
G1 X90.559 Y106.142 E11.58396
G1 X91.962 Y104.739 E11.70927
G1 X92.226 Y105.070 E11.73599
G1 X90.819 Y106.477 E11.86166
G1 X91.096 Y106.795 E11.88828
G1 X92.474 Y105.417 E12.01132
G1 X92.641 Y105.844 E12.04031
G1 X91.371 Y107.114 E12.15368
G1 X91.636 Y107.443 E12.18039
G1 X92.835 Y106.245 E12.28744
G1 X93.054 Y106.620 E12.31489
G1 X91.842 Y107.833 E12.42315
G1 X91.850 Y108.008 E12.43426
G1 X91.801 Y108.187 E12.44597
G1 X91.733 Y108.305 E12.45456
G1 X91.542 Y108.535 E12.47346
G1 X91.749 Y108.520 E12.48653
G1 X93.287 Y106.982 E12.62392
G1 X93.444 Y107.172 E12.63947
G1 X93.584 Y107.279 E12.65064
G1 X92.143 Y108.720 E12.77933
G1 X92.223 Y108.809 E12.78688
G1 X92.301 Y108.940 E12.79649
G1 X92.349 Y109.109 E12.80760
G1 X93.691 Y107.767 E12.92747
G1 X93.674 Y108.013 E12.94308
G1 X93.717 Y108.166 E12.95310
G1 X93.774 Y108.278 E12.96106
G1 X93.105 Y108.948 E13.02081
G1 X92.266 Y110.117 F7800.000
G1 F1800
G1 X92.308 Y109.840 E13.03852
G1 X92.196 Y109.820 E13.04571
G1 X92.097 Y110.287 E13.07587
G1 X92.775 Y109.608 E13.13650
G1 X92.727 Y110.026 E13.16310
G1 X92.712 Y110.369 E13.18474
G1 X92.191 Y110.901 E13.23176
G1 E11.23176 F2400.00000
G92 E0
G1 X90.591 Y109.319 F7800.000
G1 E2.00000 F2400.00000
G1 F1800
G1 X91.100 Y108.810 E2.04551
G1 X90.691 Y108.525 F7800.000
G1 F1800
G1 X90.171 Y109.044 E2.09186
G1 E0.09186 F2400.00000
G92 E0
G1 X94.568 Y108.724 F7800.000
G1 E2.00000 F2400.00000
G1 F1800
G1 X93.972 Y109.320 E2.05327
G1 X94.247 Y109.754 E2.08570
G1 X95.106 Y108.895 E2.16237
G1 X95.118 Y108.905 E2.16338
G1 X95.244 Y109.105 E2.17827
G1 X95.248 Y109.175 E2.18270
G1 X95.276 Y109.234 E2.18683
G1 X95.275 Y109.373 E2.19559
G1 X95.239 Y109.471 E2.20221
G1 X94.727 Y109.983 E2.24793
G1 E0.24793 F2400.00000
G92 E0
G1 X94.580 Y104.500 F7800.000
G1 E2.00000 F2400.00000
G1 F1800
G1 X101.568 Y97.512 E2.62401
G1 X100.983 Y97.502 E2.66092
G1 X94.020 Y104.465 E3.28276
G1 X93.754 Y104.463 E3.29953
G1 X93.660 Y104.431 E3.30578
G1 X93.535 Y104.429 E3.31368
G1 X93.551 Y104.409 E3.31529
G1 X93.489 Y104.401 E3.31920
G1 X100.403 Y97.487 E3.93664
G1 X99.799 Y97.497 E3.97483
G1 X92.960 Y104.336 E4.58553
G1 X92.470 Y104.232 E4.61719
G1 X99.201 Y97.500 E5.21829
G1 X98.564 Y97.543 E5.25861
G1 X91.983 Y104.124 E5.84628
G1 X91.496 Y104.016 E5.87776
G1 X97.941 Y97.571 E6.45325
G1 X97.283 Y97.634 E6.49498
G1 E4.49498 F2400.00000
G92 E0
G1 X99.448 Y96.064 F7800.000
G1 E2.00000 F2400.00000
G1 F1800
G1 X102.554 Y92.957 E2.27745
G1 X102.331 Y93.125 E2.29506
G1 X102.048 Y93.289 E2.31571
G1 X101.612 Y93.505 E2.34646
G1 X101.285 Y93.633 E2.36864
G1 X99.180 Y95.737 E2.55657
G1 X99.138 Y95.671 E2.56151
G1 X99.058 Y95.448 E2.57645
G1 X99.050 Y95.319 E2.58465
G1 X99.068 Y95.255 E2.58882
G1 X100.359 Y93.963 E2.70418
G1 X100.921 Y92.212 F7800.000
G1 F1800
G1 X100.902 Y92.213 E2.70542
G1 X100.905 Y92.228 E2.70637
G1 X101.431 Y91.702 E2.75330
G1 X101.745 Y91.624 E2.77374
G1 X101.957 Y91.628 E2.78710
G1 X102.057 Y91.666 E2.79389
G1 X101.162 Y92.566 E2.87403
G1 X101.367 Y92.674 E2.88866
G1 X101.532 Y92.699 E2.89923
G1 X101.631 Y92.691 E2.90552
G1 X102.394 Y91.928 E2.97364
G1 X102.522 Y91.981 E2.98237
G1 X102.729 Y92.014 E2.99563
G1 X102.919 Y91.998 E3.00767
G1 X102.116 Y92.801 E3.07939
G1 X102.193 Y92.873 E3.08606
G1 X102.260 Y93.087 E3.10022
G1 X102.249 Y93.180 E3.10609
G1 X102.149 Y93.363 E3.11930
G1 X103.985 Y91.526 E3.28330
G1 X104.146 Y91.577 E3.29391
G1 X104.316 Y91.558 E3.30470
G1 X104.857 Y91.249 E3.34406
G1 X99.757 Y96.350 E3.79955
G1 X100.093 Y96.608 E3.82632
G1 X104.743 Y91.959 E4.24154
G1 X104.694 Y92.092 E4.25054
G1 X104.676 Y92.227 E4.25913
G1 X104.679 Y92.387 E4.26922
G1 X104.726 Y92.570 E4.28114
G1 X100.488 Y96.808 E4.65958
G1 X100.883 Y97.008 E4.68752
G1 X102.806 Y95.085 E4.85923
G1 X102.908 Y95.261 E4.87211
G1 X103.076 Y95.409 E4.88625
G1 X101.270 Y97.215 E5.04746
G1 X101.469 Y97.322 E5.06170
G1 X101.637 Y97.443 E5.07478
G1 X103.497 Y95.582 E5.24091
G1 X103.978 Y95.696 E5.27213
G1 X95.143 Y104.532 E6.06118
G1 X95.702 Y104.532 E6.09651
G1 X95.768 Y104.501 E6.10112
G1 X104.387 Y95.882 E6.87076
G1 X104.769 Y96.094 E6.89838
G1 X96.397 Y104.466 E7.64600
G1 X96.516 Y104.465 E7.65350
G1 X96.548 Y104.434 E7.65635
G1 X96.868 Y104.431 E7.67657
G1 X97.069 Y104.389 E7.68953
G1 X105.067 Y96.391 E8.40377
G1 X105.086 Y96.492 E8.41024
G1 X105.063 Y96.675 E8.42186
G1 X105.022 Y96.800 E8.43017
G1 X104.904 Y97.030 E8.44653
G1 X104.872 Y97.180 E8.45622
G1 X97.805 Y104.248 E9.08736
G1 X97.940 Y104.195 E9.09648
G1 X98.061 Y104.180 E9.10422
G1 X98.148 Y104.098 E9.11175
G1 X98.361 Y104.092 E9.12522
G1 X98.645 Y104.002 E9.14402
G1 X105.126 Y97.521 E9.72280
G1 X105.626 Y97.616 E9.75491
G1 X99.496 Y103.746 E10.30234
G1 X99.662 Y103.684 E10.31356
G1 X99.763 Y103.620 E10.32110
G1 X100.001 Y103.547 E10.33684
G1 X100.561 Y103.276 E10.37610
G1 X106.117 Y97.720 E10.87224
G1 X106.602 Y97.830 E10.90364
G1 X101.446 Y102.986 E11.36410
G1 X101.722 Y102.909 E11.38222
G1 X101.973 Y102.951 E11.39826
G1 X102.023 Y103.003 E11.40285
G1 X107.123 Y97.903 E11.85831
G1 X107.638 Y97.982 E11.89122
G1 X100.204 Y105.417 E12.55510
G1 X100.192 Y105.472 E12.55866
G1 X100.210 Y105.548 E12.56360
G1 X100.325 Y105.729 E12.57717
G1 X100.414 Y105.801 E12.58437
G1 X108.144 Y98.071 E13.27464
G1 X108.640 Y98.170 E13.30657
G1 X105.961 Y100.849 E13.54581
G1 X106.652 Y100.471 E13.59557
G1 X107.134 Y100.271 E13.62853
G1 X109.124 Y98.281 E13.80623
G1 X109.608 Y98.391 E13.83758
G1 X107.919 Y100.080 E13.98842
G1 X108.172 Y100.055 E14.00451
G1 X108.542 Y100.052 E14.02786
G1 X110.091 Y98.503 E14.16620
G1 X110.574 Y98.615 E14.19748
G1 X109.083 Y100.106 E14.33061
G1 X109.581 Y100.202 E14.36263
G1 X111.063 Y98.720 E14.49499
G1 X111.586 Y98.792 E14.52834
G1 X110.052 Y100.326 E14.66536
G1 X110.521 Y100.451 E14.69604
G1 X112.179 Y98.793 E14.84410
G1 X112.581 Y98.753 E14.86959
G1 X112.868 Y98.699 E14.88806
G1 X111.022 Y100.545 E15.05289
G1 X111.507 Y100.581 E15.08360
G1 X111.591 Y100.570 E15.08896
G1 X113.715 Y98.446 E15.27862
G1 X114.117 Y98.278 E15.30611
G1 X114.804 Y97.952 E15.35415
G1 X112.370 Y100.386 E15.57153
G1 X112.784 Y100.213 E15.59989
G1 X113.582 Y99.769 E15.65753
G1 X115.974 Y97.377 E15.87119
G1 X116.419 Y97.184 E15.90181
G1 X116.937 Y97.008 E15.93633
G1 X114.985 Y98.960 E16.11064
G1 X115.455 Y98.747 E16.14323
G1 X115.983 Y98.557 E16.17862
G1 X117.736 Y96.804 E16.33517
G1 X118.418 Y96.717 E16.37863
G1 X116.773 Y98.361 E16.52550
G1 X117.162 Y98.302 E16.55029
G1 X117.450 Y98.279 E16.56855
G1 X119.037 Y96.693 E16.71026
G1 X119.318 Y96.691 E16.72800
G1 X119.572 Y96.752 E16.74449
G1 X118.064 Y98.260 E16.87912
G1 X118.624 Y98.294 E16.91456
G1 X120.003 Y96.916 E17.03767
G1 X120.409 Y97.104 E17.06596
G1 X119.146 Y98.367 E17.17880
G1 X119.604 Y98.504 E17.20899
G1 X120.788 Y97.320 E17.31470
G1 X121.162 Y97.541 E17.34211
G1 X120.014 Y98.689 E17.44465
G1 X120.393 Y98.905 E17.47219
G1 X121.521 Y97.776 E17.57299
G1 X121.880 Y98.011 E17.60011
G1 X120.755 Y99.136 E17.70058
G1 X121.119 Y99.367 E17.72779
G1 X122.228 Y98.258 E17.82680
G1 X122.568 Y98.513 E17.85362
G1 X121.495 Y99.587 E17.94947
G1 X121.898 Y99.777 E17.97768
G1 X122.905 Y98.770 E18.06762
G1 X123.226 Y99.044 E18.09425
G1 X122.324 Y99.947 E18.17487
G1 X122.786 Y100.079 E18.20523
G1 X123.534 Y99.331 E18.27206
G1 X123.809 Y99.650 E18.29868
G1 X123.299 Y100.160 E18.34420
G1 E16.34420 F2400.00000
G92 E0
G1 X107.355 Y108.374 F7800.000
G1 E2.00000 F2400.00000
G1 F1800
G1 X108.117 Y107.613 E2.06802
G1 X108.127 Y107.408 E2.08095
G1 X108.070 Y107.309 E2.08813
G1 X107.943 Y107.192 E2.09906
G1 X106.976 Y108.159 E2.18541
G1 X106.950 Y108.105 E2.18918
G1 X106.854 Y108.006 E2.19787
G1 X106.851 Y107.970 E2.20014
G1 X106.716 Y107.824 E2.21270
G1 X107.567 Y106.973 E2.28863
G1 X107.452 Y106.934 E2.29631
G1 X107.373 Y106.872 E2.30261
G1 X107.317 Y106.867 E2.30618
G1 X107.242 Y106.806 E2.31228
G1 X107.148 Y106.797 E2.31825
G1 X106.432 Y107.513 E2.38221
G1 X106.380 Y107.460 E2.38693
G1 X106.361 Y107.311 E2.39638
G1 X106.249 Y107.295 E2.40356
G1 X106.161 Y107.190 E2.41223
G1 X106.809 Y106.542 E2.47009
G1 X106.689 Y106.448 E2.47969
G1 X106.573 Y106.320 E2.49061
G1 X106.530 Y106.352 E2.49397
G1 X106.483 Y106.273 E2.49980
G1 X105.933 Y106.823 E2.54891
G1 X105.890 Y106.755 E2.55399
G1 X105.731 Y106.628 E2.56686
G1 X105.594 Y106.568 E2.57631
G1 X106.271 Y105.891 E2.63676
G1 X106.258 Y105.721 E2.64750
G1 X106.294 Y105.603 E2.65532
G1 X106.362 Y105.495 E2.66333
G1 X106.446 Y105.408 E2.67101
G1 X106.591 Y105.330 E2.68140
G1 X106.727 Y105.317 E2.68999
G1 X106.738 Y105.225 E2.69585
G1 X106.645 Y105.194 E2.70207
G1 X106.486 Y105.081 E2.71437
G1 X104.715 Y106.852 E2.87247
G1 X104.657 Y106.603 E2.88862
G1 X104.561 Y106.411 E2.90214
G1 X106.316 Y104.656 E3.05888
G1 X106.340 Y104.509 E3.06830
G1 X106.440 Y104.269 E3.08474
G1 X106.378 Y104.214 E3.08998
G1 X106.177 Y104.327 E3.10456
G1 X105.995 Y104.383 E3.11656
G1 X104.276 Y106.101 E3.27003
G1 X104.160 Y106.018 E3.27904
G1 X103.888 Y105.895 E3.29790
G1 X105.317 Y104.466 E3.42546
G1 X105.067 Y104.424 E3.44146
G1 X104.847 Y104.342 E3.45631
G1 X103.415 Y105.773 E3.58412
G1 X103.110 Y105.739 E3.60354
G1 X102.834 Y105.760 E3.62101
G1 X104.400 Y104.193 E3.76091
G1 X104.032 Y103.967 E3.78821
G1 X102.072 Y105.927 E3.96321
G1 X101.604 Y106.082 E3.99436
G1 X101.463 Y106.111 E4.00345
G1 X101.291 Y106.114 E4.01433
G1 X104.737 Y102.667 E4.32212
G1 X104.793 Y102.550 E4.33027
G1 X104.844 Y102.328 E4.34470
G1 X104.874 Y101.935 E4.36955
G1 X100.787 Y106.023 E4.73456
G1 X100.548 Y105.909 E4.75129
G1 X100.414 Y105.801 E4.76213
G1 E2.76213 F2400.00000
G92 E0
G1 X105.086 Y107.010 F7800.000
G1 E2.00000 F2400.00000
G1 F1800
G1 X104.576 Y107.520 E2.04553
G1 X104.277 Y108.135 E2.08871
G1 X104.075 Y108.693 E2.12621
G1 X104.071 Y108.715 E2.12763
G1 X105.254 Y107.532 E2.23329
G1 X105.294 Y107.726 E2.24582
G1 X105.294 Y107.922 E2.25814
G1 X105.270 Y107.951 E2.26054
G1 X105.231 Y108.143 E2.27289
G1 X105.193 Y108.219 E2.27825
G1 X105.050 Y108.426 E2.29418
G1 X104.539 Y108.937 E2.33981
G1 E0.33981 F2400.00000
G92 E0
G1 X102.296 Y95.594 F7800.000
G1 E2.00000 F2400.00000
G1 F1800
G1 X102.252 Y95.413 E2.01178
G1 X102.259 Y95.325 E2.01733
G1 X102.324 Y95.146 E2.02937
G1 X102.405 Y95.035 E2.03803
G1 X102.494 Y94.956 E2.04554
G1 X102.637 Y94.871 E2.05606
G1 X103.176 Y94.715 E2.09149
G1 X104.937 Y92.953 E2.24877
G1 X105.205 Y93.280 E2.27545
G1 X104.279 Y94.206 E2.35813
G1 X104.313 Y94.193 E2.36043
G1 X104.503 Y94.249 E2.37293
G1 X104.690 Y94.390 E2.38772
G1 X105.501 Y93.579 E2.46011
G1 X105.803 Y93.871 E2.48666
G1 X104.954 Y94.720 E2.56246
G1 X105.073 Y94.950 E2.57878
G1 X105.121 Y95.004 E2.58337
G1 X105.157 Y95.112 E2.59054
G1 X106.115 Y94.154 E2.67604
G1 X106.349 Y94.340 E2.69492
G1 X106.428 Y94.435 E2.70275
G1 X105.440 Y95.423 E2.79097
G1 E0.79097 F2400.00000
G92 E0
G1 X104.756 Y91.945 F7800.000
G1 E2.00000 F2400.00000
G1 F1800
G1 X106.395 Y90.306 E2.14643
G1 X106.352 Y90.167 E2.15564
G1 X106.197 Y89.909 E2.17459
G1 X105.264 Y90.842 E2.25789
G1 X105.415 Y90.499 E2.28155
G1 X105.454 Y90.302 E2.29420
G1 X105.486 Y90.278 E2.29674
G1 X105.538 Y90.276 E2.30001
G1 X105.688 Y90.419 E2.31310
G1 E0.31310 F2400.00000
G92 E0
G1 X103.043 Y89.495 F7800.000
G1 E2.00000 F2400.00000
G1 F1800
G1 X102.433 Y90.106 E2.05451
G1 X102.494 Y90.639 E2.08842
G1 X103.421 Y89.712 E2.17122
G1 X103.480 Y89.913 E2.18447
G1 X103.513 Y90.215 E2.20364
G1 X102.613 Y91.115 E2.28400
G1 X102.743 Y91.580 E2.31447
G1 X103.596 Y90.727 E2.39062
G1 X103.743 Y91.174 E2.42034
G1 X102.799 Y92.118 E2.50465
G1 E0.50465 F2400.00000
G92 E0
G1 X92.293 Y93.110 F7800.000
G1 E2.00000 F2400.00000
G1 F1800
G1 X92.418 Y93.070 E2.00827
G1 X92.602 Y92.964 E2.02166
G1 X92.900 Y92.720 E2.04598
G1 X93.013 Y92.666 E2.05389
G1 X93.157 Y92.643 E2.06311
G1 X93.358 Y92.640 E2.07580
G1 X92.290 Y93.708 E2.17115
G1 X91.180 Y92.415 F7800.000
G1 F1800
G1 X91.690 Y91.905 E2.21668
G1 X91.821 Y91.451 E2.24655
G1 X91.859 Y91.264 E2.25856
G1 X91.851 Y91.118 E2.26784
G1 X91.037 Y91.932 E2.34059
G1 X91.010 Y91.663 E2.35768
G1 X91.021 Y91.425 E2.37272
G1 X91.050 Y91.304 E2.38059
G1 X91.576 Y90.767 E2.42808
G1 E0.42808 F2400.00000
G92 E0
G1 X106.753 Y105.838 F7800.000
G1 E2.00000 F2400.00000
G1 F1800
G1 X107.263 Y105.328 E2.04551
G1 X107.930 Y105.336 E2.08764
G1 X107.172 Y106.094 E2.15536
G1 X107.685 Y106.256 E2.18935
G1 X108.596 Y105.346 E2.27066
G1 X108.873 Y105.371 E2.28823
G1 X108.946 Y105.412 E2.29354
G1 X108.972 Y105.495 E2.29905
G1 X108.949 Y105.652 E2.30910
G1 X108.397 Y106.220 E2.35910
G1 E0.35910 F2400.00000
G92 E0
G1 X107.073 Y103.717 F7800.000
G1 E2.00000 F2400.00000
G1 F1800
G1 X107.602 Y103.188 E2.04723
G1 X107.582 Y103.207 E2.04896
G1 X107.358 Y102.767 F7800.000
G1 F1800
G1 X106.844 Y103.281 E2.09487
M104 S200 ; set temperature
G1 Z1.000 F7800.000
G1 E0.09487 F2400.00000
G92 E0
G1 X105.718 Y105.389 F7800.000
G1 E2.00000 F2400.00000
G1 F4800
G1 X105.392 Y105.063 E2.01361
G1 X105.213 Y105.005 E2.01919
G1 X104.790 Y105.012 E2.03168
G1 X104.664 Y105.043 E2.03552
G1 X105.607 Y105.987 E2.07496
G1 X105.564 Y106.004 E2.07634
G1 X105.423 Y106.005 E2.08049
G1 X105.338 Y105.978 E2.08315
G1 X105.223 Y105.904 E2.08719
G1 X104.925 Y105.584 E2.10010
G1 X104.849 Y105.430 E2.10518
G1 X104.794 Y105.383 E2.10729
G1 X104.895 Y105.391 E2.11028
G1 X104.988 Y105.368 E2.11311
G1 E0.11311 F2400.00000
G92 E0
G1 X104.121 Y103.295 F7800.000
G1 E2.00000 F2400.00000
G1 F4800
G1 X102.897 Y102.071 E2.05116
G1 X102.781 Y102.549 E2.06570
G1 X103.888 Y103.655 E2.11194
G1 X103.683 Y104.045 E2.12494
G1 X102.599 Y102.960 E2.17027
G1 X102.467 Y103.222 E2.17893
G1 X102.379 Y103.335 E2.18315
G1 X103.755 Y104.711 E2.24062
G1 X103.842 Y104.863 E2.24582
G1 X103.851 Y104.993 E2.24965
G1 X104.038 Y105.114 E2.25623
G1 X103.742 Y105.158 E2.26507
G1 X103.656 Y105.206 E2.26796
G1 X102.095 Y103.645 E2.33318
G1 X101.788 Y103.932 E2.34559
G1 X103.169 Y105.313 E2.40330
G1 X102.672 Y105.409 E2.41827
G1 X101.447 Y104.185 E2.46945
G1 X101.128 Y104.460 E2.48189
G1 X102.204 Y105.536 E2.52683
G1 X101.708 Y105.634 E2.54176
G1 X100.895 Y104.821 E2.57572
G1 E0.57572 F2400.00000
G92 E0
G1 X93.765 Y103.630 F7800.000
G1 E2.00000 F2400.00000
G1 F4800
G1 X88.958 Y98.823 E2.20086
G1 X88.621 Y99.080 E2.21338
G1 X93.082 Y103.542 E2.39979
G1 X92.347 Y103.401 E2.42190
G1 X88.294 Y99.348 E2.59126
G1 X88.229 Y99.412 E2.59394
G1 X87.968 Y99.569 E2.60293
G1 X87.921 Y99.569 E2.60435
G1 X91.592 Y103.240 E2.75774
G1 X91.164 Y103.148 E2.77065
G1 X90.884 Y103.126 E2.77896
G1 X87.280 Y99.522 E2.92954
G1 X86.576 Y99.412 E2.95059
G1 X90.569 Y103.405 E3.11742
G1 X90.528 Y103.478 E3.11991
G1 X90.731 Y104.161 E3.14096
G1 X85.775 Y99.205 E3.34806
G1 E1.34806 F2400.00000
G92 E0
G1 X82.846 Y96.275 F7800.000
G1 E2.00000 F2400.00000
G1 F4800
G1 X81.159 Y94.589 E2.07048
G1 X80.945 Y94.448 E2.07803
G1 X80.449 Y94.203 E2.09439
G1 X80.026 Y94.050 E2.10768
G1 X91.242 Y105.266 E2.57635
G1 X91.413 Y105.471 E2.58423
G1 X91.610 Y105.634 E2.59179
G1 X91.776 Y105.830 E2.59938
G1 X91.896 Y106.066 E2.60720
G1 X91.955 Y106.304 E2.61444
G1 X91.736 Y106.172 E2.62198
G1 X91.483 Y105.898 E2.63303
G1 X91.275 Y105.594 E2.64390
G1 X91.180 Y105.413 E2.64994
G1 X90.923 Y105.090 E2.66212
G1 X90.661 Y104.834 E2.67295
G1 X90.088 Y104.476 E2.69291
G1 X89.939 Y104.422 E2.69761
G1 X89.782 Y104.314 E2.70322
G1 X89.634 Y104.252 E2.70797
G1 X88.781 Y103.399 E2.74362
G1 X88.276 Y102.594 E2.77170
G1 X88.075 Y102.198 E2.78482
G1 X87.929 Y102.115 E2.78980
G1 X87.273 Y101.891 E2.81028
G1 X79.242 Y93.860 E3.14583
G1 X78.947 Y93.846 E3.15455
G1 X78.679 Y93.891 E3.16258
G1 X86.266 Y101.477 E3.47956
G1 X85.636 Y101.113 E3.50106
G1 X85.356 Y100.976 E3.51027
G1 X85.092 Y100.898 E3.51839
G1 X78.193 Y93.999 E3.80668
G1 X78.089 Y94.021 E3.80981
G1 X77.772 Y94.172 E3.82018
G1 X84.292 Y100.692 E4.09262
G1 X83.572 Y100.566 E4.11423
G1 X77.400 Y94.394 E4.37213
G1 X77.235 Y94.514 E4.37816
G1 X77.081 Y94.669 E4.38461
G1 X82.892 Y100.480 E4.62742
G1 X82.259 Y100.441 E4.64617
G1 X76.845 Y95.027 E4.87239
G1 X76.770 Y95.253 E4.87944
G1 X76.747 Y95.523 E4.88743
G1 X81.634 Y100.410 E5.09165
G1 X81.018 Y100.388 E5.10986
G1 X76.854 Y96.224 E5.28385
G1 X76.915 Y96.487 E5.29183
G1 X77.121 Y97.085 E5.31050
G1 X80.335 Y100.299 E5.44480
G1 X80.180 Y100.263 E5.44948
G1 X79.756 Y100.077 E5.46317
G1 X79.319 Y99.783 E5.47873
G1 X78.756 Y99.311 E5.50043
G1 X77.805 Y98.363 E5.54012
G1 E3.54012 F2400.00000
G92 E0
G1 X90.182 Y99.454 F7800.000
G1 E2.00000 F2400.00000
G1 F4800
G1 X94.443 Y103.715 E2.17807
G1 X95.082 Y103.760 E2.19698
G1 X90.760 Y99.438 E2.37758
G1 X91.289 Y99.372 E2.39332
G1 X95.686 Y103.769 E2.57704
G1 X96.256 Y103.745 E2.59390
G1 X91.811 Y99.301 E2.77961
G1 X92.319 Y99.215 E2.79484
G1 X96.819 Y103.714 E2.98286
G1 X96.846 Y103.713 E2.98366
G1 X97.336 Y103.638 E2.99832
G1 X92.824 Y99.125 E3.18688
G1 X93.319 Y99.027 E3.20182
G1 X97.839 Y103.547 E3.39066
G1 X98.315 Y103.429 E3.40516
G1 X93.813 Y98.926 E3.59329
G1 X94.300 Y98.820 E3.60803
G1 X98.777 Y103.297 E3.79511
G1 X99.228 Y103.153 E3.80907
G1 X94.787 Y98.713 E3.99461
G1 X95.274 Y98.606 E4.00935
G1 X99.678 Y103.010 E4.19335
G1 X100.124 Y102.862 E4.20724
G1 X95.771 Y98.508 E4.38916
G1 X96.284 Y98.428 E4.40452
G1 X100.547 Y102.691 E4.58267
G1 X100.981 Y102.531 E4.59632
G1 X96.827 Y98.377 E4.76987
G1 X97.373 Y98.329 E4.78606
G1 X101.442 Y102.397 E4.95606
G1 X101.895 Y102.257 E4.97008
G1 X97.919 Y98.281 E5.13623
G1 X98.484 Y98.252 E5.15294
G1 X102.343 Y102.111 E5.31420
G1 X102.646 Y102.012 E5.32361
G1 X102.807 Y101.980 E5.32844
G1 X99.054 Y98.228 E5.48524
G1 X99.635 Y98.215 E5.50242
G1 X104.328 Y102.908 E5.69852
G1 X104.375 Y102.708 E5.70459
G1 X104.400 Y102.385 E5.71414
G1 X100.229 Y98.215 E5.88839
G1 X100.823 Y98.215 E5.90595
G1 X104.442 Y101.834 E6.05714
G1 X104.452 Y101.538 E6.06587
G1 X104.489 Y101.286 E6.07340
G1 X101.394 Y98.191 E6.20272
G1 X101.943 Y98.147 E6.21900
G1 X104.821 Y101.025 E6.33926
G1 X105.182 Y100.792 E6.35196
G1 X102.483 Y98.092 E6.46474
G1 X102.801 Y98.025 E6.47436
G1 X102.901 Y97.917 E6.47871
G1 X105.549 Y100.565 E6.58936
G1 X105.918 Y100.339 E6.60212
G1 X99.999 Y94.421 E6.84942
G1 X100.421 Y94.249 E6.86288
G1 X104.053 Y97.881 E7.01466
G1 X104.275 Y97.509 E7.02746
G1 X103.059 Y96.293 E7.07828
G1 X102.896 Y96.224 E7.08350
G1 X102.598 Y95.996 E7.09458
G1 X102.400 Y95.634 E7.10677
G1 X100.851 Y94.084 E7.17152
G1 X101.315 Y93.954 E7.18576
G1 X102.367 Y95.006 E7.22971
G1 X102.518 Y94.653 E7.24106
G1 X102.570 Y94.615 E7.24296
G1 X101.744 Y93.790 E7.27746
G1 X102.140 Y93.592 E7.29055
G1 X102.935 Y94.387 E7.32375
G1 X103.120 Y94.330 E7.32947
G1 X103.420 Y94.277 E7.33846
G1 X102.453 Y93.311 E7.37885
G1 X102.518 Y93.199 E7.38267
G1 X102.611 Y93.103 E7.38662
G1 X102.677 Y92.941 E7.39180
G1 X103.867 Y94.130 E7.44152
G1 X104.082 Y94.024 E7.44862
G1 X104.230 Y93.900 E7.45432
G1 X102.826 Y92.495 E7.51302
G1 X102.897 Y92.378 E7.51709
G1 X103.110 Y92.185 E7.52555
G1 X104.408 Y93.484 E7.57982
G1 X104.038 Y92.519 F7800.000
G1 F4800
G1 X103.713 Y92.194 E7.59339
G1 E5.59339 F2400.00000
G92 E0
G1 X102.734 Y95.968 F7800.000
G1 E2.00000 F2400.00000
G1 F4800
G1 X103.499 Y96.139 E2.02316
G1 X104.438 Y97.078 E2.06241
G1 X104.330 Y98.157 F7800.000
G1 F4800
G1 X106.287 Y100.114 E2.14418
G1 X106.676 Y99.910 E2.15718
G1 X106.265 Y99.499 E2.17436
G1 X106.187 Y99.629 E2.17883
G1 X106.005 Y99.756 E2.18542
G1 X105.758 Y99.525 E2.19541
G1 X105.732 Y99.481 E2.19690
G1 X105.974 Y99.207 E2.20770
G1 X105.070 Y98.303 E2.24548
G1 X105.834 Y98.473 E2.26860
G1 X107.085 Y99.725 E2.32089
G1 X107.515 Y99.561 E2.33449
G1 X106.544 Y98.589 E2.37507
G1 X107.254 Y98.705 E2.39632
G1 X107.993 Y99.445 E2.42721
G1 X108.182 Y99.406 E2.43291
G1 X108.519 Y99.377 E2.44292
G1 X107.967 Y98.825 E2.46601
G1 X108.734 Y98.997 E2.48922
G1 X109.105 Y99.369 E2.50476
G1 X110.766 Y99.444 F7800.000
G1 F4800
G1 X111.091 Y99.769 E2.51834
G1 X111.270 Y99.816 E2.52382
G1 X111.773 Y99.883 E2.53881
G1 X111.838 Y99.875 E2.54073
G1 X111.448 Y99.486 E2.55701
G1 X112.069 Y99.465 E2.57535
G1 X112.394 Y99.790 E2.58892
G1 E0.58892 F2400.00000
G92 E0
G1 X101.690 Y96.706 F7800.000
G1 E2.00000 F2400.00000
G1 F4800
G1 X99.679 Y94.695 E2.08403
G1 X99.589 Y94.936 E2.09164
G1 X99.613 Y95.076 E2.09583
G1 X99.721 Y95.290 E2.10293
G1 X99.955 Y95.565 E2.11359
G1 X100.396 Y96.006 E2.13203
G1 X100.280 Y95.890 E2.13688
G1 E0.13688 F2400.00000
G92 E0
G1 X91.451 Y94.189 F7800.000
G1 E2.00000 F2400.00000
G1 F4800
G1 X90.801 Y93.539 E2.02715
G1 X90.731 Y93.546 E2.02923
G1 X90.574 Y93.616 E2.03431
G1 X90.481 Y93.743 E2.03895
G1 X90.462 Y93.794 E2.04057
G1 X91.486 Y94.817 E2.08333
G1 X91.551 Y95.084 E2.09143
G1 X91.733 Y95.498 E2.10480
G1 X91.783 Y95.709 E2.11122
G1 X90.318 Y94.244 E2.17246
G1 X90.317 Y94.257 E2.17284
G1 X90.347 Y94.395 E2.17703
G1 X90.491 Y94.615 E2.18478
G1 X90.733 Y95.090 E2.20055
G1 X90.737 Y95.257 E2.20546
G1 X91.689 Y96.209 E2.24524
G1 X91.496 Y96.610 E2.25839
G1 X90.702 Y95.816 E2.29157
G1 X90.508 Y96.216 E2.30471
G1 X91.297 Y97.005 E2.33767
G1 X91.245 Y97.104 E2.34098
G1 X91.106 Y97.312 E2.34837
G1 X91.079 Y97.381 E2.35056
G1 X90.269 Y96.570 E2.38441
G1 X90.025 Y96.921 E2.39702
G1 X90.863 Y97.759 E2.43206
G1 X90.633 Y98.123 E2.44478
G1 X89.804 Y97.293 E2.47945
G1 X89.696 Y97.564 E2.48807
G1 X89.618 Y97.702 E2.49273
G1 X90.426 Y98.510 E2.52648
G1 X90.237 Y98.915 E2.53968
G1 X89.426 Y98.104 E2.57356
G1 X89.209 Y98.481 E2.58641
G1 X90.114 Y99.385 E2.62421
G1 X90.107 Y99.426 E2.62542
G1 X90.291 Y99.768 E2.63690
G1 X90.507 Y99.779 E2.64330
G1 Z1.500 F7800.000
G1 E0.64330 F2400.00000
G92 E0
G1 X85.595 Y99.885 F7800.000
G1 E2.00000 F2400.00000
G1 F2371.31
G1 X85.270 Y100.210 E2.01358
G1 X85.672 Y100.415 E2.02691
G1 X86.070 Y100.017 E2.04353
G1 X86.553 Y100.142 E2.05826
G1 X86.068 Y100.626 E2.07850
G1 X86.450 Y100.851 E2.09160
G1 X87.048 Y100.253 E2.11659
G1 X87.577 Y100.331 E2.13239
G1 X86.826 Y101.082 E2.16376
G1 X87.201 Y101.315 E2.17679
G1 X88.147 Y100.368 E2.21634
G1 X88.752 Y100.371 E2.23420
G1 X87.616 Y101.507 E2.28166
G1 X88.084 Y101.646 E2.29609
G1 X89.369 Y100.361 E2.34976
G1 X89.997 Y100.340 E2.36834
G1 X88.556 Y101.781 E2.42854
G1 X89.044 Y101.900 E2.44338
G1 X90.661 Y100.283 E2.51096
G1 X91.346 Y100.206 E2.53130
G1 X89.526 Y102.026 E2.60735
G1 X90.024 Y102.134 E2.62242
G1 X92.040 Y100.119 E2.70665
G1 X92.764 Y100.001 E2.72834
G1 X90.515 Y102.250 E2.82231
G1 X91.013 Y102.359 E2.83736
G1 X93.508 Y99.865 E2.94160
G1 X94.268 Y99.712 E2.96451
G1 X91.511 Y102.469 E3.07970
G1 X92.009 Y102.578 E3.09476
G1 X95.046 Y99.540 E3.22169
G1 X95.825 Y99.369 E3.24525
G1 X92.506 Y102.687 E3.38392
G1 X93.027 Y102.774 E3.39951
G1 X96.559 Y99.242 E3.54710
G1 X97.240 Y99.168 E3.56734
G1 X93.556 Y102.852 E3.72130
G1 X94.104 Y102.911 E3.73761
G1 X97.909 Y99.106 E3.89657
G1 X98.563 Y99.060 E3.91594
G1 X94.669 Y102.953 E4.07862
G1 X95.257 Y102.972 E4.09601
G1 X99.202 Y99.027 E4.26084
G1 X99.821 Y99.015 E4.27914
G1 X95.892 Y102.945 E4.44334
G1 X96.539 Y102.904 E4.46251
G1 X100.440 Y99.003 E4.62551
G1 X101.043 Y99.008 E4.64332
G1 X97.266 Y102.785 E4.80114
G1 X98.087 Y102.571 E4.82621
G1 X101.662 Y98.996 E4.97559
G1 X102.320 Y98.945 E4.99511
G1 X98.959 Y102.306 E5.13555
G1 X99.515 Y102.121 E5.15285
G1 X99.912 Y101.960 E5.16550
G1 X102.982 Y98.890 E5.29379
G1 X103.590 Y98.889 E5.31175
G1 X100.834 Y101.645 E5.42690
G1 X101.703 Y101.384 E5.45370
G1 X104.164 Y98.922 E5.55655
G1 X104.706 Y98.987 E5.57269
G1 X102.670 Y101.023 E5.65776
G1 X103.746 Y100.555 E5.69241
G1 X105.223 Y99.077 E5.75415
G1 X105.711 Y99.197 E5.76898
G1 X105.385 Y99.523 E5.78260
G1 E3.78260 F2400.00000
G92 E0
G1 X85.244 Y100.202 F7800.000
G1 E2.00000 F2400.00000
G1 F2371.31
G1 X85.569 Y99.877 E2.01358
G1 X85.165 Y99.684 E2.02681
G1 X84.776 Y100.073 E2.04306
G1 X84.299 Y99.953 E2.05759
G1 X84.788 Y99.463 E2.07807
G1 X84.437 Y99.217 E2.09073
G1 X83.799 Y99.855 E2.11739
G1 X83.288 Y99.770 E2.13272
G1 X84.130 Y98.928 E2.16790
G1 X83.831 Y98.630 E2.18038
G1 X82.757 Y99.703 E2.22522
G1 X82.204 Y99.660 E2.24163
G1 X83.562 Y98.301 E2.29841
G1 X83.303 Y97.963 E2.31099
G1 X81.639 Y99.627 E2.38053
G1 X81.066 Y99.603 E2.39746
G1 X83.056 Y97.614 E2.48059
G1 X82.808 Y97.264 E2.49325
G1 X80.491 Y99.581 E2.59006
G1 X80.411 Y99.578 E2.59243
G1 X80.012 Y99.463 E2.60471
G1 X82.561 Y96.914 E2.71123
G1 X82.313 Y96.565 E2.72388
G1 X79.630 Y99.248 E2.83602
G1 X79.288 Y98.993 E2.84862
G1 X82.059 Y96.222 E2.96438
G1 X81.791 Y95.893 E2.97692
G1 X78.956 Y98.728 E3.09538
G1 X78.811 Y98.614 E3.10083
G1 X78.659 Y98.624 E3.10535
G1 X78.358 Y98.729 E3.11477
G1 X81.494 Y95.593 E3.24580
G1 X81.266 Y95.389 E3.25484
G1 X81.165 Y95.325 E3.25837
G1 X77.968 Y98.522 E3.39198
G1 X77.879 Y98.434 E3.39566
G1 X77.701 Y98.192 E3.40456
G1 X80.802 Y95.091 E3.53413
G1 X80.670 Y95.006 E3.53878
G1 X80.530 Y94.765 E3.54699
G1 X77.503 Y97.792 E3.67348
G1 X77.399 Y97.438 E3.68439
G1 X77.390 Y97.308 E3.68824
G1 X80.313 Y94.385 E3.81038
G1 X80.241 Y94.315 E3.81336
G1 X79.945 Y94.157 E3.82329
G1 X77.638 Y96.464 E3.91968
G1 X77.555 Y95.950 E3.93507
G1 X79.454 Y94.051 E4.01441
G1 X79.149 Y94.064 E4.02343
G1 X78.920 Y94.115 E4.03036
G1 X78.792 Y94.168 E4.03446
G1 X78.665 Y94.245 E4.03884
G1 X78.253 Y94.655 E4.05601
M106 S255
G1 Z2.000 F7800.000
G1 X79.860 Y94.677 F7800.000
G1 F925.815
G1 X80.185 Y95.002 E4.06958
G1 X79.989 Y95.498 F7800.000
G1 F925.815
G1 X78.891 Y94.400 E4.11549
G1 X78.643 Y94.454 E4.12298
G1 X78.496 Y94.524 E4.12779
G1 X78.423 Y94.591 E4.13072
G1 X78.414 Y94.615 E4.13148
G1 X82.646 Y98.847 E4.30828
G1 X82.482 Y98.861 E4.31314
G1 X81.936 Y98.829 E4.32928
G1 X80.946 Y97.839 E4.37065
G1 X81.205 Y97.846 E4.37830
G1 X81.213 Y97.582 E4.38609
G1 X81.111 Y97.390 E4.39250
G1 X80.797 Y97.465 E4.40206
G1 X80.792 Y97.685 E4.40857
G1 X78.612 Y95.505 E4.49967
G1 X78.394 Y95.661 E4.50758
G1 X78.382 Y95.760 E4.51054
G1 X78.458 Y96.043 E4.51921
G1 X81.217 Y98.802 E4.63447
G1 X80.900 Y98.792 E4.64382
G1 X80.669 Y98.737 E4.65084
G1 X80.450 Y98.626 E4.65812
G1 X79.990 Y98.267 E4.67533
G1 X79.660 Y97.937 E4.68913
G1 X78.542 Y98.201 F7800.000
G1 F925.815
G1 X78.216 Y97.875 E4.70276
G1 X78.421 Y97.477 F7800.000
G1 F925.815
G1 X78.096 Y97.152 E4.71633
G1 E2.71633 F2400.00000
G92 E0
G1 X90.789 Y101.409 F7800.000
G1 E2.00000 F2400.00000
G1 F925.815
G1 X90.464 Y101.085 E2.01358
G1 X91.003 Y101.021 E2.02960
G1 X91.571 Y101.589 E2.05336
G1 X92.354 Y101.769 E2.07707
G1 X91.531 Y100.946 E2.11146
G1 X92.056 Y100.868 E2.12714
G1 X93.121 Y101.933 E2.17163
G1 X93.832 Y102.041 E2.19289
G1 X92.576 Y100.785 E2.24538
G1 X93.088 Y100.694 E2.26075
G1 X94.507 Y102.114 E2.32005
G1 X95.162 Y102.166 E2.33946
G1 X93.590 Y100.594 E2.40511
G1 X94.092 Y100.493 E2.42023
G1 X95.762 Y102.164 E2.49002
G1 X96.346 Y102.145 E2.50728
G1 X94.586 Y100.385 E2.58081
G1 X95.080 Y100.276 E2.59574
G1 X96.896 Y102.092 E2.67163
G1 X97.410 Y102.004 E2.68705
G1 X95.572 Y100.165 E2.76387
G1 X96.082 Y100.072 E2.77919
G1 X97.892 Y101.882 E2.85482
G1 X98.371 Y101.758 E2.86943
G1 X96.609 Y99.997 E2.94305
G1 X97.161 Y99.946 E2.95944
G1 X98.828 Y101.613 E3.02908
G1 X99.282 Y101.464 E3.04319
G1 X98.615 Y100.798 E3.07104
G1 X99.009 Y100.589 E3.08421
G1 X99.729 Y101.309 E3.11428
G1 X100.159 Y101.136 E3.12798
G1 X98.849 Y99.826 E3.18271
G1 X99.438 Y99.812 E3.20010
G1 X100.606 Y100.980 E3.24891
G1 X101.068 Y100.839 E3.26317
G1 X100.029 Y99.801 E3.30657
G1 X100.649 Y99.818 E3.32488
G1 X101.529 Y100.698 E3.36168
G1 X101.977 Y100.544 E3.37569
G1 X101.238 Y99.804 E3.40660
G1 X101.799 Y99.762 E3.42322
G1 X102.415 Y100.378 E3.44896
G1 X102.850 Y100.211 E3.46274
G1 X102.355 Y99.716 E3.48344
G1 X102.642 Y99.691 E3.49196
G1 X102.950 Y99.708 E3.50107
G1 X103.275 Y100.033 E3.51464
G1 E1.51464 F2400.00000
G92 E0
G1 X99.065 Y100.644 F7800.000
G1 E2.00000 F2400.00000
G1 F925.815
G1 X98.277 Y99.857 E2.03291
G1 X97.713 Y99.896 E2.04961
G1 X98.652 Y100.834 E2.08883
G1 X98.629 Y100.851 E2.08967
G1 X98.836 Y101.177 E2.10107
G1 X98.940 Y101.122 E2.10455
G1 Z2.500 F7800.000
G1 X97.636 Y101.038 F7800.000
G1 F600
G1 X97.961 Y100.713 E2.11813
G1 X97.241 Y100.772 E2.13947
G1 X96.765 Y101.247 E2.15933
G1 X96.301 Y101.332 E2.17328
G1 X96.010 Y101.342 E2.18189
G1 X96.484 Y100.868 E2.20172
G1 X96.176 Y100.915 E2.21093
G1 X95.650 Y101.042 E2.22693
G1 X95.325 Y101.367 E2.24051
G1 E0.24051 F2400.00000
G92 E0
G1 X80.758 Y97.964 F7800.000
G1 E2.00000 F2400.00000
G1 F600
G1 X81.083 Y97.639 E2.01358
G1 X81.013 Y97.503 E2.01809
G1 X80.844 Y97.278 E2.02641
G1 X80.344 Y97.778 E2.04730
G1 X80.146 Y97.617 E2.05485
G1 X80.033 Y97.489 E2.05989
G1 X80.579 Y96.943 E2.08271
G1 X80.381 Y96.737 E2.09116
G1 X80.262 Y96.660 E2.09534
G1 X79.751 Y97.171 E2.11668
G1 X79.719 Y97.135 E2.11810
G1 X79.536 Y96.786 E2.12974
G1 X79.861 Y96.461 E2.14332
G1 E0.14332 F2400.00000
G92 E0
M107
; Filament-specific end gcode 
;END gcode for filament

M104 S0 ; turn off temperature
G28 X0  ; home X axis
M84     ; disable motors

M140 S0 ; set bed temperature
; filament used = 69.5mm (0.5cm3)
; total filament cost = 0.0

; avoid_crossing_perimeters = 0
; bed_shape = 0x0,200x0,200x200,0x200
; bed_temperature = 0
; before_layer_gcode = 
; between_objects_gcode = 
; bridge_acceleration = 0
; bridge_fan_speed = 100
; brim_connections_width = 0
; brim_width = 0
; complete_objects = 0
; cooling = 1
; default_acceleration = 0
; disable_fan_first_layers = 3
; duplicate_distance = 6
; end_filament_gcode = "; Filament-specific end gcode \n;END gcode for filament\n"
; end_gcode = M104 S0 ; turn off temperature\nG28 X0  ; home X axis\nM84     ; disable motors\n
; extruder_clearance_height = 20
; extruder_clearance_radius = 20
; extruder_offset = 0x0
; extrusion_axis = E
; extrusion_multiplier = 1
; fan_always_on = 0
; fan_below_layer_time = 60
; filament_colour = #FFFFFF
; filament_cost = 0
; filament_density = 0
; filament_diameter = 3
; filament_max_volumetric_speed = 0
; filament_notes = ""
; first_layer_acceleration = 0
; first_layer_bed_temperature = 0
; first_layer_extrusion_width = 200%
; first_layer_speed = 30
; first_layer_temperature = 205
; gcode_arcs = 0
; gcode_comments = 0
; gcode_flavor = reprap
; has_heatbed = 1
; infill_acceleration = 0
; infill_first = 0
; interior_brim_width = 0
; layer_gcode = 
; max_fan_speed = 100
; max_layer_height = 0.3
; max_print_speed = 80
; max_volumetric_speed = 0
; min_fan_speed = 35
; min_layer_height = 0.15
; min_print_speed = 10
; min_skirt_length = 0
; notes = 
; nozzle_diameter = 0.5
; only_retract_when_crossing_perimeters = 1
; ooze_prevention = 0
; output_filename_format = [input_filename_base].gcode
; perimeter_acceleration = 0
; post_process = 
; pressure_advance = 0
; printer_notes = 
; resolution = 0
; retract_before_travel = 2
; retract_layer_change = 0
; retract_length = 2
; retract_length_toolchange = 10
; retract_lift = 0
; retract_lift_above = 0
; retract_lift_below = 0
; retract_restart_extra = 0
; retract_restart_extra_toolchange = 0
; retract_speed = 40
; skirt_distance = 6
; skirt_height = 1
; skirts = 0
; slowdown_below_layer_time = 5
; spiral_vase = 0
; standby_temperature_delta = -5
; start_filament_gcode = "; Filament gcode\n"
; start_gcode = G28 ; home all axes\nG1 Z5 F5000 ; lift nozzle\n
; temperature = 200
; threads = 8
; toolchange_gcode = 
; travel_speed = 130
; use_firmware_retraction = 0
; use_relative_e_distances = 0
; use_set_and_wait_bed = 0
; use_set_and_wait_extruder = 0
; use_volumetric_e = 0
; vibration_limit = 0
; wipe = 0
; z_offset = 0
; z_steps_per_mm = 0
; adaptive_slicing = 0
; adaptive_slicing_quality = 75%
; dont_support_bridges = 1
; extrusion_width = 0
; first_layer_height = 0.5
; infill_only_where_needed = 0
; interface_shells = 0
; layer_height = 0.5
; match_horizontal_surfaces = 0
; raft_layers = 0
; regions_overlap = 0
; seam_position = aligned
; sequential_print_priority = 0
; support_material = 0
; support_material_angle = 0
; support_material_buildplate_only = 0
; support_material_contact_distance = 0.2
; support_material_enforce_layers = 0
; support_material_extruder = 1
; support_material_extrusion_width = 0
; support_material_interface_extruder = 1
; support_material_interface_extrusion_width = 0
; support_material_interface_layers = 3
; support_material_interface_spacing = 0
; support_material_interface_speed = 100%
; support_material_max_layers = 0
; support_material_pattern = pillars
; support_material_spacing = 2.5
; support_material_speed = 60
; support_material_threshold = 60%
; xy_size_compensation = 0
; bottom_infill_pattern = rectilinear
; bottom_solid_layers = 0
; bridge_flow_ratio = 1
; bridge_speed = 60
; external_perimeter_extrusion_width = 0
; external_perimeter_speed = 50%
; external_perimeters_first = 0
; extra_perimeters = 1
; fill_angle = 45
; fill_density = 100%
; fill_gaps = 1
; fill_pattern = rectilinear
; gap_fill_speed = 20
; infill_every_layers = 1
; infill_extruder = 1
; infill_extrusion_width = 0
; infill_overlap = 55%
; infill_speed = 80
; overhangs = 1
; perimeter_extruder = 1
; perimeter_extrusion_width = 0
; perimeter_speed = 60
; perimeters = 0
; small_perimeter_speed = 15
; solid_infill_below_area = 70
; solid_infill_every_layers = 0
; solid_infill_extruder = 1
; solid_infill_extrusion_width = 0
; solid_infill_speed = 20
; thin_walls = 1
; top_infill_extrusion_width = 0
; top_infill_pattern = rectilinear
; top_solid_infill_speed = 15
; top_solid_layers = 0
