; generated by Slic3r 1.3.0 on 2020-03-10 at 16:02:29

; external perimeters extrusion width = 0.55mm (4.37mm^3/s)
; perimeters extrusion width = 0.70mm (11.44mm^3/s)
; infill extrusion width = 0.63mm (13.45mm^3/s)
; solid infill extrusion width = 0.70mm (3.81mm^3/s)
; top infill extrusion width = 0.70mm (2.86mm^3/s)

M107
M104 S205 ; set temperature
G28 ; home all axes
G1 Z5 F5000 ; lift nozzle

; Filament gcode

M109 S205 ; set temperature and wait for it to be reached
G21 ; set units to millimeters
G90 ; use absolute coordinates
M82 ; use absolute distances for extrusion
G92 E0
G1 Z0.300 F7800.000
G1 E-2.00000 F2400.00000
G92 E0
G1 X82.184 Y93.150 F7800.000
G1 E2.00000 F2400.00000
G1 F1800
G1 X80.533 Y94.801 E2.05307
G1 X80.444 Y95.040 E2.05887
G1 X80.444 Y95.164 E2.06169
G1 X80.420 Y95.195 E2.06258
G1 X80.389 Y95.341 E2.06598
G1 X80.389 Y95.463 E2.06875
G1 X80.362 Y95.535 E2.07050
G1 X80.366 Y95.849 E2.07762
G1 X83.236 Y92.979 E2.16987
G1 X83.404 Y92.980 E2.17370
G1 X83.430 Y93.013 E2.17466
G1 X83.599 Y93.015 E2.17849
G1 X83.625 Y93.049 E2.17946
G1 X83.738 Y93.050 E2.18202
G1 X83.759 Y93.077 E2.18279
G1 X83.875 Y93.084 E2.18545
G1 X83.896 Y93.110 E2.18621
G1 X83.979 Y93.117 E2.18811
G1 X80.473 Y96.623 E2.30082
G1 X80.500 Y96.671 E2.30207
G1 X80.501 Y96.778 E2.30452
G1 X80.525 Y96.809 E2.30542
G1 X80.529 Y96.894 E2.30734
G1 X80.614 Y97.226 E2.31514
G1 X80.658 Y97.319 E2.31747
G1 X84.583 Y93.393 E2.44367
G1 X84.627 Y93.399 E2.44468
G1 X84.790 Y93.502 E2.44906
G1 X84.944 Y93.657 E2.45402
G1 X84.995 Y93.657 E2.45517
G1 X85.114 Y93.744 E2.45853
G1 X80.871 Y97.986 E2.59491
G1 X80.921 Y98.057 E2.59686
G1 X80.991 Y98.256 E2.60166
G1 X81.033 Y98.315 E2.60331
G1 X81.045 Y98.393 E2.60511
G1 X81.146 Y98.593 E2.61019
G1 X85.565 Y94.173 E2.75227
G1 X85.939 Y94.680 E2.76659
G1 X81.459 Y99.161 E2.91062
G1 X81.573 Y99.313 E2.91496
G1 X81.603 Y99.385 E2.91673
G1 X81.829 Y99.672 E2.92502
G1 X86.277 Y95.223 E3.06805
G1 X86.598 Y95.783 E3.08272
G1 X82.232 Y100.150 E3.22310
G1 X82.385 Y100.310 E3.22815
G1 X82.408 Y100.310 E3.22867
G1 X82.467 Y100.382 E3.23078
G1 X82.496 Y100.382 E3.23142
G1 X82.617 Y100.534 E3.23586
G1 X82.681 Y100.581 E3.23767
G1 X86.912 Y96.350 E3.37368
G1 X87.223 Y96.920 E3.38844
G1 X83.230 Y100.914 E3.51684
G1 X83.274 Y100.951 E3.51816
G1 X83.393 Y100.953 E3.52086
G1 X83.466 Y101.021 E3.52312
G1 X83.616 Y101.024 E3.52655
G1 X83.643 Y101.058 E3.52754
G1 X83.787 Y101.063 E3.53081
G1 X83.809 Y101.091 E3.53163
G1 X83.933 Y101.092 E3.53443
G1 X87.558 Y97.466 E3.65097
G1 X87.937 Y97.968 E3.66527
G1 X84.779 Y101.126 E3.76678
G1 X85.021 Y101.127 E3.77227
G1 X85.079 Y101.160 E3.77379
G1 X85.570 Y101.163 E3.78496
G1 X85.593 Y101.193 E3.78581
G1 X88.418 Y98.369 E3.87661
G1 X88.432 Y98.388 E3.87716
G1 X88.532 Y98.405 E3.87944
G1 X88.664 Y98.505 E3.88322
G1 X88.755 Y98.515 E3.88529
G1 X88.784 Y98.552 E3.88637
G1 X88.870 Y98.555 E3.88833
G1 X88.893 Y98.585 E3.88919
G1 X89.059 Y98.608 E3.89299
G1 X86.352 Y101.315 E3.98002
G1 X86.393 Y101.339 E3.98111
G1 X86.577 Y101.344 E3.98530
G1 X86.602 Y101.376 E3.98621
G1 X86.717 Y101.379 E3.98881
G1 X86.742 Y101.411 E3.98973
G1 X86.841 Y101.446 E3.99211
G1 X87.055 Y101.493 E3.99711
G1 X89.743 Y98.805 E4.08352
G1 X89.820 Y98.807 E4.08526
G1 X89.839 Y98.832 E4.08599
G1 X90.120 Y98.844 E4.09237
G1 X90.156 Y98.877 E4.09347
G1 X90.554 Y98.875 E4.10253
G1 X87.648 Y101.781 E4.19595
G1 E2.19595 F2400.00000
G92 E0
G1 X91.381 Y105.095 F7800.000
G1 E2.00000 F2400.00000
G1 F1800
G1 X91.422 Y105.097 E2.00093
G1 X91.507 Y105.202 E2.00401
G1 X91.535 Y105.202 E2.00464
G1 X91.809 Y105.548 E2.01468
G1 X92.983 Y104.374 E2.05241
G1 X93.227 Y104.807 E2.06369
G1 X93.246 Y104.893 E2.06570
G1 X93.302 Y104.936 E2.06732
G1 X92.147 Y106.091 E2.10443
G1 X92.319 Y106.443 E2.11334
G1 X92.460 Y106.659 E2.11920
G1 X93.633 Y105.486 E2.15692
G1 X93.690 Y105.522 E2.15845
G1 X93.759 Y105.664 E2.16204
G1 X93.775 Y105.763 E2.16432
G1 X93.821 Y105.857 E2.16670
G1 X93.892 Y106.108 E2.17263
G1 X92.820 Y107.180 E2.20709
G1 X93.167 Y107.714 E2.22156
G1 X94.145 Y106.736 E2.25300
G1 X94.281 Y107.062 E2.26102
G1 X94.430 Y107.332 E2.26803
G1 X93.367 Y108.395 E2.30220
G1 X93.295 Y108.568 E2.30648
G1 X93.143 Y108.763 E2.31208
G1 X93.023 Y108.875 E2.31583
G1 X93.405 Y108.861 E2.32454
G1 X93.460 Y108.928 E2.32650
G1 X93.488 Y108.928 E2.32715
G1 X93.588 Y109.055 E2.33081
G1 X94.895 Y107.748 E2.37282
G1 X95.017 Y107.748 E2.37560
G1 X95.150 Y107.672 E2.37908
G1 X95.274 Y107.552 E2.38300
G1 X95.424 Y107.363 E2.38848
G1 X95.447 Y107.363 E2.38901
G1 X95.604 Y107.168 E2.39471
G1 X95.698 Y107.106 E2.39726
G1 X95.697 Y107.232 E2.40011
G1 X95.656 Y107.333 E2.40259
G1 X95.599 Y107.405 E2.40468
G1 X95.576 Y107.405 E2.40522
G1 X95.477 Y107.525 E2.40874
G1 X95.317 Y107.625 E2.41303
G1 X95.235 Y107.637 E2.41491
G1 X95.150 Y107.684 E2.41713
G1 X95.026 Y107.775 E2.42062
G1 X94.934 Y107.859 E2.42345
G1 X94.823 Y108.001 E2.42757
G1 X94.746 Y108.175 E2.43188
G1 X94.745 Y108.443 E2.43797
G1 X94.752 Y108.534 E2.44004
G1 X94.832 Y108.691 E2.44407
G1 X94.204 Y109.320 E2.46428
G1 X93.926 Y110.478 F7800.000
G1 F1800
G1 X93.855 Y110.619 E2.46787
G1 X93.854 Y110.806 E2.47211
G1 X93.903 Y110.892 E2.47438
G1 X93.981 Y110.911 E2.47621
G1 X93.990 Y110.438 E2.48695
G1 X94.013 Y110.392 E2.48813
G1 X93.500 Y110.905 E2.50461
G1 X95.260 Y110.025 F7800.000
G1 F1800
G1 X95.907 Y109.378 E2.52541
G1 X96.005 Y109.592 E2.53076
G1 X96.032 Y109.732 E2.53400
G1 X96.032 Y109.824 E2.53609
G1 X96.005 Y109.929 E2.53855
G1 X95.953 Y110.012 E2.54077
G1 X95.824 Y109.866 E2.54519
G1 X95.817 Y109.823 E2.54619
G1 X95.686 Y109.599 E2.55208
G1 E0.55208 F2400.00000
G92 E0
G1 X103.466 Y108.867 F7800.000
G1 E2.00000 F2400.00000
G1 F1800
G1 X104.263 Y108.070 E2.02561
G1 X104.263 Y108.315 E2.03118
G1 X104.237 Y108.420 E2.03363
G1 X104.209 Y108.456 E2.03467
G1 X104.209 Y108.544 E2.03668
G1 X104.069 Y108.831 E2.04394
G1 X103.914 Y108.973 E2.04871
G1 X103.838 Y108.798 E2.05305
G1 X103.838 Y108.687 E2.05557
G1 X103.862 Y108.657 E2.05645
G1 X103.865 Y108.538 E2.05915
G1 X103.891 Y108.498 E2.06021
G1 X103.892 Y108.441 E2.06153
G1 X105.516 Y107.698 F7800.000
G1 F1800
G1 X105.463 Y107.638 E2.06334
G1 X105.413 Y107.638 E2.06450
G1 X105.385 Y107.602 E2.06552
G1 X105.302 Y107.567 E2.06757
G1 X105.246 Y107.497 E2.06961
G1 X105.218 Y107.497 E2.07024
G1 X105.076 Y107.316 E2.07547
G1 X105.142 Y107.430 E2.07847
G1 X105.142 Y107.464 E2.07925
G1 X105.335 Y107.714 E2.08643
G1 X105.335 Y107.748 E2.08720
G1 X105.393 Y107.821 E2.08932
G1 X105.942 Y107.272 E2.10698
G1 X106.034 Y107.318 E2.10933
G1 X106.062 Y107.353 E2.11036
G1 X106.090 Y107.353 E2.11099
G1 X106.118 Y107.389 E2.11202
G1 X106.146 Y107.389 E2.11265
G1 X106.174 Y107.425 E2.11368
G1 X106.226 Y107.425 E2.11486
G1 X106.288 Y107.463 E2.11651
G1 X106.341 Y107.532 E2.11850
G1 X106.426 Y107.568 E2.12059
G1 X106.471 Y107.624 E2.12222
G1 X105.749 Y108.346 E2.14542
G1 X104.650 Y106.802 F7800.000
G1 F1800
G1 X105.118 Y106.334 E2.16047
G1 X105.180 Y106.447 E2.16339
G1 X105.077 Y106.376 E2.16624
G1 X106.663 Y106.551 F7800.000
G1 F1800
G1 X107.323 Y105.891 E2.18746
G1 X107.322 Y105.727 E2.19120
G1 X107.289 Y105.656 E2.19298
G1 X107.161 Y105.643 E2.19590
G1 X107.141 Y105.623 E2.19654
G1 X107.117 Y105.623 E2.19709
G1 X107.093 Y105.654 E2.19796
G1 X106.678 Y105.655 E2.20741
G1 X106.000 Y106.333 E2.22920
G1 X105.896 Y106.256 E2.23213
G1 X105.750 Y106.212 E2.23561
G1 X105.716 Y106.169 E2.23683
G1 X105.660 Y106.168 E2.23812
G1 X105.644 Y106.148 E2.23869
G1 X105.583 Y106.141 E2.24009
G1 X105.558 Y106.109 E2.24102
G1 X105.440 Y106.099 E2.24372
G1 X105.418 Y106.071 E2.24452
G1 X105.383 Y106.069 E2.24531
G1 X105.838 Y105.614 E2.25993
G1 X105.808 Y105.586 E2.26088
G1 X105.636 Y105.580 E2.26478
G1 X105.536 Y105.510 E2.26757
G1 X105.430 Y105.495 E2.26999
G1 X105.400 Y105.457 E2.27109
G1 X105.313 Y105.413 E2.27331
G1 X105.245 Y105.326 E2.27583
G1 X103.836 Y106.735 E2.32114
G1 X103.769 Y106.566 E2.32528
G1 X103.611 Y106.365 E2.33109
G1 X103.465 Y106.225 E2.33569
G1 X105.118 Y104.572 E2.38883
G1 X105.079 Y104.579 E2.38974
G1 X105.046 Y104.611 E2.39079
G1 X104.957 Y104.622 E2.39282
G1 X104.929 Y104.649 E2.39371
G1 X104.819 Y104.661 E2.39623
G1 X104.727 Y104.724 E2.39877
G1 X104.297 Y104.732 E2.40854
G1 X104.233 Y104.697 E2.41019
G1 X104.118 Y104.691 E2.41282
G1 X102.824 Y105.986 E2.45442
G1 X102.734 Y105.983 E2.45645
G1 X102.704 Y105.955 E2.45739
G1 X102.340 Y105.954 E2.46565
G1 X102.309 Y105.982 E2.46660
G1 X102.088 Y105.989 E2.47162
G1 X102.053 Y106.021 E2.47270
G1 X101.944 Y106.027 E2.47518
G1 X101.908 Y106.061 E2.47631
G1 X101.862 Y106.066 E2.47736
G1 X103.504 Y104.424 E2.53016
G1 X103.427 Y104.326 E2.53301
G1 X103.314 Y104.229 E2.53637
G1 X103.314 Y103.988 E2.54185
G1 X103.547 Y103.501 E2.55414
G1 X100.760 Y106.287 E2.64372
G1 X100.721 Y106.256 E2.64485
G1 X100.639 Y106.242 E2.64675
G1 X100.506 Y106.141 E2.65055
G1 X100.343 Y105.969 E2.65594
G1 X100.309 Y105.858 E2.65857
G1 X103.926 Y102.241 E2.77487
G1 E0.77487 F2400.00000
G92 E0
G1 X101.509 Y97.610 F7800.000
G1 E2.00000 F2400.00000
G1 F1800
G1 X103.463 Y95.657 E2.06279
G1 X103.405 Y95.652 E2.06411
G1 X103.325 Y95.569 E2.06671
G1 X103.031 Y95.491 E2.07362
G1 X103.008 Y95.470 E2.07433
G1 X102.907 Y95.470 E2.07664
G1 X102.819 Y95.419 E2.07895
G1 X101.161 Y97.077 E2.13223
G1 X100.951 Y96.948 E2.13783
G1 X100.854 Y96.829 E2.14133
G1 X100.791 Y96.829 E2.14276
G1 X100.630 Y96.727 E2.14709
G1 X102.304 Y95.054 E2.20088
G1 E0.20088 F2400.00000
G92 E0
G1 X104.305 Y94.814 F7800.000
G1 E2.00000 F2400.00000
G1 F1800
G1 X105.064 Y94.055 E2.02442
G1 X104.992 Y93.965 E2.02705
G1 X104.933 Y93.924 E2.02868
G1 X104.660 Y93.578 E2.03869
G1 X104.035 Y94.203 E2.05877
G1 X103.815 Y93.922 E2.06688
G1 X103.788 Y93.922 E2.06750
G1 X103.761 Y93.888 E2.06847
G1 X103.705 Y93.888 E2.06975
G1 X103.601 Y93.756 E2.07356
G1 X104.272 Y93.085 E2.09512
G1 X104.148 Y92.924 E2.09973
G1 X103.928 Y92.548 E2.10964
G1 X100.110 Y96.366 E2.23237
G1 X99.922 Y96.206 E2.23799
G1 X99.672 Y95.923 E2.24657
G1 X103.789 Y91.806 E2.37893
G1 X103.791 Y91.762 E2.37992
G1 X103.895 Y91.528 E2.38575
G1 X104.037 Y91.359 E2.39077
G1 X104.060 Y91.282 E2.39260
G1 X104.137 Y91.256 E2.39445
G1 X104.365 Y91.036 E2.40164
G1 X104.422 Y91.036 E2.40295
G1 X104.552 Y90.931 E2.40676
G1 X104.811 Y90.681 E2.41493
G1 X104.849 Y90.681 E2.41578
G1 X104.871 Y90.607 E2.41755
G1 X104.944 Y90.582 E2.41929
G1 X105.029 Y90.474 E2.42243
G1 X105.048 Y90.474 E2.42286
G1 X105.142 Y90.328 E2.42679
G1 X105.231 Y90.035 E2.43376
G1 X105.211 Y89.999 E2.43469
G1 X105.206 Y89.885 E2.43729
G1 X105.109 Y89.606 E2.44401
G1 X104.396 Y90.318 E2.46692
G1 X104.500 Y90.039 E2.47368
G1 X104.510 Y89.784 E2.47949
G1 X104.532 Y89.776 E2.48003
G1 X104.633 Y89.907 E2.48379
G1 X104.682 Y90.032 E2.48685
G1 E0.48685 F2400.00000
G92 E0
G1 X102.352 Y89.719 F7800.000
G1 E2.00000 F2400.00000
G1 F1800
G1 X102.349 Y89.641 E2.00179
G1 X102.310 Y89.586 E2.00333
G1 X102.241 Y89.545 E2.00515
G1 X102.143 Y89.545 E2.00738
G1 X102.104 Y89.507 E2.00861
G1 X102.024 Y89.489 E2.01047
G1 X102.058 Y90.013 E2.02241
G1 X102.779 Y89.293 E2.04558
G1 X102.803 Y89.334 E2.04666
G1 X102.829 Y89.484 E2.05014
G1 X102.862 Y90.029 E2.06253
G1 X102.882 Y90.071 E2.06359
G1 X102.202 Y90.751 E2.08545
G1 X102.238 Y90.872 E2.08833
G1 X102.248 Y91.027 E2.09186
G1 X102.329 Y91.261 E2.09748
G1 X102.355 Y91.478 E2.10246
G1 X103.027 Y90.806 E2.12407
G1 X103.058 Y90.865 E2.12558
G1 X103.058 Y90.968 E2.12791
G1 X103.092 Y91.014 E2.12922
G1 X103.200 Y91.514 E2.14084
G1 X102.358 Y92.356 E2.16792
G1 X102.358 Y92.427 E2.16952
G1 X102.208 Y92.626 E2.17519
G1 X102.082 Y92.753 E2.17926
G1 X101.897 Y92.919 E2.18491
G1 X101.868 Y92.919 E2.18557
G1 X101.636 Y93.078 E2.19195
G1 X99.338 Y95.377 E2.26585
G1 E0.26585 F2400.00000
G92 E0
G1 X101.514 Y92.320 F7800.000
G1 E2.00000 F2400.00000
G1 F1800
G1 X102.161 Y91.673 E2.02080
G1 X102.001 Y91.659 E2.02444
G1 X101.972 Y91.622 E2.02551
G1 X101.815 Y91.523 E2.02973
G1 X101.650 Y91.302 E2.03599
G1 X100.885 Y92.068 E2.06061
G1 X100.818 Y91.923 E2.06423
G1 X100.817 Y91.812 E2.06677
G1 X100.973 Y91.736 E2.07071
G1 X101.079 Y91.714 E2.07319
G1 X101.224 Y91.729 E2.07649
G1 E0.07649 F2400.00000
G92 E0
G1 X93.101 Y91.042 F7800.000
G1 E2.00000 F2400.00000
G1 F1800
G1 X93.127 Y91.167 E2.00290
G1 X93.132 Y91.670 E2.01433
G1 X93.205 Y91.342 E2.02197
G1 X93.261 Y90.882 E2.03251
G1 X92.675 Y91.469 E2.05137
G1 X91.712 Y91.550 F7800.000
G1 F1800
G1 X90.990 Y92.272 E2.07457
G1 X91.035 Y92.390 E2.07744
G1 X91.109 Y92.491 E2.08029
G1 X91.171 Y92.627 E2.08368
G1 X91.326 Y92.817 E2.08926
G1 X91.946 Y92.197 E2.10919
G1 X92.022 Y92.343 E2.11293
G1 X92.206 Y92.578 E2.11970
G1 X92.343 Y92.681 E2.12362
G1 X92.086 Y92.938 E2.13189
G1 X92.174 Y93.152 E2.13715
G1 X92.175 Y93.519 E2.14549
G1 X91.987 Y93.775 E2.15272
G1 X91.837 Y93.893 E2.15705
G1 X91.764 Y93.905 E2.15873
G1 X91.693 Y93.946 E2.16059
G1 X91.410 Y93.950 E2.16703
G1 X91.379 Y93.978 E2.16799
G1 X91.109 Y93.982 E2.17411
G1 X91.043 Y94.014 E2.17579
G1 X91.005 Y94.063 E2.17720
G1 X90.955 Y94.069 E2.17833
G1 X90.345 Y94.679 E2.19794
G1 X90.418 Y94.774 E2.20066
G1 X90.447 Y94.774 E2.20133
G1 X90.515 Y94.857 E2.20376
G1 X90.692 Y94.950 E2.20832
G1 X90.829 Y94.963 E2.21144
G1 X90.960 Y94.846 E2.21545
G1 X91.176 Y94.698 E2.22138
G1 X91.207 Y94.698 E2.22210
G1 X93.201 Y92.704 E2.28620
G1 X93.298 Y92.820 E2.28964
G1 X93.469 Y92.845 E2.29358
G1 X93.673 Y92.846 E2.29822
G1 X93.936 Y92.684 E2.30524
G1 X94.232 Y92.352 E2.31534
G1 X94.463 Y92.323 E2.32064
G1 X91.813 Y94.974 E2.40586
G1 X91.926 Y95.119 E2.41005
G1 X92.002 Y95.266 E2.41383
G1 X92.002 Y95.343 E2.41556
G1 X92.031 Y95.430 E2.41764
G1 X92.031 Y95.636 E2.42234
G1 X93.410 Y94.257 E2.46669
G1 X93.459 Y94.361 E2.46932
G1 X93.466 Y94.458 E2.47152
G1 X93.517 Y94.590 E2.47475
G1 X93.526 Y94.682 E2.47685
G1 X93.600 Y94.940 E2.48296
G1 X91.303 Y97.245 E2.55693
G1 X91.273 Y97.371 E2.55987
G1 X91.166 Y97.628 E2.56619
G1 X91.162 Y97.689 E2.56759
G1 X91.026 Y98.019 E2.57569
G1 X91.022 Y98.079 E2.57707
G1 X90.846 Y98.543 E2.58836
G1 X90.786 Y98.643 E2.59101
G1 X93.473 Y95.956 E2.67740
G1 X93.225 Y96.620 E2.69351
G1 X92.814 Y97.496 E2.71550
G1 X88.158 Y102.152 E2.86517
G1 X88.168 Y102.165 E2.86555
G1 X88.262 Y102.226 E2.86809
G1 X88.299 Y102.226 E2.86894
G1 X88.394 Y102.344 E2.87239
G1 X88.468 Y102.404 E2.87455
G1 X88.516 Y102.404 E2.87563
G1 X88.649 Y102.542 E2.87999
G1 X92.488 Y98.703 E3.00340
G1 X93.110 Y98.699 E3.01754
G1 X93.147 Y98.665 E3.01868
G1 X93.341 Y98.657 E3.02312
G1 X93.363 Y98.629 E3.02391
G1 X93.445 Y98.626 E3.02578
G1 X89.165 Y102.906 E3.16338
G1 X89.226 Y102.944 E3.16500
G1 X89.321 Y102.955 E3.16717
G1 X89.390 Y103.014 E3.16924
G1 X89.485 Y103.022 E3.17141
G1 X89.509 Y103.052 E3.17228
G1 X89.569 Y103.057 E3.17365
G1 X89.591 Y103.085 E3.17447
G1 X89.680 Y103.093 E3.17650
G1 X89.704 Y103.123 E3.17738
G1 X89.801 Y103.151 E3.17968
G1 X94.581 Y98.372 E3.33333
G1 X94.784 Y98.305 E3.33819
G1 X94.933 Y98.295 E3.34160
G1 X94.953 Y98.270 E3.34231
G1 X95.064 Y98.270 E3.34485
G1 X95.093 Y98.234 E3.34589
G1 X95.246 Y98.197 E3.34947
G1 X95.303 Y98.164 E3.35098
G1 X95.385 Y98.162 E3.35284
G1 X95.441 Y98.129 E3.35432
G1 X95.491 Y98.128 E3.35546
G1 X95.702 Y98.054 E3.36054
G1 X95.786 Y98.047 E3.36245
G1 X90.267 Y103.566 E3.53987
G1 X90.421 Y103.931 E3.54886
G1 X90.468 Y103.991 E3.55060
G1 X90.504 Y104.107 E3.55336
G1 X90.547 Y104.167 E3.55504
G1 X96.983 Y97.732 E3.76192
G1 X97.057 Y97.702 E3.76374
G1 X97.274 Y97.694 E3.76867
G1 X97.295 Y97.667 E3.76947
G1 X97.420 Y97.665 E3.77232
G1 X97.478 Y97.632 E3.77382
G1 X97.744 Y97.629 E3.77986
G1 X97.769 Y97.596 E3.78082
G1 X97.950 Y97.594 E3.78492
G1 X98.035 Y97.560 E3.78700
G1 X90.902 Y104.693 E4.01631
G1 X90.951 Y104.709 E4.01749
G1 X91.044 Y104.828 E4.02091
G1 X91.247 Y104.956 E4.02637
G1 X91.381 Y105.095 E4.03076
G1 X92.210 Y104.266 E4.05743
G1 X92.087 Y104.109 E4.06197
G1 X92.369 Y104.107 E4.06838
G1 X98.987 Y97.489 E4.28115
G1 X99.306 Y97.487 E4.28839
G1 X99.331 Y97.455 E4.28932
G1 X99.903 Y97.454 E4.30233
G1 X93.172 Y104.185 E4.51872
G1 X93.479 Y104.282 E4.52604
G1 X93.563 Y104.286 E4.52794
G1 X93.620 Y104.319 E4.52943
G1 X93.703 Y104.322 E4.53132
G1 X93.760 Y104.355 E4.53282
G1 X93.878 Y104.360 E4.53551
G1 X100.784 Y97.454 E4.75753
G1 X101.543 Y97.450 E4.77478
G1 X101.565 Y97.422 E4.77560
G1 X101.713 Y97.406 E4.77898
G1 X94.617 Y104.502 E5.00711
G1 X94.693 Y104.503 E5.00884
G1 X94.720 Y104.537 E5.00982
G1 X94.847 Y104.538 E5.01272
G1 X94.931 Y104.572 E5.01479
G1 X95.278 Y104.574 E5.02267
G1 X95.305 Y104.608 E5.02367
G1 X95.392 Y104.608 E5.02563
G1 X103.970 Y96.030 E5.30141
G1 X104.091 Y96.164 E5.30550
G1 X104.128 Y96.364 E5.31013
G1 X104.118 Y96.541 E5.31416
G1 X104.095 Y96.580 E5.31519
G1 X104.051 Y96.793 E5.32013
G1 X104.008 Y96.873 E5.32221
G1 X96.237 Y104.644 E5.57202
G1 X96.372 Y104.644 E5.57508
G1 X96.399 Y104.609 E5.57608
G1 X96.857 Y104.608 E5.58648
G1 X96.941 Y104.574 E5.58855
G1 X97.069 Y104.573 E5.59147
G1 X97.096 Y104.539 E5.59246
G1 X97.223 Y104.538 E5.59535
G1 X104.279 Y97.483 E5.82217
G1 X104.405 Y97.495 E5.82505
G1 X104.500 Y97.528 E5.82734
G1 X104.519 Y97.551 E5.82803
G1 X104.633 Y97.560 E5.83063
G1 X104.653 Y97.586 E5.83136
G1 X104.773 Y97.595 E5.83409
G1 X104.988 Y97.655 E5.83916
G1 X98.420 Y104.223 E6.05031
G1 X98.462 Y104.221 E6.05127
G1 X98.493 Y104.182 E6.05240
G1 X98.581 Y104.182 E6.05440
G1 X98.699 Y104.147 E6.05721
G1 X98.808 Y104.101 E6.05990
G1 X98.854 Y104.042 E6.06160
G1 X98.938 Y104.041 E6.06351
G1 X98.966 Y104.006 E6.06453
G1 X99.022 Y104.006 E6.06581
G1 X99.045 Y103.977 E6.06663
G1 X99.341 Y103.898 E6.07362
G1 X99.533 Y103.817 E6.07835
G1 X99.580 Y103.758 E6.08006
G1 X99.636 Y103.757 E6.08133
G1 X99.664 Y103.720 E6.08239
G1 X99.713 Y103.720 E6.08351
G1 X99.793 Y103.663 E6.08575
G1 X99.853 Y103.658 E6.08710
G1 X99.896 Y103.628 E6.08830
G1 X105.682 Y97.841 E6.27432
G1 X105.780 Y97.847 E6.27655
G1 X105.805 Y97.877 E6.27744
G1 X105.976 Y97.882 E6.28133
G1 X105.996 Y97.907 E6.28206
G1 X106.187 Y97.918 E6.28642
G1 X106.244 Y97.951 E6.28792
G1 X106.310 Y97.953 E6.28941
G1 X106.330 Y97.978 E6.29015
G1 X106.421 Y97.984 E6.29222
G1 X101.402 Y103.002 E6.45355
G1 X101.793 Y103.013 E6.46245
G1 X101.793 Y103.453 E6.47245
G1 X101.735 Y103.550 E6.47503
G1 X107.124 Y98.162 E6.64827
G1 X107.202 Y98.165 E6.65004
G1 X107.218 Y98.186 E6.65062
G1 X107.309 Y98.195 E6.65272
G1 X107.331 Y98.223 E6.65351
G1 X107.450 Y98.234 E6.65625
G1 X107.469 Y98.257 E6.65692
G1 X107.606 Y98.271 E6.66005
G1 X107.745 Y98.330 E6.66349
G1 X107.827 Y98.339 E6.66536
G1 X105.994 Y100.172 E6.72429
G1 X106.032 Y100.144 E6.72537
G1 X106.100 Y100.136 E6.72692
G1 X106.123 Y100.107 E6.72775
G1 X106.264 Y100.094 E6.73099
G1 X106.295 Y100.066 E6.73194
G1 X106.520 Y100.054 E6.73705
G1 X106.580 Y100.021 E6.73861
G1 X107.028 Y100.020 E6.74880
G1 X108.501 Y98.547 E6.79615
G1 X108.701 Y98.595 E6.80083
G1 X108.723 Y98.616 E6.80152
G1 X108.835 Y98.629 E6.80409
G1 X108.895 Y98.662 E6.80565
G1 X108.952 Y98.666 E6.80695
G1 X108.980 Y98.691 E6.80781
G1 X109.197 Y98.731 E6.81283
G1 X107.775 Y100.153 E6.85855
G1 X107.928 Y100.170 E6.86204
G1 X107.963 Y100.204 E6.86315
G1 X108.075 Y100.217 E6.86573
G1 X108.131 Y100.271 E6.86749
G1 X108.244 Y100.284 E6.87006
G1 X108.269 Y100.308 E6.87084
G1 X108.448 Y100.361 E6.87509
G1 X110.036 Y98.773 E6.92615
G1 X110.136 Y98.742 E6.92852
G1 X110.422 Y98.728 E6.93503
G1 X110.442 Y98.702 E6.93577
G1 X110.556 Y98.696 E6.93837
G1 X110.589 Y98.665 E6.93940
G1 X110.702 Y98.655 E6.94198
G1 X110.807 Y98.600 E6.94467
G1 X110.943 Y98.569 E6.94785
G1 X111.104 Y98.483 E6.95199
G1 X111.190 Y98.470 E6.95397
G1 X111.268 Y98.422 E6.95606
G1 X109.137 Y100.553 E7.02456
G1 X109.392 Y100.586 E7.03041
G1 X109.434 Y100.585 E7.03135
G1 X109.461 Y100.557 E7.03224
G1 X109.674 Y100.549 E7.03706
G1 X110.026 Y100.429 E7.04552
G1 X110.052 Y100.396 E7.04648
G1 X110.156 Y100.380 E7.04887
G1 X110.245 Y100.326 E7.05125
G1 X113.414 Y97.157 E7.15312
G1 X113.457 Y97.149 E7.15411
G1 X113.508 Y97.095 E7.15581
G1 X113.593 Y97.081 E7.15776
G1 X113.758 Y96.989 E7.16205
G1 X113.860 Y96.974 E7.16440
G1 X113.925 Y96.917 E7.16636
G1 X114.027 Y96.904 E7.16870
G1 X114.086 Y96.850 E7.17051
G1 X114.221 Y96.835 E7.17359
G1 X114.304 Y96.782 E7.17584
G1 X114.468 Y96.767 E7.17958
G1 X114.582 Y96.711 E7.18247
G1 X114.751 Y96.701 E7.18633
G1 X112.942 Y98.510 E7.24448
G1 X113.008 Y98.501 E7.24600
G1 X113.277 Y98.379 E7.25271
G1 X113.412 Y98.349 E7.25584
G1 X113.523 Y98.289 E7.25872
G1 X113.610 Y98.284 E7.26071
G1 X113.636 Y98.252 E7.26164
G1 X113.801 Y98.245 E7.26540
G1 X113.857 Y98.214 E7.26686
G1 X113.966 Y98.210 E7.26934
G1 X113.997 Y98.179 E7.27033
G1 X114.157 Y98.176 E7.27397
G1 X115.729 Y96.604 E7.32450
G1 X115.829 Y96.604 E7.32677
G1 X115.845 Y96.625 E7.32736
G1 X115.973 Y96.634 E7.33028
G1 X116.037 Y96.673 E7.33199
G1 X116.089 Y96.673 E7.33315
G1 X116.384 Y96.830 E7.34076
G1 X115.070 Y98.144 E7.38300
G1 X115.152 Y98.148 E7.38488
G1 X115.180 Y98.174 E7.38575
G1 X115.546 Y98.186 E7.39406
G1 X115.566 Y98.212 E7.39482
G1 X115.658 Y98.215 E7.39690
G1 X115.716 Y98.247 E7.39842
G1 X115.836 Y98.259 E7.40116
G1 X116.905 Y97.190 E7.43552
G1 X116.919 Y97.208 E7.43604
G1 X116.977 Y97.208 E7.43735
G1 X117.074 Y97.266 E7.43992
G1 X117.171 Y97.386 E7.44343
G1 X117.234 Y97.386 E7.44487
G1 X117.269 Y97.409 E7.44583
G1 X117.374 Y97.529 E7.44945
G1 X117.423 Y97.553 E7.45068
G1 X116.437 Y98.539 E7.48237
G1 X116.533 Y98.634 E7.48544
G1 X116.585 Y98.634 E7.48664
G1 X116.687 Y98.753 E7.49020
G1 X116.806 Y98.810 E7.49319
G1 X116.919 Y98.938 E7.49707
G1 X117.915 Y97.942 E7.52909
G1 X118.065 Y98.100 E7.53405
G1 X118.130 Y98.117 E7.53559
G1 X118.219 Y98.227 E7.53879
G1 X118.378 Y98.360 E7.54350
G1 X117.411 Y99.327 E7.57458
G1 X117.457 Y99.340 E7.57566
G1 X117.551 Y99.460 E7.57913
G1 X117.920 Y99.699 E7.58912
G1 X118.828 Y98.791 E7.61830
G1 X118.908 Y98.877 E7.62097
G1 X118.929 Y98.951 E7.62272
G1 X118.998 Y98.977 E7.62440
G1 X119.110 Y99.085 E7.62792
G1 X119.244 Y99.256 E7.63286
G1 X118.511 Y99.989 E7.65643
M104 S200 ; set temperature
G1 Z0.600 F7800.000
G1 X119.281 Y99.901 F7800.000
G1 F4800
G1 X116.908 Y97.528 E7.73628
G1 X116.219 Y97.016 E7.75669
G1 X115.742 Y96.741 E7.76980
G1 X115.737 Y96.773 E7.77055
G1 X115.231 Y96.731 E7.78263
G1 X117.394 Y98.894 E7.85541
G1 X117.068 Y98.640 E7.86523
G1 X116.884 Y98.520 E7.87045
G1 X116.640 Y98.378 E7.87718
G1 X116.334 Y98.251 E7.88505
G1 X116.357 Y98.136 E7.88784
G1 X115.985 Y98.048 E7.89694
G1 X115.630 Y98.011 E7.90544
G1 X114.419 Y96.801 E7.94617
G1 X114.142 Y96.849 E7.95287
G1 X114.123 Y96.752 E7.95523
G1 X113.637 Y96.899 E7.96731
G1 X114.747 Y98.010 E8.00468
G1 X114.395 Y98.048 E8.01311
G1 X113.997 Y98.140 E8.02285
G1 X113.029 Y97.173 E8.05539
G1 X112.825 Y97.278 E8.06087
G1 X112.473 Y97.498 E8.07073
G1 X113.357 Y98.381 E8.10046
G1 X113.379 Y98.473 E8.10271
G1 X112.842 Y98.747 E8.11704
G1 X111.931 Y97.837 E8.14769
G1 X111.725 Y97.966 E8.15350
G1 X111.679 Y97.995 E8.15478
G1 X111.720 Y98.055 E8.15652
G1 X111.462 Y98.249 E8.16418
G1 X112.240 Y99.027 E8.19036
G1 X112.086 Y99.151 E8.19508
G1 X112.139 Y99.222 E8.19720
G1 X111.848 Y99.440 E8.20586
G1 X111.781 Y99.357 E8.20840
G1 X111.730 Y99.397 E8.20995
G1 X110.895 Y98.562 E8.23802
G1 X110.534 Y98.721 E8.24742
G1 X110.266 Y98.814 E8.25416
G1 X111.299 Y99.863 E8.28918
G1 X111.211 Y99.924 E8.29172
G1 X111.199 Y99.899 E8.29238
G1 X110.879 Y100.021 E8.30052
G1 X110.701 Y100.130 E8.30548
G1 X109.520 Y98.948 E8.34524
G1 X109.158 Y98.945 E8.35384
G1 X108.528 Y98.838 E8.36906
G1 X110.067 Y100.376 E8.42083
G1 X109.860 Y100.407 E8.42580
G1 X109.601 Y100.390 E8.43198
G1 X109.415 Y100.362 E8.43646
G1 X109.067 Y100.258 E8.44508
G1 X107.284 Y98.475 E8.50508
G1 X107.745 Y98.936 F7800.000
G1 F4800
G1 X107.124 Y98.314 E8.52599
G1 X106.563 Y98.151 E8.53989
G1 X106.539 Y98.249 E8.54230
G1 X106.068 Y98.140 E8.55379
G1 X107.826 Y99.897 E8.61293
G1 X107.383 Y99.851 E8.62351
G1 X106.932 Y99.885 E8.63428
G1 X104.838 Y97.791 E8.70474
G1 X104.752 Y97.763 E8.70690
G1 X104.725 Y97.856 E8.70920
G1 X103.781 Y97.615 E8.73237
G1 X106.257 Y100.091 E8.81570
G1 X106.059 Y100.186 E8.82093
G1 X106.089 Y100.255 E8.82272
G1 X106.065 Y100.209 E8.82395
G1 X105.745 Y100.352 E8.83230
G1 X105.683 Y100.397 E8.83412
G1 E6.83412 F2400.00000
G92 E0
G1 X105.809 Y103.166 F7800.000
G1 E2.00000 F2400.00000
G1 F4800
G1 X105.836 Y103.080 E2.00215
G1 X105.773 Y103.006 E2.00445
G1 X105.681 Y103.038 E2.00678
G1 X106.274 Y103.632 E2.02675
G1 E0.02675 F2400.00000
G92 E0
G1 X106.811 Y105.930 F7800.000
G1 E2.00000 F2400.00000
G1 F4800
G1 X106.826 Y105.771 E2.00382
G1 X106.813 Y105.707 E2.00536
G1 X106.688 Y105.672 E2.00846
G1 X106.561 Y105.680 E2.01147
G1 X107.277 Y106.396 E2.03554
G1 E0.03554 F2400.00000
G92 E0
G1 X105.242 Y106.123 F7800.000
G1 E2.00000 F2400.00000
G1 F4800
G1 X103.870 Y104.751 E2.04616
G1 X104.018 Y104.764 E2.04970
G1 X104.179 Y104.752 E2.05353
G1 X104.548 Y104.654 E2.06263
G1 X104.637 Y104.775 E2.06619
G1 X104.663 Y104.757 E2.06694
G1 X104.644 Y104.999 E2.07271
G1 X104.670 Y105.137 E2.07607
G1 X104.745 Y105.293 E2.08020
G1 X104.682 Y105.393 E2.08301
G1 X104.813 Y105.505 E2.08711
G1 X104.775 Y105.515 E2.08804
G1 X104.776 Y105.657 E2.09142
G1 E0.09142 F2400.00000
G92 E0
G1 X101.972 Y102.853 F7800.000
G1 E2.00000 F2400.00000
G1 F4800
G1 X96.879 Y97.760 E2.17135
G1 X97.289 Y98.170 F7800.000
G1 F4800
G1 X96.807 Y97.688 E2.18757
G1 X96.077 Y97.839 E2.20531
G1 X101.367 Y103.129 E2.38331
G1 X100.954 Y103.296 E2.39391
G1 X100.792 Y103.382 E2.39828
G1 X100.746 Y103.304 E2.40043
G1 X100.691 Y103.334 E2.40192
G1 X95.477 Y98.120 E2.57737
G1 X95.146 Y98.180 E2.58538
G1 X95.130 Y98.114 E2.58698
G1 X94.710 Y98.234 E2.59736
G1 X100.103 Y103.627 E2.77885
G1 X99.495 Y103.899 E2.79471
G1 X94.012 Y98.417 E2.97919
G1 X93.302 Y98.588 E2.99657
G1 X98.859 Y104.144 E3.18354
G1 X98.183 Y104.350 E3.20034
G1 X92.671 Y98.837 E3.38583
G1 E1.38583 F2400.00000
G92 E0
G1 X93.531 Y96.173 F7800.000
G1 E2.00000 F2400.00000
G1 F4800
G1 X91.796 Y94.438 E2.05838
G1 X91.950 Y94.634 E2.06432
G1 X92.044 Y94.906 E2.07117
G1 X92.051 Y95.267 E2.07976
G1 X91.990 Y95.514 E2.08581
G1 X93.300 Y96.823 E2.12987
G1 X93.034 Y97.438 E2.14581
G1 X91.711 Y96.116 E2.19032
G1 X91.407 Y96.692 E2.20583
G1 X92.746 Y98.031 E2.25089
G1 X92.474 Y98.640 E2.26676
G1 X91.160 Y97.327 E2.31095
G1 X90.921 Y97.968 E2.32724
G1 X97.432 Y104.480 E2.54635
G1 X97.196 Y104.484 E2.55197
G1 X96.747 Y104.537 E2.56273
G1 X96.605 Y104.533 E2.56612
G1 X90.606 Y98.534 E2.76798
G1 X90.439 Y98.718 E2.77388
G1 X90.315 Y98.819 E2.77770
G1 X90.198 Y98.883 E2.78086
G1 X90.098 Y98.907 E2.78332
G1 X95.678 Y104.487 E2.97108
G1 X95.051 Y104.410 E2.98610
G1 X94.642 Y104.332 E2.99602
G1 X89.233 Y98.923 E3.17804
G1 E1.17804 F2400.00000
G92 E0
G1 X86.589 Y96.280 F7800.000
G1 E2.00000 F2400.00000
G1 F4800
G1 X83.560 Y93.250 E2.10194
G1 X83.548 Y93.268 E2.10245
G1 X83.294 Y93.163 E2.10898
G1 X83.129 Y93.121 E2.11301
G1 X82.875 Y93.084 E2.11914
G1 X82.507 Y93.078 E2.12789
G1 X93.381 Y103.953 E2.49381
G1 X93.337 Y103.955 E2.49488
G1 X93.294 Y103.888 E2.49676
G1 X92.920 Y104.048 E2.50645
G1 X92.789 Y104.199 E2.51121
G1 X92.789 Y104.241 E2.51220
G1 X81.782 Y93.234 E2.88257
G1 X81.525 Y93.356 E2.88934
G1 X81.225 Y93.558 E2.89794
G1 X93.651 Y105.984 E3.31604
G1 X93.692 Y106.049 E3.31787
G1 X93.947 Y106.822 E3.33725
G1 X94.225 Y107.439 E3.35336
G1 X91.681 Y104.895 E3.43897
G1 X91.953 Y105.262 E3.44983
G1 X92.420 Y106.097 E3.47261
G1 X93.046 Y107.017 E3.49908
G1 X93.239 Y107.334 E3.50791
G1 X94.720 Y108.815 E3.55775
G1 X94.738 Y108.953 E3.56107
G1 X94.640 Y109.013 E3.56380
G1 X94.708 Y109.163 E3.56773
G1 X94.408 Y109.273 E3.57534
G1 X94.427 Y109.380 E3.57794
G1 X94.414 Y109.390 E3.57832
G1 X93.529 Y108.505 E3.60809
G1 E1.60809 F2400.00000
G92 E0
G1 X92.025 Y105.238 F7800.000
G1 E2.00000 F2400.00000
G1 F4800
G1 X90.568 Y103.782 E2.04901
G1 X90.483 Y103.619 E2.05337
G1 X90.466 Y103.462 E2.05715
G1 X90.396 Y103.427 E2.05900
G1 X90.292 Y103.188 E2.06520
G1 X90.292 Y103.130 E2.06658
G1 X90.047 Y102.803 E2.07630
G1 X89.695 Y102.660 E2.08536
G1 X89.728 Y102.575 E2.08753
G1 X89.113 Y102.327 E2.10330
G1 X80.737 Y93.951 E2.38516
G1 X80.660 Y94.083 E2.38881
G1 X80.658 Y94.118 E2.38964
G1 X80.579 Y94.222 E2.39274
G1 X80.451 Y94.546 E2.40103
G1 X87.345 Y101.439 E2.63297
G1 X86.599 Y101.253 E2.65125
G1 X86.215 Y101.191 E2.66052
G1 X80.359 Y95.335 E2.85757
G1 X80.385 Y95.579 E2.86342
G1 X80.407 Y95.586 E2.86397
G1 X80.415 Y95.926 E2.87208
G1 X80.470 Y96.198 E2.87866
G1 X80.517 Y96.213 E2.87983
G1 X80.523 Y96.380 E2.88380
G1 X85.139 Y100.996 E3.03912
G1 X84.228 Y100.965 E3.06082
G1 X80.942 Y97.679 E3.17139
G1 E1.17139 F2400.00000
G92 E0
G1 X91.445 Y94.087 F7800.000
G1 E2.00000 F2400.00000
G1 F4800
G1 X91.705 Y94.120 E2.00623
G1 X91.692 Y94.334 E2.01135
G1 X92.179 Y94.822 E2.02775
G1 X91.870 Y94.513 F7800.000
G1 F4800
G1 X91.820 Y94.542 E2.02912
G1 X91.910 Y94.553 E2.03127
G1 X91.405 Y94.048 E2.04826
G1 X91.662 Y93.904 E2.05526
G1 X91.602 Y93.768 E2.05878
G1 X91.672 Y93.693 E2.06122
G1 X91.750 Y93.512 E2.06592
G1 X93.563 Y95.325 E2.12693
G1 X93.319 Y94.460 E2.14830
G1 X93.319 Y94.200 E2.15448
G1 X91.959 Y92.840 E2.20026
G1 X92.022 Y92.757 E2.20275
G1 X92.182 Y92.753 E2.20655
G1 X92.346 Y92.675 E2.21087
G1 X92.444 Y92.751 E2.21380
G1 X92.586 Y92.598 E2.21878
G1 X92.642 Y92.681 E2.22115
G1 X92.669 Y92.669 E2.22185
G1 X93.190 Y93.190 E2.23939
G1 X93.078 Y93.078 F7800.000
G1 F4800
G1 X93.135 Y93.021 E2.24131
G1 X92.998 Y92.998 E2.24463
G1 X93.544 Y93.544 E2.26300
G1 E0.26300 F2400.00000
G92 E0
G1 X99.367 Y94.963 F7800.000
G1 E2.00000 F2400.00000
G1 F4800
G1 X101.154 Y96.750 E2.06013
G1 E0.06013 F2400.00000
G92 E0
G1 X102.380 Y90.928 F7800.000
G1 E2.00000 F2400.00000
G1 F4800
G1 X102.138 Y89.805 E2.02732
G1 X102.830 Y90.497 E2.05059
G1 E0.05059 F2400.00000
G92 E0
G1 X105.086 Y90.110 F7800.000
G1 E2.00000 F2400.00000
G1 F4800
G1 X104.545 Y89.578 E2.01806
G1 X104.509 Y89.626 E2.01949
G1 X104.485 Y89.728 E2.02198
G1 X104.342 Y90.063 E2.03063
G1 X104.272 Y90.177 E2.03383
G1 X105.001 Y90.906 E2.05836
G1 X104.787 Y91.117 E2.06550
G1 X104.531 Y91.317 E2.07324
G1 X103.886 Y90.673 E2.09491
G1 X103.600 Y90.938 E2.10420
G1 X103.410 Y91.077 E2.10980
G1 X104.052 Y91.719 E2.13142
G1 X103.924 Y91.870 E2.13613
G1 X103.861 Y91.991 E2.13937
G1 X103.805 Y92.125 E2.14283
G1 X103.767 Y92.315 E2.14744
G1 X102.380 Y90.928 E2.19411
G1 X102.394 Y91.123 E2.19877
G1 X102.375 Y91.281 E2.20255
G1 X102.273 Y91.515 E2.20862
G1 X102.183 Y91.611 E2.21178
G1 X104.776 Y94.205 E2.29904
G1 X105.144 Y94.597 E2.31183
G1 X105.202 Y94.684 E2.31433
G1 X105.242 Y94.803 E2.31730
G1 X105.250 Y94.928 E2.32028
G1 X105.218 Y95.187 E2.32650
G1 X105.156 Y95.248 E2.32857
G1 X105.060 Y95.259 E2.33086
G1 X105.031 Y95.147 E2.33360
G1 X104.925 Y95.122 E2.33617
G1 X104.870 Y95.050 E2.33833
G1 X104.761 Y94.804 E2.34472
G1 X104.755 Y94.738 E2.34631
G1 X104.709 Y94.671 E2.34824
G1 X104.598 Y94.395 E2.35532
G1 X104.497 Y94.221 E2.36010
G1 X104.351 Y94.036 E2.36573
G1 X104.217 Y93.926 E2.36985
G1 X103.961 Y93.817 E2.37646
G1 X103.671 Y93.981 E2.38439
G1 X101.931 Y92.240 E2.44296
G1 X101.930 Y92.363 E2.44587
G1 X101.864 Y92.543 E2.45045
G1 X101.623 Y92.814 E2.45906
G1 X103.150 Y94.341 E2.51046
G1 X102.722 Y94.492 E2.52126
G1 X102.515 Y94.586 E2.52669
G1 X101.110 Y93.182 E2.57394
G1 X100.534 Y93.486 E2.58946
G1 X102.191 Y95.143 E2.64521
G1 X102.231 Y95.445 E2.65246
G1 X102.400 Y95.665 E2.65905
G1 X102.615 Y95.831 E2.66551
G1 X103.025 Y95.978 E2.67589
G1 X104.073 Y97.026 E2.71115
G1 X104.044 Y97.159 E2.71439
G1 X103.929 Y97.476 E2.72242
G1 X103.789 Y97.567 E2.72639
G1 X103.828 Y97.661 E2.72882
G1 X99.927 Y93.760 E2.86008
G1 X99.769 Y93.817 E2.86407
G1 X99.661 Y93.884 E2.86709
G1 X99.558 Y93.989 E2.87060
G1 X99.447 Y94.162 E2.87548
G1 X105.683 Y100.397 E3.08530
G1 X105.451 Y100.568 E3.09214
G1 X105.507 Y100.649 E3.09449
G1 X105.244 Y100.839 E3.10221
G1 X101.605 Y97.200 E3.22465
G1 X101.606 Y97.276 E3.22646
G1 X101.408 Y97.490 E3.23340
G1 X101.103 Y97.579 E3.24095
G1 X104.748 Y101.224 E3.36360
G1 X104.269 Y101.626 E3.37848
G1 X100.204 Y97.562 E3.51525
G1 X99.662 Y97.565 E3.52815
G1 X99.658 Y97.468 E3.53045
G1 X99.233 Y97.471 E3.54056
G1 X103.958 Y102.196 E3.69956
G1 X103.889 Y103.008 E3.71894
G1 X98.488 Y97.607 E3.90068
G1 X97.681 Y97.681 E3.91996
G1 X103.665 Y103.665 E4.12132
G1 X103.375 Y104.256 E4.13698
G1 X101.901 Y102.781 E4.18661
G1 X101.932 Y102.865 E4.18873
G1 X101.799 Y102.975 E4.19283
G1 X101.728 Y103.170 E4.19776
G1 X101.613 Y103.375 E4.20337
G1 X105.000 Y106.761 E4.31731
G1 X104.868 Y106.745 E4.32047
G1 X104.686 Y106.763 E4.32482
G1 X104.486 Y106.857 E4.33009
G1 X104.387 Y106.936 E4.33309
G1 X104.266 Y106.601 E4.34157
G1 X104.107 Y106.384 E4.34798
G1 X103.928 Y106.220 E4.35375
G1 X103.796 Y106.138 E4.35745
G1 X103.439 Y105.983 E4.36669
G1 X103.314 Y105.957 E4.36973
G1 X101.203 Y103.846 E4.44078
G1 X100.748 Y104.271 E4.45561
G1 X102.463 Y105.986 E4.51331
G1 X102.216 Y106.063 E4.51947
G1 X101.829 Y106.233 E4.52953
G1 X100.370 Y104.774 E4.57862
G1 E2.57862 F2400.00000
G92 E0
G1 X104.195 Y108.278 F7800.000
G1 E2.00000 F2400.00000
G1 F1200
G1 X103.700 Y107.783 E2.02264
G1 X103.614 Y108.002 E2.03024
G1 X103.490 Y108.418 E2.04432
G1 X103.453 Y108.615 E2.05078
G1 X104.076 Y109.238 E2.07932
G1 X104.058 Y109.281 E2.08083
G1 X103.969 Y109.363 E2.08475
G1 X103.930 Y109.256 E2.08844
G1 X103.947 Y109.109 E2.09324
G1 Z0.900 F7800.000
G1 E0.09324 F2400.00000
G92 E0
G1 X103.981 Y106.590 F7800.000
G1 E2.00000 F2400.00000
G1 F4394.36
G1 X105.076 Y105.495 E2.03684
G1 X105.034 Y105.343 E2.04060
G1 X105.007 Y105.346 E2.04125
G1 X104.919 Y104.934 E2.05128
G1 X104.874 Y104.919 E2.05241
G1 X104.755 Y104.936 E2.05527
G1 X103.590 Y106.100 E2.09445
G1 X103.440 Y105.976 E2.09909
G1 X103.285 Y105.889 E2.10330
G1 X103.021 Y105.789 E2.11004
G1 X103.968 Y104.841 E2.14194
G1 X103.683 Y104.720 E2.14930
G1 X103.372 Y104.557 E2.15768
G1 X102.035 Y105.893 E2.20265
G1 X101.761 Y105.965 E2.20939
G1 X101.355 Y106.146 E2.21998
G1 X101.169 Y106.206 E2.22461
G1 X101.034 Y106.225 E2.22786
G1 X100.868 Y106.196 E2.23187
G1 X103.351 Y103.697 E2.31568
G1 X103.654 Y103.086 E2.33190
G1 X103.803 Y102.677 E2.34225
G1 X103.853 Y102.313 E2.35100
G1 X100.443 Y105.723 E2.46574
G1 X100.429 Y105.597 E2.46875
G1 X100.535 Y105.145 E2.47982
G1 X100.520 Y105.141 E2.48019
G1 X100.719 Y104.856 E2.48845
G1 X101.501 Y104.116 E2.51406
G1 X101.658 Y103.894 E2.52054
G1 X101.824 Y103.566 E2.52929
G1 X101.913 Y103.563 E2.53141
G1 X101.988 Y103.297 E2.53797
G1 E0.53797 F2400.00000
G92 E0
G1 X101.731 Y97.388 F7800.000
G1 E2.00000 F2400.00000
G1 F4394.36
G1 X103.380 Y95.739 E2.05550
G1 X103.177 Y95.642 E2.06085
G1 X102.733 Y95.505 E2.07191
G1 X101.219 Y97.019 E2.12285
G1 X100.690 Y96.668 E2.13797
G1 X102.248 Y95.109 E2.19042
G1 X102.160 Y94.913 E2.19553
G1 X102.130 Y94.706 E2.20050
G1 X102.146 Y94.527 E2.20480
G1 X102.259 Y94.254 E2.21181
G1 X102.387 Y94.108 E2.21645
G1 X102.573 Y94.002 E2.22154
G1 X102.551 Y93.925 E2.22345
G1 X100.160 Y96.317 E2.30394
G1 X99.983 Y96.163 E2.30952
G1 X99.726 Y95.869 E2.31879
G1 X103.590 Y92.005 E2.44880
G1 X103.623 Y91.508 E2.46066
G1 X103.254 Y91.460 E2.46950
G1 X102.087 Y92.628 E2.50879
G1 X102.080 Y92.404 E2.51411
G1 X102.289 Y92.207 E2.52096
G1 X102.317 Y92.220 E2.52169
G1 X102.500 Y91.926 E2.52995
G1 X102.562 Y91.778 E2.53376
G1 X102.660 Y91.866 E2.53689
G1 X102.789 Y91.925 E2.54027
G1 X102.552 Y92.162 F7800.000
G1 F4394.36
G1 X102.550 Y92.401 E2.54595
G1 X102.443 Y92.425 E2.54856
G1 X102.368 Y92.603 E2.55317
G1 X102.137 Y92.878 E2.56172
G1 X101.829 Y93.115 E2.57096
G1 X101.270 Y93.444 E2.58638
G1 X99.399 Y95.315 E2.64934
G1 E0.64934 F2400.00000
G92 E0
G1 X102.136 Y94.341 F7800.000
G1 E2.00000 F2400.00000
G1 F4394.36
G1 X103.796 Y92.681 E2.05585
G1 X103.722 Y92.513 E2.06022
G1 X103.808 Y92.468 E2.06251
G1 X103.733 Y92.249 E2.06800
G1 X103.705 Y92.048 E2.07282
G1 X103.589 Y92.032 E2.07562
G1 X103.590 Y92.005 E2.07625
G1 E0.07625 F2400.00000
G92 E0
G1 X92.561 Y93.345 F7800.000
G1 E2.00000 F2400.00000
G1 F4394.36
G1 X92.523 Y93.302 E2.00135
G1 X92.230 Y93.431 E2.00898
G1 X91.976 Y93.450 E2.01505
G1 X91.971 Y93.645 E2.01970
G1 X91.918 Y93.987 E2.02793
G1 X93.026 Y92.879 E2.06521
G1 X93.168 Y93.031 E2.07015
G1 X93.319 Y93.136 E2.07453
G1 X93.146 Y93.641 E2.08723
G1 X91.963 Y94.824 E2.12703
G1 X92.092 Y95.064 E2.13353
G1 X92.022 Y95.112 E2.13556
G1 X92.113 Y95.365 E2.14198
G1 X92.128 Y95.539 E2.14611
G1 X93.342 Y94.325 E2.18695
G1 X93.478 Y94.761 E2.19783
G1 X93.532 Y95.016 E2.20403
G1 X91.600 Y96.947 E2.26901
G1 X91.411 Y97.316 E2.27888
G1 X90.999 Y98.430 E2.30714
G1 X93.321 Y96.108 E2.38529
G1 X93.222 Y96.382 E2.39222
G1 X92.760 Y97.385 E2.41850
G1 X92.598 Y97.712 E2.42718
G1 X88.381 Y101.929 E2.56907
G1 X88.875 Y102.316 E2.58400
G1 X92.302 Y98.889 E2.69930
G1 X92.444 Y99.066 E2.70471
G1 X92.857 Y99.064 E2.71455
G1 X93.037 Y99.035 E2.71887
G1 X89.418 Y102.654 E2.84064
G1 X89.891 Y102.849 E2.85283
G1 X90.019 Y102.934 E2.85647
G1 X94.127 Y98.825 E2.99470
G1 X95.302 Y98.531 E3.02352
G1 X90.300 Y103.533 E3.19184
G1 X90.579 Y104.136 E3.20763
G1 X96.525 Y98.189 E3.40772
G1 X97.338 Y98.013 E3.42751
G1 X97.622 Y97.974 E3.43432
G1 X90.950 Y104.646 E3.65882
G1 X91.439 Y105.037 E3.67373
G1 X92.179 Y104.298 E3.69862
G1 X92.121 Y103.974 E3.70645
G1 X92.274 Y103.836 E3.71134
G1 X92.376 Y103.709 E3.71521
G1 X92.638 Y103.709 E3.72145
G1 X92.740 Y103.736 E3.72395
G1 X98.613 Y97.863 E3.92157
G1 X99.549 Y97.809 E3.94387
G1 X93.437 Y103.920 E4.14952
G1 X94.157 Y104.081 E4.16707
G1 X100.450 Y97.788 E4.37882
G1 X101.160 Y97.797 E4.39571
G1 X101.335 Y97.784 E4.39990
G1 X94.917 Y104.202 E4.61587
G1 X95.726 Y104.274 E4.63520
G1 X103.816 Y96.184 E4.90740
G1 X103.906 Y96.333 E4.91154
G1 X103.956 Y96.691 E4.92013
G1 X103.875 Y96.674 E4.92212
G1 X103.710 Y97.081 E4.93257
G1 X103.700 Y97.181 E4.93495
G1 X96.621 Y104.260 E5.17316
G1 X97.046 Y104.219 E5.18332
G1 X97.657 Y104.105 E5.19812
G1 X104.017 Y97.745 E5.41211
G1 X104.709 Y97.934 E5.42917
G1 X98.984 Y103.659 E5.62181
G1 X99.699 Y103.356 E5.64029
G1 X100.364 Y103.015 E5.65807
G1 X100.592 Y102.931 E5.66386
G1 X105.402 Y98.122 E5.82570
G1 X106.140 Y98.265 E5.84358
G1 X101.801 Y102.603 E5.98957
G1 X102.022 Y102.817 E5.99688
G1 X102.016 Y103.097 E6.00355
G1 X101.988 Y103.297 E6.00837
G1 X103.393 Y101.892 E6.05564
G1 X103.453 Y101.656 E6.06143
G1 X103.552 Y101.480 E6.06625
G1 X103.838 Y101.232 E6.07525
G1 X104.858 Y100.428 E6.10615
G1 X106.855 Y98.430 E6.17337
G1 X107.543 Y98.624 E6.19036
G1 X106.471 Y99.696 E6.22644
G1 X106.635 Y99.664 E6.23042
G1 X106.896 Y99.664 E6.23661
G1 X107.344 Y99.703 E6.24733
G1 X108.224 Y98.824 E6.27692
G1 X108.509 Y98.890 E6.28390
G1 X108.912 Y99.017 E6.29393
G1 X108.047 Y99.882 E6.32304
G1 X108.707 Y100.102 E6.33961
G1 X109.678 Y99.131 E6.37228
G1 X110.011 Y99.118 E6.38021
G1 X110.597 Y99.040 E6.39427
G1 X110.682 Y99.009 E6.39642
G1 X109.486 Y100.204 E6.43666
G1 X109.896 Y100.096 E6.44674
G1 X110.128 Y99.982 E6.45289
G1 X110.523 Y99.739 E6.46393
G1 X111.777 Y98.794 E6.50128
G1 X112.388 Y98.183 E6.52186
G1 X112.503 Y98.095 E6.52531
G1 X113.150 Y97.694 E6.54341
G1 X113.530 Y97.486 E6.55371
G1 X114.066 Y97.237 E6.56777
G1 X114.285 Y97.167 E6.57325
G1 X113.489 Y97.963 E6.60005
G1 X113.991 Y97.854 E6.61228
G1 X114.546 Y97.787 E6.62557
G1 X115.364 Y96.969 E6.65308
G1 X115.836 Y96.961 E6.66432
G1 X115.978 Y96.993 E6.66779
G1 X116.145 Y97.069 E6.67215
G1 X115.388 Y97.825 E6.69762
G1 X115.952 Y97.949 E6.71135
G1 X116.090 Y98.004 E6.71489
G1 X116.689 Y97.406 E6.73503
G1 X116.965 Y97.584 E6.74285
G1 X117.204 Y97.772 E6.75008
G1 X116.659 Y98.317 E6.76843
G1 X116.867 Y98.482 E6.77476
G1 X117.152 Y98.705 E6.78335
G1 X117.693 Y98.164 E6.80157
G1 X118.164 Y98.573 E6.81643
G1 X117.635 Y99.102 E6.83423
G1 E4.83423 F2400.00000
G92 E0
G1 X92.644 Y103.832 F7800.000
G1 E2.00000 F2400.00000
G1 F4394.36
G1 X92.663 Y104.028 E2.00469
G1 X92.791 Y104.369 E2.01336
G1 X92.881 Y104.355 E2.01552
G1 X92.920 Y104.437 E2.01769
G1 X91.873 Y105.484 E2.05290
G1 X92.085 Y105.800 E2.06196
G1 X92.210 Y106.028 E2.06814
G1 X93.239 Y104.999 E2.10278
G1 X93.580 Y105.540 E2.11798
G1 X92.531 Y106.588 E2.15327
G1 X92.806 Y106.995 E2.16495
G1 X92.877 Y106.943 E2.16703
G1 X92.956 Y107.044 E2.17007
G1 X93.719 Y106.281 E2.19576
G1 X93.890 Y106.772 E2.20813
G1 X93.928 Y106.761 E2.20906
G1 X93.983 Y106.898 E2.21256
G1 X93.314 Y107.567 E2.23508
G1 X93.459 Y107.842 E2.24248
G1 X93.368 Y107.896 E2.24499
G1 X93.430 Y108.060 E2.24915
G1 X93.448 Y108.216 E2.25287
G1 X93.526 Y108.235 E2.25481
G1 X94.281 Y107.481 E2.28020
G1 X94.467 Y107.763 E2.28825
G1 X94.577 Y107.867 E2.29185
G1 X94.593 Y107.899 E2.29270
G1 X94.581 Y108.062 E2.29658
G1 X93.741 Y108.902 E2.32483
G1 E0.32483 F2400.00000
G92 E0
G1 X87.881 Y101.548 F7800.000
G1 E2.00000 F2400.00000
G1 F4394.36
G1 X90.222 Y99.207 E2.07879
G1 X89.843 Y99.171 E2.08783
G1 X89.473 Y99.075 E2.09694
G1 X87.302 Y101.246 E2.16999
G1 X86.630 Y101.037 E2.18673
G1 X88.796 Y98.871 E2.25963
G1 X88.478 Y98.761 E2.26765
G1 X88.196 Y98.590 E2.27549
G1 X85.898 Y100.888 E2.35282
G1 X85.502 Y100.827 E2.36234
G1 X85.105 Y100.800 E2.37182
G1 X87.737 Y98.169 E2.46038
G1 X87.419 Y97.784 E2.47225
G1 X87.351 Y97.673 E2.47533
G1 X84.262 Y100.762 E2.57927
G1 X83.739 Y100.728 E2.59175
G1 X83.487 Y100.657 E2.59798
G1 X87.016 Y97.127 E2.71675
G1 X86.706 Y96.556 E2.73220
G1 X82.906 Y100.356 E2.86005
G1 X82.447 Y99.934 E2.87488
G1 X86.393 Y95.988 E3.00765
G1 X86.072 Y95.428 E3.02301
G1 X82.043 Y99.458 E3.15860
G1 X81.861 Y99.247 E3.16522
G1 X81.668 Y98.951 E3.17362
G1 X85.731 Y94.889 E3.31032
G1 X85.485 Y94.554 E3.32019
G1 X85.340 Y94.398 E3.32526
G1 X81.354 Y98.384 E3.45937
G1 X81.147 Y97.937 E3.47109
G1 X81.092 Y97.766 E3.47537
G1 X84.881 Y93.976 E3.60290
G1 X84.608 Y93.771 E3.61103
G1 X84.342 Y93.635 E3.61814
G1 X80.874 Y97.103 E3.73483
G1 X80.775 Y96.727 E3.74407
G1 X80.714 Y96.382 E3.75242
G1 X83.704 Y93.392 E3.85303
G1 X83.329 Y93.312 E3.86214
G1 X82.904 Y93.311 E3.87227
G1 X80.653 Y95.562 E3.94802
G1 X80.700 Y95.202 E3.95666
G1 X80.786 Y94.952 E3.96294
G1 X81.007 Y94.571 E3.97343
G1 X81.162 Y94.394 E3.97903
G1 X81.387 Y94.193 E3.98621
G1 X81.645 Y94.012 E3.99372
G1 X82.020 Y93.857 E4.00337
G1 X82.438 Y93.777 E4.01350
G1 E2.01350 F2400.00000
G92 E0
G1 X104.300 Y94.403 F7800.000
G1 E2.00000 F2400.00000
G1 F1098.59
G1 X104.126 Y94.197 E2.00873
G1 X104.255 Y94.448 E2.01786
G1 X104.795 Y93.909 E2.04256
G1 X105.121 Y94.256 E2.05799
G1 X105.158 Y94.371 E2.06191
G1 X105.164 Y94.476 E2.06531
G1 X105.139 Y94.642 E2.07073
G1 X104.627 Y95.155 E2.09420
M106 S255
G1 Z1.200 F7800.000
G1 E0.09420 F2400.00000
G92 E0
G1 X103.621 Y93.050 F7800.000
G1 E2.00000 F2400.00000
G1 F3871.45
G1 X102.418 Y91.847 E2.04050
G1 X102.284 Y92.018 E2.04567
G1 X102.182 Y92.492 E2.05719
G1 X103.463 Y93.773 E2.10032
G1 X103.436 Y93.801 E2.10124
G1 X103.048 Y94.038 E2.11208
G1 X102.891 Y94.081 E2.11595
G1 X101.861 Y93.052 E2.15059
G1 X101.708 Y93.196 E2.15560
G1 X101.361 Y93.433 E2.16559
G1 X102.274 Y94.346 E2.19632
G1 X102.103 Y94.512 E2.20200
G1 X101.979 Y94.797 E2.20940
G1 X101.963 Y94.915 E2.21223
G1 X100.760 Y93.713 E2.25270
G1 X100.158 Y93.991 E2.26849
G1 X103.582 Y97.416 E2.38370
G1 X103.338 Y97.947 E2.39761
G1 X103.401 Y98.060 E2.40071
G1 X103.402 Y98.117 E2.40205
G1 X99.673 Y94.388 E2.52752
G1 X99.613 Y94.603 E2.53284
G1 X99.649 Y94.861 E2.53903
G1 X99.729 Y95.030 E2.54349
G1 X99.914 Y95.303 E2.55134
G1 X100.157 Y95.590 E2.56029
G1 X100.437 Y95.804 E2.56868
G1 X101.081 Y96.174 E2.58635
G1 X101.486 Y96.438 E2.59786
G1 X101.838 Y96.742 E2.60891
G1 X102.096 Y97.042 E2.61832
G1 X102.219 Y97.230 E2.62367
G1 X102.325 Y97.561 E2.63193
G1 X102.191 Y97.786 E2.63818
G1 X104.877 Y100.472 E2.72855
G1 X104.384 Y100.861 E2.74348
G1 X101.508 Y97.985 E2.84025
G1 X100.700 Y98.057 E2.85956
G1 X103.900 Y101.258 E2.96724
G1 X103.750 Y101.418 E2.97247
G1 X103.731 Y101.586 E2.97650
G1 X103.704 Y101.643 E2.97800
G1 X103.703 Y101.941 E2.98510
G1 X99.813 Y98.051 E3.11602
G1 X98.955 Y98.075 E3.13642
G1 X103.647 Y102.766 E3.29430
G1 X103.638 Y102.928 E3.29816
G1 X103.594 Y103.119 E3.30281
G1 X103.463 Y103.463 E3.31157
G1 X102.283 Y102.283 E3.35128
G1 X102.258 Y102.501 E3.35650
G1 X102.109 Y102.990 E3.36867
G1 X103.173 Y104.054 E3.40445
G1 X103.072 Y104.296 E3.41069
G1 X103.055 Y104.656 E3.41927
G1 X103.090 Y104.852 E3.42400
G1 X101.812 Y103.574 E3.46700
G1 X101.609 Y103.841 E3.47498
G1 X101.411 Y104.053 E3.48190
G1 X102.921 Y105.564 E3.53273
G1 X102.201 Y105.725 E3.55029
G1 X100.963 Y104.486 E3.59196
G1 X100.843 Y104.632 E3.59644
G1 X100.694 Y104.875 E3.60322
G1 X100.646 Y105.051 E3.60757
G1 X101.553 Y105.958 E3.63808
G1 X101.456 Y105.953 E3.64041
G1 X101.248 Y105.866 E3.64578
G1 X101.108 Y105.643 E3.65204
G1 X101.112 Y105.516 E3.65506
G1 E1.65506 F2400.00000
G92 E0
G1 X104.152 Y105.913 F7800.000
G1 E2.00000 F2400.00000
G1 F3871.45
G1 X104.243 Y105.861 E2.00250
G1 X104.306 Y105.756 E2.00542
G1 X104.390 Y105.520 E2.01137
G1 X104.382 Y105.352 E2.01538
G1 X104.294 Y105.184 E2.01989
G1 X104.200 Y105.139 E2.02237
G1 X103.666 Y105.145 E2.03508
G1 X103.250 Y105.012 E2.04547
G1 X103.550 Y105.312 E2.05556
G1 X103.610 Y105.347 E2.05722
G1 X103.685 Y105.447 E2.06019
G1 X104.617 Y106.379 E2.09154
G1 E0.09154 F2400.00000
G92 E0
G1 X102.214 Y102.214 F7800.000
G1 E2.00000 F2400.00000
G1 F3871.45
G1 X98.127 Y98.127 E2.13753
G1 X97.331 Y98.212 E2.15657
G1 X101.581 Y102.462 E2.29958
G1 X100.941 Y102.703 E2.31585
G1 X96.574 Y98.336 E2.46278
G1 X95.863 Y98.506 E2.48018
G1 X100.342 Y102.984 E2.63088
G1 X99.738 Y103.261 E2.64669
G1 X95.176 Y98.699 E2.80021
G1 X94.486 Y98.891 E2.81723
G1 X99.111 Y103.516 E2.97284
G1 X98.455 Y103.740 E2.98935
G1 X93.779 Y99.064 E3.14670
G1 X93.051 Y99.217 E3.16439
G1 X97.745 Y103.912 E3.32236
G1 X97.492 Y103.959 E3.32850
G1 X96.960 Y104.007 E3.34121
G1 X92.292 Y99.339 E3.49828
G1 X92.757 Y99.805 F7800.000
G1 F3871.45
G1 X92.626 Y99.824 E3.50144
G1 X92.103 Y99.777 E3.51392
G1 X91.952 Y99.385 E3.52391
G1 X92.010 Y99.057 E3.53183
G1 X91.152 Y98.199 E3.56070
G1 X91.407 Y97.573 E3.57678
G1 X92.241 Y98.408 E3.60486
G1 X92.516 Y97.801 E3.62070
G1 X91.640 Y96.926 E3.65017
G1 X91.945 Y96.350 E3.66567
G1 X92.798 Y97.202 E3.69434
G1 X93.060 Y96.583 E3.71034
G1 X92.225 Y95.749 E3.73841
G1 X92.324 Y95.444 E3.74604
G1 X92.349 Y95.256 E3.75055
G1 X92.338 Y94.981 E3.75710
G1 X93.281 Y95.923 E3.78882
G1 X93.314 Y95.774 E3.79245
G1 X93.274 Y95.413 E3.80112
G1 X93.125 Y94.887 E3.81413
G1 X92.014 Y93.776 E3.85151
G1 X92.094 Y93.435 E3.85983
G1 X92.141 Y93.282 E3.86365
G1 X92.183 Y93.216 E3.86550
G1 X92.280 Y93.161 E3.86815
G1 X93.042 Y93.923 E3.89380
G1 E1.89380 F2400.00000
G92 E0
G1 X86.467 Y97.038 F7800.000
G1 E2.00000 F2400.00000
G1 F3871.45
G1 X83.001 Y93.572 E2.11663
G1 X82.844 Y93.541 E2.12042
G1 X82.626 Y93.534 E2.12561
G1 X82.409 Y93.552 E2.13081
G1 X82.154 Y93.606 E2.13700
G1 E0.13700 F2400.00000
G92 E0
G1 X81.686 Y97.543 F7800.000
G1 E2.00000 F2400.00000
G1 F3871.45
G1 X81.870 Y98.066 E2.01319
G1 X82.188 Y98.674 E2.02952
G1 X82.375 Y98.958 E2.03762
G1 X82.732 Y99.405 E2.05123
G1 X83.158 Y99.861 E2.06608
G1 X83.516 Y100.168 E2.07729
G1 X83.872 Y100.364 E2.08697
G1 X84.213 Y100.466 E2.09543
G1 X84.632 Y100.489 E2.10541
G1 X81.221 Y97.078 E2.22019
G1 X80.985 Y96.262 E2.24039
G1 X80.915 Y95.891 E2.24936
G1 X85.564 Y100.540 E2.40577
G1 X85.979 Y100.568 E2.41567
G1 X86.562 Y100.657 E2.42970
G1 X80.869 Y94.964 E2.62127
G1 X80.892 Y94.831 E2.62447
G1 X80.972 Y94.600 E2.63028
G1 X81.124 Y94.338 E2.63749
G1 X87.759 Y100.973 E2.86074
G1 X88.115 Y101.107 E2.86979
G1 X88.327 Y101.240 E2.87575
G1 X88.662 Y101.471 E2.88544
G1 X89.259 Y101.949 E2.90363
G1 X89.771 Y102.327 E2.91878
G1 X90.159 Y102.492 E2.92880
G1 X81.563 Y93.896 E3.21803
G1 X81.839 Y93.715 E3.22588
G1 X82.154 Y93.606 E3.23381
G1 X92.330 Y103.782 E3.57620
G1 X92.415 Y103.362 E3.58640
G1 X92.813 Y103.384 E3.59589
G1 X88.685 Y99.256 E3.73481
G1 X88.895 Y99.320 E3.74005
G1 X89.489 Y99.434 E3.75444
G1 X89.768 Y99.458 E3.76108
G1 X93.985 Y103.675 E3.90299
G1 X94.549 Y103.806 E3.91677
G1 X95.090 Y103.899 E3.92983
G1 X90.380 Y99.189 E4.08832
G1 X90.818 Y98.746 E4.10314
G1 X96.080 Y104.009 E4.28023
G1 E2.28023 F2400.00000
G92 E0
G1 X92.637 Y104.970 F7800.000
G1 E2.00000 F2400.00000
G1 F3871.45
G1 X90.336 Y102.669 E2.07742
G1 X90.760 Y103.557 E2.10083
G1 X90.929 Y103.843 E2.10872
G1 X91.128 Y104.025 E2.11514
G1 X91.314 Y104.146 E2.12043
G1 X91.807 Y104.533 E2.13534
G1 X92.009 Y104.723 E2.14194
G1 X92.257 Y105.028 E2.15128
G1 X92.398 Y105.253 E2.15762
G1 X92.521 Y105.553 E2.16533
G1 X92.805 Y106.017 E2.17827
G1 X93.520 Y106.734 E2.20236
G1 X93.528 Y106.776 E2.20337
G1 X93.280 Y106.494 E2.21231
G1 E0.21231 F2400.00000
G92 E0
G1 X104.877 Y100.472 F7800.000
G1 E2.00000 F2400.00000
G1 F3871.45
G1 X105.382 Y100.096 E2.01498
G1 X103.250 Y97.964 E2.08672
G1 X103.531 Y98.003 E2.09347
G1 X104.417 Y98.251 E2.11538
G1 X105.935 Y99.768 E2.16644
G1 X106.327 Y99.581 E2.17679
G1 X106.565 Y99.518 E2.18265
G1 X105.546 Y98.498 E2.21695
G1 X106.338 Y98.672 E2.23624
G1 X106.705 Y98.777 E2.24532
G1 X107.347 Y99.419 E2.26694
G1 X109.534 Y99.844 F7800.000
G1 F3871.45
G1 X109.438 Y99.847 E2.26924
G1 X108.763 Y99.696 E2.28569
G1 X109.344 Y99.882 E2.30021
G1 X109.621 Y99.931 E2.30690
G1 X109.069 Y99.379 E2.32547
G1 X109.613 Y99.373 E2.33841
G1 X109.900 Y99.328 E2.34531
G1 X110.388 Y99.817 E2.36175
G1 X110.717 Y99.882 F7800.000
G1 F967.863
G1 X110.223 Y99.387 E2.38191
G1 X110.195 Y99.037 E2.39205
G1 X110.667 Y98.870 E2.40649
G1 X111.162 Y99.365 E2.42667
G1 E0.42667 F2400.00000
G92 E0
G1 X108.930 Y99.537 F7800.000
G1 E2.00000 F2400.00000
G1 F967.863
G1 X108.435 Y99.043 E2.02016
G1 X108.161 Y99.745 F7800.000
G1 F967.863
G1 X107.666 Y99.250 E2.04033
G1 E0.04033 F2400.00000
G92 E0
G1 X114.294 Y97.690 F7800.000
G1 E2.00000 F2400.00000
G1 F967.863
G1 X114.148 Y97.732 E2.00491
G1 X114.227 Y97.876 E2.01020
G1 X114.440 Y97.836 E2.01720
G1 X113.799 Y97.195 E2.04651
G1 X114.216 Y97.077 E2.06054
G1 X114.549 Y97.015 E2.07149
G1 X114.693 Y97.010 E2.07615
G1 X115.467 Y97.784 E2.11158
G1 X116.173 Y97.412 F7800.000
G1 F967.863
G1 X116.667 Y97.906 E2.13421
G1 E0.13421 F2400.00000
G92 E0
G1 X94.565 Y108.381 F7800.000
G1 E2.00000 F2400.00000
G1 F967.863
G1 X94.070 Y107.886 E2.02265
G1 X93.773 Y107.731 E2.03348
G1 X93.725 Y108.015 E2.04281
G1 X93.568 Y107.832 E2.05063
G1 X93.544 Y108.195 E2.06240
G1 X93.804 Y108.481 E2.07491
G1 X93.899 Y108.617 E2.08030
G1 X94.394 Y109.112 E2.10293
G1 Z1.500 F7800.000
G1 E0.10293 F2400.00000
G92 E0
G1 X91.288 Y104.308 F7800.000
G1 E2.00000 F2400.00000
G1 F4690.53
G1 X92.066 Y103.529 E2.02620
G1 X92.016 Y103.375 E2.03005
G1 X91.917 Y102.908 E2.04142
G1 X92.024 Y102.691 E2.04717
G1 X90.897 Y103.818 E2.08508
G1 X90.607 Y103.227 E2.10074
G1 E0.10074 F2400.00000
G92 E0
G1 X101.498 Y105.549 F7800.000
G1 E2.00000 F2400.00000
G1 F4690.53
G1 X102.865 Y104.182 E2.04599
G1 X102.855 Y103.942 E2.05170
G1 X102.815 Y103.825 E2.05465
G1 X102.866 Y103.626 E2.05955
G1 X102.966 Y103.368 E2.06612
G1 X103.161 Y103.078 E2.07444
G1 X103.238 Y102.928 E2.07845
G1 X101.995 Y104.172 E2.12029
G1 X102.295 Y103.640 E2.13482
G1 X102.372 Y103.415 E2.14047
G1 X102.548 Y102.738 E2.15712
G1 X103.431 Y101.854 E2.18686
G1 X103.448 Y101.533 E2.19451
G1 X103.407 Y101.111 E2.20460
G1 X103.503 Y100.902 E2.21007
G1 X102.658 Y101.747 E2.23849
G1 X102.276 Y101.707 E2.24763
G1 X101.978 Y101.814 E2.25516
G1 X101.482 Y102.041 E2.26814
G1 X104.979 Y98.545 E2.38579
G1 X104.294 Y98.349 E2.40274
G1 X100.004 Y102.638 E2.54709
G1 X99.585 Y102.854 E2.55832
G1 X98.440 Y103.322 E2.58774
G1 X103.547 Y98.214 E2.75960
G1 X103.049 Y98.141 E2.77158
G1 X102.694 Y98.187 E2.78011
G1 X97.221 Y103.660 E2.96426
G1 X97.008 Y103.700 E2.96942
G1 X96.601 Y103.739 E2.97914
G1 X96.247 Y103.753 E2.98759
G1 X101.724 Y98.276 E3.17189
G1 X101.209 Y98.318 E3.18418
G1 X100.808 Y98.311 E3.19373
G1 X95.390 Y103.729 E3.37602
G1 X94.604 Y103.634 E3.39486
G1 X99.922 Y98.316 E3.57379
G1 X98.996 Y98.361 E3.59584
G1 X93.865 Y103.492 E3.76849
G1 X93.163 Y103.313 E3.78573
G1 X98.028 Y98.448 E3.94942
G1 X97.384 Y98.531 E3.96487
G1 X96.984 Y98.611 E3.97457
G1 X92.472 Y103.124 E4.12641
G1 X92.209 Y103.046 E4.13293
G1 X91.744 Y102.971 E4.14414
G1 X95.793 Y98.922 E4.28038
G1 X94.585 Y99.249 E4.31015
G1 X90.607 Y103.227 E4.44401
G1 X90.479 Y102.972 E4.45079
G1 X90.366 Y102.586 E4.46036
G1 X93.464 Y99.489 E4.56458
G1 X92.425 Y99.647 E4.58958
G1 X89.806 Y102.266 E4.67771
G1 X89.448 Y102.120 E4.68691
G1 X89.222 Y101.968 E4.69338
G1 X91.728 Y99.463 E4.77768
G1 X91.652 Y99.354 E4.78084
G1 X91.597 Y98.985 E4.78972
G1 X91.627 Y98.797 E4.79426
G1 X91.577 Y98.809 E4.79549
G1 X91.474 Y98.959 E4.79984
G1 X91.083 Y99.242 E4.81131
G1 X90.901 Y99.451 E4.81792
G1 X90.848 Y99.541 E4.82039
G1 X90.726 Y99.598 E4.82359
G1 X90.653 Y99.657 E4.82584
G1 X88.725 Y101.585 E4.89070
G1 X88.231 Y101.198 E4.90564
G1 X89.767 Y99.662 E4.95732
G1 X89.366 Y99.587 E4.96702
G1 X89.055 Y99.493 E4.97475
G1 X87.694 Y100.854 E5.02053
G1 X87.047 Y100.620 E5.03690
G1 X88.399 Y99.268 E5.08239
G1 X87.931 Y98.997 E5.09526
G1 X87.858 Y98.928 E5.09764
G1 X86.341 Y100.445 E5.14869
G1 X85.588 Y100.317 E5.16686
G1 X87.414 Y98.491 E5.22832
G1 X87.126 Y98.145 E5.23902
G1 X87.032 Y97.992 E5.24330
G1 X84.768 Y100.256 E5.31946
G1 X83.931 Y100.212 E5.33941
G1 X86.695 Y97.448 E5.43243
G1 X86.385 Y96.878 E5.44788
G1 X83.258 Y100.004 E5.55309
G1 X83.165 Y99.950 E5.55566
G1 X82.775 Y99.606 E5.56802
G1 X86.069 Y96.312 E5.67886
G1 X85.752 Y95.749 E5.69425
G1 X82.349 Y99.152 E5.80875
G1 X82.256 Y99.034 E5.81231
G1 X81.982 Y98.815 E5.82065
G1 X81.896 Y98.724 E5.82365
G1 X85.411 Y95.208 E5.94194
G1 X85.019 Y94.719 E5.95685
G1 X81.489 Y98.250 E6.07564
G1 X81.353 Y97.931 E6.08388
G1 X81.437 Y97.906 E6.08596
G1 X81.334 Y97.524 E6.09539
G1 X84.540 Y94.318 E6.20327
G1 X84.077 Y94.026 E6.21629
G1 X84.011 Y93.966 E6.21841
G1 X81.206 Y96.771 E6.31278
G1 X81.075 Y96.021 E6.33089
G1 X83.430 Y93.666 E6.41013
G1 E4.41013 F2400.00000
G92 E0
G1 X103.602 Y100.803 F7800.000
G1 E2.00000 F2400.00000
G1 F4690.53
G1 X105.701 Y98.704 E2.07064
G1 X104.979 Y98.545 E2.08823
G1 E0.08823 F2400.00000
G92 E0
G1 X92.932 Y93.161 F7800.000
G1 E2.00000 F2400.00000
G1 F1172.63
G1 X92.103 Y93.990 E2.03795
G1 X91.995 Y94.415 E2.05215
G1 X92.032 Y94.570 E2.05730
G1 X92.224 Y94.947 E2.07101
G1 X93.036 Y94.135 E2.10820
G1 X93.257 Y94.993 E2.13688
G1 X92.349 Y95.901 E2.17845
G1 X92.303 Y96.100 E2.18506
G1 X92.149 Y96.490 E2.19864
G1 X91.649 Y97.440 E2.23339
G1 X91.517 Y97.812 E2.24614
G1 X92.895 Y96.433 E2.30923
G1 X92.273 Y97.777 E2.35718
G1 X92.049 Y98.359 E2.37735
G1 X91.554 Y98.853 E2.39999
G1 E0.39999 F2400.00000
G92 E0
G1 X92.735 Y104.765 F7800.000
G1 E2.00000 F2400.00000
G1 F1172.63
G1 X92.157 Y105.344 E2.02252
G1 X92.273 Y105.486 E2.02757
G1 X92.412 Y105.708 E2.03480
G1 X92.549 Y106.030 E2.04444
G1 X93.151 Y105.428 E2.06789
G1 X93.215 Y105.522 E2.07101
G1 X93.367 Y105.780 E2.07926
G1 X93.454 Y106.032 E2.08662
G1 X93.482 Y106.177 E2.09066
G1 X92.987 Y106.671 E2.10992
G1 E0.10992 F2400.00000
G92 E0
G1 X103.465 Y104.893 F7800.000
G1 E2.00000 F2400.00000
G1 F1172.63
G1 X102.970 Y105.387 E2.01926
G1 X102.909 Y105.497 E2.02274
G1 X103.103 Y105.536 E2.02819
G1 X103.438 Y105.688 E2.03830
G1 X103.626 Y105.805 E2.04442
G1 X104.265 Y105.167 E2.06930
G1 X104.669 Y105.164 E2.08043
G1 X104.757 Y105.212 E2.08319
G1 X104.797 Y105.272 E2.08519
G1 X104.822 Y105.340 E2.08717
G1 X104.831 Y105.502 E2.09166
G1 X104.789 Y105.653 E2.09595
G1 X104.702 Y105.803 E2.10073
G1 X104.207 Y106.298 E2.12002
G1 E0.12002 F2400.00000
G92 E0
G1 X102.871 Y98.062 F7800.000
G1 E2.00000 F2400.00000
G1 F1172.63
G1 X103.366 Y97.568 E2.01926
G1 X103.310 Y97.468 E2.02240
G1 X103.494 Y97.090 E2.03397
G1 X103.686 Y96.598 E2.04854
G1 X103.695 Y96.410 E2.05371
G1 X103.666 Y96.349 E2.05556
G1 X102.258 Y97.757 E2.11040
G1 X102.111 Y97.499 E2.11858
G1 X101.875 Y97.222 E2.12860
G1 X103.179 Y95.918 E2.17940
G1 X102.500 Y95.680 E2.19923
G1 X101.372 Y96.808 E2.24318
G1 X100.806 Y96.456 E2.26153
G1 X102.059 Y95.203 E2.31034
G1 X101.984 Y95.053 E2.31496
G1 X101.930 Y94.773 E2.32282
G1 X101.925 Y94.529 E2.32954
G1 X101.944 Y94.400 E2.33313
G1 X100.244 Y96.100 E2.39934
G1 X100.169 Y96.043 E2.40194
G1 X99.929 Y95.760 E2.41215
G1 X99.825 Y95.602 E2.41738
G1 X102.293 Y93.134 E2.51351
G1 X101.994 Y93.372 E2.52404
G1 X101.673 Y93.562 E2.53430
G1 X100.947 Y93.862 E2.55592
G1 X100.423 Y94.129 E2.57214
G1 X100.282 Y94.226 E2.57684
G1 X99.788 Y94.721 E2.59610
G1 E0.59610 F2400.00000
G92 E0
G1 X102.241 Y94.104 F7800.000
G1 E2.00000 F2400.00000
G1 F1172.63
G1 X103.630 Y92.714 E2.05412
G1 X103.449 Y91.978 E2.07501
G1 X101.893 Y93.533 E2.13560
G1 X102.134 Y93.197 E2.14700
G1 X102.211 Y92.956 E2.15395
G1 X102.307 Y92.508 E2.16657
G1 X102.626 Y92.142 E2.17995
G1 X102.898 Y92.258 E2.18810
G1 X102.954 Y92.472 E2.19419
G1 Z1.800 F7800.000
G1 X103.174 Y92.530 F7800.000
G1 F789.904
G1 X102.679 Y92.036 E2.21344
G1 X102.647 Y92.028 E2.21436
G1 X102.555 Y92.097 E2.21752
G1 X102.495 Y92.203 E2.22087
G1 X102.363 Y92.636 E2.23333
G1 X103.301 Y93.574 E2.26981
G1 X103.209 Y93.651 E2.27310
G1 X102.962 Y93.771 E2.28066
G1 X102.841 Y93.794 E2.28406
G1 X102.689 Y93.779 E2.28826
G1 X102.606 Y93.796 E2.29058
G1 X102.112 Y93.301 E2.30981
G1 X101.781 Y94.329 F7800.000
G1 F789.904
G1 X101.286 Y93.834 E2.32905
G1 X101.201 Y93.830 E2.33141
G1 X100.686 Y93.962 E2.34602
G1 X100.438 Y94.064 E2.35341
G1 X101.808 Y95.434 E2.40671
G1 X101.839 Y95.649 E2.41269
G1 X102.015 Y96.121 E2.42653
G1 X102.496 Y96.470 E2.44290
G1 X102.960 Y96.587 E2.45606
G1 X103.425 Y97.051 E2.47414
G1 X103.380 Y97.307 E2.48128
G1 X103.275 Y97.512 E2.48762
G1 X103.128 Y97.664 E2.49344
G1 X102.974 Y97.565 E2.49846
G1 X102.833 Y97.417 E2.50409
G1 X102.523 Y97.013 E2.51809
G1 X102.201 Y96.707 E2.53033
G1 X101.764 Y96.428 E2.54458
G1 X101.699 Y96.404 E2.54648
G1 X99.893 Y94.598 E2.61673
G1 E0.61673 F2400.00000
G92 E0
G1 X105.033 Y99.748 F7800.000
G1 E2.00000 F2400.00000
G1 F3159.62
G1 X103.925 Y98.639 E2.03731
G1 X103.544 Y98.544 E2.04664
G1 X102.866 Y98.462 E2.06288
G1 X104.533 Y100.128 E2.11895
G1 X104.038 Y100.515 E2.13388
G1 X101.979 Y98.455 E2.20318
G1 X101.187 Y98.545 E2.22213
G1 X103.557 Y100.914 E2.30185
G1 X103.010 Y101.248 E2.31709
G1 X100.336 Y98.574 E2.40706
G1 X99.458 Y98.578 E2.42795
G1 X102.424 Y101.543 E2.52773
G1 X101.820 Y101.820 E2.54354
G1 X98.617 Y98.617 E2.65133
G1 X97.804 Y98.685 E2.67073
G1 X101.190 Y102.070 E2.78465
G1 X100.554 Y102.316 E2.80086
G1 X97.018 Y98.780 E2.91983
G1 X96.284 Y98.926 E2.93765
G1 X99.970 Y102.613 E3.06169
G1 X99.351 Y102.875 E3.07768
G1 X95.592 Y99.116 E3.20418
G1 X94.907 Y99.312 E3.22113
G1 X98.713 Y103.118 E3.34921
G1 X98.040 Y103.325 E3.36598
G1 X94.207 Y99.492 E3.49496
G1 X93.489 Y99.655 E3.51247
G1 X97.289 Y103.456 E3.64036
G1 X96.573 Y103.496 E3.65744
G1 X96.447 Y103.495 E3.66043
G1 X92.746 Y99.794 E3.78496
G1 X91.978 Y99.906 E3.80344
G1 X95.501 Y103.430 E3.92200
G1 X94.996 Y103.361 E3.93415
G1 X94.445 Y103.254 E3.94749
G1 X91.106 Y99.915 E4.05985
G1 X91.059 Y99.915 E4.06098
G1 X90.801 Y99.723 E4.06863
G1 X90.783 Y99.689 E4.06955
G1 X90.742 Y99.671 E4.07061
G1 X90.618 Y99.735 E4.07393
G1 X90.551 Y99.834 E4.07679
G1 X90.277 Y99.968 E4.08402
G1 X93.256 Y102.946 E4.18425
G1 X92.036 Y102.607 E4.21439
G1 X89.370 Y99.941 E4.30408
G1 X88.905 Y99.854 E4.31534
G1 X88.165 Y99.617 E4.33383
G1 X90.725 Y102.177 E4.41996
G1 X90.030 Y101.899 E4.43776
G1 X89.919 Y101.836 E4.44082
G1 X88.817 Y100.986 E4.47392
G1 X88.352 Y100.685 E4.48709
G1 X81.903 Y94.236 E4.70411
G1 X81.790 Y94.313 E4.70736
G1 X81.447 Y94.661 E4.71899
G1 X87.013 Y100.227 E4.90626
G1 X86.569 Y100.133 E4.91705
G1 X85.951 Y100.046 E4.93191
G1 X81.265 Y95.360 E5.08957
G1 X81.292 Y95.685 E5.09734
G1 X81.391 Y96.234 E5.11061
G1 X81.378 Y96.354 E5.11348
G1 X85.007 Y99.983 E5.23560
G1 X84.242 Y99.944 E5.25383
G1 X84.012 Y99.869 E5.25958
G1 X81.388 Y97.245 E5.34788
G1 E3.34788 F2400.00000
G92 E0
G1 X81.903 Y94.236 F7800.000
G1 E2.00000 F2400.00000
G1 F3159.62
G1 X82.035 Y94.030 E2.00583
G1 X82.283 Y93.741 E2.01487
G1 X82.273 Y93.725 E2.01532
G1 X86.431 Y97.883 E2.15522
G1 X85.221 Y95.792 F7800.000
G1 F3159.62
G1 X83.955 Y94.526 E2.19783
G1 X84.408 Y94.905 E2.21189
G1 X84.756 Y95.327 E2.22490
G1 X83.700 Y94.271 F7800.000
G1 F3159.62
G1 X83.180 Y93.751 E2.24238
G1 X83.254 Y93.784 E2.24430
G1 X83.234 Y93.805 E2.24501
G1 E0.24501 F2400.00000
G92 E0
G1 X90.260 Y101.712 F7800.000
G1 E2.00000 F2400.00000
G1 F3159.62
G1 X90.483 Y101.805 E2.00576
G1 X90.710 Y101.980 E2.01259
G1 X90.772 Y102.224 E2.01858
G1 X91.375 Y102.827 E2.03887
G1 E0.03887 F2400.00000
G92 E0
G1 X101.034 Y105.130 F7800.000
G1 E2.00000 F2400.00000
G1 F789.904
G1 X101.563 Y105.644 E2.02127
G1 X101.732 Y105.622 E2.02619
G1 X101.918 Y105.548 E2.03197
G1 X102.324 Y105.458 E2.04396
G1 X101.335 Y104.470 E2.08426
G1 X101.789 Y103.963 E2.10389
G1 X102.870 Y105.043 E2.14797
G1 X102.833 Y104.429 E2.16572
G1 X102.791 Y104.307 E2.16945
G1 X102.855 Y104.068 E2.17659
G1 X102.192 Y103.405 E2.20362
G1 X102.316 Y103.173 E2.21121
G1 X102.453 Y102.704 E2.22529
G1 X103.193 Y103.444 E2.25548
G1 X103.369 Y103.040 E2.26819
G1 X103.401 Y102.846 E2.27388
G1 X103.403 Y102.694 E2.27827
G1 X102.667 Y101.958 E2.30828
G1 X102.680 Y101.807 E2.31263
G1 X102.799 Y101.505 E2.32201
G1 X102.683 Y101.365 E2.32725
G1 X102.811 Y101.307 E2.33132
G1 X102.906 Y101.235 E2.33475
G1 X103.400 Y101.730 E2.35492
G1 Z2.100 F7800.000
G1 E0.35492 F2400.00000
G92 E0
G1 X101.001 Y95.917 F7800.000
G1 E2.00000 F2400.00000
G1 F600
G1 X101.527 Y95.377 E2.02439
G1 X101.571 Y94.900 E2.03991
G1 X101.494 Y94.416 E2.05577
G1 X101.464 Y94.375 E2.05741
G1 X100.319 Y95.520 E2.10982
G1 X100.278 Y95.437 E2.11283
G1 X100.247 Y95.250 E2.11896
G1 X100.301 Y95.047 E2.12575
G1 X100.501 Y94.830 E2.13531
G1 X100.664 Y94.752 E2.14114
G1 X100.850 Y94.743 E2.14719
G1 X100.905 Y94.756 E2.14902
G1 X100.970 Y94.869 E2.15324
G1 E0.15324 F2400.00000
G92 E0
G1 X102.608 Y100.916 F7800.000
G1 E2.00000 F2400.00000
G1 F1823.68
G1 X104.568 Y98.955 E2.06596
G1 X104.035 Y98.818 E2.07906
G1 X103.848 Y98.795 E2.08355
G1 X100.924 Y101.719 E2.18193
G1 X100.112 Y102.024 E2.20258
G1 X99.365 Y102.397 E2.22245
G1 X103.051 Y98.711 E2.34648
G1 X102.501 Y98.712 E2.35956
G1 X102.126 Y98.755 E2.36854
G1 X97.929 Y102.952 E2.50976
G1 X97.378 Y103.104 E2.52337
G1 X96.804 Y103.196 E2.53720
G1 X101.163 Y98.837 E2.68388
G1 X100.287 Y98.833 E2.70472
G1 X95.886 Y103.233 E2.85279
G1 X95.696 Y103.231 E2.85732
G1 X95.067 Y103.171 E2.87235
G1 X99.379 Y98.859 E3.01744
G1 X98.427 Y98.931 E3.04017
G1 X94.300 Y103.057 E3.17902
G1 X93.585 Y102.891 E3.19648
G1 X97.426 Y99.051 E3.32571
G1 X96.838 Y99.168 E3.33997
G1 X96.276 Y99.320 E3.35383
G1 X92.890 Y102.705 E3.46774
G1 X92.206 Y102.509 E3.48468
G1 X95.053 Y99.661 E3.58050
G1 X93.903 Y99.930 E3.60860
G1 X91.519 Y102.314 E3.68882
G1 X90.855 Y102.098 E3.70545
G1 X92.839 Y100.113 E3.77223
G1 X91.842 Y100.230 E3.79613
G1 X90.195 Y101.877 E3.85155
G1 X89.683 Y101.678 E3.86462
G1 X89.574 Y101.617 E3.86759
G1 X90.937 Y100.254 E3.91344
G1 X90.486 Y100.261 E3.92416
G1 X90.072 Y100.238 E3.93404
G1 X89.072 Y101.238 E3.96769
G1 X88.573 Y100.856 E3.98264
G1 X89.323 Y100.106 E4.00790
G1 X88.654 Y99.894 E4.02460
G1 X88.048 Y100.500 E4.04500
G1 X87.828 Y100.364 E4.05115
G1 X87.446 Y100.221 E4.06086
G1 X88.037 Y99.630 E4.08075
G1 X87.737 Y99.448 E4.08909
G1 X87.525 Y99.261 E4.09582
G1 X86.773 Y100.013 E4.12110
G1 X86.045 Y99.861 E4.13882
G1 X87.091 Y98.814 E4.17403
G1 X86.834 Y98.506 E4.18357
G1 X86.713 Y98.312 E4.18903
G1 X85.255 Y99.769 E4.23809
G1 X84.427 Y99.716 E4.25782
G1 X86.374 Y97.769 E4.32336
G1 X86.062 Y97.201 E4.33879
G1 X83.635 Y99.627 E4.42043
G1 X83.538 Y99.595 E4.42287
G1 X83.107 Y99.274 E4.43565
G1 X85.746 Y96.636 E4.52444
G1 X85.430 Y96.071 E4.53984
G1 X82.672 Y98.829 E4.63264
G1 X82.503 Y98.655 E4.63839
G1 X82.247 Y98.677 E4.64451
G1 X82.166 Y98.712 E4.64660
G1 X82.004 Y98.725 E4.65048
G1 X81.944 Y98.676 E4.65233
G1 X85.088 Y95.531 E4.75812
G1 X84.687 Y95.052 E4.77300
G1 X81.597 Y98.141 E4.87695
G1 X81.482 Y97.860 E4.88418
G1 X81.386 Y97.472 E4.89370
G1 X84.200 Y94.658 E4.98839
G1 X84.073 Y94.498 E4.99324
G1 X83.984 Y94.284 E4.99875
G1 X83.871 Y94.105 E5.00378
G1 X81.543 Y96.434 E5.08213
G1 X81.484 Y96.025 E5.09195
G1 X81.474 Y95.622 E5.10156
G1 X83.373 Y93.723 E5.16544
M106 S249.9
G1 Z2.400 F7800.000
G1 X83.292 Y94.015 F7800.000
G1 F1200
G1 X83.787 Y94.510 E5.18434
G1 E3.18434 F2400.00000
G92 E0
G1 X85.995 Y97.619 F7800.000
G1 E2.00000 F2400.00000
G1 F1200
G1 X82.262 Y93.886 E2.14270
G1 X82.162 Y93.991 E2.14662
G1 X82.374 Y94.079 E2.15284
G1 X81.958 Y94.482 E2.16851
G1 X87.543 Y100.067 E2.38202
G1 X87.181 Y99.973 E2.39212
G1 X86.391 Y99.817 E2.41389
G1 X81.548 Y94.973 E2.59904
G1 X81.505 Y95.066 E2.60181
G1 X81.490 Y95.323 E2.60877
G1 X81.560 Y95.886 E2.62409
G1 X85.396 Y99.722 E2.77073
G1 X84.443 Y99.669 E2.79654
G1 X81.436 Y96.662 E2.91148
G1 X81.433 Y96.842 E2.91634
G1 X81.463 Y97.030 E2.92149
G1 X81.536 Y97.311 E2.92932
G1 X81.684 Y97.680 E2.94008
G1 X81.847 Y97.955 E2.94873
G1 X82.512 Y98.639 E2.97450
G1 E0.97450 F2400.00000
G92 E0
G1 X88.223 Y100.095 F7800.000
G1 E2.00000 F2400.00000
G1 F1200
G1 X88.718 Y100.590 E2.01892
G1 X88.931 Y100.728 E2.02579
G1 X89.925 Y101.500 E2.05980
G1 X90.183 Y101.660 E2.06801
G1 X91.055 Y101.987 E2.09318
G1 X89.286 Y100.218 E2.16079
G1 X89.488 Y100.256 E2.16634
G1 X90.006 Y100.284 E2.18036
G1 X90.288 Y100.279 E2.18798
G1 X92.407 Y102.399 E2.26900
G1 X93.718 Y102.770 E2.30583
G1 X91.212 Y100.264 E2.40163
G1 X92.067 Y100.178 E2.42485
G1 X94.951 Y103.063 E2.53512
G1 X95.570 Y103.151 E2.55201
G1 X96.022 Y103.193 E2.56429
G1 X92.883 Y100.055 E2.68428
G1 X93.669 Y99.901 E2.70593
G1 X96.955 Y103.187 E2.83155
G1 X97.448 Y103.157 E2.84490
G1 X97.795 Y103.086 E2.85446
G1 X94.430 Y99.721 E2.98309
G1 X95.174 Y99.525 E3.00387
G1 X98.534 Y102.885 E3.13234
G1 X99.224 Y102.635 E3.15217
G1 X95.908 Y99.319 E3.27891
G1 X96.369 Y99.190 E3.29186
G1 X96.661 Y99.132 E3.29989
G1 X99.884 Y102.354 E3.42310
G1 X100.508 Y102.039 E3.44201
G1 X97.480 Y99.011 E3.55776
G1 X98.329 Y98.920 E3.58083
G1 X101.182 Y101.772 E3.68988
G1 X101.856 Y101.506 E3.70947
G1 X99.222 Y98.873 E3.81015
G1 X100.153 Y98.864 E3.83533
G1 X102.494 Y101.204 E3.92479
G1 X103.103 Y100.873 E3.94353
G1 X101.069 Y98.839 E4.02127
G1 X101.916 Y98.747 E4.04432
G1 X103.662 Y100.492 E4.11105
G1 X104.179 Y100.070 E4.12911
G1 X102.861 Y98.751 E4.17952
G1 X103.547 Y98.841 E4.19821
G1 X104.007 Y98.957 E4.21106
G1 X104.502 Y99.452 E4.22996
M106 S252.45
G1 Z2.700 F7800.000
G1 X103.789 Y99.676 F7800.000
G1 F1200
G1 X104.293 Y99.167 E4.25052
G1 X104.069 Y99.116 E4.25712
G1 X103.482 Y99.026 E4.27416
G1 X101.211 Y101.297 E4.36633
G1 X100.017 Y101.758 E4.40308
G1 X99.561 Y101.990 E4.41777
G1 X102.555 Y98.996 E4.53930
G1 X101.488 Y99.108 E4.57011
G1 X97.956 Y102.639 E4.71344
G1 X97.558 Y102.768 E4.72547
G1 X96.929 Y102.898 E4.74390
G1 X96.720 Y102.918 E4.74991
G1 X100.521 Y99.118 E4.90418
G1 X99.545 Y99.137 E4.93219
G1 X95.736 Y102.946 E5.08680
G1 X94.869 Y102.857 E5.11183
G1 X98.517 Y99.209 E5.25992
G1 X97.730 Y99.296 E5.28266
G1 X97.416 Y99.353 E5.29180
G1 X94.050 Y102.720 E5.42845
G1 X93.289 Y102.524 E5.45099
G1 X96.160 Y99.653 E5.56751
G1 X94.852 Y100.005 E5.60640
G1 X92.538 Y102.319 E5.70031
G1 X91.805 Y102.096 E5.72231
G1 X93.626 Y100.275 E5.79623
G1 X92.498 Y100.446 E5.82898
G1 X91.069 Y101.875 E5.88695
G1 X90.349 Y101.639 E5.90871
G1 X91.453 Y100.534 E5.95355
G1 X90.480 Y100.551 E5.98148
G1 X89.669 Y101.363 E6.01443
G1 X89.126 Y100.949 E6.03402
G1 X89.621 Y100.454 E6.05409
G1 E4.05409 F2400.00000
G92 E0
G1 X86.591 Y99.684 F7800.000
G1 E2.00000 F2400.00000
G1 F1200
G1 X87.086 Y99.190 E2.02007
G1 X86.654 Y98.666 E2.03955
G1 X85.780 Y99.540 E2.07500
G1 X84.902 Y99.461 E2.10029
G1 X86.279 Y98.084 E2.15617
G1 X85.937 Y97.471 E2.17633
G1 X83.995 Y99.412 E2.25511
G1 X83.848 Y99.406 E2.25935
G1 X83.617 Y99.330 E2.26633
G1 X83.327 Y99.125 E2.27653
G1 X85.595 Y96.856 E2.36858
G1 X85.253 Y96.242 E2.38875
G1 X82.842 Y98.653 E2.48656
G1 X82.502 Y98.313 E2.50035
G1 X82.205 Y98.509 E2.51057
G1 X82.052 Y98.574 E2.51532
G1 X82.008 Y98.531 E2.51709
G1 X84.882 Y95.657 E2.63372
G1 X84.556 Y95.277 E2.64808
G1 X84.420 Y95.163 E2.65319
G1 X81.646 Y97.936 E2.76573
G1 X81.543 Y97.631 E2.77498
G1 X81.483 Y97.288 E2.78497
G1 X81.490 Y97.137 E2.78933
G1 X83.966 Y94.660 E2.88981
G1 X83.864 Y94.236 E2.90234
G1 X83.738 Y94.048 E2.90883
G1 X83.671 Y93.999 E2.91120
G1 X81.708 Y95.962 E2.99085
G1 X81.710 Y95.635 E3.00023
G1 X81.773 Y95.504 E3.00439
G1 X82.083 Y95.147 E3.01796
G1 X82.083 Y95.088 E3.01966
G1 X82.242 Y94.679 E3.03226
G1 X82.130 Y94.672 E3.03548
G1 X82.155 Y94.583 E3.03811
G1 X82.198 Y94.516 E3.04041
G1 X82.696 Y94.018 E3.06061
M106 S255
G1 Z3.000 F7800.000
G1 X83.305 Y94.305 F7800.000
G1 F913.944
G1 X83.799 Y94.800 E3.08122
G1 E1.08122 F2400.00000
G92 E0
G1 X85.312 Y97.295 F7800.000
G1 E2.00000 F2400.00000
G1 F913.944
G1 X82.188 Y94.170 E2.13027
G1 X82.172 Y94.263 E2.13305
G1 X82.220 Y94.743 E2.14725
G1 X82.131 Y94.962 E2.15424
G1 X82.067 Y95.032 E2.15703
G1 X86.319 Y99.285 E2.33434
G1 X86.053 Y99.248 E2.34227
G1 X85.241 Y99.189 E2.36626
G1 X82.007 Y95.954 E2.50114
G1 X82.024 Y96.143 E2.50672
G1 X81.995 Y96.431 E2.51526
G1 X81.640 Y96.570 E2.52651
G1 X83.265 Y98.195 E2.59428
G1 X82.951 Y98.006 E2.60508
G1 X82.645 Y98.282 E2.61723
G1 X82.539 Y98.449 E2.62307
G1 X82.027 Y97.940 E2.64438
G1 X82.771 Y97.701 F7800.000
G1 F913.944
G1 X84.090 Y99.020 E2.69939
G1 E0.69939 F2400.00000
G92 E0
G1 X90.897 Y101.048 F7800.000
G1 E2.00000 F2400.00000
G1 F913.944
G1 X91.391 Y101.543 E2.01965
G1 X92.742 Y101.957 E2.05934
G1 X91.545 Y100.760 E2.10693
G1 X92.382 Y100.661 E2.13063
G1 X94.048 Y102.327 E2.19681
G1 X94.409 Y102.426 E2.20733
G1 X95.001 Y102.548 E2.22429
G1 X95.232 Y102.575 E2.23084
G1 X93.184 Y100.527 E2.31221
G1 X93.959 Y100.366 E2.33445
G1 X96.279 Y102.685 E2.42660
G1 X96.932 Y102.674 E2.44495
G1 X97.184 Y102.655 E2.45206
G1 X94.710 Y100.181 E2.55034
G1 X95.446 Y99.981 E2.57176
G1 X97.982 Y102.516 E2.67250
G1 X98.685 Y102.283 E2.69330
G1 X96.177 Y99.775 E2.79293
G1 X96.413 Y99.709 E2.79982
G1 X96.941 Y99.603 E2.81494
G1 X99.363 Y102.025 E2.91117
G1 X100.008 Y101.734 E2.93106
G1 X97.772 Y99.498 E3.01992
G1 X98.641 Y99.431 E3.04440
G1 X100.645 Y101.435 E3.12404
G1 X101.323 Y101.177 E3.14443
G1 X99.534 Y99.388 E3.21551
G1 X100.468 Y99.385 E3.24173
G1 X101.971 Y100.889 E3.30146
G1 X102.599 Y100.581 E3.32112
G1 X101.354 Y99.336 E3.37060
G1 X102.050 Y99.258 E3.39027
G1 X102.212 Y99.257 E3.39481
G1 X103.197 Y100.242 E3.43395
G1 X103.716 Y99.826 F7800.000
G1 F913.944
G1 X103.222 Y99.331 E3.45359
G1 Z3.300 F7800.000
G1 X102.052 Y100.318 F7800.000
G1 F748.088
G1 X102.546 Y99.823 E3.47296
G1 X102.555 Y99.520 E3.48136
G1 X101.850 Y99.597 E3.50103
G1 X100.367 Y101.079 E3.55908
G1 X99.892 Y101.262 E3.57319
G1 X99.269 Y101.580 E3.59256
G1 X98.704 Y101.820 E3.60955
G1 X100.871 Y99.653 E3.69441
G1 X100.434 Y99.636 E3.70652
G1 X99.954 Y99.648 E3.71983
G1 X97.313 Y102.288 E3.82323
G1 X96.894 Y102.378 E3.83511
G1 X96.426 Y102.412 E3.84811
G1 X96.264 Y102.415 E3.85261
G1 X98.985 Y99.693 E3.95920
G1 X97.959 Y99.796 E3.98775
G1 X95.365 Y102.391 E4.08937
G1 X94.546 Y102.287 E4.11222
G1 X96.839 Y99.994 E4.20202
G1 X95.554 Y100.356 E4.23899
G1 X93.786 Y102.124 E4.30821
G1 X93.061 Y101.926 E4.32903
G1 X94.330 Y100.657 E4.37873
G1 X93.192 Y100.873 E4.41083
G1 X92.348 Y101.716 E4.44387
G1 X91.638 Y101.504 E4.46440
G1 X92.132 Y101.009 E4.48377
G1 E2.48377 F2400.00000
G92 E0
G1 X85.193 Y98.961 F7800.000
G1 E2.00000 F2400.00000
G1 F748.088
G1 X85.688 Y98.467 E2.01888
G1 X85.546 Y98.153 E2.02817
G1 X85.750 Y98.047 E2.03439
G1 X85.557 Y97.698 E2.04514
G1 X84.347 Y98.908 E2.09132
G1 X83.927 Y98.891 E2.10267
G1 X83.762 Y98.840 E2.10731
G1 X83.612 Y98.743 E2.11213
G1 X85.235 Y97.120 E2.17406
G1 X84.914 Y96.543 E2.19191
G1 X83.165 Y98.291 E2.25864
G1 X82.776 Y97.781 E2.27596
G1 X84.565 Y95.992 E2.34426
G1 X84.360 Y95.746 E2.35289
G1 X84.113 Y95.544 E2.36151
G1 X82.303 Y97.354 E2.43061
G1 X82.262 Y97.317 E2.43211
G1 X82.212 Y97.446 E2.43583
G1 X81.820 Y97.838 E2.45080
G1 X81.760 Y97.716 E2.45446
G1 X81.699 Y97.519 E2.46002
G1 X81.650 Y97.235 E2.46780
G1 X81.851 Y97.343 E2.47397
G1 X82.400 Y97.231 E2.48910
G1 X82.246 Y96.512 E2.50895
G1 X83.670 Y95.088 E2.56332
G1 X83.651 Y94.934 E2.56751
G1 X83.767 Y94.475 E2.58029
G1 X83.767 Y94.398 E2.58238
G1 X83.740 Y94.309 E2.58488
G1 X83.649 Y94.209 E2.58852
G1 X82.383 Y95.475 E2.63685
G1 X82.390 Y95.297 E2.64167
G1 X82.251 Y94.821 E2.65505
G1 X82.239 Y94.827 E2.65542
G1 X82.237 Y94.764 E2.65712
G1 X82.281 Y94.678 E2.65973
G1 X82.777 Y94.182 E2.67864
G1 Z3.600 F7800.000
G1 E0.67864 F2400.00000
G92 E0
G1 X93.403 Y101.607 F7800.000
G1 E2.00000 F2400.00000
G1 F600
G1 X92.908 Y101.113 E2.01903
G1 X93.660 Y100.958 E2.03994
G1 X94.655 Y101.952 E2.07822
G1 X94.990 Y102.022 E2.08755
G1 X95.716 Y102.106 E2.10744
G1 X94.400 Y100.790 E2.15810
G1 X95.122 Y100.605 E2.17839
G1 X96.672 Y102.155 E2.23807
G1 X97.370 Y102.118 E2.25709
G1 X97.511 Y102.087 E2.26103
G1 X95.832 Y100.408 E2.32569
G1 X96.542 Y100.211 E2.34576
G1 X98.229 Y101.898 E2.41070
G1 X98.907 Y101.669 E2.43018
G1 X97.316 Y100.078 E2.49142
G1 X98.129 Y99.984 E2.51369
G1 X99.543 Y101.398 E2.56814
G1 X100.153 Y101.101 E2.58660
G1 X98.974 Y99.922 E2.63198
G1 X99.858 Y99.898 E2.65603
G1 X100.793 Y100.834 E2.69204
G1 X101.267 Y100.401 F7800.000
G1 F600
G1 X100.773 Y99.906 E2.71108
G1 E0.71108 F2400.00000
G92 E0
G1 X84.454 Y96.719 F7800.000
G1 E2.00000 F2400.00000
G1 F600
G1 X83.478 Y95.743 E2.04235
G1 X83.750 Y95.964 E2.05311
G1 X83.959 Y96.224 E2.06336
G1 X83.344 Y95.610 F7800.000
G1 F600
G1 X82.576 Y94.841 E2.09671
G1 X82.715 Y95.267 E2.11045
G1 X82.437 Y95.399 E2.11988
G1 X82.368 Y95.460 E2.12270
G1 X82.356 Y95.561 E2.12584
G1 X82.378 Y95.666 E2.12913
G1 X85.114 Y98.401 E2.24782
G1 X84.894 Y98.392 E2.25456
G1 X84.879 Y98.650 E2.26251
G1 X84.485 Y98.635 E2.27460
G1 X84.335 Y98.593 E2.27938
G1 X84.190 Y98.499 E2.28467
G1 X83.348 Y97.658 E2.32120
G1 E0.32120 F2400.00000
G92 E0
G1 X83.588 Y94.830 F7800.000
G1 E2.00000 F2400.00000
G1 F600
G1 X83.093 Y94.336 E2.02145
G1 Z3.900 F7800.000
G1 E0.02145 F2400.00000
G92 E0
G1 X93.995 Y101.645 F7800.000
G1 E2.00000 F2400.00000
G1 F600
G1 X94.489 Y101.151 E2.02127
G1 X95.845 Y100.808 E2.06383
G1 X94.853 Y101.801 E2.10653
G1 X95.764 Y101.904 E2.13441
G1 X97.232 Y100.436 E2.19759
G1 X97.562 Y100.369 E2.20784
G1 X98.411 Y100.271 E2.23383
G1 X96.822 Y101.859 E2.30219
G1 X97.435 Y101.729 E2.32126
G1 X98.236 Y101.459 E2.34696
G1 X99.515 Y100.180 E2.40200
G1 X100.543 Y100.167 E2.43327
G1 X100.048 Y100.661 E2.45455
G1 E0.45455 F2400.00000
G92 E0
G1 X84.653 Y98.403 F7800.000
G1 E2.00000 F2400.00000
G1 F600
G1 X85.148 Y97.908 E2.01989
G1 X85.060 Y97.692 E2.02652
G1 X84.828 Y97.280 E2.03998
G1 X83.825 Y98.283 E2.08034
G1 X83.478 Y97.948 E2.09406
G1 X83.365 Y97.795 E2.09947
G1 X84.473 Y96.687 E2.14402
G1 X84.122 Y96.176 E2.16166
G1 X84.075 Y96.138 E2.16340
G1 X82.987 Y97.225 E2.20715
G1 X82.777 Y96.766 E2.22150
G1 X82.717 Y96.577 E2.22715
G1 X82.903 Y96.562 E2.23246
G1 X82.889 Y96.378 E2.23769
G1 X83.499 Y95.765 E2.26230
G1 Z4.200 F7800.000
G1 E0.26230 F2400.00000
G92 E0
G1 X95.942 Y101.544 F7800.000
G1 E2.00000 F2400.00000
G1 F600
G1 X95.765 Y101.594 E2.00598
G1 X96.019 Y101.621 E2.01426
G1 X95.448 Y101.050 E2.04041
G1 X96.286 Y100.809 E2.06863
G1 X97.087 Y101.610 E2.10531
G1 X97.387 Y101.588 E2.11506
G1 X97.993 Y101.438 E2.13526
G1 X97.174 Y100.618 E2.17279
G1 X98.141 Y100.507 E2.20431
G1 X98.635 Y101.001 E2.22695
G1 Z4.500 F7800.000
G1 E0.22695 F2400.00000
G92 E0
M107
; Filament-specific end gcode 
;END gcode for filament

M104 S0 ; turn off temperature
G28 X0  ; home X axis
M84     ; disable motors

M140 S0 ; set bed temperature
; filament used = 61.2mm (0.4cm3)
; total filament cost = 0.0

; avoid_crossing_perimeters = 0
; bed_shape = 0x0,200x0,200x200,0x200
; bed_temperature = 0
; before_layer_gcode = 
; between_objects_gcode = 
; bridge_acceleration = 0
; bridge_fan_speed = 100
; brim_connections_width = 0
; brim_width = 0
; complete_objects = 0
; cooling = 1
; default_acceleration = 0
; disable_fan_first_layers = 3
; duplicate_distance = 6
; end_filament_gcode = "; Filament-specific end gcode \n;END gcode for filament\n"
; end_gcode = M104 S0 ; turn off temperature\nG28 X0  ; home X axis\nM84     ; disable motors\n
; extruder_clearance_height = 20
; extruder_clearance_radius = 20
; extruder_offset = 0x0
; extrusion_axis = E
; extrusion_multiplier = 1
; fan_always_on = 0
; fan_below_layer_time = 60
; filament_colour = #FFFFFF
; filament_cost = 0
; filament_density = 0
; filament_diameter = 3
; filament_max_volumetric_speed = 0
; filament_notes = ""
; first_layer_acceleration = 0
; first_layer_bed_temperature = 0
; first_layer_extrusion_width = 200%
; first_layer_speed = 30
; first_layer_temperature = 205
; gcode_arcs = 0
; gcode_comments = 0
; gcode_flavor = reprap
; has_heatbed = 1
; infill_acceleration = 0
; infill_first = 0
; interior_brim_width = 0
; layer_gcode = 
; max_fan_speed = 100
; max_layer_height = 0.3
; max_print_speed = 80
; max_volumetric_speed = 0
; min_fan_speed = 35
; min_layer_height = 0.15
; min_print_speed = 10
; min_skirt_length = 0
; notes = 
; nozzle_diameter = 0.5
; only_retract_when_crossing_perimeters = 1
; ooze_prevention = 0
; output_filename_format = [input_filename_base].gcode
; perimeter_acceleration = 0
; post_process = 
; pressure_advance = 0
; printer_notes = 
; resolution = 0
; retract_before_travel = 2
; retract_layer_change = 0
; retract_length = 2
; retract_length_toolchange = 10
; retract_lift = 0
; retract_lift_above = 0
; retract_lift_below = 0
; retract_restart_extra = 0
; retract_restart_extra_toolchange = 0
; retract_speed = 40
; skirt_distance = 6
; skirt_height = 1
; skirts = 0
; slowdown_below_layer_time = 5
; spiral_vase = 0
; standby_temperature_delta = -5
; start_filament_gcode = "; Filament gcode\n"
; start_gcode = G28 ; home all axes\nG1 Z5 F5000 ; lift nozzle\n
; temperature = 200
; threads = 8
; toolchange_gcode = 
; travel_speed = 130
; use_firmware_retraction = 0
; use_relative_e_distances = 0
; use_set_and_wait_bed = 0
; use_set_and_wait_extruder = 0
; use_volumetric_e = 0
; vibration_limit = 0
; wipe = 0
; z_offset = 0
; z_steps_per_mm = 0
; adaptive_slicing = 0
; adaptive_slicing_quality = 75%
; dont_support_bridges = 1
; extrusion_width = 0
; first_layer_height = 0.3
; infill_only_where_needed = 0
; interface_shells = 0
; layer_height = 0.3
; match_horizontal_surfaces = 0
; raft_layers = 0
; regions_overlap = 0
; seam_position = aligned
; sequential_print_priority = 0
; support_material = 0
; support_material_angle = 0
; support_material_buildplate_only = 0
; support_material_contact_distance = 0.2
; support_material_enforce_layers = 0
; support_material_extruder = 1
; support_material_extrusion_width = 0
; support_material_interface_extruder = 1
; support_material_interface_extrusion_width = 0
; support_material_interface_layers = 3
; support_material_interface_spacing = 0
; support_material_interface_speed = 100%
; support_material_max_layers = 0
; support_material_pattern = pillars
; support_material_spacing = 2.5
; support_material_speed = 60
; support_material_threshold = 60%
; xy_size_compensation = 0
; bottom_infill_pattern = rectilinear
; bottom_solid_layers = 0
; bridge_flow_ratio = 1
; bridge_speed = 60
; external_perimeter_extrusion_width = 0
; external_perimeter_speed = 50%
; external_perimeters_first = 0
; extra_perimeters = 1
; fill_angle = 45
; fill_density = 90%
; fill_gaps = 1
; fill_pattern = rectilinear
; gap_fill_speed = 20
; infill_every_layers = 1
; infill_extruder = 1
; infill_extrusion_width = 0
; infill_overlap = 55%
; infill_speed = 80
; overhangs = 1
; perimeter_extruder = 1
; perimeter_extrusion_width = 0
; perimeter_speed = 60
; perimeters = 0
; small_perimeter_speed = 15
; solid_infill_below_area = 70
; solid_infill_every_layers = 0
; solid_infill_extruder = 1
; solid_infill_extrusion_width = 0
; solid_infill_speed = 20
; thin_walls = 1
; top_infill_extrusion_width = 0
; top_infill_pattern = rectilinear
; top_solid_infill_speed = 15
; top_solid_layers = 0
