; generated by Slic3r 1.3.0 on 2020-03-10 at 15:10:25

; external perimeters extrusion width = 0.55mm (4.37mm^3/s)
; perimeters extrusion width = 0.70mm (11.44mm^3/s)
; infill extrusion width = 0.63mm (13.45mm^3/s)
; solid infill extrusion width = 0.70mm (3.81mm^3/s)
; top infill extrusion width = 0.70mm (2.86mm^3/s)

M107
M104 S205 ; set temperature
G28 ; home all axes
G1 Z5 F5000 ; lift nozzle

; Filament gcode

M109 S205 ; set temperature and wait for it to be reached
G21 ; set units to millimeters
G90 ; use absolute coordinates
M82 ; use absolute distances for extrusion
G92 E0
G1 Z0.300 F7800.000
G1 E-2.00000 F2400.00000
G92 E0
G1 X83.869 Y95.869 F7800.000
G1 E2.00000 F2400.00000
G1 F1800
G1 X83.660 Y95.964 E2.00522
G1 X83.610 Y96.015 E2.00685
G1 X83.512 Y96.063 E2.00932
G1 X83.272 Y96.279 E2.01666
G1 X83.272 Y96.302 E2.01719
G1 X83.200 Y96.375 E2.01954
G1 X83.151 Y96.473 E2.02201
G1 X83.101 Y96.523 E2.02362
G1 X83.078 Y96.594 E2.02532
G1 X83.042 Y96.630 E2.02647
G1 X83.029 Y96.709 E2.02829
G1 X84.328 Y95.418 E2.06993
G1 X84.425 Y95.394 E2.07219
G1 X84.490 Y95.344 E2.07407
G1 X84.576 Y95.340 E2.07602
G1 X84.605 Y95.311 E2.07697
G1 X84.745 Y95.292 E2.08017
G1 X84.765 Y95.273 E2.08080
G1 X84.862 Y95.273 E2.08301
G1 X84.884 Y95.251 E2.08373
G1 X85.031 Y95.225 E2.08712
G1 X85.299 Y95.224 E2.09322
G1 X85.322 Y95.202 E2.09394
G1 X85.395 Y95.225 E2.09568
G1 X83.006 Y97.614 E2.17249
G1 X83.029 Y97.646 E2.17338
G1 X83.051 Y97.813 E2.17723
G1 X83.079 Y97.841 E2.17813
G1 X83.079 Y97.930 E2.18015
G1 X83.219 Y98.281 E2.18874
G1 X86.156 Y95.345 E2.28315
G1 X86.241 Y95.359 E2.28512
G1 X86.340 Y95.409 E2.28763
G1 X86.425 Y95.416 E2.28959
G1 X86.800 Y95.581 E2.29890
G1 X83.517 Y98.864 E2.40444
G1 X83.517 Y98.909 E2.40546
G1 X83.580 Y99.020 E2.40836
G1 X83.663 Y99.109 E2.41113
G1 X83.712 Y99.181 E2.41310
G1 X83.723 Y99.235 E2.41435
G1 X83.857 Y99.406 E2.41928
G1 X87.327 Y95.935 E2.53085
G1 X87.476 Y96.038 E2.53497
G1 X87.743 Y96.305 E2.54356
G1 X87.779 Y96.365 E2.54512
G1 X84.279 Y99.864 E2.65763
G1 X84.447 Y100.032 E2.66303
G1 X84.757 Y100.267 E2.67187
G1 X88.171 Y96.853 E2.78163
G1 X88.260 Y97.007 E2.78567
G1 X88.348 Y97.103 E2.78862
G1 X88.380 Y97.177 E2.79045
G1 X88.532 Y97.373 E2.79610
G1 X85.330 Y100.575 E2.89904
G1 X85.423 Y100.627 E2.90147
G1 X85.529 Y100.629 E2.90388
G1 X85.575 Y100.669 E2.90526
G1 X85.709 Y100.700 E2.90838
G1 X86.063 Y100.723 E2.91644
G1 X88.889 Y97.897 E3.00732
G1 X89.156 Y98.227 E3.01698
G1 X89.156 Y98.251 E3.01751
G1 X89.286 Y98.381 E3.02169
G1 X86.920 Y100.747 E3.09776
G1 X87.426 Y100.775 E3.10928
G1 X87.445 Y100.795 E3.10990
G1 X87.729 Y100.819 E3.11639
G1 X89.764 Y98.784 E3.18180
G1 X89.943 Y98.917 E3.18686
G1 X90.040 Y98.930 E3.18909
G1 X90.172 Y99.001 E3.19251
G1 X90.269 Y99.010 E3.19471
G1 X90.373 Y99.055 E3.19731
G1 X88.479 Y100.950 E3.25821
G1 X88.623 Y100.991 E3.26162
G1 X88.741 Y100.999 E3.26431
G1 X88.815 Y101.038 E3.26619
G1 X89.036 Y101.094 E3.27139
G1 X89.154 Y101.156 E3.27441
G1 X91.104 Y99.206 E3.33709
G1 X91.442 Y99.233 E3.34480
G1 X91.472 Y99.255 E3.34564
G1 X91.696 Y99.257 E3.35075
G1 X91.884 Y99.253 E3.35503
G1 X91.988 Y99.203 E3.35765
G1 X89.715 Y101.476 E3.43072
G1 E1.43072 F2400.00000
G92 E0
G1 X93.368 Y103.108 F7800.000
G1 E2.00000 F2400.00000
G1 F1800
G1 X93.368 Y102.800 E2.00700
G1 X93.694 Y102.783 E2.01441
G1 X98.091 Y98.385 E2.15579
G1 X98.246 Y98.375 E2.15932
G1 X98.289 Y98.356 E2.16040
G1 X98.576 Y98.351 E2.16691
G1 X98.595 Y98.332 E2.16753
G1 X98.870 Y98.330 E2.17377
G1 X98.919 Y98.308 E2.17500
G1 X99.050 Y98.307 E2.17798
G1 X94.432 Y102.926 E2.32646
G1 X94.539 Y102.953 E2.32898
G1 X94.701 Y102.955 E2.33267
G1 X94.726 Y102.980 E2.33346
G1 X95.189 Y103.049 E2.34410
G1 X99.955 Y98.283 E2.49733
G1 X100.444 Y98.279 E2.50843
G1 X100.463 Y98.259 E2.50907
G1 X100.521 Y98.259 E2.51037
G1 X100.539 Y98.278 E2.51096
G1 X100.836 Y98.283 E2.51770
G1 X95.992 Y103.127 E2.67341
G1 E0.67341 F2400.00000
G92 E0
G1 X94.530 Y106.351 F7800.000
G1 E2.00000 F2400.00000
G1 F1800
G1 X95.428 Y105.453 E2.02886
G1 X95.520 Y105.317 E2.03260
G1 X95.313 Y105.182 E2.03823
G1 X95.279 Y105.182 E2.03902
G1 X95.095 Y104.905 E2.04656
G1 X94.243 Y105.757 E2.07395
G1 X94.243 Y105.578 E2.07802
G1 X94.175 Y105.412 E2.08210
G1 X93.961 Y105.158 E2.08964
G1 X94.763 Y104.356 E2.11542
G1 X94.712 Y104.293 E2.11724
G1 X94.696 Y104.171 E2.12004
G1 X94.616 Y103.978 E2.12479
G1 X94.586 Y103.948 E2.12577
G1 X94.574 Y103.865 E2.12768
G1 X94.497 Y103.741 E2.13099
G1 X93.550 Y104.688 E2.16142
G1 X93.212 Y104.254 E2.17392
G1 X93.175 Y104.182 E2.17576
G1 X94.098 Y103.260 E2.20541
G1 X93.864 Y102.946 E2.21431
G1 X93.864 Y102.908 E2.21517
G1 X93.794 Y102.835 E2.21746
G1 X93.794 Y102.682 E2.22094
G1 X92.778 Y103.699 E2.25363
G1 X92.513 Y103.460 E2.26174
G1 X92.474 Y103.460 E2.26263
G1 X92.280 Y103.315 E2.26812
G1 X97.071 Y98.524 E2.42215
G1 X96.786 Y98.574 E2.42874
G1 X96.682 Y98.620 E2.43133
G1 X96.514 Y98.642 E2.43518
G1 X96.397 Y98.686 E2.43801
G1 X96.281 Y98.694 E2.44065
G1 X96.005 Y98.768 E2.44714
G1 X95.947 Y98.768 E2.44848
G1 X91.815 Y102.899 E2.58129
G1 X91.742 Y102.815 E2.58382
G1 X91.742 Y102.765 E2.58495
G1 X91.660 Y102.683 E2.58760
G1 X91.473 Y102.361 E2.59607
G1 X94.835 Y98.999 E2.70416
G1 X94.239 Y99.101 E2.71789
G1 X94.063 Y99.111 E2.72190
G1 X94.031 Y99.134 E2.72280
G1 X93.815 Y99.138 E2.72772
G1 X90.876 Y102.076 E2.82219
G1 X90.826 Y102.042 E2.82356
G1 X90.739 Y102.037 E2.82555
G1 X90.683 Y101.997 E2.82711
G1 X90.596 Y101.989 E2.82910
G1 X90.317 Y101.849 E2.83621
G1 X90.267 Y101.804 E2.83772
G1 X93.547 Y98.524 E2.94317
G1 X93.694 Y98.263 E2.94998
G1 X93.694 Y98.229 E2.95075
G1 X93.827 Y98.060 E2.95563
G1 X93.853 Y97.988 E2.95737
G1 X93.960 Y97.830 E2.96172
G1 X93.961 Y97.795 E2.96251
G1 X94.020 Y97.726 E2.96458
G1 X94.134 Y97.523 E2.96985
G1 X94.205 Y97.382 E2.97346
G1 X94.205 Y97.335 E2.97452
G1 X94.336 Y97.097 E2.98069
G1 X94.396 Y96.886 E2.98567
G1 X94.429 Y96.853 E2.98674
G1 X94.439 Y96.752 E2.98904
G1 X91.968 Y99.222 E3.06846
G1 X92.189 Y98.832 E3.07865
G1 X92.201 Y98.757 E3.08038
G1 X92.311 Y98.565 E3.08541
G1 X92.323 Y98.491 E3.08712
G1 X92.408 Y98.347 E3.09092
G1 X92.461 Y98.188 E3.09473
G1 X92.844 Y97.651 E3.10972
G1 X93.058 Y97.251 E3.12002
G1 X94.266 Y96.044 E3.15883
G1 X94.957 Y95.353 F7800.000
G1 F1800
G1 X95.449 Y94.861 E3.17464
G1 X95.454 Y94.796 E3.17613
G1 X95.396 Y94.776 E3.17752
G1 X95.128 Y94.777 E3.18361
G1 X95.013 Y94.798 E3.18627
G1 X94.843 Y94.956 E3.19155
G1 X94.620 Y95.091 E3.19747
G1 X94.520 Y95.135 E3.19997
G1 X94.300 Y95.128 E3.20495
G1 X92.869 Y96.560 E3.25098
G1 X92.801 Y96.493 E3.25314
G1 X92.542 Y96.354 E3.25983
G1 X92.293 Y96.354 E3.26550
G1 X92.044 Y96.504 E3.27209
G1 X92.657 Y95.891 E3.29178
G1 X92.799 Y95.884 E3.29503
G1 X92.960 Y95.846 E3.29877
G1 X93.189 Y95.639 E3.30579
G1 X93.249 Y95.578 E3.30773
G1 X93.263 Y95.285 E3.31440
G1 X93.470 Y95.078 E3.32105
G1 X93.241 Y94.940 E3.32713
G1 X93.061 Y94.757 E3.33296
G1 X92.999 Y94.668 E3.33543
G1 X92.515 Y95.152 E3.35101
G1 X92.309 Y94.954 E3.35751
G1 X92.194 Y94.796 E3.36195
G1 X92.182 Y94.724 E3.36361
G1 X92.126 Y94.661 E3.36554
G1 X92.642 Y94.144 E3.38214
G1 E1.38214 F2400.00000
G92 E0
G1 X99.496 Y96.980 F7800.000
G1 E2.00000 F2400.00000
G1 F1800
G1 X100.947 Y95.529 E2.04665
G1 X101.165 Y95.438 E2.05202
G1 X101.742 Y95.136 E2.06681
G1 X101.979 Y94.951 E2.07365
G1 X102.113 Y94.812 E2.07805
G1 X102.116 Y94.528 E2.08453
G1 X102.033 Y94.444 E2.08722
G1 X102.055 Y94.463 E2.08790
G1 X102.225 Y94.332 E2.09276
G1 X102.257 Y94.332 E2.09349
G1 X102.419 Y94.170 E2.09869
G1 X102.484 Y93.992 E2.10299
G1 X102.480 Y93.115 F7800.000
G1 F1800
G1 X101.913 Y93.682 E2.12121
G1 X101.965 Y93.917 E2.12668
G1 X102.001 Y93.966 E2.12805
G1 X102.059 Y94.172 E2.13293
G1 X102.058 Y94.419 E2.13853
G1 X102.658 Y93.818 E2.15785
G1 X102.687 Y93.849 E2.15881
G1 X102.839 Y94.336 E2.17040
G1 X103.273 Y93.930 E2.18391
G1 X103.385 Y93.881 E2.18667
G1 X103.669 Y93.689 E2.19447
G1 X99.949 Y97.408 E2.31406
G1 E0.31406 F2400.00000
G92 E0
G1 X101.850 Y96.388 F7800.000
G1 E2.00000 F2400.00000
G1 F1800
G1 X100.503 Y97.735 E2.04329
G1 X100.654 Y97.810 E2.04712
G1 X100.715 Y97.810 E2.04852
G1 X100.788 Y97.883 E2.05087
G1 X101.083 Y98.036 E2.05842
G1 X102.290 Y96.830 E2.09720
G1 X102.508 Y96.905 E2.10246
G1 X102.924 Y96.996 E2.11212
G1 X102.968 Y97.032 E2.11342
G1 X96.873 Y103.127 E2.30937
G1 X97.245 Y103.127 E2.31784
G1 X97.318 Y103.103 E2.31958
G1 X97.426 Y103.103 E2.32204
G1 X97.449 Y103.079 E2.32279
G1 X97.653 Y103.079 E2.32741
G1 X97.827 Y103.054 E2.33141
G1 X103.533 Y97.348 E2.51486
G1 X103.559 Y97.374 E2.51570
G1 X103.574 Y97.461 E2.51769
G1 X103.529 Y97.674 E2.52266
G1 X103.085 Y98.284 E2.53981
G1 X103.478 Y98.284 E2.54874
G1 X99.022 Y102.739 E2.69197
G1 X99.567 Y102.588 E2.70482
G1 X99.609 Y102.545 E2.70617
G1 X99.766 Y102.509 E2.70985
G1 X99.865 Y102.458 E2.71238
G1 X99.944 Y102.451 E2.71417
G1 X100.200 Y102.349 E2.72043
G1 X100.321 Y102.266 E2.72377
G1 X100.384 Y102.259 E2.72522
G1 X104.246 Y98.396 E2.84939
G1 X104.380 Y98.420 E2.85247
G1 X104.422 Y98.452 E2.85366
G1 X104.489 Y98.454 E2.85520
G1 X104.522 Y98.479 E2.85614
G1 X104.692 Y98.503 E2.86005
G1 X104.710 Y98.521 E2.86063
G1 X104.930 Y98.528 E2.86563
G1 X104.976 Y98.548 E2.86676
G1 X101.481 Y102.043 E2.97911
G1 X101.982 Y102.069 E2.99052
G1 X101.503 Y102.558 E3.00611
G1 X101.342 Y102.789 E3.01250
G1 X101.190 Y102.942 E3.01740
G1 X100.729 Y103.269 E3.03025
G1 X100.427 Y103.556 E3.03972
G1 X100.427 Y103.579 E3.04024
G1 X100.321 Y103.686 E3.04366
G1 X100.233 Y103.863 E3.04816
G1 X100.230 Y103.947 E3.05008
G1 X100.313 Y104.091 E3.05386
G1 X103.031 Y101.374 E3.14123
G1 X103.043 Y101.231 E3.14449
G1 X103.239 Y101.165 E3.14918
G1 X105.734 Y98.671 E3.22937
G1 X105.853 Y98.674 E3.23208
G1 X106.472 Y98.813 E3.24652
G1 X105.189 Y100.097 E3.28777
G1 X105.298 Y100.050 E3.29047
G1 X105.649 Y100.013 E3.29849
G1 X105.700 Y99.991 E3.29975
G1 X106.175 Y99.991 E3.31055
G1 X107.186 Y98.980 E3.34305
G1 X107.914 Y99.133 E3.35996
G1 X106.928 Y100.119 E3.39164
G1 X106.992 Y100.125 E3.39310
G1 X107.035 Y100.161 E3.39437
G1 X107.259 Y100.197 E3.39954
G1 X107.493 Y100.281 E3.40518
G1 X107.629 Y100.299 E3.40831
G1 X108.743 Y99.185 E3.44413
G1 X108.833 Y99.164 E3.44622
G1 X109.088 Y99.154 E3.45203
G1 X109.106 Y99.136 E3.45260
G1 X109.352 Y99.103 E3.45825
G1 X109.420 Y99.066 E3.45999
G1 X109.530 Y99.053 E3.46252
G1 X109.601 Y99.013 E3.46437
G1 X109.880 Y98.930 E3.47099
G1 X108.495 Y100.314 E3.51551
G1 X108.578 Y100.306 E3.51739
G1 X108.715 Y100.247 E3.52078
G1 X108.807 Y100.236 E3.52289
G1 X108.851 Y100.201 E3.52417
G1 X108.929 Y100.189 E3.52596
G1 X109.032 Y100.139 E3.52857
G1 X109.147 Y100.058 E3.53176
G1 X109.270 Y100.014 E3.53474
G1 X109.359 Y99.939 E3.53737
G1 X109.396 Y99.939 E3.53822
G1 X109.589 Y99.835 E3.54321
G1 X109.909 Y99.639 E3.55173
G1 X110.013 Y99.550 E3.55485
G1 X110.045 Y99.550 E3.55557
G1 X110.093 Y99.502 E3.55710
G1 X110.269 Y99.421 E3.56153
G1 X111.560 Y98.130 E3.60302
G1 X111.985 Y97.966 E3.61337
G1 X112.204 Y97.909 E3.61853
G1 X112.269 Y97.871 E3.62024
G1 X112.459 Y97.824 E3.62469
G1 X112.607 Y97.814 E3.62806
G1 X112.702 Y97.775 E3.63038
G1 X112.800 Y97.771 E3.63263
G1 X111.757 Y98.814 E3.66616
G1 X111.831 Y98.783 E3.66798
G1 X111.981 Y98.777 E3.67139
G1 X112.028 Y98.756 E3.67257
G1 X112.125 Y98.753 E3.67477
G1 X112.153 Y98.733 E3.67557
G1 X112.747 Y98.706 E3.68907
G1 X113.750 Y97.702 E3.72132
G1 X113.794 Y97.702 E3.72233
G1 X114.024 Y97.749 E3.72766
G1 X114.243 Y97.835 E3.73300
G1 X114.288 Y97.880 E3.73445
G1 X114.421 Y97.912 E3.73756
G1 X113.577 Y98.756 E3.76467
G1 X114.004 Y98.865 E3.77468
G1 X114.230 Y98.984 E3.78048
G1 X114.990 Y98.224 E3.80491
G1 X115.027 Y98.240 E3.80584
G1 X115.139 Y98.335 E3.80917
G1 X115.309 Y98.418 E3.81348
G1 X115.531 Y98.564 E3.81951
G1 X114.784 Y99.311 E3.84352
G1 X114.809 Y99.332 E3.84426
G1 X115.322 Y99.654 E3.85804
G1 X116.053 Y98.923 E3.88152
G1 X116.403 Y99.198 E3.89163
G1 X116.450 Y99.241 E3.89310
G1 X116.472 Y99.300 E3.89453
G1 X116.537 Y99.320 E3.89606
G1 X115.933 Y99.924 E3.91548
G1 E1.91548 F2400.00000
G92 E0
G1 X105.767 Y103.923 F7800.000
G1 E2.00000 F2400.00000
G1 F1800
G1 X105.875 Y103.934 E2.00246
G1 X106.050 Y104.011 E2.00681
G1 X106.239 Y104.027 E2.01113
G1 X106.295 Y104.014 E2.01242
G1 X106.349 Y103.968 E2.01406
G1 X106.356 Y103.887 E2.01590
G1 X106.245 Y103.868 E2.01847
G1 X106.193 Y103.887 E2.01972
G1 X105.804 Y103.886 E2.02857
G1 X105.341 Y104.349 E2.04346
G1 X105.368 Y105.203 F7800.000
G1 F1800
G1 X105.510 Y105.393 E2.04883
G1 X105.607 Y105.442 E2.05131
G1 X105.712 Y105.422 E2.05374
G1 X105.703 Y105.262 E2.05740
G1 X105.593 Y105.169 E2.06067
G1 X105.544 Y105.169 E2.06177
G1 X105.451 Y105.120 E2.06417
G1 X104.942 Y105.630 E2.08055
G1 X103.327 Y104.601 F7800.000
G1 F1800
G1 X104.455 Y103.473 E2.11680
G1 X104.446 Y103.184 E2.12339
G1 X104.472 Y103.158 E2.12421
G1 X104.210 Y103.208 E2.13026
G1 X104.136 Y103.251 E2.13220
G1 X103.791 Y103.256 E2.14004
G1 X102.862 Y104.185 E2.16990
G1 X102.819 Y104.154 E2.17110
G1 X102.571 Y104.094 E2.17691
G1 X102.536 Y104.068 E2.17791
G1 X102.124 Y104.043 E2.18729
G1 X103.103 Y103.064 E2.21877
G1 X102.776 Y102.744 E2.22916
G1 X103.183 Y102.103 E2.24644
G1 X100.973 Y104.313 E2.31749
G1 X100.860 Y104.327 E2.32006
G1 X100.523 Y104.242 E2.32797
G1 X100.313 Y104.091 E2.33384
G1 E0.33384 F2400.00000
G92 E0
G1 X103.683 Y96.317 F7800.000
G1 E2.00000 F2400.00000
G1 F1800
G1 X104.224 Y95.776 E2.01740
G1 X103.783 Y95.336 E2.03156
G1 X103.275 Y95.844 E2.04790
G1 X103.192 Y95.801 E2.05002
G1 X103.065 Y95.674 E2.05411
G1 X102.848 Y95.837 E2.06028
G1 X102.798 Y95.848 E2.06144
G1 X102.630 Y95.981 E2.06631
G1 X102.495 Y96.042 E2.06968
G1 X102.460 Y96.077 E2.07080
G1 X102.260 Y96.165 E2.07576
G1 X102.011 Y96.227 E2.08161
G1 X103.387 Y94.851 E2.12584
G1 X103.284 Y94.641 E2.13116
G1 X103.289 Y94.250 E2.14005
G1 X103.414 Y94.056 E2.14530
G1 X103.621 Y93.868 E2.15165
G1 X103.931 Y93.684 E2.15984
G1 X104.150 Y93.522 E2.16604
G1 X104.264 Y93.469 E2.16889
G1 X104.404 Y93.347 E2.17313
G1 X104.482 Y93.253 E2.17591
G1 X104.520 Y93.168 E2.17801
G1 X104.519 Y93.052 E2.18065
G1 X104.466 Y92.970 E2.18286
G1 X104.453 Y92.904 E2.18439
G1 X103.781 Y93.577 E2.20600
G1 X103.856 Y93.489 E2.20864
G1 X103.856 Y93.429 E2.21000
G1 X103.922 Y93.260 E2.21412
G1 X103.927 Y93.184 E2.21586
G1 X103.985 Y93.243 E2.21776
G1 X104.027 Y93.331 E2.21995
M104 S200 ; set temperature
G1 Z0.600 F7800.000
G1 X104.343 Y93.772 F7800.000
G1 F2871.22
G1 X103.775 Y93.204 E2.23907
G1 X103.643 Y93.380 E2.24430
G1 X103.348 Y93.657 E2.25395
G1 X103.819 Y94.129 E2.26981
G1 X103.763 Y94.163 E2.27136
G1 X103.813 Y94.123 E2.27287
G1 X103.351 Y94.542 F7800.000
G1 F2871.22
G1 X102.810 Y94.001 E2.29107
G1 X103.083 Y93.848 E2.29850
G1 X102.956 Y93.966 E2.30262
G1 X102.886 Y94.077 E2.30574
G1 X102.448 Y93.638 F7800.000
G1 F2871.22
G1 X101.928 Y93.118 E2.32323
G1 X102.099 Y93.773 E2.33933
G1 X102.081 Y94.006 E2.34490
G1 X102.033 Y94.104 E2.34750
G1 X104.553 Y96.624 E2.43230
G1 X104.517 Y96.734 E2.43505
G1 X104.447 Y96.743 E2.43673
G1 X104.413 Y96.726 E2.43763
G1 X104.270 Y96.588 E2.44235
G1 X104.023 Y96.127 E2.45480
G1 X103.835 Y95.917 E2.46151
G1 X103.682 Y95.811 E2.46594
G1 X103.488 Y95.779 E2.47060
G1 X103.359 Y95.804 E2.47375
G1 X103.032 Y95.985 E2.48262
G1 X101.703 Y94.656 E2.52734
G1 X101.692 Y94.750 E2.52959
G1 X101.627 Y94.890 E2.53328
G1 X101.509 Y95.017 E2.53740
G1 X101.323 Y95.157 E2.54292
G1 X102.381 Y96.214 E2.57850
G1 X102.240 Y96.261 E2.58202
G1 X102.071 Y96.372 E2.58683
G1 X101.953 Y96.516 E2.59126
G1 X101.907 Y96.621 E2.59400
G1 X100.743 Y95.457 E2.63317
G1 X100.105 Y95.700 E2.64942
G1 X104.819 Y100.414 E2.80804
G1 X104.264 Y100.741 E2.82335
G1 X101.449 Y97.925 E2.91808
G1 X101.482 Y98.139 E2.92321
G1 X101.250 Y98.332 E2.93042
G1 X101.034 Y98.391 E2.93574
G1 X103.732 Y101.089 E3.02654
G1 X103.596 Y101.191 E3.03057
G1 X103.485 Y101.340 E3.03500
G1 X103.452 Y101.416 E3.03698
G1 X103.413 Y101.651 E3.04265
G1 X100.158 Y98.396 E3.15217
G1 X99.636 Y98.404 E3.16458
G1 X99.628 Y98.300 E3.16707
G1 X99.481 Y98.300 E3.17057
G1 X99.482 Y98.406 E3.17310
G1 X99.291 Y98.410 E3.17767
G1 X103.256 Y102.375 E3.31109
G1 X103.185 Y102.521 E3.31496
G1 X102.929 Y102.929 E3.32641
G1 X101.639 Y101.639 E3.36980
G1 X101.692 Y102.055 E3.37978
G1 X101.504 Y102.157 E3.38487
G1 X101.411 Y102.292 E3.38877
G1 X103.257 Y104.138 E3.45089
G1 X103.013 Y104.059 E3.45701
G1 X102.818 Y104.027 E3.46169
G1 X102.580 Y104.013 E3.46736
G1 X102.281 Y104.043 E3.47451
G1 X100.946 Y102.708 E3.51945
G1 X100.571 Y102.982 E3.53049
G1 X100.460 Y103.103 E3.53440
G1 X101.589 Y104.232 E3.57239
G1 X101.439 Y104.276 E3.57612
G1 X101.246 Y104.280 E3.58070
G1 X101.043 Y104.231 E3.58568
G1 X100.880 Y104.154 E3.58996
G1 X100.751 Y104.050 E3.59390
G1 X100.698 Y103.967 E3.59623
G1 X100.707 Y103.871 E3.59853
G1 X100.796 Y103.710 E3.60290
G1 X100.925 Y103.568 E3.60748
G1 X101.883 Y101.883 F7800.000
G1 F2871.22
G1 X98.444 Y98.444 E3.72320
G1 X97.628 Y98.509 E3.74268
G1 X101.226 Y102.107 E3.86375
G1 X100.853 Y102.226 E3.87308
G1 X100.816 Y102.140 E3.87530
G1 X100.504 Y102.266 E3.88329
G1 X96.851 Y98.613 E4.00621
G1 X96.113 Y98.756 E4.02409
G1 X99.859 Y102.502 E4.15012
G1 X99.188 Y102.711 E4.16685
G1 X95.311 Y98.835 E4.29728
G1 X94.579 Y98.984 E4.31506
G1 X98.485 Y102.889 E4.44647
G1 X97.706 Y102.992 E4.46515
G1 X93.832 Y99.118 E4.59551
G1 E2.59551 F2400.00000
G92 E0
G1 X94.209 Y95.971 F7800.000
G1 E2.00000 F2400.00000
G1 F2871.22
G1 X93.358 Y95.120 E2.02862
G1 X93.327 Y95.143 E2.02955
G1 X93.242 Y95.052 E2.03251
G1 X93.172 Y95.077 E2.03427
G1 X93.034 Y95.080 E2.03757
G1 X92.957 Y95.198 E2.04091
G1 X92.933 Y95.185 E2.04156
G1 X92.946 Y95.251 E2.04317
G1 X92.874 Y95.280 E2.04501
G1 X92.876 Y95.407 E2.04804
G1 X92.853 Y95.495 E2.05021
G1 X94.416 Y97.059 E2.10283
G1 X94.418 Y97.260 E2.10762
G1 X94.216 Y97.739 E2.11999
G1 X93.112 Y96.636 E2.15712
G1 X93.042 Y96.924 E2.16417
G1 X92.915 Y97.190 E2.17118
G1 X92.892 Y97.190 E2.17172
G1 X92.850 Y97.255 E2.17357
G1 X93.902 Y98.307 E2.20896
G1 X93.572 Y98.858 E2.22424
G1 X92.498 Y97.783 E2.26039
G1 X92.217 Y98.384 E2.27615
G1 X96.851 Y103.018 E2.43208
G1 X95.910 Y102.957 E2.45452
G1 X91.890 Y98.937 E2.58980
G1 X91.815 Y99.018 E2.59243
G1 X91.591 Y99.194 E2.59919
G1 X91.458 Y99.264 E2.60277
G1 X91.353 Y99.282 E2.60529
G1 X94.992 Y102.920 E2.72773
G1 X94.441 Y102.798 E2.74116
G1 X94.440 Y102.700 E2.74350
G1 X94.118 Y102.640 E2.75130
G1 X93.884 Y102.693 E2.75700
G1 X90.368 Y99.177 E2.87532
G1 X89.668 Y98.996 E2.89250
G1 X89.387 Y98.864 E2.89989
G1 X89.083 Y98.658 E2.90863
G1 X88.799 Y98.393 E2.91787
G1 X88.542 Y98.085 E2.92742
G1 X87.711 Y96.910 E2.96167
G1 X87.632 Y96.963 E2.96393
G1 X87.171 Y96.360 E2.98198
G1 X86.791 Y96.017 E2.99415
G1 X86.511 Y95.825 E3.00223
G1 X86.171 Y95.635 E3.01150
G1 X85.798 Y95.488 E3.02105
G1 X94.222 Y103.912 E3.30453
G1 X94.509 Y104.272 E3.31548
G1 X94.710 Y104.752 E3.32787
G1 X94.814 Y104.948 E3.33313
G1 X95.101 Y105.422 E3.34633
G1 X95.191 Y105.548 E3.35002
G1 X95.319 Y105.679 E3.35437
G1 X95.333 Y105.894 E3.35950
G1 X95.368 Y105.896 E3.36034
G1 X95.362 Y105.933 E3.36122
G1 X93.305 Y103.876 E3.43044
G1 X93.069 Y103.534 E3.44032
G1 X92.901 Y103.327 E3.44667
G1 X92.678 Y103.122 E3.45387
G1 X92.301 Y102.872 E3.46463
G1 X91.673 Y102.244 E3.48576
G1 X91.475 Y101.912 E3.49496
G1 X91.382 Y101.811 E3.49823
G1 X91.422 Y101.715 E3.50072
G1 X91.093 Y101.546 E3.50952
G1 X90.932 Y101.503 E3.51348
G1 X84.772 Y95.343 E3.72077
G1 X84.348 Y95.389 E3.73092
G1 X84.035 Y95.487 E3.73872
G1 X89.763 Y101.215 E3.93146
G1 X89.539 Y101.104 E3.93740
G1 X89.278 Y101.018 E3.94394
G1 X88.520 Y100.853 E3.96240
G1 X83.480 Y95.813 E4.13200
G1 X83.375 Y95.910 E4.13541
G1 X83.184 Y96.170 E4.14308
G1 X83.115 Y96.329 E4.14721
G1 X87.529 Y100.743 E4.29573
G1 X87.373 Y100.735 E4.29946
G1 X87.375 Y100.631 E4.30193
G1 X86.509 Y100.603 E4.32256
G1 X83.150 Y97.245 E4.43557
G1 E2.43557 F2400.00000
G92 E0
G1 X99.525 Y96.001 F7800.000
G1 E2.00000 F2400.00000
G1 F2871.22
G1 X101.558 Y98.035 E2.06842
G1 X102.993 Y97.707 F7800.000
G1 F2871.22
G1 X103.067 Y97.535 E2.07288
G1 X103.067 Y97.394 E2.07623
G1 X102.947 Y97.293 E2.07998
G1 X102.538 Y97.066 E2.09111
G1 X102.262 Y96.976 E2.09800
G1 X103.458 Y98.173 E2.13825
G1 X103.701 Y98.415 F7800.000
G1 F2871.22
G1 X105.415 Y100.130 E2.19594
G1 X105.730 Y100.030 E2.20379
G1 X106.127 Y99.960 E2.21338
G1 X104.783 Y98.617 E2.25858
G1 X105.579 Y98.745 E2.27776
G1 X105.855 Y98.808 E2.28449
G1 X107.061 Y100.014 E2.32508
G1 X108.212 Y100.284 E2.35321
G1 X107.002 Y99.073 E2.39395
G1 X107.644 Y99.204 E2.40954
G1 X108.041 Y99.232 E2.41902
G1 X109.054 Y100.244 E2.45310
G1 X109.489 Y100.075 E2.46422
G1 X109.668 Y99.978 E2.46906
G1 X108.840 Y99.150 E2.49691
G1 X109.146 Y99.069 E2.50444
G1 X109.513 Y98.942 E2.51368
G1 X110.225 Y99.654 E2.53762
G1 X110.781 Y99.329 E2.55295
G1 X110.116 Y98.664 E2.57533
G1 X110.703 Y98.370 E2.59095
G1 X111.372 Y99.039 E2.61347
G1 X111.679 Y98.922 E2.62129
G1 X112.032 Y98.818 E2.63004
G1 X111.306 Y98.092 E2.65446
G1 X111.863 Y97.899 E2.66848
G1 X111.969 Y97.874 E2.67108
G1 X112.784 Y98.689 E2.69850
G1 X113.227 Y98.668 E2.70904
G1 X113.668 Y98.692 E2.71956
G1 X112.822 Y97.846 E2.74804
G1 X112.987 Y97.832 E2.75200
G1 X113.365 Y97.836 E2.76099
G1 X113.837 Y97.980 E2.77272
G1 X114.935 Y99.079 E2.80969
G1 E0.80969 F2400.00000
G92 E0
G1 X104.390 Y104.390 F7800.000
G1 E2.00000 F2400.00000
G1 F2871.22
G1 X103.260 Y103.260 E2.03804
G1 X103.464 Y103.282 E2.04293
G1 X103.816 Y103.233 E2.05139
G1 X103.919 Y103.244 E2.05385
G1 X103.991 Y103.489 E2.05992
G1 X104.035 Y103.570 E2.06211
G1 X103.979 Y103.692 E2.06530
G1 X103.932 Y103.728 E2.06672
G1 X103.981 Y103.847 E2.06979
G1 X103.947 Y103.918 E2.07164
G1 X103.925 Y103.925 E2.07220
G1 Z0.900 F7800.000
G1 X103.501 Y104.428 F7800.000
G1 F3012.26
G1 X104.297 Y103.631 E2.09899
G1 X104.272 Y103.546 E2.10111
G1 X104.229 Y103.472 E2.10313
G1 X104.196 Y103.454 E2.10403
G1 X103.999 Y103.464 E2.10873
G1 X103.608 Y103.440 E2.11805
G1 X103.022 Y104.025 E2.13776
G1 X102.718 Y103.894 E2.14566
G1 X102.328 Y103.838 E2.15501
G1 X102.954 Y103.213 E2.17605
G1 X102.917 Y103.200 E2.17698
G1 X102.761 Y102.991 E2.18317
G1 X102.690 Y102.661 E2.19122
G1 X102.814 Y102.592 E2.19459
G1 X102.898 Y102.388 E2.19984
G1 X101.120 Y104.165 E2.25963
G1 X100.870 Y104.213 E2.26569
G1 X100.782 Y104.200 E2.26781
G1 X100.491 Y103.969 E2.27666
G1 X100.472 Y103.932 E2.27763
G1 X103.252 Y101.153 E2.37115
G1 X102.786 Y101.618 F7800.000
G1 F3012.26
G1 X102.833 Y101.310 E2.37856
G1 X102.830 Y101.181 E2.38164
G1 X102.886 Y101.087 E2.38424
G1 X102.895 Y101.024 E2.38576
G1 X103.101 Y100.852 E2.39215
G1 X103.287 Y100.731 E2.39743
G1 X104.270 Y100.134 E2.42479
G1 X105.463 Y98.941 E2.46494
G1 X106.204 Y99.081 E2.48288
G1 X105.599 Y99.686 E2.50325
G1 E0.50325 F2400.00000
G92 E0
G1 X107.899 Y100.029 F7800.000
G1 E2.00000 F2400.00000
G1 F3012.26
G1 X108.417 Y99.511 E2.01744
G1 X109.116 Y99.463 E2.03410
G1 X108.677 Y99.565 E2.04483
G1 X108.557 Y99.580 E2.04769
G1 X108.364 Y99.564 E2.05230
G1 E0.05230 F2400.00000
G92 E0
G1 X101.695 Y98.305 F7800.000
G1 E2.00000 F2400.00000
G1 F3012.26
G1 X102.901 Y97.099 E2.04060
G1 X102.269 Y96.927 E2.05620
G1 X102.227 Y96.892 E2.05749
G1 X101.211 Y97.908 E2.09168
G1 X101.078 Y97.811 E2.09560
G1 X100.996 Y97.903 E2.09855
G1 X100.559 Y97.679 E2.11023
G1 X101.838 Y96.400 E2.15327
G1 X102.159 Y96.079 F7800.000
G1 F3012.26
G1 X103.254 Y94.984 E2.19014
G1 X103.185 Y94.768 E2.19552
G1 X103.164 Y94.771 E2.19603
G1 X103.070 Y94.442 E2.20417
G1 X103.061 Y94.297 E2.20764
G1 X99.992 Y97.365 E2.31089
G1 X99.802 Y97.201 E2.31686
G1 X99.828 Y97.184 E2.31758
G1 X99.629 Y96.847 E2.32689
G1 X100.788 Y95.688 E2.36588
G1 E0.36588 F2400.00000
G92 E0
G1 X101.789 Y101.734 F7800.000
G1 E2.00000 F2400.00000
G1 F3012.26
G1 X104.702 Y98.822 E2.09800
G1 X103.978 Y98.665 E2.11564
G1 X100.861 Y101.782 E2.22051
G1 X100.264 Y101.955 E2.23531
G1 X99.518 Y102.244 E2.25434
G1 X103.229 Y98.533 E2.37922
G1 X103.112 Y98.521 E2.38202
G1 X103.108 Y98.314 E2.38695
G1 X102.998 Y98.159 E2.39146
G1 X103.132 Y97.943 E2.39751
G1 X103.306 Y97.575 E2.40720
G1 X98.262 Y102.619 E2.57694
G1 X97.935 Y102.695 E2.58492
G1 X97.212 Y102.788 E2.60228
G1 X101.419 Y98.581 E2.74386
G1 X101.049 Y98.603 E2.75268
G1 X100.521 Y98.598 E2.76525
G1 X96.307 Y102.812 E2.90705
G1 X95.483 Y102.755 E2.92669
G1 X99.627 Y98.611 E3.06612
G1 X98.698 Y98.659 E3.08824
G1 X94.706 Y102.651 E3.22256
G1 X93.969 Y102.507 E3.24043
G1 X97.726 Y98.750 E3.36686
G1 X97.210 Y98.831 E3.37930
G1 X96.649 Y98.946 E3.39291
G1 X92.320 Y103.275 E3.53858
G1 X91.987 Y103.053 E3.54811
G1 X91.846 Y102.868 E3.55364
G1 X95.520 Y99.194 E3.67726
G1 X94.446 Y99.387 E3.70322
G1 X91.575 Y102.258 E3.79983
G1 X91.419 Y101.987 E3.80729
G1 X91.367 Y101.951 E3.80879
G1 X91.335 Y101.892 E3.81038
G1 X91.129 Y101.824 E3.81554
G1 X93.482 Y99.471 E3.89472
G1 X93.281 Y99.455 E3.89951
G1 X93.097 Y99.082 E3.90940
G1 X93.165 Y98.907 E3.91386
G1 X90.496 Y101.576 E4.00367
G1 X89.944 Y101.247 E4.01895
G1 X91.622 Y99.568 E4.07542
G1 X91.253 Y99.543 E4.08423
G1 X90.837 Y99.472 E4.09426
G1 X89.392 Y100.918 E4.14290
G1 X89.199 Y100.821 E4.14803
G1 X88.742 Y100.687 E4.15938
G1 X90.133 Y99.296 E4.20618
G1 X89.988 Y99.257 E4.20975
G1 X89.663 Y99.102 E4.21832
G1 X89.538 Y99.010 E4.22201
G1 X88.008 Y100.540 E4.27351
G1 X87.218 Y100.449 E4.29243
G1 X89.065 Y98.602 E4.35459
G1 X88.670 Y98.116 E4.36949
G1 X86.376 Y100.410 E4.44667
G1 X85.829 Y100.388 E4.45969
G1 X85.576 Y100.329 E4.46588
G1 X88.309 Y97.596 E4.55786
G1 X87.944 Y97.080 E4.57290
G1 X84.986 Y100.038 E4.67243
G1 X84.500 Y99.643 E4.68733
G1 X87.558 Y96.585 E4.79022
G1 X87.302 Y96.320 E4.79900
G1 X87.107 Y96.156 E4.80507
G1 X84.077 Y99.185 E4.90701
G1 X83.935 Y99.005 E4.91246
G1 X83.724 Y98.658 E4.92214
G1 X86.561 Y95.820 E5.01761
G1 X86.221 Y95.684 E5.02634
G1 X85.905 Y95.596 E5.03414
G1 X83.460 Y98.041 E5.11640
G1 X83.380 Y97.802 E5.12240
G1 X83.284 Y97.335 E5.13372
G1 X85.079 Y95.541 E5.19410
G1 E3.19410 F2400.00000
G92 E0
G1 X92.472 Y98.719 F7800.000
G1 E2.00000 F2400.00000
G1 F3012.26
G1 X94.128 Y97.055 E2.05585
G1 X94.236 Y96.805 E2.06234
G1 X94.284 Y96.368 E2.07279
G1 X94.189 Y96.121 E2.07908
G1 X93.308 Y97.002 E2.10871
G1 X93.320 Y96.910 E2.11092
G1 X93.282 Y96.902 E2.11184
G1 X93.261 Y96.825 E2.11376
G1 X93.285 Y96.807 E2.11447
G1 X93.060 Y96.399 E2.12556
G1 X93.025 Y96.404 E2.12640
G1 X94.036 Y95.393 E2.16043
G1 E0.16043 F2400.00000
G92 E0
G1 X93.613 Y102.863 F7800.000
G1 E2.00000 F2400.00000
G1 F3012.26
G1 X92.918 Y103.558 E2.02338
G1 X93.078 Y103.704 E2.02852
G1 X93.323 Y104.035 E2.03832
G1 X93.946 Y103.411 E2.05930
G1 X94.254 Y103.780 E2.07074
G1 X94.336 Y103.902 E2.07423
G1 X93.704 Y104.534 E2.09551
G1 X94.446 Y105.554 F7800.000
G1 F3012.26
G1 X94.913 Y105.087 E2.11123
G1 X95.042 Y105.243 E2.11604
G1 X95.085 Y105.261 E2.11715
G1 X95.169 Y105.352 E2.12011
G1 X95.200 Y105.408 E2.12162
G1 X95.167 Y105.645 E2.12732
G1 X95.122 Y105.644 E2.12840
G1 X94.928 Y105.463 E2.13470
G1 X94.943 Y105.302 E2.13856
G1 X94.911 Y105.089 E2.14368
G1 E0.14368 F2400.00000
G92 E0
G1 X106.580 Y99.594 F7800.000
G1 E2.00000 F2400.00000
G1 F753.065
G1 X107.074 Y99.100 E2.02204
G1 X107.463 Y99.200 E2.03470
G1 X107.956 Y99.296 E2.05054
G1 X107.214 Y100.038 E2.08363
G1 X107.885 Y100.190 E2.10530
G1 X108.122 Y100.199 E2.11279
G1 X109.000 Y99.331 E2.15171
G1 X109.376 Y99.273 E2.16370
G1 X109.864 Y99.119 E2.17981
G1 X110.255 Y98.964 E2.19307
G1 X110.623 Y98.787 E2.20594
G1 X110.128 Y99.282 E2.22798
G1 X110.893 Y98.904 F7800.000
G1 F753.065
G1 X111.387 Y98.409 E2.25002
G1 X111.621 Y98.294 E2.25821
G1 X112.109 Y98.102 E2.27477
G1 X112.379 Y98.020 E2.28365
G1 X112.940 Y97.907 E2.30169
G1 X112.273 Y98.573 E2.33141
G1 X112.760 Y98.545 E2.34676
G1 X113.317 Y98.580 E2.36437
G1 X113.994 Y97.903 E2.39455
G1 X114.127 Y97.938 E2.39888
G1 X114.384 Y98.051 E2.40773
G1 X114.714 Y98.234 E2.41961
G1 X114.160 Y98.788 E2.44429
G1 X114.603 Y99.017 E2.46002
G1 X114.835 Y99.163 E2.46865
G1 X115.369 Y98.629 E2.49246
G1 X115.985 Y99.063 E2.51622
G1 X115.490 Y99.558 E2.53825
M106 S255
G1 Z1.200 F7800.000
G1 E0.53825 F2400.00000
G92 E0
G1 X105.044 Y99.759 F7800.000
G1 E2.00000 F2400.00000
G1 F1948.2
G1 X104.327 Y99.041 E2.02415
G1 X103.214 Y98.809 E2.05121
G1 X104.460 Y100.055 E2.09313
G1 X103.914 Y100.390 E2.10837
G1 X102.195 Y98.672 E2.16619
G1 X101.392 Y98.749 E2.18540
G1 X103.374 Y100.731 E2.25210
G1 X103.123 Y100.920 E2.25958
G1 X103.104 Y101.045 E2.26260
G1 X103.042 Y101.146 E2.26542
G1 X103.071 Y101.309 E2.26937
G1 X100.569 Y98.807 E2.35356
G1 X99.685 Y98.804 E2.37459
G1 X102.177 Y101.296 E2.45844
G1 X101.510 Y101.510 E2.47512
G1 X98.830 Y98.830 E2.56528
G1 X98.003 Y98.884 E2.58500
G1 X100.832 Y101.713 E2.68018
G1 X100.666 Y101.761 E2.68429
G1 X100.190 Y101.952 E2.69649
G1 X97.204 Y98.966 E2.79697
G1 X96.456 Y99.099 E2.81505
G1 X99.534 Y102.177 E2.91864
G1 X98.853 Y102.377 E2.93553
G1 X95.734 Y99.258 E3.04049
G1 X95.008 Y99.412 E3.05816
G1 X98.124 Y102.529 E3.16303
G1 X97.842 Y102.570 E3.16983
G1 X97.318 Y102.604 E3.18231
G1 X94.262 Y99.548 E3.28514
G1 X93.492 Y99.658 E3.30366
G1 X96.424 Y102.591 E3.40234
G1 X95.438 Y102.485 E3.42594
G1 X92.660 Y99.707 E3.51942
G1 X92.829 Y99.876 F7800.000
G1 F1948.2
G1 X92.137 Y99.184 E3.54271
G1 X91.638 Y99.567 E3.55766
G1 X94.352 Y102.280 E3.64896
G1 X93.737 Y102.144 E3.66394
G1 X93.289 Y102.098 E3.67465
G1 X90.946 Y99.756 E3.75348
G1 X90.321 Y99.674 E3.76848
G1 X89.873 Y99.563 E3.77946
G1 X93.210 Y102.900 E3.89174
G1 X93.303 Y103.201 E3.89924
G1 X92.932 Y103.041 E3.90887
G1 X92.633 Y102.864 E3.91712
G1 X92.133 Y102.099 E3.93886
G1 X92.089 Y101.964 E3.94224
G1 X91.983 Y101.773 E3.94745
G1 X91.813 Y101.676 E3.95211
G1 X91.174 Y101.461 E3.96815
G1 X90.477 Y101.048 E3.98743
G1 X85.085 Y95.656 E4.16888
G1 X84.916 Y95.641 E4.17292
G1 X84.712 Y95.661 E4.17779
G1 X84.335 Y95.787 E4.18724
G1 X88.971 Y100.423 E4.34326
G1 X88.347 Y100.313 E4.35834
G1 X87.930 Y100.263 E4.36834
G1 X83.771 Y96.104 E4.50830
G1 X83.690 Y96.172 E4.51081
G1 X83.554 Y96.350 E4.51615
G1 X83.498 Y96.477 E4.51945
G1 X83.473 Y96.687 E4.52448
G1 X86.996 Y100.210 E4.64301
G1 X86.304 Y100.183 E4.65948
G1 X86.018 Y100.113 E4.66648
G1 X83.730 Y97.825 E4.74348
G1 E2.74348 F2400.00000
G92 E0
G1 X92.821 Y98.106 F7800.000
G1 E2.00000 F2400.00000
G1 F1948.2
G1 X93.067 Y97.709 E2.01113
G1 X93.125 Y97.577 E2.01455
G1 X92.881 Y97.893 E2.02406
G1 X92.786 Y98.071 E2.02886
G1 X93.286 Y98.571 E2.04569
G1 E0.04569 F2400.00000
G92 E0
G1 X99.813 Y96.289 F7800.000
G1 E2.00000 F2400.00000
G1 F1948.2
G1 X100.917 Y97.393 E2.03715
G1 X101.841 Y97.784 E2.06102
G1 X102.177 Y98.051 E2.07124
G1 X102.556 Y98.420 E2.08381
G1 X102.740 Y98.525 E2.08887
G1 X102.850 Y98.446 E2.09210
G1 X100.318 Y95.913 E2.17731
G1 X100.509 Y95.844 E2.18216
G1 X101.000 Y95.714 E2.19423
G1 X101.658 Y96.373 E2.21639
G1 X102.331 Y95.284 F7800.000
G1 F1948.2
G1 X102.389 Y95.265 E2.21782
G1 X102.527 Y95.161 E2.22195
G1 X102.576 Y95.085 E2.22408
G1 X102.591 Y94.962 E2.22705
G1 X102.429 Y94.534 E2.23793
G1 X102.354 Y94.463 E2.24039
G1 X102.261 Y94.458 E2.24260
G1 X102.131 Y94.543 E2.24628
G1 X102.090 Y94.606 E2.24808
G1 X101.975 Y94.928 E2.25621
G1 X102.797 Y95.749 E2.28384
G1 E0.28384 F2400.00000
G92 E0
G1 X103.017 Y102.136 F7800.000
G1 E2.00000 F2400.00000
G1 F1948.2
G1 X102.191 Y101.310 E2.02778
G1 X102.100 Y101.688 E2.03704
G1 X101.976 Y101.976 E2.04450
G1 X102.688 Y102.688 E2.06845
G1 X102.550 Y102.935 E2.07517
G1 X102.545 Y103.285 E2.08350
G1 X102.574 Y103.455 E2.08762
G1 X101.638 Y102.519 E2.11912
G1 X101.170 Y102.932 E2.13397
G1 X102.028 Y103.790 E2.16285
G1 X101.501 Y103.911 E2.17572
G1 X101.350 Y103.936 E2.17937
G1 X101.291 Y103.926 E2.18078
G1 X100.742 Y103.385 E2.19913
G1 E0.19913 F2400.00000
G92 E0
G1 X93.140 Y98.936 F7800.000
G1 E2.00000 F2400.00000
G1 F600
G1 X92.646 Y98.442 E2.02151
G1 X92.864 Y97.898 E2.03955
G1 X92.707 Y97.823 E2.04492
G1 X92.823 Y97.650 E2.05130
G1 X92.848 Y97.619 E2.05253
G1 X93.630 Y98.401 E2.08654
G1 X93.995 Y97.741 E2.10975
G1 X93.234 Y96.980 E2.14284
G1 X93.299 Y96.766 E2.14971
G1 X93.305 Y96.503 E2.15781
G1 X93.664 Y96.385 E2.16944
G1 X94.159 Y96.880 E2.19096
M106 S249.9
G1 Z1.500 F7800.000
G1 E0.19096 F2400.00000
G92 E0
G1 X92.769 Y102.423 F7800.000
G1 E2.00000 F2400.00000
G1 F1200
G1 X92.964 Y102.528 E2.00597
G1 X93.132 Y102.586 E2.01076
G1 X93.263 Y102.666 E2.01489
G1 X93.124 Y102.278 E2.02600
G1 X93.086 Y102.106 E2.03075
G1 X92.275 Y102.918 E2.06173
G1 E0.06173 F2400.00000
G92 E0
G1 X100.764 Y103.847 F7800.000
G1 E2.00000 F2400.00000
G1 F1200
G1 X101.632 Y102.979 E2.03311
G1 X102.027 Y103.662 F7800.000
G1 F1200
G1 X102.522 Y103.168 E2.05198
G1 E0.05198 F2400.00000
G92 E0
G1 X104.810 Y99.638 F7800.000
G1 E2.00000 F2400.00000
G1 F1200
G1 X105.305 Y99.144 E2.01887
G1 X104.509 Y99.014 E2.04062
G1 X102.143 Y101.380 E2.13091
G1 X101.994 Y101.278 E2.13578
G1 X101.819 Y101.237 E2.14062
G1 X101.583 Y101.296 E2.14719
G1 X101.152 Y101.446 E2.15952
G1 X103.748 Y98.849 E2.25860
G1 X103.494 Y98.794 E2.26562
G1 X103.054 Y98.750 E2.27756
G1 X102.961 Y98.711 E2.28028
G1 X99.769 Y101.903 E2.40209
G1 X99.606 Y101.969 E2.40685
G1 X98.403 Y102.343 E2.44084
G1 X101.983 Y98.763 E2.57746
G1 X100.989 Y98.832 E2.60435
G1 X97.268 Y102.552 E2.74633
G1 X96.619 Y102.587 E2.76386
G1 X96.310 Y102.585 E2.77220
G1 X100.055 Y98.839 E2.91512
G1 X99.105 Y98.864 E2.94076
G1 X95.450 Y102.519 E3.08024
G1 X94.637 Y102.406 E3.10238
G1 X98.097 Y98.946 E3.23442
G1 X97.762 Y98.977 E3.24349
G1 X97.007 Y99.111 E3.26421
G1 X93.870 Y102.248 E3.38389
G1 X93.090 Y102.102 E3.40531
G1 X95.823 Y99.369 E3.50960
G1 X94.686 Y99.581 E3.54080
G1 X91.880 Y102.387 E3.64790
G1 X91.688 Y102.098 E3.65727
G1 X91.644 Y101.964 E3.66107
G1 X91.549 Y101.792 E3.66636
G1 X93.619 Y99.722 E3.74537
G1 X93.480 Y99.736 E3.74914
G1 X93.053 Y99.725 E3.76066
G1 X92.885 Y99.530 E3.76760
G1 X90.909 Y101.507 E3.84303
G1 X90.703 Y101.437 E3.84889
G1 X90.298 Y101.192 E3.86166
G1 X91.696 Y99.794 E3.91499
G1 X91.323 Y99.774 E3.92506
G1 X90.858 Y99.706 E3.93773
G1 X89.720 Y100.844 E3.98115
G1 X89.258 Y100.606 E3.99519
G1 X89.084 Y100.554 E4.00007
G1 X90.117 Y99.522 E4.03946
G1 X89.925 Y99.471 E4.04481
G1 X89.558 Y99.295 E4.05580
G1 X89.477 Y99.236 E4.05850
G1 X88.342 Y100.371 E4.10178
G1 X87.538 Y100.249 E4.12373
G1 X88.971 Y98.817 E4.17840
G1 X88.856 Y98.707 E4.18269
G1 X88.544 Y98.318 E4.19615
G1 X86.669 Y100.193 E4.26770
G1 X85.787 Y100.150 E4.29153
G1 X88.158 Y97.778 E4.38201
G1 X87.773 Y97.237 E4.39992
G1 X85.137 Y99.873 E4.50051
G1 X85.014 Y99.792 E4.50450
G1 X84.622 Y99.463 E4.51830
G1 X87.374 Y96.711 E4.62331
G1 X87.078 Y96.417 E4.63456
G1 X86.881 Y96.278 E4.64107
G1 X84.132 Y99.027 E4.74596
G1 X83.953 Y98.784 E4.75410
G1 X83.855 Y98.595 E4.75986
G1 X83.798 Y98.435 E4.76443
G1 X84.294 Y97.940 E4.78334
G1 X84.315 Y97.937 E4.78391
G1 X84.310 Y97.923 E4.78432
G1 X86.286 Y95.948 E4.85970
G1 X85.885 Y95.759 E4.87164
G1 X85.620 Y95.688 E4.87905
G1 X83.596 Y97.712 E4.95630
G1 X83.523 Y97.425 E4.96430
G1 X83.503 Y97.086 E4.97345
G1 X83.523 Y96.960 E4.97690
G1 X83.571 Y96.851 E4.98011
G1 X83.697 Y96.685 E4.98573
G1 X84.193 Y96.190 E5.00465
G1 E3.00465 F2400.00000
G92 E0
G1 X100.359 Y96.174 F7800.000
G1 E2.00000 F2400.00000
G1 F1200
G1 X99.864 Y96.669 E2.01890
G1 X99.838 Y96.720 E2.02044
G1 X99.835 Y96.786 E2.02224
G1 X99.865 Y96.860 E2.02439
G1 X100.105 Y97.148 E2.03450
G1 X100.299 Y97.296 E2.04109
G1 X101.597 Y95.998 E2.09064
G1 X101.589 Y96.360 E2.10041
G1 X101.644 Y96.641 E2.10814
G1 X101.781 Y96.876 E2.11549
G1 X101.043 Y97.614 E2.14363
G1 X101.376 Y97.763 E2.15347
G1 X101.700 Y98.019 E2.16461
G1 X102.460 Y97.259 E2.19362
G1 X102.781 Y97.325 E2.20246
G1 X102.936 Y97.404 E2.20716
G1 X103.041 Y97.523 E2.21143
G1 X103.025 Y97.648 E2.21482
G1 X102.872 Y97.909 E2.22299
G1 X102.377 Y98.404 E2.24189
G1 E0.24189 F2400.00000
G92 E0
G1 X102.488 Y95.609 F7800.000
G1 E2.00000 F2400.00000
G1 F1200
G1 X102.982 Y95.115 E2.01887
G1 X102.635 Y94.562 F7800.000
G1 F1200
G1 X102.140 Y95.058 E2.03776
M106 S255
G1 Z1.800 F7800.000
G1 X101.289 Y96.539 F7800.000
G1 F1197.58
G1 X100.795 Y96.045 E2.05897
G1 X100.537 Y96.064 E2.06679
G1 X100.324 Y96.153 E2.07379
G1 X100.186 Y96.271 E2.07929
G1 X100.167 Y96.318 E2.08083
G1 X100.183 Y96.392 E2.08313
G1 X100.274 Y96.534 E2.08825
G1 X100.769 Y97.029 E2.10944
G1 E0.10944 F2400.00000
G92 E0
G1 X104.603 Y99.728 F7800.000
G1 E2.00000 F2400.00000
G1 F1197.58
G1 X104.108 Y99.234 E2.01918
G1 X102.964 Y99.003 E2.05118
G1 X104.021 Y100.060 E2.09217
G1 X103.458 Y100.411 E2.11036
G1 X101.999 Y98.952 E2.16694
G1 X101.709 Y98.948 E2.17489
G1 X101.134 Y99.001 E2.19072
G1 X102.879 Y100.746 E2.25838
G1 X102.666 Y100.862 E2.26503
G1 X102.235 Y101.016 E2.27757
G1 X100.254 Y99.034 E2.35441
G1 X99.348 Y99.042 E2.37926
G1 X101.563 Y101.257 E2.46517
G1 X100.860 Y101.468 E2.48528
G1 X98.472 Y99.080 E2.57790
G1 X97.630 Y99.152 E2.60107
G1 X100.190 Y101.712 E2.70035
G1 X99.513 Y101.948 E2.72003
G1 X96.820 Y99.255 E2.82448
G1 X96.065 Y99.414 E2.84563
G1 X98.807 Y102.156 E2.95196
G1 X98.403 Y102.254 E2.96336
G1 X98.047 Y102.310 E2.97323
G1 X95.317 Y99.580 E3.07910
G1 X94.550 Y99.727 E3.10051
G1 X97.199 Y102.375 E3.20322
G1 X97.073 Y102.382 E3.20668
G1 X96.253 Y102.343 E3.22918
G1 X93.760 Y99.851 E3.32585
G1 X92.942 Y99.946 E3.34844
G1 X95.210 Y102.214 E3.43639
G1 X94.056 Y101.974 E3.46870
G1 X91.844 Y99.762 E3.55451
G1 X91.741 Y99.879 E3.55878
G1 X91.436 Y99.998 E3.56777
G1 X91.165 Y99.997 E3.57520
G1 X92.946 Y101.778 E3.64427
G1 X92.531 Y101.860 E3.65587
G1 X92.584 Y102.178 E3.66471
G1 X92.442 Y101.976 E3.67148
G1 X92.331 Y101.689 E3.67992
G1 X92.151 Y101.544 E3.68626
G1 X91.613 Y101.359 E3.70186
G1 X90.116 Y99.862 E3.75992
G1 X89.369 Y99.664 E3.78110
G1 X88.975 Y99.476 E3.79308
G1 X88.614 Y99.226 E3.80513
G1 X88.215 Y98.850 E3.82016
G1 X87.875 Y98.428 E3.83503
G1 X86.898 Y97.054 E3.88127
G1 X86.693 Y96.808 E3.89004
G1 X86.473 Y96.593 E3.89847
G1 X86.155 Y96.355 E3.90937
G1 X85.927 Y96.229 E3.91652
G1 X85.892 Y96.265 E3.91789
G1 X85.525 Y95.920 E3.93170
G1 X85.376 Y95.828 E3.93650
G1 X85.083 Y95.743 E3.94487
G1 X89.726 Y100.386 E4.12493
G1 X89.177 Y100.233 E4.14056
G1 X88.540 Y100.113 E4.15835
G1 X84.407 Y95.980 E4.31862
G1 X84.101 Y96.133 E4.32799
G1 X83.846 Y96.333 E4.33688
G1 X87.521 Y100.008 E4.47939
G1 X86.563 Y99.964 E4.50569
G1 X83.788 Y97.189 E4.61330
G1 X83.823 Y97.301 E4.61653
G1 X83.803 Y97.665 E4.62653
G1 X83.829 Y97.822 E4.63090
G1 X83.878 Y97.998 E4.63590
G1 X83.954 Y98.171 E4.64108
G1 X84.054 Y98.337 E4.64640
G1 X84.200 Y98.514 E4.65270
G1 X84.694 Y99.009 E4.67187
G1 Z2.100 F7800.000
G1 X85.087 Y95.821 F7800.000
G1 F937.137
G1 X84.592 Y96.316 E4.69195
G1 X84.733 Y96.392 E4.69655
G1 X84.223 Y96.781 E4.71496
G1 X84.350 Y96.926 E4.72047
G1 X83.925 Y97.308 E4.73688
G1 X83.998 Y97.769 E4.75028
G1 X83.963 Y97.902 E4.75422
G1 X85.886 Y95.979 E4.83231
G1 X86.278 Y96.368 E4.84818
G1 X86.384 Y96.437 E4.85182
G1 X84.062 Y98.759 E4.94609
G1 X84.193 Y98.933 E4.95235
G1 X84.375 Y99.071 E4.95891
G1 X84.730 Y99.048 E4.96912
G1 X86.932 Y96.846 E5.05853
G1 X87.008 Y96.915 E5.06149
G1 X87.369 Y97.366 E5.07805
G1 X85.268 Y99.466 E5.16333
G1 X85.659 Y99.695 E5.17632
G1 X85.938 Y99.754 E5.18450
G1 X87.765 Y97.926 E5.25869
G1 X88.161 Y98.487 E5.27839
G1 X86.855 Y99.793 E5.33142
G1 X87.743 Y99.862 E5.35699
G1 X88.589 Y99.016 E5.39133
G1 X88.986 Y99.390 E5.40701
G1 X89.079 Y99.454 E5.41025
G1 X89.058 Y99.503 E5.41180
G1 X88.563 Y99.998 E5.43189
G1 E3.43189 F2400.00000
G92 E0
G1 X90.579 Y100.063 F7800.000
G1 E2.00000 F2400.00000
G1 F937.137
G1 X90.075 Y100.582 E2.02079
G1 X90.630 Y100.921 E2.03944
G1 X91.356 Y100.194 E2.06893
G1 X92.252 Y100.206 E2.09467
G1 X91.260 Y101.198 E2.13494
G1 X91.973 Y101.393 E2.15615
G1 X93.192 Y100.174 E2.20566
G1 X94.211 Y100.063 E2.23506
G1 X92.703 Y101.571 E2.29627
G1 X93.444 Y101.738 E2.31806
G1 X95.290 Y99.892 E2.39301
G1 X96.439 Y99.650 E2.42675
G1 X94.189 Y101.900 E2.51812
G1 X94.953 Y102.044 E2.54044
G1 X97.576 Y99.421 E2.64693
G1 X98.593 Y99.313 E2.67628
G1 X95.764 Y102.141 E2.79112
G1 X96.529 Y102.177 E2.81310
G1 X96.641 Y102.171 E2.81634
G1 X99.561 Y99.252 E2.93487
G1 X100.476 Y99.245 E2.96114
G1 X97.631 Y102.090 E3.07663
G1 X98.212 Y101.969 E3.09367
G1 X98.835 Y101.793 E3.11225
G1 X101.405 Y99.224 E3.21658
G1 X102.216 Y99.154 E3.23996
G1 X102.380 Y99.156 E3.24466
G1 X100.245 Y101.291 E3.33133
G1 X101.069 Y101.043 E3.35601
G1 X101.606 Y100.839 E3.37251
G1 X103.250 Y99.194 E3.43928
G1 X103.550 Y99.226 E3.44794
G1 X104.028 Y99.324 E3.46195
G1 X103.533 Y99.819 E3.48203
G1 Z2.400 F7800.000
G1 X103.227 Y99.905 F7800.000
G1 F668.692
G1 X102.732 Y99.411 E3.50233
G1 X102.712 Y100.358 F7800.000
G1 F668.692
G1 X101.715 Y99.361 E3.54326
G1 X100.822 Y99.435 E3.56926
G1 X102.037 Y100.650 E3.61913
G1 X101.322 Y100.902 E3.64114
G1 X99.870 Y99.450 E3.70072
G1 X98.917 Y99.464 E3.72840
G1 X100.579 Y101.126 E3.79660
G1 X99.879 Y101.393 E3.81834
G1 X98.010 Y99.525 E3.89504
G1 X97.142 Y99.624 E3.92040
G1 X99.148 Y101.630 E4.00274
G1 X98.386 Y101.835 E4.02564
G1 X96.330 Y99.778 E4.11005
G1 X95.537 Y99.953 E4.13360
G1 X97.537 Y101.953 E4.21568
G1 X96.719 Y101.969 E4.23945
G1 X96.573 Y101.956 E4.24368
G1 X94.729 Y100.112 E4.31938
G1 X93.896 Y100.246 E4.34387
G1 X95.496 Y101.846 E4.40953
G1 X95.110 Y101.783 E4.42086
G1 X94.283 Y101.600 E4.44546
G1 X93.031 Y100.348 E4.49683
G1 X92.125 Y100.409 E4.52318
G1 X93.036 Y101.320 E4.56055
G1 X91.721 Y100.972 E4.60003
G1 X91.226 Y100.477 E4.62033
G1 E2.62033 F2400.00000
G92 E0
G1 X88.184 Y99.650 F7800.000
G1 E2.00000 F2400.00000
G1 F668.692
G1 X84.564 Y96.030 E2.13824
G1 X84.380 Y96.404 E2.14950
G1 X84.200 Y96.566 E2.15603
G1 X87.215 Y99.580 E2.27115
G1 X86.417 Y99.549 E2.29271
G1 X86.238 Y99.504 E2.29769
G1 X84.192 Y97.457 E2.37584
G1 X83.925 Y97.624 E2.38434
G1 X83.916 Y97.727 E2.38711
G1 X83.955 Y97.910 E2.39217
G1 X84.114 Y98.242 E2.40211
G1 X84.246 Y98.411 E2.40791
G1 X84.740 Y98.906 E2.42679
G1 X85.951 Y96.518 F7800.000
G1 F668.692
G1 X85.457 Y96.023 E2.44567
G1 Z2.700 F7800.000
G1 E0.44567 F2400.00000
G92 E0
G1 X92.732 Y101.074 F7800.000
G1 E2.00000 F2400.00000
G1 F600
G1 X93.227 Y100.580 E2.01980
G1 X94.284 Y100.466 E2.04992
G1 X93.432 Y101.317 E2.08402
G1 X94.208 Y101.486 E2.10649
G1 X95.408 Y100.286 E2.15456
G1 X96.600 Y100.037 E2.18905
G1 X94.998 Y101.639 E2.25321
G1 X95.851 Y101.730 E2.27750
G1 X97.770 Y99.811 E2.35435
G1 X98.821 Y99.703 E2.38428
G1 X96.778 Y101.747 E2.46613
G1 X97.286 Y101.731 E2.48054
G1 X97.830 Y101.639 E2.49614
G1 X99.809 Y99.659 E2.57544
G1 X100.757 Y99.655 E2.60228
G1 X99.162 Y101.250 E2.66618
G1 X99.919 Y100.962 E2.68914
G1 X100.607 Y100.749 E2.70952
G1 X101.746 Y99.610 E2.75516
G1 X102.246 Y99.565 E2.76938
G1 X102.624 Y99.562 E2.78007
G1 X102.608 Y99.692 E2.78377
G1 X102.113 Y100.186 E2.80358
G1 E0.80358 F2400.00000
G92 E0
G1 X87.486 Y99.423 F7800.000
G1 E2.00000 F2400.00000
G1 F600
G1 X87.981 Y98.929 E2.02037
G1 X87.574 Y98.365 E2.04063
G1 X86.570 Y99.369 E2.08200
G1 X85.962 Y99.347 E2.09971
G1 X85.796 Y99.306 E2.10470
G1 X85.709 Y99.259 E2.10757
G1 X87.170 Y97.797 E2.16780
G1 X86.751 Y97.246 E2.18798
G1 X85.158 Y98.839 E2.25361
G1 X85.033 Y98.706 E2.25894
G1 X84.871 Y98.626 E2.26418
G1 X84.835 Y98.415 E2.27042
G1 X84.772 Y98.254 E2.27545
G1 X86.214 Y96.812 E2.33488
G1 X85.924 Y96.621 E2.34501
G1 X85.890 Y96.344 E2.35313
G1 X85.902 Y96.153 E2.35871
G1 X84.418 Y97.638 E2.41989
G1 X84.332 Y97.286 E2.43045
G1 X84.331 Y97.221 E2.43233
G1 X84.482 Y97.094 E2.43808
G1 X84.589 Y96.885 E2.44492
G1 X84.545 Y96.540 E2.45506
G1 X85.039 Y96.045 E2.47543
G1 Z3.000 F7800.000
G1 E0.47543 F2400.00000
G92 E0
G1 X94.432 Y101.214 F7800.000
G1 E2.00000 F2400.00000
G1 F600
G1 X93.938 Y100.719 E2.01896
G1 X93.927 Y100.655 E2.02074
G1 X94.660 Y100.538 E2.04089
G1 X95.568 Y101.446 E2.07570
G1 X96.569 Y101.543 E2.10298
G1 X95.419 Y100.393 E2.14707
G1 X96.165 Y100.235 E2.16774
G1 X97.466 Y101.536 E2.21764
G1 X97.761 Y101.526 E2.22567
G1 X98.273 Y101.439 E2.23973
G1 X96.905 Y100.071 E2.29220
G1 X97.382 Y99.996 E2.30532
G1 X97.703 Y99.966 E2.31407
G1 X98.987 Y101.250 E2.36330
G1 X99.671 Y101.031 E2.38279
G1 X98.536 Y99.895 E2.42634
G1 X99.407 Y99.863 E2.44999
G1 X100.323 Y100.779 E2.48513
G1 X101.015 Y100.567 E2.50476
G1 X100.309 Y99.861 E2.53184
G1 X101.173 Y99.821 E2.55529
G1 X101.667 Y100.316 E2.57426
G1 E0.57426 F2400.00000
G92 E0
G1 X86.804 Y99.155 F7800.000
G1 E2.00000 F2400.00000
G1 F600
G1 X84.579 Y96.930 E2.10185
G1 X86.077 Y97.349 F7800.000
G1 F600
G1 X86.571 Y97.844 E2.12448
G1 Z3.300 F7800.000
G1 E0.12448 F2400.00000
G92 E0
G1 X95.543 Y100.676 F7800.000
G1 E2.00000 F2400.00000
G1 F600
G1 X95.049 Y101.170 E2.02115
G1 X95.076 Y101.235 E2.02327
G1 X95.904 Y101.322 E2.04846
G1 X96.816 Y100.411 E2.08745
G1 X97.385 Y100.281 E2.10511
G1 X98.048 Y100.186 E2.12535
G1 X96.900 Y101.334 E2.17444
G1 X97.248 Y101.322 E2.18495
G1 X97.755 Y101.234 E2.20052
G1 X98.099 Y101.143 E2.21127
G1 X99.147 Y100.094 E2.25611
G1 X100.059 Y100.060 E2.28370
G1 X100.092 Y100.157 E2.28678
G1 X99.598 Y100.651 E2.30794
G1 E0.30794 F2400.00000
G92 E0
G1 X86.652 Y98.963 F7800.000
G1 E2.00000 F2400.00000
G1 F600
G1 X87.147 Y98.468 E2.02264
G1 X86.698 Y97.838 E2.04767
G1 X85.746 Y98.790 E2.09127
G1 X85.558 Y98.642 E2.09900
G1 X85.204 Y98.253 E2.11603
G1 X86.174 Y97.283 E2.16044
G1 X85.889 Y97.100 E2.17142
G1 X85.469 Y96.955 E2.18581
G1 X85.410 Y96.968 E2.18775
G1 X84.832 Y97.547 E2.21423
G1 X84.805 Y97.489 E2.21629
G1 X84.916 Y97.463 E2.21998
G1 Z3.600 F7800.000
G1 E0.21998 F2400.00000
G92 E0
G1 X96.603 Y100.556 F7800.000
G1 E2.00000 F2400.00000
G1 F600
G1 X97.179 Y101.131 E2.02635
G1 X97.787 Y101.109 E2.04605
G1 X98.166 Y101.040 E2.05852
G1 X97.521 Y100.395 E2.08804
G1 X98.512 Y100.307 E2.12025
G1 X99.007 Y100.802 E2.14290
G1 Z3.900 F7800.000
G1 E0.14290 F2400.00000
G92 E0
M107
; Filament-specific end gcode 
;END gcode for filament

M104 S0 ; turn off temperature
G28 X0  ; home X axis
M84     ; disable motors

M140 S0 ; set bed temperature
; filament used = 32.9mm (0.2cm3)
; total filament cost = 0.0

; avoid_crossing_perimeters = 0
; bed_shape = 0x0,200x0,200x200,0x200
; bed_temperature = 0
; before_layer_gcode = 
; between_objects_gcode = 
; bridge_acceleration = 0
; bridge_fan_speed = 100
; brim_connections_width = 0
; brim_width = 0
; complete_objects = 0
; cooling = 1
; default_acceleration = 0
; disable_fan_first_layers = 3
; duplicate_distance = 6
; end_filament_gcode = "; Filament-specific end gcode \n;END gcode for filament\n"
; end_gcode = M104 S0 ; turn off temperature\nG28 X0  ; home X axis\nM84     ; disable motors\n
; extruder_clearance_height = 20
; extruder_clearance_radius = 20
; extruder_offset = 0x0
; extrusion_axis = E
; extrusion_multiplier = 1
; fan_always_on = 0
; fan_below_layer_time = 60
; filament_colour = #FFFFFF
; filament_cost = 0
; filament_density = 0
; filament_diameter = 3
; filament_max_volumetric_speed = 0
; filament_notes = ""
; first_layer_acceleration = 0
; first_layer_bed_temperature = 0
; first_layer_extrusion_width = 200%
; first_layer_speed = 30
; first_layer_temperature = 205
; gcode_arcs = 0
; gcode_comments = 0
; gcode_flavor = reprap
; has_heatbed = 1
; infill_acceleration = 0
; infill_first = 0
; interior_brim_width = 0
; layer_gcode = 
; max_fan_speed = 100
; max_layer_height = 0.3
; max_print_speed = 80
; max_volumetric_speed = 0
; min_fan_speed = 35
; min_layer_height = 0.15
; min_print_speed = 10
; min_skirt_length = 0
; notes = 
; nozzle_diameter = 0.5
; only_retract_when_crossing_perimeters = 1
; ooze_prevention = 0
; output_filename_format = [input_filename_base].gcode
; perimeter_acceleration = 0
; post_process = 
; pressure_advance = 0
; printer_notes = 
; resolution = 0
; retract_before_travel = 2
; retract_layer_change = 0
; retract_length = 2
; retract_length_toolchange = 10
; retract_lift = 0
; retract_lift_above = 0
; retract_lift_below = 0
; retract_restart_extra = 0
; retract_restart_extra_toolchange = 0
; retract_speed = 40
; skirt_distance = 6
; skirt_height = 1
; skirts = 0
; slowdown_below_layer_time = 5
; spiral_vase = 0
; standby_temperature_delta = -5
; start_filament_gcode = "; Filament gcode\n"
; start_gcode = G28 ; home all axes\nG1 Z5 F5000 ; lift nozzle\n
; temperature = 200
; threads = 8
; toolchange_gcode = 
; travel_speed = 130
; use_firmware_retraction = 0
; use_relative_e_distances = 0
; use_set_and_wait_bed = 0
; use_set_and_wait_extruder = 0
; use_volumetric_e = 0
; vibration_limit = 0
; wipe = 0
; z_offset = 0
; z_steps_per_mm = 0
; adaptive_slicing = 0
; adaptive_slicing_quality = 75%
; dont_support_bridges = 1
; extrusion_width = 0
; first_layer_height = 0.3
; infill_only_where_needed = 0
; interface_shells = 0
; layer_height = 0.3
; match_horizontal_surfaces = 0
; raft_layers = 0
; regions_overlap = 0
; seam_position = aligned
; sequential_print_priority = 0
; support_material = 0
; support_material_angle = 0
; support_material_buildplate_only = 0
; support_material_contact_distance = 0.2
; support_material_enforce_layers = 0
; support_material_extruder = 1
; support_material_extrusion_width = 0
; support_material_interface_extruder = 1
; support_material_interface_extrusion_width = 0
; support_material_interface_layers = 3
; support_material_interface_spacing = 0
; support_material_interface_speed = 100%
; support_material_max_layers = 0
; support_material_pattern = pillars
; support_material_spacing = 2.5
; support_material_speed = 60
; support_material_threshold = 60%
; xy_size_compensation = 0
; bottom_infill_pattern = rectilinear
; bottom_solid_layers = 0
; bridge_flow_ratio = 1
; bridge_speed = 60
; external_perimeter_extrusion_width = 0
; external_perimeter_speed = 50%
; external_perimeters_first = 0
; extra_perimeters = 1
; fill_angle = 45
; fill_density = 90%
; fill_gaps = 1
; fill_pattern = rectilinear
; gap_fill_speed = 20
; infill_every_layers = 1
; infill_extruder = 1
; infill_extrusion_width = 0
; infill_overlap = 55%
; infill_speed = 80
; overhangs = 1
; perimeter_extruder = 1
; perimeter_extrusion_width = 0
; perimeter_speed = 60
; perimeters = 0
; small_perimeter_speed = 15
; solid_infill_below_area = 70
; solid_infill_every_layers = 0
; solid_infill_extruder = 1
; solid_infill_extrusion_width = 0
; solid_infill_speed = 20
; thin_walls = 1
; top_infill_extrusion_width = 0
; top_infill_pattern = rectilinear
; top_solid_infill_speed = 15
; top_solid_layers = 0
