; generated by Slic3r 1.3.0 on 2020-11-20 at 12:51:49

; external perimeters extrusion width = 0.55mm (5.57mm^3/s)
; perimeters extrusion width = 0.58mm (11.78mm^3/s)
; infill extrusion width = 0.58mm (15.71mm^3/s)
; solid infill extrusion width = 0.58mm (3.93mm^3/s)
; top infill extrusion width = 0.58mm (2.95mm^3/s)

M107
M104 S205 ; set temperature
G28 ; home all axes
G1 Z5 F5000 ; lift nozzle

; Filament gcode

M109 S205 ; set temperature and wait for it to be reached
G21 ; set units to millimeters
G90 ; use absolute coordinates
M82 ; use absolute distances for extrusion
G92 E0
G1 Z0.400 F7800.000
G1 E-2.00000 F2400.00000
G92 E0
G1 X84.683 Y95.648 F7800.000
G1 E2.00000 F2400.00000
G1 F1800
G1 X84.366 Y95.681 E2.01289
G1 X84.284 Y95.715 E2.01651
G1 X84.168 Y95.719 E2.02117
G1 X84.106 Y95.763 E2.02426
G1 X84.016 Y95.767 E2.02789
G1 X83.707 Y95.902 E2.04153
G1 X83.618 Y95.986 E2.04648
G1 X83.573 Y95.986 E2.04830
G1 X83.497 Y96.059 E2.05257
G1 X83.418 Y96.094 E2.05605
G1 X83.188 Y96.323 E2.06916
G1 X83.153 Y96.403 E2.07270
G1 X83.068 Y96.491 E2.07763
G1 X83.032 Y96.597 E2.08214
G1 X82.957 Y96.712 E2.08770
G1 X82.934 Y96.917 E2.09604
G1 X82.912 Y96.939 E2.09729
G1 X82.887 Y97.047 E2.10175
G1 X82.887 Y97.249 E2.10991
G1 X82.910 Y97.319 E2.11292
G1 X82.911 Y97.415 E2.11678
G1 X85.152 Y95.179 E2.24473
G1 X85.368 Y95.157 E2.25349
G1 X85.387 Y95.177 E2.25458
G1 X85.678 Y95.182 E2.26635
G1 X86.194 Y95.294 E2.28768
G1 X83.174 Y98.314 E2.46026
G1 X83.178 Y98.369 E2.46248
G1 X83.271 Y98.534 E2.47016
G1 X83.275 Y98.590 E2.47240
G1 X83.313 Y98.665 E2.47579
G1 X83.363 Y98.720 E2.47882
G1 X83.410 Y98.835 E2.48384
G1 X83.462 Y98.892 E2.48696
G1 X83.466 Y98.939 E2.48888
G1 X83.561 Y99.084 E2.49586
G1 X87.003 Y95.642 E2.69256
G1 X87.216 Y95.777 E2.70277
G1 X87.534 Y96.027 E2.71910
G1 X87.654 Y96.148 E2.72598
G1 X84.069 Y99.733 E2.93086
G1 X84.420 Y100.083 E2.95089
G1 X84.682 Y100.277 E2.96407
G1 X88.170 Y96.789 E3.16342
G1 X88.650 Y97.466 E3.19695
G1 X85.441 Y100.675 E3.38039
G1 X85.548 Y100.720 E3.38509
G1 X85.821 Y100.748 E3.39619
G1 X85.843 Y100.766 E3.39734
G1 X86.483 Y100.790 E3.42322
G1 X89.136 Y98.137 E3.57484
G1 X89.480 Y98.516 E3.59553
G1 X89.724 Y98.706 E3.60803
G1 X87.579 Y100.851 E3.73061
G1 X88.369 Y100.966 E3.76289
G1 X88.564 Y101.023 E3.77108
G1 X90.551 Y99.036 E3.88465
G1 X91.052 Y99.156 E3.90548
G1 X91.527 Y99.217 E3.92481
G1 X89.400 Y101.344 E4.04633
G1 E2.04633 F2400.00000
G92 E0
G1 X93.827 Y102.702 F7800.000
G1 E2.00000 F2400.00000
G1 F1800
G1 X92.775 Y103.754 E2.06015
G1 X92.940 Y103.934 E2.07002
G1 X93.275 Y104.411 E2.09358
G1 X94.275 Y103.411 E2.15072
G1 X94.569 Y103.781 E2.16981
G1 X94.715 Y104.128 E2.18504
G1 X93.805 Y105.038 E2.23703
G1 X94.017 Y105.297 E2.25057
G1 X94.158 Y105.509 E2.26085
G1 X94.196 Y105.610 E2.26521
G1 X94.202 Y105.798 E2.27282
G1 X95.123 Y104.877 E2.32550
G1 X95.252 Y105.056 E2.33443
G1 X95.380 Y105.182 E2.34167
G1 X95.483 Y105.244 E2.34654
G1 X95.580 Y105.273 E2.35063
G1 X95.521 Y105.328 E2.35388
G1 X95.470 Y105.471 E2.36002
G1 X95.460 Y105.697 E2.36918
G1 X94.684 Y106.473 E2.41349
G1 E0.41349 F2400.00000
G92 E0
G1 X95.693 Y103.150 F7800.000
G1 E2.00000 F2400.00000
G1 F1800
G1 X100.611 Y98.232 E2.28104
G1 X99.447 Y98.240 E2.32807
G1 X94.681 Y103.005 E2.60043
G1 X94.580 Y102.999 E2.60453
G1 X93.713 Y102.816 E2.64032
G1 X98.195 Y98.334 E2.89646
G1 X98.175 Y98.352 E2.89753
G1 X97.837 Y98.361 E2.91118
G1 X97.644 Y98.404 E2.91918
G1 X97.207 Y98.457 E2.93697
G1 X97.156 Y98.495 E2.93953
G1 X96.846 Y98.526 E2.95209
G1 X92.110 Y103.262 E3.22281
G1 X92.099 Y103.228 E3.22426
G1 X92.039 Y103.217 E3.22672
G1 X92.028 Y103.182 E3.22817
G1 X91.937 Y103.163 E3.23195
G1 X91.853 Y103.078 E3.23677
G1 X91.575 Y102.640 E3.25773
G1 X95.357 Y98.858 E3.47388
G1 X93.950 Y99.108 E3.53165
G1 X90.926 Y102.132 E3.70445
G1 X90.873 Y102.128 E3.70662
G1 X90.778 Y102.084 E3.71084
G1 X90.695 Y102.079 E3.71422
G1 X90.647 Y102.039 E3.71671
G1 X90.535 Y102.022 E3.72132
G1 X90.278 Y101.890 E3.73298
G1 X90.204 Y101.822 E3.73703
G1 X90.113 Y101.788 E3.74096
G1 X93.835 Y98.066 E3.95369
G1 X94.197 Y97.454 E3.98239
G1 X94.374 Y97.080 E3.99914
G1 X94.489 Y96.724 E4.01424
G1 X94.480 Y96.566 E4.02064
G1 X94.417 Y96.327 E4.03061
G1 X92.359 Y98.385 E4.14818
G1 X92.426 Y98.243 E4.15452
G1 X92.900 Y97.526 E4.18924
G1 X93.009 Y97.299 E4.19942
G1 X93.043 Y97.177 E4.20452
G1 X93.046 Y96.959 E4.21334
G1 X93.009 Y96.823 E4.21904
G1 X92.919 Y96.668 E4.22629
G1 X94.473 Y95.114 E4.31513
G1 X94.339 Y95.106 E4.32056
G1 X94.234 Y95.069 E4.32506
G1 X94.150 Y95.010 E4.32920
G1 X94.065 Y94.924 E4.33410
G1 X93.989 Y94.764 E4.34125
G1 X93.890 Y94.875 E4.34730
G1 X93.708 Y94.986 E4.35591
G1 X93.608 Y95.017 E4.36013
G1 X93.430 Y95.000 E4.36735
G1 X92.791 Y95.639 E4.40389
G1 X92.666 Y95.380 E4.41551
G1 X92.522 Y95.201 E4.42482
G1 X92.293 Y94.980 E4.43767
G1 X92.910 Y94.363 E4.47293
G1 X93.259 Y95.171 F7800.000
G1 F1800
G1 X93.278 Y95.417 E4.48290
G1 X93.247 Y95.518 E4.48719
G1 X93.163 Y95.660 E4.49384
G1 X92.988 Y95.799 E4.50286
G1 X92.873 Y95.843 E4.50787
G1 X92.555 Y95.875 E4.52078
G1 X91.868 Y96.562 E4.56003
G1 E2.56003 F2400.00000
G92 E0
G1 X99.482 Y97.047 F7800.000
G1 E2.00000 F2400.00000
G1 F1800
G1 X101.092 Y95.437 E2.09199
G1 X101.625 Y95.182 E2.11588
G1 X101.856 Y95.035 E2.12694
G1 X101.981 Y94.929 E2.13359
G1 X102.112 Y94.755 E2.14237
G1 X102.111 Y94.531 E2.15144
G1 X102.059 Y94.470 E2.15466
G1 X102.262 Y94.267 E2.16625
G1 X102.068 Y94.320 E2.17440
G1 X101.826 Y94.291 E2.18422
G1 X101.669 Y94.219 E2.19122
G1 X101.487 Y94.064 E2.20087
G1 X101.327 Y94.045 E2.20737
G1 X100.750 Y94.622 E2.24035
G1 X100.689 Y94.551 E2.24413
G1 X100.859 Y94.513 E2.25114
G1 E0.25114 F2400.00000
G92 E0
G1 X102.482 Y92.890 F7800.000
G1 E2.00000 F2400.00000
G1 F1800
G1 X101.845 Y93.527 E2.03644
G1 X102.032 Y94.228 E2.06575
G1 X102.031 Y94.387 E2.07218
G1 X101.973 Y94.556 E2.07937
G1 X102.714 Y93.815 E2.12172
G1 X102.807 Y94.007 E2.13034
G1 X103.113 Y94.021 E2.14271
G1 X103.542 Y93.774 E2.16273
G1 X103.708 Y93.656 E2.17094
G1 X103.903 Y93.494 E2.18121
G1 X104.159 Y93.211 E2.19663
G1 X104.303 Y92.963 E2.20822
G1 X104.372 Y92.739 E2.21768
G1 X104.447 Y92.822 E2.22221
G1 X104.544 Y93.032 E2.23155
G1 X104.546 Y93.140 E2.23592
G1 X103.683 Y94.003 E2.28525
G1 X103.316 Y94.370 F7800.000
G1 F1800
G1 X100.102 Y97.584 E2.46892
G1 X100.868 Y97.975 E2.50368
G1 X102.150 Y96.693 E2.57692
G1 X102.328 Y96.802 E2.58538
G1 X102.445 Y96.844 E2.59038
G1 X102.867 Y96.945 E2.60792
G1 X103.002 Y96.998 E2.61378
G1 X96.803 Y103.197 E2.96810
G1 X96.889 Y103.175 E2.97172
G1 X97.248 Y103.174 E2.98624
G1 X97.319 Y103.151 E2.98925
G1 X97.419 Y103.150 E2.99328
G1 X97.442 Y103.127 E2.99460
G1 X97.681 Y103.125 E3.00425
G1 X98.127 Y103.030 E3.02266
G1 X103.577 Y97.580 E3.33416
G1 X103.448 Y97.865 E3.34678
G1 X103.452 Y98.186 E3.35978
G1 X104.004 Y98.310 E3.38266
G1 X99.762 Y102.552 E3.62511
G1 X99.796 Y102.525 E3.62686
G1 X100.019 Y102.465 E3.63621
G1 X100.422 Y102.282 E3.65411
G1 X101.012 Y102.096 E3.67911
G1 X101.202 Y102.058 E3.68691
G1 X101.309 Y102.072 E3.69130
G1 X101.370 Y102.101 E3.69400
G1 X104.971 Y98.500 E3.89981
G1 X105.963 Y98.665 E3.94046
G1 X103.830 Y100.798 E4.06238
G1 X104.501 Y100.406 E4.09378
G1 X104.905 Y100.216 E4.11184
G1 X105.308 Y100.085 E4.12897
G1 X105.768 Y100.017 E4.14778
G1 X106.911 Y98.874 E4.21307
G1 X107.851 Y99.091 E4.25207
G1 X106.816 Y100.126 E4.31121
G1 X107.742 Y100.357 E4.34979
G1 X108.956 Y99.143 E4.41918
G1 X109.337 Y99.075 E4.43481
G1 X109.752 Y98.954 E4.45226
G1 X110.124 Y98.805 E4.46848
G1 X110.747 Y98.509 E4.49631
G1 X109.206 Y100.050 E4.58437
G1 X110.569 Y99.267 E4.64789
G1 X111.044 Y99.054 E4.66896
G1 X111.514 Y98.899 E4.68893
G1 X112.657 Y97.756 E4.75424
G1 X113.058 Y97.689 E4.77070
G1 X113.382 Y97.661 E4.78382
G1 X113.894 Y97.676 E4.80451
G1 X112.837 Y98.733 E4.86487
G1 X113.371 Y98.768 E4.88647
G1 X113.681 Y98.820 E4.89920
G1 X113.855 Y98.872 E4.90653
G1 X114.683 Y98.044 E4.95383
G1 X114.801 Y98.061 E4.95867
G1 X115.430 Y98.454 E4.98862
G1 X114.629 Y99.255 E5.03436
G1 X115.345 Y99.696 E5.06834
G1 X116.110 Y98.931 E5.11206
G1 X116.335 Y99.101 E5.12347
G1 X116.738 Y99.460 E5.14527
G1 X116.177 Y100.021 E5.17732
G1 E3.17732 F2400.00000
G92 E0
G1 X105.299 Y105.114 F7800.000
G1 E2.00000 F2400.00000
G1 F1800
G1 X105.516 Y105.397 E2.01442
G1 X105.655 Y105.471 E2.02078
G1 X105.758 Y105.426 E2.02530
G1 X105.766 Y105.256 E2.03218
G1 X105.752 Y105.229 E2.03339
G1 X105.621 Y105.116 E2.04040
G1 X105.575 Y105.110 E2.04227
G1 X105.438 Y105.025 E2.04878
G1 X105.391 Y105.022 E2.05069
G1 X104.831 Y105.582 E2.08272
G1 X103.348 Y104.751 F7800.000
G1 F1800
G1 X104.554 Y103.545 E2.15162
G1 X104.493 Y103.469 E2.15558
G1 X104.486 Y103.359 E2.16002
G1 X104.500 Y103.135 E2.16907
G1 X104.527 Y103.092 E2.17113
G1 X104.396 Y103.143 E2.17681
G1 X104.062 Y103.214 E2.19059
G1 X103.931 Y103.223 E2.19590
G1 X103.742 Y103.200 E2.20362
G1 X102.752 Y104.190 E2.26017
G1 X102.472 Y104.107 E2.27198
G1 X102.163 Y104.073 E2.28453
G1 X101.816 Y104.105 E2.29863
G1 X101.644 Y104.141 E2.30571
G1 X102.918 Y102.867 E2.37851
G1 X102.916 Y102.620 E2.38848
G1 X102.987 Y102.475 E2.39502
G1 X103.244 Y102.072 E2.41433
G1 X103.399 Y101.743 E2.42904
G1 X103.473 Y101.155 E2.45299
G1 X100.409 Y104.219 E2.62809
G1 X100.237 Y104.090 E2.63677
G1 X100.209 Y103.951 E2.64249
G1 X100.184 Y103.944 E2.64353
G1 X100.187 Y103.874 E2.64638
G1 X100.223 Y103.833 E2.64858
G1 X100.271 Y103.699 E2.65433
G1 X100.343 Y103.623 E2.65855
G1 X100.416 Y103.604 E2.66160
G1 X100.423 Y103.568 E2.66307
G1 X100.462 Y103.559 E2.66469
G1 X100.485 Y103.458 E2.66886
G1 X100.520 Y103.418 E2.67101
G1 X101.184 Y102.921 E2.70452
G1 X101.306 Y102.796 E2.71160
G1 X101.451 Y102.597 E2.72152
G1 X101.526 Y102.427 E2.72907
G1 X101.526 Y102.177 E2.73915
G1 X101.370 Y102.101 E2.74618
G1 E0.74618 F2400.00000
G92 E0
G1 X101.681 Y97.162 F7800.000
G1 E2.00000 F2400.00000
G1 F1800
G1 X101.540 Y96.993 E2.00888
G1 X101.497 Y96.894 E2.01324
G1 X101.466 Y96.696 E2.02134
G1 X101.541 Y96.527 E2.02884
G1 X101.587 Y96.474 E2.03168
G1 X101.780 Y96.318 E2.04169
G1 X102.350 Y96.156 E2.06566
G1 X102.634 Y96.018 E2.07841
G1 X102.771 Y95.910 E2.08546
G1 X103.044 Y95.799 E2.09738
G1 X103.682 Y95.161 E2.13381
G1 X104.261 Y95.739 E2.16687
G1 X103.635 Y96.365 E2.20264
M104 S200 ; set temperature
G1 Z0.800 F7800.000
G1 X103.298 Y95.463 F7800.000
G1 F1200
G1 X102.129 Y94.293 E2.25777
G1 X101.880 Y94.517 E2.26893
G1 X101.857 Y94.728 E2.27600
G1 X102.971 Y95.842 E2.32854
G1 X102.687 Y95.971 E2.33893
G1 X102.447 Y96.024 E2.34715
G1 X101.593 Y95.171 E2.38738
G1 X101.451 Y95.292 E2.39360
G1 X101.164 Y95.449 E2.40450
G1 X101.955 Y96.239 E2.44178
G1 X101.911 Y96.271 E2.44359
G1 X101.787 Y96.454 E2.45098
G1 X101.750 Y96.742 E2.46063
G1 X100.666 Y95.657 E2.51176
G1 X100.149 Y95.847 E2.53011
G1 X100.056 Y96.461 F7800.000
G1 F1200
G1 X99.969 Y96.634 E2.53658
G1 X99.967 Y96.735 E2.53995
G1 X99.995 Y96.824 E2.54305
G1 X100.170 Y97.056 E2.55272
G1 X100.527 Y97.369 E2.56856
G1 X101.393 Y97.798 E2.60078
G1 X99.674 Y96.079 E2.68182
G1 X99.781 Y95.984 E2.68658
G1 X100.149 Y95.847 E2.69968
G1 X104.550 Y100.248 E2.90714
G1 X105.017 Y100.008 E2.92463
G1 X103.679 Y98.670 E2.98770
G1 X104.553 Y98.837 E3.01734
G1 X105.524 Y99.808 E3.06313
G1 X105.922 Y99.722 E3.07672
G1 X106.121 Y99.699 E3.08339
G1 X105.395 Y98.973 E3.11762
G1 X106.301 Y99.172 E3.14854
G1 X106.855 Y99.726 E3.17465
G1 X107.271 Y99.802 E3.18877
G1 X107.770 Y99.934 E3.20595
G1 X107.211 Y99.375 E3.23230
G1 X107.412 Y99.420 E3.23916
G1 X108.029 Y99.486 E3.25984
G1 X108.604 Y100.062 E3.28697
G1 X108.849 Y100.022 E3.29523
G1 X109.168 Y99.919 E3.30641
G1 X108.685 Y99.436 E3.32915
G1 X108.821 Y99.422 E3.33371
G1 X109.258 Y99.302 E3.34879
G1 X109.639 Y99.683 E3.36679
G1 E1.36679 F2400.00000
G92 E0
G1 X112.775 Y98.023 F7800.000
G1 E2.00000 F2400.00000
G1 F1200
G1 X113.162 Y98.410 E2.01824
G1 X113.687 Y98.102 F7800.000
G1 F1200
G1 X114.069 Y98.484 E2.03624
G1 E0.03624 F2400.00000
G92 E0
G1 X104.113 Y100.518 F7800.000
G1 E2.00000 F2400.00000
G1 F1200
G1 X101.794 Y98.199 E2.10932
G1 X101.823 Y98.280 E2.11220
G1 X101.515 Y98.488 E2.12457
G1 X101.395 Y98.507 E2.12860
G1 X103.680 Y100.791 E2.23630
G1 X103.432 Y100.975 E2.24658
G1 X103.329 Y101.147 E2.25328
G1 X100.750 Y98.568 E2.37487
G1 X100.051 Y98.575 E2.39819
G1 X103.254 Y101.779 E2.54920
G1 X103.233 Y102.013 E2.55704
G1 X103.191 Y102.161 E2.56218
G1 X103.107 Y102.339 E2.56872
G1 X99.349 Y98.581 E2.74586
G1 X98.672 Y98.610 E2.76847
G1 X101.732 Y101.670 E2.91272
G1 X101.189 Y101.834 E2.93162
G1 X98.012 Y98.657 E3.08138
G1 X97.365 Y98.717 E3.10304
G1 X100.651 Y102.002 E3.25792
G1 X100.147 Y102.206 E3.27602
G1 X96.751 Y98.810 E3.43611
G1 X96.168 Y98.933 E3.45598
G1 X99.612 Y102.377 E3.61831
G1 X99.075 Y102.547 E3.63707
G1 X95.590 Y99.062 E3.80138
G1 X95.005 Y99.184 E3.82129
G1 X98.512 Y102.690 E3.98658
G1 X97.904 Y102.790 E4.00709
G1 X94.409 Y99.294 E4.17188
G1 X93.797 Y99.389 E4.19250
G1 X97.243 Y102.835 E4.35493
G1 X96.535 Y102.833 E4.37854
G1 X93.142 Y99.441 E4.53845
G1 E2.53845 F2400.00000
G92 E0
G1 X94.010 Y96.068 F7800.000
G1 E2.00000 F2400.00000
G1 F1200
G1 X93.204 Y95.262 E2.03800
G1 X93.080 Y95.281 E2.04217
G1 X93.043 Y95.493 E2.04936
G1 X92.964 Y95.729 E2.05766
G1 X94.260 Y97.025 E2.11875
G1 X94.269 Y97.118 E2.12189
G1 X94.221 Y97.320 E2.12879
G1 X94.101 Y97.572 E2.13812
G1 X93.272 Y96.744 E2.17717
G1 X93.222 Y96.967 E2.18478
G1 X93.071 Y97.250 E2.19547
G1 X93.859 Y98.037 E2.23260
G1 X93.595 Y98.480 E2.24978
G1 X92.789 Y97.674 E2.28778
G1 X92.638 Y97.901 E2.29686
G1 X92.532 Y98.124 E2.30509
G1 X93.331 Y98.923 E2.34277
G1 X93.216 Y99.210 E2.35307
G1 X93.158 Y99.457 E2.36153
G1 X92.302 Y98.601 E2.40188
G1 X92.187 Y98.820 E2.41014
G1 X92.033 Y99.038 E2.41904
G1 X95.755 Y102.760 E2.59450
G1 X95.212 Y102.693 E2.61272
G1 X94.924 Y102.637 E2.62250
G1 X91.643 Y99.355 E2.77718
G1 X91.316 Y99.550 E2.78988
G1 X91.117 Y99.536 E2.79651
G1 X94.044 Y102.463 E2.93447
G1 X93.698 Y102.438 E2.94605
G1 X93.503 Y102.629 E2.95512
G1 X90.295 Y99.420 E3.10637
G1 X89.587 Y99.234 E3.13075
G1 X89.273 Y99.084 E3.14237
G1 X89.193 Y99.025 E3.14567
G1 X92.652 Y102.484 E3.30873
G1 X92.917 Y103.279 E3.33666
G1 X93.099 Y102.931 E3.34975
G1 X93.914 Y103.747 E3.38820
G1 X94.343 Y104.274 E3.41084
G1 X94.557 Y104.837 E3.43093
G1 X94.931 Y105.470 E3.45542
G1 X94.255 Y104.794 E3.48726
G1 X94.055 Y104.533 E3.49825
G1 X93.540 Y103.967 E3.52375
G1 X93.225 Y103.506 E3.54235
G1 X93.006 Y103.256 E3.55345
G1 X92.780 Y103.065 E3.56328
G1 X92.201 Y102.710 E3.58593
G1 X92.055 Y102.594 E3.59217
G1 X91.973 Y102.496 E3.59642
G1 X91.408 Y101.601 E3.63169
G1 X91.271 Y101.508 E3.63721
G1 X90.808 Y101.347 E3.65355
G1 X85.176 Y95.715 E3.91903
G1 X84.809 Y95.690 E3.93131
G1 X84.821 Y95.507 E3.93742
G1 X84.473 Y95.542 E3.94911
G1 X84.332 Y95.578 E3.95394
G1 X89.598 Y100.844 E4.20216
G1 X89.173 Y100.718 E4.21692
G1 X88.655 Y100.608 E4.23457
G1 X83.838 Y95.791 E4.46166
G1 X83.522 Y96.038 E4.47504
G1 X83.460 Y96.120 E4.47845
G1 X87.830 Y100.489 E4.68442
G1 X87.081 Y100.447 E4.70941
G1 X83.250 Y96.616 E4.89001
G1 X83.242 Y96.727 E4.89372
G1 X83.265 Y96.990 E4.90251
G1 X83.374 Y97.447 E4.91816
G1 X86.347 Y100.419 E5.05829
G1 X86.244 Y100.415 E5.06171
G1 X85.976 Y100.354 E5.07088
G1 X85.564 Y100.186 E5.08571
G1 X85.260 Y99.977 E5.09801
G1 X84.924 Y99.700 E5.11251
G1 X84.237 Y99.016 E5.14483
G1 E3.14483 F2400.00000
G92 E0
G1 X85.176 Y95.715 F7800.000
G1 E2.00000 F2400.00000
G1 F1200
G1 X85.753 Y95.756 E2.01927
G1 X85.576 Y95.590 E2.02734
G1 X85.835 Y95.668 E2.03635
G1 X88.735 Y98.568 E2.17307
G1 E0.17307 F2400.00000
G92 E0
G1 X100.527 Y103.292 F7800.000
G1 E2.00000 F2400.00000
G1 F1200
G1 X101.353 Y104.118 E2.03896
G1 X101.500 Y104.097 E2.04390
G1 X101.907 Y103.965 E2.05815
G1 X101.432 Y103.490 E2.08054
G1 X101.910 Y103.262 E2.09820
G1 X102.513 Y103.865 E2.12665
G1 X102.717 Y103.857 E2.13345
G1 X102.984 Y103.886 E2.14240
G1 X103.370 Y104.015 E2.15594
G1 X101.625 Y102.270 E2.23818
G1 X101.759 Y102.007 E2.24802
G1 X101.828 Y101.766 E2.25636
G1 X102.834 Y102.772 E2.30378
G1 X102.180 Y103.532 F7800.000
G1 F1200
G1 X101.292 Y102.643 E2.34566
G1 X100.883 Y102.941 E2.36253
G1 X101.432 Y103.490 E2.38841
G1 X101.298 Y103.772 E2.39882
G1 X101.706 Y103.923 E2.41333
G1 X101.814 Y103.872 E2.41729
G1 E0.41729 F2400.00000
G92 E0
G1 X103.900 Y103.838 F7800.000
G1 E2.00000 F2400.00000
G1 F1200
G1 X103.954 Y103.709 E2.00465
G1 X103.853 Y103.448 E2.01400
G1 X103.501 Y103.439 E2.02573
G1 X104.282 Y104.220 E2.06253
G1 E0.06253 F2400.00000
G92 E0
G1 X103.225 Y98.216 F7800.000
G1 E2.00000 F2400.00000
G1 F1200
G1 X102.792 Y97.783 E2.02044
G1 X102.842 Y97.766 E2.02221
G1 X102.815 Y97.511 E2.03075
G1 X102.660 Y97.275 E2.04015
G1 X102.822 Y97.370 E2.04640
G1 X102.950 Y97.489 E2.05223
G1 X102.955 Y97.596 E2.05583
G1 X102.843 Y97.835 E2.06459
G1 X102.790 Y97.781 F7800.000
G1 F1200
G1 X102.090 Y97.081 E2.09760
G1 X102.354 Y97.138 E2.10662
G1 X102.540 Y97.206 E2.11321
G1 X102.628 Y97.259 E2.11663
G1 X102.408 Y97.399 E2.12533
G1 Z1.200 F7800.000
G1 X100.969 Y97.254 F7800.000
G1 F1200
G1 X101.366 Y96.855 E2.14410
G1 X101.402 Y96.541 E2.15464
G1 X101.386 Y96.374 E2.16022
G1 X101.337 Y96.167 E2.16731
G1 X101.290 Y96.100 E2.17004
G1 X100.337 Y97.053 E2.21497
G1 X100.278 Y96.998 E2.21767
G1 X100.192 Y96.864 E2.22298
G1 X100.174 Y96.776 E2.22598
G1 X100.209 Y96.665 E2.22986
G1 X100.370 Y96.528 E2.23691
G1 X100.576 Y96.444 E2.24432
G1 X100.820 Y96.426 E2.25248
G1 X100.878 Y96.437 E2.25442
G1 X100.909 Y96.482 E2.25624
G1 E0.25624 F2400.00000
G92 E0
G1 X104.358 Y99.643 F7800.000
G1 E2.00000 F2400.00000
G1 F1200
G1 X104.740 Y99.261 E2.01582
G1 X104.126 Y99.146 E2.03409
G1 X102.575 Y100.697 E2.09830
G1 X102.243 Y100.862 E2.10917
G1 X101.358 Y101.186 E2.13675
G1 X103.527 Y99.017 E2.22656
G1 X102.863 Y98.953 E2.24608
G1 X100.305 Y101.511 E2.35202
G1 X99.625 Y101.773 E2.37336
G1 X99.160 Y101.928 E2.38770
G1 X102.145 Y98.943 E2.51127
G1 X101.346 Y99.013 E2.53473
G1 X98.142 Y102.218 E2.66741
G1 X97.977 Y102.258 E2.67237
G1 X97.278 Y102.354 E2.69305
G1 X100.602 Y99.030 E2.83069
G1 X99.869 Y99.034 E2.85215
G1 X96.521 Y102.383 E2.99079
G1 X95.823 Y102.352 E3.01122
G1 X99.113 Y99.062 E3.14744
G1 X98.321 Y99.126 E3.17070
G1 X95.165 Y102.282 E3.30139
G1 X94.546 Y102.173 E3.31980
G1 X97.509 Y99.210 E3.44247
G1 X96.605 Y99.386 E3.46942
G1 X93.943 Y102.047 E3.57963
G1 X93.341 Y101.921 E3.59764
G1 X95.672 Y99.591 E3.69414
G1 X94.777 Y99.758 E3.72079
G1 X92.741 Y101.793 E3.80507
G1 X92.570 Y101.761 E3.81018
G1 X92.135 Y101.833 E3.82309
G1 X92.218 Y102.289 E3.83667
G1 X91.982 Y101.987 E3.84790
G1 X91.932 Y101.874 E3.85151
G1 X93.926 Y99.880 E3.93408
G1 X93.114 Y99.964 E3.95798
G1 X91.577 Y101.500 E4.02160
G1 X91.024 Y101.326 E4.03860
G1 X92.505 Y99.844 E4.09995
G1 X92.465 Y99.821 E4.10132
G1 X92.415 Y99.745 E4.10398
G1 X92.367 Y99.731 E4.10546
G1 X92.263 Y99.768 E4.10867
G1 X92.117 Y99.897 E4.11437
G1 X91.866 Y99.994 E4.12226
G1 X91.629 Y99.993 E4.12920
G1 X90.540 Y101.082 E4.17428
G1 X90.279 Y100.924 E4.18322
G1 X90.578 Y100.315 E4.20308
G1 X90.960 Y99.933 E4.21890
G1 X90.046 Y100.783 F7800.000
G1 F1200
G1 X90.428 Y100.401 E4.23471
G1 X90.055 Y100.042 E4.24986
G1 X89.575 Y100.522 E4.26973
G1 X89.349 Y100.411 E4.27712
G1 X89.044 Y100.321 E4.28642
G1 X89.743 Y99.622 E4.31537
G1 X89.444 Y99.480 E4.32507
G1 X89.273 Y99.361 E4.33117
G1 X88.455 Y100.179 E4.36502
G1 X87.825 Y100.076 E4.38370
G1 X88.873 Y99.029 E4.42706
G1 X88.698 Y98.865 E4.43407
G1 X88.523 Y98.647 E4.44226
G1 X87.154 Y100.016 E4.49895
G1 X86.457 Y99.982 E4.51938
G1 X88.208 Y98.231 E4.59189
G1 X87.904 Y97.803 E4.60725
G1 X85.777 Y99.930 E4.69530
G1 X85.624 Y99.891 E4.69993
G1 X85.439 Y99.807 E4.70588
G1 X85.275 Y99.700 E4.71160
G1 X87.600 Y97.375 E4.80785
G1 X87.287 Y96.956 E4.82316
G1 X84.867 Y99.376 E4.92334
G1 X84.752 Y99.280 E4.92774
G1 X84.591 Y99.197 E4.93303
G1 X84.535 Y99.190 E4.93469
G1 X84.572 Y99.128 E4.93681
G1 X84.463 Y99.049 E4.94077
G1 X86.926 Y96.585 E5.04278
G1 X86.632 Y96.364 E5.05355
G1 X86.493 Y96.287 E5.05821
G1 X84.018 Y98.762 E5.16071
G1 X83.902 Y98.543 E5.16797
G1 X83.812 Y98.237 E5.17731
G1 X86.069 Y95.980 E5.27076
G1 X85.844 Y95.821 E5.27882
G1 X85.580 Y95.736 E5.28691
G1 X85.131 Y96.185 E5.30551
G1 X85.113 Y96.106 E5.30791
G1 X85.199 Y96.118 E5.31044
G1 X83.866 Y96.719 F7800.000
G1 F1200
G1 X84.248 Y96.337 E5.32625
G1 X84.511 Y96.135 E5.33595
G1 X84.623 Y96.075 E5.33969
G1 X84.881 Y95.831 E5.35010
G1 X84.890 Y95.856 E5.35089
G1 X84.966 Y95.819 E5.35335
G1 X84.970 Y95.857 E5.35446
G1 X85.512 Y95.805 E5.37040
G1 X83.764 Y97.553 E5.44277
G1 E3.44277 F2400.00000
G92 E0
G1 X89.743 Y99.622 F7800.000
G1 E2.00000 F2400.00000
G1 F1200
G1 X89.826 Y99.662 E2.00271
G1 X90.303 Y99.794 E2.01719
G1 X89.700 Y100.397 E2.04218
M106 S255
G1 Z1.600 F7800.000
G1 X91.394 Y100.831 F7800.000
G1 F832.273
G1 X91.012 Y100.450 E2.06018
G1 X91.725 Y100.463 E2.08395
G1 X92.387 Y101.125 E2.11516
G1 X93.316 Y101.355 E2.14706
G1 X92.408 Y100.447 E2.18988
G1 X93.053 Y100.392 E2.21144
G1 X94.225 Y101.564 E2.26671
G1 X95.109 Y101.749 E2.29682
G1 X93.680 Y100.320 E2.36418
G1 X94.295 Y100.234 E2.38485
G1 X95.923 Y101.863 E2.46161
G1 X96.677 Y101.918 E2.48681
G1 X94.892 Y100.133 E2.57095
G1 X95.476 Y100.017 E2.59078
G1 X97.370 Y101.911 E2.68005
G1 X97.744 Y101.894 E2.69254
G1 X98.009 Y101.850 E2.70149
G1 X96.051 Y99.893 E2.79379
G1 X96.624 Y99.766 E2.81335
G1 X98.584 Y101.726 E2.90574
G1 X99.136 Y101.578 E2.92479
G1 X97.219 Y99.661 E3.01516
G1 X97.843 Y99.585 E3.03611
G1 X99.664 Y101.407 E3.12196
G1 X100.173 Y101.216 E3.14008
G1 X98.487 Y99.530 E3.21956
G1 X99.153 Y99.497 E3.24178
G1 X100.692 Y101.035 E3.31430
G1 X101.229 Y100.873 E3.33301
G1 X99.848 Y99.492 E3.39813
G1 X100.542 Y99.487 E3.42128
G1 X101.749 Y100.694 E3.47818
G1 X102.251 Y100.495 E3.49614
G1 X101.207 Y99.452 E3.54532
G1 X101.856 Y99.402 E3.56702
G1 X102.238 Y99.784 E3.58502
G1 X102.150 Y99.408 F7800.000
G1 F832.273
G1 X102.447 Y99.426 E3.59497
G1 X102.373 Y99.632 E3.60226
G1 X102.932 Y100.190 E3.62857
G1 X103.435 Y99.860 F7800.000
G1 F832.273
G1 X103.053 Y99.479 E3.64657
G1 E1.64657 F2400.00000
G92 E0
G1 X88.413 Y99.648 F7800.000
G1 E2.00000 F2400.00000
G1 F832.273
G1 X87.633 Y98.868 E2.03313
G1 X87.636 Y98.746 E2.03680
G1 X88.086 Y99.275 E2.05768
G1 X88.031 Y99.266 E2.05935
G1 X87.706 Y98.941 F7800.000
G1 F832.273
G1 X84.640 Y95.875 E2.18960
G1 X84.515 Y95.949 E2.19397
G1 X84.469 Y96.054 E2.19742
G1 X84.552 Y96.009 E2.20026
G1 X84.786 Y96.415 E2.21435
G1 X84.576 Y96.562 E2.22204
G1 X87.578 Y99.564 E2.34957
G1 X86.788 Y99.524 E2.37334
G1 X84.177 Y96.914 E2.48425
G1 X84.265 Y97.335 E2.49717
G1 X84.238 Y97.369 E2.49847
G1 X84.248 Y97.481 E2.50184
G1 X84.081 Y97.568 E2.50751
G1 X85.565 Y99.052 E2.57055
G1 X85.353 Y98.867 E2.57900
G1 X85.194 Y98.792 E2.58426
G1 X85.033 Y98.836 E2.58928
G1 X84.812 Y99.012 E2.59778
G1 X84.623 Y98.861 E2.60506
G1 X84.239 Y98.477 E2.62136
G1 E0.62136 F2400.00000
G92 E0
G1 X85.937 Y96.421 F7800.000
G1 E2.00000 F2400.00000
G1 F832.273
G1 X85.555 Y96.039 E2.01622
G1 Z2.000 F7800.000
G1 E0.01622 F2400.00000
G92 E0
G1 X94.627 Y100.701 F7800.000
G1 E2.00000 F2400.00000
G1 F600
G1 X94.166 Y101.163 E2.02175
G1 X94.848 Y101.313 E2.04504
G1 X95.355 Y100.806 E2.06893
G1 X95.969 Y101.026 E2.09066
G1 X95.587 Y101.408 E2.10866
G1 X95.078 Y101.084 F7800.000
G1 F600
G1 X95.638 Y100.524 E2.13506
G1 X94.627 Y100.701 E2.16926
G1 X95.728 Y100.811 F7800.000
G1 F600
G1 X96.110 Y100.429 E2.18726
G1 X97.003 Y100.230 E2.21777
G1 X95.806 Y101.428 E2.27423
G1 X96.307 Y101.474 E2.29100
G1 X96.459 Y101.469 E2.29609
G1 X97.848 Y100.080 E2.36155
G1 X98.612 Y100.010 E2.38713
G1 X97.177 Y101.445 E2.45477
G1 X97.321 Y101.440 E2.45956
G1 X98.011 Y101.306 E2.48301
G1 X99.355 Y99.961 E2.54637
G1 X100.064 Y99.947 E2.57000
G1 X99.544 Y100.467 E2.59450
G1 X99.799 Y100.617 E2.60434
G1 X99.369 Y100.897 E2.62144
G1 X100.075 Y100.631 E2.64660
G1 X100.757 Y99.949 E2.67874
G1 X101.483 Y99.917 E2.70296
G1 X101.101 Y100.299 E2.72097
G1 X99.368 Y100.643 F7800.000
G1 F600
G1 X99.554 Y100.581 E2.72749
G1 X99.503 Y100.508 E2.73045
G1 X98.986 Y101.025 E2.75481
G1 E0.75481 F2400.00000
G92 E0
G1 X87.047 Y99.100 F7800.000
G1 E2.00000 F2400.00000
G1 F600
G1 X87.429 Y98.718 E2.01541
G1 X87.140 Y98.294 E2.03006
G1 X86.365 Y99.069 E2.06134
G1 X86.090 Y99.060 E2.06917
G1 X85.941 Y99.028 E2.07353
G1 X85.781 Y98.940 E2.07875
G1 X86.843 Y97.877 E2.12164
G1 X86.532 Y97.475 E2.13614
G1 X85.396 Y98.611 E2.18199
G1 X85.193 Y98.400 E2.19036
G1 X85.066 Y98.228 E2.19646
G1 X86.145 Y97.149 E2.24002
G1 X85.881 Y96.979 E2.24898
G1 X85.667 Y96.914 E2.25536
G1 X85.264 Y97.317 E2.27162
G1 X85.259 Y97.275 E2.27283
G1 X84.931 Y97.308 E2.28223
G1 X84.786 Y97.451 E2.28805
G1 X84.812 Y97.768 E2.29713
G1 X84.733 Y97.617 E2.30199
G1 X84.655 Y97.299 E2.31134
G1 X84.963 Y97.112 E2.32161
G1 X84.902 Y96.966 E2.32615
G1 X85.730 Y96.137 E2.35957
G1 X85.501 Y96.058 E2.36650
G1 X85.347 Y96.050 E2.37090
G1 X85.112 Y96.082 E2.37766
G1 X85.040 Y96.115 E2.37993
G1 X84.646 Y96.509 E2.39581
G1 X84.658 Y96.497 E2.39629
G1 Z2.400 F7800.000
G1 E0.39629 F2400.00000
G92 E0
G1 X97.450 Y100.984 F7800.000
G1 E2.00000 F2400.00000
G1 F600
G1 X97.382 Y100.995 E2.00230
G1 X97.458 Y100.992 E2.00485
G1 X97.068 Y100.602 E2.02322
G1 X97.806 Y100.507 E2.04802
G1 X98.188 Y100.889 E2.06602
G1 E0.06602 F2400.00000
G92 E0
M107
; Filament-specific end gcode 
;END gcode for filament

M104 S0 ; turn off temperature
G28 X0  ; home X axis
M84     ; disable motors

M140 S0 ; set bed temperature
; filament used = 24.1mm (0.2cm3)
; total filament cost = 0.0

; avoid_crossing_perimeters = 0
; bed_shape = 0x0,200x0,200x200,0x200
; bed_temperature = 0
; before_layer_gcode = 
; between_objects_gcode = 
; bridge_acceleration = 0
; bridge_fan_speed = 100
; brim_connections_width = 0
; brim_width = 0
; complete_objects = 0
; cooling = 1
; default_acceleration = 0
; disable_fan_first_layers = 3
; duplicate_distance = 6
; end_filament_gcode = "; Filament-specific end gcode \n;END gcode for filament\n"
; end_gcode = M104 S0 ; turn off temperature\nG28 X0  ; home X axis\nM84     ; disable motors\n
; extruder_clearance_height = 20
; extruder_clearance_radius = 20
; extruder_offset = 0x0
; extrusion_axis = E
; extrusion_multiplier = 1
; fan_always_on = 0
; fan_below_layer_time = 60
; filament_colour = #FFFFFF
; filament_cost = 0
; filament_density = 0
; filament_diameter = 3
; filament_max_volumetric_speed = 0
; filament_notes = ""
; first_layer_acceleration = 0
; first_layer_bed_temperature = 0
; first_layer_extrusion_width = 200%
; first_layer_speed = 30
; first_layer_temperature = 205
; gcode_arcs = 0
; gcode_comments = 0
; gcode_flavor = reprap
; has_heatbed = 1
; infill_acceleration = 0
; infill_first = 0
; interior_brim_width = 0
; layer_gcode = 
; max_fan_speed = 100
; max_layer_height = 0.3
; max_print_speed = 80
; max_volumetric_speed = 0
; min_fan_speed = 35
; min_layer_height = 0.15
; min_print_speed = 10
; min_skirt_length = 0
; notes = 
; nozzle_diameter = 0.5
; only_retract_when_crossing_perimeters = 1
; ooze_prevention = 0
; output_filename_format = [input_filename_base].gcode
; perimeter_acceleration = 0
; post_process = 
; pressure_advance = 0
; printer_notes = 
; resolution = 0
; retract_before_travel = 2
; retract_layer_change = 0
; retract_length = 2
; retract_length_toolchange = 10
; retract_lift = 0
; retract_lift_above = 0
; retract_lift_below = 0
; retract_restart_extra = 0
; retract_restart_extra_toolchange = 0
; retract_speed = 40
; skirt_distance = 6
; skirt_height = 1
; skirts = 0
; slowdown_below_layer_time = 5
; spiral_vase = 0
; standby_temperature_delta = -5
; start_filament_gcode = "; Filament gcode\n"
; start_gcode = G28 ; home all axes\nG1 Z5 F5000 ; lift nozzle\n
; temperature = 200
; threads = 8
; toolchange_gcode = 
; travel_speed = 130
; use_firmware_retraction = 0
; use_relative_e_distances = 0
; use_set_and_wait_bed = 0
; use_set_and_wait_extruder = 0
; use_volumetric_e = 0
; vibration_limit = 0
; wipe = 0
; z_offset = 0
; z_steps_per_mm = 0
; adaptive_slicing = 0
; adaptive_slicing_quality = 75%
; dont_support_bridges = 1
; extrusion_width = 0
; first_layer_height = 0.4
; infill_only_where_needed = 0
; interface_shells = 0
; layer_height = 0.4
; match_horizontal_surfaces = 0
; raft_layers = 0
; regions_overlap = 0
; seam_position = aligned
; sequential_print_priority = 0
; support_material = 0
; support_material_angle = 0
; support_material_buildplate_only = 0
; support_material_contact_distance = 0.2
; support_material_enforce_layers = 0
; support_material_extruder = 1
; support_material_extrusion_width = 0
; support_material_interface_extruder = 1
; support_material_interface_extrusion_width = 0
; support_material_interface_layers = 3
; support_material_interface_spacing = 0
; support_material_interface_speed = 100%
; support_material_max_layers = 0
; support_material_pattern = pillars
; support_material_spacing = 2.5
; support_material_speed = 60
; support_material_threshold = 60%
; xy_size_compensation = 0
; bottom_infill_pattern = rectilinear
; bottom_solid_layers = 0
; bridge_flow_ratio = 1
; bridge_speed = 60
; external_perimeter_extrusion_width = 0
; external_perimeter_speed = 50%
; external_perimeters_first = 0
; extra_perimeters = 1
; fill_angle = 45
; fill_density = 60%
; fill_gaps = 1
; fill_pattern = rectilinear
; gap_fill_speed = 20
; infill_every_layers = 1
; infill_extruder = 1
; infill_extrusion_width = 0
; infill_overlap = 55%
; infill_speed = 80
; overhangs = 1
; perimeter_extruder = 1
; perimeter_extrusion_width = 0
; perimeter_speed = 60
; perimeters = 0
; small_perimeter_speed = 15
; solid_infill_below_area = 70
; solid_infill_every_layers = 0
; solid_infill_extruder = 1
; solid_infill_extrusion_width = 0
; solid_infill_speed = 20
; thin_walls = 1
; top_infill_extrusion_width = 0
; top_infill_pattern = rectilinear
; top_solid_infill_speed = 15
; top_solid_layers = 0
