; generated by Slic3r 1.3.0 on 2020-03-11 at 16:45:02

; external perimeters extrusion width = 0.55mm (6.64mm^3/s)
; perimeters extrusion width = 0.52mm (12.53mm^3/s)
; infill extrusion width = 0.52mm (16.71mm^3/s)
; solid infill extrusion width = 0.52mm (4.18mm^3/s)
; top infill extrusion width = 0.52mm (3.13mm^3/s)

M107
M104 S205 ; set temperature
G28 ; home all axes
G1 Z5 F5000 ; lift nozzle

; Filament gcode

M109 S205 ; set temperature and wait for it to be reached
G21 ; set units to millimeters
G90 ; use absolute coordinates
M82 ; use absolute distances for extrusion
G92 E0
G1 Z0.500 F7800.000
G1 E-2.00000 F2400.00000
G92 E0
G1 X96.628 Y94.869 F7800.000
G1 E2.00000 F2400.00000
G1 F600
G1 X97.339 Y94.159 E2.06522
G1 X97.289 Y95.507 F7800.000
G1 F600
G1 X96.594 Y96.201 E2.12896
G1 E0.12896 F2400.00000
G92 E0
G1 X98.271 Y90.231 F7800.000
G1 E2.00000 F2400.00000
G1 F600
G1 X98.965 Y89.537 E2.06581
G1 X100.305 Y89.537 E2.15559
G1 X97.807 Y92.035 E2.39232
G1 X97.795 Y92.234 E2.40571
G1 X98.863 Y92.236 E2.47728
G1 X98.925 Y92.204 E2.48191
G1 X98.965 Y92.217 E2.48472
G1 X101.645 Y89.537 E2.73874
G1 X102.985 Y89.537 E2.82853
G1 X100.286 Y92.236 E3.08431
G1 X100.660 Y92.236 E3.10941
G1 X100.720 Y92.208 E3.11380
G1 X100.848 Y92.247 E3.12282
G1 X101.627 Y92.234 E3.17503
G1 X103.348 Y90.513 E3.33810
G1 X103.474 Y91.070 E3.37635
G1 X103.554 Y91.647 E3.41539
G1 X102.860 Y92.341 E3.48120
M104 S200 ; set temperature
G1 Z1.000 F7800.000
G1 E1.48120 F2400.00000
G92 E0
G1 X104.187 Y94.342 F7800.000
G1 E2.00000 F2400.00000
G1 F4013.14
G1 X102.225 Y92.380 E2.08198
G1 X101.792 Y92.381 E2.09477
G1 X101.643 Y92.415 E2.09930
G1 X101.621 Y92.394 E2.10021
G1 X100.965 Y92.394 E2.11960
G1 X100.913 Y92.418 E2.12129
G1 X100.840 Y92.381 E2.12370
G1 X100.257 Y92.381 E2.14092
G1 X104.636 Y96.760 E2.32390
G1 X104.751 Y97.468 E2.34508
G1 X104.849 Y98.242 E2.36815
G1 X104.909 Y99.002 E2.39065
G1 X98.285 Y92.378 E2.66741
G1 X97.766 Y92.390 E2.68276
G1 X97.546 Y92.341 E2.68941
G1 X97.386 Y92.162 E2.69651
G1 X97.328 Y91.867 E2.70540
G1 X97.331 Y91.534 E2.71525
G1 X96.813 Y92.875 E2.75773
G1 X103.971 Y100.033 E3.05684
G1 X103.787 Y100.051 E3.06230
G1 X103.600 Y100.109 E3.06809
G1 X103.430 Y100.219 E3.07407
G1 X103.349 Y100.299 E3.07744
G1 X103.224 Y100.483 E3.08403
G1 X103.153 Y100.649 E3.08936
G1 X103.091 Y100.885 E3.09656
G1 X103.066 Y101.096 E3.10285
G1 X97.536 Y95.567 E3.33389
G1 X97.438 Y95.868 E3.34324
G1 X97.360 Y96.010 E3.34803
G1 X97.253 Y96.150 E3.35324
G1 X96.913 Y96.424 E3.36613
G1 X96.616 Y96.616 E3.37659
G1 X96.941 Y96.941 E3.39016
G1 X95.732 Y97.701 F7800.000
G1 F4013.14
G1 X95.395 Y97.364 E3.40425
G1 X95.477 Y97.326 E3.40694
G1 X95.407 Y97.376 E3.40949
G1 X94.842 Y96.811 F7800.000
G1 F4013.14
G1 X94.434 Y96.403 E3.42650
G1 X94.167 Y96.707 E3.43847
G1 X93.561 Y97.499 E3.46791
G1 X94.727 Y98.665 E3.51667
G1 X94.492 Y98.890 E3.52628
G1 X93.937 Y99.337 E3.54733
G1 X93.751 Y99.441 E3.55365
G1 X93.576 Y99.483 E3.55894
G1 X92.875 Y98.782 E3.58824
G1 E1.58824 F2400.00000
G92 E0
G1 X100.845 Y100.845 F7800.000
G1 E2.00000 F2400.00000
G1 F4013.14
G1 X97.238 Y97.238 E2.15069
G1 X97.261 Y97.650 E2.16287
G1 X97.247 Y98.089 E2.17585
G1 X97.203 Y98.521 E2.18867
G1 X97.107 Y99.076 E2.20532
G1 X98.682 Y100.651 E2.27114
G1 X98.467 Y100.847 E2.27976
G1 X98.328 Y101.059 E2.28721
G1 X98.161 Y101.506 E2.30132
G1 X98.031 Y101.969 E2.31554
G1 X96.810 Y100.749 E2.36654
G1 X96.537 Y102.444 E2.41729
G1 X97.721 Y103.628 E2.46675
G1 X97.567 Y104.381 E2.48944
G1 X97.433 Y104.796 E2.50233
G1 X97.282 Y105.158 E2.51394
G1 X96.304 Y104.180 E2.55482
G1 X96.294 Y104.522 E2.56492
G1 X96.348 Y105.903 E2.60578
G1 X96.399 Y106.244 E2.61596
G1 X96.724 Y106.569 E2.62953
G1 E0.62953 F2400.00000
G92 E0
G1 X99.789 Y107.666 F7800.000
G1 E2.00000 F2400.00000
G1 F4013.14
G1 X99.772 Y108.680 E2.02997
G1 X99.808 Y109.257 E2.04706
G1 X99.857 Y109.471 E2.05356
G1 X99.961 Y109.649 E2.05962
G1 X100.015 Y109.581 E2.06218
G1 X100.100 Y109.370 E2.06889
G1 X100.173 Y108.978 E2.08069
G1 X100.229 Y108.105 E2.10652
G1 X99.464 Y107.341 E2.13846
G1 X99.348 Y105.868 E2.18211
G1 X99.319 Y105.226 E2.20108
G1 X100.412 Y106.319 E2.24675
G1 X100.477 Y105.901 E2.25926
G1 X100.538 Y105.300 E2.27711
G1 X100.556 Y104.494 E2.30093
G1 X99.330 Y103.269 E2.35213
G1 X99.308 Y102.065 E2.38771
G1 X99.228 Y101.197 E2.41345
G1 X100.544 Y102.513 E2.46842
G1 E0.46842 F2400.00000
G92 E0
G1 X103.370 Y103.370 F7800.000
G1 E2.00000 F2400.00000
G1 F4013.14
G1 X101.849 Y101.849 E2.06356
G1 X102.032 Y102.752 E2.09078
G1 X102.294 Y104.264 E2.13611
G1 X103.740 Y105.709 E2.19652
G1 X103.807 Y106.237 E2.21225
G1 X103.838 Y106.831 E2.22982
G1 X103.808 Y107.236 E2.24182
G1 X103.712 Y107.579 E2.25233
G1 X103.685 Y107.623 E2.25386
G1 X103.004 Y106.942 E2.28230
G1 E0.28230 F2400.00000
G92 E0
G1 X105.062 Y101.124 F7800.000
G1 E2.00000 F2400.00000
G1 F4013.14
G1 X104.373 Y100.435 E2.02877
G1 X104.233 Y100.148 E2.03820
G1 X104.049 Y99.889 E2.04760
G1 X103.827 Y99.717 E2.05588
G1 X103.646 Y99.708 E2.06123
G1 E0.06123 F2400.00000
G92 E0
G1 X97.530 Y95.104 F7800.000
G1 E2.00000 F2400.00000
G1 F1003.28
G1 X96.629 Y94.203 E2.03849
G1 X96.349 Y94.527 E2.05142
G1 X97.490 Y95.668 E2.10014
G1 X97.410 Y95.953 E2.10909
G1 X97.334 Y96.108 E2.11429
G1 X96.087 Y94.869 E2.16740
G1 X95.828 Y95.214 E2.18043
G1 X97.010 Y96.396 E2.23093
G1 X96.645 Y96.635 E2.24411
G1 X95.575 Y95.565 E2.28983
G1 X95.326 Y95.920 E2.30293
G1 X96.291 Y96.884 E2.34414
G1 X95.925 Y97.122 E2.35732
G1 X95.094 Y96.292 E2.39281
G1 X94.886 Y96.688 E2.40633
G1 X95.517 Y97.319 E2.43329
G1 X95.324 Y97.392 E2.43953
G1 X95.055 Y97.461 E2.44792
G1 X94.730 Y97.136 E2.46181
G1 X97.375 Y94.346 F7800.000
G1 F1003.28
G1 X97.051 Y94.021 E2.47569
G1 E0.47569 F2400.00000
G92 E0
G1 X97.771 Y91.959 F7800.000
G1 E2.00000 F2400.00000
G1 F1003.28
G1 X98.102 Y92.290 E2.01495
G1 X98.737 Y92.286 E2.03529
G1 X97.781 Y91.330 E2.07855
G1 X97.914 Y90.823 E2.09531
G1 X99.379 Y92.288 E2.16161
G1 X99.455 Y92.275 E2.16407
G1 X99.536 Y92.301 E2.16679
G1 X100.031 Y92.301 E2.18263
G1 X98.065 Y90.334 E2.27159
G1 X98.195 Y89.825 E2.28841
G1 X100.658 Y92.288 E2.39984
G1 X101.248 Y92.277 E2.41869
G1 X101.303 Y92.294 E2.42056
G1 X98.494 Y89.484 E2.54768
G1 X99.133 Y89.484 E2.56814
G1 X101.950 Y92.301 E2.69558
G1 X102.080 Y92.257 E2.69997
G1 X102.111 Y92.288 E2.70137
G1 X102.576 Y92.287 E2.71625
G1 X99.773 Y89.484 E2.84306
G1 X100.412 Y89.484 E2.86353
G1 X103.339 Y92.411 E2.99593
G1 X103.610 Y92.628 E3.00704
G1 X103.622 Y92.470 E3.01212
G1 X103.598 Y92.030 E3.02621
G1 X101.052 Y89.484 E3.14140
G1 X101.692 Y89.484 E3.16186
G1 X103.458 Y91.251 E3.24179
G1 X103.384 Y90.923 E3.25253
G1 X103.485 Y90.899 E3.25584
G1 X103.404 Y90.557 E3.26707
G1 X102.331 Y89.484 E3.31561
G1 X102.971 Y89.484 E3.33608
G1 X103.296 Y89.809 E3.35078
G1 Z1.500 F7800.000
G1 X103.984 Y100.126 F7800.000
G1 F1093.44
G1 X103.659 Y100.451 E3.36486
G1 X103.748 Y100.567 E3.36935
G1 X103.861 Y100.862 E3.37900
G1 X104.252 Y100.470 E3.39595
G1 X104.441 Y100.893 E3.41014
G1 X104.022 Y101.313 E3.42833
G1 X104.184 Y101.763 E3.44298
G1 X104.618 Y101.329 E3.46177
G1 X104.795 Y101.764 E3.47616
G1 X104.353 Y102.206 E3.49532
G1 X104.529 Y102.642 E3.50973
G1 X104.980 Y102.192 E3.52924
G1 X105.175 Y102.609 E3.54334
G1 X104.708 Y103.076 E3.56356
G1 X104.896 Y103.500 E3.57778
G1 X105.377 Y103.020 E3.59859
G1 X105.578 Y103.431 E3.61261
G1 X105.085 Y103.924 E3.63397
G1 X105.273 Y104.348 E3.64818
G1 X105.785 Y103.836 E3.67036
G1 X105.978 Y104.256 E3.68451
G1 X105.460 Y104.774 E3.70694
G1 X105.648 Y105.198 E3.72116
G1 X106.164 Y104.682 E3.74354
G1 X106.321 Y104.972 E3.75366
G1 X106.398 Y105.061 E3.75724
G1 X105.841 Y105.617 E3.78134
G1 X106.896 Y106.399 F7800.000
G1 F1093.44
G1 X107.228 Y106.067 E3.79571
G1 X107.330 Y105.877 E3.80232
G1 X107.359 Y105.767 E3.80582
G1 X107.379 Y105.519 E3.81344
G1 X107.360 Y105.323 E3.81947
G1 X106.351 Y106.332 E3.86321
G1 X106.270 Y106.268 E3.86636
G1 X106.064 Y106.006 E3.87656
G1 X107.248 Y104.822 E3.92784
G1 X107.095 Y104.363 E3.94267
G1 X106.568 Y104.890 E3.96551
G1 X106.416 Y104.430 E3.98034
G1 X106.930 Y103.916 E4.00263
G1 X106.765 Y103.469 E4.01722
G1 X106.257 Y103.977 E4.03922
G1 X106.103 Y103.518 E4.05404
G1 X106.599 Y103.022 E4.07553
G1 X106.434 Y102.575 E4.09013
G1 X105.955 Y103.054 E4.11088
G1 X105.796 Y102.600 E4.12560
G1 X106.267 Y102.129 E4.14600
G1 X106.088 Y101.696 E4.16036
G1 X105.629 Y102.156 E4.18028
G1 X105.448 Y101.723 E4.19462
G1 X105.907 Y101.265 E4.21449
G1 X105.718 Y100.841 E4.22869
G1 X105.263 Y101.296 E4.24839
G1 X105.083 Y100.864 E4.26273
G1 X105.527 Y100.420 E4.28197
G1 X105.341 Y99.994 E4.29621
G1 X104.939 Y100.395 E4.31360
G1 X104.918 Y100.075 E4.32343
G1 X105.016 Y100.319 E4.33147
G1 E2.33147 F2400.00000
G92 E0
G1 X103.948 Y107.187 F7800.000
G1 E2.00000 F2400.00000
G1 F1093.44
G1 X103.927 Y107.018 E2.00521
G1 X103.907 Y107.228 E2.01165
G1 X104.273 Y106.862 E2.02748
G1 X104.347 Y107.456 E2.04582
G1 X102.990 Y108.813 E2.10460
G1 X103.110 Y109.088 E2.11378
G1 X103.237 Y109.235 E2.11973
G1 X104.374 Y108.099 E2.16896
G1 X104.383 Y108.456 E2.17990
G1 X104.355 Y108.655 E2.18608
G1 X104.297 Y108.813 E2.19124
G1 X104.209 Y108.932 E2.19577
G1 X103.883 Y109.258 E2.20989
G1 X102.827 Y108.308 F7800.000
G1 F1093.44
G1 X103.440 Y107.695 E2.23644
G1 X103.271 Y107.563 E2.24299
G1 X103.106 Y107.361 E2.25101
G1 X102.670 Y107.796 E2.26990
G1 X102.536 Y107.261 E2.28679
G1 X102.861 Y106.937 E2.30086
G1 E0.30086 F2400.00000
G92 E0
G1 X99.465 Y109.292 F7800.000
G1 E2.00000 F2400.00000
G1 F1093.44
G1 X99.104 Y109.653 E2.01563
G1 X99.146 Y109.898 E2.02324
G1 X99.198 Y110.052 E2.02821
G1 X99.275 Y110.191 E2.03308
G1 X99.763 Y109.703 E2.05420
G1 X99.946 Y109.757 E2.06005
G1 X100.107 Y109.724 E2.06508
G1 X100.250 Y109.632 E2.07028
G1 X100.353 Y109.507 E2.07526
G1 X100.451 Y109.318 E2.08177
G1 X100.534 Y109.032 E2.09091
G1 X100.519 Y109.202 E2.09614
G1 X100.413 Y109.648 E2.11018
G1 X100.343 Y109.805 E2.11545
G1 X100.282 Y109.893 E2.11872
G1 X99.950 Y110.225 E2.13311
G1 E0.13311 F2400.00000
G92 E0
G1 X96.562 Y108.297 F7800.000
G1 E2.00000 F2400.00000
G1 F1093.44
G1 X96.889 Y107.971 E2.01414
G1 X97.018 Y107.773 E2.02137
G1 X97.159 Y107.363 E2.03466
G1 X97.260 Y106.975 E2.04694
G1 X95.817 Y108.418 E2.10944
G1 X95.679 Y108.242 E2.11627
G1 X95.617 Y107.993 E2.12413
G1 X97.440 Y106.170 E2.20312
G1 X97.566 Y105.420 E2.22639
G1 X97.120 Y105.866 E2.24568
G1 X97.307 Y105.406 E2.26089
G1 X97.241 Y105.745 E2.27150
G1 X95.892 Y105.221 F7800.000
G1 F1093.44
G1 X96.217 Y104.896 E2.28557
G1 X96.251 Y105.487 E2.30370
G1 X95.789 Y105.949 E2.32370
G1 X95.685 Y106.676 E2.34622
G1 X96.273 Y106.089 E2.37167
G1 X96.344 Y106.518 E2.38498
G1 X96.401 Y106.585 E2.38768
G1 X95.630 Y107.356 E2.42111
G1 X96.334 Y105.635 F7800.000
G1 F4373.77
G1 X97.391 Y104.578 E2.46527
G1 X97.526 Y104.201 E2.47711
G1 X97.635 Y103.778 E2.49003
G1 X97.936 Y102.064 E2.54143
G1 X99.067 Y100.933 F7800.000
G1 F4373.77
G1 X99.165 Y101.185 E2.54941
G1 X99.225 Y101.494 E2.55871
G1 X99.286 Y102.065 E2.57569
G1 X99.319 Y102.650 E2.59300
G1 X100.587 Y101.382 E2.64599
G1 X100.543 Y102.207 E2.67038
G1 X100.548 Y103.390 E2.70536
G1 X99.317 Y104.621 E2.75677
G1 X99.323 Y105.695 E2.78850
G1 X99.377 Y106.530 E2.81325
G1 X100.498 Y105.409 E2.86010
G1 X100.290 Y106.817 E2.90216
G1 X100.238 Y107.639 E2.92647
G1 X99.450 Y108.427 E2.95940
G1 E0.95940 F2400.00000
G92 E0
G1 X102.866 Y106.979 F7800.000
G1 E2.00000 F2400.00000
G1 F4373.77
G1 X103.817 Y106.029 E2.03973
G1 X103.741 Y105.362 E2.05954
G1 X103.582 Y104.294 E2.09145
G1 X102.447 Y105.429 E2.13886
G1 X102.151 Y103.756 E2.18906
G1 X103.297 Y102.610 E2.23694
G1 X103.086 Y101.350 E2.27469
G1 X103.062 Y101.144 E2.28081
G1 X103.059 Y100.879 E2.28864
G1 X101.834 Y102.104 E2.33983
G1 X101.678 Y101.515 E2.35783
G1 X101.564 Y101.203 E2.36766
G1 X101.407 Y100.943 E2.37663
G1 X101.219 Y100.750 E2.38459
G1 X104.822 Y97.147 E2.53514
G1 X104.735 Y96.589 E2.55182
G1 X104.519 Y95.481 E2.58518
G1 X99.067 Y100.933 E2.81299
G1 X98.918 Y100.718 E2.82073
G1 X98.797 Y100.628 E2.82518
G1 X98.672 Y100.585 E2.82907
G1 X98.554 Y100.581 E2.83255
G1 X98.453 Y100.604 E2.83562
G1 X98.370 Y100.643 E2.83834
G1 X98.214 Y100.766 E2.84422
G1 X98.074 Y100.939 E2.85080
G1 X97.926 Y101.244 E2.86079
G1 X97.781 Y101.686 E2.87455
G1 X97.611 Y102.389 E2.89592
G1 X96.402 Y103.598 E2.94645
G1 X96.783 Y101.248 E3.01679
G1 X104.194 Y93.837 E3.32645
G1 X103.877 Y92.185 E3.37615
G1 X97.201 Y98.861 E3.65510
G1 X97.247 Y98.414 E3.66838
G1 X97.266 Y97.933 E3.68261
G1 X97.165 Y97.927 E3.68559
G1 X97.143 Y97.467 E3.69919
G1 X97.249 Y97.402 E3.70288
G1 X97.136 Y97.166 E3.71062
G1 X97.046 Y97.047 E3.71504
G1 X103.510 Y90.583 E3.98511
G1 X103.369 Y89.940 E4.00456
G1 X103.318 Y89.484 E4.01813
G1 X102.640 Y89.484 E4.03816
G1 X93.066 Y99.058 E4.43822
G1 X93.571 Y98.187 E4.46797
G1 X93.498 Y98.130 E4.47072
G1 X93.666 Y97.761 E4.48269
G1 X93.623 Y97.732 E4.48424
G1 X93.932 Y97.321 E4.49942
G1 X94.539 Y96.586 E4.52759
G1 X94.472 Y96.529 E4.53020
G1 X95.034 Y95.922 E4.55464
G1 X95.504 Y95.342 E4.57670
G1 X95.877 Y94.793 E4.59630
G1 X96.160 Y94.311 E4.61282
G1 X96.255 Y94.362 E4.61599
G1 X96.504 Y93.898 E4.63155
G1 X96.716 Y93.438 E4.64650
G1 X100.671 Y89.484 E4.81174
G1 X98.702 Y89.484 E4.86992
G1 X98.004 Y90.181 E4.89906
G1 X98.079 Y89.809 E4.91029
G1 X98.377 Y89.809 E4.91909
G1 X104.822 Y97.147 F7800.000
G1 F4373.77
G1 X104.945 Y97.939 E4.94276
G1 X104.976 Y98.252 E4.95207
G1 X104.887 Y98.260 E4.95472
G1 X104.910 Y98.770 E4.96983
G1 X104.890 Y99.048 E4.97806
G1 X103.869 Y100.069 E5.02070
G1 X104.049 Y100.214 E5.02752
G1 X104.233 Y100.472 E5.03688
G1 X104.603 Y101.305 E5.06380
G1 X105.075 Y100.832 E5.08354
G1 X105.656 Y102.221 E5.12801
G1 X105.193 Y102.683 E5.14733
M106 S247.35
G1 Z2.000 F7800.000
G1 X106.484 Y103.322 F7800.000
G1 F1200
G1 X104.048 Y100.886 E5.26231
G1 X104.490 Y101.995 E5.30216
G1 X106.871 Y104.376 E5.41457
G1 X107.071 Y104.936 E5.43440
G1 X107.046 Y105.068 E5.43888
G1 X107.073 Y105.245 E5.44485
G1 X105.024 Y103.197 E5.54152
G1 X105.549 Y104.389 E5.58498
G1 X107.252 Y106.091 E5.66535
G1 X107.205 Y106.302 E5.67256
G1 X107.146 Y106.389 E5.67606
G1 X107.089 Y106.426 E5.67833
G1 X107.002 Y106.422 E5.68124
G1 X106.927 Y106.394 E5.68391
G1 X106.843 Y106.341 E5.68723
G1 X106.398 Y105.905 E5.70805
G1 E3.70805 F2400.00000
G92 E0
G1 X104.105 Y106.642 F7800.000
G1 E2.00000 F2400.00000
G1 F1200
G1 X102.213 Y104.749 E2.08932
G1 X102.331 Y105.476 E2.11388
G1 X104.210 Y107.355 E2.20257
G1 X104.248 Y108.001 E2.22419
G1 X102.479 Y106.232 E2.30769
G1 X102.644 Y107.006 E2.33409
G1 X104.223 Y108.586 E2.40866
G1 X104.215 Y108.982 E2.42190
G1 X104.164 Y109.135 E2.42726
G1 X103.022 Y107.993 E2.48117
G1 X103.197 Y108.734 E2.50659
G1 X103.262 Y108.841 E2.51078
G1 X103.587 Y109.166 E2.52612
G1 E0.52612 F2400.00000
G92 E0
G1 X103.417 Y105.344 F7800.000
G1 E2.00000 F2400.00000
G1 F1200
G1 X103.244 Y105.502 E2.00781
G1 X102.919 Y105.311 E2.02041
G1 X102.703 Y104.920 E2.03531
G1 X102.559 Y104.486 E2.05057
G1 X102.105 Y104.032 E2.07201
G1 X102.000 Y103.319 E2.09609
G1 X102.331 Y103.650 E2.11172
G1 X103.448 Y102.941 F7800.000
G1 F1200
G1 X103.123 Y102.616 E2.12705
G1 X103.212 Y103.313 E2.15053
G1 X103.594 Y103.696 E2.16856
G1 X103.736 Y104.446 E2.19405
G1 X103.263 Y103.973 E2.21637
G1 X103.272 Y104.290 E2.22696
G1 X103.253 Y104.572 E2.23640
G1 X103.868 Y105.187 E2.26542
G1 X103.995 Y105.923 E2.29035
G1 X103.092 Y105.019 E2.33300
G1 E0.33300 F2400.00000
G92 E0
G1 X100.661 Y106.337 F7800.000
G1 E2.00000 F2400.00000
G1 F1200
G1 X99.120 Y104.796 E2.07275
G1 X99.102 Y105.377 E2.09217
G1 X100.601 Y106.876 E2.16290
G1 X100.562 Y107.436 E2.18164
G1 X99.120 Y105.994 E2.24970
G1 X99.140 Y106.613 E2.27037
G1 X100.538 Y108.010 E2.33634
G1 X100.513 Y108.584 E2.35552
G1 X99.160 Y107.232 E2.41937
G1 X99.149 Y107.819 E2.43898
G1 X100.418 Y109.089 E2.49891
G1 X100.334 Y109.603 E2.51631
G1 X99.157 Y108.427 E2.57185
G1 X99.157 Y108.540 E2.57562
G1 X99.239 Y109.107 E2.59474
G1 X100.207 Y110.075 E2.64045
G1 X100.115 Y110.246 E2.64694
G1 X100.038 Y110.327 E2.65066
G1 X99.931 Y110.365 E2.65444
G1 X99.827 Y110.294 E2.65864
G1 X99.501 Y109.967 E2.67405
G1 X99.469 Y108.739 F7800.000
G1 F1200
G1 X99.132 Y108.402 E2.68996
G1 E0.68996 F2400.00000
G92 E0
G1 X96.262 Y108.527 F7800.000
G1 E2.00000 F2400.00000
G1 F1200
G1 X95.937 Y108.202 E2.01534
G1 X95.880 Y108.102 E2.01921
G1 X95.817 Y107.903 E2.02615
G1 X95.791 Y107.658 E2.03437
G1 X95.795 Y107.441 E2.04164
G1 X96.721 Y108.366 E2.08532
G1 X96.887 Y107.912 E2.10145
G1 X95.719 Y106.744 E2.15659
G1 X95.800 Y106.206 E2.17476
G1 X97.043 Y107.448 E2.23340
G1 X97.135 Y107.297 E2.23931
G1 X97.227 Y107.012 E2.24930
G1 X95.880 Y105.666 E2.31286
G1 X95.951 Y105.117 E2.33133
G1 X97.333 Y106.499 E2.39654
G1 X97.425 Y105.970 E2.41443
G1 X96.015 Y104.561 E2.48096
G1 X96.087 Y104.013 E2.49942
G1 X97.531 Y105.457 E2.56760
G1 X97.649 Y104.955 E2.58481
G1 X96.812 Y104.118 E2.62436
G1 X97.128 Y103.814 E2.63899
G1 X97.766 Y104.452 E2.66912
G1 X97.859 Y103.925 E2.68698
G1 X97.331 Y103.398 E2.71189
G1 X97.460 Y102.906 E2.72884
G1 X97.942 Y103.388 E2.75156
G1 X98.023 Y102.850 E2.76974
G1 X97.572 Y102.398 E2.79103
G1 X97.697 Y101.904 E2.80806
G1 X98.115 Y102.321 E2.82777
G1 X98.225 Y101.812 E2.84517
G1 X97.850 Y101.437 E2.86288
G1 X98.040 Y101.007 E2.87857
G1 X98.365 Y101.332 E2.89390
G1 X97.001 Y101.207 F7800.000
G1 F1200
G1 X96.621 Y100.828 E2.91182
G1 X96.531 Y101.357 E2.92974
G1 X96.972 Y101.799 E2.95057
G1 X96.917 Y102.363 E2.96952
G1 X96.441 Y101.887 E2.99201
G1 X96.349 Y102.416 E3.00991
G1 X96.859 Y102.925 E3.03394
G1 X96.807 Y103.494 E3.05300
G1 X96.258 Y102.944 E3.07894
G1 X96.169 Y103.475 E3.09691
G1 X96.976 Y104.282 E3.13501
G1 X97.101 Y104.477 E3.14273
G1 X97.137 Y104.443 E3.14438
G1 E1.14438 F2400.00000
G92 E0
G1 X99.884 Y104.961 F7800.000
G1 E2.00000 F2400.00000
G1 F1200
G1 X100.717 Y105.794 E2.03930
G1 X100.744 Y105.222 E2.05841
G1 X100.108 Y104.586 E2.08841
G1 X100.163 Y104.346 E2.09665
G1 X100.194 Y104.074 E2.10579
G1 X100.743 Y104.622 E2.13168
G1 X100.725 Y104.005 E2.15229
G1 X100.242 Y103.523 E2.17506
G1 X100.274 Y102.956 E2.19402
G1 X100.703 Y103.385 E2.21427
G1 X100.687 Y102.770 E2.23479
G1 X100.314 Y102.397 E2.25241
G1 X100.362 Y101.846 E2.27087
G1 X100.687 Y102.171 E2.28621
G1 X99.560 Y102.840 F7800.000
G1 F1200
G1 X99.181 Y102.461 E2.30410
G1 X99.173 Y103.052 E2.32384
G1 X99.615 Y103.494 E2.34468
G1 X99.655 Y104.133 E2.36605
G1 X99.156 Y103.634 E2.38960
G1 X99.137 Y104.214 E2.40898
G1 X99.743 Y104.820 E2.43757
G1 X99.773 Y104.994 E2.44345
G1 X99.901 Y105.203 E2.45165
G1 X100.064 Y105.417 E2.46062
G1 X100.209 Y105.286 E2.46715
G1 E0.46715 F2400.00000
G92 E0
G1 X103.464 Y100.301 F7800.000
G1 E2.00000 F2400.00000
G1 F1200
G1 X103.395 Y100.419 E2.00456
G1 X103.495 Y100.333 E2.00898
G1 X103.139 Y99.976 E2.02581
G1 X103.169 Y99.937 E2.02748
G1 X103.246 Y99.894 E2.03041
G1 X103.388 Y99.895 E2.03515
G1 X103.706 Y99.977 E2.04611
G1 X104.127 Y100.437 E2.06694
G1 X104.294 Y100.553 E2.07374
G1 X104.400 Y100.571 E2.07733
G1 X106.096 Y102.267 E2.15738
G1 X105.645 Y101.148 E2.19763
G1 X104.789 Y100.292 E2.23804
G1 X104.847 Y100.055 E2.24618
G1 X104.884 Y99.720 E2.25744
G1 X105.209 Y100.045 E2.27278
G1 E0.27278 F2400.00000
G92 E0
G1 X100.259 Y102.228 F7800.000
G1 E2.00000 F2400.00000
G1 F4800
G1 X99.520 Y101.489 E2.03087
G1 X99.651 Y102.479 E2.06038
G1 X99.740 Y103.678 E2.09591
G1 X100.130 Y104.068 E2.11220
G1 X100.103 Y104.367 E2.12107
G1 X100.065 Y104.003 E2.13188
G1 E0.13188 F2400.00000
G92 E0
G1 X97.254 Y103.162 F7800.000
G1 E2.00000 F2400.00000
G1 F4800
G1 X97.216 Y103.730 E2.01683
G1 X97.349 Y103.256 E2.03136
G1 X96.929 Y102.837 E2.04889
G1 X97.055 Y101.611 E2.08529
G1 X97.091 Y101.029 E2.10252
G1 X97.755 Y101.693 E2.13024
G1 X97.951 Y101.220 E2.14536
G1 X98.187 Y100.780 E2.16011
G1 X98.477 Y100.446 E2.17318
G1 X97.170 Y99.140 E2.22777
G1 X97.232 Y98.537 E2.24565
G1 X97.276 Y97.738 E2.26929
G1 X97.273 Y97.423 E2.27861
G1 X97.172 Y97.421 E2.28160
G1 X97.159 Y97.226 E2.28738
G1 X97.208 Y97.208 E2.28892
G1 X100.328 Y100.328 E2.41929
G1 X100.429 Y100.182 E2.42453
G1 X100.599 Y100.028 E2.43132
G1 X100.740 Y99.963 E2.43591
G1 X100.857 Y99.941 E2.43942
G1 X101.000 Y99.964 E2.44370
G1 X101.103 Y100.005 E2.44698
G1 X101.307 Y100.155 E2.45446
G1 X101.538 Y100.443 E2.46537
G1 X101.691 Y100.708 E2.47442
G1 X101.925 Y101.334 E2.49416
G1 X102.152 Y102.152 E2.51923
G1 X103.040 Y103.040 E2.55636
G1 X102.862 Y101.704 E2.59618
G1 X102.832 Y101.198 E2.61116
G1 X102.852 Y100.883 E2.62049
G1 X96.172 Y94.203 E2.89960
G1 X96.575 Y93.453 E2.92476
G1 X96.828 Y92.890 E2.94299
G1 X103.741 Y99.802 E3.23182
G1 X104.004 Y99.853 E3.23975
G1 X104.214 Y99.922 E3.24629
G1 X104.392 Y100.066 E3.25303
G1 X104.729 Y100.445 E3.26801
G1 X104.830 Y99.693 E3.29041
G1 X104.840 Y98.933 E3.31288
G1 X97.322 Y91.415 E3.62702
G1 X97.753 Y90.530 E3.65610
G1 X97.946 Y90.069 E3.67085
G1 X104.697 Y96.821 E3.95297
G1 X104.198 Y94.353 E4.02738
G1 X99.329 Y89.484 E4.23082
G1 X101.298 Y89.484 E4.28900
G1 X103.730 Y91.916 E4.39062
G1 X96.895 Y96.895 F7800.000
G1 F4800
G1 X95.436 Y95.436 E4.45157
G1 X94.645 Y96.614 E4.49349
G1 X95.672 Y97.641 E4.53639
G1 X95.428 Y97.793 E4.54490
G1 X95.278 Y97.922 E4.55074
G1 X94.990 Y98.242 E4.56345
G1 X94.688 Y98.626 E4.57789
G1 X93.956 Y97.894 E4.60849
G1 X93.834 Y98.116 F7800.000
G1 F1200
G1 X93.822 Y98.152 E4.60982
G1 X93.849 Y98.187 E4.61137
G1 X93.863 Y98.145 E4.61292
G1 X93.509 Y97.792 E4.63066
G1 X93.745 Y97.318 E4.64940
G1 X94.070 Y97.643 E4.66570
G1 X93.792 Y98.373 F7800.000
G1 F1200
G1 X93.467 Y98.049 E4.68199
G1 X93.246 Y98.434 E4.69774
G1 X93.668 Y98.856 E4.71892
G1 X93.475 Y99.270 E4.73511
G1 X93.018 Y98.813 E4.75804
G1 X92.786 Y99.188 E4.77367
G1 X93.111 Y99.513 E4.78996
M106 S232.05
G1 Z2.500 F7800.000
G1 E2.78996 F2400.00000
G92 E0
G1 X97.093 Y101.044 F7800.000
G1 E2.00000 F2400.00000
G1 F1200
G1 X97.077 Y101.659 E2.01842
G1 X98.063 Y100.673 E2.06019
G1 X97.833 Y101.165 E2.07645
G1 X97.652 Y101.683 E2.09289
G1 X97.016 Y102.319 E2.11982
G1 X96.947 Y102.987 E2.13992
G1 X97.451 Y102.483 E2.16126
G1 X97.252 Y103.281 E2.18590
G1 X96.897 Y103.635 E2.20091
G1 E0.20091 F2400.00000
G92 E0
G1 X99.730 Y103.796 F7800.000
G1 E2.00000 F2400.00000
G1 F1200
G1 X100.159 Y103.367 E2.01815
G1 X100.194 Y102.733 E2.03717
G1 X99.689 Y103.239 E2.05857
G1 X99.636 Y102.693 E2.07500
G1 X100.243 Y102.086 E2.10070
G1 X100.324 Y101.406 E2.12120
G1 X99.574 Y102.156 E2.15297
G1 X99.489 Y101.643 E2.16856
G1 X100.498 Y100.634 E2.21130
G1 X101.547 Y100.782 F7800.000
G1 F1200
G1 X104.765 Y97.564 E2.34760
G1 X104.687 Y97.043 E2.36337
G1 X101.277 Y100.452 E2.50777
G1 X101.103 Y100.329 E2.51416
G1 X101.000 Y100.289 E2.51748
G1 X100.864 Y100.267 E2.52161
G1 X104.607 Y96.524 E2.68012
G1 X104.506 Y96.027 E2.69534
G1 X99.369 Y101.163 E2.91288
G1 X99.294 Y100.929 E2.92026
G1 X99.203 Y100.731 E2.92679
G1 X104.405 Y95.529 E3.14710
G1 X104.304 Y95.031 E3.16231
G1 X98.961 Y100.374 E3.38859
G1 X98.838 Y100.271 E3.39339
G1 X98.715 Y100.214 E3.39747
G1 X98.520 Y100.217 E3.40330
G1 X104.203 Y94.533 E3.64401
G1 X104.102 Y94.035 E3.65921
G1 X97.093 Y101.044 E3.95604
G1 X97.090 Y100.449 E3.97387
G1 X104.004 Y93.535 E4.26666
G1 X103.910 Y93.030 E4.28205
G1 X97.125 Y99.815 E4.56942
G1 X97.209 Y99.132 E4.59005
G1 X103.822 Y92.520 E4.87009
G1 X103.731 Y92.012 E4.88553
G1 X97.258 Y98.485 E5.15968
G1 X97.274 Y97.870 E5.17810
G1 X103.632 Y91.512 E5.44737
G1 X103.521 Y91.024 E5.46234
G1 X97.216 Y97.329 E5.72935
G1 X97.142 Y97.111 E5.73625
G1 X97.092 Y97.035 E5.73896
G1 X96.998 Y96.948 E5.74279
G1 X103.404 Y90.542 E6.01409
G1 X103.296 Y90.052 E6.02913
G1 X96.365 Y96.983 E6.32264
G1 X96.175 Y97.098 E6.32930
G1 X95.668 Y97.463 E6.34801
G1 X95.239 Y97.701 E6.36268
G1 X94.953 Y97.922 E6.37352
G1 X94.665 Y98.242 E6.38642
G1 X94.072 Y98.993 E6.41508
G1 X93.795 Y99.282 E6.42707
G1 X93.672 Y99.375 E6.43168
G1 X93.532 Y99.441 E6.43633
G1 X93.726 Y99.023 E6.45015
G1 X103.223 Y89.526 E6.85236
G1 X103.221 Y89.484 E6.85361
G1 X102.666 Y89.484 E6.87022
G1 X95.535 Y96.615 E7.17225
G1 X95.508 Y96.588 E7.17340
G1 X95.212 Y96.842 E7.18509
G1 X95.253 Y96.897 E7.18716
G1 X93.984 Y98.167 E7.24092
G1 X94.064 Y97.953 E7.24777
G1 X94.376 Y97.351 E7.26807
G1 X94.733 Y96.819 E7.28726
G1 X102.068 Y89.484 E7.59790
G1 X101.469 Y89.484 E7.61582
G1 X95.820 Y95.133 E7.85508
G1 X96.245 Y94.399 E7.88049
G1 X96.574 Y93.780 E7.90148
G1 X100.870 Y89.484 E8.08342
G1 X100.272 Y89.484 E8.10135
G1 X97.021 Y92.735 E8.23904
G1 X97.422 Y91.735 E8.27129
G1 X99.673 Y89.484 E8.36664
G1 X99.074 Y89.484 E8.38457
G1 X97.927 Y90.631 E8.43314
G1 X98.063 Y90.244 E8.44543
G1 X98.150 Y89.809 E8.45871
G1 X98.475 Y89.484 E8.47248
G1 E6.47248 F2400.00000
G92 E0
G1 X103.022 Y99.905 F7800.000
G1 E2.00000 F2400.00000
G1 F1200
G1 X101.751 Y101.177 E2.05386
G1 X101.910 Y101.616 E2.06786
G1 X102.833 Y100.693 E2.10694
G1 X102.854 Y101.271 E2.12426
G1 X102.047 Y102.078 E2.15841
G1 X102.170 Y102.553 E2.17312
G1 X102.912 Y101.812 E2.20451
G1 X102.985 Y102.338 E2.22040
G1 X102.285 Y103.037 E2.25001
G1 X102.404 Y103.517 E2.26483
G1 X103.057 Y102.864 E2.29248
G1 X103.122 Y103.398 E2.30859
G1 X102.524 Y103.996 E2.33391
G1 X102.666 Y104.453 E2.34823
G1 X103.166 Y103.952 E2.36943
G1 X103.179 Y104.282 E2.37931
G1 X103.159 Y104.558 E2.38761
G1 X102.834 Y104.883 E2.40137
G1 E0.40137 F2400.00000
G92 E0
G1 X102.697 Y100.230 F7800.000
G1 E2.00000 F2400.00000
G1 F1200
G1 X102.749 Y100.124 E2.00352
G1 X102.887 Y99.946 E2.01028
G1 X103.102 Y99.825 E2.01766
G1 X104.817 Y98.110 E2.09028
G1 X104.841 Y98.685 E2.10752
G1 X103.674 Y99.852 E2.15692
G1 X103.890 Y99.922 E2.16371
G1 X104.063 Y100.062 E2.17037
G1 X104.829 Y99.296 E2.20282
G1 X104.759 Y99.964 E2.22293
G1 X104.344 Y100.379 E2.24052
M106 S244.8
G1 Z3.000 F7800.000
G1 E0.24052 F2400.00000
G92 E0
G1 X99.003 Y98.557 F7800.000
G1 E2.00000 F2400.00000
G1 F1200
G1 X97.550 Y97.105 E2.06152
G1 X97.668 Y97.821 E2.08328
G1 X98.395 Y98.548 E2.11405
G1 X98.228 Y98.532 E2.11907
G1 X98.128 Y98.490 E2.12231
G1 X98.071 Y98.427 E2.12485
G1 X98.022 Y98.311 E2.12862
G1 X97.993 Y98.146 E2.13362
G1 E0.13362 F2400.00000
G92 E0
G1 X95.992 Y96.744 F7800.000
G1 E2.00000 F2400.00000
G1 F1200
G1 X95.632 Y96.375 E2.01544
G1 X95.598 Y96.260 E2.01901
G1 X95.598 Y96.175 E2.02157
G1 X95.675 Y95.828 E2.03220
G1 X96.468 Y96.621 E2.06576
G1 X96.881 Y96.436 E2.07933
G1 X95.849 Y95.403 E2.12307
G1 X96.058 Y95.014 E2.13631
G1 X99.610 Y98.566 E2.28673
G1 X100.216 Y98.573 E2.30487
G1 X96.273 Y94.630 E2.47185
G1 X96.504 Y94.262 E2.48485
G1 X100.823 Y98.582 E2.66778
G1 X101.438 Y98.597 E2.68618
G1 X96.740 Y93.899 E2.88514
G1 X96.971 Y93.532 E2.89814
G1 X102.036 Y98.597 E3.11263
G1 X102.577 Y98.539 E3.12892
G1 X97.177 Y93.139 E3.35761
G1 X97.361 Y92.724 E3.37120
G1 X103.050 Y98.414 E3.61215
G1 X103.548 Y98.313 E3.62735
G1 X97.527 Y92.291 E3.88236
G1 X97.682 Y91.848 E3.89642
G1 X104.092 Y98.258 E4.16786
G1 X104.190 Y98.243 E4.17083
G1 X104.271 Y98.168 E4.17415
G1 X104.327 Y98.036 E4.17843
G1 X104.342 Y97.910 E4.18224
G1 X97.836 Y91.403 E4.45779
G1 X98.006 Y90.974 E4.47160
G1 X104.369 Y97.338 E4.74110
G1 X104.322 Y96.692 E4.76048
G1 X98.179 Y90.549 E5.02066
G1 X98.339 Y90.110 E5.03464
G1 X104.204 Y95.976 E5.28304
G1 X104.062 Y95.235 E5.30562
G1 X98.464 Y89.637 E5.54272
G1 X98.491 Y89.484 E5.54736
G1 X98.910 Y89.484 E5.55990
G1 X103.900 Y94.474 E5.77122
G1 X103.743 Y93.718 E5.79434
G1 X99.509 Y89.484 E5.97366
G1 X100.107 Y89.484 E5.99159
G1 X103.610 Y92.987 E6.13993
G1 X103.484 Y92.262 E6.16197
G1 X100.706 Y89.484 E6.27961
G1 X101.305 Y89.484 E6.29754
G1 X103.313 Y91.493 E6.38261
G1 X103.032 Y90.613 E6.41027
G1 X101.903 Y89.484 E6.45808
G1 X102.502 Y89.484 E6.47601
G1 X102.827 Y89.809 E6.48977
G1 E4.48977 F2400.00000
G92 E0
M107
; Filament-specific end gcode 
;END gcode for filament

M104 S0 ; turn off temperature
G28 X0  ; home X axis
M84     ; disable motors

M140 S0 ; set bed temperature
; filament used = 30.8mm (0.2cm3)
; total filament cost = 0.0

; avoid_crossing_perimeters = 0
; bed_shape = 0x0,200x0,200x200,0x200
; bed_temperature = 0
; before_layer_gcode = 
; between_objects_gcode = 
; bridge_acceleration = 0
; bridge_fan_speed = 100
; brim_connections_width = 0
; brim_width = 0
; complete_objects = 0
; cooling = 1
; default_acceleration = 0
; disable_fan_first_layers = 3
; duplicate_distance = 6
; end_filament_gcode = "; Filament-specific end gcode \n;END gcode for filament\n"
; end_gcode = M104 S0 ; turn off temperature\nG28 X0  ; home X axis\nM84     ; disable motors\n
; extruder_clearance_height = 20
; extruder_clearance_radius = 20
; extruder_offset = 0x0
; extrusion_axis = E
; extrusion_multiplier = 1
; fan_always_on = 0
; fan_below_layer_time = 60
; filament_colour = #FFFFFF
; filament_cost = 0
; filament_density = 0
; filament_diameter = 3
; filament_max_volumetric_speed = 0
; filament_notes = ""
; first_layer_acceleration = 0
; first_layer_bed_temperature = 0
; first_layer_extrusion_width = 200%
; first_layer_speed = 30
; first_layer_temperature = 205
; gcode_arcs = 0
; gcode_comments = 0
; gcode_flavor = reprap
; has_heatbed = 1
; infill_acceleration = 0
; infill_first = 0
; interior_brim_width = 0
; layer_gcode = 
; max_fan_speed = 100
; max_layer_height = 0.3
; max_print_speed = 80
; max_volumetric_speed = 0
; min_fan_speed = 35
; min_layer_height = 0.15
; min_print_speed = 10
; min_skirt_length = 0
; notes = 
; nozzle_diameter = 0.5
; only_retract_when_crossing_perimeters = 1
; ooze_prevention = 0
; output_filename_format = [input_filename_base].gcode
; perimeter_acceleration = 0
; post_process = 
; pressure_advance = 0
; printer_notes = 
; resolution = 0
; retract_before_travel = 2
; retract_layer_change = 0
; retract_length = 2
; retract_length_toolchange = 10
; retract_lift = 0
; retract_lift_above = 0
; retract_lift_below = 0
; retract_restart_extra = 0
; retract_restart_extra_toolchange = 0
; retract_speed = 40
; skirt_distance = 6
; skirt_height = 1
; skirts = 0
; slowdown_below_layer_time = 5
; spiral_vase = 0
; standby_temperature_delta = -5
; start_filament_gcode = "; Filament gcode\n"
; start_gcode = G28 ; home all axes\nG1 Z5 F5000 ; lift nozzle\n
; temperature = 200
; threads = 8
; toolchange_gcode = 
; travel_speed = 130
; use_firmware_retraction = 0
; use_relative_e_distances = 0
; use_set_and_wait_bed = 0
; use_set_and_wait_extruder = 0
; use_volumetric_e = 0
; vibration_limit = 0
; wipe = 0
; z_offset = 0
; z_steps_per_mm = 0
; adaptive_slicing = 0
; adaptive_slicing_quality = 75%
; dont_support_bridges = 1
; extrusion_width = 0
; first_layer_height = 0.5
; infill_only_where_needed = 0
; interface_shells = 0
; layer_height = 0.5
; match_horizontal_surfaces = 0
; raft_layers = 0
; regions_overlap = 0
; seam_position = aligned
; sequential_print_priority = 0
; support_material = 0
; support_material_angle = 0
; support_material_buildplate_only = 0
; support_material_contact_distance = 0.2
; support_material_enforce_layers = 0
; support_material_extruder = 1
; support_material_extrusion_width = 0
; support_material_interface_extruder = 1
; support_material_interface_extrusion_width = 0
; support_material_interface_layers = 3
; support_material_interface_spacing = 0
; support_material_interface_speed = 100%
; support_material_max_layers = 0
; support_material_pattern = pillars
; support_material_spacing = 2.5
; support_material_speed = 60
; support_material_threshold = 60%
; xy_size_compensation = 0
; bottom_infill_pattern = rectilinear
; bottom_solid_layers = 0
; bridge_flow_ratio = 1
; bridge_speed = 60
; external_perimeter_extrusion_width = 0
; external_perimeter_speed = 50%
; external_perimeters_first = 0
; extra_perimeters = 1
; fill_angle = 45
; fill_density = 30%
; fill_gaps = 1
; fill_pattern = rectilinear
; gap_fill_speed = 20
; infill_every_layers = 1
; infill_extruder = 1
; infill_extrusion_width = 0
; infill_overlap = 55%
; infill_speed = 80
; overhangs = 1
; perimeter_extruder = 1
; perimeter_extrusion_width = 0
; perimeter_speed = 60
; perimeters = 0
; small_perimeter_speed = 15
; solid_infill_below_area = 70
; solid_infill_every_layers = 0
; solid_infill_extruder = 1
; solid_infill_extrusion_width = 0
; solid_infill_speed = 20
; thin_walls = 1
; top_infill_extrusion_width = 0
; top_infill_pattern = rectilinear
; top_solid_infill_speed = 15
; top_solid_layers = 0
