; generated by Slic3r 1.3.0 on 2020-10-26 at 14:09:47

; external perimeters extrusion width = 0.55mm (5.57mm^3/s)
; perimeters extrusion width = 0.58mm (11.78mm^3/s)
; infill extrusion width = 0.58mm (15.71mm^3/s)
; solid infill extrusion width = 0.58mm (3.93mm^3/s)
; top infill extrusion width = 0.58mm (2.95mm^3/s)

M107
M104 S205 ; set temperature
G28 ; home all axes
G1 Z5 F5000 ; lift nozzle

; Filament gcode

M109 S205 ; set temperature and wait for it to be reached
G21 ; set units to millimeters
G90 ; use absolute coordinates
M82 ; use absolute distances for extrusion
G92 E0
G1 Z0.400 F7800.000
G1 E-2.00000 F2400.00000
G92 E0
G1 X93.636 Y92.480 F7800.000
G1 E2.00000 F2400.00000
G1 F1800
G1 X93.511 Y92.480 E2.00506
G1 X93.511 Y92.605 E2.01012
G1 X94.105 Y92.011 E2.04406
G1 X95.262 Y92.011 E2.09081
G1 X93.511 Y93.762 E2.19088
G1 X93.511 Y94.919 E2.23764
G1 X96.419 Y92.011 E2.40383
G1 X97.564 Y92.011 E2.45009
G1 X93.511 Y96.076 E2.68206
G1 X93.511 Y97.233 E2.72882
G1 X97.564 Y93.180 E2.96043
G1 X97.564 Y94.337 E3.00719
G1 X93.511 Y98.390 E3.23881
G1 X93.511 Y99.547 E3.28557
G1 X97.564 Y95.494 E3.51718
G1 X97.564 Y96.651 E3.56394
G1 X93.511 Y100.704 E3.79556
G1 X93.511 Y101.861 E3.84232
G1 X97.807 Y97.565 E4.08785
G1 X98.964 Y97.565 E4.13460
G1 X93.511 Y103.018 E4.44626
G1 X93.511 Y104.175 E4.49301
G1 X97.564 Y100.122 E4.72463
G1 X97.564 Y101.279 E4.77139
G1 X93.511 Y105.332 E5.00301
G1 X93.511 Y106.489 E5.04977
G1 X97.564 Y102.436 E5.28138
G1 X97.564 Y103.593 E5.32814
G1 X93.511 Y107.646 E5.55976
G1 X93.511 Y107.989 E5.57362
G1 X94.325 Y107.989 E5.60652
G1 X97.564 Y104.750 E5.79161
G1 X97.564 Y105.016 E5.80234
G1 X98.455 Y105.016 E5.83837
G1 X95.482 Y107.989 E6.00829
G1 X96.639 Y107.989 E6.05505
G1 X99.612 Y105.016 E6.22497
G1 X100.339 Y105.008 E6.25434
G1 X100.840 Y104.945 E6.27474
G1 X97.796 Y107.989 E6.44869
G1 X98.953 Y107.989 E6.49545
G1 X106.217 Y100.725 E6.91062
G1 X106.341 Y101.157 E6.92878
G1 X106.431 Y101.667 E6.94975
G1 X100.113 Y107.986 E7.31089
G1 X100.690 Y107.971 E7.33422
G1 X101.352 Y107.904 E7.36111
G1 X106.483 Y102.773 E7.65438
G1 X106.434 Y103.418 E7.68051
G1 X106.290 Y104.123 E7.70959
G1 X102.819 Y107.594 E7.90800
G1 E5.90800 F2400.00000
G92 E0
G1 X102.277 Y103.508 F7800.000
G1 E2.00000 F2400.00000
G1 F1800
G1 X105.858 Y99.927 E2.20466
G1 X105.633 Y99.574 E2.22159
G1 X105.371 Y99.257 E2.23819
G1 X102.250 Y102.378 E2.41657
G1 X102.129 Y101.964 E2.43399
G1 X102.039 Y101.766 E2.44281
G1 X101.914 Y101.557 E2.45263
G1 X104.765 Y98.706 E2.61559
G1 X104.520 Y98.535 E2.62767
G1 X104.124 Y98.305 E2.64617
G1 X104.046 Y98.268 E2.64967
G1 X101.329 Y100.985 E2.80496
G1 X100.945 Y100.779 E2.82255
G1 X100.516 Y100.641 E2.84076
G1 X103.219 Y97.938 E2.99522
G1 X102.821 Y97.821 E3.01198
G1 X102.287 Y97.713 E3.03401
G1 X99.462 Y100.538 E3.19545
G1 X98.305 Y100.538 E3.24221
G1 X101.252 Y97.591 E3.41065
G1 X100.121 Y97.565 E3.45637
G1 X97.148 Y100.538 E3.62629
G1 X97.095 Y100.538 E3.62843
G1 X97.095 Y100.591 E3.63057
M104 S200 ; set temperature
G1 Z0.800 F7800.000
G1 E-2.00000 F2400.00000
G92 E0
G1 X93.636 Y92.480 F7800.000
G1 E2.00000 F2400.00000
G1 F1800
G1 X93.511 Y92.480 E2.00506
G1 X93.511 Y92.605 E2.01012
G1 X94.105 Y92.011 E2.04406
G1 X95.262 Y92.011 E2.09081
G1 X93.511 Y93.762 E2.19088
G1 X93.511 Y94.919 E2.23764
G1 X96.419 Y92.011 E2.40383
G1 X97.564 Y92.011 E2.45009
G1 X93.511 Y96.076 E2.68206
G1 X93.511 Y97.233 E2.72882
G1 X97.564 Y93.180 E2.96043
G1 X97.564 Y94.337 E3.00719
G1 X93.511 Y98.390 E3.23881
G1 X93.511 Y99.547 E3.28557
G1 X97.564 Y95.494 E3.51718
G1 X97.564 Y96.651 E3.56394
G1 X93.511 Y100.704 E3.79556
G1 X93.511 Y101.861 E3.84232
G1 X97.807 Y97.565 E4.08785
G1 X98.964 Y97.565 E4.13460
G1 X93.511 Y103.018 E4.44626
G1 X93.511 Y104.175 E4.49301
G1 X97.564 Y100.122 E4.72463
G1 X97.564 Y101.279 E4.77139
G1 X93.511 Y105.332 E5.00301
G1 X93.511 Y106.489 E5.04977
G1 X97.564 Y102.436 E5.28138
G1 X97.564 Y103.593 E5.32814
G1 X93.511 Y107.646 E5.55976
G1 X93.511 Y107.989 E5.57362
G1 X94.325 Y107.989 E5.60652
G1 X97.564 Y104.750 E5.79161
G1 X97.564 Y105.016 E5.80234
G1 X98.455 Y105.016 E5.83837
G1 X95.482 Y107.989 E6.00829
G1 X96.639 Y107.989 E6.05505
G1 X99.612 Y105.016 E6.22497
G1 X100.339 Y105.008 E6.25434
G1 X100.840 Y104.945 E6.27474
G1 X97.796 Y107.989 E6.44869
G1 X98.953 Y107.989 E6.49545
G1 X106.217 Y100.725 E6.91062
G1 X106.341 Y101.157 E6.92878
G1 X106.431 Y101.667 E6.94975
G1 X100.113 Y107.986 E7.31089
G1 X100.690 Y107.971 E7.33422
G1 X101.352 Y107.904 E7.36111
G1 X106.483 Y102.773 E7.65438
G1 X106.434 Y103.418 E7.68051
G1 X106.290 Y104.123 E7.70959
G1 X102.819 Y107.594 E7.90800
G1 E5.90800 F2400.00000
G92 E0
G1 X102.277 Y103.508 F7800.000
G1 E2.00000 F2400.00000
G1 F1800
G1 X105.858 Y99.927 E2.20466
G1 X105.633 Y99.574 E2.22159
G1 X105.371 Y99.257 E2.23819
G1 X102.250 Y102.378 E2.41657
G1 X102.129 Y101.964 E2.43399
G1 X102.039 Y101.766 E2.44281
G1 X101.914 Y101.557 E2.45263
G1 X104.765 Y98.706 E2.61559
G1 X104.520 Y98.535 E2.62767
G1 X104.124 Y98.305 E2.64617
G1 X104.046 Y98.268 E2.64967
G1 X101.329 Y100.985 E2.80496
G1 X100.945 Y100.779 E2.82255
G1 X100.516 Y100.641 E2.84076
G1 X103.219 Y97.938 E2.99522
G1 X102.821 Y97.821 E3.01198
G1 X102.287 Y97.713 E3.03401
G1 X99.462 Y100.538 E3.19545
G1 X98.305 Y100.538 E3.24221
G1 X101.252 Y97.591 E3.41065
G1 X100.121 Y97.565 E3.45637
G1 X97.148 Y100.538 E3.62629
G1 X97.095 Y100.538 E3.62843
G1 X97.095 Y100.591 E3.63057
M104 S200 ; set temperature
