; generated by Slic3r 1.3.0 on 2020-10-08 at 13:23:15

; external perimeters extrusion width = 0.55mm (5.57mm^3/s)
; perimeters extrusion width = 0.58mm (11.78mm^3/s)
; infill extrusion width = 0.58mm (15.71mm^3/s)
; solid infill extrusion width = 0.58mm (3.93mm^3/s)
; top infill extrusion width = 0.58mm (2.95mm^3/s)

M107
M104 S205 ; set temperature
G28 ; home all axes
G1 Z5 F5000 ; lift nozzle

; Filament gcode

M109 S205 ; set temperature and wait for it to be reached
G21 ; set units to millimeters
G90 ; use absolute coordinates
M82 ; use absolute distances for extrusion
G92 E0
G1 Z0.400 F7800.000
G1 E-2.00000 F2400.00000
G92 E0
G1 X93.705 Y92.411 F7800.000
G1 E2.00000 F2400.00000
G1 F1800
G1 X93.200 Y92.916 E2.02888
G1 X93.200 Y93.784 E2.06395
G1 X94.573 Y92.411 E2.14243
G1 X95.440 Y92.411 E2.17750
G1 X93.200 Y94.652 E2.30557
G1 X93.200 Y95.520 E2.34064
G1 X96.308 Y92.411 E2.51830
G1 X97.102 Y92.411 E2.55038
G1 X97.102 Y92.485 E2.55337
G1 X93.200 Y96.387 E2.77640
G1 X93.200 Y97.255 E2.81146
G1 X97.102 Y93.353 E3.03449
G1 X97.102 Y94.221 E3.06956
G1 X93.200 Y98.123 E3.29259
G1 X93.200 Y98.991 E3.32765
G1 X97.102 Y95.088 E3.55068
G1 X97.102 Y95.956 E3.58575
G1 X93.200 Y99.858 E3.80878
G1 X93.200 Y100.726 E3.84384
G1 X97.102 Y96.824 E4.06687
G1 X97.102 Y97.692 E4.10194
G1 X93.200 Y101.594 E4.32497
G1 X93.200 Y102.462 E4.36003
G1 X97.102 Y98.559 E4.58306
G1 X97.102 Y98.849 E4.59477
G1 X97.680 Y98.849 E4.61813
G1 X93.200 Y103.329 E4.87419
G1 X93.200 Y104.197 E4.90926
G1 X98.548 Y98.849 E5.21491
G1 X99.415 Y98.849 E5.24998
G1 X93.200 Y105.065 E5.60523
G1 X93.200 Y105.933 E5.64030
G1 X96.633 Y102.499 E5.83654
G1 X96.633 Y101.791 E5.86515
G1 X97.341 Y101.791 E5.89376
G1 X100.283 Y98.849 E6.06190
G1 X101.151 Y98.849 E6.09697
G1 X98.209 Y101.791 E6.26511
G1 X99.077 Y101.791 E6.30018
G1 X102.019 Y98.849 E6.46832
G1 X102.886 Y98.849 E6.50339
G1 X99.944 Y101.791 E6.67152
G1 X100.812 Y101.791 E6.70659
G1 X106.800 Y95.803 E7.04884
G1 X106.800 Y96.671 E7.08391
G1 X101.680 Y101.791 E7.37656
G1 X102.548 Y101.791 E7.41163
G1 X106.800 Y97.538 E7.65469
G1 X106.800 Y98.406 E7.68976
G1 X102.898 Y102.308 E7.91278
G1 X102.898 Y103.176 E7.94785
G1 X106.800 Y99.274 E8.17088
G1 X106.800 Y100.142 E8.20595
G1 X102.898 Y104.044 E8.42897
G1 X102.898 Y104.912 E8.46404
G1 X106.800 Y101.009 E8.68707
G1 X106.800 Y101.877 E8.72214
G1 X102.898 Y105.779 E8.94516
G1 X102.898 Y106.647 E8.98023
G1 X106.800 Y102.745 E9.20326
G1 X106.800 Y103.613 E9.23833
G1 X102.898 Y107.515 E9.46135
G1 X102.898 Y107.589 E9.46435
G1 X103.692 Y107.589 E9.49642
G1 X106.800 Y104.480 E9.67409
G1 X106.800 Y105.348 E9.70916
G1 X104.560 Y107.589 E9.83723
G1 X105.427 Y107.589 E9.87230
G1 X106.800 Y106.216 E9.95077
G1 X106.800 Y107.084 E9.98584
G1 X106.295 Y107.589 E10.01472
G1 E8.01472 F2400.00000
G92 E0
G1 X102.898 Y98.837 F7800.000
G1 E2.00000 F2400.00000
G1 F1800
G1 X106.800 Y94.935 E2.22303
G1 X106.800 Y94.067 E2.25810
G1 X102.898 Y97.970 E2.48112
G1 X102.898 Y97.102 E2.51619
G1 X106.800 Y93.200 E2.73922
G1 X106.800 Y92.411 E2.77108
G1 X106.721 Y92.411 E2.77429
G1 X102.898 Y96.234 E2.99278
G1 X102.898 Y95.366 E3.02785
G1 X105.853 Y92.411 E3.19675
G1 X104.986 Y92.411 E3.23182
G1 X102.898 Y94.499 E3.35112
G1 X102.898 Y93.631 E3.38619
G1 X104.118 Y92.411 E3.45591
G1 E1.45591 F2400.00000
G92 E0
G1 X97.102 Y102.030 F7800.000
G1 E2.00000 F2400.00000
G1 F1800
G1 X97.102 Y102.898 E2.03507
G1 X93.200 Y106.800 E2.25810
G1 X93.200 Y107.589 E2.28996
G1 X93.279 Y107.589 E2.29316
G1 X97.102 Y103.766 E2.51166
G1 X97.102 Y104.634 E2.54673
G1 X94.147 Y107.589 E2.71563
G1 X95.014 Y107.589 E2.75070
G1 X97.102 Y105.501 E2.87000
G1 X97.102 Y106.369 E2.90507
G1 X95.882 Y107.589 E2.97478
M104 S200 ; set temperature
G1 Z0.800 F7800.000
G1 X93.243 Y107.127 F7800.000
G1 F3042.79
G1 X93.661 Y107.545 E2.99122
G1 X94.529 Y107.545 E3.01533
G1 X93.243 Y106.259 E3.06586
G1 X93.243 Y105.391 E3.08996
G1 X95.397 Y107.545 E3.17458
G1 X96.265 Y107.545 E3.19868
G1 X93.243 Y104.524 E3.31739
G1 X93.243 Y103.656 E3.34149
G1 X97.058 Y107.471 E3.49138
G1 X97.058 Y106.604 E3.51548
G1 X93.243 Y102.788 E3.66537
G1 X93.243 Y101.920 E3.68947
G1 X97.058 Y105.736 E3.83936
G1 X97.058 Y104.868 E3.86346
G1 X93.243 Y101.053 E4.01335
G1 X93.243 Y100.185 E4.03745
G1 X97.058 Y104.000 E4.18734
G1 X97.058 Y103.133 E4.21144
G1 X93.243 Y99.317 E4.36132
G1 X93.243 Y98.449 E4.38543
G1 X97.058 Y102.265 E4.53531
G1 X97.058 Y101.748 E4.54968
G1 X97.409 Y101.748 E4.55942
G1 X93.243 Y97.582 E4.72307
G1 X93.243 Y96.714 E4.74718
G1 X98.277 Y101.748 E4.94492
G1 X99.144 Y101.748 E4.96902
G1 X93.243 Y95.846 E5.20085
G1 X93.243 Y94.978 E5.22496
G1 X97.058 Y98.794 E5.37484
G1 X97.058 Y97.926 E5.39895
G1 X93.243 Y94.111 E5.54883
G1 X93.243 Y93.243 E5.57293
G1 X97.058 Y97.058 E5.72282
G1 X97.058 Y96.191 E5.74692
G1 X93.322 Y92.455 E5.89369
G1 X94.190 Y92.455 E5.91780
G1 X97.058 Y95.323 E6.03048
G1 X97.058 Y94.455 E6.05458
G1 X95.058 Y92.455 E6.13318
G1 X95.926 Y92.455 E6.15728
G1 X97.058 Y93.587 E6.20179
G1 E4.20179 F2400.00000
G92 E0
G1 X97.157 Y98.893 F7800.000
G1 E2.00000 F2400.00000
G1 F3042.79
G1 X100.012 Y101.748 E2.11216
G1 X100.880 Y101.748 E2.13626
G1 X98.025 Y98.893 E2.24842
G1 X98.893 Y98.893 E2.27252
G1 X101.748 Y101.748 E2.38468
G1 X102.615 Y101.748 E2.40879
G1 X99.760 Y98.893 E2.52094
G1 X100.628 Y98.893 E2.54505
G1 X106.757 Y105.022 E2.78582
G1 X106.757 Y104.154 E2.80992
G1 X101.496 Y98.893 E3.01660
G1 X102.364 Y98.893 E3.04070
G1 X106.757 Y103.286 E3.21329
G1 X106.757 Y102.418 E3.23740
G1 X102.942 Y98.603 E3.38728
G1 X102.942 Y97.735 E3.41139
G1 X106.757 Y101.551 E3.56127
G1 X106.757 Y100.683 E3.58538
G1 X102.942 Y96.867 E3.73526
G1 X102.942 Y96.000 E3.75937
G1 X106.757 Y99.815 E3.90925
G1 X106.757 Y98.947 E3.93335
G1 X102.942 Y95.132 E4.08324
G1 X102.942 Y94.264 E4.10734
G1 X106.757 Y98.080 E4.25723
G1 X106.757 Y97.212 E4.28133
G1 X102.942 Y93.396 E4.43122
G1 X102.942 Y92.529 E4.45532
G1 X106.757 Y96.344 E4.60521
G1 X106.757 Y95.476 E4.62931
G1 X103.735 Y92.455 E4.74802
G1 X104.603 Y92.455 E4.77212
G1 X106.757 Y94.609 E4.85674
G1 X106.757 Y93.741 E4.88084
G1 X105.471 Y92.455 E4.93137
G1 X106.339 Y92.455 E4.95548
G1 X106.757 Y92.873 E4.97192
G1 X106.757 Y105.889 F7800.000
G1 F3042.79
G1 X102.942 Y102.074 E5.12180
G1 X102.942 Y102.942 E5.14591
G1 X106.757 Y106.757 E5.29579
G1 X106.757 Y107.545 E5.31769
G1 X106.678 Y107.545 E5.31990
G1 X102.942 Y103.809 E5.46667
G1 X102.942 Y104.677 E5.49077
G1 X105.810 Y107.545 E5.60345
G1 X104.942 Y107.545 E5.62756
G1 X102.942 Y105.545 E5.70615
G1 X102.942 Y106.413 E5.73025
G1 X104.074 Y107.545 E5.77476
G1 X103.323 Y107.545 E5.79562
G1 X103.323 Y106.794 E5.81649
G1 Z1.200 F7800.000
G1 X106.339 Y107.545 F7800.000
G1 F3035.27
G1 X106.757 Y107.127 E5.83293
G1 X106.757 Y106.259 E5.85703
G1 X105.471 Y107.545 E5.90756
G1 X104.603 Y107.545 E5.93167
G1 X106.757 Y105.391 E6.01628
G1 X106.757 Y104.524 E6.04039
G1 X103.735 Y107.545 E6.15909
G1 X102.942 Y107.545 E6.18114
G1 X102.942 Y107.471 E6.18320
G1 X106.757 Y103.656 E6.33308
G1 X106.757 Y102.788 E6.35719
G1 X102.942 Y106.604 E6.50707
G1 X102.942 Y105.736 E6.53118
G1 X106.757 Y101.920 E6.68106
G1 X106.757 Y101.053 E6.70516
G1 X102.942 Y104.868 E6.85505
G1 X102.942 Y104.000 E6.87915
G1 X106.757 Y100.185 E7.02904
G1 X106.757 Y99.317 E7.05314
G1 X102.942 Y103.133 E7.20303
G1 X102.942 Y102.265 E7.22713
G1 X106.757 Y98.449 E7.37702
G1 X106.757 Y97.582 E7.40112
G1 X102.591 Y101.748 E7.56477
G1 X101.723 Y101.748 E7.58888
G1 X106.757 Y96.714 E7.78662
G1 X106.757 Y95.846 E7.81072
G1 X100.856 Y101.748 E8.04256
G1 X99.988 Y101.748 E8.06666
G1 X102.843 Y98.893 E8.17882
G1 X101.975 Y98.893 E8.20292
G1 X99.120 Y101.748 E8.31508
G1 X98.252 Y101.748 E8.33918
G1 X101.107 Y98.893 E8.45134
G1 X100.240 Y98.893 E8.47545
G1 X97.385 Y101.748 E8.58760
G1 X96.677 Y101.748 E8.60727
G1 X96.677 Y102.456 E8.62694
G1 X93.243 Y105.889 E8.76182
G1 X93.243 Y105.022 E8.78593
G1 X99.372 Y98.893 E9.02669
G1 X98.504 Y98.893 E9.05080
G1 X93.243 Y104.154 E9.25748
G1 X93.243 Y103.286 E9.28158
G1 X97.636 Y98.893 E9.45417
G1 X97.058 Y98.893 E9.47023
G1 X97.058 Y98.603 E9.47827
G1 X93.243 Y102.418 E9.62816
G1 X93.243 Y101.551 E9.65226
G1 X97.058 Y97.735 E9.80215
G1 X97.058 Y96.867 E9.82625
G1 X93.243 Y100.683 E9.97614
G1 X93.243 Y99.815 E10.00024
G1 X97.058 Y96.000 E10.15013
G1 X97.058 Y95.132 E10.17423
G1 X93.243 Y98.947 E10.32412
G1 X93.243 Y98.080 E10.34822
G1 X97.058 Y94.264 E10.49810
G1 X97.058 Y93.396 E10.52221
G1 X93.243 Y97.212 E10.67209
G1 X93.243 Y96.344 E10.69620
G1 X97.058 Y92.529 E10.84608
G1 X97.058 Y92.455 E10.84814
G1 X96.265 Y92.455 E10.87019
G1 X93.243 Y95.476 E10.98889
G1 X93.243 Y94.609 E11.01300
G1 X95.397 Y92.455 E11.09761
G1 X94.529 Y92.455 E11.12172
G1 X93.243 Y93.741 E11.17225
G1 X93.243 Y92.873 E11.19635
G1 X93.661 Y92.455 E11.21279
G1 X97.058 Y102.074 F7800.000
G1 F3035.27
G1 X97.058 Y102.942 E11.23690
G1 X93.243 Y106.757 E11.38678
G1 X93.243 Y107.545 E11.40868
G1 X93.322 Y107.545 E11.41089
G1 X97.058 Y103.809 E11.55766
G1 X97.058 Y104.677 E11.58176
G1 X94.190 Y107.545 E11.69444
G1 X95.058 Y107.545 E11.71855
G1 X97.058 Y105.545 E11.79714
G1 X97.058 Y106.413 E11.82124
G1 X95.926 Y107.545 E11.86575
G1 E9.86575 F2400.00000
G92 E0
G1 X102.942 Y98.794 F7800.000
G1 E2.00000 F2400.00000
G1 F3035.27
G1 X106.757 Y94.978 E2.14989
G1 X106.757 Y94.111 E2.17399
G1 X102.942 Y97.926 E2.32387
G1 X102.942 Y97.058 E2.34798
G1 X106.757 Y93.243 E2.49786
G1 X106.757 Y92.455 E2.51976
G1 X106.678 Y92.455 E2.52197
G1 X102.942 Y96.191 E2.66874
G1 X102.942 Y95.323 E2.69284
G1 X105.810 Y92.455 E2.80552
G1 X104.942 Y92.455 E2.82963
G1 X102.942 Y94.455 E2.90822
G1 X102.942 Y93.587 E2.93233
G1 X104.074 Y92.455 E2.97683
M106 S255
G1 Z1.600 F7800.000
G1 X106.757 Y92.873 F7800.000
G1 F3042.79
G1 X106.339 Y92.455 E2.99327
G1 X105.471 Y92.455 E3.01738
G1 X106.757 Y93.741 E3.06790
G1 X106.757 Y94.609 E3.09201
G1 X104.603 Y92.455 E3.17663
G1 X103.735 Y92.455 E3.20073
G1 X106.757 Y95.476 E3.31944
G1 X106.757 Y96.344 E3.34354
G1 X102.942 Y92.529 E3.49343
G1 X102.942 Y93.396 E3.51753
G1 X106.757 Y97.212 E3.66742
G1 X106.757 Y98.080 E3.69152
G1 X102.942 Y94.264 E3.84140
G1 X102.942 Y95.132 E3.86551
G1 X106.757 Y98.947 E4.01539
G1 X106.757 Y99.815 E4.03950
G1 X102.942 Y96.000 E4.18938
G1 X102.942 Y96.867 E4.21349
G1 X106.757 Y100.683 E4.36337
G1 X106.757 Y101.551 E4.38748
G1 X102.942 Y97.735 E4.53736
G1 X102.942 Y98.603 E4.56147
G1 X106.757 Y102.418 E4.71135
G1 X106.757 Y103.286 E4.73545
G1 X102.364 Y98.893 E4.90804
G1 X101.496 Y98.893 E4.93215
G1 X106.757 Y104.154 E5.13883
G1 X106.757 Y105.022 E5.16293
G1 X100.628 Y98.893 E5.40370
G1 X99.760 Y98.893 E5.42780
G1 X102.615 Y101.748 E5.53996
G1 X101.748 Y101.748 E5.56407
G1 X98.893 Y98.893 E5.67622
G1 X98.025 Y98.893 E5.70033
G1 X100.880 Y101.748 E5.81249
G1 X100.012 Y101.748 E5.83659
G1 X97.157 Y98.893 E5.94875
G1 E3.94875 F2400.00000
G92 E0
G1 X97.058 Y93.587 F7800.000
G1 E2.00000 F2400.00000
G1 F3042.79
G1 X95.926 Y92.455 E2.04450
G1 X95.058 Y92.455 E2.06861
G1 X97.058 Y94.455 E2.14720
G1 X97.058 Y95.323 E2.17131
G1 X94.190 Y92.455 E2.28399
G1 X93.322 Y92.455 E2.30809
G1 X97.058 Y96.191 E2.45486
G1 X97.058 Y97.058 E2.47897
G1 X93.243 Y93.243 E2.62885
G1 X93.243 Y94.111 E2.65296
G1 X97.058 Y97.926 E2.80284
G1 X97.058 Y98.794 E2.82694
G1 X93.243 Y94.978 E2.97683
G1 X93.243 Y95.846 E3.00093
G1 X99.144 Y101.748 E3.23276
G1 X98.277 Y101.748 E3.25687
G1 X93.243 Y96.714 E3.45461
G1 X93.243 Y97.582 E3.47871
G1 X97.409 Y101.748 E3.64237
G1 X97.058 Y101.748 E3.65210
G1 X97.058 Y102.265 E3.66647
G1 X93.243 Y98.449 E3.81636
G1 X93.243 Y99.317 E3.84046
G1 X97.058 Y103.133 E3.99035
G1 X97.058 Y104.000 E4.01445
G1 X93.243 Y100.185 E4.16434
G1 X93.243 Y101.053 E4.18844
G1 X97.058 Y104.868 E4.33832
G1 X97.058 Y105.736 E4.36243
G1 X93.243 Y101.920 E4.51231
G1 X93.243 Y102.788 E4.53642
G1 X97.058 Y106.604 E4.68630
G1 X97.058 Y107.471 E4.71041
G1 X93.243 Y103.656 E4.86029
G1 X93.243 Y104.524 E4.88440
G1 X96.265 Y107.545 E5.00310
G1 X95.397 Y107.545 E5.02721
G1 X93.243 Y105.391 E5.11182
G1 X93.243 Y106.259 E5.13593
G1 X94.529 Y107.545 E5.18646
G1 X93.661 Y107.545 E5.21056
G1 X93.243 Y107.127 E5.22700
G1 E3.22700 F2400.00000
G92 E0
G1 X103.323 Y106.794 F7800.000
G1 E2.00000 F2400.00000
G1 F3042.79
G1 X103.323 Y107.545 E2.02086
G1 X104.074 Y107.545 E2.04173
G1 X102.942 Y106.413 E2.08623
G1 X102.942 Y105.545 E2.11034
G1 X104.942 Y107.545 E2.18893
G1 X105.810 Y107.545 E2.21303
G1 X102.942 Y104.677 E2.32572
G1 X102.942 Y103.809 E2.34982
G1 X106.678 Y107.545 E2.49659
G1 X106.757 Y107.545 E2.49879
G1 X106.757 Y106.757 E2.52069
G1 X102.942 Y102.942 E2.67058
G1 X102.942 Y102.074 E2.69468
G1 X106.757 Y105.889 E2.84457
G1 Z2.000 F7800.000
G1 X106.339 Y107.545 F7800.000
G1 F3035.27
G1 X106.757 Y107.127 E2.86101
G1 X106.757 Y106.259 E2.88511
G1 X105.471 Y107.545 E2.93564
G1 X104.603 Y107.545 E2.95975
G1 X106.757 Y105.391 E3.04437
G1 X106.757 Y104.524 E3.06847
G1 X103.735 Y107.545 E3.18718
G1 X102.942 Y107.545 E3.20922
G1 X102.942 Y107.471 E3.21128
G1 X106.757 Y103.656 E3.36116
G1 X106.757 Y102.788 E3.38527
G1 X102.942 Y106.604 E3.53515
G1 X102.942 Y105.736 E3.55926
G1 X106.757 Y101.920 E3.70914
G1 X106.757 Y101.053 E3.73325
G1 X102.942 Y104.868 E3.88313
G1 X102.942 Y104.000 E3.90724
G1 X106.757 Y100.185 E4.05712
G1 X106.757 Y99.317 E4.08122
G1 X102.942 Y103.133 E4.23111
G1 X102.942 Y102.265 E4.25521
G1 X106.757 Y98.449 E4.40510
G1 X106.757 Y97.582 E4.42920
G1 X102.591 Y101.748 E4.59286
G1 X101.723 Y101.748 E4.61696
G1 X106.757 Y96.714 E4.81470
G1 X106.757 Y95.846 E4.83881
G1 X100.856 Y101.748 E5.07064
G1 X99.988 Y101.748 E5.09474
G1 X102.843 Y98.893 E5.20690
G1 X101.975 Y98.893 E5.23100
G1 X99.120 Y101.748 E5.34316
G1 X98.252 Y101.748 E5.36727
G1 X101.107 Y98.893 E5.47942
G1 X100.240 Y98.893 E5.50353
G1 X97.385 Y101.748 E5.61569
G1 X96.677 Y101.748 E5.63535
G1 X96.677 Y102.456 E5.65502
G1 X93.243 Y105.889 E5.78990
G1 X93.243 Y105.022 E5.81401
G1 X99.372 Y98.893 E6.05477
G1 X98.504 Y98.893 E6.07888
G1 X93.243 Y104.154 E6.28556
G1 X93.243 Y103.286 E6.30966
G1 X97.636 Y98.893 E6.48225
G1 X97.058 Y98.893 E6.49831
G1 X97.058 Y98.603 E6.50636
G1 X93.243 Y102.418 E6.65624
G1 X93.243 Y101.551 E6.68035
G1 X97.058 Y97.735 E6.83023
G1 X97.058 Y96.867 E6.85434
G1 X93.243 Y100.683 E7.00422
G1 X93.243 Y99.815 E7.02832
G1 X97.058 Y96.000 E7.17821
G1 X97.058 Y95.132 E7.20231
G1 X93.243 Y98.947 E7.35220
G1 X93.243 Y98.080 E7.37630
G1 X97.058 Y94.264 E7.52619
G1 X97.058 Y93.396 E7.55029
G1 X93.243 Y97.212 E7.70018
G1 X93.243 Y96.344 E7.72428
G1 X97.058 Y92.529 E7.87416
G1 X97.058 Y92.455 E7.87622
G1 X96.265 Y92.455 E7.89827
G1 X93.243 Y95.476 E8.01698
G1 X93.243 Y94.609 E8.04108
G1 X95.397 Y92.455 E8.12570
G1 X94.529 Y92.455 E8.14980
G1 X93.243 Y93.741 E8.20033
G1 X93.243 Y92.873 E8.22443
G1 X93.661 Y92.455 E8.24088
G1 E6.24088 F2400.00000
G92 E0
G1 X97.058 Y102.074 F7800.000
G1 E2.00000 F2400.00000
G1 F3035.27
G1 X97.058 Y102.942 E2.02410
G1 X93.243 Y106.757 E2.17399
G1 X93.243 Y107.545 E2.19589
G1 X93.322 Y107.545 E2.19809
G1 X97.058 Y103.809 E2.34486
G1 X97.058 Y104.677 E2.36897
G1 X94.190 Y107.545 E2.48165
G1 X95.058 Y107.545 E2.50575
G1 X97.058 Y105.545 E2.58435
G1 X97.058 Y106.413 E2.60845
G1 X95.926 Y107.545 E2.65296
G1 E0.65296 F2400.00000
G92 E0
G1 X102.942 Y98.794 F7800.000
G1 E2.00000 F2400.00000
G1 F3035.27
G1 X106.757 Y94.978 E2.14989
G1 X106.757 Y94.111 E2.17399
G1 X102.942 Y97.926 E2.32387
G1 X102.942 Y97.058 E2.34798
G1 X106.757 Y93.243 E2.49786
G1 X106.757 Y92.455 E2.51976
G1 X106.678 Y92.455 E2.52197
G1 X102.942 Y96.191 E2.66874
G1 X102.942 Y95.323 E2.69284
G1 X105.810 Y92.455 E2.80552
G1 X104.942 Y92.455 E2.82963
G1 X102.942 Y94.455 E2.90822
G1 X102.942 Y93.587 E2.93233
G1 X104.074 Y92.455 E2.97683
G1 E0.97683 F2400.00000
G92 E0
M107
; Filament-specific end gcode 
;END gcode for filament

M104 S0 ; turn off temperature
G28 X0  ; home X axis
M84     ; disable motors

M140 S0 ; set bed temperature
; filament used = 38.6mm (0.3cm3)
; total filament cost = 0.0

; avoid_crossing_perimeters = 0
; bed_shape = 0x0,200x0,200x200,0x200
; bed_temperature = 0
; before_layer_gcode = 
; between_objects_gcode = 
; bridge_acceleration = 0
; bridge_fan_speed = 100
; brim_connections_width = 0
; brim_width = 0
; complete_objects = 0
; cooling = 1
; default_acceleration = 0
; disable_fan_first_layers = 3
; duplicate_distance = 6
; end_filament_gcode = "; Filament-specific end gcode \n;END gcode for filament\n"
; end_gcode = M104 S0 ; turn off temperature\nG28 X0  ; home X axis\nM84     ; disable motors\n
; extruder_clearance_height = 20
; extruder_clearance_radius = 20
; extruder_offset = 0x0
; extrusion_axis = E
; extrusion_multiplier = 1
; fan_always_on = 0
; fan_below_layer_time = 60
; filament_colour = #FFFFFF
; filament_cost = 0
; filament_density = 0
; filament_diameter = 3
; filament_max_volumetric_speed = 0
; filament_notes = ""
; first_layer_acceleration = 0
; first_layer_bed_temperature = 0
; first_layer_extrusion_width = 200%
; first_layer_speed = 30
; first_layer_temperature = 205
; gcode_arcs = 0
; gcode_comments = 0
; gcode_flavor = reprap
; has_heatbed = 1
; infill_acceleration = 0
; infill_first = 0
; interior_brim_width = 0
; layer_gcode = 
; max_fan_speed = 100
; max_layer_height = 0.3
; max_print_speed = 80
; max_volumetric_speed = 0
; min_fan_speed = 35
; min_layer_height = 0.15
; min_print_speed = 10
; min_skirt_length = 0
; notes = 
; nozzle_diameter = 0.5
; only_retract_when_crossing_perimeters = 1
; ooze_prevention = 0
; output_filename_format = [input_filename_base].gcode
; perimeter_acceleration = 0
; post_process = 
; pressure_advance = 0
; printer_notes = 
; resolution = 0
; retract_before_travel = 2
; retract_layer_change = 0
; retract_length = 2
; retract_length_toolchange = 10
; retract_lift = 0
; retract_lift_above = 0
; retract_lift_below = 0
; retract_restart_extra = 0
; retract_restart_extra_toolchange = 0
; retract_speed = 40
; skirt_distance = 6
; skirt_height = 1
; skirts = 0
; slowdown_below_layer_time = 5
; spiral_vase = 0
; standby_temperature_delta = -5
; start_filament_gcode = "; Filament gcode\n"
; start_gcode = G28 ; home all axes\nG1 Z5 F5000 ; lift nozzle\n
; temperature = 200
; threads = 8
; toolchange_gcode = 
; travel_speed = 130
; use_firmware_retraction = 0
; use_relative_e_distances = 0
; use_set_and_wait_bed = 0
; use_set_and_wait_extruder = 0
; use_volumetric_e = 0
; vibration_limit = 0
; wipe = 0
; z_offset = 0
; z_steps_per_mm = 0
; adaptive_slicing = 0
; adaptive_slicing_quality = 75%
; dont_support_bridges = 1
; extrusion_width = 0
; first_layer_height = 0.4
; infill_only_where_needed = 0
; interface_shells = 0
; layer_height = 0.4
; match_horizontal_surfaces = 0
; raft_layers = 0
; regions_overlap = 0
; seam_position = aligned
; sequential_print_priority = 0
; support_material = 0
; support_material_angle = 0
; support_material_buildplate_only = 0
; support_material_contact_distance = 0.2
; support_material_enforce_layers = 0
; support_material_extruder = 1
; support_material_extrusion_width = 0
; support_material_interface_extruder = 1
; support_material_interface_extrusion_width = 0
; support_material_interface_layers = 3
; support_material_interface_spacing = 0
; support_material_interface_speed = 100%
; support_material_max_layers = 0
; support_material_pattern = pillars
; support_material_spacing = 2.5
; support_material_speed = 60
; support_material_threshold = 60%
; xy_size_compensation = 0
; bottom_infill_pattern = rectilinear
; bottom_solid_layers = 0
; bridge_flow_ratio = 1
; bridge_speed = 60
; external_perimeter_extrusion_width = 0
; external_perimeter_speed = 50%
; external_perimeters_first = 0
; extra_perimeters = 1
; fill_angle = 45
; fill_density = 80%
; fill_gaps = 1
; fill_pattern = rectilinear
; gap_fill_speed = 20
; infill_every_layers = 1
; infill_extruder = 1
; infill_extrusion_width = 0
; infill_overlap = 55%
; infill_speed = 80
; overhangs = 1
; perimeter_extruder = 1
; perimeter_extrusion_width = 0
; perimeter_speed = 60
; perimeters = 0
; small_perimeter_speed = 15
; solid_infill_below_area = 70
; solid_infill_every_layers = 0
; solid_infill_extruder = 1
; solid_infill_extrusion_width = 0
; solid_infill_speed = 20
; thin_walls = 1
; top_infill_extrusion_width = 0
; top_infill_pattern = rectilinear
; top_solid_infill_speed = 15
; top_solid_layers = 0
