; generated by Slic3r 1.3.0 on 2020-10-26 at 14:09:47

; external perimeters extrusion width = 0.55mm (5.57mm^3/s)
; perimeters extrusion width = 0.58mm (11.78mm^3/s)
; infill extrusion width = 0.58mm (15.71mm^3/s)
; solid infill extrusion width = 0.58mm (3.93mm^3/s)
; top infill extrusion width = 0.58mm (2.95mm^3/s)

M107
M104 S205 ; set temperature
G28 ; home all axes
G1 Z5 F5000 ; lift nozzle

; Filament gcode

M109 S205 ; set temperature and wait for it to be reached
G21 ; set units to millimeters
G90 ; use absolute coordinates
M82 ; use absolute distances for extrusion
G92 E0
G1 Z0.400 F7800.000
G1 E-2.00000 F2400.00000
G92 E0
G1 X93.636 Y92.480 F7800.000
G1 E2.00000 F2400.00000
G1 F1800
G1 X93.511 Y92.480 E2.00506
G1 X93.511 Y92.605 E2.01012
G1 X94.105 Y92.011 E2.04406
G1 X95.262 Y92.011 E2.09081
G1 X93.511 Y93.762 E2.19088
G1 X93.511 Y94.919 E2.23764
G1 X96.419 Y92.011 E2.40383
G1 X97.564 Y92.011 E2.45009
G1 X93.511 Y96.076 E2.68206
G1 X93.511 Y97.233 E2.72882
G1 X97.564 Y93.180 E2.96043
G1 X97.564 Y94.337 E3.00719
G1 X93.511 Y98.390 E3.23881
G1 X93.511 Y99.547 E3.28557
G1 X97.564 Y95.494 E3.51718
G1 X97.564 Y96.651 E3.56394
G1 X93.511 Y100.704 E3.79556
G1 X93.511 Y101.861 E3.84232
G1 X97.807 Y97.565 E4.08785
G1 X98.964 Y97.565 E4.13460
G1 X93.511 Y103.018 E4.44626
G1 X93.511 Y104.175 E4.49301
G1 X97.564 Y100.122 E4.72463
G1 X97.564 Y101.279 E4.77139
G1 X93.511 Y105.332 E5.00301
G1 X93.511 Y106.489 E5.04977
G1 X97.564 Y102.436 E5.28138
G1 X97.564 Y103.593 E5.32814
G1 X93.511 Y107.646 E5.55976
G1 X93.511 Y107.989 E5.57362
G1 X94.325 Y107.989 E5.60652
G1 X97.564 Y104.750 E5.79161
G1 X97.564 Y105.016 E5.80234
G1 X98.455 Y105.016 E5.83837
G1 X95.482 Y107.989 E6.00829
G1 X96.639 Y107.989 E6.05505
G1 X99.612 Y105.016 E6.22497
G1 X100.339 Y105.008 E6.25434
G1 X100.840 Y104.945 E6.27474
G1 X97.796 Y107.989 E6.44869
G1 X98.953 Y107.989 E6.49545
G1 X106.217 Y100.725 E6.91062
G1 X106.341 Y101.157 E6.92878
G1 X106.431 Y101.667 E6.94975
G1 X100.113 Y107.986 E7.31089
G1 X100.690 Y107.971 E7.33422
G1 X101.352 Y107.904 E7.36111
G1 X106.483 Y102.773 E7.65438
G1 X106.434 Y103.418 E7.68051
G1 X106.290 Y104.123 E7.70959
G1 X102.819 Y107.594 E7.90800
G1 E5.90800 F2400.00000
G92 E0
G1 X102.277 Y103.508 F7800.000
G1 E2.00000 F2400.00000
G1 F1800
G1 X105.858 Y99.927 E2.20466
G1 X105.633 Y99.574 E2.22159
G1 X105.371 Y99.257 E2.23819
G1 X102.250 Y102.378 E2.41657
G1 X102.129 Y101.964 E2.43399
G1 X102.039 Y101.766 E2.44281
G1 X101.914 Y101.557 E2.45263
G1 X104.765 Y98.706 E2.61559
G1 X104.520 Y98.535 E2.62767
G1 X104.124 Y98.305 E2.64617
G1 X104.046 Y98.268 E2.64967
G1 X101.329 Y100.985 E2.80496
G1 X100.945 Y100.779 E2.82255
G1 X100.516 Y100.641 E2.84076
G1 X103.219 Y97.938 E2.99522
G1 X102.821 Y97.821 E3.01198
G1 X102.287 Y97.713 E3.03401
G1 X99.462 Y100.538 E3.19545
G1 X98.305 Y100.538 E3.24221
G1 X101.252 Y97.591 E3.41065
G1 X100.121 Y97.565 E3.45637
G1 X97.148 Y100.538 E3.62629
G1 X97.095 Y100.538 E3.62843
G1 X97.095 Y100.591 E3.63057
M104 S200 ; set temperature
G1 Z0.800 F7800.000
G1 X97.608 Y97.608 F7800.000
G1 F2149.62
G1 X100.523 Y100.523 E3.74506
G1 E1.74506 F2400.00000
G92 E0
G1 X98.117 Y105.059 F7800.000
G1 E2.00000 F2400.00000
G1 F2149.62
G1 X100.991 Y107.933 E2.11288
G1 X101.654 Y107.883 E2.13136
G1 X102.039 Y107.824 E2.14217
G1 X99.274 Y105.059 E2.25077
G1 X99.871 Y105.053 E2.26734
G1 X100.370 Y104.998 E2.28129
G1 X102.992 Y107.620 E2.38432
G1 X103.277 Y107.544 E2.39251
G1 X103.843 Y107.314 E2.40948
G1 X101.236 Y104.707 E2.51189
G1 X101.565 Y104.477 E2.52302
G1 X101.862 Y104.176 E2.53479
G1 X104.586 Y106.900 E2.64181
G1 X104.716 Y106.810 E2.64621
G1 X105.215 Y106.372 E2.66464
G1 X102.252 Y103.409 E2.78103
G1 X102.305 Y103.184 E2.78746
G1 X102.349 Y102.832 E2.79729
G1 X102.348 Y102.348 E2.81075
G1 X105.727 Y105.727 E2.94350
G1 X105.862 Y105.511 E2.95056
G1 X106.044 Y105.138 E2.96209
G1 X106.112 Y104.955 E2.96752
G1 X98.765 Y97.608 E3.25613
G1 X99.922 Y97.608 E3.28827
G1 X106.356 Y104.042 E3.54100
G1 X106.390 Y103.845 E3.54654
G1 X106.441 Y103.228 E3.56373
G1 X106.439 Y102.968 E3.57095
G1 X101.139 Y97.668 E3.77919
G1 X101.626 Y97.716 E3.79279
G1 X102.531 Y97.903 E3.81847
G1 X106.318 Y101.690 E3.96725
G1 E1.96725 F2400.00000
G92 E0
G1 X97.520 Y92.892 F7800.000
G1 E2.00000 F2400.00000
G1 F2149.62
G1 X96.683 Y92.055 E2.03291
G1 X95.526 Y92.055 E2.06505
G1 X97.520 Y94.049 E2.14341
G1 X97.520 Y95.206 E2.17555
G1 X94.369 Y92.055 E2.29936
G1 X93.555 Y92.055 E2.32197
G1 X93.555 Y92.398 E2.33150
G1 X97.520 Y96.363 E2.48729
G1 X97.520 Y97.520 E2.51943
G1 X93.555 Y93.555 E2.67522
G1 X93.555 Y94.712 E2.70736
G1 X99.338 Y100.495 E2.93454
G1 X98.181 Y100.495 E2.96668
G1 X93.555 Y95.869 E3.14841
G1 X93.555 Y97.026 E3.18055
G1 X97.520 Y100.991 E3.33634
G1 X97.520 Y102.148 E3.36848
G1 X93.555 Y98.183 E3.52427
G1 X93.555 Y99.340 E3.55641
G1 X97.520 Y103.305 E3.71220
G1 X97.520 Y104.462 E3.74434
G1 X93.555 Y100.497 E3.90013
G1 X93.555 Y101.654 E3.93227
G1 X99.846 Y107.945 E4.17944
G1 X98.689 Y107.945 E4.21158
G1 X93.555 Y102.811 E4.41330
G1 X93.555 Y103.968 E4.44544
G1 X97.532 Y107.945 E4.60171
G1 X96.376 Y107.945 E4.63384
G1 X93.555 Y105.124 E4.74466
G1 X93.555 Y106.281 E4.77680
G1 X95.219 Y107.945 E4.84217
G1 X94.062 Y107.945 E4.87431
G1 X93.555 Y107.438 E4.89422
G1 Z1.200 F7800.000
G1 X97.138 Y100.548 F7800.000
G1 F2193.82
G1 X97.138 Y100.495 E4.89569
G1 X97.191 Y100.495 E4.89716
G1 X100.068 Y97.618 E5.01016
G1 X101.206 Y97.637 E5.04178
G1 X98.348 Y100.495 E5.15404
G1 X99.505 Y100.495 E5.18618
G1 X102.245 Y97.755 E5.29379
G1 X102.854 Y97.884 E5.31109
G1 X103.176 Y97.981 E5.32044
G1 X100.561 Y100.596 E5.42319
G1 X100.952 Y100.720 E5.43459
G1 X101.373 Y100.941 E5.44779
G1 X104.002 Y98.312 E5.55108
G1 X104.118 Y98.367 E5.55465
G1 X104.563 Y98.635 E5.56908
G1 X104.721 Y98.750 E5.57451
G1 X101.957 Y101.514 E5.68307
G1 X102.159 Y101.886 E5.69482
G1 X102.295 Y102.333 E5.70781
G1 X105.324 Y99.304 E5.82680
G1 X105.605 Y99.639 E5.83895
G1 X105.811 Y99.974 E5.84987
G1 X102.320 Y103.465 E5.98701
G1 X102.857 Y107.556 F7800.000
G1 F2193.82
G1 X106.238 Y104.175 E6.11985
G1 X106.322 Y103.864 E6.12878
G1 X106.390 Y103.466 E6.14002
G1 X106.442 Y102.814 E6.15817
G1 X101.385 Y107.871 E6.35682
G1 X100.957 Y107.913 E6.36876
G1 X100.157 Y107.942 E6.39101
G1 X106.383 Y101.716 E6.63561
G1 X106.310 Y101.256 E6.64853
G1 X106.171 Y100.771 E6.66255
G1 X98.997 Y107.945 E6.94440
G1 X97.840 Y107.945 E6.97653
G1 X100.795 Y104.990 E7.09265
G1 X100.208 Y105.056 E7.10906
G1 X99.569 Y105.059 E7.12682
G1 X96.683 Y107.945 E7.24020
G1 X95.526 Y107.945 E7.27234
G1 X98.412 Y105.059 E7.38572
G1 X97.520 Y105.059 E7.41049
G1 X97.520 Y104.794 E7.41786
G1 X94.369 Y107.945 E7.54168
G1 X93.555 Y107.945 E7.56429
G1 X93.555 Y107.602 E7.57381
G1 X97.520 Y103.637 E7.72960
G1 X97.520 Y102.480 E7.76174
G1 X93.555 Y106.445 E7.91753
G1 X93.555 Y105.288 E7.94967
G1 X97.520 Y101.323 E8.10546
G1 X97.520 Y100.166 E8.13760
G1 X93.555 Y104.131 E8.29339
G1 X93.555 Y102.974 E8.32553
G1 X98.916 Y97.613 E8.53614
G1 X97.764 Y97.608 E8.56814
G1 X93.555 Y101.817 E8.73349
G1 X93.555 Y100.660 E8.76563
G1 X97.520 Y96.695 E8.92142
G1 X97.520 Y95.538 E8.95356
G1 X93.555 Y99.503 E9.10935
G1 X93.555 Y98.346 E9.14149
G1 X97.520 Y94.381 E9.29728
G1 X97.520 Y93.224 E9.32942
G1 X93.555 Y97.189 E9.48521
G1 X93.555 Y96.032 E9.51735
G1 X97.520 Y92.055 E9.67338
G1 X96.376 Y92.055 E9.70518
G1 X93.555 Y94.876 E9.81600
G1 X93.555 Y93.719 E9.84813
G1 X95.219 Y92.055 E9.91350
G1 X94.062 Y92.055 E9.94564
G1 X93.555 Y92.562 E9.96556
G1 X93.555 Y92.436 E9.96903
G1 X93.680 Y92.436 E9.97251
M106 S255
G1 Z1.600 F7800.000
G1 X97.520 Y92.892 F7800.000
G1 F2149.62
G1 X96.683 Y92.055 E10.00542
G1 X95.526 Y92.055 E10.03756
G1 X97.520 Y94.049 E10.11592
G1 X97.520 Y95.206 E10.14806
G1 X94.369 Y92.055 E10.27187
G1 X93.555 Y92.055 E10.29449
G1 X93.555 Y92.398 E10.30401
G1 X97.520 Y96.363 E10.45980
G1 X97.520 Y97.520 E10.49194
G1 X93.555 Y93.555 E10.64773
G1 X93.555 Y94.712 E10.67987
G1 X99.338 Y100.495 E10.90705
G1 X98.181 Y100.495 E10.93919
G1 X93.555 Y95.869 E11.12092
G1 X93.555 Y97.026 E11.15306
G1 X97.520 Y100.991 E11.30885
G1 X97.520 Y102.148 E11.34099
G1 X93.555 Y98.183 E11.49678
G1 X93.555 Y99.340 E11.52892
G1 X97.520 Y103.305 E11.68471
G1 X97.520 Y104.462 E11.71685
G1 X93.555 Y100.497 E11.87264
G1 X93.555 Y101.654 E11.90478
G1 X99.846 Y107.945 E12.15195
G1 X98.689 Y107.945 E12.18409
G1 X93.555 Y102.811 E12.38581
G1 X93.555 Y103.968 E12.41795
G1 X97.532 Y107.945 E12.57422
G1 X96.376 Y107.945 E12.60635
G1 X93.555 Y105.124 E12.71717
G1 X93.555 Y106.281 E12.74931
G1 X95.219 Y107.945 E12.81468
G1 X94.062 Y107.945 E12.84682
G1 X93.555 Y107.438 E12.86673
G1 X98.117 Y105.059 F7800.000
G1 F2149.62
G1 X100.991 Y107.933 E12.97962
G1 X101.654 Y107.883 E12.99809
G1 X102.039 Y107.824 E13.00891
G1 X99.274 Y105.059 E13.11750
G1 X99.871 Y105.053 E13.13407
G1 X100.370 Y104.998 E13.14802
G1 X102.992 Y107.620 E13.25105
G1 X103.277 Y107.544 E13.25925
G1 X103.843 Y107.314 E13.27621
G1 X101.236 Y104.707 E13.37863
G1 X101.565 Y104.477 E13.38976
G1 X101.862 Y104.176 E13.40152
G1 X104.586 Y106.900 E13.50854
G1 X104.716 Y106.810 E13.51294
G1 X105.215 Y106.372 E13.53138
G1 X102.252 Y103.409 E13.64777
G1 X102.305 Y103.184 E13.65420
G1 X102.349 Y102.832 E13.66403
G1 X102.348 Y102.348 E13.67749
G1 X105.727 Y105.727 E13.81023
G1 X105.862 Y105.511 E13.81729
G1 X106.044 Y105.138 E13.82883
G1 X106.112 Y104.955 E13.83426
G1 X98.765 Y97.608 E14.12286
G1 X99.922 Y97.608 E14.15500
G1 X106.356 Y104.042 E14.40773
G1 X106.390 Y103.845 E14.41328
G1 X106.441 Y103.228 E14.43046
G1 X106.439 Y102.968 E14.43769
G1 X101.139 Y97.668 E14.64592
G1 X101.626 Y97.716 E14.65953
G1 X102.531 Y97.903 E14.68521
G1 X106.318 Y101.690 E14.83399
G1 X100.523 Y100.523 F7800.000
G1 F2149.62
G1 X97.608 Y97.608 E14.94848
G1 Z2.000 F7800.000
G1 E12.94848 F2400.00000
G92 E0
G1 X97.138 Y100.548 F7800.000
G1 E2.00000 F2400.00000
G1 F2194.24
G1 X97.138 Y100.495 E2.00147
G1 X97.191 Y100.495 E2.00294
G1 X100.078 Y97.608 E2.11632
G1 X101.209 Y97.634 E2.14775
G1 X98.348 Y100.495 E2.26012
G1 X99.505 Y100.495 E2.29225
G1 X102.243 Y97.757 E2.39981
G1 X102.778 Y97.865 E2.41495
G1 X103.175 Y97.982 E2.42647
G1 X100.560 Y100.597 E2.52922
G1 X100.992 Y100.737 E2.54183
G1 X101.372 Y100.942 E2.55384
G1 X104.002 Y98.312 E2.65716
G1 X104.081 Y98.348 E2.65957
G1 X104.476 Y98.579 E2.67228
G1 X104.722 Y98.749 E2.68059
G1 X101.957 Y101.514 E2.78918
G1 X102.082 Y101.722 E2.79593
G1 X102.173 Y101.921 E2.80199
G1 X102.293 Y102.335 E2.81397
G1 X105.327 Y99.301 E2.93316
G1 X105.589 Y99.617 E2.94458
G1 X105.815 Y99.970 E2.95621
G1 X102.320 Y103.465 E3.09347
G1 E1.09347 F2400.00000
G92 E0
G1 X102.862 Y107.551 F7800.000
G1 E2.00000 F2400.00000
G1 F2194.24
G1 X106.247 Y104.166 E2.13296
G1 X106.391 Y103.461 E2.15295
G1 X106.440 Y102.816 E2.17091
G1 X101.395 Y107.861 E2.36908
G1 X100.733 Y107.927 E2.38756
G1 X100.156 Y107.943 E2.40360
G1 X106.388 Y101.711 E2.64841
G1 X106.297 Y101.200 E2.66283
G1 X106.174 Y100.768 E2.67531
G1 X98.997 Y107.945 E2.95726
G1 X97.840 Y107.945 E2.98940
G1 X100.796 Y104.989 E3.10556
G1 X100.295 Y105.051 E3.11958
G1 X99.569 Y105.059 E3.13976
G1 X96.683 Y107.945 E3.25315
G1 X95.526 Y107.945 E3.28529
G1 X98.412 Y105.059 E3.39867
G1 X97.520 Y105.059 E3.42343
G1 X97.520 Y104.794 E3.43081
G1 X94.369 Y107.945 E3.55462
G1 X93.555 Y107.945 E3.57723
G1 X93.555 Y107.602 E3.58676
G1 X97.520 Y103.637 E3.74255
G1 X97.520 Y102.480 E3.77469
G1 X93.555 Y106.445 E3.93048
G1 X93.555 Y105.288 E3.96262
G1 X97.520 Y101.323 E4.11841
G1 X97.520 Y100.166 E4.15055
G1 X93.555 Y104.131 E4.30634
G1 X93.555 Y102.974 E4.33848
G1 X98.921 Y97.608 E4.54928
G1 X97.764 Y97.608 E4.58142
G1 X93.555 Y101.817 E4.74677
G1 X93.555 Y100.660 E4.77891
G1 X97.520 Y96.695 E4.93470
G1 X97.520 Y95.538 E4.96684
G1 X93.555 Y99.503 E5.12263
G1 X93.555 Y98.346 E5.15476
G1 X97.520 Y94.381 E5.31055
G1 X97.520 Y93.224 E5.34269
G1 X93.555 Y97.189 E5.49848
G1 X93.555 Y96.032 E5.53062
G1 X97.520 Y92.055 E5.68665
G1 X96.376 Y92.055 E5.71845
G1 X93.555 Y94.876 E5.82927
G1 X93.555 Y93.719 E5.86141
G1 X95.219 Y92.055 E5.92678
G1 X94.062 Y92.055 E5.95891
G1 X93.555 Y92.562 E5.97883
G1 X93.555 Y92.436 E5.98231
G1 X93.680 Y92.436 E5.98579
G1 E3.98579 F2400.00000
G92 E0
M107
; Filament-specific end gcode 
;END gcode for filament

M104 S0 ; turn off temperature
G28 X0  ; home X axis
M84     ; disable motors

M140 S0 ; set bed temperature
; filament used = 27.6mm (0.2cm3)
; total filament cost = 0.0

; avoid_crossing_perimeters = 0
; bed_shape = 0x0,200x0,200x200,0x200
; bed_temperature = 0
; before_layer_gcode = 
; between_objects_gcode = 
; bridge_acceleration = 0
; bridge_fan_speed = 100
; brim_connections_width = 0
; brim_width = 0
; complete_objects = 0
; cooling = 1
; default_acceleration = 0
; disable_fan_first_layers = 3
; duplicate_distance = 6
; end_filament_gcode = "; Filament-specific end gcode \n;END gcode for filament\n"
; end_gcode = M104 S0 ; turn off temperature\nG28 X0  ; home X axis\nM84     ; disable motors\n
; extruder_clearance_height = 20
; extruder_clearance_radius = 20
; extruder_offset = 0x0
; extrusion_axis = E
; extrusion_multiplier = 1
; fan_always_on = 0
; fan_below_layer_time = 60
; filament_colour = #FFFFFF
; filament_cost = 0
; filament_density = 0
; filament_diameter = 3
; filament_max_volumetric_speed = 0
; filament_notes = ""
; first_layer_acceleration = 0
; first_layer_bed_temperature = 0
; first_layer_extrusion_width = 200%
; first_layer_speed = 30
; first_layer_temperature = 205
; gcode_arcs = 0
; gcode_comments = 0
; gcode_flavor = reprap
; has_heatbed = 1
; infill_acceleration = 0
; infill_first = 0
; interior_brim_width = 0
; layer_gcode = 
; max_fan_speed = 100
; max_layer_height = 0.3
; max_print_speed = 80
; max_volumetric_speed = 0
; min_fan_speed = 35
; min_layer_height = 0.15
; min_print_speed = 10
; min_skirt_length = 0
; notes = 
; nozzle_diameter = 0.5
; only_retract_when_crossing_perimeters = 1
; ooze_prevention = 0
; output_filename_format = [input_filename_base].gcode
; perimeter_acceleration = 0
; post_process = 
; pressure_advance = 0
; printer_notes = 
; resolution = 0
; retract_before_travel = 2
; retract_layer_change = 0
; retract_length = 2
; retract_length_toolchange = 10
; retract_lift = 0
; retract_lift_above = 0
; retract_lift_below = 0
; retract_restart_extra = 0
; retract_restart_extra_toolchange = 0
; retract_speed = 40
; skirt_distance = 6
; skirt_height = 1
; skirts = 0
; slowdown_below_layer_time = 5
; spiral_vase = 0
; standby_temperature_delta = -5
; start_filament_gcode = "; Filament gcode\n"
; start_gcode = G28 ; home all axes\nG1 Z5 F5000 ; lift nozzle\n
; temperature = 200
; threads = 8
; toolchange_gcode = 
; travel_speed = 130
; use_firmware_retraction = 0
; use_relative_e_distances = 0
; use_set_and_wait_bed = 0
; use_set_and_wait_extruder = 0
; use_volumetric_e = 0
; vibration_limit = 0
; wipe = 0
; z_offset = 0
; z_steps_per_mm = 0
; adaptive_slicing = 0
; adaptive_slicing_quality = 75%
; dont_support_bridges = 1
; extrusion_width = 0
; first_layer_height = 0.4
; infill_only_where_needed = 0
; interface_shells = 0
; layer_height = 0.4
; match_horizontal_surfaces = 0
; raft_layers = 0
; regions_overlap = 0
; seam_position = aligned
; sequential_print_priority = 0
; support_material = 0
; support_material_angle = 0
; support_material_buildplate_only = 0
; support_material_contact_distance = 0.2
; support_material_enforce_layers = 0
; support_material_extruder = 1
; support_material_extrusion_width = 0
; support_material_interface_extruder = 1
; support_material_interface_extrusion_width = 0
; support_material_interface_layers = 3
; support_material_interface_spacing = 0
; support_material_interface_speed = 100%
; support_material_max_layers = 0
; support_material_pattern = pillars
; support_material_spacing = 2.5
; support_material_speed = 60
; support_material_threshold = 60%
; xy_size_compensation = 0
; bottom_infill_pattern = rectilinear
; bottom_solid_layers = 0
; bridge_flow_ratio = 1
; bridge_speed = 60
; external_perimeter_extrusion_width = 0
; external_perimeter_speed = 50%
; external_perimeters_first = 0
; extra_perimeters = 1
; fill_angle = 45
; fill_density = 60%
; fill_gaps = 1
; fill_pattern = rectilinear
; gap_fill_speed = 20
; infill_every_layers = 1
; infill_extruder = 1
; infill_extrusion_width = 0
; infill_overlap = 55%
; infill_speed = 80
; overhangs = 1
; perimeter_extruder = 1
; perimeter_extrusion_width = 0
; perimeter_speed = 60
; perimeters = 0
; small_perimeter_speed = 15
; solid_infill_below_area = 70
; solid_infill_every_layers = 0
; solid_infill_extruder = 1
; solid_infill_extrusion_width = 0
; solid_infill_speed = 20
; thin_walls = 1
; top_infill_extrusion_width = 0
; top_infill_pattern = rectilinear
; top_solid_infill_speed = 15
; top_solid_layers = 0
