; generated by Slic3r 1.3.0 on 2020-10-21 at 16:46:25

; external perimeters extrusion width = 0.55mm (6.64mm^3/s)
; perimeters extrusion width = 0.52mm (12.53mm^3/s)
; infill extrusion width = 0.52mm (16.71mm^3/s)
; solid infill extrusion width = 0.52mm (4.18mm^3/s)
; top infill extrusion width = 0.52mm (3.13mm^3/s)

M107
M104 S205 ; set temperature
G28 ; home all axes
G1 Z5 F5000 ; lift nozzle

; Filament gcode

M109 S205 ; set temperature and wait for it to be reached
G21 ; set units to millimeters
G90 ; use absolute coordinates
M82 ; use absolute distances for extrusion
G92 E0
G1 Z0.500 F7800.000
G1 E-2.00000 F2400.00000
G92 E0
G1 X98.118 Y93.021 F7800.000
G1 E2.00000 F2400.00000
G1 F1800
G1 X97.841 Y93.119 E2.01860
G1 X97.163 Y93.438 E2.06587
G1 X96.483 Y93.853 E2.11617
G1 X95.949 Y94.265 E2.15876
G1 X95.412 Y94.773 E2.20546
G1 X95.076 Y95.153 E2.23748
G1 X94.679 Y95.690 E2.27968
G1 X94.295 Y96.351 E2.32791
G1 X94.009 Y96.993 E2.37230
G1 X93.942 Y97.197 E2.38588
G1 X98.628 Y92.511 E2.80433
G1 X99.076 Y92.353 E2.83432
G1 X99.985 Y92.139 E2.89332
G1 X93.593 Y98.531 E3.46415
G1 X93.491 Y99.339 E3.51561
G1 X93.479 Y99.629 E3.53393
G1 X101.112 Y91.997 E4.21554
G1 X101.546 Y91.964 E4.24302
G1 X102.134 Y91.959 E4.28014
G1 X93.468 Y100.624 E5.05395
G1 E3.05395 F2400.00000
G92 E0
G1 X97.698 Y97.380 F7800.000
G1 E2.00000 F2400.00000
G1 F1800
G1 X97.807 Y97.165 E2.01521
G1 X98.069 Y96.750 E2.04620
G1 X98.335 Y96.411 E2.07342
G1 X98.557 Y96.172 E2.09403
G1 X98.872 Y95.887 E2.12085
G1 X99.070 Y95.737 E2.13653
G1 X99.436 Y95.505 E2.16392
G1 X99.714 Y95.363 E2.18362
G1 X103.065 Y92.012 E2.48286
G1 X103.292 Y92.028 E2.49720
G1 X103.932 Y92.129 E2.53817
G1 X101.084 Y94.978 E2.79257
G1 X101.597 Y94.936 E2.82511
G1 X102.110 Y94.936 E2.85749
G1 X104.730 Y92.316 E3.09149
G1 X105.477 Y92.554 E3.14095
G1 X103.012 Y95.019 E3.36106
G1 X103.823 Y95.193 E3.41342
G1 X106.175 Y92.840 E3.62351
G1 X106.546 Y93.018 E3.64949
G1 X106.546 Y93.454 E3.67699
G1 X104.559 Y95.441 E3.85439
G1 X105.238 Y95.747 E3.90139
G1 X106.546 Y94.439 E4.01821
G1 X106.546 Y95.423 E4.08037
G1 X105.868 Y96.101 E4.14087
G1 E2.14087 F2400.00000
G92 E0
G1 X98.207 Y96.870 F7800.000
G1 E2.00000 F2400.00000
G1 F1800
G1 X93.538 Y101.539 E2.41696
G1 X93.586 Y101.938 E2.44231
G1 X93.682 Y102.380 E2.47088
G1 X97.741 Y98.320 E2.83343
G1 X97.661 Y98.896 E2.87015
G1 X97.627 Y99.420 E2.90327
G1 X93.891 Y103.155 E3.23687
G1 X94.000 Y103.492 E3.25919
G1 X94.166 Y103.865 E3.28499
G1 X97.645 Y100.386 E3.59565
G1 X97.698 Y100.893 E3.62779
G1 X97.759 Y101.256 E3.65106
G1 X94.501 Y104.515 E3.94205
G1 X94.663 Y104.795 E3.96251
G1 X94.893 Y105.107 E3.98698
G1 X97.966 Y102.034 E4.26142
G1 X98.114 Y102.419 E4.28750
G1 X98.261 Y102.724 E4.30883
G1 X95.340 Y105.645 E4.56966
G1 X95.629 Y105.957 E4.59654
G1 X95.835 Y106.135 E4.61368
G1 X98.639 Y103.330 E4.86409
G1 X98.888 Y103.640 E4.88921
G1 X99.097 Y103.857 E4.90820
G1 X96.380 Y106.573 E5.15075
G1 X96.786 Y106.855 E5.18194
G1 X96.979 Y106.959 E5.19578
G1 X99.637 Y104.301 E5.43314
G1 X99.984 Y104.517 E5.45896
G1 X100.267 Y104.656 E5.47884
G1 X97.630 Y107.293 E5.71431
G1 X98.338 Y107.569 E5.76230
G1 X100.998 Y104.909 E5.99988
G1 X101.344 Y104.984 E6.02219
G1 X101.844 Y105.048 E6.05404
G1 X99.109 Y107.783 E6.29831
G1 X99.940 Y107.936 E6.35168
G1 X102.822 Y105.054 E6.60904
G1 X103.453 Y104.990 E6.64910
G1 X103.963 Y104.897 E6.68185
G1 X100.841 Y108.020 E6.96069
G1 X101.528 Y108.046 E7.00410
G1 X101.807 Y108.038 E7.02173
G1 X105.446 Y104.399 E7.34674
G1 X106.071 Y104.080 E7.39099
G1 X106.546 Y103.795 E7.42602
G1 X106.546 Y104.284 E7.45691
G1 X102.873 Y107.957 E7.78492
G1 X103.376 Y107.882 E7.81701
G1 X104.098 Y107.716 E7.86381
G1 X106.546 Y105.268 E8.08242
G1 X106.546 Y106.253 E8.14459
G1 X105.617 Y107.182 E8.22756
M104 S200 ; set temperature
G1 Z1.000 F7800.000
G1 X106.454 Y104.485 F7800.000
G1 F1999.39
G1 X105.960 Y103.991 E8.24818
G1 X105.330 Y104.345 E8.26954
G1 X106.454 Y105.469 E8.31651
G1 X106.454 Y106.454 E8.34560
G1 X104.653 Y104.653 E8.42085
G1 X103.914 Y104.899 E8.44384
G1 X106.079 Y107.064 E8.53431
G1 X105.385 Y107.354 E8.55654
G1 X103.103 Y105.072 E8.65192
G1 X102.732 Y105.120 E8.66296
G1 X102.202 Y105.155 E8.67867
G1 X104.641 Y107.594 E8.78056
G1 X103.840 Y107.778 E8.80482
G1 X101.175 Y105.113 E8.91621
G1 X100.748 Y105.041 E8.92901
G1 X100.410 Y104.956 E8.93928
G1 X99.806 Y104.729 E8.95836
G1 X102.974 Y107.897 E9.09074
G1 X102.690 Y107.927 E9.09918
G1 X102.043 Y107.950 E9.11832
G1 X94.034 Y102.895 F7800.000
G1 F1999.39
G1 X98.537 Y107.398 E9.30650
G1 X98.696 Y107.462 E9.31157
G1 X99.322 Y107.648 E9.33085
G1 X99.886 Y107.762 E9.34784
G1 X93.689 Y101.565 E9.60675
G1 X93.594 Y100.867 E9.62757
G1 X93.572 Y100.464 E9.63950
G1 X101.022 Y107.913 E9.95077
G1 X102.043 Y107.950 E9.98096
G1 X93.562 Y99.469 E10.33535
G1 X93.570 Y99.110 E10.34596
G1 X93.629 Y98.552 E10.36254
G1 X98.114 Y103.037 E10.54997
G1 X97.949 Y102.658 E10.56219
G1 X97.829 Y102.318 E10.57284
G1 X97.651 Y101.589 E10.59501
G1 X93.766 Y97.704 E10.75735
G1 X93.944 Y97.026 E10.77807
G1 X93.979 Y96.932 E10.78101
G1 X97.535 Y100.489 E10.92961
G1 X97.552 Y99.521 E10.95820
G1 X94.251 Y96.220 E11.09613
G1 X94.588 Y95.573 E11.11770
G1 X97.667 Y98.651 E11.24632
G1 X97.732 Y98.352 E11.25535
G1 X97.873 Y97.873 E11.27011
G1 X94.981 Y94.981 E11.39096
G1 X95.427 Y94.442 E11.41162
G1 X98.167 Y97.183 E11.52614
G1 X98.314 Y96.921 E11.53501
G1 X98.547 Y96.578 E11.54726
G1 X95.924 Y93.955 E11.65686
G1 X96.470 Y93.517 E11.67755
G1 X99.004 Y96.050 E11.78343
G1 X99.271 Y95.810 E11.79405
G1 X99.544 Y95.606 E11.80411
G1 X97.068 Y93.130 E11.90756
G1 X97.720 Y92.798 E11.92919
G1 X100.174 Y95.251 E12.03172
G1 X100.568 Y95.096 E12.04423
G1 X100.905 Y94.998 E12.05460
G1 X98.429 Y92.522 E12.15806
G1 X98.508 Y92.493 E12.16054
G1 X99.198 Y92.306 E12.18165
G1 X101.752 Y94.860 E12.28837
G1 X102.266 Y94.839 E12.30358
G1 X102.730 Y94.853 E12.31728
G1 X100.028 Y92.152 E12.43015
G1 X100.933 Y92.072 E12.45697
G1 X103.872 Y95.011 E12.57977
G1 X104.391 Y95.144 E12.59562
G1 X104.718 Y95.250 E12.60577
G1 X105.353 Y95.508 E12.62603
G1 X101.898 Y92.053 E12.77039
G1 X102.444 Y92.079 E12.78651
G1 X102.975 Y92.145 E12.80234
G1 X106.454 Y95.624 E12.94769
G1 X106.454 Y94.639 E12.97678
G1 X104.186 Y92.372 E13.07153
G1 X104.515 Y92.463 E13.08162
G1 X105.194 Y92.694 E13.10280
G1 X105.712 Y92.913 E13.11942
G1 X106.454 Y93.655 E13.15041
G1 Z1.500 F7800.000
G1 E11.15041 F2400.00000
G92 E0
G1 X105.961 Y96.008 F7800.000
G1 E2.00000 F2400.00000
G1 F2074.05
G1 X106.454 Y95.515 E2.02059
G1 X106.454 Y94.531 E2.04968
G1 X105.330 Y95.655 E2.09663
G1 X104.651 Y95.349 E2.11862
G1 X106.454 Y93.546 E2.19392
G1 X106.454 Y93.111 E2.20677
G1 X106.081 Y92.934 E2.21895
G1 X103.914 Y95.101 E2.30951
G1 X103.104 Y94.927 E2.33400
G1 X105.383 Y92.648 E2.42926
G1 X104.639 Y92.407 E2.45236
G1 X102.202 Y94.844 E2.55419
G1 X101.722 Y94.842 E2.56838
G1 X101.176 Y94.886 E2.58456
G1 X103.839 Y92.223 E2.69584
G1 X102.973 Y92.104 E2.72166
G1 X99.807 Y95.271 E2.85397
G1 X99.483 Y95.439 E2.86475
G1 X99.164 Y95.643 E2.87593
G1 X98.693 Y96.036 E2.89406
G1 X98.355 Y96.406 E2.90886
G1 X98.145 Y96.681 E2.91910
G1 X97.957 Y96.976 E2.92944
G1 X97.792 Y97.286 E2.93980
G1 X98.116 Y96.961 F7800.000
G1 F2074.05
G1 X93.624 Y101.454 E3.12753
G1 X93.766 Y102.296 E3.15276
G1 X97.649 Y98.413 E3.31500
G1 X97.563 Y99.057 E3.33421
G1 X97.535 Y99.512 E3.34766
G1 X93.978 Y103.069 E3.49630
G1 X94.252 Y103.779 E3.51880
G1 X97.552 Y100.479 E3.65671
G1 X97.603 Y100.971 E3.67134
G1 X97.667 Y101.349 E3.68264
G1 X94.587 Y104.429 E3.81134
G1 X94.976 Y105.019 E3.83223
G1 X97.873 Y102.127 E3.95319
G1 X98.028 Y102.526 E3.96586
G1 X98.168 Y102.817 E3.97538
G1 X95.424 Y105.560 E4.09003
G1 X95.923 Y106.046 E4.11060
G1 X98.547 Y103.422 E4.22024
G1 X98.806 Y103.744 E4.23244
G1 X99.004 Y103.950 E4.24088
G1 X96.472 Y106.482 E4.34667
G1 X96.619 Y106.594 E4.35214
G1 X97.072 Y106.866 E4.36776
G1 X99.545 Y104.393 E4.47108
G1 X99.915 Y104.622 E4.48393
G1 X100.174 Y104.749 E4.49245
G1 X97.721 Y107.202 E4.59495
G1 X98.434 Y107.473 E4.61750
G1 X100.906 Y105.001 E4.72080
G1 X101.291 Y105.083 E4.73243
G1 X101.752 Y105.139 E4.74616
G1 X99.199 Y107.693 E4.85286
G1 X100.035 Y107.842 E4.87795
G1 X102.729 Y105.147 E4.99052
G1 X103.208 Y105.103 E5.00475
G1 X103.871 Y104.990 E5.02461
G1 X100.935 Y107.926 E5.14730
G1 X101.238 Y107.948 E5.15630
G1 X101.898 Y107.947 E5.17580
G1 X105.354 Y104.492 E5.32018
G1 X106.040 Y104.137 E5.34301
G1 X106.454 Y103.887 E5.35728
G1 X106.454 Y104.376 E5.37173
G1 X102.968 Y107.862 E5.51739
G1 X103.878 Y107.705 E5.54469
G1 X104.195 Y107.619 E5.55440
G1 X106.454 Y105.361 E5.64877
G1 X106.454 Y106.345 E5.67786
G1 X105.712 Y107.087 E5.70884
G1 E3.70884 F2400.00000
G92 E0
G1 X93.557 Y100.535 F7800.000
G1 E2.00000 F2400.00000
G1 F2074.05
G1 X102.044 Y92.049 E2.35461
G1 X101.027 Y92.082 E2.38469
G1 X93.572 Y99.537 E2.69619
G1 X93.624 Y98.849 E2.71656
G1 X93.698 Y98.426 E2.72925
G1 X99.888 Y92.235 E2.98793
G1 X99.472 Y92.315 E3.00046
G1 X98.739 Y92.523 E3.02296
G1 X98.537 Y92.602 E3.02936
G1 X94.038 Y97.102 E3.21737
G1 X94.240 Y96.567 E3.23425
G1 X94.510 Y96.028 E3.25207
G1 X94.926 Y95.374 E3.27496
G1 X95.367 Y94.828 E3.29572
G1 X95.870 Y94.323 E3.31676
G1 X96.420 Y93.873 E3.33775
G1 X97.085 Y93.441 E3.36120
G1 X97.727 Y93.115 E3.38247
G1 X98.213 Y92.927 E3.39785
M106 S255
G1 Z2.000 F7800.000
G1 E1.39785 F2400.00000
G92 E0
G1 X106.454 Y93.655 F7800.000
G1 E2.00000 F2400.00000
G1 F1998.81
G1 X105.707 Y92.908 E2.03121
G1 X105.168 Y92.684 E2.04843
G1 X104.569 Y92.479 E2.06715
G1 X104.188 Y92.374 E2.07883
G1 X106.454 Y94.639 E2.17350
G1 X106.454 Y95.624 E2.20259
G1 X102.964 Y92.134 E2.34841
G1 X102.196 Y92.062 E2.37120
G1 X101.899 Y92.054 E2.37997
G1 X105.354 Y95.508 E2.52432
G1 X104.617 Y95.216 E2.54773
G1 X103.871 Y95.010 E2.57061
G1 X100.932 Y92.071 E2.69341
G1 X100.720 Y92.079 E2.69967
G1 X100.032 Y92.156 E2.72013
G1 X102.730 Y94.853 E2.83283
G1 X102.266 Y94.839 E2.84653
G1 X101.751 Y94.860 E2.86175
G1 X99.202 Y92.310 E2.96829
G1 X99.009 Y92.349 E2.97411
G1 X98.431 Y92.524 E2.99193
G1 X100.906 Y94.998 E3.09531
G1 X100.540 Y95.106 E3.10658
G1 X100.174 Y95.252 E3.11820
G1 X97.722 Y92.799 E3.22068
G1 X97.561 Y92.866 E3.22582
G1 X97.070 Y93.132 E3.24232
G1 X99.544 Y95.606 E3.34571
G1 X99.289 Y95.795 E3.35508
G1 X99.004 Y96.051 E3.36640
G1 X96.472 Y93.519 E3.47219
G1 X96.304 Y93.634 E3.47822
G1 X95.928 Y93.959 E3.49289
G1 X98.546 Y96.577 E3.60229
G1 X98.344 Y96.873 E3.61289
G1 X98.168 Y97.183 E3.62343
G1 X95.431 Y94.446 E3.73779
G1 X95.204 Y94.691 E3.74766
G1 X94.985 Y94.985 E3.75848
G1 X97.873 Y97.873 E3.87916
G1 X97.755 Y98.261 E3.89114
G1 X97.666 Y98.651 E3.90295
G1 X94.594 Y95.578 E4.03134
G1 X94.387 Y95.933 E4.04348
G1 X94.257 Y96.226 E4.05295
G1 X97.551 Y99.520 E4.19061
G1 X97.535 Y100.488 E4.21921
G1 X93.983 Y96.937 E4.36762
G1 X93.854 Y97.333 E4.37992
G1 X93.772 Y97.711 E4.39134
G1 X97.650 Y101.589 E4.55338
G1 X97.838 Y102.345 E4.57641
G1 X97.933 Y102.618 E4.58495
G1 X98.115 Y103.038 E4.59846
G1 X93.629 Y98.551 E4.78591
G1 X93.583 Y98.922 E4.79694
G1 X93.561 Y99.468 E4.81310
G1 X102.043 Y107.950 E5.16752
G1 X101.027 Y107.919 E5.19755
G1 X93.571 Y100.462 E5.50913
G1 X93.580 Y100.700 E5.51617
G1 X93.688 Y101.564 E5.54189
G1 X99.888 Y107.764 E5.80094
G1 X99.345 Y107.654 E5.81728
G1 X98.543 Y107.404 E5.84212
G1 X94.034 Y102.895 E6.03052
G1 E4.03052 F2400.00000
G92 E0
G1 X102.043 Y107.950 F7800.000
G1 E2.00000 F2400.00000
G1 F1998.81
G1 X102.606 Y107.933 E2.01664
G1 X102.978 Y107.900 E2.02766
G1 X99.807 Y104.729 E2.16015
G1 X100.422 Y104.960 E2.17955
G1 X100.937 Y105.080 E2.19517
G1 X101.176 Y105.114 E2.20231
G1 X103.841 Y107.779 E2.31368
G1 X104.637 Y107.591 E2.33784
G1 X102.202 Y105.156 E2.43959
G1 X102.602 Y105.133 E2.45143
G1 X103.104 Y105.073 E2.46636
G1 X105.385 Y107.354 E2.56168
G1 X106.085 Y107.069 E2.58400
G1 X103.915 Y104.899 E2.67467
G1 X104.652 Y104.652 E2.69764
G1 X106.454 Y106.454 E2.77292
G1 X106.454 Y105.469 E2.80201
G1 X105.330 Y104.346 E2.84896
G1 X105.961 Y103.992 E2.87033
G1 X106.454 Y104.485 E2.89092
G1 E0.89092 F2400.00000
G92 E0
M107
; Filament-specific end gcode 
;END gcode for filament

M104 S0 ; turn off temperature
G28 X0  ; home X axis
M84     ; disable motors

M140 S0 ; set bed temperature
; filament used = 26.4mm (0.2cm3)
; total filament cost = 0.0

; avoid_crossing_perimeters = 0
; bed_shape = 0x0,200x0,200x200,0x200
; bed_temperature = 0
; before_layer_gcode = 
; between_objects_gcode = 
; bridge_acceleration = 0
; bridge_fan_speed = 100
; brim_connections_width = 0
; brim_width = 0
; complete_objects = 0
; cooling = 1
; default_acceleration = 0
; disable_fan_first_layers = 3
; duplicate_distance = 6
; end_filament_gcode = "; Filament-specific end gcode \n;END gcode for filament\n"
; end_gcode = M104 S0 ; turn off temperature\nG28 X0  ; home X axis\nM84     ; disable motors\n
; extruder_clearance_height = 20
; extruder_clearance_radius = 20
; extruder_offset = 0x0
; extrusion_axis = E
; extrusion_multiplier = 1
; fan_always_on = 0
; fan_below_layer_time = 60
; filament_colour = #FFFFFF
; filament_cost = 0
; filament_density = 0
; filament_diameter = 3
; filament_max_volumetric_speed = 0
; filament_notes = ""
; first_layer_acceleration = 0
; first_layer_bed_temperature = 0
; first_layer_extrusion_width = 200%
; first_layer_speed = 30
; first_layer_temperature = 205
; gcode_arcs = 0
; gcode_comments = 0
; gcode_flavor = reprap
; has_heatbed = 1
; infill_acceleration = 0
; infill_first = 0
; interior_brim_width = 0
; layer_gcode = 
; max_fan_speed = 100
; max_layer_height = 0.3
; max_print_speed = 80
; max_volumetric_speed = 0
; min_fan_speed = 35
; min_layer_height = 0.15
; min_print_speed = 10
; min_skirt_length = 0
; notes = 
; nozzle_diameter = 0.5
; only_retract_when_crossing_perimeters = 1
; ooze_prevention = 0
; output_filename_format = [input_filename_base].gcode
; perimeter_acceleration = 0
; post_process = 
; pressure_advance = 0
; printer_notes = 
; resolution = 0
; retract_before_travel = 2
; retract_layer_change = 0
; retract_length = 2
; retract_length_toolchange = 10
; retract_lift = 0
; retract_lift_above = 0
; retract_lift_below = 0
; retract_restart_extra = 0
; retract_restart_extra_toolchange = 0
; retract_speed = 40
; skirt_distance = 6
; skirt_height = 1
; skirts = 0
; slowdown_below_layer_time = 5
; spiral_vase = 0
; standby_temperature_delta = -5
; start_filament_gcode = "; Filament gcode\n"
; start_gcode = G28 ; home all axes\nG1 Z5 F5000 ; lift nozzle\n
; temperature = 200
; threads = 8
; toolchange_gcode = 
; travel_speed = 130
; use_firmware_retraction = 0
; use_relative_e_distances = 0
; use_set_and_wait_bed = 0
; use_set_and_wait_extruder = 0
; use_volumetric_e = 0
; vibration_limit = 0
; wipe = 0
; z_offset = 0
; z_steps_per_mm = 0
; adaptive_slicing = 0
; adaptive_slicing_quality = 75%
; dont_support_bridges = 1
; extrusion_width = 0
; first_layer_height = 0.5
; infill_only_where_needed = 0
; interface_shells = 0
; layer_height = 0.5
; match_horizontal_surfaces = 0
; raft_layers = 0
; regions_overlap = 0
; seam_position = aligned
; sequential_print_priority = 0
; support_material = 0
; support_material_angle = 0
; support_material_buildplate_only = 0
; support_material_contact_distance = 0.2
; support_material_enforce_layers = 0
; support_material_extruder = 1
; support_material_extrusion_width = 0
; support_material_interface_extruder = 1
; support_material_interface_extrusion_width = 0
; support_material_interface_layers = 3
; support_material_interface_spacing = 0
; support_material_interface_speed = 100%
; support_material_max_layers = 0
; support_material_pattern = pillars
; support_material_spacing = 2.5
; support_material_speed = 60
; support_material_threshold = 60%
; xy_size_compensation = 0
; bottom_infill_pattern = rectilinear
; bottom_solid_layers = 0
; bridge_flow_ratio = 1
; bridge_speed = 60
; external_perimeter_extrusion_width = 0
; external_perimeter_speed = 50%
; external_perimeters_first = 0
; extra_perimeters = 1
; fill_angle = 45
; fill_density = 60%
; fill_gaps = 1
; fill_pattern = rectilinear
; gap_fill_speed = 20
; infill_every_layers = 1
; infill_extruder = 1
; infill_extrusion_width = 0
; infill_overlap = 55%
; infill_speed = 80
; overhangs = 1
; perimeter_extruder = 1
; perimeter_extrusion_width = 0
; perimeter_speed = 60
; perimeters = 0
; small_perimeter_speed = 15
; solid_infill_below_area = 70
; solid_infill_every_layers = 0
; solid_infill_extruder = 1
; solid_infill_extrusion_width = 0
; solid_infill_speed = 20
; thin_walls = 1
; top_infill_extrusion_width = 0
; top_infill_pattern = rectilinear
; top_solid_infill_speed = 15
; top_solid_layers = 0
