; generated by Slic3r 1.3.0 on 2019-10-09 at 15:01:31

; external perimeters extrusion width = 0.55mm (5.57mm^3/s)
; perimeters extrusion width = 0.58mm (11.78mm^3/s)
; infill extrusion width = 0.58mm (15.71mm^3/s)
; solid infill extrusion width = 0.58mm (3.93mm^3/s)
; top infill extrusion width = 0.58mm (2.95mm^3/s)

M107
M104 S205 ; set temperature
G28 ; home all axes
G1 Z5 F5000 ; lift nozzle

; Filament gcode

M109 S205 ; set temperature and wait for it to be reached
G21 ; set units to millimeters
G90 ; use absolute coordinates
M82 ; use absolute distances for extrusion
G92 E0
G1 Z0.400 F7800.000
G1 E-2.00000 F2400.00000
G92 E0
G1 X97.449 Y100.080 F7800.000
G1 E2.00000 F2400.00000
G1 F1800
G1 X99.860 Y100.080 E2.09746
G1 X100.408 Y100.117 E2.11964
G1 X100.867 Y100.217 E2.13865
G1 X101.122 Y100.307 E2.14957
G1 X101.364 Y100.425 E2.16043
G1 X101.740 Y100.691 E2.17904
G1 X102.049 Y101.038 E2.19785
G1 X102.270 Y101.449 E2.21671
G1 X102.398 Y101.904 E2.23579
G1 X102.434 Y102.193 E2.24755
G1 X102.434 Y102.691 E2.26770
G1 X102.348 Y103.189 E2.28810
G1 X102.169 Y103.637 E2.30761
G1 X101.907 Y104.008 E2.32595
G1 X101.565 Y104.311 E2.34444
G1 X101.326 Y104.458 E2.35577
G1 X100.890 Y104.639 E2.37486
G1 X100.410 Y104.743 E2.39470
G1 X99.860 Y104.779 E2.41697
G1 X97.449 Y104.779 E2.51443
G1 X97.449 Y100.155 E2.70128
G1 X97.370 Y99.587 F7800.000
G1 E0.70128 F2400.00000
G92 E0
G1 X100.314 Y99.365 F7800.000
G1 E2.00000 F2400.00000
G1 F1503.87
G1 X100.361 Y98.978 E2.01577
G1 X100.800 Y98.990 E2.03348
G1 X101.342 Y99.039 E2.05551
G1 X102.052 Y99.167 E2.08465
G1 X102.700 Y99.368 E2.11206
G1 X103.196 Y99.607 E2.13434
G1 X103.623 Y99.903 E2.15533
G1 X103.958 Y100.230 E2.17423
G1 X104.160 Y100.502 E2.18793
G1 X104.382 Y100.923 E2.20716
G1 X104.495 Y101.240 E2.22076
G1 X104.582 Y101.610 E2.23611
G1 X104.632 Y101.986 E2.25145
G1 X104.651 Y102.436 E2.26965
G1 X104.610 Y103.081 E2.29575
G1 X104.540 Y103.455 E2.31114
G1 X104.443 Y103.781 E2.32488
G1 X104.312 Y104.091 E2.33849
G1 X104.153 Y104.370 E2.35147
G1 X103.854 Y104.742 E2.37073
G1 X103.627 Y104.953 E2.38329
G1 X103.354 Y105.155 E2.39701
G1 X103.208 Y105.245 E2.40395
G1 X102.678 Y105.498 E2.42766
G1 X102.079 Y105.686 E2.45303
G1 X101.330 Y105.822 E2.48381
G1 X100.829 Y105.868 E2.50413
G1 X100.367 Y105.881 E2.52283
G1 X100.319 Y105.493 E2.53862
G1 X101.104 Y105.323 E2.57107
G1 X101.652 Y105.096 E2.59505
G1 X101.992 Y104.887 E2.61119
G1 X102.443 Y104.487 E2.63555
G1 X102.801 Y103.980 E2.66063
G1 X103.039 Y103.384 E2.68657
G1 X103.148 Y102.752 E2.71247
G1 X103.148 Y102.148 E2.73689
G1 X103.100 Y101.762 E2.75260
G1 X102.937 Y101.181 E2.77701
G1 X102.639 Y100.626 E2.80246
G1 X102.219 Y100.155 E2.82797
G1 X101.728 Y99.808 E2.85224
G1 X101.399 Y99.648 E2.86705
G1 X101.064 Y99.529 E2.88141
G1 X100.388 Y99.381 E2.90939
G1 E0.90939 F2400.00000
G92 E0
G1 X96.735 Y94.114 F7800.000
G1 E2.00000 F2400.00000
G1 F1503.87
G1 X96.735 Y105.886 E2.47573
G1 X95.348 Y105.886 E2.53176
G1 X95.348 Y94.114 E3.00749
G1 X96.660 Y94.114 E3.06048
G1 E1.06048 F2400.00000
G92 E0
G1 X97.449 Y98.260 F7800.000
G1 E2.00000 F2400.00000
G1 F1800
G1 X100.224 Y98.260 E2.11215
G1 X100.842 Y98.277 E2.13713
G1 X101.438 Y98.331 E2.16133
G1 X102.222 Y98.472 E2.19352
G1 X102.944 Y98.696 E2.22408
G1 X103.555 Y98.989 E2.25144
G1 X103.902 Y99.215 E2.26818
G1 X104.087 Y99.359 E2.27768
G1 X104.381 Y99.633 E2.29390
G1 X104.759 Y100.111 E2.31853
G1 X104.951 Y100.447 E2.33419
G1 X105.045 Y100.656 E2.34344
G1 X105.181 Y101.039 E2.35986
G1 X105.285 Y101.481 E2.37820
G1 X105.344 Y101.924 E2.39626
G1 X105.366 Y102.436 E2.41697
G1 X105.316 Y103.186 E2.44735
G1 X105.235 Y103.622 E2.46529
G1 X105.117 Y104.022 E2.48214
G1 X104.954 Y104.408 E2.49909
G1 X104.758 Y104.752 E2.51509
G1 X104.643 Y104.916 E2.52316
G1 X104.371 Y105.236 E2.54014
G1 X104.084 Y105.503 E2.55600
G1 X103.755 Y105.747 E2.57253
G1 X103.550 Y105.873 E2.58225
G1 X102.940 Y106.164 E2.60957
G1 X102.251 Y106.380 E2.63878
G1 X101.426 Y106.530 E2.67263
G1 X100.872 Y106.581 E2.69512
G1 X100.223 Y106.600 E2.72135
G1 X94.634 Y106.600 E2.94724
G1 X94.634 Y93.400 E3.48069
G1 X97.449 Y93.400 E3.59444
G1 X97.449 Y98.185 E3.78780
G1 X97.536 Y98.752 F7800.000
G1 X97.092 Y99.170 F7800.000
G1 F1503.87
G1 X99.978 Y99.170 E3.95457
G1 E1.95457 F2400.00000
G92 E0
G1 X102.758 Y99.784 F7800.000
G1 E2.00000 F2400.00000
G1 F1503.87
G1 X103.391 Y100.605 E2.02922
G1 F1503.87
G1 X103.605 Y100.953 E2.04217
G1 F1503.87
G1 X103.702 Y101.197 E2.05184
G1 X103.818 Y101.589 E2.06687
G1 X103.892 Y102.126 E2.08683
G1 F1503.87
G1 X103.891 Y102.813 E2.11412
G1 X103.814 Y103.281 E2.13296
G1 X103.726 Y103.618 E2.14683
G1 F1503.87
G1 X103.523 Y104.053 E2.16444
G1 F1503.87
G1 X103.397 Y104.263 E2.17272
G1 F1503.87
G1 X103.225 Y104.469 E2.18057
G1 F1503.87
G1 X102.545 Y105.165 E2.20573
G1 X102.616 Y104.986 F7800.000
G1 F1503.87
G1 X102.207 Y105.258 E2.21156
G1 X102.616 Y104.986 F7800.000
G1 F1503.87
G1 X103.952 Y104.003 E2.23606
G1 E0.23606 F2400.00000
G92 E0
G1 X99.983 Y105.690 F7800.000
G1 E2.00000 F2400.00000
G1 F1503.87
G1 X97.092 Y105.690 E2.16706
G1 X96.041 Y105.529 F7800.000
G1 F1503.87
G1 X96.041 Y94.471 E2.53396
M104 S200 ; set temperature
G1 Z0.800 F7800.000
G1 X97.096 Y99.728 F7800.000
G1 F900
G1 X99.873 Y99.728 E2.61110
G1 X100.478 Y99.770 E2.62794
G1 X100.920 Y99.865 E2.64049
G1 X101.245 Y99.976 E2.65004
G1 X101.561 Y100.130 E2.65981
G1 X101.984 Y100.434 E2.67427
G1 X102.340 Y100.834 E2.68914
G1 X102.594 Y101.305 E2.70400
G1 X102.740 Y101.812 E2.71868
G1 X102.788 Y102.191 E2.72929
G1 X102.787 Y102.709 E2.74366
G1 X102.689 Y103.288 E2.75998
G1 X102.472 Y103.820 E2.77593
G1 X102.182 Y104.232 E2.78994
G1 X101.794 Y104.582 E2.80446
G1 X101.468 Y104.784 E2.81511
G1 X100.980 Y104.981 E2.82973
G1 X100.486 Y105.089 E2.84376
G1 X99.873 Y105.132 E2.86083
G1 X97.096 Y105.132 E2.93797
G1 X97.096 Y99.803 E3.08599
G1 X97.574 Y100.205 F7800.000
G1 F900
G1 X99.857 Y100.205 E3.14596
G1 X100.411 Y100.244 E3.16055
G1 X100.792 Y100.326 E3.17079
G1 X101.063 Y100.418 E3.17830
G1 X101.316 Y100.542 E3.18570
G1 X101.663 Y100.791 E3.19691
G1 X101.946 Y101.110 E3.20811
G1 X102.150 Y101.486 E3.21936
G1 X102.271 Y101.909 E3.23090
G1 X102.310 Y102.221 E3.23917
G1 X102.309 Y102.668 E3.25092
G1 X102.227 Y103.157 E3.26394
G1 X102.051 Y103.590 E3.27621
G1 X101.823 Y103.914 E3.28662
G1 X101.507 Y104.199 E3.29779
G1 X101.251 Y104.356 E3.30567
G1 X100.838 Y104.523 E3.31737
G1 X100.418 Y104.615 E3.32867
G1 X99.857 Y104.654 E3.34345
G1 X97.574 Y104.654 E3.40342
G1 X97.574 Y100.280 E3.51830
G1 X97.495 Y99.712 F7800.000
G1 X101.100 Y99.408 F7800.000
G1 F900
G1 X101.154 Y99.152 E3.52555
G1 X102.020 Y99.291 E3.54991
G1 X102.249 Y99.351 E3.55650
G1 X102.824 Y99.561 E3.57350
G1 X103.133 Y99.720 E3.58315
G1 X103.563 Y100.022 E3.59773
G1 X103.856 Y100.310 E3.60916
G1 X104.060 Y100.587 E3.61870
G1 X104.278 Y101.010 E3.63193
G1 X104.370 Y101.276 E3.63974
G1 X104.458 Y101.656 E3.65058
G1 X104.501 Y101.977 E3.65957
G1 X104.522 Y102.439 E3.67242
G1 X104.476 Y103.101 E3.69085
G1 X104.411 Y103.436 E3.70034
G1 X104.325 Y103.727 E3.70876
G1 X104.194 Y104.038 E3.71813
G1 X104.054 Y104.285 E3.72601
G1 X103.744 Y104.670 E3.73975
G1 X103.551 Y104.848 E3.74706
G1 X103.319 Y105.022 E3.75510
G1 X103.120 Y105.146 E3.76163
G1 X102.630 Y105.378 E3.77667
G1 X102.057 Y105.559 E3.79338
G1 X101.736 Y105.628 E3.80248
G1 X101.162 Y105.708 E3.81859
G1 X101.102 Y105.461 E3.82565
G1 X101.690 Y105.223 E3.84328
G1 X102.090 Y104.977 E3.85632
G1 X102.552 Y104.560 E3.87360
G1 X102.906 Y104.057 E3.89070
G1 X103.164 Y103.423 E3.90970
G1 X103.278 Y102.750 E3.92865
G1 X103.279 Y102.161 E3.94502
G1 X103.222 Y101.713 E3.95756
G1 X103.051 Y101.118 E3.97477
G1 X102.744 Y100.550 E3.99269
G1 X102.315 Y100.067 E4.01065
G1 X101.814 Y99.707 E4.02779
G1 X101.433 Y99.521 E4.03957
G1 X101.171 Y99.432 E4.04725
G1 E2.04725 F2400.00000
G92 E0
G1 X96.605 Y94.243 F7800.000
G1 E2.00000 F2400.00000
G1 F900
G1 X96.605 Y105.757 E2.31981
G1 X95.477 Y105.757 E2.35114
G1 X95.477 Y94.243 E2.67095
G1 X96.530 Y94.243 E2.70020
G1 X97.096 Y98.612 F7800.000
G1 F3600
G1 X100.219 Y98.612 E2.78695
G1 X100.795 Y98.628 E2.80295
G1 X101.396 Y98.681 E2.81972
G1 X102.125 Y98.811 E2.84029
G1 X102.802 Y99.019 E2.85995
G1 X103.379 Y99.295 E2.87772
G1 X103.664 Y99.479 E2.88713
G1 X103.882 Y99.648 E2.89479
G1 X104.236 Y99.999 E2.90866
G1 X104.472 Y100.318 E2.91967
G1 X104.625 Y100.584 E2.92821
G1 X104.734 Y100.828 E2.93563
G1 X104.842 Y101.139 E2.94477
G1 X104.942 Y101.568 E2.95700
G1 X104.990 Y101.933 E2.96724
G1 X105.013 Y102.437 E2.98126
G1 X104.996 Y102.867 E2.99320
G1 X104.961 Y103.175 E3.00180
G1 X104.889 Y103.552 E3.01248
G1 X104.788 Y103.892 E3.02233
G1 X104.636 Y104.255 E3.03326
G1 X104.471 Y104.546 E3.04255
G1 X104.362 Y104.702 E3.04783
G1 X104.098 Y105.011 E3.05911
G1 X103.866 Y105.226 E3.06791
G1 X103.597 Y105.427 E3.07725
G1 X103.355 Y105.578 E3.08514
G1 X102.810 Y105.836 E3.10191
G1 X102.183 Y106.034 E3.12018
G1 X101.370 Y106.182 E3.14312
G1 X100.885 Y106.227 E3.15664
G1 X100.218 Y106.247 E3.17520
G1 X94.987 Y106.247 E3.32051
G1 X94.987 Y93.753 E3.66759
G1 X97.096 Y93.753 E3.72619
G1 X97.096 Y98.537 E3.85910
G1 X97.574 Y98.135 F7800.000
G1 F1800
G1 X100.226 Y98.135 E3.92875
G1 X100.822 Y98.151 E3.94443
G1 X101.460 Y98.207 E3.96124
G1 X102.228 Y98.345 E3.98174
G1 X102.527 Y98.423 E3.98985
G1 X102.971 Y98.572 E4.00216
G1 X103.234 Y98.683 E4.00965
G1 X103.619 Y98.881 E4.02102
G1 X103.940 Y99.089 E4.03107
G1 X104.192 Y99.284 E4.03943
G1 X104.606 Y99.696 E4.05479
G1 X104.873 Y100.056 E4.06656
G1 X105.051 Y100.368 E4.07598
G1 X105.178 Y100.652 E4.08415
G1 X105.302 Y101.006 E4.09402
G1 X105.412 Y101.482 E4.10686
G1 X105.466 Y101.891 E4.11768
G1 X105.491 Y102.436 E4.13201
G1 X105.473 Y102.903 E4.14430
G1 X105.434 Y103.246 E4.15337
G1 X105.353 Y103.665 E4.16457
G1 X105.239 Y104.053 E4.17520
G1 X105.065 Y104.466 E4.18696
G1 X104.875 Y104.800 E4.19704
G1 X104.741 Y104.994 E4.20326
G1 X104.442 Y105.342 E4.21529
G1 X104.172 Y105.593 E4.22498
G1 X103.867 Y105.822 E4.23500
G1 X103.585 Y105.998 E4.24373
G1 X102.985 Y106.281 E4.26116
G1 X102.305 Y106.496 E4.27988
G1 X101.913 Y106.581 E4.29041
G1 X101.429 Y106.656 E4.30328
G1 X100.915 Y106.703 E4.31685
G1 X100.225 Y106.725 E4.33497
G1 X94.509 Y106.725 E4.48511
G1 X94.509 Y93.275 E4.83839
G1 X97.574 Y93.275 E4.91889
G1 X97.574 Y98.060 E5.04456
G1 X97.667 Y98.626 F7800.000
G1 X96.851 Y99.170 F7800.000
G1 F1200
G1 X99.882 Y99.170 E5.13866
G1 X100.555 Y99.198 E5.15958
G1 X100.813 Y99.578 E5.17384
G1 X102.782 Y99.816 F7800.000
G1 F1200
G1 X103.384 Y100.596 E5.19987
G1 F1200
G1 X103.596 Y100.933 E5.21171
G1 F1200
G1 X103.715 Y101.234 E5.22287
G1 X103.812 Y101.563 E5.23473
G1 X103.893 Y102.147 E5.25507
G1 F1200
G1 X103.887 Y102.833 E5.28093
G1 X103.812 Y103.290 E5.29841
G1 X103.725 Y103.622 E5.31134
G1 F1200
G1 X103.522 Y104.054 E5.32785
G1 F1200
G1 X103.383 Y104.281 E5.33632
G1 F1200
G1 X103.230 Y104.464 E5.34274
G1 F1200
G1 X102.587 Y105.127 E5.36483
G1 X100.807 Y105.285 F7800.000
G1 F1200
G1 X100.558 Y105.661 E5.37859
G1 X99.882 Y105.690 E5.39926
G1 X96.851 Y105.690 E5.49187
G1 X96.041 Y105.511 F7800.000
G1 F1200
G1 X96.041 Y94.489 E5.83566
G1 Z1.200 F7800.000
G1 X97.096 Y99.728 F7800.000
G1 F900
G1 X99.869 Y99.728 E5.91267
G1 X100.372 Y99.757 E5.92667
G1 X100.766 Y99.824 E5.93777
G1 X101.228 Y99.968 E5.95122
G1 X101.573 Y100.137 E5.96189
G1 X101.926 Y100.385 E5.97388
G1 X102.281 Y100.757 E5.98816
G1 X102.540 Y101.186 E6.00208
G1 X102.712 Y101.679 E6.01658
G1 X102.789 Y102.204 E6.03134
G1 X102.788 Y102.696 E6.04500
G1 X102.690 Y103.282 E6.06151
G1 X102.512 Y103.744 E6.07526
G1 X102.200 Y104.213 E6.09091
G1 X101.813 Y104.569 E6.10551
G1 X101.448 Y104.794 E6.11741
G1 X100.964 Y104.985 E6.13187
G1 X100.513 Y105.085 E6.14469
G1 X99.875 Y105.132 E6.16248
G1 X97.096 Y105.132 E6.23966
G1 X97.096 Y99.803 E6.38768
G1 X97.574 Y100.205 F7800.000
G1 F900
G1 X99.855 Y100.205 E6.44760
G1 X100.318 Y100.232 E6.45978
G1 X100.654 Y100.289 E6.46873
G1 X101.050 Y100.413 E6.47964
G1 X101.329 Y100.550 E6.48779
G1 X101.613 Y100.749 E6.49691
G1 X101.900 Y101.048 E6.50779
G1 X102.106 Y101.390 E6.51827
G1 X102.246 Y101.793 E6.52948
G1 X102.311 Y102.239 E6.54131
G1 X102.310 Y102.656 E6.55228
G1 X102.227 Y103.156 E6.56559
G1 X102.085 Y103.524 E6.57594
G1 X101.834 Y103.901 E6.58784
G1 X101.523 Y104.187 E6.59893
G1 X101.233 Y104.365 E6.60788
G1 X100.824 Y104.527 E6.61943
G1 X100.444 Y104.611 E6.62966
G1 X99.857 Y104.654 E6.64511
G1 X97.574 Y104.654 E6.70509
G1 X97.574 Y100.280 E6.81997
G1 X97.495 Y99.712 F7800.000
G1 X101.091 Y99.411 F7800.000
G1 F900
G1 X101.143 Y99.152 E6.82732
G1 X101.338 Y99.169 E6.83275
G1 X101.992 Y99.285 E6.85120
G1 X102.259 Y99.354 E6.85886
G1 X102.842 Y99.570 E6.87615
G1 X103.135 Y99.721 E6.88531
G1 X103.569 Y100.029 E6.90008
G1 X103.871 Y100.332 E6.91197
G1 X104.069 Y100.600 E6.92122
G1 X104.293 Y101.049 E6.93516
G1 X104.370 Y101.274 E6.94177
G1 X104.462 Y101.678 E6.95329
G1 X104.499 Y101.956 E6.96105
G1 X104.522 Y102.441 E6.97457
G1 X104.508 Y102.801 E6.98456
G1 X104.470 Y103.140 E6.99403
G1 X104.409 Y103.447 E7.00273
G1 X104.329 Y103.716 E7.01054
G1 X104.192 Y104.042 E7.02034
G1 X104.065 Y104.268 E7.02755
G1 X103.972 Y104.403 E7.03211
G1 X103.727 Y104.687 E7.04253
G1 X103.357 Y104.996 E7.05591
G1 X103.094 Y105.160 E7.06451
G1 X102.629 Y105.378 E7.07878
G1 X102.086 Y105.551 E7.09464
G1 X101.675 Y105.639 E7.10628
G1 X101.155 Y105.709 E7.12086
G1 X101.096 Y105.461 E7.12796
G1 X101.669 Y105.235 E7.14507
G1 X102.110 Y104.962 E7.15947
G1 X102.576 Y104.535 E7.17703
G1 X102.950 Y103.971 E7.19582
G1 X103.166 Y103.412 E7.21246
G1 X103.278 Y102.738 E7.23146
G1 X103.280 Y102.169 E7.24725
G1 X103.191 Y101.561 E7.26433
G1 X102.987 Y100.976 E7.28154
G1 X102.674 Y100.457 E7.29838
G1 X102.248 Y100.011 E7.31552
G1 X101.823 Y99.713 E7.32992
G1 X101.410 Y99.511 E7.34270
G1 X101.163 Y99.434 E7.34988
G1 E5.34988 F2400.00000
G92 E0
G1 X96.605 Y94.243 F7800.000
G1 E2.00000 F2400.00000
G1 F900
G1 X96.605 Y105.757 E2.31981
G1 X95.477 Y105.757 E2.35114
G1 X95.477 Y94.243 E2.67095
G1 X96.530 Y94.243 E2.70020
G1 X97.096 Y98.608 F7800.000
G1 F3600
G1 X100.776 Y98.627 E2.80243
G1 X101.402 Y98.682 E2.81988
G1 X102.096 Y98.805 E2.83946
G1 X102.789 Y99.014 E2.85956
G1 X103.051 Y99.125 E2.86746
G1 X103.381 Y99.296 E2.87778
G1 X103.630 Y99.455 E2.88601
G1 X103.895 Y99.660 E2.89529
G1 X104.245 Y100.011 E2.90908
G1 X104.481 Y100.331 E2.92012
G1 X104.613 Y100.561 E2.92749
G1 X104.750 Y100.869 E2.93684
G1 X104.843 Y101.140 E2.94479
G1 X104.946 Y101.591 E2.95766
G1 X104.988 Y101.912 E2.96664
G1 X105.013 Y102.439 E2.98130
G1 X104.998 Y102.838 E2.99239
G1 X104.955 Y103.215 E3.00294
G1 X104.886 Y103.565 E3.01283
G1 X104.792 Y103.882 E3.02201
G1 X104.634 Y104.258 E3.03336
G1 X104.482 Y104.528 E3.04196
G1 X104.361 Y104.704 E3.04789
G1 X104.080 Y105.029 E3.05983
G1 X103.873 Y105.220 E3.06765
G1 X103.636 Y105.400 E3.07591
G1 X103.330 Y105.592 E3.08595
G1 X102.809 Y105.836 E3.10194
G1 X102.212 Y106.027 E3.11935
G1 X101.763 Y106.122 E3.13208
G1 X101.354 Y106.184 E3.14358
G1 X100.920 Y106.224 E3.15570
G1 X100.217 Y106.247 E3.17523
G1 X94.987 Y106.247 E3.32052
G1 X94.987 Y93.753 E3.66760
G1 X97.096 Y93.753 E3.72620
G1 X97.096 Y98.533 E3.85900
G1 X97.574 Y98.133 F7800.000
G1 F1800
G1 X100.799 Y98.149 E3.94371
G1 X101.465 Y98.208 E3.96127
G1 X102.198 Y98.338 E3.98084
G1 X102.535 Y98.425 E3.98998
G1 X102.958 Y98.568 E4.00170
G1 X103.253 Y98.692 E4.01012
G1 X103.620 Y98.882 E4.02096
G1 X103.906 Y99.065 E4.02987
G1 X104.211 Y99.301 E4.04001
G1 X104.608 Y99.699 E4.05479
G1 X104.881 Y100.070 E4.06689
G1 X105.039 Y100.345 E4.07520
G1 X105.195 Y100.694 E4.08525
G1 X105.303 Y101.009 E4.09399
G1 X105.416 Y101.507 E4.10740
G1 X105.464 Y101.869 E4.11701
G1 X105.491 Y102.437 E4.13193
G1 X105.475 Y102.874 E4.14342
G1 X105.427 Y103.289 E4.15439
G1 X105.350 Y103.679 E4.16484
G1 X105.242 Y104.042 E4.17479
G1 X105.064 Y104.468 E4.18693
G1 X104.888 Y104.781 E4.19635
G1 X104.739 Y104.996 E4.20322
G1 X104.423 Y105.362 E4.21591
G1 X104.180 Y105.586 E4.22461
G1 X103.908 Y105.793 E4.23357
G1 X103.559 Y106.012 E4.24439
G1 X102.983 Y106.282 E4.26110
G1 X102.334 Y106.489 E4.27900
G1 X101.849 Y106.592 E4.29202
G1 X101.412 Y106.658 E4.30363
G1 X100.950 Y106.701 E4.31583
G1 X100.225 Y106.725 E4.33488
G1 X94.509 Y106.725 E4.48501
G1 X94.509 Y93.275 E4.83829
G1 X97.574 Y93.275 E4.91878
G1 X97.574 Y98.058 E5.04442
G1 X97.665 Y98.625 F7800.000
G1 X96.851 Y99.168 F7800.000
G1 F1200
G1 X99.876 Y99.175 E5.14294
G1 X100.418 Y99.192 E5.16061
G1 X100.877 Y99.231 E5.17562
G1 X102.295 Y99.625 F7800.000
G1 F1200
G1 X102.608 Y99.859 E5.18076
G1 F1200
G1 X103.046 Y100.200 E5.19102
G1 F1200
G1 X103.157 Y100.322 E5.19466
G1 F1200
G1 X103.344 Y100.549 E5.20260
G1 F1200
G1 X103.503 Y100.769 E5.21081
G1 F1200
G1 X103.582 Y100.918 E5.21638
G1 F1200
G1 X103.786 Y101.440 E5.23721
G1 X103.891 Y102.098 E5.26195
G1 X103.894 Y102.760 E5.28650
G1 X103.856 Y103.044 E5.29715
G1 X103.760 Y103.514 E5.31495
G1 F1200
G1 X103.659 Y103.781 E5.32433
G1 X103.524 Y104.057 E5.33442
G1 F1200
G1 X103.444 Y104.190 E5.33907
G1 F1200
G1 X103.233 Y104.456 E5.34817
G1 F1200
G1 X102.616 Y105.114 E5.36840
G1 X100.803 Y105.291 F7800.000
G1 F1200
G1 X100.571 Y105.632 E5.37959
G1 F1200
G1 X100.551 Y105.660 E5.38066
G1 X99.884 Y105.690 E5.40144
G1 X96.851 Y105.690 E5.49581
G1 X96.041 Y105.511 F7800.000
G1 F1200
G1 X96.041 Y94.489 E5.83960
M106 S242.25
G1 Z1.600 F7800.000
G1 X97.096 Y99.728 F7800.000
G1 F900
G1 X99.867 Y99.728 E5.91658
G1 X100.348 Y99.754 E5.92995
G1 X100.774 Y99.826 E5.94196
G1 X101.219 Y99.964 E5.95489
G1 X101.587 Y100.146 E5.96630
G1 X101.903 Y100.367 E5.97701
G1 X102.226 Y100.686 E5.98962
G1 X102.504 Y101.108 E6.00366
G1 X102.689 Y101.586 E6.01788
G1 X102.782 Y102.099 E6.03237
G1 X102.790 Y102.677 E6.04843
G1 X102.690 Y103.282 E6.06545
G1 X102.523 Y103.722 E6.07855
G1 X102.215 Y104.195 E6.09421
G1 X101.876 Y104.520 E6.10726
G1 X101.544 Y104.743 E6.11836
G1 X101.077 Y104.950 E6.13255
G1 X100.605 Y105.070 E6.14608
G1 X100.013 Y105.129 E6.16261
G1 X97.096 Y105.132 E6.24363
G1 X97.096 Y99.803 E6.39167
G1 X97.574 Y100.205 F7800.000
G1 F900
G1 X99.854 Y100.205 E6.45158
G1 X100.295 Y100.229 E6.46318
G1 X100.663 Y100.291 E6.47297
G1 X101.041 Y100.409 E6.48337
G1 X101.344 Y100.558 E6.49223
G1 X101.596 Y100.735 E6.50032
G1 X101.854 Y100.990 E6.50987
G1 X102.077 Y101.328 E6.52050
G1 X102.227 Y101.716 E6.53141
G1 X102.305 Y102.145 E6.54287
G1 X102.311 Y102.641 E6.55591
G1 X102.226 Y103.157 E6.56963
G1 X102.095 Y103.505 E6.57941
G1 X101.845 Y103.888 E6.59142
G1 X101.575 Y104.147 E6.60123
G1 X101.313 Y104.323 E6.60955
G1 X100.921 Y104.497 E6.62080
G1 X100.522 Y104.598 E6.63161
G1 X99.989 Y104.652 E6.64569
G1 X97.574 Y104.654 E6.70912
G1 X97.574 Y100.280 E6.82400
G1 X97.491 Y99.712 F7800.000
G1 X101.097 Y99.412 F7800.000
G1 F900
G1 X101.148 Y99.153 E6.83135
G1 X101.344 Y99.170 E6.83682
G1 X101.963 Y99.278 E6.85428
G1 X102.268 Y99.357 E6.86301
G1 X102.861 Y99.578 E6.88059
G1 X103.316 Y99.835 E6.89510
G1 X103.591 Y100.047 E6.90476
G1 X103.868 Y100.327 E6.91569
G1 X104.078 Y100.614 E6.92557
G1 X104.308 Y101.087 E6.94019
G1 X104.369 Y101.272 E6.94559
G1 X104.466 Y101.701 E6.95782
G1 X104.497 Y101.934 E6.96435
G1 X104.522 Y102.444 E6.97853
G1 X104.510 Y102.773 E6.98766
G1 X104.464 Y103.178 E6.99900
G1 X104.333 Y103.706 E7.01410
G1 X104.190 Y104.046 E7.02435
G1 X104.076 Y104.251 E7.03087
G1 X103.971 Y104.405 E7.03604
G1 X103.710 Y104.704 E7.04708
G1 X103.394 Y104.970 E7.05854
G1 X103.070 Y105.174 E7.06918
G1 X102.629 Y105.379 E7.08269
G1 X102.114 Y105.544 E7.09770
G1 X101.615 Y105.650 E7.11187
G1 X101.201 Y105.710 E7.12348
G1 X101.130 Y105.463 E7.13061
G1 X101.783 Y105.174 E7.15043
G1 X102.185 Y104.903 E7.16390
G1 X102.595 Y104.510 E7.17969
G1 X102.963 Y103.946 E7.19839
G1 X103.166 Y103.410 E7.21432
G1 X103.281 Y102.714 E7.23391
G1 X103.272 Y102.052 E7.25231
G1 X103.164 Y101.452 E7.26923
G1 X102.943 Y100.882 E7.28623
G1 X102.607 Y100.373 E7.30314
G1 X102.219 Y99.988 E7.31833
G1 X101.838 Y99.722 E7.33125
G1 X101.401 Y99.507 E7.34477
G1 X101.168 Y99.434 E7.35154
G1 E5.35154 F2400.00000
G92 E0
G1 X96.605 Y94.243 F7800.000
G1 E2.00000 F2400.00000
G1 F900
G1 X96.605 Y105.757 E2.31981
G1 X95.477 Y105.757 E2.35114
G1 X95.477 Y94.243 E2.67095
G1 X96.530 Y94.243 E2.70020
G1 X97.096 Y98.609 F7800.000
G1 F3600
G1 X100.750 Y98.625 E2.80170
G1 X101.408 Y98.683 E2.82004
G1 X102.067 Y98.798 E2.83864
G1 X102.408 Y98.886 E2.84840
G1 X102.776 Y99.010 E2.85919
G1 X103.070 Y99.134 E2.86805
G1 X103.383 Y99.297 E2.87786
G1 X103.597 Y99.432 E2.88491
G1 X103.917 Y99.679 E2.89612
G1 X104.242 Y100.008 E2.90896
G1 X104.490 Y100.345 E2.92059
G1 X104.601 Y100.539 E2.92679
G1 X104.766 Y100.909 E2.93806
G1 X104.843 Y101.140 E2.94480
G1 X104.950 Y101.615 E2.95834
G1 X104.986 Y101.890 E2.96605
G1 X105.013 Y102.441 E2.98136
G1 X105.000 Y102.809 E2.99161
G1 X104.949 Y103.256 E3.00409
G1 X104.883 Y103.577 E3.01319
G1 X104.796 Y103.871 E3.02171
G1 X104.633 Y104.261 E3.03347
G1 X104.493 Y104.510 E3.04138
G1 X104.360 Y104.706 E3.04797
G1 X104.062 Y105.047 E3.06057
G1 X103.675 Y105.372 E3.07458
G1 X103.305 Y105.606 E3.08675
G1 X102.808 Y105.837 E3.10198
G1 X102.240 Y106.019 E3.11854
G1 X101.701 Y106.133 E3.13384
G1 X101.338 Y106.186 E3.14402
G1 X100.954 Y106.222 E3.15475
G1 X100.216 Y106.247 E3.17525
G1 X94.987 Y106.247 E3.32052
G1 X94.987 Y93.753 E3.66761
G1 X97.096 Y93.753 E3.72621
G1 X97.096 Y98.534 E3.85902
G1 X97.574 Y98.133 F7800.000
G1 F1800
G1 X100.772 Y98.148 E3.94302
G1 X101.470 Y98.209 E3.96142
G1 X102.168 Y98.331 E3.98005
G1 X102.543 Y98.428 E3.99022
G1 X102.945 Y98.563 E4.00135
G1 X103.273 Y98.701 E4.01071
G1 X103.621 Y98.882 E4.02101
G1 X103.872 Y99.041 E4.02879
G1 X104.234 Y99.320 E4.04082
G1 X104.606 Y99.697 E4.05472
G1 X104.890 Y100.084 E4.06734
G1 X105.027 Y100.322 E4.07455
G1 X105.211 Y100.736 E4.08646
G1 X105.303 Y101.011 E4.09406
G1 X105.420 Y101.531 E4.10807
G1 X105.462 Y101.847 E4.11645
G1 X105.491 Y102.437 E4.13196
G1 X105.477 Y102.845 E4.14267
G1 X105.421 Y103.331 E4.15553
G1 X105.347 Y103.693 E4.16522
G1 X105.246 Y104.031 E4.17450
G1 X105.063 Y104.471 E4.18701
G1 X104.900 Y104.762 E4.19577
G1 X104.738 Y104.998 E4.20330
G1 X104.404 Y105.381 E4.21665
G1 X104.188 Y105.580 E4.22436
G1 X103.949 Y105.764 E4.23227
G1 X103.534 Y106.026 E4.24517
G1 X102.982 Y106.282 E4.26115
G1 X102.363 Y106.481 E4.27823
G1 X101.785 Y106.604 E4.29375
G1 X101.395 Y106.660 E4.30410
G1 X100.985 Y106.699 E4.31493
G1 X100.225 Y106.725 E4.33490
G1 X94.509 Y106.725 E4.48503
G1 X94.509 Y93.275 E4.83831
G1 X97.574 Y93.275 E4.91880
G1 X97.574 Y98.058 E5.04444
G1 X97.665 Y98.625 F7800.000
G1 X96.851 Y99.168 F7800.000
G1 F1200
G1 X99.874 Y99.175 E5.14339
G1 X100.392 Y99.190 E5.16036
G1 X100.882 Y99.231 E5.17646
G1 X102.614 Y99.740 F7800.000
G1 F1200
G1 X102.934 Y100.085 E5.18687
G1 F1200
G1 X103.401 Y100.611 E5.20623
G1 F1200
G1 X103.520 Y100.808 E5.21343
G1 F1200
G1 X103.634 Y101.030 E5.22200
G1 F1200
G1 X103.752 Y101.322 E5.23387
G1 X103.884 Y101.989 E5.25947
G1 X103.896 Y102.727 E5.28724
G1 X103.808 Y103.308 E5.30934
G1 F1200
G1 X103.732 Y103.598 E5.31966
G1 X103.583 Y103.945 E5.33267
G1 F1200
G1 X103.461 Y104.163 E5.34046
G1 F1200
G1 X103.237 Y104.452 E5.35023
G1 F1200
G1 X102.634 Y105.106 E5.37065
G1 X100.924 Y105.632 F7800.000
G1 F1200
G1 X100.026 Y105.688 E5.40033
G1 X96.851 Y105.690 E5.50507
G1 X96.041 Y105.511 F7800.000
G1 F1200
G1 X96.041 Y94.489 E5.84886
G1 Z2.000 F7800.000
G1 X97.096 Y99.728 F7800.000
G1 F900
G1 X99.866 Y99.728 E5.92581
G1 X100.330 Y99.752 E5.93871
G1 X100.781 Y99.827 E5.95140
G1 X101.212 Y99.961 E5.96394
G1 X101.598 Y100.152 E5.97592
G1 X101.892 Y100.357 E5.98588
G1 X102.235 Y100.697 E5.99928
G1 X102.508 Y101.116 E6.01317
G1 X102.689 Y101.585 E6.02714
G1 X102.781 Y102.089 E6.04137
G1 X102.790 Y102.666 E6.05740
G1 X102.690 Y103.281 E6.07469
G1 X102.531 Y103.706 E6.08730
G1 X102.223 Y104.186 E6.10316
G1 X101.860 Y104.533 E6.11711
G1 X101.550 Y104.739 E6.12744
G1 X101.090 Y104.946 E6.14144
G1 X100.594 Y105.071 E6.15566
G1 X100.220 Y105.118 E6.16613
G1 X99.862 Y105.132 E6.17609
G1 X97.096 Y105.132 E6.25290
G1 X97.096 Y99.803 E6.40092
G1 X97.574 Y100.205 F7800.000
G1 F900
G1 X99.854 Y100.205 E6.46082
G1 X100.278 Y100.227 E6.47198
G1 X100.670 Y100.293 E6.48240
G1 X101.034 Y100.406 E6.49242
G1 X101.355 Y100.564 E6.50181
G1 X101.585 Y100.726 E6.50921
G1 X101.863 Y101.000 E6.51947
G1 X102.080 Y101.335 E6.52994
G1 X102.227 Y101.715 E6.54065
G1 X102.304 Y102.137 E6.55190
G1 X102.312 Y102.632 E6.56490
G1 X102.226 Y103.158 E6.57890
G1 X102.102 Y103.491 E6.58825
G1 X101.852 Y103.880 E6.60041
G1 X101.560 Y104.159 E6.61100
G1 X101.318 Y104.320 E6.61863
G1 X100.933 Y104.493 E6.62973
G1 X100.505 Y104.601 E6.64131
G1 X100.181 Y104.642 E6.64989
G1 X99.852 Y104.654 E6.65853
G1 X97.574 Y104.654 E6.71838
G1 X97.574 Y100.280 E6.83326
G1 X97.495 Y99.712 F7800.000
G1 X101.101 Y99.413 F7800.000
G1 F900
G1 X101.152 Y99.153 E6.84060
G1 X101.349 Y99.170 E6.84610
G1 X101.942 Y99.273 E6.86283
G1 X102.275 Y99.359 E6.87236
G1 X102.593 Y99.465 E6.88167
G1 X103.123 Y99.714 E6.89794
G1 X103.466 Y99.945 E6.90943
G1 X103.757 Y100.202 E6.92022
G1 X104.085 Y100.624 E6.93506
G1 X104.319 Y101.116 E6.95018
G1 X104.469 Y101.718 E6.96743
G1 X104.522 Y102.446 E6.98771
G1 X104.512 Y102.752 E6.99620
G1 X104.459 Y103.207 E7.00893
G1 X104.332 Y103.710 E7.02335
G1 X104.248 Y103.924 E7.02971
G1 X104.079 Y104.245 E7.03981
G1 X103.969 Y104.406 E7.04521
G1 X103.697 Y104.717 E7.05670
G1 X103.421 Y104.951 E7.06674
G1 X103.051 Y105.184 E7.07888
G1 X102.628 Y105.379 E7.09183
G1 X102.135 Y105.539 E7.10623
G1 X101.570 Y105.658 E7.12227
G1 X101.207 Y105.709 E7.13245
G1 X101.136 Y105.463 E7.13955
G1 X101.788 Y105.171 E7.15939
G1 X102.168 Y104.918 E7.17206
G1 X102.604 Y104.501 E7.18883
G1 X102.972 Y103.927 E7.20777
G1 X103.167 Y103.408 E7.22317
G1 X103.282 Y102.702 E7.24303
G1 X103.271 Y102.041 E7.26140
G1 X103.163 Y101.452 E7.27803
G1 X102.948 Y100.892 E7.29471
G1 X102.618 Y100.385 E7.31149
G1 X102.208 Y99.979 E7.32752
G1 X101.849 Y99.728 E7.33969
G1 X101.394 Y99.504 E7.35376
G1 X101.173 Y99.435 E7.36022
G1 E5.36022 F2400.00000
G92 E0
G1 X96.605 Y94.243 F7800.000
G1 E2.00000 F2400.00000
G1 F900
G1 X96.605 Y105.757 E2.31981
G1 X95.477 Y105.757 E2.35114
G1 X95.477 Y94.243 E2.67095
G1 X96.530 Y94.243 E2.70020
G1 X97.096 Y98.609 F7800.000
G1 F3600
G1 X100.730 Y98.624 E2.80115
G1 X101.412 Y98.683 E2.82016
G1 X102.046 Y98.793 E2.83802
G1 X102.414 Y98.888 E2.84859
G1 X102.766 Y99.006 E2.85891
G1 X103.084 Y99.140 E2.86849
G1 X103.374 Y99.292 E2.87758
G1 X103.767 Y99.555 E2.89072
G1 X104.101 Y99.852 E2.90314
G1 X104.232 Y99.994 E2.90850
G1 X104.496 Y100.356 E2.92094
G1 X104.592 Y100.522 E2.92627
G1 X104.777 Y100.939 E2.93896
G1 X104.843 Y101.139 E2.94480
G1 X104.953 Y101.633 E2.95884
G1 X104.985 Y101.874 E2.96561
G1 X105.013 Y102.442 E2.98140
G1 X105.002 Y102.788 E2.99101
G1 X104.944 Y103.286 E3.00494
G1 X104.796 Y103.870 E3.02168
G1 X104.695 Y104.128 E3.02938
G1 X104.500 Y104.499 E3.04101
G1 X104.358 Y104.707 E3.04801
G1 X104.048 Y105.061 E3.06110
G1 X103.705 Y105.352 E3.07360
G1 X103.286 Y105.616 E3.08734
G1 X102.807 Y105.837 E3.10200
G1 X102.261 Y106.014 E3.11792
G1 X101.655 Y106.142 E3.13515
G1 X101.327 Y106.187 E3.14434
G1 X100.980 Y106.220 E3.15403
G1 X100.216 Y106.247 E3.17526
G1 X94.987 Y106.247 E3.32052
G1 X94.987 Y93.753 E3.66760
G1 X97.096 Y93.753 E3.72620
G1 X97.096 Y98.534 E3.85902
G1 X97.574 Y98.133 F7800.000
G1 F1800
G1 X100.752 Y98.147 E3.94250
G1 X101.474 Y98.209 E3.96153
G1 X102.146 Y98.326 E3.97946
G1 X102.550 Y98.430 E3.99040
G1 X102.935 Y98.559 E4.00109
G1 X103.288 Y98.708 E4.01114
G1 X103.618 Y98.881 E4.02093
G1 X104.059 Y99.177 E4.03489
G1 X104.437 Y99.511 E4.04813
G1 X104.602 Y99.691 E4.05454
G1 X104.897 Y100.095 E4.06768
G1 X105.019 Y100.305 E4.07406
G1 X105.224 Y100.768 E4.08736
G1 X105.304 Y101.012 E4.09412
G1 X105.424 Y101.549 E4.10856
G1 X105.461 Y101.831 E4.11603
G1 X105.491 Y102.438 E4.13198
G1 X105.479 Y102.823 E4.14211
G1 X105.416 Y103.363 E4.15638
G1 X105.344 Y103.703 E4.16551
G1 X105.248 Y104.026 E4.17435
G1 X105.130 Y104.327 E4.18286
G1 X104.910 Y104.745 E4.19526
G1 X104.737 Y105.000 E4.20336
G1 X104.390 Y105.396 E4.21720
G1 X103.980 Y105.743 E4.23128
G1 X103.515 Y106.037 E4.24574
G1 X102.981 Y106.283 E4.26118
G1 X102.385 Y106.476 E4.27765
G1 X101.737 Y106.612 E4.29503
G1 X101.382 Y106.662 E4.30444
G1 X101.011 Y106.697 E4.31424
G1 X100.224 Y106.725 E4.33491
G1 X94.509 Y106.725 E4.48503
G1 X94.509 Y93.275 E4.83831
G1 X97.574 Y93.275 E4.91881
G1 X97.574 Y98.058 E5.04445
G1 X97.666 Y98.625 F7800.000
G1 X96.851 Y99.168 F7800.000
G1 F1200
G1 X99.888 Y99.175 E5.14422
G1 X100.373 Y99.188 E5.16016
G1 X100.887 Y99.231 E5.17708
G1 X102.681 Y99.769 F7800.000
G1 F1200
G1 X103.382 Y100.583 E5.20412
G1 F1200
G1 X103.446 Y100.672 E5.20720
G1 F1200
G1 X103.594 Y100.944 E5.21687
G1 F1200
G1 X103.729 Y101.259 E5.22859
G1 X103.780 Y101.431 E5.23473
G1 F1200
G1 X103.883 Y101.974 E5.25534
G1 X103.897 Y102.714 E5.28296
G1 X103.845 Y103.107 E5.29776
G1 X103.761 Y103.514 E5.31327
G1 X103.582 Y103.947 E5.33076
G1 F1200
G1 X103.475 Y104.143 E5.33808
G1 F1200
G1 X103.239 Y104.449 E5.34936
G1 F1200
G1 X102.648 Y105.100 E5.37104
G1 X100.928 Y105.628 F7800.000
G1 F1200
G1 X100.279 Y105.680 E5.39243
G1 X99.878 Y105.689 E5.40563
G1 X96.851 Y105.690 E5.50513
G1 X96.041 Y105.511 F7800.000
G1 F1200
G1 X96.041 Y94.489 E5.84892
G1 Z2.400 F7800.000
G1 X97.096 Y99.728 F7800.000
G1 F900
G1 X99.868 Y99.728 E5.92591
G1 X100.354 Y99.755 E5.93944
G1 X100.772 Y99.825 E5.95122
G1 X101.221 Y99.965 E5.96427
G1 X101.584 Y100.144 E5.97551
G1 X101.907 Y100.370 E5.98646
G1 X102.222 Y100.683 E5.99880
G1 X102.503 Y101.105 E6.01289
G1 X102.689 Y101.586 E6.02721
G1 X102.782 Y102.102 E6.04178
G1 X102.789 Y102.681 E6.05785
G1 X102.690 Y103.282 E6.07478
G1 X102.520 Y103.728 E6.08804
G1 X102.212 Y104.198 E6.10363
G1 X101.881 Y104.515 E6.11638
G1 X101.542 Y104.744 E6.12773
G1 X101.073 Y104.951 E6.14199
G1 X100.612 Y105.068 E6.15521
G1 X100.004 Y105.129 E6.17218
G1 X97.096 Y105.132 E6.25295
G1 X97.096 Y99.803 E6.40099
G1 X97.574 Y100.205 F7800.000
G1 F900
G1 X99.855 Y100.205 E6.46090
G1 X100.301 Y100.230 E6.47264
G1 X100.661 Y100.291 E6.48222
G1 X101.043 Y100.410 E6.49275
G1 X101.340 Y100.556 E6.50143
G1 X101.600 Y100.738 E6.50976
G1 X101.851 Y100.987 E6.51907
G1 X102.076 Y101.326 E6.52975
G1 X102.227 Y101.716 E6.54072
G1 X102.305 Y102.148 E6.55225
G1 X102.311 Y102.645 E6.56530
G1 X102.227 Y103.157 E6.57894
G1 X102.092 Y103.510 E6.58886
G1 X101.843 Y103.891 E6.60082
G1 X101.580 Y104.142 E6.61038
G1 X101.311 Y104.324 E6.61891
G1 X100.917 Y104.498 E6.63023
G1 X100.529 Y104.597 E6.64074
G1 X99.980 Y104.652 E6.65524
G1 X97.574 Y104.654 E6.71843
G1 X97.574 Y100.280 E6.83331
G1 X97.491 Y99.712 F7800.000
G1 X101.096 Y99.412 F7800.000
G1 F900
G1 X101.147 Y99.153 E6.84066
G1 X101.343 Y99.170 E6.84612
G1 X101.971 Y99.280 E6.86383
G1 X102.266 Y99.356 E6.87229
G1 X102.856 Y99.576 E6.88980
G1 X103.323 Y99.840 E6.90471
G1 X103.585 Y100.043 E6.91391
G1 X103.869 Y100.328 E6.92508
G1 X104.076 Y100.610 E6.93480
G1 X104.304 Y101.078 E6.94925
G1 X104.369 Y101.272 E6.95496
G1 X104.465 Y101.696 E6.96701
G1 X104.497 Y101.940 E6.97384
G1 X104.522 Y102.444 E6.98786
G1 X104.510 Y102.780 E6.99720
G1 X104.465 Y103.169 E7.00808
G1 X104.332 Y103.708 E7.02352
G1 X104.191 Y104.045 E7.03366
G1 X104.073 Y104.255 E7.04035
G1 X103.971 Y104.404 E7.04537
G1 X103.714 Y104.700 E7.05626
G1 X103.385 Y104.976 E7.06819
G1 X103.076 Y105.170 E7.07833
G1 X102.629 Y105.379 E7.09203
G1 X102.107 Y105.546 E7.10725
G1 X101.630 Y105.647 E7.12079
G1 X101.200 Y105.710 E7.13288
G1 X101.128 Y105.463 E7.14002
G1 X101.781 Y105.176 E7.15983
G1 X102.191 Y104.899 E7.17357
G1 X102.593 Y104.513 E7.18904
G1 X102.960 Y103.952 E7.20766
G1 X103.166 Y103.410 E7.22377
G1 X103.281 Y102.718 E7.24326
G1 X103.272 Y102.055 E7.26168
G1 X103.164 Y101.452 E7.27869
G1 X102.941 Y100.878 E7.29579
G1 X102.604 Y100.369 E7.31275
G1 X102.223 Y99.992 E7.32766
G1 X101.834 Y99.720 E7.34083
G1 X101.403 Y99.508 E7.35416
G1 X101.167 Y99.434 E7.36104
G1 E5.36104 F2400.00000
G92 E0
G1 X96.605 Y94.243 F7800.000
G1 E2.00000 F2400.00000
G1 F900
G1 X96.605 Y105.757 E2.31981
G1 X95.477 Y105.757 E2.35114
G1 X95.477 Y94.243 E2.67095
G1 X96.530 Y94.243 E2.70020
G1 X97.096 Y98.609 F7800.000
G1 F3600
G1 X100.757 Y98.626 E2.80188
G1 X101.406 Y98.682 E2.82000
G1 X102.075 Y98.800 E2.83884
G1 X102.405 Y98.885 E2.84833
G1 X102.779 Y99.011 E2.85929
G1 X103.065 Y99.131 E2.86791
G1 X103.382 Y99.296 E2.87784
G1 X103.606 Y99.438 E2.88519
G1 X103.911 Y99.674 E2.89591
G1 X104.243 Y100.009 E2.90899
G1 X104.487 Y100.342 E2.92048
G1 X104.604 Y100.544 E2.92697
G1 X104.762 Y100.899 E2.93776
G1 X104.843 Y101.140 E2.94480
G1 X104.949 Y101.609 E2.95817
G1 X104.987 Y101.896 E2.96620
G1 X105.013 Y102.440 E2.98135
G1 X105.000 Y102.816 E2.99180
G1 X104.950 Y103.246 E3.00381
G1 X104.884 Y103.574 E3.01310
G1 X104.795 Y103.873 E3.02179
G1 X104.633 Y104.261 E3.03344
G1 X104.491 Y104.515 E3.04153
G1 X104.360 Y104.705 E3.04795
G1 X104.066 Y105.043 E3.06039
G1 X103.666 Y105.379 E3.07491
G1 X103.311 Y105.602 E3.08655
G1 X102.808 Y105.837 E3.10197
G1 X102.233 Y106.021 E3.11874
G1 X101.717 Y106.131 E3.13340
G1 X101.342 Y106.185 E3.14391
G1 X100.945 Y106.223 E3.15498
G1 X100.216 Y106.247 E3.17524
G1 X94.987 Y106.247 E3.32052
G1 X94.987 Y93.753 E3.66760
G1 X97.096 Y93.753 E3.72620
G1 X97.096 Y98.534 E3.85901
G1 X97.574 Y98.133 F7800.000
G1 F1800
G1 X100.778 Y98.148 E3.94319
G1 X101.469 Y98.208 E3.96138
G1 X102.176 Y98.333 E3.98025
G1 X102.541 Y98.427 E3.99016
G1 X102.948 Y98.564 E4.00144
G1 X103.268 Y98.699 E4.01056
G1 X103.621 Y98.882 E4.02099
G1 X103.880 Y99.047 E4.02906
G1 X104.228 Y99.316 E4.04062
G1 X104.607 Y99.698 E4.05474
G1 X104.888 Y100.081 E4.06722
G1 X105.030 Y100.328 E4.07471
G1 X105.207 Y100.726 E4.08615
G1 X105.303 Y101.010 E4.09404
G1 X105.419 Y101.525 E4.10790
G1 X105.463 Y101.853 E4.11659
G1 X105.491 Y102.437 E4.13195
G1 X105.476 Y102.852 E4.14286
G1 X105.422 Y103.321 E4.15525
G1 X105.348 Y103.689 E4.16513
G1 X105.245 Y104.034 E4.17457
G1 X105.063 Y104.470 E4.18699
G1 X104.897 Y104.767 E4.19592
G1 X104.738 Y104.998 E4.20328
G1 X104.409 Y105.376 E4.21646
G1 X104.186 Y105.581 E4.22442
G1 X103.939 Y105.771 E4.23259
G1 X103.540 Y106.022 E4.24498
G1 X102.982 Y106.282 E4.26114
G1 X102.356 Y106.483 E4.27842
G1 X101.801 Y106.601 E4.29332
G1 X101.399 Y106.660 E4.30398
G1 X100.976 Y106.699 E4.31515
G1 X100.225 Y106.725 E4.33489
G1 X94.509 Y106.725 E4.48502
G1 X94.509 Y93.275 E4.83830
G1 X97.574 Y93.275 E4.91880
G1 X97.574 Y98.058 E5.04443
G1 X97.665 Y98.625 F7800.000
G1 X96.851 Y99.168 F7800.000
G1 F1200
G1 X99.874 Y99.175 E5.14328
G1 X100.399 Y99.190 E5.16042
G1 X100.881 Y99.231 E5.17625
G1 X102.612 Y99.740 F7800.000
G1 F1200
G1 X102.930 Y100.082 E5.18663
G1 F1200
G1 X103.398 Y100.607 E5.20592
G1 F1200
G1 X103.519 Y100.807 E5.21322
G1 F1200
G1 X103.637 Y101.035 E5.22206
G1 F1200
G1 X103.752 Y101.323 E5.23369
G1 X103.885 Y101.995 E5.25947
G1 X103.896 Y102.734 E5.28728
G1 X103.808 Y103.306 E5.30905
G1 F1200
G1 X103.732 Y103.599 E5.31949
G1 X103.581 Y103.949 E5.33262
G1 F1200
G1 X103.457 Y104.170 E5.34053
G1 F1200
G1 X103.236 Y104.453 E5.35012
G1 F1200
G1 X102.629 Y105.108 E5.37051
G1 X100.921 Y105.632 F7800.000
G1 F1200
G1 X100.016 Y105.688 E5.40046
G1 X96.851 Y105.690 E5.50500
G1 X96.041 Y105.511 F7800.000
G1 F1200
G1 X96.041 Y94.489 E5.84879
G1 Z2.800 F7800.000
G1 X97.096 Y99.728 F7800.000
G1 F900
G1 X99.869 Y99.728 E5.92581
G1 X100.378 Y99.757 E5.93997
G1 X100.764 Y99.823 E5.95084
G1 X101.230 Y99.969 E5.96441
G1 X101.569 Y100.135 E5.97490
G1 X101.931 Y100.389 E5.98717
G1 X102.286 Y100.763 E6.00150
G1 X102.531 Y101.170 E6.01471
G1 X102.692 Y101.596 E6.02736
G1 X102.789 Y102.194 E6.04417
G1 X102.787 Y102.699 E6.05822
G1 X102.690 Y103.282 E6.07465
G1 X102.509 Y103.750 E6.08857
G1 X102.197 Y104.217 E6.10418
G1 X101.808 Y104.572 E6.11880
G1 X101.453 Y104.791 E6.13039
G1 X100.968 Y104.984 E6.14489
G1 X100.506 Y105.086 E6.15802
G1 X99.874 Y105.132 E6.17562
G1 X97.096 Y105.132 E6.25279
G1 X97.096 Y99.803 E6.40081
G1 X97.574 Y100.205 F7800.000
G1 F900
G1 X99.855 Y100.205 E6.46073
G1 X100.324 Y100.233 E6.47306
G1 X100.652 Y100.289 E6.48181
G1 X101.053 Y100.414 E6.49284
G1 X101.325 Y100.547 E6.50081
G1 X101.617 Y100.752 E6.51018
G1 X101.904 Y101.054 E6.52111
G1 X102.100 Y101.379 E6.53109
G1 X102.228 Y101.720 E6.54064
G1 X102.311 Y102.231 E6.55426
G1 X102.310 Y102.659 E6.56549
G1 X102.227 Y103.156 E6.57872
G1 X102.083 Y103.528 E6.58921
G1 X101.832 Y103.904 E6.60107
G1 X101.519 Y104.190 E6.61220
G1 X101.238 Y104.363 E6.62088
G1 X100.828 Y104.526 E6.63247
G1 X100.438 Y104.612 E6.64297
G1 X99.857 Y104.654 E6.65825
G1 X97.574 Y104.654 E6.71823
G1 X97.574 Y100.280 E6.83311
G1 X97.495 Y99.712 F7800.000
G1 X101.090 Y99.411 F7800.000
G1 F900
G1 X101.141 Y99.152 E6.84045
G1 X101.336 Y99.169 E6.84588
G1 X101.999 Y99.286 E6.86457
G1 X102.256 Y99.353 E6.87197
G1 X102.838 Y99.568 E6.88918
G1 X103.135 Y99.721 E6.89846
G1 X103.564 Y100.024 E6.91305
G1 X103.872 Y100.333 E6.92519
G1 X104.067 Y100.597 E6.93428
G1 X104.289 Y101.039 E6.94804
G1 X104.370 Y101.275 E6.95495
G1 X104.461 Y101.673 E6.96630
G1 X104.499 Y101.961 E6.97437
G1 X104.522 Y102.441 E6.98772
G1 X104.508 Y102.808 E6.99793
G1 X104.471 Y103.130 E7.00693
G1 X104.409 Y103.444 E7.01583
G1 X104.328 Y103.719 E7.02379
G1 X104.193 Y104.041 E7.03348
G1 X104.062 Y104.272 E7.04086
G1 X103.731 Y104.683 E7.05552
G1 X103.347 Y105.002 E7.06938
G1 X103.101 Y105.157 E7.07747
G1 X102.630 Y105.378 E7.09193
G1 X102.078 Y105.553 E7.10799
G1 X101.691 Y105.636 E7.11901
G1 X101.157 Y105.709 E7.13397
G1 X101.097 Y105.461 E7.14106
G1 X101.674 Y105.232 E7.15830
G1 X102.105 Y104.966 E7.17236
G1 X102.572 Y104.539 E7.18992
G1 X102.947 Y103.978 E7.20869
G1 X103.166 Y103.413 E7.22551
G1 X103.278 Y102.741 E7.24444
G1 X103.280 Y102.155 E7.26072
G1 X103.169 Y101.469 E7.28002
G1 X102.975 Y100.955 E7.29528
G1 X102.679 Y100.464 E7.31121
G1 X102.253 Y100.015 E7.32840
G1 X101.819 Y99.711 E7.34310
G1 X101.412 Y99.512 E7.35570
G1 X101.162 Y99.433 E7.36299
G1 E5.36299 F2400.00000
G92 E0
G1 X96.605 Y94.243 F7800.000
G1 E2.00000 F2400.00000
G1 F900
G1 X96.605 Y105.757 E2.31981
G1 X95.477 Y105.757 E2.35114
G1 X95.477 Y94.243 E2.67095
G1 X96.530 Y94.243 E2.70020
G1 X97.096 Y98.608 F7800.000
G1 F3600
G1 X100.783 Y98.627 E2.80261
G1 X101.401 Y98.682 E2.81984
G1 X102.104 Y98.806 E2.83967
G1 X102.792 Y99.016 E2.85966
G1 X103.380 Y99.295 E2.87775
G1 X103.639 Y99.461 E2.88628
G1 X103.889 Y99.655 E2.89507
G1 X104.246 Y100.012 E2.90909
G1 X104.479 Y100.328 E2.91999
G1 X104.616 Y100.567 E2.92765
G1 X104.746 Y100.859 E2.93653
G1 X104.843 Y101.139 E2.94477
G1 X104.945 Y101.586 E2.95748
G1 X104.989 Y101.917 E2.96677
G1 X105.013 Y102.439 E2.98128
G1 X104.998 Y102.845 E2.99258
G1 X104.957 Y103.205 E3.00264
G1 X104.887 Y103.562 E3.01273
G1 X104.791 Y103.884 E3.02208
G1 X104.634 Y104.257 E3.03332
G1 X104.479 Y104.532 E3.04209
G1 X104.361 Y104.704 E3.04786
G1 X104.084 Y105.024 E3.05964
G1 X103.871 Y105.221 E3.06770
G1 X103.626 Y105.407 E3.07623
G1 X103.336 Y105.588 E3.08574
G1 X102.809 Y105.836 E3.10192
G1 X102.204 Y106.028 E3.11954
G1 X101.779 Y106.119 E3.13162
G1 X101.358 Y106.183 E3.14345
G1 X100.911 Y106.225 E3.15592
G1 X100.217 Y106.247 E3.17521
G1 X94.987 Y106.247 E3.32050
G1 X94.987 Y93.753 E3.66759
G1 X97.096 Y93.753 E3.72619
G1 X97.096 Y98.533 E3.85899
G1 X97.574 Y98.133 F7800.000
G1 F1800
G1 X100.805 Y98.150 E3.94387
G1 X101.464 Y98.208 E3.96122
G1 X102.206 Y98.339 E3.98102
G1 X102.533 Y98.425 E3.98991
G1 X102.961 Y98.569 E4.00177
G1 X103.249 Y98.690 E4.00996
G1 X103.620 Y98.881 E4.02093
G1 X103.914 Y99.071 E4.03013
G1 X104.205 Y99.296 E4.03980
G1 X104.609 Y99.700 E4.05480
G1 X104.879 Y100.067 E4.06676
G1 X105.042 Y100.350 E4.07535
G1 X105.191 Y100.683 E4.08493
G1 X105.302 Y101.008 E4.09395
G1 X105.415 Y101.501 E4.10723
G1 X105.465 Y101.875 E4.11713
G1 X105.491 Y102.436 E4.13191
G1 X105.474 Y102.881 E4.14360
G1 X105.429 Y103.278 E4.15409
G1 X105.351 Y103.676 E4.16473
G1 X105.242 Y104.045 E4.17485
G1 X105.064 Y104.468 E4.18689
G1 X104.885 Y104.786 E4.19648
G1 X104.740 Y104.996 E4.20318
G1 X104.428 Y105.357 E4.21571
G1 X104.178 Y105.588 E4.22466
G1 X103.898 Y105.800 E4.23389
G1 X103.566 Y106.008 E4.24418
G1 X102.984 Y106.282 E4.26107
G1 X102.327 Y106.491 E4.27917
G1 X101.865 Y106.589 E4.29158
G1 X101.416 Y106.658 E4.30350
G1 X100.941 Y106.702 E4.31604
G1 X100.225 Y106.725 E4.33486
G1 X94.509 Y106.725 E4.48499
G1 X94.509 Y93.275 E4.83827
G1 X97.574 Y93.275 E4.91877
G1 X97.574 Y98.058 E5.04440
G1 X97.665 Y98.625 F7800.000
G1 X96.851 Y99.167 F7800.000
G1 F1200
G1 X99.876 Y99.175 E5.14281
G1 X100.424 Y99.192 E5.16065
G1 X100.876 Y99.231 E5.17540
G1 X102.298 Y99.626 F7800.000
G1 F1200
G1 X102.712 Y99.938 E5.18270
G1 F1200
G1 X103.053 Y100.207 E5.19079
G1 F1200
G1 X103.159 Y100.322 E5.19426
G1 F1200
G1 X103.343 Y100.547 E5.20206
G1 F1200
G1 X103.485 Y100.739 E5.20921
G1 F1200
G1 X103.580 Y100.914 E5.21581
G1 F1200
G1 X103.759 Y101.348 E5.23325
G1 X103.890 Y102.076 E5.26071
G1 X103.894 Y102.763 E5.28619
G1 X103.759 Y103.516 E5.31462
G1 F1200
G1 X103.660 Y103.780 E5.32385
G1 X103.524 Y104.057 E5.33397
G1 F1200
G1 X103.439 Y104.197 E5.33886
G1 F1200
G1 X103.232 Y104.458 E5.34779
G1 F1200
G1 X102.612 Y105.115 E5.36796
G1 X100.804 Y105.291 F7800.000
G1 F1200
G1 X100.565 Y105.643 E5.37998
G1 F1200
G1 X100.553 Y105.660 E5.38065
G1 X99.883 Y105.690 E5.40247
G1 X96.851 Y105.690 E5.50126
G1 X96.041 Y105.511 F7800.000
G1 F1200
G1 X96.041 Y94.489 E5.84505
G1 Z3.200 F7800.000
G1 X97.096 Y99.728 F7800.000
G1 F900
G1 X99.873 Y99.728 E5.92218
G1 X100.473 Y99.769 E5.93889
G1 X100.931 Y99.868 E5.95190
G1 X101.248 Y99.977 E5.96123
G1 X101.557 Y100.128 E5.97077
G1 X101.982 Y100.432 E5.98529
G1 X102.340 Y100.834 E6.00024
G1 X102.595 Y101.308 E6.01519
G1 X102.741 Y101.818 E6.02992
G1 X102.787 Y102.186 E6.04024
G1 X102.787 Y102.712 E6.05484
G1 X102.689 Y103.287 E6.07106
G1 X102.475 Y103.817 E6.08692
G1 X102.180 Y104.236 E6.10115
G1 X101.790 Y104.586 E6.11571
G1 X101.473 Y104.781 E6.12605
G1 X100.984 Y104.980 E6.14071
G1 X100.479 Y105.090 E6.15505
G1 X99.873 Y105.132 E6.17193
G1 X97.096 Y105.132 E6.24907
G1 X97.096 Y99.803 E6.39709
G1 X97.574 Y100.205 F7800.000
G1 F900
G1 X99.857 Y100.205 E6.45705
G1 X100.406 Y100.243 E6.47151
G1 X100.802 Y100.329 E6.48216
G1 X101.065 Y100.419 E6.48947
G1 X101.312 Y100.540 E6.49667
G1 X101.661 Y100.789 E6.50795
G1 X101.946 Y101.110 E6.51921
G1 X102.151 Y101.489 E6.53053
G1 X102.272 Y101.914 E6.54213
G1 X102.310 Y102.216 E6.55013
G1 X102.309 Y102.671 E6.56210
G1 X102.227 Y103.156 E6.57501
G1 X102.053 Y103.586 E6.58721
G1 X101.820 Y103.916 E6.59781
G1 X101.503 Y104.202 E6.60902
G1 X101.256 Y104.354 E6.61663
G1 X100.842 Y104.522 E6.62837
G1 X100.412 Y104.616 E6.63993
G1 X99.857 Y104.654 E6.65455
G1 X97.574 Y104.654 E6.71451
G1 X97.574 Y100.280 E6.82939
G1 X97.495 Y99.712 F7800.000
G1 X101.101 Y99.407 F7800.000
G1 F900
G1 X101.155 Y99.152 E6.83664
G1 X102.027 Y99.293 E6.86116
G1 X102.247 Y99.351 E6.86748
G1 X102.819 Y99.559 E6.88441
G1 X103.133 Y99.720 E6.89419
G1 X103.557 Y100.017 E6.90857
G1 X103.856 Y100.311 E6.92023
G1 X104.058 Y100.583 E6.92964
G1 X104.274 Y101.000 E6.94269
G1 X104.370 Y101.276 E6.95080
G1 X104.457 Y101.650 E6.96147
G1 X104.501 Y101.982 E6.97077
G1 X104.522 Y102.438 E6.98346
G1 X104.477 Y103.091 E7.00163
G1 X104.412 Y103.433 E7.01131
G1 X104.324 Y103.730 E7.01989
G1 X104.195 Y104.037 E7.02916
G1 X104.052 Y104.289 E7.03720
G1 X103.748 Y104.665 E7.05064
G1 X103.549 Y104.849 E7.05817
G1 X103.309 Y105.028 E7.06648
G1 X103.126 Y105.143 E7.07248
G1 X102.630 Y105.378 E7.08772
G1 X102.049 Y105.561 E7.10464
G1 X101.751 Y105.625 E7.11311
G1 X101.164 Y105.708 E7.12960
G1 X101.104 Y105.461 E7.13665
G1 X101.695 Y105.220 E7.15440
G1 X102.085 Y104.980 E7.16710
G1 X102.549 Y104.564 E7.18443
G1 X102.908 Y104.053 E7.20178
G1 X103.164 Y103.422 E7.22068
G1 X103.277 Y102.754 E7.23952
G1 X103.278 Y102.156 E7.25613
G1 X103.224 Y101.719 E7.26835
G1 X103.053 Y101.122 E7.28562
G1 X102.745 Y100.551 E7.30364
G1 X102.313 Y100.064 E7.32170
G1 X101.809 Y99.705 E7.33890
G1 X101.437 Y99.523 E7.35041
G1 X101.172 Y99.432 E7.35819
G1 E5.35819 F2400.00000
G92 E0
G1 X96.605 Y94.243 F7800.000
G1 E2.00000 F2400.00000
G1 F900
G1 X96.605 Y105.757 E2.31981
G1 X95.477 Y105.757 E2.35114
G1 X95.477 Y94.243 E2.67095
G1 X96.530 Y94.243 E2.70020
G1 X97.096 Y98.612 F7800.000
G1 F3600
G1 X100.219 Y98.612 E2.78695
G1 X100.801 Y98.628 E2.80313
G1 X101.395 Y98.681 E2.81968
G1 X102.132 Y98.813 E2.84049
G1 X102.805 Y99.021 E2.86005
G1 X103.379 Y99.295 E2.87771
G1 X103.672 Y99.484 E2.88741
G1 X103.876 Y99.643 E2.89458
G1 X104.237 Y99.999 E2.90867
G1 X104.470 Y100.314 E2.91956
G1 X104.628 Y100.590 E2.92839
G1 X104.730 Y100.818 E2.93533
G1 X104.842 Y101.139 E2.94477
G1 X104.941 Y101.562 E2.95684
G1 X104.991 Y101.939 E2.96739
G1 X105.013 Y102.437 E2.98125
G1 X104.996 Y102.874 E2.99340
G1 X104.963 Y103.164 E3.00151
G1 X104.890 Y103.549 E3.01239
G1 X104.787 Y103.895 E3.02241
G1 X104.636 Y104.254 E3.03324
G1 X104.468 Y104.550 E3.04270
G1 X104.363 Y104.702 E3.04782
G1 X104.102 Y105.006 E3.05894
G1 X103.864 Y105.227 E3.06798
G1 X103.587 Y105.434 E3.07758
G1 X103.362 Y105.574 E3.08494
G1 X102.810 Y105.836 E3.10190
G1 X102.175 Y106.036 E3.12039
G1 X101.374 Y106.181 E3.14300
G1 X100.877 Y106.227 E3.15688
G1 X100.218 Y106.247 E3.17520
G1 X94.987 Y106.247 E3.32051
G1 X94.987 Y93.753 E3.66759
G1 X97.096 Y93.753 E3.72619
G1 X97.096 Y98.537 E3.85910
G1 X97.574 Y98.135 F7800.000
G1 F1800
G1 X100.226 Y98.135 E3.92875
G1 X100.829 Y98.151 E3.94461
G1 X101.458 Y98.207 E3.96121
G1 X102.235 Y98.346 E3.98194
G1 X102.525 Y98.422 E3.98980
G1 X102.974 Y98.574 E4.00225
G1 X103.229 Y98.681 E4.00951
G1 X103.618 Y98.881 E4.02101
G1 X103.949 Y99.095 E4.03135
G1 X104.186 Y99.279 E4.03923
G1 X104.606 Y99.697 E4.05481
G1 X104.870 Y100.053 E4.06645
G1 X105.054 Y100.373 E4.07615
G1 X105.174 Y100.641 E4.08386
G1 X105.302 Y101.006 E4.09400
G1 X105.411 Y101.476 E4.10670
G1 X105.467 Y101.896 E4.11783
G1 X105.491 Y102.436 E4.13201
G1 X105.472 Y102.911 E4.14449
G1 X105.435 Y103.236 E4.15309
G1 X105.354 Y103.662 E4.16448
G1 X105.238 Y104.056 E4.17527
G1 X105.065 Y104.466 E4.18695
G1 X104.872 Y104.805 E4.19719
G1 X104.741 Y104.994 E4.20324
G1 X104.447 Y105.337 E4.21511
G1 X104.170 Y105.595 E4.22505
G1 X103.856 Y105.829 E4.23533
G1 X103.591 Y105.994 E4.24354
G1 X102.985 Y106.281 E4.26116
G1 X102.298 Y106.498 E4.28008
G1 X101.433 Y106.656 E4.30316
G1 X100.906 Y106.704 E4.31707
G1 X100.225 Y106.725 E4.33496
G1 X94.509 Y106.725 E4.48510
G1 X94.509 Y93.275 E4.83838
G1 X97.574 Y93.275 E4.91888
G1 X97.574 Y98.060 E5.04455
G1 X97.667 Y98.626 F7800.000
G1 X96.851 Y99.170 F7800.000
G1 F1200
G1 X99.881 Y99.170 E5.14337
G1 X100.556 Y99.198 E5.16540
G1 X100.813 Y99.581 E5.18043
G1 X102.783 Y99.816 F7800.000
G1 F1200
G1 X103.386 Y100.598 E5.20648
G1 F1200
G1 X103.598 Y100.938 E5.21838
G1 F1200
G1 X103.711 Y101.225 E5.22905
G1 X103.814 Y101.570 E5.24151
G1 X103.893 Y102.141 E5.26146
G1 F1200
G1 X103.887 Y102.836 E5.28767
G1 X103.812 Y103.288 E5.30493
G1 X103.725 Y103.621 E5.31791
G1 F1200
G1 X103.522 Y104.054 E5.33447
G1 F1200
G1 X103.386 Y104.277 E5.34279
G1 F1200
G1 X103.229 Y104.465 E5.34941
G1 F1200
G1 X102.585 Y105.128 E5.37149
G1 X100.807 Y105.281 F7800.000
G1 F1200
G1 X100.559 Y105.661 E5.38556
G1 X99.881 Y105.690 E5.40664
G1 X96.851 Y105.690 E5.50077
G1 X96.041 Y105.511 F7800.000
G1 F1200
G1 X96.041 Y94.489 E5.84455
G1 Z3.600 F7800.000
G1 E3.84455 F2400.00000
G92 E0
G1 X97.096 Y99.728 F7800.000
G1 E2.00000 F2400.00000
G1 F900
G1 X99.872 Y99.728 E2.07709
G1 X100.452 Y99.766 E2.09325
G1 X100.976 Y99.880 E2.10815
G1 X101.262 Y99.983 E2.11660
G1 X101.539 Y100.118 E2.12516
G1 X101.974 Y100.424 E2.13994
G1 X102.341 Y100.835 E2.15522
G1 X102.601 Y101.320 E2.17050
G1 X102.745 Y101.839 E2.18549
G1 X102.786 Y102.165 E2.19462
G1 X102.786 Y102.725 E2.21015
G1 X102.690 Y103.284 E2.22592
G1 X102.483 Y103.802 E2.24142
G1 X102.170 Y104.248 E2.25654
G1 X101.771 Y104.599 E2.27129
G1 X101.492 Y104.771 E2.28040
G1 X100.999 Y104.976 E2.29522
G1 X100.452 Y105.094 E2.31077
G1 X99.871 Y105.132 E2.32694
G1 X97.096 Y105.132 E2.40403
G1 X97.096 Y99.803 E2.55205
G1 X97.574 Y100.205 F7800.000
G1 F900
G1 X99.856 Y100.205 E2.61199
G1 X100.385 Y100.240 E2.62592
G1 X100.843 Y100.340 E2.63824
G1 X101.077 Y100.424 E2.64475
G1 X101.296 Y100.531 E2.65116
G1 X101.654 Y100.783 E2.66267
G1 X101.946 Y101.110 E2.67420
G1 X102.155 Y101.499 E2.68577
G1 X102.276 Y101.934 E2.69763
G1 X102.308 Y102.195 E2.70455
G1 X102.308 Y102.684 E2.71738
G1 X102.227 Y103.154 E2.72991
G1 X102.060 Y103.574 E2.74178
G1 X101.811 Y103.927 E2.75313
G1 X101.486 Y104.214 E2.76452
G1 X101.274 Y104.344 E2.77107
G1 X100.856 Y104.518 E2.78295
G1 X100.386 Y104.620 E2.79558
G1 X99.856 Y104.654 E2.80953
G1 X97.574 Y104.654 E2.86948
G1 X97.574 Y100.280 E2.98436
G1 X97.495 Y99.712 F7800.000
G1 E0.98436 F2400.00000
G92 E0
G1 X101.107 Y99.406 F7800.000
G1 E2.00000 F2400.00000
G1 F900
G1 X101.163 Y99.153 E2.00720
G1 X102.028 Y99.295 E2.03155
G1 X102.801 Y99.551 E2.05417
G1 X103.131 Y99.719 E2.06447
G1 X103.534 Y99.996 E2.07804
G1 X103.858 Y100.313 E2.09063
G1 X104.049 Y100.570 E2.09954
G1 X104.259 Y100.962 E2.11187
G1 X104.371 Y101.277 E2.12117
G1 X104.453 Y101.628 E2.13117
G1 X104.503 Y102.003 E2.14169
G1 X104.522 Y102.436 E2.15372
G1 X104.483 Y103.052 E2.17087
G1 X104.415 Y103.422 E2.18133
G1 X104.321 Y103.740 E2.19054
G1 X104.197 Y104.033 E2.19938
G1 X104.041 Y104.305 E2.20809
G1 X103.765 Y104.648 E2.22031
G1 X103.542 Y104.855 E2.22875
G1 X103.272 Y105.055 E2.23809
G1 X102.631 Y105.377 E2.25802
G1 X102.041 Y105.562 E2.27518
G1 X101.171 Y105.707 E2.29970
G1 X101.110 Y105.461 E2.30672
G1 X101.716 Y105.209 E2.32496
G1 X102.064 Y104.995 E2.33631
G1 X102.538 Y104.578 E2.35383
G1 X102.917 Y104.038 E2.37216
G1 X103.165 Y103.418 E2.39069
G1 X103.277 Y102.767 E2.40906
G1 X103.277 Y102.135 E2.42661
G1 X103.228 Y101.743 E2.43759
G1 X103.059 Y101.136 E2.45509
G1 X102.746 Y100.551 E2.47350
G1 X102.303 Y100.055 E2.49197
G1 X101.789 Y99.693 E2.50942
G1 X101.453 Y99.530 E2.51981
G1 X101.177 Y99.431 E2.52795
G1 E0.52795 F2400.00000
G92 E0
G1 X96.605 Y94.243 F7800.000
G1 E2.00000 F2400.00000
G1 F900
G1 X96.605 Y105.757 E2.31981
G1 X95.477 Y105.757 E2.35114
G1 X95.477 Y94.243 E2.67095
G1 X96.530 Y94.243 E2.70020
G1 E0.70020 F2400.00000
G92 E0
G1 X97.096 Y98.612 F7800.000
G1 E2.00000 F2400.00000
G1 F3600
G1 X100.219 Y98.612 E2.08674
G1 X100.827 Y98.629 E2.10365
G1 X101.389 Y98.680 E2.11933
G1 X102.145 Y98.817 E2.14066
G1 X102.826 Y99.029 E2.16048
G1 X103.378 Y99.294 E2.17747
G1 X103.852 Y99.623 E2.19351
G1 X104.238 Y100.001 E2.20853
G1 X104.461 Y100.301 E2.21890
G1 X104.640 Y100.614 E2.22891
G1 X104.842 Y101.138 E2.24452
G1 X104.937 Y101.539 E2.25595
G1 X104.993 Y101.960 E2.26775
G1 X105.013 Y102.436 E2.28098
G1 X104.993 Y102.904 E2.29400
G1 X104.893 Y103.536 E2.31179
G1 X104.783 Y103.906 E2.32249
G1 X104.637 Y104.251 E2.33291
G1 X104.364 Y104.700 E2.34751
G1 X104.121 Y104.987 E2.35797
G1 X103.856 Y105.233 E2.36800
G1 X103.547 Y105.462 E2.37867
G1 X103.388 Y105.560 E2.38387
G1 X102.811 Y105.835 E2.40162
G1 X102.159 Y106.039 E2.42060
G1 X101.383 Y106.180 E2.44250
G1 X100.842 Y106.229 E2.45759
G1 X100.218 Y106.247 E2.47493
G1 X94.987 Y106.247 E2.62026
G1 X94.987 Y93.753 E2.96734
G1 X97.096 Y93.753 E3.02594
G1 X97.096 Y98.537 E3.15885
G1 X97.574 Y98.135 F7800.000
G1 F1800
G1 X100.225 Y98.135 E3.22850
G1 X100.856 Y98.152 E3.24506
G1 X101.453 Y98.207 E3.26083
G1 X102.259 Y98.352 E3.28233
G1 X102.990 Y98.580 E3.30244
G1 X103.617 Y98.880 E3.32071
G1 X103.983 Y99.119 E3.33218
G1 X104.163 Y99.259 E3.33816
G1 X104.608 Y99.699 E3.35460
G1 X104.861 Y100.039 E3.36575
G1 X105.065 Y100.396 E3.37655
G1 X105.157 Y100.599 E3.38239
G1 X105.301 Y101.003 E3.39366
G1 X105.407 Y101.452 E3.40578
G1 X105.469 Y101.918 E3.41813
G1 X105.491 Y102.435 E3.43173
G1 X105.470 Y102.940 E3.44499
G1 X105.358 Y103.648 E3.46382
G1 X105.234 Y104.067 E3.47529
G1 X105.066 Y104.463 E3.48660
G1 X104.743 Y104.992 E3.50288
G1 X104.467 Y105.318 E3.51410
G1 X104.162 Y105.601 E3.52503
G1 X103.815 Y105.857 E3.53636
G1 X103.617 Y105.980 E3.54247
G1 X102.986 Y106.281 E3.56082
G1 X102.273 Y106.504 E3.58044
G1 X101.448 Y106.654 E3.60248
G1 X100.871 Y106.706 E3.61769
G1 X100.225 Y106.725 E3.63466
G1 X94.509 Y106.725 E3.78481
G1 X94.509 Y93.275 E4.13808
G1 X97.574 Y93.275 E4.21858
G1 X97.574 Y98.060 E4.34425
G1 X97.667 Y98.626 F7800.000
G1 X96.851 Y99.170 F7800.000
G1 F1200
G1 X99.900 Y99.170 E4.44387
G1 X100.508 Y99.194 E4.46374
G1 X100.892 Y99.239 E4.47638
G1 X102.784 Y99.817 F7800.000
G1 F1200
G1 X103.393 Y100.608 E4.50247
G1 F1200
G1 X103.606 Y100.955 E4.51461
G1 F1200
G1 X103.699 Y101.188 E4.52334
G1 X103.820 Y101.597 E4.53820
G1 X103.892 Y102.120 E4.55662
G1 F1200
G1 X103.890 Y102.820 E4.58308
G1 X103.814 Y103.278 E4.60061
G1 X103.727 Y103.615 E4.61376
G1 F1200
G1 X103.524 Y104.053 E4.63052
G1 F1200
G1 X103.399 Y104.261 E4.63824
G1 F1200
G1 X103.223 Y104.470 E4.64569
G1 F1200
G1 X102.578 Y105.131 E4.66771
G1 X100.897 Y105.620 F7800.000
G1 F1200
G1 X100.508 Y105.665 E4.68051
G1 X99.899 Y105.689 E4.70040
G1 X96.851 Y105.690 E4.80002
G1 X96.041 Y105.511 F7800.000
G1 F1200
G1 X96.041 Y94.489 E5.14380
G1 E3.14380 F2400.00000
G92 E0
M107
; Filament-specific end gcode 
;END gcode for filament

M104 S0 ; turn off temperature
G28 X0  ; home X axis
M84     ; disable motors

M140 S0 ; set bed temperature
; filament used = 48.3mm (0.3cm3)
; total filament cost = 0.0

; avoid_crossing_perimeters = 0
; bed_shape = 0x0,200x0,200x200,0x200
; bed_temperature = 0
; before_layer_gcode = 
; between_objects_gcode = 
; bridge_acceleration = 0
; bridge_fan_speed = 100
; brim_connections_width = 0
; brim_width = 0
; complete_objects = 0
; cooling = 1
; default_acceleration = 0
; disable_fan_first_layers = 3
; duplicate_distance = 6
; end_filament_gcode = "; Filament-specific end gcode \n;END gcode for filament\n"
; end_gcode = M104 S0 ; turn off temperature\nG28 X0  ; home X axis\nM84     ; disable motors\n
; extruder_clearance_height = 20
; extruder_clearance_radius = 20
; extruder_offset = 0x0
; extrusion_axis = E
; extrusion_multiplier = 1
; fan_always_on = 0
; fan_below_layer_time = 60
; filament_colour = #FFFFFF
; filament_cost = 0
; filament_density = 0
; filament_diameter = 3
; filament_max_volumetric_speed = 0
; filament_notes = ""
; first_layer_acceleration = 0
; first_layer_bed_temperature = 0
; first_layer_extrusion_width = 200%
; first_layer_speed = 30
; first_layer_temperature = 205
; gcode_arcs = 0
; gcode_comments = 0
; gcode_flavor = reprap
; has_heatbed = 1
; infill_acceleration = 0
; infill_first = 0
; interior_brim_width = 0
; layer_gcode = 
; max_fan_speed = 100
; max_layer_height = 0.3
; max_print_speed = 80
; max_volumetric_speed = 0
; min_fan_speed = 35
; min_layer_height = 0.15
; min_print_speed = 10
; min_skirt_length = 0
; notes = 
; nozzle_diameter = 0.5
; only_retract_when_crossing_perimeters = 1
; ooze_prevention = 0
; output_filename_format = [input_filename_base].gcode
; perimeter_acceleration = 0
; post_process = 
; pressure_advance = 0
; printer_notes = 
; resolution = 0
; retract_before_travel = 2
; retract_layer_change = 0
; retract_length = 2
; retract_length_toolchange = 10
; retract_lift = 0
; retract_lift_above = 0
; retract_lift_below = 0
; retract_restart_extra = 0
; retract_restart_extra_toolchange = 0
; retract_speed = 40
; skirt_distance = 6
; skirt_height = 1
; skirts = 0
; slowdown_below_layer_time = 5
; spiral_vase = 0
; standby_temperature_delta = -5
; start_filament_gcode = "; Filament gcode\n"
; start_gcode = G28 ; home all axes\nG1 Z5 F5000 ; lift nozzle\n
; temperature = 200
; threads = 8
; toolchange_gcode = 
; travel_speed = 130
; use_firmware_retraction = 0
; use_relative_e_distances = 0
; use_set_and_wait_bed = 0
; use_set_and_wait_extruder = 0
; use_volumetric_e = 0
; vibration_limit = 0
; wipe = 0
; z_offset = 0
; z_steps_per_mm = 0
; adaptive_slicing = 0
; adaptive_slicing_quality = 75%
; dont_support_bridges = 1
; extrusion_width = 0
; first_layer_height = 0.4
; infill_only_where_needed = 0
; interface_shells = 0
; layer_height = 0.4
; match_horizontal_surfaces = 0
; raft_layers = 0
; regions_overlap = 0
; seam_position = aligned
; sequential_print_priority = 0
; support_material = 0
; support_material_angle = 0
; support_material_buildplate_only = 0
; support_material_contact_distance = 0.2
; support_material_enforce_layers = 0
; support_material_extruder = 1
; support_material_extrusion_width = 0
; support_material_interface_extruder = 1
; support_material_interface_extrusion_width = 0
; support_material_interface_layers = 3
; support_material_interface_spacing = 0
; support_material_interface_speed = 100%
; support_material_max_layers = 0
; support_material_pattern = pillars
; support_material_spacing = 2.5
; support_material_speed = 60
; support_material_threshold = 60%
; xy_size_compensation = 0
; bottom_infill_pattern = rectilinear
; bottom_solid_layers = 3
; bridge_flow_ratio = 1
; bridge_speed = 60
; external_perimeter_extrusion_width = 0
; external_perimeter_speed = 50%
; external_perimeters_first = 0
; extra_perimeters = 1
; fill_angle = 45
; fill_density = 40%
; fill_gaps = 1
; fill_pattern = grid
; gap_fill_speed = 20
; infill_every_layers = 1
; infill_extruder = 1
; infill_extrusion_width = 0
; infill_overlap = 55%
; infill_speed = 80
; overhangs = 1
; perimeter_extruder = 1
; perimeter_extrusion_width = 0
; perimeter_speed = 60
; perimeters = 3
; small_perimeter_speed = 15
; solid_infill_below_area = 70
; solid_infill_every_layers = 0
; solid_infill_extruder = 1
; solid_infill_extrusion_width = 0
; solid_infill_speed = 20
; thin_walls = 1
; top_infill_extrusion_width = 0
; top_infill_pattern = rectilinear
; top_solid_infill_speed = 15
; top_solid_layers = 3
