; generated by Slic3r 1.3.0 on 2021-06-02 at 11:20:00

; external perimeters extrusion width = 0.50mm (5.89mm^3/s)
; perimeters extrusion width = 0.50mm (11.78mm^3/s)
; infill extrusion width = 0.50mm (15.71mm^3/s)
; solid infill extrusion width = 0.50mm (3.93mm^3/s)
; top infill extrusion width = 0.50mm (2.95mm^3/s)

M107
M104 S205 ; set temperature
G28 ; home all axes
G1 Z5 F5000 ; lift nozzle

; Filament gcode

M109 S205 ; set temperature and wait for it to be reached
G21 ; set units to millimeters
G90 ; use absolute coordinates
M82 ; use absolute distances for extrusion
G92 E0
G1 Z0.500 F7800.000
G1 E-2.00000 F2400.00000
G92 E0
G1 X96.995 Y96.298 F7800.000
G1 E2.00000 F2400.00000
G1 F869.064
G1 X96.298 Y96.995 E2.06615
G1 X96.021 Y97.303 E2.09396
G1 X95.781 Y97.641 E2.12178
G1 X95.574 Y98.012 E2.15030
G1 X95.404 Y98.415 E2.17964
G1 X95.273 Y98.842 E2.20958
G1 X95.157 Y99.477 E2.25294
G1 X99.476 Y95.158 E2.66287
G1 X99.817 Y95.119 E2.68587
G1 X100.362 Y95.100 E2.72246
G1 X100.858 Y95.118 E2.75582
G1 X99.246 Y96.730 E2.90880
G1 X99.491 Y96.708 E2.92531
G1 X99.822 Y96.708 E2.94750
G1 X100.134 Y96.738 E2.96852
G1 X100.499 Y96.819 E2.99364
G1 X102.001 Y95.317 E3.13616
G1 X102.283 Y95.404 E3.15599
G1 X102.686 Y95.574 E3.18533
G1 X102.943 Y95.717 E3.20508
G1 X101.377 Y97.283 E3.35374
G1 X101.700 Y97.605 E3.38431
G1 X101.987 Y98.015 E3.41794
G1 X103.704 Y96.298 E3.58092
G1 X103.980 Y96.608 E3.60878
G1 X104.284 Y97.060 E3.64533
G1 X102.365 Y98.979 E3.82749
G1 X102.472 Y99.577 E3.86828
G1 X102.512 Y100.174 E3.90843
G1 X104.683 Y98.003 E4.11452
G1 X104.824 Y98.618 E4.15689
G1 X104.882 Y99.145 E4.19249
G1 X102.381 Y101.646 E4.42985
G1 E2.42985 F2400.00000
G92 E0
G1 X103.008 Y103.703 F7800.000
G1 E2.00000 F2400.00000
G1 F869.064
G1 X103.705 Y103.006 E2.06615
G1 X103.981 Y102.697 E2.09392
G1 X104.221 Y102.359 E2.12173
G1 X104.427 Y101.988 E2.15026
G1 X104.597 Y101.584 E2.17964
G1 X104.727 Y101.156 E2.20966
G1 X104.842 Y100.528 E2.25254
G1 X100.527 Y104.842 E2.66207
G1 X100.191 Y104.881 E2.68480
G1 X99.657 Y104.901 E2.72065
G1 X99.146 Y104.882 E2.75497
G1 X100.757 Y103.271 E2.90789
G1 X100.351 Y103.296 E2.93518
G1 X100.037 Y103.282 E2.95630
G1 X99.716 Y103.234 E2.97808
G1 X99.506 Y103.180 E2.99264
G1 X98.004 Y104.682 E3.13518
G1 X97.723 Y104.596 E3.15486
G1 X97.320 Y104.426 E3.18425
G1 X97.061 Y104.282 E3.20410
G1 X98.629 Y102.715 E3.35286
G1 X98.308 Y102.395 E3.38326
G1 X98.020 Y101.982 E3.41706
G1 X96.300 Y103.702 E3.58028
G1 X96.022 Y103.392 E3.60820
G1 X95.719 Y102.941 E3.64465
G1 X97.642 Y101.018 E3.82724
G1 X97.536 Y100.418 E3.86810
G1 X97.496 Y99.822 E3.90820
G1 X95.319 Y101.999 E4.11482
G1 X95.177 Y101.378 E4.15761
G1 X95.118 Y100.858 E4.19270
G1 X97.627 Y98.350 E4.43079
M104 S200 ; set temperature
G1 Z1.000 F7800.000
G1 X96.622 Y103.683 F7800.000
G1 F1200
G1 X96.024 Y103.052 E4.45537
G1 X95.757 Y102.676 E4.46839
G1 X95.542 Y102.288 E4.48095
G1 X95.362 Y101.858 E4.49410
G1 X98.142 Y104.638 E4.60519
G1 X98.586 Y104.774 E4.61833
G1 X98.909 Y104.840 E4.62765
G1 X95.160 Y101.091 E4.77751
G1 X95.068 Y100.434 E4.79625
G1 X99.566 Y104.932 E4.97602
G1 X100.155 Y104.956 E4.99268
G1 X95.044 Y99.845 E5.19698
G1 X95.064 Y99.300 E5.21239
G1 X97.950 Y102.186 E5.32774
G1 X97.809 Y101.856 E5.33788
G1 X97.662 Y101.333 E5.35323
G1 X95.122 Y98.792 E5.45479
G1 X95.217 Y98.323 E5.46834
G1 X97.569 Y100.675 E5.56238
G1 X97.550 Y100.091 E5.57891
G1 X95.346 Y97.886 E5.66702
G1 X95.509 Y97.485 E5.67928
G1 X97.576 Y99.552 E5.76189
G1 X97.645 Y99.055 E5.77605
G1 X95.704 Y97.115 E5.85361
G1 X95.929 Y96.775 E5.86513
G1 X97.757 Y98.603 E5.93819
G1 X97.914 Y98.194 E5.95055
G1 X96.184 Y96.464 E6.01969
G1 X96.316 Y96.317 E6.02529
G1 X96.467 Y96.182 E6.03100
G1 X98.114 Y97.830 E6.09687
G1 X98.359 Y97.510 E6.10826
G1 X96.778 Y95.928 E6.17148
G1 X97.117 Y95.703 E6.18300
G1 X98.652 Y97.237 E6.24433
G1 X98.997 Y97.017 E6.25590
G1 X97.488 Y95.508 E6.31623
G1 X97.890 Y95.346 E6.32850
G1 X99.404 Y96.859 E6.38899
G1 X99.882 Y96.772 E6.40272
G1 X98.326 Y95.217 E6.46488
G1 X98.796 Y95.121 E6.47843
G1 X100.448 Y96.773 E6.54445
G1 X100.859 Y96.845 E6.55625
G1 X101.205 Y96.965 E6.56658
G1 X99.303 Y95.064 E6.64257
G1 X99.850 Y95.045 E6.65803
G1 X104.956 Y100.151 E6.86212
G1 X104.932 Y99.562 E6.87878
G1 X100.437 Y95.067 E7.05844
G1 X101.094 Y95.159 E7.07718
G1 X104.841 Y98.905 E7.22693
G1 X104.774 Y98.580 E7.23632
G1 X104.638 Y98.138 E7.24939
G1 X101.862 Y95.362 E7.36034
G1 X102.294 Y95.542 E7.37357
G1 X102.695 Y95.766 E7.38655
G1 X103.052 Y96.021 E7.39894
G1 X103.687 Y96.621 E7.42363
G1 X104.936 Y100.696 F7800.000
G1 F1200
G1 X102.062 Y97.822 E7.53851
G1 X102.250 Y98.295 E7.55293
G1 X102.347 Y98.672 E7.56392
G1 X104.879 Y101.204 E7.66511
G1 X104.784 Y101.674 E7.67867
G1 X102.439 Y99.329 E7.77240
G1 X102.457 Y99.913 E7.78891
G1 X104.656 Y102.111 E7.87677
G1 X104.640 Y102.162 E7.87827
G1 X104.493 Y102.513 E7.88904
G1 X102.431 Y100.451 E7.97144
G1 X102.362 Y100.947 E7.98559
G1 X104.298 Y102.884 E8.06299
G1 X104.074 Y103.224 E8.07452
G1 X102.249 Y101.400 E8.14744
G1 X102.093 Y101.808 E8.15981
G1 X103.820 Y103.535 E8.22884
G1 X103.537 Y103.818 E8.24013
G1 X101.892 Y102.172 E8.30591
G1 X101.646 Y102.492 E8.31730
G1 X103.227 Y104.072 E8.38046
G1 X102.887 Y104.298 E8.39198
G1 X101.354 Y102.765 E8.45327
G1 X101.008 Y102.984 E8.46485
G1 X102.517 Y104.493 E8.52516
G1 X102.114 Y104.655 E8.53743
G1 X100.601 Y103.142 E8.59790
G1 X100.123 Y103.228 E8.61165
G1 X101.678 Y104.784 E8.67382
G1 X101.208 Y104.879 E8.68738
G1 X99.555 Y103.226 E8.75343
G1 X99.148 Y103.155 E8.76511
G1 X98.796 Y103.032 E8.77564
G1 X100.701 Y104.937 E8.85175
G1 X100.155 Y104.956 E8.86718
G1 Z1.500 F7800.000
G1 X99.303 Y104.931 F7800.000
G1 F1200
G1 X101.194 Y103.040 E8.94267
G1 X100.870 Y103.153 E8.95236
G1 X100.442 Y103.227 E8.96461
G1 X98.796 Y104.873 E9.03031
G1 X98.325 Y104.780 E9.04388
G1 X99.877 Y103.228 E9.10585
G1 X99.400 Y103.140 E9.11953
G1 X97.890 Y104.651 E9.17983
G1 X97.486 Y104.490 E9.19210
G1 X98.995 Y102.981 E9.25233
G1 X98.650 Y102.762 E9.26387
G1 X97.116 Y104.296 E9.32513
G1 X96.775 Y104.073 E9.33664
G1 X98.358 Y102.489 E9.39987
G1 X98.114 Y102.169 E9.41123
G1 X96.463 Y103.820 E9.47714
G1 X96.181 Y103.538 E9.48840
G1 X97.914 Y101.805 E9.55758
G1 X97.757 Y101.397 E9.56992
G1 X95.928 Y103.227 E9.64297
G1 X95.704 Y102.886 E9.65448
G1 X97.645 Y100.945 E9.73198
G1 X97.576 Y100.449 E9.74611
G1 X95.510 Y102.515 E9.82858
G1 X95.350 Y102.111 E9.84085
G1 X97.550 Y99.911 E9.92869
G1 X97.569 Y99.328 E9.94516
G1 X95.221 Y101.676 E10.03890
G1 X95.169 Y101.472 E10.04486
G1 X95.127 Y101.206 E10.05246
G1 X97.661 Y98.672 E10.15363
G1 X97.758 Y98.293 E10.16466
G1 X97.946 Y97.822 E10.17897
G1 X95.069 Y100.699 E10.29382
G1 X95.049 Y100.155 E10.30920
G1 X96.463 Y96.483 F7800.000
G1 F1200
G1 X96.444 Y96.502 E10.30996
G1 X96.768 Y96.178 E10.32291
G1 X97.134 Y95.884 E10.33618
G1 X97.504 Y95.650 E10.34852
G1 X97.905 Y95.455 E10.36110
G1 X98.143 Y95.367 E10.36826
G1 X95.367 Y98.143 E10.47907
G1 X95.288 Y98.361 E10.48562
G1 X95.156 Y98.919 E10.50180
G1 X98.920 Y95.155 E10.65206
G1 X99.291 Y95.095 E10.66266
G1 X99.566 Y95.073 E10.67047
G1 X95.072 Y99.567 E10.84989
G1 X95.049 Y100.155 E10.86648
G1 X100.158 Y95.045 E11.07047
G1 X100.696 Y95.072 E11.08567
G1 X98.803 Y96.965 E11.16124
G1 X99.144 Y96.846 E11.17144
G1 X99.559 Y96.773 E11.18332
G1 X101.206 Y95.127 E11.24906
G1 X101.677 Y95.220 E11.26262
G1 X100.125 Y96.772 E11.32457
G1 X100.603 Y96.858 E11.33827
G1 X102.114 Y95.347 E11.39860
G1 X102.516 Y95.510 E11.41084
G1 X101.009 Y97.017 E11.47099
G1 X101.354 Y97.236 E11.48254
G1 X102.887 Y95.702 E11.54375
G1 X103.229 Y95.926 E11.55526
G1 X101.646 Y97.508 E11.61842
G1 X101.891 Y97.827 E11.62978
G1 X103.540 Y96.179 E11.69560
G1 X103.823 Y96.460 E11.70686
G1 X102.092 Y98.191 E11.77596
G1 X102.249 Y98.598 E11.78829
G1 X104.075 Y96.773 E11.86116
G1 X104.298 Y97.113 E11.87267
G1 X102.362 Y99.050 E11.94997
G1 X102.431 Y99.545 E11.96408
G1 X104.491 Y97.485 E12.04633
G1 X104.652 Y97.889 E12.05861
G1 X102.457 Y100.083 E12.14621
G1 X102.439 Y100.666 E12.16268
G1 X104.781 Y98.324 E12.25617
G1 X104.874 Y98.795 E12.26972
G1 X102.348 Y101.322 E12.37060
G1 X102.249 Y101.706 E12.38179
G1 X102.067 Y102.166 E12.39577
G1 X104.932 Y99.302 E12.51012
G1 X104.951 Y99.847 E12.52552
G1 X99.847 Y104.951 E12.72929
G1 X100.434 Y104.929 E12.74587
G1 X104.928 Y100.435 E12.92527
G1 X104.910 Y100.669 E12.93189
G1 X104.843 Y101.084 E12.94375
G1 X101.081 Y104.846 E13.09394
G1 X101.635 Y104.714 E13.11003
G1 X101.858 Y104.634 E13.11670
G1 X104.632 Y101.859 E13.22746
G1 X104.547 Y102.095 E13.23455
G1 X104.361 Y102.479 E13.24660
G1 X104.119 Y102.865 E13.25944
G1 X103.849 Y103.206 E13.27171
G1 X103.209 Y103.846 E13.29727
M106 S244.8
G1 Z2.000 F7800.000
G1 X100.157 Y104.951 F7800.000
G1 F1200
G1 X100.702 Y104.932 E13.31266
G1 X98.808 Y103.038 E13.38827
G1 X99.163 Y103.159 E13.39885
G1 X99.562 Y103.227 E13.41026
G1 X101.209 Y104.874 E13.47603
G1 X101.680 Y104.780 E13.48958
G1 X100.127 Y103.228 E13.55155
G1 X100.605 Y103.141 E13.56525
G1 X102.115 Y104.651 E13.62553
G1 X102.519 Y104.491 E13.63781
G1 X101.011 Y102.983 E13.69802
G1 X101.356 Y102.763 E13.70956
G1 X102.890 Y104.297 E13.77080
G1 X103.230 Y104.073 E13.78231
G1 X101.648 Y102.491 E13.84548
G1 X101.893 Y102.171 E13.85685
G1 X103.541 Y103.820 E13.92266
G1 X103.823 Y103.537 E13.93392
G1 X102.093 Y101.807 E14.00298
G1 X102.250 Y101.400 E14.01531
G1 X104.076 Y103.226 E14.08821
G1 X104.298 Y102.884 E14.09973
G1 X102.362 Y100.947 E14.17704
G1 X102.431 Y100.452 E14.19115
G1 X104.492 Y102.514 E14.27344
G1 X104.545 Y102.405 E14.27683
G1 X104.652 Y102.109 E14.28573
G1 X102.458 Y99.914 E14.37334
G1 X102.439 Y99.332 E14.38980
G1 X104.781 Y101.674 E14.48331
G1 X104.873 Y101.202 E14.49689
G1 X102.348 Y98.676 E14.59772
G1 X102.252 Y98.295 E14.60880
G1 X102.065 Y97.829 E14.62297
G1 X104.931 Y100.695 E14.73736
G1 X103.817 Y96.759 F7800.000
G1 F1200
G1 X103.202 Y96.147 E14.76184
G1 X102.864 Y95.879 E14.77402
G1 X102.476 Y95.637 E14.78693
G1 X102.044 Y95.431 E14.80045
G1 X101.859 Y95.365 E14.80599
G1 X104.633 Y98.139 E14.91673
G1 X104.700 Y98.322 E14.92222
G1 X104.845 Y98.916 E14.93948
G1 X101.084 Y95.154 E15.08964
G1 X100.438 Y95.073 E15.10800
G1 X104.929 Y99.563 E15.28725
G1 X104.951 Y100.150 E15.30383
G1 X99.846 Y95.046 E15.50763
G1 X99.306 Y95.070 E15.52290
G1 X101.198 Y96.962 E15.59843
G1 X100.845 Y96.841 E15.60897
G1 X100.445 Y96.773 E15.62041
G1 X98.797 Y95.125 E15.68620
G1 X98.328 Y95.221 E15.69971
G1 X99.880 Y96.772 E15.76165
G1 X99.402 Y96.859 E15.77534
G1 X97.891 Y95.348 E15.83569
G1 X97.488 Y95.509 E15.84794
G1 X98.996 Y97.018 E15.90817
G1 X98.651 Y97.237 E15.91971
G1 X97.117 Y95.702 E15.98099
G1 X96.776 Y95.926 E15.99249
G1 X98.360 Y97.510 E16.05570
G1 X98.115 Y97.829 E16.06707
G1 X96.455 Y96.185 E16.13302
G1 X96.182 Y96.461 E16.14397
G1 X97.914 Y98.193 E16.21312
G1 X97.757 Y98.601 E16.22545
G1 X95.929 Y96.772 E16.29846
G1 X95.705 Y97.113 E16.30996
G1 X97.645 Y99.053 E16.38741
G1 X97.576 Y99.548 E16.40152
G1 X95.510 Y97.482 E16.48398
G1 X95.350 Y97.886 E16.49625
G1 X97.550 Y100.086 E16.58408
G1 X97.569 Y100.670 E16.60056
G1 X95.220 Y98.321 E16.69434
G1 X95.127 Y98.792 E16.70791
G1 X97.661 Y101.326 E16.80905
G1 X97.754 Y101.694 E16.81978
G1 X97.943 Y102.173 E16.83431
G1 X95.069 Y99.299 E16.94905
G1 X95.049 Y99.843 E16.96441
G1 X100.157 Y104.951 E17.16835
G1 X99.569 Y104.928 E17.18496
G1 X95.071 Y100.430 E17.36453
G1 X95.155 Y101.077 E17.38296
G1 X98.921 Y104.843 E17.53331
G1 X98.368 Y104.713 E17.54934
G1 X98.145 Y104.633 E17.55602
G1 X95.368 Y101.855 E17.66691
G1 X95.458 Y102.103 E17.67436
G1 X95.652 Y102.500 E17.68683
G1 X95.884 Y102.867 E17.69909
G1 X96.153 Y103.205 E17.71127
G1 X96.508 Y103.560 E17.72545
G1 X96.459 Y103.510 E17.72745
G1 Z2.500 F7800.000
G1 X99.302 Y104.930 F7800.000
G1 F1200
G1 X101.192 Y103.041 E17.80289
G1 X100.856 Y103.157 E17.81293
G1 X100.441 Y103.227 E17.82480
G1 X98.796 Y104.873 E17.89049
G1 X98.324 Y104.780 E17.90407
G1 X99.877 Y103.228 E17.96607
G1 X99.400 Y103.140 E17.97975
G1 X97.889 Y104.650 E18.04005
G1 X97.485 Y104.490 E18.05233
G1 X98.994 Y102.981 E18.11257
G1 X98.649 Y102.761 E18.12411
G1 X97.115 Y104.295 E18.18535
G1 X96.774 Y104.072 E18.19686
G1 X98.358 Y102.489 E18.26009
G1 X98.114 Y102.168 E18.27145
G1 X96.463 Y103.819 E18.33735
G1 X96.181 Y103.537 E18.34861
G1 X97.913 Y101.804 E18.41779
G1 X97.757 Y101.396 E18.43013
G1 X95.927 Y103.226 E18.50320
G1 X95.703 Y102.886 E18.51470
G1 X97.645 Y100.944 E18.59223
G1 X97.576 Y100.448 E18.60635
G1 X95.510 Y102.515 E18.68885
G1 X95.350 Y102.110 E18.70114
G1 X97.550 Y99.910 E18.78897
G1 X97.569 Y99.327 E18.80544
G1 X95.220 Y101.675 E18.89920
G1 X95.168 Y101.469 E18.90521
G1 X95.126 Y101.205 E18.91275
G1 X97.661 Y98.670 E19.01394
G1 X97.776 Y98.239 E19.02656
G1 X97.946 Y97.820 E19.03930
G1 X95.069 Y100.698 E19.15420
G1 X95.049 Y100.154 E19.16959
G1 X96.449 Y96.496 F7800.000
G1 F1200
G1 X96.437 Y96.508 E19.17005
G1 X96.754 Y96.191 E19.18271
G1 X97.137 Y95.882 E19.19658
G1 X97.500 Y95.653 E19.20873
G1 X97.894 Y95.459 E19.22111
G1 X98.142 Y95.368 E19.22856
G1 X95.369 Y98.141 E19.33926
G1 X95.286 Y98.366 E19.34603
G1 X95.157 Y98.917 E19.36200
G1 X98.919 Y95.155 E19.51218
G1 X99.254 Y95.100 E19.52177
G1 X99.564 Y95.074 E19.53056
G1 X95.072 Y99.566 E19.70990
G1 X95.049 Y100.154 E19.72650
G1 X100.156 Y95.046 E19.93041
G1 X100.697 Y95.070 E19.94569
G1 X98.802 Y96.965 E20.02136
G1 X99.154 Y96.843 E20.03189
G1 X99.558 Y96.774 E20.04345
G1 X101.205 Y95.127 E20.10920
G1 X101.676 Y95.220 E20.12276
G1 X100.124 Y96.772 E20.18470
G1 X100.602 Y96.858 E20.19841
G1 X102.113 Y95.347 E20.25876
G1 X102.514 Y95.510 E20.27099
G1 X101.008 Y97.016 E20.33112
G1 X101.354 Y97.235 E20.34266
G1 X102.886 Y95.702 E20.40386
G1 X103.228 Y95.925 E20.41537
G1 X101.646 Y97.507 E20.47852
G1 X101.891 Y97.827 E20.48988
G1 X103.539 Y96.179 E20.55568
G1 X103.810 Y96.445 E20.56640
G1 X103.822 Y96.460 E20.56695
G1 X102.092 Y98.190 E20.63602
G1 X102.249 Y98.598 E20.64835
G1 X104.074 Y96.773 E20.72121
G1 X104.298 Y97.113 E20.73271
G1 X102.362 Y99.049 E20.81002
G1 X102.431 Y99.544 E20.82413
G1 X104.491 Y97.484 E20.90639
G1 X104.653 Y97.887 E20.91865
G1 X102.457 Y100.082 E21.00629
G1 X102.439 Y100.665 E21.02275
G1 X104.779 Y98.325 E21.11619
G1 X104.874 Y98.794 E21.12971
G1 X102.348 Y101.320 E21.23057
G1 X102.250 Y101.705 E21.24178
G1 X102.069 Y102.164 E21.25571
G1 X104.932 Y99.301 E21.37003
G1 X104.951 Y99.846 E21.38542
G1 X99.846 Y104.951 E21.58924
G1 X100.433 Y104.929 E21.60581
G1 X104.927 Y100.434 E21.78525
G1 X104.910 Y100.673 E21.79199
G1 X104.843 Y101.083 E21.80374
G1 X101.080 Y104.846 E21.95396
G1 X101.625 Y104.717 E21.96977
G1 X101.857 Y104.633 E21.97675
G1 X104.632 Y101.858 E22.08752
G1 X104.543 Y102.105 E22.09491
G1 X104.366 Y102.469 E22.10635
G1 X104.122 Y102.862 E22.11940
G1 X103.857 Y103.197 E22.13147
G1 X103.202 Y103.853 E22.15763
G1 Z3.000 F7800.000
G1 X100.153 Y104.956 F7800.000
G1 F1200
G1 X100.695 Y104.934 E22.17295
G1 X98.793 Y103.031 E22.24893
G1 X99.178 Y103.163 E22.26041
G1 X99.552 Y103.225 E22.27111
G1 X101.204 Y104.877 E22.33710
G1 X101.675 Y104.784 E22.35067
G1 X100.119 Y103.228 E22.41281
G1 X100.598 Y103.143 E22.42655
G1 X102.112 Y104.656 E22.48699
G1 X102.514 Y104.494 E22.49925
G1 X101.006 Y102.985 E22.55951
G1 X101.351 Y102.767 E22.57107
G1 X102.885 Y104.300 E22.63232
G1 X103.223 Y104.073 E22.64381
G1 X101.644 Y102.495 E22.70686
G1 X101.890 Y102.176 E22.71823
G1 X103.535 Y103.821 E22.78394
G1 X103.817 Y103.539 E22.79522
G1 X102.091 Y101.812 E22.86417
G1 X102.248 Y101.405 E22.87650
G1 X104.071 Y103.228 E22.94933
G1 X104.295 Y102.887 E22.96085
G1 X102.361 Y100.953 E23.03810
G1 X102.431 Y100.458 E23.05221
G1 X104.490 Y102.518 E23.13448
G1 X104.650 Y102.133 E23.14626
G1 X104.655 Y102.118 E23.14670
G1 X102.458 Y99.920 E23.23446
G1 X102.440 Y99.338 E23.25091
G1 X104.782 Y101.680 E23.34446
G1 X104.878 Y101.211 E23.35797
G1 X102.349 Y98.683 E23.45895
G1 X102.252 Y98.303 E23.47002
G1 X102.070 Y97.839 E23.48411
G1 X104.933 Y100.702 E23.59847
G1 X103.855 Y96.801 F7800.000
G1 F1200
G1 X103.192 Y96.138 E23.62496
G1 X102.859 Y95.875 E23.63694
G1 X102.465 Y95.630 E23.65004
G1 X102.018 Y95.421 E23.66397
G1 X101.851 Y95.362 E23.66897
G1 X104.632 Y98.143 E23.78003
G1 X104.719 Y98.382 E23.78721
G1 X104.845 Y98.920 E23.80284
G1 X101.077 Y95.153 E23.95331
G1 X100.431 Y95.071 E23.97170
G1 X104.928 Y99.568 E24.15128
G1 X104.953 Y100.157 E24.16794
G1 X99.842 Y95.047 E24.37203
G1 X99.301 Y95.070 E24.38732
G1 X101.188 Y96.957 E24.46268
G1 X100.832 Y96.837 E24.47330
G1 X100.439 Y96.773 E24.48453
G1 X98.793 Y95.126 E24.55030
G1 X98.322 Y95.220 E24.56385
G1 X99.875 Y96.773 E24.62585
G1 X99.398 Y96.861 E24.63955
G1 X97.886 Y95.349 E24.69992
G1 X97.483 Y95.511 E24.71218
G1 X98.992 Y97.020 E24.77244
G1 X98.648 Y97.240 E24.78399
G1 X97.112 Y95.705 E24.84530
G1 X96.772 Y95.929 E24.85682
G1 X98.356 Y97.513 E24.92009
G1 X98.112 Y97.833 E24.93146
G1 X96.461 Y96.183 E24.99739
G1 X96.179 Y96.465 E25.00866
G1 X97.912 Y98.198 E25.07786
G1 X97.756 Y98.607 E25.09022
G1 X95.926 Y96.776 E25.16332
G1 X95.703 Y97.118 E25.17484
G1 X97.644 Y99.059 E25.25237
G1 X97.575 Y99.555 E25.26651
G1 X95.508 Y97.487 E25.34909
G1 X95.348 Y97.892 E25.36138
G1 X97.550 Y100.094 E25.44932
G1 X97.570 Y100.679 E25.46584
G1 X95.218 Y98.327 E25.55977
G1 X95.124 Y98.798 E25.57333
G1 X97.663 Y101.336 E25.67472
G1 X97.812 Y101.863 E25.69018
G1 X97.952 Y102.190 E25.70023
G1 X95.065 Y99.303 E25.81552
G1 X95.044 Y99.847 E25.83088
G1 X100.153 Y104.956 E26.03494
G1 X99.561 Y104.929 E26.05168
G1 X95.069 Y100.436 E26.23111
G1 X95.158 Y101.090 E26.24976
G1 X98.907 Y104.839 E26.39948
G1 X98.574 Y104.771 E26.40907
G1 X98.137 Y104.634 E26.42199
G1 X95.362 Y101.859 E26.53282
G1 X95.537 Y102.278 E26.54564
G1 X95.744 Y102.656 E26.55780
G1 X96.036 Y103.067 E26.57203
G1 X96.626 Y103.687 E26.59621
G1 Z3.500 F7800.000
G1 X99.308 Y104.934 F7800.000
G1 F1200
G1 X101.209 Y103.033 E26.67212
G1 X100.850 Y103.158 E26.68286
G1 X100.452 Y103.226 E26.69426
G1 X98.798 Y104.879 E26.76029
G1 X98.330 Y104.783 E26.77380
G1 X99.885 Y103.228 E26.83591
G1 X99.407 Y103.142 E26.84963
G1 X97.891 Y104.657 E26.91016
G1 X97.491 Y104.493 E26.92238
G1 X99.000 Y102.984 E26.98264
G1 X98.654 Y102.765 E26.99420
G1 X97.121 Y104.298 E27.05540
G1 X96.780 Y104.074 E27.06692
G1 X98.362 Y102.493 E27.13008
G1 X98.117 Y102.173 E27.14145
G1 X96.469 Y103.821 E27.20726
G1 X96.186 Y103.539 E27.21853
G1 X97.916 Y101.809 E27.28761
G1 X97.759 Y101.402 E27.29995
G1 X95.934 Y103.227 E27.37286
G1 X95.705 Y102.891 E27.38434
G1 X97.646 Y100.950 E27.46185
G1 X97.577 Y100.454 E27.47597
G1 X95.511 Y102.521 E27.55849
G1 X95.366 Y102.177 E27.56904
G1 X95.348 Y102.119 E27.57075
G1 X97.550 Y99.917 E27.65869
G1 X97.568 Y99.334 E27.67515
G1 X95.219 Y101.683 E27.76897
G1 X95.133 Y101.279 E27.78062
G1 X95.125 Y101.213 E27.78252
G1 X97.659 Y98.679 E27.88372
G1 X97.784 Y98.216 E27.89726
G1 X97.940 Y97.833 E27.90894
G1 X95.067 Y100.706 E28.02367
G1 X95.047 Y100.161 E28.03908
G1 X96.502 Y96.448 F7800.000
G1 F1200
G1 X96.421 Y96.529 E28.04232
G1 X96.808 Y96.142 E28.05777
G1 X97.138 Y95.881 E28.06964
G1 X97.496 Y95.655 E28.08163
G1 X97.883 Y95.464 E28.09381
G1 X98.151 Y95.364 E28.10187
G1 X95.366 Y98.149 E28.21309
G1 X95.285 Y98.371 E28.21977
G1 X95.155 Y98.925 E28.23583
G1 X98.925 Y95.154 E28.38642
G1 X99.573 Y95.071 E28.40486
G1 X95.069 Y99.575 E28.58473
G1 X95.047 Y100.161 E28.60129
G1 X100.161 Y95.047 E28.80554
G1 X100.705 Y95.069 E28.82089
G1 X98.813 Y96.961 E28.89645
G1 X99.157 Y96.842 E28.90675
G1 X99.564 Y96.773 E28.91840
G1 X101.210 Y95.128 E28.98413
G1 X101.681 Y95.222 E28.99768
G1 X100.130 Y96.773 E29.05962
G1 X100.607 Y96.860 E29.07332
G1 X102.117 Y95.350 E29.13363
G1 X102.522 Y95.510 E29.14593
G1 X101.013 Y97.018 E29.20619
G1 X101.358 Y97.238 E29.21774
G1 X102.891 Y95.705 E29.27895
G1 X103.232 Y95.929 E29.29047
G1 X101.650 Y97.511 E29.35366
G1 X101.894 Y97.832 E29.36504
G1 X103.542 Y96.183 E29.43086
G1 X103.825 Y96.465 E29.44214
G1 X102.094 Y98.196 E29.51125
G1 X102.251 Y98.603 E29.52358
G1 X104.078 Y96.777 E29.59653
G1 X104.302 Y97.118 E29.60805
G1 X102.363 Y99.056 E29.68547
G1 X102.432 Y99.552 E29.69961
G1 X104.495 Y97.489 E29.78200
G1 X104.653 Y97.895 E29.79432
G1 X102.458 Y100.091 E29.88199
G1 X102.438 Y100.675 E29.89849
G1 X104.783 Y98.330 E29.99212
G1 X104.874 Y98.804 E30.00574
G1 X102.346 Y101.332 E30.10669
G1 X102.223 Y101.784 E30.11992
G1 X102.060 Y102.183 E30.13209
G1 X104.931 Y99.311 E30.24678
G1 X104.952 Y99.855 E30.26215
G1 X99.854 Y104.952 E30.46575
G1 X100.440 Y104.932 E30.48229
G1 X104.928 Y100.443 E30.66153
G1 X104.880 Y100.895 E30.67435
G1 X104.838 Y101.098 E30.68020
G1 X101.093 Y104.843 E30.82977
G1 X101.441 Y104.769 E30.83982
G1 X101.862 Y104.639 E30.85225
G1 X104.633 Y101.867 E30.96293
G1 X104.459 Y102.289 E30.97582
G1 X104.217 Y102.720 E30.98977
G1 X103.971 Y103.062 E31.00166
G1 X103.382 Y103.684 E31.02586
G1 Z4.000 F7800.000
G1 X104.934 Y100.703 F7800.000
G1 F1200
G1 X102.070 Y97.839 E31.14022
G1 X102.255 Y98.308 E31.15444
G1 X102.350 Y98.684 E31.16540
G1 X104.877 Y101.211 E31.26634
G1 X104.782 Y101.680 E31.27985
G1 X102.440 Y99.338 E31.37337
G1 X102.458 Y99.921 E31.38983
G1 X104.655 Y102.118 E31.47760
G1 X104.490 Y102.518 E31.48980
G1 X102.431 Y100.459 E31.57206
G1 X102.361 Y100.953 E31.58616
G1 X104.295 Y102.887 E31.66339
G1 X104.071 Y103.228 E31.67491
G1 X102.248 Y101.405 E31.74773
G1 X102.091 Y101.812 E31.76007
G1 X103.817 Y103.539 E31.82902
G1 X103.533 Y103.819 E31.84030
G1 X101.889 Y102.176 E31.90593
G1 X101.644 Y102.495 E31.91730
G1 X103.225 Y104.076 E31.98045
G1 X102.885 Y104.301 E31.99196
G1 X101.351 Y102.767 E32.05322
G1 X101.006 Y102.986 E32.06478
G1 X102.515 Y104.495 E32.12504
G1 X102.111 Y104.655 E32.13732
G1 X100.598 Y103.143 E32.19773
G1 X100.384 Y103.194 E32.20395
G1 X100.119 Y103.228 E32.21149
G1 X101.675 Y104.785 E32.27365
G1 X101.205 Y104.879 E32.28720
G1 X99.551 Y103.225 E32.35324
G1 X99.222 Y103.174 E32.36264
G1 X98.792 Y103.030 E32.37545
G1 X100.698 Y104.936 E32.45156
G1 X100.153 Y104.956 E32.46696
G1 X96.629 Y103.690 F7800.000
G1 F1200
G1 X96.323 Y103.385 E32.47916
G1 X95.977 Y102.991 E32.49397
G1 X95.739 Y102.646 E32.50580
G1 X95.535 Y102.273 E32.51781
G1 X95.363 Y101.860 E32.53045
G1 X98.136 Y104.633 E32.64120
G1 X98.568 Y104.770 E32.65400
G1 X98.906 Y104.839 E32.66375
G1 X95.160 Y101.092 E32.81339
G1 X95.069 Y100.437 E32.83206
G1 X99.565 Y104.932 E33.01159
G1 X100.153 Y104.956 E33.02822
G1 X95.044 Y99.847 E33.23227
G1 X95.066 Y99.304 E33.24761
G1 X97.952 Y102.190 E33.36286
G1 X97.813 Y101.867 E33.37281
G1 X97.663 Y101.337 E33.38835
G1 X95.121 Y98.795 E33.48988
G1 X95.217 Y98.326 E33.50339
G1 X97.570 Y100.679 E33.59735
G1 X97.550 Y100.094 E33.61387
G1 X95.343 Y97.888 E33.70200
G1 X95.508 Y97.488 E33.71421
G1 X97.575 Y99.555 E33.79677
G1 X97.644 Y99.059 E33.81090
G1 X95.700 Y97.115 E33.88854
G1 X95.926 Y96.777 E33.90004
G1 X97.756 Y98.607 E33.97313
G1 X97.912 Y98.198 E33.98548
G1 X96.178 Y96.464 E34.05472
G1 X96.461 Y96.183 E34.06600
G1 X98.112 Y97.834 E34.13193
G1 X98.356 Y97.513 E34.14331
G1 X96.772 Y95.929 E34.20658
G1 X97.112 Y95.705 E34.21809
G1 X98.648 Y97.240 E34.27941
G1 X98.992 Y97.020 E34.29095
G1 X97.483 Y95.511 E34.35122
G1 X97.885 Y95.349 E34.36348
G1 X99.398 Y96.861 E34.42387
G1 X99.874 Y96.773 E34.43756
G1 X98.324 Y95.223 E34.49947
G1 X98.792 Y95.127 E34.51297
G1 X100.439 Y96.773 E34.57873
G1 X100.815 Y96.834 E34.58948
G1 X101.187 Y96.956 E34.60055
G1 X99.299 Y95.068 E34.67595
G1 X99.843 Y95.048 E34.69131
G1 X104.956 Y100.161 E34.89551
G1 X104.933 Y99.573 E34.91212
G1 X100.429 Y95.069 E35.09198
G1 X101.076 Y95.151 E35.11038
G1 X104.841 Y98.917 E35.26075
G1 X104.768 Y98.556 E35.27115
G1 X104.635 Y98.146 E35.28331
G1 X101.855 Y95.366 E35.39434
G1 X102.118 Y95.462 E35.40224
G1 X102.452 Y95.623 E35.41272
G1 X102.854 Y95.872 E35.42606
G1 X103.182 Y96.129 E35.43784
G1 X103.861 Y96.807 E35.46494
G1 Z4.500 F7800.000
G1 X103.383 Y103.682 F7800.000
G1 F1200
G1 X103.967 Y103.067 E35.48891
G1 X104.210 Y102.731 E35.50061
G1 X104.459 Y102.289 E35.51496
G1 X104.632 Y101.868 E35.52782
G1 X101.861 Y104.639 E35.63857
G1 X101.323 Y104.798 E35.65443
G1 X101.093 Y104.842 E35.66104
G1 X104.838 Y101.097 E35.81072
G1 X104.881 Y100.885 E35.81682
G1 X104.932 Y100.438 E35.82954
G1 X100.439 Y104.931 E36.00912
G1 X99.849 Y104.956 E36.02581
G1 X104.956 Y99.849 E36.22995
G1 X104.936 Y99.303 E36.24537
G1 X102.062 Y102.178 E36.36025
G1 X102.216 Y101.807 E36.37159
G1 X102.347 Y101.328 E36.38562
G1 X104.878 Y98.797 E36.48679
G1 X104.783 Y98.327 E36.50034
G1 X102.438 Y100.671 E36.59405
G1 X102.458 Y100.087 E36.61057
G1 X104.651 Y97.893 E36.69826
G1 X104.491 Y97.488 E36.71057
G1 X102.431 Y99.549 E36.79291
G1 X102.362 Y99.052 E36.80707
G1 X104.296 Y97.118 E36.88437
G1 X104.076 Y96.774 E36.89594
G1 X102.249 Y98.600 E36.96893
G1 X102.092 Y98.192 E36.98129
G1 X103.821 Y96.463 E37.05041
G1 X103.538 Y96.181 E37.06170
G1 X101.891 Y97.828 E37.12754
G1 X101.647 Y97.508 E37.13893
G1 X103.228 Y95.926 E37.20215
G1 X102.886 Y95.703 E37.21369
G1 X101.354 Y97.235 E37.27493
G1 X101.008 Y97.016 E37.28651
G1 X102.517 Y95.507 E37.34684
G1 X102.111 Y95.348 E37.35917
G1 X100.600 Y96.859 E37.41955
G1 X100.122 Y96.772 E37.43329
G1 X101.674 Y95.220 E37.49532
G1 X101.203 Y95.126 E37.50889
G1 X99.555 Y96.774 E37.57477
G1 X99.164 Y96.840 E37.58596
G1 X98.795 Y96.968 E37.59699
G1 X100.698 Y95.066 E37.67302
G1 X100.151 Y95.048 E37.68848
G1 X95.044 Y100.155 E37.89260
G1 X95.068 Y99.566 E37.90926
G1 X99.562 Y95.072 E38.08889
G1 X98.913 Y95.156 E38.10739
G1 X95.160 Y98.908 E38.25737
G1 X95.232 Y98.559 E38.26746
G1 X95.366 Y98.138 E38.27994
G1 X98.134 Y95.370 E38.39058
G1 X97.627 Y95.585 E38.40615
G1 X97.264 Y95.796 E38.41802
G1 X96.927 Y96.041 E38.42977
G1 X96.314 Y96.625 E38.45371
G1 X95.044 Y100.155 F7800.000
G1 F1200
G1 X95.065 Y100.699 E38.46911
G1 X97.949 Y97.815 E38.58439
G1 X97.800 Y98.170 E38.59527
G1 X97.661 Y98.668 E38.60989
G1 X95.123 Y101.206 E38.71133
G1 X95.203 Y101.625 E38.72339
G1 X95.218 Y101.676 E38.72489
G1 X97.569 Y99.325 E38.81887
G1 X97.550 Y99.909 E38.83538
G1 X95.347 Y102.112 E38.92343
G1 X95.367 Y102.179 E38.92541
G1 X95.508 Y102.516 E38.93573
G1 X97.577 Y100.447 E39.01840
G1 X97.645 Y100.944 E39.03256
G1 X95.703 Y102.887 E39.11021
G1 X95.928 Y103.227 E39.12173
G1 X97.758 Y101.397 E39.19487
G1 X97.914 Y101.805 E39.20724
G1 X96.186 Y103.534 E39.27633
G1 X96.466 Y103.818 E39.28762
G1 X98.115 Y102.170 E39.35352
G1 X98.359 Y102.490 E39.36492
G1 X96.777 Y104.072 E39.42815
G1 X97.119 Y104.296 E39.43969
G1 X98.651 Y102.763 E39.50095
G1 X98.997 Y102.982 E39.51252
G1 X97.488 Y104.492 E39.57284
G1 X97.888 Y104.656 E39.58508
G1 X99.404 Y103.140 E39.64566
G1 X99.882 Y103.227 E39.65940
G1 X98.327 Y104.783 E39.72155
G1 X98.796 Y104.878 E39.73509
G1 X100.449 Y103.226 E39.80113
G1 X100.843 Y103.160 E39.81243
G1 X101.205 Y103.035 E39.82326
G1 X99.306 Y104.934 E39.89916
G1 Z5.000 F7800.000
G1 X100.154 Y104.956 F7800.000
G1 F1200
G1 X100.699 Y104.936 E39.91456
G1 X98.794 Y103.031 E39.99068
G1 X99.207 Y103.170 E40.00299
G1 X99.553 Y103.225 E40.01288
G1 X101.206 Y104.878 E40.07894
G1 X101.676 Y104.783 E40.09249
G1 X100.121 Y103.228 E40.15465
G1 X100.603 Y103.145 E40.16847
G1 X102.113 Y104.655 E40.22879
G1 X102.517 Y104.494 E40.24108
G1 X101.009 Y102.986 E40.30133
G1 X101.353 Y102.765 E40.31288
G1 X102.888 Y104.300 E40.37422
G1 X103.228 Y104.075 E40.38574
G1 X101.646 Y102.493 E40.44897
G1 X101.891 Y102.173 E40.46036
G1 X103.535 Y103.817 E40.52604
G1 X103.819 Y103.537 E40.53733
G1 X102.092 Y101.809 E40.60636
G1 X102.249 Y101.401 E40.61871
G1 X104.073 Y103.226 E40.69161
G1 X104.296 Y102.883 E40.70315
G1 X102.361 Y100.949 E40.78045
G1 X102.431 Y100.454 E40.79457
G1 X104.492 Y102.514 E40.87691
G1 X104.656 Y102.114 E40.88914
G1 X102.458 Y99.915 E40.97699
G1 X102.439 Y99.332 E40.99349
G1 X104.782 Y101.675 E41.08712
G1 X104.878 Y101.206 E41.10065
G1 X102.348 Y98.676 E41.20176
G1 X102.255 Y98.311 E41.21239
G1 X102.064 Y97.827 E41.22711
G1 X104.933 Y100.696 E41.34178
G1 X103.584 Y96.523 F7800.000
G1 F1200
G1 X103.276 Y96.215 E41.35411
G1 X102.953 Y95.944 E41.36601
G1 X102.584 Y95.698 E41.37855
G1 X102.124 Y95.464 E41.39313
G1 X101.868 Y95.371 E41.40083
G1 X104.640 Y98.143 E41.51160
G1 X104.765 Y98.546 E41.52352
G1 X104.838 Y98.906 E41.53392
G1 X101.083 Y95.152 E41.68395
G1 X100.435 Y95.068 E41.70243
G1 X104.931 Y99.565 E41.88213
G1 X104.956 Y100.154 E41.89879
G1 X99.850 Y95.048 E42.10282
G1 X99.305 Y95.068 E42.11824
G1 X101.199 Y96.962 E42.19394
G1 X100.800 Y96.830 E42.20582
G1 X100.446 Y96.774 E42.21593
G1 X98.798 Y95.126 E42.28182
G1 X98.327 Y95.219 E42.29539
G1 X99.880 Y96.773 E42.35746
G1 X99.633 Y96.805 E42.36449
G1 X99.402 Y96.860 E42.37120
G1 X97.890 Y95.348 E42.43161
G1 X97.487 Y95.510 E42.44389
G1 X98.995 Y97.018 E42.50416
G1 X98.650 Y97.238 E42.51572
G1 X97.116 Y95.704 E42.57702
G1 X96.776 Y95.928 E42.58854
G1 X98.358 Y97.511 E42.65178
G1 X98.114 Y97.831 E42.66317
G1 X96.465 Y96.183 E42.72906
G1 X96.312 Y96.321 E42.73489
G1 X96.183 Y96.465 E42.74036
G1 X97.913 Y98.196 E42.80952
G1 X97.757 Y98.604 E42.82187
G1 X95.928 Y96.776 E42.89494
G1 X95.705 Y97.117 E42.90647
G1 X97.645 Y99.057 E42.98397
G1 X97.575 Y99.552 E42.99811
G1 X95.509 Y97.486 E43.08069
G1 X95.344 Y97.886 E43.09291
G1 X97.550 Y100.092 E43.18106
G1 X97.570 Y100.677 E43.19759
G1 X95.218 Y98.325 E43.29159
G1 X95.122 Y98.793 E43.30511
G1 X97.663 Y101.335 E43.40666
G1 X97.814 Y101.870 E43.42237
G1 X97.951 Y102.188 E43.43215
G1 X95.066 Y99.303 E43.54741
G1 X95.044 Y99.845 E43.56274
G1 X100.154 Y104.956 E43.76696
G1 X99.565 Y104.932 E43.78364
G1 X95.069 Y100.436 E43.96328
G1 X95.159 Y101.090 E43.98195
G1 X98.907 Y104.838 E44.13171
G1 X98.562 Y104.768 E44.14165
G1 X98.135 Y104.632 E44.15431
G1 X95.363 Y101.859 E44.26509
G1 X95.533 Y102.268 E44.27760
G1 X95.732 Y102.636 E44.28943
G1 X95.965 Y102.976 E44.30107
G1 X96.325 Y103.387 E44.31651
G1 X96.631 Y103.692 E44.32871
G1 Z5.500 F7800.000
G1 X99.306 Y104.933 F7800.000
G1 F1200
G1 X101.205 Y103.035 E44.40461
G1 X100.927 Y103.141 E44.41304
G1 X100.449 Y103.226 E44.42676
G1 X98.797 Y104.878 E44.49279
G1 X98.327 Y104.782 E44.50633
G1 X99.882 Y103.227 E44.56849
G1 X99.404 Y103.140 E44.58222
G1 X97.889 Y104.656 E44.64280
G1 X97.488 Y104.492 E44.65504
G1 X98.997 Y102.982 E44.71537
G1 X98.652 Y102.763 E44.72694
G1 X97.119 Y104.295 E44.78820
G1 X96.777 Y104.072 E44.79974
G1 X98.359 Y102.490 E44.86298
G1 X98.115 Y102.170 E44.87438
G1 X96.466 Y103.818 E44.94028
G1 X96.186 Y103.533 E44.95157
G1 X97.914 Y101.805 E45.02066
G1 X97.758 Y101.397 E45.03302
G1 X95.927 Y103.227 E45.10618
G1 X95.702 Y102.887 E45.11770
G1 X97.645 Y100.944 E45.19536
G1 X97.577 Y100.447 E45.20953
G1 X95.508 Y102.516 E45.29220
G1 X95.367 Y102.180 E45.30250
G1 X95.347 Y102.112 E45.30450
G1 X97.550 Y99.909 E45.39255
G1 X97.569 Y99.325 E45.40907
G1 X95.218 Y101.676 E45.50302
G1 X95.200 Y101.614 E45.50483
G1 X95.123 Y101.206 E45.51658
G1 X97.661 Y98.668 E45.61802
G1 X97.795 Y98.183 E45.63225
G1 X97.949 Y97.815 E45.64352
G1 X95.065 Y100.699 E45.75880
G1 X95.044 Y100.155 E45.77419
G1 X96.313 Y96.625 F7800.000
G1 F1200
G1 X96.924 Y96.043 E45.79804
G1 X97.257 Y95.800 E45.80970
G1 X97.617 Y95.590 E45.82146
G1 X98.134 Y95.369 E45.83736
G1 X95.366 Y98.137 E45.94799
G1 X95.233 Y98.555 E45.96039
G1 X95.161 Y98.908 E45.97057
G1 X98.913 Y95.156 E46.12055
G1 X99.562 Y95.072 E46.13905
G1 X95.068 Y99.565 E46.31866
G1 X95.044 Y100.155 E46.33534
G1 X100.150 Y95.048 E46.53944
G1 X100.698 Y95.066 E46.55494
G1 X98.795 Y96.969 E46.63100
G1 X99.167 Y96.840 E46.64214
G1 X99.554 Y96.774 E46.65323
G1 X101.203 Y95.126 E46.71912
G1 X101.674 Y95.220 E46.73268
G1 X100.122 Y96.772 E46.79471
G1 X100.600 Y96.859 E46.80846
G1 X102.111 Y95.348 E46.86883
G1 X102.516 Y95.508 E46.88114
G1 X101.008 Y97.017 E46.94143
G1 X101.354 Y97.235 E46.95300
G1 X102.891 Y95.699 E47.01443
G1 X103.230 Y95.925 E47.02595
G1 X101.647 Y97.508 E47.08922
G1 X101.891 Y97.828 E47.10062
G1 X103.540 Y96.180 E47.16651
G1 X103.582 Y96.215 E47.16808
G1 X103.818 Y96.467 E47.17781
G1 X102.092 Y98.192 E47.24678
G1 X102.249 Y98.600 E47.25914
G1 X104.072 Y96.778 E47.33197
G1 X104.300 Y97.114 E47.34347
G1 X102.362 Y99.053 E47.42095
G1 X102.431 Y99.549 E47.43510
G1 X104.494 Y97.485 E47.51757
G1 X104.656 Y97.889 E47.52985
G1 X102.458 Y100.087 E47.61771
G1 X102.438 Y100.671 E47.63423
G1 X104.783 Y98.327 E47.72793
G1 X104.878 Y98.797 E47.74148
G1 X102.347 Y101.328 E47.84264
G1 X102.211 Y101.821 E47.85711
G1 X102.062 Y102.177 E47.86801
G1 X104.936 Y99.304 E47.98287
G1 X104.956 Y99.849 E47.99830
G1 X99.849 Y104.956 E48.20243
G1 X100.439 Y104.931 E48.21912
G1 X104.931 Y100.439 E48.39869
G1 X104.882 Y100.881 E48.41127
G1 X104.838 Y101.097 E48.41751
G1 X101.093 Y104.842 E48.56718
G1 X101.312 Y104.801 E48.57348
G1 X101.862 Y104.639 E48.58967
G1 X104.632 Y101.868 E48.70039
G1 X104.459 Y102.288 E48.71321
G1 X104.207 Y102.737 E48.72776
G1 X103.965 Y103.069 E48.73936
G1 X103.384 Y103.681 E48.76323
G1 Z6.000 F7800.000
G1 X104.933 Y100.703 F7800.000
G1 F1200
G1 X102.070 Y97.840 E48.87758
G1 X102.254 Y98.309 E48.89183
G1 X102.350 Y98.684 E48.90275
G1 X104.877 Y101.211 E49.00368
G1 X104.781 Y101.680 E49.01720
G1 X102.440 Y99.339 E49.11071
G1 X102.457 Y99.921 E49.12717
G1 X104.655 Y102.118 E49.21492
G1 X104.490 Y102.518 E49.22713
G1 X102.431 Y100.459 E49.30937
G1 X102.360 Y100.953 E49.32347
G1 X104.294 Y102.887 E49.40070
G1 X104.071 Y103.228 E49.41222
G1 X102.248 Y101.405 E49.48504
G1 X102.090 Y101.812 E49.49737
G1 X103.817 Y103.539 E49.56633
G1 X103.533 Y103.819 E49.57760
G1 X101.889 Y102.176 E49.64323
G1 X101.644 Y102.495 E49.65460
G1 X103.226 Y104.077 E49.71776
G1 X102.886 Y104.301 E49.72927
G1 X101.351 Y102.767 E49.79054
G1 X101.005 Y102.986 E49.80210
G1 X102.515 Y104.495 E49.86236
G1 X102.111 Y104.655 E49.87464
G1 X100.598 Y103.142 E49.93505
G1 X100.377 Y103.195 E49.94147
G1 X100.119 Y103.228 E49.94881
G1 X101.675 Y104.784 E50.01096
G1 X101.205 Y104.879 E50.02450
G1 X99.551 Y103.225 E50.09055
G1 X99.200 Y103.168 E50.10059
G1 X98.792 Y103.030 E50.11276
G1 X100.698 Y104.936 E50.18889
G1 X100.153 Y104.956 E50.20428
G1 X96.630 Y103.691 F7800.000
G1 F1200
G1 X96.325 Y103.386 E50.21648
G1 X95.971 Y102.984 E50.23160
G1 X95.735 Y102.641 E50.24334
G1 X95.534 Y102.271 E50.25525
G1 X95.363 Y101.860 E50.26782
G1 X98.135 Y104.632 E50.37853
G1 X98.565 Y104.769 E50.39127
G1 X98.906 Y104.838 E50.40109
G1 X95.159 Y101.092 E50.55073
G1 X95.069 Y100.437 E50.56939
G1 X99.564 Y104.932 E50.74889
G1 X100.153 Y104.956 E50.76553
G1 X95.044 Y99.847 E50.96957
G1 X95.066 Y99.305 E50.98490
G1 X97.952 Y102.191 E51.10016
G1 X97.814 Y101.868 E51.11007
G1 X97.663 Y101.337 E51.12565
G1 X95.121 Y98.795 E51.22718
G1 X95.217 Y98.326 E51.24068
G1 X97.570 Y100.679 E51.33465
G1 X97.550 Y100.095 E51.35117
G1 X95.343 Y97.888 E51.43930
G1 X95.508 Y97.488 E51.45151
G1 X97.575 Y99.555 E51.53406
G1 X97.644 Y99.060 E51.54820
G1 X95.704 Y97.119 E51.62568
G1 X95.927 Y96.778 E51.63720
G1 X97.756 Y98.607 E51.71025
G1 X97.912 Y98.198 E51.72260
G1 X96.181 Y96.467 E51.79174
G1 X96.312 Y96.321 E51.79730
G1 X96.463 Y96.185 E51.80302
G1 X98.112 Y97.834 E51.86889
G1 X98.356 Y97.513 E51.88026
G1 X96.773 Y95.931 E51.94348
G1 X97.113 Y95.706 E51.95498
G1 X98.647 Y97.240 E52.01626
G1 X98.992 Y97.020 E52.02780
G1 X97.483 Y95.511 E52.08805
G1 X97.886 Y95.350 E52.10032
G1 X99.397 Y96.861 E52.16067
G1 X99.874 Y96.773 E52.17436
G1 X98.322 Y95.221 E52.23636
G1 X98.792 Y95.126 E52.24990
G1 X100.439 Y96.773 E52.31567
G1 X100.808 Y96.832 E52.32621
G1 X101.186 Y96.956 E52.33746
G1 X99.299 Y95.068 E52.41285
G1 X99.843 Y95.048 E52.42822
G1 X104.956 Y100.161 E52.63241
G1 X104.932 Y99.573 E52.64902
G1 X100.428 Y95.068 E52.82892
G1 X101.075 Y95.151 E52.84734
G1 X104.840 Y98.917 E52.99773
G1 X104.766 Y98.551 E53.00825
G1 X104.634 Y98.146 E53.02030
G1 X101.855 Y95.366 E53.13131
G1 X102.122 Y95.463 E53.13933
G1 X102.446 Y95.620 E53.14950
G1 X102.851 Y95.870 E53.16294
G1 X103.177 Y96.125 E53.17462
G1 X103.863 Y96.810 E53.20203
G1 Z6.500 F7800.000
G1 X103.383 Y103.682 F7800.000
G1 F1200
G1 X103.969 Y103.064 E53.22609
G1 X104.214 Y102.726 E53.23789
G1 X104.459 Y102.289 E53.25204
G1 X104.633 Y101.868 E53.26492
G1 X101.862 Y104.639 E53.37563
G1 X101.334 Y104.795 E53.39118
G1 X101.094 Y104.841 E53.39809
G1 X104.838 Y101.097 E53.54770
G1 X104.881 Y100.890 E53.55368
G1 X104.932 Y100.439 E53.56651
G1 X100.439 Y104.931 E53.74602
G1 X99.849 Y104.956 E53.76269
G1 X104.956 Y99.850 E53.96673
G1 X104.937 Y99.304 E53.98215
G1 X102.061 Y102.180 E54.09704
G1 X102.219 Y101.795 E54.10878
G1 X102.346 Y101.329 E54.12243
G1 X104.879 Y98.797 E54.22360
G1 X104.783 Y98.328 E54.23714
G1 X102.438 Y100.673 E54.33083
G1 X102.458 Y100.089 E54.34734
G1 X104.652 Y97.894 E54.43503
G1 X104.491 Y97.490 E54.44732
G1 X102.431 Y99.550 E54.52962
G1 X102.362 Y99.054 E54.54377
G1 X104.297 Y97.119 E54.62107
G1 X104.077 Y96.775 E54.63263
G1 X102.250 Y98.602 E54.70561
G1 X102.093 Y98.194 E54.71796
G1 X103.823 Y96.464 E54.78708
G1 X103.540 Y96.182 E54.79837
G1 X101.892 Y97.830 E54.86420
G1 X101.648 Y97.509 E54.87558
G1 X103.230 Y95.927 E54.93879
G1 X102.888 Y95.704 E54.95032
G1 X101.356 Y97.236 E55.01155
G1 X101.010 Y97.017 E55.02311
G1 X102.519 Y95.508 E55.08341
G1 X102.113 Y95.349 E55.09573
G1 X100.603 Y96.859 E55.15607
G1 X100.125 Y96.772 E55.16980
G1 X101.677 Y95.221 E55.23179
G1 X101.206 Y95.127 E55.24535
G1 X99.559 Y96.774 E55.31116
G1 X99.161 Y96.841 E55.32257
G1 X98.803 Y96.965 E55.33327
G1 X100.700 Y95.067 E55.40910
G1 X100.155 Y95.048 E55.42450
G1 X95.044 Y100.159 E55.62873
G1 X95.067 Y99.571 E55.64536
G1 X99.567 Y95.071 E55.82513
G1 X98.918 Y95.155 E55.84361
G1 X95.159 Y98.914 E55.99380
G1 X95.231 Y98.562 E56.00396
G1 X95.362 Y98.147 E56.01626
G1 X98.141 Y95.367 E56.12731
G1 X97.878 Y95.466 E56.13524
G1 X97.495 Y95.656 E56.14734
G1 X97.139 Y95.881 E56.15923
G1 X96.810 Y96.140 E56.17107
G1 X96.209 Y96.734 E56.19492
G1 X95.044 Y100.159 F7800.000
G1 F1200
G1 X95.065 Y100.703 E56.21030
G1 X97.945 Y97.823 E56.32539
G1 X97.788 Y98.205 E56.33707
G1 X97.660 Y98.673 E56.35076
G1 X95.123 Y101.209 E56.45212
G1 X95.218 Y101.679 E56.46566
G1 X97.569 Y99.329 E56.55957
G1 X97.550 Y99.912 E56.57606
G1 X95.348 Y102.114 E56.66406
G1 X95.367 Y102.178 E56.66594
G1 X95.509 Y102.518 E56.67634
G1 X97.577 Y100.450 E56.75895
G1 X97.646 Y100.946 E56.77309
G1 X95.704 Y102.888 E56.85068
G1 X95.929 Y103.228 E56.86220
G1 X97.758 Y101.399 E56.93528
G1 X97.915 Y101.807 E56.94763
G1 X96.187 Y103.535 E57.01669
G1 X96.467 Y103.819 E57.02798
G1 X98.116 Y102.171 E57.09384
G1 X98.360 Y102.492 E57.10522
G1 X96.778 Y104.073 E57.16842
G1 X97.120 Y104.297 E57.17995
G1 X98.652 Y102.764 E57.24118
G1 X98.998 Y102.983 E57.25275
G1 X97.489 Y104.492 E57.31304
G1 X97.889 Y104.657 E57.32527
G1 X99.405 Y103.141 E57.38584
G1 X99.883 Y103.228 E57.39957
G1 X98.328 Y104.783 E57.46171
G1 X98.797 Y104.879 E57.47523
G1 X100.450 Y103.226 E57.54127
G1 X100.846 Y103.159 E57.55262
G1 X101.207 Y103.034 E57.56340
G1 X99.307 Y104.934 E57.63931
G1 Z7.000 F7800.000
G1 X100.149 Y104.952 F7800.000
G1 F1200
G1 X100.696 Y104.934 E57.65475
G1 X98.793 Y103.031 E57.73076
G1 X99.185 Y103.164 E57.74247
G1 X99.551 Y103.225 E57.75295
G1 X101.204 Y104.877 E57.81894
G1 X101.675 Y104.784 E57.83251
G1 X100.119 Y103.228 E57.89465
G1 X100.598 Y103.143 E57.90839
G1 X102.112 Y104.656 E57.96883
G1 X102.514 Y104.494 E57.98109
G1 X101.006 Y102.985 E58.04135
G1 X101.351 Y102.767 E58.05291
G1 X102.885 Y104.301 E58.11417
G1 X103.223 Y104.073 E58.12566
G1 X101.644 Y102.495 E58.18869
G1 X101.889 Y102.176 E58.20006
G1 X103.535 Y103.821 E58.26577
G1 X103.817 Y103.539 E58.27705
G1 X102.091 Y101.812 E58.34601
G1 X102.248 Y101.405 E58.35834
G1 X104.071 Y103.228 E58.43117
G1 X104.295 Y102.887 E58.44268
G1 X102.361 Y100.953 E58.51993
G1 X102.431 Y100.458 E58.53403
G1 X104.490 Y102.518 E58.61629
G1 X104.653 Y102.125 E58.62830
G1 X102.458 Y99.921 E58.71616
G1 X102.440 Y99.338 E58.73261
G1 X104.782 Y101.680 E58.82614
G1 X104.878 Y101.211 E58.83966
G1 X102.350 Y98.683 E58.94062
G1 X102.253 Y98.305 E58.95164
G1 X102.070 Y97.839 E58.96578
G1 X104.933 Y100.702 E59.08012
G1 X103.858 Y96.804 F7800.000
G1 F1200
G1 X103.187 Y96.134 E59.10692
G1 X102.856 Y95.873 E59.11880
G1 X102.458 Y95.626 E59.13204
G1 X102.114 Y95.460 E59.14283
G1 X101.855 Y95.366 E59.15060
G1 X104.632 Y98.143 E59.26150
G1 X104.720 Y98.386 E59.26883
G1 X104.845 Y98.921 E59.28432
G1 X101.077 Y95.152 E59.43483
G1 X100.430 Y95.070 E59.45323
G1 X104.929 Y99.569 E59.63289
G1 X104.952 Y100.157 E59.64951
G1 X99.843 Y95.047 E59.85358
G1 X99.299 Y95.069 E59.86893
G1 X101.188 Y96.957 E59.94434
G1 X100.822 Y96.835 E59.95521
G1 X100.439 Y96.773 E59.96617
G1 X98.793 Y95.127 E60.03193
G1 X98.324 Y95.223 E60.04544
G1 X99.874 Y96.773 E60.10736
G1 X99.398 Y96.861 E60.12105
G1 X97.886 Y95.349 E60.18143
G1 X97.483 Y95.511 E60.19369
G1 X98.992 Y97.020 E60.25395
G1 X98.648 Y97.240 E60.26550
G1 X97.112 Y95.705 E60.32682
G1 X96.772 Y95.929 E60.33833
G1 X98.356 Y97.513 E60.40159
G1 X98.112 Y97.834 E60.41297
G1 X96.462 Y96.183 E60.47889
G1 X96.179 Y96.466 E60.49016
G1 X97.912 Y98.198 E60.55936
G1 X97.756 Y98.607 E60.57171
G1 X95.926 Y96.776 E60.64481
G1 X95.703 Y97.118 E60.65633
G1 X97.644 Y99.059 E60.73386
G1 X97.575 Y99.555 E60.74799
G1 X95.507 Y97.487 E60.83057
G1 X95.348 Y97.893 E60.84287
G1 X97.550 Y100.094 E60.93081
G1 X97.570 Y100.679 E60.94732
G1 X95.217 Y98.327 E61.04127
G1 X95.123 Y98.797 E61.05482
G1 X97.663 Y101.337 E61.15624
G1 X97.812 Y101.865 E61.17174
G1 X97.952 Y102.190 E61.18173
G1 X95.065 Y99.304 E61.29700
G1 X95.047 Y99.850 E61.31244
G1 X100.149 Y104.952 E61.51620
G1 X99.561 Y104.928 E61.53283
G1 X95.069 Y100.436 E61.71223
G1 X95.158 Y101.090 E61.73087
G1 X98.907 Y104.839 E61.88058
G1 X98.571 Y104.770 E61.89025
G1 X98.137 Y104.633 E61.90311
G1 X95.363 Y101.859 E62.01391
G1 X95.536 Y102.276 E62.02664
G1 X95.741 Y102.650 E62.03871
G1 X96.039 Y103.070 E62.05324
G1 X96.627 Y103.688 E62.07733
G1 Z7.500 F7800.000
G1 X99.308 Y104.934 F7800.000
G1 F1200
G1 X101.209 Y103.033 E62.15324
G1 X100.853 Y103.157 E62.16388
G1 X100.451 Y103.226 E62.17539
G1 X98.798 Y104.879 E62.24141
G1 X98.329 Y104.783 E62.25493
G1 X99.885 Y103.228 E62.31704
G1 X99.407 Y103.142 E62.33076
G1 X97.892 Y104.657 E62.39127
G1 X97.491 Y104.493 E62.40350
G1 X99.000 Y102.984 E62.46376
G1 X98.654 Y102.765 E62.47531
G1 X97.121 Y104.298 E62.53653
G1 X96.780 Y104.074 E62.54805
G1 X98.361 Y102.493 E62.61121
G1 X98.117 Y102.173 E62.62258
G1 X96.469 Y103.821 E62.68838
G1 X96.186 Y103.539 E62.69966
G1 X97.916 Y101.809 E62.76873
G1 X97.759 Y101.401 E62.78107
G1 X95.933 Y103.227 E62.85399
G1 X95.706 Y102.890 E62.86548
G1 X97.646 Y100.950 E62.94298
G1 X97.577 Y100.454 E62.95711
G1 X95.511 Y102.520 E63.03963
G1 X95.366 Y102.176 E63.05018
G1 X95.348 Y102.118 E63.05188
G1 X97.550 Y99.916 E63.13983
G1 X97.568 Y99.334 E63.15629
G1 X95.219 Y101.683 E63.25012
G1 X95.132 Y101.271 E63.26200
G1 X95.125 Y101.213 E63.26367
G1 X97.659 Y98.678 E63.36489
G1 X97.780 Y98.227 E63.37808
G1 X97.940 Y97.832 E63.39011
G1 X95.067 Y100.706 E63.50487
G1 X95.044 Y100.164 E63.52019
G1 X96.499 Y96.451 F7800.000
G1 F1200
G1 X96.391 Y96.559 E63.52450
G1 X96.805 Y96.145 E63.54101
G1 X97.137 Y95.882 E63.55298
G1 X97.498 Y95.654 E63.56506
G1 X97.889 Y95.462 E63.57734
G1 X98.150 Y95.364 E63.58521
G1 X95.366 Y98.148 E63.69640
G1 X95.286 Y98.368 E63.70302
G1 X95.155 Y98.924 E63.71913
G1 X98.922 Y95.157 E63.86958
G1 X99.236 Y95.102 E63.87860
G1 X99.570 Y95.074 E63.88806
G1 X95.068 Y99.575 E64.06784
G1 X95.044 Y100.164 E64.08448
G1 X100.162 Y95.047 E64.28885
G1 X100.703 Y95.069 E64.30417
G1 X98.812 Y96.961 E64.37970
G1 X99.154 Y96.843 E64.38992
G1 X99.564 Y96.773 E64.40166
G1 X101.210 Y95.127 E64.46739
G1 X101.681 Y95.221 E64.48095
G1 X100.130 Y96.772 E64.54289
G1 X100.607 Y96.860 E64.55659
G1 X102.118 Y95.348 E64.61696
G1 X102.519 Y95.512 E64.62919
G1 X101.013 Y97.018 E64.68934
G1 X101.358 Y97.238 E64.70089
G1 X102.891 Y95.705 E64.76211
G1 X103.232 Y95.929 E64.77363
G1 X101.650 Y97.511 E64.83682
G1 X101.894 Y97.831 E64.84820
G1 X103.542 Y96.183 E64.91404
G1 X103.825 Y96.465 E64.92531
G1 X102.094 Y98.196 E64.99443
G1 X102.251 Y98.604 E65.00677
G1 X104.078 Y96.777 E65.07975
G1 X104.301 Y97.118 E65.09126
G1 X102.363 Y99.056 E65.16868
G1 X102.432 Y99.552 E65.18282
G1 X104.494 Y97.489 E65.26520
G1 X104.653 Y97.895 E65.27751
G1 X102.458 Y100.091 E65.36520
G1 X102.438 Y100.675 E65.38170
G1 X104.783 Y98.330 E65.47533
G1 X104.874 Y98.804 E65.48894
G1 X102.346 Y101.332 E65.58990
G1 X102.204 Y101.840 E65.60479
G1 X102.060 Y102.183 E65.61531
G1 X104.931 Y99.311 E65.72998
G1 X104.952 Y99.854 E65.74532
G1 X99.850 Y104.956 E65.94908
G1 X100.440 Y104.932 E65.96574
G1 X104.928 Y100.443 E66.14501
G1 X104.879 Y100.899 E66.15796
G1 X104.839 Y101.097 E66.16368
G1 X101.093 Y104.843 E66.31326
G1 X101.437 Y104.770 E66.32319
G1 X101.862 Y104.639 E66.33573
G1 X104.634 Y101.867 E66.44644
G1 X104.458 Y102.290 E66.45937
G1 X104.221 Y102.715 E66.47313
G1 X103.973 Y103.059 E66.48512
G1 X103.381 Y103.684 E66.50941
G1 Z8.000 F7800.000
G1 X104.931 Y100.694 F7800.000
G1 F1200
G1 X102.065 Y97.828 E66.62381
G1 X102.252 Y98.301 E66.63818
G1 X102.348 Y98.675 E66.64907
G1 X104.873 Y101.201 E66.74991
G1 X104.782 Y101.674 E66.76350
G1 X102.439 Y99.331 E66.85702
G1 X102.458 Y99.914 E66.87348
G1 X104.652 Y102.108 E66.96109
G1 X104.543 Y102.410 E66.97015
G1 X104.493 Y102.513 E66.97339
G1 X102.431 Y100.452 E67.05569
G1 X102.362 Y100.947 E67.06980
G1 X104.298 Y102.883 E67.14711
G1 X104.076 Y103.225 E67.15863
G1 X102.250 Y101.399 E67.23154
G1 X102.093 Y101.807 E67.24388
G1 X103.823 Y103.537 E67.31293
G1 X103.541 Y103.819 E67.32420
G1 X101.893 Y102.171 E67.39000
G1 X101.648 Y102.491 E67.40137
G1 X103.230 Y104.073 E67.46454
G1 X102.890 Y104.297 E67.47605
G1 X101.356 Y102.763 E67.53729
G1 X101.011 Y102.983 E67.54884
G1 X102.519 Y104.491 E67.60905
G1 X102.115 Y104.651 E67.62133
G1 X100.605 Y103.141 E67.68160
G1 X100.403 Y103.190 E67.68747
G1 X100.127 Y103.228 E67.69532
G1 X101.680 Y104.780 E67.75730
G1 X101.209 Y104.874 E67.77085
G1 X99.562 Y103.227 E67.83662
G1 X99.170 Y103.161 E67.84783
G1 X98.809 Y103.038 E67.85860
G1 X100.703 Y104.932 E67.93419
G1 X100.158 Y104.951 E67.94958
G1 X96.456 Y103.507 F7800.000
G1 F1200
G1 X96.500 Y103.551 E67.95134
G1 X96.150 Y103.201 E67.96529
G1 X95.884 Y102.867 E67.97736
G1 X95.654 Y102.502 E67.98954
G1 X95.460 Y102.109 E68.00190
G1 X95.368 Y101.855 E68.00953
G1 X98.146 Y104.632 E68.12041
G1 X98.371 Y104.714 E68.12717
G1 X98.921 Y104.843 E68.14312
G1 X95.155 Y101.077 E68.29348
G1 X95.071 Y100.429 E68.31191
G1 X99.570 Y104.928 E68.49150
G1 X100.158 Y104.951 E68.50811
G1 X95.049 Y99.842 E68.71207
G1 X95.069 Y99.299 E68.72743
G1 X97.943 Y102.172 E68.84214
G1 X97.756 Y101.697 E68.85655
G1 X97.660 Y101.325 E68.86738
G1 X95.127 Y98.792 E68.96852
G1 X95.220 Y98.320 E68.98209
G1 X97.569 Y100.669 E69.07588
G1 X97.550 Y100.086 E69.09235
G1 X95.350 Y97.886 E69.18018
G1 X95.510 Y97.482 E69.19245
G1 X97.576 Y99.547 E69.27491
G1 X97.645 Y99.052 E69.28902
G1 X95.706 Y97.113 E69.36646
G1 X95.929 Y96.772 E69.37797
G1 X97.758 Y98.600 E69.45098
G1 X97.914 Y98.193 E69.46331
G1 X96.183 Y96.461 E69.53245
G1 X96.448 Y96.191 E69.54312
G1 X96.464 Y96.178 E69.54372
G1 X98.115 Y97.829 E69.60962
G1 X98.360 Y97.509 E69.62098
G1 X96.777 Y95.926 E69.68419
G1 X97.117 Y95.702 E69.69569
G1 X98.652 Y97.237 E69.75697
G1 X98.997 Y97.017 E69.76851
G1 X97.488 Y95.509 E69.82874
G1 X97.891 Y95.347 E69.84100
G1 X99.403 Y96.859 E69.90135
G1 X99.880 Y96.772 E69.91505
G1 X98.329 Y95.221 E69.97699
G1 X98.797 Y95.125 E69.99048
G1 X100.446 Y96.773 E70.05631
G1 X100.837 Y96.839 E70.06751
G1 X101.199 Y96.962 E70.07828
G1 X99.307 Y95.070 E70.15382
G1 X99.848 Y95.046 E70.16911
G1 X104.951 Y100.150 E70.37286
G1 X104.929 Y99.563 E70.38945
G1 X100.438 Y95.072 E70.56871
G1 X101.084 Y95.154 E70.58709
G1 X104.845 Y98.915 E70.73724
G1 X104.697 Y98.312 E70.75476
G1 X104.633 Y98.138 E70.75999
G1 X101.860 Y95.365 E70.87072
G1 X102.031 Y95.426 E70.87585
G1 X102.470 Y95.634 E70.88957
G1 X102.861 Y95.877 E70.90258
G1 X103.197 Y96.143 E70.91467
G1 X103.810 Y96.751 E70.93904
G1 Z8.500 F7800.000
G1 X103.206 Y103.850 F7800.000
G1 F1200
G1 X103.853 Y103.201 E70.96490
G1 X104.121 Y102.863 E70.97707
G1 X104.363 Y102.474 E70.99002
G1 X104.545 Y102.100 E71.00176
G1 X104.632 Y101.859 E71.00900
G1 X101.857 Y104.633 E71.11977
G1 X101.630 Y104.716 E71.12659
G1 X101.081 Y104.846 E71.14254
G1 X104.843 Y101.083 E71.29274
G1 X104.910 Y100.671 E71.30455
G1 X104.927 Y100.435 E71.31123
G1 X100.433 Y104.929 E71.49065
G1 X99.847 Y104.951 E71.50723
G1 X104.951 Y99.847 E71.71102
G1 X104.932 Y99.301 E71.72642
G1 X102.068 Y102.165 E71.84075
G1 X102.249 Y101.706 E71.85469
G1 X102.348 Y101.321 E71.86591
G1 X104.874 Y98.794 E71.96677
G1 X104.780 Y98.325 E71.98030
G1 X102.439 Y100.666 E72.07375
G1 X102.457 Y100.083 E72.09021
G1 X104.653 Y97.887 E72.17786
G1 X104.491 Y97.484 E72.19012
G1 X102.431 Y99.545 E72.27237
G1 X102.362 Y99.049 E72.28649
G1 X104.298 Y97.113 E72.36379
G1 X104.074 Y96.773 E72.37529
G1 X102.249 Y98.598 E72.44816
G1 X102.092 Y98.190 E72.46049
G1 X103.816 Y96.452 E72.52960
G1 X103.539 Y96.179 E72.54059
G1 X101.891 Y97.827 E72.60640
G1 X101.646 Y97.507 E72.61776
G1 X103.228 Y95.926 E72.68092
G1 X102.887 Y95.702 E72.69243
G1 X101.354 Y97.235 E72.75363
G1 X101.009 Y97.016 E72.76518
G1 X102.515 Y95.510 E72.82532
G1 X102.114 Y95.347 E72.83755
G1 X100.602 Y96.858 E72.89789
G1 X100.125 Y96.772 E72.91159
G1 X101.676 Y95.220 E72.97354
G1 X101.205 Y95.127 E72.98709
G1 X99.558 Y96.774 E73.05284
G1 X99.148 Y96.845 E73.06461
G1 X98.802 Y96.965 E73.07493
G1 X100.697 Y95.071 E73.15055
G1 X100.157 Y95.046 E73.16579
G1 X95.049 Y100.154 E73.36973
G1 X95.072 Y99.566 E73.38633
G1 X99.565 Y95.073 E73.56571
G1 X99.272 Y95.098 E73.57401
G1 X98.919 Y95.155 E73.58410
G1 X95.156 Y98.918 E73.73432
G1 X95.287 Y98.364 E73.75040
G1 X95.368 Y98.142 E73.75706
G1 X98.142 Y95.368 E73.86781
G1 X97.899 Y95.457 E73.87512
G1 X97.502 Y95.652 E73.88760
G1 X97.135 Y95.883 E73.89984
G1 X96.761 Y96.184 E73.91341
G1 X96.441 Y96.504 E73.92617
G1 X96.456 Y96.490 E73.92674
G1 X95.049 Y100.154 F7800.000
G1 F1200
G1 X95.069 Y100.699 E73.94212
G1 X97.946 Y97.821 E74.05699
G1 X97.773 Y98.250 E74.07004
G1 X97.661 Y98.671 E74.08235
G1 X95.126 Y101.205 E74.18352
G1 X95.169 Y101.470 E74.19110
G1 X95.220 Y101.676 E74.19708
G1 X97.569 Y99.327 E74.29083
G1 X97.550 Y99.910 E74.30729
G1 X95.350 Y102.111 E74.39514
G1 X95.510 Y102.515 E74.40741
G1 X97.576 Y100.449 E74.48990
G1 X97.645 Y100.944 E74.50402
G1 X95.703 Y102.886 E74.58154
G1 X95.927 Y103.226 E74.59304
G1 X97.757 Y101.396 E74.66610
G1 X97.913 Y101.805 E74.67844
G1 X96.181 Y103.538 E74.74762
G1 X96.463 Y103.819 E74.75889
G1 X98.114 Y102.169 E74.82478
G1 X98.358 Y102.489 E74.83615
G1 X96.774 Y104.073 E74.89938
G1 X97.116 Y104.296 E74.91089
G1 X98.650 Y102.762 E74.97213
G1 X98.994 Y102.981 E74.98367
G1 X97.486 Y104.490 E75.04391
G1 X97.890 Y104.651 E75.05618
G1 X99.400 Y103.140 E75.11648
G1 X99.877 Y103.228 E75.13017
G1 X98.324 Y104.780 E75.19215
G1 X98.796 Y104.873 E75.20572
G1 X100.442 Y103.227 E75.27142
G1 X100.860 Y103.155 E75.28339
G1 X101.193 Y103.040 E75.29335
G1 X99.303 Y104.931 E75.36881
G1 Z9.000 F7800.000
G1 X100.157 Y104.951 F7800.000
G1 F1200
G1 X100.702 Y104.932 E75.38420
G1 X98.807 Y103.037 E75.45982
G1 X99.156 Y103.157 E75.47022
G1 X99.561 Y103.227 E75.48184
G1 X101.209 Y104.874 E75.54760
G1 X101.679 Y104.780 E75.56115
G1 X100.127 Y103.228 E75.62312
G1 X100.604 Y103.141 E75.63682
G1 X102.115 Y104.651 E75.69710
G1 X102.518 Y104.491 E75.70937
G1 X101.010 Y102.983 E75.76958
G1 X101.355 Y102.763 E75.78112
G1 X102.889 Y104.297 E75.84236
G1 X103.230 Y104.074 E75.85386
G1 X101.647 Y102.491 E75.91704
G1 X101.892 Y102.172 E75.92840
G1 X103.541 Y103.820 E75.99422
G1 X103.823 Y103.538 E76.00549
G1 X102.093 Y101.808 E76.07455
G1 X102.249 Y101.400 E76.08688
G1 X104.075 Y103.226 E76.15979
G1 X104.298 Y102.884 E76.17130
G1 X102.362 Y100.948 E76.24861
G1 X102.431 Y100.453 E76.26272
G1 X104.492 Y102.514 E76.34500
G1 X104.547 Y102.401 E76.34854
G1 X104.652 Y102.110 E76.35728
G1 X102.457 Y99.915 E76.44490
G1 X102.439 Y99.332 E76.46136
G1 X104.781 Y101.674 E76.55485
G1 X104.874 Y101.202 E76.56842
G1 X102.348 Y98.676 E76.66925
G1 X102.251 Y98.297 E76.68030
G1 X102.066 Y97.830 E76.69448
G1 X104.931 Y100.695 E76.80886
G1 X103.824 Y96.766 F7800.000
G1 F1200
G1 X103.207 Y96.152 E76.83343
G1 X102.867 Y95.881 E76.84571
G1 X102.482 Y95.640 E76.85852
G1 X102.057 Y95.436 E76.87184
G1 X101.859 Y95.365 E76.87778
G1 X104.632 Y98.138 E76.98849
G1 X104.714 Y98.367 E76.99535
G1 X104.845 Y98.916 E77.01129
G1 X101.083 Y95.154 E77.16146
G1 X100.626 Y95.085 E77.17453
G1 X100.439 Y95.074 E77.17981
G1 X104.928 Y99.564 E77.35905
G1 X104.951 Y100.151 E77.37563
G1 X99.845 Y95.045 E77.57946
G1 X99.305 Y95.069 E77.59473
G1 X101.197 Y96.961 E77.67026
G1 X100.852 Y96.843 E77.68056
G1 X100.444 Y96.773 E77.69223
G1 X98.797 Y95.126 E77.75800
G1 X98.328 Y95.221 E77.77152
G1 X99.879 Y96.772 E77.83345
G1 X99.402 Y96.859 E77.84715
G1 X97.891 Y95.348 E77.90748
G1 X97.488 Y95.509 E77.91974
G1 X98.996 Y97.018 E77.97996
G1 X98.651 Y97.237 E77.99150
G1 X97.116 Y95.702 E78.05278
G1 X96.776 Y95.926 E78.06428
G1 X98.359 Y97.510 E78.12750
G1 X98.115 Y97.829 E78.13886
G1 X96.462 Y96.179 E78.20481
G1 X96.182 Y96.461 E78.21603
G1 X97.914 Y98.193 E78.28519
G1 X97.758 Y98.601 E78.29752
G1 X95.929 Y96.772 E78.37054
G1 X95.705 Y97.113 E78.38205
G1 X97.645 Y99.053 E78.45950
G1 X97.576 Y99.548 E78.47362
G1 X95.511 Y97.483 E78.55607
G1 X95.350 Y97.886 E78.56833
G1 X97.550 Y100.087 E78.65618
G1 X97.569 Y100.670 E78.67266
G1 X95.220 Y98.321 E78.76643
G1 X95.127 Y98.792 E78.78000
G1 X97.661 Y101.326 E78.88116
G1 X97.757 Y101.701 E78.89207
G1 X97.944 Y102.174 E78.90643
G1 X95.069 Y99.299 E79.02119
G1 X95.049 Y99.843 E79.03656
G1 X100.157 Y104.951 E79.24048
G1 X99.569 Y104.928 E79.25708
G1 X95.072 Y100.430 E79.43663
G1 X95.155 Y101.078 E79.45507
G1 X98.921 Y104.844 E79.60541
G1 X98.365 Y104.712 E79.62152
G1 X98.145 Y104.633 E79.62812
G1 X95.368 Y101.855 E79.73901
G1 X95.456 Y102.097 E79.74629
G1 X95.651 Y102.497 E79.75886
G1 X95.885 Y102.868 E79.77122
G1 X96.156 Y103.208 E79.78349
G1 X96.522 Y103.574 E79.79810
G1 X96.461 Y103.513 E79.80052
G1 Z9.500 F7800.000
G1 X99.304 Y104.936 F7800.000
G1 F1200
G1 X101.205 Y103.035 E79.87649
G1 X100.866 Y103.154 E79.88662
G1 X100.448 Y103.227 E79.89863
G1 X98.781 Y104.877 E79.96491
G1 X98.326 Y104.783 E79.97803
G1 X99.882 Y103.228 E80.04020
G1 X99.403 Y103.141 E80.05393
G1 X97.890 Y104.655 E80.11443
G1 X97.488 Y104.492 E80.12669
G1 X98.997 Y102.983 E80.18701
G1 X98.652 Y102.763 E80.19858
G1 X97.118 Y104.297 E80.25990
G1 X96.777 Y104.072 E80.27142
G1 X98.359 Y102.490 E80.33466
G1 X98.114 Y102.170 E80.34605
G1 X96.467 Y103.818 E80.41192
G1 X96.184 Y103.535 E80.42321
G1 X97.914 Y101.806 E80.49236
G1 X97.757 Y101.397 E80.50472
G1 X95.930 Y103.225 E80.57778
G1 X95.704 Y102.885 E80.58929
G1 X97.645 Y100.944 E80.66689
G1 X97.576 Y100.448 E80.68104
G1 X95.509 Y102.515 E80.76366
G1 X95.365 Y102.173 E80.77415
G1 X95.346 Y102.113 E80.77594
G1 X97.550 Y99.909 E80.86403
G1 X97.569 Y99.325 E80.88054
G1 X95.217 Y101.677 E80.97454
G1 X95.123 Y101.215 E80.98786
G1 X97.662 Y98.667 E81.08952
G1 X97.806 Y98.150 E81.10469
G1 X97.950 Y97.814 E81.11502
G1 X95.064 Y100.700 E81.23038
G1 X95.044 Y100.155 E81.24580
G1 X96.317 Y96.621 F7800.000
G1 F1200
G1 X96.949 Y96.023 E81.27039
G1 X97.325 Y95.757 E81.28341
G1 X97.714 Y95.542 E81.29596
G1 X98.141 Y95.362 E81.30907
G1 X95.360 Y98.143 E81.42023
G1 X95.226 Y98.582 E81.43319
G1 X95.159 Y98.910 E81.44266
G1 X98.909 Y95.160 E81.59256
G1 X99.565 Y95.068 E81.61129
G1 X95.067 Y99.567 E81.79110
G1 X95.044 Y100.155 E81.80773
G1 X100.153 Y95.045 E82.01196
G1 X100.700 Y95.064 E82.02741
G1 X98.796 Y96.968 E82.10350
G1 X99.141 Y96.846 E82.11383
G1 X99.555 Y96.774 E82.12573
G1 X101.208 Y95.121 E82.19177
G1 X101.678 Y95.216 E82.20533
G1 X100.123 Y96.772 E82.26751
G1 X100.601 Y96.858 E82.28125
G1 X102.114 Y95.345 E82.34170
G1 X102.517 Y95.507 E82.35398
G1 X101.008 Y97.016 E82.41429
G1 X101.354 Y97.235 E82.42587
G1 X102.887 Y95.702 E82.48714
G1 X103.227 Y95.927 E82.49867
G1 X101.646 Y97.508 E82.56184
G1 X101.892 Y97.828 E82.57323
G1 X103.537 Y96.182 E82.63902
G1 X103.685 Y96.315 E82.64463
G1 X103.820 Y96.465 E82.65033
G1 X102.093 Y98.192 E82.71935
G1 X102.250 Y98.600 E82.73171
G1 X104.073 Y96.776 E82.80461
G1 X104.299 Y97.116 E82.81613
G1 X102.362 Y99.052 E82.89354
G1 X102.432 Y99.548 E82.90769
G1 X104.493 Y97.486 E82.99010
G1 X104.656 Y97.889 E83.00238
G1 X102.457 Y100.087 E83.09024
G1 X102.438 Y100.671 E83.10676
G1 X104.784 Y98.325 E83.20052
G1 X104.879 Y98.796 E83.21408
G1 X102.346 Y101.329 E83.31533
G1 X102.242 Y101.727 E83.32695
G1 X102.061 Y102.179 E83.34072
G1 X104.937 Y99.303 E83.45566
G1 X104.956 Y99.849 E83.47109
G1 X99.849 Y104.956 E83.67523
G1 X100.438 Y104.932 E83.69189
G1 X104.932 Y100.438 E83.87152
G1 X104.840 Y101.095 E83.89028
G1 X101.094 Y104.841 E84.03999
G1 X101.422 Y104.774 E84.04946
G1 X101.861 Y104.639 E84.06243
G1 X104.637 Y101.863 E84.17339
G1 X104.458 Y102.291 E84.18651
G1 X104.235 Y102.693 E84.19950
G1 X103.980 Y103.050 E84.21190
G1 X103.380 Y103.685 E84.23658
G1 Z10.000 F7800.000
G1 E82.23658 F2400.00000
G92 E0
G1 X104.936 Y100.696 F7800.000
G1 E2.00000 F2400.00000
G1 F1200
G1 X102.061 Y97.822 E2.11490
G1 X102.249 Y98.293 E2.12926
G1 X102.347 Y98.672 E2.14031
G1 X104.878 Y101.204 E2.24150
G1 X104.784 Y101.674 E2.25507
G1 X102.439 Y99.329 E2.34881
G1 X102.457 Y99.913 E2.36532
G1 X104.655 Y102.111 E2.45316
G1 X104.637 Y102.169 E2.45489
G1 X104.493 Y102.513 E2.46544
G1 X102.431 Y100.451 E2.54785
G1 X102.362 Y100.947 E2.56200
G1 X104.298 Y102.884 E2.63941
G1 X104.074 Y103.224 E2.65094
G1 X102.249 Y101.400 E2.72386
G1 X102.093 Y101.808 E2.73622
G1 X103.820 Y103.535 E2.80525
G1 X103.537 Y103.818 E2.81655
G1 X101.892 Y102.172 E2.88233
G1 X101.646 Y102.492 E2.89372
G1 X103.227 Y104.073 E2.95689
G1 X102.887 Y104.298 E2.96841
G1 X101.354 Y102.764 E3.02970
G1 X101.008 Y102.984 E3.04127
G1 X102.517 Y104.493 E3.10158
G1 X102.114 Y104.655 E3.11385
G1 X100.601 Y103.142 E3.17432
G1 X100.122 Y103.228 E3.18807
G1 X101.678 Y104.784 E3.25026
G1 X101.208 Y104.879 E3.26382
G1 X99.556 Y103.227 E3.32986
G1 X99.141 Y103.154 E3.34176
G1 X98.796 Y103.032 E3.35208
G1 X100.700 Y104.936 E3.42819
G1 X100.155 Y104.956 E3.44362
G1 E1.44362 F2400.00000
G92 E0
G1 X96.621 Y103.683 F7800.000
G1 E2.00000 F2400.00000
G1 F1200
G1 X96.021 Y103.048 E2.02468
G1 X95.760 Y102.682 E2.03740
G1 X95.543 Y102.290 E2.05005
G1 X95.362 Y101.858 E2.06328
G1 X98.142 Y104.638 E2.17439
G1 X98.589 Y104.775 E2.18760
G1 X98.909 Y104.841 E2.19685
G1 X95.159 Y101.091 E2.34673
G1 X95.068 Y100.434 E2.36546
G1 X99.566 Y104.932 E2.54523
G1 X100.155 Y104.956 E2.56190
G1 X95.044 Y99.845 E2.76619
G1 X95.064 Y99.300 E2.78161
G1 X97.950 Y102.186 E2.89698
G1 X97.808 Y101.855 E2.90718
G1 X97.662 Y101.333 E2.92248
G1 X95.122 Y98.793 E3.02403
G1 X95.216 Y98.322 E3.03759
G1 X97.570 Y100.675 E3.13164
G1 X97.550 Y100.091 E3.14817
G1 X95.346 Y97.887 E3.23628
G1 X95.509 Y97.485 E3.24854
G1 X97.576 Y99.552 E3.33115
G1 X97.645 Y99.055 E3.34531
G1 X95.704 Y97.115 E3.42288
G1 X95.929 Y96.775 E3.43440
G1 X97.757 Y98.603 E3.50746
G1 X97.914 Y98.194 E3.51982
G1 X96.184 Y96.465 E3.58896
G1 X96.317 Y96.316 E3.59458
G1 X96.467 Y96.182 E3.60027
G1 X98.114 Y97.830 E3.66613
G1 X98.359 Y97.510 E3.67753
G1 X96.777 Y95.928 E3.74076
G1 X97.117 Y95.703 E3.75228
G1 X98.652 Y97.237 E3.81361
G1 X98.997 Y97.018 E3.82518
G1 X97.488 Y95.508 E3.88551
G1 X97.890 Y95.346 E3.89778
G1 X99.404 Y96.859 E3.95826
G1 X99.882 Y96.772 E3.97200
G1 X98.326 Y95.216 E4.03417
G1 X98.797 Y95.122 E4.04773
G1 X100.448 Y96.773 E4.11373
G1 X100.867 Y96.846 E4.12575
G1 X101.205 Y96.965 E4.13587
G1 X99.304 Y95.064 E4.21186
G1 X99.849 Y95.044 E4.22730
G1 X104.956 Y100.151 E4.43142
G1 X104.932 Y99.562 E4.44808
G1 X100.437 Y95.067 E4.62773
G1 X101.094 Y95.159 E4.64645
G1 X104.841 Y98.906 E4.79624
G1 X104.775 Y98.585 E4.80551
G1 X104.638 Y98.138 E4.81870
G1 X101.861 Y95.361 E4.92972
G1 X102.296 Y95.543 E4.94305
G1 X102.691 Y95.763 E4.95583
G1 X103.051 Y96.020 E4.96832
G1 X103.687 Y96.622 E4.99310
G1 E2.99310 F2400.00000
G92 E0
M107
; Filament-specific end gcode 
;END gcode for filament

M104 S0 ; turn off temperature
G28 X0  ; home X axis
M84     ; disable motors

M140 S0 ; set bed temperature
; filament used = 89.1mm (0.6cm3)
; total filament cost = 0.0

; avoid_crossing_perimeters = 0
; bed_shape = 0x0,200x0,200x200,0x200
; bed_temperature = 0
; before_layer_gcode = 
; between_objects_gcode = 
; bridge_acceleration = 0
; bridge_fan_speed = 100
; brim_connections_width = 0
; brim_width = 0
; complete_objects = 0
; cooling = 1
; default_acceleration = 0
; disable_fan_first_layers = 3
; duplicate_distance = 6
; end_filament_gcode = "; Filament-specific end gcode \n;END gcode for filament\n"
; end_gcode = M104 S0 ; turn off temperature\nG28 X0  ; home X axis\nM84     ; disable motors\n
; extruder_clearance_height = 20
; extruder_clearance_radius = 20
; extruder_offset = 0x0
; extrusion_axis = E
; extrusion_multiplier = 1
; fan_always_on = 0
; fan_below_layer_time = 60
; filament_colour = #FFFFFF
; filament_cost = 0
; filament_density = 0
; filament_diameter = 3
; filament_max_volumetric_speed = 0
; filament_notes = ""
; first_layer_acceleration = 0
; first_layer_bed_temperature = 0
; first_layer_extrusion_width = 200%
; first_layer_speed = 30
; first_layer_temperature = 205
; gcode_arcs = 0
; gcode_comments = 0
; gcode_flavor = reprap
; has_heatbed = 1
; infill_acceleration = 0
; infill_first = 0
; interior_brim_width = 0
; layer_gcode = 
; max_fan_speed = 100
; max_layer_height = 0.3
; max_print_speed = 80
; max_volumetric_speed = 0
; min_fan_speed = 35
; min_layer_height = 0.15
; min_print_speed = 10
; min_skirt_length = 0
; notes = 
; nozzle_diameter = 0.5
; only_retract_when_crossing_perimeters = 1
; ooze_prevention = 0
; output_filename_format = [input_filename_base].gcode
; perimeter_acceleration = 0
; post_process = 
; pressure_advance = 0
; printer_notes = 
; resolution = 0
; retract_before_travel = 2
; retract_layer_change = 0
; retract_length = 2
; retract_length_toolchange = 10
; retract_lift = 0
; retract_lift_above = 0
; retract_lift_below = 0
; retract_restart_extra = 0
; retract_restart_extra_toolchange = 0
; retract_speed = 40
; skirt_distance = 6
; skirt_height = 1
; skirts = 0
; slowdown_below_layer_time = 5
; spiral_vase = 0
; standby_temperature_delta = -5
; start_filament_gcode = "; Filament gcode\n"
; start_gcode = G28 ; home all axes\nG1 Z5 F5000 ; lift nozzle\n
; temperature = 200
; threads = 8
; toolchange_gcode = 
; travel_speed = 130
; use_firmware_retraction = 0
; use_relative_e_distances = 0
; use_set_and_wait_bed = 0
; use_set_and_wait_extruder = 0
; use_volumetric_e = 0
; vibration_limit = 0
; wipe = 0
; z_offset = 0
; z_steps_per_mm = 0
; adaptive_slicing = 0
; adaptive_slicing_quality = 75%
; dont_support_bridges = 1
; extrusion_width = 0.5
; first_layer_height = 0.5
; infill_only_where_needed = 0
; interface_shells = 0
; layer_height = 0.5
; match_horizontal_surfaces = 0
; raft_layers = 0
; regions_overlap = 0
; seam_position = aligned
; sequential_print_priority = 0
; support_material = 0
; support_material_angle = 0
; support_material_buildplate_only = 0
; support_material_contact_distance = 0.2
; support_material_enforce_layers = 0
; support_material_extruder = 1
; support_material_extrusion_width = 0
; support_material_interface_extruder = 1
; support_material_interface_extrusion_width = 0
; support_material_interface_layers = 3
; support_material_interface_spacing = 0
; support_material_interface_speed = 100%
; support_material_max_layers = 0
; support_material_pattern = pillars
; support_material_spacing = 2.5
; support_material_speed = 60
; support_material_threshold = 60%
; xy_size_compensation = 0
; bottom_infill_pattern = rectilinear
; bottom_solid_layers = 0
; bridge_flow_ratio = 1
; bridge_speed = 60
; external_perimeter_extrusion_width = 0
; external_perimeter_speed = 50%
; external_perimeters_first = 0
; extra_perimeters = 1
; fill_angle = 45
; fill_density = 50%
; fill_gaps = 1
; fill_pattern = rectilinear
; gap_fill_speed = 20
; infill_every_layers = 1
; infill_extruder = 1
; infill_extrusion_width = 0
; infill_overlap = 55%
; infill_speed = 80
; overhangs = 1
; perimeter_extruder = 1
; perimeter_extrusion_width = 0
; perimeter_speed = 60
; perimeters = 0
; small_perimeter_speed = 15
; solid_infill_below_area = 70
; solid_infill_every_layers = 0
; solid_infill_extruder = 1
; solid_infill_extrusion_width = 0
; solid_infill_speed = 20
; thin_walls = 1
; top_infill_extrusion_width = 0
; top_infill_pattern = rectilinear
; top_solid_infill_speed = 15
; top_solid_layers = 0
