; generated by Slic3r 1.3.0 on 2021-03-02 at 15:08:05

; external perimeters extrusion width = 0.55mm (5.57mm^3/s)
; perimeters extrusion width = 0.58mm (11.78mm^3/s)
; infill extrusion width = 0.58mm (15.71mm^3/s)
; solid infill extrusion width = 0.58mm (3.93mm^3/s)
; top infill extrusion width = 0.58mm (2.95mm^3/s)

M107
M104 S205 ; set temperature
G28 ; home all axes
G1 Z5 F5000 ; lift nozzle

; Filament gcode

M109 S205 ; set temperature and wait for it to be reached
G21 ; set units to millimeters
G90 ; use absolute coordinates
M82 ; use absolute distances for extrusion
G92 E0
G1 Z0.400 F7800.000
G1 E-2.00000 F2400.00000
G92 E0
G1 X96.701 Y93.754 F7800.000
G1 E2.00000 F2400.00000
G1 F1800
G1 X96.530 Y93.859 E2.00811
G1 X95.965 Y94.296 E2.03696
G1 X95.427 Y94.810 E2.06701
G1 X95.150 Y95.124 E2.08395
G1 X94.681 Y95.774 E2.11635
G1 X97.169 Y93.285 E2.25858
G1 X97.629 Y93.003 E2.28037
G1 X98.329 Y92.670 E2.31173
G1 X98.831 Y92.492 E2.33323
G1 X93.930 Y97.392 E2.61330
G1 X93.817 Y97.740 E2.62809
G1 X93.644 Y98.546 E2.66142
G1 X100.000 Y92.191 E3.02466
G1 X100.664 Y92.086 E3.05186
G1 X100.997 Y92.061 E3.06534
G1 X93.539 Y99.519 E3.49157
G1 X93.518 Y100.408 E3.52750
G1 X101.908 Y92.018 E4.00701
G1 X102.309 Y92.015 E4.02321
G1 X102.747 Y92.047 E4.04094
G1 X99.184 Y95.609 E4.24454
G1 X99.473 Y95.433 E4.25822
G1 X99.882 Y95.237 E4.27656
G1 X100.345 Y95.075 E4.29637
G1 X100.665 Y94.996 E4.30968
G1 X103.536 Y92.126 E4.47376
G1 X104.267 Y92.262 E4.50382
G1 X101.651 Y94.878 E4.65333
G1 X102.497 Y94.899 E4.68755
G1 X104.954 Y92.442 E4.82797
G1 X105.599 Y92.666 E4.85554
G1 X103.263 Y95.002 E4.98904
G1 X103.963 Y95.169 E5.01815
G1 X106.207 Y92.926 E5.14636
G1 X106.489 Y93.062 E5.15902
G1 X106.489 Y93.511 E5.17718
G1 X104.608 Y95.392 E5.28468
G1 X105.207 Y95.660 E5.31122
G1 X106.489 Y94.379 E5.38446
G1 X106.489 Y95.247 E5.41953
G1 X105.769 Y95.966 E5.46064
G1 E3.46064 F2400.00000
G92 E0
G1 X98.477 Y96.316 F7800.000
G1 E2.00000 F2400.00000
G1 F1800
G1 X93.561 Y101.233 E2.28101
G1 X93.661 Y102.000 E2.31229
G1 X97.787 Y97.874 E2.54812
G1 X97.686 Y98.327 E2.56687
G1 X97.604 Y98.925 E2.59129
G1 X93.815 Y102.714 E2.80779
G1 X94.026 Y103.370 E2.83567
G1 X97.565 Y99.832 E3.03792
G1 X97.609 Y100.656 E3.07127
G1 X94.286 Y103.979 E3.26119
G1 X94.355 Y104.135 E3.26810
G1 X94.591 Y104.541 E3.28708
G1 X97.728 Y101.404 E3.46635
G1 X97.917 Y102.083 E3.49481
G1 X94.940 Y105.060 E3.66497
G1 X95.156 Y105.351 E3.67962
G1 X95.329 Y105.538 E3.68994
G1 X98.173 Y102.695 E3.85246
G1 X98.495 Y103.241 E3.87807
G1 X95.756 Y105.980 E4.03460
G1 X96.221 Y106.382 E4.05946
G1 X98.878 Y103.725 E4.21132
G1 X99.323 Y104.148 E4.23612
G1 X96.733 Y106.738 E4.38414
G1 X97.285 Y107.053 E4.40984
G1 X99.835 Y104.504 E4.55554
G1 X100.155 Y104.676 E4.57022
G1 X100.418 Y104.789 E4.58179
G1 X97.879 Y107.327 E4.72687
G1 X98.225 Y107.470 E4.74197
G1 X98.517 Y107.557 E4.75430
G1 X101.081 Y104.993 E4.90088
G1 X101.527 Y105.073 E4.91917
G1 X101.836 Y105.106 E4.93173
G1 X99.202 Y107.740 E5.08228
G1 X99.934 Y107.875 E5.11238
G1 X102.692 Y105.117 E5.27001
G1 X103.225 Y105.076 E5.29160
G1 X103.668 Y105.010 E5.30970
G1 X100.719 Y107.958 E5.47822
G1 X101.548 Y107.989 E5.51175
G1 X104.851 Y104.694 E5.70027
G1 X105.230 Y104.546 E5.71671
G1 X105.763 Y104.297 E5.74048
G1 X106.489 Y103.881 E5.77431
G1 X106.489 Y103.924 E5.77606
G1 X102.469 Y107.944 E6.00582
G1 X102.764 Y107.919 E6.01782
G1 X103.476 Y107.805 E6.04694
G1 X106.489 Y104.792 E6.21913
G1 X106.489 Y105.660 E6.25420
G1 X104.645 Y107.504 E6.35960
M104 S200 ; set temperature
G1 Z0.800 F7800.000
G1 X106.445 Y104.710 F7800.000
G1 F2263.28
G1 X105.813 Y104.078 E6.38444
G1 X105.251 Y104.383 E6.40222
G1 X106.445 Y105.578 E6.44916
G1 X106.445 Y106.445 E6.47326
G1 X104.652 Y104.652 E6.54372
G1 X104.007 Y104.875 E6.56268
G1 X106.162 Y107.030 E6.64733
G1 X105.551 Y107.286 E6.66574
G1 X103.307 Y105.042 E6.75390
G1 X102.540 Y105.143 E6.77537
G1 X104.907 Y107.510 E6.86835
G1 X104.651 Y107.590 E6.87580
G1 X104.218 Y107.689 E6.88812
G1 X101.694 Y105.165 E6.98731
G1 X101.164 Y105.125 E7.00205
G1 X100.708 Y105.047 E7.01490
G1 X103.491 Y107.830 E7.12422
G1 X102.709 Y107.916 E7.14608
G1 X99.227 Y104.434 E7.28287
G1 X95.104 Y104.649 F7800.000
G1 F2263.28
G1 X95.562 Y105.284 E7.30463
G1 X96.101 Y105.868 E7.32671
G1 X96.651 Y106.343 E7.34691
G1 X97.132 Y106.677 E7.36316
G1 X94.722 Y104.267 E7.45784
G1 X94.395 Y103.702 E7.47596
G1 X94.098 Y103.034 E7.49628
G1 X93.975 Y102.652 E7.50742
G1 X98.793 Y107.470 E7.69670
G1 X99.380 Y107.646 E7.71374
G1 X99.952 Y107.762 E7.72995
G1 X93.689 Y101.499 E7.97599
G1 X93.582 Y100.524 E8.00323
G1 X100.960 Y107.902 E8.29307
G1 X101.870 Y107.944 E8.31836
G1 X93.562 Y99.636 E8.64473
G1 X93.602 Y98.808 E8.66774
G1 X98.434 Y103.640 E8.85755
G1 X98.221 Y103.294 E8.86884
G1 X98.018 Y102.881 E8.88162
G1 X97.850 Y102.439 E8.89475
G1 X97.745 Y102.084 E8.90505
G1 X93.704 Y98.043 E9.06380
G1 X93.858 Y97.329 E9.08408
G1 X97.561 Y101.032 E9.22955
G1 X97.522 Y100.125 E9.25477
G1 X94.070 Y96.673 E9.39035
G1 X94.328 Y96.063 E9.40875
G1 X97.565 Y99.301 E9.53592
G1 X97.684 Y98.552 E9.55699
G1 X94.635 Y95.503 E9.67676
G1 X94.774 Y95.264 E9.68444
G1 X94.982 Y94.982 E9.69417
G1 X97.873 Y97.873 E9.80774
G1 X98.129 Y97.261 E9.82616
G1 X95.370 Y94.503 E9.93453
G1 X95.512 Y94.342 E9.94049
G1 X95.803 Y94.068 E9.95159
G1 X98.451 Y96.716 E10.05561
G1 X98.835 Y96.231 E10.07277
G1 X96.270 Y93.667 E10.17351
G1 X96.566 Y93.439 E10.18390
G1 X96.780 Y93.309 E10.19084
G1 X99.279 Y95.808 E10.28904
G1 X99.494 Y95.643 E10.29657
G1 X99.791 Y95.452 E10.30637
G1 X97.325 Y92.986 E10.40323
G1 X97.915 Y92.709 E10.42135
G1 X100.374 Y95.168 E10.51794
G1 X100.771 Y95.032 E10.52960
G1 X101.038 Y94.964 E10.53724
G1 X98.556 Y92.482 E10.63473
G1 X98.643 Y92.451 E10.63729
G1 X99.244 Y92.302 E10.65448
G1 X101.792 Y94.850 E10.75460
G1 X102.294 Y94.830 E10.76856
G1 X102.649 Y94.839 E10.77840
G1 X99.980 Y92.170 E10.88325
G1 X100.229 Y92.131 E10.89026
G1 X100.767 Y92.089 E10.90524
G1 X103.625 Y94.947 E11.01750
G1 X104.263 Y95.090 E11.03567
G1 X104.807 Y95.262 E11.05153
G1 X101.606 Y92.060 E11.17729
G1 X101.852 Y92.058 E11.18415
G1 X102.519 Y92.106 E11.20271
G1 X106.445 Y96.032 E11.35696
G1 X106.445 Y95.165 E11.38107
G1 X103.518 Y92.238 E11.49606
G1 X104.018 Y92.344 E11.51025
G1 X104.689 Y92.540 E11.52965
G1 X106.445 Y94.297 E11.59867
G1 Z1.200 F7800.000
G1 X105.813 Y95.922 F7800.000
G1 F2270.57
G1 X106.445 Y95.290 E11.62351
G1 X106.445 Y94.422 E11.64761
G1 X105.251 Y95.617 E11.69453
G1 X104.652 Y95.348 E11.71278
G1 X106.445 Y93.555 E11.78325
G1 X106.445 Y93.106 E11.79572
G1 X106.162 Y92.970 E11.80444
G1 X104.007 Y95.125 E11.88909
G1 X103.306 Y94.958 E11.90911
G1 X105.556 Y92.709 E11.99748
G1 X104.910 Y92.486 E12.01644
G1 X102.540 Y94.856 E12.10955
G1 X101.695 Y94.834 E12.13305
G1 X104.222 Y92.307 E12.23235
G1 X103.493 Y92.168 E12.25296
G1 X100.709 Y94.952 E12.36233
G1 X100.303 Y95.059 E12.37400
G1 X99.908 Y95.201 E12.38565
G1 X99.537 Y95.379 E12.39707
G1 X99.229 Y95.564 E12.40706
G1 X102.712 Y92.081 E12.54389
G1 X101.865 Y92.061 E12.56744
G1 X93.561 Y100.364 E12.89362
G1 X93.584 Y99.474 E12.91837
G1 X100.954 Y92.104 E13.20787
G1 X100.601 Y92.132 E13.21771
G1 X99.956 Y92.234 E13.23583
G1 X93.688 Y98.502 E13.48207
G1 X93.862 Y97.694 E13.50505
G1 X93.975 Y97.347 E13.51518
G1 X98.787 Y92.535 E13.70420
G1 X98.324 Y92.698 E13.71784
G1 X97.659 Y93.007 E13.73822
G1 X97.134 Y93.321 E13.75521
G1 X94.726 Y95.729 E13.84980
G1 X95.198 Y95.074 E13.87222
G1 X95.686 Y94.547 E13.89218
G1 X96.081 Y94.191 E13.90696
G1 X96.752 Y93.703 E13.93000
G1 X98.432 Y96.361 F7800.000
G1 F2270.57
G1 X93.605 Y101.189 E14.11965
G1 X93.706 Y101.955 E14.14112
G1 X97.744 Y97.917 E14.29972
G1 X97.642 Y98.372 E14.31267
G1 X97.560 Y98.969 E14.32940
G1 X93.860 Y102.669 E14.47475
G1 X94.070 Y103.327 E14.49394
G1 X97.522 Y99.875 E14.62953
G1 X97.566 Y100.699 E14.65245
G1 X94.329 Y103.936 E14.77960
G1 X94.391 Y104.076 E14.78387
G1 X94.634 Y104.498 E14.79740
G1 X97.684 Y101.448 E14.91722
G1 X97.873 Y102.127 E14.93679
G1 X94.983 Y105.017 E15.05034
G1 X95.163 Y105.264 E15.05882
G1 X95.368 Y105.500 E15.06751
G1 X98.130 Y102.738 E15.17601
G1 X98.451 Y103.285 E15.19362
G1 X95.799 Y105.937 E15.29780
G1 X96.264 Y106.339 E15.31489
G1 X98.835 Y103.769 E15.41586
G1 X99.279 Y104.192 E15.43291
G1 X96.775 Y106.696 E15.53128
G1 X97.330 Y107.009 E15.54896
G1 X99.791 Y104.548 E15.64567
G1 X100.152 Y104.738 E15.65701
G1 X100.374 Y104.832 E15.66371
G1 X97.924 Y107.283 E15.75997
G1 X98.322 Y107.445 E15.77190
G1 X98.559 Y107.516 E15.77878
G1 X101.038 Y105.036 E15.87617
G1 X101.420 Y105.107 E15.88696
G1 X101.793 Y105.149 E15.89739
G1 X99.246 Y107.696 E15.99745
G1 X99.977 Y107.833 E16.01809
G1 X102.649 Y105.161 E16.12306
G1 X103.172 Y105.120 E16.13765
G1 X103.624 Y105.054 E16.15033
G1 X100.764 Y107.914 E16.26269
G1 X101.414 Y107.943 E16.28077
G1 X101.605 Y107.940 E16.28608
G1 X104.807 Y104.738 E16.41186
G1 X105.285 Y104.546 E16.42617
G1 X105.739 Y104.330 E16.44015
G1 X106.445 Y103.925 E16.46276
G1 X106.445 Y103.968 E16.46395
G1 X102.513 Y107.900 E16.61842
G1 X102.788 Y107.878 E16.62607
G1 X103.517 Y107.764 E16.64657
G1 X106.445 Y104.835 E16.76161
G1 X106.445 Y105.703 E16.78572
G1 X104.691 Y107.457 E16.85462
M106 S255
G1 Z1.600 F7800.000
G1 X106.445 Y104.710 F7800.000
G1 F2263.21
G1 X105.813 Y104.077 E16.87947
G1 X105.250 Y104.382 E16.89725
G1 X106.445 Y105.578 E16.94420
G1 X106.445 Y106.445 E16.96831
G1 X104.652 Y104.652 E17.03875
G1 X104.007 Y104.875 E17.05771
G1 X106.160 Y107.028 E17.14229
G1 X105.553 Y107.289 E17.16064
G1 X103.306 Y105.041 E17.24891
G1 X102.539 Y105.142 E17.27040
G1 X104.906 Y107.509 E17.36337
G1 X104.643 Y107.593 E17.37104
G1 X104.221 Y107.692 E17.38307
G1 X101.693 Y105.164 E17.48238
G1 X101.219 Y105.131 E17.49558
G1 X100.709 Y105.047 E17.50995
G1 X103.494 Y107.832 E17.61935
G1 X102.713 Y107.919 E17.64118
G1 X99.226 Y104.433 E17.77814
G1 X95.098 Y104.644 F7800.000
G1 F2263.21
G1 X95.359 Y105.026 E17.79099
G1 X95.624 Y105.359 E17.80281
G1 X96.108 Y105.874 E17.82244
G1 X96.642 Y106.336 E17.84206
G1 X97.137 Y106.683 E17.85886
G1 X94.717 Y104.262 E17.95395
G1 X94.387 Y103.687 E17.97236
G1 X94.100 Y103.038 E17.99207
G1 X93.974 Y102.651 E18.00338
G1 X98.796 Y107.473 E18.19283
G1 X99.362 Y107.642 E18.20922
G1 X99.951 Y107.760 E18.22591
G1 X93.693 Y101.503 E18.47174
G1 X93.601 Y100.825 E18.49073
G1 X93.585 Y100.527 E18.49901
G1 X100.953 Y107.895 E18.78844
G1 X101.210 Y107.922 E18.79563
G1 X101.868 Y107.942 E18.81390
G1 X93.565 Y99.640 E19.14006
G1 X93.579 Y99.073 E19.15581
G1 X93.606 Y98.813 E19.16307
G1 X98.432 Y103.638 E19.35264
G1 X98.207 Y103.269 E19.36465
G1 X98.023 Y102.893 E19.37628
G1 X97.868 Y102.493 E19.38820
G1 X97.745 Y102.084 E19.40006
G1 X93.706 Y98.045 E19.55871
G1 X93.784 Y97.626 E19.57055
G1 X93.863 Y97.334 E19.57896
G1 X97.561 Y101.032 E19.72426
G1 X97.522 Y100.125 E19.74948
G1 X94.075 Y96.678 E19.88488
G1 X94.244 Y96.231 E19.89816
G1 X94.330 Y96.065 E19.90334
G1 X97.566 Y99.301 E20.03047
G1 X97.684 Y98.552 E20.05154
G1 X94.629 Y95.496 E20.17158
G1 X94.979 Y94.979 E20.18894
G1 X97.873 Y97.873 E20.30262
G1 X98.129 Y97.261 E20.32104
G1 X95.371 Y94.503 E20.42940
G1 X95.481 Y94.373 E20.43414
G1 X95.802 Y94.066 E20.44647
G1 X98.451 Y96.715 E20.55053
G1 X98.834 Y96.231 E20.56768
G1 X96.271 Y93.667 E20.66839
G1 X96.555 Y93.446 E20.67841
G1 X96.778 Y93.308 E20.68570
G1 X99.279 Y95.808 E20.78393
G1 X99.790 Y95.452 E20.80125
G1 X97.327 Y92.989 E20.89801
G1 X97.919 Y92.712 E20.91614
G1 X100.374 Y95.168 E21.01259
G1 X100.772 Y95.031 E21.02429
G1 X101.038 Y94.964 E21.03190
G1 X98.555 Y92.481 E21.12943
G1 X99.239 Y92.297 E21.14909
G1 X101.793 Y94.851 E21.24940
G1 X102.294 Y94.830 E21.26335
G1 X102.648 Y94.838 E21.27318
G1 X99.976 Y92.166 E21.37817
G1 X100.765 Y92.088 E21.40020
G1 X103.625 Y94.947 E21.51254
G1 X104.182 Y95.068 E21.52837
G1 X104.806 Y95.261 E21.54653
G1 X101.606 Y92.061 E21.67224
G1 X102.513 Y92.100 E21.69746
G1 X106.445 Y96.032 E21.85194
G1 X106.445 Y95.165 E21.87604
G1 X103.520 Y92.239 E21.99098
G1 X104.060 Y92.354 E22.00633
G1 X104.691 Y92.542 E22.02461
G1 X106.445 Y94.297 E22.09354
G1 Z2.000 F7800.000
G1 X105.813 Y95.922 F7800.000
G1 F2270.3
G1 X106.445 Y95.290 E22.11837
G1 X106.445 Y94.422 E22.14248
G1 X105.251 Y95.617 E22.18939
G1 X104.651 Y95.349 E22.20765
G1 X106.445 Y93.555 E22.27813
G1 X106.445 Y93.106 E22.29059
G1 X106.161 Y92.971 E22.29933
G1 X104.007 Y95.126 E22.38397
G1 X103.306 Y94.958 E22.40397
G1 X105.556 Y92.708 E22.49237
G1 X104.909 Y92.487 E22.51136
G1 X102.540 Y94.857 E22.60445
G1 X101.695 Y94.834 E22.62793
G1 X104.221 Y92.308 E22.72717
G1 X103.737 Y92.204 E22.74091
G1 X103.489 Y92.173 E22.74788
G1 X100.709 Y94.952 E22.85707
G1 X100.238 Y95.079 E22.87062
G1 X99.889 Y95.209 E22.88098
G1 X99.558 Y95.367 E22.89116
G1 X99.231 Y95.563 E22.90176
G1 X102.710 Y92.084 E23.03843
G1 X102.144 Y92.057 E23.05416
G1 X101.861 Y92.065 E23.06202
G1 X93.559 Y100.367 E23.38817
G1 X93.578 Y99.480 E23.41282
G1 X100.957 Y92.101 E23.70269
G1 X100.300 Y92.171 E23.72106
G1 X99.953 Y92.237 E23.73086
G1 X93.701 Y98.490 E23.97649
G1 X93.789 Y97.985 E23.99071
G1 X93.962 Y97.360 E24.00873
G1 X98.796 Y92.526 E24.19864
G1 X98.164 Y92.765 E24.21743
G1 X97.526 Y93.079 E24.23717
G1 X97.126 Y93.329 E24.25027
G1 X94.735 Y95.719 E24.34418
G1 X95.039 Y95.274 E24.35915
G1 X95.489 Y94.746 E24.37842
G1 X95.997 Y94.261 E24.39794
G1 X96.549 Y93.832 E24.41736
G1 X96.744 Y93.711 E24.42374
G1 X98.433 Y96.361 F7800.000
G1 F2270.3
G1 X93.602 Y101.192 E24.61351
G1 X93.704 Y101.958 E24.63497
G1 X97.745 Y97.916 E24.79374
G1 X97.643 Y98.369 E24.80663
G1 X97.561 Y98.968 E24.82342
G1 X93.861 Y102.668 E24.96879
G1 X94.070 Y103.327 E24.98799
G1 X97.522 Y99.875 E25.12358
G1 X97.566 Y100.699 E25.14649
G1 X94.328 Y103.936 E25.27368
G1 X94.383 Y104.061 E25.27747
G1 X94.633 Y104.499 E25.29147
G1 X97.684 Y101.448 E25.41134
G1 X97.873 Y102.127 E25.43092
G1 X94.976 Y105.024 E25.54473
G1 X95.371 Y105.497 E25.56185
G1 X98.130 Y102.738 E25.67023
G1 X98.451 Y103.285 E25.68785
G1 X95.799 Y105.937 E25.79203
G1 X96.264 Y106.339 E25.80912
G1 X98.834 Y103.769 E25.91007
G1 X99.280 Y104.191 E25.92712
G1 X96.774 Y106.697 E26.02556
G1 X97.330 Y107.008 E26.04326
G1 X99.792 Y104.547 E26.13995
G1 X100.185 Y104.753 E26.15230
G1 X100.375 Y104.831 E26.15800
G1 X97.925 Y107.282 E26.25426
G1 X98.375 Y107.463 E26.26775
G1 X98.557 Y107.517 E26.27302
G1 X101.038 Y105.037 E26.37046
G1 X101.324 Y105.093 E26.37856
G1 X101.794 Y105.148 E26.39171
G1 X99.247 Y107.695 E26.49176
G1 X99.977 Y107.833 E26.51239
G1 X102.649 Y105.160 E26.61738
G1 X103.163 Y105.121 E26.63168
G1 X103.624 Y105.054 E26.64463
G1 X100.764 Y107.914 E26.75698
G1 X101.590 Y107.945 E26.77994
G1 X104.809 Y104.737 E26.90619
G1 X105.384 Y104.503 E26.92344
G1 X105.760 Y104.320 E26.93506
G1 X106.445 Y103.925 E26.95703
G1 X106.445 Y103.968 E26.95821
G1 X102.512 Y107.901 E27.11272
G1 X103.112 Y107.835 E27.12949
G1 X103.515 Y107.766 E27.14083
G1 X106.445 Y104.835 E27.25597
G1 X106.445 Y105.703 E27.28007
G1 X104.694 Y107.454 E27.34887
G1 Z2.400 F7800.000
G1 X106.445 Y104.710 F7800.000
G1 F2263.68
G1 X105.813 Y104.077 E27.37373
G1 X105.250 Y104.382 E27.39151
G1 X106.445 Y105.578 E27.43847
G1 X106.445 Y106.445 E27.46258
G1 X104.652 Y104.652 E27.53302
G1 X104.007 Y104.875 E27.55198
G1 X106.159 Y107.027 E27.63652
G1 X105.554 Y107.290 E27.65484
G1 X103.305 Y105.041 E27.74318
G1 X102.539 Y105.142 E27.76467
G1 X104.905 Y107.509 E27.85764
G1 X104.639 Y107.594 E27.86541
G1 X104.221 Y107.692 E27.87735
G1 X101.694 Y105.164 E27.97662
G1 X101.246 Y105.134 E27.98907
G1 X100.708 Y105.047 E28.00421
G1 X103.496 Y107.834 E28.11370
G1 X102.712 Y107.919 E28.13558
G1 X99.225 Y104.432 E28.27256
G1 X95.096 Y104.641 F7800.000
G1 F2263.68
G1 X95.358 Y105.025 E28.28547
G1 X95.634 Y105.371 E28.29778
G1 X96.111 Y105.877 E28.31710
G1 X96.637 Y106.332 E28.33642
G1 X97.141 Y106.686 E28.35351
G1 X94.714 Y104.259 E28.44884
G1 X94.383 Y103.679 E28.46738
G1 X94.101 Y103.040 E28.48679
G1 X93.973 Y102.650 E28.49818
G1 X98.796 Y107.474 E28.68767
G1 X99.627 Y107.705 E28.71162
G1 X99.955 Y107.765 E28.72087
G1 X93.694 Y101.503 E28.96684
G1 X93.605 Y100.865 E28.98473
G1 X93.585 Y100.527 E28.99413
G1 X100.951 Y107.893 E29.28348
G1 X101.298 Y107.927 E29.29317
G1 X101.868 Y107.943 E29.30902
G1 X93.565 Y99.639 E29.63522
G1 X93.573 Y99.158 E29.64858
G1 X93.604 Y98.811 E29.65827
G1 X98.432 Y103.638 E29.84791
G1 X98.200 Y103.256 E29.86032
G1 X98.025 Y102.899 E29.87137
G1 X97.877 Y102.519 E29.88269
G1 X97.745 Y102.084 E29.89533
G1 X93.711 Y98.049 E30.05381
G1 X93.789 Y97.604 E30.06639
G1 X93.862 Y97.333 E30.07418
G1 X97.561 Y101.032 E30.21950
G1 X97.522 Y100.125 E30.24473
G1 X94.075 Y96.678 E30.38011
G1 X94.245 Y96.229 E30.39347
G1 X94.330 Y96.066 E30.39858
G1 X97.566 Y99.302 E30.52571
G1 X97.685 Y98.552 E30.54679
G1 X94.628 Y95.495 E30.66687
G1 X94.979 Y94.979 E30.68422
G1 X97.873 Y97.873 E30.79790
G1 X98.129 Y97.262 E30.81631
G1 X95.371 Y94.503 E30.92468
G1 X95.489 Y94.364 E30.92975
G1 X95.802 Y94.066 E30.94175
G1 X98.451 Y96.715 E31.04580
G1 X98.834 Y96.231 E31.06296
G1 X96.270 Y93.667 E31.16367
G1 X96.549 Y93.450 E31.17348
G1 X96.778 Y93.307 E31.18098
G1 X99.279 Y95.808 E31.27922
G1 X99.790 Y95.451 E31.29654
G1 X97.327 Y92.989 E31.39328
G1 X97.919 Y92.713 E31.41142
G1 X100.374 Y95.168 E31.50786
G1 X100.769 Y95.032 E31.51946
G1 X101.038 Y94.964 E31.52717
G1 X98.556 Y92.482 E31.62467
G1 X99.242 Y92.300 E31.64437
G1 X101.793 Y94.851 E31.74460
G1 X102.294 Y94.830 E31.75854
G1 X102.648 Y94.839 E31.76838
G1 X99.975 Y92.165 E31.87339
G1 X100.761 Y92.083 E31.89534
G1 X103.625 Y94.948 E32.00787
G1 X104.141 Y95.057 E32.02252
G1 X104.806 Y95.261 E32.04183
G1 X101.605 Y92.060 E32.16756
G1 X102.510 Y92.097 E32.19271
G1 X106.445 Y96.032 E32.34732
G1 X106.445 Y95.165 E32.37142
G1 X103.520 Y92.240 E32.48633
G1 X104.081 Y92.360 E32.50225
G1 X104.692 Y92.543 E32.51997
G1 X106.445 Y94.297 E32.58887
G1 Z2.800 F7800.000
G1 X105.813 Y95.922 F7800.000
G1 F2269.73
G1 X106.445 Y95.290 E32.61370
G1 X106.445 Y94.422 E32.63781
G1 X105.251 Y95.617 E32.68472
G1 X104.651 Y95.349 E32.70297
G1 X106.445 Y93.555 E32.77345
G1 X106.445 Y93.106 E32.78591
G1 X106.161 Y92.971 E32.79465
G1 X104.007 Y95.125 E32.87929
G1 X103.306 Y94.958 E32.89930
G1 X105.556 Y92.708 E32.98768
G1 X104.910 Y92.487 E33.00666
G1 X102.540 Y94.857 E33.09976
G1 X101.695 Y94.834 E33.12324
G1 X104.222 Y92.307 E33.22251
G1 X103.749 Y92.206 E33.23592
G1 X103.487 Y92.174 E33.24325
G1 X100.709 Y94.952 E33.35239
G1 X100.270 Y95.069 E33.36500
G1 X99.898 Y95.205 E33.37601
G1 X99.548 Y95.373 E33.38681
G1 X99.230 Y95.563 E33.39710
G1 X102.711 Y92.083 E33.53383
G1 X101.863 Y92.063 E33.55738
G1 X93.564 Y100.362 E33.88339
G1 X93.561 Y99.816 E33.89854
G1 X93.587 Y99.471 E33.90816
G1 X100.957 Y92.101 E34.19770
G1 X100.278 Y92.175 E34.21667
G1 X99.953 Y92.237 E34.22588
G1 X93.700 Y98.490 E34.47152
G1 X93.784 Y98.007 E34.48515
G1 X93.960 Y97.362 E34.50372
G1 X98.797 Y92.525 E34.69373
G1 X98.084 Y92.800 E34.71496
G1 X97.444 Y93.127 E34.73492
G1 X97.113 Y93.342 E34.74591
G1 X94.747 Y95.708 E34.83885
G1 X94.931 Y95.419 E34.84836
G1 X95.372 Y94.874 E34.86784
G1 X95.874 Y94.371 E34.88758
G1 X96.424 Y93.923 E34.90728
G1 X96.731 Y93.724 E34.91745
G1 X98.432 Y96.362 F7800.000
G1 F2269.73
G1 X93.607 Y101.186 E35.10697
G1 X93.635 Y101.515 E35.11612
G1 X93.709 Y101.953 E35.12846
G1 X97.745 Y97.917 E35.28700
G1 X97.643 Y98.369 E35.29989
G1 X97.561 Y98.968 E35.31668
G1 X93.865 Y102.664 E35.46185
G1 X93.954 Y103.002 E35.47156
G1 X94.068 Y103.329 E35.48117
G1 X97.522 Y99.875 E35.61683
G1 X97.566 Y100.699 E35.63974
G1 X94.328 Y103.936 E35.76692
G1 X94.593 Y104.446 E35.78288
G1 X94.630 Y104.502 E35.78474
G1 X97.684 Y101.448 E35.90472
G1 X97.873 Y102.127 E35.92429
G1 X94.976 Y105.024 E36.03810
G1 X95.369 Y105.499 E36.05522
G1 X98.130 Y102.738 E36.16368
G1 X98.451 Y103.285 E36.18129
G1 X95.797 Y105.938 E36.28553
G1 X96.047 Y106.163 E36.29486
G1 X96.270 Y106.333 E36.30266
G1 X98.834 Y103.769 E36.40338
G1 X99.280 Y104.191 E36.42043
G1 X96.778 Y106.693 E36.51869
G1 X97.323 Y107.015 E36.53629
G1 X99.791 Y104.547 E36.63323
G1 X100.167 Y104.745 E36.64501
G1 X100.375 Y104.832 E36.65128
G1 X97.918 Y107.289 E36.74779
G1 X98.557 Y107.517 E36.76665
G1 X101.038 Y105.036 E36.86409
G1 X101.388 Y105.103 E36.87400
G1 X101.793 Y105.149 E36.88533
G1 X99.241 Y107.701 E36.98561
G1 X99.981 Y107.829 E37.00647
G1 X102.649 Y105.160 E37.11130
G1 X103.167 Y105.121 E37.12573
G1 X103.623 Y105.054 E37.13853
G1 X100.769 Y107.908 E37.25065
G1 X101.206 Y107.940 E37.26280
G1 X101.606 Y107.939 E37.27392
G1 X104.808 Y104.738 E37.39970
G1 X105.334 Y104.524 E37.41548
G1 X105.750 Y104.325 E37.42828
G1 X106.445 Y103.925 E37.45057
G1 X106.445 Y103.968 E37.45175
G1 X102.510 Y107.903 E37.60634
G1 X103.133 Y107.832 E37.62376
G1 X103.522 Y107.758 E37.63476
G1 X106.445 Y104.835 E37.74959
G1 X106.445 Y105.703 E37.77370
G1 X104.685 Y107.464 E37.84286
G1 Z3.200 F7800.000
G1 X106.445 Y104.710 F7800.000
G1 F2263.15
G1 X105.813 Y104.078 E37.86770
G1 X105.250 Y104.383 E37.88548
G1 X106.445 Y105.578 E37.93243
G1 X106.445 Y106.445 E37.95653
G1 X104.652 Y104.652 E38.02698
G1 X104.007 Y104.875 E38.04594
G1 X106.165 Y107.033 E38.13071
G1 X105.554 Y107.289 E38.14912
G1 X103.306 Y105.042 E38.23740
G1 X102.540 Y105.143 E38.25888
G1 X104.907 Y107.511 E38.35190
G1 X104.225 Y107.696 E38.37155
G1 X101.694 Y105.165 E38.47096
G1 X101.192 Y105.128 E38.48495
G1 X100.708 Y105.047 E38.49856
G1 X103.496 Y107.834 E38.60805
G1 X102.711 Y107.918 E38.62996
G1 X99.227 Y104.433 E38.76684
G1 X95.122 Y104.667 F7800.000
G1 F2263.15
G1 X95.360 Y105.027 E38.77883
G1 X95.815 Y105.575 E38.79860
G1 X96.104 Y105.871 E38.81009
G1 X96.412 Y106.148 E38.82160
G1 X96.981 Y106.584 E38.84152
G1 X97.127 Y106.672 E38.84625
G1 X94.740 Y104.285 E38.94001
G1 X94.589 Y104.056 E38.94764
G1 X94.260 Y103.421 E38.96751
G1 X93.960 Y102.638 E38.99082
G1 X98.785 Y107.463 E39.18036
G1 X99.033 Y107.551 E39.18768
G1 X99.721 Y107.725 E39.20738
G1 X99.953 Y107.763 E39.21391
G1 X93.698 Y101.508 E39.45961
G1 X93.634 Y101.125 E39.47039
G1 X93.584 Y100.526 E39.48710
G1 X100.952 Y107.894 E39.77655
G1 X101.566 Y107.939 E39.79363
G1 X101.865 Y107.939 E39.80194
G1 X93.562 Y99.637 E40.12809
G1 X93.561 Y99.412 E40.13432
G1 X93.608 Y98.814 E40.15099
G1 X98.433 Y103.639 E40.34054
G1 X98.214 Y103.281 E40.35219
G1 X98.030 Y102.921 E40.36342
G1 X97.859 Y102.466 E40.37693
G1 X97.745 Y102.084 E40.38801
G1 X93.710 Y98.049 E40.54652
G1 X93.779 Y97.646 E40.55786
G1 X93.863 Y97.334 E40.56684
G1 X97.561 Y101.032 E40.71210
G1 X97.522 Y100.125 E40.73732
G1 X94.074 Y96.678 E40.87274
G1 X94.243 Y96.233 E40.88595
G1 X94.330 Y96.065 E40.89120
G1 X97.566 Y99.301 E41.01831
G1 X97.684 Y98.552 E41.03939
G1 X94.629 Y95.497 E41.15940
G1 X94.978 Y94.978 E41.17677
G1 X97.873 Y97.873 E41.29049
G1 X98.129 Y97.261 E41.30891
G1 X95.368 Y94.500 E41.41738
G1 X95.801 Y94.065 E41.43442
G1 X98.451 Y96.715 E41.53853
G1 X98.834 Y96.231 E41.55569
G1 X96.271 Y93.668 E41.65639
G1 X96.468 Y93.510 E41.66340
G1 X96.779 Y93.308 E41.67370
G1 X99.279 Y95.808 E41.77192
G1 X99.791 Y95.452 E41.78924
G1 X97.327 Y92.988 E41.88601
G1 X97.916 Y92.709 E41.90411
G1 X100.374 Y95.167 E42.00068
G1 X100.772 Y95.032 E42.01236
G1 X101.038 Y94.964 E42.01999
G1 X98.559 Y92.485 E42.11736
G1 X99.243 Y92.301 E42.13703
G1 X101.792 Y94.850 E42.23717
G1 X102.294 Y94.830 E42.25112
G1 X102.648 Y94.839 E42.26096
G1 X99.976 Y92.167 E42.36592
G1 X100.761 Y92.084 E42.38785
G1 X103.625 Y94.947 E42.50032
G1 X104.222 Y95.079 E42.51732
G1 X104.807 Y95.261 E42.53433
G1 X101.603 Y92.058 E42.66018
G1 X102.511 Y92.098 E42.68542
G1 X106.445 Y96.032 E42.83999
G1 X106.445 Y95.165 E42.86409
G1 X103.519 Y92.238 E42.97906
G1 X104.039 Y92.349 E42.99383
G1 X104.690 Y92.541 E43.01267
G1 X106.445 Y94.297 E43.08165
G1 Z3.600 F7800.000
G1 X105.813 Y95.922 F7800.000
G1 F2270.8
G1 X106.445 Y95.290 E43.10649
G1 X106.445 Y94.422 E43.13060
G1 X105.251 Y95.617 E43.17752
G1 X104.652 Y95.348 E43.19576
G1 X106.445 Y93.555 E43.26624
G1 X106.445 Y93.105 E43.27871
G1 X106.163 Y92.970 E43.28743
G1 X104.007 Y95.125 E43.37210
G1 X103.306 Y94.958 E43.39212
G1 X105.556 Y92.709 E43.48048
G1 X104.911 Y92.486 E43.49943
G1 X102.541 Y94.856 E43.59254
G1 X101.694 Y94.835 E43.61606
G1 X104.223 Y92.306 E43.71538
G1 X103.493 Y92.169 E43.73602
G1 X100.709 Y94.953 E43.84539
G1 X100.390 Y95.032 E43.85452
G1 X99.918 Y95.197 E43.86840
G1 X99.527 Y95.384 E43.88045
G1 X99.228 Y95.565 E43.89014
G1 X102.709 Y92.084 E44.02688
G1 X101.865 Y92.060 E44.05032
G1 X93.561 Y100.364 E44.37653
G1 X93.584 Y99.474 E44.40125
G1 X100.958 Y92.100 E44.69095
G1 X100.236 Y92.181 E44.71114
G1 X99.952 Y92.239 E44.71919
G1 X93.687 Y98.504 E44.96529
G1 X93.861 Y97.695 E44.98827
G1 X93.975 Y97.348 E44.99841
G1 X98.790 Y92.532 E45.18758
G1 X98.625 Y92.583 E45.19239
G1 X97.931 Y92.870 E45.21326
G1 X97.284 Y93.220 E45.23368
G1 X97.127 Y93.328 E45.23896
G1 X94.725 Y95.730 E45.33332
G1 X95.202 Y95.069 E45.35595
G1 X95.696 Y94.537 E45.37612
G1 X96.302 Y94.014 E45.39837
G1 X96.745 Y93.710 E45.41330
G1 X98.433 Y96.360 F7800.000
G1 F2270.8
G1 X93.604 Y101.189 E45.60299
G1 X93.705 Y101.956 E45.62447
G1 X97.744 Y97.918 E45.78311
G1 X97.643 Y98.370 E45.79598
G1 X97.560 Y98.969 E45.81278
G1 X93.860 Y102.669 E45.95814
G1 X94.070 Y103.327 E45.97732
G1 X97.522 Y99.875 E46.11292
G1 X97.565 Y100.699 E46.13583
G1 X94.329 Y103.935 E46.26297
G1 X94.395 Y104.084 E46.26748
G1 X94.634 Y104.498 E46.28077
G1 X97.684 Y101.448 E46.40058
G1 X97.874 Y102.126 E46.42014
G1 X94.985 Y105.015 E46.53364
G1 X95.224 Y105.338 E46.54479
G1 X95.372 Y105.496 E46.55080
G1 X98.130 Y102.738 E46.65914
G1 X98.451 Y103.284 E46.67674
G1 X95.799 Y105.936 E46.78092
G1 X96.264 Y106.339 E46.79801
G1 X98.835 Y103.769 E46.89898
G1 X99.279 Y104.192 E46.91603
G1 X96.776 Y106.695 E47.01437
G1 X97.329 Y107.010 E47.03205
G1 X99.791 Y104.548 E47.12877
G1 X100.144 Y104.735 E47.13987
G1 X100.374 Y104.832 E47.14681
G1 X97.923 Y107.283 E47.24308
G1 X98.295 Y107.435 E47.25424
G1 X98.559 Y107.515 E47.26191
G1 X101.038 Y105.036 E47.35928
G1 X101.452 Y105.112 E47.37096
G1 X101.793 Y105.149 E47.38049
G1 X99.246 Y107.696 E47.48055
G1 X99.977 Y107.833 E47.50122
G1 X102.649 Y105.161 E47.60616
G1 X103.177 Y105.120 E47.62088
G1 X103.624 Y105.053 E47.63344
G1 X100.764 Y107.914 E47.74581
G1 X101.591 Y107.945 E47.76882
G1 X104.807 Y104.738 E47.89498
G1 X105.236 Y104.568 E47.90779
G1 X105.729 Y104.335 E47.92295
G1 X106.445 Y103.925 E47.94588
G1 X106.445 Y103.968 E47.94708
G1 X102.511 Y107.902 E48.10164
G1 X102.797 Y107.877 E48.10962
G1 X103.516 Y107.764 E48.12984
G1 X106.445 Y104.835 E48.24491
G1 X106.445 Y105.703 E48.26902
G1 X104.686 Y107.462 E48.33813
G1 Z4.000 F7800.000
G1 E46.33813 F2400.00000
G92 E0
G1 X106.445 Y104.710 F7800.000
G1 E2.00000 F2400.00000
G1 F2263.53
G1 X105.813 Y104.077 E2.02485
G1 X105.251 Y104.383 E2.04262
G1 X106.445 Y105.578 E2.08956
G1 X106.445 Y106.445 E2.11367
G1 X104.652 Y104.652 E2.18414
G1 X104.007 Y104.875 E2.20309
G1 X106.164 Y107.032 E2.28782
G1 X105.555 Y107.290 E2.30620
G1 X103.306 Y105.042 E2.39453
G1 X102.541 Y105.144 E2.41599
G1 X104.910 Y107.514 E2.50908
G1 X104.224 Y107.695 E2.52881
G1 X101.694 Y105.165 E2.62819
G1 X101.137 Y105.121 E2.64371
G1 X100.708 Y105.047 E2.65580
G1 X103.492 Y107.831 E2.76515
G1 X102.711 Y107.917 E2.78697
G1 X99.227 Y104.434 E2.92383
G1 E0.92383 F2400.00000
G92 E0
G1 X95.106 Y104.651 F7800.000
G1 E2.00000 F2400.00000
G1 F2263.53
G1 X95.595 Y105.326 E2.02316
G1 X96.097 Y105.864 E2.04360
G1 X96.656 Y106.347 E2.06413
G1 X97.129 Y106.675 E2.08011
G1 X94.724 Y104.269 E2.17460
G1 X94.399 Y103.710 E2.19258
G1 X94.098 Y103.031 E2.21320
G1 X93.975 Y102.652 E2.22426
G1 X98.791 Y107.469 E2.41346
G1 X99.390 Y107.649 E2.43082
G1 X99.953 Y107.763 E2.44679
G1 X93.688 Y101.498 E2.69289
G1 X93.582 Y100.524 E2.72010
G1 X100.959 Y107.901 E3.00987
G1 X101.867 Y107.941 E3.03513
G1 X93.561 Y99.636 E3.36141
G1 X93.603 Y98.809 E3.38440
G1 X98.435 Y103.641 E3.57421
G1 X98.227 Y103.306 E3.58515
G1 X98.025 Y102.909 E3.59753
G1 X97.841 Y102.412 E3.61225
G1 X97.745 Y102.084 E3.62175
G1 X93.703 Y98.042 E3.78054
G1 X93.858 Y97.329 E3.80081
G1 X97.561 Y101.032 E3.94629
G1 X97.522 Y100.125 E3.97151
G1 X94.069 Y96.673 E4.10712
G1 X94.329 Y96.064 E4.12550
G1 X97.565 Y99.300 E4.25263
G1 X97.684 Y98.552 E4.27370
G1 X94.635 Y95.502 E4.39348
G1 X94.772 Y95.267 E4.40105
G1 X94.983 Y94.983 E4.41088
G1 X97.873 Y97.873 E4.52441
G1 X98.129 Y97.261 E4.54283
G1 X95.372 Y94.504 E4.65113
G1 X95.708 Y94.144 E4.66482
G1 X95.800 Y94.064 E4.66820
G1 X98.451 Y96.716 E4.77235
G1 X98.835 Y96.231 E4.78951
G1 X96.265 Y93.662 E4.89045
G1 X96.777 Y93.306 E4.90777
G1 X99.279 Y95.808 E5.00608
G1 X99.512 Y95.631 E5.01420
G1 X99.791 Y95.452 E5.02342
G1 X97.328 Y92.990 E5.12016
G1 X97.547 Y92.871 E5.12707
G1 X97.922 Y92.716 E5.13835
G1 X100.374 Y95.168 E5.23467
G1 X100.760 Y95.034 E5.24601
G1 X101.038 Y94.964 E5.25397
G1 X98.560 Y92.486 E5.35130
G1 X99.003 Y92.352 E5.36414
G1 X99.245 Y92.303 E5.37101
G1 X101.792 Y94.850 E5.47107
G1 X102.294 Y94.830 E5.48502
G1 X102.649 Y94.839 E5.49487
G1 X99.978 Y92.168 E5.59980
G1 X100.762 Y92.085 E5.62172
G1 X103.625 Y94.947 E5.73417
G1 X104.304 Y95.100 E5.75350
G1 X104.807 Y95.262 E5.76820
G1 X101.600 Y92.055 E5.89419
G1 X102.512 Y92.099 E5.91955
G1 X106.445 Y96.032 E6.07406
G1 X106.445 Y95.165 E6.09816
G1 X103.518 Y92.237 E6.21318
G1 X103.997 Y92.339 E6.22680
G1 X104.687 Y92.539 E6.24676
G1 X106.445 Y94.297 E6.31582
G1 E4.31582 F2400.00000
G92 E0
M107
; Filament-specific end gcode 
;END gcode for filament

M104 S0 ; turn off temperature
G28 X0  ; home X axis
M84     ; disable motors

M140 S0 ; set bed temperature
; filament used = 55.0mm (0.4cm3)
; total filament cost = 0.0

; avoid_crossing_perimeters = 0
; bed_shape = 0x0,200x0,200x200,0x200
; bed_temperature = 0
; before_layer_gcode = 
; between_objects_gcode = 
; bridge_acceleration = 0
; bridge_fan_speed = 100
; brim_connections_width = 0
; brim_width = 0
; complete_objects = 0
; cooling = 1
; default_acceleration = 0
; disable_fan_first_layers = 3
; duplicate_distance = 6
; end_filament_gcode = "; Filament-specific end gcode \n;END gcode for filament\n"
; end_gcode = M104 S0 ; turn off temperature\nG28 X0  ; home X axis\nM84     ; disable motors\n
; extruder_clearance_height = 20
; extruder_clearance_radius = 20
; extruder_offset = 0x0
; extrusion_axis = E
; extrusion_multiplier = 1
; fan_always_on = 0
; fan_below_layer_time = 60
; filament_colour = #FFFFFF
; filament_cost = 0
; filament_density = 0
; filament_diameter = 3
; filament_max_volumetric_speed = 0
; filament_notes = ""
; first_layer_acceleration = 0
; first_layer_bed_temperature = 0
; first_layer_extrusion_width = 200%
; first_layer_speed = 30
; first_layer_temperature = 205
; gcode_arcs = 0
; gcode_comments = 0
; gcode_flavor = reprap
; has_heatbed = 1
; infill_acceleration = 0
; infill_first = 0
; interior_brim_width = 0
; layer_gcode = 
; max_fan_speed = 100
; max_layer_height = 0.3
; max_print_speed = 80
; max_volumetric_speed = 0
; min_fan_speed = 35
; min_layer_height = 0.15
; min_print_speed = 10
; min_skirt_length = 0
; notes = 
; nozzle_diameter = 0.5
; only_retract_when_crossing_perimeters = 1
; ooze_prevention = 0
; output_filename_format = [input_filename_base].gcode
; perimeter_acceleration = 0
; post_process = 
; pressure_advance = 0
; printer_notes = 
; resolution = 0
; retract_before_travel = 2
; retract_layer_change = 0
; retract_length = 2
; retract_length_toolchange = 10
; retract_lift = 0
; retract_lift_above = 0
; retract_lift_below = 0
; retract_restart_extra = 0
; retract_restart_extra_toolchange = 0
; retract_speed = 40
; skirt_distance = 6
; skirt_height = 1
; skirts = 0
; slowdown_below_layer_time = 5
; spiral_vase = 0
; standby_temperature_delta = -5
; start_filament_gcode = "; Filament gcode\n"
; start_gcode = G28 ; home all axes\nG1 Z5 F5000 ; lift nozzle\n
; temperature = 200
; threads = 8
; toolchange_gcode = 
; travel_speed = 130
; use_firmware_retraction = 0
; use_relative_e_distances = 0
; use_set_and_wait_bed = 0
; use_set_and_wait_extruder = 0
; use_volumetric_e = 0
; vibration_limit = 0
; wipe = 0
; z_offset = 0
; z_steps_per_mm = 0
; adaptive_slicing = 0
; adaptive_slicing_quality = 75%
; dont_support_bridges = 1
; extrusion_width = 0
; first_layer_height = 0.4
; infill_only_where_needed = 0
; interface_shells = 0
; layer_height = 0.4
; match_horizontal_surfaces = 0
; raft_layers = 0
; regions_overlap = 0
; seam_position = aligned
; sequential_print_priority = 0
; support_material = 0
; support_material_angle = 0
; support_material_buildplate_only = 0
; support_material_contact_distance = 0.2
; support_material_enforce_layers = 0
; support_material_extruder = 1
; support_material_extrusion_width = 0
; support_material_interface_extruder = 1
; support_material_interface_extrusion_width = 0
; support_material_interface_layers = 3
; support_material_interface_spacing = 0
; support_material_interface_speed = 100%
; support_material_max_layers = 0
; support_material_pattern = pillars
; support_material_spacing = 2.5
; support_material_speed = 60
; support_material_threshold = 60%
; xy_size_compensation = 0
; bottom_infill_pattern = rectilinear
; bottom_solid_layers = 0
; bridge_flow_ratio = 1
; bridge_speed = 60
; external_perimeter_extrusion_width = 0
; external_perimeter_speed = 50%
; external_perimeters_first = 0
; extra_perimeters = 1
; fill_angle = 45
; fill_density = 80%
; fill_gaps = 1
; fill_pattern = rectilinear
; gap_fill_speed = 20
; infill_every_layers = 1
; infill_extruder = 1
; infill_extrusion_width = 0
; infill_overlap = 55%
; infill_speed = 80
; overhangs = 1
; perimeter_extruder = 1
; perimeter_extrusion_width = 0
; perimeter_speed = 60
; perimeters = 0
; small_perimeter_speed = 15
; solid_infill_below_area = 70
; solid_infill_every_layers = 0
; solid_infill_extruder = 1
; solid_infill_extrusion_width = 0
; solid_infill_speed = 20
; thin_walls = 1
; top_infill_extrusion_width = 0
; top_infill_pattern = rectilinear
; top_solid_infill_speed = 15
; top_solid_layers = 0
