; generated by Slic3r 1.3.0 on 2020-10-22 at 16:32:16

; external perimeters extrusion width = 0.55mm (5.57mm^3/s)
; perimeters extrusion width = 0.58mm (11.78mm^3/s)
; infill extrusion width = 0.58mm (15.71mm^3/s)
; solid infill extrusion width = 0.58mm (3.93mm^3/s)
; top infill extrusion width = 0.58mm (2.95mm^3/s)

M107
M104 S205 ; set temperature
G28 ; home all axes
G1 Z5 F5000 ; lift nozzle

; Filament gcode

M109 S205 ; set temperature and wait for it to be reached
G21 ; set units to millimeters
G90 ; use absolute coordinates
M82 ; use absolute distances for extrusion
G92 E0
G1 Z0.400 F7800.000
G1 E-2.00000 F2400.00000
G92 E0
G1 X96.529 Y93.752 F7800.000
G1 E2.00000 F2400.00000
G1 F1539.95
G1 X95.125 Y95.156 E2.08025
G1 X94.729 Y95.691 E2.10710
G1 X94.350 Y96.343 E2.13761
G1 X94.062 Y96.990 E2.16625
G1 X93.818 Y97.739 E2.19808
G1 X93.786 Y97.883 E2.20403
G1 X99.326 Y92.344 E2.52061
G1 X99.837 Y92.216 E2.54189
G1 X100.659 Y92.087 E2.57556
G1 X100.997 Y92.061 E2.58924
G1 X93.540 Y99.518 E3.01545
G1 X93.511 Y100.229 E3.04418
G1 X93.537 Y100.909 E3.07170
G1 X102.422 Y92.024 E3.57949
G1 X103.262 Y92.085 E3.61351
G1 X103.687 Y92.148 E3.63089
G1 X100.880 Y94.954 E3.79129
G1 X101.613 Y94.879 E3.82107
G1 X102.334 Y94.889 E3.85022
G1 X104.819 Y92.405 E3.99219
G1 X105.550 Y92.645 E4.02331
G1 X105.845 Y92.767 E4.03620
G1 X103.550 Y95.061 E4.16735
G1 X104.153 Y95.226 E4.19259
G1 X104.608 Y95.392 E4.21217
G1 X106.489 Y93.511 E4.31967
G1 X106.489 Y94.900 E4.37578
G1 X105.549 Y95.839 E4.42949
G1 E2.42949 F2400.00000
G92 E0
G1 X97.732 Y98.103 F7800.000
G1 E2.00000 F2400.00000
G1 F1539.95
G1 X93.692 Y102.142 E2.23089
G1 X93.821 Y102.737 E2.25547
G1 X93.984 Y103.239 E2.27681
G1 X97.566 Y99.657 E2.48154
G1 X97.582 Y100.331 E2.50876
G1 X97.648 Y100.964 E2.53449
G1 X94.400 Y104.212 E2.72011
G1 X94.717 Y104.758 E2.74565
G1 X94.940 Y105.060 E2.76081
G1 X97.917 Y102.083 E2.93097
G1 X98.159 Y102.667 E2.95652
G1 X98.359 Y103.030 E2.97326
G1 X95.580 Y105.808 E3.13204
G1 X95.674 Y105.909 E3.13762
G1 X96.229 Y106.389 E3.16724
G1 X96.323 Y106.454 E3.17187
G1 X98.962 Y103.815 E3.32271
G1 X99.334 Y104.158 E3.34316
G1 X99.726 Y104.439 E3.36266
G1 X97.173 Y106.992 E3.50855
G1 X97.508 Y107.174 E3.52394
G1 X98.126 Y107.428 E3.55094
G1 X100.674 Y104.880 E3.69656
G1 X101.313 Y105.040 E3.72319
G1 X101.836 Y105.106 E3.74450
G1 X99.202 Y107.740 E3.89505
G1 X99.793 Y107.860 E3.91941
G1 X100.401 Y107.930 E3.94414
G1 X103.259 Y105.071 E4.10752
G1 X104.080 Y104.925 E4.14120
G1 X104.669 Y104.758 E4.16595
G1 X105.133 Y104.586 E4.18592
G1 X101.735 Y107.984 E4.38010
G1 X102.120 Y107.973 E4.39565
G1 X102.759 Y107.919 E4.42159
G1 X103.263 Y107.844 E4.44216
G1 X106.489 Y104.618 E4.62654
G1 X106.489 Y106.007 E4.68265
G1 X105.194 Y107.302 E4.75668
M104 S200 ; set temperature
G1 Z0.800 F7800.000
G1 X106.445 Y105.057 F7800.000
G1 F1516.99
G1 X105.592 Y104.203 E4.79022
G1 X105.041 Y104.485 E4.80742
G1 X104.652 Y104.652 E4.81916
G1 X106.445 Y106.445 E4.88961
G1 X106.445 Y106.893 E4.90206
G1 X105.802 Y107.190 E4.92175
G1 X103.594 Y104.982 E5.00847
G1 X103.156 Y105.069 E5.02088
G1 X102.378 Y105.155 E5.04261
G1 X104.774 Y107.551 E5.13672
G1 X103.972 Y107.752 E5.15970
G1 X103.642 Y107.807 E5.16900
G1 X100.925 Y105.090 E5.27572
G1 X95.175 Y104.894 F7800.000
G1 F1516.99
G1 X96.457 Y106.176 E5.32609
G1 X96.644 Y106.338 E5.33295
G1 X97.225 Y106.744 E5.35264
G1 X97.942 Y107.135 E5.37531
G1 X98.717 Y107.449 E5.39855
G1 X99.290 Y107.620 E5.41515
G1 X93.832 Y102.163 E5.62955
G1 X93.705 Y101.595 E5.64571
G1 X93.600 Y100.806 E5.66781
G1 X93.587 Y100.529 E5.67551
G1 X100.954 Y107.896 E5.96488
G1 X101.189 Y107.921 E5.97146
G1 X101.972 Y107.945 E5.99322
G1 X102.378 Y107.932 E6.00450
G1 X93.577 Y99.131 E6.35023
G1 X93.658 Y98.316 E6.37299
G1 X93.734 Y97.899 E6.38475
G1 X97.690 Y101.855 E6.54017
G1 X97.567 Y101.092 E6.56165
G1 X97.522 Y100.299 E6.58371
G1 X94.027 Y96.804 E6.72101
G1 X94.243 Y96.232 E6.73799
G1 X94.448 Y95.837 E6.75036
G1 X97.604 Y98.993 E6.87434
G1 X97.706 Y98.449 E6.88969
G1 X97.873 Y97.873 E6.90636
G1 X94.979 Y94.979 E7.02006
G1 X95.477 Y94.377 E7.04175
G1 X95.625 Y94.236 E7.04742
G1 X98.314 Y96.926 E7.15309
G1 X98.638 Y96.460 E7.16885
G1 X98.919 Y96.142 E7.18064
G1 X96.368 Y93.592 E7.28083
G1 X96.558 Y93.444 E7.28751
G1 X97.210 Y93.045 E7.30874
G1 X99.683 Y95.517 E7.40586
G1 X100.102 Y95.285 E7.41918
G1 X100.630 Y95.076 E7.43494
G1 X98.172 Y92.618 E7.53148
G1 X98.520 Y92.490 E7.54179
G1 X99.241 Y92.299 E7.56250
G1 X101.793 Y94.851 E7.66274
G1 X102.635 Y94.838 E7.68614
G1 X103.217 Y94.886 E7.70236
G1 X100.445 Y92.114 E7.81127
G1 X101.062 Y92.066 E7.82848
G1 X101.777 Y92.058 E7.84833
G1 X105.090 Y95.371 E7.97847
G1 X105.756 Y95.679 E7.99886
G1 X106.445 Y96.075 E8.02095
G1 X106.445 Y95.338 E8.04141
G1 X103.304 Y92.197 E8.16482
G1 X104.049 Y92.352 E8.18596
G1 X104.492 Y92.474 E8.19873
G1 X105.225 Y92.729 E8.22027
G1 X106.445 Y93.950 E8.26823
G1 Z1.200 F7800.000
G1 E6.26823 F2400.00000
G92 E0
G1 X105.593 Y95.796 F7800.000
G1 E2.00000 F2400.00000
G1 F1507.71
G1 X106.445 Y94.943 E2.03351
G1 X106.445 Y93.555 E2.07207
G1 X104.651 Y95.349 E2.14257
G1 X104.085 Y95.148 E2.15926
G1 X103.593 Y95.019 E2.17339
G1 X105.803 Y92.808 E2.26023
G1 X105.547 Y92.704 E2.26791
G1 X104.777 Y92.446 E2.29047
G1 X102.377 Y94.846 E2.38474
G1 X101.709 Y94.834 E2.40330
G1 X101.314 Y94.859 E2.41429
G1 X100.924 Y94.910 E2.42522
G1 X103.643 Y92.192 E2.53201
G1 X102.864 Y92.092 E2.55383
G1 X102.378 Y92.069 E2.56735
G1 X93.582 Y100.864 E2.91286
G1 X93.558 Y100.463 E2.92402
G1 X93.578 Y99.480 E2.95134
G1 X100.957 Y92.101 E3.24121
G1 X100.311 Y92.170 E3.25927
G1 X99.547 Y92.313 E3.28087
G1 X99.283 Y92.387 E3.28847
G1 X93.827 Y97.843 E3.50281
G1 X93.943 Y97.412 E3.51522
G1 X94.245 Y96.610 E3.53903
G1 X94.632 Y95.870 E3.56221
G1 X95.045 Y95.266 E3.58255
G1 X95.221 Y95.060 E3.59005
G1 X96.481 Y93.800 E3.63957
G1 X97.690 Y98.145 F7800.000
G1 F1507.71
G1 X93.731 Y102.104 E3.79509
G1 X93.879 Y102.747 E3.81343
G1 X94.027 Y103.196 E3.82657
G1 X97.522 Y99.701 E3.96388
G1 X97.532 Y100.272 E3.97975
G1 X97.605 Y101.007 E4.00026
G1 X94.442 Y104.170 E4.12450
G1 X94.844 Y104.839 E4.14620
G1 X94.982 Y105.018 E4.15248
G1 X97.873 Y102.127 E4.26607
G1 X98.108 Y102.696 E4.28317
G1 X98.315 Y103.073 E4.29512
G1 X95.623 Y105.765 E4.40086
G1 X95.731 Y105.879 E4.40521
G1 X96.366 Y106.410 E4.42823
G1 X98.920 Y103.857 E4.52852
G1 X99.230 Y104.151 E4.54039
G1 X99.682 Y104.483 E4.55598
G1 X97.218 Y106.947 E4.65278
G1 X97.571 Y107.140 E4.66394
G1 X98.167 Y107.386 E4.68187
G1 X100.631 Y104.923 E4.77864
G1 X101.036 Y105.036 E4.79034
G1 X101.334 Y105.095 E4.79876
G1 X101.794 Y105.148 E4.81163
G1 X99.247 Y107.695 E4.91168
G1 X99.896 Y107.825 E4.93005
G1 X100.449 Y107.881 E4.94550
G1 X103.217 Y105.114 E5.05423
G1 X103.998 Y104.978 E5.07626
G1 X104.708 Y104.774 E5.09678
G1 X105.089 Y104.630 E5.10808
G1 X101.780 Y107.938 E5.23805
G1 X102.379 Y107.916 E5.25469
G1 X102.760 Y107.881 E5.26532
G1 X103.310 Y107.798 E5.28076
G1 X106.445 Y104.662 E5.40395
G1 X106.445 Y106.050 E5.44251
G1 X105.235 Y107.261 E5.49006
M106 S255
G1 Z1.600 F7800.000
G1 X106.445 Y105.057 F7800.000
G1 F1516.04
G1 X105.592 Y104.203 E5.52360
G1 X105.041 Y104.485 E5.54080
G1 X104.652 Y104.652 E5.55254
G1 X106.445 Y106.445 E5.62299
G1 X106.445 Y106.896 E5.63550
G1 X105.799 Y107.187 E5.65520
G1 X103.594 Y104.982 E5.74181
G1 X103.156 Y105.069 E5.75422
G1 X102.378 Y105.155 E5.77595
G1 X104.772 Y107.549 E5.86999
G1 X104.194 Y107.704 E5.88662
G1 X103.643 Y107.808 E5.90220
G1 X100.925 Y105.090 E6.00897
G1 X95.228 Y104.947 F7800.000
G1 F1516.04
G1 X96.490 Y106.209 E6.05855
G1 X96.986 Y106.587 E6.07587
G1 X97.653 Y106.990 E6.09753
G1 X98.239 Y107.267 E6.11552
G1 X99.038 Y107.552 E6.13909
G1 X99.285 Y107.615 E6.14616
G1 X93.834 Y102.165 E6.36026
G1 X93.764 Y101.900 E6.36787
G1 X93.634 Y101.129 E6.38959
G1 X93.584 Y100.526 E6.40640
G1 X100.952 Y107.894 E6.69586
G1 X101.577 Y107.939 E6.71325
G1 X102.383 Y107.937 E6.73565
G1 X93.583 Y99.137 E7.08135
G1 X93.632 Y98.501 E7.09905
G1 X93.736 Y97.901 E7.11597
G1 X97.690 Y101.855 E7.27131
G1 X97.567 Y101.092 E7.29279
G1 X97.522 Y100.299 E7.31484
G1 X94.027 Y96.804 E7.45215
G1 X94.244 Y96.231 E7.46917
G1 X94.444 Y95.833 E7.48154
G1 X97.604 Y98.993 E7.60568
G1 X97.706 Y98.449 E7.62104
G1 X97.873 Y97.873 E7.63771
G1 X94.978 Y94.978 E7.75141
G1 X95.383 Y94.480 E7.76926
G1 X95.626 Y94.238 E7.77878
G1 X98.314 Y96.926 E7.88439
G1 X98.638 Y96.460 E7.90014
G1 X98.919 Y96.142 E7.91193
G1 X96.367 Y93.590 E8.01219
G1 X96.446 Y93.526 E8.01503
G1 X97.037 Y93.141 E8.03461
G1 X97.215 Y93.050 E8.04017
G1 X99.683 Y95.517 E8.13710
G1 X100.102 Y95.285 E8.15042
G1 X100.630 Y95.076 E8.16618
G1 X98.171 Y92.617 E8.26277
G1 X98.369 Y92.539 E8.26868
G1 X99.243 Y92.301 E8.29384
G1 X101.793 Y94.851 E8.39400
G1 X102.503 Y94.834 E8.41373
G1 X103.217 Y94.886 E8.43362
G1 X100.445 Y92.115 E8.54250
G1 X100.714 Y92.085 E8.55001
G1 X101.779 Y92.060 E8.57959
G1 X105.090 Y95.371 E8.70966
G1 X105.756 Y95.679 E8.73006
G1 X106.445 Y96.075 E8.75214
G1 X106.445 Y95.338 E8.77260
G1 X103.304 Y92.197 E8.89601
G1 X104.049 Y92.352 E8.91716
G1 X104.492 Y92.474 E8.92992
G1 X105.225 Y92.729 E8.95147
G1 X106.445 Y93.950 E8.99942
G1 Z2.000 F7800.000
G1 E6.99942 F2400.00000
G92 E0
G1 X105.593 Y95.796 F7800.000
G1 E2.00000 F2400.00000
G1 F1506.95
G1 X106.445 Y94.943 E2.03351
G1 X106.445 Y93.555 E2.07207
G1 X104.652 Y95.348 E2.14255
G1 X104.194 Y95.182 E2.15606
G1 X103.594 Y95.018 E2.17336
G1 X105.801 Y92.810 E2.26009
G1 X105.506 Y92.689 E2.26895
G1 X104.775 Y92.448 E2.29034
G1 X102.378 Y94.845 E2.38451
G1 X101.657 Y94.836 E2.40454
G1 X100.924 Y94.911 E2.42501
G1 X103.644 Y92.191 E2.53186
G1 X103.217 Y92.128 E2.54385
G1 X102.381 Y92.066 E2.56713
G1 X93.581 Y100.866 E2.91283
G1 X93.555 Y100.185 E2.93175
G1 X93.583 Y99.475 E2.95149
G1 X100.958 Y92.100 E3.24121
G1 X100.225 Y92.183 E3.26171
G1 X99.288 Y92.381 E3.28830
G1 X93.830 Y97.840 E3.50273
G1 X93.861 Y97.696 E3.50682
G1 X94.105 Y96.947 E3.52870
G1 X94.393 Y96.300 E3.54838
G1 X94.773 Y95.647 E3.56934
G1 X95.176 Y95.106 E3.58810
G1 X96.437 Y93.844 E3.63765
G1 E1.63765 F2400.00000
G92 E0
G1 X97.689 Y98.146 F7800.000
G1 E2.00000 F2400.00000
G1 F1506.95
G1 X93.736 Y102.099 E2.15529
G1 X93.864 Y102.694 E2.17218
G1 X94.027 Y103.196 E2.18685
G1 X97.522 Y99.701 E2.32415
G1 X97.538 Y100.374 E2.34285
G1 X97.604 Y101.007 E2.36053
G1 X94.443 Y104.168 E2.48471
G1 X94.760 Y104.715 E2.50226
G1 X94.984 Y105.016 E2.51268
G1 X97.874 Y102.126 E2.62619
G1 X98.115 Y102.711 E2.64376
G1 X98.315 Y103.073 E2.65526
G1 X95.623 Y105.765 E2.76100
G1 X96.272 Y106.345 E2.78518
G1 X96.366 Y106.411 E2.78836
G1 X98.919 Y103.858 E2.88863
G1 X99.291 Y104.201 E2.90268
G1 X99.682 Y104.483 E2.91608
G1 X97.217 Y106.949 E3.01295
G1 X97.551 Y107.131 E3.02353
G1 X98.169 Y107.385 E3.04209
G1 X100.630 Y104.924 E3.13877
G1 X101.282 Y105.087 E3.15743
G1 X101.793 Y105.149 E3.17173
G1 X99.245 Y107.697 E3.27179
G1 X99.836 Y107.816 E3.28854
G1 X100.444 Y107.886 E3.30554
G1 X103.216 Y105.114 E3.41442
G1 X104.037 Y104.969 E3.43757
G1 X104.626 Y104.802 E3.45458
G1 X105.089 Y104.630 E3.46831
G1 X101.779 Y107.940 E3.59834
G1 X102.242 Y107.925 E3.61120
G1 X102.802 Y107.876 E3.62683
G1 X103.306 Y107.801 E3.64098
G1 X106.445 Y104.662 E3.76430
G1 X106.445 Y106.050 E3.80287
G1 X105.229 Y107.267 E3.85067
G1 E1.85067 F2400.00000
G92 E0
M107
; Filament-specific end gcode 
;END gcode for filament

M104 S0 ; turn off temperature
G28 X0  ; home X axis
M84     ; disable motors

M140 S0 ; set bed temperature
; filament used = 19.2mm (0.1cm3)
; total filament cost = 0.0

; avoid_crossing_perimeters = 0
; bed_shape = 0x0,200x0,200x200,0x200
; bed_temperature = 0
; before_layer_gcode = 
; between_objects_gcode = 
; bridge_acceleration = 0
; bridge_fan_speed = 100
; brim_connections_width = 0
; brim_width = 0
; complete_objects = 0
; cooling = 1
; default_acceleration = 0
; disable_fan_first_layers = 3
; duplicate_distance = 6
; end_filament_gcode = "; Filament-specific end gcode \n;END gcode for filament\n"
; end_gcode = M104 S0 ; turn off temperature\nG28 X0  ; home X axis\nM84     ; disable motors\n
; extruder_clearance_height = 20
; extruder_clearance_radius = 20
; extruder_offset = 0x0
; extrusion_axis = E
; extrusion_multiplier = 1
; fan_always_on = 0
; fan_below_layer_time = 60
; filament_colour = #FFFFFF
; filament_cost = 0
; filament_density = 0
; filament_diameter = 3
; filament_max_volumetric_speed = 0
; filament_notes = ""
; first_layer_acceleration = 0
; first_layer_bed_temperature = 0
; first_layer_extrusion_width = 200%
; first_layer_speed = 30
; first_layer_temperature = 205
; gcode_arcs = 0
; gcode_comments = 0
; gcode_flavor = reprap
; has_heatbed = 1
; infill_acceleration = 0
; infill_first = 0
; interior_brim_width = 0
; layer_gcode = 
; max_fan_speed = 100
; max_layer_height = 0.3
; max_print_speed = 80
; max_volumetric_speed = 0
; min_fan_speed = 35
; min_layer_height = 0.15
; min_print_speed = 10
; min_skirt_length = 0
; notes = 
; nozzle_diameter = 0.5
; only_retract_when_crossing_perimeters = 1
; ooze_prevention = 0
; output_filename_format = [input_filename_base].gcode
; perimeter_acceleration = 0
; post_process = 
; pressure_advance = 0
; printer_notes = 
; resolution = 0
; retract_before_travel = 2
; retract_layer_change = 0
; retract_length = 2
; retract_length_toolchange = 10
; retract_lift = 0
; retract_lift_above = 0
; retract_lift_below = 0
; retract_restart_extra = 0
; retract_restart_extra_toolchange = 0
; retract_speed = 40
; skirt_distance = 6
; skirt_height = 1
; skirts = 0
; slowdown_below_layer_time = 5
; spiral_vase = 0
; standby_temperature_delta = -5
; start_filament_gcode = "; Filament gcode\n"
; start_gcode = G28 ; home all axes\nG1 Z5 F5000 ; lift nozzle\n
; temperature = 200
; threads = 8
; toolchange_gcode = 
; travel_speed = 130
; use_firmware_retraction = 0
; use_relative_e_distances = 0
; use_set_and_wait_bed = 0
; use_set_and_wait_extruder = 0
; use_volumetric_e = 0
; vibration_limit = 0
; wipe = 0
; z_offset = 0
; z_steps_per_mm = 0
; adaptive_slicing = 0
; adaptive_slicing_quality = 75%
; dont_support_bridges = 1
; extrusion_width = 0
; first_layer_height = 0.4
; infill_only_where_needed = 0
; interface_shells = 0
; layer_height = 0.4
; match_horizontal_surfaces = 0
; raft_layers = 0
; regions_overlap = 0
; seam_position = aligned
; sequential_print_priority = 0
; support_material = 0
; support_material_angle = 0
; support_material_buildplate_only = 0
; support_material_contact_distance = 0.2
; support_material_enforce_layers = 0
; support_material_extruder = 1
; support_material_extrusion_width = 0
; support_material_interface_extruder = 1
; support_material_interface_extrusion_width = 0
; support_material_interface_layers = 3
; support_material_interface_spacing = 0
; support_material_interface_speed = 100%
; support_material_max_layers = 0
; support_material_pattern = pillars
; support_material_spacing = 2.5
; support_material_speed = 60
; support_material_threshold = 60%
; xy_size_compensation = 0
; bottom_infill_pattern = rectilinear
; bottom_solid_layers = 0
; bridge_flow_ratio = 1
; bridge_speed = 60
; external_perimeter_extrusion_width = 0
; external_perimeter_speed = 50%
; external_perimeters_first = 0
; extra_perimeters = 1
; fill_angle = 45
; fill_density = 50%
; fill_gaps = 1
; fill_pattern = rectilinear
; gap_fill_speed = 20
; infill_every_layers = 1
; infill_extruder = 1
; infill_extrusion_width = 0
; infill_overlap = 55%
; infill_speed = 80
; overhangs = 1
; perimeter_extruder = 1
; perimeter_extrusion_width = 0
; perimeter_speed = 60
; perimeters = 0
; small_perimeter_speed = 15
; solid_infill_below_area = 70
; solid_infill_every_layers = 0
; solid_infill_extruder = 1
; solid_infill_extrusion_width = 0
; solid_infill_speed = 20
; thin_walls = 1
; top_infill_extrusion_width = 0
; top_infill_pattern = rectilinear
; top_solid_infill_speed = 15
; top_solid_layers = 0
