; generated by Slic3r 1.3.0 on 2020-10-21 at 16:41:35

; external perimeters extrusion width = 0.55mm (6.64mm^3/s)
; perimeters extrusion width = 0.52mm (12.53mm^3/s)
; infill extrusion width = 0.52mm (16.71mm^3/s)
; solid infill extrusion width = 0.52mm (4.18mm^3/s)
; top infill extrusion width = 0.52mm (3.13mm^3/s)

M107
M104 S205 ; set temperature
G28 ; home all axes
G1 Z5 F5000 ; lift nozzle

; Filament gcode

M109 S205 ; set temperature and wait for it to be reached
G21 ; set units to millimeters
G90 ; use absolute coordinates
M82 ; use absolute distances for extrusion
G92 E0
G1 Z0.500 F7800.000
G1 E-2.00000 F2400.00000
G92 E0
G1 X97.158 Y93.242 F7800.000
G1 E2.00000 F2400.00000
G1 F1800
G1 X94.635 Y95.766 E2.22538
G1 X94.295 Y96.351 E2.26807
G1 X94.009 Y96.993 E2.31246
G1 X93.942 Y97.197 E2.32603
G1 X98.628 Y92.511 E2.74448
G1 X99.076 Y92.353 E2.77448
G1 X99.674 Y92.204 E2.81339
G1 X93.661 Y98.217 E3.35034
G1 X93.587 Y98.559 E3.37246
G1 X93.521 Y99.095 E3.40656
G1 X100.570 Y92.046 E4.03604
G1 X101.378 Y91.976 E4.08728
G1 X93.469 Y99.886 E4.79359
G1 X93.454 Y100.249 E4.81656
G1 X93.468 Y100.624 E4.84028
G1 X102.134 Y91.959 E5.61408
G1 X102.835 Y91.996 E5.65846
G1 X99.145 Y95.686 E5.98802
G1 X99.671 Y95.382 E6.02638
G1 X100.077 Y95.214 E6.05413
G1 X100.476 Y95.094 E6.08040
G1 X103.509 Y92.061 E6.35129
G1 X104.135 Y92.173 E6.39147
G1 X101.358 Y94.950 E6.63951
G1 X102.110 Y94.936 E6.68702
G1 X104.730 Y92.316 E6.92102
G1 X105.293 Y92.492 E6.95824
G1 X102.795 Y94.989 E7.18130
G1 X103.426 Y95.097 E7.22172
G1 X105.831 Y92.692 E7.43644
G1 X106.341 Y92.920 E7.47175
G1 X104.013 Y95.249 E7.67968
G1 X104.559 Y95.441 E7.71625
G1 X106.546 Y93.454 E7.89365
G1 X106.546 Y94.192 E7.94028
G1 X105.073 Y95.666 E8.07184
G1 X105.558 Y95.918 E8.10641
G1 X106.546 Y94.931 E8.19460
G1 X106.546 Y95.669 E8.24122
G1 X106.020 Y96.195 E8.28819
G1 E6.28819 F2400.00000
G92 E0
G1 X98.554 Y96.277 F7800.000
G1 E2.00000 F2400.00000
G1 F1800
G1 X93.512 Y101.320 E2.45031
G1 X93.594 Y101.975 E2.49205
G1 X97.896 Y97.674 E2.87620
G1 X97.800 Y98.034 E2.89975
G1 X97.695 Y98.613 E2.93692
G1 X93.725 Y102.583 E3.29140
G1 X93.766 Y102.771 E3.30354
G1 X93.891 Y103.155 E3.32909
G1 X97.627 Y99.420 E3.66269
G1 X97.631 Y100.154 E3.70903
G1 X94.090 Y103.695 E4.02526
G1 X94.320 Y104.203 E4.06048
G1 X97.690 Y100.833 E4.36143
G1 X97.802 Y101.459 E4.40162
G1 X94.591 Y104.670 E4.68836
G1 X94.663 Y104.795 E4.69744
G1 X94.893 Y105.107 E4.72191
G1 X97.966 Y102.034 E4.99635
G1 X98.179 Y102.559 E5.03215
G1 X95.222 Y105.517 E5.29626
G1 X95.577 Y105.900 E5.32926
G1 X98.439 Y103.038 E5.58485
G1 X98.745 Y103.470 E5.61830
G1 X95.966 Y106.249 E5.86645
G1 X96.185 Y106.437 E5.88465
G1 X96.380 Y106.573 E5.89970
G1 X99.097 Y103.857 E6.14225
G1 X99.494 Y104.198 E6.17532
G1 X96.819 Y106.873 E6.41415
G1 X97.297 Y107.133 E6.44852
G1 X99.940 Y104.491 E6.68447
G1 X100.439 Y104.730 E6.71943
G1 X97.804 Y107.364 E6.95471
G1 X98.338 Y107.569 E6.99079
G1 X100.998 Y104.909 E7.22837
G1 X101.621 Y105.025 E7.26835
G1 X98.906 Y107.740 E7.51078
G1 X99.518 Y107.866 E7.55026
G1 X102.316 Y105.068 E7.80010
G1 X103.089 Y105.034 E7.84896
G1 X100.161 Y107.962 E8.11045
G1 X100.841 Y108.020 E8.15356
G1 X103.963 Y104.897 E8.43240
G1 X104.388 Y104.792 E8.46002
G1 X105.020 Y104.579 E8.50213
G1 X101.554 Y108.045 E8.81164
G1 X102.326 Y108.011 E8.86046
G1 X106.546 Y103.795 E9.23714
G1 X106.546 Y104.530 E9.28357
G1 X103.162 Y107.914 E9.58574
G1 X103.376 Y107.882 E9.59936
G1 X104.098 Y107.716 E9.64616
G1 X106.546 Y105.268 E9.86477
G1 X106.546 Y106.007 E9.91139
G1 X105.202 Y107.351 E10.03144
M104 S200 ; set temperature
G1 Z1.000 F7800.000
G1 X106.454 Y104.238 F7800.000
G1 F2602.16
G1 X106.113 Y103.898 E10.04568
G1 X105.650 Y104.173 E10.06160
G1 X106.454 Y104.977 E10.09517
G1 X106.454 Y105.715 E10.11699
G1 X105.165 Y104.426 E10.17085
G1 X104.653 Y104.653 E10.18739
G1 X106.454 Y106.454 E10.26265
G1 X106.454 Y106.888 E10.27548
G1 X106.247 Y106.985 E10.28223
G1 X104.105 Y104.843 E10.37173
G1 X103.519 Y104.995 E10.38963
G1 X105.739 Y107.216 E10.48241
G1 X105.201 Y107.416 E10.49937
G1 X102.887 Y105.102 E10.59606
G1 X102.202 Y105.155 E10.61636
G1 X104.641 Y107.594 E10.71826
G1 X104.044 Y107.736 E10.73638
G1 X101.449 Y105.141 E10.84481
G1 X100.966 Y105.083 E10.85917
G1 X100.567 Y104.997 E10.87125
G1 X103.419 Y107.849 E10.99043
G1 X102.752 Y107.921 E11.01025
G1 X99.234 Y104.403 E11.15723
G1 X94.718 Y104.317 F7800.000
G1 F2602.16
G1 X97.079 Y106.678 E11.25589
G1 X97.901 Y107.141 E11.28375
G1 X98.537 Y107.398 E11.30404
G1 X94.034 Y102.895 E11.49222
G1 X93.867 Y102.387 E11.50801
G1 X93.751 Y101.874 E11.52355
G1 X99.577 Y107.700 E11.76698
G1 X100.225 Y107.830 E11.78650
G1 X100.472 Y107.856 E11.79384
G1 X93.612 Y100.996 E12.08049
G1 X93.558 Y100.203 E12.10395
G1 X101.288 Y107.934 E12.42696
G1 X102.043 Y107.950 E12.44926
G1 X93.562 Y99.469 E12.80364
G1 X93.570 Y99.110 E12.81425
G1 X93.605 Y98.774 E12.82423
G1 X98.460 Y103.628 E13.02706
G1 X98.278 Y103.343 E13.03707
G1 X98.115 Y103.038 E13.04728
G1 X97.949 Y102.658 E13.05953
G1 X97.805 Y102.235 E13.07273
G1 X93.689 Y98.119 E13.24472
G1 X93.814 Y97.506 E13.26321
G1 X97.603 Y101.295 E13.42154
G1 X97.535 Y100.489 E13.44545
G1 X93.979 Y96.932 E13.59405
G1 X94.181 Y96.397 E13.61098
G1 X97.538 Y99.753 E13.75123
G1 X97.597 Y99.073 E13.77139
G1 X94.420 Y95.897 E13.90414
G1 X94.683 Y95.421 E13.92019
G1 X97.709 Y98.448 E14.04665
G1 X97.873 Y97.873 E14.06429
G1 X94.981 Y94.981 E14.18515
G1 X95.314 Y94.575 E14.20065
G1 X98.087 Y97.348 E14.31652
G1 X98.347 Y96.870 E14.33260
G1 X95.672 Y94.195 E14.44437
G1 X96.055 Y93.839 E14.45981
G1 X98.653 Y96.438 E14.56838
G1 X99.004 Y96.050 E14.58382
G1 X96.470 Y93.517 E14.68970
G1 X96.561 Y93.446 E14.69311
G1 X96.917 Y93.225 E14.70547
G1 X99.402 Y95.710 E14.80932
G1 X99.847 Y95.417 E14.82507
G1 X97.390 Y92.960 E14.92773
G1 X97.892 Y92.723 E14.94412
G1 X100.347 Y95.178 E15.04671
G1 X100.905 Y94.998 E15.06405
G1 X98.429 Y92.522 E15.16750
G1 X99.004 Y92.358 E15.18515
G1 X101.528 Y94.883 E15.29063
G1 X102.223 Y94.839 E15.31121
G1 X99.611 Y92.227 E15.42035
G1 X100.251 Y92.129 E15.43948
G1 X102.995 Y94.873 E15.55415
G1 X103.387 Y94.920 E15.56582
G1 X103.872 Y95.011 E15.58037
G1 X100.933 Y92.072 E15.70318
G1 X101.653 Y92.053 E15.72446
G1 X104.929 Y95.330 E15.86137
G1 X105.341 Y95.502 E15.87454
G1 X105.719 Y95.687 E15.88697
G1 X106.445 Y96.108 E15.91179
G1 X102.415 Y92.077 E16.08020
G1 X103.256 Y92.180 E16.10524
G1 X106.454 Y95.378 E16.23884
G1 X106.454 Y94.639 E16.26066
G1 X104.186 Y92.372 E16.35540
G1 X104.515 Y92.463 E16.36550
G1 X105.282 Y92.730 E16.38950
G1 X106.454 Y93.901 E16.43843
G1 Z1.500 F7800.000
G1 E14.43843 F2400.00000
G92 E0
G1 X106.112 Y96.103 F7800.000
G1 E2.00000 F2400.00000
G1 F2589.89
G1 X106.454 Y95.762 E2.01425
G1 X106.454 Y95.023 E2.03607
G1 X105.651 Y95.826 E2.06962
G1 X105.166 Y95.573 E2.08579
G1 X106.454 Y94.285 E2.13960
G1 X106.454 Y93.546 E2.16142
G1 X104.651 Y95.349 E2.23672
G1 X104.106 Y95.156 E2.25382
G1 X106.248 Y93.014 E2.34332
G1 X105.740 Y92.784 E2.35981
G1 X103.519 Y95.005 E2.45261
G1 X102.887 Y94.898 E2.47154
G1 X105.200 Y92.585 E2.56818
G1 X104.639 Y92.407 E2.58556
G1 X102.202 Y94.844 E2.68738
G1 X101.450 Y94.858 E2.70961
G1 X104.042 Y92.266 E2.81791
G1 X103.724 Y92.198 E2.82751
G1 X103.411 Y92.159 E2.83685
G1 X100.569 Y95.001 E2.95560
G1 X100.243 Y95.096 E2.96562
G1 X99.884 Y95.236 E2.97701
G1 X99.596 Y95.375 E2.98646
G1 X99.239 Y95.593 E2.99882
G1 X102.753 Y92.078 E3.14566
G1 X102.044 Y92.049 E3.16663
G1 X93.557 Y100.535 E3.52124
G1 X93.552 Y99.802 E3.54291
G1 X101.284 Y92.071 E3.86597
G1 X100.474 Y92.142 E3.88998
G1 X93.612 Y99.004 E4.17671
G1 X93.749 Y98.128 E4.20290
G1 X99.584 Y92.294 E4.44669
G1 X98.739 Y92.523 E4.47255
G1 X98.537 Y92.602 E4.47895
G1 X94.038 Y97.102 E4.66697
G1 X94.240 Y96.567 E4.68384
G1 X94.510 Y96.028 E4.70167
G1 X94.750 Y95.651 E4.71488
G1 X97.053 Y93.348 E4.81108
G1 X98.460 Y96.371 F7800.000
G1 F2589.89
G1 X93.605 Y101.227 E5.01396
G1 X93.627 Y101.493 E5.02184
G1 X93.692 Y101.878 E5.03338
G1 X97.803 Y97.767 E5.20513
G1 X97.715 Y98.094 E5.21514
G1 X97.603 Y98.705 E5.23349
G1 X93.818 Y102.490 E5.39165
G1 X93.978 Y103.069 E5.40939
G1 X97.535 Y99.512 E5.55803
G1 X97.538 Y100.246 E5.57974
G1 X94.179 Y103.606 E5.72011
G1 X94.418 Y104.105 E5.73647
G1 X97.598 Y100.925 E5.86934
G1 X97.710 Y101.552 E5.88814
G1 X94.684 Y104.578 E6.01458
G1 X94.978 Y105.022 E6.03032
G1 X97.873 Y102.127 E6.15129
G1 X98.087 Y102.652 E6.16804
G1 X95.313 Y105.426 E6.28395
G1 X95.668 Y105.809 E6.29939
G1 X98.347 Y103.130 E6.41136
G1 X98.653 Y103.562 E6.42701
G1 X96.052 Y106.163 E6.53568
G1 X96.472 Y106.482 E6.55124
G1 X99.004 Y103.950 E6.65704
G1 X99.401 Y104.291 E6.67251
G1 X96.918 Y106.774 E6.77626
G1 X97.386 Y107.044 E6.79223
G1 X99.848 Y104.583 E6.89507
G1 X100.348 Y104.821 E6.91144
G1 X97.890 Y107.279 E7.01412
G1 X98.434 Y107.473 E7.03119
G1 X100.906 Y105.001 E7.13449
G1 X101.529 Y105.117 E7.15320
G1 X99.003 Y107.643 E7.25876
G1 X99.324 Y107.725 E7.26857
G1 X99.612 Y107.772 E7.27718
G1 X102.223 Y105.161 E7.38630
G1 X102.997 Y105.125 E7.40918
G1 X100.246 Y107.876 E7.52413
G1 X100.935 Y107.926 E7.54453
G1 X103.871 Y104.990 E7.66722
G1 X104.310 Y104.881 E7.68058
G1 X104.928 Y104.671 E7.69987
G1 X101.652 Y107.947 E7.83676
G1 X102.414 Y107.924 E7.85929
G1 X106.454 Y103.887 E8.02802
G1 X106.454 Y104.622 E8.04973
G1 X103.252 Y107.824 E8.18350
G1 X103.878 Y107.705 E8.20231
G1 X104.195 Y107.619 E8.21202
G1 X106.454 Y105.361 E8.30639
G1 X106.454 Y106.099 E8.32821
G1 X105.291 Y107.261 E8.37677
M106 S255
G1 Z2.000 F7800.000
G1 E6.37677 F2400.00000
G92 E0
G1 X106.454 Y104.238 F7800.000
G1 E2.00000 F2400.00000
G1 F2601.77
G1 X106.112 Y103.897 E2.01426
G1 X105.651 Y104.174 E2.03016
G1 X106.454 Y104.977 E2.06370
G1 X106.454 Y105.715 E2.08552
G1 X105.165 Y104.426 E2.13937
G1 X104.652 Y104.652 E2.15592
G1 X106.454 Y106.454 E2.23120
G1 X106.454 Y106.890 E2.24409
G1 X106.250 Y106.989 E2.25077
G1 X104.105 Y104.844 E2.34040
G1 X103.519 Y104.996 E2.35829
G1 X105.737 Y107.214 E2.45097
G1 X105.202 Y107.417 E2.46789
G1 X102.887 Y105.103 E2.56460
G1 X102.202 Y105.156 E2.58491
G1 X104.637 Y107.591 E2.68665
G1 X104.044 Y107.736 E2.70469
G1 X101.450 Y105.142 E2.81309
G1 X100.937 Y105.080 E2.82836
G1 X100.567 Y104.998 E2.83954
G1 X103.415 Y107.846 E2.95855
G1 X102.751 Y107.920 E2.97830
G1 X99.236 Y104.405 E3.12517
G1 E1.12517 F2400.00000
G92 E0
G1 X94.724 Y104.324 F7800.000
G1 E2.00000 F2400.00000
G1 F2601.77
G1 X97.072 Y106.671 E2.09810
G1 X97.203 Y106.762 E2.10282
G1 X97.890 Y107.136 E2.12590
G1 X98.543 Y107.404 E2.14677
G1 X94.034 Y102.895 E2.33517
G1 X93.858 Y102.353 E2.35200
G1 X93.756 Y101.878 E2.36636
G1 X99.579 Y107.701 E2.60969
G1 X100.188 Y107.824 E2.62804
G1 X100.473 Y107.857 E2.63653
G1 X93.616 Y101.000 E2.92308
G1 X93.580 Y100.700 E2.93199
G1 X93.561 Y100.206 E2.94660
G1 X101.283 Y107.929 E3.26926
G1 X102.043 Y107.950 E3.29174
G1 X93.561 Y99.468 E3.64616
G1 X93.602 Y98.771 E3.66681
G1 X98.462 Y103.631 E3.86989
G1 X98.119 Y103.047 E3.88990
G1 X97.933 Y102.618 E3.90371
G1 X97.805 Y102.236 E3.91563
G1 X93.685 Y98.115 E4.08779
G1 X93.816 Y97.508 E4.10614
G1 X97.604 Y101.296 E4.26440
G1 X97.535 Y100.488 E4.28833
G1 X93.983 Y96.937 E4.43673
G1 X94.101 Y96.576 E4.44796
G1 X94.181 Y96.396 E4.45376
G1 X97.538 Y99.754 E4.59405
G1 X97.597 Y99.074 E4.61420
G1 X94.413 Y95.889 E4.74727
G1 X94.684 Y95.423 E4.76322
G1 X97.709 Y98.447 E4.88961
G1 X97.873 Y97.873 E4.90725
G1 X94.985 Y94.985 E5.02793
G1 X95.312 Y94.574 E5.04345
G1 X98.086 Y97.348 E5.15936
G1 X98.346 Y96.869 E5.17545
G1 X95.668 Y94.191 E5.28736
G1 X96.060 Y93.845 E5.30282
G1 X98.653 Y96.438 E5.41115
G1 X99.004 Y96.051 E5.42659
G1 X96.472 Y93.519 E5.53238
G1 X96.909 Y93.219 E5.54803
G1 X99.401 Y95.709 E5.65214
G1 X99.847 Y95.416 E5.66789
G1 X97.389 Y92.959 E5.77058
G1 X97.561 Y92.866 E5.77635
G1 X97.896 Y92.727 E5.78706
G1 X100.347 Y95.178 E5.88946
G1 X100.906 Y94.998 E5.90681
G1 X98.431 Y92.524 E6.01019
G1 X98.998 Y92.352 E6.02768
G1 X101.528 Y94.883 E6.13342
G1 X102.223 Y94.839 E6.15399
G1 X99.611 Y92.227 E6.26314
G1 X99.871 Y92.174 E6.27099
G1 X100.254 Y92.131 E6.28235
G1 X102.996 Y94.874 E6.39695
G1 X103.422 Y94.926 E6.40964
G1 X103.871 Y95.010 E6.42313
G1 X100.932 Y92.071 E6.54593
G1 X101.647 Y92.047 E6.56705
G1 X104.928 Y95.329 E6.70417
G1 X105.687 Y95.670 E6.72876
G1 X106.445 Y96.108 E6.75462
G1 X102.419 Y92.081 E6.92286
G1 X102.873 Y92.121 E6.93633
G1 X103.253 Y92.177 E6.94768
G1 X106.454 Y95.378 E7.08142
G1 X106.454 Y94.639 E7.10324
G1 X104.188 Y92.374 E7.19790
G1 X104.569 Y92.479 E7.20958
G1 X105.284 Y92.732 E7.23200
G1 X106.454 Y93.901 E7.28085
G1 E5.28085 F2400.00000
G92 E0
M107
; Filament-specific end gcode 
;END gcode for filament

M104 S0 ; turn off temperature
G28 X0  ; home X axis
M84     ; disable motors

M140 S0 ; set bed temperature
; filament used = 33.5mm (0.2cm3)
; total filament cost = 0.0

; avoid_crossing_perimeters = 0
; bed_shape = 0x0,200x0,200x200,0x200
; bed_temperature = 0
; before_layer_gcode = 
; between_objects_gcode = 
; bridge_acceleration = 0
; bridge_fan_speed = 100
; brim_connections_width = 0
; brim_width = 0
; complete_objects = 0
; cooling = 1
; default_acceleration = 0
; disable_fan_first_layers = 3
; duplicate_distance = 6
; end_filament_gcode = "; Filament-specific end gcode \n;END gcode for filament\n"
; end_gcode = M104 S0 ; turn off temperature\nG28 X0  ; home X axis\nM84     ; disable motors\n
; extruder_clearance_height = 20
; extruder_clearance_radius = 20
; extruder_offset = 0x0
; extrusion_axis = E
; extrusion_multiplier = 1
; fan_always_on = 0
; fan_below_layer_time = 60
; filament_colour = #FFFFFF
; filament_cost = 0
; filament_density = 0
; filament_diameter = 3
; filament_max_volumetric_speed = 0
; filament_notes = ""
; first_layer_acceleration = 0
; first_layer_bed_temperature = 0
; first_layer_extrusion_width = 200%
; first_layer_speed = 30
; first_layer_temperature = 205
; gcode_arcs = 0
; gcode_comments = 0
; gcode_flavor = reprap
; has_heatbed = 1
; infill_acceleration = 0
; infill_first = 0
; interior_brim_width = 0
; layer_gcode = 
; max_fan_speed = 100
; max_layer_height = 0.3
; max_print_speed = 80
; max_volumetric_speed = 0
; min_fan_speed = 35
; min_layer_height = 0.15
; min_print_speed = 10
; min_skirt_length = 0
; notes = 
; nozzle_diameter = 0.5
; only_retract_when_crossing_perimeters = 1
; ooze_prevention = 0
; output_filename_format = [input_filename_base].gcode
; perimeter_acceleration = 0
; post_process = 
; pressure_advance = 0
; printer_notes = 
; resolution = 0
; retract_before_travel = 2
; retract_layer_change = 0
; retract_length = 2
; retract_length_toolchange = 10
; retract_lift = 0
; retract_lift_above = 0
; retract_lift_below = 0
; retract_restart_extra = 0
; retract_restart_extra_toolchange = 0
; retract_speed = 40
; skirt_distance = 6
; skirt_height = 1
; skirts = 0
; slowdown_below_layer_time = 5
; spiral_vase = 0
; standby_temperature_delta = -5
; start_filament_gcode = "; Filament gcode\n"
; start_gcode = G28 ; home all axes\nG1 Z5 F5000 ; lift nozzle\n
; temperature = 200
; threads = 8
; toolchange_gcode = 
; travel_speed = 130
; use_firmware_retraction = 0
; use_relative_e_distances = 0
; use_set_and_wait_bed = 0
; use_set_and_wait_extruder = 0
; use_volumetric_e = 0
; vibration_limit = 0
; wipe = 0
; z_offset = 0
; z_steps_per_mm = 0
; adaptive_slicing = 0
; adaptive_slicing_quality = 75%
; dont_support_bridges = 1
; extrusion_width = 0
; first_layer_height = 0.5
; infill_only_where_needed = 0
; interface_shells = 0
; layer_height = 0.5
; match_horizontal_surfaces = 0
; raft_layers = 0
; regions_overlap = 0
; seam_position = aligned
; sequential_print_priority = 0
; support_material = 0
; support_material_angle = 0
; support_material_buildplate_only = 0
; support_material_contact_distance = 0.2
; support_material_enforce_layers = 0
; support_material_extruder = 1
; support_material_extrusion_width = 0
; support_material_interface_extruder = 1
; support_material_interface_extrusion_width = 0
; support_material_interface_layers = 3
; support_material_interface_spacing = 0
; support_material_interface_speed = 100%
; support_material_max_layers = 0
; support_material_pattern = pillars
; support_material_spacing = 2.5
; support_material_speed = 60
; support_material_threshold = 60%
; xy_size_compensation = 0
; bottom_infill_pattern = rectilinear
; bottom_solid_layers = 0
; bridge_flow_ratio = 1
; bridge_speed = 60
; external_perimeter_extrusion_width = 0
; external_perimeter_speed = 50%
; external_perimeters_first = 0
; extra_perimeters = 1
; fill_angle = 45
; fill_density = 80%
; fill_gaps = 1
; fill_pattern = rectilinear
; gap_fill_speed = 20
; infill_every_layers = 1
; infill_extruder = 1
; infill_extrusion_width = 0
; infill_overlap = 55%
; infill_speed = 80
; overhangs = 1
; perimeter_extruder = 1
; perimeter_extrusion_width = 0
; perimeter_speed = 60
; perimeters = 0
; small_perimeter_speed = 15
; solid_infill_below_area = 70
; solid_infill_every_layers = 0
; solid_infill_extruder = 1
; solid_infill_extrusion_width = 0
; solid_infill_speed = 20
; thin_walls = 1
; top_infill_extrusion_width = 0
; top_infill_pattern = rectilinear
; top_solid_infill_speed = 15
; top_solid_layers = 0
