; generated by Slic3r 1.3.0 on 2020-10-15 at 16:17:32

; external perimeters extrusion width = 0.55mm (5.57mm^3/s)
; perimeters extrusion width = 0.58mm (11.78mm^3/s)
; infill extrusion width = 0.58mm (15.71mm^3/s)
; solid infill extrusion width = 0.58mm (3.93mm^3/s)
; top infill extrusion width = 0.58mm (2.95mm^3/s)

M107
M104 S205 ; set temperature
G28 ; home all axes
G1 Z5 F5000 ; lift nozzle

; Filament gcode

M109 S205 ; set temperature and wait for it to be reached
G21 ; set units to millimeters
G90 ; use absolute coordinates
M82 ; use absolute distances for extrusion
G92 E0
G1 Z0.400 F7800.000
G1 E-2.00000 F2400.00000
G92 E0
G1 X95.893 Y94.344 F7800.000
G1 E2.00000 F2400.00000
G1 F1800
G1 X95.419 Y94.818 E2.02707
G1 X95.156 Y95.117 E2.04317
G1 X94.728 Y95.693 E2.07216
G1 X94.355 Y96.333 E2.10213
G1 X94.147 Y96.801 E2.12281
G1 X98.232 Y92.716 E2.35628
G1 X99.056 Y92.412 E2.39180
G1 X99.309 Y92.348 E2.40234
G1 X93.790 Y97.868 E2.71780
G1 X93.646 Y98.527 E2.74505
G1 X93.619 Y98.748 E2.75407
G1 X100.210 Y92.158 E3.13075
G1 X100.666 Y92.086 E3.14941
G1 X101.018 Y92.059 E3.16368
G1 X93.538 Y99.539 E3.59118
G1 X93.513 Y100.275 E3.62091
G1 X101.769 Y92.019 E4.09276
G1 X102.471 Y92.027 E4.12112
G1 X93.539 Y100.958 E4.63158
G1 X93.606 Y101.602 E4.65773
G1 X98.011 Y97.197 E4.90950
G1 X97.807 Y97.797 E4.93511
G1 X97.711 Y98.207 E4.95215
G1 X93.706 Y102.211 E5.18100
G1 X93.838 Y102.789 E5.20497
G1 X97.595 Y99.033 E5.41964
G1 X97.564 Y99.774 E5.44959
G1 X94.012 Y103.326 E5.65261
G1 X94.219 Y103.828 E5.67459
G1 X97.592 Y100.456 E5.86733
G1 X97.668 Y101.089 E5.89311
G1 X94.454 Y104.304 E6.07684
G1 X94.715 Y104.753 E6.09783
G1 X97.793 Y101.675 E6.27374
G1 X97.963 Y102.214 E6.29660
G1 X95.016 Y105.162 E6.46508
G1 X95.159 Y105.355 E6.47478
G1 X95.339 Y105.549 E6.48548
G1 X98.180 Y102.708 E6.64785
G1 X98.440 Y103.158 E6.66886
G1 X95.682 Y105.916 E6.82645
G1 X96.063 Y106.245 E6.84680
G1 X98.741 Y103.567 E6.99987
G1 X99.083 Y103.935 E7.02017
G1 X96.465 Y106.553 E7.16979
G1 X96.889 Y106.839 E7.19046
G1 X99.468 Y104.260 E7.33782
G1 X99.897 Y104.541 E7.35855
G1 X97.350 Y107.088 E7.50415
G1 X97.505 Y107.173 E7.51128
G1 X97.838 Y107.310 E7.52585
G1 X100.375 Y104.773 E7.67088
G1 X100.909 Y104.949 E7.69358
G1 X98.351 Y107.507 E7.83978
G1 X98.896 Y107.672 E7.86281
G1 X101.499 Y105.069 E8.01157
G1 X102.156 Y105.122 E8.03819
G1 X99.481 Y107.797 E8.19106
G1 X99.783 Y107.858 E8.20349
G1 X100.094 Y107.894 E8.21617
G1 X102.881 Y105.107 E8.37546
G1 X103.693 Y105.005 E8.40851
G1 X100.739 Y107.959 E8.57734
G1 X101.424 Y107.984 E8.60504
G1 X104.641 Y104.767 E8.78889
G1 X105.194 Y104.562 E8.81276
G1 X105.888 Y104.230 E8.84385
G1 X102.147 Y107.971 E9.05768
G1 X102.937 Y107.891 E9.08977
G1 X106.489 Y104.339 E9.29278
G1 X106.489 Y105.049 E9.32147
G1 X103.801 Y107.737 E9.47508
G1 X104.229 Y107.633 E9.49284
G1 X104.789 Y107.459 E9.51657
G1 X106.489 Y105.759 E9.61371
G1 X106.489 Y106.469 E9.64241
G1 X106.020 Y106.938 E9.66921
G1 E7.66921 F2400.00000
G92 E0
G1 X105.682 Y95.916 F7800.000
G1 E2.00000 F2400.00000
G1 F1800
G1 X106.489 Y95.109 E2.04610
G1 X106.489 Y94.399 E2.07479
G1 X105.221 Y95.667 E2.14727
G1 X104.735 Y95.442 E2.16888
G1 X106.489 Y93.689 E2.26910
G1 X106.489 Y93.062 E2.29445
G1 X106.433 Y93.035 E2.29696
G1 X104.219 Y95.249 E2.42349
G1 X103.669 Y95.089 E2.44665
G1 X105.948 Y92.810 E2.57694
G1 X105.440 Y92.608 E2.59903
G1 X103.079 Y94.969 E2.73400
G1 X102.443 Y94.895 E2.75987
G1 X104.908 Y92.430 E2.90077
G1 X104.348 Y92.279 E2.92420
G1 X101.751 Y94.876 E3.07261
G1 X101.329 Y94.897 E3.08972
G1 X100.978 Y94.939 E3.10398
G1 X103.759 Y92.159 E3.26290
G1 X103.133 Y92.075 E3.28842
G1 X100.025 Y95.183 E3.46605
G1 X99.675 Y95.329 E3.48138
G1 X99.258 Y95.560 E3.50063
G1 X98.878 Y95.832 E3.51952
G1 X98.538 Y96.139 E3.53803
G1 X98.212 Y96.505 E3.55788
G1 X97.929 Y96.904 E3.57761
G1 X97.696 Y97.320 E3.59689
G1 X97.542 Y97.665 E3.61217
M104 S200 ; set temperature
G1 Z0.800 F7800.000
G1 E1.61217 F2400.00000
G92 E0
G1 X100.064 Y104.859 F7800.000
G1 E2.00000 F2400.00000
G1 F2689.18
G1 X100.632 Y105.031 E2.01647
G1 X101.019 Y105.104 E2.02741
G1 X103.712 Y107.797 E2.13322
G1 X104.296 Y107.671 E2.14982
G1 X101.792 Y105.167 E2.24821
G1 X102.484 Y105.148 E2.26744
G1 X104.860 Y107.525 E2.36080
G1 X105.393 Y107.348 E2.37639
G1 X103.120 Y105.075 E2.46568
G1 X103.710 Y104.955 E2.48240
G1 X105.902 Y107.147 E2.56852
G1 X106.388 Y106.922 E2.58338
G1 X104.261 Y104.796 E2.66692
G1 X104.777 Y104.601 E2.68223
G1 X106.445 Y106.270 E2.74777
G1 X106.445 Y105.560 E2.76750
G1 X105.263 Y104.377 E2.81396
G1 X105.725 Y104.129 E2.82853
G1 X106.445 Y104.849 E2.85684
G1 E0.85684 F2400.00000
G92 E0
G1 X95.716 Y105.482 F7800.000
G1 E2.00000 F2400.00000
G1 F2689.18
G1 X96.101 Y105.867 E2.01512
G1 X96.654 Y106.345 E2.03544
G1 X97.255 Y106.762 E2.05575
G1 X97.933 Y107.131 E2.07719
G1 X98.173 Y107.229 E2.08441
G1 X94.195 Y103.251 E2.24069
G1 X94.098 Y103.032 E2.24734
G1 X93.836 Y102.182 E2.27205
G1 X99.266 Y107.612 E2.48535
G1 X100.171 Y107.807 E2.51106
G1 X93.664 Y101.300 E2.76668
G1 X93.582 Y100.507 E2.78880
G1 X100.978 Y107.904 E3.07936
G1 X101.720 Y107.936 E3.10000
G1 X93.556 Y99.771 E3.42073
G1 X93.583 Y99.089 E3.43971
G1 X102.428 Y107.933 E3.78715
G1 X103.089 Y107.884 E3.80557
G1 X100.446 Y105.241 E3.90939
G1 X100.135 Y105.112 E3.91874
G1 X99.689 Y104.869 E3.93285
G1 X99.291 Y104.583 E3.94648
G1 X98.968 Y104.292 E3.95855
G1 X98.634 Y103.916 E3.97250
G1 X98.376 Y103.555 E3.98485
G1 X98.135 Y103.130 E3.99841
G1 X97.970 Y102.766 E4.00952
G1 X93.647 Y98.443 E4.17934
G1 X93.688 Y98.115 E4.18852
G1 X93.749 Y97.834 E4.19651
G1 X97.669 Y101.754 E4.35052
G1 X97.598 Y101.345 E4.36206
G1 X97.552 Y100.927 E4.37374
G1 X93.880 Y97.255 E4.51798
G1 X94.055 Y96.719 E4.53363
G1 X97.521 Y100.185 E4.66978
G1 X97.547 Y99.502 E4.68878
G1 X94.261 Y96.215 E4.81789
G1 X94.393 Y95.918 E4.82694
G1 X94.496 Y95.741 E4.83263
G1 X97.624 Y98.868 E4.95549
G1 X97.748 Y98.282 E4.97213
G1 X94.757 Y95.292 E5.08961
G1 X94.773 Y95.265 E5.09046
G1 X95.057 Y94.881 E5.10373
G1 X97.919 Y97.743 E5.21616
G1 X98.135 Y97.249 E5.23113
G1 X95.378 Y94.492 E5.33945
G1 X95.492 Y94.363 E5.34423
G1 X95.731 Y94.135 E5.35341
G1 X98.395 Y96.799 E5.45805
G1 X98.697 Y96.391 E5.47216
G1 X96.103 Y93.797 E5.57406
G1 X96.504 Y93.487 E5.58813
G1 X99.039 Y96.023 E5.68772
G1 X99.423 Y95.697 E5.70172
G1 X96.937 Y93.210 E5.79941
G1 X97.196 Y93.051 E5.80786
G1 X97.393 Y92.957 E5.81393
G1 X99.853 Y95.416 E5.91054
G1 X100.331 Y95.184 E5.92531
G1 X97.875 Y92.728 E6.02181
G1 X97.914 Y92.709 E6.02303
G1 X98.396 Y92.539 E6.03722
G1 X100.864 Y95.007 E6.13419
G1 X101.455 Y94.888 E6.15093
G1 X98.944 Y92.377 E6.24958
G1 X99.520 Y92.243 E6.26601
G1 X102.111 Y94.834 E6.36781
G1 X102.837 Y94.850 E6.38797
G1 X100.133 Y92.146 E6.49419
G1 X100.786 Y92.088 E6.51239
G1 X103.649 Y94.951 E6.62486
G1 X104.060 Y95.037 E6.63653
G1 X104.597 Y95.189 E6.65203
G1 X101.469 Y92.061 E6.77490
G1 X101.868 Y92.059 E6.78599
G1 X102.200 Y92.082 E6.79523
G1 X105.843 Y95.726 E6.93836
G1 X106.445 Y96.076 E6.95770
G1 X106.445 Y95.618 E6.97042
G1 X102.977 Y92.149 E7.10668
G1 X103.394 Y92.211 E7.11841
G1 X103.845 Y92.307 E7.13120
G1 X106.445 Y94.908 E7.23337
G1 X106.445 Y94.197 E7.25310
G1 X104.839 Y92.591 E7.31619
G1 X105.631 Y92.897 E7.33975
G1 X106.063 Y93.105 E7.35309
G1 X106.445 Y93.487 E7.36810
G1 Z1.200 F7800.000
G1 E5.36810 F2400.00000
G92 E0
G1 X105.725 Y95.872 F7800.000
G1 E2.00000 F2400.00000
G1 F2693.18
G1 X106.445 Y95.151 E2.02829
G1 X106.445 Y94.441 E2.04802
G1 X105.264 Y95.623 E2.09444
G1 X104.778 Y95.399 E2.10930
G1 X106.445 Y93.731 E2.17481
G1 X106.445 Y93.106 E2.19219
G1 X106.388 Y93.078 E2.19395
G1 X104.262 Y95.205 E2.27750
G1 X103.711 Y95.045 E2.29341
G1 X105.905 Y92.852 E2.37957
G1 X105.395 Y92.651 E2.39478
G1 X103.121 Y94.926 E2.48414
G1 X102.484 Y94.852 E2.50193
G1 X104.864 Y92.472 E2.59541
G1 X104.303 Y92.323 E2.61154
G1 X101.794 Y94.833 E2.71011
G1 X101.356 Y94.855 E2.72230
G1 X101.021 Y94.896 E2.73167
G1 X103.715 Y92.202 E2.83751
G1 X103.087 Y92.119 E2.85510
G1 X100.067 Y95.139 E2.97373
G1 X99.719 Y95.286 E2.98421
G1 X99.290 Y95.523 E2.99783
G1 X98.911 Y95.796 E3.01081
G1 X98.604 Y96.073 E3.02231
G1 X98.256 Y96.461 E3.03678
G1 X98.010 Y96.804 E3.04851
G1 X97.745 Y97.264 E3.06325
G1 X97.587 Y97.620 E3.07406
G1 X95.904 Y94.332 F7800.000
G1 F2693.18
G1 X95.518 Y94.718 E3.08923
G1 X95.154 Y95.130 E3.10448
G1 X94.774 Y95.645 E3.12227
G1 X94.388 Y96.309 E3.14362
G1 X94.189 Y96.757 E3.15723
G1 X98.184 Y92.762 E3.31417
G1 X99.027 Y92.451 E3.33914
G1 X99.264 Y92.392 E3.34594
G1 X93.834 Y97.822 E3.55928
G1 X93.686 Y98.510 E3.57881
G1 X93.662 Y98.705 E3.58426
G1 X100.165 Y92.201 E3.83975
G1 X100.609 Y92.131 E3.85224
G1 X100.973 Y92.103 E3.86238
G1 X93.583 Y99.493 E4.15271
G1 X93.556 Y100.230 E4.17318
G1 X101.724 Y92.062 E4.49403
G1 X102.424 Y92.072 E4.51348
G1 X93.582 Y100.914 E4.86082
G1 X93.649 Y101.558 E4.87880
G1 X97.968 Y97.238 E5.04850
G1 X97.773 Y97.807 E5.06523
G1 X97.668 Y98.249 E5.07783
G1 X93.751 Y102.166 E5.23170
G1 X93.881 Y102.746 E5.24821
G1 X97.551 Y99.076 E5.39239
G1 X97.521 Y99.816 E5.41296
G1 X94.055 Y103.281 E5.54911
G1 X94.262 Y103.784 E5.56422
G1 X97.548 Y100.499 E5.69330
G1 X97.625 Y101.132 E5.71102
G1 X94.497 Y104.260 E5.83389
G1 X94.757 Y104.709 E5.84833
G1 X97.749 Y101.718 E5.96585
G1 X97.920 Y102.257 E5.98156
G1 X95.058 Y105.119 E6.09398
G1 X95.177 Y105.280 E6.09955
G1 X95.383 Y105.504 E6.10800
G1 X98.136 Y102.751 E6.21615
G1 X98.395 Y103.201 E6.23059
G1 X95.725 Y105.872 E6.33551
G1 X96.105 Y106.201 E6.34949
G1 X98.697 Y103.610 E6.45131
G1 X99.039 Y103.978 E6.46527
G1 X96.508 Y106.509 E6.56470
G1 X96.933 Y106.794 E6.57891
G1 X99.423 Y104.304 E6.67674
G1 X99.853 Y104.584 E6.69100
G1 X97.393 Y107.044 E6.78765
G1 X97.554 Y107.132 E6.79274
G1 X97.881 Y107.266 E6.80257
G1 X100.332 Y104.815 E6.89883
G1 X100.865 Y104.992 E6.91443
G1 X98.392 Y107.465 E7.01156
G1 X98.939 Y107.629 E7.02740
G1 X101.455 Y105.112 E7.12625
G1 X102.112 Y105.165 E7.14456
G1 X99.525 Y107.753 E7.24620
G1 X99.847 Y107.818 E7.25533
G1 X100.136 Y107.851 E7.26343
G1 X102.837 Y105.151 E7.36951
G1 X103.648 Y105.049 E7.39223
G1 X100.782 Y107.915 E7.50481
G1 X101.464 Y107.943 E7.52376
G1 X104.597 Y104.810 E7.64683
G1 X105.126 Y104.615 E7.66249
G1 X105.843 Y104.275 E7.68454
G1 X102.191 Y107.927 E7.82799
G1 X102.978 Y107.850 E7.84996
G1 X106.445 Y104.382 E7.98618
G1 X106.445 Y105.092 E8.00590
G1 X103.851 Y107.686 E8.10782
G1 X104.268 Y107.591 E8.11971
G1 X104.834 Y107.413 E8.13618
G1 X106.445 Y105.802 E8.19947
G1 X106.445 Y106.512 E8.21919
G1 X106.063 Y106.894 E8.23420
M106 S255
G1 Z1.600 F7800.000
G1 X106.445 Y104.850 F7800.000
G1 F2689.36
G1 X105.725 Y104.129 E8.26252
G1 X105.262 Y104.377 E8.27709
G1 X106.445 Y105.560 E8.32356
G1 X106.445 Y106.270 E8.34329
G1 X104.776 Y104.601 E8.40885
G1 X104.261 Y104.796 E8.42416
G1 X106.387 Y106.922 E8.50767
G1 X105.904 Y107.149 E8.52250
G1 X103.710 Y104.954 E8.60870
G1 X103.120 Y105.074 E8.62542
G1 X105.394 Y107.349 E8.71478
G1 X104.859 Y107.525 E8.73041
G1 X102.483 Y105.148 E8.82378
G1 X101.791 Y105.167 E8.84299
G1 X104.297 Y107.672 E8.94141
G1 X103.711 Y107.797 E8.95804
G1 X101.019 Y105.104 E9.06380
G1 X100.639 Y105.033 E9.07455
G1 X100.064 Y104.860 E9.09121
G1 X95.711 Y105.477 F7800.000
G1 F2689.36
G1 X96.103 Y105.869 E9.10662
G1 X96.647 Y106.340 E9.12662
G1 X97.235 Y106.750 E9.14652
G1 X97.939 Y107.133 E9.16878
G1 X98.172 Y107.228 E9.17578
G1 X94.195 Y103.251 E9.33204
G1 X94.099 Y103.035 E9.33859
G1 X93.869 Y102.330 E9.35919
G1 X93.838 Y102.184 E9.36335
G1 X99.267 Y107.613 E9.57662
G1 X100.169 Y107.805 E9.60225
G1 X93.663 Y101.299 E9.85785
G1 X93.581 Y100.507 E9.87997
G1 X100.979 Y107.905 E10.17059
G1 X101.724 Y107.939 E10.19130
G1 X93.556 Y99.772 E10.51215
G1 X93.584 Y99.090 E10.53111
G1 X102.428 Y107.933 E10.87852
G1 X103.089 Y107.884 E10.89693
G1 X100.446 Y105.242 E11.00074
G1 X100.025 Y105.058 E11.01350
G1 X99.690 Y104.870 E11.02418
G1 X99.271 Y104.567 E11.03853
G1 X98.983 Y104.307 E11.04932
G1 X98.631 Y103.912 E11.06400
G1 X98.400 Y103.590 E11.07502
G1 X98.155 Y103.169 E11.08856
G1 X97.970 Y102.765 E11.10089
G1 X93.646 Y98.442 E11.27073
G1 X93.683 Y98.141 E11.27916
G1 X93.749 Y97.835 E11.28786
G1 X97.669 Y101.754 E11.44182
G1 X97.597 Y101.337 E11.45356
G1 X97.552 Y100.927 E11.46504
G1 X93.880 Y97.255 E11.60927
G1 X94.056 Y96.721 E11.62490
G1 X97.521 Y100.186 E11.76102
G1 X97.547 Y99.502 E11.78003
G1 X94.260 Y96.215 E11.90916
G1 X94.383 Y95.938 E11.91759
G1 X94.497 Y95.742 E11.92388
G1 X97.624 Y98.869 E12.04672
G1 X97.748 Y98.283 E12.06335
G1 X94.758 Y95.292 E12.18083
G1 X94.775 Y95.262 E12.18180
G1 X95.057 Y94.882 E12.19495
G1 X97.919 Y97.744 E12.30737
G1 X98.135 Y97.249 E12.32235
G1 X95.381 Y94.495 E12.43055
G1 X95.725 Y94.129 E12.44450
G1 X98.395 Y96.799 E12.54938
G1 X98.697 Y96.391 E12.56349
G1 X96.101 Y93.795 E12.66546
G1 X96.506 Y93.490 E12.67954
G1 X99.038 Y96.022 E12.77901
G1 X99.423 Y95.697 E12.79300
G1 X96.937 Y93.211 E12.89068
G1 X97.391 Y92.955 E12.90516
G1 X99.852 Y95.416 E13.00186
G1 X100.331 Y95.185 E13.01663
G1 X97.875 Y92.729 E13.11310
G1 X98.395 Y92.539 E13.12849
G1 X100.864 Y95.007 E13.22545
G1 X101.454 Y94.888 E13.24220
G1 X98.943 Y92.376 E13.34085
G1 X99.519 Y92.243 E13.35729
G1 X102.111 Y94.834 E13.45908
G1 X102.837 Y94.850 E13.47927
G1 X100.132 Y92.145 E13.58552
G1 X100.785 Y92.088 E13.60371
G1 X103.648 Y94.951 E13.71620
G1 X104.077 Y95.041 E13.72836
G1 X104.597 Y95.190 E13.74339
G1 X101.469 Y92.061 E13.86629
G1 X102.192 Y92.075 E13.88639
G1 X105.842 Y95.725 E14.02977
G1 X106.445 Y96.075 E14.04916
G1 X106.445 Y95.618 E14.06186
G1 X102.975 Y92.148 E14.19817
G1 X103.378 Y92.208 E14.20949
G1 X103.845 Y92.308 E14.22275
G1 X106.445 Y94.908 E14.32490
G1 X106.445 Y94.198 E14.34462
G1 X104.840 Y92.592 E14.40769
G1 X105.590 Y92.879 E14.43001
G1 X106.063 Y93.106 E14.44457
G1 X106.445 Y93.488 E14.45958
G1 Z2.000 F7800.000
G1 E12.45958 F2400.00000
G92 E0
G1 X105.725 Y95.871 F7800.000
G1 E2.00000 F2400.00000
G1 F2693.36
G1 X106.445 Y95.151 E2.02829
G1 X106.445 Y94.441 E2.04801
G1 X105.264 Y95.623 E2.09443
G1 X104.778 Y95.399 E2.10930
G1 X106.445 Y93.731 E2.17481
G1 X106.445 Y93.106 E2.19217
G1 X106.388 Y93.079 E2.19394
G1 X104.261 Y95.205 E2.27749
G1 X103.712 Y95.045 E2.29340
G1 X105.905 Y92.851 E2.37957
G1 X105.395 Y92.652 E2.39480
G1 X103.120 Y94.926 E2.48415
G1 X102.484 Y94.853 E2.50194
G1 X104.865 Y92.472 E2.59547
G1 X104.302 Y92.324 E2.61163
G1 X101.794 Y94.832 E2.71015
G1 X101.339 Y94.856 E2.72281
G1 X101.021 Y94.896 E2.73172
G1 X103.715 Y92.201 E2.83756
G1 X103.090 Y92.117 E2.85509
G1 X100.068 Y95.138 E2.97380
G1 X99.720 Y95.285 E2.98428
G1 X99.279 Y95.531 E2.99831
G1 X98.901 Y95.805 E3.01129
G1 X98.626 Y96.052 E3.02155
G1 X98.256 Y96.460 E3.03685
G1 X98.036 Y96.765 E3.04731
G1 X97.753 Y97.250 E3.06289
G1 X97.587 Y97.620 E3.07416
G1 X95.863 Y94.374 F7800.000
G1 F2693.36
G1 X95.476 Y94.760 E3.08935
G1 X95.020 Y95.299 E3.10897
G1 X94.610 Y95.907 E3.12931
G1 X94.243 Y96.614 E3.15144
G1 X94.189 Y96.757 E3.15571
G1 X98.194 Y92.752 E3.31304
G1 X98.902 Y92.490 E3.33402
G1 X99.274 Y92.383 E3.34475
G1 X93.834 Y97.822 E3.55843
G1 X93.781 Y98.018 E3.56408
G1 X93.656 Y98.710 E3.58360
G1 X100.166 Y92.201 E3.83931
G1 X100.596 Y92.132 E3.85140
G1 X100.974 Y92.103 E3.86194
G1 X93.578 Y99.499 E4.15248
G1 X93.557 Y100.230 E4.17280
G1 X101.724 Y92.063 E4.49363
G1 X102.428 Y92.069 E4.51318
G1 X93.587 Y100.909 E4.86047
G1 X93.600 Y101.188 E4.86821
G1 X93.649 Y101.558 E4.87857
G1 X97.969 Y97.238 E5.04826
G1 X97.782 Y97.775 E5.06406
G1 X97.668 Y98.249 E5.07760
G1 X93.748 Y102.169 E5.23158
G1 X93.880 Y102.746 E5.24805
G1 X97.550 Y99.076 E5.39223
G1 X97.521 Y99.816 E5.41280
G1 X94.055 Y103.282 E5.54895
G1 X94.262 Y103.785 E5.56406
G1 X97.548 Y100.499 E5.69314
G1 X97.624 Y101.132 E5.71086
G1 X94.497 Y104.260 E5.83372
G1 X94.758 Y104.709 E5.84815
G1 X97.749 Y101.718 E5.96566
G1 X97.920 Y102.257 E5.98137
G1 X95.054 Y105.123 E6.09396
G1 X95.237 Y105.353 E6.10214
G1 X95.380 Y105.506 E6.10797
G1 X98.136 Y102.751 E6.21622
G1 X98.396 Y103.201 E6.23066
G1 X95.724 Y105.872 E6.33560
G1 X96.105 Y106.202 E6.34958
G1 X98.697 Y103.609 E6.45141
G1 X99.039 Y103.978 E6.46537
G1 X96.508 Y106.509 E6.56480
G1 X96.934 Y106.793 E6.57902
G1 X99.423 Y104.304 E6.67681
G1 X99.853 Y104.583 E6.69106
G1 X97.393 Y107.044 E6.78771
G1 X97.560 Y107.135 E6.79299
G1 X97.882 Y107.265 E6.80263
G1 X100.332 Y104.815 E6.89890
G1 X100.865 Y104.992 E6.91449
G1 X98.391 Y107.466 E7.01167
G1 X98.938 Y107.629 E7.02753
G1 X101.455 Y105.112 E7.12641
G1 X102.112 Y105.165 E7.14472
G1 X99.525 Y107.752 E7.24634
G1 X99.866 Y107.821 E7.25600
G1 X100.137 Y107.849 E7.26358
G1 X102.837 Y105.150 E7.36964
G1 X103.647 Y105.050 E7.39231
G1 X100.779 Y107.918 E7.50497
G1 X101.465 Y107.941 E7.52405
G1 X104.597 Y104.810 E7.64707
G1 X105.100 Y104.626 E7.66195
G1 X105.841 Y104.276 E7.68471
G1 X102.192 Y107.925 E7.82806
G1 X102.975 Y107.852 E7.84991
G1 X106.445 Y104.381 E7.98624
G1 X106.445 Y105.091 E8.00597
G1 X103.846 Y107.691 E8.10808
G1 X104.263 Y107.592 E8.11997
G1 X104.836 Y107.411 E8.13668
G1 X106.445 Y105.801 E8.19990
G1 X106.445 Y106.511 E8.21962
G1 X106.063 Y106.894 E8.23463
G1 Z2.400 F7800.000
G1 X106.445 Y104.850 F7800.000
G1 F2688.65
G1 X105.725 Y104.129 E8.26293
G1 X105.262 Y104.377 E8.27751
G1 X106.445 Y105.560 E8.32399
G1 X106.445 Y106.270 E8.34372
G1 X104.776 Y104.601 E8.40930
G1 X104.261 Y104.795 E8.42460
G1 X106.386 Y106.921 E8.50811
G1 X105.904 Y107.148 E8.52293
G1 X103.709 Y104.954 E8.60913
G1 X103.119 Y105.074 E8.62586
G1 X105.396 Y107.351 E8.71529
G1 X104.859 Y107.524 E8.73096
G1 X102.482 Y105.147 E8.82433
G1 X101.792 Y105.167 E8.84351
G1 X104.299 Y107.674 E8.94199
G1 X103.711 Y107.796 E8.95866
G1 X101.019 Y105.104 E9.06441
G1 X100.646 Y105.034 E9.07496
G1 X100.066 Y104.861 E9.09179
G1 X95.724 Y105.490 F7800.000
G1 F2688.65
G1 X96.109 Y105.875 E9.10693
G1 X96.641 Y106.335 E9.12646
G1 X97.216 Y106.737 E9.14594
G1 X97.945 Y107.136 E9.16902
G1 X98.172 Y107.228 E9.17584
G1 X94.194 Y103.249 E9.33214
G1 X94.100 Y103.038 E9.33855
G1 X93.874 Y102.347 E9.35875
G1 X93.837 Y102.182 E9.36345
G1 X99.268 Y107.614 E9.57682
G1 X100.169 Y107.804 E9.60238
G1 X93.666 Y101.301 E9.85784
G1 X93.602 Y100.832 E9.87100
G1 X93.584 Y100.510 E9.87995
G1 X100.971 Y107.897 E10.17013
G1 X101.722 Y107.938 E10.19103
G1 X93.562 Y99.778 E10.51159
G1 X93.578 Y99.083 E10.53088
G1 X102.424 Y107.930 E10.87840
G1 X103.085 Y107.880 E10.89680
G1 X100.447 Y105.242 E11.00040
G1 X99.985 Y105.038 E11.01445
G1 X99.683 Y104.866 E11.02410
G1 X99.252 Y104.551 E11.03893
G1 X98.998 Y104.322 E11.04843
G1 X98.628 Y103.908 E11.06385
G1 X98.423 Y103.625 E11.07354
G1 X98.206 Y103.267 E11.08520
G1 X97.969 Y102.764 E11.10063
G1 X93.646 Y98.441 E11.27046
G1 X93.746 Y97.831 E11.28763
G1 X97.668 Y101.753 E11.44171
G1 X97.596 Y101.330 E11.45363
G1 X97.551 Y100.926 E11.46492
G1 X93.883 Y97.258 E11.60903
G1 X93.951 Y97.007 E11.61625
G1 X94.058 Y96.723 E11.62469
G1 X97.521 Y100.185 E11.76071
G1 X97.547 Y99.502 E11.77972
G1 X94.255 Y96.210 E11.90905
G1 X94.498 Y95.742 E11.92367
G1 X97.624 Y98.869 E12.04648
G1 X97.749 Y98.283 E12.06311
G1 X94.763 Y95.298 E12.18039
G1 X95.053 Y94.877 E12.19457
G1 X97.919 Y97.744 E12.30718
G1 X98.135 Y97.249 E12.32217
G1 X95.379 Y94.493 E12.43043
G1 X95.482 Y94.372 E12.43487
G1 X95.730 Y94.135 E12.44440
G1 X98.396 Y96.800 E12.54910
G1 X98.697 Y96.391 E12.56320
G1 X96.103 Y93.797 E12.66509
G1 X96.503 Y93.487 E12.67915
G1 X99.038 Y96.022 E12.77873
G1 X99.423 Y95.697 E12.79273
G1 X96.936 Y93.210 E12.89046
G1 X97.156 Y93.072 E12.89768
G1 X97.393 Y92.957 E12.90499
G1 X99.852 Y95.416 E13.00161
G1 X100.331 Y95.185 E13.01638
G1 X97.875 Y92.729 E13.11286
G1 X98.392 Y92.536 E13.12819
G1 X100.864 Y95.007 E13.22527
G1 X101.454 Y94.888 E13.24201
G1 X98.943 Y92.377 E13.34066
G1 X99.230 Y92.299 E13.34892
G1 X99.523 Y92.247 E13.35718
G1 X102.110 Y94.833 E13.45881
G1 X102.838 Y94.851 E13.47902
G1 X100.134 Y92.148 E13.58521
G1 X100.783 Y92.086 E13.60332
G1 X103.648 Y94.951 E13.71587
G1 X104.097 Y95.046 E13.72860
G1 X104.598 Y95.191 E13.74308
G1 X101.470 Y92.063 E13.86594
G1 X102.193 Y92.076 E13.88604
G1 X105.841 Y95.724 E14.02932
G1 X106.445 Y96.075 E14.04874
G1 X106.445 Y95.618 E14.06142
G1 X102.986 Y92.159 E14.19733
G1 X103.366 Y92.206 E14.20796
G1 X103.846 Y92.309 E14.22161
G1 X106.445 Y94.908 E14.32372
G1 X106.445 Y94.198 E14.34345
G1 X104.841 Y92.593 E14.40649
G1 X105.550 Y92.862 E14.42756
G1 X106.063 Y93.106 E14.44335
G1 X106.445 Y93.488 E14.45836
G1 Z2.800 F7800.000
G1 E12.45836 F2400.00000
G92 E0
G1 X105.725 Y95.871 F7800.000
G1 E2.00000 F2400.00000
G1 F2692.92
G1 X106.445 Y95.151 E2.02831
G1 X106.445 Y94.441 E2.04803
G1 X105.263 Y95.623 E2.09447
G1 X104.777 Y95.399 E2.10933
G1 X106.445 Y93.731 E2.17486
G1 X106.445 Y93.106 E2.19220
G1 X106.387 Y93.079 E2.19399
G1 X104.260 Y95.206 E2.27755
G1 X103.711 Y95.045 E2.29345
G1 X105.906 Y92.850 E2.37967
G1 X105.394 Y92.652 E2.39491
G1 X103.119 Y94.926 E2.48426
G1 X102.483 Y94.853 E2.50206
G1 X104.864 Y92.472 E2.59560
G1 X104.301 Y92.325 E2.61177
G1 X101.794 Y94.832 E2.71027
G1 X101.323 Y94.858 E2.72336
G1 X101.020 Y94.896 E2.73183
G1 X103.714 Y92.201 E2.83767
G1 X103.084 Y92.122 E2.85532
G1 X100.068 Y95.138 E2.97382
G1 X99.721 Y95.285 E2.98427
G1 X99.268 Y95.538 E2.99869
G1 X98.890 Y95.814 E3.01167
G1 X98.648 Y96.030 E3.02070
G1 X98.281 Y96.431 E3.03578
G1 X98.061 Y96.726 E3.04602
G1 X97.778 Y97.201 E3.06137
G1 X97.588 Y97.618 E3.07411
G1 X95.873 Y94.363 F7800.000
G1 F2692.92
G1 X95.487 Y94.749 E3.08927
G1 X95.037 Y95.277 E3.10855
G1 X94.625 Y95.882 E3.12889
G1 X94.245 Y96.611 E3.15172
G1 X94.190 Y96.756 E3.15601
G1 X98.192 Y92.754 E3.31321
G1 X98.852 Y92.506 E3.33280
G1 X99.265 Y92.391 E3.34471
G1 X93.833 Y97.823 E3.55810
G1 X93.788 Y97.989 E3.56288
G1 X93.663 Y98.702 E3.58300
G1 X100.170 Y92.196 E3.83859
G1 X100.977 Y92.099 E3.86119
G1 X93.577 Y99.499 E4.15190
G1 X93.561 Y100.225 E4.17207
G1 X101.717 Y92.068 E4.49248
G1 X102.426 Y92.070 E4.51215
G1 X93.585 Y100.910 E4.85942
G1 X93.604 Y101.240 E4.86861
G1 X93.648 Y101.558 E4.87750
G1 X97.970 Y97.236 E5.04727
G1 X97.803 Y97.704 E5.06106
G1 X97.668 Y98.247 E5.07662
G1 X93.747 Y102.169 E5.23067
G1 X93.879 Y102.747 E5.24713
G1 X97.550 Y99.076 E5.39134
G1 X97.521 Y99.815 E5.41190
G1 X94.055 Y103.281 E5.54805
G1 X94.261 Y103.785 E5.56317
G1 X97.547 Y100.499 E5.69226
G1 X97.624 Y101.132 E5.70998
G1 X94.496 Y104.260 E5.83284
G1 X94.758 Y104.708 E5.84727
G1 X97.749 Y101.717 E5.96476
G1 X97.920 Y102.256 E5.98047
G1 X95.054 Y105.122 E6.09307
G1 X95.250 Y105.369 E6.10184
G1 X95.380 Y105.506 E6.10707
G1 X98.136 Y102.750 E6.21535
G1 X98.396 Y103.200 E6.22979
G1 X95.724 Y105.872 E6.33474
G1 X96.104 Y106.202 E6.34872
G1 X98.697 Y103.609 E6.45057
G1 X99.038 Y103.978 E6.46453
G1 X96.507 Y106.509 E6.56396
G1 X96.934 Y106.792 E6.57819
G1 X99.423 Y104.303 E6.67595
G1 X99.853 Y104.583 E6.69021
G1 X97.393 Y107.043 E6.78685
G1 X97.566 Y107.137 E6.79231
G1 X97.882 Y107.265 E6.80177
G1 X100.332 Y104.814 E6.89803
G1 X100.864 Y104.992 E6.91362
G1 X98.389 Y107.467 E7.01086
G1 X98.937 Y107.629 E7.02673
G1 X101.455 Y105.111 E7.12565
G1 X102.111 Y105.165 E7.14393
G1 X99.525 Y107.751 E7.24551
G1 X99.886 Y107.824 E7.25573
G1 X100.137 Y107.849 E7.26274
G1 X102.837 Y105.149 E7.36883
G1 X103.647 Y105.049 E7.39149
G1 X100.781 Y107.916 E7.50411
G1 X101.465 Y107.942 E7.52312
G1 X104.597 Y104.809 E7.64617
G1 X105.075 Y104.636 E7.66030
G1 X105.841 Y104.276 E7.68381
G1 X102.193 Y107.924 E7.82712
G1 X102.977 Y107.850 E7.84900
G1 X106.445 Y104.381 E7.98527
G1 X106.445 Y105.091 E8.00499
G1 X103.847 Y107.690 E8.10708
G1 X104.258 Y107.593 E8.11882
G1 X104.838 Y107.409 E8.13572
G1 X106.445 Y105.801 E8.19888
G1 X106.445 Y106.511 E8.21860
G1 X106.063 Y106.893 E8.23361
G1 Z3.200 F7800.000
G1 X106.445 Y104.850 F7800.000
G1 F2689.23
G1 X105.725 Y104.129 E8.26191
G1 X105.262 Y104.376 E8.27649
G1 X106.445 Y105.560 E8.32299
G1 X106.445 Y106.270 E8.34271
G1 X104.776 Y104.600 E8.40830
G1 X104.260 Y104.795 E8.42361
G1 X106.390 Y106.924 E8.50725
G1 X105.899 Y107.143 E8.52219
G1 X103.709 Y104.954 E8.60820
G1 X103.119 Y105.073 E8.62494
G1 X105.397 Y107.351 E8.71443
G1 X104.859 Y107.523 E8.73012
G1 X102.482 Y105.146 E8.82350
G1 X101.792 Y105.167 E8.84266
G1 X104.298 Y107.673 E8.94111
G1 X103.710 Y107.795 E8.95780
G1 X101.019 Y105.104 E9.06352
G1 X100.655 Y105.036 E9.07380
G1 X100.066 Y104.861 E9.09087
G1 X95.728 Y105.494 F7800.000
G1 F2689.23
G1 X96.114 Y105.880 E9.10604
G1 X96.635 Y106.330 E9.12516
G1 X97.196 Y106.725 E9.14423
G1 X97.953 Y107.140 E9.16819
G1 X98.181 Y107.237 E9.17510
G1 X94.186 Y103.241 E9.33207
G1 X94.102 Y103.043 E9.33803
G1 X93.879 Y102.365 E9.35786
G1 X93.837 Y102.182 E9.36308
G1 X99.267 Y107.613 E9.57639
G1 X100.168 Y107.803 E9.60196
G1 X93.665 Y101.301 E9.85740
G1 X93.607 Y100.885 E9.86905
G1 X93.584 Y100.509 E9.87951
G1 X100.970 Y107.895 E10.16967
G1 X101.274 Y107.926 E10.17815
G1 X101.723 Y107.939 E10.19064
G1 X93.563 Y99.778 E10.51120
G1 X93.580 Y99.085 E10.53047
G1 X102.424 Y107.929 E10.87789
G1 X103.091 Y107.886 E10.89646
G1 X100.447 Y105.242 E11.00030
G1 X99.939 Y105.014 E11.01576
G1 X99.692 Y104.871 E11.02372
G1 X99.455 Y104.710 E11.03166
G1 X99.016 Y104.339 E11.04764
G1 X98.624 Y103.903 E11.06392
G1 X98.449 Y103.665 E11.07211
G1 X98.196 Y103.249 E11.08565
G1 X97.969 Y102.764 E11.10051
G1 X93.648 Y98.443 E11.27026
G1 X93.676 Y98.189 E11.27737
G1 X93.745 Y97.830 E11.28752
G1 X97.668 Y101.753 E11.44161
G1 X97.551 Y100.926 E11.46480
G1 X93.882 Y97.257 E11.60894
G1 X93.943 Y97.030 E11.61548
G1 X94.059 Y96.723 E11.62457
G1 X97.521 Y100.185 E11.76057
G1 X97.547 Y99.502 E11.77957
G1 X94.255 Y96.210 E11.90891
G1 X94.499 Y95.743 E11.92353
G1 X97.624 Y98.869 E12.04632
G1 X97.749 Y98.284 E12.06294
G1 X94.763 Y95.297 E12.18027
G1 X95.052 Y94.876 E12.19445
G1 X97.920 Y97.744 E12.30711
G1 X98.135 Y97.250 E12.32210
G1 X95.379 Y94.493 E12.43037
G1 X95.493 Y94.360 E12.43525
G1 X95.730 Y94.134 E12.44434
G1 X98.396 Y96.800 E12.54906
G1 X98.697 Y96.391 E12.56317
G1 X96.103 Y93.797 E12.66507
G1 X96.503 Y93.487 E12.67913
G1 X99.038 Y96.022 E12.77873
G1 X99.424 Y95.698 E12.79273
G1 X96.935 Y93.209 E12.89048
G1 X97.137 Y93.083 E12.89709
G1 X97.393 Y92.956 E12.90502
G1 X99.852 Y95.416 E13.00165
G1 X100.331 Y95.185 E13.01642
G1 X97.876 Y92.730 E13.11287
G1 X98.390 Y92.534 E13.12817
G1 X100.863 Y95.007 E13.22531
G1 X101.454 Y94.888 E13.24205
G1 X98.942 Y92.375 E13.34076
G1 X99.523 Y92.246 E13.35729
G1 X102.110 Y94.833 E13.45892
G1 X102.838 Y94.851 E13.47915
G1 X100.134 Y92.148 E13.58536
G1 X100.779 Y92.082 E13.60336
G1 X103.648 Y94.952 E13.71608
G1 X104.117 Y95.051 E13.72937
G1 X104.598 Y95.191 E13.74330
G1 X101.471 Y92.064 E13.86615
G1 X101.747 Y92.057 E13.87381
G1 X102.195 Y92.078 E13.88628
G1 X105.840 Y95.723 E14.02948
G1 X106.445 Y96.075 E14.04892
G1 X106.445 Y95.619 E14.06160
G1 X102.983 Y92.156 E14.19762
G1 X103.350 Y92.203 E14.20789
G1 X103.847 Y92.310 E14.22201
G1 X106.445 Y94.909 E14.32410
G1 X106.445 Y94.198 E14.34382
G1 X104.841 Y92.594 E14.40684
G1 X105.510 Y92.844 E14.42666
G1 X106.063 Y93.106 E14.44367
G1 X106.445 Y93.488 E14.45868
G1 Z3.600 F7800.000
G1 E12.45868 F2400.00000
G92 E0
G1 X105.728 Y95.873 F7800.000
G1 E2.00000 F2400.00000
G1 F2699.76
G1 X106.445 Y95.156 E2.02818
G1 X106.445 Y94.446 E2.04790
G1 X105.267 Y95.624 E2.09421
G1 X104.781 Y95.400 E2.10907
G1 X106.445 Y93.736 E2.17445
G1 X106.445 Y93.106 E2.19194
G1 X106.391 Y93.080 E2.19362
G1 X104.264 Y95.207 E2.27716
G1 X103.715 Y95.046 E2.29305
G1 X105.909 Y92.852 E2.37925
G1 X105.398 Y92.653 E2.39449
G1 X103.124 Y94.927 E2.48381
G1 X102.488 Y94.853 E2.50160
G1 X104.868 Y92.473 E2.59510
G1 X104.306 Y92.326 E2.61125
G1 X101.799 Y94.832 E2.70971
G1 X101.323 Y94.858 E2.72296
G1 X101.027 Y94.895 E2.73125
G1 X103.720 Y92.202 E2.83702
G1 X103.089 Y92.122 E2.85466
G1 X100.077 Y95.135 E2.97301
G1 X99.721 Y95.285 E2.98372
G1 X99.268 Y95.538 E2.99815
G1 X98.890 Y95.814 E3.01113
G1 X98.648 Y96.030 E3.02016
G1 X98.281 Y96.431 E3.03524
G1 X98.061 Y96.726 E3.04548
G1 X97.778 Y97.201 E3.06083
G1 X97.584 Y97.628 E3.07386
G1 X96.229 Y94.013 F7800.000
G1 F2699.76
G1 X95.353 Y94.895 E3.10839
G1 X94.891 Y95.476 E3.12902
G1 X94.481 Y96.134 E3.15054
G1 X94.179 Y96.773 E3.17018
G1 X98.202 Y92.750 E3.32823
G1 X98.801 Y92.522 E3.34603
G1 X99.273 Y92.390 E3.35963
G1 X93.839 Y97.823 E3.57307
G1 X93.733 Y98.248 E3.58523
G1 X93.659 Y98.713 E3.59834
G1 X100.178 Y92.195 E3.85442
G1 X100.984 Y92.098 E3.87699
G1 X93.586 Y99.496 E4.16763
G1 X93.560 Y99.835 E4.17705
G1 X93.563 Y100.229 E4.18800
G1 X101.725 Y92.067 E4.50862
G1 X102.108 Y92.057 E4.51926
G1 X102.431 Y92.071 E4.52824
G1 X93.584 Y100.918 E4.87577
G1 X93.643 Y101.568 E4.89391
G1 X97.966 Y97.246 E5.06371
G1 X97.792 Y97.742 E5.07832
G1 X97.667 Y98.255 E5.09298
G1 X93.746 Y102.175 E5.24699
G1 X93.886 Y102.745 E5.26329
G1 X97.550 Y99.082 E5.40720
G1 X97.521 Y99.821 E5.42773
G1 X94.054 Y103.287 E5.56392
G1 X94.257 Y103.794 E5.57908
G1 X97.548 Y100.504 E5.70834
G1 X97.625 Y101.137 E5.72605
G1 X94.498 Y104.263 E5.84887
G1 X94.597 Y104.452 E5.85480
G1 X94.765 Y104.706 E5.86326
G1 X97.750 Y101.721 E5.98051
G1 X97.921 Y102.260 E5.99621
G1 X95.058 Y105.123 E6.10870
G1 X95.379 Y105.512 E6.12270
G1 X98.138 Y102.753 E6.23107
G1 X98.398 Y103.203 E6.24551
G1 X95.727 Y105.875 E6.35044
G1 X96.104 Y106.207 E6.36442
G1 X98.699 Y103.612 E6.46638
G1 X99.041 Y103.980 E6.48034
G1 X96.508 Y106.513 E6.57985
G1 X96.941 Y106.790 E6.59413
G1 X99.425 Y104.305 E6.69173
G1 X99.856 Y104.585 E6.70599
G1 X97.392 Y107.049 E6.80278
G1 X97.877 Y107.273 E6.81763
G1 X100.335 Y104.815 E6.91420
G1 X100.868 Y104.993 E6.92979
G1 X98.400 Y107.460 E7.02673
G1 X98.669 Y107.556 E7.03466
G1 X98.944 Y107.626 E7.04254
G1 X101.459 Y105.112 E7.14133
G1 X102.115 Y105.166 E7.15961
G1 X99.527 Y107.754 E7.26128
G1 X100.136 Y107.854 E7.27843
G1 X102.842 Y105.149 E7.38472
G1 X103.652 Y105.048 E7.40740
G1 X100.791 Y107.909 E7.51979
G1 X101.471 Y107.940 E7.53869
G1 X104.603 Y104.808 E7.66173
G1 X105.075 Y104.636 E7.67569
G1 X105.849 Y104.271 E7.69945
G1 X102.198 Y107.922 E7.84289
G1 X102.979 Y107.851 E7.86468
G1 X106.445 Y104.384 E8.00086
G1 X106.445 Y105.094 E8.02058
G1 X103.843 Y107.697 E8.12281
G1 X104.838 Y107.412 E8.15156
G1 X106.445 Y105.804 E8.21471
G1 X106.445 Y106.514 E8.23443
G1 X106.063 Y106.896 E8.24944
G1 Z4.000 F7800.000
G1 X106.445 Y104.850 F7800.000
G1 F2688.87
G1 X105.725 Y104.129 E8.27774
G1 X105.262 Y104.377 E8.29232
G1 X106.445 Y105.560 E8.33880
G1 X106.445 Y106.270 E8.35853
G1 X104.776 Y104.601 E8.42411
G1 X104.261 Y104.795 E8.43942
G1 X106.389 Y106.924 E8.52303
G1 X105.900 Y107.144 E8.53794
G1 X103.709 Y104.954 E8.62398
G1 X103.119 Y105.074 E8.64072
G1 X105.396 Y107.351 E8.73017
G1 X104.860 Y107.525 E8.74583
G1 X102.482 Y105.147 E8.83925
G1 X101.792 Y105.167 E8.85843
G1 X104.301 Y107.676 E8.95701
G1 X103.710 Y107.795 E8.97377
G1 X101.019 Y105.104 E9.07948
G1 X100.646 Y105.034 E9.09002
G1 X100.065 Y104.861 E9.10686
G1 X95.719 Y105.485 F7800.000
G1 F2688.87
G1 X96.110 Y105.876 E9.12222
G1 X96.432 Y106.165 E9.13425
G1 X96.992 Y106.591 E9.15380
G1 X97.667 Y106.997 E9.17568
G1 X98.187 Y107.244 E9.19168
G1 X94.185 Y103.241 E9.34890
G1 X93.954 Y102.618 E9.36738
G1 X93.840 Y102.186 E9.37978
G1 X99.264 Y107.610 E9.59288
G1 X99.688 Y107.718 E9.60501
G1 X100.160 Y107.795 E9.61830
G1 X93.663 Y101.298 E9.87352
G1 X93.582 Y100.508 E9.89561
G1 X100.969 Y107.895 E10.18581
G1 X101.724 Y107.939 E10.20681
G1 X93.563 Y99.778 E10.52740
G1 X93.561 Y99.438 E10.53686
G1 X93.587 Y99.092 E10.54649
G1 X102.429 Y107.934 E10.89384
G1 X103.085 Y107.881 E10.91213
G1 X100.447 Y105.242 E11.01578
G1 X99.985 Y105.038 E11.02981
G1 X99.683 Y104.866 E11.03946
G1 X99.252 Y104.551 E11.05429
G1 X98.998 Y104.322 E11.06379
G1 X98.628 Y103.908 E11.07921
G1 X98.423 Y103.625 E11.08891
G1 X98.206 Y103.267 E11.10056
G1 X97.969 Y102.765 E11.11598
G1 X93.643 Y98.438 E11.28594
G1 X93.748 Y97.833 E11.30299
G1 X97.668 Y101.753 E11.45699
G1 X97.596 Y101.330 E11.46892
G1 X97.551 Y100.926 E11.48020
G1 X93.883 Y97.258 E11.62431
G1 X93.951 Y97.007 E11.63154
G1 X94.058 Y96.723 E11.63997
G1 X97.521 Y100.186 E11.77600
G1 X97.547 Y99.502 E11.79501
G1 X94.254 Y96.209 E11.92435
G1 X94.492 Y95.736 E11.93905
G1 X97.624 Y98.869 E12.06210
G1 X97.749 Y98.283 E12.07872
G1 X94.764 Y95.299 E12.19597
G1 X94.929 Y95.041 E12.20447
G1 X95.057 Y94.882 E12.21015
G1 X97.919 Y97.744 E12.32259
G1 X98.135 Y97.249 E12.33758
G1 X95.375 Y94.489 E12.44600
G1 X95.729 Y94.134 E12.45995
G1 X98.395 Y96.800 E12.56468
G1 X98.697 Y96.391 E12.57879
G1 X96.106 Y93.800 E12.68055
G1 X96.505 Y93.489 E12.69461
G1 X99.038 Y96.022 E12.79411
G1 X99.423 Y95.697 E12.80811
G1 X96.936 Y93.210 E12.90583
G1 X97.394 Y92.958 E12.92036
G1 X99.852 Y95.416 E13.01693
G1 X100.331 Y95.185 E13.03171
G1 X97.878 Y92.732 E13.12807
G1 X98.389 Y92.533 E13.14331
G1 X100.863 Y95.007 E13.24051
G1 X101.454 Y94.888 E13.25725
G1 X98.941 Y92.375 E13.35596
G1 X99.523 Y92.247 E13.37251
G1 X102.110 Y94.833 E13.47413
G1 X102.837 Y94.851 E13.49434
G1 X100.135 Y92.149 E13.60050
G1 X100.780 Y92.083 E13.61849
G1 X103.648 Y94.951 E13.73118
G1 X104.097 Y95.046 E13.74391
G1 X104.598 Y95.191 E13.75839
G1 X101.470 Y92.063 E13.88125
G1 X102.194 Y92.077 E13.90138
G1 X105.841 Y95.724 E14.04462
G1 X106.445 Y96.075 E14.06404
G1 X106.445 Y95.618 E14.07672
G1 X102.986 Y92.159 E14.21263
G1 X103.366 Y92.206 E14.22326
G1 X103.846 Y92.309 E14.23691
G1 X106.445 Y94.908 E14.33903
G1 X106.445 Y94.198 E14.35875
G1 X104.841 Y92.593 E14.42179
G1 X105.550 Y92.862 E14.44286
G1 X106.063 Y93.106 E14.45865
G1 X106.445 Y93.488 E14.47366
G1 Z4.400 F7800.000
G1 E12.47366 F2400.00000
G92 E0
G1 X105.729 Y95.873 F7800.000
G1 E2.00000 F2400.00000
G1 F2692.54
G1 X106.445 Y95.157 E2.02816
G1 X106.445 Y94.447 E2.04787
G1 X105.268 Y95.625 E2.09415
G1 X104.782 Y95.400 E2.10900
G1 X106.445 Y93.737 E2.17435
G1 X106.445 Y93.106 E2.19188
G1 X106.392 Y93.080 E2.19352
G1 X104.266 Y95.207 E2.27706
G1 X103.716 Y95.046 E2.29295
G1 X105.910 Y92.853 E2.37911
G1 X105.400 Y92.653 E2.39433
G1 X103.126 Y94.927 E2.48365
G1 X102.490 Y94.853 E2.50143
G1 X104.870 Y92.473 E2.59492
G1 X104.308 Y92.325 E2.61106
G1 X101.801 Y94.832 E2.70954
G1 X101.339 Y94.856 E2.72238
G1 X101.029 Y94.894 E2.73106
G1 X103.721 Y92.202 E2.83682
G1 X103.097 Y92.117 E2.85434
G1 X100.080 Y95.134 E2.97285
G1 X99.720 Y95.285 E2.98368
G1 X99.279 Y95.531 E2.99771
G1 X98.901 Y95.805 E3.01068
G1 X98.626 Y96.052 E3.02095
G1 X98.256 Y96.460 E3.03625
G1 X98.036 Y96.765 E3.04671
G1 X97.753 Y97.250 E3.06229
G1 X97.582 Y97.632 E3.07391
G1 X95.807 Y94.438 F7800.000
G1 F2692.54
G1 X95.383 Y94.862 E3.09056
G1 X94.938 Y95.409 E3.11014
G1 X94.526 Y96.052 E3.13134
G1 X94.244 Y96.612 E3.14878
G1 X94.184 Y96.771 E3.15348
G1 X98.197 Y92.757 E3.31115
G1 X98.751 Y92.539 E3.32768
G1 X99.276 Y92.388 E3.34286
G1 X93.831 Y97.833 E3.55677
G1 X93.782 Y98.017 E3.56206
G1 X93.661 Y98.713 E3.58168
G1 X100.181 Y92.193 E3.83782
G1 X100.987 Y92.097 E3.86036
G1 X93.584 Y99.500 E4.15116
G1 X93.561 Y99.805 E4.15967
G1 X93.563 Y100.231 E4.17148
G1 X101.728 Y92.066 E4.49221
G1 X102.433 Y92.071 E4.51180
G1 X93.585 Y100.919 E4.85939
G1 X93.644 Y101.570 E4.87753
G1 X97.964 Y97.250 E5.04723
G1 X97.782 Y97.775 E5.06266
G1 X97.666 Y98.258 E5.07646
G1 X93.747 Y102.177 E5.23041
G1 X93.887 Y102.746 E5.24670
G1 X97.550 Y99.083 E5.39058
G1 X97.521 Y99.822 E5.41112
G1 X94.054 Y103.289 E5.54730
G1 X94.257 Y103.796 E5.56247
G1 X97.548 Y100.505 E5.69174
G1 X97.625 Y101.138 E5.70945
G1 X94.499 Y104.264 E5.83227
G1 X94.591 Y104.442 E5.83784
G1 X94.766 Y104.707 E5.84665
G1 X97.750 Y101.722 E5.96388
G1 X97.922 Y102.261 E5.97957
G1 X95.059 Y105.124 E6.09205
G1 X95.380 Y105.512 E6.10605
G1 X98.138 Y102.754 E6.21439
G1 X98.398 Y103.204 E6.22882
G1 X95.727 Y105.875 E6.33374
G1 X96.105 Y106.207 E6.34771
G1 X98.700 Y103.612 E6.44963
G1 X99.041 Y103.981 E6.46358
G1 X96.508 Y106.514 E6.56310
G1 X96.941 Y106.791 E6.57737
G1 X99.426 Y104.306 E6.67499
G1 X99.856 Y104.585 E6.68924
G1 X97.394 Y107.048 E6.78599
G1 X97.877 Y107.274 E6.80081
G1 X100.335 Y104.816 E6.89739
G1 X100.868 Y104.993 E6.91298
G1 X98.400 Y107.461 E7.00994
G1 X98.656 Y107.552 E7.01750
G1 X98.945 Y107.626 E7.02577
G1 X101.459 Y105.112 E7.12451
G1 X102.115 Y105.166 E7.14280
G1 X99.526 Y107.755 E7.24450
G1 X100.136 Y107.854 E7.26168
G1 X102.841 Y105.149 E7.36794
G1 X103.651 Y105.049 E7.39062
G1 X100.790 Y107.910 E7.50301
G1 X101.471 Y107.939 E7.52193
G1 X104.602 Y104.808 E7.64492
G1 X105.100 Y104.626 E7.65967
G1 X105.848 Y104.272 E7.68264
G1 X102.194 Y107.926 E7.82616
G1 X102.980 Y107.850 E7.84809
G1 X106.445 Y104.384 E7.98422
G1 X106.445 Y105.094 E8.00393
G1 X103.844 Y107.696 E8.10613
G1 X104.595 Y107.494 E8.12774
G1 X104.838 Y107.411 E8.13488
G1 X106.445 Y105.804 E8.19801
G1 X106.445 Y106.514 E8.21773
G1 X106.063 Y106.896 E8.23274
G1 Z4.800 F7800.000
G1 X106.445 Y104.850 F7800.000
G1 F2689.31
G1 X105.725 Y104.129 E8.26105
G1 X105.262 Y104.377 E8.27563
G1 X106.445 Y105.560 E8.32210
G1 X106.445 Y106.270 E8.34183
G1 X104.776 Y104.601 E8.40739
G1 X104.261 Y104.796 E8.42270
G1 X106.389 Y106.923 E8.50628
G1 X105.901 Y107.146 E8.52117
G1 X103.710 Y104.954 E8.60725
G1 X103.120 Y105.074 E8.62397
G1 X105.395 Y107.350 E8.71337
G1 X104.861 Y107.526 E8.72899
G1 X102.483 Y105.148 E8.82242
G1 X101.792 Y105.167 E8.84162
G1 X104.301 Y107.676 E8.94017
G1 X103.710 Y107.795 E8.95691
G1 X101.019 Y105.104 E9.06263
G1 X100.639 Y105.033 E9.07337
G1 X100.064 Y104.860 E9.09004
G1 X95.713 Y105.479 F7800.000
G1 F2689.31
G1 X96.409 Y106.146 E9.11680
G1 X96.980 Y106.583 E9.13678
G1 X97.640 Y106.983 E9.15822
G1 X98.185 Y107.242 E9.17499
G1 X94.185 Y103.241 E9.33214
G1 X93.960 Y102.638 E9.35002
G1 X93.840 Y102.186 E9.36299
G1 X99.263 Y107.609 E9.57601
G1 X99.726 Y107.726 E9.58927
G1 X100.160 Y107.796 E9.60151
G1 X93.663 Y101.299 E9.85674
G1 X93.583 Y100.509 E9.87881
G1 X100.970 Y107.896 E10.16901
G1 X101.723 Y107.939 E10.18997
G1 X93.563 Y99.779 E10.51053
G1 X93.562 Y99.409 E10.52081
G1 X93.586 Y99.092 E10.52964
G1 X102.428 Y107.934 E10.87699
G1 X103.086 Y107.881 E10.89532
G1 X100.446 Y105.242 E10.99902
G1 X100.025 Y105.058 E11.01178
G1 X99.690 Y104.870 E11.02247
G1 X99.271 Y104.567 E11.03681
G1 X98.983 Y104.307 E11.04760
G1 X98.631 Y103.912 E11.06229
G1 X98.400 Y103.590 E11.07331
G1 X98.155 Y103.169 E11.08685
G1 X97.970 Y102.765 E11.09917
G1 X93.643 Y98.438 E11.26916
G1 X93.747 Y97.832 E11.28624
G1 X97.669 Y101.754 E11.44029
G1 X97.597 Y101.337 E11.45203
G1 X97.552 Y100.927 E11.46351
G1 X93.884 Y97.259 E11.60760
G1 X93.958 Y96.984 E11.61550
G1 X94.057 Y96.722 E11.62328
G1 X97.521 Y100.186 E11.75934
G1 X97.547 Y99.502 E11.77835
G1 X94.255 Y96.210 E11.90767
G1 X94.497 Y95.742 E11.92231
G1 X97.624 Y98.869 E12.04514
G1 X97.748 Y98.283 E12.06178
G1 X94.762 Y95.296 E12.17910
G1 X95.057 Y94.881 E12.19325
G1 X97.919 Y97.744 E12.30569
G1 X98.135 Y97.249 E12.32068
G1 X95.376 Y94.490 E12.42906
G1 X95.399 Y94.463 E12.43005
G1 X95.731 Y94.135 E12.44301
G1 X98.395 Y96.799 E12.54768
G1 X98.697 Y96.391 E12.56179
G1 X96.106 Y93.800 E12.66356
G1 X96.503 Y93.487 E12.67760
G1 X99.038 Y96.022 E12.77721
G1 X99.423 Y95.697 E12.79121
G1 X96.933 Y93.207 E12.88904
G1 X97.391 Y92.955 E12.90356
G1 X99.852 Y95.416 E13.00025
G1 X100.331 Y95.185 E13.01502
G1 X97.874 Y92.727 E13.11155
G1 X97.939 Y92.699 E13.11352
G1 X98.391 Y92.534 E13.12689
G1 X100.864 Y95.007 E13.22403
G1 X101.454 Y94.888 E13.24077
G1 X98.941 Y92.374 E13.33951
G1 X99.523 Y92.247 E13.35607
G1 X102.111 Y94.834 E13.45770
G1 X102.837 Y94.850 E13.47789
G1 X100.136 Y92.149 E13.58399
G1 X100.780 Y92.083 E13.60199
G1 X103.648 Y94.951 E13.71465
G1 X104.077 Y95.041 E13.72681
G1 X104.597 Y95.190 E13.74184
G1 X101.469 Y92.062 E13.86472
G1 X102.193 Y92.076 E13.88484
G1 X105.842 Y95.725 E14.02818
G1 X106.445 Y96.075 E14.04756
G1 X106.445 Y95.618 E14.06026
G1 X102.975 Y92.148 E14.19658
G1 X103.378 Y92.208 E14.20789
G1 X103.845 Y92.308 E14.22116
G1 X106.445 Y94.908 E14.32330
G1 X106.445 Y94.198 E14.34303
G1 X104.840 Y92.592 E14.40610
G1 X105.590 Y92.879 E14.42841
G1 X106.063 Y93.106 E14.44298
G1 X106.445 Y93.488 E14.45799
G1 Z5.200 F7800.000
G1 E12.45799 F2400.00000
G92 E0
G1 X105.726 Y95.872 F7800.000
G1 E2.00000 F2400.00000
G1 F2692.59
G1 X106.445 Y95.152 E2.02827
G1 X106.445 Y94.442 E2.04799
G1 X105.265 Y95.623 E2.09438
G1 X104.779 Y95.399 E2.10925
G1 X106.445 Y93.732 E2.17472
G1 X106.445 Y93.106 E2.19213
G1 X106.389 Y93.079 E2.19387
G1 X104.262 Y95.205 E2.27741
G1 X103.712 Y95.046 E2.29333
G1 X105.905 Y92.852 E2.37949
G1 X105.396 Y92.651 E2.39469
G1 X103.122 Y94.926 E2.48404
G1 X102.485 Y94.852 E2.50183
G1 X104.865 Y92.473 E2.59531
G1 X104.304 Y92.324 E2.61144
G1 X101.795 Y94.833 E2.71000
G1 X101.356 Y94.855 E2.72222
G1 X101.022 Y94.896 E2.73156
G1 X103.716 Y92.202 E2.83738
G1 X103.090 Y92.117 E2.85492
G1 X100.069 Y95.139 E2.97361
G1 X99.719 Y95.286 E2.98413
G1 X99.290 Y95.523 E2.99776
G1 X98.911 Y95.796 E3.01074
G1 X98.604 Y96.073 E3.02224
G1 X98.256 Y96.461 E3.03671
G1 X98.010 Y96.804 E3.04843
G1 X97.745 Y97.264 E3.06317
G1 X97.586 Y97.621 E3.07403
G1 X95.852 Y94.385 F7800.000
G1 F2692.59
G1 X95.463 Y94.774 E3.08930
G1 X94.958 Y95.381 E3.11123
G1 X94.596 Y95.930 E3.12951
G1 X94.242 Y96.617 E3.15095
G1 X94.188 Y96.759 E3.15519
G1 X98.177 Y92.770 E3.31189
G1 X98.701 Y92.557 E3.32760
G1 X99.267 Y92.390 E3.34400
G1 X93.836 Y97.821 E3.55736
G1 X93.775 Y98.046 E3.56381
G1 X93.662 Y98.705 E3.58239
G1 X100.173 Y92.194 E3.83817
G1 X100.980 Y92.098 E3.86072
G1 X93.584 Y99.493 E4.15123
G1 X93.562 Y99.776 E4.15912
G1 X93.563 Y100.224 E4.17156
G1 X101.722 Y92.065 E4.49205
G1 X102.431 Y92.067 E4.51174
G1 X93.585 Y100.912 E4.85924
G1 X93.644 Y101.564 E4.87741
G1 X97.968 Y97.240 E5.04728
G1 X97.773 Y97.807 E5.06396
G1 X97.667 Y98.250 E5.07660
G1 X93.746 Y102.171 E5.23064
G1 X93.886 Y102.741 E5.24694
G1 X97.551 Y99.077 E5.39088
G1 X97.521 Y99.817 E5.41146
G1 X94.059 Y103.279 E5.54746
G1 X94.255 Y103.792 E5.56273
G1 X97.548 Y100.500 E5.69207
G1 X97.625 Y101.133 E5.70979
G1 X94.497 Y104.261 E5.83267
G1 X94.585 Y104.432 E5.83801
G1 X94.764 Y104.703 E5.84705
G1 X97.749 Y101.719 E5.96430
G1 X97.920 Y102.258 E5.98001
G1 X95.056 Y105.121 E6.09251
G1 X95.379 Y105.509 E6.10652
G1 X98.136 Y102.751 E6.21485
G1 X98.396 Y103.202 E6.22929
G1 X95.733 Y105.865 E6.33389
G1 X96.104 Y106.204 E6.34785
G1 X98.698 Y103.610 E6.44974
G1 X99.040 Y103.978 E6.46370
G1 X96.506 Y106.513 E6.56325
G1 X96.939 Y106.790 E6.57753
G1 X99.424 Y104.304 E6.67517
G1 X99.854 Y104.584 E6.68942
G1 X97.392 Y107.046 E6.78612
G1 X97.874 Y107.274 E6.80093
G1 X100.333 Y104.816 E6.89752
G1 X100.866 Y104.993 E6.91312
G1 X98.397 Y107.461 E7.01009
G1 X98.643 Y107.549 E7.01734
G1 X98.944 Y107.624 E7.02595
G1 X101.456 Y105.112 E7.12463
G1 X102.113 Y105.166 E7.14293
G1 X99.523 Y107.756 E7.24467
G1 X100.135 Y107.854 E7.26189
G1 X102.838 Y105.150 E7.36809
G1 X103.650 Y105.049 E7.39081
G1 X100.788 Y107.911 E7.50323
G1 X101.470 Y107.939 E7.52218
G1 X104.599 Y104.810 E7.64510
G1 X105.126 Y104.615 E7.66070
G1 X105.845 Y104.273 E7.68284
G1 X102.194 Y107.925 E7.82630
G1 X102.978 Y107.850 E7.84819
G1 X106.445 Y104.383 E7.98439
G1 X106.445 Y105.093 E8.00411
G1 X103.845 Y107.694 E8.10628
G1 X104.457 Y107.535 E8.12383
G1 X104.842 Y107.407 E8.13511
G1 X106.445 Y105.803 E8.19811
G1 X106.445 Y106.513 E8.21783
G1 X106.063 Y106.896 E8.23284
G1 Z5.600 F7800.000
G1 X106.445 Y104.849 F7800.000
G1 F2689.47
G1 X105.725 Y104.129 E8.26116
G1 X105.263 Y104.377 E8.27573
G1 X106.445 Y105.560 E8.32219
G1 X106.445 Y106.270 E8.34191
G1 X104.777 Y104.601 E8.40746
G1 X104.261 Y104.796 E8.42277
G1 X106.388 Y106.923 E8.50634
G1 X105.902 Y107.147 E8.52121
G1 X103.710 Y104.955 E8.60732
G1 X103.120 Y105.075 E8.62405
G1 X105.395 Y107.350 E8.71343
G1 X104.862 Y107.527 E8.72903
G1 X102.484 Y105.148 E8.82247
G1 X101.792 Y105.167 E8.84168
G1 X104.303 Y107.678 E8.94033
G1 X103.712 Y107.797 E8.95708
G1 X101.019 Y105.104 E9.06289
G1 X100.632 Y105.031 E9.07383
G1 X100.064 Y104.859 E9.09030
G1 X95.715 Y105.481 F7800.000
G1 F2689.47
G1 X96.100 Y105.866 E9.10543
G1 X96.654 Y106.345 E9.12577
G1 X97.255 Y106.762 E9.14608
G1 X97.933 Y107.131 E9.16751
G1 X98.173 Y107.229 E9.17473
G1 X94.195 Y103.251 E9.33101
G1 X94.098 Y103.032 E9.33766
G1 X93.836 Y102.182 E9.36237
G1 X99.266 Y107.612 E9.57566
G1 X100.171 Y107.807 E9.60137
G1 X93.664 Y101.300 E9.85699
G1 X93.582 Y100.507 E9.87912
G1 X100.978 Y107.904 E10.16967
G1 X101.720 Y107.936 E10.19031
G1 X93.556 Y99.772 E10.51104
G1 X93.583 Y99.089 E10.53002
G1 X102.426 Y107.932 E10.87740
G1 X103.089 Y107.885 E10.89587
G1 X100.446 Y105.241 E10.99971
G1 X100.135 Y105.112 E11.00905
G1 X99.689 Y104.869 E11.02316
G1 X99.291 Y104.583 E11.03679
G1 X98.968 Y104.292 E11.04886
G1 X98.634 Y103.916 E11.06281
G1 X98.376 Y103.555 E11.07516
G1 X98.135 Y103.130 E11.08872
G1 X97.970 Y102.766 E11.09983
G1 X93.647 Y98.443 E11.26966
G1 X93.688 Y98.115 E11.27883
G1 X93.749 Y97.834 E11.28682
G1 X97.669 Y101.754 E11.44083
G1 X97.598 Y101.345 E11.45237
G1 X97.552 Y100.927 E11.46405
G1 X93.880 Y97.255 E11.60829
G1 X94.055 Y96.720 E11.62394
G1 X97.521 Y100.185 E11.76009
G1 X97.547 Y99.502 E11.77910
G1 X94.261 Y96.215 E11.90820
G1 X94.393 Y95.918 E11.91725
G1 X94.496 Y95.741 E11.92294
G1 X97.624 Y98.868 E12.04581
G1 X97.748 Y98.282 E12.06245
G1 X94.757 Y95.292 E12.17992
G1 X94.773 Y95.266 E12.18077
G1 X95.058 Y94.882 E12.19404
G1 X97.919 Y97.743 E12.30643
G1 X98.135 Y97.249 E12.32141
G1 X95.381 Y94.495 E12.42961
G1 X95.725 Y94.129 E12.44357
G1 X98.395 Y96.799 E12.54845
G1 X98.697 Y96.391 E12.56255
G1 X96.106 Y93.800 E12.66432
G1 X96.294 Y93.638 E12.67120
G1 X96.507 Y93.491 E12.67841
G1 X99.039 Y96.023 E12.77785
G1 X99.423 Y95.697 E12.79184
G1 X96.931 Y93.205 E12.88975
G1 X97.392 Y92.955 E12.90430
G1 X99.853 Y95.416 E13.00097
G1 X100.331 Y95.184 E13.01573
G1 X97.880 Y92.733 E13.11202
G1 X98.394 Y92.537 E13.12730
G1 X100.864 Y95.007 E13.22435
G1 X101.455 Y94.888 E13.24109
G1 X98.939 Y92.372 E13.33993
G1 X99.524 Y92.247 E13.35657
G1 X102.111 Y94.834 E13.45818
G1 X102.837 Y94.850 E13.47835
G1 X100.137 Y92.150 E13.58442
G1 X100.781 Y92.084 E13.60241
G1 X103.649 Y94.951 E13.71506
G1 X104.060 Y95.037 E13.72673
G1 X104.597 Y95.189 E13.74223
G1 X101.468 Y92.060 E13.86513
G1 X102.190 Y92.072 E13.88518
G1 X105.843 Y95.726 E14.02872
G1 X106.445 Y96.076 E14.04806
G1 X106.445 Y95.618 E14.06078
G1 X102.977 Y92.149 E14.19705
G1 X103.394 Y92.211 E14.20877
G1 X103.845 Y92.307 E14.22156
G1 X106.445 Y94.908 E14.32374
G1 X106.445 Y94.197 E14.34346
G1 X104.839 Y92.591 E14.40656
G1 X105.631 Y92.897 E14.43011
G1 X106.063 Y93.105 E14.44346
G1 X106.445 Y93.487 E14.45847
G1 Z6.000 F7800.000
G1 E12.45847 F2400.00000
G92 E0
G1 X105.725 Y95.872 F7800.000
G1 E2.00000 F2400.00000
G1 F2696.81
G1 X106.445 Y95.151 E2.02832
G1 X106.445 Y94.440 E2.04805
G1 X105.263 Y95.623 E2.09450
G1 X104.777 Y95.398 E2.10936
G1 X106.445 Y93.730 E2.17489
G1 X106.445 Y93.105 E2.19226
G1 X106.388 Y93.077 E2.19403
G1 X104.261 Y95.205 E2.27759
G1 X103.710 Y95.045 E2.29352
G1 X105.903 Y92.852 E2.37967
G1 X105.395 Y92.650 E2.39486
G1 X103.120 Y94.925 E2.48423
G1 X102.484 Y94.851 E2.50202
G1 X104.863 Y92.473 E2.59547
G1 X104.303 Y92.322 E2.61158
G1 X101.792 Y94.833 E2.71020
G1 X101.372 Y94.853 E2.72188
G1 X101.018 Y94.896 E2.73178
G1 X103.713 Y92.202 E2.83763
G1 X103.089 Y92.116 E2.85514
G1 X100.064 Y95.141 E2.97397
G1 X99.719 Y95.286 E2.98437
G1 X99.302 Y95.516 E2.99759
G1 X98.921 Y95.788 E3.01058
G1 X98.581 Y96.095 E3.02331
G1 X98.255 Y96.462 E3.03694
G1 X97.971 Y96.863 E3.05060
G1 X97.738 Y97.279 E3.06384
G1 X97.588 Y97.617 E3.07411
G1 E1.07411 F2400.00000
G92 E0
G1 X96.093 Y94.141 F7800.000
G1 E2.00000 F2400.00000
G1 F2696.81
G1 X95.207 Y95.064 E2.03553
G1 X94.772 Y95.649 E2.05581
G1 X94.398 Y96.290 E2.07640
G1 X94.193 Y96.751 E2.09041
G1 X98.174 Y92.770 E2.24679
G1 X98.634 Y92.579 E2.26062
G1 X99.265 Y92.389 E2.27894
G1 X93.834 Y97.820 E2.49229
G1 X93.690 Y98.484 E2.51115
G1 X93.663 Y98.701 E2.51724
G1 X100.171 Y92.193 E2.77289
G1 X100.977 Y92.098 E2.79543
G1 X93.582 Y99.492 E3.08592
G1 X93.556 Y100.228 E3.10637
G1 X101.720 Y92.064 E3.42707
G1 X102.427 Y92.067 E3.44671
G1 X93.583 Y100.912 E3.79415
G1 X93.649 Y101.556 E3.81213
G1 X97.970 Y97.235 E3.98187
G1 X97.832 Y97.611 E3.99300
G1 X97.668 Y98.247 E4.01123
G1 X93.749 Y102.165 E4.16517
G1 X93.881 Y102.744 E4.18165
G1 X97.551 Y99.074 E4.32583
G1 X97.521 Y99.814 E4.34643
G1 X94.055 Y103.280 E4.48259
G1 X94.262 Y103.783 E4.49769
G1 X97.548 Y100.497 E4.62678
G1 X97.625 Y101.131 E4.64451
G1 X94.496 Y104.259 E4.76741
G1 X94.757 Y104.708 E4.78184
G1 X97.749 Y101.717 E4.89935
G1 X97.919 Y102.256 E4.91507
G1 X95.059 Y105.117 E5.02746
G1 X95.212 Y105.324 E5.03460
G1 X95.381 Y105.505 E5.04149
G1 X98.136 Y102.750 E5.14971
G1 X98.395 Y103.201 E5.16415
G1 X95.725 Y105.872 E5.26908
G1 X96.105 Y106.201 E5.28306
G1 X98.697 Y103.609 E5.38487
G1 X99.039 Y103.977 E5.39882
G1 X96.508 Y106.509 E5.49826
G1 X96.932 Y106.795 E5.51247
G1 X99.423 Y104.303 E5.61035
G1 X99.853 Y104.584 E5.62460
G1 X97.392 Y107.045 E5.72126
G1 X97.548 Y107.129 E5.72619
G1 X97.880 Y107.266 E5.73618
G1 X100.331 Y104.816 E5.83245
G1 X100.865 Y104.992 E5.84806
G1 X98.393 Y107.464 E5.94514
G1 X98.939 Y107.628 E5.96097
G1 X101.455 Y105.112 E6.05981
G1 X102.112 Y105.166 E6.07810
G1 X99.524 Y107.753 E6.17976
G1 X99.826 Y107.815 E6.18832
G1 X100.137 Y107.850 E6.19702
G1 X102.837 Y105.150 E6.30309
G1 X103.649 Y105.049 E6.32581
G1 X100.782 Y107.916 E6.43844
G1 X101.467 Y107.941 E6.45748
G1 X104.597 Y104.811 E6.58043
G1 X105.151 Y104.605 E6.59685
G1 X105.844 Y104.274 E6.61820
G1 X102.190 Y107.928 E6.76176
G1 X102.978 Y107.850 E6.78375
G1 X106.445 Y104.383 E6.91997
G1 X106.445 Y105.093 E6.93969
G1 X103.844 Y107.694 E7.04189
G1 X104.561 Y107.505 E7.06248
G1 X104.839 Y107.410 E7.07065
G1 X106.445 Y105.803 E7.13377
G1 X106.445 Y106.513 E7.15349
G1 X106.063 Y106.895 E7.16850
G1 E5.16850 F2400.00000
G92 E0
M107
; Filament-specific end gcode 
;END gcode for filament

M104 S0 ; turn off temperature
G28 X0  ; home X axis
M84     ; disable motors

M140 S0 ; set bed temperature
; filament used = 96.5mm (0.7cm3)
; total filament cost = 0.0

; avoid_crossing_perimeters = 0
; bed_shape = 0x0,200x0,200x200,0x200
; bed_temperature = 0
; before_layer_gcode = 
; between_objects_gcode = 
; bridge_acceleration = 0
; bridge_fan_speed = 100
; brim_connections_width = 0
; brim_width = 0
; complete_objects = 0
; cooling = 1
; default_acceleration = 0
; disable_fan_first_layers = 3
; duplicate_distance = 6
; end_filament_gcode = "; Filament-specific end gcode \n;END gcode for filament\n"
; end_gcode = M104 S0 ; turn off temperature\nG28 X0  ; home X axis\nM84     ; disable motors\n
; extruder_clearance_height = 20
; extruder_clearance_radius = 20
; extruder_offset = 0x0
; extrusion_axis = E
; extrusion_multiplier = 1
; fan_always_on = 0
; fan_below_layer_time = 60
; filament_colour = #FFFFFF
; filament_cost = 0
; filament_density = 0
; filament_diameter = 3
; filament_max_volumetric_speed = 0
; filament_notes = ""
; first_layer_acceleration = 0
; first_layer_bed_temperature = 0
; first_layer_extrusion_width = 200%
; first_layer_speed = 30
; first_layer_temperature = 205
; gcode_arcs = 0
; gcode_comments = 0
; gcode_flavor = reprap
; has_heatbed = 1
; infill_acceleration = 0
; infill_first = 0
; interior_brim_width = 0
; layer_gcode = 
; max_fan_speed = 100
; max_layer_height = 0.3
; max_print_speed = 80
; max_volumetric_speed = 0
; min_fan_speed = 35
; min_layer_height = 0.15
; min_print_speed = 10
; min_skirt_length = 0
; notes = 
; nozzle_diameter = 0.5
; only_retract_when_crossing_perimeters = 1
; ooze_prevention = 0
; output_filename_format = [input_filename_base].gcode
; perimeter_acceleration = 0
; post_process = 
; pressure_advance = 0
; printer_notes = 
; resolution = 0
; retract_before_travel = 2
; retract_layer_change = 0
; retract_length = 2
; retract_length_toolchange = 10
; retract_lift = 0
; retract_lift_above = 0
; retract_lift_below = 0
; retract_restart_extra = 0
; retract_restart_extra_toolchange = 0
; retract_speed = 40
; skirt_distance = 6
; skirt_height = 1
; skirts = 0
; slowdown_below_layer_time = 5
; spiral_vase = 0
; standby_temperature_delta = -5
; start_filament_gcode = "; Filament gcode\n"
; start_gcode = G28 ; home all axes\nG1 Z5 F5000 ; lift nozzle\n
; temperature = 200
; threads = 8
; toolchange_gcode = 
; travel_speed = 130
; use_firmware_retraction = 0
; use_relative_e_distances = 0
; use_set_and_wait_bed = 0
; use_set_and_wait_extruder = 0
; use_volumetric_e = 0
; vibration_limit = 0
; wipe = 0
; z_offset = 0
; z_steps_per_mm = 0
; adaptive_slicing = 0
; adaptive_slicing_quality = 75%
; dont_support_bridges = 1
; extrusion_width = 0
; first_layer_height = 0.4
; infill_only_where_needed = 0
; interface_shells = 0
; layer_height = 0.4
; match_horizontal_surfaces = 0
; raft_layers = 0
; regions_overlap = 0
; seam_position = aligned
; sequential_print_priority = 0
; support_material = 0
; support_material_angle = 0
; support_material_buildplate_only = 0
; support_material_contact_distance = 0.2
; support_material_enforce_layers = 0
; support_material_extruder = 1
; support_material_extrusion_width = 0
; support_material_interface_extruder = 1
; support_material_interface_extrusion_width = 0
; support_material_interface_layers = 3
; support_material_interface_spacing = 0
; support_material_interface_speed = 100%
; support_material_max_layers = 0
; support_material_pattern = pillars
; support_material_spacing = 2.5
; support_material_speed = 60
; support_material_threshold = 60%
; xy_size_compensation = 0
; bottom_infill_pattern = rectilinear
; bottom_solid_layers = 0
; bridge_flow_ratio = 1
; bridge_speed = 60
; external_perimeter_extrusion_width = 0
; external_perimeter_speed = 50%
; external_perimeters_first = 0
; extra_perimeters = 1
; fill_angle = 45
; fill_density = 100%
; fill_gaps = 1
; fill_pattern = rectilinear
; gap_fill_speed = 20
; infill_every_layers = 1
; infill_extruder = 1
; infill_extrusion_width = 0
; infill_overlap = 55%
; infill_speed = 80
; overhangs = 1
; perimeter_extruder = 1
; perimeter_extrusion_width = 0
; perimeter_speed = 60
; perimeters = 0
; small_perimeter_speed = 15
; solid_infill_below_area = 70
; solid_infill_every_layers = 0
; solid_infill_extruder = 1
; solid_infill_extrusion_width = 0
; solid_infill_speed = 20
; thin_walls = 1
; top_infill_extrusion_width = 0
; top_infill_pattern = rectilinear
; top_solid_infill_speed = 15
; top_solid_layers = 0
