; generated by Slic3r 1.3.0 on 2020-10-27 at 16:44:58

; external perimeters extrusion width = 0.55mm (5.57mm^3/s)
; perimeters extrusion width = 0.58mm (11.78mm^3/s)
; infill extrusion width = 0.58mm (15.71mm^3/s)
; solid infill extrusion width = 0.58mm (3.93mm^3/s)
; top infill extrusion width = 0.58mm (2.95mm^3/s)

M107
M104 S205 ; set temperature
G28 ; home all axes
G1 Z5 F5000 ; lift nozzle

; Filament gcode

M109 S205 ; set temperature and wait for it to be reached
G21 ; set units to millimeters
G90 ; use absolute coordinates
M82 ; use absolute distances for extrusion
G92 E0
G1 Z0.300 F7800.000
G1 E-2.00000 F2400.00000
G92 E0
G1 X98.486 Y97.830 F7800.000
G1 E2.00000 F2400.00000
G1 F619.109
G1 X98.213 Y98.313 E2.01261
G1 X98.037 Y98.819 E2.02481
G1 X97.918 Y99.476 E2.03997
G1 X97.896 Y100.167 E2.05570
G1 X97.945 Y100.730 E2.06854
G1 X98.085 Y101.343 E2.08284
G1 X98.215 Y101.688 E2.09121
G1 X98.459 Y102.148 E2.10305
G1 X98.207 Y102.307 E2.10981
G1 X97.947 Y101.958 E2.11971
G1 X97.795 Y101.699 E2.12654
G1 X97.669 Y101.417 E2.13355
G1 X97.570 Y101.112 E2.14086
G1 X97.492 Y100.757 E2.14911
G1 X97.447 Y100.392 E2.15746
G1 X97.432 Y99.998 E2.16644
G1 X97.449 Y99.589 E2.17573
G1 X97.492 Y99.238 E2.18377
G1 X97.568 Y98.892 E2.19183
G1 X97.672 Y98.574 E2.19943
G1 X97.793 Y98.305 E2.20615
G1 X97.952 Y98.035 E2.21327
G1 X98.251 Y97.662 E2.22413
G1 X98.425 Y97.786 E2.22899
G1 E0.22899 F2400.00000
G92 E0
G1 X103.104 Y97.562 F7800.000
G1 E2.00000 F2400.00000
G1 F619.109
G1 X102.542 Y97.303 E2.01407
G1 X102.065 Y97.156 E2.02542
G1 X101.574 Y97.070 E2.03675
G1 X101.079 Y97.044 E2.04801
G1 X100.533 Y97.091 E2.06048
G1 X100.121 Y97.198 E2.07015
G1 X99.879 Y97.298 E2.07610
G1 X99.635 Y97.431 E2.08242
G1 X99.242 Y97.744 E2.09384
G1 X98.965 Y98.070 E2.10356
G1 X98.703 Y98.534 E2.11568
G1 X98.556 Y98.956 E2.12583
G1 X98.452 Y99.532 E2.13915
G1 X98.432 Y100.153 E2.15326
G1 X98.475 Y100.647 E2.16453
G1 X98.599 Y101.188 E2.17716
G1 X98.705 Y101.467 E2.18393
G1 X98.887 Y101.811 E2.19279
G1 X99.054 Y102.046 E2.19934
G1 X99.338 Y102.345 E2.20872
G1 X99.643 Y102.574 E2.21740
G1 X99.891 Y102.708 E2.22381
G1 X100.251 Y102.843 E2.23253
G1 X100.536 Y102.909 E2.23918
G1 X100.944 Y102.952 E2.24852
G1 X101.279 Y102.952 E2.25613
G1 X101.715 Y102.911 E2.26609
G1 X102.054 Y102.847 E2.27392
G1 X102.376 Y102.756 E2.28153
G1 X102.814 Y102.583 E2.29223
G1 X103.104 Y102.436 E2.29963
G1 X103.104 Y103.371 E2.32088
G1 X102.592 Y103.581 E2.33346
G1 X102.293 Y103.674 E2.34058
G1 X101.866 Y103.771 E2.35054
G1 X101.228 Y103.844 E2.36513
G1 X100.454 Y103.835 E2.38273
G1 X100.039 Y103.787 E2.39222
G1 X99.620 Y103.703 E2.40194
G1 X99.254 Y103.594 E2.41062
G1 X98.890 Y103.446 E2.41956
G1 X98.553 Y103.264 E2.42827
G1 X98.252 Y103.058 E2.43655
G1 X97.975 Y102.820 E2.44485
G1 X97.714 Y102.541 E2.45355
G1 X97.500 Y102.254 E2.46168
G1 X97.318 Y101.944 E2.46985
G1 X97.169 Y101.610 E2.47816
G1 X97.052 Y101.252 E2.48672
G1 X96.963 Y100.847 E2.49616
G1 X96.913 Y100.435 E2.50558
G1 X96.896 Y99.997 E2.51555
G1 X96.914 Y99.545 E2.52583
G1 X96.964 Y99.148 E2.53493
G1 X97.050 Y98.751 E2.54417
G1 X97.172 Y98.381 E2.55303
G1 X97.317 Y98.058 E2.56106
G1 X97.505 Y97.738 E2.56951
G1 X97.858 Y97.297 E2.58234
G1 X98.127 Y97.044 E2.59074
G1 X98.401 Y96.834 E2.59858
G1 X98.714 Y96.643 E2.60692
G1 X99.071 Y96.475 E2.61588
G1 X99.435 Y96.347 E2.62465
G1 X99.825 Y96.250 E2.63381
G1 X100.243 Y96.185 E2.64342
G1 X100.689 Y96.152 E2.65358
G1 X101.076 Y96.149 E2.66237
G1 X101.560 Y96.184 E2.67342
G1 X102.157 Y96.291 E2.68719
G1 X102.723 Y96.466 E2.70066
G1 X103.104 Y96.635 E2.71014
G1 X103.104 Y97.487 E2.72952
G1 X102.722 Y97.240 F7800.000
G1 X102.836 Y97.129 F7800.000
G1 F619.109
G1 X102.685 Y96.908 E2.73224
G1 X102.155 Y96.738 E2.73788
G1 X101.505 Y96.624 E2.74457
G1 F619.109
G1 X101.061 Y96.597 E2.75010
G1 X100.438 Y96.636 E2.75786
G1 F619.109
G1 X99.924 Y96.740 E2.76575
G1 F619.109
G1 X99.586 Y96.855 E2.77236
G1 F619.109
G1 X99.283 Y96.994 E2.77944
G1 F619.109
G1 X98.999 Y97.172 E2.78741
G1 F619.109
G1 X98.809 Y97.305 E2.79353
G1 X98.857 Y97.766 E2.80576
G1 E0.80576 F2400.00000
G92 E0
G1 X98.510 Y102.433 F7800.000
G1 E2.00000 F2400.00000
G1 F619.109
G1 X98.871 Y102.742 E2.01301
G1 F619.109
G1 X99.138 Y102.920 E2.02105
G1 F619.109
G1 X99.328 Y103.028 E2.02599
G1 F619.109
G1 X99.660 Y103.174 E2.03312
G1 F619.109
G1 X100.097 Y103.304 E2.04087
G1 F619.109
G1 X100.470 Y103.369 E2.04617
G1 X100.912 Y103.396 E2.05235
G1 F619.109
G1 X101.292 Y103.393 E2.05635
G1 X101.793 Y103.340 E2.06165
G1 X102.159 Y103.264 E2.06559
G1 X102.451 Y103.178 E2.06880
G1 X102.836 Y103.031 E2.07313
M104 S200 ; set temperature
G1 Z0.700 F7800.000
G1 E0.07313 F2400.00000
G92 E0
G1 X99.168 Y97.222 F7800.000
G1 E2.00000 F2400.00000
G1 F652.139
G1 X98.944 Y97.399 E2.00793
G1 X98.586 Y97.818 E2.02326
G1 X98.288 Y98.350 E2.04018
G1 X98.106 Y98.883 E2.05585
G1 X97.998 Y99.516 E2.07368
G1 X97.978 Y100.154 E2.09140
G1 X98.033 Y100.756 E2.10819
G1 X98.164 Y101.319 E2.12424
G1 X98.349 Y101.777 E2.13797
G1 X98.548 Y102.122 E2.14902
G1 X98.806 Y102.455 E2.16075
G1 X99.131 Y102.773 E2.17336
G1 X98.979 Y102.979 E2.18048
G1 X98.775 Y102.869 E2.18692
G1 X98.524 Y102.695 E2.19538
G1 X98.293 Y102.497 E2.20383
G1 X98.044 Y102.229 E2.21401
G1 X97.869 Y101.990 E2.22223
G1 X97.718 Y101.730 E2.23058
G1 X97.594 Y101.452 E2.23904
G1 X97.476 Y101.084 E2.24979
G1 X97.407 Y100.751 E2.25923
G1 X97.364 Y100.388 E2.26939
G1 X97.349 Y99.999 E2.28021
G1 X97.368 Y99.560 E2.29239
G1 X97.407 Y99.244 E2.30126
G1 X97.488 Y98.869 E2.31191
G1 X97.602 Y98.525 E2.32197
G1 X97.712 Y98.281 E2.32941
G1 X97.885 Y97.986 E2.33891
G1 X98.064 Y97.747 E2.34720
G1 X98.275 Y97.520 E2.35582
G1 X98.699 Y97.180 E2.37091
G1 X99.013 Y96.995 E2.38103
G1 X99.126 Y97.160 E2.38659
G1 E0.38659 F2400.00000
G92 E0
G1 X103.129 Y97.603 F7800.000
G1 E2.00000 F2400.00000
G1 F652.139
G1 X102.591 Y97.349 E2.01564
G1 X102.074 Y97.184 E2.02988
G1 X101.540 Y97.092 E2.04412
G1 X100.974 Y97.071 E2.05900
G1 X100.492 Y97.125 E2.07174
G1 X100.045 Y97.252 E2.08393
G1 X99.644 Y97.454 E2.09573
G1 X99.277 Y97.745 E2.10803
G1 X98.979 Y98.093 E2.12006
G1 X98.726 Y98.545 E2.13368
G1 X98.570 Y99.001 E2.14634
G1 X98.474 Y99.564 E2.16133
G1 X98.457 Y100.140 E2.17646
G1 X98.506 Y100.680 E2.19071
G1 X98.621 Y101.174 E2.20404
G1 X98.779 Y101.568 E2.21517
G1 X98.945 Y101.855 E2.22388
G1 X99.164 Y102.137 E2.23326
G1 X99.379 Y102.347 E2.24116
G1 X99.659 Y102.554 E2.25031
G1 X99.922 Y102.695 E2.25814
G1 X100.254 Y102.818 E2.26745
G1 X100.557 Y102.887 E2.27560
G1 X100.935 Y102.927 E2.28558
G1 X101.305 Y102.926 E2.29530
G1 X101.648 Y102.895 E2.30435
G1 X102.037 Y102.825 E2.31475
G1 X102.389 Y102.725 E2.32435
G1 X102.800 Y102.562 E2.33595
G1 X103.129 Y102.394 E2.34567
G1 X103.129 Y103.379 E2.37156
G1 X102.634 Y103.593 E2.38573
G1 X102.295 Y103.699 E2.39505
G1 X101.889 Y103.792 E2.40599
G1 X101.189 Y103.871 E2.42448
G1 X100.426 Y103.858 E2.44453
G1 X100.051 Y103.815 E2.45445
G1 X99.604 Y103.725 E2.46642
G1 X99.273 Y103.627 E2.47550
G1 X98.884 Y103.470 E2.48652
G1 X98.525 Y103.276 E2.49723
G1 X98.232 Y103.074 E2.50657
G1 X97.962 Y102.842 E2.51593
G1 X97.675 Y102.534 E2.52699
G1 X97.469 Y102.252 E2.53616
G1 X97.292 Y101.948 E2.54539
G1 X97.147 Y101.623 E2.55475
G1 X97.014 Y101.205 E2.56626
G1 X96.935 Y100.828 E2.57639
G1 X96.887 Y100.425 E2.58705
G1 X96.871 Y99.998 E2.59828
G1 X96.891 Y99.521 E2.61081
G1 X96.936 Y99.163 E2.62027
G1 X97.027 Y98.743 E2.63158
G1 X97.157 Y98.352 E2.64240
G1 X97.287 Y98.062 E2.65075
G1 X97.486 Y97.721 E2.66112
G1 X97.697 Y97.440 E2.67035
G1 X97.941 Y97.178 E2.67975
G1 X98.145 Y96.996 E2.68694
G1 X98.435 Y96.782 E2.69640
G1 X98.745 Y96.598 E2.70588
G1 X99.079 Y96.444 E2.71553
G1 X99.438 Y96.320 E2.72550
G1 X99.821 Y96.226 E2.73587
G1 X100.230 Y96.161 E2.74674
G1 X100.665 Y96.128 E2.75820
G1 X101.045 Y96.124 E2.76817
G1 X101.585 Y96.162 E2.78240
G1 X102.183 Y96.272 E2.79836
G1 X102.741 Y96.446 E2.81372
G1 X103.129 Y96.619 E2.82488
G1 X103.129 Y97.528 E2.84877
G1 X102.750 Y97.277 F7800.000
G1 X102.890 Y96.988 F7800.000
G1 F869.519
G1 X102.581 Y96.870 E2.85518
G1 X102.073 Y96.718 E2.86546
G1 X101.526 Y96.625 E2.87619
G1 X100.939 Y96.599 E2.88758
G1 F869.519
G1 X100.289 Y96.661 E2.90271
G1 F869.519
G1 X99.925 Y96.741 E2.91297
G1 X99.712 Y96.812 E2.91916
G1 F869.519
G1 X99.294 Y96.983 E2.93322
G1 X97.966 Y98.412 F7800.000
G1 F869.519
G1 X97.818 Y98.814 E2.93360
G1 X97.717 Y99.296 E2.93404
G1 X97.681 Y99.587 E2.93430
G1 X97.667 Y100.159 E2.93481
G1 X97.715 Y100.700 E2.93530
G1 X97.775 Y101.005 E2.93557
G1 X97.888 Y101.402 E2.93594
G1 X98.012 Y101.684 E2.93622
G1 X99.255 Y103.007 F7800.000
G1 F869.519
G1 X99.680 Y103.181 E2.94961
G1 X99.913 Y103.251 E2.95673
G1 F869.519
G1 X100.130 Y103.311 E2.96252
G1 X100.459 Y103.368 E2.97110
G1 F869.519
G1 X100.923 Y103.397 E2.98115
G1 X101.317 Y103.393 E2.98964
G1 F869.519
G1 X101.719 Y103.351 E2.99722
G1 X102.150 Y103.266 E3.00545
G1 X102.523 Y103.153 E3.01274
G1 X102.890 Y103.001 E3.02019
G1 Z1.100 F7800.000
G1 E1.02019 F2400.00000
G92 E0
G1 X99.170 Y97.218 F7800.000
G1 E2.00000 F2400.00000
G1 F652.821
G1 X98.966 Y97.378 E2.00723
G1 X98.579 Y97.828 E2.02371
G1 X98.286 Y98.352 E2.04038
G1 X98.093 Y98.932 E2.05736
G1 X97.995 Y99.553 E2.07483
G1 X97.978 Y100.136 E2.09102
G1 X98.022 Y100.682 E2.10623
G1 X98.159 Y101.302 E2.12388
G1 X98.347 Y101.774 E2.13799
G1 X98.572 Y102.158 E2.15034
G1 X98.816 Y102.466 E2.16127
G1 X99.134 Y102.772 E2.17354
G1 X98.982 Y102.980 E2.18069
G1 X98.760 Y102.859 E2.18773
G1 X98.520 Y102.692 E2.19585
G1 X98.294 Y102.498 E2.20412
G1 X98.095 Y102.289 E2.21214
G1 X97.856 Y101.970 E2.22322
G1 X97.714 Y101.723 E2.23111
G1 X97.593 Y101.451 E2.23938
G1 X97.496 Y101.157 E2.24799
G1 X97.422 Y100.839 E2.25706
G1 X97.373 Y100.495 E2.26670
G1 X97.351 Y100.128 E2.27694
G1 X97.358 Y99.684 E2.28925
G1 X97.384 Y99.404 E2.29706
G1 X97.458 Y98.987 E2.30884
G1 X97.522 Y98.751 E2.31563
G1 X97.656 Y98.399 E2.32609
G1 X97.823 Y98.082 E2.33605
G1 X97.999 Y97.826 E2.34467
G1 X98.191 Y97.604 E2.35282
G1 X98.410 Y97.398 E2.36117
G1 X98.647 Y97.215 E2.36949
G1 X99.011 Y96.989 E2.38139
G1 X99.128 Y97.156 E2.38705
G1 E0.38705 F2400.00000
G92 E0
G1 X103.129 Y97.592 F7800.000
G1 E2.00000 F2400.00000
G1 F652.821
G1 X102.472 Y97.303 E2.01885
G1 X102.088 Y97.187 E2.02939
G1 X101.506 Y97.088 E2.04488
G1 X100.988 Y97.071 E2.05850
G1 X100.462 Y97.130 E2.07241
G1 X99.984 Y97.277 E2.08554
G1 X99.633 Y97.462 E2.09596
G1 X99.297 Y97.725 E2.10717
G1 X98.972 Y98.103 E2.12026
G1 X98.725 Y98.546 E2.13358
G1 X98.559 Y99.046 E2.14742
G1 X98.471 Y99.598 E2.16210
G1 X98.456 Y100.124 E2.17592
G1 X98.495 Y100.611 E2.18876
G1 X98.617 Y101.161 E2.20356
G1 X98.777 Y101.564 E2.21494
G1 X98.967 Y101.887 E2.22479
G1 X99.170 Y102.144 E2.23340
G1 X99.403 Y102.368 E2.24187
G1 X99.661 Y102.555 E2.25026
G1 X99.944 Y102.705 E2.25868
G1 X100.250 Y102.817 E2.26722
G1 X100.576 Y102.890 E2.27600
G1 X100.922 Y102.926 E2.28514
G1 X101.339 Y102.924 E2.29608
G1 X101.800 Y102.873 E2.30828
G1 X102.224 Y102.777 E2.31970
G1 X102.792 Y102.566 E2.33560
G1 X103.129 Y102.392 E2.34556
G1 X103.129 Y103.380 E2.37151
G1 X102.677 Y103.578 E2.38448
G1 X102.290 Y103.700 E2.39512
G1 X101.918 Y103.787 E2.40516
G1 X101.331 Y103.863 E2.42070
G1 X100.932 Y103.878 E2.43120
G1 X100.234 Y103.839 E2.44955
G1 X99.749 Y103.759 E2.46248
G1 X99.301 Y103.637 E2.47466
G1 X98.889 Y103.473 E2.48633
G1 X98.508 Y103.266 E2.49769
G1 X98.227 Y103.070 E2.50670
G1 X97.965 Y102.845 E2.51577
G1 X97.729 Y102.598 E2.52474
G1 X97.456 Y102.233 E2.53672
G1 X97.288 Y101.940 E2.54559
G1 X97.148 Y101.624 E2.55466
G1 X97.035 Y101.287 E2.56400
G1 X96.952 Y100.927 E2.57371
G1 X96.898 Y100.544 E2.58387
G1 X96.873 Y100.138 E2.59454
G1 X96.881 Y99.658 E2.60714
G1 X96.910 Y99.341 E2.61552
G1 X96.991 Y98.882 E2.62776
G1 X97.067 Y98.603 E2.63535
G1 X97.220 Y98.202 E2.64662
G1 X97.414 Y97.834 E2.65755
G1 X97.621 Y97.534 E2.66712
G1 X97.845 Y97.274 E2.67615
G1 X98.099 Y97.034 E2.68532
G1 X98.374 Y96.822 E2.69445
G1 X98.671 Y96.638 E2.70362
G1 X98.990 Y96.482 E2.71293
G1 X99.331 Y96.353 E2.72251
G1 X99.695 Y96.253 E2.73244
G1 X100.084 Y96.181 E2.74282
G1 X100.495 Y96.137 E2.75369
G1 X101.010 Y96.124 E2.76722
G1 X101.610 Y96.165 E2.78301
G1 X102.206 Y96.278 E2.79894
G1 X102.752 Y96.450 E2.81399
G1 X103.129 Y96.618 E2.82483
G1 X103.129 Y97.517 E2.84842
G1 X102.744 Y97.272 F7800.000
G1 X102.890 Y97.000 F7800.000
G1 F870.428
G1 X102.593 Y96.870 E2.85449
G1 X102.204 Y96.751 E2.86208
G1 X101.538 Y96.625 E2.87474
G1 F870.428
G1 X100.987 Y96.597 E2.88673
G1 X100.338 Y96.651 E2.90085
G1 F870.428
G1 X99.754 Y96.793 E2.91654
G1 F870.428
G1 X99.292 Y96.975 E2.93186
G1 X97.995 Y98.350 F7800.000
G1 F870.428
G1 X97.807 Y98.844 E2.93210
G1 X97.760 Y99.055 E2.93220
G1 X97.685 Y99.529 E2.93241
G1 X97.665 Y100.121 E2.93268
G1 X97.727 Y100.782 E2.93297
G1 X97.867 Y101.345 E2.93323
G1 X98.013 Y101.685 E2.93340
G1 X99.256 Y103.011 F7800.000
G1 F870.428
G1 X99.707 Y103.189 E2.94846
G1 F870.428
G1 X100.090 Y103.300 E2.95969
G1 F870.428
G1 X100.482 Y103.370 E2.96894
G1 X100.885 Y103.401 E2.97831
G1 F870.428
G1 X101.354 Y103.390 E2.98745
G1 X101.864 Y103.328 E2.99749
G1 X102.366 Y103.204 E3.00756
G1 X102.890 Y103.002 E3.01853
M106 S255
G1 Z1.500 F7800.000
G1 E1.01853 F2400.00000
G92 E0
G1 X99.167 Y97.223 F7800.000
G1 E2.00000 F2400.00000
G1 F649.997
G1 X98.944 Y97.399 E2.00789
G1 X98.586 Y97.818 E2.02321
G1 X98.288 Y98.350 E2.04014
G1 X98.106 Y98.883 E2.05580
G1 X97.998 Y99.516 E2.07363
G1 X97.978 Y100.154 E2.09135
G1 X98.033 Y100.756 E2.10815
G1 X98.164 Y101.319 E2.12419
G1 X98.349 Y101.777 E2.13792
G1 X98.548 Y102.122 E2.14897
G1 X98.806 Y102.455 E2.16070
G1 X99.133 Y102.775 E2.17339
G1 X98.973 Y102.982 E2.18067
G1 X98.670 Y102.800 E2.19049
G1 X98.429 Y102.618 E2.19887
G1 X98.161 Y102.363 E2.20914
G1 X97.970 Y102.135 E2.21742
G1 X97.804 Y101.886 E2.22572
G1 X97.665 Y101.621 E2.23405
G1 X97.529 Y101.269 E2.24452
G1 X97.445 Y100.952 E2.25363
G1 X97.386 Y100.605 E2.26340
G1 X97.354 Y100.231 E2.27384
G1 X97.352 Y99.820 E2.28526
G1 X97.385 Y99.399 E2.29698
G1 X97.453 Y99.010 E2.30794
G1 X97.528 Y98.732 E2.31596
G1 X97.655 Y98.401 E2.32580
G1 X97.814 Y98.097 E2.33533
G1 X97.952 Y97.889 E2.34226
G1 X98.146 Y97.653 E2.35075
G1 X98.366 Y97.436 E2.35932
G1 X98.608 Y97.243 E2.36793
G1 X98.854 Y97.085 E2.37606
G1 X99.023 Y96.998 E2.38133
G1 X99.127 Y97.160 E2.38666
G1 E0.38666 F2400.00000
G92 E0
G1 X103.129 Y97.603 F7800.000
G1 E2.00000 F2400.00000
G1 F649.997
G1 X102.591 Y97.349 E2.01564
G1 X102.074 Y97.184 E2.02988
G1 X101.540 Y97.092 E2.04412
G1 X100.974 Y97.071 E2.05900
G1 X100.492 Y97.125 E2.07174
G1 X100.045 Y97.252 E2.08393
G1 X99.644 Y97.454 E2.09573
G1 X99.277 Y97.745 E2.10803
G1 X98.979 Y98.093 E2.12006
G1 X98.726 Y98.545 E2.13368
G1 X98.570 Y99.001 E2.14634
G1 X98.474 Y99.564 E2.16133
G1 X98.457 Y100.140 E2.17646
G1 X98.506 Y100.680 E2.19071
G1 X98.621 Y101.174 E2.20404
G1 X98.779 Y101.568 E2.21517
G1 X98.945 Y101.855 E2.22388
G1 X99.164 Y102.137 E2.23326
G1 X99.379 Y102.347 E2.24116
G1 X99.659 Y102.554 E2.25031
G1 X99.922 Y102.695 E2.25814
G1 X100.254 Y102.818 E2.26745
G1 X100.557 Y102.887 E2.27560
G1 X100.935 Y102.927 E2.28558
G1 X101.305 Y102.926 E2.29530
G1 X101.648 Y102.895 E2.30435
G1 X102.037 Y102.825 E2.31475
G1 X102.389 Y102.725 E2.32435
G1 X102.800 Y102.562 E2.33595
G1 X103.129 Y102.394 E2.34567
G1 X103.129 Y103.381 E2.37159
G1 X102.701 Y103.569 E2.38386
G1 X102.056 Y103.758 E2.40152
G1 X101.717 Y103.821 E2.41059
G1 X101.368 Y103.860 E2.41981
G1 X100.725 Y103.874 E2.43669
G1 X100.238 Y103.839 E2.44954
G1 X99.779 Y103.765 E2.46174
G1 X99.437 Y103.680 E2.47100
G1 X99.034 Y103.537 E2.48222
G1 X98.737 Y103.398 E2.49084
G1 X98.402 Y103.197 E2.50110
G1 X98.119 Y102.983 E2.51042
G1 X97.812 Y102.691 E2.52155
G1 X97.587 Y102.421 E2.53077
G1 X97.393 Y102.130 E2.53997
G1 X97.229 Y101.818 E2.54922
G1 X97.075 Y101.417 E2.56051
G1 X96.978 Y101.054 E2.57037
G1 X96.912 Y100.666 E2.58073
G1 X96.877 Y100.252 E2.59162
G1 X96.874 Y99.803 E2.60343
G1 X96.910 Y99.340 E2.61563
G1 X96.986 Y98.906 E2.62718
G1 X97.074 Y98.584 E2.63597
G1 X97.219 Y98.204 E2.64663
G1 X97.402 Y97.853 E2.65704
G1 X97.568 Y97.605 E2.66488
G1 X97.793 Y97.331 E2.67420
G1 X98.049 Y97.079 E2.68362
G1 X98.329 Y96.855 E2.69305
G1 X98.615 Y96.670 E2.70199
G1 X98.940 Y96.504 E2.71157
G1 X99.288 Y96.368 E2.72140
G1 X99.661 Y96.261 E2.73159
G1 X100.059 Y96.184 E2.74224
G1 X100.483 Y96.138 E2.75343
G1 X100.975 Y96.123 E2.76635
G1 X101.586 Y96.162 E2.78244
G1 X102.183 Y96.272 E2.79838
G1 X102.741 Y96.446 E2.81375
G1 X103.129 Y96.619 E2.82490
G1 X103.129 Y97.528 E2.84879
G1 X102.750 Y97.277 F7800.000
G1 X102.890 Y96.988 F7800.000
G1 F866.663
G1 X102.581 Y96.870 E2.85520
G1 X102.073 Y96.718 E2.86548
G1 X101.529 Y96.625 E2.87617
G1 X100.939 Y96.598 E2.88760
G1 F866.663
G1 X100.418 Y96.639 E2.89998
G1 X100.136 Y96.692 E2.90677
G1 F866.663
G1 X99.786 Y96.783 E2.91674
G1 F866.663
G1 X99.292 Y96.976 E2.93316
G1 X97.995 Y98.349 F7800.000
G1 F866.663
G1 X97.813 Y98.825 E2.93335
G1 X97.689 Y99.490 E2.93361
G1 F866.663
G1 X97.666 Y100.159 E2.93587
G1 X97.699 Y100.566 E2.93724
G1 X97.747 Y100.886 E2.93832
G1 X97.889 Y101.402 E2.94012
G1 X99.261 Y103.000 F7800.000
G1 F866.663
G1 X99.597 Y103.149 E2.95084
G1 X99.886 Y103.246 E2.95971
G1 F866.663
G1 X100.127 Y103.308 E2.96610
G1 F866.663
G1 X100.491 Y103.369 E2.97452
G1 X100.898 Y103.398 E2.98379
G1 F866.663
G1 X101.336 Y103.393 E2.99211
G1 X101.949 Y103.309 E3.00384
G1 X102.543 Y103.147 E3.01551
G1 X102.890 Y103.002 E3.02264
G1 Z1.900 F7800.000
G1 E1.02264 F2400.00000
G92 E0
G1 X99.165 Y97.219 F7800.000
G1 E2.00000 F2400.00000
G1 F653.342
G1 X98.912 Y97.434 E2.00922
G1 X98.698 Y97.673 E2.01814
G1 X98.498 Y97.954 E2.02770
G1 X98.234 Y98.481 E2.04408
G1 X98.085 Y98.970 E2.05827
G1 X98.001 Y99.487 E2.07283
G1 X97.979 Y100.167 E2.09172
G1 X98.026 Y100.712 E2.10692
G1 X98.166 Y101.321 E2.12427
G1 X98.291 Y101.653 E2.13413
G1 X98.503 Y102.053 E2.14670
G1 X98.704 Y102.335 E2.15633
G1 X99.120 Y102.774 E2.17315
G1 X98.968 Y102.974 E2.18013
G1 X98.791 Y102.878 E2.18572
G1 X98.529 Y102.699 E2.19453
G1 X98.287 Y102.492 E2.20337
G1 X98.072 Y102.263 E2.21212
G1 X97.879 Y102.005 E2.22106
G1 X97.722 Y101.738 E2.22967
G1 X97.592 Y101.447 E2.23851
G1 X97.489 Y101.132 E2.24773
G1 X97.411 Y100.774 E2.25790
G1 X97.365 Y100.401 E2.26835
G1 X97.349 Y99.997 E2.27956
G1 X97.365 Y99.585 E2.29101
G1 X97.411 Y99.222 E2.30119
G1 X97.488 Y98.870 E2.31119
G1 X97.593 Y98.547 E2.32063
G1 X97.720 Y98.264 E2.32924
G1 X97.882 Y97.990 E2.33809
G1 X98.068 Y97.742 E2.34669
G1 X98.283 Y97.512 E2.35544
G1 X98.535 Y97.297 E2.36464
G1 X98.797 Y97.118 E2.37346
G1 X99.016 Y97.000 E2.38037
G1 X99.123 Y97.157 E2.38566
G1 E0.38566 F2400.00000
G92 E0
G1 X103.129 Y97.602 F7800.000
G1 E2.00000 F2400.00000
G1 F653.342
G1 X102.525 Y97.323 E2.01747
G1 X102.057 Y97.180 E2.03033
G1 X101.573 Y97.095 E2.04323
G1 X100.959 Y97.072 E2.05937
G1 X100.526 Y97.119 E2.07082
G1 X100.263 Y97.180 E2.07790
G1 X100.008 Y97.268 E2.08500
G1 X99.776 Y97.378 E2.09174
G1 X99.556 Y97.515 E2.09855
G1 X99.246 Y97.777 E2.10921
G1 X99.072 Y97.972 E2.11607
G1 X98.908 Y98.200 E2.12346
G1 X98.679 Y98.658 E2.13691
G1 X98.552 Y99.078 E2.14843
G1 X98.477 Y99.533 E2.16054
G1 X98.457 Y100.154 E2.17685
G1 X98.499 Y100.638 E2.18960
G1 X98.624 Y101.182 E2.20428
G1 X98.727 Y101.456 E2.21196
G1 X98.910 Y101.801 E2.22223
G1 X99.073 Y102.031 E2.22963
G1 X99.351 Y102.324 E2.24024
G1 X99.657 Y102.553 E2.25026
G1 X99.899 Y102.684 E2.25750
G1 X100.258 Y102.819 E2.26759
G1 X100.538 Y102.883 E2.27511
G1 X100.947 Y102.927 E2.28594
G1 X101.274 Y102.927 E2.29452
G1 X101.721 Y102.885 E2.30631
G1 X102.052 Y102.821 E2.31516
G1 X102.494 Y102.689 E2.32729
G1 X102.806 Y102.559 E2.33616
G1 X103.129 Y102.395 E2.34567
G1 X103.129 Y103.381 E2.37156
G1 X102.722 Y103.561 E2.38326
G1 X102.148 Y103.737 E2.39902
G1 X101.553 Y103.842 E2.41489
G1 X100.930 Y103.878 E2.43128
G1 X100.460 Y103.860 E2.44365
G1 X100.033 Y103.812 E2.45492
G1 X99.615 Y103.728 E2.46612
G1 X99.242 Y103.617 E2.47634
G1 X98.879 Y103.468 E2.48666
G1 X98.542 Y103.287 E2.49671
G1 X98.238 Y103.078 E2.50639
G1 X97.957 Y102.838 E2.51610
G1 X97.706 Y102.570 E2.52574
G1 X97.480 Y102.270 E2.53561
G1 X97.297 Y101.957 E2.54514
G1 X97.146 Y101.619 E2.55485
G1 X97.027 Y101.257 E2.56486
G1 X96.939 Y100.854 E2.57569
G1 X96.888 Y100.439 E2.58668
G1 X96.871 Y99.997 E2.59830
G1 X96.889 Y99.546 E2.61014
G1 X96.939 Y99.141 E2.62087
G1 X97.026 Y98.744 E2.63154
G1 X97.148 Y98.374 E2.64176
G1 X97.296 Y98.045 E2.65125
G1 X97.484 Y97.724 E2.66101
G1 X97.701 Y97.434 E2.67053
G1 X97.953 Y97.167 E2.68018
G1 X98.244 Y96.917 E2.69025
G1 X98.549 Y96.709 E2.69994
G1 X98.878 Y96.532 E2.70976
G1 X99.232 Y96.387 E2.71982
G1 X99.613 Y96.273 E2.73025
G1 X100.035 Y96.188 E2.74157
G1 X100.470 Y96.139 E2.75307
G1 X100.939 Y96.123 E2.76539
G1 X101.562 Y96.159 E2.78179
G1 X102.160 Y96.266 E2.79773
G1 X102.730 Y96.442 E2.81341
G1 X103.129 Y96.619 E2.82487
G1 X103.129 Y97.527 E2.84873
G1 X102.747 Y97.279 F7800.000
G1 X102.890 Y97.218 F7800.000
G1 F871.123
G1 X102.685 Y96.908 E2.85558
G1 X102.149 Y96.736 E2.86592
G1 X101.507 Y96.624 E2.87793
G1 F871.123
G1 X100.933 Y96.598 E2.89039
G1 X100.429 Y96.637 E2.90138
G1 F871.123
G1 X100.114 Y96.692 E2.90956
G1 X99.822 Y96.771 E2.91731
G1 F871.123
G1 X99.286 Y96.972 E2.93360
G1 X97.978 Y98.369 F7800.000
G1 F871.123
G1 X97.794 Y98.898 E2.93416
G1 X97.719 Y99.274 E2.93454
G1 X97.681 Y99.611 E2.93487
G1 X97.667 Y100.171 E2.93543
G1 X97.723 Y100.764 E2.93602
G1 X97.867 Y101.341 E2.93661
G1 X97.998 Y101.660 E2.93695
G1 X99.247 Y103.002 F7800.000
G1 F871.123
G1 X99.693 Y103.186 E2.95104
G1 X99.920 Y103.253 E2.95796
G1 F871.123
G1 X100.112 Y103.308 E2.96309
G1 X100.441 Y103.365 E2.97166
G1 F871.123
G1 X100.925 Y103.402 E2.98226
G1 X101.286 Y103.392 E2.99013
G1 F871.123
G1 X101.499 Y103.376 E2.99409
G1 X102.041 Y103.290 E3.00426
G1 X102.564 Y103.138 E3.01436
G1 X102.890 Y103.003 E3.02090
G1 E1.02090 F2400.00000
G92 E0
M107
; Filament-specific end gcode 
;END gcode for filament

M104 S0 ; turn off temperature
G28 X0  ; home X axis
M84     ; disable motors

M140 S0 ; set bed temperature
; filament used = 6.7mm (0.0cm3)
; total filament cost = 0.0

; avoid_crossing_perimeters = 0
; bed_shape = 0x0,200x0,200x200,0x200
; bed_temperature = 0
; before_layer_gcode = 
; between_objects_gcode = 
; bridge_acceleration = 0
; bridge_fan_speed = 100
; brim_connections_width = 0
; brim_width = 0
; complete_objects = 0
; cooling = 1
; default_acceleration = 0
; disable_fan_first_layers = 3
; duplicate_distance = 6
; end_filament_gcode = "; Filament-specific end gcode \n;END gcode for filament\n"
; end_gcode = M104 S0 ; turn off temperature\nG28 X0  ; home X axis\nM84     ; disable motors\n
; extruder_clearance_height = 20
; extruder_clearance_radius = 20
; extruder_offset = 0x0
; extrusion_axis = E
; extrusion_multiplier = 1
; fan_always_on = 0
; fan_below_layer_time = 60
; filament_colour = #FFFFFF
; filament_cost = 0
; filament_density = 0
; filament_diameter = 3
; filament_max_volumetric_speed = 0
; filament_notes = ""
; first_layer_acceleration = 0
; first_layer_bed_temperature = 0
; first_layer_extrusion_width = 200%
; first_layer_speed = 30
; first_layer_temperature = 205
; gcode_arcs = 0
; gcode_comments = 0
; gcode_flavor = reprap
; has_heatbed = 1
; infill_acceleration = 0
; infill_first = 0
; interior_brim_width = 0
; layer_gcode = 
; max_fan_speed = 100
; max_layer_height = 0.3
; max_print_speed = 80
; max_volumetric_speed = 0
; min_fan_speed = 35
; min_layer_height = 0.15
; min_print_speed = 10
; min_skirt_length = 0
; notes = 
; nozzle_diameter = 0.5
; only_retract_when_crossing_perimeters = 1
; ooze_prevention = 0
; output_filename_format = [input_filename_base].gcode
; perimeter_acceleration = 0
; post_process = 
; pressure_advance = 0
; printer_notes = 
; resolution = 0
; retract_before_travel = 2
; retract_layer_change = 0
; retract_length = 2
; retract_length_toolchange = 10
; retract_lift = 0
; retract_lift_above = 0
; retract_lift_below = 0
; retract_restart_extra = 0
; retract_restart_extra_toolchange = 0
; retract_speed = 40
; skirt_distance = 6
; skirt_height = 1
; skirts = 0
; slowdown_below_layer_time = 5
; spiral_vase = 0
; standby_temperature_delta = -5
; start_filament_gcode = "; Filament gcode\n"
; start_gcode = G28 ; home all axes\nG1 Z5 F5000 ; lift nozzle\n
; temperature = 200
; threads = 8
; toolchange_gcode = 
; travel_speed = 130
; use_firmware_retraction = 0
; use_relative_e_distances = 0
; use_set_and_wait_bed = 0
; use_set_and_wait_extruder = 0
; use_volumetric_e = 0
; vibration_limit = 0
; wipe = 0
; z_offset = 0
; z_steps_per_mm = 0
; adaptive_slicing = 0
; adaptive_slicing_quality = 75%
; dont_support_bridges = 1
; extrusion_width = 0
; first_layer_height = 0.3
; infill_only_where_needed = 0
; interface_shells = 0
; layer_height = 0.4
; match_horizontal_surfaces = 0
; raft_layers = 0
; regions_overlap = 0
; seam_position = aligned
; sequential_print_priority = 0
; support_material = 0
; support_material_angle = 0
; support_material_buildplate_only = 0
; support_material_contact_distance = 0.2
; support_material_enforce_layers = 0
; support_material_extruder = 1
; support_material_extrusion_width = 0
; support_material_interface_extruder = 1
; support_material_interface_extrusion_width = 0
; support_material_interface_layers = 3
; support_material_interface_spacing = 0
; support_material_interface_speed = 100%
; support_material_max_layers = 0
; support_material_pattern = pillars
; support_material_spacing = 2.5
; support_material_speed = 60
; support_material_threshold = 60%
; xy_size_compensation = 0
; bottom_infill_pattern = rectilinear
; bottom_solid_layers = 3
; bridge_flow_ratio = 1
; bridge_speed = 60
; external_perimeter_extrusion_width = 0
; external_perimeter_speed = 50%
; external_perimeters_first = 0
; extra_perimeters = 1
; fill_angle = 45
; fill_density = 20%
; fill_gaps = 1
; fill_pattern = stars
; gap_fill_speed = 20
; infill_every_layers = 1
; infill_extruder = 1
; infill_extrusion_width = 0
; infill_overlap = 55%
; infill_speed = 80
; overhangs = 1
; perimeter_extruder = 1
; perimeter_extrusion_width = 0
; perimeter_speed = 60
; perimeters = 3
; small_perimeter_speed = 15
; solid_infill_below_area = 70
; solid_infill_every_layers = 0
; solid_infill_extruder = 1
; solid_infill_extrusion_width = 0
; solid_infill_speed = 20
; thin_walls = 1
; top_infill_extrusion_width = 0
; top_infill_pattern = rectilinear
; top_solid_infill_speed = 15
; top_solid_layers = 3
