; generated by Slic3r 1.3.0 on 2020-10-23 at 16:28:57

; external perimeters extrusion width = 0.55mm (5.57mm^3/s)
; perimeters extrusion width = 0.58mm (11.78mm^3/s)
; infill extrusion width = 0.58mm (15.71mm^3/s)
; solid infill extrusion width = 0.58mm (3.93mm^3/s)
; top infill extrusion width = 0.58mm (2.95mm^3/s)

M107
M104 S205 ; set temperature
G28 ; home all axes
G1 Z5 F5000 ; lift nozzle

; Filament gcode

M109 S205 ; set temperature and wait for it to be reached
G21 ; set units to millimeters
G90 ; use absolute coordinates
M82 ; use absolute distances for extrusion
G92 E0
G1 Z0.400 F7800.000
G1 E-2.00000 F2400.00000
G92 E0
G1 X97.373 Y93.371 F7800.000
G1 E2.00000 F2400.00000
G1 F1800
G1 X97.152 Y93.476 E2.00988
G1 X96.527 Y93.861 E2.03959
G1 X95.984 Y94.280 E2.06729
G1 X95.448 Y94.788 E2.09713
G1 X95.133 Y95.145 E2.11636
G1 X94.729 Y95.691 E2.14380
G1 X94.309 Y96.435 E2.17837
G1 X97.842 Y92.902 E2.38030
G1 X98.339 Y92.666 E2.40255
G1 X99.063 Y92.410 E2.43359
G1 X99.634 Y92.267 E2.45737
G1 X93.723 Y98.178 E2.79523
G1 X93.644 Y98.540 E2.81018
G1 X93.547 Y99.327 E2.84223
G1 X93.540 Y99.518 E2.84996
G1 X100.997 Y92.061 E3.27617
G1 X101.532 Y92.020 E3.29787
G1 X102.199 Y92.016 E3.32482
G1 X93.529 Y100.686 E3.82035
G1 X93.544 Y101.097 E3.83698
G1 X93.623 Y101.749 E3.86350
G1 X97.912 Y97.460 E4.10863
G1 X97.743 Y98.050 E4.13343
G1 X97.651 Y98.542 E4.15366
G1 X97.604 Y98.926 E4.16929
G1 X93.816 Y102.713 E4.38577
G1 X94.108 Y103.578 E4.42266
G1 X97.571 Y100.115 E4.62059
G1 X97.609 Y100.653 E4.64241
G1 X97.680 Y101.163 E4.66320
G1 X94.485 Y104.358 E4.84581
G1 X94.717 Y104.758 E4.86451
G1 X94.940 Y105.060 E4.87967
G1 X97.917 Y102.083 E5.04983
G1 X98.060 Y102.453 E5.06586
G1 X98.273 Y102.884 E5.08530
G1 X95.469 Y105.688 E5.24554
G1 X95.674 Y105.909 E5.25773
G1 X96.066 Y106.248 E5.27867
G1 X98.744 Y103.570 E5.43172
G1 X99.012 Y103.867 E5.44786
G1 X99.323 Y104.148 E5.46482
G1 X96.733 Y106.738 E5.61285
G1 X97.473 Y107.155 E5.64718
G1 X100.021 Y104.607 E5.79278
G1 X100.392 Y104.779 E5.80932
G1 X100.851 Y104.934 E5.82889
G1 X98.294 Y107.491 E5.97503
G1 X98.960 Y107.691 E6.00313
G1 X99.202 Y107.740 E6.01311
G1 X101.836 Y105.106 E6.16365
G1 X102.337 Y105.126 E6.18392
G1 X103.002 Y105.097 E6.21081
G1 X100.193 Y107.906 E6.37132
G1 X100.611 Y107.954 E6.38830
G1 X101.277 Y107.979 E6.41526
G1 X104.422 Y104.834 E6.59496
G1 X104.962 Y104.654 E6.61797
G1 X105.475 Y104.438 E6.64048
G1 X106.062 Y104.136 E6.66715
G1 X106.489 Y103.881 E6.68725
G1 X106.489 Y103.924 E6.68900
G1 X102.469 Y107.944 E6.91874
G1 X102.759 Y107.919 E6.93052
G1 X103.384 Y107.826 E6.95602
G1 X103.850 Y107.720 E6.97537
G1 X106.489 Y105.081 E7.12617
G1 X106.489 Y106.238 E7.17293
G1 X105.576 Y107.151 E7.22509
G1 E5.22509 F2400.00000
G92 E0
G1 X105.398 Y95.759 F7800.000
G1 E2.00000 F2400.00000
G1 F1800
G1 X106.489 Y94.668 E2.06233
G1 X106.489 Y93.511 E2.10908
G1 X104.608 Y95.392 E2.21658
G1 X104.151 Y95.226 E2.23624
G1 X103.736 Y95.107 E2.25367
G1 X106.009 Y92.834 E2.38355
G1 X105.550 Y92.645 E2.40361
G1 X105.170 Y92.516 E2.41982
G1 X102.761 Y94.925 E2.55754
G1 X102.183 Y94.880 E2.58096
G1 X101.651 Y94.878 E2.60246
G1 X104.266 Y92.263 E2.75195
G1 X103.819 Y92.168 E2.77042
G1 X103.284 Y92.088 E2.79229
G1 X100.274 Y95.098 E2.96431
G1 X99.679 Y95.328 E2.99012
G1 X99.287 Y95.542 E3.00817
G1 X98.875 Y95.833 E3.02854
G1 X98.548 Y96.128 E3.04634
G1 X98.212 Y96.505 E3.06674
G1 X97.919 Y96.921 E3.08731
G1 X97.698 Y97.315 E3.10556
G1 X97.444 Y97.928 E3.13239
M104 S200 ; set temperature