; generated by Slic3r 1.3.0 on 2020-11-25 at 11:52:23

; external perimeters extrusion width = 0.55mm (5.57mm^3/s)
; perimeters extrusion width = 0.58mm (11.78mm^3/s)
; infill extrusion width = 0.58mm (15.71mm^3/s)
; solid infill extrusion width = 0.58mm (3.93mm^3/s)
; top infill extrusion width = 0.58mm (2.95mm^3/s)

M107
M104 S205 ; set temperature
G28 ; home all axes
G1 Z5 F5000 ; lift nozzle

; Filament gcode

M109 S205 ; set temperature and wait for it to be reached
G21 ; set units to millimeters
G90 ; use absolute coordinates
M82 ; use absolute distances for extrusion
G92 E0
G1 Z0.400 F7800.000
G1 E-2.00000 F2400.00000
G92 E0
G1 X85.647 Y96.998 F7800.000
G1 E2.00000 F2400.00000
G1 F1800
G1 X84.240 Y98.405 E2.08039
G1 X84.235 Y98.935 E2.10180
G1 X84.291 Y99.222 E2.11362
G1 X86.491 Y97.021 E2.23938
G1 X87.356 Y97.025 E2.27432
G1 X84.928 Y99.453 E2.41310
G1 X85.795 Y99.453 E2.44817
G1 X88.224 Y97.025 E2.58695
G1 X89.091 Y97.025 E2.62202
G1 X86.663 Y99.453 E2.76080
G1 X87.531 Y99.453 E2.79587
G1 X89.959 Y97.025 E2.93465
G1 X90.827 Y97.025 E2.96972
G1 X88.399 Y99.453 E3.10850
G1 X89.266 Y99.453 E3.14357
G1 X91.695 Y97.025 E3.28235
G1 X92.562 Y97.025 E3.31742
G1 X90.134 Y99.453 E3.45620
G1 X91.002 Y99.453 E3.49127
G1 X93.430 Y97.025 E3.63005
G1 X94.298 Y97.025 E3.66512
G1 X91.870 Y99.453 E3.80390
G1 X92.737 Y99.453 E3.83897
G1 X95.166 Y97.025 E3.97776
G1 X96.033 Y97.025 E4.01282
G1 X93.605 Y99.453 E4.15161
G1 X94.473 Y99.453 E4.18668
G1 X96.901 Y97.025 E4.32546
G1 X97.769 Y97.025 E4.36053
G1 X95.341 Y99.453 E4.49931
G1 X96.208 Y99.453 E4.53438
G1 X98.637 Y97.025 E4.67316
G1 X99.504 Y97.025 E4.70823
G1 X97.076 Y99.453 E4.84701
G1 X97.723 Y99.453 E4.87315
G1 X97.723 Y99.674 E4.88208
G1 X100.372 Y97.025 E5.03348
G1 X101.240 Y97.025 E5.06855
G1 X97.723 Y100.541 E5.26955
G1 E3.26955 F2400.00000
G92 E0
G1 X98.831 Y103.773 F7800.000
G1 E2.00000 F2400.00000
G1 F1800
G1 X98.369 Y103.773 E2.01867
G1 X98.177 Y104.024 E2.03145
G1 X98.122 Y104.149 E2.03698
G1 X98.168 Y104.301 E2.04340
G1 X98.174 Y104.429 E2.04856
G1 X99.299 Y103.304 E2.11286
G1 X100.167 Y103.304 E2.14793
G1 X98.231 Y105.240 E2.25860
G1 X98.246 Y105.273 E2.26005
G1 X99.066 Y105.273 E2.29319
G1 X101.035 Y103.304 E2.40571
G1 X101.903 Y103.304 E2.44078
G1 X99.934 Y105.273 E2.55331
G1 X100.802 Y105.273 E2.58837
G1 X102.770 Y103.304 E2.70090
G1 X103.638 Y103.304 E2.73597
G1 X101.669 Y105.273 E2.84849
G1 X102.537 Y105.273 E2.88356
G1 X104.506 Y103.304 E2.99608
G1 X105.374 Y103.304 E3.03115
G1 X103.405 Y105.273 E3.14367
G1 X104.272 Y105.273 E3.17874
G1 X106.241 Y103.304 E3.29127
G1 X107.109 Y103.304 E3.32634
G1 X105.140 Y105.273 E3.43886
G1 X106.008 Y105.273 E3.47393
G1 X110.264 Y101.017 E3.71716
G1 X110.280 Y101.868 E3.75158
G1 X106.876 Y105.273 E3.94615
G1 X107.743 Y105.273 E3.98122
G1 X110.287 Y102.729 E4.12662
G1 X110.261 Y103.124 E4.14264
G1 X110.173 Y103.567 E4.16087
G1 X110.071 Y103.812 E4.17162
G1 X108.694 Y105.190 E4.25033
G1 E2.25033 F2400.00000
G92 E0
G1 X114.391 Y102.096 F7800.000
G1 E2.00000 F2400.00000
G1 F1800
G1 X115.371 Y101.116 E2.05605
G1 X115.490 Y100.934 E2.06481
G1 X115.657 Y100.467 E2.08484
G1 X115.750 Y99.870 E2.10929
G1 X113.259 Y102.361 E2.25165
G1 X112.852 Y102.331 E2.26814
G1 X112.507 Y102.245 E2.28252
G1 X115.686 Y99.066 E2.46421
G1 X115.585 Y98.660 E2.48111
G1 X115.415 Y98.469 E2.49143
G1 X111.954 Y101.930 E2.68920
G1 X111.715 Y101.696 E2.70269
G1 X111.545 Y101.472 E2.71410
G1 X114.963 Y98.053 E2.90948
G1 X114.417 Y97.782 E2.93410
G1 X114.373 Y97.775 E2.93591
G1 X111.164 Y100.984 E3.11931
G1 X110.296 Y100.984 E3.15438
G1 X113.617 Y97.664 E3.34415
G1 X112.889 Y97.776 E3.37390
G1 X112.309 Y98.117 E3.40110
G1 X111.871 Y98.862 E3.43605
G1 X111.551 Y98.862 E3.44898
G1 X106.789 Y103.624 E3.72110
G1 X106.693 Y103.219 E3.73791
G1 X106.649 Y103.090 E3.74342
G1 X106.569 Y102.977 E3.74903
G1 X110.683 Y98.862 E3.98417
G1 X110.255 Y98.862 E4.00145
G1 X110.263 Y98.414 E4.01956
G1 X105.852 Y102.825 E4.27163
G1 X104.973 Y102.837 E4.30719
G1 X110.279 Y97.531 E4.61044
G1 X110.256 Y96.686 E4.64462
G1 X104.093 Y102.849 E4.99688
G1 X103.213 Y102.861 E5.03244
G1 X110.149 Y95.925 E5.42884
G1 X110.125 Y95.789 E5.43443
G1 X109.916 Y95.291 E5.45628
G1 X102.333 Y102.873 E5.88966
G1 X101.453 Y102.885 E5.92522
G1 X109.481 Y94.858 E6.38401
G1 X108.987 Y94.738 E6.40457
G1 X108.734 Y94.737 E6.41479
G1 X106.638 Y96.833 E6.53456
G1 X106.595 Y96.732 E6.53899
G1 X106.403 Y96.576 E6.54900
G1 X106.077 Y96.526 E6.56231
G1 X107.867 Y94.736 E6.66459
G1 X107.000 Y94.736 E6.69962
G1 X105.198 Y96.538 E6.80262
G1 X104.325 Y96.543 E6.83790
G1 X106.133 Y94.735 E6.94124
G1 X105.266 Y94.734 E6.97627
G1 X103.457 Y96.543 E7.07967
G1 X102.589 Y96.543 E7.11473
G1 X104.399 Y94.733 E7.21818
G1 X103.532 Y94.732 E7.25321
G1 X101.722 Y96.543 E7.35671
G1 X100.854 Y96.543 E7.39178
G1 X102.666 Y94.731 E7.49532
G1 X101.799 Y94.730 E7.53035
G1 X99.986 Y96.543 E7.63395
G1 X99.118 Y96.543 E7.66902
G1 X100.932 Y94.729 E7.77267
G1 X100.065 Y94.728 E7.80770
G1 X98.249 Y96.543 E7.91145
G1 X98.170 Y96.368 E7.91922
G1 X98.124 Y96.196 E7.92639
G1 X98.146 Y95.780 E7.94324
G1 X99.198 Y94.728 E8.00338
G1 E6.00338 F2400.00000
G92 E0
G1 X100.574 Y102.897 F7800.000
G1 E2.00000 F2400.00000
G1 F1800
G1 X106.446 Y97.025 E2.33565
G1 X105.579 Y97.025 E2.37072
G1 X99.694 Y102.910 E2.70706
G1 X98.819 Y102.916 E2.74240
G1 X104.711 Y97.025 E3.07913
G1 X103.843 Y97.025 E3.11420
G1 X97.958 Y102.910 E3.45057
G1 X97.096 Y102.904 E3.48538
G1 X102.975 Y97.025 E3.82140
G1 X102.108 Y97.025 E3.85646
G1 X96.235 Y102.898 E4.19212
G1 X95.373 Y102.891 E4.22694
G1 X97.870 Y100.394 E4.36967
G1 X97.003 Y100.394 E4.40473
G1 X94.512 Y102.885 E4.54711
G1 X93.650 Y102.879 E4.58192
G1 X96.135 Y100.394 E4.72394
G1 X95.267 Y100.394 E4.75901
G1 X92.789 Y102.873 E4.90066
G1 X91.927 Y102.866 E4.93548
G1 X94.399 Y100.394 E5.07678
G1 X93.532 Y100.394 E5.11185
G1 X91.066 Y102.860 E5.25280
G1 X90.204 Y102.854 E5.28761
G1 X92.664 Y100.394 E5.42820
G1 X91.796 Y100.394 E5.46327
G1 X89.343 Y102.848 E5.60350
G1 X88.481 Y102.841 E5.63832
G1 X90.928 Y100.394 E5.77819
G1 X90.061 Y100.394 E5.81326
G1 X87.620 Y102.835 E5.95278
G1 X86.758 Y102.829 E5.98760
G1 X89.193 Y100.394 E6.12676
G1 X88.325 Y100.394 E6.16183
G1 X85.897 Y102.823 E6.30063
G1 X85.014 Y102.837 E6.33629
G1 X87.458 Y100.394 E6.47592
G1 X86.590 Y100.394 E6.51099
G1 X84.291 Y102.693 E6.64238
G1 X84.246 Y102.445 E6.65255
G1 X84.246 Y101.870 E6.67579
G1 X85.722 Y100.394 E6.76016
M104 S200 ; set temperature
G1 Z0.800 F7800.000
G1 X84.289 Y101.644 F7800.000
G1 F4690.95
G1 X85.439 Y102.794 E6.80532
G1 X86.292 Y102.779 E6.82902
G1 X84.289 Y100.776 E6.90770
G1 X84.289 Y100.643 E6.91139
G1 X84.485 Y100.536 E6.91760
G1 X84.682 Y100.466 E6.92340
G1 X84.832 Y100.451 E6.92759
G1 X87.166 Y102.785 E7.01928
G1 X88.040 Y102.792 E7.04356
G1 X85.686 Y100.437 E7.13604
G1 X86.553 Y100.437 E7.16014
G1 X88.914 Y102.798 E7.25288
G1 X89.788 Y102.804 E7.27716
G1 X87.421 Y100.437 E7.37014
G1 X88.289 Y100.437 E7.39425
G1 X90.662 Y102.811 E7.48748
G1 X91.536 Y102.817 E7.51176
G1 X89.157 Y100.437 E7.60524
G1 X90.024 Y100.437 E7.62934
G1 X92.410 Y102.823 E7.72307
G1 X93.284 Y102.830 E7.74735
G1 X90.892 Y100.437 E7.84133
G1 X91.760 Y100.437 E7.86543
G1 X94.159 Y102.836 E7.95965
G1 X95.033 Y102.842 E7.98394
G1 X92.628 Y100.437 E8.07841
G1 X93.495 Y100.437 E8.10251
G1 X95.907 Y102.849 E8.19724
G1 X96.781 Y102.855 E8.22152
G1 X94.363 Y100.437 E8.31649
G1 X95.231 Y100.437 E8.34059
G1 X97.655 Y102.861 E8.43581
G1 X98.529 Y102.868 E8.46009
G1 X96.099 Y100.437 E8.55556
G1 X96.966 Y100.437 E8.57967
G1 X99.403 Y102.874 E8.67538
G1 X100.261 Y102.864 E8.69922
G1 X97.766 Y100.370 E8.79721
G1 X97.766 Y99.502 E8.82131
G1 X101.117 Y102.852 E8.95293
G1 E6.95293 F2400.00000
G92 E0
G1 X98.593 Y104.667 F7800.000
G1 E2.00000 F2400.00000
G1 F4690.95
G1 X98.568 Y104.827 E2.00449
G1 X98.513 Y104.872 E2.00646
G1 X98.671 Y105.229 E2.01731
G1 X99.155 Y105.229 E2.03075
G1 X98.211 Y104.286 E2.06782
G1 X98.227 Y104.187 E2.07059
G1 X98.211 Y103.876 E2.07924
G1 X98.165 Y103.724 E2.08365
G1 X98.221 Y103.599 E2.08746
G1 X98.294 Y103.501 E2.09086
G1 X100.023 Y105.229 E2.15876
G1 X100.891 Y105.229 E2.18286
G1 X99.009 Y103.347 E2.25679
G1 X99.876 Y103.347 E2.28090
G1 X101.758 Y105.229 E2.35483
G1 X102.626 Y105.229 E2.37893
G1 X100.744 Y103.347 E2.45287
G1 X101.612 Y103.347 E2.47697
G1 X103.494 Y105.229 E2.55090
G1 X104.362 Y105.229 E2.57500
G1 X102.480 Y103.347 E2.64894
G1 X103.347 Y103.347 E2.67304
G1 X105.229 Y105.229 E2.74697
G1 X106.097 Y105.229 E2.77108
G1 X104.215 Y103.347 E2.84501
G1 X105.083 Y103.347 E2.86911
G1 X106.965 Y105.229 E2.94304
G1 X107.833 Y105.229 E2.96715
G1 X105.951 Y103.347 E3.04108
G1 X106.818 Y103.347 E3.06518
G1 X108.682 Y105.211 E3.13840
G1 X110.187 Y98.906 F7800.000
G1 F4690.95
G1 X113.593 Y102.312 E3.27221
G1 X113.674 Y102.318 E3.27446
G1 X114.378 Y102.229 E3.29418
G1 X111.054 Y98.906 E3.42474
G1 X111.445 Y98.906 E3.43560
G1 X111.622 Y98.606 E3.44527
G1 X114.959 Y101.942 E3.57636
G1 X115.193 Y101.747 E3.58484
G1 X115.366 Y101.482 E3.59362
G1 X111.985 Y98.101 E3.72647
G1 X112.464 Y97.819 E3.74190
G1 X112.556 Y97.805 E3.74451
G1 X115.618 Y100.866 E3.86477
G1 X115.703 Y100.366 E3.87885
G1 X115.716 Y100.096 E3.88636
G1 X113.346 Y97.726 E3.97947
G1 X113.992 Y97.826 E3.99764
G1 X114.629 Y98.142 E4.01738
G1 X115.282 Y98.795 E4.04306
G1 E2.04306 F2400.00000
G92 E0
G1 X110.217 Y97.201 F7800.000
G1 E2.00000 F2400.00000
G1 F4690.95
G1 X107.787 Y94.771 E2.09547
G1 X106.919 Y94.771 E2.11957
G1 X110.233 Y98.084 E2.24975
G1 X110.218 Y98.937 E2.27344
G1 X106.051 Y94.771 E2.43711
G1 X105.184 Y94.771 E2.46122
G1 X111.354 Y100.941 E2.70361
G1 X110.486 Y100.941 E2.72771
G1 X106.613 Y97.068 E2.87986
G1 X105.746 Y97.068 E2.90396
G1 X110.222 Y101.545 E3.07983
G1 X110.239 Y102.430 E3.10441
G1 X104.878 Y97.068 E3.31503
G1 X104.010 Y97.068 E3.33913
G1 X110.235 Y103.293 E3.58367
G1 X110.218 Y103.549 E3.59081
G1 X110.111 Y104.037 E3.60467
G1 X103.142 Y97.068 E3.87842
G1 X102.275 Y97.068 E3.90252
G1 X109.810 Y104.604 E4.19855
G1 X109.710 Y104.743 E4.20331
G1 X109.370 Y105.031 E4.21570
G1 X101.407 Y97.068 E4.52851
G1 X100.539 Y97.068 E4.55262
G1 X106.253 Y102.782 E4.77708
G1 X105.397 Y102.794 E4.80086
G1 X99.671 Y97.068 E5.02579
G1 X98.804 Y97.068 E5.04989
G1 X104.541 Y102.805 E5.27528
G1 X103.685 Y102.817 E5.29906
G1 X97.936 Y97.068 E5.52491
G1 X97.068 Y97.068 E5.54901
G1 X102.829 Y102.829 E5.77532
G1 X101.973 Y102.841 E5.79910
G1 X96.200 Y97.068 E6.02587
G1 X95.333 Y97.068 E6.04998
G1 X97.674 Y99.409 E6.14196
G1 X96.806 Y99.409 E6.16606
G1 X94.465 Y97.068 E6.25804
G1 X93.597 Y97.068 E6.28215
G1 X95.938 Y99.409 E6.37413
G1 X95.071 Y99.409 E6.39823
G1 X92.729 Y97.068 E6.49021
G1 X91.862 Y97.068 E6.51431
G1 X94.203 Y99.409 E6.60629
G1 X93.335 Y99.409 E6.63040
G1 X90.994 Y97.068 E6.72238
G1 X90.126 Y97.068 E6.74648
G1 X92.467 Y99.409 E6.83846
G1 X91.600 Y99.409 E6.86257
G1 X89.258 Y97.068 E6.95455
G1 X88.391 Y97.068 E6.97865
G1 X90.732 Y99.409 E7.07063
G1 X89.864 Y99.409 E7.09474
G1 X87.523 Y97.068 E7.18672
G1 X86.655 Y97.068 E7.21082
G1 X88.996 Y99.409 E7.30280
G1 X88.129 Y99.409 E7.32690
G1 X85.776 Y97.057 E7.41932
G1 X84.898 Y97.047 E7.44371
G1 X87.261 Y99.409 E7.53653
G1 X86.393 Y99.409 E7.56063
G1 X84.320 Y97.336 E7.64208
G1 X84.289 Y97.466 E7.64578
G1 X84.282 Y98.166 E7.66522
G1 X85.525 Y99.409 E7.71408
G1 X85.062 Y99.409 E7.72697
G1 X84.861 Y99.370 E7.73265
G1 X84.767 Y99.292 E7.73604
G1 X84.698 Y99.138 E7.74074
G1 X84.660 Y98.891 E7.74767
G1 X84.663 Y98.547 E7.75722
G1 E5.75722 F2400.00000
G92 E0
G1 X98.171 Y95.567 F7800.000
G1 E2.00000 F2400.00000
G1 F4690.95
G1 X99.103 Y96.499 E2.03661
G1 X99.970 Y96.499 E2.06072
G1 X98.276 Y94.805 E2.12727
G1 X98.454 Y94.771 E2.13229
G1 X99.109 Y94.771 E2.15050
G1 X100.838 Y96.499 E2.21842
G1 X101.706 Y96.499 E2.24252
G1 X99.977 Y94.771 E2.31043
G1 X100.845 Y94.771 E2.33454
G1 X102.574 Y96.499 E2.40245
G1 X103.441 Y96.499 E2.42655
G1 X101.713 Y94.771 E2.49447
G1 X102.580 Y94.771 E2.51857
G1 X104.309 Y96.499 E2.58648
G1 X105.177 Y96.499 E2.61059
G1 X103.448 Y94.771 E2.67850
G1 X104.316 Y94.771 E2.70261
G1 X106.032 Y96.487 E2.77001
G1 X109.688 Y95.804 F7800.000
G1 F4690.95
G1 X109.464 Y95.269 E2.78612
G1 X109.099 Y94.912 E2.80030
G1 X108.698 Y94.814 E2.81176
G1 X110.070 Y96.186 E2.86564
G1 Z1.200 F7800.000
G1 E0.86564 F2400.00000
G92 E0
G1 X114.434 Y102.053 F7800.000
G1 E2.00000 F2400.00000
G1 F4716.73
G1 X115.328 Y101.159 E2.03511
G1 X115.447 Y100.978 E2.04114
G1 X115.613 Y100.511 E2.05490
G1 X115.706 Y99.913 E2.07171
G1 X113.302 Y102.317 E2.16615
G1 X112.896 Y102.288 E2.17748
G1 X112.550 Y102.201 E2.18736
G1 X115.643 Y99.109 E2.30884
G1 X115.541 Y98.703 E2.32045
G1 X115.371 Y98.513 E2.32755
G1 X111.998 Y101.886 E2.46007
G1 X111.759 Y101.653 E2.46935
G1 X111.588 Y101.428 E2.47719
G1 X114.920 Y98.097 E2.60807
G1 X114.374 Y97.826 E2.62499
G1 X114.330 Y97.819 E2.62624
G1 X111.207 Y100.941 E2.74889
G1 X110.340 Y100.941 E2.77299
G1 X113.573 Y97.708 E2.90001
G1 X112.845 Y97.819 E2.92046
G1 X112.265 Y98.160 E2.93916
G1 X111.827 Y98.906 E2.96318
G1 X111.507 Y98.906 E2.97207
G1 X106.833 Y103.580 E3.15570
G1 X106.737 Y103.175 E3.16725
G1 X106.692 Y103.047 E3.17104
G1 X106.612 Y102.933 E3.17490
G1 X110.639 Y98.906 E3.33310
G1 X110.212 Y98.906 E3.34498
G1 X110.220 Y98.458 E3.35743
G1 X105.896 Y102.782 E3.52728
G1 X105.016 Y102.794 E3.55172
G1 X110.235 Y97.575 E3.75675
G1 X110.213 Y96.729 E3.78024
G1 X104.136 Y102.806 E4.01895
G1 X103.256 Y102.818 E4.04339
G1 X110.105 Y95.969 E4.31245
G1 X110.082 Y95.832 E4.31629
G1 X109.873 Y95.334 E4.33131
G1 X102.377 Y102.830 E4.62578
G1 X101.497 Y102.842 E4.65022
G1 X109.437 Y94.901 E4.96216
G1 X108.901 Y94.771 E4.97751
G1 X108.700 Y94.771 E4.98307
G1 X106.682 Y96.789 E5.06237
G1 X106.639 Y96.689 E5.06542
G1 X106.446 Y96.532 E5.07230
G1 X106.121 Y96.483 E5.08145
G1 X107.833 Y94.771 E5.14870
G1 X106.965 Y94.771 E5.17281
G1 X105.241 Y96.494 E5.24052
G1 X104.368 Y96.499 E5.26476
G1 X106.097 Y94.771 E5.33268
G1 X105.229 Y94.771 E5.35678
G1 X103.501 Y96.499 E5.42469
G1 X102.633 Y96.499 E5.44880
G1 X104.362 Y94.771 E5.51671
G1 X103.494 Y94.771 E5.54082
G1 X101.765 Y96.499 E5.60873
G1 X100.897 Y96.499 E5.63283
G1 X102.626 Y94.771 E5.70075
G1 X101.758 Y94.771 E5.72485
G1 X100.030 Y96.499 E5.79276
G1 X99.162 Y96.499 E5.81687
G1 X100.891 Y94.771 E5.88478
G1 X100.023 Y94.771 E5.90889
G1 X98.292 Y96.499 E5.97684
G1 X98.213 Y96.324 E5.98217
G1 X98.168 Y96.153 E5.98710
G1 X98.189 Y95.736 E5.99868
G1 X99.155 Y94.771 E6.03662
G1 E4.03662 F2400.00000
G92 E0
G1 X97.766 Y100.498 F7800.000
G1 E2.00000 F2400.00000
G1 F4716.73
G1 X101.196 Y97.068 E2.13474
G1 X100.329 Y97.068 E2.15885
G1 X97.766 Y99.630 E2.25950
G1 X97.766 Y99.409 E2.26564
G1 X97.120 Y99.409 E2.28361
G1 X99.461 Y97.068 E2.37559
G1 X98.593 Y97.068 E2.39969
G1 X96.252 Y99.409 E2.49167
G1 X95.384 Y99.409 E2.51578
G1 X97.725 Y97.068 E2.60776
G1 X96.858 Y97.068 E2.63186
G1 X94.516 Y99.409 E2.72384
G1 X93.649 Y99.409 E2.74794
G1 X95.990 Y97.068 E2.83992
G1 X95.122 Y97.068 E2.86403
G1 X92.781 Y99.409 E2.95601
G1 X91.913 Y99.409 E2.98011
G1 X94.254 Y97.068 E3.07209
G1 X93.387 Y97.068 E3.09620
G1 X91.045 Y99.409 E3.18818
G1 X90.178 Y99.409 E3.21228
G1 X92.519 Y97.068 E3.30426
G1 X91.651 Y97.068 E3.32837
G1 X89.310 Y99.409 E3.42035
G1 X88.442 Y99.409 E3.44445
G1 X90.783 Y97.068 E3.53643
G1 X89.916 Y97.068 E3.56053
G1 X87.574 Y99.409 E3.65251
G1 X86.707 Y99.409 E3.67662
G1 X89.048 Y97.068 E3.76860
G1 X88.180 Y97.068 E3.79270
G1 X85.839 Y99.409 E3.88468
G1 X84.971 Y99.409 E3.90879
G1 X87.313 Y97.068 E4.00077
G1 X86.448 Y97.065 E4.02478
G1 X84.334 Y99.178 E4.10781
G1 X84.278 Y98.891 E4.11594
G1 X84.283 Y98.362 E4.13065
G1 X85.603 Y97.042 E4.18249
G1 E2.18249 F2400.00000
G92 E0
G1 X85.679 Y100.437 F7800.000
G1 E2.00000 F2400.00000
G1 F4716.73
G1 X84.289 Y101.827 E2.05458
G1 X84.289 Y102.402 E2.07055
G1 X84.334 Y102.650 E2.07755
G1 X86.546 Y100.437 E2.16445
G1 X87.414 Y100.437 E2.18855
G1 X85.058 Y102.794 E2.28111
G1 X85.940 Y102.779 E2.30562
G1 X88.282 Y100.437 E2.39762
G1 X89.150 Y100.437 E2.42172
G1 X86.802 Y102.786 E2.51396
G1 X87.663 Y102.792 E2.53789
G1 X90.017 Y100.437 E2.63038
G1 X90.885 Y100.437 E2.65448
G1 X88.525 Y102.798 E2.74721
G1 X89.386 Y102.804 E2.77114
G1 X91.753 Y100.437 E2.86412
G1 X92.621 Y100.437 E2.88823
G1 X90.248 Y102.810 E2.98145
G1 X91.109 Y102.817 E3.00538
G1 X93.488 Y100.437 E3.09884
G1 X94.356 Y100.437 E3.12295
G1 X91.971 Y102.823 E3.21666
G1 X92.832 Y102.829 E3.24059
G1 X95.224 Y100.437 E3.33455
G1 X96.092 Y100.437 E3.35865
G1 X93.694 Y102.835 E3.45285
G1 X94.555 Y102.842 E3.47679
G1 X96.959 Y100.437 E3.57123
G1 X97.827 Y100.437 E3.59534
G1 X95.417 Y102.848 E3.69003
G1 X96.278 Y102.854 E3.71396
G1 X102.064 Y97.068 E3.94126
G1 X102.932 Y97.068 E3.96536
G1 X97.140 Y102.860 E4.19291
G1 X98.001 Y102.867 E4.21684
G1 X103.800 Y97.068 E4.44463
G1 X104.667 Y97.068 E4.46874
G1 X98.863 Y102.873 E4.69677
G1 X99.737 Y102.866 E4.72106
G1 X105.535 Y97.068 E4.94883
G1 X106.403 Y97.068 E4.97294
G1 X100.617 Y102.854 E5.20024
G1 X98.874 Y103.729 F7800.000
G1 F4716.73
G1 X98.412 Y103.729 E5.21307
G1 X98.221 Y103.981 E5.22185
G1 X98.165 Y104.106 E5.22566
G1 X98.211 Y104.258 E5.23007
G1 X98.218 Y104.386 E5.23361
G1 X99.256 Y103.347 E5.27440
G1 X100.124 Y103.347 E5.29850
G1 X98.274 Y105.197 E5.37116
G1 X98.289 Y105.229 E5.37216
G1 X99.109 Y105.229 E5.39494
G1 X100.991 Y103.347 E5.46887
G1 X101.859 Y103.347 E5.49297
G1 X99.977 Y105.229 E5.56690
G1 X100.845 Y105.229 E5.59101
G1 X102.727 Y103.347 E5.66494
G1 X103.595 Y103.347 E5.68904
G1 X101.713 Y105.229 E5.76297
G1 X102.580 Y105.229 E5.78708
G1 X104.462 Y103.347 E5.86101
G1 X105.330 Y103.347 E5.88511
G1 X103.448 Y105.229 E5.95904
G1 X104.316 Y105.229 E5.98315
G1 X106.198 Y103.347 E6.05708
G1 X107.066 Y103.347 E6.08118
G1 X105.184 Y105.229 E6.15512
G1 X106.051 Y105.229 E6.17922
G1 X110.220 Y101.060 E6.34300
G1 X110.237 Y101.912 E6.36665
G1 X106.919 Y105.229 E6.49698
G1 X107.787 Y105.229 E6.52108
G1 X110.244 Y102.772 E6.61761
G1 X110.218 Y103.168 E6.62862
G1 X110.129 Y103.610 E6.64115
G1 X110.028 Y103.856 E6.64854
G1 X108.738 Y105.146 E6.69923
M106 S255
G1 Z1.600 F7800.000
G1 X108.682 Y105.211 F7800.000
G1 F4693.51
G1 X106.818 Y103.347 E6.77245
G1 X105.951 Y103.347 E6.79655
G1 X107.833 Y105.229 E6.87048
G1 X106.965 Y105.229 E6.89459
G1 X105.083 Y103.347 E6.96852
G1 X104.215 Y103.347 E6.99262
G1 X106.097 Y105.229 E7.06655
G1 X105.229 Y105.229 E7.09066
G1 X103.347 Y103.347 E7.16459
G1 X102.480 Y103.347 E7.18869
G1 X104.362 Y105.229 E7.26262
G1 X103.494 Y105.229 E7.28673
G1 X101.612 Y103.347 E7.36066
G1 X100.744 Y103.347 E7.38476
G1 X102.626 Y105.229 E7.45869
G1 X101.758 Y105.229 E7.48280
G1 X99.876 Y103.347 E7.55673
G1 X99.009 Y103.347 E7.58083
G1 X100.891 Y105.229 E7.65476
G1 X100.023 Y105.229 E7.67887
G1 X98.294 Y103.501 E7.74677
G1 X98.221 Y103.599 E7.75017
G1 X98.165 Y103.724 E7.75398
G1 X98.211 Y103.876 E7.75839
G1 X98.227 Y104.187 E7.76704
G1 X98.211 Y104.286 E7.76981
G1 X99.155 Y105.229 E7.80688
G1 X98.671 Y105.229 E7.82032
G1 X98.513 Y104.872 E7.83117
G1 X98.568 Y104.827 E7.83314
G1 X98.593 Y104.667 E7.83763
G1 E5.83763 F2400.00000
G92 E0
G1 X101.117 Y102.852 F7800.000
G1 E2.00000 F2400.00000
G1 F4693.51
G1 X97.766 Y99.502 E2.13162
G1 X97.766 Y100.370 E2.15572
G1 X100.261 Y102.864 E2.25372
G1 X99.403 Y102.874 E2.27755
G1 X96.966 Y100.437 E2.37327
G1 X96.099 Y100.437 E2.39737
G1 X98.529 Y102.868 E2.49284
G1 X97.655 Y102.861 E2.51712
G1 X95.231 Y100.437 E2.61234
G1 X94.363 Y100.437 E2.63644
G1 X96.781 Y102.855 E2.73142
G1 X95.907 Y102.849 E2.75570
G1 X93.495 Y100.437 E2.85042
G1 X92.628 Y100.437 E2.87452
G1 X95.033 Y102.842 E2.96900
G1 X94.159 Y102.836 E2.99328
G1 X91.760 Y100.437 E3.08750
G1 X90.892 Y100.437 E3.11161
G1 X93.284 Y102.830 E3.20558
G1 X92.410 Y102.823 E3.22986
G1 X90.024 Y100.437 E3.32359
G1 X89.157 Y100.437 E3.34770
G1 X91.536 Y102.817 E3.44118
G1 X90.662 Y102.811 E3.46546
G1 X88.289 Y100.437 E3.55869
G1 X87.421 Y100.437 E3.58279
G1 X89.788 Y102.804 E3.67577
G1 X88.914 Y102.798 E3.70005
G1 X86.553 Y100.437 E3.79279
G1 X85.686 Y100.437 E3.81689
G1 X88.040 Y102.792 E3.90938
G1 X87.166 Y102.785 E3.93366
G1 X84.832 Y100.451 E4.02534
G1 X84.682 Y100.466 E4.02953
G1 X84.485 Y100.536 E4.03533
G1 X84.289 Y100.643 E4.04155
G1 X84.289 Y100.776 E4.04523
G1 X86.292 Y102.779 E4.12391
G1 X85.439 Y102.794 E4.14761
G1 X84.289 Y101.644 E4.19277
G1 E2.19277 F2400.00000
G92 E0
G1 X84.663 Y98.547 F7800.000
G1 E2.00000 F2400.00000
G1 F4693.51
G1 X84.660 Y98.891 E2.00955
G1 X84.698 Y99.138 E2.01648
G1 X84.767 Y99.292 E2.02118
G1 X84.861 Y99.370 E2.02457
G1 X85.062 Y99.409 E2.03025
G1 X85.525 Y99.409 E2.04314
G1 X84.282 Y98.166 E2.09200
G1 X84.289 Y97.466 E2.11144
G1 X84.320 Y97.336 E2.11515
G1 X86.393 Y99.409 E2.19659
G1 X87.261 Y99.409 E2.22069
G1 X84.898 Y97.047 E2.31351
G1 X85.776 Y97.057 E2.33790
G1 X88.129 Y99.409 E2.43032
G1 X88.996 Y99.409 E2.45442
G1 X86.655 Y97.068 E2.54640
G1 X87.523 Y97.068 E2.57051
G1 X89.864 Y99.409 E2.66249
G1 X90.732 Y99.409 E2.68659
G1 X88.391 Y97.068 E2.77857
G1 X89.258 Y97.068 E2.80268
G1 X91.600 Y99.409 E2.89466
G1 X92.467 Y99.409 E2.91876
G1 X90.126 Y97.068 E3.01074
G1 X90.994 Y97.068 E3.03484
G1 X93.335 Y99.409 E3.12682
G1 X94.203 Y99.409 E3.15093
G1 X91.862 Y97.068 E3.24291
G1 X92.729 Y97.068 E3.26701
G1 X95.071 Y99.409 E3.35899
G1 X95.938 Y99.409 E3.38310
G1 X93.597 Y97.068 E3.47508
G1 X94.465 Y97.068 E3.49918
G1 X96.806 Y99.409 E3.59116
G1 X97.674 Y99.409 E3.61526
G1 X95.333 Y97.068 E3.70724
G1 X96.200 Y97.068 E3.73135
G1 X101.973 Y102.841 E3.95812
G1 X102.829 Y102.829 E3.98190
G1 X97.068 Y97.068 E4.20821
G1 X97.936 Y97.068 E4.23232
G1 X103.685 Y102.817 E4.45816
G1 X104.541 Y102.805 E4.48194
G1 X98.804 Y97.068 E4.70733
G1 X99.671 Y97.068 E4.73144
G1 X105.397 Y102.794 E4.95636
G1 X106.253 Y102.782 E4.98014
G1 X100.539 Y97.068 E5.20461
G1 X101.407 Y97.068 E5.22871
G1 X109.370 Y105.031 E5.54152
G1 X109.710 Y104.743 E5.55392
G1 X109.810 Y104.604 E5.55867
G1 X102.275 Y97.068 E5.85470
G1 X103.142 Y97.068 E5.87880
G1 X110.111 Y104.037 E6.15256
G1 X110.218 Y103.549 E6.16641
G1 X110.235 Y103.293 E6.17355
G1 X104.010 Y97.068 E6.41809
G1 X104.878 Y97.068 E6.44219
G1 X110.239 Y102.430 E6.65281
G1 X110.222 Y101.545 E6.67740
G1 X105.746 Y97.068 E6.85326
G1 X106.613 Y97.068 E6.87736
G1 X110.486 Y100.941 E7.02951
G1 X111.354 Y100.941 F7800.000
G1 F4693.51
G1 X105.184 Y94.771 E7.27190
G1 X104.316 Y94.771 E7.29600
G1 X106.032 Y96.487 E7.36341
G1 X105.177 Y96.499 E7.38716
G1 X103.448 Y94.771 E7.45507
G1 X102.580 Y94.771 E7.47917
G1 X104.309 Y96.499 E7.54709
G1 X103.441 Y96.499 E7.57119
G1 X101.713 Y94.771 E7.63910
G1 X100.845 Y94.771 E7.66321
G1 X102.574 Y96.499 E7.73112
G1 X101.706 Y96.499 E7.75522
G1 X99.977 Y94.771 E7.82314
G1 X99.109 Y94.771 E7.84724
G1 X100.838 Y96.499 E7.91515
G1 X99.970 Y96.499 E7.93926
G1 X98.276 Y94.805 E8.00581
G1 X98.229 Y94.896 E8.00866
G1 X98.171 Y95.567 E8.02737
G1 X99.103 Y96.499 E8.06398
G1 X98.674 Y96.499 E8.07589
G1 X98.595 Y96.324 E8.08123
G1 X98.550 Y96.153 E8.08616
G1 X98.553 Y95.949 E8.09181
G1 X110.070 Y96.186 F7800.000
G1 F4693.51
G1 X108.698 Y94.814 E8.14569
G1 X108.519 Y94.771 E8.15082
G1 X107.787 Y94.771 E8.17115
G1 X110.217 Y97.201 E8.26662
G1 X110.240 Y97.685 E8.28008
G1 X110.233 Y98.084 E8.29118
G1 X106.919 Y94.771 E8.42136
G1 X106.051 Y94.771 E8.44546
G1 X110.218 Y98.937 E8.60914
G1 X110.212 Y99.288 E8.61887
G1 X110.568 Y99.288 E8.62878
G1 X110.187 Y98.906 F7800.000
G1 F4693.51
G1 X113.593 Y102.312 E8.76259
G1 X113.674 Y102.318 E8.76484
G1 X114.378 Y102.229 E8.78456
G1 X111.054 Y98.906 E8.91512
G1 X111.445 Y98.906 E8.92598
G1 X111.622 Y98.606 E8.93565
G1 X114.959 Y101.942 E9.06674
G1 X115.193 Y101.747 E9.07522
G1 X115.366 Y101.482 E9.08400
G1 X111.985 Y98.101 E9.21685
G1 X112.464 Y97.819 E9.23228
G1 X112.556 Y97.805 E9.23489
G1 X115.618 Y100.866 E9.35515
G1 X115.703 Y100.366 E9.36923
G1 X115.716 Y100.096 E9.37674
G1 X113.346 Y97.726 E9.46985
G1 X113.992 Y97.826 E9.48802
G1 X114.629 Y98.142 E9.50776
G1 X115.282 Y98.795 E9.53344
G1 Z2.000 F7800.000
G1 X114.434 Y102.053 F7800.000
G1 F4716.96
G1 X115.328 Y101.159 E9.56855
G1 X115.447 Y100.978 E9.57458
G1 X115.613 Y100.511 E9.58834
G1 X115.706 Y99.913 E9.60515
G1 X113.302 Y102.317 E9.69959
G1 X112.896 Y102.288 E9.71092
G1 X112.550 Y102.201 E9.72080
G1 X115.643 Y99.109 E9.84228
G1 X115.541 Y98.703 E9.85389
G1 X115.371 Y98.513 E9.86099
G1 X111.998 Y101.886 E9.99351
G1 X111.759 Y101.653 E10.00278
G1 X111.588 Y101.428 E10.01063
G1 X114.920 Y98.097 E10.14151
G1 X114.374 Y97.826 E10.15843
G1 X114.330 Y97.819 E10.15968
G1 X111.207 Y100.941 E10.28233
G1 X110.340 Y100.941 E10.30643
G1 X113.573 Y97.708 E10.43345
G1 X112.845 Y97.819 E10.45390
G1 X112.265 Y98.160 E10.47259
G1 X111.827 Y98.906 E10.49662
G1 X111.507 Y98.906 E10.50551
G1 X106.833 Y103.580 E10.68914
G1 X106.737 Y103.175 E10.70069
G1 X106.692 Y103.047 E10.70448
G1 X106.612 Y102.933 E10.70833
G1 X110.639 Y98.906 E10.86654
G1 X110.212 Y98.906 E10.87842
G1 X110.220 Y98.458 E10.89087
G1 X105.896 Y102.782 E11.06072
G1 X105.016 Y102.794 E11.08516
G1 X110.235 Y97.575 E11.29019
G1 X110.213 Y96.729 E11.31368
G1 X104.136 Y102.806 E11.55239
G1 X103.256 Y102.818 E11.57683
G1 X110.105 Y95.969 E11.84588
G1 X110.082 Y95.832 E11.84973
G1 X109.873 Y95.334 E11.86475
G1 X102.377 Y102.830 E12.15922
G1 X101.497 Y102.842 E12.18366
G1 X109.437 Y94.901 E12.49560
G1 X108.901 Y94.771 E12.51095
G1 X108.700 Y94.771 E12.51651
G1 X106.682 Y96.789 E12.59581
G1 X106.639 Y96.689 E12.59886
G1 X106.446 Y96.532 E12.60574
G1 X106.307 Y96.505 E12.60969
G1 X106.307 Y96.484 E12.61027
G1 X106.121 Y96.483 E12.61543
G1 X107.833 Y94.771 E12.68268
G1 X106.965 Y94.771 E12.70678
G1 X105.241 Y96.494 E12.77450
G1 X104.368 Y96.499 E12.79874
G1 X106.097 Y94.771 E12.86666
G1 X105.229 Y94.771 E12.89076
G1 X103.501 Y96.499 E12.95867
G1 X102.633 Y96.499 E12.98278
G1 X104.362 Y94.771 E13.05069
G1 X103.494 Y94.771 E13.07479
G1 X101.765 Y96.499 E13.14271
G1 X100.897 Y96.499 E13.16681
G1 X102.626 Y94.771 E13.23473
G1 X101.758 Y94.771 E13.25883
G1 X100.030 Y96.499 E13.32674
G1 X99.162 Y96.499 E13.35085
G1 X100.891 Y94.771 E13.41876
G1 X100.023 Y94.771 E13.44287
G1 X98.292 Y96.499 E13.51081
G1 X98.213 Y96.324 E13.51615
G1 X98.168 Y96.153 E13.52108
G1 X98.189 Y95.736 E13.53266
G1 X99.155 Y94.771 E13.57060
G1 E11.57060 F2400.00000
G92 E0
G1 X97.766 Y100.498 F7800.000
G1 E2.00000 F2400.00000
G1 F4716.96
G1 X101.196 Y97.068 E2.13474
G1 X100.329 Y97.068 E2.15885
G1 X97.766 Y99.630 E2.25950
G1 X97.766 Y99.409 E2.26564
G1 X97.120 Y99.409 E2.28361
G1 X99.461 Y97.068 E2.37559
G1 X98.593 Y97.068 E2.39969
G1 X96.252 Y99.409 E2.49167
G1 X95.384 Y99.409 E2.51578
G1 X97.725 Y97.068 E2.60776
G1 X96.858 Y97.068 E2.63186
G1 X94.516 Y99.409 E2.72384
G1 X93.649 Y99.409 E2.74794
G1 X95.990 Y97.068 E2.83992
G1 X95.122 Y97.068 E2.86403
G1 X92.781 Y99.409 E2.95601
G1 X91.913 Y99.409 E2.98011
G1 X94.254 Y97.068 E3.07209
G1 X93.387 Y97.068 E3.09620
G1 X91.045 Y99.409 E3.18818
G1 X90.178 Y99.409 E3.21228
G1 X92.519 Y97.068 E3.30426
G1 X91.651 Y97.068 E3.32837
G1 X89.310 Y99.409 E3.42035
G1 X88.442 Y99.409 E3.44445
G1 X90.783 Y97.068 E3.53643
G1 X89.916 Y97.068 E3.56053
G1 X87.574 Y99.409 E3.65251
G1 X86.707 Y99.409 E3.67662
G1 X89.048 Y97.068 E3.76860
G1 X88.180 Y97.068 E3.79270
G1 X85.839 Y99.409 E3.88468
G1 X84.971 Y99.409 E3.90879
G1 X87.313 Y97.068 E4.00077
G1 X86.448 Y97.065 E4.02478
G1 X84.334 Y99.178 E4.10781
G1 X84.278 Y98.891 E4.11594
G1 X84.283 Y98.362 E4.13065
G1 X85.603 Y97.042 E4.18249
G1 E2.18249 F2400.00000
G92 E0
G1 X85.679 Y100.437 F7800.000
G1 E2.00000 F2400.00000
G1 F4716.96
G1 X84.289 Y101.827 E2.05458
G1 X84.289 Y102.402 E2.07055
G1 X84.334 Y102.650 E2.07755
G1 X86.546 Y100.437 E2.16445
G1 X87.414 Y100.437 E2.18855
G1 X85.058 Y102.794 E2.28111
G1 X85.940 Y102.779 E2.30562
G1 X88.282 Y100.437 E2.39762
G1 X89.150 Y100.437 E2.42172
G1 X86.802 Y102.786 E2.51396
G1 X87.663 Y102.792 E2.53789
G1 X90.017 Y100.437 E2.63038
G1 X90.885 Y100.437 E2.65448
G1 X88.525 Y102.798 E2.74721
G1 X89.386 Y102.804 E2.77115
G1 X91.753 Y100.437 E2.86412
G1 X92.621 Y100.437 E2.88823
G1 X90.248 Y102.810 E2.98145
G1 X91.109 Y102.817 E3.00538
G1 X93.488 Y100.437 E3.09884
G1 X94.356 Y100.437 E3.12295
G1 X91.971 Y102.823 E3.21666
G1 X92.832 Y102.829 E3.24059
G1 X95.224 Y100.437 E3.33455
G1 X96.092 Y100.437 E3.35865
G1 X93.694 Y102.835 E3.45285
G1 X94.555 Y102.842 E3.47679
G1 X96.959 Y100.437 E3.57123
G1 X97.827 Y100.437 E3.59534
G1 X95.417 Y102.848 E3.69003
G1 X96.278 Y102.854 E3.71396
G1 X102.064 Y97.068 E3.94126
G1 X102.932 Y97.068 E3.96536
G1 X97.140 Y102.860 E4.19291
G1 X98.001 Y102.867 E4.21684
G1 X103.800 Y97.068 E4.44463
G1 X104.667 Y97.068 E4.46874
G1 X98.863 Y102.873 E4.69677
G1 X99.737 Y102.866 E4.72106
G1 X105.535 Y97.068 E4.94883
G1 X106.403 Y97.068 E4.97294
G1 X100.617 Y102.854 E5.20024
G1 X98.874 Y103.729 F7800.000
G1 F4716.96
G1 X98.412 Y103.729 E5.21307
G1 X98.221 Y103.981 E5.22185
G1 X98.165 Y104.106 E5.22566
G1 X98.211 Y104.258 E5.23007
G1 X98.218 Y104.386 E5.23361
G1 X99.256 Y103.347 E5.27440
G1 X100.124 Y103.347 E5.29850
G1 X98.274 Y105.197 E5.37116
G1 X98.289 Y105.229 E5.37216
G1 X99.109 Y105.229 E5.39494
G1 X100.991 Y103.347 E5.46887
G1 X101.859 Y103.347 E5.49297
G1 X99.977 Y105.229 E5.56690
G1 X100.845 Y105.229 E5.59101
G1 X102.727 Y103.347 E5.66494
G1 X103.595 Y103.347 E5.68904
G1 X101.713 Y105.229 E5.76297
G1 X102.580 Y105.229 E5.78708
G1 X104.462 Y103.347 E5.86101
G1 X105.330 Y103.347 E5.88511
G1 X103.448 Y105.229 E5.95904
G1 X104.316 Y105.229 E5.98315
G1 X106.198 Y103.347 E6.05708
G1 X107.066 Y103.347 E6.08118
G1 X105.184 Y105.229 E6.15512
G1 X106.051 Y105.229 E6.17922
G1 X110.220 Y101.060 E6.34300
G1 X110.237 Y101.912 E6.36665
G1 X106.919 Y105.229 E6.49698
G1 X107.787 Y105.229 E6.52108
G1 X110.244 Y102.772 E6.61761
G1 X110.218 Y103.168 E6.62862
G1 X110.129 Y103.610 E6.64115
G1 X110.028 Y103.856 E6.64854
G1 X108.738 Y105.146 E6.69923
G1 Z2.400 F7800.000
G1 X108.682 Y105.211 F7800.000
G1 F4693.51
G1 X106.818 Y103.347 E6.77245
G1 X105.951 Y103.347 E6.79655
G1 X107.833 Y105.229 E6.87048
G1 X106.965 Y105.229 E6.89459
G1 X105.083 Y103.347 E6.96852
G1 X104.215 Y103.347 E6.99262
G1 X106.097 Y105.229 E7.06655
G1 X105.229 Y105.229 E7.09066
G1 X103.347 Y103.347 E7.16459
G1 X102.480 Y103.347 E7.18869
G1 X104.362 Y105.229 E7.26262
G1 X103.494 Y105.229 E7.28673
G1 X101.612 Y103.347 E7.36066
G1 X100.744 Y103.347 E7.38476
G1 X102.626 Y105.229 E7.45869
G1 X101.758 Y105.229 E7.48280
G1 X99.876 Y103.347 E7.55673
G1 X99.009 Y103.347 E7.58083
G1 X100.891 Y105.229 E7.65477
G1 X100.023 Y105.229 E7.67887
G1 X98.294 Y103.501 E7.74677
G1 X98.221 Y103.599 E7.75017
G1 X98.165 Y103.724 E7.75398
G1 X98.211 Y103.876 E7.75839
G1 X98.227 Y104.187 E7.76704
G1 X98.211 Y104.286 E7.76981
G1 X99.155 Y105.229 E7.80688
G1 X98.671 Y105.229 E7.82032
G1 X98.513 Y104.872 E7.83117
G1 X98.568 Y104.827 E7.83314
G1 X98.593 Y104.667 E7.83763
G1 E5.83763 F2400.00000
G92 E0
G1 X101.117 Y102.852 F7800.000
G1 E2.00000 F2400.00000
G1 F4693.51
G1 X97.766 Y99.502 E2.13162
G1 X97.766 Y100.370 E2.15572
G1 X100.261 Y102.864 E2.25372
G1 X99.403 Y102.874 E2.27755
G1 X96.966 Y100.437 E2.37327
G1 X96.099 Y100.437 E2.39737
G1 X98.529 Y102.868 E2.49284
G1 X97.655 Y102.861 E2.51712
G1 X95.231 Y100.437 E2.61234
G1 X94.363 Y100.437 E2.63644
G1 X96.781 Y102.855 E2.73142
G1 X95.907 Y102.849 E2.75570
G1 X93.495 Y100.437 E2.85042
G1 X92.628 Y100.437 E2.87452
G1 X95.033 Y102.842 E2.96900
G1 X94.159 Y102.836 E2.99328
G1 X91.760 Y100.437 E3.08750
G1 X90.892 Y100.437 E3.11161
G1 X93.284 Y102.830 E3.20558
G1 X92.410 Y102.823 E3.22986
G1 X90.024 Y100.437 E3.32359
G1 X89.157 Y100.437 E3.34770
G1 X91.536 Y102.817 E3.44118
G1 X90.662 Y102.811 E3.46546
G1 X88.289 Y100.437 E3.55869
G1 X87.421 Y100.437 E3.58279
G1 X89.788 Y102.804 E3.67577
G1 X88.914 Y102.798 E3.70005
G1 X86.553 Y100.437 E3.79279
G1 X85.686 Y100.437 E3.81689
G1 X88.040 Y102.792 E3.90938
G1 X87.166 Y102.785 E3.93366
G1 X84.832 Y100.451 E4.02534
G1 X84.682 Y100.466 E4.02953
G1 X84.485 Y100.536 E4.03533
G1 X84.289 Y100.643 E4.04155
G1 X84.289 Y100.776 E4.04523
G1 X86.292 Y102.779 E4.12391
G1 X85.439 Y102.794 E4.14762
G1 X84.289 Y101.644 E4.19277
G1 E2.19277 F2400.00000
G92 E0
G1 X84.663 Y98.547 F7800.000
G1 E2.00000 F2400.00000
G1 F4693.51
G1 X84.660 Y98.891 E2.00955
G1 X84.698 Y99.138 E2.01648
G1 X84.767 Y99.292 E2.02118
G1 X84.861 Y99.370 E2.02457
G1 X85.062 Y99.409 E2.03025
G1 X85.525 Y99.409 E2.04314
G1 X84.282 Y98.166 E2.09200
G1 X84.289 Y97.466 E2.11144
G1 X84.320 Y97.336 E2.11515
G1 X86.393 Y99.409 E2.19659
G1 X87.261 Y99.409 E2.22069
G1 X84.898 Y97.047 E2.31351
G1 X85.776 Y97.057 E2.33790
G1 X88.129 Y99.409 E2.43032
G1 X88.996 Y99.409 E2.45442
G1 X86.655 Y97.068 E2.54640
G1 X87.523 Y97.068 E2.57051
G1 X89.864 Y99.409 E2.66249
G1 X90.732 Y99.409 E2.68659
G1 X88.391 Y97.068 E2.77857
G1 X89.258 Y97.068 E2.80268
G1 X91.600 Y99.409 E2.89466
G1 X92.467 Y99.409 E2.91876
G1 X90.126 Y97.068 E3.01074
G1 X90.994 Y97.068 E3.03484
G1 X93.335 Y99.409 E3.12682
G1 X94.203 Y99.409 E3.15093
G1 X91.862 Y97.068 E3.24291
G1 X92.729 Y97.068 E3.26701
G1 X95.071 Y99.409 E3.35899
G1 X95.938 Y99.409 E3.38310
G1 X93.597 Y97.068 E3.47508
G1 X94.465 Y97.068 E3.49918
G1 X96.806 Y99.409 E3.59116
G1 X97.674 Y99.409 E3.61526
G1 X95.333 Y97.068 E3.70724
G1 X96.200 Y97.068 E3.73135
G1 X101.973 Y102.841 E3.95812
G1 X102.829 Y102.829 E3.98190
G1 X97.068 Y97.068 E4.20821
G1 X97.936 Y97.068 E4.23232
G1 X103.685 Y102.817 E4.45816
G1 X104.541 Y102.805 E4.48194
G1 X98.804 Y97.068 E4.70733
G1 X99.671 Y97.068 E4.73144
G1 X105.397 Y102.794 E4.95636
G1 X106.253 Y102.782 E4.98014
G1 X100.539 Y97.068 E5.20461
G1 X101.407 Y97.068 E5.22871
G1 X109.370 Y105.031 E5.54152
G1 X109.710 Y104.743 E5.55392
G1 X109.810 Y104.604 E5.55867
G1 X102.275 Y97.068 E5.85470
G1 X103.142 Y97.068 E5.87880
G1 X110.111 Y104.037 E6.15256
G1 X110.218 Y103.549 E6.16641
G1 X110.235 Y103.293 E6.17355
G1 X104.010 Y97.068 E6.41809
G1 X104.878 Y97.068 E6.44219
G1 X110.239 Y102.430 E6.65281
G1 X110.222 Y101.545 E6.67740
G1 X105.746 Y97.068 E6.85326
G1 X106.613 Y97.068 E6.87736
G1 X110.486 Y100.941 E7.02951
G1 X111.354 Y100.941 F7800.000
G1 F4693.51
G1 X105.184 Y94.771 E7.27190
G1 X104.316 Y94.771 E7.29600
G1 X106.032 Y96.487 E7.36341
G1 X105.177 Y96.499 E7.38716
G1 X103.448 Y94.771 E7.45507
G1 X102.580 Y94.771 E7.47917
G1 X104.309 Y96.499 E7.54709
G1 X103.441 Y96.499 E7.57119
G1 X101.713 Y94.771 E7.63910
G1 X100.845 Y94.771 E7.66321
G1 X102.574 Y96.499 E7.73112
G1 X101.706 Y96.499 E7.75522
G1 X99.977 Y94.771 E7.82314
G1 X99.109 Y94.771 E7.84724
G1 X100.838 Y96.499 E7.91516
G1 X99.970 Y96.499 E7.93926
G1 X98.276 Y94.805 E8.00581
G1 X98.229 Y94.896 E8.00866
G1 X98.171 Y95.567 E8.02737
G1 X99.103 Y96.499 E8.06398
G1 X98.674 Y96.499 E8.07589
G1 X98.595 Y96.324 E8.08123
G1 X98.550 Y96.153 E8.08616
G1 X98.553 Y95.949 E8.09181
G1 X110.070 Y96.186 F7800.000
G1 F4693.51
G1 X108.698 Y94.814 E8.14569
G1 X108.519 Y94.771 E8.15082
G1 X107.787 Y94.771 E8.17115
G1 X110.217 Y97.201 E8.26662
G1 X110.240 Y97.685 E8.28008
G1 X110.233 Y98.084 E8.29118
G1 X106.919 Y94.771 E8.42136
G1 X106.051 Y94.771 E8.44546
G1 X110.218 Y98.937 E8.60914
G1 X110.212 Y99.288 E8.61887
G1 X110.568 Y99.288 E8.62878
G1 X110.187 Y98.906 F7800.000
G1 F4693.51
G1 X113.593 Y102.312 E8.76259
G1 X113.674 Y102.318 E8.76484
G1 X114.378 Y102.229 E8.78456
G1 X111.054 Y98.906 E8.91512
G1 X111.445 Y98.906 E8.92598
G1 X111.622 Y98.606 E8.93566
G1 X114.959 Y101.942 E9.06674
G1 X115.193 Y101.747 E9.07522
G1 X115.366 Y101.482 E9.08400
G1 X111.985 Y98.101 E9.21685
G1 X112.464 Y97.819 E9.23228
G1 X112.556 Y97.805 E9.23489
G1 X115.618 Y100.866 E9.35515
G1 X115.703 Y100.366 E9.36923
G1 X115.716 Y100.096 E9.37674
G1 X113.346 Y97.726 E9.46985
G1 X113.992 Y97.826 E9.48802
G1 X114.629 Y98.142 E9.50777
G1 X115.282 Y98.795 E9.53344
G1 Z2.800 F7800.000
G1 X114.434 Y102.053 F7800.000
G1 F4716.72
G1 X115.328 Y101.159 E9.56855
G1 X115.447 Y100.978 E9.57458
G1 X115.613 Y100.511 E9.58834
G1 X115.706 Y99.913 E9.60515
G1 X113.302 Y102.317 E9.69959
G1 X112.896 Y102.288 E9.71092
G1 X112.550 Y102.201 E9.72080
G1 X115.643 Y99.109 E9.84228
G1 X115.541 Y98.703 E9.85389
G1 X115.371 Y98.513 E9.86099
G1 X111.998 Y101.886 E9.99351
G1 X111.759 Y101.653 E10.00279
G1 X111.588 Y101.428 E10.01063
G1 X114.920 Y98.097 E10.14151
G1 X114.374 Y97.826 E10.15843
G1 X114.330 Y97.819 E10.15968
G1 X111.207 Y100.941 E10.28233
G1 X110.340 Y100.941 E10.30643
G1 X113.573 Y97.708 E10.43345
G1 X112.845 Y97.819 E10.45391
G1 X112.265 Y98.160 E10.47260
G1 X111.827 Y98.906 E10.49662
G1 X111.507 Y98.906 E10.50551
G1 X106.833 Y103.580 E10.68913
G1 X106.737 Y103.175 E10.70068
G1 X106.692 Y103.047 E10.70447
G1 X106.612 Y102.933 E10.70833
G1 X110.639 Y98.906 E10.86653
G1 X110.212 Y98.906 E10.87841
G1 X110.220 Y98.458 E10.89086
G1 X105.896 Y102.782 E11.06071
G1 X105.016 Y102.794 E11.08515
G1 X110.235 Y97.575 E11.29018
G1 X110.213 Y96.729 E11.31367
G1 X104.136 Y102.806 E11.55238
G1 X103.256 Y102.818 E11.57682
G1 X110.105 Y95.969 E11.84588
G1 X110.082 Y95.832 E11.84972
G1 X109.873 Y95.334 E11.86474
G1 X102.377 Y102.830 E12.15921
G1 X101.497 Y102.842 E12.18365
G1 X109.437 Y94.901 E12.49559
G1 X108.901 Y94.771 E12.51094
G1 X108.700 Y94.771 E12.51650
G1 X106.682 Y96.789 E12.59580
G1 X106.639 Y96.689 E12.59885
G1 X106.446 Y96.532 E12.60573
G1 X106.121 Y96.483 E12.61488
G1 X107.833 Y94.771 E12.68213
G1 X106.965 Y94.771 E12.70624
G1 X105.241 Y96.494 E12.77395
G1 X104.368 Y96.499 E12.79819
G1 X106.097 Y94.771 E12.86611
G1 X105.229 Y94.771 E12.89021
G1 X103.501 Y96.499 E12.95812
G1 X102.633 Y96.499 E12.98223
G1 X104.362 Y94.771 E13.05014
G1 X103.494 Y94.771 E13.07425
G1 X101.765 Y96.499 E13.14216
G1 X100.897 Y96.499 E13.16626
G1 X102.626 Y94.771 E13.23418
G1 X101.758 Y94.771 E13.25828
G1 X100.030 Y96.499 E13.32619
G1 X99.162 Y96.499 E13.35030
G1 X100.891 Y94.771 E13.41821
G1 X100.023 Y94.771 E13.44232
G1 X98.292 Y96.499 E13.51027
G1 X98.213 Y96.324 E13.51560
G1 X98.168 Y96.153 E13.52053
G1 X98.189 Y95.736 E13.53211
G1 X99.155 Y94.771 E13.57005
G1 E11.57005 F2400.00000
G92 E0
G1 X97.766 Y100.498 F7800.000
G1 E2.00000 F2400.00000
G1 F4716.72
G1 X101.196 Y97.068 E2.13474
G1 X100.329 Y97.068 E2.15885
G1 X97.766 Y99.630 E2.25950
G1 X97.766 Y99.409 E2.26564
G1 X97.120 Y99.409 E2.28361
G1 X99.461 Y97.068 E2.37559
G1 X98.593 Y97.068 E2.39969
G1 X96.252 Y99.409 E2.49167
G1 X95.384 Y99.409 E2.51578
G1 X97.725 Y97.068 E2.60776
G1 X96.858 Y97.068 E2.63186
G1 X94.516 Y99.409 E2.72384
G1 X93.649 Y99.409 E2.74794
G1 X95.990 Y97.068 E2.83992
G1 X95.122 Y97.068 E2.86403
G1 X92.781 Y99.409 E2.95601
G1 X91.913 Y99.409 E2.98011
G1 X94.254 Y97.068 E3.07209
G1 X93.387 Y97.068 E3.09620
G1 X91.045 Y99.409 E3.18818
G1 X90.178 Y99.409 E3.21228
G1 X92.519 Y97.068 E3.30426
G1 X91.651 Y97.068 E3.32837
G1 X89.310 Y99.409 E3.42035
G1 X88.442 Y99.409 E3.44445
G1 X90.783 Y97.068 E3.53643
G1 X89.916 Y97.068 E3.56053
G1 X87.574 Y99.409 E3.65251
G1 X86.707 Y99.409 E3.67662
G1 X89.048 Y97.068 E3.76860
G1 X88.180 Y97.068 E3.79270
G1 X85.839 Y99.409 E3.88468
G1 X84.971 Y99.409 E3.90879
G1 X87.313 Y97.068 E4.00077
G1 X86.448 Y97.065 E4.02478
G1 X84.334 Y99.178 E4.10781
G1 X84.278 Y98.891 E4.11594
G1 X84.283 Y98.362 E4.13065
G1 X85.603 Y97.042 E4.18249
G1 E2.18249 F2400.00000
G92 E0
G1 X85.679 Y100.437 F7800.000
G1 E2.00000 F2400.00000
G1 F4716.72
G1 X84.289 Y101.827 E2.05458
G1 X84.289 Y102.402 E2.07055
G1 X84.334 Y102.650 E2.07755
G1 X86.546 Y100.437 E2.16445
G1 X87.414 Y100.437 E2.18855
G1 X85.058 Y102.794 E2.28111
G1 X85.940 Y102.779 E2.30562
G1 X88.282 Y100.437 E2.39762
G1 X89.150 Y100.437 E2.42172
G1 X86.802 Y102.786 E2.51396
G1 X87.663 Y102.792 E2.53789
G1 X90.017 Y100.437 E2.63038
G1 X90.885 Y100.437 E2.65448
G1 X88.525 Y102.798 E2.74721
G1 X89.386 Y102.804 E2.77114
G1 X91.753 Y100.437 E2.86412
G1 X92.621 Y100.437 E2.88823
G1 X90.248 Y102.810 E2.98145
G1 X91.109 Y102.817 E3.00538
G1 X93.488 Y100.437 E3.09884
G1 X94.356 Y100.437 E3.12295
G1 X91.971 Y102.823 E3.21666
G1 X92.832 Y102.829 E3.24059
G1 X95.224 Y100.437 E3.33455
G1 X96.092 Y100.437 E3.35865
G1 X93.694 Y102.835 E3.45285
G1 X94.555 Y102.842 E3.47679
G1 X96.959 Y100.437 E3.57123
G1 X97.827 Y100.437 E3.59534
G1 X95.417 Y102.848 E3.69003
G1 X96.278 Y102.854 E3.71396
G1 X102.064 Y97.068 E3.94126
G1 X102.932 Y97.068 E3.96536
G1 X97.140 Y102.860 E4.19291
G1 X98.001 Y102.867 E4.21684
G1 X103.800 Y97.068 E4.44463
G1 X104.667 Y97.068 E4.46873
G1 X98.863 Y102.873 E4.69677
G1 X99.737 Y102.866 E4.72106
G1 X105.535 Y97.068 E4.94883
G1 X106.403 Y97.068 E4.97294
G1 X100.617 Y102.854 E5.20023
G1 X98.874 Y103.729 F7800.000
G1 F4716.72
G1 X98.412 Y103.729 E5.21307
G1 X98.221 Y103.981 E5.22185
G1 X98.165 Y104.106 E5.22565
G1 X98.211 Y104.258 E5.23007
G1 X98.218 Y104.386 E5.23361
G1 X99.256 Y103.347 E5.27440
G1 X100.124 Y103.347 E5.29850
G1 X98.274 Y105.197 E5.37116
G1 X98.289 Y105.229 E5.37216
G1 X99.109 Y105.229 E5.39493
G1 X100.991 Y103.347 E5.46887
G1 X101.859 Y103.347 E5.49297
G1 X99.977 Y105.229 E5.56690
G1 X100.845 Y105.229 E5.59101
G1 X102.727 Y103.347 E5.66494
G1 X103.595 Y103.347 E5.68904
G1 X101.713 Y105.229 E5.76297
G1 X102.580 Y105.229 E5.78708
G1 X104.462 Y103.347 E5.86101
G1 X105.330 Y103.347 E5.88511
G1 X103.448 Y105.229 E5.95904
G1 X104.316 Y105.229 E5.98315
G1 X106.198 Y103.347 E6.05708
G1 X107.066 Y103.347 E6.08118
G1 X105.184 Y105.229 E6.15511
G1 X106.051 Y105.229 E6.17922
G1 X110.220 Y101.060 E6.34299
G1 X110.237 Y101.912 E6.36665
G1 X106.919 Y105.229 E6.49698
G1 X107.787 Y105.229 E6.52108
G1 X110.244 Y102.772 E6.61761
G1 X110.218 Y103.168 E6.62862
G1 X110.129 Y103.610 E6.64115
G1 X110.028 Y103.856 E6.64854
G1 X108.738 Y105.146 E6.69923
G1 Z3.200 F7800.000
G1 X108.682 Y105.211 F7800.000
G1 F4693.31
G1 X106.818 Y103.347 E6.77245
G1 X105.951 Y103.347 E6.79655
G1 X107.833 Y105.229 E6.87048
G1 X106.965 Y105.229 E6.89458
G1 X105.083 Y103.347 E6.96852
G1 X104.215 Y103.347 E6.99262
G1 X106.097 Y105.229 E7.06655
G1 X105.229 Y105.229 E7.09066
G1 X103.347 Y103.347 E7.16459
G1 X102.480 Y103.347 E7.18869
G1 X104.362 Y105.229 E7.26262
G1 X103.494 Y105.229 E7.28673
G1 X101.612 Y103.347 E7.36066
G1 X100.744 Y103.347 E7.38476
G1 X102.626 Y105.229 E7.45869
G1 X101.758 Y105.229 E7.48280
G1 X99.876 Y103.347 E7.55673
G1 X99.009 Y103.347 E7.58083
G1 X100.891 Y105.229 E7.65476
G1 X100.023 Y105.229 E7.67887
G1 X98.294 Y103.501 E7.74676
G1 X98.221 Y103.599 E7.75017
G1 X98.165 Y103.724 E7.75398
G1 X98.211 Y103.876 E7.75839
G1 X98.227 Y104.187 E7.76704
G1 X98.211 Y104.286 E7.76981
G1 X99.155 Y105.229 E7.80688
G1 X98.671 Y105.229 E7.82032
G1 X98.513 Y104.872 E7.83117
G1 X98.568 Y104.827 E7.83314
G1 X98.593 Y104.667 E7.83763
G1 E5.83763 F2400.00000
G92 E0
G1 X101.117 Y102.852 F7800.000
G1 E2.00000 F2400.00000
G1 F4693.31
G1 X97.766 Y99.502 E2.13162
G1 X97.766 Y100.370 E2.15572
G1 X100.261 Y102.864 E2.25372
G1 X99.403 Y102.874 E2.27755
G1 X96.966 Y100.437 E2.37327
G1 X96.099 Y100.437 E2.39737
G1 X98.529 Y102.868 E2.49284
G1 X97.655 Y102.861 E2.51712
G1 X95.231 Y100.437 E2.61234
G1 X94.363 Y100.437 E2.63644
G1 X96.781 Y102.855 E2.73142
G1 X95.907 Y102.849 E2.75570
G1 X93.495 Y100.437 E2.85042
G1 X92.628 Y100.437 E2.87452
G1 X95.033 Y102.842 E2.96900
G1 X94.159 Y102.836 E2.99328
G1 X91.760 Y100.437 E3.08750
G1 X90.892 Y100.437 E3.11161
G1 X93.284 Y102.830 E3.20558
G1 X92.410 Y102.823 E3.22986
G1 X90.024 Y100.437 E3.32359
G1 X89.157 Y100.437 E3.34770
G1 X91.536 Y102.817 E3.44118
G1 X90.662 Y102.811 E3.46546
G1 X88.289 Y100.437 E3.55869
G1 X87.421 Y100.437 E3.58279
G1 X89.788 Y102.804 E3.67577
G1 X88.914 Y102.798 E3.70005
G1 X86.553 Y100.437 E3.79279
G1 X85.686 Y100.437 E3.81689
G1 X88.040 Y102.792 E3.90938
G1 X87.166 Y102.785 E3.93366
G1 X84.832 Y100.451 E4.02534
G1 X84.682 Y100.466 E4.02953
G1 X84.485 Y100.536 E4.03533
G1 X84.289 Y100.643 E4.04155
G1 X84.289 Y100.776 E4.04523
G1 X86.292 Y102.779 E4.12391
G1 X85.439 Y102.794 E4.14761
G1 X84.289 Y101.644 E4.19277
G1 E2.19277 F2400.00000
G92 E0
G1 X84.663 Y98.547 F7800.000
G1 E2.00000 F2400.00000
G1 F4693.31
G1 X84.660 Y98.891 E2.00955
G1 X84.698 Y99.138 E2.01648
G1 X84.767 Y99.292 E2.02118
G1 X84.861 Y99.370 E2.02457
G1 X85.062 Y99.409 E2.03025
G1 X85.525 Y99.409 E2.04314
G1 X84.282 Y98.166 E2.09200
G1 X84.289 Y97.466 E2.11144
G1 X84.320 Y97.336 E2.11515
G1 X86.393 Y99.409 E2.19659
G1 X87.261 Y99.409 E2.22069
G1 X84.898 Y97.047 E2.31351
G1 X85.776 Y97.057 E2.33791
G1 X88.129 Y99.409 E2.43032
G1 X88.996 Y99.409 E2.45442
G1 X86.656 Y97.069 E2.54636
G1 X87.524 Y97.069 E2.57047
G1 X89.864 Y99.409 E2.66241
G1 X90.732 Y99.409 E2.68652
G1 X88.391 Y97.069 E2.77846
G1 X89.259 Y97.069 E2.80256
G1 X91.600 Y99.409 E2.89451
G1 X92.467 Y99.409 E2.91862
G1 X90.127 Y97.069 E3.01057
G1 X90.995 Y97.069 E3.03467
G1 X93.335 Y99.409 E3.12662
G1 X94.203 Y99.409 E3.15072
G1 X91.862 Y97.069 E3.24268
G1 X92.730 Y97.069 E3.26678
G1 X95.071 Y99.409 E3.35873
G1 X95.938 Y99.409 E3.38284
G1 X93.598 Y97.069 E3.47479
G1 X94.465 Y97.069 E3.49889
G1 X96.806 Y99.409 E3.59085
G1 X97.674 Y99.409 E3.61496
G1 X95.333 Y97.069 E3.70692
G1 X96.201 Y97.069 E3.73102
G1 X101.973 Y102.841 E3.95777
G1 X102.829 Y102.829 E3.98155
G1 X97.068 Y97.068 E4.20784
G1 X97.936 Y97.068 E4.23195
G1 X103.685 Y102.817 E4.45778
G1 X104.541 Y102.805 E4.48156
G1 X98.804 Y97.068 E4.70693
G1 X99.672 Y97.068 E4.73103
G1 X105.397 Y102.794 E4.95595
G1 X106.253 Y102.782 E4.97973
G1 X100.539 Y97.068 E5.20418
G1 X101.407 Y97.068 E5.22828
G1 X109.370 Y105.031 E5.54108
G1 X109.710 Y104.743 E5.55348
G1 X109.810 Y104.604 E5.55823
G1 X102.275 Y97.068 E5.85425
G1 X103.142 Y97.068 E5.87836
G1 X110.111 Y104.037 E6.15210
G1 X110.218 Y103.549 E6.16596
G1 X110.235 Y103.293 E6.17310
G1 X104.010 Y97.068 E6.41763
G1 X104.878 Y97.068 E6.44173
G1 X110.239 Y102.430 E6.65235
G1 X110.222 Y101.545 E6.67693
G1 X105.746 Y97.068 E6.85280
G1 X106.613 Y97.068 E6.87690
G1 X110.486 Y100.941 E7.02904
G1 X111.354 Y100.941 F7800.000
G1 F4693.31
G1 X105.184 Y94.771 E7.27144
G1 X104.316 Y94.771 E7.29554
G1 X106.032 Y96.487 E7.36294
G1 X105.177 Y96.499 E7.38669
G1 X103.448 Y94.771 E7.45460
G1 X102.580 Y94.771 E7.47871
G1 X104.309 Y96.499 E7.54662
G1 X103.441 Y96.499 E7.57073
G1 X101.713 Y94.771 E7.63864
G1 X100.845 Y94.771 E7.66274
G1 X102.574 Y96.499 E7.73066
G1 X101.706 Y96.499 E7.75476
G1 X99.977 Y94.771 E7.82267
G1 X99.109 Y94.771 E7.84678
G1 X100.838 Y96.499 E7.91469
G1 X99.970 Y96.499 E7.93879
G1 X98.276 Y94.805 E8.00535
G1 X98.229 Y94.896 E8.00820
G1 X98.171 Y95.568 E8.02691
G1 X99.103 Y96.499 E8.06352
G1 X98.674 Y96.499 E8.07543
G1 X98.595 Y96.324 E8.08076
G1 X98.550 Y96.153 E8.08570
G1 X98.553 Y95.949 E8.09135
G1 E6.09135 F2400.00000
G92 E0
G1 X110.070 Y96.186 F7800.000
G1 E2.00000 F2400.00000
G1 F4693.31
G1 X108.698 Y94.814 E2.05388
G1 X108.519 Y94.771 E2.05901
G1 X107.787 Y94.771 E2.07934
G1 X110.217 Y97.201 E2.17481
G1 X110.240 Y97.685 E2.18827
G1 X110.233 Y98.084 E2.19937
G1 X106.919 Y94.771 E2.32954
G1 X106.051 Y94.771 E2.35365
G1 X110.218 Y98.937 E2.51732
G1 X110.212 Y99.288 E2.52706
G1 X110.568 Y99.288 E2.53697
G1 X110.187 Y98.906 F7800.000
G1 F4693.31
G1 X113.593 Y102.312 E2.67078
G1 X113.674 Y102.318 E2.67303
G1 X114.378 Y102.229 E2.69275
G1 X111.054 Y98.906 E2.82331
G1 X111.445 Y98.906 E2.83417
G1 X111.622 Y98.606 E2.84385
G1 X114.959 Y101.942 E2.97493
G1 X115.193 Y101.747 E2.98341
G1 X115.366 Y101.482 E2.99219
G1 X111.985 Y98.101 E3.12504
G1 X112.464 Y97.819 E3.14047
G1 X112.556 Y97.805 E3.14308
G1 X115.618 Y100.866 E3.26334
G1 X115.703 Y100.366 E3.27742
G1 X115.716 Y100.096 E3.28493
G1 X113.346 Y97.726 E3.37804
G1 X113.992 Y97.826 E3.39621
G1 X114.629 Y98.142 E3.41595
G1 X115.282 Y98.795 E3.44163
G1 E1.44163 F2400.00000
G92 E0
M107
; Filament-specific end gcode 
;END gcode for filament

M104 S0 ; turn off temperature
G28 X0  ; home X axis
M84     ; disable motors

M140 S0 ; set bed temperature
; filament used = 92.5mm (0.7cm3)
; total filament cost = 0.0

; avoid_crossing_perimeters = 0
; bed_shape = 0x0,200x0,200x200,0x200
; bed_temperature = 0
; before_layer_gcode = 
; between_objects_gcode = 
; bridge_acceleration = 0
; bridge_fan_speed = 100
; brim_connections_width = 0
; brim_width = 0
; complete_objects = 0
; cooling = 1
; default_acceleration = 0
; disable_fan_first_layers = 3
; duplicate_distance = 6
; end_filament_gcode = "; Filament-specific end gcode \n;END gcode for filament\n"
; end_gcode = M104 S0 ; turn off temperature\nG28 X0  ; home X axis\nM84     ; disable motors\n
; extruder_clearance_height = 20
; extruder_clearance_radius = 20
; extruder_offset = 0x0
; extrusion_axis = E
; extrusion_multiplier = 1
; fan_always_on = 0
; fan_below_layer_time = 60
; filament_colour = #FFFFFF
; filament_cost = 0
; filament_density = 0
; filament_diameter = 3
; filament_max_volumetric_speed = 0
; filament_notes = ""
; first_layer_acceleration = 0
; first_layer_bed_temperature = 0
; first_layer_extrusion_width = 200%
; first_layer_speed = 30
; first_layer_temperature = 205
; gcode_arcs = 0
; gcode_comments = 0
; gcode_flavor = reprap
; has_heatbed = 1
; infill_acceleration = 0
; infill_first = 0
; interior_brim_width = 0
; layer_gcode = 
; max_fan_speed = 100
; max_layer_height = 0.3
; max_print_speed = 80
; max_volumetric_speed = 0
; min_fan_speed = 35
; min_layer_height = 0.15
; min_print_speed = 10
; min_skirt_length = 0
; notes = 
; nozzle_diameter = 0.5
; only_retract_when_crossing_perimeters = 1
; ooze_prevention = 0
; output_filename_format = [input_filename_base].gcode
; perimeter_acceleration = 0
; post_process = 
; pressure_advance = 0
; printer_notes = 
; resolution = 0
; retract_before_travel = 2
; retract_layer_change = 0
; retract_length = 2
; retract_length_toolchange = 10
; retract_lift = 0
; retract_lift_above = 0
; retract_lift_below = 0
; retract_restart_extra = 0
; retract_restart_extra_toolchange = 0
; retract_speed = 40
; skirt_distance = 6
; skirt_height = 1
; skirts = 0
; slowdown_below_layer_time = 5
; spiral_vase = 0
; standby_temperature_delta = -5
; start_filament_gcode = "; Filament gcode\n"
; start_gcode = G28 ; home all axes\nG1 Z5 F5000 ; lift nozzle\n
; temperature = 200
; threads = 8
; toolchange_gcode = 
; travel_speed = 130
; use_firmware_retraction = 0
; use_relative_e_distances = 0
; use_set_and_wait_bed = 0
; use_set_and_wait_extruder = 0
; use_volumetric_e = 0
; vibration_limit = 0
; wipe = 0
; z_offset = 0
; z_steps_per_mm = 0
; adaptive_slicing = 0
; adaptive_slicing_quality = 75%
; dont_support_bridges = 1
; extrusion_width = 0
; first_layer_height = 0.4
; infill_only_where_needed = 0
; interface_shells = 0
; layer_height = 0.4
; match_horizontal_surfaces = 0
; raft_layers = 0
; regions_overlap = 0
; seam_position = aligned
; sequential_print_priority = 0
; support_material = 0
; support_material_angle = 0
; support_material_buildplate_only = 0
; support_material_contact_distance = 0.2
; support_material_enforce_layers = 0
; support_material_extruder = 1
; support_material_extrusion_width = 0
; support_material_interface_extruder = 1
; support_material_interface_extrusion_width = 0
; support_material_interface_layers = 3
; support_material_interface_spacing = 0
; support_material_interface_speed = 100%
; support_material_max_layers = 0
; support_material_pattern = pillars
; support_material_spacing = 2.5
; support_material_speed = 60
; support_material_threshold = 60%
; xy_size_compensation = 0
; bottom_infill_pattern = rectilinear
; bottom_solid_layers = 0
; bridge_flow_ratio = 1
; bridge_speed = 60
; external_perimeter_extrusion_width = 0
; external_perimeter_speed = 50%
; external_perimeters_first = 0
; extra_perimeters = 1
; fill_angle = 45
; fill_density = 80%
; fill_gaps = 1
; fill_pattern = rectilinear
; gap_fill_speed = 20
; infill_every_layers = 1
; infill_extruder = 1
; infill_extrusion_width = 0
; infill_overlap = 55%
; infill_speed = 80
; overhangs = 1
; perimeter_extruder = 1
; perimeter_extrusion_width = 0
; perimeter_speed = 60
; perimeters = 0
; small_perimeter_speed = 15
; solid_infill_below_area = 70
; solid_infill_every_layers = 0
; solid_infill_extruder = 1
; solid_infill_extrusion_width = 0
; solid_infill_speed = 20
; thin_walls = 1
; top_infill_extrusion_width = 0
; top_infill_pattern = rectilinear
; top_solid_infill_speed = 15
; top_solid_layers = 0
