; generated by Slic3r 1.3.0 on 2020-12-22 at 14:47:21

; external perimeters extrusion width = 0.55mm (6.64mm^3/s)
; perimeters extrusion width = 0.52mm (12.53mm^3/s)
; infill extrusion width = 0.52mm (16.71mm^3/s)
; solid infill extrusion width = 0.52mm (4.18mm^3/s)
; top infill extrusion width = 0.52mm (3.13mm^3/s)

M107
M104 S205 ; set temperature
G28 ; home all axes
G1 Z5 F5000 ; lift nozzle

; Filament gcode

M109 S205 ; set temperature and wait for it to be reached
G21 ; set units to millimeters
G90 ; use absolute coordinates
M82 ; use absolute distances for extrusion
G92 E0
G1 Z0.500 F7800.000
G1 E-2.00000 F2400.00000
G92 E0
G1 X96.749 Y96.315 F7800.000
G1 E2.00000 F2400.00000
G1 F863.717
G1 X97.444 Y95.621 E2.06590
G1 X98.842 Y95.564 E2.15982
G1 X96.225 Y98.181 E2.40820
G1 X95.701 Y100.047 E2.53828
G1 X100.240 Y95.508 E2.96912
G1 X101.638 Y95.451 E3.06303
G1 X95.473 Y101.616 E3.64817
G1 X96.278 Y102.153 E3.71311
G1 X102.877 Y95.554 E4.33941
G1 X103.239 Y96.534 E4.40950
G1 X97.083 Y102.690 E4.99379
G1 X97.889 Y103.227 E5.05873
G1 X103.602 Y97.513 E5.60101
G1 X103.964 Y98.492 E5.67109
G1 X98.694 Y103.763 E6.17137
G1 X99.499 Y104.300 E6.23630
G1 X104.327 Y99.472 E6.69457
G1 X104.689 Y100.451 E6.76465
G1 X103.994 Y101.146 E6.83061
M104 S200 ; set temperature
G1 Z1.000 F7800.000
G1 E4.83061 F2400.00000
G92 E0
G1 X102.654 Y95.888 F7800.000
G1 E2.00000 F2400.00000
G1 F1200
G1 X102.328 Y95.563 E2.01416
G1 X101.737 Y95.587 E2.03240
G1 X103.015 Y96.866 E2.08808
G1 X103.377 Y97.843 E2.12017
G1 X101.145 Y95.611 E2.21738
G1 X100.553 Y95.635 E2.23562
G1 X103.739 Y98.820 E2.37435
G1 X104.100 Y99.798 E2.40644
G1 X99.961 Y95.659 E2.58669
G1 X99.370 Y95.682 E2.60493
G1 X104.462 Y100.775 E2.82671
G1 X104.534 Y100.969 E2.83308
G1 X104.258 Y101.187 E2.84390
G1 X98.778 Y95.706 E3.08257
G1 X98.186 Y95.730 E3.10081
G1 X103.914 Y101.459 E3.35027
G1 X103.570 Y101.730 E3.36377
G1 X97.594 Y95.754 E3.62403
G1 X97.002 Y95.778 E3.64227
G1 X103.227 Y102.002 E3.91332
G1 X102.883 Y102.274 E3.92682
G1 X96.800 Y96.191 E4.19171
G1 X96.665 Y96.672 E4.20708
G1 X102.539 Y102.546 E4.46288
G1 X102.195 Y102.817 E4.47637
G1 X96.530 Y97.152 E4.72307
G1 X96.395 Y97.633 E4.73844
G1 X101.851 Y103.089 E4.97604
G1 X101.507 Y103.361 E4.98954
G1 X96.260 Y98.114 E5.21804
G1 X96.125 Y98.594 E5.23341
G1 X101.163 Y103.632 E5.45282
G1 X100.819 Y103.904 E5.46631
G1 X95.990 Y99.075 E5.67662
G1 X95.855 Y99.556 E5.69199
G1 X100.475 Y104.176 E5.89320
G1 X100.283 Y104.328 E5.90075
G1 X99.469 Y103.785 E5.93086
G1 X95.720 Y100.036 E6.09413
G1 X95.585 Y100.517 E6.10951
G1 X97.622 Y102.554 E6.19822
G1 X95.775 Y101.323 E6.26658
G1 X95.450 Y100.997 E6.28074
G1 Z1.500 F7800.000
G1 E4.28074 F2400.00000
G92 E0
G1 X97.078 Y96.313 F7800.000
G1 E2.00000 F2400.00000
G1 F1200
G1 X97.403 Y95.988 E2.01386
G1 X98.032 Y95.963 E2.03285
G1 X96.842 Y97.152 E2.08361
G1 X96.607 Y97.991 E2.10991
G1 X98.660 Y95.937 E2.19755
G1 X99.289 Y95.912 E2.21653
G1 X96.371 Y98.830 E2.34106
G1 X96.135 Y99.669 E2.36736
G1 X99.918 Y95.886 E2.52877
G1 X100.546 Y95.861 E2.54776
G1 X95.900 Y100.508 E2.74606
G1 X95.696 Y101.231 E2.76873
G1 X95.746 Y101.264 E2.77054
G1 X101.175 Y95.836 E3.00221
G1 X101.804 Y95.810 E3.02119
G1 X96.108 Y101.506 E3.26424
G1 X96.470 Y101.747 E3.27737
G1 X102.432 Y95.785 E3.53180
G1 X102.508 Y95.782 E3.53407
G1 X102.651 Y96.170 E3.54654
G1 X96.832 Y101.988 E3.79486
G1 X97.194 Y102.230 E3.80799
G1 X102.814 Y96.610 E4.04781
G1 X102.977 Y97.050 E4.06197
G1 X97.556 Y102.471 E4.29330
G1 X97.918 Y102.712 E4.30643
G1 X103.140 Y97.491 E4.52926
G1 X103.303 Y97.931 E4.54343
G1 X98.280 Y102.954 E4.75777
G1 X98.642 Y103.195 E4.77090
G1 X103.466 Y98.371 E4.97675
G1 X103.629 Y98.812 E4.99092
G1 X99.004 Y103.436 E5.18827
G1 X99.366 Y103.678 E5.20140
G1 X103.792 Y99.252 E5.39026
G1 X103.955 Y99.692 E5.40443
G1 X99.728 Y103.919 E5.58480
G1 X99.947 Y104.065 E5.59275
G1 X101.082 Y103.169 E5.63638
G1 X104.118 Y100.133 E5.76594
G1 X104.281 Y100.573 E5.78011
G1 X103.955 Y100.899 E5.79400
M106 S252.45
G1 Z2.000 F7800.000
G1 E3.79400 F2400.00000
G92 E0
G1 X102.362 Y96.326 F7800.000
G1 E2.00000 F2400.00000
G1 F1200
G1 X102.037 Y96.001 E2.01394
G1 X101.454 Y96.024 E2.03160
G1 X102.718 Y97.288 E2.08577
G1 X103.074 Y98.250 E2.11686
G1 X100.872 Y96.048 E2.21125
G1 X100.289 Y96.071 E2.22891
G1 X103.430 Y99.212 E2.36353
G1 X103.786 Y100.174 E2.39462
G1 X99.707 Y96.095 E2.56947
G1 X99.124 Y96.118 E2.58714
G1 X103.919 Y100.913 E2.79264
G1 X103.580 Y101.180 E2.80571
G1 X98.542 Y96.142 E3.02168
G1 X97.959 Y96.165 E3.03934
G1 X103.242 Y101.448 E3.26576
G1 X102.903 Y101.715 E3.27884
G1 X97.377 Y96.189 E3.51571
G1 X97.241 Y96.194 E3.51982
G1 X97.139 Y96.557 E3.53125
G1 X102.565 Y101.983 E3.76380
G1 X102.226 Y102.250 E3.77687
G1 X97.006 Y97.030 E4.00061
G1 X96.873 Y97.503 E4.01550
G1 X101.888 Y102.517 E4.23042
G1 X101.549 Y102.785 E4.24350
G1 X96.741 Y97.976 E4.44960
G1 X96.608 Y98.449 E4.46450
G1 X101.211 Y103.052 E4.66179
G1 X100.872 Y103.320 E4.67486
G1 X96.475 Y98.923 E4.86334
G1 X96.342 Y99.396 E4.87824
G1 X100.533 Y103.587 E5.05790
G1 X100.261 Y103.802 E5.06841
G1 X99.904 Y103.564 E5.08142
G1 X96.209 Y99.869 E5.23981
G1 X96.076 Y100.342 E5.25470
G1 X98.086 Y102.352 E5.34087
G1 X96.268 Y101.140 E5.40709
G1 X95.943 Y100.815 E5.42103
G1 Z2.500 F7800.000
G1 E3.42103 F2400.00000
G92 E0
G1 X97.404 Y96.726 F7800.000
G1 E2.00000 F2400.00000
G1 F1200
G1 X97.729 Y96.401 E2.01362
G1 X98.347 Y96.376 E2.03194
G1 X97.173 Y97.550 E2.08116
G1 X96.941 Y98.374 E2.10654
G1 X98.964 Y96.351 E2.19135
G1 X99.582 Y96.326 E2.20967
G1 X96.710 Y99.198 E2.33008
G1 X96.478 Y100.022 E2.35545
G1 X100.199 Y96.301 E2.51145
G1 X100.817 Y96.276 E2.52977
G1 X96.247 Y100.847 E2.72136
G1 X96.190 Y101.049 E2.72758
G1 X96.458 Y101.227 E2.73715
G1 X101.435 Y96.251 E2.94575
G1 X102.052 Y96.226 E2.96407
G1 X96.814 Y101.465 E3.18366
G1 X97.169 Y101.702 E3.19633
G1 X102.333 Y96.538 E3.41280
G1 X102.493 Y96.970 E3.42647
G1 X97.525 Y101.939 E3.63475
G1 X97.881 Y102.176 E3.64741
G1 X102.654 Y97.403 E3.84750
G1 X102.814 Y97.835 E3.86117
G1 X98.236 Y102.413 E4.05305
G1 X98.592 Y102.650 E4.06572
G1 X102.974 Y98.268 E4.24941
G1 X103.134 Y98.700 E4.26308
G1 X98.947 Y102.887 E4.43858
G1 X99.303 Y103.124 E4.45125
G1 X103.294 Y99.133 E4.61855
G1 X103.454 Y99.566 E4.63222
G1 X99.659 Y103.361 E4.79132
G1 X99.926 Y103.539 E4.80085
G1 X100.626 Y102.986 E4.82730
G1 X103.614 Y99.998 E4.95255
G1 X103.774 Y100.431 E4.96623
G1 X103.449 Y100.756 E4.97987
M106 S255
G1 Z3.000 F7800.000
G1 E2.97987 F2400.00000
G92 E0
G1 X102.070 Y96.764 F7800.000
G1 E2.00000 F2400.00000
G1 F1076.76
G1 X101.745 Y96.439 E2.01366
G1 X101.174 Y96.462 E2.03063
G1 X102.419 Y97.707 E2.08292
G1 X102.768 Y98.649 E2.11278
G1 X100.603 Y96.485 E2.20370
G1 X100.032 Y96.508 E2.22067
G1 X103.117 Y99.592 E2.35024
G1 X103.466 Y100.535 E2.38009
G1 X99.461 Y96.531 E2.54829
G1 X98.891 Y96.554 E2.56526
G1 X103.242 Y100.905 E2.74804
G1 X102.910 Y101.167 E2.76060
G1 X98.320 Y96.577 E2.95342
G1 X97.749 Y96.600 E2.97039
G1 X102.578 Y101.429 E3.17325
G1 X102.247 Y101.691 E3.18581
G1 X97.478 Y96.923 E3.38610
G1 X97.348 Y97.387 E3.40040
G1 X101.915 Y101.953 E3.59223
G1 X101.583 Y102.216 E3.60478
G1 X97.218 Y97.850 E3.78814
G1 X97.088 Y98.314 E3.80245
G1 X101.251 Y102.478 E3.97734
G1 X100.920 Y102.740 E3.98990
G1 X96.958 Y98.778 E4.15632
G1 X96.827 Y99.241 E4.17063
G1 X100.588 Y103.002 E4.32859
G1 X100.256 Y103.264 E4.34115
G1 X96.697 Y99.705 E4.49064
G1 X96.567 Y100.169 E4.50495
G1 X98.543 Y102.145 E4.58798
G1 X96.762 Y100.957 E4.65158
G1 X96.437 Y100.632 E4.66524
G1 Z3.500 F7800.000
G1 E2.66524 F2400.00000
G92 E0
G1 X98.055 Y96.814 F7800.000
G1 E2.00000 F2400.00000
G1 F883.825
G1 X97.730 Y97.139 E2.01427
G1 X97.488 Y98.002 E2.04209
G1 X98.702 Y96.788 E2.09537
G1 X99.349 Y96.761 E2.11546
G1 X97.246 Y98.864 E2.20776
G1 X97.003 Y99.727 E2.23558
G1 X99.995 Y96.735 E2.36690
G1 X100.642 Y96.709 E2.38698
G1 X96.761 Y100.590 E2.55732
G1 X96.683 Y100.866 E2.56621
G1 X96.937 Y101.035 E2.57566
G1 X101.288 Y96.683 E2.76666
G1 X101.924 Y96.658 E2.78640
G1 X97.309 Y101.283 E2.98918
G1 X97.681 Y101.531 E3.00307
G1 X102.094 Y97.118 E3.19676
G1 X102.262 Y97.571 E3.21175
G1 X98.054 Y101.779 E3.39645
G1 X98.426 Y102.028 E3.41034
G1 X102.430 Y98.024 E3.58606
G1 X102.597 Y98.477 E3.60105
G1 X98.798 Y102.276 E3.76779
G1 X99.171 Y102.524 E3.78168
G1 X102.765 Y98.930 E3.93943
G1 X102.932 Y99.383 E3.95442
G1 X99.543 Y102.772 E4.10319
G1 X99.905 Y103.013 E4.11669
G1 X99.987 Y102.949 E4.11994
G1 X103.100 Y99.836 E4.25658
G1 X103.268 Y100.288 E4.27157
G1 X102.942 Y100.614 E4.28586
G1 Z4.000 F7800.000
G1 E2.28586 F2400.00000
G92 E0
G1 X101.778 Y97.202 F7800.000
G1 E2.00000 F2400.00000
G1 F767.942
G1 X101.453 Y96.876 E2.01432
G1 X100.854 Y96.901 E2.03298
G1 X102.144 Y98.190 E2.08979
G1 X102.510 Y99.179 E2.12263
G1 X100.256 Y96.925 E2.22193
G1 X99.657 Y96.949 E2.24059
G1 X102.876 Y100.168 E2.38238
G1 X103.014 Y100.542 E2.39482
G1 X102.798 Y100.713 E2.40340
G1 X99.058 Y96.973 E2.56814
G1 X98.460 Y96.997 E2.58680
G1 X102.450 Y100.988 E2.76259
G1 X102.102 Y101.263 E2.77640
G1 X97.886 Y97.046 E2.96214
G1 X97.750 Y97.532 E2.97787
G1 X101.755 Y101.538 E3.15430
G1 X101.407 Y101.812 E3.16811
G1 X97.613 Y98.019 E3.33523
G1 X97.476 Y98.505 E3.35096
G1 X101.059 Y102.087 E3.50877
G1 X100.711 Y102.362 E3.52258
G1 X97.340 Y98.991 E3.67107
G1 X97.203 Y99.477 E3.68681
G1 X100.363 Y102.637 E3.82599
G1 X100.219 Y102.751 E3.83171
G1 X99.124 Y102.020 E3.87271
G1 X97.067 Y99.963 E3.96333
G1 X96.930 Y100.450 E3.97906
G1 X97.255 Y100.774 E3.99337
G1 Z4.500 F7800.000
G1 E1.99337 F2400.00000
G92 E0
G1 X98.382 Y97.226 F7800.000
G1 E2.00000 F2400.00000
G1 F656.244
G1 X98.056 Y97.552 E2.01399
G1 X97.819 Y98.397 E2.04072
G1 X99.015 Y97.201 E2.09220
G1 X99.649 Y97.175 E2.11150
G1 X97.581 Y99.243 E2.20047
G1 X97.344 Y100.089 E2.22720
G1 X100.283 Y97.150 E2.35367
G1 X100.917 Y97.124 E2.37297
G1 X97.285 Y100.756 E2.52922
G1 X97.650 Y100.999 E2.54256
G1 X101.551 Y97.099 E2.71038
G1 X101.632 Y97.095 E2.71285
G1 X101.775 Y97.482 E2.72541
G1 X98.015 Y101.242 E2.88718
G1 X98.380 Y101.486 E2.90052
G1 X101.939 Y97.926 E3.05366
G1 X102.104 Y98.370 E3.06806
G1 X98.745 Y101.729 E3.21256
G1 X99.110 Y101.972 E3.22591
G1 X102.268 Y98.814 E3.36178
G1 X102.432 Y99.258 E3.37618
G1 X99.475 Y102.215 E3.50342
G1 X99.840 Y102.459 E3.51676
G1 X102.597 Y99.702 E3.63537
G1 X102.761 Y100.146 E3.64977
G1 X102.436 Y100.472 E3.66378
G1 Z5.000 F7800.000
G1 E1.66378 F2400.00000
G92 E0
G1 X101.486 Y97.639 F7800.000
G1 E2.00000 F2400.00000
G1 F600
G1 X101.161 Y97.314 E2.01399
G1 X100.576 Y97.338 E2.03178
G1 X101.843 Y98.605 E2.08630
G1 X102.201 Y99.570 E2.11761
G1 X99.992 Y97.361 E2.21265
G1 X99.407 Y97.385 E2.23045
G1 X102.460 Y100.438 E2.36178
G1 X102.120 Y100.706 E2.37495
G1 X98.823 Y97.409 E2.51682
G1 X98.238 Y97.432 E2.53462
G1 X101.780 Y100.975 E2.68702
G1 X101.441 Y101.243 E2.70019
G1 X98.090 Y97.893 E2.84432
G1 X97.957 Y98.368 E2.85932
G1 X101.101 Y101.511 E2.99457
G1 X100.761 Y101.780 E3.00774
G1 X97.824 Y98.842 E3.13411
G1 X97.690 Y99.317 E3.14912
G1 X100.421 Y102.048 E3.26661
G1 X100.200 Y102.223 E3.27518
G1 X99.573 Y101.809 E3.29804
G1 X97.557 Y99.792 E3.38479
G1 X97.424 Y100.267 E3.39979
G1 X97.748 Y100.592 E3.41377
G1 Z5.500 F7800.000
G1 E1.41377 F2400.00000
G92 E0
G1 X99.768 Y101.899 F7800.000
G1 E2.00000 F2400.00000
G1 F600
G1 X102.095 Y99.572 E2.09729
G1 X101.935 Y99.141 E2.11089
G1 X99.413 Y101.663 E2.21634
G1 X99.059 Y101.426 E2.22894
G1 X101.775 Y98.709 E2.34254
G1 X101.616 Y98.278 E2.35614
G1 X98.704 Y101.190 E2.47789
G1 X98.349 Y100.953 E2.49049
G1 X101.456 Y97.847 E2.62040
G1 X101.340 Y97.533 E2.63028
G1 X101.172 Y97.540 E2.63526
G1 X97.995 Y100.717 E2.76810
G1 X97.670 Y100.501 E2.77963
G1 X97.690 Y100.431 E2.78178
G1 X100.556 Y97.565 E2.90161
G1 X99.940 Y97.590 E2.91984
G1 X97.921 Y99.608 E3.00425
G1 X98.152 Y98.786 E3.02950
G1 X99.324 Y97.614 E3.07850
G1 X98.708 Y97.639 E3.09673
G1 X98.383 Y97.964 E3.11031
G1 E1.11031 F2400.00000
G92 E0
G1 X101.929 Y100.329 F7800.000
G1 E2.00000 F2400.00000
G1 F600
G1 X102.254 Y100.004 E2.01358
G1 Z6.000 F7800.000
G1 E0.01358 F2400.00000
G92 E0
G1 X101.194 Y98.077 F7800.000
G1 E2.00000 F2400.00000
G1 F600
G1 X100.869 Y97.752 E2.01519
G1 X100.234 Y97.778 E2.03619
G1 X101.582 Y99.126 E2.09918
G1 X101.970 Y100.174 E2.13612
G1 X99.599 Y97.803 E2.24692
G1 X98.964 Y97.829 E2.26791
G1 X101.662 Y100.526 E2.39393
G1 X101.292 Y100.818 E2.40947
G1 X98.496 Y98.022 E2.54012
G1 X98.352 Y98.537 E2.55781
G1 X100.923 Y101.109 E2.67798
G1 X100.554 Y101.401 E2.69352
G1 X98.207 Y99.053 E2.80322
G1 X98.062 Y99.569 E2.82092
G1 X100.177 Y101.699 E2.92010
G1 X98.242 Y100.410 E2.99691
G1 X97.917 Y100.084 E3.01211
G1 Z6.500 F7800.000
G1 X98.709 Y98.377 F7800.000
G1 F600
G1 X99.034 Y98.052 E3.02696
G1 X99.707 Y98.025 E3.04874
G1 X98.456 Y99.276 E3.10591
G1 X98.204 Y100.174 E3.13608
G1 X100.381 Y97.998 E3.23557
G1 X101.050 Y97.975 E3.25721
G1 X98.489 Y100.535 E3.37423
G1 X98.877 Y100.794 E3.38930
G1 X101.224 Y98.447 E3.49658
G1 X101.399 Y98.918 E3.51283
G1 X99.265 Y101.052 E3.61037
G1 X99.653 Y101.311 E3.62543
G1 X101.573 Y99.390 E3.71322
G1 X101.748 Y99.862 E3.72948
G1 X101.422 Y100.187 E3.74436
G1 Z7.000 F7800.000
G1 X100.902 Y98.515 F7800.000
G1 F600
G1 X100.577 Y98.190 E3.75922
G1 X99.956 Y98.215 E3.77933
G1 X101.282 Y99.541 E3.83998
G1 X101.495 Y100.115 E3.85978
G1 X101.336 Y100.241 E3.86633
G1 X99.334 Y98.240 E3.95783
G1 X98.872 Y98.259 E3.97280
G1 X98.836 Y98.388 E3.97713
G1 X100.974 Y100.526 E4.07493
G1 X100.613 Y100.812 E4.08981
G1 X98.694 Y98.892 E4.17758
G1 X98.552 Y99.397 E4.19453
G1 X100.252 Y101.097 E4.27226
G1 X100.155 Y101.173 E4.27625
G1 X98.736 Y100.227 E4.33142
G1 X98.410 Y99.902 E4.34629
G1 Z7.500 F7800.000
G1 X99.035 Y98.790 F7800.000
G1 F600
G1 X99.360 Y98.465 E4.36071
G1 X100.014 Y98.439 E4.38122
G1 X98.790 Y99.662 E4.43549
G1 X98.657 Y100.135 E4.45091
G1 X98.829 Y100.250 E4.45739
G1 X100.667 Y98.412 E4.53891
G1 X100.756 Y98.409 E4.54172
G1 X100.903 Y98.804 E4.55493
G1 X99.205 Y100.501 E4.63021
G1 X99.582 Y100.752 E4.64440
G1 X101.072 Y99.262 E4.71050
G1 X101.241 Y99.719 E4.72581
G1 X100.916 Y100.045 E4.74025
G1 Z8.000 F7800.000
G1 X100.610 Y98.953 F7800.000
G1 F600
G1 X100.285 Y98.628 E4.75447
G1 X99.691 Y98.652 E4.77286
G1 X100.974 Y99.934 E4.82895
G1 X100.988 Y99.973 E4.83023
G1 X100.656 Y100.235 E4.84330
G1 X99.175 Y98.754 E4.90808
G1 X99.039 Y99.236 E4.92359
G1 X100.311 Y100.508 E4.97920
G1 X100.134 Y100.648 E4.98616
G1 X99.229 Y100.044 E5.01980
G1 X98.904 Y99.719 E5.03403
G1 Z8.500 F7800.000
G1 X100.030 Y98.864 F7800.000
G1 F600
G1 X99.232 Y99.662 E5.07402
G1 X99.151 Y99.953 E5.08474
G1 X99.450 Y100.153 E5.09751
G1 X100.543 Y99.060 E5.15232
G1 X100.735 Y99.577 E5.17188
G1 X100.409 Y99.902 E5.18820
G1 Z9.000 F7800.000
G1 X100.319 Y99.391 F7800.000
G1 F600
G1 X99.994 Y99.065 E5.20450
G1 X99.524 Y99.084 E5.22115
G1 X99.476 Y99.257 E5.22750
G1 X100.241 Y100.021 E5.26584
G1 X100.113 Y100.122 E5.27160
G1 X99.722 Y99.861 E5.28825
G1 X99.801 Y99.582 E5.29856
G1 Z9.500 F7800.000
G1 Z10.000 F7800.000
G1 E3.29856 F2400.00000
G92 E0
M107
; Filament-specific end gcode 
;END gcode for filament

M104 S0 ; turn off temperature
G28 X0  ; home X axis
M84     ; disable motors

M140 S0 ; set bed temperature
; filament used = 33.8mm (0.2cm3)
; total filament cost = 0.0

; avoid_crossing_perimeters = 0
; bed_shape = 0x0,200x0,200x200,0x200
; bed_temperature = 0
; before_layer_gcode = 
; between_objects_gcode = 
; bridge_acceleration = 0
; bridge_fan_speed = 100
; brim_connections_width = 0
; brim_width = 0
; complete_objects = 0
; cooling = 1
; default_acceleration = 0
; disable_fan_first_layers = 3
; duplicate_distance = 6
; end_filament_gcode = "; Filament-specific end gcode \n;END gcode for filament\n"
; end_gcode = M104 S0 ; turn off temperature\nG28 X0  ; home X axis\nM84     ; disable motors\n
; extruder_clearance_height = 20
; extruder_clearance_radius = 20
; extruder_offset = 0x0
; extrusion_axis = E
; extrusion_multiplier = 1
; fan_always_on = 0
; fan_below_layer_time = 60
; filament_colour = #FFFFFF
; filament_cost = 0
; filament_density = 0
; filament_diameter = 3
; filament_max_volumetric_speed = 0
; filament_notes = ""
; first_layer_acceleration = 0
; first_layer_bed_temperature = 0
; first_layer_extrusion_width = 200%
; first_layer_speed = 30
; first_layer_temperature = 205
; gcode_arcs = 0
; gcode_comments = 0
; gcode_flavor = reprap
; has_heatbed = 1
; infill_acceleration = 0
; infill_first = 0
; interior_brim_width = 0
; layer_gcode = 
; max_fan_speed = 100
; max_layer_height = 0.3
; max_print_speed = 80
; max_volumetric_speed = 0
; min_fan_speed = 35
; min_layer_height = 0.15
; min_print_speed = 10
; min_skirt_length = 0
; notes = 
; nozzle_diameter = 0.5
; only_retract_when_crossing_perimeters = 1
; ooze_prevention = 0
; output_filename_format = [input_filename_base].gcode
; perimeter_acceleration = 0
; post_process = 
; pressure_advance = 0
; printer_notes = 
; resolution = 0
; retract_before_travel = 2
; retract_layer_change = 0
; retract_length = 2
; retract_length_toolchange = 10
; retract_lift = 0
; retract_lift_above = 0
; retract_lift_below = 0
; retract_restart_extra = 0
; retract_restart_extra_toolchange = 0
; retract_speed = 40
; skirt_distance = 6
; skirt_height = 1
; skirts = 0
; slowdown_below_layer_time = 5
; spiral_vase = 0
; standby_temperature_delta = -5
; start_filament_gcode = "; Filament gcode\n"
; start_gcode = G28 ; home all axes\nG1 Z5 F5000 ; lift nozzle\n
; temperature = 200
; threads = 8
; toolchange_gcode = 
; travel_speed = 130
; use_firmware_retraction = 0
; use_relative_e_distances = 0
; use_set_and_wait_bed = 0
; use_set_and_wait_extruder = 0
; use_volumetric_e = 0
; vibration_limit = 0
; wipe = 0
; z_offset = 0
; z_steps_per_mm = 0
; adaptive_slicing = 0
; adaptive_slicing_quality = 75%
; dont_support_bridges = 1
; extrusion_width = 0
; first_layer_height = 0.5
; infill_only_where_needed = 0
; interface_shells = 0
; layer_height = 0.5
; match_horizontal_surfaces = 0
; raft_layers = 0
; regions_overlap = 0
; seam_position = aligned
; sequential_print_priority = 0
; support_material = 0
; support_material_angle = 0
; support_material_buildplate_only = 0
; support_material_contact_distance = 0.2
; support_material_enforce_layers = 0
; support_material_extruder = 1
; support_material_extrusion_width = 0
; support_material_interface_extruder = 1
; support_material_interface_extrusion_width = 0
; support_material_interface_layers = 3
; support_material_interface_spacing = 0
; support_material_interface_speed = 100%
; support_material_max_layers = 0
; support_material_pattern = pillars
; support_material_spacing = 2.5
; support_material_speed = 60
; support_material_threshold = 60%
; xy_size_compensation = 0
; bottom_infill_pattern = rectilinear
; bottom_solid_layers = 0
; bridge_flow_ratio = 1
; bridge_speed = 60
; external_perimeter_extrusion_width = 0
; external_perimeter_speed = 50%
; external_perimeters_first = 0
; extra_perimeters = 1
; fill_angle = 45
; fill_density = 40%
; fill_gaps = 1
; fill_pattern = rectilinear
; gap_fill_speed = 20
; infill_every_layers = 1
; infill_extruder = 1
; infill_extrusion_width = 0
; infill_overlap = 55%
; infill_speed = 80
; overhangs = 1
; perimeter_extruder = 1
; perimeter_extrusion_width = 0
; perimeter_speed = 60
; perimeters = 0
; small_perimeter_speed = 15
; solid_infill_below_area = 70
; solid_infill_every_layers = 0
; solid_infill_extruder = 1
; solid_infill_extrusion_width = 0
; solid_infill_speed = 20
; thin_walls = 1
; top_infill_extrusion_width = 0
; top_infill_pattern = rectilinear
; top_solid_infill_speed = 15
; top_solid_layers = 0
