; generated by Slic3r 1.3.0 on 2020-12-22 at 15:08:30

; external perimeters extrusion width = 0.55mm (6.64mm^3/s)
; perimeters extrusion width = 0.52mm (12.53mm^3/s)
; infill extrusion width = 0.52mm (16.71mm^3/s)
; solid infill extrusion width = 0.52mm (4.18mm^3/s)
; top infill extrusion width = 0.52mm (3.13mm^3/s)

M107
M104 S205 ; set temperature
G28 ; home all axes
G1 Z5 F5000 ; lift nozzle

; Filament gcode

M109 S205 ; set temperature and wait for it to be reached
G21 ; set units to millimeters
G90 ; use absolute coordinates
M82 ; use absolute distances for extrusion
G92 E0
G1 Z0.500 F7800.000
G1 E-2.00000 F2400.00000
G92 E0
G1 X96.504 Y93.158 F7800.000
G1 E2.00000 F2400.00000
G1 F1800
G1 X94.621 Y95.041 E2.16814
G1 X94.045 Y97.095 E2.30284
G1 X98.043 Y93.096 E2.65992
G1 X99.582 Y93.034 E2.75717
G1 X93.468 Y99.148 E3.30319
G1 X92.891 Y101.202 E3.43788
G1 X101.121 Y92.972 E4.17284
G1 X102.660 Y92.910 E4.27009
G1 X93.066 Y102.503 E5.12679
G1 X93.952 Y103.094 E5.19403
G1 X104.199 Y92.848 E6.10903
G1 X104.318 Y92.843 E6.11659
G1 X104.686 Y93.837 E6.18352
G1 X94.839 Y103.685 E7.06293
G1 X95.725 Y104.275 E7.13017
G1 X105.085 Y94.915 E7.96608
G1 X105.484 Y95.993 E8.03865
G1 X96.611 Y104.866 E8.83105
G1 X97.497 Y105.457 E8.89830
G1 X105.883 Y97.071 E9.64720
G1 X106.282 Y98.148 E9.71977
G1 X98.383 Y106.048 E10.42517
G1 X99.269 Y106.638 E10.49241
G1 X106.681 Y99.226 E11.15430
G1 X107.080 Y100.304 E11.22688
G1 X101.582 Y105.802 E11.71784
M104 S200 ; set temperature
G1 Z1.000 F7800.000
G1 E9.71784 F2400.00000
G92 E0
G1 X93.745 Y101.129 F7800.000
G1 E2.00000 F2400.00000
G1 F1624.62
G1 X93.521 Y101.924 E2.02442
G1 X96.579 Y103.963 E2.13298
G1 X93.420 Y100.804 E2.26497
G1 X93.744 Y99.651 E2.30036
G1 X100.469 Y106.376 E2.58136
G1 X101.294 Y105.724 E2.61243
G1 X94.068 Y98.498 E2.91437
G1 X94.392 Y97.345 E2.94976
G1 X102.119 Y105.073 E3.27264
G1 X102.944 Y104.421 E3.30371
G1 X94.715 Y96.192 E3.64753
G1 X95.039 Y95.039 E3.68292
G1 X103.769 Y103.769 E4.04768
G1 X104.594 Y103.117 E4.07875
G1 X95.363 Y93.886 E4.46446
G1 X95.414 Y93.704 E4.47006
G1 X96.609 Y93.656 E4.50539
G1 X105.419 Y102.465 E4.87350
G1 X106.244 Y101.814 E4.90457
G1 X98.029 Y93.598 E5.24784
G1 X99.448 Y93.541 E5.28982
G1 X106.478 Y100.570 E5.58354
G1 X105.610 Y98.226 E5.65740
G1 X100.868 Y93.484 E5.85555
G1 X102.287 Y93.427 E5.89752
G1 X104.742 Y95.881 E6.00010
G1 Z1.500 F7800.000
G1 E4.00010 F2400.00000
G92 E0
G1 X105.550 Y101.834 F7800.000
G1 E2.00000 F2400.00000
G1 F1501.1
G1 X106.490 Y100.894 E2.03930
G1 X106.091 Y99.816 E2.07326
G1 X99.822 Y106.085 E2.33524
G1 X98.936 Y105.495 E2.36670
G1 X105.693 Y98.738 E2.64904
G1 X105.294 Y97.660 E2.68299
G1 X98.050 Y104.904 E2.98569
G1 X97.163 Y104.313 E3.01715
G1 X104.895 Y96.582 E3.34020
G1 X104.496 Y95.504 E3.37415
G1 X96.277 Y103.723 E3.71756
G1 X95.391 Y103.132 E3.74902
G1 X104.097 Y94.426 E4.11278
G1 X103.788 Y93.592 E4.13906
G1 X103.440 Y93.606 E4.14934
G1 X94.505 Y102.541 E4.52269
G1 X93.619 Y101.950 E4.55416
G1 X101.901 Y93.668 E4.90023
G1 X100.363 Y93.730 E4.94573
G1 X93.905 Y100.187 E5.21554
G1 X94.482 Y98.134 E5.27856
G1 X98.824 Y93.792 E5.45997
G1 X97.285 Y93.854 E5.50547
G1 X95.059 Y96.080 E5.59847
G1 X95.577 Y94.235 E5.65509
G1 X96.960 Y94.179 E5.69597
M106 S255
G1 Z2.000 F7800.000
G1 X104.021 Y95.161 F7800.000
G1 F1407.41
G1 X102.697 Y93.836 E5.75132
G1 X101.277 Y93.893 E5.79330
G1 X104.889 Y97.505 E5.94423
G1 X105.757 Y99.850 E6.01809
G1 X99.858 Y93.951 E6.26459
G1 X98.438 Y94.008 E6.30656
G1 X105.941 Y101.511 E6.62006
G1 X105.116 Y102.162 E6.65113
G1 X97.019 Y94.065 E6.98947
G1 X95.741 Y94.117 E7.02726
G1 X95.708 Y94.232 E7.03079
G1 X104.291 Y102.814 E7.38941
G1 X103.466 Y103.466 E7.42047
G1 X95.384 Y95.384 E7.75816
G1 X95.061 Y96.537 E7.79354
G1 X102.641 Y104.118 E8.11028
G1 X101.816 Y104.769 E8.14134
G1 X94.737 Y97.690 E8.43714
G1 X94.413 Y98.843 E8.47253
G1 X100.991 Y105.421 E8.74739
G1 X100.324 Y105.948 E8.77249
G1 X99.474 Y105.381 E8.80267
G1 X94.089 Y99.996 E9.02769
G1 X93.765 Y101.149 E9.06308
G1 X95.044 Y102.428 E9.11651
G1 X94.015 Y101.742 E9.15305
G1 X94.090 Y101.474 E9.16127
G1 Z2.500 F7800.000
G1 X96.841 Y94.298 F7800.000
G1 F1282.34
G1 X95.674 Y95.465 E9.21003
G1 X95.097 Y97.519 E9.27306
G1 X98.380 Y94.236 E9.41022
G1 X99.919 Y94.174 E9.45572
G1 X94.520 Y99.572 E9.68129
G1 X93.943 Y101.626 E9.74431
G1 X101.458 Y94.112 E10.05829
G1 X102.996 Y94.050 E10.10379
G1 X94.812 Y102.234 E10.44576
G1 X95.698 Y102.825 E10.47723
G1 X103.766 Y94.758 E10.81432
G1 X104.165 Y95.835 E10.84827
G1 X96.584 Y103.416 E11.16501
G1 X97.470 Y104.006 E11.19647
G1 X104.563 Y96.913 E11.49285
G1 X104.962 Y97.991 E11.52681
G1 X98.357 Y104.597 E11.80283
G1 X99.243 Y105.188 E11.83429
G1 X105.361 Y99.069 E12.08996
G1 X105.760 Y100.147 E12.12392
G1 X101.100 Y104.807 E12.31864
G1 Z3.000 F7800.000
G1 E10.31864 F2400.00000
G92 E0
G1 X94.759 Y100.666 F7800.000
G1 E2.00000 F2400.00000
G1 F1214.25
G1 X94.508 Y101.559 E2.02740
G1 X97.940 Y103.847 E2.14925
G1 X94.434 Y100.341 E2.29572
G1 X94.758 Y99.188 E2.33110
G1 X100.688 Y105.118 E2.57887
G1 X101.513 Y104.466 E2.60994
G1 X95.082 Y98.035 E2.87865
G1 X95.406 Y96.883 E2.91404
G1 X102.338 Y103.815 E3.20369
G1 X103.163 Y103.163 E3.23475
G1 X95.730 Y95.730 E3.54535
G1 X96.053 Y94.577 E3.58073
G1 X103.988 Y102.511 E3.91227
G1 X104.813 Y101.859 E3.94333
G1 X97.428 Y94.475 E4.25190
G1 X98.848 Y94.417 E4.29387
G1 X105.638 Y101.207 E4.57760
G1 X105.768 Y101.105 E4.58249
G1 X105.036 Y99.129 E4.64473
G1 X100.267 Y94.360 E4.84401
G1 X101.687 Y94.303 E4.88599
G1 X104.169 Y96.785 E4.98969
G1 Z3.500 F7800.000
G1 E2.98969 F2400.00000
G92 E0
G1 X103.684 Y102.223 F7800.000
G1 E2.00000 F2400.00000
G1 F1106.23
G1 X105.429 Y100.478 E2.07292
G1 X105.030 Y99.400 E2.10688
G1 X99.550 Y104.881 E2.33587
G1 X98.663 Y104.290 E2.36734
G1 X104.631 Y98.322 E2.61669
G1 X104.232 Y97.245 E2.65065
G1 X97.777 Y103.699 E2.92036
G1 X96.891 Y103.109 E2.95182
G1 X103.833 Y96.167 E3.24189
G1 X103.434 Y95.089 E3.27585
G1 X96.005 Y102.518 E3.58627
G1 X95.119 Y101.927 E3.61773
G1 X102.552 Y94.494 E3.92833
G1 X101.014 Y94.556 E3.97383
G1 X94.558 Y101.011 E4.24356
G1 X95.135 Y98.958 E4.30659
G1 X99.475 Y94.618 E4.48792
G1 X97.936 Y94.680 E4.53342
G1 X95.712 Y96.904 E4.62634
G1 X96.230 Y95.061 E4.68291
G1 X97.611 Y95.005 E4.72375
G1 Z4.000 F7800.000
G1 X103.448 Y96.064 F7800.000
G1 F1028.85
G1 X102.096 Y94.712 E4.78023
G1 X100.677 Y94.770 E4.82221
G1 X104.316 Y98.409 E4.97427
G1 X105.183 Y100.753 E5.04813
G1 X99.257 Y94.827 E5.29576
G1 X97.838 Y94.884 E5.33774
G1 X104.510 Y101.556 E5.61653
G1 X103.685 Y102.208 E5.64760
G1 X96.418 Y94.941 E5.95123
G1 X96.393 Y94.942 E5.95198
G1 X96.075 Y96.075 E5.98673
G1 X102.860 Y102.860 E6.27024
G1 X102.035 Y103.512 E6.30130
G1 X95.751 Y97.228 E6.56387
G1 X95.427 Y98.381 E6.59925
G1 X101.210 Y104.163 E6.84088
G1 X100.385 Y104.815 E6.87195
G1 X95.103 Y99.534 E7.09263
G1 X94.779 Y100.687 E7.12802
G1 X96.405 Y102.312 E7.19593
G1 X95.002 Y101.377 E7.24575
G1 X95.104 Y101.011 E7.25696
M106 S239.7
G1 Z4.500 F7800.000
G1 E5.25696 F2400.00000
G92 E0
G1 X96.718 Y94.942 F7800.000
G1 E2.00000 F2400.00000
G1 F1200
G1 X96.393 Y95.267 E2.01364
G1 X96.161 Y96.092 E2.03907
G1 X97.336 Y94.917 E2.08839
G1 X97.954 Y94.892 E2.10675
G1 X95.929 Y96.917 E2.19173
G1 X95.698 Y97.742 E2.21716
G1 X98.573 Y94.867 E2.33781
G1 X99.191 Y94.843 E2.35617
G1 X95.466 Y98.567 E2.51248
G1 X95.234 Y99.393 E2.53791
G1 X99.809 Y94.818 E2.72990
G1 X100.427 Y94.793 E2.74826
G1 X95.002 Y100.218 E2.97591
G1 X94.771 Y101.043 E3.00134
G1 X101.045 Y94.768 E3.26467
G1 X101.664 Y94.743 E3.28303
G1 X94.889 Y101.518 E3.56734
G1 X95.245 Y101.755 E3.58004
G1 X102.282 Y94.718 E3.87536
G1 X102.900 Y94.693 E3.89371
G1 X95.601 Y101.992 E4.20004
G1 X95.957 Y102.230 E4.21273
G1 X103.178 Y95.009 E4.51577
G1 X103.338 Y95.442 E4.52947
G1 X96.312 Y102.467 E4.82429
G1 X96.668 Y102.704 E4.83699
G1 X103.498 Y95.875 E5.12360
G1 X103.658 Y96.308 E5.13730
G1 X97.024 Y102.942 E5.41570
G1 X97.380 Y103.179 E5.42839
G1 X103.819 Y96.741 E5.69858
G1 X103.979 Y97.174 E5.71228
G1 X97.736 Y103.416 E5.97425
G1 X98.092 Y103.654 E5.98695
G1 X104.139 Y97.607 E6.24071
G1 X104.299 Y98.040 E6.25441
G1 X98.448 Y103.891 E6.49996
G1 X98.804 Y104.128 E6.51265
G1 X104.460 Y98.473 E6.74999
G1 X104.620 Y98.906 E6.76369
G1 X99.160 Y104.365 E6.99281
G1 X99.516 Y104.603 E7.00550
G1 X104.780 Y99.339 E7.22641
G1 X104.941 Y99.772 E7.24011
G1 X99.872 Y104.840 E7.45281
G1 X99.957 Y104.897 E7.45583
G1 X102.110 Y103.196 E7.53726
G1 X105.101 Y100.205 E7.66277
G1 X105.261 Y100.638 E7.67647
G1 X104.936 Y100.963 E7.69013
M106 S242.25
G1 Z5.000 F7800.000
G1 E5.69013 F2400.00000
G92 E0
G1 X102.913 Y95.231 F7800.000
G1 E2.00000 F2400.00000
G1 F1200
G1 X102.587 Y94.905 E2.01372
G1 X102.014 Y94.929 E2.03084
G1 X103.263 Y96.177 E2.08353
G1 X103.614 Y97.124 E2.11365
G1 X101.441 Y94.952 E2.20532
G1 X100.867 Y94.975 E2.22244
G1 X103.964 Y98.071 E2.35309
G1 X104.314 Y99.018 E2.38321
G1 X100.294 Y94.998 E2.55284
G1 X99.721 Y95.021 E2.56996
G1 X104.665 Y99.965 E2.77856
G1 X105.001 Y100.897 E2.80811
G1 X99.147 Y95.044 E3.05506
G1 X98.574 Y95.067 E3.07218
G1 X104.667 Y101.161 E3.32926
G1 X104.334 Y101.424 E3.34193
G1 X98.001 Y95.090 E3.60914
G1 X97.427 Y95.114 E3.62626
G1 X104.001 Y101.687 E3.90361
G1 X103.668 Y101.950 E3.91628
G1 X96.854 Y95.137 E4.20375
G1 X96.556 Y95.149 E4.21265
G1 X96.493 Y95.372 E4.21958
G1 X103.334 Y102.214 E4.50822
G1 X103.001 Y102.477 E4.52089
G1 X96.362 Y95.838 E4.80099
G1 X96.232 Y96.304 E4.81542
G1 X102.668 Y102.740 E5.08699
G1 X102.335 Y103.003 E5.09966
G1 X96.101 Y96.769 E5.36268
G1 X95.970 Y97.235 E5.37711
G1 X102.002 Y103.267 E5.63159
G1 X101.668 Y103.530 E5.64426
G1 X95.839 Y97.701 E5.89020
G1 X95.708 Y98.166 E5.90463
G1 X101.335 Y103.793 E6.14204
G1 X101.002 Y104.056 E6.15471
G1 X95.578 Y98.632 E6.38357
G1 X95.447 Y99.098 E6.39800
G1 X100.669 Y104.320 E6.61832
G1 X100.336 Y104.583 E6.63099
G1 X95.316 Y99.563 E6.84277
G1 X95.185 Y100.029 E6.85720
G1 X98.828 Y103.671 E7.01089
G1 X97.038 Y102.478 E7.07505
G1 X95.054 Y100.495 E7.15875
G1 X94.924 Y100.960 E7.17318
G1 X95.248 Y101.285 E7.18689
M106 S244.8
G1 Z5.500 F7800.000
G1 E5.18689 F2400.00000
G92 E0
G1 X96.719 Y95.680 F7800.000
G1 E2.00000 F2400.00000
G1 F1200
G1 X97.044 Y95.355 E2.01406
G1 X97.682 Y95.329 E2.03360
G1 X96.480 Y96.531 E2.08562
G1 X96.241 Y97.382 E2.11267
G1 X98.319 Y95.304 E2.20264
G1 X98.957 Y95.278 E2.22217
G1 X96.002 Y98.233 E2.35009
G1 X95.763 Y99.084 E2.37714
G1 X99.595 Y95.252 E2.54301
G1 X100.232 Y95.227 E2.56254
G1 X95.524 Y99.935 E2.76635
G1 X95.285 Y100.786 E2.79341
G1 X100.870 Y95.201 E3.03517
G1 X101.508 Y95.175 E3.05470
G1 X95.361 Y101.321 E3.32075
G1 X95.729 Y101.566 E3.33425
G1 X102.145 Y95.149 E3.61200
G1 X102.771 Y95.136 E3.63115
G1 X96.096 Y101.811 E3.92009
G1 X96.463 Y102.056 E3.93359
G1 X102.936 Y95.582 E4.21379
G1 X103.101 Y96.029 E4.22837
G1 X96.830 Y102.300 E4.49983
G1 X97.197 Y102.545 E4.51334
G1 X103.267 Y96.476 E4.77606
G1 X103.432 Y96.922 E4.79063
G1 X97.564 Y102.790 E5.04462
G1 X97.932 Y103.035 E5.05813
G1 X103.597 Y97.369 E5.30337
G1 X103.763 Y97.816 E5.31795
G1 X98.299 Y103.280 E5.55446
G1 X98.666 Y103.524 E5.56796
G1 X103.928 Y98.262 E5.79574
G1 X104.093 Y98.709 E5.81031
G1 X99.033 Y103.769 E6.02935
G1 X99.400 Y104.014 E6.04285
G1 X104.259 Y99.156 E6.25315
G1 X104.424 Y99.602 E6.26773
G1 X99.767 Y104.259 E6.46929
G1 X99.936 Y104.371 E6.47548
G1 X101.515 Y103.123 E6.53706
G1 X104.589 Y100.049 E6.67015
G1 X104.754 Y100.495 E6.68473
G1 X104.429 Y100.821 E6.69882
M106 S247.35
G1 Z6.000 F7800.000
G1 E4.69882 F2400.00000
G92 E0
G1 X102.621 Y95.668 F7800.000
G1 E2.00000 F2400.00000
G1 F1200
G1 X102.296 Y95.343 E2.01416
G1 X101.704 Y95.367 E2.03240
G1 X102.982 Y96.646 E2.08808
G1 X103.344 Y97.623 E2.12017
G1 X101.112 Y95.391 E2.21738
G1 X100.520 Y95.415 E2.23562
G1 X103.706 Y98.601 E2.37435
G1 X104.068 Y99.578 E2.40644
G1 X99.929 Y95.439 E2.58669
G1 X99.337 Y95.463 E2.60493
G1 X104.429 Y100.555 E2.82671
G1 X104.501 Y100.749 E2.83308
G1 X104.226 Y100.967 E2.84390
G1 X98.745 Y95.486 E3.08257
G1 X98.153 Y95.510 E3.10081
G1 X103.882 Y101.239 E3.35027
G1 X103.538 Y101.510 E3.36377
G1 X97.561 Y95.534 E3.62403
G1 X96.970 Y95.558 E3.64227
G1 X103.194 Y101.782 E3.91332
G1 X102.850 Y102.054 E3.92682
G1 X96.767 Y95.971 E4.19171
G1 X96.632 Y96.452 E4.20708
G1 X102.506 Y102.326 E4.46288
G1 X102.162 Y102.597 E4.47638
G1 X96.497 Y96.932 E4.72307
G1 X96.362 Y97.413 E4.73845
G1 X101.818 Y102.869 E4.97604
G1 X101.474 Y103.141 E4.98954
G1 X96.227 Y97.894 E5.21804
G1 X96.092 Y98.374 E5.23341
G1 X101.130 Y103.413 E5.45282
G1 X100.786 Y103.684 E5.46631
G1 X95.957 Y98.855 E5.67662
G1 X95.822 Y99.336 E5.69199
G1 X100.442 Y103.956 E5.89320
G1 X100.250 Y104.108 E5.90075
G1 X99.436 Y103.565 E5.93086
G1 X95.687 Y99.816 E6.09413
G1 X95.552 Y100.297 E6.10951
G1 X97.589 Y102.334 E6.19823
G1 X95.742 Y101.103 E6.26658
G1 X95.417 Y100.778 E6.28075
M106 S249.9
G1 Z6.500 F7800.000
G1 E4.28075 F2400.00000
G92 E0
G1 X97.045 Y96.093 F7800.000
G1 E2.00000 F2400.00000
G1 F1200
G1 X97.370 Y95.768 E2.01386
G1 X97.999 Y95.743 E2.03285
G1 X96.810 Y96.932 E2.08361
G1 X96.574 Y97.771 E2.10991
G1 X98.628 Y95.717 E2.19755
G1 X99.256 Y95.692 E2.21653
G1 X96.338 Y98.610 E2.34106
G1 X96.103 Y99.449 E2.36736
G1 X99.885 Y95.667 E2.52877
G1 X100.514 Y95.641 E2.54776
G1 X95.867 Y100.288 E2.74606
G1 X95.664 Y101.011 E2.76873
G1 X95.714 Y101.045 E2.77054
G1 X101.142 Y95.616 E3.00221
G1 X101.771 Y95.591 E3.02119
G1 X96.076 Y101.286 E3.26424
G1 X96.438 Y101.527 E3.27737
G1 X102.400 Y95.565 E3.53180
G1 X102.475 Y95.562 E3.53407
G1 X102.618 Y95.950 E3.54655
G1 X96.800 Y101.769 E3.79486
G1 X97.162 Y102.010 E3.80799
G1 X102.781 Y96.390 E4.04781
G1 X102.944 Y96.830 E4.06197
G1 X97.523 Y102.251 E4.29330
G1 X97.885 Y102.492 E4.30643
G1 X103.107 Y97.271 E4.52926
G1 X103.270 Y97.711 E4.54343
G1 X98.247 Y102.734 E4.75777
G1 X98.609 Y102.975 E4.77090
G1 X103.433 Y98.151 E4.97675
G1 X103.596 Y98.592 E4.99092
G1 X98.971 Y103.216 E5.18827
G1 X99.333 Y103.458 E5.20140
G1 X103.759 Y99.032 E5.39026
G1 X103.922 Y99.472 E5.40443
G1 X99.695 Y103.699 E5.58480
G1 X99.914 Y103.845 E5.59275
G1 X101.049 Y102.949 E5.63638
G1 X104.085 Y99.913 E5.76594
G1 X104.248 Y100.353 E5.78011
G1 X103.922 Y100.679 E5.79400
M106 S252.45
G1 Z7.000 F7800.000
G1 E3.79400 F2400.00000
G92 E0
G1 X102.329 Y96.106 F7800.000
G1 E2.00000 F2400.00000
G1 F1200
G1 X102.004 Y95.781 E2.01394
G1 X101.421 Y95.805 E2.03160
G1 X102.685 Y97.068 E2.08577
G1 X103.041 Y98.030 E2.11686
G1 X100.839 Y95.828 E2.21125
G1 X100.256 Y95.851 E2.22891
G1 X103.397 Y98.992 E2.36353
G1 X103.753 Y99.954 E2.39462
G1 X99.674 Y95.875 E2.56947
G1 X99.091 Y95.898 E2.58713
G1 X103.886 Y100.693 E2.79264
G1 X103.547 Y100.960 E2.80571
G1 X98.509 Y95.922 E3.02167
G1 X97.927 Y95.945 E3.03934
G1 X103.209 Y101.228 E3.26576
G1 X102.870 Y101.495 E3.27883
G1 X97.344 Y95.969 E3.51571
G1 X97.208 Y95.974 E3.51982
G1 X97.106 Y96.337 E3.53125
G1 X102.532 Y101.763 E3.76380
G1 X102.193 Y102.030 E3.77687
G1 X96.974 Y96.810 E4.00061
G1 X96.841 Y97.283 E4.01550
G1 X101.855 Y102.298 E4.23042
G1 X101.516 Y102.565 E4.24350
G1 X96.708 Y97.757 E4.44960
G1 X96.575 Y98.230 E4.46450
G1 X101.178 Y102.832 E4.66179
G1 X100.839 Y103.100 E4.67486
G1 X96.442 Y98.703 E4.86334
G1 X96.309 Y99.176 E4.87824
G1 X100.501 Y103.367 E5.05790
G1 X100.229 Y103.582 E5.06841
G1 X99.871 Y103.344 E5.08142
G1 X96.176 Y99.649 E5.23981
G1 X96.043 Y100.122 E5.25470
G1 X98.054 Y102.132 E5.34087
G1 X96.236 Y100.920 E5.40709
G1 X95.910 Y100.595 E5.42103
G1 Z7.500 F7800.000
G1 E3.42103 F2400.00000
G92 E0
G1 X97.372 Y96.506 F7800.000
G1 E2.00000 F2400.00000
G1 F1200
G1 X97.696 Y96.181 E2.01362
G1 X98.314 Y96.156 E2.03194
G1 X97.140 Y97.330 E2.08116
G1 X96.908 Y98.154 E2.10654
G1 X98.932 Y96.131 E2.19135
G1 X99.549 Y96.106 E2.20967
G1 X96.677 Y98.978 E2.33008
G1 X96.445 Y99.803 E2.35545
G1 X100.167 Y96.081 E2.51145
G1 X100.784 Y96.056 E2.52977
G1 X96.214 Y100.627 E2.72136
G1 X96.157 Y100.829 E2.72758
G1 X96.426 Y101.008 E2.73715
G1 X101.402 Y96.031 E2.94575
G1 X102.019 Y96.007 E2.96407
G1 X96.781 Y101.245 E3.18366
G1 X97.137 Y101.482 E3.19633
G1 X102.301 Y96.318 E3.41280
G1 X102.461 Y96.750 E3.42647
G1 X97.492 Y101.719 E3.63475
G1 X97.848 Y101.956 E3.64741
G1 X102.621 Y97.183 E3.84750
G1 X102.781 Y97.616 E3.86117
G1 X98.203 Y102.193 E4.05305
G1 X98.559 Y102.430 E4.06572
G1 X102.941 Y98.048 E4.24941
G1 X103.101 Y98.481 E4.26308
G1 X98.915 Y102.667 E4.43858
G1 X99.270 Y102.904 E4.45125
G1 X103.261 Y98.913 E4.61855
G1 X103.421 Y99.346 E4.63222
G1 X99.626 Y103.141 E4.79132
G1 X99.893 Y103.319 E4.80085
G1 X100.593 Y102.766 E4.82729
G1 X103.581 Y99.778 E4.95255
G1 X103.741 Y100.211 E4.96622
G1 X103.416 Y100.536 E4.97987
M106 S255
G1 Z8.000 F7800.000
G1 E2.97987 F2400.00000
G92 E0
G1 X102.037 Y96.544 F7800.000
G1 E2.00000 F2400.00000
G1 F1076.76
G1 X101.712 Y96.219 E2.01366
G1 X101.141 Y96.242 E2.03063
G1 X102.386 Y97.487 E2.08292
G1 X102.735 Y98.429 E2.11278
G1 X100.570 Y96.265 E2.20370
G1 X99.999 Y96.288 E2.22067
G1 X103.084 Y99.372 E2.35024
G1 X103.433 Y100.315 E2.38010
G1 X99.429 Y96.311 E2.54829
G1 X98.858 Y96.334 E2.56526
G1 X103.209 Y100.685 E2.74804
G1 X102.877 Y100.947 E2.76060
G1 X98.287 Y96.357 E2.95342
G1 X97.716 Y96.380 E2.97039
G1 X102.546 Y101.209 E3.17325
G1 X102.214 Y101.471 E3.18581
G1 X97.446 Y96.703 E3.38610
G1 X97.315 Y97.167 E3.40040
G1 X101.882 Y101.734 E3.59223
G1 X101.550 Y101.996 E3.60478
G1 X97.185 Y97.631 E3.78814
G1 X97.055 Y98.094 E3.80245
G1 X101.219 Y102.258 E3.97734
G1 X100.887 Y102.520 E3.98990
G1 X96.925 Y98.558 E4.15632
G1 X96.795 Y99.021 E4.17063
G1 X100.555 Y102.782 E4.32859
G1 X100.223 Y103.044 E4.34115
G1 X96.664 Y99.485 E4.49064
G1 X96.534 Y99.949 E4.50495
G1 X98.511 Y101.925 E4.58798
G1 X96.729 Y100.738 E4.65158
G1 X96.404 Y100.412 E4.66524
G1 Z8.500 F7800.000
G1 E2.66524 F2400.00000
G92 E0
G1 X98.023 Y96.594 F7800.000
G1 E2.00000 F2400.00000
G1 F883.825
G1 X97.698 Y96.919 E2.01427
G1 X97.455 Y97.782 E2.04209
G1 X98.669 Y96.568 E2.09537
G1 X99.316 Y96.542 E2.11546
G1 X97.213 Y98.645 E2.20776
G1 X96.970 Y99.507 E2.23558
G1 X99.962 Y96.515 E2.36690
G1 X100.609 Y96.489 E2.38698
G1 X96.728 Y100.370 E2.55732
G1 X96.651 Y100.646 E2.56621
G1 X96.904 Y100.815 E2.57566
G1 X101.256 Y96.463 E2.76666
G1 X101.891 Y96.438 E2.78640
G1 X97.276 Y101.063 E2.98918
G1 X97.649 Y101.311 E3.00307
G1 X102.062 Y96.898 E3.19676
G1 X102.229 Y97.351 E3.21175
G1 X98.021 Y101.560 E3.39645
G1 X98.393 Y101.808 E3.41034
G1 X102.397 Y97.804 E3.58606
G1 X102.564 Y98.257 E3.60105
G1 X98.765 Y102.056 E3.76779
G1 X99.138 Y102.304 E3.78168
G1 X102.732 Y98.710 E3.93943
G1 X102.900 Y99.163 E3.95442
G1 X99.510 Y102.552 E4.10319
G1 X99.872 Y102.794 E4.11669
G1 X99.954 Y102.729 E4.11994
G1 X103.067 Y99.616 E4.25658
G1 X103.235 Y100.069 E4.27157
G1 X102.909 Y100.394 E4.28586
G1 Z9.000 F7800.000
G1 E2.28586 F2400.00000
G92 E0
G1 X101.745 Y96.982 F7800.000
G1 E2.00000 F2400.00000
G1 F767.943
G1 X101.420 Y96.657 E2.01432
G1 X100.821 Y96.681 E2.03298
G1 X102.111 Y97.970 E2.08979
G1 X102.477 Y98.959 E2.12263
G1 X100.223 Y96.705 E2.22193
G1 X99.624 Y96.729 E2.24059
G1 X102.843 Y99.948 E2.38238
G1 X102.982 Y100.322 E2.39482
G1 X102.766 Y100.493 E2.40340
G1 X99.026 Y96.753 E2.56814
G1 X98.427 Y96.777 E2.58680
G1 X102.418 Y100.768 E2.76259
G1 X102.070 Y101.043 E2.77641
G1 X97.853 Y96.826 E2.96214
G1 X97.717 Y97.313 E2.97787
G1 X101.722 Y101.318 E3.15430
G1 X101.374 Y101.593 E3.16811
G1 X97.580 Y97.799 E3.33523
G1 X97.444 Y98.285 E3.35096
G1 X101.026 Y101.867 E3.50877
G1 X100.678 Y102.142 E3.52258
G1 X97.307 Y98.771 E3.67108
G1 X97.170 Y99.257 E3.68681
G1 X100.330 Y102.417 E3.82600
G1 X100.186 Y102.531 E3.83171
G1 X99.091 Y101.801 E3.87271
G1 X97.034 Y99.744 E3.96333
G1 X96.897 Y100.230 E3.97906
G1 X97.222 Y100.555 E3.99337
G1 Z9.500 F7800.000
G1 E1.99337 F2400.00000
G92 E0
G1 X98.349 Y97.007 F7800.000
G1 E2.00000 F2400.00000
G1 F656.244
G1 X98.024 Y97.332 E2.01399
G1 X97.786 Y98.178 E2.04072
G1 X98.983 Y96.981 E2.09220
G1 X99.616 Y96.955 E2.11150
G1 X97.549 Y99.023 E2.20047
G1 X97.311 Y99.869 E2.22720
G1 X100.250 Y96.930 E2.35367
G1 X100.884 Y96.904 E2.37297
G1 X97.253 Y100.536 E2.52922
G1 X97.618 Y100.779 E2.54256
G1 X101.518 Y96.879 E2.71038
G1 X101.599 Y96.875 E2.71285
G1 X101.742 Y97.263 E2.72541
G1 X97.983 Y101.022 E2.88718
G1 X98.348 Y101.266 E2.90052
G1 X101.907 Y97.707 E3.05366
G1 X102.071 Y98.150 E3.06806
G1 X98.712 Y101.509 E3.21256
G1 X99.077 Y101.752 E3.22591
G1 X102.235 Y98.594 E3.36178
G1 X102.400 Y99.038 E3.37618
G1 X99.442 Y101.996 E3.50342
G1 X99.807 Y102.239 E3.51676
G1 X102.564 Y99.482 E3.63537
G1 X102.728 Y99.926 E3.64977
G1 X102.403 Y100.252 E3.66378
G1 Z10.000 F7800.000
G1 E1.66378 F2400.00000
G92 E0
G1 X101.453 Y97.419 F7800.000
G1 E2.00000 F2400.00000
G1 F600
G1 X101.128 Y97.094 E2.01399
G1 X100.544 Y97.118 E2.03178
G1 X101.811 Y98.385 E2.08630
G1 X102.168 Y99.351 E2.11761
G1 X99.959 Y97.142 E2.21265
G1 X99.374 Y97.165 E2.23045
G1 X102.427 Y100.218 E2.36178
G1 X102.087 Y100.486 E2.37495
G1 X98.790 Y97.189 E2.51682
G1 X98.205 Y97.212 E2.53462
G1 X101.748 Y100.755 E2.68702
G1 X101.408 Y101.023 E2.70019
G1 X98.058 Y97.673 E2.84432
G1 X97.924 Y98.148 E2.85932
G1 X101.068 Y101.292 E2.99457
G1 X100.728 Y101.560 E3.00774
G1 X97.791 Y98.623 E3.13411
G1 X97.658 Y99.097 E3.14912
G1 X100.389 Y101.828 E3.26661
G1 X100.165 Y102.005 E3.27527
G1 X99.541 Y101.589 E3.29810
G1 X97.524 Y99.572 E3.38485
G1 X97.391 Y100.047 E3.39986
G1 X97.716 Y100.372 E3.41383
G1 Z10.500 F7800.000
G1 E1.41383 F2400.00000
G92 E0
G1 X98.675 Y97.419 F7800.000
G1 E2.00000 F2400.00000
G1 F600
G1 X98.350 Y97.745 E2.01359
G1 X98.119 Y98.567 E2.03884
G1 X99.291 Y97.395 E2.08784
G1 X99.907 Y97.370 E2.10607
G1 X97.888 Y99.389 E2.19049
G1 X97.657 Y100.211 E2.21573
G1 X100.523 Y97.345 E2.33556
G1 X101.139 Y97.320 E2.35378
G1 X97.962 Y100.497 E2.48662
G1 X98.317 Y100.734 E2.49923
G1 X101.423 Y97.627 E2.62913
G1 X101.583 Y98.058 E2.64273
G1 X98.671 Y100.970 E2.76448
G1 X99.026 Y101.206 E2.77709
G1 X101.743 Y98.490 E2.89068
G1 X101.902 Y98.921 E2.90429
G1 X99.381 Y101.443 E3.00973
G1 X99.735 Y101.679 E3.02233
G1 X102.062 Y99.353 E3.11962
G1 X102.222 Y99.784 E3.13322
G1 X101.896 Y100.109 E3.14684
G1 Z11.000 F7800.000
G1 E1.14684 F2400.00000
G92 E0
G1 X101.161 Y97.857 F7800.000
G1 E2.00000 F2400.00000
G1 F600
G1 X100.836 Y97.532 E2.01519
G1 X100.201 Y97.558 E2.03619
G1 X101.550 Y98.906 E2.09918
G1 X101.938 Y99.955 E2.13612
G1 X99.566 Y97.583 E2.24692
G1 X98.932 Y97.609 E2.26791
G1 X101.629 Y100.306 E2.39393
G1 X101.260 Y100.598 E2.40947
G1 X98.464 Y97.802 E2.54012
G1 X98.319 Y98.317 E2.55781
G1 X100.891 Y100.889 E2.67798
G1 X100.522 Y101.181 E2.69352
G1 X98.174 Y98.833 E2.80322
G1 X98.029 Y99.349 E2.82092
G1 X100.144 Y101.479 E2.92010
G1 X98.210 Y100.190 E2.99691
G1 X97.884 Y99.864 E3.01210
G1 Z11.500 F7800.000
G1 X98.676 Y98.157 F7800.000
G1 F600
G1 X99.001 Y97.832 E3.02696
G1 X99.675 Y97.805 E3.04874
G1 X98.424 Y99.056 E3.10591
G1 X98.171 Y99.955 E3.13608
G1 X100.348 Y97.778 E3.23557
G1 X101.017 Y97.755 E3.25721
G1 X98.457 Y100.315 E3.37423
G1 X98.844 Y100.574 E3.38929
G1 X101.191 Y98.227 E3.49658
G1 X101.366 Y98.698 E3.51283
G1 X99.232 Y100.832 E3.61037
G1 X99.620 Y101.091 E3.62543
G1 X101.541 Y99.170 E3.71322
G1 X101.715 Y99.642 E3.72948
G1 X101.390 Y99.967 E3.74436
G1 Z12.000 F7800.000
G1 X100.870 Y98.295 F7800.000
G1 F600
G1 X100.544 Y97.970 E3.75922
G1 X99.923 Y97.995 E3.77933
G1 X101.249 Y99.321 E3.83998
G1 X101.462 Y99.896 E3.85977
G1 X101.303 Y100.021 E3.86633
G1 X99.302 Y98.020 E3.95783
G1 X98.839 Y98.039 E3.97280
G1 X98.803 Y98.168 E3.97713
G1 X100.942 Y100.307 E4.07493
G1 X100.581 Y100.592 E4.08981
G1 X98.661 Y98.672 E4.17758
G1 X98.519 Y99.177 E4.19453
G1 X100.219 Y100.877 E4.27226
G1 X100.123 Y100.954 E4.27625
G1 X98.703 Y100.007 E4.33142
G1 X98.378 Y99.682 E4.34629
G1 Z12.500 F7800.000
G1 X99.002 Y98.570 F7800.000
G1 F600
G1 X99.327 Y98.245 E4.36071
G1 X99.981 Y98.219 E4.38122
G1 X98.757 Y99.442 E4.43549
G1 X98.624 Y99.916 E4.45091
G1 X98.796 Y100.030 E4.45739
G1 X100.634 Y98.192 E4.53891
G1 X100.724 Y98.189 E4.54172
G1 X100.870 Y98.584 E4.55493
G1 X99.173 Y100.281 E4.63021
G1 X99.549 Y100.532 E4.64440
G1 X101.039 Y99.042 E4.71050
G1 X101.209 Y99.499 E4.72581
G1 X100.883 Y99.825 E4.74025
G1 Z13.000 F7800.000
G1 X100.578 Y98.733 F7800.000
G1 F600
G1 X100.253 Y98.408 E4.75447
G1 X99.658 Y98.432 E4.77286
G1 X100.941 Y99.714 E4.82895
G1 X100.955 Y99.753 E4.83023
G1 X100.624 Y100.015 E4.84330
G1 X99.142 Y98.534 E4.90808
G1 X99.007 Y99.017 E4.92359
G1 X100.278 Y100.288 E4.97919
G1 X100.101 Y100.428 E4.98616
G1 X99.196 Y99.824 E5.01980
G1 X98.871 Y99.499 E5.03402
G1 Z13.500 F7800.000
G1 X99.997 Y98.644 F7800.000
G1 F600
G1 X99.200 Y99.442 E5.07402
G1 X99.118 Y99.733 E5.08474
G1 X99.418 Y99.933 E5.09751
G1 X100.511 Y98.840 E5.15232
G1 X100.702 Y99.357 E5.17188
G1 X100.377 Y99.683 E5.18820
G1 Z14.000 F7800.000
G1 X100.286 Y99.171 F7800.000
G1 F600
G1 X99.961 Y98.846 E5.20450
G1 X99.492 Y98.864 E5.22115
G1 X99.443 Y99.037 E5.22750
G1 X100.208 Y99.801 E5.26583
G1 X100.080 Y99.902 E5.27160
G1 X99.689 Y99.642 E5.28825
G1 X99.768 Y99.362 E5.29856
G1 Z14.500 F7800.000
G1 Z15.000 F7800.000
G1 E3.29856 F2400.00000
G92 E0
M107
; Filament-specific end gcode 
;END gcode for filament

M104 S0 ; turn off temperature
G28 X0  ; home X axis
M84     ; disable motors

M140 S0 ; set bed temperature
; filament used = 76.8mm (0.5cm3)
; total filament cost = 0.0

; avoid_crossing_perimeters = 0
; bed_shape = 0x0,200x0,200x200,0x200
; bed_temperature = 0
; before_layer_gcode = 
; between_objects_gcode = 
; bridge_acceleration = 0
; bridge_fan_speed = 100
; brim_connections_width = 0
; brim_width = 0
; complete_objects = 0
; cooling = 1
; default_acceleration = 0
; disable_fan_first_layers = 3
; duplicate_distance = 6
; end_filament_gcode = "; Filament-specific end gcode \n;END gcode for filament\n"
; end_gcode = M104 S0 ; turn off temperature\nG28 X0  ; home X axis\nM84     ; disable motors\n
; extruder_clearance_height = 20
; extruder_clearance_radius = 20
; extruder_offset = 0x0
; extrusion_axis = E
; extrusion_multiplier = 1
; fan_always_on = 0
; fan_below_layer_time = 60
; filament_colour = #FFFFFF
; filament_cost = 0
; filament_density = 0
; filament_diameter = 3
; filament_max_volumetric_speed = 0
; filament_notes = ""
; first_layer_acceleration = 0
; first_layer_bed_temperature = 0
; first_layer_extrusion_width = 200%
; first_layer_speed = 30
; first_layer_temperature = 205
; gcode_arcs = 0
; gcode_comments = 0
; gcode_flavor = reprap
; has_heatbed = 1
; infill_acceleration = 0
; infill_first = 0
; interior_brim_width = 0
; layer_gcode = 
; max_fan_speed = 100
; max_layer_height = 0.3
; max_print_speed = 80
; max_volumetric_speed = 0
; min_fan_speed = 35
; min_layer_height = 0.15
; min_print_speed = 10
; min_skirt_length = 0
; notes = 
; nozzle_diameter = 0.5
; only_retract_when_crossing_perimeters = 1
; ooze_prevention = 0
; output_filename_format = [input_filename_base].gcode
; perimeter_acceleration = 0
; post_process = 
; pressure_advance = 0
; printer_notes = 
; resolution = 0
; retract_before_travel = 2
; retract_layer_change = 0
; retract_length = 2
; retract_length_toolchange = 10
; retract_lift = 0
; retract_lift_above = 0
; retract_lift_below = 0
; retract_restart_extra = 0
; retract_restart_extra_toolchange = 0
; retract_speed = 40
; skirt_distance = 6
; skirt_height = 1
; skirts = 0
; slowdown_below_layer_time = 5
; spiral_vase = 0
; standby_temperature_delta = -5
; start_filament_gcode = "; Filament gcode\n"
; start_gcode = G28 ; home all axes\nG1 Z5 F5000 ; lift nozzle\n
; temperature = 200
; threads = 8
; toolchange_gcode = 
; travel_speed = 130
; use_firmware_retraction = 0
; use_relative_e_distances = 0
; use_set_and_wait_bed = 0
; use_set_and_wait_extruder = 0
; use_volumetric_e = 0
; vibration_limit = 0
; wipe = 0
; z_offset = 0
; z_steps_per_mm = 0
; adaptive_slicing = 0
; adaptive_slicing_quality = 75%
; dont_support_bridges = 1
; extrusion_width = 0
; first_layer_height = 0.5
; infill_only_where_needed = 0
; interface_shells = 0
; layer_height = 0.5
; match_horizontal_surfaces = 0
; raft_layers = 0
; regions_overlap = 0
; seam_position = aligned
; sequential_print_priority = 0
; support_material = 0
; support_material_angle = 0
; support_material_buildplate_only = 0
; support_material_contact_distance = 0.2
; support_material_enforce_layers = 0
; support_material_extruder = 1
; support_material_extrusion_width = 0
; support_material_interface_extruder = 1
; support_material_interface_extrusion_width = 0
; support_material_interface_layers = 3
; support_material_interface_spacing = 0
; support_material_interface_speed = 100%
; support_material_max_layers = 0
; support_material_pattern = pillars
; support_material_spacing = 2.5
; support_material_speed = 60
; support_material_threshold = 60%
; xy_size_compensation = 0
; bottom_infill_pattern = rectilinear
; bottom_solid_layers = 0
; bridge_flow_ratio = 1
; bridge_speed = 60
; external_perimeter_extrusion_width = 0
; external_perimeter_speed = 50%
; external_perimeters_first = 0
; extra_perimeters = 1
; fill_angle = 45
; fill_density = 40%
; fill_gaps = 1
; fill_pattern = rectilinear
; gap_fill_speed = 20
; infill_every_layers = 1
; infill_extruder = 1
; infill_extrusion_width = 0
; infill_overlap = 55%
; infill_speed = 80
; overhangs = 1
; perimeter_extruder = 1
; perimeter_extrusion_width = 0
; perimeter_speed = 60
; perimeters = 0
; small_perimeter_speed = 15
; solid_infill_below_area = 70
; solid_infill_every_layers = 0
; solid_infill_extruder = 1
; solid_infill_extrusion_width = 0
; solid_infill_speed = 20
; thin_walls = 1
; top_infill_extrusion_width = 0
; top_infill_pattern = rectilinear
; top_solid_infill_speed = 15
; top_solid_layers = 0
