; generated by Slic3r 1.3.0 on 2019-11-27 at 10:55:12

; external perimeters extrusion width = 0.55mm (5.57mm^3/s)
; perimeters extrusion width = 0.58mm (11.78mm^3/s)
; infill extrusion width = 0.58mm (15.71mm^3/s)
; solid infill extrusion width = 0.58mm (3.93mm^3/s)
; top infill extrusion width = 0.58mm (2.95mm^3/s)

M107
M104 S205 ; set temperature
G28 ; home all axes
G1 Z5 F5000 ; lift nozzle

; Filament gcode

M109 S205 ; set temperature and wait for it to be reached
G21 ; set units to millimeters
G90 ; use absolute coordinates
M82 ; use absolute distances for extrusion
G92 E0
G1 Z0.300 F7800.000
G1 E-2.00000 F2400.00000
G92 E0
G1 X105.767 Y105.804 F7800.000
G1 E2.00000 F2400.00000
G1 F767.066
G1 X106.124 Y105.804 E2.00810
G1 X106.125 Y106.128 E2.01548
G1 X105.767 Y106.128 E2.02362
G1 X105.767 Y105.879 E2.02929
G1 X105.233 Y105.269 F7800.000
G1 F767.066
G1 X106.658 Y105.268 E2.06168
G1 X106.662 Y106.664 E2.09342
G1 X105.230 Y106.664 E2.12597
G1 X105.233 Y105.344 E2.15598
G1 X104.699 Y104.734 F7800.000
G1 F767.066
G1 X107.192 Y104.732 E2.21266
G1 X107.199 Y107.200 E2.26876
G1 X104.693 Y107.200 E2.32574
G1 X104.699 Y104.809 E2.38009
G1 X105.182 Y104.862 F7800.000
G1 E0.38009 F2400.00000
G92 E0
G1 X94.731 Y105.274 F7800.000
G1 E2.00000 F2400.00000
G1 F767.066
G1 X94.732 Y106.657 E2.03144
G1 X93.336 Y106.656 E2.06317
G1 X93.336 Y105.274 E2.09457
G1 X94.656 Y105.274 E2.12457
G1 X95.266 Y104.738 F7800.000
G1 F767.066
G1 X95.268 Y107.193 E2.18037
G1 X92.800 Y107.191 E2.23647
G1 X92.800 Y104.739 E2.29221
G1 X95.191 Y104.738 E2.34655
G1 X95.136 Y105.221 F7800.000
G1 E0.34655 F2400.00000
G92 E0
G1 X94.727 Y94.739 F7800.000
G1 E2.00000 F2400.00000
G1 F767.066
G1 X93.343 Y94.736 E2.03144
G1 X93.344 Y93.345 E2.06306
G1 X94.725 Y93.344 E2.09444
G1 X94.726 Y94.664 E2.12445
G1 X95.263 Y95.276 F7800.000
G1 F767.066
G1 X92.807 Y95.270 E2.18027
G1 X92.809 Y92.810 E2.23620
G1 X95.260 Y92.808 E2.29191
G1 X95.263 Y95.201 E2.34632
G1 X94.780 Y95.145 F7800.000
G1 E0.34632 F2400.00000
G92 E0
G1 X105.798 Y94.232 F7800.000
G1 E2.00000 F2400.00000
G1 F767.066
G1 X105.799 Y93.872 E2.00818
G1 X106.120 Y93.872 E2.01548
G1 X106.120 Y94.233 E2.02368
G1 X105.873 Y94.232 E2.02931
G1 X105.261 Y94.766 F7800.000
G1 F767.066
G1 X105.264 Y93.337 E2.06181
G1 X106.655 Y93.336 E2.09343
G1 X106.656 Y94.770 E2.12601
G1 X105.336 Y94.767 E2.15603
G1 X104.724 Y95.301 F7800.000
G1 F767.066
G1 X104.730 Y92.801 E2.21285
G1 X107.191 Y92.801 E2.26878
G1 X107.192 Y95.306 E2.32574
G1 X104.799 Y95.301 E2.38015
G1 X104.853 Y94.818 F7800.000
M104 S200 ; set temperature
G1 Z0.700 F7800.000
G1 E0.38015 F2400.00000
G92 E0
G1 X105.640 Y105.626 F7800.000
G1 E2.00000 F2400.00000
G1 F867.381
G1 X106.170 Y105.625 E2.01472
G1 X106.171 Y106.238 E2.03175
G1 X105.639 Y106.238 E2.04654
G1 X105.640 Y105.701 E2.06145
G1 X105.151 Y105.136 F7800.000
G1 F867.381
G1 X106.660 Y105.134 E2.10338
G1 X106.663 Y106.730 E2.14772
G1 X105.147 Y106.728 E2.18984
G1 X105.150 Y105.211 E2.23198
G1 X104.674 Y104.659 F7800.000
G1 F867.381
G1 X107.137 Y104.656 E2.29667
G1 X107.141 Y107.208 E2.36371
G1 X104.668 Y107.205 E2.42867
G1 X104.674 Y104.734 E2.49357
G1 X105.157 Y104.790 F7800.000
G1 E0.49357 F2400.00000
G92 E0
G1 X94.374 Y105.634 F7800.000
G1 E2.00000 F2400.00000
G1 F867.381
G1 X94.375 Y106.219 E2.01625
G1 X93.762 Y106.218 E2.03328
G1 X93.763 Y105.634 E2.04951
G1 X94.299 Y105.634 E2.06441
G1 X94.865 Y105.143 F7800.000
G1 F867.381
G1 X94.866 Y106.710 E2.10794
G1 X93.270 Y106.709 E2.15228
G1 X93.272 Y105.143 E2.19577
G1 X94.790 Y105.143 E2.23791
G1 X95.342 Y104.666 F7800.000
G1 F867.381
G1 X95.337 Y107.188 E2.30417
G1 X92.792 Y107.186 E2.37103
G1 X92.795 Y104.682 E2.43677
G1 X93.089 Y104.665 E2.44450
G1 X95.267 Y104.666 E2.50169
G1 X95.093 Y105.100 F7800.000
G1 E0.50169 F2400.00000
G92 E0
G1 X94.366 Y94.330 F7800.000
G1 E2.00000 F2400.00000
G1 F867.381
G1 X93.781 Y94.328 E2.01626
G1 X93.782 Y93.849 E2.02959
G1 X94.366 Y93.848 E2.04581
G1 X94.366 Y94.255 E2.05711
G1 X94.858 Y94.822 F7800.000
G1 F867.381
G1 X93.290 Y94.818 E2.10068
G1 X93.291 Y93.358 E2.14123
G1 X94.856 Y93.357 E2.18469
G1 X94.858 Y94.747 E2.22331
G1 X95.336 Y95.301 F7800.000
G1 F867.381
G1 X92.812 Y95.294 E2.28962
G1 X92.814 Y92.881 E2.35300
G1 X95.333 Y92.879 E2.41916
G1 X95.336 Y95.226 E2.48080
G1 X94.853 Y95.174 F7800.000
G1 E0.48080 F2400.00000
G92 E0
G1 X105.670 Y94.360 F7800.000
G1 E2.00000 F2400.00000
G1 F867.381
G1 X105.671 Y93.832 E2.01467
G1 X106.152 Y93.830 E2.02804
G1 X106.153 Y94.361 E2.04279
G1 X105.745 Y94.360 E2.05414
G1 X105.178 Y94.850 F7800.000
G1 F867.381
G1 X105.181 Y93.342 E2.09601
G1 X106.642 Y93.338 E2.13659
G1 X106.645 Y94.853 E2.17868
G1 X105.253 Y94.850 E2.21736
G1 X104.699 Y95.326 F7800.000
G1 F867.381
G1 X104.705 Y92.866 E2.28197
G1 X107.119 Y92.859 E2.34537
G1 X107.124 Y95.332 E2.41033
G1 X104.774 Y95.326 E2.47205
G1 X104.827 Y94.843 F7800.000
G1 Z1.100 F7800.000
G1 E0.47205 F2400.00000
G92 E0
G1 X105.113 Y105.045 F7800.000
G1 E2.00000 F2400.00000
G1 F618.076
G1 X106.400 Y105.044 E2.03574
G1 X106.402 Y106.131 E2.06593
G1 X105.116 Y106.128 E2.10168
G1 X105.113 Y105.120 E2.12967
G1 X104.635 Y104.568 F7800.000
G1 F618.076
G1 X106.365 Y104.566 E2.17511
G1 X106.876 Y104.599 E2.18857
G1 X106.880 Y106.610 E2.24138
G1 X104.691 Y106.604 E2.29887
G1 X104.639 Y106.407 E2.30424
G1 X104.635 Y104.643 E2.35055
G1 X105.070 Y104.814 F7800.000
G1 E0.35055 F2400.00000
G92 E0
G1 X94.949 Y105.055 F7800.000
G1 E2.00000 F2400.00000
G1 F618.076
G1 X94.954 Y106.093 E2.02882
G1 X93.870 Y106.089 E2.05893
G1 X93.873 Y105.056 E2.08762
G1 X94.874 Y105.055 E2.11543
G1 X95.424 Y104.577 F7800.000
G1 F618.076
G1 X95.433 Y106.429 E2.16408
G1 X95.409 Y106.572 E2.16788
G1 X93.392 Y106.562 E2.22086
G1 X93.396 Y104.614 E2.27202
G1 X93.575 Y104.579 E2.27681
G1 X95.349 Y104.577 E2.32340
G1 X95.178 Y105.012 F7800.000
G1 E0.32340 F2400.00000
G92 E0
G1 X94.944 Y94.873 F7800.000
G1 E2.00000 F2400.00000
G1 F618.076
G1 X93.908 Y94.871 E2.02876
G1 X93.914 Y93.630 E2.06322
G1 X94.939 Y93.627 E2.09170
G1 X94.943 Y94.798 E2.12422
G1 X95.423 Y95.351 F7800.000
G1 F618.076
G1 X93.783 Y95.348 E2.16729
G1 X93.429 Y95.317 E2.17663
G1 X93.439 Y93.154 E2.23344
G1 X95.384 Y93.148 E2.28453
G1 X95.416 Y93.388 E2.29089
G1 X95.423 Y95.276 E2.34048
G1 X94.989 Y95.103 F7800.000
G1 E0.34048 F2400.00000
G92 E0
G1 X105.127 Y94.888 F7800.000
G1 E2.00000 F2400.00000
G1 F618.076
G1 X105.129 Y93.607 E2.03558
G1 X106.366 Y93.598 E2.06995
G1 X106.373 Y94.890 E2.10583
G1 X105.202 Y94.888 E2.13834
G1 X104.649 Y95.365 F7800.000
G1 F618.076
G1 X104.651 Y93.638 E2.18371
G1 X104.665 Y93.405 E2.18982
G1 X104.720 Y93.132 E2.19713
G1 X106.625 Y93.119 E2.24716
G1 X106.841 Y93.132 E2.25286
G1 X106.852 Y95.308 E2.31003
G1 X106.597 Y95.357 E2.31686
G1 X106.401 Y95.367 E2.32201
G1 X104.724 Y95.365 E2.36606
G1 X104.899 Y94.932 F7800.000
M106 S255
G1 Z1.500 F7800.000
G1 E0.36606 F2400.00000
G92 E0
G1 X104.914 Y104.914 F7800.000
G1 E2.00000 F2400.00000
G1 F600
G1 X105.859 Y104.911 E2.02625
G1 X105.862 Y105.709 E2.04842
G1 X104.912 Y105.704 E2.07480
G1 X104.914 Y104.989 E2.09467
G1 X104.437 Y104.438 F7800.000
G1 F600
G1 X106.161 Y104.432 E2.13996
G1 X106.335 Y104.446 E2.14452
G1 X106.341 Y106.189 E2.19029
G1 X104.434 Y106.179 E2.24039
G1 X104.437 Y104.513 E2.28417
G1 X104.922 Y104.559 F7800.000
G1 E0.28417 F2400.00000
G92 E0
G1 X104.939 Y95.086 F7800.000
G1 E2.00000 F2400.00000
G1 F600
G1 X104.942 Y94.139 E2.02632
G1 X105.836 Y94.137 E2.05116
G1 X105.840 Y95.089 E2.07760
G1 X105.014 Y95.086 E2.10052
G1 X104.461 Y95.562 F7800.000
G1 F600
G1 X104.465 Y93.662 E2.15043
G1 X106.311 Y93.658 E2.19892
G1 X106.319 Y95.568 E2.24907
G1 X104.536 Y95.563 E2.29592
G1 X104.588 Y95.079 F7800.000
G1 E0.29592 F2400.00000
G92 E0
G1 X95.074 Y95.061 F7800.000
G1 E2.00000 F2400.00000
G1 F600
G1 X94.301 Y95.059 E2.02147
G1 X94.298 Y94.161 E2.04641
G1 X95.070 Y94.159 E2.06784
G1 X95.073 Y94.986 E2.09080
G1 X95.553 Y95.540 F7800.000
G1 F600
G1 X93.825 Y95.535 E2.13621
G1 X93.819 Y93.685 E2.18481
G1 X95.545 Y93.681 E2.23014
G1 X95.553 Y95.465 E2.27700
G1 X95.072 Y95.404 F7800.000
G1 E0.27700 F2400.00000
G92 E0
G1 X95.086 Y104.925 F7800.000
G1 E2.00000 F2400.00000
G1 F600
G1 X95.089 Y105.704 E2.02163
G1 X94.289 Y105.704 E2.04383
G1 X94.291 Y104.925 E2.06545
G1 X95.011 Y104.925 E2.08547
G1 X95.562 Y104.448 F7800.000
G1 F600
G1 X95.568 Y106.182 E2.13100
G1 X93.811 Y106.181 E2.17714
G1 X93.814 Y104.447 E2.22268
G1 X95.487 Y104.448 E2.26663
G1 X95.433 Y104.931 F7800.000
G1 Z1.900 F7800.000
G1 E0.26663 F2400.00000
G92 E0
G1 X104.702 Y104.749 F7800.000
G1 E2.00000 F2400.00000
G1 F600
G1 X105.615 Y104.748 E2.02535
G1 X105.616 Y105.464 E2.04522
G1 X104.701 Y105.461 E2.07063
G1 X104.702 Y104.824 E2.08831
G1 X104.226 Y104.272 F7800.000
G1 F600
G1 X106.092 Y104.281 E2.13733
G1 X106.094 Y105.943 E2.18096
G1 X104.223 Y105.937 E2.23010
G1 X104.226 Y104.347 E2.27186
G1 X104.711 Y104.392 F7800.000
G1 E0.27186 F2400.00000
G92 E0
G1 X104.716 Y95.298 F7800.000
G1 E2.00000 F2400.00000
G1 F600
G1 X104.716 Y94.386 E2.02533
G1 X105.604 Y94.384 E2.05000
G1 X105.605 Y95.299 E2.07541
G1 X104.791 Y95.298 E2.09801
G1 X104.239 Y95.775 F7800.000
G1 F600
G1 X104.238 Y93.910 E2.14700
G1 X106.081 Y93.906 E2.19542
G1 X106.083 Y95.777 E2.24457
G1 X104.314 Y95.775 E2.29103
G1 X104.367 Y95.292 F7800.000
G1 E0.29103 F2400.00000
G92 E0
G1 X95.241 Y95.285 F7800.000
G1 E2.00000 F2400.00000
G1 F600
G1 X94.549 Y95.285 E2.01920
G1 X94.550 Y94.395 E2.04391
G1 X95.237 Y94.395 E2.06299
G1 X95.240 Y95.210 E2.08565
G1 X95.720 Y95.763 F7800.000
G1 F600
G1 X94.071 Y95.762 E2.12896
G1 X94.073 Y93.918 E2.17739
G1 X95.713 Y93.917 E2.22046
G1 X95.720 Y95.688 E2.26699
G1 X95.240 Y95.625 F7800.000
G1 X94.895 Y95.040 F7800.000
G1 F649.884
G1 X94.894 Y94.640 E2.26954
G1 E0.26954 F2400.00000
G92 E0
G1 X95.248 Y104.758 F7800.000
G1 E2.00000 F2400.00000
G1 F600
G1 X95.251 Y105.452 E2.01927
G1 X94.536 Y105.451 E2.03912
G1 X94.538 Y104.759 E2.05836
G1 X95.173 Y104.758 E2.07599
G1 X95.724 Y104.280 F7800.000
G1 F600
G1 X95.730 Y105.930 E2.11932
G1 X94.062 Y105.929 E2.16314
G1 X94.063 Y104.282 E2.20639
G1 X95.649 Y104.280 E2.24806
G1 X95.587 Y104.761 F7800.000
G1 Z2.300 F7800.000
G1 E0.24806 F2400.00000
G92 E0
G1 X104.376 Y104.529 F7800.000
G1 E2.00000 F2400.00000
G1 F600
G1 X105.376 Y104.528 E2.02777
G1 X105.380 Y105.221 E2.04701
G1 X104.377 Y105.222 E2.07487
G1 X104.376 Y104.604 E2.09202
G1 X103.898 Y104.052 F7800.000
G1 F600
G1 X105.663 Y104.050 E2.13837
G1 X105.851 Y104.066 E2.14331
G1 X105.860 Y105.698 E2.18619
G1 X103.900 Y105.690 E2.23768
G1 X103.898 Y104.127 E2.27871
G1 X104.340 Y104.286 F7800.000
G1 X104.622 Y104.875 F7800.000
G1 F670.642
G1 X105.132 Y104.875 E2.28206
G1 E0.28206 F2400.00000
G92 E0
G1 X95.468 Y104.547 F7800.000
G1 E2.00000 F2400.00000
G1 F600
G1 X95.465 Y105.217 E2.01860
G1 X94.778 Y105.216 E2.03768
G1 X94.779 Y104.549 E2.05623
G1 X95.393 Y104.547 E2.07330
G1 X95.948 Y104.068 F7800.000
G1 F600
G1 X95.940 Y105.695 E2.11601
G1 X94.300 Y105.694 E2.15909
G1 X94.302 Y104.072 E2.20167
G1 X95.873 Y104.068 E2.24294
G1 X95.816 Y104.551 F7800.000
G1 E0.24294 F2400.00000
G92 E0
G1 X95.457 Y95.600 F7800.000
G1 E2.00000 F2400.00000
G1 F600
G1 X94.784 Y95.598 E2.01868
G1 X94.787 Y94.640 E2.04529
G1 X95.452 Y94.639 E2.06377
G1 X95.457 Y95.525 E2.08837
G1 X95.937 Y96.079 F7800.000
G1 F600
G1 X94.306 Y96.062 E2.13123
G1 X94.311 Y94.164 E2.18109
G1 X95.927 Y94.161 E2.22355
G1 X95.937 Y96.004 E2.27196
G1 X95.458 Y95.936 F7800.000
G1 X95.120 Y95.354 F7800.000
G1 F670.642
G1 X95.120 Y94.885 E2.27443
G1 E0.27443 F2400.00000
G92 E0
G1 X104.399 Y95.624 F7800.000
G1 E2.00000 F2400.00000
G1 F600
G1 X104.402 Y94.621 E2.02784
G1 X105.360 Y94.618 E2.05443
G1 X105.362 Y95.627 E2.08243
G1 X104.474 Y95.624 E2.10708
G1 X103.920 Y96.100 F7800.000
G1 F600
G1 X103.926 Y94.312 E2.15403
G1 X103.945 Y94.145 E2.15844
G1 X105.836 Y94.139 E2.20812
G1 X105.840 Y95.913 E2.25470
G1 X105.818 Y96.106 E2.25980
G1 X103.995 Y96.100 E2.30768
G1 X104.157 Y95.659 F7800.000
G1 Z2.700 F7800.000
G1 E0.30768 F2400.00000
G92 E0
G1 X103.960 Y104.243 F7800.000
G1 E2.00000 F2400.00000
G1 F600
G1 X105.109 Y104.242 E2.03192
G1 X105.115 Y105.004 E2.05309
G1 X103.956 Y104.996 E2.08530
G1 X103.959 Y104.318 E2.10413
G1 X103.484 Y103.787 F7800.000
G1 F600
G1 X103.614 Y103.765 E2.10759
G1 X105.582 Y103.773 E2.15928
G1 X105.597 Y105.486 E2.20426
G1 X103.476 Y105.470 E2.25997
G1 X103.484 Y103.862 E2.30220
G1 X103.615 Y103.802 F7800.000
G1 X104.203 Y104.620 F7800.000
G1 F667.852
G1 X104.867 Y104.622 E2.30905
G1 E0.30905 F2400.00000
G92 E0
G1 X103.967 Y96.045 F7800.000
G1 E2.00000 F2400.00000
G1 F600
G1 X103.969 Y94.885 E2.03224
G1 X105.104 Y94.882 E2.06377
G1 X105.106 Y96.049 E2.09620
G1 X104.042 Y96.046 E2.12575
G1 X103.489 Y96.436 F7800.000
G1 F1001.78
G1 X103.504 Y94.434 E2.17832
G1 X103.622 Y94.408 E2.18150
G1 X105.581 Y94.403 E2.23296
G1 X105.584 Y96.384 E2.28500
G1 X105.558 Y96.528 E2.28884
G1 X103.570 Y96.522 E2.34105
M106 S255

G1 F3600
G1 X103.488 Y96.511 E2.34333
M106 S255

G1 E0.34333 F2400.00000
G92 E0
G1 X95.750 Y96.031 F7800.000
G1 E2.00000 F2400.00000
G1 F600
G1 X95.005 Y96.028 E2.02069
G1 X95.006 Y94.895 E2.05216
G1 X95.742 Y94.893 E2.07260
G1 X95.749 Y95.956 E2.10213
G1 X96.204 Y96.511 F7800.000
G1 F600
G1 X94.527 Y96.503 E2.14619
G1 X94.529 Y94.418 E2.20094
G1 X96.216 Y94.425 E2.24526
G1 X96.219 Y96.437 E2.29811
G1 X95.773 Y96.258 F7800.000
G1 X95.377 Y95.784 F7800.000
G1 F667.852
G1 X95.375 Y95.139 E2.30413
G1 E0.30413 F2400.00000
G92 E0
G1 X95.753 Y104.249 F7800.000
G1 E2.00000 F2400.00000
G1 F600
G1 X95.755 Y104.999 E2.02084
G1 X94.995 Y105.000 E2.04195
G1 X95.000 Y104.251 E2.06275
G1 X95.678 Y104.249 E2.08160
G1 X96.230 Y103.770 F7800.000
G1 F600
G1 X96.233 Y105.476 E2.12642
G1 X94.514 Y105.477 E2.17156
G1 X94.525 Y103.775 E2.21630
G1 X96.155 Y103.770 E2.25911
G1 X96.101 Y104.253 F7800.000
G1 Z3.100 F7800.000
G1 E0.25911 F2400.00000
G92 E0
G1 X103.424 Y103.866 F7800.000
G1 E2.00000 F2400.00000
G1 F600
G1 X104.891 Y103.861 E2.04075
G1 X104.899 Y104.794 E2.06665
G1 X103.417 Y104.792 E2.10782
G1 X103.424 Y103.941 E2.13146
G1 X103.104 Y103.390 F7800.000
G1 F1800
G1 X105.306 Y103.382 E2.18928
G1 X105.366 Y103.487 E2.19245
G1 X105.380 Y105.272 E2.23933
G1 X103.165 Y105.269 E2.29753
G1 X102.948 Y105.240 E2.30328
M106 S255

G1 F3600
G1 X102.951 Y103.390 E2.35467
G1 X103.029 Y103.390 E2.35685
M106 S255

G1 X103.666 Y104.329 F7800.000
G1 F600
G1 X104.650 Y104.328 E2.37654
G1 E0.37654 F2400.00000
G92 E0
G1 X103.953 Y96.084 F7800.000
G1 E2.00000 F2400.00000
G1 F600
G1 X103.957 Y95.596 E2.01354
G1 X104.389 Y95.594 E2.02556
G1 X104.388 Y96.086 E2.03924
G1 X104.028 Y96.084 E2.04923
G1 X103.459 Y96.572 F7800.000
G1 F600
G1 X103.469 Y95.108 E2.08988
G1 X104.881 Y95.100 E2.12911
G1 X104.877 Y96.580 E2.17023
G1 X103.534 Y96.572 E2.20756
G1 X102.995 Y94.683 F7800.000
G1 F1800
G1 X103.183 Y94.633 E2.21269
G1 X105.360 Y94.619 E2.26986
G1 X105.354 Y96.824 E2.32777
G1 X105.305 Y97.053 E2.33392
M106 S255

G1 F3600
G1 X102.978 Y97.047 E2.39856
G1 X102.980 Y96.722 E2.40759
M106 S255

G1 F1800
G1 X102.994 Y94.758 E2.45916
G1 X102.975 Y94.878 F7800.000
G1 E0.45916 F2400.00000
G92 E0
G1 X96.108 Y95.114 F7800.000
G1 E2.00000 F2400.00000
G1 F600
G1 X96.113 Y96.543 E2.03968
G1 X95.216 Y96.540 E2.06459
G1 X95.216 Y95.116 E2.10414
G1 X96.033 Y95.115 E2.12684
G1 X96.584 Y94.652 F7800.000
G1 F1800
G1 X96.591 Y96.903 E2.18597
M106 S255

G1 F3600
G1 X96.592 Y97.022 E2.18926
G1 X96.412 Y97.021 E2.19425
M106 S255

G1 F1800
G1 X94.772 Y97.016 E2.23733
G1 X94.739 Y96.861 E2.24149
G1 X94.738 Y94.639 E2.29985
G1 X96.509 Y94.648 E2.34637
G1 X96.334 Y95.085 F7800.000
G1 X95.662 Y95.361 F7800.000
G1 F600
G1 X95.664 Y96.296 E2.36324
G1 E0.36324 F2400.00000
G92 E0
G1 X96.136 Y103.889 F7800.000
G1 E2.00000 F2400.00000
G1 F600
G1 X96.139 Y104.785 E2.02491
G1 X95.206 Y104.785 E2.05080
G1 X95.207 Y103.892 E2.07562
G1 X96.061 Y103.889 E2.09933
G1 X96.612 Y103.410 F7800.000
G1 F900
G1 X96.618 Y105.263 E2.14801
G1 X94.728 Y105.262 E2.19763
G1 X94.734 Y103.416 E2.24614
G1 X96.537 Y103.410 E2.29348
G1 X96.382 Y103.854 F7800.000
