; generated by Slic3r 1.3.0 on 2019-11-27 at 10:55:54

; external perimeters extrusion width = 0.55mm (5.57mm^3/s)
; perimeters extrusion width = 0.58mm (11.78mm^3/s)
; infill extrusion width = 0.58mm (15.71mm^3/s)
; solid infill extrusion width = 0.58mm (3.93mm^3/s)
; top infill extrusion width = 0.58mm (2.95mm^3/s)

M107
M104 S205 ; set temperature
G28 ; home all axes
G1 Z5 F5000 ; lift nozzle

; Filament gcode

M109 S205 ; set temperature and wait for it to be reached
G21 ; set units to millimeters
G90 ; use absolute coordinates
M82 ; use absolute distances for extrusion
G92 E0
G1 Z0.300 F7800.000
G1 E-2.00000 F2400.00000
G92 E0
G1 X104.875 Y104.499 F7800.000
G1 E2.00000 F2400.00000
G1 F946.847
G1 X104.459 Y104.915 E2.01498
G1 X104.456 Y105.764 E2.03657
G1 X105.727 Y104.494 E2.08225
G1 X106.573 Y104.495 E2.10376
G1 X104.454 Y106.614 E2.17993
G1 X104.456 Y107.440 E2.20094
G1 X104.475 Y107.440 E2.20142
G1 X107.433 Y104.495 E2.30751
G1 X107.435 Y105.327 E2.32865
G1 X105.322 Y107.440 E2.40461
G1 X106.169 Y107.440 E2.42614
G1 X107.437 Y106.172 E2.47173
G1 X107.432 Y107.023 E2.49338
G1 X107.016 Y107.440 E2.50836
G1 E0.50836 F2400.00000
G92 E0
G1 X95.502 Y107.017 F7800.000
G1 E2.00000 F2400.00000
G1 F946.847
G1 X95.086 Y107.433 E2.01485
G1 X94.246 Y107.433 F7800.000
G1 F946.847
G1 X95.508 Y106.171 E2.05982
G1 X95.507 Y105.332 E2.08098
G1 X93.407 Y107.432 E2.15584
G1 X92.567 Y107.431 E2.17700
G1 X95.501 Y104.498 E2.28159
G1 X94.661 Y104.498 E2.30277
G1 X92.560 Y106.599 E2.37768
G1 X92.560 Y105.759 E2.39886
G1 X93.821 Y104.498 E2.44382
G1 X92.977 Y104.502 E2.46510
G1 X92.560 Y104.919 E2.47996
G1 E0.47996 F2400.00000
G92 E0
G1 X95.077 Y95.517 F7800.000
G1 E2.00000 F2400.00000
G1 F946.847
G1 X95.493 Y95.100 E2.01483
G1 X95.502 Y94.252 E2.03616
G1 X94.240 Y95.514 E2.08107
G1 X93.404 Y95.512 E2.10211
G1 X95.502 Y93.415 E2.17675
G1 X95.501 Y92.577 E2.19782
G1 X92.571 Y95.506 E2.30206
G1 X92.567 Y94.672 E2.32306
G1 X94.665 Y92.574 E2.39771
G1 X93.829 Y92.572 E2.41874
G1 X92.568 Y93.833 E2.46361
G1 X92.569 Y92.994 E2.48473
G1 X92.986 Y92.577 E2.49956
G1 E0.49956 F2400.00000
G92 E0
G1 X104.907 Y92.571 F7800.000
G1 E2.00000 F2400.00000
G1 F946.847
G1 X104.490 Y92.988 E2.01498
G1 X104.488 Y93.836 E2.03655
G1 X105.762 Y92.562 E2.08234
G1 X106.607 Y92.564 E2.10382
G1 X104.485 Y94.685 E2.18007
G1 X104.483 Y95.534 E2.20164
G1 X107.431 Y92.587 E2.30757
G1 X107.432 Y93.433 E2.32907
G1 X105.321 Y95.543 E2.40492
G1 X106.166 Y95.545 E2.42638
G1 X107.432 Y94.279 E2.47189
G1 X107.428 Y95.130 E2.49352
G1 X107.011 Y95.547 E2.50850
M104 S200 ; set temperature
G1 Z0.700 F7800.000
G1 E0.50850 F2400.00000
G92 E0
G1 X106.970 Y104.453 F7800.000
G1 E2.00000 F2400.00000
G1 F1005.7
G1 X107.352 Y104.835 E2.01576
G1 X107.359 Y105.571 F7800.000
G1 F1005.7
G1 X106.224 Y104.436 E2.06257
G1 X105.496 Y104.437 E2.08384
G1 X107.360 Y106.301 E2.16077
G1 X107.360 Y106.619 E2.17005
G1 X107.151 Y106.587 E2.17623
G1 X107.111 Y106.782 E2.18204
G1 X104.767 Y104.438 E2.27879
G1 X104.465 Y104.443 E2.28760
G1 X104.453 Y104.853 E2.29956
G1 X107.028 Y107.428 E2.40586
G1 X106.298 Y107.427 E2.42717
G1 X104.451 Y105.580 E2.50340
G1 X104.449 Y106.308 E2.52463
G1 X105.568 Y107.426 E2.57078
G1 X104.837 Y107.425 E2.59210
G1 X104.455 Y107.043 E2.60786
G1 E0.60786 F2400.00000
G92 E0
G1 X95.562 Y104.832 F7800.000
G1 E2.00000 F2400.00000
G1 F1005.7
G1 X95.170 Y104.445 E2.01630
G1 X94.435 Y104.445 E2.03804
G1 X95.563 Y105.572 E2.08523
G1 X95.563 Y106.313 E2.10714
G1 X93.696 Y104.445 E2.18533
G1 X92.956 Y104.445 E2.20723
G1 X95.564 Y107.053 E2.31641
G1 X95.548 Y107.409 E2.32695
G1 X95.180 Y107.408 E2.33784
G1 X92.575 Y104.803 E2.44688
G1 X92.573 Y105.542 E2.46874
G1 X94.439 Y107.408 E2.54683
G1 X93.699 Y107.407 E2.56875
G1 X93.196 Y106.904 E2.58980
G1 X93.282 Y106.920 E2.59239
G1 X93.397 Y106.476 E2.60597
G1 X92.953 Y106.328 E2.61982
G1 X92.861 Y106.569 E2.62744
G1 X92.572 Y106.281 E2.63950
G1 X92.576 Y107.024 E2.66150
G1 X92.958 Y107.406 E2.67749
G1 E0.67749 F2400.00000
G92 E0
G1 X92.975 Y95.509 F7800.000
G1 E2.00000 F2400.00000
G1 F1005.7
G1 X92.594 Y95.128 E2.01555
G1 X92.592 Y94.406 E2.03631
G1 X93.702 Y95.517 E2.08152
G1 X94.424 Y95.519 E2.10229
G1 X92.593 Y93.688 E2.17685
G1 X92.594 Y92.969 E2.19754
G1 X95.145 Y95.521 E2.30145
G1 X95.542 Y95.522 E2.31286
G1 X95.556 Y95.212 E2.32179
G1 X93.004 Y92.660 E2.42570
G1 X93.724 Y92.660 E2.44640
G1 X95.555 Y94.491 E2.52099
G1 X95.554 Y93.771 E2.54174
G1 X94.443 Y92.659 E2.58701
G1 X95.162 Y92.659 E2.60771
G1 X95.544 Y93.041 E2.62327
G1 E0.62327 F2400.00000
G92 E0
G1 X104.860 Y95.538 F7800.000
G1 E2.00000 F2400.00000
G1 F1005.7
G1 X104.478 Y95.156 E2.01687
G1 X104.480 Y94.377 E2.04119
G1 X105.651 Y95.548 E2.09293
G1 X106.434 Y95.550 E2.11738
G1 X104.482 Y93.599 E2.20361
G1 X104.484 Y92.820 E2.22794
G1 X107.120 Y95.456 E2.34438
G1 X107.151 Y95.363 E2.34743
G1 X107.344 Y95.426 E2.35377
G1 X107.343 Y94.898 E2.37027
G1 X105.089 Y92.644 E2.46984
G1 X105.868 Y92.642 E2.49416
G1 X107.341 Y94.115 E2.55927
G1 X107.340 Y93.333 F7800.000
G1 F1005.7
G1 X106.958 Y92.951 E2.57614
G1 Z1.100 F7800.000
G1 E0.57614 F2400.00000
G92 E0
G1 X104.814 Y104.348 F7800.000
G1 E2.00000 F2400.00000
G1 F802.835
G1 X104.432 Y104.730 E2.01578
G1 X104.414 Y104.815 E2.01832
G1 X104.416 Y105.476 E2.03764
G1 X105.545 Y104.347 E2.08428
G1 X106.276 Y104.346 E2.10563
G1 X104.417 Y106.204 E2.18241
G1 X104.418 Y106.601 E2.19400
G1 X104.493 Y106.825 E2.20088
G1 X104.527 Y106.825 E2.20189
G1 X106.976 Y104.376 E2.30305
G1 X107.093 Y104.386 E2.30649
G1 X107.098 Y104.984 E2.32395
G1 X105.255 Y106.827 E2.40008
G1 X105.984 Y106.828 E2.42136
G1 X107.100 Y105.712 E2.46747
G1 X107.100 Y106.442 E2.48880
G1 X106.718 Y106.824 E2.50459
G1 E0.50459 F2400.00000
G92 E0
G1 X95.246 Y106.773 F7800.000
G1 E2.00000 F2400.00000
G1 F802.835
G1 X95.628 Y106.391 E2.01745
G1 X95.654 Y106.241 E2.02240
G1 X95.650 Y105.562 E2.04433
G1 X94.422 Y106.790 E2.10044
G1 X93.618 Y106.787 E2.12643
G1 X95.646 Y104.758 E2.21911
G1 X95.644 Y104.366 E2.23178
G1 X95.233 Y104.364 E2.24507
G1 X93.172 Y106.425 E2.33923
G1 X93.174 Y105.616 E2.36537
G1 X94.429 Y104.361 E2.42270
G1 X93.762 Y104.359 E2.44422
G1 X93.590 Y104.392 E2.44989
G1 X93.208 Y104.774 E2.46733
G1 E0.46733 F2400.00000
G92 E0
G1 X95.261 Y95.559 F7800.000
G1 E2.00000 F2400.00000
G1 F802.835
G1 X95.643 Y95.177 E2.01537
G1 X95.641 Y94.468 E2.03552
G1 X94.539 Y95.570 E2.07986
G1 X93.829 Y95.569 E2.10005
G1 X95.639 Y93.760 E2.17285
G1 X95.637 Y93.197 E2.18887
G1 X95.617 Y93.070 E2.19250
G1 X93.208 Y95.479 E2.28940
G1 X93.212 Y94.765 E2.30972
G1 X95.047 Y92.929 E2.38356
G1 X94.334 Y92.932 E2.40384
G1 X93.215 Y94.050 E2.44885
G1 X93.218 Y93.392 E2.46759
G1 X93.239 Y93.316 E2.46983
G1 X93.621 Y92.934 E2.48520
G1 E0.48520 F2400.00000
G92 E0
G1 X104.887 Y92.912 F7800.000
G1 E2.00000 F2400.00000
G1 F802.835
G1 X104.505 Y93.294 E2.01583
G1 X104.443 Y93.629 E2.02581
G1 X104.431 Y94.101 E2.03965
G1 X105.625 Y92.907 E2.08914
G1 X106.362 Y92.902 E2.11077
G1 X104.429 Y94.834 E2.19088
G1 X104.428 Y95.568 E2.21238
G1 X107.062 Y92.934 E2.32153
G1 X107.065 Y93.663 E2.34289
G1 X105.143 Y95.586 E2.42259
G1 X105.874 Y95.587 E2.44403
G1 X107.069 Y94.392 E2.49357
G1 X107.073 Y95.121 E2.51493
G1 X106.691 Y95.503 E2.53077
M106 S255
G1 Z1.500 F7800.000
G1 E0.53077 F2400.00000
G92 E0
G1 X106.174 Y104.346 F7800.000
G1 E2.00000 F2400.00000
G1 F600.668
G1 X106.556 Y104.727 E2.01800
G1 X106.559 Y105.564 F7800.000
G1 F600.668
G1 X105.209 Y104.214 E2.08161
G1 X104.583 Y104.216 E2.10249
G1 X104.594 Y104.318 E2.10592
G1 X104.494 Y104.332 E2.10929
G1 X106.556 Y106.406 E2.20679
G1 X105.734 Y106.405 E2.23420
G1 X104.216 Y104.887 E2.30579
G1 X104.214 Y105.718 E2.33350
G1 X104.688 Y106.192 E2.35584
G1 X104.596 Y106.194 E2.35892
G1 X104.596 Y106.100 E2.36207
G1 X104.306 Y105.810 F7800.000
G1 F600.668
G1 X104.406 Y105.807 E2.36540
G1 X104.409 Y105.913 E2.36892
G1 X104.897 Y106.401 E2.39193
G1 E0.39193 F2400.00000
G92 E0
G1 X104.622 Y95.778 F7800.000
G1 E2.00000 F2400.00000
G1 F600.668
G1 X104.240 Y95.397 E2.01668
G1 X104.242 Y94.626 E2.04048
G1 X105.400 Y95.785 E2.09109
G1 X106.175 Y95.787 E2.11501
G1 X104.244 Y93.856 E2.19937
G1 X104.245 Y93.489 E2.21070
G1 X104.260 Y93.453 E2.21193
G1 X104.601 Y93.441 E2.22246
G1 X106.538 Y95.378 E2.30709
G1 X106.535 Y94.603 E2.33104
G1 X105.372 Y93.440 E2.38185
G1 X106.143 Y93.439 E2.40567
G1 X106.525 Y93.821 E2.42236
G1 E0.42236 F2400.00000
G92 E0
G1 X95.756 Y93.848 F7800.000
G1 E2.00000 F2400.00000
G1 F600.668
G1 X95.374 Y93.466 E2.01584
G1 X94.641 Y93.465 E2.03734
G1 X95.769 Y94.594 E2.08412
G1 X95.772 Y95.330 E2.10569
G1 X93.917 Y93.474 E2.18261
G1 X93.784 Y93.926 E2.19643
G1 X93.600 Y93.875 E2.20204
G1 X93.600 Y93.890 E2.20249
G1 X95.469 Y95.759 E2.28000
G1 X94.735 Y95.758 E2.30153
G1 X93.602 Y94.625 E2.34850
G1 X93.604 Y95.360 E2.37004
G1 X93.986 Y95.741 E2.38587
G1 E0.38587 F2400.00000
G92 E0
G1 X95.645 Y104.610 F7800.000
G1 E2.00000 F2400.00000
G1 F600.668
G1 X95.263 Y104.228 E2.01801
G1 X94.430 Y104.227 E2.04578
G1 X95.786 Y105.583 E2.10971
G1 X95.777 Y106.402 E2.13701
G1 X93.608 Y104.239 E2.23911
G1 X93.593 Y104.243 E2.23963
G1 X93.592 Y105.056 E2.26672
G1 X94.938 Y106.402 E2.33017
G1 X94.105 Y106.401 E2.35795
G1 X93.591 Y105.888 E2.38216
G1 Z1.900 F7800.000
G1 E0.38216 F2400.00000
G92 E0
G1 X104.387 Y104.272 F7800.000
G1 E2.00000 F2400.00000
G1 F600
G1 X104.005 Y104.654 E2.01670
G1 X104.004 Y105.428 E2.04064
G1 X105.381 Y104.051 E2.10089
G1 X106.040 Y104.050 E2.12126
G1 X106.041 Y104.164 E2.12479
G1 X104.067 Y106.138 E2.21109
G1 X104.150 Y106.158 E2.21373
G1 X104.818 Y106.160 E2.23438
G1 X106.313 Y104.664 E2.29976
G1 X106.314 Y105.429 E2.32341
G1 X106.302 Y105.412 E2.32405
G1 X105.912 Y105.660 E2.33833
G1 X105.970 Y105.780 E2.34245
G1 X105.588 Y106.162 E2.35915
G1 E0.35915 F2400.00000
G92 E0
G1 X105.906 Y95.991 F7800.000
G1 E2.00000 F2400.00000
G1 F600
G1 X106.288 Y95.609 E2.01637
G1 X106.303 Y94.838 E2.03973
G1 X105.144 Y95.997 E2.08937
G1 X104.388 Y95.996 E2.11227
G1 X106.249 Y94.135 E2.19198
G1 X106.112 Y94.151 E2.19616
G1 X106.055 Y93.904 E2.20385
G1 X105.956 Y93.693 E2.21090
G1 X105.969 Y93.687 E2.21134
G1 X105.939 Y93.687 E2.21225
G1 X104.018 Y95.608 E2.29454
G1 X104.018 Y94.852 E2.31746
G1 X105.181 Y93.688 E2.36730
G1 X104.506 Y93.689 E2.38775
G1 X104.408 Y93.705 E2.39078
G1 X104.026 Y94.087 E2.40713
G1 E0.40713 F2400.00000
G92 E0
G1 X95.542 Y95.984 F7800.000
G1 E2.00000 F2400.00000
G1 F600
G1 X95.924 Y95.602 E2.01801
G1 X95.940 Y95.496 E2.02158
G1 X95.937 Y94.756 E2.04625
G1 X94.710 Y95.983 E2.10411
G1 X93.886 Y95.974 E2.13158
G1 X95.934 Y93.926 E2.22814
G1 X95.934 Y93.804 E2.23220
G1 X95.779 Y93.856 E2.23763
G1 X95.775 Y93.696 E2.24296
G1 X95.330 Y93.697 E2.25777
G1 X93.852 Y95.175 E2.32747
G1 X93.852 Y94.515 E2.34946
G1 X94.019 Y94.541 E2.35510
G1 X94.086 Y94.316 E2.36292
G1 X94.180 Y94.111 E2.37045
G1 X94.114 Y94.079 E2.37287
G1 X94.496 Y93.698 E2.39088
G1 E0.39088 F2400.00000
G92 E0
G1 X94.350 Y104.061 F7800.000
G1 E2.00000 F2400.00000
G1 F600
G1 X93.968 Y104.443 E2.01714
G1 X94.021 Y104.608 E2.02264
G1 X93.842 Y104.609 E2.02832
G1 X93.839 Y105.365 E2.05234
G1 X95.144 Y104.061 E2.11088
G1 X95.937 Y104.060 E2.13606
G1 X94.074 Y105.923 E2.21967
G1 X94.263 Y106.009 E2.22623
G1 X94.212 Y106.149 E2.23098
G1 X94.641 Y106.150 E2.24460
G1 X95.947 Y104.843 E2.30324
G1 X95.950 Y105.633 E2.32831
G1 X95.568 Y106.015 E2.34545
G1 Z2.300 F7800.000
G1 E0.34545 F2400.00000
G92 E0
G1 X103.721 Y105.528 F7800.000
G1 E2.00000 F2400.00000
G1 F600
G1 X104.103 Y105.911 E2.01568
G1 X104.836 Y105.919 E2.03693
G1 X103.679 Y104.762 E2.08438
G1 X103.678 Y104.037 E2.10540
G1 X105.560 Y105.919 E2.18257
G1 X105.663 Y105.919 E2.18554
G1 X105.620 Y105.796 E2.18931
G1 X106.005 Y105.639 E2.20136
G1 X104.197 Y103.831 E2.27546
G1 X104.921 Y103.831 E2.29644
G1 X106.075 Y104.985 E2.34378
G1 X106.053 Y104.239 F7800.000
G1 F600
G1 X105.671 Y103.857 E2.35943
G1 E0.35943 F2400.00000
G92 E0
G1 X96.167 Y104.516 F7800.000
G1 E2.00000 F2400.00000
G1 F600
G1 X95.786 Y104.135 E2.01515
G1 X96.164 Y105.214 F7800.000
G1 F600
G1 X94.800 Y103.850 E2.06925
G1 X94.124 Y103.852 E2.08823
G1 X94.108 Y103.859 E2.08870
G1 X95.950 Y105.701 E2.16177
G1 X95.950 Y105.915 E2.16776
G1 X95.463 Y105.915 E2.18145
G1 X94.081 Y104.533 E2.23627
G1 X94.080 Y105.233 E2.25592
G1 X94.462 Y105.615 E2.27106
G1 E0.27106 F2400.00000
G92 E0
G1 X94.473 Y96.251 F7800.000
G1 E2.00000 F2400.00000
G1 F600
G1 X94.091 Y95.869 E2.01540
G1 X94.087 Y95.153 E2.03582
G1 X95.231 Y96.297 E2.08196
G1 X95.822 Y96.299 E2.09880
G1 X95.740 Y96.191 E2.10266
G1 X95.793 Y96.146 E2.10465
G1 X94.089 Y94.442 E2.17336
G1 X94.090 Y93.946 E2.18751
G1 X94.302 Y93.943 E2.19356
G1 X96.155 Y95.796 E2.26826
G1 X96.151 Y95.079 E2.28868
G1 X95.014 Y93.942 E2.33455
G1 X95.660 Y93.941 E2.35298
G1 X95.757 Y93.972 E2.35587
G1 X96.139 Y94.354 E2.37128
G1 E0.37128 F2400.00000
G92 E0
G1 X104.084 Y96.320 F7800.000
G1 E2.00000 F2400.00000
G1 F600
G1 X103.702 Y95.938 E2.01615
G1 X103.702 Y95.190 E2.03853
G1 X104.834 Y96.322 E2.08644
G1 X105.584 Y96.325 E2.10888
G1 X103.704 Y94.445 E2.18841
G1 X103.723 Y93.972 E2.20257
G1 X103.763 Y93.935 E2.20420
G1 X103.932 Y93.924 E2.20925
G1 X106.060 Y96.053 E2.29930
G1 X106.059 Y95.304 E2.32172
G1 X104.678 Y93.923 E2.38013
G1 X105.424 Y93.921 E2.40245
G1 X105.806 Y94.303 E2.41861
G1 Z2.700 F7800.000
G1 E0.41861 F2400.00000
G92 E0
G1 X103.644 Y103.897 F7800.000
G1 E2.00000 F2400.00000
G1 F656.902
G1 X103.262 Y104.279 E2.01775
G1 X103.258 Y105.105 E2.04489
G1 X104.813 Y103.550 E2.11716
G1 X105.631 Y103.554 E2.14403
G1 X103.673 Y105.511 E2.23502
G1 X103.674 Y105.693 E2.24099
G1 X104.308 Y105.698 E2.26183
G1 X105.808 Y104.198 E2.33154
G1 X105.815 Y105.013 E2.35831
G1 X105.433 Y105.395 E2.37606
G1 E0.37606 F2400.00000
G92 E0
G1 X105.386 Y96.742 F7800.000
G1 E2.00000 F2400.00000
G1 F656.902
G1 X105.777 Y96.349 E2.01566
G1 X105.804 Y96.196 E2.02005
G1 X105.803 Y95.618 E2.03639
G1 X104.675 Y96.746 E2.08151
G1 X103.971 Y96.744 E2.10141
G1 X105.802 Y94.912 E2.17462
G1 X105.801 Y94.207 E2.19456
G1 X103.690 Y96.318 E2.27895
G1 X103.589 Y96.153 E2.28442
G1 X103.491 Y96.212 E2.28767
G1 X103.471 Y96.201 E2.28830
G1 X103.445 Y96.240 E2.28961
G1 X103.269 Y96.346 E2.29543
G1 X103.269 Y96.033 E2.30429
G1 X105.111 Y94.191 E2.37790
G1 X104.406 Y94.189 E2.39781
G1 X103.270 Y95.325 E2.44321
G1 X103.285 Y94.604 E2.46358
G1 X103.668 Y94.221 E2.47891
G1 E0.47891 F2400.00000
G92 E0
G1 X96.441 Y94.781 F7800.000
G1 E2.00000 F2400.00000
G1 F656.902
G1 X96.446 Y95.549 E2.02378
G1 X95.908 Y96.087 E2.04734
G1 X96.037 Y96.731 F7800.000
G1 F656.902
G1 X96.419 Y96.349 E2.06406
G1 X96.446 Y96.213 E2.06834
G1 X96.133 Y96.170 E2.07814
G1 X96.171 Y95.824 E2.08892
G1 X95.267 Y96.728 E2.12848
G1 X94.516 Y96.724 E2.15175
G1 X94.516 Y96.706 E2.15232
G1 X96.441 Y94.781 E2.23657
G1 X96.437 Y94.209 E2.25429
G1 X96.241 Y94.207 E2.26036
G1 X94.307 Y96.141 E2.34500
G1 X94.308 Y95.366 E2.36897
G1 X95.472 Y94.203 E2.41991
G1 X94.718 Y94.198 E2.44325
G1 X94.309 Y94.592 E2.46081
G1 E0.46081 F2400.00000
G92 E0
G1 X94.891 Y103.554 F7800.000
G1 E2.00000 F2400.00000
G1 F656.902
G1 X94.509 Y103.936 E2.01778
G1 X94.509 Y104.219 E2.02711
G1 X94.303 Y104.226 E2.03389
G1 X94.298 Y104.970 E2.05839
G1 X95.713 Y103.555 E2.12428
G1 X96.451 Y103.555 E2.14855
G1 X96.451 Y103.640 E2.15134
G1 X94.393 Y105.698 E2.24715
G1 X95.219 Y105.695 E2.27433
G1 X96.452 Y104.462 E2.33175
G1 X96.453 Y105.249 E2.35767
G1 X96.427 Y105.310 E2.35987
G1 X96.045 Y105.692 E2.37766
G1 Z3.100 F7800.000
G1 E0.37766 F2400.00000
G92 E0
G1 X102.730 Y105.039 F7800.000
G1 E2.00000 F2400.00000
G1 F788.465
G1 X103.159 Y105.457 E2.01707
G1 X103.354 Y105.490 E2.02271
G1 X103.894 Y105.490 E2.03812
G1 X102.722 Y104.318 E2.08540
G1 X102.728 Y103.612 E2.10555
G1 X104.608 Y105.491 E2.18137
G1 X105.186 Y105.492 E2.19786
G1 X105.161 Y105.459 E2.19904
G1 X105.224 Y105.394 E2.20160
G1 X102.999 Y103.170 E2.29134
G1 X103.711 Y103.169 E2.31165
G1 X105.597 Y105.055 E2.38776
G1 X105.592 Y104.336 E2.40826
G1 X104.423 Y103.168 E2.45542
G1 X105.134 Y103.167 E2.47572
G1 X105.517 Y103.549 E2.49114
G1 E0.49114 F2400.00000
G92 E0
G1 X103.929 Y97.271 F7800.000
G1 E2.00000 F2400.00000
G1 F788.465
G1 X103.363 Y96.705 E2.02514
G1 X103.464 Y96.476 E2.03301
G1 X103.272 Y96.379 E2.03975
G1 X103.095 Y96.247 E2.04669
G1 X103.011 Y96.354 E2.05096
G1 X102.757 Y96.885 F7800.000
G1 F788.465
G1 X103.139 Y97.267 E2.06792
G1 X103.624 Y97.270 E2.08317
G1 X103.401 Y97.186 E2.09065
G1 X103.182 Y97.007 E2.09955
G1 X103.393 Y96.736 E2.11035
G1 X102.763 Y96.105 E2.13836
G1 X102.768 Y95.326 E2.16285
G1 X104.718 Y97.276 E2.24949
G1 X105.495 Y97.280 E2.27387
G1 X105.466 Y97.239 E2.27545
G1 X105.303 Y97.239 E2.28059
G1 X105.303 Y97.075 E2.28573
G1 X102.774 Y94.546 E2.39809
G1 X102.774 Y94.485 E2.40001
G1 X102.804 Y94.462 E2.40120
G1 X102.988 Y94.412 E2.40720
G1 X103.423 Y94.410 E2.42084
G1 X105.576 Y96.563 E2.51650
G1 X105.578 Y95.780 E2.54109
G1 X104.204 Y94.406 E2.60216
G1 X104.984 Y94.402 E2.62669
G1 X105.366 Y94.784 E2.64365
G1 E0.64365 F2400.00000
G92 E0
G1 X96.805 Y95.109 F7800.000
G1 E2.00000 F2400.00000
G1 F788.465
G1 X96.424 Y94.727 E2.01711
G1 X96.808 Y95.903 F7800.000
G1 F788.465
G1 X95.322 Y94.417 E2.08371
G1 X94.895 Y94.418 E2.09726
G1 X94.955 Y94.637 E2.10446
G1 X94.795 Y94.683 E2.10973
G1 X96.811 Y96.698 E2.20004
G1 X96.811 Y96.900 E2.20645
G1 X96.664 Y96.664 E2.21527
G1 X96.250 Y96.813 E2.22919
G1 X96.301 Y96.981 E2.23475
G1 X94.518 Y95.197 E2.31470
G1 X94.518 Y95.989 E2.33980
G1 X95.768 Y97.239 E2.39581
G1 X94.979 Y97.236 E2.42082
G1 X94.576 Y96.839 E2.43874
G1 E0.43874 F2400.00000
G92 E0
G1 X96.828 Y103.578 F7800.000
G1 E2.00000 F2400.00000
G1 F788.465
G1 X96.446 Y103.196 E2.01538
G1 X95.735 Y103.195 E2.03564
G1 X96.834 Y104.295 E2.07992
G1 X96.837 Y105.009 E2.10023
G1 X95.023 Y103.195 E2.17326
G1 X94.591 Y103.195 E2.18555
G1 X94.530 Y103.220 E2.18742
G1 X94.511 Y103.395 E2.19244
G1 X96.600 Y105.484 E2.27652
G1 X95.888 Y105.483 E2.29679
G1 X94.509 Y104.104 E2.35232
G1 X94.508 Y104.713 E2.36967
G1 X94.708 Y104.684 E2.37542
G1 X94.748 Y104.943 E2.38287
G1 X94.794 Y105.101 E2.38756
G1 X95.176 Y105.483 E2.40293
G1 Z3.500 F7800.000
G1 E0.40293 F2400.00000
G92 E0
G1 X101.991 Y102.953 F7800.000
G1 E2.00000 F2400.00000
G1 F1090.28
G1 X102.373 Y102.571 E2.01550
G1 X103.100 Y102.562 E2.03635
G1 X102.674 Y102.988 E2.05364
G1 X102.626 Y103.036 F7800.000
G1 F1090.28
G1 X101.987 Y103.675 E2.07955
G1 X101.985 Y104.395 E2.10021
G1 X103.820 Y102.559 E2.17470
G1 X104.540 Y102.556 E2.19537
G1 X101.982 Y105.114 E2.29920
G1 X101.982 Y105.134 E2.29976
G1 X102.099 Y105.235 E2.30420
G1 X102.270 Y105.260 E2.30916
G1 X102.553 Y105.261 E2.31729
G1 X105.218 Y102.595 E2.42547
G1 X105.320 Y102.827 E2.43273
G1 X105.322 Y103.209 E2.44371
G1 X103.269 Y105.262 E2.52703
G1 X103.984 Y105.264 E2.54757
G1 X105.325 Y103.923 E2.60200
G1 X105.329 Y104.636 E2.62248
G1 X104.947 Y105.018 E2.63798
G1 E0.63798 F2400.00000
G92 E0
G1 X97.057 Y105.111 F7800.000
G1 E2.00000 F2400.00000
G1 F1090.28
G1 X97.440 Y104.728 E2.01558
G1 X97.437 Y104.011 E2.03625
G1 X96.198 Y105.250 E2.08674
G1 X95.478 Y105.249 E2.10748
G1 X97.434 Y103.294 E2.18717
G1 X97.431 Y102.598 E2.20723
G1 X97.411 Y102.596 E2.20780
G1 X94.978 Y105.030 E2.30697
G1 X94.735 Y104.997 E2.31404
G1 X94.736 Y104.551 E2.32689
G1 X96.699 Y102.588 E2.40691
G1 X95.975 Y102.592 E2.42780
G1 X94.737 Y103.830 E2.47822
G1 X94.739 Y103.194 E2.49655
G1 X94.760 Y103.119 E2.49879
G1 X94.847 Y103.000 E2.50302
G1 X95.250 Y102.597 E2.51946
G1 E0.51946 F2400.00000
G92 E0
G1 X97.025 Y97.989 F7800.000
G1 E2.00000 F2400.00000
G1 F1090.28
G1 X97.407 Y97.607 E2.01501
G1 X97.415 Y96.905 E2.03453
G1 X96.332 Y97.987 E2.07706
G1 X95.640 Y97.985 E2.09630
G1 X97.412 Y96.213 E2.16594
G1 X97.410 Y95.521 E2.18516
G1 X94.948 Y97.983 E2.28190
G1 X94.874 Y97.983 E2.28395
G1 X94.788 Y97.890 E2.28747
G1 X94.751 Y97.728 E2.29209
G1 X94.964 Y97.728 E2.29802
G1 X94.999 Y97.238 E2.31169
G1 X97.400 Y94.836 E2.40606
G1 X97.382 Y94.787 E2.40752
G1 X97.196 Y94.693 E2.41333
G1 X96.861 Y94.681 E2.42263
G1 X94.750 Y96.792 E2.50558
G1 X94.751 Y96.097 E2.52490
G1 X96.166 Y94.681 E2.58053
G1 X95.482 Y94.682 E2.59955
G1 X95.545 Y94.818 E2.60373
G1 X95.134 Y95.020 E2.61647
G1 X94.752 Y95.401 E2.63147
G1 E0.63147 F2400.00000
G92 E0
G1 X102.413 Y94.769 F7800.000
G1 E2.00000 F2400.00000
G1 F1090.28
G1 X102.031 Y95.151 E2.01530
G1 X102.015 Y95.248 E2.01809
G1 X102.015 Y95.875 E2.03584
G1 X103.217 Y94.673 E2.08397
G1 X103.924 Y94.673 E2.10400
G1 X102.013 Y96.584 E2.18049
G1 X102.012 Y97.293 E2.20056
G1 X104.631 Y94.674 E2.30542
G1 X105.087 Y94.674 E2.31832
G1 X105.103 Y94.909 E2.32500
G1 X103.126 Y96.886 E2.40416
G1 X103.297 Y97.051 E2.41089
G1 X103.022 Y97.399 E2.42344
G1 X102.779 Y97.233 E2.43177
G1 X102.011 Y98.007 E2.46262
G1 X102.709 Y98.011 E2.48238
G1 X105.318 Y95.402 E2.58682
G1 X105.319 Y96.108 E2.60682
G1 X103.414 Y98.013 E2.68308
G1 X104.119 Y98.016 E2.70304
G1 X105.320 Y96.815 E2.75113
G1 X105.321 Y97.127 E2.75998
G1 X105.265 Y97.527 E2.77139
G1 X105.232 Y97.611 E2.77395
G1 X104.850 Y97.993 E2.78924
M106 S247.35
G1 Z3.900 F7800.000
G1 E0.78924 F2400.00000
G92 E0
G1 X104.611 Y101.515 F7800.000
G1 E2.00000 F2400.00000
G1 F1200
G1 X104.993 Y101.897 E2.01642
G1 X105.109 Y102.773 F7800.000
G1 F1200
G1 X103.839 Y101.504 E2.07104
G1 X103.080 Y101.504 E2.09415
G1 X105.112 Y103.536 E2.18157
G1 X105.115 Y104.299 E2.20478
G1 X102.320 Y101.504 E2.32500
G1 X101.560 Y101.505 E2.34811
G1 X105.084 Y105.028 E2.49968
G1 X104.321 Y105.026 E2.52289
G1 X100.823 Y101.530 E2.67331
G1 X100.808 Y102.273 E2.69594
G1 X103.558 Y105.023 E2.81423
G1 X102.795 Y105.021 E2.83743
G1 X100.806 Y103.031 E2.92302
G1 X100.803 Y103.789 E2.94606
G1 X102.032 Y105.018 E2.99894
G1 X101.260 Y105.004 E3.02245
G1 X100.860 Y104.606 E3.03962
G1 E1.03962 F2400.00000
G92 E0
G1 X98.497 Y102.688 F7800.000
G1 E2.00000 F2400.00000
G1 F1200
G1 X97.322 Y101.513 E2.05186
G1 X96.543 Y101.514 E2.07618
G1 X97.628 Y102.599 E2.12407
G1 X97.345 Y102.737 E2.13389
G1 X97.521 Y103.164 E2.14832
G1 X97.950 Y103.030 E2.16236
G1 X97.920 Y102.891 E2.16680
G1 X98.498 Y103.469 E2.19234
G1 X98.499 Y104.251 E2.21673
G1 X95.764 Y101.516 E2.33749
G1 X95.204 Y101.517 E2.35498
G1 X95.056 Y101.526 E2.35962
G1 X95.017 Y101.548 E2.36102
G1 X98.458 Y104.989 E2.51296
G1 X97.937 Y105.014 E2.52922
G1 X97.944 Y104.801 E2.53588
G1 X97.489 Y104.801 E2.55010
G1 X95.194 Y102.506 E2.65141
G1 X95.194 Y102.586 E2.65390
G1 X94.979 Y102.592 E2.66062
G1 X94.977 Y103.070 E2.67553
G1 X96.921 Y105.013 E2.76136
G1 X96.140 Y105.013 E2.78574
G1 X94.974 Y103.847 E2.83722
G1 X94.976 Y104.629 E2.86164
G1 X95.358 Y105.011 E2.87850
G1 E0.87850 F2400.00000
G92 E0
G1 X98.488 Y101.899 F7800.000
G1 E2.00000 F2400.00000
G1 F1200
G1 X98.106 Y101.517 E2.01686
G1 E0.01686 F2400.00000
G92 E0
G1 X97.562 Y98.246 F7800.000
G1 E2.00000 F2400.00000
G1 F1200
G1 X97.408 Y98.232 E2.00465
G1 X97.413 Y98.097 E2.00873
G1 X94.987 Y95.671 E2.11196
G1 X94.987 Y95.281 E2.12368
G1 X95.066 Y95.330 E2.12647
G1 X95.167 Y95.167 E2.13224
G1 X95.209 Y95.141 E2.13372
G1 X97.833 Y97.765 E2.24536
G1 E0.24536 F2400.00000
G92 E0
G1 X98.469 Y95.394 F7800.000
G1 E2.00000 F2400.00000
G1 F1200
G1 X98.087 Y95.012 E2.01625
G1 X97.959 Y94.989 E2.02017
G1 X97.756 Y94.906 E2.02678
G1 X97.228 Y94.905 E2.04266
G1 X98.483 Y96.159 E2.09603
G1 X98.485 Y96.913 E2.11871
G1 X96.475 Y94.903 E2.20424
G1 X95.721 Y94.901 E2.22691
G1 X98.487 Y97.667 E2.34459
G1 X98.489 Y98.421 E2.36728
G1 X97.525 Y97.458 E2.40827
G1 X97.525 Y97.643 E2.41385
G1 X97.491 Y97.891 E2.42138
G1 X97.180 Y97.864 E2.43077
G1 X98.475 Y99.159 E2.48588
G1 X98.390 Y99.177 E2.48849
G1 X97.739 Y99.175 E2.50809
G1 X94.986 Y96.422 E2.62522
G1 X94.986 Y97.173 E2.64783
G1 X96.984 Y99.172 E2.73288
G1 X96.230 Y99.169 E2.75558
G1 X94.985 Y97.925 E2.80854
G1 X95.004 Y98.696 E2.83174
G1 X95.433 Y99.124 E2.84997
G1 E0.84997 F2400.00000
G92 E0
G1 X101.222 Y99.157 F7800.000
G1 E2.00000 F2400.00000
G1 F1200
G1 X100.840 Y98.775 E2.01524
G1 X100.820 Y98.727 E2.01671
G1 X100.823 Y98.052 E2.03575
G1 X101.961 Y99.190 E2.08117
G1 X102.668 Y99.192 E2.10115
G1 X100.825 Y97.349 E2.17473
G1 X100.828 Y96.646 E2.19457
G1 X101.748 Y97.566 E2.23129
G1 X101.996 Y97.559 E2.23829
G1 X102.000 Y97.631 E2.24032
G1 X102.077 Y97.639 E2.24250
G1 X102.058 Y97.876 E2.24922
G1 X103.376 Y99.195 E2.30184
G1 X104.084 Y99.197 E2.32182
G1 X100.831 Y95.943 E2.45170
G1 X100.833 Y95.241 E2.47154
G1 X104.792 Y99.199 E2.62956
G1 X104.901 Y99.200 E2.63264
G1 X104.994 Y99.176 E2.63536
G1 X105.071 Y98.773 E2.64694
G1 X101.224 Y94.927 E2.80049
G1 X101.348 Y94.889 E2.80415
G1 X101.893 Y94.889 E2.81951
G1 X105.044 Y98.041 E2.94533
G1 X105.105 Y98.029 E2.94706
G1 X105.103 Y97.395 E2.96496
G1 X102.599 Y94.890 E3.06495
G1 X103.305 Y94.891 E3.08488
G1 X105.102 Y96.688 E3.15663
G1 X105.101 Y95.981 E3.17657
G1 X104.011 Y94.891 E3.22008
G1 X104.717 Y94.892 E3.24001
G1 X105.099 Y95.274 E3.25527
M106 S239.7
G1 Z4.300 F7800.000
G1 E1.25527 F2400.00000
G92 E0
G1 X104.476 Y104.508 F7800.000
G1 E2.00000 F2400.00000
G1 F1200
G1 X104.858 Y104.126 E2.01551
G1 X104.856 Y103.410 E2.03608
G1 X103.459 Y104.807 E2.09285
G1 X102.742 Y104.806 E2.11344
G1 X104.855 Y102.694 E2.19926
G1 X104.853 Y101.977 E2.21983
G1 X102.025 Y104.805 E2.33471
G1 X101.308 Y104.805 E2.35531
G1 X104.686 Y101.427 E2.49252
G1 X104.771 Y100.981 E2.50557
G1 X104.847 Y100.992 E2.50776
G1 X104.842 Y100.552 E2.52039
G1 X100.796 Y104.599 E2.68478
G1 X100.293 Y104.590 E2.69922
G1 X100.311 Y104.804 E2.70538
G1 X99.874 Y104.803 E2.71794
G1 X104.839 Y99.838 E2.91961
G1 X104.840 Y99.118 E2.94028
G1 X99.161 Y104.798 E3.17100
G1 X98.439 Y104.802 E3.19172
G1 X104.845 Y98.396 E3.45192
G1 X104.843 Y97.680 E3.47249
G1 X97.722 Y104.801 E3.76175
G1 X97.005 Y104.800 E3.78235
G1 X104.841 Y96.964 E4.10068
G1 X104.840 Y96.248 E4.12126
G1 X96.288 Y104.800 E4.46866
G1 X95.570 Y104.799 E4.48927
G1 X104.838 Y95.531 E4.86575
G1 X104.838 Y95.148 E4.87676
G1 X104.510 Y95.142 E4.88618
G1 X100.753 Y98.898 E5.03877
G1 X100.288 Y99.014 E5.05255
G1 X100.359 Y99.293 E5.06082
G1 X95.192 Y104.460 E5.27069
G1 X95.193 Y103.741 E5.29134
G1 X103.790 Y95.144 E5.64057
G1 X103.071 Y95.145 E5.66124
G1 X95.194 Y103.022 E5.98121
G1 X95.195 Y102.304 E6.00185
G1 X98.390 Y99.108 E6.13167
G1 X98.425 Y99.288 E6.13695
G1 X98.741 Y99.238 E6.14614
G1 X98.794 Y99.191 E6.14818
G1 X98.827 Y99.205 E6.14921
G1 X98.861 Y99.132 E6.15153
G1 X98.938 Y99.064 E6.15447
G1 X98.914 Y99.017 E6.15597
G1 X99.017 Y98.738 E6.16452
G1 X98.829 Y98.669 E6.17026
G1 X102.351 Y95.147 E6.31334
G1 X101.632 Y95.149 E6.33401
G1 X95.384 Y101.396 E6.58779
G1 X95.196 Y101.407 E6.59322
G1 X95.208 Y100.854 E6.60911
G1 X100.724 Y95.339 E6.83315
G1 X100.724 Y95.158 E6.83834
G1 X100.177 Y95.168 E6.85406
G1 X95.204 Y100.141 E7.05609
G1 X95.197 Y99.657 E7.06998
G1 X95.452 Y99.663 E7.07730
G1 X95.466 Y99.174 E7.09134
G1 X95.453 Y99.174 E7.09171
G1 X99.458 Y95.169 E7.25438
G1 X98.749 Y95.160 E7.27475
G1 X95.198 Y98.711 E7.41897
G1 X95.199 Y97.992 E7.43961
G1 X98.034 Y95.157 E7.55478
G1 X97.315 Y95.159 E7.57544
G1 X95.200 Y97.273 E7.66135
G1 X95.200 Y96.555 E7.68199
G1 X96.595 Y95.160 E7.73865
G1 X95.876 Y95.162 E7.75932
G1 X95.494 Y95.544 E7.77483
M106 S255
G1 Z4.700 F7800.000
G1 E5.77483 F2400.00000
G92 E0
G1 X95.584 Y103.297 F7800.000
G1 E2.00000 F2400.00000
G1 F1877.35
G1 X96.696 Y104.410 E2.04371
G1 X97.468 Y104.410 E2.06515
G1 X95.585 Y102.527 E2.13916
G1 X95.585 Y101.756 E2.16057
G1 X98.240 Y104.411 E2.26487
G1 X99.013 Y104.412 E2.28632
G1 X95.586 Y100.985 E2.42093
G1 X95.587 Y100.215 E2.44233
G1 X99.785 Y104.413 E2.60724
G1 X100.557 Y104.413 E2.62869
G1 X95.587 Y99.444 E2.82390
G1 X95.588 Y98.673 E2.84531
G1 X101.329 Y104.414 E3.07082
G1 X102.101 Y104.415 E3.09226
G1 X95.589 Y97.903 E3.34808
G1 X95.590 Y97.132 E3.36948
G1 X102.873 Y104.415 E3.65560
G1 X103.645 Y104.416 E3.67704
G1 X95.590 Y96.362 E3.99346
G1 X95.591 Y95.630 E4.01379
G1 X95.628 Y95.628 E4.01483
G1 X104.381 Y104.381 E4.35867
G1 X104.381 Y103.609 E4.38010
G1 X96.397 Y95.626 E4.69373
G1 X97.168 Y95.625 E4.71514
G1 X104.380 Y102.837 E4.99847
G1 X104.379 Y102.065 E5.01992
G1 X97.938 Y95.624 E5.27295
G1 X98.709 Y95.623 E5.29435
G1 X104.379 Y101.293 E5.51708
G1 X104.378 Y100.521 E5.53853
G1 X99.479 Y95.623 E5.73096
G1 X100.250 Y95.622 E5.75236
G1 X104.377 Y99.749 E5.91449
G1 X104.376 Y98.977 E5.93594
G1 X101.021 Y95.621 E6.06777
G1 X101.791 Y95.621 E6.08917
G1 X104.376 Y98.205 E6.19070
G1 X104.375 Y97.433 E6.21215
G1 X102.562 Y95.620 E6.28337
G1 X103.332 Y95.619 E6.30478
G1 X104.374 Y96.661 E6.34571
G1 Z5.100 F7800.000
G1 X96.661 Y95.626 F7800.000
G1 F1877.61
G1 X95.590 Y96.696 E6.38775
G1 X95.590 Y97.468 E6.40920
G1 X97.432 Y95.626 E6.48159
G1 X98.204 Y95.625 E6.50303
G1 X95.589 Y98.240 E6.60578
G1 X95.588 Y99.013 E6.62722
G1 X98.976 Y95.625 E6.76031
G1 X99.748 Y95.624 E6.78175
G1 X95.587 Y99.785 E6.94519
G1 X95.587 Y100.557 E6.96664
G1 X100.520 Y95.624 E7.16043
G1 X101.292 Y95.623 E7.18187
G1 X95.586 Y101.329 E7.40600
G1 X95.585 Y102.101 E7.42745
G1 X102.063 Y95.623 E7.68193
G1 X102.835 Y95.622 E7.70337
G1 X95.585 Y102.873 E7.98821
G1 X95.584 Y103.645 E8.00965
G1 X103.607 Y95.622 E8.32483
G1 X104.374 Y95.621 E8.34613
G1 X95.591 Y104.409 E8.69124
G1 X96.362 Y104.410 E8.71265
G1 X104.374 Y96.397 E9.02742
G1 X104.375 Y97.168 E9.04883
G1 X97.132 Y104.410 E9.33335
G1 X97.903 Y104.411 E9.35476
G1 X104.376 Y97.938 E9.60904
G1 X104.376 Y98.709 E9.63045
G1 X98.673 Y104.412 E9.85448
G1 X99.444 Y104.413 E9.87589
G1 X104.377 Y99.479 E10.06968
G1 X104.378 Y100.250 E10.09109
G1 X100.215 Y104.413 E10.25464
G1 X100.985 Y104.414 E10.27605
G1 X104.379 Y101.021 E10.40935
G1 X104.379 Y101.791 E10.43076
G1 X101.756 Y104.415 E10.53382
G1 X102.527 Y104.415 E10.55523
G1 X104.380 Y102.562 E10.62804
G1 X104.381 Y103.332 E10.64945
G1 X103.297 Y104.416 E10.69202
G1 Z5.500 F7800.000
G1 X104.472 Y96.759 F7800.000
G1 F1909.45
G1 X103.248 Y95.535 E10.74011
G1 X102.476 Y95.534 E10.76155
G1 X104.473 Y97.531 E10.83998
G1 X104.473 Y98.302 E10.86142
G1 X101.704 Y95.534 E10.97018
G1 X100.932 Y95.533 E10.99162
G1 X104.473 Y99.074 E11.13073
G1 X104.474 Y99.846 E11.15217
G1 X100.160 Y95.532 E11.32161
G1 X99.389 Y95.532 E11.34305
G1 X104.474 Y100.618 E11.54284
G1 X104.475 Y101.389 E11.56427
G1 X98.617 Y95.531 E11.79440
G1 X97.845 Y95.531 E11.81584
G1 X104.475 Y102.161 E12.07630
G1 X104.475 Y102.933 E12.09774
G1 X97.073 Y95.530 E12.38854
G1 X96.301 Y95.530 E12.40998
G1 X104.476 Y103.705 E12.73112
G1 X104.476 Y104.307 E12.74787
G1 X104.409 Y104.409 E12.75125
G1 X95.591 Y95.601 E13.09747
G1 X95.590 Y96.362 E13.11859
G1 X103.645 Y104.416 E13.43501
G1 X102.873 Y104.415 E13.45646
G1 X95.590 Y97.132 E13.74257
G1 X95.589 Y97.903 E13.76397
G1 X102.101 Y104.415 E14.01979
G1 X101.329 Y104.414 E14.04123
G1 X95.588 Y98.673 E14.26674
G1 X95.587 Y99.444 E14.28815
G1 X100.557 Y104.413 E14.48336
G1 X99.785 Y104.413 E14.50481
G1 X95.587 Y100.215 E14.66972
G1 X95.586 Y100.985 E14.69112
G1 X99.013 Y104.412 E14.82573
G1 X98.240 Y104.411 E14.84718
G1 X95.585 Y101.756 E14.95149
G1 X95.585 Y102.527 E14.97289
G1 X97.468 Y104.410 E15.04690
G1 X96.696 Y104.410 E15.06835
G1 X95.584 Y103.297 E15.11205
G1 Z5.900 F7800.000
G1 X95.887 Y95.628 F7800.000
G1 F2049.17
G1 X95.318 Y96.197 E15.13441
G1 X95.318 Y96.969 E15.15584
G1 X96.767 Y95.520 E15.21275
G1 X97.538 Y95.520 E15.23419
G1 X95.318 Y97.740 E15.32142
G1 X95.317 Y98.512 E15.34286
G1 X98.310 Y95.519 E15.46042
G1 X99.082 Y95.519 E15.48185
G1 X95.317 Y99.284 E15.62973
G1 X95.317 Y100.055 E15.65117
G1 X99.853 Y95.519 E15.82937
G1 X100.625 Y95.518 E15.85081
G1 X95.317 Y100.827 E16.05934
G1 X95.316 Y101.598 E16.08077
G1 X101.397 Y95.518 E16.31962
G1 X102.168 Y95.518 E16.34106
G1 X95.316 Y102.370 E16.61023
G1 X95.316 Y103.141 E16.63167
G1 X102.940 Y95.517 E16.93116
G1 X103.712 Y95.517 E16.95260
G1 X95.316 Y103.913 E17.28242
G1 X95.315 Y104.682 E17.30377
G1 X104.376 Y95.624 E17.65964
G1 X104.392 Y95.839 E17.66562
G1 X104.479 Y95.835 E17.66804
G1 X104.480 Y96.292 E17.68073
G1 X96.089 Y104.682 E18.01033
G1 X96.860 Y104.682 E18.03175
G1 X104.480 Y97.063 E18.33108
G1 X104.480 Y97.834 E18.35249
G1 X97.631 Y104.683 E18.62155
G1 X98.402 Y104.683 E18.64296
G1 X104.481 Y98.605 E18.88175
G1 X104.481 Y99.376 E18.90316
G1 X99.173 Y104.683 E19.11167
G1 X99.944 Y104.684 E19.13309
G1 X104.481 Y100.147 E19.31133
G1 X104.482 Y100.918 E19.33274
G1 X100.715 Y104.684 E19.48071
G1 X101.486 Y104.685 E19.50212
G1 X104.482 Y101.689 E19.61981
G1 X104.482 Y102.460 E19.64123
G1 X102.257 Y104.685 E19.72865
G1 X103.028 Y104.685 E19.75006
G1 X104.483 Y103.231 E19.80721
G1 X104.483 Y104.002 E19.82862
G1 X103.799 Y104.686 E19.85549
M106 S242.25
G1 Z6.300 F7800.000
G1 E17.85549 F2400.00000
G92 E0
G1 X95.411 Y104.203 F7800.000
G1 E2.00000 F2400.00000
G1 F1200
G1 X95.793 Y104.585 E2.01545
G1 X96.508 Y104.586 E2.03592
G1 X95.407 Y103.484 E2.08049
G1 X95.407 Y102.770 E2.10091
G1 X97.224 Y104.587 E2.17440
G1 X97.939 Y104.587 E2.19487
G1 X95.408 Y102.056 E2.29727
G1 X95.409 Y101.342 E2.31770
G1 X98.655 Y104.588 E2.44902
G1 X99.371 Y104.589 E2.46949
G1 X95.410 Y100.628 E2.62972
G1 X95.410 Y99.914 E2.65015
G1 X100.086 Y104.589 E2.83930
G1 X100.802 Y104.590 E2.85977
G1 X95.411 Y99.199 E3.07784
G1 X95.412 Y98.485 E3.09827
G1 X101.517 Y104.591 E3.34527
G1 X102.233 Y104.592 E3.36573
G1 X95.412 Y97.771 E3.64165
G1 X95.413 Y97.057 E3.66207
G1 X102.949 Y104.592 E3.96690
G1 X103.664 Y104.593 E3.98737
G1 X95.414 Y96.343 E4.32112
G1 X95.416 Y95.630 E4.34151
G1 X104.388 Y104.594 E4.70430
G1 X104.387 Y103.886 E4.72454
G1 X96.129 Y95.629 E5.05859
G1 X96.844 Y95.628 E5.07902
G1 X104.385 Y103.170 E5.38411
G1 X104.384 Y102.453 E5.40460
G1 X97.558 Y95.628 E5.68073
G1 X98.272 Y95.627 E5.70116
G1 X104.382 Y101.737 E5.94832
G1 X104.380 Y101.020 E5.96881
G1 X98.987 Y95.626 E6.18701
G1 X99.701 Y95.626 E6.20744
G1 X104.379 Y100.304 E6.39668
G1 X104.377 Y99.587 E6.41717
G1 X100.415 Y95.625 E6.57744
G1 X101.130 Y95.625 E6.59787
G1 X104.375 Y98.871 E6.72918
G1 X104.374 Y98.154 E6.74967
G1 X101.844 Y95.624 E6.85202
G1 X102.558 Y95.624 E6.87245
G1 X104.372 Y97.438 E6.94583
G1 X104.371 Y96.721 E6.96632
G1 X103.273 Y95.623 E7.01074
G1 X103.987 Y95.623 E7.03117
G1 X104.369 Y96.005 E7.04662
M106 S247.35
G1 Z6.700 F7800.000
G1 E5.04662 F2400.00000
G92 E0
G1 X103.337 Y104.137 F7800.000
G1 E2.00000 F2400.00000
G1 F1200
G1 X103.719 Y103.755 E2.01530
G1 X103.679 Y103.551 E2.02121
G1 X103.924 Y103.496 E2.02834
G1 X103.923 Y102.843 E2.04682
G1 X102.630 Y104.137 E2.09865
G1 X101.922 Y104.136 E2.11870
G1 X103.922 Y102.136 E2.19885
G1 X103.921 Y101.429 E2.21888
G1 X101.215 Y104.136 E2.32733
G1 X100.507 Y104.135 E2.34738
G1 X103.920 Y100.722 E2.48414
G1 X103.919 Y100.015 E2.50417
G1 X99.800 Y104.134 E2.66924
G1 X99.092 Y104.134 E2.68928
G1 X103.918 Y99.308 E2.88265
G1 X103.917 Y99.028 E2.89060
G1 X103.755 Y99.031 E2.89520
G1 X103.749 Y98.769 E2.90264
G1 X98.385 Y104.133 E3.11761
G1 X97.677 Y104.132 E3.13765
G1 X103.915 Y97.894 E3.38764
G1 X103.914 Y97.187 E3.40767
G1 X96.969 Y104.132 E3.68597
G1 X96.262 Y104.131 E3.70602
G1 X103.913 Y96.480 E4.01262
G1 X103.913 Y96.246 E4.01927
G1 X103.615 Y96.217 E4.02773
G1 X103.609 Y96.076 E4.03172
G1 X95.863 Y103.822 E4.34213
G1 X95.863 Y103.114 E4.36221
G1 X102.900 Y96.077 E4.64417
G1 X102.190 Y96.078 E4.66427
G1 X95.864 Y102.405 E4.91779
G1 X95.864 Y101.696 E4.93787
G1 X101.481 Y96.080 E5.16294
G1 X100.772 Y96.081 E5.18304
G1 X95.865 Y100.987 E5.37967
G1 X95.866 Y100.279 E5.39975
G1 X100.063 Y96.082 E5.56793
G1 X99.353 Y96.083 E5.58803
G1 X95.866 Y99.570 E5.72776
G1 X95.867 Y98.861 E5.74784
G1 X98.644 Y96.084 E5.85913
G1 X97.935 Y96.085 E5.87923
G1 X95.868 Y98.152 E5.96207
G1 X95.868 Y97.444 E5.98215
G1 X97.226 Y96.086 E6.03655
G1 X96.645 Y96.087 E6.05301
G1 X96.512 Y96.228 E6.05848
G1 X96.455 Y96.415 E6.06402
G1 X96.363 Y96.387 E6.06673
G1 X96.344 Y96.407 E6.06752
G1 X96.251 Y96.353 E6.07058
G1 X95.869 Y96.735 E6.08588
G1 Z7.100 F7800.000
G1 E4.08588 F2400.00000
G92 E0
G1 X97.061 Y101.552 F7800.000
G1 E2.00000 F2400.00000
G1 F1200
G1 X96.117 Y100.609 E2.03860
G1 X96.116 Y101.330 E2.05946
G1 X96.611 Y101.825 E2.07971
G1 X96.599 Y101.854 E2.08060
G1 X96.697 Y101.911 E2.08390
G1 X96.110 Y103.493 F7800.000
G1 F1200
G1 X96.492 Y103.875 E2.09952
G1 X97.218 Y103.878 E2.12052
G1 X96.093 Y102.753 E2.16657
G1 X96.097 Y102.034 E2.18735
G1 X97.944 Y103.882 E2.26290
G1 X98.670 Y103.885 E2.28390
G1 X98.158 Y103.372 E2.30486
G1 X98.236 Y103.361 E2.30712
G1 X98.284 Y103.402 E2.30896
G1 X98.469 Y103.228 E2.31630
G1 X98.568 Y103.059 E2.32195
G1 X99.396 Y103.888 E2.35585
G1 X100.123 Y103.891 E2.37685
G1 X96.119 Y99.887 E2.54062
G1 X96.120 Y99.166 E2.56149
G1 X98.104 Y101.150 E2.64263
G1 X98.199 Y100.989 E2.64804
G1 X98.468 Y101.146 E2.65706
G1 X98.631 Y101.413 E2.66608
G1 X98.468 Y101.514 E2.67165
G1 X100.849 Y103.895 E2.76905
G1 X101.575 Y103.899 E2.79006
G1 X96.906 Y99.230 E2.98103
G1 X96.690 Y99.089 E2.98849
G1 X96.662 Y98.985 E2.99161
G1 X96.121 Y98.444 E3.01373
G1 X96.122 Y97.723 E3.03459
G1 X102.302 Y103.902 E3.28735
G1 X103.029 Y103.906 E3.30837
G1 X102.893 Y103.770 E3.31394
G1 X102.632 Y103.779 E3.32147
G1 X102.604 Y103.482 E3.33009
G1 X96.124 Y97.001 E3.59516
G1 X96.125 Y96.301 E3.61541
G1 X96.146 Y96.301 E3.61602
G1 X96.492 Y96.647 E3.63016
G1 X96.539 Y96.607 E3.63195
G1 X96.852 Y96.852 E3.64344
G1 X96.801 Y96.956 E3.64680
G1 X98.562 Y98.716 E3.71879
G1 X98.894 Y98.326 E3.73362
G1 X96.860 Y96.293 E3.81679
G1 X97.575 Y96.284 E3.83744
G1 X98.042 Y96.751 E3.85655
G1 X98.119 Y96.590 E3.86170
G1 X98.301 Y96.644 E3.86717
G1 X98.378 Y96.612 E3.86960
G1 X98.583 Y96.878 E3.87930
G1 X98.538 Y96.929 E3.88127
G1 X98.551 Y97.137 E3.88729
G1 X98.442 Y97.151 E3.89049
G1 X102.456 Y101.165 E4.05469
G1 X102.465 Y101.057 E4.05785
G1 X102.790 Y101.077 E4.06729
G1 X102.844 Y101.055 E4.06895
G1 X102.909 Y101.171 E4.07281
G1 X102.993 Y101.237 E4.07589
G1 X102.974 Y101.284 E4.07737
G1 X102.998 Y101.583 E4.08604
G1 X102.891 Y101.601 E4.08916
G1 X103.762 Y102.472 E4.12479
G1 X103.762 Y101.748 E4.14572
G1 X98.289 Y96.275 E4.36957
G1 X99.003 Y96.267 E4.39022
G1 X100.749 Y98.013 E4.46165
G1 X100.749 Y97.890 E4.46519
G1 X101.172 Y98.380 E4.48390
G1 X101.580 Y98.380 E4.49570
G1 X101.579 Y98.843 E4.50909
G1 X103.761 Y101.024 E4.59831
G1 X103.760 Y100.301 E4.61924
G1 X99.703 Y96.244 E4.78515
G1 X100.423 Y96.241 E4.80596
G1 X100.890 Y96.708 E4.82505
G1 X100.984 Y96.617 E4.82884
G1 X101.026 Y96.639 E4.83020
G1 X101.211 Y96.619 E4.83557
G1 X101.360 Y96.936 E4.84572
G1 X101.254 Y97.039 E4.84997
G1 X101.249 Y97.067 E4.85082
G1 X102.555 Y98.373 E4.90423
G1 X102.834 Y98.314 E4.91247
G1 X103.006 Y98.646 E4.92330
G1 X102.913 Y98.731 E4.92693
G1 X103.759 Y99.577 E4.96151
G1 X103.736 Y98.831 E4.98309
G1 X101.146 Y96.241 E5.08903
G1 X101.868 Y96.241 E5.10993
G1 X102.445 Y96.818 E5.13352
G1 X102.459 Y96.621 E5.13922
G1 X102.791 Y96.640 E5.14885
G1 X102.827 Y96.627 E5.14996
G1 X102.899 Y96.724 E5.15346
G1 X102.995 Y96.799 E5.15696
G1 X102.981 Y96.834 E5.15806
G1 X102.988 Y97.167 E5.16770
G1 X102.802 Y97.174 E5.17310
G1 X103.726 Y98.099 E5.21093
G1 X103.714 Y97.364 E5.23219
G1 X102.591 Y96.241 E5.27812
G1 X103.314 Y96.241 E5.29902
G1 X103.696 Y96.623 E5.31465
G1 E3.31465 F2400.00000
G92 E0
G1 X103.763 Y103.195 F7800.000
G1 E2.00000 F2400.00000
G1 F1200
G1 X98.564 Y97.996 E2.21264
G1 X98.563 Y98.533 E2.22816
G1 X98.609 Y98.587 E2.23023
G1 X98.530 Y98.685 E2.23388
G1 X101.318 Y101.473 E2.34793
G1 X101.276 Y101.460 E2.34922
G1 X101.142 Y101.677 E2.35659
G1 X101.129 Y101.990 E2.36565
G1 X101.617 Y102.011 E2.37978
G1 X101.628 Y101.783 E2.38638
G1 X102.992 Y103.147 E2.44216
G1 X102.916 Y103.269 E2.44632
G1 X102.589 Y103.322 E2.45589
G1 X102.604 Y103.482 E2.46055
G1 X102.511 Y103.388 F7800.000
G1 F1200
G1 X102.672 Y103.358 E2.46530
G1 X102.755 Y103.415 E2.46821
G1 X102.965 Y103.119 E2.47869
G1 X103.756 Y103.911 E2.51107
G1 E0.51107 F2400.00000
G92 E0
G1 X98.696 Y103.188 F7800.000
G1 E2.00000 F2400.00000
G1 F1200
G1 X96.856 Y101.347 E2.07529
G1 X96.589 Y101.691 E2.08787
G1 X96.315 Y101.530 E2.09707
G1 X98.153 Y103.368 E2.17225
G1 X98.180 Y103.770 E2.18393
G1 X98.540 Y103.754 E2.19435
M106 S255
G1 Z7.500 F7800.000
G1 E0.19435 F2400.00000
G92 E0
G1 X101.354 Y101.925 F7800.000
G1 E2.00000 F2400.00000
G1 F600
G1 X101.240 Y101.925 E2.00377
G1 X101.238 Y102.040 E2.00762
G1 X101.735 Y101.543 E2.03107
G1 X102.569 Y101.542 E2.05888
G1 X101.237 Y102.874 E2.12169
G1 X101.237 Y103.265 E2.13470
G1 X101.343 Y103.282 E2.13831
G1 X101.662 Y103.282 E2.14893
G1 X102.882 Y102.062 E2.20646
G1 X102.890 Y102.888 E2.23397
G1 X102.508 Y103.270 E2.25198
G1 E0.25198 F2400.00000
G92 E0
G1 X102.492 Y98.757 F7800.000
G1 E2.00000 F2400.00000
G1 F600
G1 X102.874 Y98.375 E2.01801
G1 X102.875 Y97.541 E2.04580
G1 X101.656 Y98.760 E2.10326
G1 X101.242 Y98.759 E2.11705
G1 X101.242 Y98.341 E2.13100
G1 X102.464 Y97.119 E2.18861
G1 X101.635 Y97.115 E2.21627
G1 X101.253 Y97.497 E2.23426
G1 E0.23426 F2400.00000
G92 E0
G1 X98.071 Y98.756 F7800.000
G1 E2.00000 F2400.00000
G1 F600
G1 X98.453 Y98.374 E2.01801
G1 X98.453 Y97.541 E2.04576
G1 X97.237 Y98.757 E2.10309
G1 X96.738 Y98.757 E2.11971
G1 X96.720 Y98.441 E2.13025
G1 X98.035 Y97.126 E2.19223
G1 X97.208 Y97.120 E2.21979
G1 X96.721 Y97.608 E2.24276
G1 X96.736 Y97.501 E2.24634
G1 X96.826 Y97.502 E2.24935
G1 E0.24935 F2400.00000
G92 E0
G1 X96.915 Y101.929 F7800.000
G1 E2.00000 F2400.00000
G1 F600
G1 X96.732 Y101.929 E2.00610
G1 X96.718 Y102.126 E2.01268
G1 X97.297 Y101.548 E2.03997
G1 X98.130 Y101.547 E2.06774
G1 X96.718 Y102.959 E2.13430
G1 X96.718 Y103.279 E2.14495
G1 X97.231 Y103.279 E2.16206
G1 X98.456 Y102.054 E2.21981
G1 X98.459 Y102.884 E2.24748
G1 X98.077 Y103.266 E2.26549
G1 Z7.900 F7800.000
G1 E0.26549 F2400.00000
G92 E0
G1 X101.498 Y103.084 F7800.000
G1 E2.00000 F2400.00000
G1 F600
G1 X101.511 Y103.174 E2.00302
G1 X101.587 Y103.174 E2.00558
G1 X101.116 Y102.702 E2.02781
G1 X101.116 Y101.869 E2.05557
G1 X102.375 Y103.128 E2.11491
G1 X102.372 Y103.083 E2.11642
G1 X102.756 Y103.054 E2.12928
G1 X102.756 Y102.676 E2.14188
G1 X101.530 Y101.451 E2.19965
G1 X102.373 Y101.460 E2.22773
G1 X102.755 Y101.842 E2.24574
G1 E0.24574 F2400.00000
G92 E0
G1 X101.553 Y98.761 F7800.000
G1 E2.00000 F2400.00000
G1 F600
G1 X101.118 Y98.318 E2.01793
G1 X101.119 Y97.604 E2.03857
G1 X102.398 Y98.883 E2.09086
G1 X102.586 Y98.883 E2.09629
G1 X102.580 Y98.763 E2.09978
G1 X102.637 Y98.763 E2.10145
G1 X102.637 Y98.665 E2.10427
G1 X102.751 Y98.691 E2.10763
G1 X102.750 Y98.513 E2.11276
G1 X101.484 Y97.247 E2.16453
G1 X102.207 Y97.248 E2.18544
G1 X102.589 Y97.630 E2.20105
G1 E0.20105 F2400.00000
G92 E0
G1 X98.537 Y97.631 F7800.000
G1 E2.00000 F2400.00000
G1 F600
G1 X98.155 Y97.249 E2.01801
G1 X97.323 Y97.249 E2.04576
G1 X98.548 Y98.474 E2.10351
G1 X98.548 Y98.752 E2.11276
G1 X98.370 Y98.761 E2.11869
G1 X98.376 Y98.882 E2.12272
G1 X98.122 Y98.881 E2.13119
G1 X96.828 Y97.588 E2.19215
G1 X96.828 Y98.421 E2.21991
G1 X97.288 Y98.880 E2.24158
G1 X97.210 Y98.868 E2.24421
G1 X97.210 Y98.803 E2.24639
G1 E0.24639 F2400.00000
G92 E0
G1 X98.549 Y101.842 F7800.000
G1 E2.00000 F2400.00000
G1 F600
G1 X98.167 Y101.460 E2.01801
G1 X97.330 Y101.455 E2.04592
G1 X98.550 Y102.676 E2.10343
G1 X98.550 Y103.096 E2.11745
G1 X98.534 Y103.171 E2.12001
G1 X98.210 Y103.169 E2.13081
G1 X96.826 Y101.785 E2.19606
G1 X96.825 Y102.617 E2.22380
G1 X97.370 Y103.162 E2.24951
G1 X97.207 Y103.161 E2.25494
G1 X97.207 Y102.999 E2.26036
G1 Z8.300 F7800.000
G1 E0.26036 F2400.00000
G92 E0
G1 X101.067 Y101.750 F7800.000
G1 E2.00000 F2400.00000
G1 F600
G1 X101.004 Y101.750 E2.00209
G1 X100.990 Y101.827 E2.00472
G1 X101.449 Y101.368 E2.02638
G1 X102.285 Y101.366 E2.05423
G1 X100.988 Y102.662 E2.11534
G1 X100.988 Y102.899 E2.12324
G1 X101.089 Y102.864 E2.12682
G1 X101.108 Y103.066 E2.13357
G1 X101.417 Y103.066 E2.14389
G1 X102.641 Y101.842 E2.20159
G1 X102.645 Y102.671 E2.22923
G1 X102.263 Y103.053 E2.24724
G1 E0.24724 F2400.00000
G92 E0
G1 X102.256 Y98.929 F7800.000
G1 E2.00000 F2400.00000
G1 F600
G1 X102.638 Y98.547 E2.01667
G1 X102.636 Y97.778 E2.04043
G1 X101.406 Y99.008 E2.09414
G1 X100.995 Y99.007 E2.10681
G1 X100.995 Y98.648 E2.11789
G1 X102.286 Y97.356 E2.17425
G1 X101.514 Y97.358 E2.19809
G1 X101.132 Y97.739 E2.21475
G1 E0.21475 F2400.00000
G92 E0
G1 X98.240 Y98.992 F7800.000
G1 E2.00000 F2400.00000
G1 F600
G1 X98.622 Y98.609 E2.01724
G1 X98.622 Y97.812 E2.04267
G1 X97.431 Y99.003 E2.09641
G1 X97.112 Y99.003 E2.10656
G1 X97.135 Y98.890 E2.11023
G1 X97.070 Y98.888 E2.11228
G1 X97.070 Y98.862 E2.11311
G1 X96.937 Y98.843 E2.11742
G1 X96.937 Y98.700 E2.12199
G1 X98.273 Y97.364 E2.18226
G1 X97.475 Y97.365 E2.20772
G1 X97.093 Y97.747 E2.22495
G1 E0.22495 F2400.00000
G92 E0
G1 X97.044 Y101.761 F7800.000
G1 E2.00000 F2400.00000
G1 F600
G1 X96.943 Y101.763 E2.00336
G1 X96.934 Y101.870 E2.00696
G1 X97.426 Y101.379 E2.03013
G1 X98.262 Y101.375 E2.05801
G1 X96.933 Y102.705 E2.12067
G1 X96.933 Y102.845 E2.12536
G1 X96.983 Y102.834 E2.12706
G1 X97.071 Y103.062 E2.13519
G1 X97.409 Y103.062 E2.14645
G1 X98.633 Y101.838 E2.20414
G1 X98.636 Y102.667 E2.23179
G1 X98.254 Y103.050 E2.24982
G1 Z8.700 F7800.000
G1 E0.24982 F2400.00000
G92 E0
G1 X101.212 Y102.887 F7800.000
G1 E2.00000 F2400.00000
G1 F600
G1 X101.214 Y102.928 E2.00136
G1 X101.259 Y102.934 E2.00288
G1 X100.830 Y102.505 E2.02311
G1 X100.836 Y101.678 E2.05067
G1 X102.094 Y102.936 E2.10996
G1 X102.216 Y102.936 E2.11403
G1 X102.198 Y102.897 E2.11547
G1 X102.506 Y102.746 E2.12690
G1 X102.506 Y102.515 E2.13462
G1 X101.265 Y101.273 E2.19313
G1 X102.110 Y101.285 E2.22129
G1 X102.492 Y101.667 E2.23930
G1 E0.23930 F2400.00000
G92 E0
G1 X98.581 Y101.666 F7800.000
G1 E2.00000 F2400.00000
G1 F600
G1 X98.199 Y101.283 E2.01728
G1 X97.396 Y101.279 E2.04293
G1 X98.727 Y102.609 E2.10305
G1 X98.728 Y102.828 E2.11002
G1 X98.614 Y102.842 E2.11367
G1 X98.629 Y102.918 E2.11613
G1 X98.241 Y102.922 E2.12853
G1 X97.064 Y101.745 E2.18169
G1 X97.064 Y102.544 E2.20721
G1 X97.446 Y102.926 E2.22446
G1 E0.22446 F2400.00000
G92 E0
G1 X97.070 Y98.753 F7800.000
G1 E2.00000 F2400.00000
G1 F600
G1 X97.477 Y99.160 E2.01920
G1 X98.310 Y99.159 E2.04695
G1 X97.071 Y97.920 E2.10536
G1 X97.071 Y97.520 E2.11871
G1 X97.135 Y97.500 E2.12095
G1 X97.483 Y97.500 E2.13255
G1 X98.720 Y98.737 E2.19086
G1 X98.712 Y97.896 F7800.000
G1 F600
G1 X98.331 Y97.514 E2.20886
G1 E0.20886 F2400.00000
G92 E0
G1 X101.476 Y99.168 F7800.000
G1 E2.00000 F2400.00000
G1 F600
G1 X101.095 Y98.786 E2.01661
G1 X101.097 Y98.629 E2.02147
G1 X100.995 Y98.627 E2.02459
G1 X100.994 Y98.523 E2.02780
G1 X100.836 Y98.523 E2.03266
G1 X100.843 Y97.766 E2.05596
G1 X102.246 Y99.169 E2.11701
G1 X102.479 Y99.169 E2.12417
G1 X102.502 Y99.110 E2.12613
G1 X102.501 Y98.656 E2.14011
G1 X101.344 Y97.498 E2.19045
G1 X102.117 Y97.503 E2.21424
G1 X102.499 Y97.885 E2.23085
G1 Z9.100 F7800.000
G1 E0.23085 F2400.00000
G92 E0
G1 X100.736 Y101.582 F7800.000
G1 E2.00000 F2400.00000
G1 F600
G1 X101.118 Y101.200 E2.01788
G1 X101.957 Y101.188 E2.04568
G1 X100.737 Y102.408 E2.10283
G1 X100.737 Y102.796 E2.11567
G1 X100.862 Y102.815 E2.11984
G1 X101.157 Y102.815 E2.12961
G1 X102.379 Y101.593 E2.18683
G1 X102.382 Y102.418 E2.21414
G1 X102.000 Y102.800 E2.23203
G1 E0.23203 F2400.00000
G92 E0
G1 X101.997 Y99.245 F7800.000
G1 E2.00000 F2400.00000
G1 F600
G1 X102.379 Y98.863 E2.01788
G1 X102.375 Y98.041 E2.04510
G1 X101.152 Y99.263 E2.10231
G1 X100.740 Y99.262 E2.11596
G1 X100.741 Y98.848 E2.12965
G1 X101.969 Y97.619 E2.18716
G1 X101.142 Y97.619 E2.21453
G1 X100.760 Y98.001 E2.23240
G1 E0.23240 F2400.00000
G92 E0
G1 X98.406 Y99.259 F7800.000
G1 E2.00000 F2400.00000
G1 F600
G1 X98.788 Y98.877 E2.01670
G1 X98.811 Y98.753 E2.02061
G1 X98.809 Y98.083 E2.04131
G1 X97.639 Y99.254 E2.09251
G1 X97.200 Y99.251 E2.10606
G1 X97.187 Y98.933 E2.11591
G1 X98.497 Y97.622 E2.17323
G1 X97.770 Y97.622 E2.19574
G1 X97.794 Y97.695 E2.19812
G1 X97.569 Y97.778 E2.20552
G1 X97.188 Y98.160 E2.22222
G1 E0.22222 F2400.00000
G92 E0
G1 X97.187 Y101.579 F7800.000
G1 E2.00000 F2400.00000
G1 F600
G1 X97.569 Y101.197 E2.01781
G1 X98.397 Y101.193 E2.04513
G1 X97.184 Y102.406 E2.10172
G1 X97.184 Y102.812 E2.11509
G1 X97.603 Y102.812 E2.12890
G1 X98.814 Y101.601 E2.18539
G1 X98.808 Y102.431 E2.21277
G1 X98.426 Y102.813 E2.23059
G1 Z9.500 F7800.000
G1 E0.23059 F2400.00000
G92 E0
G1 X100.975 Y102.572 F7800.000
G1 E2.00000 F2400.00000
G1 F600
G1 X100.593 Y102.190 E2.01643
G1 X100.599 Y101.435 E2.03938
G1 X101.875 Y102.712 E2.09431
G1 X102.249 Y102.712 E2.10569
G1 X102.263 Y102.339 E2.11706
G1 X100.997 Y101.074 E2.17150
G1 X101.759 Y101.075 E2.19468
G1 X102.141 Y101.457 E2.21111
G1 E0.21111 F2400.00000
G92 E0
G1 X98.923 Y101.460 F7800.000
G1 E2.00000 F2400.00000
G1 F600
G1 X98.541 Y101.078 E2.01801
G1 X97.708 Y101.077 E2.04580
G1 X98.927 Y102.297 E2.10329
G1 X98.928 Y102.553 E2.11183
G1 X98.819 Y102.547 E2.11549
G1 X98.813 Y102.708 E2.12087
G1 X98.505 Y102.708 E2.13115
G1 X97.296 Y101.499 E2.18813
G1 X97.288 Y102.324 E2.21562
G1 X97.670 Y102.705 E2.23362
G1 E0.23362 F2400.00000
G92 E0
G1 X97.297 Y99.014 F7800.000
G1 E2.00000 F2400.00000
G1 F600
G1 X97.679 Y99.396 E2.01728
G1 X98.478 Y99.396 E2.04284
G1 X97.291 Y98.209 E2.09653
G1 X97.292 Y97.755 E2.11106
G1 X97.622 Y97.740 E2.12162
G1 X98.925 Y99.043 E2.18056
G1 X98.924 Y98.243 F7800.000
G1 F600
G1 X98.542 Y97.861 E2.19783
G1 E0.19783 F2400.00000
G92 E0
G1 X100.596 Y99.023 F7800.000
G1 E2.00000 F2400.00000
G1 F600
G1 X100.978 Y99.405 E2.01697
G1 X101.766 Y99.408 E2.04172
G1 X100.594 Y98.236 E2.09378
G1 X100.594 Y97.859 E2.10561
G1 X100.806 Y97.854 E2.11226
G1 X100.789 Y97.740 E2.11590
G1 X100.883 Y97.740 E2.11885
G1 X102.260 Y99.116 E2.18002
G1 X102.163 Y98.235 F7800.000
G1 F600
G1 X101.782 Y97.853 E2.19699
G1 Z9.900 F7800.000
G1 E0.19699 F2400.00000
G92 E0
G1 X100.494 Y101.390 F7800.000
G1 E2.00000 F2400.00000
G1 F600
G1 X100.876 Y101.008 E2.01756
G1 X101.698 Y100.999 E2.04433
G1 X100.496 Y102.202 E2.09965
G1 X100.498 Y102.558 E2.11125
G1 X100.936 Y102.574 E2.12552
G1 X102.141 Y101.369 E2.18096
G1 X102.142 Y102.181 E2.20737
G1 X101.760 Y102.563 E2.22495
G1 E0.22495 F2400.00000
G92 E0
G1 X101.747 Y99.501 F7800.000
G1 E2.00000 F2400.00000
G1 F600
G1 X102.129 Y99.119 E2.01793
G1 X102.129 Y98.289 E2.04547
G1 X100.909 Y99.508 E2.10272
G1 X100.601 Y99.508 E2.11296
G1 X100.586 Y99.337 E2.11868
G1 X100.492 Y99.343 E2.12180
G1 X100.493 Y99.096 E2.13001
G1 X101.726 Y97.862 E2.18791
G1 X100.889 Y97.870 E2.21568
G1 X100.508 Y98.252 E2.23360
G1 E0.23360 F2400.00000
G92 E0
G1 X98.608 Y99.505 F7800.000
G1 E2.00000 F2400.00000
G1 F600
G1 X98.990 Y99.123 E2.01675
G1 X98.998 Y98.340 E2.04101
G1 X97.832 Y99.506 E2.09213
G1 X97.444 Y99.501 E2.10414
G1 X97.430 Y99.133 E2.11553
G1 X98.699 Y97.864 E2.17117
G1 X97.925 Y97.863 E2.19514
G1 X97.544 Y98.245 E2.21188
G1 E0.21188 F2400.00000
G92 E0
G1 X97.431 Y101.386 F7800.000
G1 E2.00000 F2400.00000
G1 F600
G1 X97.813 Y101.005 E2.01705
G1 X98.604 Y101.002 E2.04202
G1 X97.426 Y102.180 E2.09459
G1 X97.426 Y102.551 E2.10630
G1 X97.446 Y102.569 E2.10714
G1 X97.826 Y102.569 E2.11913
G1 X99.000 Y101.395 E2.17155
G1 X99.000 Y102.184 E2.19646
G1 X98.618 Y102.566 E2.21352
G1 Z10.300 F7800.000
G1 X97.921 Y102.446 F7800.000
G1 F606.571
G1 X97.539 Y102.064 E2.22952
G1 X97.539 Y101.323 E2.25148
G1 X98.670 Y102.454 E2.29888
G1 X99.089 Y102.459 E2.31131
G1 X99.362 Y102.406 E2.31955
G1 X97.605 Y100.648 E2.39321
G1 X97.607 Y99.910 E2.41510
G1 X98.544 Y100.848 E2.45439
G1 X98.523 Y100.815 E2.45555
G1 X98.929 Y100.545 E2.47000
G1 X99.109 Y100.812 E2.47956
G1 X99.109 Y101.070 E2.48721
G1 X98.846 Y101.149 E2.49537
G1 X100.104 Y102.407 E2.54811
G1 X100.498 Y102.408 E2.55979
G1 X100.802 Y102.460 E2.56892
G1 X100.898 Y102.460 E2.57177
G1 X97.541 Y99.104 E2.71247
G1 X97.541 Y98.363 E2.73441
G1 X98.856 Y99.678 E2.78953
G1 X98.853 Y99.508 E2.79456
G1 X99.019 Y99.504 E2.79949
G1 X99.152 Y99.338 E2.80582
G1 X99.345 Y99.426 E2.81209
G1 X97.917 Y97.998 E2.87195
G1 X98.566 Y97.997 E2.89120
G1 X98.548 Y98.121 E2.89492
G1 X98.781 Y98.121 E2.90181
G1 X100.400 Y99.741 E2.96969
G1 X100.370 Y99.411 E2.97950
G1 X100.781 Y99.381 E2.99170
G1 X99.473 Y98.073 E3.04654
G1 X99.994 Y98.070 E3.06198
G1 X99.992 Y98.120 E3.06346
G1 X100.260 Y98.119 E3.07141
G1 X101.880 Y99.739 E3.13929
G1 X101.880 Y99.470 E3.14726
G1 X102.003 Y99.482 E3.15094
G1 X102.003 Y99.121 E3.16165
G1 X100.878 Y97.997 E3.20877
G1 X101.620 Y97.998 E3.23076
G1 X102.002 Y98.380 E3.24677
G1 E1.24677 F2400.00000
G92 E0
G1 X101.931 Y100.530 F7800.000
G1 E2.00000 F2400.00000
G1 F606.571
G1 X100.482 Y99.082 E2.06072
G1 X100.489 Y99.171 E2.06337
G1 X100.591 Y99.315 E2.06863
G1 X100.236 Y99.576 E2.08170
G1 X101.882 Y101.222 E2.15069
G1 X101.882 Y101.452 E2.15749
G1 X102.006 Y101.434 E2.16118
G1 X102.006 Y102.087 E2.18054
G1 X99.105 Y99.186 E2.30213
G1 X99.072 Y99.368 E2.30760
G1 X99.006 Y99.445 E2.31061
G1 X99.013 Y99.468 E2.31131
G1 X98.952 Y99.508 E2.31348
G1 X98.871 Y99.604 E2.31720
G1 X98.843 Y99.581 E2.31826
G1 X98.788 Y99.610 E2.32011
G1 X100.388 Y101.209 E2.38715
G1 X100.388 Y101.447 E2.39419
G1 X100.730 Y101.552 E2.40481
G1 X101.639 Y102.461 E2.44292
G1 X100.898 Y102.460 E2.46490
G1 Z10.700 F7800.000
G1 X101.296 Y102.360 F7800.000
G1 F600
G1 X101.743 Y101.909 E2.48349
G1 X101.802 Y101.720 E2.48929
G1 X101.883 Y101.745 E2.49176
G1 X101.882 Y101.043 E2.51230
G1 X100.565 Y102.359 E2.56676
G1 X99.835 Y102.358 E2.58813
G1 X101.881 Y100.313 E2.67278
G1 X101.880 Y99.582 E2.69415
G1 X99.105 Y102.357 E2.80897
G1 X98.374 Y102.357 E2.83034
G1 X101.879 Y98.852 E2.97535
G1 X101.878 Y98.357 E2.98984
G1 X101.764 Y98.358 E2.99319
G1 X101.762 Y98.237 E2.99672
G1 X97.787 Y102.213 E3.16122
G1 X97.640 Y102.206 E3.16553
G1 X97.640 Y101.629 E3.18243
G1 X101.149 Y98.119 E3.32764
G1 X100.417 Y98.120 E3.34906
G1 X97.641 Y100.897 E3.46394
G1 X97.642 Y100.165 E3.48536
G1 X99.685 Y98.121 E3.56992
G1 X98.953 Y98.122 E3.59134
G1 X97.642 Y99.433 E3.64557
G1 X97.643 Y98.701 E3.66699
G1 X98.026 Y98.317 E3.68284
G1 Z11.100 F7800.000
G1 X97.784 Y101.822 F7800.000
G1 F600
G1 X98.166 Y102.203 E3.69834
G1 X98.886 Y102.206 E3.71899
G1 X97.785 Y101.105 E3.76365
G1 X97.787 Y100.390 E3.78418
G1 X99.605 Y102.208 E3.85797
G1 X100.325 Y102.211 E3.87861
G1 X97.789 Y99.675 E3.98153
G1 X97.791 Y98.959 E4.00206
G1 X101.044 Y102.213 E4.13410
G1 X101.756 Y102.215 E4.15451
G1 X97.795 Y98.246 E4.31542
G1 X98.505 Y98.239 E4.33579
G1 X101.766 Y101.500 E4.46813
G1 X101.765 Y100.781 E4.48874
G1 X99.223 Y98.240 E4.59187
G1 X99.942 Y98.242 E4.61250
G1 X101.764 Y100.063 E4.68642
G1 X101.762 Y99.345 E4.70703
G1 X100.661 Y98.243 E4.75174
G1 X101.379 Y98.245 E4.77236
G1 X101.761 Y98.627 E4.78786
G1 Z11.500 F7800.000
G1 X101.718 Y101.935 F7800.000
G1 F600
G1 X101.336 Y102.317 E4.80361
G1 X100.600 Y102.325 F7800.000
G1 F600
G1 X101.717 Y101.207 E4.84969
G1 X101.716 Y100.480 E4.87090
G1 X99.873 Y102.323 E4.94692
G1 X99.146 Y102.321 E4.96812
G1 X101.715 Y99.752 E5.07407
G1 X101.713 Y99.025 E5.09528
G1 X98.419 Y102.319 E5.23116
G1 X97.844 Y102.318 E5.24792
G1 X97.849 Y102.216 E5.25091
G1 X97.821 Y102.215 E5.25171
G1 X97.826 Y102.183 E5.25264
G1 X101.712 Y98.287 E5.41312
G1 X100.993 Y98.287 E5.43408
G1 X97.676 Y101.605 E5.57090
G1 X97.677 Y100.875 E5.59218
G1 X100.264 Y98.288 E5.69888
G1 X99.535 Y98.288 E5.72015
G1 X97.678 Y100.145 E5.79674
G1 X97.679 Y99.415 E5.81802
G1 X98.805 Y98.289 E5.86449
G1 X98.076 Y98.289 E5.88576
G1 X97.694 Y98.671 E5.90150
G1 Z11.900 F7800.000
G1 E3.90150 F2400.00000
G92 E0
G1 X97.626 Y101.985 F7800.000
G1 E2.00000 F2400.00000
G1 F600
G1 X98.016 Y102.370 E2.01577
G1 X98.732 Y102.371 E2.03636
G1 X97.627 Y101.266 E2.08132
G1 X97.627 Y100.548 E2.10199
G1 X99.451 Y102.372 E2.17621
G1 X100.171 Y102.372 E2.19693
G1 X97.628 Y99.829 E2.30042
G1 X97.629 Y99.111 E2.32109
G1 X100.891 Y102.373 E2.45385
G1 X101.611 Y102.374 E2.47456
G1 X97.629 Y98.392 E2.63658
G1 X97.629 Y98.343 E2.63798
G1 X97.644 Y98.231 E2.64125
G1 X98.186 Y98.230 E2.65685
G1 X101.773 Y101.817 E2.80280
G1 X101.772 Y101.097 E2.82351
G1 X98.905 Y98.230 E2.94019
G1 X99.623 Y98.229 E2.96086
G1 X101.772 Y100.377 E3.04828
G1 X101.771 Y99.657 E3.06899
G1 X100.341 Y98.228 E3.12715
G1 X101.060 Y98.227 E3.14782
G1 X101.442 Y98.609 E3.16336
G1 Z12.300 F7800.000
G1 E1.16336 F2400.00000
G92 E0
G1 X98.537 Y98.546 F7800.000
G1 E2.00000 F2400.00000
G1 F600
G1 X98.156 Y98.928 E2.01576
G1 X98.104 Y99.226 E2.02458
G1 X97.933 Y99.199 E2.02962
G1 X97.933 Y99.880 E2.04948
G1 X99.266 Y98.547 E2.10450
G1 X99.995 Y98.547 E2.12577
G1 X97.933 Y100.610 E2.21087
G1 X97.932 Y101.339 E2.23215
G1 X100.724 Y98.547 E2.34734
G1 X101.252 Y98.548 E2.36273
G1 X101.330 Y98.670 E2.36698
G1 X98.117 Y101.884 E2.49958
G1 X98.314 Y101.989 E2.50611
G1 X98.294 Y102.067 E2.50843
G1 X98.663 Y102.067 E2.51918
G1 X101.454 Y99.275 E2.63437
G1 X101.455 Y99.642 E2.64506
G1 X101.168 Y99.685 E2.65351
G1 X101.217 Y100.152 E2.66721
G1 X101.313 Y100.146 E2.67001
G1 X99.392 Y102.067 E2.74929
G1 X100.120 Y102.068 E2.77056
G1 X101.455 Y100.733 E2.82564
G1 X101.456 Y101.310 E2.84247
G1 X101.425 Y101.302 E2.84341
G1 X101.231 Y101.686 E2.85596
G1 X100.849 Y102.068 E2.87173
G1 Z12.700 F7800.000
G1 X99.954 Y101.212 F7800.000
G1 F600
G1 X100.615 Y101.874 E2.90292
G1 X101.310 Y101.870 E2.92607
G1 X101.309 Y101.735 E2.93058
G1 X100.081 Y100.507 E2.98846
G1 X100.921 Y100.513 E3.01643
G1 X101.302 Y100.895 E3.03444
G1 X101.302 Y99.079 F7800.000
G1 F600
G1 X100.920 Y98.697 E3.05245
G1 X100.083 Y98.693 E3.08033
G1 X101.306 Y99.916 E3.13797
G1 X101.305 Y100.039 E3.14208
G1 X100.604 Y100.047 E3.16544
G1 X99.955 Y99.398 E3.19607
G1 X99.485 Y99.079 F7800.000
G1 F600
G1 X99.103 Y98.697 E3.21407
G1 X98.270 Y98.697 E3.24183
G1 X99.492 Y99.919 E3.29942
G1 X99.489 Y100.040 E3.30345
G1 X98.778 Y100.038 E3.32714
G1 X98.127 Y99.388 E3.35782
G1 X98.119 Y101.184 F7800.000
G1 F600
G1 X98.812 Y101.876 E3.39047
G1 X99.489 Y101.867 E3.41303
G1 X99.489 Y101.721 E3.41791
G1 X98.281 Y100.513 E3.47484
G1 X99.111 Y100.510 E3.50250
G1 X99.493 Y100.892 E3.52051
G1 Z13.100 F7800.000
G1 X99.980 Y100.906 F7800.000
G1 F600
G1 X100.362 Y100.524 E3.53788
G1 X101.166 Y100.525 E3.56373
G1 X99.982 Y101.709 E3.61760
G1 X100.848 Y101.647 F7800.000
G1 F600
G1 X101.229 Y101.265 E3.63497
G1 E1.63497 F2400.00000
G92 E0
G1 X99.082 Y101.727 F7800.000
G1 E2.00000 F2400.00000
G1 F600
G1 X99.464 Y101.345 E2.01739
G1 X99.476 Y100.530 E2.04361
G1 X98.273 Y101.725 E2.09815
G1 X98.278 Y100.923 E2.12393
G1 X98.660 Y100.541 E2.14131
G1 X99.093 Y100.019 F7800.000
G1 F600
G1 X99.475 Y99.637 E2.15931
G1 X99.470 Y98.808 E2.18692
G1 X98.272 Y100.006 E2.24340
G1 X98.273 Y99.173 E2.27119
G1 X98.674 Y98.772 E2.29009
G1 X100.424 Y98.770 F7800.000
G1 F600
G1 X99.976 Y99.218 E2.31121
G1 X99.975 Y100.025 E2.33813
G1 X100.002 Y100.025 E2.33902
G1 X101.222 Y98.805 E2.39654
G1 X101.231 Y99.629 E2.42403
G1 X100.849 Y100.011 E2.44203
G1 Z13.500 F7800.000
G1 X100.789 Y100.505 F7800.000
G1 F600
G1 X101.171 Y100.886 E2.45989
G1 X101.152 Y101.694 F7800.000
G1 F600
G1 X99.955 Y100.497 E2.51590
G1 X99.931 Y100.505 E2.51672
G1 X99.928 Y101.293 E2.54280
G1 X100.311 Y101.680 E2.56080
G1 X99.505 Y100.885 F7800.000
G1 F600
G1 X99.123 Y100.503 E2.57831
G1 X98.329 Y100.499 E2.60406
G1 X98.315 Y100.504 E2.60454
G1 X99.496 Y101.685 E2.65868
G1 X98.689 Y101.688 E2.68484
G1 X98.307 Y101.306 E2.70236
G1 X98.314 Y99.681 F7800.000
G1 F600
G1 X98.709 Y100.068 E2.72059
G1 X99.496 Y100.067 E2.74649
G1 X99.503 Y100.046 E2.74722
G1 X98.309 Y98.852 E2.80287
G1 X98.314 Y98.832 E2.80355
G1 X99.116 Y98.836 E2.83000
G1 X99.498 Y99.218 E2.84780
G1 X100.311 Y100.016 F7800.000
G1 F600
G1 X100.313 Y100.064 E2.84938
G1 X100.366 Y100.072 E2.85117
G1 X99.929 Y99.635 E2.87177
G1 X99.932 Y98.833 E2.89849
G1 X99.954 Y98.827 E2.89926
G1 X101.172 Y100.044 E2.95665
G1 X101.171 Y99.210 F7800.000
G1 F600
G1 X100.789 Y98.829 E2.97465
G1 Z13.900 F7800.000
G1 E0.97465 F2400.00000
G92 E0
G1 X99.897 Y100.853 F7800.000
G1 E2.00000 F2400.00000
G1 F600
G1 X100.296 Y100.466 E2.01812
G1 X101.094 Y100.470 E2.04411
G1 X99.936 Y101.629 E2.09746
G1 X100.741 Y101.637 F7800.000
G1 F600
G1 X101.123 Y101.255 E2.11505
G1 E0.11505 F2400.00000
G92 E0
G1 X99.152 Y101.631 F7800.000
G1 E2.00000 F2400.00000
G1 F600
G1 X99.534 Y101.248 E2.01683
G1 X99.534 Y100.470 E2.04108
G1 X98.361 Y101.637 E2.09260
G1 X98.361 Y100.877 E2.11628
G1 X98.754 Y100.471 E2.13386
G1 X99.148 Y100.095 F7800.000
G1 F600
G1 X99.530 Y99.713 E2.15136
G1 X99.528 Y98.906 E2.17750
G1 X98.369 Y100.065 E2.23059
G1 X98.364 Y99.260 E2.25665
G1 X98.746 Y98.879 E2.27414
G1 X100.271 Y98.902 F7800.000
G1 F600
G1 X99.889 Y99.284 E2.29207
G1 X99.881 Y100.033 E2.31690
G1 X99.904 Y100.098 E2.31918
G1 X101.117 Y98.885 E2.37609
G1 X101.122 Y99.656 E2.40168
G1 X101.089 Y99.742 E2.40472
G1 X100.707 Y100.124 E2.42264
G1 Z14.300 F7800.000
G1 X101.097 Y99.291 F7800.000
G1 F600
G1 X100.715 Y98.909 E2.43911
G1 X99.950 Y98.906 E2.46243
G1 X101.095 Y100.051 E2.51179
G1 X100.936 Y100.654 E2.53080
G1 X99.350 Y99.067 E2.59918
G1 X99.164 Y99.129 E2.60515
G1 X99.151 Y98.907 E2.61194
G1 X98.431 Y98.911 E2.63386
G1 X99.673 Y100.153 E2.68739
G1 X99.572 Y100.305 E2.69295
G1 X99.332 Y100.573 E2.70394
G1 X98.422 Y99.663 E2.74317
G1 X98.478 Y100.042 E2.75483
G1 X98.567 Y100.164 E2.75944
G1 X98.431 Y100.434 E2.76866
G1 X99.538 Y101.542 E2.81639
G1 X99.537 Y101.572 E2.81733
G1 X98.804 Y101.569 E2.83969
G1 X98.422 Y101.187 E2.85615
G1 X99.181 Y100.422 F7800.000
G1 F600
G1 X99.177 Y100.399 E2.85687
G1 X99.129 Y100.371 E2.85855
G1 X99.563 Y100.804 E2.87722
G1 X99.538 Y101.542 F7800.000
G1 F600
G1 X99.545 Y101.400 E2.88156
G1 X100.070 Y101.551 E2.89822
G1 X100.335 Y101.577 E2.90633
G1 X99.452 Y100.694 E2.94439
G1 X99.677 Y100.442 E2.95466
G1 X99.846 Y100.326 E2.96092
G1 X101.092 Y101.571 E3.01461
G1 Z14.700 F7800.000
G1 X100.672 Y101.525 F7800.000
G1 F600
G1 X101.053 Y101.143 E3.03043
G1 X101.060 Y100.405 E3.05204
G1 X99.940 Y101.525 E3.09840
G1 X99.209 Y101.524 E3.11981
G1 X101.050 Y99.683 E3.19603
G1 X101.059 Y98.947 E3.21758
G1 X99.683 Y100.319 E3.27448
G1 X99.512 Y100.160 E3.28130
G1 X99.179 Y100.453 E3.29429
G1 X99.333 Y100.669 E3.30206
G1 X98.479 Y101.521 E3.33738
G1 X98.475 Y100.795 E3.35864
G1 X100.317 Y98.953 E3.43488
G1 X99.597 Y98.942 E3.45597
G1 X98.475 Y100.063 E3.50239
G1 X98.476 Y99.331 E3.52382
G1 X98.858 Y98.949 E3.53963
G1 Z15.100 F7800.000
G1 X98.490 Y101.114 F7800.000
G1 F600
G1 X98.872 Y101.496 E3.55506
G1 X99.587 Y101.499 E3.57548
G1 X98.492 Y100.403 E3.61972
G1 X98.494 Y99.692 E3.64001
G1 X100.303 Y101.501 E3.71303
G1 X101.019 Y101.503 E3.73346
G1 X98.499 Y98.983 E3.83520
G1 X99.208 Y98.979 E3.85546
G1 X101.025 Y100.796 E3.92881
G1 X101.024 Y100.081 E3.94922
G1 X99.925 Y98.982 E3.99360
G1 X100.641 Y98.985 E4.01404
G1 X101.023 Y99.366 E4.02946
G1 Z15.500 F7800.000
G1 X100.583 Y101.498 F7800.000
G1 F600
G1 X100.965 Y101.116 E4.04745
G1 X100.969 Y100.280 E4.07529
G1 X99.750 Y101.499 E4.13271
G1 X98.919 Y101.498 E4.16038
G1 X100.968 Y99.449 E4.25688
G1 X100.967 Y99.032 E4.27077
G1 X100.554 Y99.031 E4.28453
G1 X98.500 Y101.085 E4.38125
G1 X98.501 Y100.252 E4.40898
G1 X99.722 Y99.031 E4.46647
G1 X98.885 Y99.035 E4.49431
G1 X98.503 Y99.417 E4.51229
G1 Z15.900 F7800.000
G1 X98.934 Y101.443 F7800.000
G1 F600
G1 X98.552 Y101.061 E4.52936
G1 X98.553 Y100.272 E4.55431
G1 X99.728 Y101.446 E4.60682
G1 X100.518 Y101.447 E4.63181
G1 X98.554 Y99.483 E4.71963
G1 X98.558 Y99.085 E4.73221
G1 X98.948 Y99.086 E4.74454
G1 X100.920 Y101.058 E4.83269
G1 X100.917 Y100.265 E4.85776
G1 X99.741 Y99.089 E4.91033
G1 X100.534 Y99.092 E4.93540
G1 X100.916 Y99.474 E4.95248
G1 Z16.300 F7800.000
G1 X100.515 Y101.435 F7800.000
G1 F600
G1 X100.900 Y101.048 E4.96954
G1 X100.900 Y100.270 E4.99383
G1 X99.730 Y101.440 E5.04549
G1 X98.950 Y101.439 E5.06986
G1 X100.899 Y99.490 E5.15595
G1 X100.899 Y99.111 E5.16780
G1 X100.500 Y99.109 E5.18027
G1 X98.560 Y101.049 E5.26594
G1 X98.561 Y100.267 E5.29034
G1 X99.723 Y99.105 E5.34167
G1 X98.946 Y99.102 E5.36594
G1 X98.564 Y99.484 E5.38281
G1 Z16.700 F7800.000
G1 X99.007 Y101.375 F7800.000
G1 F600
G1 X98.625 Y100.993 E5.39883
G1 X98.626 Y100.252 E5.42081
G1 X99.748 Y101.374 E5.46790
G1 X100.489 Y101.374 E5.48989
G1 X98.627 Y99.512 E5.56804
G1 X98.627 Y99.137 E5.57915
G1 X98.994 Y99.137 E5.59002
G1 X100.864 Y101.007 E5.66852
G1 X100.864 Y100.266 E5.69054
G1 X99.734 Y99.136 E5.73796
G1 X100.482 Y99.142 E5.76015
G1 X100.864 Y99.524 E5.77618
G1 Z17.100 F7800.000
G1 X100.452 Y101.370 F7800.000
G1 F600
G1 X100.834 Y100.988 E5.79190
G1 X100.833 Y100.262 E5.81303
G1 X99.723 Y101.372 E5.85872
G1 X98.996 Y101.372 E5.87989
G1 X100.832 Y99.535 E5.95547
G1 X100.832 Y99.169 E5.96614
G1 X100.472 Y99.168 E5.97662
G1 X98.627 Y101.013 E6.05252
G1 X98.627 Y100.285 E6.07369
G1 X99.745 Y99.168 E6.11967
G1 X99.018 Y99.168 E6.14083
G1 X98.636 Y99.550 E6.15654
G1 Z17.500 F7800.000
G1 X98.655 Y100.842 F7800.000
G1 F600
G1 X99.153 Y101.341 E6.18004
G1 X99.988 Y101.343 E6.20787
G1 X98.656 Y100.011 E6.27065
G1 X98.658 Y99.278 E6.29508
G1 X98.666 Y99.231 E6.29668
G1 X98.710 Y99.231 E6.29812
G1 X100.770 Y101.292 E6.39526
G1 X100.767 Y100.455 E6.42315
G1 X99.545 Y99.234 E6.48072
G1 X100.381 Y99.237 E6.50858
G1 X100.763 Y99.619 E6.52659
G1 Z17.900 F7800.000
G1 X99.104 Y99.255 F7800.000
G1 F600
G1 X98.669 Y99.690 E6.54711
G1 X98.667 Y100.525 E6.57493
G1 X99.938 Y99.254 E6.63484
G1 X100.735 Y99.253 E6.66140
G1 X100.735 Y99.290 E6.66262
G1 X98.695 Y101.330 E6.75880
G1 X99.527 Y101.332 E6.78652
G1 X100.741 Y100.117 E6.84379
G1 X100.748 Y100.944 E6.87135
G1 X100.366 Y101.326 E6.88936
G1 Z18.300 F7800.000
G1 X98.698 Y100.918 F7800.000
G1 F600
G1 X99.080 Y101.300 E6.90725
G1 X99.909 Y101.301 E6.93470
G1 X98.698 Y100.090 E6.99141
G1 X98.701 Y99.266 E7.01871
G1 X100.739 Y101.299 E7.11405
G1 X100.737 Y100.474 E7.14139
G1 X99.525 Y99.263 E7.19811
G1 X100.353 Y99.262 E7.22551
G1 X100.735 Y99.644 E7.24340
G1 Z18.700 F7800.000
G1 X99.081 Y99.315 F7800.000
G1 F600
G1 X98.699 Y99.697 E7.26071
G1 X98.699 Y100.498 E7.28641
G1 X99.889 Y99.308 E7.34036
G1 X100.686 Y99.312 E7.36592
G1 X98.699 Y101.299 E7.45601
G1 X99.498 Y101.301 E7.48164
G1 X100.697 Y100.102 E7.53596
G1 X100.697 Y100.856 E7.56011
G1 X100.681 Y100.919 E7.56222
G1 X100.299 Y101.301 E7.57953
G1 Z19.100 F7800.000
G1 X100.635 Y99.747 F7800.000
G1 F600
G1 X100.253 Y99.365 E7.59569
G1 X99.505 Y99.365 E7.61805
G1 X100.635 Y100.495 E7.66583
G1 X100.627 Y101.235 E7.68796
G1 X98.764 Y99.372 E7.76677
G1 X98.755 Y100.110 E7.78886
G1 X99.890 Y101.245 E7.83689
G1 X99.154 Y101.245 E7.85892
G1 X98.754 Y100.857 E7.87558
G1 Z19.500 F7800.000
G1 X99.485 Y101.240 F7800.000
G1 F600
G1 X100.611 Y100.114 E7.92188
G1 X100.610 Y99.389 E7.94295
G1 X98.766 Y101.231 E8.01875
G1 X98.760 Y100.511 E8.03971
G1 X99.881 Y99.390 E8.08582
G1 X99.160 Y99.390 E8.10679
G1 X98.768 Y99.776 E8.12279
G1 X100.218 Y101.233 F7800.000
G1 F600
G1 X100.600 Y100.852 E8.13849
G1 Z19.900 F7800.000
G1 X100.569 Y99.812 F7800.000
G1 F600
G1 X100.187 Y99.430 E8.15360
G1 X99.489 Y99.431 E8.17313
G1 X100.570 Y100.512 E8.21587
G1 X100.570 Y101.202 E8.23517
G1 X98.798 Y99.438 E8.30507
G1 X98.785 Y100.124 E8.32425
G1 X99.875 Y101.214 E8.36734
G1 X99.189 Y101.213 E8.38653
G1 X98.784 Y100.822 E8.40228
G1 Z20.300 F7800.000
G1 X99.006 Y99.827 F7800.000
G1 F600
G1 X98.844 Y99.827 E8.40766
G1 X98.828 Y100.005 E8.41362
G1 X99.388 Y99.446 E8.44000
G1 X100.221 Y99.445 E8.46778
G1 X98.827 Y100.839 E8.53348
G1 X98.827 Y101.172 E8.54459
G1 X99.326 Y101.173 E8.56125
G1 X100.555 Y99.944 E8.61918
G1 X100.556 Y100.776 E8.64690
G1 X100.174 Y101.158 E8.66491
G1 Z20.700 F7800.000
G1 X99.210 Y101.054 F7800.000
G1 F600
G1 X99.210 Y101.171 E8.66883
G1 X99.328 Y101.171 E8.67275
G1 X98.829 Y100.672 E8.69629
G1 X98.830 Y99.840 E8.72402
G1 X100.161 Y101.172 E8.78679
G1 X100.457 Y101.172 E8.79665
G1 X100.529 Y101.156 E8.79910
G1 X100.525 Y100.703 E8.81421
G1 X99.301 Y99.478 E8.87193
G1 X100.137 Y99.481 E8.89980
G1 X100.519 Y99.863 E8.91781
G1 Z21.100 F7800.000
G1 X100.114 Y101.145 F7800.000
G1 F600
G1 X100.496 Y100.763 E8.93582
G1 X100.493 Y99.933 E8.96349
G1 X99.269 Y101.156 E9.02116
G1 X98.842 Y101.156 E9.03542
G1 X98.842 Y100.751 E9.04894
G1 X100.090 Y99.503 E9.10775
G1 X99.254 Y99.506 E9.13560
G1 X98.851 Y99.909 E9.15462
G1 X98.872 Y99.887 E9.15565
G1 Z21.500 F7800.000
G1 X99.224 Y101.156 F7800.000
G1 F600
G1 X98.842 Y100.774 E9.17317
G1 X98.842 Y99.964 E9.19946
G1 X100.036 Y101.157 E9.25422
G1 X100.438 Y101.158 E9.26727
G1 X100.443 Y100.753 E9.28039
G1 X99.253 Y99.563 E9.33499
G1 X100.058 Y99.558 E9.36113
G1 X100.440 Y99.940 E9.37866
G1 Z21.900 F7800.000
G1 X100.026 Y101.145 F7800.000
G1 F600
G1 X100.408 Y100.763 E9.39551
G1 X100.412 Y99.979 E9.41996
G1 X99.247 Y101.144 E9.47134
G1 X98.855 Y101.143 E9.48357
G1 X98.856 Y100.756 E9.49565
G1 X100.023 Y99.588 E9.54716
G1 X99.238 Y99.594 E9.57165
G1 X98.856 Y99.976 E9.58850
G1 Z22.300 F7800.000
G1 X99.279 Y101.100 F7800.000
G1 F600
G1 X98.897 Y100.718 E9.60447
G1 X98.898 Y99.979 E9.62634
G1 X100.020 Y101.102 E9.67332
G1 X100.386 Y101.103 E9.68414
G1 X100.396 Y100.738 E9.69494
G1 X99.266 Y99.608 E9.74220
G1 X100.008 Y99.610 E9.76415
G1 X100.390 Y99.992 E9.78013
G1 Z22.700 F7800.000
G1 X99.972 Y101.102 F7800.000
G1 F600
G1 X100.354 Y100.720 E9.79565
G1 X100.360 Y99.996 E9.81646
G1 X99.254 Y101.102 E9.86140
G1 X98.898 Y101.101 E9.87164
G1 X98.898 Y100.740 E9.88203
G1 X100.000 Y99.638 E9.92680
G1 X99.280 Y99.640 E9.94749
G1 X98.898 Y100.022 E9.96300
G1 Z23.100 F7800.000
G1 X99.283 Y101.099 F7800.000
G1 F600
G1 X98.901 Y100.717 E9.97838
G1 X98.903 Y100.007 E9.99862
G1 X99.996 Y101.100 E10.04267
G1 X100.350 Y101.101 E10.05275
G1 X100.350 Y100.742 E10.06295
G1 X99.258 Y99.650 E10.10695
G1 X99.969 Y99.649 E10.12720
G1 X100.351 Y100.031 E10.14259
G1 Z23.500 F7800.000
G1 X99.580 Y99.702 F7800.000
G1 F600
G1 X98.963 Y100.319 E10.17169
G1 X98.965 Y101.034 E10.19551
G1 X99.078 Y101.037 E10.19930
G1 X100.291 Y99.824 E10.25649
G1 X100.296 Y100.653 E10.28411
G1 X99.914 Y101.035 E10.30212
G1 Z23.900 F7800.000
G1 X100.288 Y100.094 F7800.000
G1 F600
G1 X99.906 Y99.712 E10.32012
G1 X99.066 Y99.705 E10.34813
G1 X100.296 Y100.935 E10.40609
G1 X100.293 Y101.034 E10.40940
G1 X99.565 Y101.037 E10.43368
G1 X98.966 Y100.437 E10.46194
G1 Z24.300 F7800.000
G1 X99.502 Y99.741 F7800.000
G1 F600
G1 X98.965 Y100.278 E10.48726
G1 X98.965 Y101.033 E10.51242
G1 X99.042 Y101.034 E10.51498
G1 X100.258 Y99.819 E10.57227
G1 X100.258 Y100.652 E10.60003
G1 X99.876 Y101.034 E10.61804
G1 Z24.700 F7800.000
G1 X100.227 Y100.983 F7800.000
G1 F600
G1 X99.017 Y99.773 E10.67473
G1 X99.016 Y100.600 E10.70213
G1 X99.398 Y100.982 E10.72001
G1 X100.230 Y100.158 F7800.000
G1 F600
G1 X99.848 Y99.777 E10.73790
G1 Z25.100 F7800.000
G1 X99.405 Y99.772 F7800.000
G1 F600
G1 X99.023 Y100.154 E10.75572
G1 X99.022 Y100.976 E10.78283
G1 X100.225 Y99.776 E10.83888
G1 X100.230 Y100.596 E10.86592
G1 X99.848 Y100.978 E10.88374
G1 Z25.500 F7800.000
G1 X100.215 Y100.163 F7800.000
G1 F600
G1 X99.833 Y99.781 E10.90134
G1 X99.024 Y99.787 E10.92768
G1 X100.212 Y100.978 E10.98246
G1 X99.402 Y100.978 E11.00886
G1 X99.020 Y100.596 E11.02645
G1 Z25.900 F7800.000
G1 X99.033 Y100.968 F7800.000
G1 F600
G1 X100.207 Y99.794 E11.07952
G1 X99.414 Y99.788 E11.10488
G1 X99.032 Y100.170 E11.12214
G1 X99.827 Y100.972 F7800.000
G1 F600
G1 X100.209 Y100.591 E11.13940
G1 Z26.300 F7800.000
G1 X100.210 Y100.962 F7800.000
G1 F600
G1 X99.040 Y99.791 E11.19158
G1 X99.038 Y100.577 E11.21634
G1 X99.420 Y100.959 E11.23336
G1 X100.213 Y100.177 F7800.000
G1 F600
G1 X99.831 Y99.795 E11.25038
G1 Z26.700 F7800.000
G1 X100.212 Y100.579 F7800.000
G1 F600
G1 X99.830 Y100.961 E11.26747
G1 X99.041 Y100.960 F7800.000
G1 F600
G1 X100.214 Y99.787 E11.31996
G1 X99.424 Y99.786 E11.34497
G1 X99.042 Y100.168 E11.36206
G1 Z27.100 F7800.000
G1 X99.039 Y100.576 F7800.000
G1 F600
G1 X99.424 Y100.960 E11.37972
G1 X100.228 Y100.961 E11.40580
G1 X99.047 Y99.774 E11.46012
G1 X99.843 Y99.764 E11.48596
G1 X100.236 Y100.151 E11.50386
G1 Z27.500 F7800.000
G1 X100.104 Y101.031 F7800.000
G1 F600
G1 X100.486 Y100.649 E11.52014
G1 X100.488 Y99.894 E11.54288
G1 X99.349 Y101.033 E11.59140
G1 X98.969 Y101.027 E11.60287
G1 X98.966 Y100.663 E11.61383
G1 X100.117 Y99.512 E11.66287
G1 X99.378 Y99.517 E11.68515
G1 X98.968 Y99.908 E11.70222
G1 Z27.900 F7800.000
G1 X98.852 Y100.689 F7800.000
G1 F600
G1 X99.309 Y101.147 E11.72379
G1 X100.144 Y101.148 E11.75160
G1 X98.853 Y99.856 E11.81247
G1 X98.853 Y99.688 E11.81809
G1 X99.080 Y99.320 E11.83252
G1 X99.149 Y99.320 E11.83481
G1 X100.682 Y100.853 E11.90709
G1 X100.681 Y100.019 F7800.000
G1 F600
G1 X100.300 Y99.637 E11.92509
G1 Z28.300 F7800.000
G1 X99.022 Y99.798 F7800.000
G1 F600
G1 X98.883 Y99.798 E11.92972
G1 X98.869 Y99.950 E11.93481
G1 X99.404 Y99.416 E11.96000
G1 X100.237 Y99.415 E11.98778
G1 X98.868 Y100.784 E12.05230
G1 X98.868 Y101.130 E12.06385
G1 X99.355 Y101.131 E12.08008
G1 X100.579 Y99.906 E12.13780
G1 X100.577 Y100.741 E12.16563
G1 X100.195 Y101.123 E12.18363
G1 Z28.700 F7800.000
G1 X100.418 Y99.966 F7800.000
G1 F600
G1 X100.036 Y99.584 E12.20164
G1 X99.210 Y99.592 E12.22917
G1 X100.413 Y100.795 E12.28589
G1 X100.411 Y100.941 E12.29076
G1 X99.730 Y100.945 E12.31344
G1 X99.055 Y100.270 E12.34526
G1 Z29.100 F7800.000
G1 X99.564 Y99.726 F7800.000
G1 F600
G1 X99.182 Y100.108 E12.36059
G1 X99.150 Y100.259 E12.36498
G1 X99.083 Y100.246 E12.36690
G1 X99.083 Y100.915 E12.38589
G1 X100.265 Y99.734 E12.43329
G1 X100.361 Y99.803 E12.43666
G1 X100.363 Y100.316 E12.45123
G1 X100.305 Y100.307 E12.45288
G1 X100.270 Y100.437 E12.45671
G1 X99.888 Y100.819 E12.47204
G1 Z29.500 F7800.000
G1 X99.562 Y100.263 F7800.000
G1 F600
G1 X99.561 Y100.541 E12.48130
G1 X99.790 Y100.532 E12.48891
G1 X99.804 Y100.820 E12.49853
G1 X100.119 Y100.820 E12.50902
G1 X99.180 Y99.881 E12.55329
G1 X99.187 Y99.741 E12.55797
G1 X99.873 Y99.741 E12.58085
G1 X100.255 Y100.123 E12.59886
G1 Z29.900 F7800.000
G1 E10.59886 F2400.00000
G92 E0
M107
; Filament-specific end gcode 
;END gcode for filament

M104 S0 ; turn off temperature
G28 X0  ; home X axis
M84     ; disable motors

M140 S0 ; set bed temperature
; filament used = 84.1mm (0.6cm3)
; total filament cost = 0.0

; avoid_crossing_perimeters = 0
; bed_shape = 0x0,200x0,200x200,0x200
; bed_temperature = 0
; before_layer_gcode = 
; between_objects_gcode = 
; bridge_acceleration = 0
; bridge_fan_speed = 100
; brim_connections_width = 0
; brim_width = 0
; complete_objects = 0
; cooling = 1
; default_acceleration = 0
; disable_fan_first_layers = 3
; duplicate_distance = 6
; end_filament_gcode = "; Filament-specific end gcode \n;END gcode for filament\n"
; end_gcode = M104 S0 ; turn off temperature\nG28 X0  ; home X axis\nM84     ; disable motors\n
; extruder_clearance_height = 20
; extruder_clearance_radius = 20
; extruder_offset = 0x0
; extrusion_axis = E
; extrusion_multiplier = 1
; fan_always_on = 0
; fan_below_layer_time = 60
; filament_colour = #FFFFFF
; filament_cost = 0
; filament_density = 0
; filament_diameter = 3
; filament_max_volumetric_speed = 0
; filament_notes = ""
; first_layer_acceleration = 0
; first_layer_bed_temperature = 0
; first_layer_extrusion_width = 200%
; first_layer_speed = 30
; first_layer_temperature = 205
; gcode_arcs = 0
; gcode_comments = 0
; gcode_flavor = reprap
; has_heatbed = 1
; infill_acceleration = 0
; infill_first = 0
; interior_brim_width = 0
; layer_gcode = 
; max_fan_speed = 100
; max_layer_height = 0.3
; max_print_speed = 80
; max_volumetric_speed = 0
; min_fan_speed = 35
; min_layer_height = 0.15
; min_print_speed = 10
; min_skirt_length = 0
; notes = 
; nozzle_diameter = 0.5
; only_retract_when_crossing_perimeters = 1
; ooze_prevention = 0
; output_filename_format = [input_filename_base].gcode
; perimeter_acceleration = 0
; post_process = 
; pressure_advance = 0
; printer_notes = 
; resolution = 0
; retract_before_travel = 2
; retract_layer_change = 0
; retract_length = 2
; retract_length_toolchange = 10
; retract_lift = 0
; retract_lift_above = 0
; retract_lift_below = 0
; retract_restart_extra = 0
; retract_restart_extra_toolchange = 0
; retract_speed = 40
; skirt_distance = 6
; skirt_height = 1
; skirts = 0
; slowdown_below_layer_time = 5
; spiral_vase = 0
; standby_temperature_delta = -5
; start_filament_gcode = "; Filament gcode\n"
; start_gcode = G28 ; home all axes\nG1 Z5 F5000 ; lift nozzle\n
; temperature = 200
; threads = 8
; toolchange_gcode = 
; travel_speed = 130
; use_firmware_retraction = 0
; use_relative_e_distances = 0
; use_set_and_wait_bed = 0
; use_set_and_wait_extruder = 0
; use_volumetric_e = 0
; vibration_limit = 0
; wipe = 0
; z_offset = 0
; z_steps_per_mm = 0
; adaptive_slicing = 0
; adaptive_slicing_quality = 75%
; dont_support_bridges = 1
; extrusion_width = 0
; first_layer_height = 0.3
; infill_only_where_needed = 0
; interface_shells = 0
; layer_height = 0.4
; match_horizontal_surfaces = 0
; raft_layers = 0
; regions_overlap = 0
; seam_position = aligned
; sequential_print_priority = 0
; support_material = 0
; support_material_angle = 0
; support_material_buildplate_only = 0
; support_material_contact_distance = 0.2
; support_material_enforce_layers = 0
; support_material_extruder = 1
; support_material_extrusion_width = 0
; support_material_interface_extruder = 1
; support_material_interface_extrusion_width = 0
; support_material_interface_layers = 3
; support_material_interface_spacing = 0
; support_material_interface_speed = 100%
; support_material_max_layers = 0
; support_material_pattern = pillars
; support_material_spacing = 2.5
; support_material_speed = 60
; support_material_threshold = 60%
; xy_size_compensation = 0
; bottom_infill_pattern = rectilinear
; bottom_solid_layers = 0
; bridge_flow_ratio = 1
; bridge_speed = 60
; external_perimeter_extrusion_width = 0
; external_perimeter_speed = 50%
; external_perimeters_first = 0
; extra_perimeters = 1
; fill_angle = 45
; fill_density = 90%
; fill_gaps = 1
; fill_pattern = rectilinear
; gap_fill_speed = 20
; infill_every_layers = 1
; infill_extruder = 1
; infill_extrusion_width = 0
; infill_overlap = 55%
; infill_speed = 80
; overhangs = 1
; perimeter_extruder = 1
; perimeter_extrusion_width = 0
; perimeter_speed = 60
; perimeters = 0
; small_perimeter_speed = 15
; solid_infill_below_area = 70
; solid_infill_every_layers = 0
; solid_infill_extruder = 1
; solid_infill_extrusion_width = 0
; solid_infill_speed = 20
; thin_walls = 1
; top_infill_extrusion_width = 0
; top_infill_pattern = rectilinear
; top_solid_infill_speed = 15
; top_solid_layers = 0
