; generated by Slic3r 1.3.0 on 2021-02-03 at 16:07:47

; external perimeters extrusion width = 0.60mm (6.17mm^3/s)
; perimeters extrusion width = 0.60mm (12.34mm^3/s)
; infill extrusion width = 0.60mm (16.45mm^3/s)
; solid infill extrusion width = 0.60mm (4.11mm^3/s)
; top infill extrusion width = 0.60mm (3.08mm^3/s)

M107
M104 S205 ; set temperature
G28 ; home all axes
G1 Z5 F5000 ; lift nozzle

; Filament gcode

M109 S205 ; set temperature and wait for it to be reached
G21 ; set units to millimeters
G90 ; use absolute coordinates
M82 ; use absolute distances for extrusion
G92 E0
G1 Z0.400 F7800.000
G1 E-2.00000 F2400.00000
G92 E0
G1 X97.135 Y96.579 F7800.000
G1 E2.00000 F2400.00000
G1 F913.471
G1 X96.579 Y97.135 E2.03294
G1 X96.579 Y98.183 E2.07686
G1 X98.183 Y96.579 E2.17190
G1 X99.230 Y96.579 E2.21582
G1 X96.579 Y99.230 E2.37297
G1 X96.579 Y100.278 E2.41688
G1 X100.278 Y96.579 E2.63614
G1 X101.325 Y96.579 E2.68006
G1 X96.579 Y101.325 E2.96142
G1 X96.579 Y102.373 E3.00534
G1 X102.373 Y96.579 E3.34881
G1 X103.421 Y96.579 E3.39272
G1 X96.579 Y103.421 E3.79830
G1 X97.627 Y103.421 E3.84222
G1 X103.421 Y97.627 E4.18569
G1 X103.421 Y98.675 E4.22960
G1 X98.675 Y103.421 E4.51097
G1 X99.722 Y103.421 E4.55488
G1 X103.421 Y99.722 E4.77414
G1 X103.421 Y100.770 E4.81806
G1 X100.770 Y103.421 E4.97521
G1 X101.817 Y103.421 E5.01912
G1 X103.421 Y101.817 E5.11417
G1 X103.421 Y102.865 E5.15808
G1 X102.865 Y103.421 E5.19102
M104 S200 ; set temperature
G1 Z0.800 F7800.000
G1 X96.957 Y103.443 F7800.000
G1 F1200
G1 X96.557 Y103.043 E5.20829
G1 X96.557 Y102.280 E5.23159
G1 X97.720 Y103.443 E5.28181
G1 X98.483 Y103.443 E5.30511
G1 X96.557 Y101.517 E5.38827
G1 X96.557 Y100.754 E5.41157
G1 X99.246 Y103.443 E5.52768
G1 X100.009 Y103.443 E5.55098
G1 X96.557 Y99.991 E5.70004
G1 X96.557 Y99.228 E5.72333
G1 X100.772 Y103.443 E5.90534
G1 X101.535 Y103.443 E5.92864
G1 X96.557 Y98.465 E6.14359
G1 X96.557 Y97.702 E6.16689
G1 X102.298 Y103.443 E6.41478
G1 X103.061 Y103.443 E6.43808
G1 X96.557 Y96.939 E6.71892
G1 X96.557 Y96.557 E6.73057
G1 X96.939 Y96.557 E6.74222
G1 X103.443 Y103.061 E7.02306
G1 X103.443 Y102.298 E7.04636
G1 X97.702 Y96.557 E7.29426
G1 X98.465 Y96.557 E7.31755
G1 X103.443 Y101.535 E7.53251
G1 X103.443 Y100.772 E7.55580
G1 X99.228 Y96.557 E7.73781
G1 X99.991 Y96.557 E7.76110
G1 X103.443 Y100.009 E7.91016
G1 X103.443 Y99.246 E7.93346
G1 X100.754 Y96.557 E8.04957
G1 X101.517 Y96.557 E8.07287
G1 X103.443 Y98.483 E8.15603
G1 X103.443 Y97.720 E8.17933
G1 X102.280 Y96.557 E8.22955
G1 X103.043 Y96.557 E8.25285
G1 X103.443 Y96.957 E8.27012
G1 Z1.200 F7800.000
G1 X103.043 Y103.443 F7800.000
G1 F1200
G1 X103.443 Y103.043 E8.28740
G1 X103.443 Y102.280 E8.31069
G1 X102.280 Y103.443 E8.36091
G1 X101.517 Y103.443 E8.38421
G1 X103.443 Y101.517 E8.46738
G1 X103.443 Y100.754 E8.49067
G1 X100.754 Y103.443 E8.60678
G1 X99.991 Y103.443 E8.63008
G1 X103.443 Y99.991 E8.77914
G1 X103.443 Y99.228 E8.80244
G1 X99.228 Y103.443 E8.98444
G1 X98.465 Y103.443 E9.00774
G1 X103.443 Y98.465 E9.22269
G1 X103.443 Y97.702 E9.24598
G1 X97.702 Y103.443 E9.49388
G1 X96.939 Y103.443 E9.51718
G1 X103.443 Y96.939 E9.79802
G1 X103.443 Y96.557 E9.80967
G1 X103.061 Y96.557 E9.82132
G1 X96.557 Y103.061 E10.10216
G1 X96.557 Y102.298 E10.12546
G1 X102.298 Y96.557 E10.37336
G1 X101.535 Y96.557 E10.39665
G1 X96.557 Y101.535 E10.61161
G1 X96.557 Y100.772 E10.63490
G1 X100.772 Y96.557 E10.81691
G1 X100.009 Y96.557 E10.84020
G1 X96.557 Y100.009 E10.98926
G1 X96.557 Y99.246 E11.01256
G1 X99.246 Y96.557 E11.12867
G1 X98.483 Y96.557 E11.15197
G1 X96.557 Y98.483 E11.23514
G1 X96.557 Y97.720 E11.25843
G1 X97.720 Y96.557 E11.30865
G1 X96.957 Y96.557 E11.33195
G1 X96.557 Y96.957 E11.34922
M106 S252.45
G1 Z1.600 F7800.000
G1 X96.957 Y103.443 F7800.000
G1 F1200
G1 X96.557 Y103.043 E11.36649
G1 X96.557 Y102.280 E11.38978
G1 X97.720 Y103.443 E11.44000
G1 X98.483 Y103.443 E11.46330
G1 X96.557 Y101.517 E11.54647
G1 X96.557 Y100.754 E11.56976
G1 X99.246 Y103.443 E11.68588
G1 X100.009 Y103.443 E11.70917
G1 X96.557 Y99.991 E11.85823
G1 X96.557 Y99.228 E11.88153
G1 X100.772 Y103.443 E12.06354
G1 X101.535 Y103.443 E12.08683
G1 X96.557 Y98.465 E12.30178
G1 X96.557 Y97.702 E12.32508
G1 X102.298 Y103.443 E12.57298
G1 X103.061 Y103.443 E12.59628
G1 X96.557 Y96.939 E12.87712
G1 X96.557 Y96.557 E12.88877
G1 X96.939 Y96.557 E12.90042
G1 X103.443 Y103.061 E13.18126
G1 X103.443 Y102.298 E13.20456
G1 X97.702 Y96.557 E13.45245
G1 X98.465 Y96.557 E13.47575
G1 X103.443 Y101.535 E13.69070
G1 X103.443 Y100.772 E13.71400
G1 X99.228 Y96.557 E13.89600
G1 X99.991 Y96.557 E13.91930
G1 X103.443 Y100.009 E14.06836
G1 X103.443 Y99.246 E14.09165
G1 X100.754 Y96.557 E14.20777
G1 X101.517 Y96.557 E14.23106
G1 X103.443 Y98.483 E14.31423
G1 X103.443 Y97.720 E14.33753
G1 X102.280 Y96.557 E14.38775
G1 X103.043 Y96.557 E14.41104
G1 X103.443 Y96.957 E14.42832
G1 Z2.000 F7800.000
G1 X103.043 Y103.443 F7800.000
G1 F1200
G1 X103.443 Y103.043 E14.44559
G1 X103.443 Y102.280 E14.46889
G1 X102.280 Y103.443 E14.51911
G1 X101.517 Y103.443 E14.54240
G1 X103.443 Y101.517 E14.62557
G1 X103.443 Y100.754 E14.64887
G1 X100.754 Y103.443 E14.76498
G1 X99.991 Y103.443 E14.78828
G1 X103.443 Y99.991 E14.93733
G1 X103.443 Y99.228 E14.96063
G1 X99.228 Y103.443 E15.14264
G1 X98.465 Y103.443 E15.16593
G1 X103.443 Y98.465 E15.38088
G1 X103.443 Y97.702 E15.40418
G1 X97.702 Y103.443 E15.65208
G1 X96.939 Y103.443 E15.67537
G1 X103.443 Y96.939 E15.95622
G1 X103.443 Y96.557 E15.96787
G1 X103.061 Y96.557 E15.97951
G1 X96.557 Y103.061 E16.26036
G1 X96.557 Y102.298 E16.28365
G1 X102.298 Y96.557 E16.53155
G1 X101.535 Y96.557 E16.55485
G1 X96.557 Y101.535 E16.76980
G1 X96.557 Y100.772 E16.79310
G1 X100.772 Y96.557 E16.97510
G1 X100.009 Y96.557 E16.99840
G1 X96.557 Y100.009 E17.14746
G1 X96.557 Y99.246 E17.17076
G1 X99.246 Y96.557 E17.28687
G1 X98.483 Y96.557 E17.31017
G1 X96.557 Y98.483 E17.39333
G1 X96.557 Y97.720 E17.41663
G1 X97.720 Y96.557 E17.46685
G1 X96.957 Y96.557 E17.49015
G1 X96.557 Y96.957 E17.50741
G1 Z2.400 F7800.000
G1 X96.957 Y103.443 F7800.000
G1 F1200
G1 X96.557 Y103.043 E17.52468
G1 X96.557 Y102.280 E17.54798
G1 X97.720 Y103.443 E17.59820
G1 X98.483 Y103.443 E17.62150
G1 X96.557 Y101.517 E17.70466
G1 X96.557 Y100.754 E17.72796
G1 X99.246 Y103.443 E17.84407
G1 X100.009 Y103.443 E17.86737
G1 X96.557 Y99.991 E18.01643
G1 X96.557 Y99.228 E18.03973
G1 X100.772 Y103.443 E18.22173
G1 X101.535 Y103.443 E18.24503
G1 X96.557 Y98.465 E18.45998
G1 X96.557 Y97.702 E18.48328
G1 X102.298 Y103.443 E18.73118
G1 X103.061 Y103.443 E18.75447
G1 X96.557 Y96.939 E19.03532
G1 X96.557 Y96.557 E19.04696
G1 X96.939 Y96.557 E19.05861
G1 X103.443 Y103.061 E19.33946
G1 X103.443 Y102.298 E19.36275
G1 X97.702 Y96.557 E19.61065
G1 X98.465 Y96.557 E19.63395
G1 X103.443 Y101.535 E19.84890
G1 X103.443 Y100.772 E19.87219
G1 X99.228 Y96.557 E20.05420
G1 X99.991 Y96.557 E20.07750
G1 X103.443 Y100.009 E20.22655
G1 X103.443 Y99.246 E20.24985
G1 X100.754 Y96.557 E20.36596
G1 X101.517 Y96.557 E20.38926
G1 X103.443 Y98.483 E20.47243
G1 X103.443 Y97.720 E20.49572
G1 X102.280 Y96.557 E20.54594
G1 X103.043 Y96.557 E20.56924
G1 X103.443 Y96.957 E20.58651
G1 Z2.800 F7800.000
G1 X103.043 Y103.443 F7800.000
G1 F1200
G1 X103.443 Y103.043 E20.60379
G1 X103.443 Y102.280 E20.62708
G1 X102.280 Y103.443 E20.67730
G1 X101.517 Y103.443 E20.70060
G1 X103.443 Y101.517 E20.78377
G1 X103.443 Y100.754 E20.80706
G1 X100.754 Y103.443 E20.92318
G1 X99.991 Y103.443 E20.94647
G1 X103.443 Y99.991 E21.09553
G1 X103.443 Y99.228 E21.11883
G1 X99.228 Y103.443 E21.30083
G1 X98.465 Y103.443 E21.32413
G1 X103.443 Y98.465 E21.53908
G1 X103.443 Y97.702 E21.56238
G1 X97.702 Y103.443 E21.81027
G1 X96.939 Y103.443 E21.83357
G1 X103.443 Y96.939 E22.11441
G1 X103.443 Y96.557 E22.12606
G1 X103.061 Y96.557 E22.13771
G1 X96.557 Y103.061 E22.41855
G1 X96.557 Y102.298 E22.44185
G1 X102.298 Y96.557 E22.68975
G1 X101.535 Y96.557 E22.71304
G1 X96.557 Y101.535 E22.92800
G1 X96.557 Y100.772 E22.95129
G1 X100.772 Y96.557 E23.13330
G1 X100.009 Y96.557 E23.15660
G1 X96.557 Y100.009 E23.30565
G1 X96.557 Y99.246 E23.32895
G1 X99.246 Y96.557 E23.44506
G1 X98.483 Y96.557 E23.46836
G1 X96.557 Y98.483 E23.55153
G1 X96.557 Y97.720 E23.57482
G1 X97.720 Y96.557 E23.62505
G1 X96.957 Y96.557 E23.64834
G1 X96.557 Y96.957 E23.66561
G1 Z3.200 F7800.000
G1 E21.66561 F2400.00000
G92 E0
G1 X96.957 Y103.443 F7800.000
G1 E2.00000 F2400.00000
G1 F1200
G1 X96.557 Y103.043 E2.01727
G1 X96.557 Y102.280 E2.04056
G1 X97.720 Y103.443 E2.09079
G1 X98.483 Y103.443 E2.11408
G1 X96.557 Y101.517 E2.19725
G1 X96.557 Y100.754 E2.22055
G1 X99.246 Y103.443 E2.33666
G1 X100.009 Y103.443 E2.35996
G1 X96.557 Y99.991 E2.50902
G1 X96.557 Y99.228 E2.53231
G1 X100.772 Y103.443 E2.71432
G1 X101.535 Y103.443 E2.73761
G1 X96.557 Y98.465 E2.95257
G1 X96.557 Y97.702 E2.97586
G1 X102.298 Y103.443 E3.22376
G1 X103.061 Y103.443 E3.24706
G1 X96.557 Y96.939 E3.52790
G1 X96.557 Y96.557 E3.53955
G1 X96.939 Y96.557 E3.55120
G1 X103.443 Y103.061 E3.83204
G1 X103.443 Y102.298 E3.85534
G1 X97.702 Y96.557 E4.10324
G1 X98.465 Y96.557 E4.12653
G1 X103.443 Y101.535 E4.34148
G1 X103.443 Y100.772 E4.36478
G1 X99.228 Y96.557 E4.54678
G1 X99.991 Y96.557 E4.57008
G1 X103.443 Y100.009 E4.71914
G1 X103.443 Y99.246 E4.74244
G1 X100.754 Y96.557 E4.85855
G1 X101.517 Y96.557 E4.88184
G1 X103.443 Y98.483 E4.96501
G1 X103.443 Y97.720 E4.98831
G1 X102.280 Y96.557 E5.03853
G1 X103.043 Y96.557 E5.06182
G1 X103.443 Y96.957 E5.07910
G1 E3.07910 F2400.00000
G92 E0
M107
; Filament-specific end gcode 
;END gcode for filament

M104 S0 ; turn off temperature
G28 X0  ; home X axis
M84     ; disable motors

M140 S0 ; set bed temperature
; filament used = 24.7mm (0.2cm3)
; total filament cost = 0.0

; avoid_crossing_perimeters = 0
; bed_shape = 0x0,200x0,200x200,0x200
; bed_temperature = 0
; before_layer_gcode = 
; between_objects_gcode = 
; bridge_acceleration = 0
; bridge_fan_speed = 100
; brim_connections_width = 0
; brim_width = 0
; complete_objects = 0
; cooling = 1
; default_acceleration = 0
; disable_fan_first_layers = 3
; duplicate_distance = 6
; end_filament_gcode = "; Filament-specific end gcode \n;END gcode for filament\n"
; end_gcode = M104 S0 ; turn off temperature\nG28 X0  ; home X axis\nM84     ; disable motors\n
; extruder_clearance_height = 20
; extruder_clearance_radius = 20
; extruder_offset = 0x0
; extrusion_axis = E
; extrusion_multiplier = 1
; fan_always_on = 0
; fan_below_layer_time = 60
; filament_colour = #FFFFFF
; filament_cost = 0
; filament_density = 0
; filament_diameter = 3
; filament_max_volumetric_speed = 0
; filament_notes = ""
; first_layer_acceleration = 0
; first_layer_bed_temperature = 0
; first_layer_extrusion_width = 200%
; first_layer_speed = 30
; first_layer_temperature = 205
; gcode_arcs = 0
; gcode_comments = 0
; gcode_flavor = reprap
; has_heatbed = 1
; infill_acceleration = 0
; infill_first = 0
; interior_brim_width = 0
; layer_gcode = 
; max_fan_speed = 100
; max_layer_height = 0.3
; max_print_speed = 80
; max_volumetric_speed = 0
; min_fan_speed = 35
; min_layer_height = 0.15
; min_print_speed = 10
; min_skirt_length = 0
; notes = 
; nozzle_diameter = 0.5
; only_retract_when_crossing_perimeters = 1
; ooze_prevention = 0
; output_filename_format = [input_filename_base].gcode
; perimeter_acceleration = 0
; post_process = 
; pressure_advance = 0
; printer_notes = 
; resolution = 0
; retract_before_travel = 2
; retract_layer_change = 0
; retract_length = 2
; retract_length_toolchange = 10
; retract_lift = 0
; retract_lift_above = 0
; retract_lift_below = 0
; retract_restart_extra = 0
; retract_restart_extra_toolchange = 0
; retract_speed = 40
; skirt_distance = 6
; skirt_height = 1
; skirts = 0
; slowdown_below_layer_time = 5
; spiral_vase = 0
; standby_temperature_delta = -5
; start_filament_gcode = "; Filament gcode\n"
; start_gcode = G28 ; home all axes\nG1 Z5 F5000 ; lift nozzle\n
; temperature = 200
; threads = 8
; toolchange_gcode = 
; travel_speed = 130
; use_firmware_retraction = 0
; use_relative_e_distances = 0
; use_set_and_wait_bed = 0
; use_set_and_wait_extruder = 0
; use_volumetric_e = 0
; vibration_limit = 0
; wipe = 0
; z_offset = 0
; z_steps_per_mm = 0
; adaptive_slicing = 0
; adaptive_slicing_quality = 75%
; dont_support_bridges = 1
; extrusion_width = 0.6
; first_layer_height = 0.4
; infill_only_where_needed = 0
; interface_shells = 0
; layer_height = 0.4
; match_horizontal_surfaces = 0
; raft_layers = 0
; regions_overlap = 0
; seam_position = aligned
; sequential_print_priority = 0
; support_material = 0
; support_material_angle = 0
; support_material_buildplate_only = 0
; support_material_contact_distance = 0.2
; support_material_enforce_layers = 0
; support_material_extruder = 1
; support_material_extrusion_width = 0
; support_material_interface_extruder = 1
; support_material_interface_extrusion_width = 0
; support_material_interface_layers = 3
; support_material_interface_spacing = 0
; support_material_interface_speed = 100%
; support_material_max_layers = 0
; support_material_pattern = pillars
; support_material_spacing = 2.5
; support_material_speed = 60
; support_material_threshold = 60%
; xy_size_compensation = 0
; bottom_infill_pattern = rectilinear
; bottom_solid_layers = 0
; bridge_flow_ratio = 1
; bridge_speed = 60
; external_perimeter_extrusion_width = 0
; external_perimeter_speed = 50%
; external_perimeters_first = 0
; extra_perimeters = 1
; fill_angle = 45
; fill_density = 60%
; fill_gaps = 1
; fill_pattern = rectilinear
; gap_fill_speed = 20
; infill_every_layers = 1
; infill_extruder = 1
; infill_extrusion_width = 0
; infill_overlap = 55%
; infill_speed = 80
; overhangs = 1
; perimeter_extruder = 1
; perimeter_extrusion_width = 0
; perimeter_speed = 60
; perimeters = 0
; small_perimeter_speed = 15
; solid_infill_below_area = 70
; solid_infill_every_layers = 0
; solid_infill_extruder = 1
; solid_infill_extrusion_width = 0
; solid_infill_speed = 20
; thin_walls = 1
; top_infill_extrusion_width = 0
; top_infill_pattern = rectilinear
; top_solid_infill_speed = 15
; top_solid_layers = 0
