%
(Header)
(Generated by gcodetools from Inkscape.)
(Using default header. To add your own header create file "header" in the output dir.)
M3
(Header end.)
G21 (All units in mm)

(Start cutting path id: path826)
(Change tool to Cone cutter)

G00 Z0.000000
G00 X0.474152 Y1.792948

G01 Z-1.000000 F100.0(Penetrate)
G01 X2.987211 Y1.817192 Z-1.000000 F400.000000
G01 X5.955410 Y2.736078 Z-1.000000
G01 X9.436711 Y1.272453 Z-1.000000
G01 X12.657779 Y2.605389 Z-1.000000
G01 X16.113718 Y1.392779 Z-1.000000
G01 X19.690920 Y2.514444 Z-1.000000
G01 X22.874022 Y1.271518 Z-1.000000
G01 X26.208701 Y2.453812 Z-1.000000
G01 X29.391803 Y1.271518 Z-1.000000
G01 X32.775078 Y1.891044 Z-1.000000
G01 X34.525918 Y1.857164 Z-1.000000
G03 X34.193108 Y1.883106 Z-1.000000 I-0.623484 J-5.850858
G03 X33.859363 Y1.890131 Z-1.000000 I-0.290626 J-5.875849
G03 X33.314327 Y1.881848 Z-1.000000 I0.252730 J-34.567191
G02 X32.778754 Y1.946779 Z-1.000000 I-0.043462 J1.882770
G02 X32.425451 Y2.087971 Z-1.000000 I0.430161 J1.589017
G02 X32.102497 Y2.292272 Z-1.000000 I1.337634 J2.471918
G02 X31.804765 Y2.531033 Z-1.000000 I2.572616 J3.513029
G03 X31.516448 Y2.781634 Z-1.000000 I-29.772661 J-33.962303
G03 X31.155778 Y3.065382 Z-1.000000 I-3.351607 J-3.889109
G03 X30.752141 Y3.274593 Z-1.000000 I-0.924772 J-1.290212
G03 X30.530236 Y3.329771 Z-1.000000 I-0.414012 J-1.191199
G03 X30.302316 Y3.338305 Z-1.000000 I-0.150740 J-0.977992
G03 X30.078741 Y3.291512 Z-1.000000 I0.069713 J-0.890593
G03 X29.877610 Y3.184926 Z-1.000000 I0.245519 J-0.706367
G03 X29.663400 Y2.941399 Z-1.000000 I0.466253 J-0.626096
G03 X29.543380 Y2.635704 Z-1.000000 I1.040120 J-0.584775
G03 X29.549843 Y1.965403 Z-1.000000 I1.339642 J-0.322264
G03 X29.871851 Y1.377477 Z-1.000000 I1.333174 J0.348036
G03 X29.628891 Y1.337800 Z-1.000000 I0.236491 J-2.211821
G03 X29.391803 Y1.271518 Z-1.000000 I0.479458 J-2.172174
G03 X28.995803 Y1.100829 Z-1.000000 I0.880078 J-2.586497
G03 X28.614704 Y0.896203 Z-1.000000 I14.875816 J-28.162159
G02 X28.086971 Y0.635817 Z-1.000000 I-3.422552 J6.271632
G02 X27.525818 Y0.477707 Z-1.000000 I-0.831499 J1.876237
G02 X27.232857 Y0.465547 Z-1.000000 I-0.213384 J1.605703
G02 X26.944383 Y0.513603 Z-1.000000 I0.062106 J1.262659
G02 X26.675756 Y0.630343 Z-1.000000 I0.315818 J1.094159
G02 X26.451222 Y0.816788 Z-1.000000 I0.487983 J0.816098
G02 X26.252446 Y1.188880 Z-1.000000 I0.684254 J0.604678
G02 X26.242133 Y1.610612 Z-1.000000 I0.883024 J0.232584
G02 X26.422486 Y1.991975 Z-1.000000 I0.893340 J-0.189147
G02 X26.755012 Y2.251573 Z-1.000000 I0.712978 J-0.570503
G02 X26.529062 Y2.320845 Z-1.000000 I0.433810 J1.818121
G02 X26.313661 Y2.418075 Z-1.000000 I0.659715 J1.748729
G02 X26.078097 Y2.560230 Z-1.000000 I1.157234 J2.183904
G03 X25.848010 Y2.711802 Z-1.000000 I-4.809674 J-7.050663
G03 X25.425250 Y2.953764 Z-1.000000 I-2.809222 J-4.418018
G02 X24.993223 Y3.179864 Z-1.000000 I12.550310 J24.506651
G03 X24.577698 Y3.399116 Z-1.000000 I-20.197720 J-37.775181
G03 X24.141853 Y3.566215 Z-1.000000 I-0.948077 J-1.820912
G03 X23.911097 Y3.606936 Z-1.000000 I-0.377539 J-1.465245
G03 X23.677362 Y3.605215 Z-1.000000 I-0.108666 J-1.114891
G03 X23.449447 Y3.551789 Z-1.000000 I0.110662 J-0.984936
G03 X23.244055 Y3.441223 Z-1.000000 I0.275347 J-0.757551
G03 X23.064882 Y3.256313 Z-1.000000 I0.475730 J-0.640232
G03 X22.948266 Y3.025751 Z-1.000000 I0.764148 J-0.531273
G03 X22.896588 Y2.773000 Z-1.000000 I0.961276 J-0.328204
G03 X22.904338 Y2.514444 Z-1.000000 I1.238662 J-0.092264
G03 X23.125763 Y1.942658 Z-1.000000 I1.303827 J0.176144
G03 X23.582283 Y1.533321 Z-1.000000 I1.082409 J0.747934
G02 X23.425704 Y1.465704 Z-1.000000 I-4.543641 J10.306536
G02 X23.268120 Y1.400467 Z-1.000000 I-4.383716 J10.366240
G02 X22.704826 Y1.181681 Z-1.000000 I-7.851050 J19.378985
G03 X22.146455 Y0.951433 Z-1.000000 I3.000130 J-8.067761
G03 X21.638810 Y0.713202 Z-1.000000 I9.218153 J-20.302914
G02 X21.113256 Y0.527870 Z-1.000000 I-1.084286 J2.236923
G02 X20.836548 Y0.486921 Z-1.000000 I-0.394437 J1.709992
G02 X20.557925 Y0.499109 Z-1.000000 I-0.084565 J1.257693
G02 X20.289513 Y0.576700 Z-1.000000 I0.170035 J1.091267
G02 X20.054704 Y0.725843 Z-1.000000 I0.351707 J0.813136
G02 X19.902285 Y0.902518 Z-1.000000 I0.572014 J0.647562
G02 X19.799885 Y1.112608 Z-1.000000 I0.799509 J0.519688
G02 X19.750213 Y1.340806 Z-1.000000 I0.951425 J0.326606
G02 X19.751550 Y1.574671 Z-1.000000 I1.124208 J0.110510
G02 X19.880519 Y1.993653 Z-1.000000 I1.158563 J-0.127284
G02 X20.155143 Y2.335356 Z-1.000000 I1.029580 J-0.546260
G02 X19.921247 Y2.420274 Z-1.000000 I2.013522 J5.910520
G02 X19.690920 Y2.514444 Z-1.000000 I2.248074 J5.827302
G02 X18.977705 Y2.865924 Z-1.000000 I3.166275 J7.324277
G03 X18.279891 Y3.249106 Z-1.000000 I-34.811094 J-62.567671
G03 X17.936946 Y3.423810 Z-1.000000 I-3.603819 J-6.650360
G03 X17.577581 Y3.557632 Z-1.000000 I-0.927489 J-1.941251
G03 X17.196898 Y3.613379 Z-1.000000 I-0.417994 J-1.526714
G03 X16.820806 Y3.552258 Z-1.000000 I-0.024455 J-1.037181
G03 X16.522834 Y3.380253 Z-1.000000 I0.329774 J-0.915383
G03 X16.299466 Y3.117558 Z-1.000000 I0.677762 J-0.802606
G03 X16.171136 Y2.797893 Z-1.000000 I0.938741 J-0.562450
G03 X16.144034 Y2.453812 Z-1.000000 I1.163693 J-0.264769
G03 X16.296319 Y1.939546 Z-1.000000 I1.218558 J0.081159
G03 X16.654258 Y1.540119 Z-1.000000 I1.066271 J0.595424
G03 X16.382587 Y1.471589 Z-1.000000 I1.665908 J-7.176859
G03 X16.113718 Y1.392779 Z-1.000000 I1.937410 J-7.107713
G03 X15.310083 Y1.105673 Z-1.000000 I3.279002 J-10.446504
G02 X14.507010 Y0.816788 Z-1.000000 I-4.325309 J10.763270
G02 X14.029029 Y0.692075 Z-1.000000 I-1.408054 J4.418261
G02 X13.539980 Y0.659811 Z-1.000000 I-0.362360 J1.769959
G02 X13.296588 Y0.697601 Z-1.000000 I0.103057 J1.466451
G02 X13.065035 Y0.780149 Z-1.000000 I0.277580 J1.144664
G02 X12.856802 Y0.911324 Z-1.000000 I0.462947 J0.965766
G02 X12.688095 Y1.089626 Z-1.000000 I0.568376 J0.706757
G02 X12.533930 Y1.470576 Z-1.000000 I0.709861 J0.508938
G02 X12.571038 Y1.879859 Z-1.000000 I0.864025 J0.127988
G02 X12.791201 Y2.226872 Z-1.000000 I0.826921 J-0.281294
G02 X13.145683 Y2.434794 Z-1.000000 I0.606753 J-0.628304
G02 X12.897827 Y2.508925 Z-1.000000 I0.685848 J2.744544
G02 X12.657779 Y2.605389 Z-1.000000 I0.933721 J2.670460
G02 X12.125174 Y2.902363 Z-1.000000 I1.567213 J3.436783
G03 X11.607593 Y3.228126 Z-1.000000 I-6.136264 J-9.175412
G03 X11.055655 Y3.495626 Z-1.000000 I-1.888538 J-3.193489
G03 X10.460887 Y3.603055 Z-1.000000 I-0.576907 J-1.493841
G03 X10.091528 Y3.548124 Z-1.000000 I0.015254 J-1.371849
G03 X9.753046 Y3.391906 Z-1.000000 I0.353787 J-1.211370
G03 X9.476269 Y3.141677 Z-1.000000 I0.665362 J-1.014139
G03 X9.292785 Y2.817596 Z-1.000000 I0.874605 J-0.709152
G03 X9.226222 Y2.422504 Z-1.000000 I1.039386 J-0.378265
G03 X9.304774 Y2.029621 Z-1.000000 I1.105950 J0.016827
G03 X9.518136 Y1.690497 Z-1.000000 I1.027392 J0.409709
G03 X9.838311 Y1.449631 Z-1.000000 I0.814039 J0.748841
G02 X9.157542 Y1.171535 Z-1.000000 I-15.547982 J37.088612
G02 X8.471802 Y0.905933 Z-1.000000 I-14.868166 J37.369104
G02 X7.777262 Y0.674280 Z-1.000000 I-3.357721 J8.910097
G02 X7.059291 Y0.580553 Z-1.000000 I-0.661556 J2.270886
G02 X6.731182 Y0.618071 Z-1.000000 I0.043737 J1.835970
G02 X6.418774 Y0.722173 Z-1.000000 I0.283739 J1.372316
G02 X6.141331 Y0.900592 Z-1.000000 I0.532719 J1.133302
G02 X5.927792 Y1.150256 Z-1.000000 I0.668539 J0.787961
G02 X5.791072 Y1.538705 Z-1.000000 I0.845086 J0.515724
G02 X5.824225 Y1.949174 Z-1.000000 I0.981799 J0.127274
G02 X6.021515 Y2.310646 Z-1.000000 I0.948656 J-0.283196
G02 X6.348807 Y2.560577 Z-1.000000 I0.751359 J-0.644663
G02 X6.150865 Y2.645540 Z-1.000000 I2.898791 J7.026505
G02 X5.955410 Y2.736078 Z-1.000000 I3.096213 J6.940377
G02 X5.245335 Y3.103500 Z-1.000000 I5.861796 J12.198283
G03 X4.524628 Y3.446791 Z-1.000000 I-3.102430 J-5.585079
G03 X4.150398 Y3.572984 Z-1.000000 I-1.297153 J-3.228775
G03 X3.762070 Y3.633415 Z-1.000000 I-0.457899 J-1.664535
G03 X3.369744 Y3.592732 Z-1.000000 I-0.055539 J-1.376429
G03 X3.017526 Y3.423901 Z-1.000000 I0.240337 J-0.953212
G03 X2.846965 Y3.255276 Z-1.000000 I0.546297 J-0.723143
G03 X2.728017 Y3.047243 Z-1.000000 I0.684080 J-0.529163
G03 X2.671458 Y2.814266 Z-1.000000 I0.785019 J-0.313929
G03 X2.684058 Y2.575073 Z-1.000000 I0.805591 J-0.077490
G03 X2.756233 Y2.355122 Z-1.000000 I0.980619 J0.199963
G02 X2.853961 Y2.143546 Z-1.000000 I-384.952008 J-177.938318
G02 X2.924241 Y1.981861 Z-1.000000 I-3.574001 J-1.649647
G02 X2.987211 Y1.817192 Z-1.000000 I-3.644122 J-1.487897
G03 X2.283588 Y1.824501 Z-1.000000 I-0.573866 J-21.373252
G03 X1.579909 Y1.815267 Z-1.000000 I0.302787 J-49.891284
G01 X0.474152 Y1.792954 Z-1.000000
G01 X0.474152 Y1.792948 Z-1.000000
G00 Z0.000000

(End cutting path id: path826)


(Footer)
M5
G00 X0.0000 Y0.0000
M2
(Using default footer. To add your own footer create file "footer" in the output dir.)
(end)
%