; generated by Slic3r 1.3.0 on 2020-09-29 at 14:21:52

; external perimeters extrusion width = 0.55mm (4.37mm^3/s)
; perimeters extrusion width = 0.70mm (11.44mm^3/s)
; infill extrusion width = 0.63mm (13.45mm^3/s)
; solid infill extrusion width = 0.70mm (3.81mm^3/s)
; top infill extrusion width = 0.70mm (2.86mm^3/s)

M107
M104 S205 ; set temperature
G28 ; home all axes
G1 Z5 F5000 ; lift nozzle

; Filament gcode

M109 S205 ; set temperature and wait for it to be reached
G21 ; set units to millimeters
G90 ; use absolute coordinates
M82 ; use absolute distances for extrusion
G92 E0
G1 Z0.300 F7800.000
G1 E-2.00000 F2400.00000
G92 E0
G1 X93.338 Y92.567 F7800.000
G1 E2.00000 F2400.00000
G1 F1800
G1 X92.567 Y93.338 E2.02478
G1 X92.567 Y94.219 E2.04481
G1 X94.219 Y92.567 E2.09791
G1 X95.100 Y92.567 E2.11794
G1 X92.567 Y95.100 E2.19936
G1 X92.567 Y95.981 E2.21939
G1 X95.981 Y92.567 E2.32913
G1 X96.862 Y92.567 E2.34916
G1 X92.567 Y96.862 E2.48722
G1 X92.567 Y97.743 E2.50725
G1 X97.743 Y92.567 E2.67363
G1 X98.624 Y92.567 E2.69366
G1 X92.567 Y98.624 E2.88836
G1 X92.567 Y99.505 E2.90839
G1 X99.505 Y92.567 E3.13142
G1 X100.385 Y92.567 E3.15144
G1 X92.567 Y100.385 E3.40279
G1 X92.567 Y101.266 E3.42281
G1 X101.266 Y92.567 E3.70248
G1 X102.147 Y92.567 E3.72251
G1 X92.567 Y102.147 E4.03050
G1 X92.567 Y103.028 E4.05052
G1 X103.028 Y92.567 E4.38683
G1 X103.909 Y92.567 E4.40685
G1 X92.567 Y103.909 E4.77148
G1 X92.567 Y104.790 E4.79151
G1 X104.790 Y92.567 E5.18446
G1 X105.671 Y92.567 E5.20448
G1 X92.567 Y105.671 E5.62575
G1 X92.567 Y106.552 E5.64578
G1 X106.552 Y92.567 E6.09537
G1 X107.433 Y92.567 E6.11539
G1 X92.567 Y107.433 E6.59331
G1 X93.448 Y107.433 E6.61333
G1 X107.433 Y93.448 E7.06292
G1 X107.433 Y94.329 E7.08295
G1 X94.329 Y107.433 E7.50422
G1 X95.210 Y107.433 E7.52424
G1 X107.433 Y95.210 E7.91719
G1 X107.433 Y96.091 E7.93722
G1 X96.091 Y107.433 E8.30185
G1 X96.972 Y107.433 E8.32187
G1 X107.433 Y96.972 E8.65818
G1 X107.433 Y97.853 E8.67820
G1 X97.853 Y107.433 E8.98619
G1 X98.734 Y107.433 E9.00622
G1 X107.433 Y98.734 E9.28589
G1 X107.433 Y99.615 E9.30591
G1 X99.615 Y107.433 E9.55726
G1 X100.495 Y107.433 E9.57728
G1 X107.433 Y100.495 E9.80031
G1 X107.433 Y101.376 E9.82034
G1 X101.376 Y107.433 E10.01504
G1 X102.257 Y107.433 E10.03507
G1 X107.433 Y102.257 E10.20145
G1 X107.433 Y103.138 E10.22148
G1 X103.138 Y107.433 E10.35954
G1 X104.019 Y107.433 E10.37957
G1 X107.433 Y104.019 E10.48931
G1 X107.433 Y104.900 E10.50934
G1 X104.900 Y107.433 E10.59076
G1 X105.781 Y107.433 E10.61079
G1 X107.433 Y105.781 E10.66389
G1 X107.433 Y106.662 E10.68392
G1 X106.662 Y107.433 E10.70870
M104 S200 ; set temperature
G1 Z0.600 F7800.000
G1 X107.452 Y93.357 F7800.000
G1 F4618.94
G1 X106.643 Y92.548 E10.73595
G1 X105.762 Y92.548 E10.75691
G1 X107.452 Y94.238 E10.81380
G1 X107.452 Y95.119 E10.83476
G1 X104.881 Y92.548 E10.92129
G1 X104.000 Y92.548 E10.94225
G1 X107.452 Y96.000 E11.05843
G1 X107.452 Y96.881 E11.07939
G1 X103.119 Y92.548 E11.22521
G1 X102.238 Y92.548 E11.24617
G1 X107.452 Y97.762 E11.42163
G1 X107.452 Y98.643 E11.44259
G1 X101.357 Y92.548 E11.64769
G1 X100.476 Y92.548 E11.66865
G1 X107.452 Y99.524 E11.90339
G1 X107.452 Y100.405 E11.92436
G1 X99.595 Y92.548 E12.18874
G1 X98.714 Y92.548 E12.20970
G1 X107.452 Y101.286 E12.50373
G1 X107.452 Y102.167 E12.52469
G1 X97.833 Y92.548 E12.84836
G1 X96.952 Y92.548 E12.86932
G1 X107.452 Y103.048 E13.22264
G1 X107.452 Y103.929 E13.24360
G1 X96.071 Y92.548 E13.62655
G1 X95.190 Y92.548 E13.64752
G1 X107.452 Y104.810 E14.06011
G1 X107.452 Y105.690 E14.08107
G1 X94.310 Y92.548 E14.52332
G1 X93.429 Y92.548 E14.54428
G1 X107.452 Y106.571 E15.01616
G1 X107.452 Y107.452 E15.03712
G1 X92.548 Y92.548 E15.53865
G1 X92.548 Y93.429 E15.55961
G1 X106.571 Y107.452 E16.03149
G1 X105.690 Y107.452 E16.05245
G1 X92.548 Y94.310 E16.49469
G1 X92.548 Y95.190 E16.51565
G1 X104.810 Y107.452 E16.92825
G1 X103.929 Y107.452 E16.94921
G1 X92.548 Y96.071 E17.33217
G1 X92.548 Y96.952 E17.35313
G1 X103.048 Y107.452 E17.70644
G1 X102.167 Y107.452 E17.72740
G1 X92.548 Y97.833 E18.05107
G1 X92.548 Y98.714 E18.07203
G1 X101.286 Y107.452 E18.36606
G1 X100.405 Y107.452 E18.38702
G1 X92.548 Y99.595 E18.65141
G1 X92.548 Y100.476 E18.67237
G1 X99.524 Y107.452 E18.90711
G1 X98.643 Y107.452 E18.92807
G1 X92.548 Y101.357 E19.13318
G1 X92.548 Y102.238 E19.15414
G1 X97.762 Y107.452 E19.32960
G1 X96.881 Y107.452 E19.35056
G1 X92.548 Y103.119 E19.49638
G1 X92.548 Y104.000 E19.51734
G1 X96.000 Y107.452 E19.63351
G1 X95.119 Y107.452 E19.65447
G1 X92.548 Y104.881 E19.74100
G1 X92.548 Y105.762 E19.76197
G1 X94.238 Y107.452 E19.81886
G1 X93.357 Y107.452 E19.83982
G1 X92.548 Y106.643 E19.86706
G1 Z0.900 F7800.000
G1 X106.643 Y107.452 F7800.000
G1 F4618.94
G1 X107.452 Y106.643 E19.89431
G1 X107.452 Y105.762 E19.91527
G1 X105.762 Y107.452 E19.97216
G1 X104.881 Y107.452 E19.99312
G1 X107.452 Y104.881 E20.07966
G1 X107.452 Y104.000 E20.10062
G1 X104.000 Y107.452 E20.21679
G1 X103.119 Y107.452 E20.23775
G1 X107.452 Y103.119 E20.38357
G1 X107.452 Y102.238 E20.40453
G1 X102.238 Y107.452 E20.57999
G1 X101.357 Y107.452 E20.60095
G1 X107.452 Y101.357 E20.80605
G1 X107.452 Y100.476 E20.82701
G1 X100.476 Y107.452 E21.06176
G1 X99.595 Y107.452 E21.08272
G1 X107.452 Y99.595 E21.34711
G1 X107.452 Y98.714 E21.36807
G1 X98.714 Y107.452 E21.66210
G1 X97.833 Y107.452 E21.68306
G1 X107.452 Y97.833 E22.00673
G1 X107.452 Y96.952 E22.02769
G1 X96.952 Y107.452 E22.38100
G1 X96.071 Y107.452 E22.40196
G1 X107.452 Y96.071 E22.78492
G1 X107.452 Y95.190 E22.80588
G1 X95.190 Y107.452 E23.21848
G1 X94.310 Y107.452 E23.23944
G1 X107.452 Y94.310 E23.68168
G1 X107.452 Y93.429 E23.70264
G1 X93.429 Y107.452 E24.17452
G1 X92.548 Y107.452 E24.19548
G1 X107.452 Y92.548 E24.69701
G1 X106.571 Y92.548 E24.71797
G1 X92.548 Y106.571 E25.18985
G1 X92.548 Y105.690 E25.21081
G1 X105.690 Y92.548 E25.65305
G1 X104.810 Y92.548 E25.67401
G1 X92.548 Y104.810 E26.08661
G1 X92.548 Y103.929 E26.10757
G1 X103.929 Y92.548 E26.49053
G1 X103.048 Y92.548 E26.51149
G1 X92.548 Y103.048 E26.86480
G1 X92.548 Y102.167 E26.88576
G1 X102.167 Y92.548 E27.20944
G1 X101.286 Y92.548 E27.23040
G1 X92.548 Y101.286 E27.52443
G1 X92.548 Y100.405 E27.54539
G1 X100.405 Y92.548 E27.80977
G1 X99.524 Y92.548 E27.83073
G1 X92.548 Y99.524 E28.06548
G1 X92.548 Y98.643 E28.08644
G1 X98.643 Y92.548 E28.29154
G1 X97.762 Y92.548 E28.31250
G1 X92.548 Y97.762 E28.48796
G1 X92.548 Y96.881 E28.50892
G1 X96.881 Y92.548 E28.65474
G1 X96.000 Y92.548 E28.67570
G1 X92.548 Y96.000 E28.79187
G1 X92.548 Y95.119 E28.81283
G1 X95.119 Y92.548 E28.89937
G1 X94.238 Y92.548 E28.92033
G1 X92.548 Y94.238 E28.97722
G1 X92.548 Y93.357 E28.99818
G1 X93.357 Y92.548 E29.02543
M106 S255
G1 Z1.200 F7800.000
G1 X92.548 Y106.643 F7800.000
G1 F4618.94
G1 X93.357 Y107.452 E29.05268
G1 X94.238 Y107.452 E29.07364
G1 X92.548 Y105.762 E29.13053
G1 X92.548 Y104.881 E29.15149
G1 X95.119 Y107.452 E29.23802
G1 X96.000 Y107.452 E29.25898
G1 X92.548 Y104.000 E29.37516
G1 X92.548 Y103.119 E29.39612
G1 X96.881 Y107.452 E29.54193
G1 X97.762 Y107.452 E29.56289
G1 X92.548 Y102.238 E29.73835
G1 X92.548 Y101.357 E29.75931
G1 X98.643 Y107.452 E29.96442
G1 X99.524 Y107.452 E29.98538
G1 X92.548 Y100.476 E30.22012
G1 X92.548 Y99.595 E30.24108
G1 X100.405 Y107.452 E30.50547
G1 X101.286 Y107.452 E30.52643
G1 X92.548 Y98.714 E30.82046
G1 X92.548 Y97.833 E30.84142
G1 X102.167 Y107.452 E31.16509
G1 X103.048 Y107.452 E31.18605
G1 X92.548 Y96.952 E31.53937
G1 X92.548 Y96.071 E31.56033
G1 X103.929 Y107.452 E31.94328
G1 X104.810 Y107.452 E31.96424
G1 X92.548 Y95.190 E32.37684
G1 X92.548 Y94.310 E32.39780
G1 X105.690 Y107.452 E32.84004
G1 X106.571 Y107.452 E32.86100
G1 X92.548 Y93.429 E33.33289
G1 X92.548 Y92.548 E33.35385
G1 X107.452 Y107.452 E33.85537
G1 X107.452 Y106.571 E33.87633
G1 X93.429 Y92.548 E34.34822
G1 X94.310 Y92.548 E34.36918
G1 X107.452 Y105.690 E34.81142
G1 X107.452 Y104.810 E34.83238
G1 X95.190 Y92.548 E35.24498
G1 X96.071 Y92.548 E35.26594
G1 X107.452 Y103.929 E35.64889
G1 X107.452 Y103.048 E35.66985
G1 X96.952 Y92.548 E36.02317
G1 X97.833 Y92.548 E36.04413
G1 X107.452 Y102.167 E36.36780
G1 X107.452 Y101.286 E36.38876
G1 X98.714 Y92.548 E36.68279
G1 X99.595 Y92.548 E36.70375
G1 X107.452 Y100.405 E36.96814
G1 X107.452 Y99.524 E36.98910
G1 X100.476 Y92.548 E37.22384
G1 X101.357 Y92.548 E37.24480
G1 X107.452 Y98.643 E37.44990
G1 X107.452 Y97.762 E37.47087
G1 X102.238 Y92.548 E37.64633
G1 X103.119 Y92.548 E37.66729
G1 X107.452 Y96.881 E37.81310
G1 X107.452 Y96.000 E37.83406
G1 X104.000 Y92.548 E37.95024
G1 X104.881 Y92.548 E37.97120
G1 X107.452 Y95.119 E38.05773
G1 X107.452 Y94.238 E38.07869
G1 X105.762 Y92.548 E38.13558
G1 X106.643 Y92.548 E38.15654
G1 X107.452 Y93.357 E38.18379
G1 Z1.500 F7800.000
G1 X106.643 Y107.452 F7800.000
G1 F4618.94
G1 X107.452 Y106.643 E38.21104
G1 X107.452 Y105.762 E38.23200
G1 X105.762 Y107.452 E38.28889
G1 X104.881 Y107.452 E38.30985
G1 X107.452 Y104.881 E38.39638
G1 X107.452 Y104.000 E38.41735
G1 X104.000 Y107.452 E38.53352
G1 X103.119 Y107.452 E38.55448
G1 X107.452 Y103.119 E38.70030
G1 X107.452 Y102.238 E38.72126
G1 X102.238 Y107.452 E38.89672
G1 X101.357 Y107.452 E38.91768
G1 X107.452 Y101.357 E39.12278
G1 X107.452 Y100.476 E39.14374
G1 X100.476 Y107.452 E39.37849
G1 X99.595 Y107.452 E39.39945
G1 X107.452 Y99.595 E39.66383
G1 X107.452 Y98.714 E39.68479
G1 X98.714 Y107.452 E39.97882
G1 X97.833 Y107.452 E39.99978
G1 X107.452 Y97.833 E40.32346
G1 X107.452 Y96.952 E40.34442
G1 X96.952 Y107.452 E40.69773
G1 X96.071 Y107.452 E40.71869
G1 X107.452 Y96.071 E41.10165
G1 X107.452 Y95.190 E41.12261
G1 X95.190 Y107.452 E41.53521
G1 X94.310 Y107.452 E41.55617
G1 X107.452 Y94.310 E41.99841
G1 X107.452 Y93.429 E42.01937
G1 X93.429 Y107.452 E42.49125
G1 X92.548 Y107.452 E42.51221
G1 X107.452 Y92.548 E43.01374
G1 X106.571 Y92.548 E43.03470
G1 X92.548 Y106.571 E43.50658
G1 X92.548 Y105.690 E43.52754
G1 X105.690 Y92.548 E43.96978
G1 X104.810 Y92.548 E43.99074
G1 X92.548 Y104.810 E44.40334
G1 X92.548 Y103.929 E44.42430
G1 X103.929 Y92.548 E44.80726
G1 X103.048 Y92.548 E44.82822
G1 X92.548 Y103.048 E45.18153
G1 X92.548 Y102.167 E45.20249
G1 X102.167 Y92.548 E45.52616
G1 X101.286 Y92.548 E45.54712
G1 X92.548 Y101.286 E45.84115
G1 X92.548 Y100.405 E45.86211
G1 X100.405 Y92.548 E46.12650
G1 X99.524 Y92.548 E46.14746
G1 X92.548 Y99.524 E46.38221
G1 X92.548 Y98.643 E46.40317
G1 X98.643 Y92.548 E46.60827
G1 X97.762 Y92.548 E46.62923
G1 X92.548 Y97.762 E46.80469
G1 X92.548 Y96.881 E46.82565
G1 X96.881 Y92.548 E46.97147
G1 X96.000 Y92.548 E46.99243
G1 X92.548 Y96.000 E47.10860
G1 X92.548 Y95.119 E47.12956
G1 X95.119 Y92.548 E47.21610
G1 X94.238 Y92.548 E47.23706
G1 X92.548 Y94.238 E47.29395
G1 X92.548 Y93.357 E47.31491
G1 X93.357 Y92.548 E47.34215
G1 Z1.800 F7800.000
G1 X92.548 Y106.643 F7800.000
G1 F4618.94
G1 X93.357 Y107.452 E47.36940
G1 X94.238 Y107.452 E47.39036
G1 X92.548 Y105.762 E47.44725
G1 X92.548 Y104.881 E47.46821
G1 X95.119 Y107.452 E47.55475
G1 X96.000 Y107.452 E47.57571
G1 X92.548 Y104.000 E47.69188
G1 X92.548 Y103.119 E47.71284
G1 X96.881 Y107.452 E47.85866
G1 X97.762 Y107.452 E47.87962
G1 X92.548 Y102.238 E48.05508
G1 X92.548 Y101.357 E48.07604
G1 X98.643 Y107.452 E48.28114
G1 X99.524 Y107.452 E48.30210
G1 X92.548 Y100.476 E48.53685
G1 X92.548 Y99.595 E48.55781
G1 X100.405 Y107.452 E48.82220
G1 X101.286 Y107.452 E48.84316
G1 X92.548 Y98.714 E49.13719
G1 X92.548 Y97.833 E49.15815
G1 X102.167 Y107.452 E49.48182
G1 X103.048 Y107.452 E49.50278
G1 X92.548 Y96.952 E49.85609
G1 X92.548 Y96.071 E49.87705
G1 X103.929 Y107.452 E50.26001
G1 X104.810 Y107.452 E50.28097
G1 X92.548 Y95.190 E50.69357
G1 X92.548 Y94.310 E50.71453
G1 X105.690 Y107.452 E51.15677
G1 X106.571 Y107.452 E51.17773
G1 X92.548 Y93.429 E51.64961
G1 X92.548 Y92.548 E51.67057
G1 X107.452 Y107.452 E52.17210
G1 X107.452 Y106.571 E52.19306
G1 X93.429 Y92.548 E52.66494
G1 X94.310 Y92.548 E52.68590
G1 X107.452 Y105.690 E53.12815
G1 X107.452 Y104.810 E53.14911
G1 X95.190 Y92.548 E53.56170
G1 X96.071 Y92.548 E53.58266
G1 X107.452 Y103.929 E53.96562
G1 X107.452 Y103.048 E53.98658
G1 X96.952 Y92.548 E54.33990
G1 X97.833 Y92.548 E54.36086
G1 X107.452 Y102.167 E54.68453
G1 X107.452 Y101.286 E54.70549
G1 X98.714 Y92.548 E54.99952
G1 X99.595 Y92.548 E55.02048
G1 X107.452 Y100.405 E55.28486
G1 X107.452 Y99.524 E55.30582
G1 X100.476 Y92.548 E55.54057
G1 X101.357 Y92.548 E55.56153
G1 X107.452 Y98.643 E55.76663
G1 X107.452 Y97.762 E55.78759
G1 X102.238 Y92.548 E55.96305
G1 X103.119 Y92.548 E55.98401
G1 X107.452 Y96.881 E56.12983
G1 X107.452 Y96.000 E56.15079
G1 X104.000 Y92.548 E56.26697
G1 X104.881 Y92.548 E56.28793
G1 X107.452 Y95.119 E56.37446
G1 X107.452 Y94.238 E56.39542
G1 X105.762 Y92.548 E56.45231
G1 X106.643 Y92.548 E56.47327
G1 X107.452 Y93.357 E56.50052
G1 Z2.100 F7800.000
G1 X106.643 Y107.452 F7800.000
G1 F4618.94
G1 X107.452 Y106.643 E56.52777
G1 X107.452 Y105.762 E56.54873
G1 X105.762 Y107.452 E56.60562
G1 X104.881 Y107.452 E56.62658
G1 X107.452 Y104.881 E56.71311
G1 X107.452 Y104.000 E56.73407
G1 X104.000 Y107.452 E56.85025
G1 X103.119 Y107.452 E56.87121
G1 X107.452 Y103.119 E57.01703
G1 X107.452 Y102.238 E57.03799
G1 X102.238 Y107.452 E57.21345
G1 X101.357 Y107.452 E57.23441
G1 X107.452 Y101.357 E57.43951
G1 X107.452 Y100.476 E57.46047
G1 X100.476 Y107.452 E57.69521
G1 X99.595 Y107.452 E57.71617
G1 X107.452 Y99.595 E57.98056
G1 X107.452 Y98.714 E58.00152
G1 X98.714 Y107.452 E58.29555
G1 X97.833 Y107.452 E58.31651
G1 X107.452 Y97.833 E58.64018
G1 X107.452 Y96.952 E58.66114
G1 X96.952 Y107.452 E59.01446
G1 X96.071 Y107.452 E59.03542
G1 X107.452 Y96.071 E59.41837
G1 X107.452 Y95.190 E59.43933
G1 X95.190 Y107.452 E59.85193
G1 X94.310 Y107.452 E59.87289
G1 X107.452 Y94.310 E60.31513
G1 X107.452 Y93.429 E60.33609
G1 X93.429 Y107.452 E60.80798
G1 X92.548 Y107.452 E60.82894
G1 X107.452 Y92.548 E61.33046
G1 X106.571 Y92.548 E61.35142
G1 X92.548 Y106.571 E61.82331
G1 X92.548 Y105.690 E61.84427
G1 X105.690 Y92.548 E62.28651
G1 X104.810 Y92.548 E62.30747
G1 X92.548 Y104.810 E62.72007
G1 X92.548 Y103.929 E62.74103
G1 X103.929 Y92.548 E63.12398
G1 X103.048 Y92.548 E63.14494
G1 X92.548 Y103.048 E63.49826
G1 X92.548 Y102.167 E63.51922
G1 X102.167 Y92.548 E63.84289
G1 X101.286 Y92.548 E63.86385
G1 X92.548 Y101.286 E64.15788
G1 X92.548 Y100.405 E64.17884
G1 X100.405 Y92.548 E64.44323
G1 X99.524 Y92.548 E64.46419
G1 X92.548 Y99.524 E64.69893
G1 X92.548 Y98.643 E64.71989
G1 X98.643 Y92.548 E64.92500
G1 X97.762 Y92.548 E64.94596
G1 X92.548 Y97.762 E65.12142
G1 X92.548 Y96.881 E65.14238
G1 X96.881 Y92.548 E65.28819
G1 X96.000 Y92.548 E65.30915
G1 X92.548 Y96.000 E65.42533
G1 X92.548 Y95.119 E65.44629
G1 X95.119 Y92.548 E65.53282
G1 X94.238 Y92.548 E65.55378
G1 X92.548 Y94.238 E65.61067
G1 X92.548 Y93.357 E65.63163
G1 X93.357 Y92.548 E65.65888
G1 Z2.400 F7800.000
G1 X92.548 Y106.643 F7800.000
G1 F4618.94
G1 X93.357 Y107.452 E65.68613
G1 X94.238 Y107.452 E65.70709
G1 X92.548 Y105.762 E65.76398
G1 X92.548 Y104.881 E65.78494
G1 X95.119 Y107.452 E65.87148
G1 X96.000 Y107.452 E65.89244
G1 X92.548 Y104.000 E66.00861
G1 X92.548 Y103.119 E66.02957
G1 X96.881 Y107.452 E66.17539
G1 X97.762 Y107.452 E66.19635
G1 X92.548 Y102.238 E66.37181
G1 X92.548 Y101.357 E66.39277
G1 X98.643 Y107.452 E66.59787
G1 X99.524 Y107.452 E66.61883
G1 X92.548 Y100.476 E66.85358
G1 X92.548 Y99.595 E66.87454
G1 X100.405 Y107.452 E67.13892
G1 X101.286 Y107.452 E67.15988
G1 X92.548 Y98.714 E67.45391
G1 X92.548 Y97.833 E67.47487
G1 X102.167 Y107.452 E67.79855
G1 X103.048 Y107.452 E67.81951
G1 X92.548 Y96.952 E68.17282
G1 X92.548 Y96.071 E68.19378
G1 X103.929 Y107.452 E68.57674
G1 X104.810 Y107.452 E68.59770
G1 X92.548 Y95.190 E69.01030
G1 X92.548 Y94.310 E69.03126
G1 X105.690 Y107.452 E69.47350
G1 X106.571 Y107.452 E69.49446
G1 X92.548 Y93.429 E69.96634
G1 X92.548 Y92.548 E69.98730
G1 X107.452 Y107.452 E70.48883
G1 X107.452 Y106.571 E70.50979
G1 X93.429 Y92.548 E70.98167
G1 X94.310 Y92.548 E71.00263
G1 X107.452 Y105.690 E71.44487
G1 X107.452 Y104.810 E71.46583
G1 X95.190 Y92.548 E71.87843
G1 X96.071 Y92.548 E71.89939
G1 X107.452 Y103.929 E72.28235
G1 X107.452 Y103.048 E72.30331
G1 X96.952 Y92.548 E72.65662
G1 X97.833 Y92.548 E72.67758
G1 X107.452 Y102.167 E73.00125
G1 X107.452 Y101.286 E73.02222
G1 X98.714 Y92.548 E73.31624
G1 X99.595 Y92.548 E73.33720
G1 X107.452 Y100.405 E73.60159
G1 X107.452 Y99.524 E73.62255
G1 X100.476 Y92.548 E73.85730
G1 X101.357 Y92.548 E73.87826
G1 X107.452 Y98.643 E74.08336
G1 X107.452 Y97.762 E74.10432
G1 X102.238 Y92.548 E74.27978
G1 X103.119 Y92.548 E74.30074
G1 X107.452 Y96.881 E74.44656
G1 X107.452 Y96.000 E74.46752
G1 X104.000 Y92.548 E74.58369
G1 X104.881 Y92.548 E74.60465
G1 X107.452 Y95.119 E74.69119
G1 X107.452 Y94.238 E74.71215
G1 X105.762 Y92.548 E74.76904
G1 X106.643 Y92.548 E74.79000
G1 X107.452 Y93.357 E74.81725
G1 Z2.700 F7800.000
G1 X106.643 Y107.452 F7800.000
G1 F4618.94
G1 X107.452 Y106.643 E74.84450
G1 X107.452 Y105.762 E74.86546
G1 X105.762 Y107.452 E74.92235
G1 X104.881 Y107.452 E74.94331
G1 X107.452 Y104.881 E75.02984
G1 X107.452 Y104.000 E75.05080
G1 X104.000 Y107.452 E75.16698
G1 X103.119 Y107.452 E75.18794
G1 X107.452 Y103.119 E75.33375
G1 X107.452 Y102.238 E75.35471
G1 X102.238 Y107.452 E75.53017
G1 X101.357 Y107.452 E75.55113
G1 X107.452 Y101.357 E75.75624
G1 X107.452 Y100.476 E75.77720
G1 X100.476 Y107.452 E76.01194
G1 X99.595 Y107.452 E76.03290
G1 X107.452 Y99.595 E76.29729
G1 X107.452 Y98.714 E76.31825
G1 X98.714 Y107.452 E76.61228
G1 X97.833 Y107.452 E76.63324
G1 X107.452 Y97.833 E76.95691
G1 X107.452 Y96.952 E76.97787
G1 X96.952 Y107.452 E77.33118
G1 X96.071 Y107.452 E77.35214
G1 X107.452 Y96.071 E77.73510
G1 X107.452 Y95.190 E77.75606
G1 X95.190 Y107.452 E78.16866
G1 X94.310 Y107.452 E78.18962
G1 X107.452 Y94.310 E78.63186
G1 X107.452 Y93.429 E78.65282
G1 X93.429 Y107.452 E79.12471
G1 X92.548 Y107.452 E79.14567
G1 X107.452 Y92.548 E79.64719
G1 X106.571 Y92.548 E79.66815
G1 X92.548 Y106.571 E80.14003
G1 X92.548 Y105.690 E80.16099
G1 X105.690 Y92.548 E80.60324
G1 X104.810 Y92.548 E80.62420
G1 X92.548 Y104.810 E81.03679
G1 X92.548 Y103.929 E81.05776
G1 X103.929 Y92.548 E81.44071
G1 X103.048 Y92.548 E81.46167
G1 X92.548 Y103.048 E81.81499
G1 X92.548 Y102.167 E81.83595
G1 X102.167 Y92.548 E82.15962
G1 X101.286 Y92.548 E82.18058
G1 X92.548 Y101.286 E82.47461
G1 X92.548 Y100.405 E82.49557
G1 X100.405 Y92.548 E82.75995
G1 X99.524 Y92.548 E82.78092
G1 X92.548 Y99.524 E83.01566
G1 X92.548 Y98.643 E83.03662
G1 X98.643 Y92.548 E83.24172
G1 X97.762 Y92.548 E83.26268
G1 X92.548 Y97.762 E83.43814
G1 X92.548 Y96.881 E83.45910
G1 X96.881 Y92.548 E83.60492
G1 X96.000 Y92.548 E83.62588
G1 X92.548 Y96.000 E83.74206
G1 X92.548 Y95.119 E83.76302
G1 X95.119 Y92.548 E83.84955
G1 X94.238 Y92.548 E83.87051
G1 X92.548 Y94.238 E83.92740
G1 X92.548 Y93.357 E83.94836
G1 X93.357 Y92.548 E83.97561
G1 Z3.000 F7800.000
G1 X92.548 Y106.643 F7800.000
G1 F4618.94
G1 X93.357 Y107.452 E84.00286
G1 X94.238 Y107.452 E84.02382
G1 X92.548 Y105.762 E84.08071
G1 X92.548 Y104.881 E84.10167
G1 X95.119 Y107.452 E84.18820
G1 X96.000 Y107.452 E84.20916
G1 X92.548 Y104.000 E84.32534
G1 X92.548 Y103.119 E84.34630
G1 X96.881 Y107.452 E84.49212
G1 X97.762 Y107.452 E84.51308
G1 X92.548 Y102.238 E84.68854
G1 X92.548 Y101.357 E84.70950
G1 X98.643 Y107.452 E84.91460
G1 X99.524 Y107.452 E84.93556
G1 X92.548 Y100.476 E85.17030
G1 X92.548 Y99.595 E85.19126
G1 X100.405 Y107.452 E85.45565
G1 X101.286 Y107.452 E85.47661
G1 X92.548 Y98.714 E85.77064
G1 X92.548 Y97.833 E85.79160
G1 X102.167 Y107.452 E86.11527
G1 X103.048 Y107.452 E86.13623
G1 X92.548 Y96.952 E86.48955
G1 X92.548 Y96.071 E86.51051
G1 X103.929 Y107.452 E86.89346
G1 X104.810 Y107.452 E86.91443
G1 X92.548 Y95.190 E87.32702
G1 X92.548 Y94.310 E87.34798
G1 X105.690 Y107.452 E87.79023
G1 X106.571 Y107.452 E87.81119
G1 X92.548 Y93.429 E88.28307
G1 X92.548 Y92.548 E88.30403
G1 X107.452 Y107.452 E88.80556
G1 X107.452 Y106.571 E88.82652
G1 X93.429 Y92.548 E89.29840
G1 X94.310 Y92.548 E89.31936
G1 X107.452 Y105.690 E89.76160
G1 X107.452 Y104.810 E89.78256
G1 X95.190 Y92.548 E90.19516
G1 X96.071 Y92.548 E90.21612
G1 X107.452 Y103.929 E90.59908
G1 X107.452 Y103.048 E90.62004
G1 X96.952 Y92.548 E90.97335
G1 X97.833 Y92.548 E90.99431
G1 X107.452 Y102.167 E91.31798
G1 X107.452 Y101.286 E91.33894
G1 X98.714 Y92.548 E91.63297
G1 X99.595 Y92.548 E91.65393
G1 X107.452 Y100.405 E91.91832
G1 X107.452 Y99.524 E91.93928
G1 X100.476 Y92.548 E92.17402
G1 X101.357 Y92.548 E92.19498
G1 X107.452 Y98.643 E92.40009
G1 X107.452 Y97.762 E92.42105
G1 X102.238 Y92.548 E92.59651
G1 X103.119 Y92.548 E92.61747
G1 X107.452 Y96.881 E92.76329
G1 X107.452 Y96.000 E92.78425
G1 X104.000 Y92.548 E92.90042
G1 X104.881 Y92.548 E92.92138
G1 X107.452 Y95.119 E93.00791
G1 X107.452 Y94.238 E93.02887
G1 X105.762 Y92.548 E93.08577
G1 X106.643 Y92.548 E93.10673
G1 X107.452 Y93.357 E93.13397
G1 Z3.300 F7800.000
G1 X106.643 Y107.452 F7800.000
G1 F4618.94
G1 X107.452 Y106.643 E93.16122
G1 X107.452 Y105.762 E93.18218
G1 X105.762 Y107.452 E93.23907
G1 X104.881 Y107.452 E93.26003
G1 X107.452 Y104.881 E93.34657
G1 X107.452 Y104.000 E93.36753
G1 X104.000 Y107.452 E93.48370
G1 X103.119 Y107.452 E93.50466
G1 X107.452 Y103.119 E93.65048
G1 X107.452 Y102.238 E93.67144
G1 X102.238 Y107.452 E93.84690
G1 X101.357 Y107.452 E93.86786
G1 X107.452 Y101.357 E94.07296
G1 X107.452 Y100.476 E94.09392
G1 X100.476 Y107.452 E94.32867
G1 X99.595 Y107.452 E94.34963
G1 X107.452 Y99.595 E94.61402
G1 X107.452 Y98.714 E94.63498
G1 X98.714 Y107.452 E94.92901
G1 X97.833 Y107.452 E94.94997
G1 X107.452 Y97.833 E95.27364
G1 X107.452 Y96.952 E95.29460
G1 X96.952 Y107.452 E95.64791
G1 X96.071 Y107.452 E95.66887
G1 X107.452 Y96.071 E96.05183
G1 X107.452 Y95.190 E96.07279
G1 X95.190 Y107.452 E96.48539
G1 X94.310 Y107.452 E96.50635
G1 X107.452 Y94.310 E96.94859
G1 X107.452 Y93.429 E96.96955
G1 X93.429 Y107.452 E97.44143
G1 X92.548 Y107.452 E97.46239
G1 X107.452 Y92.548 E97.96392
G1 X106.571 Y92.548 E97.98488
G1 X92.548 Y106.571 E98.45676
G1 X92.548 Y105.690 E98.47772
G1 X105.690 Y92.548 E98.91996
G1 X104.810 Y92.548 E98.94092
G1 X92.548 Y104.810 E99.35352
G1 X92.548 Y103.929 E99.37448
G1 X103.929 Y92.548 E99.75744
G1 X103.048 Y92.548 E99.77840
G1 X92.548 Y103.048 E100.13171
G1 X92.548 Y102.167 E100.15267
G1 X102.167 Y92.548 E100.47635
G1 X101.286 Y92.548 E100.49731
G1 X92.548 Y101.286 E100.79133
G1 X92.548 Y100.405 E100.81230
G1 X100.405 Y92.548 E101.07668
G1 X99.524 Y92.548 E101.09764
G1 X92.548 Y99.524 E101.33239
G1 X92.548 Y98.643 E101.35335
G1 X98.643 Y92.548 E101.55845
G1 X97.762 Y92.548 E101.57941
G1 X92.548 Y97.762 E101.75487
G1 X92.548 Y96.881 E101.77583
G1 X96.881 Y92.548 E101.92165
G1 X96.000 Y92.548 E101.94261
G1 X92.548 Y96.000 E102.05878
G1 X92.548 Y95.119 E102.07974
G1 X95.119 Y92.548 E102.16628
G1 X94.238 Y92.548 E102.18724
G1 X92.548 Y94.238 E102.24413
G1 X92.548 Y93.357 E102.26509
G1 X93.357 Y92.548 E102.29234
G1 Z3.600 F7800.000
G1 X92.548 Y106.643 F7800.000
G1 F4618.94
G1 X93.357 Y107.452 E102.31959
G1 X94.238 Y107.452 E102.34055
G1 X92.548 Y105.762 E102.39744
G1 X92.548 Y104.881 E102.41840
G1 X95.119 Y107.452 E102.50493
G1 X96.000 Y107.452 E102.52589
G1 X92.548 Y104.000 E102.64207
G1 X92.548 Y103.119 E102.66303
G1 X96.881 Y107.452 E102.80884
G1 X97.762 Y107.452 E102.82980
G1 X92.548 Y102.238 E103.00526
G1 X92.548 Y101.357 E103.02622
G1 X98.643 Y107.452 E103.23133
G1 X99.524 Y107.452 E103.25229
G1 X92.548 Y100.476 E103.48703
G1 X92.548 Y99.595 E103.50799
G1 X100.405 Y107.452 E103.77238
G1 X101.286 Y107.452 E103.79334
G1 X92.548 Y98.714 E104.08737
G1 X92.548 Y97.833 E104.10833
G1 X102.167 Y107.452 E104.43200
G1 X103.048 Y107.452 E104.45296
G1 X92.548 Y96.952 E104.80628
G1 X92.548 Y96.071 E104.82724
G1 X103.929 Y107.452 E105.21019
G1 X104.810 Y107.452 E105.23115
G1 X92.548 Y95.190 E105.64375
G1 X92.548 Y94.310 E105.66471
G1 X105.690 Y107.452 E106.10695
G1 X106.571 Y107.452 E106.12791
G1 X92.548 Y93.429 E106.59980
G1 X92.548 Y92.548 E106.62076
G1 X107.452 Y107.452 E107.12228
G1 X107.452 Y106.571 E107.14324
G1 X93.429 Y92.548 E107.61513
G1 X94.310 Y92.548 E107.63609
G1 X107.452 Y105.690 E108.07833
G1 X107.452 Y104.810 E108.09929
G1 X95.190 Y92.548 E108.51189
G1 X96.071 Y92.548 E108.53285
G1 X107.452 Y103.929 E108.91580
G1 X107.452 Y103.048 E108.93676
G1 X96.952 Y92.548 E109.29008
G1 X97.833 Y92.548 E109.31104
G1 X107.452 Y102.167 E109.63471
G1 X107.452 Y101.286 E109.65567
G1 X98.714 Y92.548 E109.94970
G1 X99.595 Y92.548 E109.97066
G1 X107.452 Y100.405 E110.23505
G1 X107.452 Y99.524 E110.25601
G1 X100.476 Y92.548 E110.49075
G1 X101.357 Y92.548 E110.51171
G1 X107.452 Y98.643 E110.71681
G1 X107.452 Y97.762 E110.73777
G1 X102.238 Y92.548 E110.91323
G1 X103.119 Y92.548 E110.93420
G1 X107.452 Y96.881 E111.08001
G1 X107.452 Y96.000 E111.10097
G1 X104.000 Y92.548 E111.21715
G1 X104.881 Y92.548 E111.23811
G1 X107.452 Y95.119 E111.32464
G1 X107.452 Y94.238 E111.34560
G1 X105.762 Y92.548 E111.40249
G1 X106.643 Y92.548 E111.42345
G1 X107.452 Y93.357 E111.45070
G1 Z3.900 F7800.000
G1 X106.643 Y107.452 F7800.000
G1 F4618.94
G1 X107.452 Y106.643 E111.47795
G1 X107.452 Y105.762 E111.49891
G1 X105.762 Y107.452 E111.55580
G1 X104.881 Y107.452 E111.57676
G1 X107.452 Y104.881 E111.66329
G1 X107.452 Y104.000 E111.68425
G1 X104.000 Y107.452 E111.80043
G1 X103.119 Y107.452 E111.82139
G1 X107.452 Y103.119 E111.96721
G1 X107.452 Y102.238 E111.98817
G1 X102.238 Y107.452 E112.16363
G1 X101.357 Y107.452 E112.18459
G1 X107.452 Y101.357 E112.38969
G1 X107.452 Y100.476 E112.41065
G1 X100.476 Y107.452 E112.64540
G1 X99.595 Y107.452 E112.66636
G1 X107.452 Y99.595 E112.93074
G1 X107.452 Y98.714 E112.95170
G1 X98.714 Y107.452 E113.24573
G1 X97.833 Y107.452 E113.26669
G1 X107.452 Y97.833 E113.59037
G1 X107.452 Y96.952 E113.61133
G1 X96.952 Y107.452 E113.96464
G1 X96.071 Y107.452 E113.98560
G1 X107.452 Y96.071 E114.36856
G1 X107.452 Y95.190 E114.38952
G1 X95.190 Y107.452 E114.80212
G1 X94.310 Y107.452 E114.82308
G1 X107.452 Y94.310 E115.26532
G1 X107.452 Y93.429 E115.28628
G1 X93.429 Y107.452 E115.75816
G1 X92.548 Y107.452 E115.77912
G1 X107.452 Y92.548 E116.28065
G1 X106.571 Y92.548 E116.30161
G1 X92.548 Y106.571 E116.77349
G1 X92.548 Y105.690 E116.79445
G1 X105.690 Y92.548 E117.23669
G1 X104.810 Y92.548 E117.25765
G1 X92.548 Y104.810 E117.67025
G1 X92.548 Y103.929 E117.69121
G1 X103.929 Y92.548 E118.07417
G1 X103.048 Y92.548 E118.09513
G1 X92.548 Y103.048 E118.44844
G1 X92.548 Y102.167 E118.46940
G1 X102.167 Y92.548 E118.79307
G1 X101.286 Y92.548 E118.81403
G1 X92.548 Y101.286 E119.10806
G1 X92.548 Y100.405 E119.12902
G1 X100.405 Y92.548 E119.39341
G1 X99.524 Y92.548 E119.41437
G1 X92.548 Y99.524 E119.64911
G1 X92.548 Y98.643 E119.67008
G1 X98.643 Y92.548 E119.87518
G1 X97.762 Y92.548 E119.89614
G1 X92.548 Y97.762 E120.07160
G1 X92.548 Y96.881 E120.09256
G1 X96.881 Y92.548 E120.23838
G1 X96.000 Y92.548 E120.25934
G1 X92.548 Y96.000 E120.37551
G1 X92.548 Y95.119 E120.39647
G1 X95.119 Y92.548 E120.48300
G1 X94.238 Y92.548 E120.50397
G1 X92.548 Y94.238 E120.56086
G1 X92.548 Y93.357 E120.58182
G1 X93.357 Y92.548 E120.60906
G1 Z4.200 F7800.000
G1 X92.548 Y106.643 F7800.000
G1 F4618.94
G1 X93.357 Y107.452 E120.63631
G1 X94.238 Y107.452 E120.65727
G1 X92.548 Y105.762 E120.71416
G1 X92.548 Y104.881 E120.73512
G1 X95.119 Y107.452 E120.82166
G1 X96.000 Y107.452 E120.84262
G1 X92.548 Y104.000 E120.95879
G1 X92.548 Y103.119 E120.97975
G1 X96.881 Y107.452 E121.12557
G1 X97.762 Y107.452 E121.14653
G1 X92.548 Y102.238 E121.32199
G1 X92.548 Y101.357 E121.34295
G1 X98.643 Y107.452 E121.54805
G1 X99.524 Y107.452 E121.56901
G1 X92.548 Y100.476 E121.80376
G1 X92.548 Y99.595 E121.82472
G1 X100.405 Y107.452 E122.08911
G1 X101.286 Y107.452 E122.11007
G1 X92.548 Y98.714 E122.40410
G1 X92.548 Y97.833 E122.42506
G1 X102.167 Y107.452 E122.74873
G1 X103.048 Y107.452 E122.76969
G1 X92.548 Y96.952 E123.12300
G1 X92.548 Y96.071 E123.14396
G1 X103.929 Y107.452 E123.52692
G1 X104.810 Y107.452 E123.54788
G1 X92.548 Y95.190 E123.96048
G1 X92.548 Y94.310 E123.98144
G1 X105.690 Y107.452 E124.42368
G1 X106.571 Y107.452 E124.44464
G1 X92.548 Y93.429 E124.91652
G1 X92.548 Y92.548 E124.93748
G1 X107.452 Y107.452 E125.43901
G1 X107.452 Y106.571 E125.45997
G1 X93.429 Y92.548 E125.93185
G1 X94.310 Y92.548 E125.95281
G1 X107.452 Y105.690 E126.39505
G1 X107.452 Y104.810 E126.41602
G1 X95.190 Y92.548 E126.82861
G1 X96.071 Y92.548 E126.84957
G1 X107.452 Y103.929 E127.23253
G1 X107.452 Y103.048 E127.25349
G1 X96.952 Y92.548 E127.60681
G1 X97.833 Y92.548 E127.62777
G1 X107.452 Y102.167 E127.95144
G1 X107.452 Y101.286 E127.97240
G1 X98.714 Y92.548 E128.26643
G1 X99.595 Y92.548 E128.28739
G1 X107.452 Y100.405 E128.55177
G1 X107.452 Y99.524 E128.57273
G1 X100.476 Y92.548 E128.80748
G1 X101.357 Y92.548 E128.82844
G1 X107.452 Y98.643 E129.03354
G1 X107.452 Y97.762 E129.05450
G1 X102.238 Y92.548 E129.22996
G1 X103.119 Y92.548 E129.25092
G1 X107.452 Y96.881 E129.39674
G1 X107.452 Y96.000 E129.41770
G1 X104.000 Y92.548 E129.53388
G1 X104.881 Y92.548 E129.55484
G1 X107.452 Y95.119 E129.64137
G1 X107.452 Y94.238 E129.66233
G1 X105.762 Y92.548 E129.71922
G1 X106.643 Y92.548 E129.74018
G1 X107.452 Y93.357 E129.76743
G1 Z4.500 F7800.000
G1 X106.643 Y107.452 F7800.000
G1 F4618.94
G1 X107.452 Y106.643 E129.79468
G1 X107.452 Y105.762 E129.81564
G1 X105.762 Y107.452 E129.87253
G1 X104.881 Y107.452 E129.89349
G1 X107.452 Y104.881 E129.98002
G1 X107.452 Y104.000 E130.00098
G1 X104.000 Y107.452 E130.11716
G1 X103.119 Y107.452 E130.13812
G1 X107.452 Y103.119 E130.28394
G1 X107.452 Y102.238 E130.30490
G1 X102.238 Y107.452 E130.48036
G1 X101.357 Y107.452 E130.50132
G1 X107.452 Y101.357 E130.70642
G1 X107.452 Y100.476 E130.72738
G1 X100.476 Y107.452 E130.96212
G1 X99.595 Y107.452 E130.98308
G1 X107.452 Y99.595 E131.24747
G1 X107.452 Y98.714 E131.26843
G1 X98.714 Y107.452 E131.56246
G1 X97.833 Y107.452 E131.58342
G1 X107.452 Y97.833 E131.90709
G1 X107.452 Y96.952 E131.92805
G1 X96.952 Y107.452 E132.28137
G1 X96.071 Y107.452 E132.30233
G1 X107.452 Y96.071 E132.68528
G1 X107.452 Y95.190 E132.70624
G1 X95.190 Y107.452 E133.11884
G1 X94.310 Y107.452 E133.13980
G1 X107.452 Y94.310 E133.58204
G1 X107.452 Y93.429 E133.60300
G1 X93.429 Y107.452 E134.07489
G1 X92.548 Y107.452 E134.09585
G1 X107.452 Y92.548 E134.59737
G1 X106.571 Y92.548 E134.61833
G1 X92.548 Y106.571 E135.09022
G1 X92.548 Y105.690 E135.11118
G1 X105.690 Y92.548 E135.55342
G1 X104.810 Y92.548 E135.57438
G1 X92.548 Y104.810 E135.98698
G1 X92.548 Y103.929 E136.00794
G1 X103.929 Y92.548 E136.39089
G1 X103.048 Y92.548 E136.41185
G1 X92.548 Y103.048 E136.76517
G1 X92.548 Y102.167 E136.78613
G1 X102.167 Y92.548 E137.10980
G1 X101.286 Y92.548 E137.13076
G1 X92.548 Y101.286 E137.42479
G1 X92.548 Y100.405 E137.44575
G1 X100.405 Y92.548 E137.71014
G1 X99.524 Y92.548 E137.73110
G1 X92.548 Y99.524 E137.96584
G1 X92.548 Y98.643 E137.98680
G1 X98.643 Y92.548 E138.19190
G1 X97.762 Y92.548 E138.21287
G1 X92.548 Y97.762 E138.38833
G1 X92.548 Y96.881 E138.40929
G1 X96.881 Y92.548 E138.55510
G1 X96.000 Y92.548 E138.57606
G1 X92.548 Y96.000 E138.69224
G1 X92.548 Y95.119 E138.71320
G1 X95.119 Y92.548 E138.79973
G1 X94.238 Y92.548 E138.82069
G1 X92.548 Y94.238 E138.87758
G1 X92.548 Y93.357 E138.89854
G1 X93.357 Y92.548 E138.92579
G1 Z4.800 F7800.000
G1 X92.548 Y106.643 F7800.000
G1 F4618.94
G1 X93.357 Y107.452 E138.95304
G1 X94.238 Y107.452 E138.97400
G1 X92.548 Y105.762 E139.03089
G1 X92.548 Y104.881 E139.05185
G1 X95.119 Y107.452 E139.13838
G1 X96.000 Y107.452 E139.15935
G1 X92.548 Y104.000 E139.27552
G1 X92.548 Y103.119 E139.29648
G1 X96.881 Y107.452 E139.44230
G1 X97.762 Y107.452 E139.46326
G1 X92.548 Y102.238 E139.63872
G1 X92.548 Y101.357 E139.65968
G1 X98.643 Y107.452 E139.86478
G1 X99.524 Y107.452 E139.88574
G1 X92.548 Y100.476 E140.12049
G1 X92.548 Y99.595 E140.14145
G1 X100.405 Y107.452 E140.40583
G1 X101.286 Y107.452 E140.42679
G1 X92.548 Y98.714 E140.72082
G1 X92.548 Y97.833 E140.74178
G1 X102.167 Y107.452 E141.06546
G1 X103.048 Y107.452 E141.08642
G1 X92.548 Y96.952 E141.43973
G1 X92.548 Y96.071 E141.46069
G1 X103.929 Y107.452 E141.84365
G1 X104.810 Y107.452 E141.86461
G1 X92.548 Y95.190 E142.27721
G1 X92.548 Y94.310 E142.29817
G1 X105.690 Y107.452 E142.74041
G1 X106.571 Y107.452 E142.76137
G1 X92.548 Y93.429 E143.23325
G1 X92.548 Y92.548 E143.25421
G1 X107.452 Y107.452 E143.75574
G1 X107.452 Y106.571 E143.77670
G1 X93.429 Y92.548 E144.24858
G1 X94.310 Y92.548 E144.26954
G1 X107.452 Y105.690 E144.71178
G1 X107.452 Y104.810 E144.73274
G1 X95.190 Y92.548 E145.14534
G1 X96.071 Y92.548 E145.16630
G1 X107.452 Y103.929 E145.54926
G1 X107.452 Y103.048 E145.57022
G1 X96.952 Y92.548 E145.92353
G1 X97.833 Y92.548 E145.94449
G1 X107.452 Y102.167 E146.26816
G1 X107.452 Y101.286 E146.28912
G1 X98.714 Y92.548 E146.58315
G1 X99.595 Y92.548 E146.60411
G1 X107.452 Y100.405 E146.86850
G1 X107.452 Y99.524 E146.88946
G1 X100.476 Y92.548 E147.12421
G1 X101.357 Y92.548 E147.14517
G1 X107.452 Y98.643 E147.35027
G1 X107.452 Y97.762 E147.37123
G1 X102.238 Y92.548 E147.54669
G1 X103.119 Y92.548 E147.56765
G1 X107.452 Y96.881 E147.71347
G1 X107.452 Y96.000 E147.73443
G1 X104.000 Y92.548 E147.85060
G1 X104.881 Y92.548 E147.87156
G1 X107.452 Y95.119 E147.95810
G1 X107.452 Y94.238 E147.97906
G1 X105.762 Y92.548 E148.03595
G1 X106.643 Y92.548 E148.05691
G1 X107.452 Y93.357 E148.08416
G1 Z5.100 F7800.000
G1 X106.643 Y107.452 F7800.000
G1 F4618.94
G1 X107.452 Y106.643 E148.11141
G1 X107.452 Y105.762 E148.13237
G1 X105.762 Y107.452 E148.18926
G1 X104.881 Y107.452 E148.21022
G1 X107.452 Y104.881 E148.29675
G1 X107.452 Y104.000 E148.31771
G1 X104.000 Y107.452 E148.43389
G1 X103.119 Y107.452 E148.45485
G1 X107.452 Y103.119 E148.60066
G1 X107.452 Y102.238 E148.62162
G1 X102.238 Y107.452 E148.79708
G1 X101.357 Y107.452 E148.81804
G1 X107.452 Y101.357 E149.02315
G1 X107.452 Y100.476 E149.04411
G1 X100.476 Y107.452 E149.27885
G1 X99.595 Y107.452 E149.29981
G1 X107.452 Y99.595 E149.56420
G1 X107.452 Y98.714 E149.58516
G1 X98.714 Y107.452 E149.87919
G1 X97.833 Y107.452 E149.90015
G1 X107.452 Y97.833 E150.22382
G1 X107.452 Y96.952 E150.24478
G1 X96.952 Y107.452 E150.59809
G1 X96.071 Y107.452 E150.61905
G1 X107.452 Y96.071 E151.00201
G1 X107.452 Y95.190 E151.02297
G1 X95.190 Y107.452 E151.43557
G1 X94.310 Y107.452 E151.45653
G1 X107.452 Y94.310 E151.89877
G1 X107.452 Y93.429 E151.91973
G1 X93.429 Y107.452 E152.39161
G1 X92.548 Y107.452 E152.41258
G1 X107.452 Y92.548 E152.91410
G1 X106.571 Y92.548 E152.93506
G1 X92.548 Y106.571 E153.40694
G1 X92.548 Y105.690 E153.42790
G1 X105.690 Y92.548 E153.87015
G1 X104.810 Y92.548 E153.89111
G1 X92.548 Y104.810 E154.30370
G1 X92.548 Y103.929 E154.32466
G1 X103.929 Y92.548 E154.70762
G1 X103.048 Y92.548 E154.72858
G1 X92.548 Y103.048 E155.08190
G1 X92.548 Y102.167 E155.10286
G1 X102.167 Y92.548 E155.42653
G1 X101.286 Y92.548 E155.44749
G1 X92.548 Y101.286 E155.74152
G1 X92.548 Y100.405 E155.76248
G1 X100.405 Y92.548 E156.02686
G1 X99.524 Y92.548 E156.04782
G1 X92.548 Y99.524 E156.28257
G1 X92.548 Y98.643 E156.30353
G1 X98.643 Y92.548 E156.50863
G1 X97.762 Y92.548 E156.52959
G1 X92.548 Y97.762 E156.70505
G1 X92.548 Y96.881 E156.72601
G1 X96.881 Y92.548 E156.87183
G1 X96.000 Y92.548 E156.89279
G1 X92.548 Y96.000 E157.00897
G1 X92.548 Y95.119 E157.02993
G1 X95.119 Y92.548 E157.11646
G1 X94.238 Y92.548 E157.13742
G1 X92.548 Y94.238 E157.19431
G1 X92.548 Y93.357 E157.21527
G1 X93.357 Y92.548 E157.24252
G1 Z5.400 F7800.000
G1 X92.548 Y106.643 F7800.000
G1 F4618.94
G1 X93.357 Y107.452 E157.26977
G1 X94.238 Y107.452 E157.29073
G1 X92.548 Y105.762 E157.34762
G1 X92.548 Y104.881 E157.36858
G1 X95.119 Y107.452 E157.45511
G1 X96.000 Y107.452 E157.47607
G1 X92.548 Y104.000 E157.59225
G1 X92.548 Y103.119 E157.61321
G1 X96.881 Y107.452 E157.75903
G1 X97.762 Y107.452 E157.77999
G1 X92.548 Y102.238 E157.95545
G1 X92.548 Y101.357 E157.97641
G1 X98.643 Y107.452 E158.18151
G1 X99.524 Y107.452 E158.20247
G1 X92.548 Y100.476 E158.43721
G1 X92.548 Y99.595 E158.45817
G1 X100.405 Y107.452 E158.72256
G1 X101.286 Y107.452 E158.74352
G1 X92.548 Y98.714 E159.03755
G1 X92.548 Y97.833 E159.05851
G1 X102.167 Y107.452 E159.38218
G1 X103.048 Y107.452 E159.40314
G1 X92.548 Y96.952 E159.75646
G1 X92.548 Y96.071 E159.77742
G1 X103.929 Y107.452 E160.16037
G1 X104.810 Y107.452 E160.18133
G1 X92.548 Y95.190 E160.59393
G1 X92.548 Y94.310 E160.61489
G1 X105.690 Y107.452 E161.05714
G1 X106.571 Y107.452 E161.07810
G1 X92.548 Y93.429 E161.54998
G1 X92.548 Y92.548 E161.57094
G1 X107.452 Y107.452 E162.07246
G1 X107.452 Y106.571 E162.09343
G1 X93.429 Y92.548 E162.56531
G1 X94.310 Y92.548 E162.58627
G1 X107.452 Y105.690 E163.02851
G1 X107.452 Y104.810 E163.04947
G1 X95.190 Y92.548 E163.46207
G1 X96.071 Y92.548 E163.48303
G1 X107.452 Y103.929 E163.86599
G1 X107.452 Y103.048 E163.88695
G1 X96.952 Y92.548 E164.24026
G1 X97.833 Y92.548 E164.26122
G1 X107.452 Y102.167 E164.58489
G1 X107.452 Y101.286 E164.60585
G1 X98.714 Y92.548 E164.89988
G1 X99.595 Y92.548 E164.92084
G1 X107.452 Y100.405 E165.18523
G1 X107.452 Y99.524 E165.20619
G1 X100.476 Y92.548 E165.44093
G1 X101.357 Y92.548 E165.46189
G1 X107.452 Y98.643 E165.66700
G1 X107.452 Y97.762 E165.68796
G1 X102.238 Y92.548 E165.86342
G1 X103.119 Y92.548 E165.88438
G1 X107.452 Y96.881 E166.03020
G1 X107.452 Y96.000 E166.05116
G1 X104.000 Y92.548 E166.16733
G1 X104.881 Y92.548 E166.18829
G1 X107.452 Y95.119 E166.27482
G1 X107.452 Y94.238 E166.29578
G1 X105.762 Y92.548 E166.35268
G1 X106.643 Y92.548 E166.37364
G1 X107.452 Y93.357 E166.40088
G1 Z5.700 F7800.000
G1 X106.643 Y107.452 F7800.000
G1 F4618.94
G1 X107.452 Y106.643 E166.42813
G1 X107.452 Y105.762 E166.44909
G1 X105.762 Y107.452 E166.50598
G1 X104.881 Y107.452 E166.52694
G1 X107.452 Y104.881 E166.61348
G1 X107.452 Y104.000 E166.63444
G1 X104.000 Y107.452 E166.75061
G1 X103.119 Y107.452 E166.77157
G1 X107.452 Y103.119 E166.91739
G1 X107.452 Y102.238 E166.93835
G1 X102.238 Y107.452 E167.11381
G1 X101.357 Y107.452 E167.13477
G1 X107.452 Y101.357 E167.33987
G1 X107.452 Y100.476 E167.36083
G1 X100.476 Y107.452 E167.59558
G1 X99.595 Y107.452 E167.61654
G1 X107.452 Y99.595 E167.88093
G1 X107.452 Y98.714 E167.90189
G1 X98.714 Y107.452 E168.19592
G1 X97.833 Y107.452 E168.21688
G1 X107.452 Y97.833 E168.54055
G1 X107.452 Y96.952 E168.56151
G1 X96.952 Y107.452 E168.91482
G1 X96.071 Y107.452 E168.93578
G1 X107.452 Y96.071 E169.31874
G1 X107.452 Y95.190 E169.33970
G1 X95.190 Y107.452 E169.75230
G1 X94.310 Y107.452 E169.77326
G1 X107.452 Y94.310 E170.21550
G1 X107.452 Y93.429 E170.23646
G1 X93.429 Y107.452 E170.70834
G1 X92.548 Y107.452 E170.72930
G1 X107.452 Y92.548 E171.23083
G1 X106.571 Y92.548 E171.25179
G1 X92.548 Y106.571 E171.72367
G1 X92.548 Y105.690 E171.74463
G1 X105.690 Y92.548 E172.18687
G1 X104.810 Y92.548 E172.20783
G1 X92.548 Y104.810 E172.62043
G1 X92.548 Y103.929 E172.64139
G1 X103.929 Y92.548 E173.02435
G1 X103.048 Y92.548 E173.04531
G1 X92.548 Y103.048 E173.39862
G1 X92.548 Y102.167 E173.41958
G1 X102.167 Y92.548 E173.74326
G1 X101.286 Y92.548 E173.76422
G1 X92.548 Y101.286 E174.05824
G1 X92.548 Y100.405 E174.07921
G1 X100.405 Y92.548 E174.34359
G1 X99.524 Y92.548 E174.36455
G1 X92.548 Y99.524 E174.59930
G1 X92.548 Y98.643 E174.62026
G1 X98.643 Y92.548 E174.82536
G1 X97.762 Y92.548 E174.84632
G1 X92.548 Y97.762 E175.02178
G1 X92.548 Y96.881 E175.04274
G1 X96.881 Y92.548 E175.18856
G1 X96.000 Y92.548 E175.20952
G1 X92.548 Y96.000 E175.32569
G1 X92.548 Y95.119 E175.34665
G1 X95.119 Y92.548 E175.43319
G1 X94.238 Y92.548 E175.45415
G1 X92.548 Y94.238 E175.51104
G1 X92.548 Y93.357 E175.53200
G1 X93.357 Y92.548 E175.55925
G1 Z6.000 F7800.000
G1 X92.548 Y106.643 F7800.000
G1 F4618.94
G1 X93.357 Y107.452 E175.58650
G1 X94.238 Y107.452 E175.60746
G1 X92.548 Y105.762 E175.66435
G1 X92.548 Y104.881 E175.68531
G1 X95.119 Y107.452 E175.77184
G1 X96.000 Y107.452 E175.79280
G1 X92.548 Y104.000 E175.90898
G1 X92.548 Y103.119 E175.92994
G1 X96.881 Y107.452 E176.07575
G1 X97.762 Y107.452 E176.09671
G1 X92.548 Y102.238 E176.27217
G1 X92.548 Y101.357 E176.29313
G1 X98.643 Y107.452 E176.49824
G1 X99.524 Y107.452 E176.51920
G1 X92.548 Y100.476 E176.75394
G1 X92.548 Y99.595 E176.77490
G1 X100.405 Y107.452 E177.03929
G1 X101.286 Y107.452 E177.06025
G1 X92.548 Y98.714 E177.35428
G1 X92.548 Y97.833 E177.37524
G1 X102.167 Y107.452 E177.69891
G1 X103.048 Y107.452 E177.71987
G1 X92.548 Y96.952 E178.07319
G1 X92.548 Y96.071 E178.09415
G1 X103.929 Y107.452 E178.47710
G1 X104.810 Y107.452 E178.49806
G1 X92.548 Y95.190 E178.91066
G1 X92.548 Y94.310 E178.93162
G1 X105.690 Y107.452 E179.37386
G1 X106.571 Y107.452 E179.39482
G1 X92.548 Y93.429 E179.86671
G1 X92.548 Y92.548 E179.88767
G1 X107.452 Y107.452 E180.38919
G1 X107.452 Y106.571 E180.41015
G1 X93.429 Y92.548 E180.88204
G1 X94.310 Y92.548 E180.90300
G1 X107.452 Y105.690 E181.34524
G1 X107.452 Y104.810 E181.36620
G1 X95.190 Y92.548 E181.77880
G1 X96.071 Y92.548 E181.79976
G1 X107.452 Y103.929 E182.18271
G1 X107.452 Y103.048 E182.20367
G1 X96.952 Y92.548 E182.55699
G1 X97.833 Y92.548 E182.57795
G1 X107.452 Y102.167 E182.90162
G1 X107.452 Y101.286 E182.92258
G1 X98.714 Y92.548 E183.21661
G1 X99.595 Y92.548 E183.23757
G1 X107.452 Y100.405 E183.50196
G1 X107.452 Y99.524 E183.52292
G1 X100.476 Y92.548 E183.75766
G1 X101.357 Y92.548 E183.77862
G1 X107.452 Y98.643 E183.98372
G1 X107.452 Y97.762 E184.00468
G1 X102.238 Y92.548 E184.18014
G1 X103.119 Y92.548 E184.20110
G1 X107.452 Y96.881 E184.34692
G1 X107.452 Y96.000 E184.36788
G1 X104.000 Y92.548 E184.48406
G1 X104.881 Y92.548 E184.50502
G1 X107.452 Y95.119 E184.59155
G1 X107.452 Y94.238 E184.61251
G1 X105.762 Y92.548 E184.66940
G1 X106.643 Y92.548 E184.69036
G1 X107.452 Y93.357 E184.71761
G1 Z6.300 F7800.000
G1 X106.643 Y107.452 F7800.000
G1 F4618.94
G1 X107.452 Y106.643 E184.74486
G1 X107.452 Y105.762 E184.76582
G1 X105.762 Y107.452 E184.82271
G1 X104.881 Y107.452 E184.84367
G1 X107.452 Y104.881 E184.93020
G1 X107.452 Y104.000 E184.95116
G1 X104.000 Y107.452 E185.06734
G1 X103.119 Y107.452 E185.08830
G1 X107.452 Y103.119 E185.23412
G1 X107.452 Y102.238 E185.25508
G1 X102.238 Y107.452 E185.43054
G1 X101.357 Y107.452 E185.45150
G1 X107.452 Y101.357 E185.65660
G1 X107.452 Y100.476 E185.67756
G1 X100.476 Y107.452 E185.91231
G1 X99.595 Y107.452 E185.93327
G1 X107.452 Y99.595 E186.19765
G1 X107.452 Y98.714 E186.21861
G1 X98.714 Y107.452 E186.51264
G1 X97.833 Y107.452 E186.53360
G1 X107.452 Y97.833 E186.85727
G1 X107.452 Y96.952 E186.87824
G1 X96.952 Y107.452 E187.23155
G1 X96.071 Y107.452 E187.25251
G1 X107.452 Y96.071 E187.63547
G1 X107.452 Y95.190 E187.65643
G1 X95.190 Y107.452 E188.06902
G1 X94.310 Y107.452 E188.08999
G1 X107.452 Y94.310 E188.53223
G1 X107.452 Y93.429 E188.55319
G1 X93.429 Y107.452 E189.02507
G1 X92.548 Y107.452 E189.04603
G1 X107.452 Y92.548 E189.54756
G1 X106.571 Y92.548 E189.56852
G1 X92.548 Y106.571 E190.04040
G1 X92.548 Y105.690 E190.06136
G1 X105.690 Y92.548 E190.50360
G1 X104.810 Y92.548 E190.52456
G1 X92.548 Y104.810 E190.93716
G1 X92.548 Y103.929 E190.95812
G1 X103.929 Y92.548 E191.34108
G1 X103.048 Y92.548 E191.36204
G1 X92.548 Y103.048 E191.71535
G1 X92.548 Y102.167 E191.73631
G1 X102.167 Y92.548 E192.05998
G1 X101.286 Y92.548 E192.08094
G1 X92.548 Y101.286 E192.37497
G1 X92.548 Y100.405 E192.39593
G1 X100.405 Y92.548 E192.66032
G1 X99.524 Y92.548 E192.68128
G1 X92.548 Y99.524 E192.91602
G1 X92.548 Y98.643 E192.93698
G1 X98.643 Y92.548 E193.14209
G1 X97.762 Y92.548 E193.16305
G1 X92.548 Y97.762 E193.33851
G1 X92.548 Y96.881 E193.35947
G1 X96.881 Y92.548 E193.50529
G1 X96.000 Y92.548 E193.52625
G1 X92.548 Y96.000 E193.64242
G1 X92.548 Y95.119 E193.66338
G1 X95.119 Y92.548 E193.74991
G1 X94.238 Y92.548 E193.77087
G1 X92.548 Y94.238 E193.82777
G1 X92.548 Y93.357 E193.84873
G1 X93.357 Y92.548 E193.87597
G1 Z6.600 F7800.000
G1 X92.548 Y106.643 F7800.000
G1 F4618.94
G1 X93.357 Y107.452 E193.90322
G1 X94.238 Y107.452 E193.92418
G1 X92.548 Y105.762 E193.98107
G1 X92.548 Y104.881 E194.00203
G1 X95.119 Y107.452 E194.08857
G1 X96.000 Y107.452 E194.10953
G1 X92.548 Y104.000 E194.22570
G1 X92.548 Y103.119 E194.24666
G1 X96.881 Y107.452 E194.39248
G1 X97.762 Y107.452 E194.41344
G1 X92.548 Y102.238 E194.58890
G1 X92.548 Y101.357 E194.60986
G1 X98.643 Y107.452 E194.81496
G1 X99.524 Y107.452 E194.83592
G1 X92.548 Y100.476 E195.07067
G1 X92.548 Y99.595 E195.09163
G1 X100.405 Y107.452 E195.35602
G1 X101.286 Y107.452 E195.37698
G1 X92.548 Y98.714 E195.67101
G1 X92.548 Y97.833 E195.69197
G1 X102.167 Y107.452 E196.01564
G1 X103.048 Y107.452 E196.03660
G1 X92.548 Y96.952 E196.38991
G1 X92.548 Y96.071 E196.41087
G1 X103.929 Y107.452 E196.79383
G1 X104.810 Y107.452 E196.81479
G1 X92.548 Y95.190 E197.22739
G1 X92.548 Y94.310 E197.24835
G1 X105.690 Y107.452 E197.69059
G1 X106.571 Y107.452 E197.71155
G1 X92.548 Y93.429 E198.18343
G1 X92.548 Y92.548 E198.20439
G1 X107.452 Y107.452 E198.70592
G1 X107.452 Y106.571 E198.72688
G1 X93.429 Y92.548 E199.19876
G1 X94.310 Y92.548 E199.21972
G1 X107.452 Y105.690 E199.66196
G1 X107.452 Y104.810 E199.68292
G1 X95.190 Y92.548 E200.09552
G1 X96.071 Y92.548 E200.11648
G1 X107.452 Y103.929 E200.49944
G1 X107.452 Y103.048 E200.52040
G1 X96.952 Y92.548 E200.87371
G1 X97.833 Y92.548 E200.89468
G1 X107.452 Y102.167 E201.21835
G1 X107.452 Y101.286 E201.23931
G1 X98.714 Y92.548 E201.53334
G1 X99.595 Y92.548 E201.55430
G1 X107.452 Y100.405 E201.81868
G1 X107.452 Y99.524 E201.83964
G1 X100.476 Y92.548 E202.07439
G1 X101.357 Y92.548 E202.09535
G1 X107.452 Y98.643 E202.30045
G1 X107.452 Y97.762 E202.32141
G1 X102.238 Y92.548 E202.49687
G1 X103.119 Y92.548 E202.51783
G1 X107.452 Y96.881 E202.66365
G1 X107.452 Y96.000 E202.68461
G1 X104.000 Y92.548 E202.80079
G1 X104.881 Y92.548 E202.82175
G1 X107.452 Y95.119 E202.90828
G1 X107.452 Y94.238 E202.92924
G1 X105.762 Y92.548 E202.98613
G1 X106.643 Y92.548 E203.00709
G1 X107.452 Y93.357 E203.03434
G1 Z6.900 F7800.000
G1 X106.643 Y107.452 F7800.000
G1 F4618.94
G1 X107.452 Y106.643 E203.06159
G1 X107.452 Y105.762 E203.08255
G1 X105.762 Y107.452 E203.13944
G1 X104.881 Y107.452 E203.16040
G1 X107.452 Y104.881 E203.24693
G1 X107.452 Y104.000 E203.26789
G1 X104.000 Y107.452 E203.38407
G1 X103.119 Y107.452 E203.40503
G1 X107.452 Y103.119 E203.55085
G1 X107.452 Y102.238 E203.57181
G1 X102.238 Y107.452 E203.74727
G1 X101.357 Y107.452 E203.76823
G1 X107.452 Y101.357 E203.97333
G1 X107.452 Y100.476 E203.99429
G1 X100.476 Y107.452 E204.22903
G1 X99.595 Y107.452 E204.24999
G1 X107.452 Y99.595 E204.51438
G1 X107.452 Y98.714 E204.53534
G1 X98.714 Y107.452 E204.82937
G1 X97.833 Y107.452 E204.85033
G1 X107.452 Y97.833 E205.17400
G1 X107.452 Y96.952 E205.19496
G1 X96.952 Y107.452 E205.54828
G1 X96.071 Y107.452 E205.56924
G1 X107.452 Y96.071 E205.95219
G1 X107.452 Y95.190 E205.97315
G1 X95.190 Y107.452 E206.38575
G1 X94.310 Y107.452 E206.40671
G1 X107.452 Y94.310 E206.84895
G1 X107.452 Y93.429 E206.86991
G1 X93.429 Y107.452 E207.34180
G1 X92.548 Y107.452 E207.36276
G1 X107.452 Y92.548 E207.86428
G1 X106.571 Y92.548 E207.88524
G1 X92.548 Y106.571 E208.35713
G1 X92.548 Y105.690 E208.37809
G1 X105.690 Y92.548 E208.82033
G1 X104.810 Y92.548 E208.84129
G1 X92.548 Y104.810 E209.25389
G1 X92.548 Y103.929 E209.27485
G1 X103.929 Y92.548 E209.65780
G1 X103.048 Y92.548 E209.67876
G1 X92.548 Y103.048 E210.03208
G1 X92.548 Y102.167 E210.05304
G1 X102.167 Y92.548 E210.37671
G1 X101.286 Y92.548 E210.39767
G1 X92.548 Y101.286 E210.69170
G1 X92.548 Y100.405 E210.71266
G1 X100.405 Y92.548 E210.97705
G1 X99.524 Y92.548 E210.99801
G1 X92.548 Y99.524 E211.23275
G1 X92.548 Y98.643 E211.25371
G1 X98.643 Y92.548 E211.45881
G1 X97.762 Y92.548 E211.47977
G1 X92.548 Y97.762 E211.65524
G1 X92.548 Y96.881 E211.67620
G1 X96.881 Y92.548 E211.82201
G1 X96.000 Y92.548 E211.84297
G1 X92.548 Y96.000 E211.95915
G1 X92.548 Y95.119 E211.98011
G1 X95.119 Y92.548 E212.06664
G1 X94.238 Y92.548 E212.08760
G1 X92.548 Y94.238 E212.14449
G1 X92.548 Y93.357 E212.16545
G1 X93.357 Y92.548 E212.19270
G1 Z7.200 F7800.000
G1 X92.548 Y106.643 F7800.000
G1 F4618.94
G1 X93.357 Y107.452 E212.21995
G1 X94.238 Y107.452 E212.24091
G1 X92.548 Y105.762 E212.29780
G1 X92.548 Y104.881 E212.31876
G1 X95.119 Y107.452 E212.40529
G1 X96.000 Y107.452 E212.42625
G1 X92.548 Y104.000 E212.54243
G1 X92.548 Y103.119 E212.56339
G1 X96.881 Y107.452 E212.70921
G1 X97.762 Y107.452 E212.73017
G1 X92.548 Y102.238 E212.90563
G1 X92.548 Y101.357 E212.92659
G1 X98.643 Y107.452 E213.13169
G1 X99.524 Y107.452 E213.15265
G1 X92.548 Y100.476 E213.38740
G1 X92.548 Y99.595 E213.40836
G1 X100.405 Y107.452 E213.67274
G1 X101.286 Y107.452 E213.69370
G1 X92.548 Y98.714 E213.98773
G1 X92.548 Y97.833 E214.00869
G1 X102.167 Y107.452 E214.33237
G1 X103.048 Y107.452 E214.35333
G1 X92.548 Y96.952 E214.70664
G1 X92.548 Y96.071 E214.72760
G1 X103.929 Y107.452 E215.11056
G1 X104.810 Y107.452 E215.13152
G1 X92.548 Y95.190 E215.54412
G1 X92.548 Y94.310 E215.56508
G1 X105.690 Y107.452 E216.00732
G1 X106.571 Y107.452 E216.02828
G1 X92.548 Y93.429 E216.50016
G1 X92.548 Y92.548 E216.52112
G1 X107.452 Y107.452 E217.02265
G1 X107.452 Y106.571 E217.04361
G1 X93.429 Y92.548 E217.51549
G1 X94.310 Y92.548 E217.53645
G1 X107.452 Y105.690 E217.97869
G1 X107.452 Y104.810 E217.99965
G1 X95.190 Y92.548 E218.41225
G1 X96.071 Y92.548 E218.43321
G1 X107.452 Y103.929 E218.81617
G1 X107.452 Y103.048 E218.83713
G1 X96.952 Y92.548 E219.19044
G1 X97.833 Y92.548 E219.21140
G1 X107.452 Y102.167 E219.53507
G1 X107.452 Y101.286 E219.55603
G1 X98.714 Y92.548 E219.85006
G1 X99.595 Y92.548 E219.87102
G1 X107.452 Y100.405 E220.13541
G1 X107.452 Y99.524 E220.15637
G1 X100.476 Y92.548 E220.39112
G1 X101.357 Y92.548 E220.41208
G1 X107.452 Y98.643 E220.61718
G1 X107.452 Y97.762 E220.63814
G1 X102.238 Y92.548 E220.81360
G1 X103.119 Y92.548 E220.83456
G1 X107.452 Y96.881 E220.98038
G1 X107.452 Y96.000 E221.00134
G1 X104.000 Y92.548 E221.11751
G1 X104.881 Y92.548 E221.13847
G1 X107.452 Y95.119 E221.22501
G1 X107.452 Y94.238 E221.24597
G1 X105.762 Y92.548 E221.30286
G1 X106.643 Y92.548 E221.32382
G1 X107.452 Y93.357 E221.35107
G1 Z7.500 F7800.000
G1 X106.643 Y107.452 F7800.000
G1 F4618.94
G1 X107.452 Y106.643 E221.37831
G1 X107.452 Y105.762 E221.39928
G1 X105.762 Y107.452 E221.45617
G1 X104.881 Y107.452 E221.47713
G1 X107.452 Y104.881 E221.56366
G1 X107.452 Y104.000 E221.58462
G1 X104.000 Y107.452 E221.70079
G1 X103.119 Y107.452 E221.72176
G1 X107.452 Y103.119 E221.86757
G1 X107.452 Y102.238 E221.88853
G1 X102.238 Y107.452 E222.06399
G1 X101.357 Y107.452 E222.08495
G1 X107.452 Y101.357 E222.29006
G1 X107.452 Y100.476 E222.31102
G1 X100.476 Y107.452 E222.54576
G1 X99.595 Y107.452 E222.56672
G1 X107.452 Y99.595 E222.83111
G1 X107.452 Y98.714 E222.85207
G1 X98.714 Y107.452 E223.14610
G1 X97.833 Y107.452 E223.16706
G1 X107.452 Y97.833 E223.49073
G1 X107.452 Y96.952 E223.51169
G1 X96.952 Y107.452 E223.86500
G1 X96.071 Y107.452 E223.88596
G1 X107.452 Y96.071 E224.26892
G1 X107.452 Y95.190 E224.28988
G1 X95.190 Y107.452 E224.70248
G1 X94.310 Y107.452 E224.72344
G1 X107.452 Y94.310 E225.16568
G1 X107.452 Y93.429 E225.18664
G1 X93.429 Y107.452 E225.65852
G1 X92.548 Y107.452 E225.67948
G1 X107.452 Y92.548 E226.18101
G1 X106.571 Y92.548 E226.20197
G1 X92.548 Y106.571 E226.67385
G1 X92.548 Y105.690 E226.69481
G1 X105.690 Y92.548 E227.13706
G1 X104.810 Y92.548 E227.15802
G1 X92.548 Y104.810 E227.57061
G1 X92.548 Y103.929 E227.59157
G1 X103.929 Y92.548 E227.97453
G1 X103.048 Y92.548 E227.99549
G1 X92.548 Y103.048 E228.34881
G1 X92.548 Y102.167 E228.36977
G1 X102.167 Y92.548 E228.69344
G1 X101.286 Y92.548 E228.71440
G1 X92.548 Y101.286 E229.00843
G1 X92.548 Y100.405 E229.02939
G1 X100.405 Y92.548 E229.29377
G1 X99.524 Y92.548 E229.31473
G1 X92.548 Y99.524 E229.54948
G1 X92.548 Y98.643 E229.57044
G1 X98.643 Y92.548 E229.77554
G1 X97.762 Y92.548 E229.79650
G1 X92.548 Y97.762 E229.97196
G1 X92.548 Y96.881 E229.99292
G1 X96.881 Y92.548 E230.13874
G1 X96.000 Y92.548 E230.15970
G1 X92.548 Y96.000 E230.27588
G1 X92.548 Y95.119 E230.29684
G1 X95.119 Y92.548 E230.38337
G1 X94.238 Y92.548 E230.40433
G1 X92.548 Y94.238 E230.46122
G1 X92.548 Y93.357 E230.48218
G1 X93.357 Y92.548 E230.50943
G1 Z7.800 F7800.000
G1 X92.548 Y106.643 F7800.000
G1 F4618.94
G1 X93.357 Y107.452 E230.53668
G1 X94.238 Y107.452 E230.55764
G1 X92.548 Y105.762 E230.61453
G1 X92.548 Y104.881 E230.63549
G1 X95.119 Y107.452 E230.72202
G1 X96.000 Y107.452 E230.74298
G1 X92.548 Y104.000 E230.85916
G1 X92.548 Y103.119 E230.88012
G1 X96.881 Y107.452 E231.02594
G1 X97.762 Y107.452 E231.04690
G1 X92.548 Y102.238 E231.22236
G1 X92.548 Y101.357 E231.24332
G1 X98.643 Y107.452 E231.44842
G1 X99.524 Y107.452 E231.46938
G1 X92.548 Y100.476 E231.70412
G1 X92.548 Y99.595 E231.72508
G1 X100.405 Y107.452 E231.98947
G1 X101.286 Y107.452 E232.01043
G1 X92.548 Y98.714 E232.30446
G1 X92.548 Y97.833 E232.32542
G1 X102.167 Y107.452 E232.64909
G1 X103.048 Y107.452 E232.67005
G1 X92.548 Y96.952 E233.02337
G1 X92.548 Y96.071 E233.04433
G1 X103.929 Y107.452 E233.42728
G1 X104.810 Y107.452 E233.44824
G1 X92.548 Y95.190 E233.86084
G1 X92.548 Y94.310 E233.88180
G1 X105.690 Y107.452 E234.32404
G1 X106.571 Y107.452 E234.34501
G1 X92.548 Y93.429 E234.81689
G1 X92.548 Y92.548 E234.83785
G1 X107.452 Y107.452 E235.33937
G1 X107.452 Y106.571 E235.36033
G1 X93.429 Y92.548 E235.83222
G1 X94.310 Y92.548 E235.85318
G1 X107.452 Y105.690 E236.29542
G1 X107.452 Y104.810 E236.31638
G1 X95.190 Y92.548 E236.72898
G1 X96.071 Y92.548 E236.74994
G1 X107.452 Y103.929 E237.13290
G1 X107.452 Y103.048 E237.15386
G1 X96.952 Y92.548 E237.50717
G1 X97.833 Y92.548 E237.52813
G1 X107.452 Y102.167 E237.85180
G1 X107.452 Y101.286 E237.87276
G1 X98.714 Y92.548 E238.16679
G1 X99.595 Y92.548 E238.18775
G1 X107.452 Y100.405 E238.45214
G1 X107.452 Y99.524 E238.47310
G1 X100.476 Y92.548 E238.70784
G1 X101.357 Y92.548 E238.72880
G1 X107.452 Y98.643 E238.93391
G1 X107.452 Y97.762 E238.95487
G1 X102.238 Y92.548 E239.13033
G1 X103.119 Y92.548 E239.15129
G1 X107.452 Y96.881 E239.29710
G1 X107.452 Y96.000 E239.31807
G1 X104.000 Y92.548 E239.43424
G1 X104.881 Y92.548 E239.45520
G1 X107.452 Y95.119 E239.54173
G1 X107.452 Y94.238 E239.56269
G1 X105.762 Y92.548 E239.61959
G1 X106.643 Y92.548 E239.64055
G1 X107.452 Y93.357 E239.66779
G1 Z8.100 F7800.000
G1 E237.66779 F2400.00000
G92 E0
G1 X106.643 Y107.452 F7800.000
G1 E2.00000 F2400.00000
G1 F4618.94
G1 X107.452 Y106.643 E2.02725
G1 X107.452 Y105.762 E2.04821
G1 X105.762 Y107.452 E2.10510
G1 X104.881 Y107.452 E2.12606
G1 X107.452 Y104.881 E2.21259
G1 X107.452 Y104.000 E2.23355
G1 X104.000 Y107.452 E2.34973
G1 X103.119 Y107.452 E2.37069
G1 X107.452 Y103.119 E2.51651
G1 X107.452 Y102.238 E2.53747
G1 X102.238 Y107.452 E2.71293
G1 X101.357 Y107.452 E2.73389
G1 X107.452 Y101.357 E2.93899
G1 X107.452 Y100.476 E2.95995
G1 X100.476 Y107.452 E3.19469
G1 X99.595 Y107.452 E3.21565
G1 X107.452 Y99.595 E3.48004
G1 X107.452 Y98.714 E3.50100
G1 X98.714 Y107.452 E3.79503
G1 X97.833 Y107.452 E3.81599
G1 X107.452 Y97.833 E4.13966
G1 X107.452 Y96.952 E4.16062
G1 X96.952 Y107.452 E4.51394
G1 X96.071 Y107.452 E4.53490
G1 X107.452 Y96.071 E4.91785
G1 X107.452 Y95.190 E4.93881
G1 X95.190 Y107.452 E5.35141
G1 X94.310 Y107.452 E5.37237
G1 X107.452 Y94.310 E5.81461
G1 X107.452 Y93.429 E5.83557
G1 X93.429 Y107.452 E6.30746
G1 X92.548 Y107.452 E6.32842
G1 X107.452 Y92.548 E6.82994
G1 X106.571 Y92.548 E6.85090
G1 X92.548 Y106.571 E7.32279
G1 X92.548 Y105.690 E7.34375
G1 X105.690 Y92.548 E7.78599
G1 X104.810 Y92.548 E7.80695
G1 X92.548 Y104.810 E8.21955
G1 X92.548 Y103.929 E8.24051
G1 X103.929 Y92.548 E8.62346
G1 X103.048 Y92.548 E8.64442
G1 X92.548 Y103.048 E8.99774
G1 X92.548 Y102.167 E9.01870
G1 X102.167 Y92.548 E9.34237
G1 X101.286 Y92.548 E9.36333
G1 X92.548 Y101.286 E9.65736
G1 X92.548 Y100.405 E9.67832
G1 X100.405 Y92.548 E9.94271
G1 X99.524 Y92.548 E9.96367
G1 X92.548 Y99.524 E10.19841
G1 X92.548 Y98.643 E10.21937
G1 X98.643 Y92.548 E10.42448
G1 X97.762 Y92.548 E10.44544
G1 X92.548 Y97.762 E10.62090
G1 X92.548 Y96.881 E10.64186
G1 X96.881 Y92.548 E10.78767
G1 X96.000 Y92.548 E10.80863
G1 X92.548 Y96.000 E10.92481
G1 X92.548 Y95.119 E10.94577
G1 X95.119 Y92.548 E11.03230
G1 X94.238 Y92.548 E11.05326
G1 X92.548 Y94.238 E11.11015
G1 X92.548 Y93.357 E11.13111
G1 X93.357 Y92.548 E11.15836
G1 E9.15836 F2400.00000
G92 E0
M107
; Filament-specific end gcode 
;END gcode for filament

M104 S0 ; turn off temperature
G28 X0  ; home X axis
M84     ; disable motors

M140 S0 ; set bed temperature
; filament used = 246.8mm (1.7cm3)
; total filament cost = 0.0

; avoid_crossing_perimeters = 0
; bed_shape = 0x0,200x0,200x200,0x200
; bed_temperature = 0
; before_layer_gcode = 
; between_objects_gcode = 
; bridge_acceleration = 0
; bridge_fan_speed = 100
; brim_connections_width = 0
; brim_width = 0
; complete_objects = 0
; cooling = 1
; default_acceleration = 0
; disable_fan_first_layers = 3
; duplicate_distance = 6
; end_filament_gcode = "; Filament-specific end gcode \n;END gcode for filament\n"
; end_gcode = M104 S0 ; turn off temperature\nG28 X0  ; home X axis\nM84     ; disable motors\n
; extruder_clearance_height = 20
; extruder_clearance_radius = 20
; extruder_offset = 0x0
; extrusion_axis = E
; extrusion_multiplier = 1
; fan_always_on = 0
; fan_below_layer_time = 60
; filament_colour = #FFFFFF
; filament_cost = 0
; filament_density = 0
; filament_diameter = 3
; filament_max_volumetric_speed = 0
; filament_notes = ""
; first_layer_acceleration = 0
; first_layer_bed_temperature = 0
; first_layer_extrusion_width = 200%
; first_layer_speed = 30
; first_layer_temperature = 205
; gcode_arcs = 0
; gcode_comments = 0
; gcode_flavor = reprap
; has_heatbed = 1
; infill_acceleration = 0
; infill_first = 0
; interior_brim_width = 0
; layer_gcode = 
; max_fan_speed = 100
; max_layer_height = 0.3
; max_print_speed = 80
; max_volumetric_speed = 0
; min_fan_speed = 35
; min_layer_height = 0.15
; min_print_speed = 10
; min_skirt_length = 0
; notes = 
; nozzle_diameter = 0.5
; only_retract_when_crossing_perimeters = 1
; ooze_prevention = 0
; output_filename_format = [input_filename_base].gcode
; perimeter_acceleration = 0
; post_process = 
; pressure_advance = 0
; printer_notes = 
; resolution = 0
; retract_before_travel = 2
; retract_layer_change = 0
; retract_length = 2
; retract_length_toolchange = 10
; retract_lift = 0
; retract_lift_above = 0
; retract_lift_below = 0
; retract_restart_extra = 0
; retract_restart_extra_toolchange = 0
; retract_speed = 40
; skirt_distance = 6
; skirt_height = 1
; skirts = 0
; slowdown_below_layer_time = 5
; spiral_vase = 0
; standby_temperature_delta = -5
; start_filament_gcode = "; Filament gcode\n"
; start_gcode = G28 ; home all axes\nG1 Z5 F5000 ; lift nozzle\n
; temperature = 200
; threads = 8
; toolchange_gcode = 
; travel_speed = 130
; use_firmware_retraction = 0
; use_relative_e_distances = 0
; use_set_and_wait_bed = 0
; use_set_and_wait_extruder = 0
; use_volumetric_e = 0
; vibration_limit = 0
; wipe = 0
; z_offset = 0
; z_steps_per_mm = 0
; adaptive_slicing = 0
; adaptive_slicing_quality = 75%
; dont_support_bridges = 1
; extrusion_width = 0
; first_layer_height = 0.3
; infill_only_where_needed = 0
; interface_shells = 0
; layer_height = 0.3
; match_horizontal_surfaces = 0
; raft_layers = 0
; regions_overlap = 0
; seam_position = aligned
; sequential_print_priority = 0
; support_material = 0
; support_material_angle = 0
; support_material_buildplate_only = 0
; support_material_contact_distance = 0.2
; support_material_enforce_layers = 0
; support_material_extruder = 1
; support_material_extrusion_width = 0
; support_material_interface_extruder = 1
; support_material_interface_extrusion_width = 0
; support_material_interface_layers = 3
; support_material_interface_spacing = 0
; support_material_interface_speed = 100%
; support_material_max_layers = 0
; support_material_pattern = pillars
; support_material_spacing = 2.5
; support_material_speed = 60
; support_material_threshold = 60%
; xy_size_compensation = 0
; bottom_infill_pattern = rectilinear
; bottom_solid_layers = 0
; bridge_flow_ratio = 1
; bridge_speed = 60
; external_perimeter_extrusion_width = 0
; external_perimeter_speed = 50%
; external_perimeters_first = 0
; extra_perimeters = 1
; fill_angle = 45
; fill_density = 90%
; fill_gaps = 1
; fill_pattern = rectilinear
; gap_fill_speed = 20
; infill_every_layers = 1
; infill_extruder = 1
; infill_extrusion_width = 0
; infill_overlap = 55%
; infill_speed = 80
; overhangs = 1
; perimeter_extruder = 1
; perimeter_extrusion_width = 0
; perimeter_speed = 60
; perimeters = 0
; small_perimeter_speed = 15
; solid_infill_below_area = 70
; solid_infill_every_layers = 0
; solid_infill_extruder = 1
; solid_infill_extrusion_width = 0
; solid_infill_speed = 20
; thin_walls = 1
; top_infill_extrusion_width = 0
; top_infill_pattern = rectilinear
; top_solid_infill_speed = 15
; top_solid_layers = 0
