; generated by Slic3r 1.3.0 on 2020-09-29 at 14:45:51

; external perimeters extrusion width = 0.55mm (4.37mm^3/s)
; perimeters extrusion width = 0.70mm (11.44mm^3/s)
; infill extrusion width = 0.63mm (13.45mm^3/s)
; solid infill extrusion width = 0.70mm (3.81mm^3/s)
; top infill extrusion width = 0.70mm (2.86mm^3/s)

M107
M104 S205 ; set temperature
G28 ; home all axes
G1 Z5 F5000 ; lift nozzle

; Filament gcode

M109 S205 ; set temperature and wait for it to be reached
G21 ; set units to millimeters
G90 ; use absolute coordinates
M82 ; use absolute distances for extrusion
G92 E0
G1 Z0.300 F7800.000
G1 E-2.00000 F2400.00000
G92 E0
G1 X92.994 Y92.567 F7800.000
G1 E2.00000 F2400.00000
G1 F1800
G1 X92.567 Y92.994 E2.01371
G1 X92.567 Y93.796 E2.03195
G1 X93.796 Y92.567 E2.07145
G1 X94.598 Y92.567 E2.08968
G1 X92.567 Y94.598 E2.15497
G1 X92.567 Y95.400 E2.17321
G1 X95.400 Y92.567 E2.26429
G1 X96.202 Y92.567 E2.28252
G1 X92.567 Y96.202 E2.39939
G1 X92.567 Y97.005 E2.41762
G1 X97.005 Y92.567 E2.56028
G1 X97.807 Y92.567 E2.57852
G1 X92.567 Y97.807 E2.74696
G1 X92.567 Y98.609 E2.76520
G1 X98.609 Y92.567 E2.95943
G1 X99.411 Y92.567 E2.97767
G1 X92.567 Y99.411 E3.19769
G1 X92.567 Y100.213 E3.21592
G1 X100.213 Y92.567 E3.46174
G1 X101.015 Y92.567 E3.47997
G1 X92.567 Y101.015 E3.75157
G1 X92.567 Y101.818 E3.76981
G1 X101.818 Y92.567 E4.06720
G1 X102.620 Y92.567 E4.08543
G1 X92.567 Y102.620 E4.40861
G1 X92.567 Y103.422 E4.42684
G1 X103.422 Y92.567 E4.77581
G1 X104.224 Y92.567 E4.79405
G1 X92.567 Y104.224 E5.16880
G1 X92.567 Y105.026 E5.18704
G1 X105.026 Y92.567 E5.58758
G1 X105.829 Y92.567 E5.60582
G1 X92.567 Y105.829 E6.03215
G1 X92.567 Y106.631 E6.05039
G1 X106.631 Y92.567 E6.50251
G1 X107.433 Y92.567 E6.52075
G1 X92.567 Y107.433 E6.99866
G1 X93.369 Y107.433 E7.01689
G1 X107.433 Y93.369 E7.46901
G1 X107.433 Y94.172 E7.48725
G1 X94.172 Y107.433 E7.91358
G1 X94.974 Y107.433 E7.93181
G1 X107.433 Y94.974 E8.33236
G1 X107.433 Y95.776 E8.35059
G1 X95.776 Y107.433 E8.72535
G1 X96.578 Y107.433 E8.74358
G1 X107.433 Y96.578 E9.09255
G1 X107.433 Y97.380 E9.11078
G1 X97.380 Y107.433 E9.43396
G1 X98.182 Y107.433 E9.45220
G1 X107.433 Y98.182 E9.74959
G1 X107.433 Y98.985 E9.76782
G1 X98.985 Y107.433 E10.03942
G1 X99.787 Y107.433 E10.05766
G1 X107.433 Y99.787 E10.30347
G1 X107.433 Y100.589 E10.32170
G1 X100.589 Y107.433 E10.54172
G1 X101.391 Y107.433 E10.55996
G1 X107.433 Y101.391 E10.75419
G1 X107.433 Y102.193 E10.77243
G1 X102.193 Y107.433 E10.94087
G1 X102.995 Y107.433 E10.95911
G1 X107.433 Y102.995 E11.10176
G1 X107.433 Y103.798 E11.12000
G1 X103.798 Y107.433 E11.23686
G1 X104.600 Y107.433 E11.25510
G1 X107.433 Y104.600 E11.34617
G1 X107.433 Y105.402 E11.36441
G1 X105.402 Y107.433 E11.42970
G1 X106.204 Y107.433 E11.44793
G1 X107.433 Y106.204 E11.48743
G1 X107.433 Y107.006 E11.50567
G1 X107.006 Y107.433 E11.51938
M104 S200 ; set temperature
G1 Z0.600 F7800.000
G1 X107.452 Y93.013 F7800.000
G1 F4800
G1 X106.987 Y92.548 E11.53504
G1 X106.185 Y92.548 E11.55412
G1 X107.452 Y93.815 E11.59678
G1 X107.452 Y94.617 E11.61586
G1 X105.383 Y92.548 E11.68551
G1 X104.580 Y92.548 E11.70459
G1 X107.452 Y95.420 E11.80123
G1 X107.452 Y96.222 E11.82032
G1 X103.778 Y92.548 E11.94395
G1 X102.976 Y92.548 E11.96303
G1 X107.452 Y97.024 E12.11366
G1 X107.452 Y97.826 E12.13274
G1 X102.174 Y92.548 E12.31036
G1 X101.372 Y92.548 E12.32944
G1 X107.452 Y98.628 E12.53405
G1 X107.452 Y99.430 E12.55314
G1 X100.570 Y92.548 E12.78474
G1 X99.767 Y92.548 E12.80382
G1 X107.452 Y100.233 E13.06242
G1 X107.452 Y101.035 E13.08150
G1 X98.965 Y92.548 E13.36709
G1 X98.163 Y92.548 E13.38617
G1 X107.452 Y101.837 E13.69875
G1 X107.452 Y102.639 E13.71784
G1 X97.361 Y92.548 E14.05741
G1 X96.559 Y92.548 E14.07649
G1 X107.452 Y103.441 E14.44306
G1 X107.452 Y104.244 E14.46214
G1 X95.756 Y92.548 E14.85570
G1 X94.954 Y92.548 E14.87478
G1 X107.452 Y105.046 E15.29533
G1 X107.452 Y105.848 E15.31442
G1 X94.152 Y92.548 E15.76196
G1 X93.350 Y92.548 E15.78104
G1 X107.452 Y106.650 E16.25558
G1 X107.452 Y107.452 E16.27466
G1 X92.548 Y92.548 E16.77619
G1 X92.548 Y93.350 E16.79527
G1 X106.650 Y107.452 E17.26981
G1 X105.848 Y107.452 E17.28890
G1 X92.548 Y94.152 E17.73644
G1 X92.548 Y94.954 E17.75552
G1 X105.046 Y107.452 E18.17607
G1 X104.244 Y107.452 E18.19516
G1 X92.548 Y95.756 E18.58871
G1 X92.548 Y96.559 E18.60780
G1 X103.441 Y107.452 E18.97436
G1 X102.639 Y107.452 E18.99345
G1 X92.548 Y97.361 E19.33302
G1 X92.548 Y98.163 E19.35211
G1 X101.837 Y107.452 E19.66469
G1 X101.035 Y107.452 E19.68377
G1 X92.548 Y98.965 E19.96936
G1 X92.548 Y99.767 E19.98845
G1 X100.233 Y107.452 E20.24704
G1 X99.431 Y107.452 E20.26613
G1 X92.548 Y100.569 E20.49773
G1 X92.548 Y101.372 E20.51681
G1 X98.628 Y107.452 E20.72142
G1 X97.826 Y107.452 E20.74051
G1 X92.548 Y102.174 E20.91813
G1 X92.548 Y102.976 E20.93721
G1 X97.024 Y107.452 E21.08783
G1 X96.222 Y107.452 E21.10692
G1 X92.548 Y103.778 E21.23055
G1 X92.548 Y104.580 E21.24964
G1 X95.420 Y107.452 E21.34628
G1 X94.617 Y107.452 E21.36536
G1 X92.548 Y105.383 E21.43501
G1 X92.548 Y106.185 E21.45410
G1 X93.815 Y107.452 E21.49675
G1 X93.013 Y107.452 E21.51584
G1 X92.548 Y106.987 E21.53150
G1 Z0.900 F7800.000
G1 X93.013 Y92.548 F7800.000
G1 F4800
G1 X92.548 Y93.013 E21.54716
G1 X92.548 Y93.815 E21.56624
G1 X93.815 Y92.548 E21.60890
G1 X94.617 Y92.548 E21.62798
G1 X92.548 Y94.617 E21.69763
G1 X92.548 Y95.420 E21.71671
G1 X95.420 Y92.548 E21.81335
G1 X96.222 Y92.548 E21.83244
G1 X92.548 Y96.222 E21.95607
G1 X92.548 Y97.024 E21.97516
G1 X97.024 Y92.548 E22.12578
G1 X97.826 Y92.548 E22.14487
G1 X92.548 Y97.826 E22.32248
G1 X92.548 Y98.628 E22.34157
G1 X98.628 Y92.548 E22.54618
G1 X99.431 Y92.548 E22.56526
G1 X92.548 Y99.431 E22.79686
G1 X92.548 Y100.233 E22.81595
G1 X100.233 Y92.548 E23.07454
G1 X101.035 Y92.548 E23.09363
G1 X92.548 Y101.035 E23.37922
G1 X92.548 Y101.837 E23.39830
G1 X101.837 Y92.548 E23.71088
G1 X102.639 Y92.548 E23.72997
G1 X92.548 Y102.639 E24.06954
G1 X92.548 Y103.441 E24.08863
G1 X103.441 Y92.548 E24.45519
G1 X104.244 Y92.548 E24.47428
G1 X92.548 Y104.244 E24.86783
G1 X92.548 Y105.046 E24.88692
G1 X105.046 Y92.548 E25.30747
G1 X105.848 Y92.548 E25.32655
G1 X92.548 Y105.848 E25.77409
G1 X92.548 Y106.650 E25.79318
G1 X106.650 Y92.548 E26.26772
G1 X107.452 Y92.548 E26.28680
G1 X92.548 Y107.452 E26.78833
G1 X93.350 Y107.452 E26.80741
G1 X107.452 Y93.350 E27.28195
G1 X107.452 Y94.152 E27.30103
G1 X94.152 Y107.452 E27.74857
G1 X94.954 Y107.452 E27.76766
G1 X107.452 Y94.954 E28.18821
G1 X107.452 Y95.756 E28.20729
G1 X95.756 Y107.452 E28.60085
G1 X96.559 Y107.452 E28.61993
G1 X107.452 Y96.559 E28.98650
G1 X107.452 Y97.361 E29.00558
G1 X97.361 Y107.452 E29.34515
G1 X98.163 Y107.452 E29.36424
G1 X107.452 Y98.163 E29.67682
G1 X107.452 Y98.965 E29.69590
G1 X98.965 Y107.452 E29.98149
G1 X99.767 Y107.452 E30.00057
G1 X107.452 Y99.767 E30.25917
G1 X107.452 Y100.570 E30.27825
G1 X100.570 Y107.452 E30.50985
G1 X101.372 Y107.452 E30.52894
G1 X107.452 Y101.372 E30.73355
G1 X107.452 Y102.174 E30.75263
G1 X102.174 Y107.452 E30.93025
G1 X102.976 Y107.452 E30.94933
G1 X107.452 Y102.976 E31.09996
G1 X107.452 Y103.778 E31.11904
G1 X103.778 Y107.452 E31.24267
G1 X104.580 Y107.452 E31.26176
G1 X107.452 Y104.580 E31.35840
G1 X107.452 Y105.383 E31.37748
G1 X105.383 Y107.452 E31.44713
G1 X106.185 Y107.452 E31.46621
G1 X107.452 Y106.185 E31.50886
G1 X107.452 Y106.987 E31.52795
G1 X106.987 Y107.452 E31.54361
M106 S252.45
G1 Z1.200 F7800.000
G1 X107.452 Y93.013 F7800.000
G1 F4800
G1 X106.987 Y92.548 E31.55927
G1 X106.185 Y92.548 E31.57836
G1 X107.452 Y93.815 E31.62101
G1 X107.452 Y94.617 E31.64009
G1 X105.383 Y92.548 E31.70974
G1 X104.580 Y92.548 E31.72882
G1 X107.452 Y95.420 E31.82546
G1 X107.452 Y96.222 E31.84455
G1 X103.778 Y92.548 E31.96818
G1 X102.976 Y92.548 E31.98726
G1 X107.452 Y97.024 E32.13789
G1 X107.452 Y97.826 E32.15697
G1 X102.174 Y92.548 E32.33459
G1 X101.372 Y92.548 E32.35367
G1 X107.452 Y98.628 E32.55828
G1 X107.452 Y99.430 E32.57737
G1 X100.570 Y92.548 E32.80897
G1 X99.767 Y92.548 E32.82805
G1 X107.452 Y100.233 E33.08665
G1 X107.452 Y101.035 E33.10573
G1 X98.965 Y92.548 E33.39132
G1 X98.163 Y92.548 E33.41040
G1 X107.452 Y101.837 E33.72298
G1 X107.452 Y102.639 E33.74207
G1 X97.361 Y92.548 E34.08164
G1 X96.559 Y92.548 E34.10072
G1 X107.452 Y103.441 E34.46729
G1 X107.452 Y104.244 E34.48637
G1 X95.756 Y92.548 E34.87993
G1 X94.954 Y92.548 E34.89901
G1 X107.452 Y105.046 E35.31956
G1 X107.452 Y105.848 E35.33865
G1 X94.152 Y92.548 E35.78619
G1 X93.350 Y92.548 E35.80528
G1 X107.452 Y106.650 E36.27981
G1 X107.452 Y107.452 E36.29889
G1 X92.548 Y92.548 E36.80042
G1 X92.548 Y93.350 E36.81951
G1 X106.650 Y107.452 E37.29404
G1 X105.848 Y107.452 E37.31313
G1 X92.548 Y94.152 E37.76067
G1 X92.548 Y94.954 E37.77975
G1 X105.046 Y107.452 E38.20030
G1 X104.244 Y107.452 E38.21939
G1 X92.548 Y95.756 E38.61295
G1 X92.548 Y96.559 E38.63203
G1 X103.441 Y107.452 E38.99860
G1 X102.639 Y107.452 E39.01768
G1 X92.548 Y97.361 E39.35725
G1 X92.548 Y98.163 E39.37634
G1 X101.837 Y107.452 E39.68892
G1 X101.035 Y107.452 E39.70801
G1 X92.548 Y98.965 E39.99359
G1 X92.548 Y99.767 E40.01268
G1 X100.233 Y107.452 E40.27127
G1 X99.431 Y107.452 E40.29036
G1 X92.548 Y100.569 E40.52196
G1 X92.548 Y101.372 E40.54105
G1 X98.628 Y107.452 E40.74565
G1 X97.826 Y107.452 E40.76474
G1 X92.548 Y102.174 E40.94236
G1 X92.548 Y102.976 E40.96144
G1 X97.024 Y107.452 E41.11207
G1 X96.222 Y107.452 E41.13115
G1 X92.548 Y103.778 E41.25478
G1 X92.548 Y104.580 E41.27387
G1 X95.420 Y107.452 E41.37051
G1 X94.617 Y107.452 E41.38959
G1 X92.548 Y105.383 E41.45924
G1 X92.548 Y106.185 E41.47833
G1 X93.815 Y107.452 E41.52098
G1 X93.013 Y107.452 E41.54007
G1 X92.548 Y106.987 E41.55573
G1 Z1.500 F7800.000
G1 X93.013 Y92.548 F7800.000
G1 F4800
G1 X92.548 Y93.013 E41.57139
G1 X92.548 Y93.815 E41.59047
G1 X93.815 Y92.548 E41.63313
G1 X94.617 Y92.548 E41.65221
G1 X92.548 Y94.617 E41.72186
G1 X92.548 Y95.420 E41.74095
G1 X95.420 Y92.548 E41.83758
G1 X96.222 Y92.548 E41.85667
G1 X92.548 Y96.222 E41.98030
G1 X92.548 Y97.024 E41.99939
G1 X97.024 Y92.548 E42.15001
G1 X97.826 Y92.548 E42.16910
G1 X92.548 Y97.826 E42.34671
G1 X92.548 Y98.628 E42.36580
G1 X98.628 Y92.548 E42.57041
G1 X99.431 Y92.548 E42.58949
G1 X92.548 Y99.431 E42.82109
G1 X92.548 Y100.233 E42.84018
G1 X100.233 Y92.548 E43.09877
G1 X101.035 Y92.548 E43.11786
G1 X92.548 Y101.035 E43.40345
G1 X92.548 Y101.837 E43.42253
G1 X101.837 Y92.548 E43.73511
G1 X102.639 Y92.548 E43.75420
G1 X92.548 Y102.639 E44.09377
G1 X92.548 Y103.441 E44.11286
G1 X103.441 Y92.548 E44.47942
G1 X104.244 Y92.548 E44.49851
G1 X92.548 Y104.244 E44.89206
G1 X92.548 Y105.046 E44.91115
G1 X105.046 Y92.548 E45.33170
G1 X105.848 Y92.548 E45.35078
G1 X92.548 Y105.848 E45.79833
G1 X92.548 Y106.650 E45.81741
G1 X106.650 Y92.548 E46.29195
G1 X107.452 Y92.548 E46.31103
G1 X92.548 Y107.452 E46.81256
G1 X93.350 Y107.452 E46.83164
G1 X107.452 Y93.350 E47.30618
G1 X107.452 Y94.152 E47.32526
G1 X94.152 Y107.452 E47.77280
G1 X94.954 Y107.452 E47.79189
G1 X107.452 Y94.954 E48.21244
G1 X107.452 Y95.756 E48.23152
G1 X95.756 Y107.452 E48.62508
G1 X96.559 Y107.452 E48.64417
G1 X107.452 Y96.559 E49.01073
G1 X107.452 Y97.361 E49.02981
G1 X97.361 Y107.452 E49.36938
G1 X98.163 Y107.452 E49.38847
G1 X107.452 Y98.163 E49.70105
G1 X107.452 Y98.965 E49.72013
G1 X98.965 Y107.452 E50.00572
G1 X99.767 Y107.452 E50.02481
G1 X107.452 Y99.767 E50.28340
G1 X107.452 Y100.570 E50.30248
G1 X100.570 Y107.452 E50.53408
G1 X101.372 Y107.452 E50.55317
G1 X107.452 Y101.372 E50.75778
G1 X107.452 Y102.174 E50.77686
G1 X102.174 Y107.452 E50.95448
G1 X102.976 Y107.452 E50.97356
G1 X107.452 Y102.976 E51.12419
G1 X107.452 Y103.778 E51.14327
G1 X103.778 Y107.452 E51.26690
G1 X104.580 Y107.452 E51.28599
G1 X107.452 Y104.580 E51.38263
G1 X107.452 Y105.383 E51.40171
G1 X105.383 Y107.452 E51.47136
G1 X106.185 Y107.452 E51.49044
G1 X107.452 Y106.185 E51.53310
G1 X107.452 Y106.987 E51.55218
G1 X106.987 Y107.452 E51.56784
G1 Z1.800 F7800.000
G1 X107.452 Y93.013 F7800.000
G1 F4800
G1 X106.987 Y92.548 E51.58350
G1 X106.185 Y92.548 E51.60259
G1 X107.452 Y93.815 E51.64524
G1 X107.452 Y94.617 E51.66433
G1 X105.383 Y92.548 E51.73397
G1 X104.580 Y92.548 E51.75306
G1 X107.452 Y95.420 E51.84969
G1 X107.452 Y96.222 E51.86878
G1 X103.778 Y92.548 E51.99241
G1 X102.976 Y92.548 E52.01150
G1 X107.452 Y97.024 E52.16212
G1 X107.452 Y97.826 E52.18120
G1 X102.174 Y92.548 E52.35882
G1 X101.372 Y92.548 E52.37791
G1 X107.452 Y98.628 E52.58251
G1 X107.452 Y99.430 E52.60160
G1 X100.570 Y92.548 E52.83320
G1 X99.767 Y92.548 E52.85229
G1 X107.452 Y100.233 E53.11088
G1 X107.452 Y101.035 E53.12996
G1 X98.965 Y92.548 E53.41555
G1 X98.163 Y92.548 E53.43464
G1 X107.452 Y101.837 E53.74721
G1 X107.452 Y102.639 E53.76630
G1 X97.361 Y92.548 E54.10587
G1 X96.559 Y92.548 E54.12496
G1 X107.452 Y103.441 E54.49152
G1 X107.452 Y104.244 E54.51060
G1 X95.756 Y92.548 E54.90416
G1 X94.954 Y92.548 E54.92325
G1 X107.452 Y105.046 E55.34379
G1 X107.452 Y105.848 E55.36288
G1 X94.152 Y92.548 E55.81042
G1 X93.350 Y92.548 E55.82951
G1 X107.452 Y106.650 E56.30404
G1 X107.452 Y107.452 E56.32313
G1 X92.548 Y92.548 E56.82465
G1 X92.548 Y93.350 E56.84374
G1 X106.650 Y107.452 E57.31827
G1 X105.848 Y107.452 E57.33736
G1 X92.548 Y94.152 E57.78490
G1 X92.548 Y94.954 E57.80399
G1 X105.046 Y107.452 E58.22453
G1 X104.244 Y107.452 E58.24362
G1 X92.548 Y95.756 E58.63718
G1 X92.548 Y96.559 E58.65626
G1 X103.441 Y107.452 E59.02283
G1 X102.639 Y107.452 E59.04191
G1 X92.548 Y97.361 E59.38148
G1 X92.548 Y98.163 E59.40057
G1 X101.837 Y107.452 E59.71315
G1 X101.035 Y107.452 E59.73224
G1 X92.548 Y98.965 E60.01782
G1 X92.548 Y99.767 E60.03691
G1 X100.233 Y107.452 E60.29550
G1 X99.431 Y107.452 E60.31459
G1 X92.548 Y100.569 E60.54619
G1 X92.548 Y101.372 E60.56528
G1 X98.628 Y107.452 E60.76988
G1 X97.826 Y107.452 E60.78897
G1 X92.548 Y102.174 E60.96659
G1 X92.548 Y102.976 E60.98567
G1 X97.024 Y107.452 E61.13630
G1 X96.222 Y107.452 E61.15538
G1 X92.548 Y103.778 E61.27901
G1 X92.548 Y104.580 E61.29810
G1 X95.420 Y107.452 E61.39474
G1 X94.617 Y107.452 E61.41383
G1 X92.548 Y105.383 E61.48347
G1 X92.548 Y106.185 E61.50256
G1 X93.815 Y107.452 E61.54521
G1 X93.013 Y107.452 E61.56430
G1 X92.548 Y106.987 E61.57996
G1 Z2.100 F7800.000
G1 X93.013 Y92.548 F7800.000
G1 F4800
G1 X92.548 Y93.013 E61.59562
G1 X92.548 Y93.815 E61.61470
G1 X93.815 Y92.548 E61.65736
G1 X94.617 Y92.548 E61.67644
G1 X92.548 Y94.617 E61.74609
G1 X92.548 Y95.420 E61.76518
G1 X95.420 Y92.548 E61.86181
G1 X96.222 Y92.548 E61.88090
G1 X92.548 Y96.222 E62.00453
G1 X92.548 Y97.024 E62.02362
G1 X97.024 Y92.548 E62.17424
G1 X97.826 Y92.548 E62.19333
G1 X92.548 Y97.826 E62.37094
G1 X92.548 Y98.628 E62.39003
G1 X98.628 Y92.548 E62.59464
G1 X99.431 Y92.548 E62.61373
G1 X92.548 Y99.431 E62.84533
G1 X92.548 Y100.233 E62.86441
G1 X100.233 Y92.548 E63.12301
G1 X101.035 Y92.548 E63.14209
G1 X92.548 Y101.035 E63.42768
G1 X92.548 Y101.837 E63.44676
G1 X101.837 Y92.548 E63.75934
G1 X102.639 Y92.548 E63.77843
G1 X92.548 Y102.639 E64.11800
G1 X92.548 Y103.441 E64.13709
G1 X103.441 Y92.548 E64.50365
G1 X104.244 Y92.548 E64.52274
G1 X92.548 Y104.244 E64.91629
G1 X92.548 Y105.046 E64.93538
G1 X105.046 Y92.548 E65.35593
G1 X105.848 Y92.548 E65.37502
G1 X92.548 Y105.848 E65.82256
G1 X92.548 Y106.650 E65.84164
G1 X106.650 Y92.548 E66.31618
G1 X107.452 Y92.548 E66.33526
G1 X92.548 Y107.452 E66.83679
G1 X93.350 Y107.452 E66.85588
G1 X107.452 Y93.350 E67.33041
G1 X107.452 Y94.152 E67.34949
G1 X94.152 Y107.452 E67.79703
G1 X94.954 Y107.452 E67.81612
G1 X107.452 Y94.954 E68.23667
G1 X107.452 Y95.756 E68.25575
G1 X95.756 Y107.452 E68.64931
G1 X96.559 Y107.452 E68.66840
G1 X107.452 Y96.559 E69.03496
G1 X107.452 Y97.361 E69.05405
G1 X97.361 Y107.452 E69.39361
G1 X98.163 Y107.452 E69.41270
G1 X107.452 Y98.163 E69.72528
G1 X107.452 Y98.965 E69.74437
G1 X98.965 Y107.452 E70.02995
G1 X99.767 Y107.452 E70.04904
G1 X107.452 Y99.767 E70.30763
G1 X107.452 Y100.570 E70.32672
G1 X100.570 Y107.452 E70.55831
G1 X101.372 Y107.452 E70.57740
G1 X107.452 Y101.372 E70.78201
G1 X107.452 Y102.174 E70.80109
