; generated by Slic3r 1.3.0 on 2020-09-29 at 14:22:31

; external perimeters extrusion width = 0.55mm (4.37mm^3/s)
; perimeters extrusion width = 0.70mm (11.44mm^3/s)
; infill extrusion width = 0.63mm (13.45mm^3/s)
; solid infill extrusion width = 0.70mm (3.81mm^3/s)
; top infill extrusion width = 0.70mm (2.86mm^3/s)

M107
M104 S205 ; set temperature
G28 ; home all axes
G1 Z5 F5000 ; lift nozzle

; Filament gcode

M109 S205 ; set temperature and wait for it to be reached
G21 ; set units to millimeters
G90 ; use absolute coordinates
M82 ; use absolute distances for extrusion
G92 E0
G1 Z0.300 F7800.000
G1 E-2.00000 F2400.00000
G92 E0
G1 X95.981 Y92.567 F7800.000
G1 E2.00000 F2400.00000
G1 F1800
G1 X95.067 Y93.481 E2.02937
G1 X95.067 Y94.362 E2.04940
G1 X96.862 Y92.567 E2.10709
G1 X97.743 Y92.567 E2.12712
G1 X95.067 Y95.243 E2.21313
G1 X95.067 Y96.124 E2.23316
G1 X98.624 Y92.567 E2.34749
G1 X99.505 Y92.567 E2.36752
G1 X95.067 Y97.005 E2.51017
G1 X95.067 Y97.885 E2.53020
G1 X100.385 Y92.567 E2.70117
G1 X101.266 Y92.567 E2.72120
G1 X95.067 Y98.766 E2.92050
G1 X95.067 Y99.647 E2.94052
G1 X102.147 Y92.567 E3.16814
G1 X103.028 Y92.567 E3.18816
G1 X95.067 Y100.528 E3.44410
G1 X95.067 Y101.409 E3.46413
G1 X103.909 Y92.567 E3.74838
G1 X104.790 Y92.567 E3.76841
G1 X95.067 Y102.290 E4.08099
G1 X95.067 Y103.171 E4.10101
G1 X104.933 Y93.305 E4.41818
G1 X104.933 Y94.186 E4.43821
G1 X95.067 Y104.052 E4.75538
G1 X95.067 Y104.933 E4.77540
G1 X104.933 Y95.067 E5.09257
G1 X104.933 Y95.948 E5.11260
G1 X95.067 Y105.814 E5.42976
G1 X95.067 Y106.695 E5.44979
G1 X104.933 Y96.829 E5.76696
G1 X104.933 Y97.710 E5.78698
G1 X95.210 Y107.433 E6.09956
G1 X96.091 Y107.433 E6.11959
G1 X104.933 Y98.591 E6.40384
G1 X104.933 Y99.472 E6.42387
G1 X96.972 Y107.433 E6.67981
G1 X97.853 Y107.433 E6.69983
G1 X104.933 Y100.353 E6.92745
G1 X104.933 Y101.234 E6.94747
G1 X98.734 Y107.433 E7.14677
G1 X99.615 Y107.433 E7.16680
G1 X104.933 Y102.115 E7.33777
G1 X104.933 Y102.995 E7.35780
G1 X100.495 Y107.433 E7.50045
G1 X101.376 Y107.433 E7.52048
G1 X104.933 Y103.876 E7.63481
G1 X104.933 Y104.757 E7.65484
G1 X102.257 Y107.433 E7.74085
G1 X103.138 Y107.433 E7.76088
G1 X104.933 Y105.638 E7.81857
G1 X104.933 Y106.519 E7.83860
G1 X104.019 Y107.433 E7.86797
M104 S200 ; set temperature
G1 Z0.600 F7800.000
G1 X95.048 Y106.500 F7800.000
G1 F3115.41
G1 X96.000 Y107.452 E7.90002
G1 X96.881 Y107.452 E7.92098
G1 X95.048 Y105.619 E7.98268
G1 X95.048 Y104.738 E8.00364
G1 X97.762 Y107.452 E8.09498
G1 X98.643 Y107.452 E8.11594
G1 X95.048 Y103.857 E8.23692
G1 X95.048 Y102.976 E8.25788
G1 X99.524 Y107.452 E8.40850
G1 X100.405 Y107.452 E8.42946
G1 X95.048 Y102.095 E8.60973
G1 X95.048 Y101.214 E8.63069
G1 X101.286 Y107.452 E8.84059
G1 X102.167 Y107.452 E8.86155
G1 X95.048 Y100.333 E9.10110
G1 X95.048 Y99.452 E9.12206
G1 X103.048 Y107.452 E9.39125
G1 X103.929 Y107.452 E9.41221
G1 X95.048 Y98.571 E9.71105
G1 X95.048 Y97.690 E9.73201
G1 X104.810 Y107.452 E10.06048
G1 X104.952 Y107.452 E10.06388
G1 X104.952 Y106.714 E10.08145
G1 X95.048 Y96.810 E10.41473
G1 X95.048 Y95.929 E10.43569
G1 X104.952 Y105.833 E10.76897
G1 X104.952 Y104.952 E10.78993
G1 X95.048 Y95.048 E11.12321
G1 X95.048 Y94.167 E11.14417
G1 X104.952 Y104.071 E11.47745
G1 X104.952 Y103.190 E11.49841
G1 X95.048 Y93.286 E11.83169
G1 X95.048 Y92.548 E11.84925
G1 X95.190 Y92.548 E11.85265
G1 X104.952 Y102.310 E12.18113
G1 X104.952 Y101.429 E12.20209
G1 X96.071 Y92.548 E12.50092
G1 X96.952 Y92.548 E12.52188
G1 X104.952 Y100.548 E12.79107
G1 X104.952 Y99.667 E12.81203
G1 X97.833 Y92.548 E13.05158
G1 X98.714 Y92.548 E13.07254
G1 X104.952 Y98.786 E13.28245
G1 X104.952 Y97.905 E13.30341
G1 X99.595 Y92.548 E13.48367
G1 X100.476 Y92.548 E13.50463
G1 X104.952 Y97.024 E13.65526
G1 X104.952 Y96.143 E13.67622
G1 X101.357 Y92.548 E13.79720
G1 X102.238 Y92.548 E13.81816
G1 X104.952 Y95.262 E13.90950
G1 X104.952 Y94.381 E13.93046
G1 X103.119 Y92.548 E13.99215
G1 X104.000 Y92.548 E14.01311
G1 X104.952 Y93.500 E14.04516
G1 Z0.900 F7800.000
G1 X96.000 Y92.548 F7800.000
G1 F3115.41
G1 X95.048 Y93.500 E14.07722
G1 X95.048 Y94.381 E14.09818
G1 X96.881 Y92.548 E14.15987
G1 X97.762 Y92.548 E14.18083
G1 X95.048 Y95.262 E14.27217
G1 X95.048 Y96.143 E14.29313
G1 X98.643 Y92.548 E14.41411
G1 X99.524 Y92.548 E14.43507
G1 X95.048 Y97.024 E14.58569
G1 X95.048 Y97.905 E14.60665
G1 X100.405 Y92.548 E14.78692
G1 X101.286 Y92.548 E14.80788
G1 X95.048 Y98.786 E15.01779
G1 X95.048 Y99.667 E15.03875
G1 X102.167 Y92.548 E15.27829
G1 X103.048 Y92.548 E15.29925
G1 X95.048 Y100.548 E15.56845
G1 X95.048 Y101.429 E15.58941
G1 X103.929 Y92.548 E15.88824
G1 X104.810 Y92.548 E15.90920
G1 X95.048 Y102.310 E16.23768
G1 X95.048 Y103.190 E16.25864
G1 X104.952 Y93.286 E16.59192
G1 X104.952 Y94.167 E16.61288
G1 X95.048 Y104.071 E16.94616
G1 X95.048 Y104.952 E16.96712
G1 X104.952 Y95.048 E17.30040
G1 X104.952 Y95.929 E17.32136
G1 X95.048 Y105.833 E17.65464
G1 X95.048 Y106.714 E17.67560
G1 X104.952 Y96.810 E18.00888
G1 X104.952 Y97.690 E18.02984
G1 X95.190 Y107.452 E18.35832
G1 X96.071 Y107.452 E18.37928
G1 X104.952 Y98.571 E18.67811
G1 X104.952 Y99.452 E18.69907
G1 X96.952 Y107.452 E18.96826
G1 X97.833 Y107.452 E18.98922
G1 X104.952 Y100.333 E19.22877
G1 X104.952 Y101.214 E19.24973
G1 X98.714 Y107.452 E19.45964
G1 X99.595 Y107.452 E19.48060
G1 X104.952 Y102.095 E19.66087
G1 X104.952 Y102.976 E19.68183
G1 X100.476 Y107.452 E19.83245
G1 X101.357 Y107.452 E19.85341
G1 X104.952 Y103.857 E19.97439
G1 X104.952 Y104.738 E19.99535
G1 X102.238 Y107.452 E20.08669
G1 X103.119 Y107.452 E20.10765
G1 X104.952 Y105.619 E20.16934
G1 X104.952 Y106.500 E20.19030
G1 X104.000 Y107.452 E20.22236
M106 S255
G1 Z1.200 F7800.000
G1 X95.048 Y106.500 F7800.000
G1 F3115.41
G1 X96.000 Y107.452 E20.25441
G1 X96.881 Y107.452 E20.27537
G1 X95.048 Y105.619 E20.33706
G1 X95.048 Y104.738 E20.35802
G1 X97.762 Y107.452 E20.44936
G1 X98.643 Y107.452 E20.47032
G1 X95.048 Y103.857 E20.59130
G1 X95.048 Y102.976 E20.61226
G1 X99.524 Y107.452 E20.76288
G1 X100.405 Y107.452 E20.78384
G1 X95.048 Y102.095 E20.96411
G1 X95.048 Y101.214 E20.98507
G1 X101.286 Y107.452 E21.19498
G1 X102.167 Y107.452 E21.21594
G1 X95.048 Y100.333 E21.45549
G1 X95.048 Y99.452 E21.47645
G1 X103.048 Y107.452 E21.74564
G1 X103.929 Y107.452 E21.76660
G1 X95.048 Y98.571 E22.06543
G1 X95.048 Y97.690 E22.08639
G1 X104.810 Y107.452 E22.41487
G1 X104.952 Y107.452 E22.41827
G1 X104.952 Y106.714 E22.43583
G1 X95.048 Y96.810 E22.76911
G1 X95.048 Y95.929 E22.79007
G1 X104.952 Y105.833 E23.12335
G1 X104.952 Y104.952 E23.14431
G1 X95.048 Y95.048 E23.47759
G1 X95.048 Y94.167 E23.49855
G1 X104.952 Y104.071 E23.83183
G1 X104.952 Y103.190 E23.85279
G1 X95.048 Y93.286 E24.18607
G1 X95.048 Y92.548 E24.20364
G1 X95.190 Y92.548 E24.20703
G1 X104.952 Y102.310 E24.53551
G1 X104.952 Y101.429 E24.55647
G1 X96.071 Y92.548 E24.85530
G1 X96.952 Y92.548 E24.87627
G1 X104.952 Y100.548 E25.14546
G1 X104.952 Y99.667 E25.16642
G1 X97.833 Y92.548 E25.40597
G1 X98.714 Y92.548 E25.42693
G1 X104.952 Y98.786 E25.63683
G1 X104.952 Y97.905 E25.65779
G1 X99.595 Y92.548 E25.83806
G1 X100.476 Y92.548 E25.85902
G1 X104.952 Y97.024 E26.00964
G1 X104.952 Y96.143 E26.03060
G1 X101.357 Y92.548 E26.15158
G1 X102.238 Y92.548 E26.17254
G1 X104.952 Y95.262 E26.26388
G1 X104.952 Y94.381 E26.28484
G1 X103.119 Y92.548 E26.34653
G1 X104.000 Y92.548 E26.36750
G1 X104.952 Y93.500 E26.39955
G1 Z1.500 F7800.000
G1 X96.000 Y92.548 F7800.000
G1 F3115.41
G1 X95.048 Y93.500 E26.43160
G1 X95.048 Y94.381 E26.45256
G1 X96.881 Y92.548 E26.51426
G1 X97.762 Y92.548 E26.53522
G1 X95.048 Y95.262 E26.62655
G1 X95.048 Y96.143 E26.64751
G1 X98.643 Y92.548 E26.76849
G1 X99.524 Y92.548 E26.78945
G1 X95.048 Y97.024 E26.94008
G1 X95.048 Y97.905 E26.96104
G1 X100.405 Y92.548 E27.14130
G1 X101.286 Y92.548 E27.16226
G1 X95.048 Y98.786 E27.37217
G1 X95.048 Y99.667 E27.39313
G1 X102.167 Y92.548 E27.63268
G1 X103.048 Y92.548 E27.65364
G1 X95.048 Y100.548 E27.92283
G1 X95.048 Y101.429 E27.94379
G1 X103.929 Y92.548 E28.24262
G1 X104.810 Y92.548 E28.26358
G1 X95.048 Y102.310 E28.59206
G1 X95.048 Y103.190 E28.61302
G1 X104.952 Y93.286 E28.94630
G1 X104.952 Y94.167 E28.96726
G1 X95.048 Y104.071 E29.30054
G1 X95.048 Y104.952 E29.32150
G1 X104.952 Y95.048 E29.65478
G1 X104.952 Y95.929 E29.67574
G1 X95.048 Y105.833 E30.00902
G1 X95.048 Y106.714 E30.02999
G1 X104.952 Y96.810 E30.36327
G1 X104.952 Y97.690 E30.38423
G1 X95.190 Y107.452 E30.71270
G1 X96.071 Y107.452 E30.73366
G1 X104.952 Y98.571 E31.03250
G1 X104.952 Y99.452 E31.05346
G1 X96.952 Y107.452 E31.32265
G1 X97.833 Y107.452 E31.34361
G1 X104.952 Y100.333 E31.58316
G1 X104.952 Y101.214 E31.60412
G1 X98.714 Y107.452 E31.81403
G1 X99.595 Y107.452 E31.83499
G1 X104.952 Y102.095 E32.01525
G1 X104.952 Y102.976 E32.03621
G1 X100.476 Y107.452 E32.18683
G1 X101.357 Y107.452 E32.20779
G1 X104.952 Y103.857 E32.32877
G1 X104.952 Y104.738 E32.34973
G1 X102.238 Y107.452 E32.44107
G1 X103.119 Y107.452 E32.46203
G1 X104.952 Y105.619 E32.52373
G1 X104.952 Y106.500 E32.54469
G1 X104.000 Y107.452 E32.57674
G1 Z1.800 F7800.000
G1 X95.048 Y106.500 F7800.000
G1 F3115.41
G1 X96.000 Y107.452 E32.60879
G1 X96.881 Y107.452 E32.62975
G1 X95.048 Y105.619 E32.69145
G1 X95.048 Y104.738 E32.71241
G1 X97.762 Y107.452 E32.80375
G1 X98.643 Y107.452 E32.82471
G1 X95.048 Y103.857 E32.94569
G1 X95.048 Y102.976 E32.96665
G1 X99.524 Y107.452 E33.11727
G1 X100.405 Y107.452 E33.13823
G1 X95.048 Y102.095 E33.31849
G1 X95.048 Y101.214 E33.33945
G1 X101.286 Y107.452 E33.54936
G1 X102.167 Y107.452 E33.57032
G1 X95.048 Y100.333 E33.80987
G1 X95.048 Y99.452 E33.83083
G1 X103.048 Y107.452 E34.10002
G1 X103.929 Y107.452 E34.12098
G1 X95.048 Y98.571 E34.41982
G1 X95.048 Y97.690 E34.44078
G1 X104.810 Y107.452 E34.76925
G1 X104.952 Y107.452 E34.77265
G1 X104.952 Y106.714 E34.79021
G1 X95.048 Y96.810 E35.12349
G1 X95.048 Y95.929 E35.14445
G1 X104.952 Y105.833 E35.47774
G1 X104.952 Y104.952 E35.49870
G1 X95.048 Y95.048 E35.83198
G1 X95.048 Y94.167 E35.85294
G1 X104.952 Y104.071 E36.18622
G1 X104.952 Y103.190 E36.20718
G1 X95.048 Y93.286 E36.54046
G1 X95.048 Y92.548 E36.55802
G1 X95.190 Y92.548 E36.56142
G1 X104.952 Y102.310 E36.88989
G1 X104.952 Y101.429 E36.91086
G1 X96.071 Y92.548 E37.20969
G1 X96.952 Y92.548 E37.23065
G1 X104.952 Y100.548 E37.49984
G1 X104.952 Y99.667 E37.52080
G1 X97.833 Y92.548 E37.76035
G1 X98.714 Y92.548 E37.78131
G1 X104.952 Y98.786 E37.99122
G1 X104.952 Y97.905 E38.01218
G1 X99.595 Y92.548 E38.19244
G1 X100.476 Y92.548 E38.21340
G1 X104.952 Y97.024 E38.36403
G1 X104.952 Y96.143 E38.38499
G1 X101.357 Y92.548 E38.50597
G1 X102.238 Y92.548 E38.52693
G1 X104.952 Y95.262 E38.61826
G1 X104.952 Y94.381 E38.63922
G1 X103.119 Y92.548 E38.70092
G1 X104.000 Y92.548 E38.72188
G1 X104.952 Y93.500 E38.75393
G1 Z2.100 F7800.000
G1 X96.000 Y92.548 F7800.000
G1 F3115.41
G1 X95.048 Y93.500 E38.78599
G1 X95.048 Y94.381 E38.80695
G1 X96.881 Y92.548 E38.86864
G1 X97.762 Y92.548 E38.88960
G1 X95.048 Y95.262 E38.98094
G1 X95.048 Y96.143 E39.00190
G1 X98.643 Y92.548 E39.12288
G1 X99.524 Y92.548 E39.14384
G1 X95.048 Y97.024 E39.29446
G1 X95.048 Y97.905 E39.31542
G1 X100.405 Y92.548 E39.49569
G1 X101.286 Y92.548 E39.51665
G1 X95.048 Y98.786 E39.72655
G1 X95.048 Y99.667 E39.74751
G1 X102.167 Y92.548 E39.98706
G1 X103.048 Y92.548 E40.00802
G1 X95.048 Y100.548 E40.27721
G1 X95.048 Y101.429 E40.29817
G1 X103.929 Y92.548 E40.59701
G1 X104.810 Y92.548 E40.61797
G1 X95.048 Y102.310 E40.94645
G1 X95.048 Y103.190 E40.96741
G1 X104.952 Y93.286 E41.30069
G1 X104.952 Y94.167 E41.32165
G1 X95.048 Y104.071 E41.65493
G1 X95.048 Y104.952 E41.67589
G1 X104.952 Y95.048 E42.00917
G1 X104.952 Y95.929 E42.03013
G1 X95.048 Y105.833 E42.36341
G1 X95.048 Y106.714 E42.38437
G1 X104.952 Y96.810 E42.71765
G1 X104.952 Y97.690 E42.73861
G1 X95.190 Y107.452 E43.06709
G1 X96.071 Y107.452 E43.08805
G1 X104.952 Y98.571 E43.38688
G1 X104.952 Y99.452 E43.40784
G1 X96.952 Y107.452 E43.67703
G1 X97.833 Y107.452 E43.69799
G1 X104.952 Y100.333 E43.93754
G1 X104.952 Y101.214 E43.95850
G1 X98.714 Y107.452 E44.16841
G1 X99.595 Y107.452 E44.18937
G1 X104.952 Y102.095 E44.36963
G1 X104.952 Y102.976 E44.39059
G1 X100.476 Y107.452 E44.54122
G1 X101.357 Y107.452 E44.56218
G1 X104.952 Y103.857 E44.68316
G1 X104.952 Y104.738 E44.70412
G1 X102.238 Y107.452 E44.79545
G1 X103.119 Y107.452 E44.81642
G1 X104.952 Y105.619 E44.87811
G1 X104.952 Y106.500 E44.89907
G1 X104.000 Y107.452 E44.93112
G1 Z2.400 F7800.000
G1 X95.048 Y106.500 F7800.000
G1 F3115.41
G1 X96.000 Y107.452 E44.96318
G1 X96.881 Y107.452 E44.98414
G1 X95.048 Y105.619 E45.04583
G1 X95.048 Y104.738 E45.06679
G1 X97.762 Y107.452 E45.15813
G1 X98.643 Y107.452 E45.17909
G1 X95.048 Y103.857 E45.30007
G1 X95.048 Y102.976 E45.32103
G1 X99.524 Y107.452 E45.47165
G1 X100.405 Y107.452 E45.49261
G1 X95.048 Y102.095 E45.67288
G1 X95.048 Y101.214 E45.69384
G1 X101.286 Y107.452 E45.90374
G1 X102.167 Y107.452 E45.92471
G1 X95.048 Y100.333 E46.16425
G1 X95.048 Y99.452 E46.18521
G1 X103.048 Y107.452 E46.45441
G1 X103.929 Y107.452 E46.47537
G1 X95.048 Y98.571 E46.77420
G1 X95.048 Y97.690 E46.79516
G1 X104.810 Y107.452 E47.12364
G1 X104.952 Y107.452 E47.12703
G1 X104.952 Y106.714 E47.14460
G1 X95.048 Y96.810 E47.47788
G1 X95.048 Y95.929 E47.49884
G1 X104.952 Y105.833 E47.83212
G1 X104.952 Y104.952 E47.85308
G1 X95.048 Y95.048 E48.18636
G1 X95.048 Y94.167 E48.20732
G1 X104.952 Y104.071 E48.54060
G1 X104.952 Y103.190 E48.56156
G1 X95.048 Y93.286 E48.89484
G1 X95.048 Y92.548 E48.91241
G1 X95.190 Y92.548 E48.91580
G1 X104.952 Y102.310 E49.24428
G1 X104.952 Y101.429 E49.26524
G1 X96.071 Y92.548 E49.56407
G1 X96.952 Y92.548 E49.58503
G1 X104.952 Y100.548 E49.85423
G1 X104.952 Y99.667 E49.87519
G1 X97.833 Y92.548 E50.11473
G1 X98.714 Y92.548 E50.13569
G1 X104.952 Y98.786 E50.34560
G1 X104.952 Y97.905 E50.36656
G1 X99.595 Y92.548 E50.54683
G1 X100.476 Y92.548 E50.56779
G1 X104.952 Y97.024 E50.71841
G1 X104.952 Y96.143 E50.73937
G1 X101.357 Y92.548 E50.86035
G1 X102.238 Y92.548 E50.88131
G1 X104.952 Y95.262 E50.97265
G1 X104.952 Y94.381 E50.99361
G1 X103.119 Y92.548 E51.05530
G1 X104.000 Y92.548 E51.07626
G1 X104.952 Y93.500 E51.10832
G1 Z2.700 F7800.000
G1 X96.000 Y92.548 F7800.000
G1 F3115.41
G1 X95.048 Y93.500 E51.14037
G1 X95.048 Y94.381 E51.16133
G1 X96.881 Y92.548 E51.22302
G1 X97.762 Y92.548 E51.24399
G1 X95.048 Y95.262 E51.33532
G1 X95.048 Y96.143 E51.35628
G1 X98.643 Y92.548 E51.47726
G1 X99.524 Y92.548 E51.49822
G1 X95.048 Y97.024 E51.64885
G1 X95.048 Y97.905 E51.66981
G1 X100.405 Y92.548 E51.85007
G1 X101.286 Y92.548 E51.87103
G1 X95.048 Y98.786 E52.08094
G1 X95.048 Y99.667 E52.10190
G1 X102.167 Y92.548 E52.34145
G1 X103.048 Y92.548 E52.36241
G1 X95.048 Y100.548 E52.63160
G1 X95.048 Y101.429 E52.65256
G1 X103.929 Y92.548 E52.95139
G1 X104.810 Y92.548 E52.97235
G1 X95.048 Y102.310 E53.30083
G1 X95.048 Y103.190 E53.32179
G1 X104.952 Y93.286 E53.65507
G1 X104.952 Y94.167 E53.67603
G1 X95.048 Y104.071 E54.00931
G1 X95.048 Y104.952 E54.03027
G1 X104.952 Y95.048 E54.36355
G1 X104.952 Y95.929 E54.38451
G1 X95.048 Y105.833 E54.71779
G1 X95.048 Y106.714 E54.73875
G1 X104.952 Y96.810 E55.07203
G1 X104.952 Y97.690 E55.09299
G1 X95.190 Y107.452 E55.42147
G1 X96.071 Y107.452 E55.44243
G1 X104.952 Y98.571 E55.74126
G1 X104.952 Y99.452 E55.76223
G1 X96.952 Y107.452 E56.03142
G1 X97.833 Y107.452 E56.05238
G1 X104.952 Y100.333 E56.29193
G1 X104.952 Y101.214 E56.31289
G1 X98.714 Y107.452 E56.52279
G1 X99.595 Y107.452 E56.54375
G1 X104.952 Y102.095 E56.72402
G1 X104.952 Y102.976 E56.74498
G1 X100.476 Y107.452 E56.89560
G1 X101.357 Y107.452 E56.91656
G1 X104.952 Y103.857 E57.03754
G1 X104.952 Y104.738 E57.05850
G1 X102.238 Y107.452 E57.14984
G1 X103.119 Y107.452 E57.17080
G1 X104.952 Y105.619 E57.23249
G1 X104.952 Y106.500 E57.25345
G1 X104.000 Y107.452 E57.28551
G1 Z3.000 F7800.000
G1 X95.048 Y106.500 F7800.000
G1 F3115.41
G1 X96.000 Y107.452 E57.31756
G1 X96.881 Y107.452 E57.33852
G1 X95.048 Y105.619 E57.40022
G1 X95.048 Y104.738 E57.42118
G1 X97.762 Y107.452 E57.51251
G1 X98.643 Y107.452 E57.53347
G1 X95.048 Y103.857 E57.65445
G1 X95.048 Y102.976 E57.67541
G1 X99.524 Y107.452 E57.82604
G1 X100.405 Y107.452 E57.84700
G1 X95.048 Y102.095 E58.02726
G1 X95.048 Y101.214 E58.04822
G1 X101.286 Y107.452 E58.25813
G1 X102.167 Y107.452 E58.27909
G1 X95.048 Y100.333 E58.51864
G1 X95.048 Y99.452 E58.53960
G1 X103.048 Y107.452 E58.80879
G1 X103.929 Y107.452 E58.82975
G1 X95.048 Y98.571 E59.12858
G1 X95.048 Y97.690 E59.14955
G1 X104.810 Y107.452 E59.47802
G1 X104.952 Y107.452 E59.48142
G1 X104.952 Y106.714 E59.49898
G1 X95.048 Y96.810 E59.83226
G1 X95.048 Y95.929 E59.85322
G1 X104.952 Y105.833 E60.18650
G1 X104.952 Y104.952 E60.20746
G1 X95.048 Y95.048 E60.54074
G1 X95.048 Y94.167 E60.56170
G1 X104.952 Y104.071 E60.89499
G1 X104.952 Y103.190 E60.91595
G1 X95.048 Y93.286 E61.24923
G1 X95.048 Y92.548 E61.26679
G1 X95.190 Y92.548 E61.27019
G1 X104.952 Y102.310 E61.59866
G1 X104.952 Y101.429 E61.61962
G1 X96.071 Y92.548 E61.91846
G1 X96.952 Y92.548 E61.93942
G1 X104.952 Y100.548 E62.20861
G1 X104.952 Y99.667 E62.22957
G1 X97.833 Y92.548 E62.46912
G1 X98.714 Y92.548 E62.49008
G1 X104.952 Y98.786 E62.69999
G1 X104.952 Y97.905 E62.72095
G1 X99.595 Y92.548 E62.90121
G1 X100.476 Y92.548 E62.92217
G1 X104.952 Y97.024 E63.07279
G1 X104.952 Y96.143 E63.09375
G1 X101.357 Y92.548 E63.21473
G1 X102.238 Y92.548 E63.23569
G1 X104.952 Y95.262 E63.32703
G1 X104.952 Y94.381 E63.34799
G1 X103.119 Y92.548 E63.40969
G1 X104.000 Y92.548 E63.43065
G1 X104.952 Y93.500 E63.46270
G1 Z3.300 F7800.000
G1 X96.000 Y92.548 F7800.000
G1 F3115.41
G1 X95.048 Y93.500 E63.49475
G1 X95.048 Y94.381 E63.51571
G1 X96.881 Y92.548 E63.57741
G1 X97.762 Y92.548 E63.59837
G1 X95.048 Y95.262 E63.68971
G1 X95.048 Y96.143 E63.71067
G1 X98.643 Y92.548 E63.83165
G1 X99.524 Y92.548 E63.85261
G1 X95.048 Y97.024 E64.00323
G1 X95.048 Y97.905 E64.02419
G1 X100.405 Y92.548 E64.20445
G1 X101.286 Y92.548 E64.22541
G1 X95.048 Y98.786 E64.43532
G1 X95.048 Y99.667 E64.45628
G1 X102.167 Y92.548 E64.69583
G1 X103.048 Y92.548 E64.71679
G1 X95.048 Y100.548 E64.98598
G1 X95.048 Y101.429 E65.00694
G1 X103.929 Y92.548 E65.30578
G1 X104.810 Y92.548 E65.32674
G1 X95.048 Y102.310 E65.65521
G1 X95.048 Y103.190 E65.67617
G1 X104.952 Y93.286 E66.00945
G1 X104.952 Y94.167 E66.03041
G1 X95.048 Y104.071 E66.36370
G1 X95.048 Y104.952 E66.38466
G1 X104.952 Y95.048 E66.71794
G1 X104.952 Y95.929 E66.73890
G1 X95.048 Y105.833 E67.07218
G1 X95.048 Y106.714 E67.09314
G1 X104.952 Y96.810 E67.42642
G1 X104.952 Y97.690 E67.44738
G1 X95.190 Y107.452 E67.77585
G1 X96.071 Y107.452 E67.79682
G1 X104.952 Y98.571 E68.09565
G1 X104.952 Y99.452 E68.11661
G1 X96.952 Y107.452 E68.38580
G1 X97.833 Y107.452 E68.40676
G1 X104.952 Y100.333 E68.64631
G1 X104.952 Y101.214 E68.66727
G1 X98.714 Y107.452 E68.87718
G1 X99.595 Y107.452 E68.89814
G1 X104.952 Y102.095 E69.07840
G1 X104.952 Y102.976 E69.09936
G1 X100.476 Y107.452 E69.24998
G1 X101.357 Y107.452 E69.27095
G1 X104.952 Y103.857 E69.39193
G1 X104.952 Y104.738 E69.41289
G1 X102.238 Y107.452 E69.50422
G1 X103.119 Y107.452 E69.52518
G1 X104.952 Y105.619 E69.58688
G1 X104.952 Y106.500 E69.60784
G1 X104.000 Y107.452 E69.63989
G1 Z3.600 F7800.000
G1 X95.048 Y106.500 F7800.000
G1 F3115.41
G1 X96.000 Y107.452 E69.67194
G1 X96.881 Y107.452 E69.69291
G1 X95.048 Y105.619 E69.75460
G1 X95.048 Y104.738 E69.77556
G1 X97.762 Y107.452 E69.86690
G1 X98.643 Y107.452 E69.88786
G1 X95.048 Y103.857 E70.00884
G1 X95.048 Y102.976 E70.02980
G1 X99.524 Y107.452 E70.18042
G1 X100.405 Y107.452 E70.20138
G1 X95.048 Y102.095 E70.38165
G1 X95.048 Y101.214 E70.40261
G1 X101.286 Y107.452 E70.61251
G1 X102.167 Y107.452 E70.63347
G1 X95.048 Y100.333 E70.87302
G1 X95.048 Y99.452 E70.89398
G1 X103.048 Y107.452 E71.16317
G1 X103.929 Y107.452 E71.18414
G1 X95.048 Y98.571 E71.48297
G1 X95.048 Y97.690 E71.50393
G1 X104.810 Y107.452 E71.83241
G1 X104.952 Y107.452 E71.83580
G1 X104.952 Y106.714 E71.85337
G1 X95.048 Y96.810 E72.18665
G1 X95.048 Y95.929 E72.20761
G1 X104.952 Y105.833 E72.54089
G1 X104.952 Y104.952 E72.56185
G1 X95.048 Y95.048 E72.89513
G1 X95.048 Y94.167 E72.91609
G1 X104.952 Y104.071 E73.24937
G1 X104.952 Y103.190 E73.27033
G1 X95.048 Y93.286 E73.60361
G1 X95.048 Y92.548 E73.62117
G1 X95.190 Y92.548 E73.62457
G1 X104.952 Y102.310 E73.95305
G1 X104.952 Y101.429 E73.97401
G1 X96.071 Y92.548 E74.27284
G1 X96.952 Y92.548 E74.29380
G1 X104.952 Y100.548 E74.56299
G1 X104.952 Y99.667 E74.58395
G1 X97.833 Y92.548 E74.82350
G1 X98.714 Y92.548 E74.84446
G1 X104.952 Y98.786 E75.05437
G1 X104.952 Y97.905 E75.07533
G1 X99.595 Y92.548 E75.25560
G1 X100.476 Y92.548 E75.27656
G1 X104.952 Y97.024 E75.42718
G1 X104.952 Y96.143 E75.44814
G1 X101.357 Y92.548 E75.56912
G1 X102.238 Y92.548 E75.59008
G1 X104.952 Y95.262 E75.68142
G1 X104.952 Y94.381 E75.70238
G1 X103.119 Y92.548 E75.76407
G1 X104.000 Y92.548 E75.78503
G1 X104.952 Y93.500 E75.81708
G1 Z3.900 F7800.000
G1 X96.000 Y92.548 F7800.000
G1 F3115.41
G1 X95.048 Y93.500 E75.84914
G1 X95.048 Y94.381 E75.87010
G1 X96.881 Y92.548 E75.93179
G1 X97.762 Y92.548 E75.95275
G1 X95.048 Y95.262 E76.04409
G1 X95.048 Y96.143 E76.06505
G1 X98.643 Y92.548 E76.18603
G1 X99.524 Y92.548 E76.20699
G1 X95.048 Y97.024 E76.35761
G1 X95.048 Y97.905 E76.37857
G1 X100.405 Y92.548 E76.55884
G1 X101.286 Y92.548 E76.57980
G1 X95.048 Y98.786 E76.78971
G1 X95.048 Y99.667 E76.81067
G1 X102.167 Y92.548 E77.05022
G1 X103.048 Y92.548 E77.07118
G1 X95.048 Y100.548 E77.34037
G1 X95.048 Y101.429 E77.36133
G1 X103.929 Y92.548 E77.66016
G1 X104.810 Y92.548 E77.68112
G1 X95.048 Y102.310 E78.00960
G1 X95.048 Y103.190 E78.03056
G1 X104.952 Y93.286 E78.36384
G1 X104.952 Y94.167 E78.38480
G1 X95.048 Y104.071 E78.71808
G1 X95.048 Y104.952 E78.73904
G1 X104.952 Y95.048 E79.07232
G1 X104.952 Y95.929 E79.09328
G1 X95.048 Y105.833 E79.42656
G1 X95.048 Y106.714 E79.44752
G1 X104.952 Y96.810 E79.78080
G1 X104.952 Y97.690 E79.80176
G1 X95.190 Y107.452 E80.13024
G1 X96.071 Y107.452 E80.15120
G1 X104.952 Y98.571 E80.45003
G1 X104.952 Y99.452 E80.47099
G1 X96.952 Y107.452 E80.74018
G1 X97.833 Y107.452 E80.76115
G1 X104.952 Y100.333 E81.00069
G1 X104.952 Y101.214 E81.02165
G1 X98.714 Y107.452 E81.23156
G1 X99.595 Y107.452 E81.25252
G1 X104.952 Y102.095 E81.43279
G1 X104.952 Y102.976 E81.45375
G1 X100.476 Y107.452 E81.60437
G1 X101.357 Y107.452 E81.62533
G1 X104.952 Y103.857 E81.74631
G1 X104.952 Y104.738 E81.76727
G1 X102.238 Y107.452 E81.85861
G1 X103.119 Y107.452 E81.87957
G1 X104.952 Y105.619 E81.94126
G1 X104.952 Y106.500 E81.96222
G1 X104.000 Y107.452 E81.99428
G1 Z4.200 F7800.000
G1 X95.048 Y106.500 F7800.000
G1 F3115.41
G1 X96.000 Y107.452 E82.02633
G1 X96.881 Y107.452 E82.04729
G1 X95.048 Y105.619 E82.10898
G1 X95.048 Y104.738 E82.12994
G1 X97.762 Y107.452 E82.22128
G1 X98.643 Y107.452 E82.24224
G1 X95.048 Y103.857 E82.36322
G1 X95.048 Y102.976 E82.38418
G1 X99.524 Y107.452 E82.53481
G1 X100.405 Y107.452 E82.55577
G1 X95.048 Y102.095 E82.73603
G1 X95.048 Y101.214 E82.75699
G1 X101.286 Y107.452 E82.96690
G1 X102.167 Y107.452 E82.98786
G1 X95.048 Y100.333 E83.22741
G1 X95.048 Y99.452 E83.24837
G1 X103.048 Y107.452 E83.51756
G1 X103.929 Y107.452 E83.53852
G1 X95.048 Y98.571 E83.83735
G1 X95.048 Y97.690 E83.85831
G1 X104.810 Y107.452 E84.18679
G1 X104.952 Y107.452 E84.19019
G1 X104.952 Y106.714 E84.20775
G1 X95.048 Y96.810 E84.54103
G1 X95.048 Y95.929 E84.56199
G1 X104.952 Y105.833 E84.89527
G1 X104.952 Y104.952 E84.91623
G1 X95.048 Y95.048 E85.24951
G1 X95.048 Y94.167 E85.27047
G1 X104.952 Y104.071 E85.60375
G1 X104.952 Y103.190 E85.62471
G1 X95.048 Y93.286 E85.95799
G1 X95.048 Y92.548 E85.97556
G1 X95.190 Y92.548 E85.97896
G1 X104.952 Y102.310 E86.30743
G1 X104.952 Y101.429 E86.32839
G1 X96.071 Y92.548 E86.62723
G1 X96.952 Y92.548 E86.64819
G1 X104.952 Y100.548 E86.91738
G1 X104.952 Y99.667 E86.93834
G1 X97.833 Y92.548 E87.17789
G1 X98.714 Y92.548 E87.19885
G1 X104.952 Y98.786 E87.40875
G1 X104.952 Y97.905 E87.42971
G1 X99.595 Y92.548 E87.60998
G1 X100.476 Y92.548 E87.63094
G1 X104.952 Y97.024 E87.78156
G1 X104.952 Y96.143 E87.80252
G1 X101.357 Y92.548 E87.92350
G1 X102.238 Y92.548 E87.94446
G1 X104.952 Y95.262 E88.03580
G1 X104.952 Y94.381 E88.05676
G1 X103.119 Y92.548 E88.11846
G1 X104.000 Y92.548 E88.13942
G1 X104.952 Y93.500 E88.17147
G1 Z4.500 F7800.000
G1 X96.000 Y92.548 F7800.000
G1 F3115.41
G1 X95.048 Y93.500 E88.20352
G1 X95.048 Y94.381 E88.22448
G1 X96.881 Y92.548 E88.28618
G1 X97.762 Y92.548 E88.30714
G1 X95.048 Y95.262 E88.39848
G1 X95.048 Y96.143 E88.41944
G1 X98.643 Y92.548 E88.54042
G1 X99.524 Y92.548 E88.56138
G1 X95.048 Y97.024 E88.71200
G1 X95.048 Y97.905 E88.73296
G1 X100.405 Y92.548 E88.91322
G1 X101.286 Y92.548 E88.93418
G1 X95.048 Y98.786 E89.14409
G1 X95.048 Y99.667 E89.16505
G1 X102.167 Y92.548 E89.40460
G1 X103.048 Y92.548 E89.42556
G1 X95.048 Y100.548 E89.69475
G1 X95.048 Y101.429 E89.71571
G1 X103.929 Y92.548 E90.01455
G1 X104.810 Y92.548 E90.03551
G1 X95.048 Y102.310 E90.36398
G1 X95.048 Y103.190 E90.38494
G1 X104.952 Y93.286 E90.71822
G1 X104.952 Y94.167 E90.73918
G1 X95.048 Y104.071 E91.07246
G1 X95.048 Y104.952 E91.09342
G1 X104.952 Y95.048 E91.42670
G1 X104.952 Y95.929 E91.44766
G1 X95.048 Y105.833 E91.78095
G1 X95.048 Y106.714 E91.80191
G1 X104.952 Y96.810 E92.13519
G1 X104.952 Y97.690 E92.15615
G1 X95.190 Y107.452 E92.48462
G1 X96.071 Y107.452 E92.50558
G1 X104.952 Y98.571 E92.80442
G1 X104.952 Y99.452 E92.82538
G1 X96.952 Y107.452 E93.09457
G1 X97.833 Y107.452 E93.11553
G1 X104.952 Y100.333 E93.35508
G1 X104.952 Y101.214 E93.37604
G1 X98.714 Y107.452 E93.58595
G1 X99.595 Y107.452 E93.60691
G1 X104.952 Y102.095 E93.78717
G1 X104.952 Y102.976 E93.80813
G1 X100.476 Y107.452 E93.95875
G1 X101.357 Y107.452 E93.97971
G1 X104.952 Y103.857 E94.10069
G1 X104.952 Y104.738 E94.12165
G1 X102.238 Y107.452 E94.21299
G1 X103.119 Y107.452 E94.23395
G1 X104.952 Y105.619 E94.29565
G1 X104.952 Y106.500 E94.31661
G1 X104.000 Y107.452 E94.34866
G1 Z4.800 F7800.000
G1 X95.048 Y106.500 F7800.000
G1 F3115.41
G1 X96.000 Y107.452 E94.38071
G1 X96.881 Y107.452 E94.40167
G1 X95.048 Y105.619 E94.46337
G1 X95.048 Y104.738 E94.48433
G1 X97.762 Y107.452 E94.57567
G1 X98.643 Y107.452 E94.59663
G1 X95.048 Y103.857 E94.71761
G1 X95.048 Y102.976 E94.73857
G1 X99.524 Y107.452 E94.88919
G1 X100.405 Y107.452 E94.91015
G1 X95.048 Y102.095 E95.09041
G1 X95.048 Y101.214 E95.11137
G1 X101.286 Y107.452 E95.32128
G1 X102.167 Y107.452 E95.34224
G1 X95.048 Y100.333 E95.58179
G1 X95.048 Y99.452 E95.60275
G1 X103.048 Y107.452 E95.87194
G1 X103.929 Y107.452 E95.89290
G1 X95.048 Y98.571 E96.19174
G1 X95.048 Y97.690 E96.21270
G1 X104.810 Y107.452 E96.54117
G1 X104.952 Y107.452 E96.54457
G1 X104.952 Y106.714 E96.56213
G1 X95.048 Y96.810 E96.89541
G1 X95.048 Y95.929 E96.91638
G1 X104.952 Y105.833 E97.24966
G1 X104.952 Y104.952 E97.27062
G1 X95.048 Y95.048 E97.60390
G1 X95.048 Y94.167 E97.62486
G1 X104.952 Y104.071 E97.95814
G1 X104.952 Y103.190 E97.97910
G1 X95.048 Y93.286 E98.31238
G1 X95.048 Y92.548 E98.32994
G1 X95.190 Y92.548 E98.33334
G1 X104.952 Y102.310 E98.66182
G1 X104.952 Y101.429 E98.68278
G1 X96.071 Y92.548 E98.98161
G1 X96.952 Y92.548 E99.00257
G1 X104.952 Y100.548 E99.27176
G1 X104.952 Y99.667 E99.29272
G1 X97.833 Y92.548 E99.53227
G1 X98.714 Y92.548 E99.55323
G1 X104.952 Y98.786 E99.76314
G1 X104.952 Y97.905 E99.78410
G1 X99.595 Y92.548 E99.96436
G1 X100.476 Y92.548 E99.98532
G1 X104.952 Y97.024 E100.13595
G1 X104.952 Y96.143 E100.15691
G1 X101.357 Y92.548 E100.27789
G1 X102.238 Y92.548 E100.29885
G1 X104.952 Y95.262 E100.39018
G1 X104.952 Y94.381 E100.41114
G1 X103.119 Y92.548 E100.47284
G1 X104.000 Y92.548 E100.49380
G1 X104.952 Y93.500 E100.52585
G1 Z5.100 F7800.000
G1 X96.000 Y92.548 F7800.000
G1 F3115.41
G1 X95.048 Y93.500 E100.55791
G1 X95.048 Y94.381 E100.57887
G1 X96.881 Y92.548 E100.64056
G1 X97.762 Y92.548 E100.66152
G1 X95.048 Y95.262 E100.75286
G1 X95.048 Y96.143 E100.77382
G1 X98.643 Y92.548 E100.89480
G1 X99.524 Y92.548 E100.91576
G1 X95.048 Y97.024 E101.06638
G1 X95.048 Y97.905 E101.08734
G1 X100.405 Y92.548 E101.26761
G1 X101.286 Y92.548 E101.28857
G1 X95.048 Y98.786 E101.49847
G1 X95.048 Y99.667 E101.51943
G1 X102.167 Y92.548 E101.75898
G1 X103.048 Y92.548 E101.77994
G1 X95.048 Y100.548 E102.04914
G1 X95.048 Y101.429 E102.07010
G1 X103.929 Y92.548 E102.36893
G1 X104.810 Y92.548 E102.38989
G1 X95.048 Y102.310 E102.71837
G1 X95.048 Y103.190 E102.73933
G1 X104.952 Y93.286 E103.07261
G1 X104.952 Y94.167 E103.09357
G1 X95.048 Y104.071 E103.42685
G1 X95.048 Y104.952 E103.44781
G1 X104.952 Y95.048 E103.78109
G1 X104.952 Y95.929 E103.80205
G1 X95.048 Y105.833 E104.13533
G1 X95.048 Y106.714 E104.15629
G1 X104.952 Y96.810 E104.48957
G1 X104.952 Y97.690 E104.51053
G1 X95.190 Y107.452 E104.83901
G1 X96.071 Y107.452 E104.85997
G1 X104.952 Y98.571 E105.15880
G1 X104.952 Y99.452 E105.17976
G1 X96.952 Y107.452 E105.44895
G1 X97.833 Y107.452 E105.46991
G1 X104.952 Y100.333 E105.70946
G1 X104.952 Y101.214 E105.73042
G1 X98.714 Y107.452 E105.94033
G1 X99.595 Y107.452 E105.96129
G1 X104.952 Y102.095 E106.14155
G1 X104.952 Y102.976 E106.16252
G1 X100.476 Y107.452 E106.31314
G1 X101.357 Y107.452 E106.33410
G1 X104.952 Y103.857 E106.45508
G1 X104.952 Y104.738 E106.47604
G1 X102.238 Y107.452 E106.56738
G1 X103.119 Y107.452 E106.58834
G1 X104.952 Y105.619 E106.65003
G1 X104.952 Y106.500 E106.67099
G1 X104.000 Y107.452 E106.70304
G1 Z5.400 F7800.000
G1 X95.048 Y106.500 F7800.000
G1 F3115.41
G1 X96.000 Y107.452 E106.73510
G1 X96.881 Y107.452 E106.75606
G1 X95.048 Y105.619 E106.81775
G1 X95.048 Y104.738 E106.83871
G1 X97.762 Y107.452 E106.93005
G1 X98.643 Y107.452 E106.95101
G1 X95.048 Y103.857 E107.07199
G1 X95.048 Y102.976 E107.09295
G1 X99.524 Y107.452 E107.24357
G1 X100.405 Y107.452 E107.26453
G1 X95.048 Y102.095 E107.44480
G1 X95.048 Y101.214 E107.46576
G1 X101.286 Y107.452 E107.67567
G1 X102.167 Y107.452 E107.69663
G1 X95.048 Y100.333 E107.93618
G1 X95.048 Y99.452 E107.95714
G1 X103.048 Y107.452 E108.22633
G1 X103.929 Y107.452 E108.24729
G1 X95.048 Y98.571 E108.54612
G1 X95.048 Y97.690 E108.56708
G1 X104.810 Y107.452 E108.89556
G1 X104.952 Y107.452 E108.89896
G1 X104.952 Y106.714 E108.91652
G1 X95.048 Y96.810 E109.24980
G1 X95.048 Y95.929 E109.27076
G1 X104.952 Y105.833 E109.60404
G1 X104.952 Y104.952 E109.62500
G1 X95.048 Y95.048 E109.95828
G1 X95.048 Y94.167 E109.97924
G1 X104.952 Y104.071 E110.31252
G1 X104.952 Y103.190 E110.33348
G1 X95.048 Y93.286 E110.66676
G1 X95.048 Y92.548 E110.68433
G1 X95.190 Y92.548 E110.68772
G1 X104.952 Y102.310 E111.01620
G1 X104.952 Y101.429 E111.03716
G1 X96.071 Y92.548 E111.33599
G1 X96.952 Y92.548 E111.35695
G1 X104.952 Y100.548 E111.62615
G1 X104.952 Y99.667 E111.64711
G1 X97.833 Y92.548 E111.88666
G1 X98.714 Y92.548 E111.90762
G1 X104.952 Y98.786 E112.11752
G1 X104.952 Y97.905 E112.13848
G1 X99.595 Y92.548 E112.31875
G1 X100.476 Y92.548 E112.33971
G1 X104.952 Y97.024 E112.49033
G1 X104.952 Y96.143 E112.51129
G1 X101.357 Y92.548 E112.63227
G1 X102.238 Y92.548 E112.65323
G1 X104.952 Y95.262 E112.74457
G1 X104.952 Y94.381 E112.76553
G1 X103.119 Y92.548 E112.82722
G1 X104.000 Y92.548 E112.84818
G1 X104.952 Y93.500 E112.88024
G1 Z5.700 F7800.000
G1 X96.000 Y92.548 F7800.000
G1 F3115.41
G1 X95.048 Y93.500 E112.91229
G1 X95.048 Y94.381 E112.93325
G1 X96.881 Y92.548 E112.99495
G1 X97.762 Y92.548 E113.01591
G1 X95.048 Y95.262 E113.10724
G1 X95.048 Y96.143 E113.12820
G1 X98.643 Y92.548 E113.24918
G1 X99.524 Y92.548 E113.27014
G1 X95.048 Y97.024 E113.42077
G1 X95.048 Y97.905 E113.44173
G1 X100.405 Y92.548 E113.62199
G1 X101.286 Y92.548 E113.64295
G1 X95.048 Y98.786 E113.85286
G1 X95.048 Y99.667 E113.87382
G1 X102.167 Y92.548 E114.11337
G1 X103.048 Y92.548 E114.13433
G1 X95.048 Y100.548 E114.40352
G1 X95.048 Y101.429 E114.42448
G1 X103.929 Y92.548 E114.72331
G1 X104.810 Y92.548 E114.74427
G1 X95.048 Y102.310 E115.07275
G1 X95.048 Y103.190 E115.09371
G1 X104.952 Y93.286 E115.42699
G1 X104.952 Y94.167 E115.44795
G1 X95.048 Y104.071 E115.78123
G1 X95.048 Y104.952 E115.80219
G1 X104.952 Y95.048 E116.13547
G1 X104.952 Y95.929 E116.15643
G1 X95.048 Y105.833 E116.48971
G1 X95.048 Y106.714 E116.51067
G1 X104.952 Y96.810 E116.84395
G1 X104.952 Y97.690 E116.86492
G1 X95.190 Y107.452 E117.19339
G1 X96.071 Y107.452 E117.21435
G1 X104.952 Y98.571 E117.51319
G1 X104.952 Y99.452 E117.53415
G1 X96.952 Y107.452 E117.80334
G1 X97.833 Y107.452 E117.82430
G1 X104.952 Y100.333 E118.06385
G1 X104.952 Y101.214 E118.08481
G1 X98.714 Y107.452 E118.29471
G1 X99.595 Y107.452 E118.31567
G1 X104.952 Y102.095 E118.49594
G1 X104.952 Y102.976 E118.51690
G1 X100.476 Y107.452 E118.66752
G1 X101.357 Y107.452 E118.68848
G1 X104.952 Y103.857 E118.80946
G1 X104.952 Y104.738 E118.83042
G1 X102.238 Y107.452 E118.92176
G1 X103.119 Y107.452 E118.94272
G1 X104.952 Y105.619 E119.00442
G1 X104.952 Y106.500 E119.02538
G1 X104.000 Y107.452 E119.05743
G1 Z6.000 F7800.000
G1 X95.048 Y106.500 F7800.000
G1 F3115.41
G1 X96.000 Y107.452 E119.08948
G1 X96.881 Y107.452 E119.11044
G1 X95.048 Y105.619 E119.17214
G1 X95.048 Y104.738 E119.19310
G1 X97.762 Y107.452 E119.28443
G1 X98.643 Y107.452 E119.30540
G1 X95.048 Y103.857 E119.42638
G1 X95.048 Y102.976 E119.44734
G1 X99.524 Y107.452 E119.59796
G1 X100.405 Y107.452 E119.61892
G1 X95.048 Y102.095 E119.79918
G1 X95.048 Y101.214 E119.82014
G1 X101.286 Y107.452 E120.03005
G1 X102.167 Y107.452 E120.05101
G1 X95.048 Y100.333 E120.29056
G1 X95.048 Y99.452 E120.31152
G1 X103.048 Y107.452 E120.58071
G1 X103.929 Y107.452 E120.60167
G1 X95.048 Y98.571 E120.90051
G1 X95.048 Y97.690 E120.92147
G1 X104.810 Y107.452 E121.24994
G1 X104.952 Y107.452 E121.25334
G1 X104.952 Y106.714 E121.27090
G1 X95.048 Y96.810 E121.60418
G1 X95.048 Y95.929 E121.62514
G1 X104.952 Y105.833 E121.95842
G1 X104.952 Y104.952 E121.97938
G1 X95.048 Y95.048 E122.31267
G1 X95.048 Y94.167 E122.33363
G1 X104.952 Y104.071 E122.66691
G1 X104.952 Y103.190 E122.68787
G1 X95.048 Y93.286 E123.02115
G1 X95.048 Y92.548 E123.03871
G1 X95.190 Y92.548 E123.04211
G1 X104.952 Y102.310 E123.37058
G1 X104.952 Y101.429 E123.39154
G1 X96.071 Y92.548 E123.69038
G1 X96.952 Y92.548 E123.71134
G1 X104.952 Y100.548 E123.98053
G1 X104.952 Y99.667 E124.00149
G1 X97.833 Y92.548 E124.24104
G1 X98.714 Y92.548 E124.26200
G1 X104.952 Y98.786 E124.47191
G1 X104.952 Y97.905 E124.49287
G1 X99.595 Y92.548 E124.67313
G1 X100.476 Y92.548 E124.69409
G1 X104.952 Y97.024 E124.84471
G1 X104.952 Y96.143 E124.86567
G1 X101.357 Y92.548 E124.98665
G1 X102.238 Y92.548 E125.00761
G1 X104.952 Y95.262 E125.09895
G1 X104.952 Y94.381 E125.11991
G1 X103.119 Y92.548 E125.18161
G1 X104.000 Y92.548 E125.20257
G1 X104.952 Y93.500 E125.23462
G1 Z6.300 F7800.000
G1 X96.000 Y92.548 F7800.000
G1 F3115.41
G1 X95.048 Y93.500 E125.26667
G1 X95.048 Y94.381 E125.28763
G1 X96.881 Y92.548 E125.34933
G1 X97.762 Y92.548 E125.37029
G1 X95.048 Y95.262 E125.46163
G1 X95.048 Y96.143 E125.48259
G1 X98.643 Y92.548 E125.60357
G1 X99.524 Y92.548 E125.62453
G1 X95.048 Y97.024 E125.77515
G1 X95.048 Y97.905 E125.79611
G1 X100.405 Y92.548 E125.97638
G1 X101.286 Y92.548 E125.99734
G1 X95.048 Y98.786 E126.20724
G1 X95.048 Y99.667 E126.22820
G1 X102.167 Y92.548 E126.46775
G1 X103.048 Y92.548 E126.48871
G1 X95.048 Y100.548 E126.75790
G1 X95.048 Y101.429 E126.77886
G1 X103.929 Y92.548 E127.07770
G1 X104.810 Y92.548 E127.09866
G1 X95.048 Y102.310 E127.42713
G1 X95.048 Y103.190 E127.44809
G1 X104.952 Y93.286 E127.78138
G1 X104.952 Y94.167 E127.80234
G1 X95.048 Y104.071 E128.13562
G1 X95.048 Y104.952 E128.15658
G1 X104.952 Y95.048 E128.48986
G1 X104.952 Y95.929 E128.51082
G1 X95.048 Y105.833 E128.84410
G1 X95.048 Y106.714 E128.86506
G1 X104.952 Y96.810 E129.19834
G1 X104.952 Y97.690 E129.21930
G1 X95.190 Y107.452 E129.54778
G1 X96.071 Y107.452 E129.56874
G1 X104.952 Y98.571 E129.86757
G1 X104.952 Y99.452 E129.88853
G1 X96.952 Y107.452 E130.15772
G1 X97.833 Y107.452 E130.17868
G1 X104.952 Y100.333 E130.41823
G1 X104.952 Y101.214 E130.43919
G1 X98.714 Y107.452 E130.64910
G1 X99.595 Y107.452 E130.67006
G1 X104.952 Y102.095 E130.85032
G1 X104.952 Y102.976 E130.87128
G1 X100.476 Y107.452 E131.02191
G1 X101.357 Y107.452 E131.04287
G1 X104.952 Y103.857 E131.16385
G1 X104.952 Y104.738 E131.18481
G1 X102.238 Y107.452 E131.27614
G1 X103.119 Y107.452 E131.29710
G1 X104.952 Y105.619 E131.35880
G1 X104.952 Y106.500 E131.37976
G1 X104.000 Y107.452 E131.41181
G1 Z6.600 F7800.000
G1 X95.048 Y106.500 F7800.000
G1 F3115.41
G1 X96.000 Y107.452 E131.44387
G1 X96.881 Y107.452 E131.46483
G1 X95.048 Y105.619 E131.52652
G1 X95.048 Y104.738 E131.54748
G1 X97.762 Y107.452 E131.63882
G1 X98.643 Y107.452 E131.65978
G1 X95.048 Y103.857 E131.78076
G1 X95.048 Y102.976 E131.80172
G1 X99.524 Y107.452 E131.95234
G1 X100.405 Y107.452 E131.97330
G1 X95.048 Y102.095 E132.15357
G1 X95.048 Y101.214 E132.17453
G1 X101.286 Y107.452 E132.38443
G1 X102.167 Y107.452 E132.40539
G1 X95.048 Y100.333 E132.64494
G1 X95.048 Y99.452 E132.66590
G1 X103.048 Y107.452 E132.93510
G1 X103.929 Y107.452 E132.95606
G1 X95.048 Y98.571 E133.25489
G1 X95.048 Y97.690 E133.27585
G1 X104.810 Y107.452 E133.60433
G1 X104.952 Y107.452 E133.60772
G1 X104.952 Y106.714 E133.62529
G1 X95.048 Y96.810 E133.95857
G1 X95.048 Y95.929 E133.97953
G1 X104.952 Y105.833 E134.31281
G1 X104.952 Y104.952 E134.33377
G1 X95.048 Y95.048 E134.66705
G1 X95.048 Y94.167 E134.68801
G1 X104.952 Y104.071 E135.02129
G1 X104.952 Y103.190 E135.04225
G1 X95.048 Y93.286 E135.37553
G1 X95.048 Y92.548 E135.39309
G1 X95.190 Y92.548 E135.39649
G1 X104.952 Y102.310 E135.72497
G1 X104.952 Y101.429 E135.74593
G1 X96.071 Y92.548 E136.04476
G1 X96.952 Y92.548 E136.06572
G1 X104.952 Y100.548 E136.33491
G1 X104.952 Y99.667 E136.35587
G1 X97.833 Y92.548 E136.59542
G1 X98.714 Y92.548 E136.61638
G1 X104.952 Y98.786 E136.82629
G1 X104.952 Y97.905 E136.84725
G1 X99.595 Y92.548 E137.02752
G1 X100.476 Y92.548 E137.04848
G1 X104.952 Y97.024 E137.19910
G1 X104.952 Y96.143 E137.22006
G1 X101.357 Y92.548 E137.34104
G1 X102.238 Y92.548 E137.36200
G1 X104.952 Y95.262 E137.45334
G1 X104.952 Y94.381 E137.47430
G1 X103.119 Y92.548 E137.53599
G1 X104.000 Y92.548 E137.55695
G1 X104.952 Y93.500 E137.58901
G1 Z6.900 F7800.000
G1 X96.000 Y92.548 F7800.000
G1 F3115.41
G1 X95.048 Y93.500 E137.62106
G1 X95.048 Y94.381 E137.64202
G1 X96.881 Y92.548 E137.70371
G1 X97.762 Y92.548 E137.72467
G1 X95.048 Y95.262 E137.81601
G1 X95.048 Y96.143 E137.83697
G1 X98.643 Y92.548 E137.95795
G1 X99.524 Y92.548 E137.97891
G1 X95.048 Y97.024 E138.12953
G1 X95.048 Y97.905 E138.15049
G1 X100.405 Y92.548 E138.33076
G1 X101.286 Y92.548 E138.35172
G1 X95.048 Y98.786 E138.56163
G1 X95.048 Y99.667 E138.58259
G1 X102.167 Y92.548 E138.82214
G1 X103.048 Y92.548 E138.84310
G1 X95.048 Y100.548 E139.11229
G1 X95.048 Y101.429 E139.13325
G1 X103.929 Y92.548 E139.43208
G1 X104.810 Y92.548 E139.45304
G1 X95.048 Y102.310 E139.78152
G1 X95.048 Y103.190 E139.80248
G1 X104.952 Y93.286 E140.13576
G1 X104.952 Y94.167 E140.15672
G1 X95.048 Y104.071 E140.49000
G1 X95.048 Y104.952 E140.51096
G1 X104.952 Y95.048 E140.84424
G1 X104.952 Y95.929 E140.86520
G1 X95.048 Y105.833 E141.19848
G1 X95.048 Y106.714 E141.21944
G1 X104.952 Y96.810 E141.55272
G1 X104.952 Y97.690 E141.57368
G1 X95.190 Y107.452 E141.90216
G1 X96.071 Y107.452 E141.92312
G1 X104.952 Y98.571 E142.22195
G1 X104.952 Y99.452 E142.24291
G1 X96.952 Y107.452 E142.51211
G1 X97.833 Y107.452 E142.53307
G1 X104.952 Y100.333 E142.77262
G1 X104.952 Y101.214 E142.79358
G1 X98.714 Y107.452 E143.00348
G1 X99.595 Y107.452 E143.02444
G1 X104.952 Y102.095 E143.20471
G1 X104.952 Y102.976 E143.22567
G1 X100.476 Y107.452 E143.37629
G1 X101.357 Y107.452 E143.39725
G1 X104.952 Y103.857 E143.51823
G1 X104.952 Y104.738 E143.53919
G1 X102.238 Y107.452 E143.63053
G1 X103.119 Y107.452 E143.65149
G1 X104.952 Y105.619 E143.71318
G1 X104.952 Y106.500 E143.73414
G1 X104.000 Y107.452 E143.76620
G1 Z7.200 F7800.000
G1 X95.048 Y106.500 F7800.000
G1 F3115.41
G1 X96.000 Y107.452 E143.79825
G1 X96.881 Y107.452 E143.81921
G1 X95.048 Y105.619 E143.88091
G1 X95.048 Y104.738 E143.90187
G1 X97.762 Y107.452 E143.99320
G1 X98.643 Y107.452 E144.01416
G1 X95.048 Y103.857 E144.13514
G1 X95.048 Y102.976 E144.15610
G1 X99.524 Y107.452 E144.30673
G1 X100.405 Y107.452 E144.32769
G1 X95.048 Y102.095 E144.50795
G1 X95.048 Y101.214 E144.52891
G1 X101.286 Y107.452 E144.73882
G1 X102.167 Y107.452 E144.75978
G1 X95.048 Y100.333 E144.99933
G1 X95.048 Y99.452 E145.02029
G1 X103.048 Y107.452 E145.28948
G1 X103.929 Y107.452 E145.31044
G1 X95.048 Y98.571 E145.60927
G1 X95.048 Y97.690 E145.63023
G1 X104.810 Y107.452 E145.95871
G1 X104.952 Y107.452 E145.96211
G1 X104.952 Y106.714 E145.97967
G1 X95.048 Y96.810 E146.31295
G1 X95.048 Y95.929 E146.33391
G1 X104.952 Y105.833 E146.66719
G1 X104.952 Y104.952 E146.68815
G1 X95.048 Y95.048 E147.02143
G1 X95.048 Y94.167 E147.04239
G1 X104.952 Y104.071 E147.37567
G1 X104.952 Y103.190 E147.39663
G1 X95.048 Y93.286 E147.72992
G1 X95.048 Y92.548 E147.74748
G1 X95.190 Y92.548 E147.75088
G1 X104.952 Y102.310 E148.07935
G1 X104.952 Y101.429 E148.10031
G1 X96.071 Y92.548 E148.39915
G1 X96.952 Y92.548 E148.42011
G1 X104.952 Y100.548 E148.68930
G1 X104.952 Y99.667 E148.71026
G1 X97.833 Y92.548 E148.94981
G1 X98.714 Y92.548 E148.97077
G1 X104.952 Y98.786 E149.18068
G1 X104.952 Y97.905 E149.20164
G1 X99.595 Y92.548 E149.38190
G1 X100.476 Y92.548 E149.40286
G1 X104.952 Y97.024 E149.55348
G1 X104.952 Y96.143 E149.57444
G1 X101.357 Y92.548 E149.69542
G1 X102.238 Y92.548 E149.71638
G1 X104.952 Y95.262 E149.80772
G1 X104.952 Y94.381 E149.82868
G1 X103.119 Y92.548 E149.89038
G1 X104.000 Y92.548 E149.91134
G1 X104.952 Y93.500 E149.94339
G1 Z7.500 F7800.000
G1 X96.000 Y92.548 F7800.000
G1 F3115.41
G1 X95.048 Y93.500 E149.97544
G1 X95.048 Y94.381 E149.99640
G1 X96.881 Y92.548 E150.05810
G1 X97.762 Y92.548 E150.07906
G1 X95.048 Y95.262 E150.17040
G1 X95.048 Y96.143 E150.19136
G1 X98.643 Y92.548 E150.31234
G1 X99.524 Y92.548 E150.33330
G1 X95.048 Y97.024 E150.48392
G1 X95.048 Y97.905 E150.50488
G1 X100.405 Y92.548 E150.68514
G1 X101.286 Y92.548 E150.70610
G1 X95.048 Y98.786 E150.91601
G1 X95.048 Y99.667 E150.93697
G1 X102.167 Y92.548 E151.17652
G1 X103.048 Y92.548 E151.19748
G1 X95.048 Y100.548 E151.46667
G1 X95.048 Y101.429 E151.48763
G1 X103.929 Y92.548 E151.78647
G1 X104.810 Y92.548 E151.80743
G1 X95.048 Y102.310 E152.13590
G1 X95.048 Y103.190 E152.15686
G1 X104.952 Y93.286 E152.49014
G1 X104.952 Y94.167 E152.51110
G1 X95.048 Y104.071 E152.84438
G1 X95.048 Y104.952 E152.86534
G1 X104.952 Y95.048 E153.19863
G1 X104.952 Y95.929 E153.21959
G1 X95.048 Y105.833 E153.55287
G1 X95.048 Y106.714 E153.57383
G1 X104.952 Y96.810 E153.90711
G1 X104.952 Y97.690 E153.92807
G1 X95.190 Y107.452 E154.25654
G1 X96.071 Y107.452 E154.27750
G1 X104.952 Y98.571 E154.57634
G1 X104.952 Y99.452 E154.59730
G1 X96.952 Y107.452 E154.86649
G1 X97.833 Y107.452 E154.88745
G1 X104.952 Y100.333 E155.12700
G1 X104.952 Y101.214 E155.14796
G1 X98.714 Y107.452 E155.35787
G1 X99.595 Y107.452 E155.37883
G1 X104.952 Y102.095 E155.55909
G1 X104.952 Y102.976 E155.58005
G1 X100.476 Y107.452 E155.73067
G1 X101.357 Y107.452 E155.75163
G1 X104.952 Y103.857 E155.87261
G1 X104.952 Y104.738 E155.89357
G1 X102.238 Y107.452 E155.98491
G1 X103.119 Y107.452 E156.00587
G1 X104.952 Y105.619 E156.06757
G1 X104.952 Y106.500 E156.08853
G1 X104.000 Y107.452 E156.12058
G1 Z7.800 F7800.000
G1 X95.048 Y106.500 F7800.000
G1 F3115.41
G1 X96.000 Y107.452 E156.15263
G1 X96.881 Y107.452 E156.17359
G1 X95.048 Y105.619 E156.23529
G1 X95.048 Y104.738 E156.25625
G1 X97.762 Y107.452 E156.34759
G1 X98.643 Y107.452 E156.36855
G1 X95.048 Y103.857 E156.48953
G1 X95.048 Y102.976 E156.51049
G1 X99.524 Y107.452 E156.66111
G1 X100.405 Y107.452 E156.68207
G1 X95.048 Y102.095 E156.86234
G1 X95.048 Y101.214 E156.88330
G1 X101.286 Y107.452 E157.09320
G1 X102.167 Y107.452 E157.11416
G1 X95.048 Y100.333 E157.35371
G1 X95.048 Y99.452 E157.37467
G1 X103.048 Y107.452 E157.64386
G1 X103.929 Y107.452 E157.66482
G1 X95.048 Y98.571 E157.96366
G1 X95.048 Y97.690 E157.98462
G1 X104.810 Y107.452 E158.31309
G1 X104.952 Y107.452 E158.31649
G1 X104.952 Y106.714 E158.33405
G1 X95.048 Y96.810 E158.66734
G1 X95.048 Y95.929 E158.68830
G1 X104.952 Y105.833 E159.02158
G1 X104.952 Y104.952 E159.04254
G1 X95.048 Y95.048 E159.37582
G1 X95.048 Y94.167 E159.39678
G1 X104.952 Y104.071 E159.73006
G1 X104.952 Y103.190 E159.75102
G1 X95.048 Y93.286 E160.08430
G1 X95.048 Y92.548 E160.10186
G1 X95.190 Y92.548 E160.10526
G1 X104.952 Y102.310 E160.43374
G1 X104.952 Y101.429 E160.45470
G1 X96.071 Y92.548 E160.75353
G1 X96.952 Y92.548 E160.77449
G1 X104.952 Y100.548 E161.04368
G1 X104.952 Y99.667 E161.06464
G1 X97.833 Y92.548 E161.30419
G1 X98.714 Y92.548 E161.32515
G1 X104.952 Y98.786 E161.53506
G1 X104.952 Y97.905 E161.55602
G1 X99.595 Y92.548 E161.73628
G1 X100.476 Y92.548 E161.75724
G1 X104.952 Y97.024 E161.90787
G1 X104.952 Y96.143 E161.92883
G1 X101.357 Y92.548 E162.04981
G1 X102.238 Y92.548 E162.07077
G1 X104.952 Y95.262 E162.16210
G1 X104.952 Y94.381 E162.18307
G1 X103.119 Y92.548 E162.24476
G1 X104.000 Y92.548 E162.26572
G1 X104.952 Y93.500 E162.29777
G1 Z8.100 F7800.000
G1 E160.29777 F2400.00000
G92 E0
G1 X96.000 Y92.548 F7800.000
G1 E2.00000 F2400.00000
G1 F3115.41
G1 X95.048 Y93.500 E2.03205
G1 X95.048 Y94.381 E2.05301
G1 X96.881 Y92.548 E2.11471
G1 X97.762 Y92.548 E2.13567
G1 X95.048 Y95.262 E2.22701
G1 X95.048 Y96.143 E2.24797
G1 X98.643 Y92.548 E2.36895
G1 X99.524 Y92.548 E2.38991
G1 X95.048 Y97.024 E2.54053
G1 X95.048 Y97.905 E2.56149
G1 X100.405 Y92.548 E2.74175
G1 X101.286 Y92.548 E2.76271
G1 X95.048 Y98.786 E2.97262
G1 X95.048 Y99.667 E2.99358
G1 X102.167 Y92.548 E3.23313
G1 X103.048 Y92.548 E3.25409
G1 X95.048 Y100.548 E3.52328
G1 X95.048 Y101.429 E3.54424
G1 X103.929 Y92.548 E3.84308
G1 X104.810 Y92.548 E3.86404
G1 X95.048 Y102.310 E4.19251
G1 X95.048 Y103.190 E4.21347
G1 X104.952 Y93.286 E4.54675
G1 X104.952 Y94.167 E4.56771
G1 X95.048 Y104.071 E4.90099
G1 X95.048 Y104.952 E4.92196
G1 X104.952 Y95.048 E5.25524
G1 X104.952 Y95.929 E5.27620
G1 X95.048 Y105.833 E5.60948
G1 X95.048 Y106.714 E5.63044
G1 X104.952 Y96.810 E5.96372
G1 X104.952 Y97.690 E5.98468
G1 X95.190 Y107.452 E6.31315
G1 X96.071 Y107.452 E6.33411
G1 X104.952 Y98.571 E6.63295
G1 X104.952 Y99.452 E6.65391
G1 X96.952 Y107.452 E6.92310
G1 X97.833 Y107.452 E6.94406
G1 X104.952 Y100.333 E7.18361
G1 X104.952 Y101.214 E7.20457
G1 X98.714 Y107.452 E7.41448
G1 X99.595 Y107.452 E7.43544
G1 X104.952 Y102.095 E7.61570
G1 X104.952 Y102.976 E7.63666
G1 X100.476 Y107.452 E7.78728
G1 X101.357 Y107.452 E7.80824
G1 X104.952 Y103.857 E7.92922
G1 X104.952 Y104.738 E7.95018
G1 X102.238 Y107.452 E8.04152
G1 X103.119 Y107.452 E8.06248
G1 X104.952 Y105.619 E8.12418
G1 X104.952 Y106.500 E8.14514
G1 X104.000 Y107.452 E8.17719
G1 E6.17719 F2400.00000
G92 E0
M107
; Filament-specific end gcode 
;END gcode for filament

M104 S0 ; turn off temperature
G28 X0  ; home X axis
M84     ; disable motors

M140 S0 ; set bed temperature
; filament used = 166.5mm (1.2cm3)
; total filament cost = 0.0

; avoid_crossing_perimeters = 0
; bed_shape = 0x0,200x0,200x200,0x200
; bed_temperature = 0
; before_layer_gcode = 
; between_objects_gcode = 
; bridge_acceleration = 0
; bridge_fan_speed = 100
; brim_connections_width = 0
; brim_width = 0
; complete_objects = 0
; cooling = 1
; default_acceleration = 0
; disable_fan_first_layers = 3
; duplicate_distance = 6
; end_filament_gcode = "; Filament-specific end gcode \n;END gcode for filament\n"
; end_gcode = M104 S0 ; turn off temperature\nG28 X0  ; home X axis\nM84     ; disable motors\n
; extruder_clearance_height = 20
; extruder_clearance_radius = 20
; extruder_offset = 0x0
; extrusion_axis = E
; extrusion_multiplier = 1
; fan_always_on = 0
; fan_below_layer_time = 60
; filament_colour = #FFFFFF
; filament_cost = 0
; filament_density = 0
; filament_diameter = 3
; filament_max_volumetric_speed = 0
; filament_notes = ""
; first_layer_acceleration = 0
; first_layer_bed_temperature = 0
; first_layer_extrusion_width = 200%
; first_layer_speed = 30
; first_layer_temperature = 205
; gcode_arcs = 0
; gcode_comments = 0
; gcode_flavor = reprap
; has_heatbed = 1
; infill_acceleration = 0
; infill_first = 0
; interior_brim_width = 0
; layer_gcode = 
; max_fan_speed = 100
; max_layer_height = 0.3
; max_print_speed = 80
; max_volumetric_speed = 0
; min_fan_speed = 35
; min_layer_height = 0.15
; min_print_speed = 10
; min_skirt_length = 0
; notes = 
; nozzle_diameter = 0.5
; only_retract_when_crossing_perimeters = 1
; ooze_prevention = 0
; output_filename_format = [input_filename_base].gcode
; perimeter_acceleration = 0
; post_process = 
; pressure_advance = 0
; printer_notes = 
; resolution = 0
; retract_before_travel = 2
; retract_layer_change = 0
; retract_length = 2
; retract_length_toolchange = 10
; retract_lift = 0
; retract_lift_above = 0
; retract_lift_below = 0
; retract_restart_extra = 0
; retract_restart_extra_toolchange = 0
; retract_speed = 40
; skirt_distance = 6
; skirt_height = 1
; skirts = 0
; slowdown_below_layer_time = 5
; spiral_vase = 0
; standby_temperature_delta = -5
; start_filament_gcode = "; Filament gcode\n"
; start_gcode = G28 ; home all axes\nG1 Z5 F5000 ; lift nozzle\n
; temperature = 200
; threads = 8
; toolchange_gcode = 
; travel_speed = 130
; use_firmware_retraction = 0
; use_relative_e_distances = 0
; use_set_and_wait_bed = 0
; use_set_and_wait_extruder = 0
; use_volumetric_e = 0
; vibration_limit = 0
; wipe = 0
; z_offset = 0
; z_steps_per_mm = 0
; adaptive_slicing = 0
; adaptive_slicing_quality = 75%
; dont_support_bridges = 1
; extrusion_width = 0
; first_layer_height = 0.3
; infill_only_where_needed = 0
; interface_shells = 0
; layer_height = 0.3
; match_horizontal_surfaces = 0
; raft_layers = 0
; regions_overlap = 0
; seam_position = aligned
; sequential_print_priority = 0
; support_material = 0
; support_material_angle = 0
; support_material_buildplate_only = 0
; support_material_contact_distance = 0.2
; support_material_enforce_layers = 0
; support_material_extruder = 1
; support_material_extrusion_width = 0
; support_material_interface_extruder = 1
; support_material_interface_extrusion_width = 0
; support_material_interface_layers = 3
; support_material_interface_spacing = 0
; support_material_interface_speed = 100%
; support_material_max_layers = 0
; support_material_pattern = pillars
; support_material_spacing = 2.5
; support_material_speed = 60
; support_material_threshold = 60%
; xy_size_compensation = 0
; bottom_infill_pattern = rectilinear
; bottom_solid_layers = 0
; bridge_flow_ratio = 1
; bridge_speed = 60
; external_perimeter_extrusion_width = 0
; external_perimeter_speed = 50%
; external_perimeters_first = 0
; extra_perimeters = 1
; fill_angle = 45
; fill_density = 90%
; fill_gaps = 1
; fill_pattern = rectilinear
; gap_fill_speed = 20
; infill_every_layers = 1
; infill_extruder = 1
; infill_extrusion_width = 0
; infill_overlap = 55%
; infill_speed = 80
; overhangs = 1
; perimeter_extruder = 1
; perimeter_extrusion_width = 0
; perimeter_speed = 60
; perimeters = 0
; small_perimeter_speed = 15
; solid_infill_below_area = 70
; solid_infill_every_layers = 0
; solid_infill_extruder = 1
; solid_infill_extrusion_width = 0
; solid_infill_speed = 20
; thin_walls = 1
; top_infill_extrusion_width = 0
; top_infill_pattern = rectilinear
; top_solid_infill_speed = 15
; top_solid_layers = 0
