; generated by Slic3r 1.3.0 on 2020-09-29 at 14:50:58

; external perimeters extrusion width = 0.55mm (4.37mm^3/s)
; perimeters extrusion width = 0.70mm (11.44mm^3/s)
; infill extrusion width = 0.63mm (13.45mm^3/s)
; solid infill extrusion width = 0.70mm (3.81mm^3/s)
; top infill extrusion width = 0.70mm (2.86mm^3/s)

M107
M104 S205 ; set temperature
G28 ; home all axes
G1 Z5 F5000 ; lift nozzle

; Filament gcode

M109 S205 ; set temperature and wait for it to be reached
G21 ; set units to millimeters
G90 ; use absolute coordinates
M82 ; use absolute distances for extrusion
G92 E0
G1 Z0.300 F7800.000
G1 E-2.00000 F2400.00000
G92 E0
G1 X104.933 Y92.994 F7800.000
G1 E2.00000 F2400.00000
G1 F1800
G1 X104.506 Y92.567 E2.01371
G1 X103.710 Y92.567 E2.03180
G1 X104.933 Y93.790 E2.07110
G1 X104.933 Y94.586 E2.08920
G1 X102.914 Y92.567 E2.15409
G1 X102.119 Y92.567 E2.17218
G1 X104.933 Y95.381 E2.26266
G1 X104.933 Y96.177 E2.28075
G1 X101.323 Y92.567 E2.39682
G1 X100.527 Y92.567 E2.41491
G1 X104.933 Y96.973 E2.55656
G1 X104.933 Y97.769 E2.57466
G1 X99.731 Y92.567 E2.74190
G1 X98.935 Y92.567 E2.75999
G1 X104.933 Y98.565 E2.95282
G1 X104.933 Y99.361 E2.97092
G1 X98.139 Y92.567 E3.18934
G1 X97.343 Y92.567 E3.20743
G1 X104.933 Y100.157 E3.45144
G1 X104.933 Y100.953 E3.46953
G1 X96.547 Y92.567 E3.73913
G1 X95.751 Y92.567 E3.75722
G1 X104.933 Y101.749 E4.05241
G1 X104.933 Y102.545 E4.07050
G1 X95.067 Y92.679 E4.38767
G1 X95.067 Y93.475 E4.40576
G1 X104.933 Y103.341 E4.72293
G1 X104.933 Y104.137 E4.74103
G1 X95.067 Y94.271 E5.05820
G1 X95.067 Y95.067 E5.07629
G1 X104.933 Y104.933 E5.39346
G1 X104.933 Y105.729 E5.41155
G1 X95.067 Y95.863 E5.72872
G1 X95.067 Y96.659 E5.74681
G1 X104.933 Y106.525 E6.06398
G1 X104.933 Y107.321 E6.08208
G1 X95.067 Y97.455 E6.39924
G1 X95.067 Y98.251 E6.41734
G1 X104.249 Y107.433 E6.71252
G1 X103.453 Y107.433 E6.73062
G1 X95.067 Y99.047 E7.00021
G1 X95.067 Y99.843 E7.01831
G1 X102.657 Y107.433 E7.26232
G1 X101.861 Y107.433 E7.28041
G1 X95.067 Y100.639 E7.49883
G1 X95.067 Y101.435 E7.51692
G1 X101.065 Y107.433 E7.70975
G1 X100.269 Y107.433 E7.72785
G1 X95.067 Y102.231 E7.89509
G1 X95.067 Y103.027 E7.91318
G1 X99.473 Y107.433 E8.05484
G1 X98.677 Y107.433 E8.07293
G1 X95.067 Y103.823 E8.18900
G1 X95.067 Y104.619 E8.20709
G1 X97.881 Y107.433 E8.29757
G1 X97.086 Y107.433 E8.31566
G1 X95.067 Y105.414 E8.38055
G1 X95.067 Y106.210 E8.39864
G1 X96.290 Y107.433 E8.43794
G1 X95.494 Y107.433 E8.45603
G1 X95.067 Y107.006 E8.46974
M104 S200 ; set temperature
G1 Z0.600 F7800.000
G1 X104.487 Y107.452 F7800.000
G1 F3435.71
G1 X104.952 Y106.987 E8.48540
G1 X104.952 Y106.191 E8.50434
G1 X103.691 Y107.452 E8.54678
G1 X102.895 Y107.452 E8.56572
G1 X104.952 Y105.395 E8.63495
G1 X104.952 Y104.599 E8.65389
G1 X102.099 Y107.452 E8.74989
G1 X101.303 Y107.452 E8.76883
G1 X104.952 Y103.803 E8.89162
G1 X104.952 Y103.007 E8.91056
G1 X100.507 Y107.452 E9.06014
G1 X99.711 Y107.452 E9.07907
G1 X104.952 Y102.211 E9.25543
G1 X104.952 Y101.415 E9.27437
G1 X98.915 Y107.452 E9.47751
G1 X98.119 Y107.452 E9.49645
G1 X104.952 Y100.619 E9.72637
G1 X104.952 Y99.823 E9.74531
G1 X97.323 Y107.452 E10.00201
G1 X96.527 Y107.452 E10.02095
G1 X104.952 Y99.027 E10.30444
G1 X104.952 Y98.231 E10.32338
G1 X95.731 Y107.452 E10.63365
G1 X95.048 Y107.452 E10.64992
G1 X95.048 Y107.340 E10.65259
G1 X104.952 Y97.436 E10.98587
G1 X104.952 Y96.640 E11.00481
G1 X95.048 Y106.544 E11.33809
G1 X95.048 Y105.748 E11.35703
G1 X104.952 Y95.844 E11.69031
G1 X104.952 Y95.048 E11.70925
G1 X95.048 Y104.952 E12.04253
G1 X95.048 Y104.156 E12.06147
G1 X104.952 Y94.252 E12.39475
G1 X104.952 Y93.456 E12.41368
G1 X95.048 Y103.360 E12.74696
G1 X95.048 Y102.564 E12.76590
G1 X104.952 Y92.660 E13.09918
G1 X104.952 Y92.548 E13.10185
G1 X104.269 Y92.548 E13.11812
G1 X95.048 Y101.769 E13.42839
G1 X95.048 Y100.973 E13.44733
G1 X103.473 Y92.548 E13.73082
G1 X102.677 Y92.548 E13.74976
G1 X95.048 Y100.177 E14.00647
G1 X95.048 Y99.381 E14.02540
G1 X101.881 Y92.548 E14.25533
G1 X101.085 Y92.548 E14.27426
G1 X95.048 Y98.585 E14.47740
G1 X95.048 Y97.789 E14.49634
G1 X100.289 Y92.548 E14.67270
G1 X99.493 Y92.548 E14.69164
G1 X95.048 Y96.993 E14.84121
G1 X95.048 Y96.197 E14.86015
G1 X98.697 Y92.548 E14.98294
G1 X97.901 Y92.548 E15.00188
G1 X95.048 Y95.401 E15.09789
G1 X95.048 Y94.605 E15.11683
G1 X97.105 Y92.548 E15.18605
G1 X96.309 Y92.548 E15.20499
G1 X95.048 Y93.809 E15.24743
G1 X95.048 Y93.013 E15.26637
G1 X95.513 Y92.548 E15.28203
G1 Z0.900 F7800.000
G1 X104.952 Y93.013 F7800.000
G1 F3435.72
G1 X104.487 Y92.548 E15.29769
G1 X103.691 Y92.548 E15.31663
G1 X104.952 Y93.809 E15.35907
G1 X104.952 Y94.605 E15.37801
G1 X102.895 Y92.548 E15.44723
G1 X102.099 Y92.548 E15.46617
G1 X104.952 Y95.401 E15.56218
G1 X104.952 Y96.197 E15.58112
G1 X101.303 Y92.548 E15.70391
G1 X100.507 Y92.548 E15.72285
G1 X104.952 Y96.993 E15.87242
G1 X104.952 Y97.789 E15.89136
G1 X99.711 Y92.548 E16.06772
G1 X98.915 Y92.548 E16.08666
G1 X104.952 Y98.585 E16.28980
G1 X104.952 Y99.381 E16.30873
G1 X98.119 Y92.548 E16.53866
G1 X97.323 Y92.548 E16.55760
G1 X104.952 Y100.177 E16.81430
G1 X104.952 Y100.973 E16.83324
G1 X96.527 Y92.548 E17.11673
G1 X95.731 Y92.548 E17.13567
G1 X104.952 Y101.769 E17.44594
G1 X104.952 Y102.564 E17.46488
G1 X95.048 Y92.660 E17.79816
G1 X95.048 Y93.456 E17.81710
G1 X104.952 Y103.360 E18.15038
G1 X104.952 Y104.156 E18.16932
G1 X95.048 Y94.252 E18.50260
G1 X95.048 Y95.048 E18.52153
G1 X104.952 Y104.952 E18.85482
G1 X104.952 Y105.748 E18.87375
G1 X95.048 Y95.844 E19.20703
G1 X95.048 Y96.640 E19.22597
G1 X104.952 Y106.544 E19.55925
G1 X104.952 Y107.340 E19.57819
G1 X95.048 Y97.436 E19.91147
G1 X95.048 Y98.231 E19.93041
G1 X104.269 Y107.452 E20.24068
G1 X103.473 Y107.452 E20.25962
G1 X95.048 Y99.027 E20.54311
G1 X95.048 Y99.823 E20.56205
G1 X102.677 Y107.452 E20.81875
G1 X101.881 Y107.452 E20.83769
G1 X95.048 Y100.619 E21.06761
G1 X95.048 Y101.415 E21.08655
G1 X101.085 Y107.452 E21.28969
G1 X100.289 Y107.452 E21.30863
G1 X95.048 Y102.211 E21.48499
G1 X95.048 Y103.007 E21.50393
G1 X99.493 Y107.452 E21.65350
G1 X98.697 Y107.452 E21.67244
G1 X95.048 Y103.803 E21.79523
G1 X95.048 Y104.599 E21.81417
G1 X97.901 Y107.452 E21.91018
G1 X97.105 Y107.452 E21.92911
G1 X95.048 Y105.395 E21.99834
G1 X95.048 Y106.191 E22.01728
G1 X96.309 Y107.452 E22.05972
G1 X95.513 Y107.452 E22.07866
G1 X95.048 Y106.987 E22.09432
M106 S255
G1 Z1.200 F7800.000
G1 X104.487 Y107.452 F7800.000
G1 F3435.71
G1 X104.952 Y106.987 E22.10998
G1 X104.952 Y106.191 E22.12891
G1 X103.691 Y107.452 E22.17136
G1 X102.895 Y107.452 E22.19030
G1 X104.952 Y105.395 E22.25952
G1 X104.952 Y104.599 E22.27846
G1 X102.099 Y107.452 E22.37447
G1 X101.303 Y107.452 E22.39341
G1 X104.952 Y103.803 E22.51620
G1 X104.952 Y103.007 E22.53513
G1 X100.507 Y107.452 E22.68471
G1 X99.711 Y107.452 E22.70365
G1 X104.952 Y102.211 E22.88000
G1 X104.952 Y101.415 E22.89894
G1 X98.915 Y107.452 E23.10208
G1 X98.119 Y107.452 E23.12102
G1 X104.952 Y100.619 E23.35094
G1 X104.952 Y99.823 E23.36988
G1 X97.323 Y107.452 E23.62659
G1 X96.527 Y107.452 E23.64552
G1 X104.952 Y99.027 E23.92901
G1 X104.952 Y98.231 E23.94795
G1 X95.731 Y107.452 E24.25822
G1 X95.048 Y107.452 E24.27449
G1 X95.048 Y107.340 E24.27716
G1 X104.952 Y97.436 E24.61044
G1 X104.952 Y96.640 E24.62938
G1 X95.048 Y106.544 E24.96266
G1 X95.048 Y105.748 E24.98160
G1 X104.952 Y95.844 E25.31488
G1 X104.952 Y95.048 E25.33382
G1 X95.048 Y104.952 E25.66710
G1 X95.048 Y104.156 E25.68604
G1 X104.952 Y94.252 E26.01932
G1 X104.952 Y93.456 E26.03826
G1 X95.048 Y103.360 E26.37154
G1 X95.048 Y102.564 E26.39048
G1 X104.952 Y92.660 E26.72376
G1 X104.952 Y92.548 E26.72642
G1 X104.269 Y92.548 E26.74269
G1 X95.048 Y101.769 E27.05297
G1 X95.048 Y100.973 E27.07190
G1 X103.473 Y92.548 E27.35539
G1 X102.677 Y92.548 E27.37433
G1 X95.048 Y100.177 E27.63104
G1 X95.048 Y99.381 E27.64998
G1 X101.881 Y92.548 E27.87990
G1 X101.085 Y92.548 E27.89884
G1 X95.048 Y98.585 E28.10198
G1 X95.048 Y97.789 E28.12092
G1 X100.289 Y92.548 E28.29727
G1 X99.493 Y92.548 E28.31621
G1 X95.048 Y96.993 E28.46578
G1 X95.048 Y96.197 E28.48472
G1 X98.697 Y92.548 E28.60751
G1 X97.901 Y92.548 E28.62645
G1 X95.048 Y95.401 E28.72246
G1 X95.048 Y94.605 E28.74140
G1 X97.105 Y92.548 E28.81062
G1 X96.309 Y92.548 E28.82956
G1 X95.048 Y93.809 E28.87200
G1 X95.048 Y93.013 E28.89094
G1 X95.513 Y92.548 E28.90660
G1 Z1.500 F7800.000
G1 X104.952 Y93.013 F7800.000
G1 F3435.72
G1 X104.487 Y92.548 E28.92226
G1 X103.691 Y92.548 E28.94120
G1 X104.952 Y93.809 E28.98364
G1 X104.952 Y94.605 E29.00258
G1 X102.895 Y92.548 E29.07181
G1 X102.099 Y92.548 E29.09074
G1 X104.952 Y95.401 E29.18675
G1 X104.952 Y96.197 E29.20569
G1 X101.303 Y92.548 E29.32848
G1 X100.507 Y92.548 E29.34742
G1 X104.952 Y96.993 E29.49699
G1 X104.952 Y97.789 E29.51593
G1 X99.711 Y92.548 E29.69229
G1 X98.915 Y92.548 E29.71123
G1 X104.952 Y98.585 E29.91437
G1 X104.952 Y99.381 E29.93331
G1 X98.119 Y92.548 E30.16323
G1 X97.323 Y92.548 E30.18217
G1 X104.952 Y100.177 E30.43887
G1 X104.952 Y100.973 E30.45781
G1 X96.527 Y92.548 E30.74130
G1 X95.731 Y92.548 E30.76024
G1 X104.952 Y101.769 E31.07051
G1 X104.952 Y102.564 E31.08945
G1 X95.048 Y92.660 E31.42273
G1 X95.048 Y93.456 E31.44167
G1 X104.952 Y103.360 E31.77495
G1 X104.952 Y104.156 E31.79389
G1 X95.048 Y94.252 E32.12717
G1 X95.048 Y95.048 E32.14611
G1 X104.952 Y104.952 E32.47939
G1 X104.952 Y105.748 E32.49833
G1 X95.048 Y95.844 E32.83161
G1 X95.048 Y96.640 E32.85055
G1 X104.952 Y106.544 E33.18383
G1 X104.952 Y107.340 E33.20276
G1 X95.048 Y97.436 E33.53605
G1 X95.048 Y98.231 E33.55498
G1 X104.269 Y107.452 E33.86526
G1 X103.473 Y107.452 E33.88419
G1 X95.048 Y99.027 E34.16768
G1 X95.048 Y99.823 E34.18662
G1 X102.677 Y107.452 E34.44333
G1 X101.881 Y107.452 E34.46226
G1 X95.048 Y100.619 E34.69219
G1 X95.048 Y101.415 E34.71113
G1 X101.085 Y107.452 E34.91427
G1 X100.289 Y107.452 E34.93320
G1 X95.048 Y102.211 E35.10956
G1 X95.048 Y103.007 E35.12850
G1 X99.493 Y107.452 E35.27807
G1 X98.697 Y107.452 E35.29701
G1 X95.048 Y103.803 E35.41980
G1 X95.048 Y104.599 E35.43874
G1 X97.901 Y107.452 E35.53475
G1 X97.105 Y107.452 E35.55369
G1 X95.048 Y105.395 E35.62291
G1 X95.048 Y106.191 E35.64185
G1 X96.309 Y107.452 E35.68429
G1 X95.513 Y107.452 E35.70323
G1 X95.048 Y106.987 E35.71889
G1 Z1.800 F7800.000
G1 X104.487 Y107.452 F7800.000
G1 F3435.71
G1 X104.952 Y106.987 E35.73455
G1 X104.952 Y106.191 E35.75349
G1 X103.691 Y107.452 E35.79593
G1 X102.895 Y107.452 E35.81487
G1 X104.952 Y105.395 E35.88409
G1 X104.952 Y104.599 E35.90303
G1 X102.099 Y107.452 E35.99904
G1 X101.303 Y107.452 E36.01798
G1 X104.952 Y103.803 E36.14077
G1 X104.952 Y103.007 E36.15971
G1 X100.507 Y107.452 E36.30928
G1 X99.711 Y107.452 E36.32822
G1 X104.952 Y102.211 E36.50458
G1 X104.952 Y101.415 E36.52351
G1 X98.915 Y107.452 E36.72665
G1 X98.119 Y107.452 E36.74559
G1 X104.952 Y100.619 E36.97552
G1 X104.952 Y99.823 E36.99445
G1 X97.323 Y107.452 E37.25116
G1 X96.527 Y107.452 E37.27010
G1 X104.952 Y99.027 E37.55359
G1 X104.952 Y98.231 E37.57252
G1 X95.731 Y107.452 E37.88280
G1 X95.048 Y107.452 E37.89907
G1 X95.048 Y107.340 E37.90173
G1 X104.952 Y97.436 E38.23501
G1 X104.952 Y96.640 E38.25395
G1 X95.048 Y106.544 E38.58723
G1 X95.048 Y105.748 E38.60617
G1 X104.952 Y95.844 E38.93945
G1 X104.952 Y95.048 E38.95839
G1 X95.048 Y104.952 E39.29167
G1 X95.048 Y104.156 E39.31061
G1 X104.952 Y94.252 E39.64389
G1 X104.952 Y93.456 E39.66283
G1 X95.048 Y103.360 E39.99611
G1 X95.048 Y102.564 E40.01505
G1 X104.952 Y92.660 E40.34833
G1 X104.952 Y92.548 E40.35100
G1 X104.269 Y92.548 E40.36727
G1 X95.048 Y101.769 E40.67754
G1 X95.048 Y100.973 E40.69648
G1 X103.473 Y92.548 E40.97997
G1 X102.677 Y92.548 E40.99890
G1 X95.048 Y100.177 E41.25561
G1 X95.048 Y99.381 E41.27455
G1 X101.881 Y92.548 E41.50447
G1 X101.085 Y92.548 E41.52341
G1 X95.048 Y98.585 E41.72655
G1 X95.048 Y97.789 E41.74549
G1 X100.289 Y92.548 E41.92184
G1 X99.493 Y92.548 E41.94078
G1 X95.048 Y96.993 E42.09036
G1 X95.048 Y96.197 E42.10930
G1 X98.697 Y92.548 E42.23209
G1 X97.901 Y92.548 E42.25103
G1 X95.048 Y95.401 E42.34703
G1 X95.048 Y94.605 E42.36597
G1 X97.105 Y92.548 E42.43520
G1 X96.309 Y92.548 E42.45414
G1 X95.048 Y93.809 E42.49658
G1 X95.048 Y93.013 E42.51552
G1 X95.513 Y92.548 E42.53118
G1 Z2.100 F7800.000
G1 X104.952 Y93.013 F7800.000
G1 F3435.72
G1 X104.487 Y92.548 E42.54683
G1 X103.691 Y92.548 E42.56577
G1 X104.952 Y93.809 E42.60822
G1 X104.952 Y94.605 E42.62715
G1 X102.895 Y92.548 E42.69638
G1 X102.099 Y92.548 E42.71532
G1 X104.952 Y95.401 E42.81133
G1 X104.952 Y96.197 E42.83026
G1 X101.303 Y92.548 E42.95305
G1 X100.507 Y92.548 E42.97199
G1 X104.952 Y96.993 E43.12157
G1 X104.952 Y97.789 E43.14051
G1 X99.711 Y92.548 E43.31686
G1 X98.915 Y92.548 E43.33580
G1 X104.952 Y98.585 E43.53894
G1 X104.952 Y99.381 E43.55788
G1 X98.119 Y92.548 E43.78780
G1 X97.323 Y92.548 E43.80674
G1 X104.952 Y100.177 E44.06345
G1 X104.952 Y100.973 E44.08238
G1 X96.527 Y92.548 E44.36587
G1 X95.731 Y92.548 E44.38481
G1 X104.952 Y101.769 E44.69508
G1 X104.952 Y102.564 E44.71402
G1 X95.048 Y92.660 E45.04730
G1 X95.048 Y93.456 E45.06624
G1 X104.952 Y103.360 E45.39952
G1 X104.952 Y104.156 E45.41846
G1 X95.048 Y94.252 E45.75174
G1 X95.048 Y95.048 E45.77068
G1 X104.952 Y104.952 E46.10396
G1 X104.952 Y105.748 E46.12290
G1 X95.048 Y95.844 E46.45618
G1 X95.048 Y96.640 E46.47512
G1 X104.952 Y106.544 E46.80840
G1 X104.952 Y107.340 E46.82734
G1 X95.048 Y97.436 E47.16062
G1 X95.048 Y98.231 E47.17956
G1 X104.269 Y107.452 E47.48983
G1 X103.473 Y107.452 E47.50877
G1 X95.048 Y99.027 E47.79225
G1 X95.048 Y99.823 E47.81119
G1 X102.677 Y107.452 E48.06790
G1 X101.881 Y107.452 E48.08684
G1 X95.048 Y100.619 E48.31676
G1 X95.048 Y101.415 E48.33570
G1 X101.085 Y107.452 E48.53884
G1 X100.289 Y107.452 E48.55778
G1 X95.048 Y102.211 E48.73413
G1 X95.048 Y103.007 E48.75307
G1 X99.493 Y107.452 E48.90265
G1 X98.697 Y107.452 E48.92158
G1 X95.048 Y103.803 E49.04437
G1 X95.048 Y104.599 E49.06331
G1 X97.901 Y107.452 E49.15932
G1 X97.105 Y107.452 E49.17826
G1 X95.048 Y105.395 E49.24748
G1 X95.048 Y106.191 E49.26642
G1 X96.309 Y107.452 E49.30886
G1 X95.513 Y107.452 E49.32780
G1 X95.048 Y106.987 E49.34346
G1 Z2.400 F7800.000
G1 X104.487 Y107.452 F7800.000
G1 F3435.71
G1 X104.952 Y106.987 E49.35912
G1 X104.952 Y106.191 E49.37806
G1 X103.691 Y107.452 E49.42050
G1 X102.895 Y107.452 E49.43944
G1 X104.952 Y105.395 E49.50867
G1 X104.952 Y104.599 E49.52760
G1 X102.099 Y107.452 E49.62361
G1 X101.303 Y107.452 E49.64255
G1 X104.952 Y103.803 E49.76534
G1 X104.952 Y103.007 E49.78428
G1 X100.507 Y107.452 E49.93385
G1 X99.711 Y107.452 E49.95279
G1 X104.952 Y102.211 E50.12915
G1 X104.952 Y101.415 E50.14809
G1 X98.915 Y107.452 E50.35123
G1 X98.119 Y107.452 E50.37016
G1 X104.952 Y100.619 E50.60009
G1 X104.952 Y99.823 E50.61903
G1 X97.323 Y107.452 E50.87573
G1 X96.527 Y107.452 E50.89467
G1 X104.952 Y99.027 E51.17816
G1 X104.952 Y98.231 E51.19710
G1 X95.731 Y107.452 E51.50737
G1 X95.048 Y107.452 E51.52364
G1 X95.048 Y107.340 E51.52631
G1 X104.952 Y97.436 E51.85959
G1 X104.952 Y96.640 E51.87853
G1 X95.048 Y106.544 E52.21181
G1 X95.048 Y105.748 E52.23074
G1 X104.952 Y95.844 E52.56403
G1 X104.952 Y95.048 E52.58296
G1 X95.048 Y104.952 E52.91624
G1 X95.048 Y104.156 E52.93518
G1 X104.952 Y94.252 E53.26846
G1 X104.952 Y93.456 E53.28740
G1 X95.048 Y103.360 E53.62068
G1 X95.048 Y102.564 E53.63962
G1 X104.952 Y92.660 E53.97290
G1 X104.952 Y92.548 E53.97557
G1 X104.269 Y92.548 E53.99184
G1 X95.048 Y101.769 E54.30211
G1 X95.048 Y100.973 E54.32105
G1 X103.473 Y92.548 E54.60454
G1 X102.677 Y92.548 E54.62348
G1 X95.048 Y100.177 E54.88018
G1 X95.048 Y99.381 E54.89912
G1 X101.881 Y92.548 E55.12904
G1 X101.085 Y92.548 E55.14798
G1 X95.048 Y98.585 E55.35112
G1 X95.048 Y97.789 E55.37006
G1 X100.289 Y92.548 E55.54642
G1 X99.493 Y92.548 E55.56536
G1 X95.048 Y96.993 E55.71493
G1 X95.048 Y96.197 E55.73387
G1 X98.697 Y92.548 E55.85666
G1 X97.901 Y92.548 E55.87560
G1 X95.048 Y95.401 E55.97161
G1 X95.048 Y94.605 E55.99054
G1 X97.105 Y92.548 E56.05977
G1 X96.309 Y92.548 E56.07871
G1 X95.048 Y93.809 E56.12115
G1 X95.048 Y93.013 E56.14009
G1 X95.513 Y92.548 E56.15575
G1 Z2.700 F7800.000
