; generated by Slic3r 1.3.0 on 2020-09-29 at 14:44:51

; external perimeters extrusion width = 0.55mm (4.37mm^3/s)
; perimeters extrusion width = 0.70mm (11.44mm^3/s)
; infill extrusion width = 0.63mm (13.45mm^3/s)
; solid infill extrusion width = 0.70mm (3.81mm^3/s)
; top infill extrusion width = 0.70mm (2.86mm^3/s)

M107
M104 S205 ; set temperature
G28 ; home all axes
G1 Z5 F5000 ; lift nozzle

; Filament gcode

M109 S205 ; set temperature and wait for it to be reached
G21 ; set units to millimeters
G90 ; use absolute coordinates
M82 ; use absolute distances for extrusion
G92 E0
G1 Z0.300 F7800.000
G1 E-2.00000 F2400.00000
G92 E0
G1 X97.567 Y92.993 F7800.000
G1 E2.00000 F2400.00000
G1 F1722.17
G1 X97.994 Y92.567 E2.01371
G1 X98.814 Y92.567 E2.03236
G1 X97.567 Y93.814 E2.07246
G1 X97.567 Y94.635 E2.09112
G1 X99.635 Y92.567 E2.15761
G1 X100.456 Y92.567 E2.17627
G1 X97.567 Y95.456 E2.26914
G1 X97.567 Y96.277 E2.28780
G1 X101.277 Y92.567 E2.40706
G1 X102.098 Y92.567 E2.42572
G1 X97.567 Y97.098 E2.57137
G1 X97.567 Y97.918 E2.59003
G1 X102.433 Y93.053 E2.74645
G1 X102.433 Y93.874 E2.76511
G1 X97.567 Y98.739 E2.92154
G1 X97.567 Y99.560 E2.94020
G1 X102.433 Y94.694 E3.09662
G1 X102.433 Y95.515 E3.11528
G1 X97.567 Y100.381 E3.27171
G1 X97.567 Y101.202 E3.29037
G1 X102.433 Y96.336 E3.44679
G1 X102.433 Y97.157 E3.46545
G1 X97.567 Y102.022 E3.62188
G1 X97.567 Y102.843 E3.64054
G1 X102.433 Y97.978 E3.79696
G1 X102.433 Y98.798 E3.81562
G1 X97.567 Y103.664 E3.97205
G1 X97.567 Y104.485 E3.99071
G1 X102.433 Y99.619 E4.14713
G1 X102.433 Y100.440 E4.16579
G1 X97.567 Y105.306 E4.32222
G1 X97.567 Y106.126 E4.34087
G1 X102.433 Y101.261 E4.49730
G1 X102.433 Y102.082 E4.51596
G1 X97.567 Y106.947 E4.67239
G1 X97.567 Y107.433 E4.68342
G1 X97.902 Y107.433 E4.69104
G1 X102.433 Y102.902 E4.83669
G1 X102.433 Y103.723 E4.85535
G1 X98.723 Y107.433 E4.97461
G1 X99.544 Y107.433 E4.99327
G1 X102.433 Y104.544 E5.08615
G1 X102.433 Y105.365 E5.10480
G1 X100.365 Y107.433 E5.17129
G1 X101.186 Y107.433 E5.18995
G1 X102.433 Y106.186 E5.23005
G1 X102.433 Y107.006 E5.24871
G1 X102.006 Y107.433 E5.26242
M104 S200 ; set temperature
G1 Z0.600 F7800.000
G1 X98.013 Y107.452 F7800.000
G1 F1738.01
G1 X97.548 Y106.987 E5.27807
G1 X97.548 Y106.166 E5.29760
G1 X98.834 Y107.452 E5.34088
G1 X99.655 Y107.452 E5.36041
G1 X97.548 Y105.345 E5.43131
G1 X97.548 Y104.525 E5.45084
G1 X100.475 Y107.452 E5.54936
G1 X101.296 Y107.452 E5.56889
G1 X97.548 Y103.704 E5.69502
G1 X97.548 Y102.883 E5.71455
G1 X102.117 Y107.452 E5.86831
G1 X102.452 Y107.452 E5.87629
G1 X102.452 Y106.967 E5.88784
G1 X97.548 Y102.062 E6.05288
G1 X97.548 Y101.241 E6.07240
G1 X102.452 Y106.146 E6.23744
G1 X102.452 Y105.325 E6.25697
G1 X97.548 Y100.420 E6.42201
G1 X97.548 Y99.600 E6.44154
G1 X102.452 Y104.504 E6.60657
G1 X102.452 Y103.684 E6.62610
G1 X97.548 Y98.779 E6.79114
G1 X97.548 Y97.958 E6.81067
G1 X102.452 Y102.863 E6.97570
G1 X102.452 Y102.042 E6.99523
G1 X97.548 Y97.137 E7.16027
G1 X97.548 Y96.316 E7.17980
G1 X102.452 Y101.221 E7.34483
G1 X102.452 Y100.400 E7.36436
G1 X97.548 Y95.496 E7.52940
G1 X97.548 Y94.675 E7.54893
G1 X102.452 Y99.579 E7.71397
G1 X102.452 Y98.759 E7.73349
G1 X97.548 Y93.854 E7.89853
G1 X97.548 Y93.033 E7.91806
G1 X102.452 Y97.938 E8.08310
G1 X102.452 Y97.117 E8.10263
G1 X97.883 Y92.548 E8.25638
G1 X98.704 Y92.548 E8.27591
G1 X102.452 Y96.296 E8.40205
G1 X102.452 Y95.475 E8.42158
G1 X99.525 Y92.548 E8.52009
G1 X100.345 Y92.548 E8.53962
G1 X102.452 Y94.655 E8.61052
G1 X102.452 Y93.834 E8.63005
G1 X101.166 Y92.548 E8.67333
G1 X101.987 Y92.548 E8.69286
G1 X102.452 Y93.013 E8.70852
G1 Z0.900 F7800.000
G1 X97.548 Y93.013 F7800.000
G1 F1738.01
G1 X98.013 Y92.548 E8.72417
G1 X98.834 Y92.548 E8.74370
G1 X97.548 Y93.834 E8.78698
G1 X97.548 Y94.655 E8.80651
G1 X99.655 Y92.548 E8.87741
G1 X100.475 Y92.548 E8.89694
G1 X97.548 Y95.475 E8.99545
G1 X97.548 Y96.296 E9.01498
G1 X101.296 Y92.548 E9.14112
G1 X102.117 Y92.548 E9.16065
G1 X97.548 Y97.117 E9.31441
G1 X97.548 Y97.938 E9.33394
G1 X102.452 Y93.033 E9.49897
G1 X102.452 Y93.854 E9.51850
G1 X97.548 Y98.759 E9.68354
G1 X97.548 Y99.579 E9.70307
G1 X102.452 Y94.675 E9.86810
G1 X102.452 Y95.496 E9.88763
G1 X97.548 Y100.400 E10.05267
G1 X97.548 Y101.221 E10.07220
G1 X102.452 Y96.316 E10.23723
G1 X102.452 Y97.137 E10.25676
G1 X97.548 Y102.042 E10.42180
G1 X97.548 Y102.863 E10.44133
G1 X102.452 Y97.958 E10.60636
G1 X102.452 Y98.779 E10.62589
G1 X97.548 Y103.684 E10.79093
G1 X97.548 Y104.504 E10.81046
G1 X102.452 Y99.600 E10.97550
G1 X102.452 Y100.421 E10.99503
G1 X97.548 Y105.325 E11.16006
G1 X97.548 Y106.146 E11.17959
G1 X102.452 Y101.241 E11.34463
G1 X102.452 Y102.062 E11.36416
G1 X97.548 Y106.967 E11.52919
G1 X97.548 Y107.452 E11.54075
G1 X97.883 Y107.452 E11.54872
G1 X102.452 Y102.883 E11.70248
G1 X102.452 Y103.704 E11.72201
G1 X98.704 Y107.452 E11.84814
G1 X99.525 Y107.452 E11.86767
G1 X102.452 Y104.525 E11.96619
G1 X102.452 Y105.345 E11.98572
G1 X100.345 Y107.452 E12.05662
G1 X101.166 Y107.452 E12.07615
G1 X102.452 Y106.166 E12.11943
G1 X102.452 Y106.987 E12.13896
G1 X101.987 Y107.452 E12.15462
M106 S255
G1 Z1.200 F7800.000
G1 X98.013 Y107.452 F7800.000
G1 F1738.01
G1 X97.548 Y106.987 E12.17027
G1 X97.548 Y106.166 E12.18980
G1 X98.834 Y107.452 E12.23308
G1 X99.655 Y107.452 E12.25261
G1 X97.548 Y105.345 E12.32351
G1 X97.548 Y104.525 E12.34304
G1 X100.475 Y107.452 E12.44156
G1 X101.296 Y107.452 E12.46108
G1 X97.548 Y103.704 E12.58722
G1 X97.548 Y102.883 E12.60675
G1 X102.117 Y107.452 E12.76051
G1 X102.452 Y107.452 E12.76848
G1 X102.452 Y106.967 E12.78004
G1 X97.548 Y102.062 E12.94507
G1 X97.548 Y101.241 E12.96460
G1 X102.452 Y106.146 E13.12964
G1 X102.452 Y105.325 E13.14917
G1 X97.548 Y100.420 E13.31420
G1 X97.548 Y99.600 E13.33373
G1 X102.452 Y104.504 E13.49877
G1 X102.452 Y103.684 E13.51830
G1 X97.548 Y98.779 E13.68334
G1 X97.548 Y97.958 E13.70287
G1 X102.452 Y102.863 E13.86790
G1 X102.452 Y102.042 E13.88743
G1 X97.548 Y97.137 E14.05247
G1 X97.548 Y96.316 E14.07200
G1 X102.452 Y101.221 E14.23703
G1 X102.452 Y100.400 E14.25656
G1 X97.548 Y95.496 E14.42160
G1 X97.548 Y94.675 E14.44113
G1 X102.452 Y99.579 E14.60616
G1 X102.452 Y98.759 E14.62569
G1 X97.548 Y93.854 E14.79073
G1 X97.548 Y93.033 E14.81026
G1 X102.452 Y97.938 E14.97529
G1 X102.452 Y97.117 E14.99482
G1 X97.883 Y92.548 E15.14858
G1 X98.704 Y92.548 E15.16811
G1 X102.452 Y96.296 E15.29425
G1 X102.452 Y95.475 E15.31378
G1 X99.525 Y92.548 E15.41229
G1 X100.345 Y92.548 E15.43182
G1 X102.452 Y94.655 E15.50272
G1 X102.452 Y93.834 E15.52225
G1 X101.166 Y92.548 E15.56553
G1 X101.987 Y92.548 E15.58506
G1 X102.452 Y93.013 E15.60072
G1 Z1.500 F7800.000
G1 X97.548 Y93.013 F7800.000
G1 F1738.01
G1 X98.013 Y92.548 E15.61637
G1 X98.834 Y92.548 E15.63590
G1 X97.548 Y93.834 E15.67918
G1 X97.548 Y94.655 E15.69871
G1 X99.655 Y92.548 E15.76961
G1 X100.475 Y92.548 E15.78914
G1 X97.548 Y95.475 E15.88765
G1 X97.548 Y96.296 E15.90718
G1 X101.296 Y92.548 E16.03332
G1 X102.117 Y92.548 E16.05285
G1 X97.548 Y97.117 E16.20660
G1 X97.548 Y97.938 E16.22613
G1 X102.452 Y93.033 E16.39117
G1 X102.452 Y93.854 E16.41070
G1 X97.548 Y98.759 E16.57574
G1 X97.548 Y99.579 E16.59527
G1 X102.452 Y94.675 E16.76030
G1 X102.452 Y95.496 E16.77983
G1 X97.548 Y100.400 E16.94487
G1 X97.548 Y101.221 E16.96440
G1 X102.452 Y96.316 E17.12943
G1 X102.452 Y97.137 E17.14896
G1 X97.548 Y102.042 E17.31400
G1 X97.548 Y102.863 E17.33353
G1 X102.452 Y97.958 E17.49856
G1 X102.452 Y98.779 E17.51809
G1 X97.548 Y103.684 E17.68313
G1 X97.548 Y104.504 E17.70266
G1 X102.452 Y99.600 E17.86769
G1 X102.452 Y100.421 E17.88722
G1 X97.548 Y105.325 E18.05226
G1 X97.548 Y106.146 E18.07179
G1 X102.452 Y101.241 E18.23683
G1 X102.452 Y102.062 E18.25636
G1 X97.548 Y106.967 E18.42139
G1 X97.548 Y107.452 E18.43294
G1 X97.883 Y107.452 E18.44092
G1 X102.452 Y102.883 E18.59468
G1 X102.452 Y103.704 E18.61421
G1 X98.704 Y107.452 E18.74034
G1 X99.525 Y107.452 E18.75987
G1 X102.452 Y104.525 E18.85839
G1 X102.452 Y105.345 E18.87792
G1 X100.345 Y107.452 E18.94882
G1 X101.166 Y107.452 E18.96835
G1 X102.452 Y106.166 E19.01163
G1 X102.452 Y106.987 E19.03115
G1 X101.987 Y107.452 E19.04681
G1 Z1.800 F7800.000
G1 X98.013 Y107.452 F7800.000
G1 F1738.01
G1 X97.548 Y106.987 E19.06247
G1 X97.548 Y106.166 E19.08200
G1 X98.834 Y107.452 E19.12528
G1 X99.655 Y107.452 E19.14481
G1 X97.548 Y105.345 E19.21571
G1 X97.548 Y104.525 E19.23524
G1 X100.475 Y107.452 E19.33375
G1 X101.296 Y107.452 E19.35328
G1 X97.548 Y103.704 E19.47942
G1 X97.548 Y102.883 E19.49895
G1 X102.117 Y107.452 E19.65271
G1 X102.452 Y107.452 E19.66068
G1 X102.452 Y106.967 E19.67224
G1 X97.548 Y102.062 E19.83727
G1 X97.548 Y101.241 E19.85680
G1 X102.452 Y106.146 E20.02184
G1 X102.452 Y105.325 E20.04137
G1 X97.548 Y100.420 E20.20640
G1 X97.548 Y99.600 E20.22593
G1 X102.452 Y104.504 E20.39097
G1 X102.452 Y103.684 E20.41050
G1 X97.548 Y98.779 E20.57553
G1 X97.548 Y97.958 E20.59506
G1 X102.452 Y102.863 E20.76010
G1 X102.452 Y102.042 E20.77963
G1 X97.548 Y97.137 E20.94467
G1 X97.548 Y96.316 E20.96420
G1 X102.452 Y101.221 E21.12923
G1 X102.452 Y100.400 E21.14876
G1 X97.548 Y95.496 E21.31380
G1 X97.548 Y94.675 E21.33333
G1 X102.452 Y99.579 E21.49836
G1 X102.452 Y98.759 E21.51789
G1 X97.548 Y93.854 E21.68293
G1 X97.548 Y93.033 E21.70246
G1 X102.452 Y97.938 E21.86749
G1 X102.452 Y97.117 E21.88702
G1 X97.883 Y92.548 E22.04078
G1 X98.704 Y92.548 E22.06031
G1 X102.452 Y96.296 E22.18644
G1 X102.452 Y95.475 E22.20597
G1 X99.525 Y92.548 E22.30449
G1 X100.345 Y92.548 E22.32402
G1 X102.452 Y94.655 E22.39492
G1 X102.452 Y93.834 E22.41445
G1 X101.166 Y92.548 E22.45773
G1 X101.987 Y92.548 E22.47726
G1 X102.452 Y93.013 E22.49292
G1 Z2.100 F7800.000
G1 X97.548 Y93.013 F7800.000
G1 F1738.01
G1 X98.013 Y92.548 E22.50857
G1 X98.834 Y92.548 E22.52810
G1 X97.548 Y93.834 E22.57138
G1 X97.548 Y94.655 E22.59091
G1 X99.655 Y92.548 E22.66181
G1 X100.475 Y92.548 E22.68134
G1 X97.548 Y95.475 E22.77985
G1 X97.548 Y96.296 E22.79938
G1 X101.296 Y92.548 E22.92552
G1 X102.117 Y92.548 E22.94505
G1 X97.548 Y97.117 E23.09880
G1 X97.548 Y97.938 E23.11833
G1 X102.452 Y93.033 E23.28337
G1 X102.452 Y93.854 E23.30290
G1 X97.548 Y98.759 E23.46793
G1 X97.548 Y99.579 E23.48746
G1 X102.452 Y94.675 E23.65250
G1 X102.452 Y95.496 E23.67203
G1 X97.548 Y100.400 E23.83707
G1 X97.548 Y101.221 E23.85660
G1 X102.452 Y96.316 E24.02163
G1 X102.452 Y97.137 E24.04116
G1 X97.548 Y102.042 E24.20620
G1 X97.548 Y102.863 E24.22573
G1 X102.452 Y97.958 E24.39076
G1 X102.452 Y98.779 E24.41029
G1 X97.548 Y103.684 E24.57533
G1 X97.548 Y104.504 E24.59486
G1 X102.452 Y99.600 E24.75989
G1 X102.452 Y100.421 E24.77942
G1 X97.548 Y105.325 E24.94446
G1 X97.548 Y106.146 E24.96399
G1 X102.452 Y101.241 E25.12902
G1 X102.452 Y102.062 E25.14855
G1 X97.548 Y106.967 E25.31359
G1 X97.548 Y107.452 E25.32514
G1 X97.883 Y107.452 E25.33312
G1 X102.452 Y102.883 E25.48688
G1 X102.452 Y103.704 E25.50640
G1 X98.704 Y107.452 E25.63254
G1 X99.525 Y107.452 E25.65207
G1 X102.452 Y104.525 E25.75059
G1 X102.452 Y105.345 E25.77012
G1 X100.345 Y107.452 E25.84102
G1 X101.166 Y107.452 E25.86055
G1 X102.452 Y106.166 E25.90382
G1 X102.452 Y106.987 E25.92335
G1 X101.987 Y107.452 E25.93901
G1 Z2.400 F7800.000
G1 X98.013 Y107.452 F7800.000
G1 F1738.01
G1 X97.548 Y106.987 E25.95467
G1 X97.548 Y106.166 E25.97420
G1 X98.834 Y107.452 E26.01748
G1 X99.655 Y107.452 E26.03701
G1 X97.548 Y105.345 E26.10790
G1 X97.548 Y104.525 E26.12743
G1 X100.475 Y107.452 E26.22595
G1 X101.296 Y107.452 E26.24548
G1 X97.548 Y103.704 E26.37162
G1 X97.548 Y102.883 E26.39115
G1 X102.117 Y107.452 E26.54491
G1 X102.452 Y107.452 E26.55288
G1 X102.452 Y106.967 E26.56443
G1 X97.548 Y102.062 E26.72947
G1 X97.548 Y101.241 E26.74900
G1 X102.452 Y106.146 E26.91404
G1 X102.452 Y105.325 E26.93357
G1 X97.548 Y100.420 E27.09860
G1 X97.548 Y99.600 E27.11813
G1 X102.452 Y104.504 E27.28317
G1 X102.452 Y103.684 E27.30270
G1 X97.548 Y98.779 E27.46773
G1 X97.548 Y97.958 E27.48726
G1 X102.452 Y102.863 E27.65230
G1 X102.452 Y102.042 E27.67183
G1 X97.548 Y97.137 E27.83686
G1 X97.548 Y96.316 E27.85639
G1 X102.452 Y101.221 E28.02143
G1 X102.452 Y100.400 E28.04096
G1 X97.548 Y95.496 E28.20600
G1 X97.548 Y94.675 E28.22552
G1 X102.452 Y99.579 E28.39056
G1 X102.452 Y98.759 E28.41009
G1 X97.548 Y93.854 E28.57513
G1 X97.548 Y93.033 E28.59466
G1 X102.452 Y97.938 E28.75969
G1 X102.452 Y97.117 E28.77922
G1 X97.883 Y92.548 E28.93298
G1 X98.704 Y92.548 E28.95251
G1 X102.452 Y96.296 E29.07864
G1 X102.452 Y95.475 E29.09817
G1 X99.525 Y92.548 E29.19669
G1 X100.345 Y92.548 E29.21622
G1 X102.452 Y94.655 E29.28712
G1 X102.452 Y93.834 E29.30665
G1 X101.166 Y92.548 E29.34992
G1 X101.987 Y92.548 E29.36945
G1 X102.452 Y93.013 E29.38511
G1 Z2.700 F7800.000
G1 X97.548 Y93.013 F7800.000
G1 F1738.01
G1 X98.013 Y92.548 E29.40077
G1 X98.834 Y92.548 E29.42030
G1 X97.548 Y93.834 E29.46358
G1 X97.548 Y94.655 E29.48311
G1 X99.655 Y92.548 E29.55400
G1 X100.475 Y92.548 E29.57353
G1 X97.548 Y95.475 E29.67205
G1 X97.548 Y96.296 E29.69158
G1 X101.296 Y92.548 E29.81772
G1 X102.117 Y92.548 E29.83725
G1 X97.548 Y97.117 E29.99100
G1 X97.548 Y97.938 E30.01053
G1 X102.452 Y93.033 E30.17557
G1 X102.452 Y93.854 E30.19510
G1 X97.548 Y98.759 E30.36013
G1 X97.548 Y99.579 E30.37966
G1 X102.452 Y94.675 E30.54470
G1 X102.452 Y95.496 E30.56423
G1 X97.548 Y100.400 E30.72926
G1 X97.548 Y101.221 E30.74879
G1 X102.452 Y96.316 E30.91383
G1 X102.452 Y97.137 E30.93336
G1 X97.548 Y102.042 E31.09839
G1 X97.548 Y102.863 E31.11792
G1 X102.452 Y97.958 E31.28296
G1 X102.452 Y98.779 E31.30249
G1 X97.548 Y103.684 E31.46753
G1 X97.548 Y104.504 E31.48706
G1 X102.452 Y99.600 E31.65209
G1 X102.452 Y100.421 E31.67162
G1 X97.548 Y105.325 E31.83666
G1 X97.548 Y106.146 E31.85619
G1 X102.452 Y101.241 E32.02122
G1 X102.452 Y102.062 E32.04075
G1 X97.548 Y106.967 E32.20579
G1 X97.548 Y107.452 E32.21734
G1 X97.883 Y107.452 E32.22532
G1 X102.452 Y102.883 E32.37907
G1 X102.452 Y103.704 E32.39860
G1 X98.704 Y107.452 E32.52474
G1 X99.525 Y107.452 E32.54427
G1 X102.452 Y104.525 E32.64279
G1 X102.452 Y105.345 E32.66232
G1 X100.345 Y107.452 E32.73321
G1 X101.166 Y107.452 E32.75274
G1 X102.452 Y106.166 E32.79602
G1 X102.452 Y106.987 E32.81555
G1 X101.987 Y107.452 E32.83121
G1 Z3.000 F7800.000
G1 X98.013 Y107.452 F7800.000
G1 F1738.01
G1 X97.548 Y106.987 E32.84687
G1 X97.548 Y106.166 E32.86640
G1 X98.834 Y107.452 E32.90967
G1 X99.655 Y107.452 E32.92920
G1 X97.548 Y105.345 E33.00010
G1 X97.548 Y104.525 E33.01963
G1 X100.475 Y107.452 E33.11815
G1 X101.296 Y107.452 E33.13768
G1 X97.548 Y103.704 E33.26382
G1 X97.548 Y102.883 E33.28335
G1 X102.117 Y107.452 E33.43710
G1 X102.452 Y107.452 E33.44508
G1 X102.452 Y106.967 E33.45663
G1 X97.548 Y102.062 E33.62167
G1 X97.548 Y101.241 E33.64120
G1 X102.452 Y106.146 E33.80623
G1 X102.452 Y105.325 E33.82576
G1 X97.548 Y100.420 E33.99080
G1 X97.548 Y99.600 E34.01033
G1 X102.452 Y104.504 E34.17537
G1 X102.452 Y103.684 E34.19490
G1 X97.548 Y98.779 E34.35993
G1 X97.548 Y97.958 E34.37946
G1 X102.452 Y102.863 E34.54450
G1 X102.452 Y102.042 E34.56403
G1 X97.548 Y97.137 E34.72906
G1 X97.548 Y96.316 E34.74859
G1 X102.452 Y101.221 E34.91363
G1 X102.452 Y100.400 E34.93316
G1 X97.548 Y95.496 E35.09819
G1 X97.548 Y94.675 E35.11772
G1 X102.452 Y99.579 E35.28276
G1 X102.452 Y98.759 E35.30229
G1 X97.548 Y93.854 E35.46732
G1 X97.548 Y93.033 E35.48685
G1 X102.452 Y97.938 E35.65189
G1 X102.452 Y97.117 E35.67142
G1 X97.883 Y92.548 E35.82518
G1 X98.704 Y92.548 E35.84471
G1 X102.452 Y96.296 E35.97084
G1 X102.452 Y95.475 E35.99037
G1 X99.525 Y92.548 E36.08889
G1 X100.345 Y92.548 E36.10842
G1 X102.452 Y94.655 E36.17932
G1 X102.452 Y93.834 E36.19884
G1 X101.166 Y92.548 E36.24212
G1 X101.987 Y92.548 E36.26165
G1 X102.452 Y93.013 E36.27731
G1 Z3.300 F7800.000
G1 X97.548 Y93.013 F7800.000
G1 F1738.01
G1 X98.013 Y92.548 E36.29297
G1 X98.834 Y92.548 E36.31250
G1 X97.548 Y93.834 E36.35577
G1 X97.548 Y94.655 E36.37530
G1 X99.655 Y92.548 E36.44620
G1 X100.475 Y92.548 E36.46573
G1 X97.548 Y95.475 E36.56425
G1 X97.548 Y96.296 E36.58378
G1 X101.296 Y92.548 E36.70992
G1 X102.117 Y92.548 E36.72944
G1 X97.548 Y97.117 E36.88320
