; generated by Slic3r 1.3.0 on 2019-11-20 at 16:29:47

; external perimeters extrusion width = 0.55mm (5.57mm^3/s)
; perimeters extrusion width = 0.58mm (11.78mm^3/s)
; infill extrusion width = 0.58mm (15.71mm^3/s)
; solid infill extrusion width = 0.58mm (3.93mm^3/s)
; top infill extrusion width = 0.58mm (2.95mm^3/s)

M107
M104 S205 ; set temperature
G28 ; home all axes
G1 Z5 F5000 ; lift nozzle

; Filament gcode

M109 S205 ; set temperature and wait for it to be reached
G21 ; set units to millimeters
G90 ; use absolute coordinates
M82 ; use absolute distances for extrusion
G92 E0
G1 Z0.400 F7800.000
G1 E-2.00000 F2400.00000
G92 E0
G1 X98.817 Y95.233 F7800.000
G1 E2.00000 F2400.00000
G1 F1563.42
G1 X95.227 Y98.822 E2.20514
G1 E0.20514 F2400.00000
G92 E0
G1 X95.073 Y100.960 F7800.000
G1 E2.00000 F2400.00000
G1 F1563.42
G1 X100.960 Y95.073 E2.33642
G1 X102.453 Y95.563 F7800.000
G1 F1563.42
G1 X95.565 Y102.451 E2.73010
G1 X95.696 Y101.646 F7800.000
G1 F1563.42
G1 X95.874 Y102.128 E2.75087
G1 X96.090 Y102.564 E2.77054
G1 X96.350 Y102.976 E2.79021
G1 X96.650 Y103.357 E2.80980
G1 X97.111 Y103.819 E2.83620
G1 X97.493 Y104.118 E2.85579
G1 X97.904 Y104.378 E2.87546
G1 X98.340 Y104.595 E2.89513
G1 X98.822 Y104.773 E2.91590
G1 X95.227 Y101.178 E3.12138
G1 X95.111 Y100.733 E3.13995
G1 X95.036 Y100.252 E3.15962
G1 X95.011 Y99.766 E3.17930
G1 X95.036 Y99.279 E3.19897
G1 X95.073 Y99.040 E3.20876
G1 X100.960 Y104.927 E3.54518
G1 X101.202 Y104.889 E3.55507
G1 X101.673 Y104.766 E3.57474
G1 X102.128 Y104.595 E3.59442
G1 X102.451 Y104.435 E3.60898
G1 X95.563 Y97.547 E4.00266
G1 X95.790 Y97.158 E4.02084
G1 X96.078 Y96.765 E4.04051
G1 X96.404 Y96.404 E4.06019
G1 X103.596 Y103.596 E4.47124
G1 X103.922 Y103.235 E4.49091
G1 X104.210 Y102.842 E4.51059
G1 X104.437 Y102.453 E4.52877
G1 X97.547 Y95.563 E4.92257
G1 X98.022 Y95.343 E4.94373
G1 X98.483 Y95.188 E4.96341
G1 X99.038 Y95.071 E4.98632
G1 X104.930 Y100.963 E5.32308
G1 X104.767 Y101.183 F7800.000
G1 F1563.42
G1 X101.178 Y104.773 E5.52821
G1 E3.52821 F2400.00000
G92 E0
G1 X99.040 Y104.927 F7800.000
G1 E2.00000 F2400.00000
G1 F1563.42
G1 X104.927 Y99.040 E2.33642
G1 X104.773 Y98.822 F7800.000
G1 F1563.42
G1 X101.178 Y95.227 E2.54189
G1 X101.662 Y95.406 E2.56275
G1 X101.951 Y95.543 E2.57570
G1 X102.373 Y95.790 E2.59546
G1 X102.766 Y96.078 E2.61513
G1 X103.127 Y96.404 E2.63481
G1 X103.455 Y96.767 E2.65455
G1 X103.656 Y97.033 E2.66805
G1 X103.910 Y97.435 E2.68727
G1 X104.126 Y97.872 E2.70695
G1 X104.304 Y98.354 E2.72772
G1 X104.435 Y97.549 F7800.000
G1 F1563.42
G1 X97.549 Y104.435 E3.12126
G1 X96.412 Y103.588 F7800.000
G1 F1563.42
G1 X103.596 Y96.404 E3.53186
M104 S200 ; set temperature
G1 Z0.800 F7800.000
G1 X103.553 Y96.447 F7800.000
G1 F1543.06
G1 X96.447 Y103.553 E3.81098
G1 X97.590 Y104.393 F7800.000
G1 F1543.06
G1 X104.391 Y97.592 E4.07816
G1 X104.347 Y98.397 F7800.000
G1 F1543.06
G1 X104.170 Y97.915 E4.09244
G1 X103.953 Y97.479 E4.10597
G1 X103.715 Y97.099 E4.11843
G1 X103.498 Y96.810 E4.12846
G1 X103.171 Y96.447 E4.14202
G1 X102.809 Y96.121 E4.15555
G1 X102.417 Y95.834 E4.16907
G1 X101.995 Y95.587 E4.18265
G1 X101.705 Y95.449 E4.19155
G1 X101.221 Y95.271 E4.20589
G1 X104.729 Y98.779 E4.34371
G1 X104.883 Y99.084 F7800.000
G1 F1543.06
G1 X99.084 Y104.883 E4.57153
G1 X101.221 Y104.729 F7800.000
G1 F1543.06
G1 X104.729 Y101.221 E4.70935
G1 X104.883 Y100.916 F7800.000
G1 F1543.06
G1 X99.081 Y95.114 E4.93727
G1 X98.526 Y95.231 E4.95302
G1 X98.065 Y95.386 E4.96654
G1 X97.590 Y95.607 E4.98109
G1 X104.393 Y102.410 E5.24836
G1 X104.166 Y102.798 E5.26085
G1 X103.879 Y103.191 E5.27438
G1 X103.553 Y103.553 E5.28790
G1 X96.447 Y96.447 E5.56702
G1 X96.121 Y96.809 E5.58055
G1 X95.833 Y97.202 E5.59408
G1 X95.606 Y97.589 E5.60656
G1 X102.408 Y104.391 E5.87378
G1 X102.085 Y104.552 E5.88379
G1 X101.629 Y104.722 E5.89731
G1 X101.158 Y104.846 E5.91083
G1 X100.916 Y104.883 E5.91763
G1 X95.117 Y99.084 E6.14546
G1 X95.080 Y99.323 E6.15218
G1 X95.055 Y99.809 E6.16571
G1 X95.080 Y100.295 E6.17923
G1 X95.154 Y100.776 E6.19275
G1 X95.271 Y101.221 E6.20552
G1 X98.779 Y104.729 E6.34334
G1 X98.412 Y104.599 E6.35416
G1 X98.004 Y104.412 E6.36662
G1 X97.583 Y104.166 E6.38015
G1 X97.191 Y103.879 E6.39368
G1 X96.829 Y103.553 E6.40720
G1 X96.503 Y103.191 E6.42072
G1 X96.215 Y102.798 E6.43425
G1 X95.969 Y102.377 E6.44781
G1 X95.816 Y102.050 E6.45784
G1 X95.653 Y101.603 E6.47106
G1 X95.607 Y102.410 F7800.000
G1 F1543.06
G1 X102.410 Y95.607 E6.73833
G1 X100.916 Y95.117 F7800.000
G1 F1543.06
G1 X95.117 Y100.916 E6.96616
G1 X95.271 Y98.779 F7800.000
G1 F1543.06
G1 X98.773 Y95.277 E7.10375
G1 Z1.200 F7800.000
G1 F1542.73
G1 X95.271 Y98.779 E7.24134
G1 X95.117 Y100.916 F7800.000
G1 F1542.73
G1 X100.916 Y95.117 E7.46916
G1 X102.408 Y95.609 F7800.000
G1 F1542.73
G1 X95.609 Y102.408 E7.73625
G1 X95.653 Y101.603 F7800.000
G1 F1542.73
G1 X95.830 Y102.085 E7.75053
G1 X96.047 Y102.521 E7.76405
G1 X96.307 Y102.933 E7.77757
G1 X96.609 Y103.317 E7.79116
G1 X96.828 Y103.551 E7.80006
G1 X97.191 Y103.879 E7.81364
G1 X97.583 Y104.166 E7.82716
G1 X98.004 Y104.412 E7.84070
G1 X98.387 Y104.589 E7.85242
G1 X98.779 Y104.729 E7.86398
G1 X95.271 Y101.221 E8.00180
G1 X95.154 Y100.776 E8.01456
G1 X95.080 Y100.295 E8.02809
G1 X95.055 Y99.809 E8.04161
G1 X95.080 Y99.323 E8.05513
G1 X95.117 Y99.084 E8.06186
G1 X100.916 Y104.883 E8.28968
G1 X101.158 Y104.846 E8.29648
G1 X101.629 Y104.722 E8.31000
G1 X102.085 Y104.552 E8.32353
G1 X102.408 Y104.391 E8.33354
G1 X95.609 Y97.592 E8.60063
G1 X95.870 Y97.148 E8.61494
G1 X96.121 Y96.809 E8.62665
G1 X96.447 Y96.447 E8.64019
G1 X103.553 Y103.553 E8.91932
G1 X103.879 Y103.191 E8.93284
G1 X104.166 Y102.798 E8.94636
G1 X104.393 Y102.410 E8.95886
G1 X97.590 Y95.607 E9.22613
G1 X98.065 Y95.386 E9.24067
G1 X98.526 Y95.231 E9.25419
G1 X99.081 Y95.114 E9.26994
G1 X104.885 Y100.918 E9.49794
G1 X104.723 Y101.227 F7800.000
G1 F1542.73
G1 X101.221 Y104.729 E9.63553
G1 X99.084 Y104.883 F7800.000
G1 F1542.73
G1 X104.883 Y99.084 E9.86336
G1 X104.729 Y98.779 F7800.000
G1 F1542.73
G1 X101.221 Y95.271 E10.00118
G1 X101.703 Y95.448 E10.01545
G1 X102.139 Y95.665 E10.02897
G1 X102.551 Y95.925 E10.04250
G1 X102.932 Y96.224 E10.05596
G1 X103.394 Y96.686 E10.07410
G1 X103.693 Y97.067 E10.08757
G1 X103.953 Y97.479 E10.10109
G1 X104.170 Y97.915 E10.11461
G1 X104.347 Y98.397 E10.12889
G1 X104.391 Y97.592 F7800.000
G1 F1542.73
G1 X97.590 Y104.393 E10.39607
G1 X96.447 Y103.553 F7800.000
G1 F1542.73
G1 X103.545 Y96.455 E10.67488
M106 S255
G1 Z1.600 F7800.000
G1 X103.549 Y96.451 F7800.000
G1 F1542.65
G1 X96.451 Y103.549 E10.95369
G1 X97.592 Y104.391 F7800.000
G1 F1542.65
G1 X104.394 Y97.590 E11.22088
G1 X104.342 Y98.391 F7800.000
G1 F1542.65
G1 X104.232 Y98.065 E11.23045
G1 X104.030 Y97.621 E11.24400
G1 X103.833 Y97.279 E11.25496
G1 X103.598 Y96.937 E11.26649
G1 X103.284 Y96.564 E11.28003
G1 X102.934 Y96.226 E11.29356
G1 X102.551 Y95.925 E11.30708
G1 X102.139 Y95.665 E11.32060
G1 X101.703 Y95.448 E11.33413
G1 X101.221 Y95.271 E11.34840
G1 X104.723 Y98.773 E11.48599
G1 X104.886 Y99.081 F7800.000
G1 F1542.65
G1 X99.081 Y104.886 E11.71401
G1 X101.227 Y104.723 F7800.000
G1 F1542.65
G1 X104.730 Y101.220 E11.85163
G1 X104.886 Y100.919 F7800.000
G1 F1542.65
G1 X99.081 Y95.114 E12.07965
G1 X98.526 Y95.231 E12.09540
G1 X98.065 Y95.386 E12.10892
G1 X97.590 Y95.607 E12.12347
G1 X104.391 Y102.408 E12.39065
G1 X104.335 Y102.521 E12.39416
G1 X104.075 Y102.933 E12.40768
G1 X103.774 Y103.315 E12.42120
G1 X103.549 Y103.549 E12.43022
G1 X96.451 Y96.451 E12.70903
G1 X96.226 Y96.685 E12.71805
G1 X95.925 Y97.067 E12.73157
G1 X95.609 Y97.592 E12.74859
G1 X102.410 Y104.394 E13.01578
G1 X101.935 Y104.614 E13.03033
G1 X101.474 Y104.769 E13.04385
G1 X100.919 Y104.886 E13.05960
G1 X95.113 Y99.080 E13.28767
G1 X95.058 Y99.647 E13.30349
G1 X95.066 Y100.134 E13.31701
G1 X95.124 Y100.617 E13.33054
G1 X95.275 Y101.225 E13.34794
G1 X98.780 Y104.730 E13.48564
G1 X98.297 Y104.552 E13.49995
G1 X97.861 Y104.335 E13.51347
G1 X97.449 Y104.075 E13.52699
G1 X97.066 Y103.774 E13.54052
G1 X96.716 Y103.436 E13.55404
G1 X96.403 Y103.064 E13.56756
G1 X96.129 Y102.661 E13.58109
G1 X95.897 Y102.232 E13.59463
G1 X95.736 Y101.850 E13.60616
G1 X95.656 Y101.607 E13.61326
G1 X95.610 Y102.407 F7800.000
G1 F1542.65
G1 X102.408 Y95.609 E13.88031
G1 X100.916 Y95.117 F7800.000
G1 F1542.65
G1 X95.114 Y100.919 E14.10824
G1 X95.271 Y98.779 F7800.000
G1 F1542.65
G1 X98.773 Y95.277 E14.24582
G1 Z2.000 F7800.000
G1 X98.773 Y95.277 F7800.000
G1 F1542.56
G1 X95.270 Y98.780 E14.38344
G1 X95.114 Y100.919 F7800.000
G1 F1542.56
G1 X100.916 Y95.117 E14.61136
G1 X102.408 Y95.609 F7800.000
G1 F1542.56
G1 X95.610 Y102.407 E14.87842
G1 X95.656 Y101.606 F7800.000
G1 F1542.56
G1 X95.897 Y102.232 E14.89706
G1 X96.129 Y102.661 E14.91060
G1 X96.403 Y103.064 E14.92412
G1 X96.716 Y103.436 E14.93764
G1 X97.066 Y103.774 E14.95117
G1 X97.449 Y104.075 E14.96469
G1 X97.861 Y104.335 E14.97821
G1 X98.297 Y104.552 E14.99173
G1 X98.780 Y104.730 E15.00603
G1 X95.274 Y101.224 E15.14374
G1 X95.124 Y100.617 E15.16112
G1 X95.066 Y100.134 E15.17465
G1 X95.058 Y99.647 E15.18817
G1 X95.114 Y99.081 E15.20396
G1 X100.919 Y104.886 E15.43199
G1 X101.474 Y104.769 E15.44774
G1 X101.935 Y104.614 E15.46126
G1 X102.410 Y104.394 E15.47581
G1 X95.609 Y97.592 E15.74301
G1 X95.925 Y97.067 E15.76003
G1 X96.226 Y96.685 E15.77355
G1 X96.451 Y96.451 E15.78256
G1 X103.549 Y103.549 E16.06138
G1 X103.774 Y103.315 E16.07039
G1 X104.075 Y102.933 E16.08392
G1 X104.335 Y102.521 E16.09744
G1 X104.391 Y102.408 E16.10095
G1 X97.590 Y95.607 E16.36813
G1 X98.065 Y95.386 E16.38267
G1 X98.526 Y95.231 E16.39620
G1 X99.081 Y95.114 E16.41195
G1 X104.886 Y100.919 E16.63996
G1 X104.722 Y101.228 F7800.000
G1 F1542.56
G1 X101.227 Y104.723 E16.77728
G1 X99.081 Y104.886 F7800.000
G1 F1542.56
G1 X104.886 Y99.081 E17.00531
G1 X104.727 Y98.777 F7800.000
G1 F1542.56
G1 X101.221 Y95.271 E17.14306
G1 X101.703 Y95.448 E17.15733
G1 X102.139 Y95.665 E17.17086
G1 X102.551 Y95.925 E17.18438
G1 X102.934 Y96.226 E17.19790
G1 X103.284 Y96.564 E17.21143
G1 X103.597 Y96.936 E17.22495
G1 X103.871 Y97.339 E17.23847
G1 X104.103 Y97.767 E17.25199
G1 X104.346 Y98.395 E17.27070
G1 X104.390 Y97.593 F7800.000
G1 F1542.56
G1 X97.592 Y104.391 E17.53776
G1 X96.451 Y103.549 F7800.000
G1 F1542.56
G1 X103.549 Y96.451 E17.81658
G1 Z2.400 F7800.000
G1 X103.549 Y96.451 F7800.000
G1 F1542.22
G1 X96.451 Y103.549 E18.09539
G1 X97.592 Y104.391 F7800.000
G1 F1542.22
G1 X104.390 Y97.593 E18.36245
G1 X104.341 Y98.390 F7800.000
G1 F1542.22
G1 X104.289 Y98.217 E18.36747
G1 X104.103 Y97.767 E18.38099
G1 X103.871 Y97.339 E18.39452
G1 X103.597 Y96.936 E18.40804
G1 X103.284 Y96.564 E18.42156
G1 X102.934 Y96.226 E18.43509
G1 X102.551 Y95.925 E18.44861
G1 X102.139 Y95.665 E18.46213
G1 X101.703 Y95.448 E18.47566
G1 X101.221 Y95.271 E18.48993
G1 X104.722 Y98.772 E18.62748
G1 X104.886 Y99.081 F7800.000
G1 F1542.22
G1 X99.081 Y104.886 E18.85550
G1 X101.228 Y104.722 F7800.000
G1 F1542.22
G1 X104.723 Y101.227 E18.99281
G1 X104.886 Y100.919 F7800.000
G1 F1542.22
G1 X99.081 Y95.114 E19.22083
G1 X98.526 Y95.231 E19.23657
G1 X98.065 Y95.386 E19.25010
G1 X97.590 Y95.607 E19.26464
G1 X104.391 Y102.408 E19.53182
G1 X104.335 Y102.521 E19.53533
G1 X104.075 Y102.933 E19.54886
G1 X103.774 Y103.315 E19.56238
G1 X103.549 Y103.549 E19.57139
G1 X96.451 Y96.451 E19.85021
G1 X96.226 Y96.685 E19.85922
G1 X95.925 Y97.067 E19.87274
G1 X95.609 Y97.592 E19.88976
G1 X102.407 Y104.390 E20.15682
G1 X102.233 Y104.484 E20.16232
G1 X101.783 Y104.671 E20.17584
G1 X101.315 Y104.811 E20.18942
G1 X100.919 Y104.886 E20.20061
G1 X95.114 Y99.081 E20.42863
G1 X95.058 Y99.647 E20.44441
G1 X95.066 Y100.134 E20.45794
G1 X95.124 Y100.617 E20.47146
G1 X95.273 Y101.223 E20.48881
G1 X98.780 Y104.730 E20.62656
G1 X98.297 Y104.552 E20.64087
G1 X97.861 Y104.335 E20.65439
G1 X97.449 Y104.075 E20.66791
G1 X97.066 Y103.774 E20.68144
G1 X96.716 Y103.436 E20.69496
G1 X96.403 Y103.064 E20.70848
G1 X96.129 Y102.661 E20.72201
G1 X95.897 Y102.233 E20.73553
G1 X95.655 Y101.605 E20.75421
G1 X95.610 Y102.407 F7800.000
G1 F1542.22
G1 X102.408 Y95.609 E21.02127
G1 X100.916 Y95.117 F7800.000
G1 F1542.22
G1 X95.114 Y100.919 E21.24919
G1 X95.277 Y98.773 F7800.000
G1 F1542.22
G1 X98.773 Y95.277 E21.38654
G1 Z2.800 F7800.000
G1 F1542.97
G1 X95.271 Y98.779 E21.52413
G1 X95.117 Y100.916 F7800.000
G1 F1542.97
G1 X100.916 Y95.117 E21.75195
G1 X102.410 Y95.606 F7800.000
G1 F1542.97
G1 X95.609 Y102.408 E22.01914
G1 X95.653 Y101.603 F7800.000
G1 F1542.97
G1 X95.830 Y102.085 E22.03342
G1 X96.047 Y102.521 E22.04694
G1 X96.307 Y102.933 E22.06047
G1 X96.609 Y103.317 E22.07405
G1 X96.828 Y103.551 E22.08295
G1 X97.191 Y103.879 E22.09653
G1 X97.583 Y104.166 E22.11005
G1 X98.005 Y104.413 E22.12363
G1 X98.295 Y104.551 E22.13254
G1 X98.779 Y104.729 E22.14687
G1 X95.271 Y101.221 E22.28469
G1 X95.154 Y100.776 E22.29745
G1 X95.080 Y100.295 E22.31098
G1 X95.055 Y99.809 E22.32450
G1 X95.080 Y99.323 E22.33802
G1 X95.117 Y99.084 E22.34475
G1 X100.916 Y104.883 E22.57257
G1 X101.158 Y104.846 E22.57937
G1 X101.629 Y104.722 E22.59290
G1 X102.085 Y104.552 E22.60642
G1 X102.408 Y104.391 E22.61643
G1 X95.607 Y97.590 E22.88361
G1 X95.834 Y97.202 E22.89611
G1 X96.121 Y96.809 E22.90963
G1 X96.447 Y96.447 E22.92315
G1 X103.553 Y103.553 E23.20228
G1 X103.879 Y103.191 E23.21580
G1 X104.166 Y102.798 E23.22932
G1 X104.393 Y102.410 E23.24182
G1 X97.590 Y95.607 E23.50909
G1 X98.065 Y95.386 E23.52363
G1 X98.526 Y95.231 E23.53716
G1 X99.081 Y95.114 E23.55290
G1 X104.887 Y100.920 E23.78098
G1 X104.723 Y101.227 F7800.000
G1 F1542.97
G1 X101.221 Y104.729 E23.91857
G1 X99.084 Y104.883 F7800.000
G1 F1542.97
G1 X104.883 Y99.084 E24.14639
G1 X104.729 Y98.779 F7800.000
G1 F1542.97
G1 X101.221 Y95.271 E24.28421
G1 X101.705 Y95.449 E24.29854
G1 X102.004 Y95.592 E24.30775
G1 X102.416 Y95.834 E24.32102
G1 X102.809 Y96.121 E24.33455
G1 X103.171 Y96.447 E24.34807
G1 X103.498 Y96.810 E24.36165
G1 X103.698 Y97.075 E24.37086
G1 X103.953 Y97.479 E24.38413
G1 X104.170 Y97.915 E24.39766
G1 X104.347 Y98.397 E24.41194
G1 X104.391 Y97.592 F7800.000
G1 F1542.97
G1 X97.590 Y104.393 E24.67912
G1 X96.447 Y103.553 F7800.000
G1 F1542.97
G1 X103.553 Y96.447 E24.95824
G1 Z3.200 F7800.000
G1 F1542.8
G1 X96.447 Y103.553 E25.23736
G1 X97.590 Y104.393 F7800.000
G1 F1542.8
G1 X104.391 Y97.592 E25.50454
G1 X104.347 Y98.397 F7800.000
G1 F1542.8
G1 X104.170 Y97.915 E25.51882
G1 X103.953 Y97.479 E25.53234
G1 X103.693 Y97.067 E25.54586
G1 X103.391 Y96.683 E25.55945
G1 X103.172 Y96.449 E25.56835
G1 X102.809 Y96.121 E25.58193
G1 X102.417 Y95.834 E25.59545
G1 X101.995 Y95.587 E25.60903
G1 X101.705 Y95.449 E25.61793
G1 X101.221 Y95.271 E25.63227
G1 X104.729 Y98.779 E25.77009
G1 X104.883 Y99.084 F7800.000
G1 F1542.8
G1 X99.081 Y104.885 E25.99800
G1 X101.221 Y104.729 F7800.000
G1 F1542.8
G1 X104.723 Y101.227 E26.13559
G1 X104.886 Y100.919 F7800.000
G1 F1542.8
G1 X99.081 Y95.114 E26.36361
G1 X98.526 Y95.231 E26.37936
G1 X98.065 Y95.386 E26.39288
G1 X97.590 Y95.607 E26.40742
G1 X104.393 Y102.410 E26.67469
G1 X104.166 Y102.798 E26.68719
G1 X103.879 Y103.191 E26.70071
G1 X103.553 Y103.553 E26.71423
G1 X96.447 Y96.447 E26.99336
G1 X96.121 Y96.809 E27.00688
G1 X95.834 Y97.202 E27.02040
G1 X95.607 Y97.590 E27.03290
G1 X102.408 Y104.391 E27.30008
G1 X102.085 Y104.552 E27.31009
G1 X101.629 Y104.722 E27.32361
G1 X101.158 Y104.846 E27.33714
G1 X100.916 Y104.883 E27.34394
G1 X95.117 Y99.084 E27.57176
G1 X95.080 Y99.323 E27.57849
G1 X95.055 Y99.809 E27.59201
G1 X95.080 Y100.295 E27.60553
G1 X95.154 Y100.776 E27.61906
G1 X95.271 Y101.221 E27.63182
G1 X98.773 Y104.723 E27.76941
G1 X98.447 Y104.614 E27.77898
G1 X98.004 Y104.412 E27.79250
G1 X97.583 Y104.166 E27.80602
G1 X97.191 Y103.879 E27.81955
G1 X96.829 Y103.553 E27.83307
G1 X96.503 Y103.191 E27.84659
G1 X96.215 Y102.798 E27.86011
G1 X95.969 Y102.377 E27.87367
G1 X95.810 Y102.036 E27.88414
G1 X95.653 Y101.603 E27.89693
G1 X95.607 Y102.410 F7800.000
G1 F1542.8
G1 X102.410 Y95.607 E28.16420
G1 X100.916 Y95.117 F7800.000
G1 F1542.8
G1 X95.117 Y100.916 E28.39202
G1 X95.273 Y98.777 F7800.000
G1 F1542.8
G1 X98.773 Y95.277 E28.52953
G1 Z3.600 F7800.000
G1 X98.773 Y95.277 F7800.000
G1 F1542.42
G1 X95.270 Y98.779 E28.66714
G1 X95.114 Y100.919 F7800.000
G1 F1542.42
G1 X100.916 Y95.117 E28.89506
G1 X102.408 Y95.609 F7800.000
G1 F1542.42
G1 X95.607 Y102.410 E29.16224
G1 X95.658 Y101.609 F7800.000
G1 F1542.42
G1 X95.768 Y101.935 E29.17180
G1 X95.970 Y102.378 E29.18533
G1 X96.215 Y102.798 E29.19885
G1 X96.504 Y103.193 E29.21243
G1 X96.715 Y103.434 E29.22133
G1 X97.066 Y103.774 E29.23491
G1 X97.449 Y104.075 E29.24844
G1 X97.862 Y104.336 E29.26199
G1 X98.208 Y104.511 E29.27277
G1 X98.772 Y104.722 E29.28951
G1 X95.277 Y101.227 E29.42683
G1 X95.124 Y100.617 E29.44429
G1 X95.066 Y100.134 E29.45782
G1 X95.058 Y99.647 E29.47134
G1 X95.114 Y99.081 E29.48714
G1 X100.919 Y104.886 E29.71517
G1 X101.474 Y104.769 E29.73092
G1 X101.935 Y104.614 E29.74444
G1 X102.411 Y104.394 E29.75899
G1 X95.609 Y97.592 E30.02620
G1 X95.925 Y97.067 E30.04322
G1 X96.226 Y96.685 E30.05674
G1 X96.451 Y96.451 E30.06575
G1 X103.549 Y103.549 E30.34457
G1 X103.774 Y103.315 E30.35358
G1 X104.075 Y102.933 E30.36711
G1 X104.335 Y102.521 E30.38063
G1 X104.391 Y102.408 E30.38414
G1 X97.590 Y95.607 E30.65132
G1 X98.065 Y95.386 E30.66586
G1 X98.526 Y95.231 E30.67939
G1 X99.081 Y95.114 E30.69514
G1 X104.886 Y100.919 E30.92317
G1 X104.730 Y101.221 F7800.000
G1 F1542.42
G1 X101.227 Y104.723 E31.06078
G1 X99.081 Y104.886 F7800.000
G1 F1542.42
G1 X104.886 Y99.081 E31.28879
G1 X104.723 Y98.773 F7800.000
G1 F1542.42
G1 X101.221 Y95.271 E31.42638
G1 X101.703 Y95.448 E31.44066
G1 X102.139 Y95.665 E31.45418
G1 X102.551 Y95.925 E31.46770
G1 X102.934 Y96.226 E31.48123
G1 X103.284 Y96.564 E31.49475
G1 X103.598 Y96.937 E31.50829
G1 X103.837 Y97.284 E31.52001
G1 X104.030 Y97.621 E31.53078
G1 X104.232 Y98.065 E31.54434
G1 X104.342 Y98.391 E31.55390
G1 X104.394 Y97.590 F7800.000
G1 F1542.42
G1 X97.591 Y104.392 E31.82113
G1 X96.451 Y103.549 F7800.000
G1 F1542.42
G1 X103.549 Y96.451 E32.09994
G1 Z4.000 F7800.000
G1 X103.549 Y96.451 F7800.000
G1 F1542.18
G1 X96.451 Y103.549 E32.37876
G1 X97.592 Y104.391 F7800.000
G1 F1542.18
G1 X104.390 Y97.593 E32.64581
G1 X104.345 Y98.395 F7800.000
G1 F1542.18
G1 X104.103 Y97.767 E32.66449
G1 X103.871 Y97.339 E32.67802
G1 X103.597 Y96.936 E32.69154
G1 X103.284 Y96.564 E32.70507
G1 X102.934 Y96.226 E32.71859
G1 X102.551 Y95.925 E32.73211
G1 X102.139 Y95.665 E32.74564
G1 X101.703 Y95.448 E32.75916
G1 X101.221 Y95.271 E32.77344
G1 X104.727 Y98.776 E32.91115
G1 X104.886 Y99.081 F7800.000
G1 F1542.18
G1 X99.081 Y104.886 E33.13917
G1 E31.13917 F2400.00000
G92 E0
G1 X101.227 Y104.723 F7800.000
G1 E2.00000 F2400.00000
G1 F1542.18
G1 X104.723 Y101.227 E2.13735
G1 X104.886 Y100.919 F7800.000
G1 F1542.18
G1 X99.081 Y95.114 E2.36537
G1 X98.526 Y95.231 E2.38111
G1 X98.065 Y95.386 E2.39464
G1 X97.590 Y95.607 E2.40918
G1 X104.391 Y102.408 E2.67636
G1 X104.335 Y102.521 E2.67987
G1 X104.075 Y102.933 E2.69340
G1 X103.774 Y103.315 E2.70692
G1 X103.549 Y103.549 E2.71593
G1 X96.451 Y96.451 E2.99475
G1 X96.226 Y96.685 E3.00376
G1 X95.925 Y97.067 E3.01729
G1 X95.609 Y97.592 E3.03430
G1 X102.411 Y104.394 E3.30150
G1 X101.935 Y104.614 E3.31605
G1 X101.474 Y104.769 E3.32958
G1 X100.919 Y104.886 E3.34533
G1 X95.117 Y99.084 E3.57325
G1 X95.058 Y99.645 E3.58892
G1 X95.066 Y100.134 E3.60250
G1 X95.124 Y100.619 E3.61608
G1 X95.189 Y100.933 E3.62498
G1 X95.278 Y101.228 E3.63354
G1 X98.772 Y104.722 E3.77082
G1 X98.299 Y104.552 E3.78479
G1 X97.861 Y104.335 E3.79837
G1 X97.449 Y104.075 E3.81190
G1 X97.066 Y103.774 E3.82542
G1 X96.716 Y103.436 E3.83894
G1 X96.403 Y103.064 E3.85246
G1 X96.129 Y102.661 E3.86599
G1 X95.897 Y102.233 E3.87951
G1 X95.711 Y101.783 E3.89303
G1 X95.659 Y101.610 E3.89806
G1 X95.610 Y102.407 F7800.000
G1 F1542.18
G1 X102.408 Y95.609 E4.16512
G1 X100.916 Y95.117 F7800.000
G1 F1542.18
G1 X95.114 Y100.919 E4.39304
G1 E2.39304 F2400.00000
G92 E0
G1 X95.271 Y98.779 F7800.000
G1 E2.00000 F2400.00000
G1 F1542.18
G1 X98.773 Y95.277 E2.13759
G1 E0.13759 F2400.00000
G92 E0
M107
; Filament-specific end gcode 
;END gcode for filament

M104 S0 ; turn off temperature
G28 X0  ; home X axis
M84     ; disable motors

M140 S0 ; set bed temperature
; filament used = 37.4mm (0.3cm3)
; total filament cost = 0.0

; avoid_crossing_perimeters = 0
; bed_shape = 0x0,200x0,200x200,0x200
; bed_temperature = 0
; before_layer_gcode = 
; between_objects_gcode = 
; bridge_acceleration = 0
; bridge_fan_speed = 100
; brim_connections_width = 0
; brim_width = 0
; complete_objects = 0
; cooling = 1
; default_acceleration = 0
; disable_fan_first_layers = 3
; duplicate_distance = 6
; end_filament_gcode = "; Filament-specific end gcode \n;END gcode for filament\n"
; end_gcode = M104 S0 ; turn off temperature\nG28 X0  ; home X axis\nM84     ; disable motors\n
; extruder_clearance_height = 20
; extruder_clearance_radius = 20
; extruder_offset = 0x0
; extrusion_axis = E
; extrusion_multiplier = 1
; fan_always_on = 0
; fan_below_layer_time = 60
; filament_colour = #FFFFFF
; filament_cost = 0
; filament_density = 0
; filament_diameter = 3
; filament_max_volumetric_speed = 0
; filament_notes = ""
; first_layer_acceleration = 0
; first_layer_bed_temperature = 0
; first_layer_extrusion_width = 200%
; first_layer_speed = 30
; first_layer_temperature = 205
; gcode_arcs = 0
; gcode_comments = 0
; gcode_flavor = reprap
; has_heatbed = 1
; infill_acceleration = 0
; infill_first = 0
; interior_brim_width = 0
; layer_gcode = 
; max_fan_speed = 100
; max_layer_height = 0.3
; max_print_speed = 80
; max_volumetric_speed = 0
; min_fan_speed = 35
; min_layer_height = 0.15
; min_print_speed = 10
; min_skirt_length = 0
; notes = 
; nozzle_diameter = 0.5
; only_retract_when_crossing_perimeters = 1
; ooze_prevention = 0
; output_filename_format = [input_filename_base].gcode
; perimeter_acceleration = 0
; post_process = 
; pressure_advance = 0
; printer_notes = 
; resolution = 0
; retract_before_travel = 2
; retract_layer_change = 0
; retract_length = 2
; retract_length_toolchange = 10
; retract_lift = 0
; retract_lift_above = 0
; retract_lift_below = 0
; retract_restart_extra = 0
; retract_restart_extra_toolchange = 0
; retract_speed = 40
; skirt_distance = 6
; skirt_height = 1
; skirts = 0
; slowdown_below_layer_time = 5
; spiral_vase = 0
; standby_temperature_delta = -5
; start_filament_gcode = "; Filament gcode\n"
; start_gcode = G28 ; home all axes\nG1 Z5 F5000 ; lift nozzle\n
; temperature = 200
; threads = 8
; toolchange_gcode = 
; travel_speed = 130
; use_firmware_retraction = 0
; use_relative_e_distances = 0
; use_set_and_wait_bed = 0
; use_set_and_wait_extruder = 0
; use_volumetric_e = 0
; vibration_limit = 0
; wipe = 0
; z_offset = 0
; z_steps_per_mm = 0
; adaptive_slicing = 0
; adaptive_slicing_quality = 75%
; dont_support_bridges = 1
; extrusion_width = 0
; first_layer_height = 0.4
; infill_only_where_needed = 0
; interface_shells = 0
; layer_height = 0.4
; match_horizontal_surfaces = 0
; raft_layers = 0
; regions_overlap = 0
; seam_position = aligned
; sequential_print_priority = 0
; support_material = 0
; support_material_angle = 0
; support_material_buildplate_only = 0
; support_material_contact_distance = 0.2
; support_material_enforce_layers = 0
; support_material_extruder = 1
; support_material_extrusion_width = 0
; support_material_interface_extruder = 1
; support_material_interface_extrusion_width = 0
; support_material_interface_layers = 3
; support_material_interface_spacing = 0
; support_material_interface_speed = 100%
; support_material_max_layers = 0
; support_material_pattern = pillars
; support_material_spacing = 2.5
; support_material_speed = 60
; support_material_threshold = 60%
; xy_size_compensation = 0
; bottom_infill_pattern = rectilinear
; bottom_solid_layers = 0
; bridge_flow_ratio = 1
; bridge_speed = 60
; external_perimeter_extrusion_width = 0
; external_perimeter_speed = 50%
; external_perimeters_first = 0
; extra_perimeters = 1
; fill_angle = 45
; fill_density = 70%
; fill_gaps = 1
; fill_pattern = grid
; gap_fill_speed = 20
; infill_every_layers = 1
; infill_extruder = 1
; infill_extrusion_width = 0
; infill_overlap = 55%
; infill_speed = 80
; overhangs = 1
; perimeter_extruder = 1
; perimeter_extrusion_width = 0
; perimeter_speed = 60
; perimeters = 0
; small_perimeter_speed = 15
; solid_infill_below_area = 70
; solid_infill_every_layers = 0
; solid_infill_extruder = 1
; solid_infill_extrusion_width = 0
; solid_infill_speed = 20
; thin_walls = 1
; top_infill_extrusion_width = 0
; top_infill_pattern = rectilinear
; top_solid_infill_speed = 15
; top_solid_layers = 0
