; generated by Slic3r 1.3.0 on 2019-11-18 at 21:10:57

; external perimeters extrusion width = 0.55mm (5.57mm^3/s)
; perimeters extrusion width = 0.58mm (11.78mm^3/s)
; infill extrusion width = 0.58mm (15.71mm^3/s)
; solid infill extrusion width = 0.58mm (3.93mm^3/s)
; top infill extrusion width = 0.58mm (2.95mm^3/s)

M107
M104 S205 ; set temperature
G28 ; home all axes
G1 Z5 F5000 ; lift nozzle

; Filament gcode

M109 S205 ; set temperature and wait for it to be reached
G21 ; set units to millimeters
G90 ; use absolute coordinates
M82 ; use absolute distances for extrusion
G92 E0
G1 Z0.400 F7800.000
G1 E-2.00000 F2400.00000
G92 E0
G1 X96.576 Y93.011 F7800.000
G1 E2.00000 F2400.00000
G1 F1203.53
G1 X93.011 Y96.576 E2.20374
G1 X93.011 Y100.047 E2.34401
G1 X100.047 Y93.011 E2.74613
G1 X103.518 Y93.011 E2.88640
G1 X93.011 Y103.518 E3.48690
G1 X93.011 Y106.989 E3.62717
G1 X106.989 Y93.011 E4.42604
G1 X106.989 Y96.482 E4.56631
G1 X96.482 Y106.989 E5.16681
G1 X99.953 Y106.989 E5.30708
G1 X106.989 Y99.953 E5.70920
G1 X106.989 Y103.424 E5.84947
G1 X103.424 Y106.989 E6.05321
M104 S200 ; set temperature
G1 Z0.800 F7800.000
G1 X93.055 Y103.468 F7800.000
G1 F1193.22
G1 X96.532 Y106.945 E6.18984
G1 X100.003 Y106.945 E6.28625
G1 X93.055 Y99.997 E6.55924
G1 X93.055 Y96.526 E6.65565
G1 X103.474 Y106.945 E7.06499
G1 X106.945 Y106.945 E7.16140
G1 X93.055 Y93.055 E7.70709
G1 X96.526 Y93.055 E7.80351
G1 X106.945 Y103.474 E8.21284
G1 X106.945 Y100.003 E8.30926
G1 X99.997 Y93.055 E8.58224
G1 X103.468 Y93.055 E8.67866
G1 X106.945 Y96.532 E8.81528
G1 Z1.200 F7800.000
G1 X103.468 Y106.945 F7800.000
G1 F1193.22
G1 X106.945 Y103.468 E8.95191
G1 X106.945 Y99.997 E9.04833
G1 X99.997 Y106.945 E9.32131
G1 X96.526 Y106.945 E9.41773
G1 X106.945 Y96.526 E9.82706
G1 X106.945 Y93.055 E9.92348
G1 X93.055 Y106.945 E10.46917
G1 X93.055 Y103.474 E10.56558
G1 X103.474 Y93.055 E10.97492
G1 X100.003 Y93.055 E11.07133
G1 X93.055 Y100.003 E11.34431
G1 X93.055 Y96.532 E11.44073
G1 X96.532 Y93.055 E11.57736
M106 S255
G1 Z1.600 F7800.000
G1 X93.055 Y103.468 F7800.000
G1 F1193.22
G1 X96.532 Y106.945 E11.71399
G1 X100.003 Y106.945 E11.81040
G1 X93.055 Y99.997 E12.08338
G1 X93.055 Y96.526 E12.17980
G1 X103.474 Y106.945 E12.58914
G1 X106.945 Y106.945 E12.68555
G1 X93.055 Y93.055 E13.23124
G1 X96.526 Y93.055 E13.32766
G1 X106.945 Y103.474 E13.73699
G1 X106.945 Y100.003 E13.83341
G1 X99.997 Y93.055 E14.10639
G1 X103.468 Y93.055 E14.20281
G1 X106.945 Y96.532 E14.33943
G1 Z2.000 F7800.000
G1 X103.468 Y106.945 F7800.000
G1 F1193.22
G1 X106.945 Y103.468 E14.47606
G1 X106.945 Y99.997 E14.57248
G1 X99.997 Y106.945 E14.84546
G1 X96.526 Y106.945 E14.94188
G1 X106.945 Y96.526 E15.35121
G1 X106.945 Y93.055 E15.44763
G1 X93.055 Y106.945 E15.99332
G1 X93.055 Y103.474 E16.08973
G1 X103.474 Y93.055 E16.49907
G1 X100.003 Y93.055 E16.59548
G1 X93.055 Y100.003 E16.86846
G1 X93.055 Y96.532 E16.96488
G1 X96.532 Y93.055 E17.10151
G1 Z2.400 F7800.000
G1 X93.055 Y103.468 F7800.000
G1 F1193.22
G1 X96.532 Y106.945 E17.23814
G1 X100.003 Y106.945 E17.33455
G1 X93.055 Y99.997 E17.60753
G1 X93.055 Y96.526 E17.70395
G1 X103.474 Y106.945 E18.11328
G1 X106.945 Y106.945 E18.20970
G1 X93.055 Y93.055 E18.75539
G1 X96.526 Y93.055 E18.85181
G1 X106.945 Y103.474 E19.26114
G1 X106.945 Y100.003 E19.35756
G1 X99.997 Y93.055 E19.63054
G1 X103.468 Y93.055 E19.72696
G1 X106.945 Y96.532 E19.86358
G1 Z2.800 F7800.000
G1 X103.468 Y106.945 F7800.000
G1 F1193.22
G1 X106.945 Y103.468 E20.00021
G1 X106.945 Y99.997 E20.09663
G1 X99.997 Y106.945 E20.36961
G1 X96.526 Y106.945 E20.46602
G1 X106.945 Y96.526 E20.87536
G1 X106.945 Y93.055 E20.97178
G1 X93.055 Y106.945 E21.51746
G1 X93.055 Y103.474 E21.61388
G1 X103.474 Y93.055 E22.02322
G1 X100.003 Y93.055 E22.11963
G1 X93.055 Y100.003 E22.39261
G1 X93.055 Y96.532 E22.48903
G1 X96.532 Y93.055 E22.62566
G1 Z3.200 F7800.000
G1 X93.055 Y103.468 F7800.000
G1 F1193.22
G1 X96.532 Y106.945 E22.76228
G1 X100.003 Y106.945 E22.85870
G1 X93.055 Y99.997 E23.13168
G1 X93.055 Y96.526 E23.22810
G1 X103.474 Y106.945 E23.63743
G1 X106.945 Y106.945 E23.73385
G1 X93.055 Y93.055 E24.27954
G1 X96.526 Y93.055 E24.37596
G1 X106.945 Y103.474 E24.78529
G1 X106.945 Y100.003 E24.88171
G1 X99.997 Y93.055 E25.15469
G1 X103.468 Y93.055 E25.25110
G1 X106.945 Y96.532 E25.38773
G1 Z3.600 F7800.000
G1 X103.468 Y106.945 F7800.000
G1 F1193.22
G1 X106.945 Y103.468 E25.52436
G1 X106.945 Y99.997 E25.62078
G1 X99.997 Y106.945 E25.89376
G1 X96.526 Y106.945 E25.99017
G1 X106.945 Y96.526 E26.39951
G1 X106.945 Y93.055 E26.49593
G1 X93.055 Y106.945 E27.04161
G1 X93.055 Y103.474 E27.13803
G1 X103.474 Y93.055 E27.54736
G1 X100.003 Y93.055 E27.64378
G1 X93.055 Y100.003 E27.91676
G1 X93.055 Y96.532 E28.01318
G1 X96.532 Y93.055 E28.14981
G1 Z4.000 F7800.000
G1 X93.055 Y103.468 F7800.000
G1 F1193.22
G1 X96.532 Y106.945 E28.28643
G1 X100.003 Y106.945 E28.38285
G1 X93.055 Y99.997 E28.65583
G1 X93.055 Y96.526 E28.75225
G1 X103.474 Y106.945 E29.16158
G1 X106.945 Y106.945 E29.25800
G1 X93.055 Y93.055 E29.80369
G1 X96.526 Y93.055 E29.90010
G1 X106.945 Y103.474 E30.30944
G1 X106.945 Y100.003 E30.40586
G1 X99.997 Y93.055 E30.67884
G1 X103.468 Y93.055 E30.77525
G1 X106.945 Y96.532 E30.91188
G1 Z4.400 F7800.000
G1 X103.468 Y106.945 F7800.000
G1 F1193.22
G1 X106.945 Y103.468 E31.04851
G1 X106.945 Y99.997 E31.14493
G1 X99.997 Y106.945 E31.41791
G1 X96.526 Y106.945 E31.51432
G1 X106.945 Y96.526 E31.92366
G1 X106.945 Y93.055 E32.02007
G1 X93.055 Y106.945 E32.56576
G1 X93.055 Y103.474 E32.66218
G1 X103.474 Y93.055 E33.07151
G1 X100.003 Y93.055 E33.16793
G1 X93.055 Y100.003 E33.44091
G1 X93.055 Y96.532 E33.53733
G1 X96.532 Y93.055 E33.67396
G1 Z4.800 F7800.000
G1 X93.055 Y103.468 F7800.000
G1 F1193.22
G1 X96.532 Y106.945 E33.81058
G1 X100.003 Y106.945 E33.90700
G1 X93.055 Y99.997 E34.17998
G1 X93.055 Y96.526 E34.27640
G1 X103.474 Y106.945 E34.68573
G1 X106.945 Y106.945 E34.78215
G1 X93.055 Y93.055 E35.32784
G1 X96.526 Y93.055 E35.42425
G1 X106.945 Y103.474 E35.83359
G1 X106.945 Y100.003 E35.93000
G1 X99.997 Y93.055 E36.20299
G1 X103.468 Y93.055 E36.29940
G1 X106.945 Y96.532 E36.43603
G1 Z5.200 F7800.000
G1 X103.468 Y106.945 F7800.000
G1 F1193.22
G1 X106.945 Y103.468 E36.57266
G1 X106.945 Y99.997 E36.66907
G1 X99.997 Y106.945 E36.94206
G1 X96.526 Y106.945 E37.03847
G1 X106.945 Y96.526 E37.44781
G1 X106.945 Y93.055 E37.54422
G1 X93.055 Y106.945 E38.08991
G1 X93.055 Y103.474 E38.18633
G1 X103.474 Y93.055 E38.59566
G1 X100.003 Y93.055 E38.69208
G1 X93.055 Y100.003 E38.96506
G1 X93.055 Y96.532 E39.06148
G1 X96.532 Y93.055 E39.19810
G1 Z5.600 F7800.000
G1 X93.055 Y103.468 F7800.000
G1 F1193.22
G1 X96.532 Y106.945 E39.33473
G1 X100.003 Y106.945 E39.43115
G1 X93.055 Y99.997 E39.70413
G1 X93.055 Y96.526 E39.80055
G1 X103.474 Y106.945 E40.20988
G1 X106.945 Y106.945 E40.30630
G1 X93.055 Y93.055 E40.85199
G1 X96.526 Y93.055 E40.94840
G1 X106.945 Y103.474 E41.35774
G1 X106.945 Y100.003 E41.45415
G1 X99.997 Y93.055 E41.72714
G1 X103.468 Y93.055 E41.82355
G1 X106.945 Y96.532 E41.96018
G1 Z6.000 F7800.000
G1 X103.468 Y106.945 F7800.000
G1 F1193.22
G1 X106.945 Y103.468 E42.09681
G1 X106.945 Y99.997 E42.19322
G1 X99.997 Y106.945 E42.46620
G1 X96.526 Y106.945 E42.56262
G1 X106.945 Y96.526 E42.97196
G1 X106.945 Y93.055 E43.06837
G1 X93.055 Y106.945 E43.61406
G1 X93.055 Y103.474 E43.71048
G1 X103.474 Y93.055 E44.11981
G1 X100.003 Y93.055 E44.21623
G1 X93.055 Y100.003 E44.48921
G1 X93.055 Y96.532 E44.58563
G1 X96.532 Y93.055 E44.72225
G1 Z6.400 F7800.000
G1 X93.055 Y103.468 F7800.000
G1 F1193.22
G1 X96.532 Y106.945 E44.85888
G1 X100.003 Y106.945 E44.95530
G1 X93.055 Y99.997 E45.22828
G1 X93.055 Y96.526 E45.32470
G1 X103.474 Y106.945 E45.73403
G1 X106.945 Y106.945 E45.83045
G1 X93.055 Y93.055 E46.37614
G1 X96.526 Y93.055 E46.47255
G1 X106.945 Y103.474 E46.88189
G1 X106.945 Y100.003 E46.97830
G1 X99.997 Y93.055 E47.25128
G1 X103.468 Y93.055 E47.34770
G1 X106.945 Y96.532 E47.48433
G1 Z6.800 F7800.000
G1 X103.468 Y106.945 F7800.000
G1 F1193.22
G1 X106.945 Y103.468 E47.62096
G1 X106.945 Y99.997 E47.71737
G1 X99.997 Y106.945 E47.99035
G1 X96.526 Y106.945 E48.08677
G1 X106.945 Y96.526 E48.49610
G1 X106.945 Y93.055 E48.59252
G1 X93.055 Y106.945 E49.13821
G1 X93.055 Y103.474 E49.23463
G1 X103.474 Y93.055 E49.64396
G1 X100.003 Y93.055 E49.74038
G1 X93.055 Y100.003 E50.01336
G1 X93.055 Y96.532 E50.10978
G1 X96.532 Y93.055 E50.24640
G1 Z7.200 F7800.000
G1 X93.055 Y103.468 F7800.000
G1 F1193.22
G1 X96.532 Y106.945 E50.38303
G1 X100.003 Y106.945 E50.47945
G1 X93.055 Y99.997 E50.75243
G1 X93.055 Y96.526 E50.84884
G1 X103.474 Y106.945 E51.25818
G1 X106.945 Y106.945 E51.35460
G1 X93.055 Y93.055 E51.90028
G1 X96.526 Y93.055 E51.99670
G1 X106.945 Y103.474 E52.40604
G1 X106.945 Y100.003 E52.50245
G1 X99.997 Y93.055 E52.77543
G1 X103.468 Y93.055 E52.87185
G1 X106.945 Y96.532 E53.00848
G1 Z7.600 F7800.000
G1 X103.468 Y106.945 F7800.000
G1 F1193.22
G1 X106.945 Y103.468 E53.14511
G1 X106.945 Y99.997 E53.24152
G1 X99.997 Y106.945 E53.51450
G1 X96.526 Y106.945 E53.61092
G1 X106.945 Y96.526 E54.02025
G1 X106.945 Y93.055 E54.11667
G1 X93.055 Y106.945 E54.66236
G1 X93.055 Y103.474 E54.75878
G1 X103.474 Y93.055 E55.16811
G1 X100.003 Y93.055 E55.26453
G1 X93.055 Y100.003 E55.53751
G1 X93.055 Y96.532 E55.63392
G1 X96.532 Y93.055 E55.77055
G1 Z8.000 F7800.000
G1 X93.055 Y103.468 F7800.000
G1 F1193.22
G1 X96.532 Y106.945 E55.90718
G1 X100.003 Y106.945 E56.00360
G1 X93.055 Y99.997 E56.27658
G1 X93.055 Y96.526 E56.37299
G1 X103.474 Y106.945 E56.78233
G1 X106.945 Y106.945 E56.87875
G1 X93.055 Y93.055 E57.42443
G1 X96.526 Y93.055 E57.52085
G1 X106.945 Y103.474 E57.93018
G1 X106.945 Y100.003 E58.02660
G1 X99.997 Y93.055 E58.29958
G1 X103.468 Y93.055 E58.39600
G1 X106.945 Y96.532 E58.53263
G1 Z8.400 F7800.000
G1 X103.468 Y106.945 F7800.000
G1 F1193.22
G1 X106.945 Y103.468 E58.66925
G1 X106.945 Y99.997 E58.76567
G1 X99.997 Y106.945 E59.03865
G1 X96.526 Y106.945 E59.13507
G1 X106.945 Y96.526 E59.54440
G1 X106.945 Y93.055 E59.64082
G1 X93.055 Y106.945 E60.18651
G1 X93.055 Y103.474 E60.28292
G1 X103.474 Y93.055 E60.69226
G1 X100.003 Y93.055 E60.78868
G1 X93.055 Y100.003 E61.06166
G1 X93.055 Y96.532 E61.15807
G1 X96.532 Y93.055 E61.29470
G1 Z8.800 F7800.000
G1 X93.055 Y103.468 F7800.000
G1 F1193.22
G1 X96.532 Y106.945 E61.43133
G1 X100.003 Y106.945 E61.52775
G1 X93.055 Y99.997 E61.80073
G1 X93.055 Y96.526 E61.89714
G1 X103.474 Y106.945 E62.30648
G1 X106.945 Y106.945 E62.40289
G1 X93.055 Y93.055 E62.94858
G1 X96.526 Y93.055 E63.04500
G1 X106.945 Y103.474 E63.45433
G1 X106.945 Y100.003 E63.55075
G1 X99.997 Y93.055 E63.82373
G1 X103.468 Y93.055 E63.92015
G1 X106.945 Y96.532 E64.05678
G1 Z9.200 F7800.000
G1 X103.468 Y106.945 F7800.000
G1 F1193.22
G1 X106.945 Y103.468 E64.19340
G1 X106.945 Y99.997 E64.28982
G1 X99.997 Y106.945 E64.56280
G1 X96.526 Y106.945 E64.65922
G1 X106.945 Y96.526 E65.06855
G1 X106.945 Y93.055 E65.16497
G1 X93.055 Y106.945 E65.71066
G1 X93.055 Y103.474 E65.80707
G1 X103.474 Y93.055 E66.21641
G1 X100.003 Y93.055 E66.31282
G1 X93.055 Y100.003 E66.58581
G1 X93.055 Y96.532 E66.68222
G1 X96.532 Y93.055 E66.81885
G1 Z9.600 F7800.000
G1 X93.055 Y103.468 F7800.000
G1 F1193.22
G1 X96.532 Y106.945 E66.95548
G1 X100.003 Y106.945 E67.05189
G1 X93.055 Y99.997 E67.32488
G1 X93.055 Y96.526 E67.42129
G1 X103.474 Y106.945 E67.83063
G1 X106.945 Y106.945 E67.92704
G1 X93.055 Y93.055 E68.47273
G1 X96.526 Y93.055 E68.56915
G1 X106.945 Y103.474 E68.97848
G1 X106.945 Y100.003 E69.07490
G1 X99.997 Y93.055 E69.34788
G1 X103.468 Y93.055 E69.44430
G1 X106.945 Y96.532 E69.58092
G1 Z10.000 F7800.000
G1 E67.58092 F2400.00000
G92 E0
G1 X103.468 Y106.945 F7800.000
G1 E2.00000 F2400.00000
G1 F1193.22
G1 X106.945 Y103.468 E2.13663
G1 X106.945 Y99.997 E2.23304
G1 X99.997 Y106.945 E2.50603
G1 X96.526 Y106.945 E2.60244
G1 X106.945 Y96.526 E3.01178
G1 X106.945 Y93.055 E3.10819
G1 X93.055 Y106.945 E3.65388
G1 X93.055 Y103.474 E3.75030
G1 X103.474 Y93.055 E4.15963
G1 X100.003 Y93.055 E4.25605
G1 X93.055 Y100.003 E4.52903
G1 X93.055 Y96.532 E4.62545
G1 X96.532 Y93.055 E4.76207
G1 E2.76207 F2400.00000
G92 E0
M107
; Filament-specific end gcode 
;END gcode for filament

M104 S0 ; turn off temperature
G28 X0  ; home X axis
M84     ; disable motors

M140 S0 ; set bed temperature
; filament used = 70.3mm (0.5cm3)
; total filament cost = 0.0

; avoid_crossing_perimeters = 0
; bed_shape = 0x0,200x0,200x200,0x200
; bed_temperature = 0
; before_layer_gcode = 
; between_objects_gcode = 
; bridge_acceleration = 0
; bridge_fan_speed = 100
; brim_connections_width = 0
; brim_width = 0
; complete_objects = 0
; cooling = 1
; default_acceleration = 0
; disable_fan_first_layers = 3
; duplicate_distance = 6
; end_filament_gcode = "; Filament-specific end gcode \n;END gcode for filament\n"
; end_gcode = M104 S0 ; turn off temperature\nG28 X0  ; home X axis\nM84     ; disable motors\n
; extruder_clearance_height = 20
; extruder_clearance_radius = 20
; extruder_offset = 0x0
; extrusion_axis = E
; extrusion_multiplier = 1
; fan_always_on = 0
; fan_below_layer_time = 60
; filament_colour = #FFFFFF
; filament_cost = 0
; filament_density = 0
; filament_diameter = 3
; filament_max_volumetric_speed = 0
; filament_notes = ""
; first_layer_acceleration = 0
; first_layer_bed_temperature = 0
; first_layer_extrusion_width = 200%
; first_layer_speed = 30
; first_layer_temperature = 205
; gcode_arcs = 0
; gcode_comments = 0
; gcode_flavor = reprap
; has_heatbed = 1
; infill_acceleration = 0
; infill_first = 0
; interior_brim_width = 0
; layer_gcode = 
; max_fan_speed = 100
; max_layer_height = 0.3
; max_print_speed = 80
; max_volumetric_speed = 0
; min_fan_speed = 35
; min_layer_height = 0.15
; min_print_speed = 10
; min_skirt_length = 0
; notes = 
; nozzle_diameter = 0.5
; only_retract_when_crossing_perimeters = 1
; ooze_prevention = 0
; output_filename_format = [input_filename_base].gcode
; perimeter_acceleration = 0
; post_process = 
; pressure_advance = 0
; printer_notes = 
; resolution = 0
; retract_before_travel = 2
; retract_layer_change = 0
; retract_length = 2
; retract_length_toolchange = 10
; retract_lift = 0
; retract_lift_above = 0
; retract_lift_below = 0
; retract_restart_extra = 0
; retract_restart_extra_toolchange = 0
; retract_speed = 40
; skirt_distance = 6
; skirt_height = 1
; skirts = 0
; slowdown_below_layer_time = 5
; spiral_vase = 0
; standby_temperature_delta = -5
; start_filament_gcode = "; Filament gcode\n"
; start_gcode = G28 ; home all axes\nG1 Z5 F5000 ; lift nozzle\n
; temperature = 200
; threads = 8
; toolchange_gcode = 
; travel_speed = 130
; use_firmware_retraction = 0
; use_relative_e_distances = 0
; use_set_and_wait_bed = 0
; use_set_and_wait_extruder = 0
; use_volumetric_e = 0
; vibration_limit = 0
; wipe = 0
; z_offset = 0
; z_steps_per_mm = 0
; adaptive_slicing = 0
; adaptive_slicing_quality = 75%
; dont_support_bridges = 1
; extrusion_width = 0
; first_layer_height = 0.4
; infill_only_where_needed = 0
; interface_shells = 0
; layer_height = 0.4
; match_horizontal_surfaces = 0
; raft_layers = 0
; regions_overlap = 0
; seam_position = aligned
; sequential_print_priority = 0
; support_material = 0
; support_material_angle = 0
; support_material_buildplate_only = 0
; support_material_contact_distance = 0.2
; support_material_enforce_layers = 0
; support_material_extruder = 1
; support_material_extrusion_width = 0
; support_material_interface_extruder = 1
; support_material_interface_extrusion_width = 0
; support_material_interface_layers = 3
; support_material_interface_spacing = 0
; support_material_interface_speed = 100%
; support_material_max_layers = 0
; support_material_pattern = pillars
; support_material_spacing = 2.5
; support_material_speed = 60
; support_material_threshold = 60%
; xy_size_compensation = 0
; bottom_infill_pattern = rectilinear
; bottom_solid_layers = 0
; bridge_flow_ratio = 1
; bridge_speed = 60
; external_perimeter_extrusion_width = 0
; external_perimeter_speed = 50%
; external_perimeters_first = 0
; extra_perimeters = 1
; fill_angle = 45
; fill_density = 20%
; fill_gaps = 1
; fill_pattern = rectilinear
; gap_fill_speed = 20
; infill_every_layers = 1
; infill_extruder = 1
; infill_extrusion_width = 0
; infill_overlap = 55%
; infill_speed = 80
; overhangs = 1
; perimeter_extruder = 1
; perimeter_extrusion_width = 0
; perimeter_speed = 60
; perimeters = 0
; small_perimeter_speed = 15
; solid_infill_below_area = 70
; solid_infill_every_layers = 0
; solid_infill_extruder = 1
; solid_infill_extrusion_width = 0
; solid_infill_speed = 20
; thin_walls = 1
; top_infill_extrusion_width = 0
; top_infill_pattern = rectilinear
; top_solid_infill_speed = 15
; top_solid_layers = 0
