; generated by Slic3r 1.2.9 on 2019-06-16 at 20:09:35

; external perimeters extrusion width = 0.50mm
; perimeters extrusion width = 0.52mm
; infill extrusion width = 0.52mm
; solid infill extrusion width = 0.52mm
; top infill extrusion width = 0.52mm

M107
M104 S200 ; set temperature
G28 ; home all axes
G1 Z5 F5000 ; lift nozzle

M109 S200 ; wait for temperature to be reached
G21 ; set units to millimeters
G90 ; use absolute coordinates
M82 ; use absolute distances for extrusion
G92 E0
G1 Z0.500 F7800.000
G1 E-2.00000 F2400.00000
G92 E0
G1 X92.560 Y107.900 F7800.000
G1 E2.00000 F2400.00000
G1 X91.600 Y106.940 E2.77168 F1800.000
G1 X91.600 Y105.955 E3.33119
G1 X93.545 Y107.900 E4.89414
G1 X94.529 Y107.900 E5.45366
G1 X91.600 Y104.971 E7.80788
G1 X91.600 Y103.986 E8.36740
G1 X95.514 Y107.900 E11.51290
G1 X96.498 Y107.900 E12.07242
G1 X91.600 Y103.002 E16.00919
G1 X91.600 Y102.017 E16.56871
G1 X97.483 Y107.900 E21.29676
G1 X98.468 Y107.900 E21.85628
G1 X91.600 Y101.032 E27.37561
G1 X91.600 Y100.048 E27.93512
G1 X99.452 Y107.900 E34.24572
G1 X100.437 Y107.900 E34.80524
G1 X91.600 Y99.063 E41.90711
G1 X91.600 Y98.079 E42.46663
G1 X101.421 Y107.900 E50.35978
G1 X102.406 Y107.900 E50.91930
G1 X91.600 Y97.094 E59.60372
G1 X91.600 Y96.110 E60.16324
G1 X103.390 Y107.900 E69.63894
G1 X104.375 Y107.900 E70.19846
G1 X91.600 Y95.125 E80.46544
G1 X91.600 Y94.141 E81.02495
G1 X105.359 Y107.900 E92.08321
G1 X106.344 Y107.900 E92.64272
G1 X91.600 Y93.156 E104.49225
G1 X91.600 Y92.172 E105.05176
G1 X107.328 Y107.900 E117.69257
G1 X108.313 Y107.900 E118.25208
G1 X92.513 Y92.100 E130.95037
G1 X93.498 Y92.100 E131.50989
G1 X108.400 Y107.002 E143.48682
G1 X108.400 Y106.018 E144.04633
G1 X94.482 Y92.100 E155.23199
G1 X95.467 Y92.100 E155.79151
G1 X108.400 Y105.033 E166.18589
G1 X108.400 Y104.049 E166.74540
G1 X96.451 Y92.100 E176.34851
G1 X97.436 Y92.100 E176.90802
G1 X108.400 Y103.064 E185.71985
G1 X108.400 Y102.080 E186.27937
G1 X98.420 Y92.100 E194.29992
G1 X99.405 Y92.100 E194.85944
G1 X108.400 Y101.095 E202.08872
G1 X108.400 Y100.111 E202.64823
G1 X100.389 Y92.100 E209.08624
G1 X101.374 Y92.100 E209.64575
G1 X108.400 Y99.126 E215.29248
G1 X108.400 Y98.142 E215.85200
G1 X102.358 Y92.100 E220.70746
G1 X103.343 Y92.100 E221.26697
G1 X108.400 Y97.157 E225.33115
G1 X108.400 Y96.172 E225.89067
G1 X104.328 Y92.100 E229.16357
G1 X105.312 Y92.100 E229.72309
G1 X108.400 Y95.188 E232.20472
G1 X108.400 Y94.203 E232.76423
G1 X106.297 Y92.100 E234.45459
G1 X107.281 Y92.100 E235.01410
G1 X108.400 Y93.219 E235.91318
G1 Z1.000 F7800.000
G1 X107.281 Y107.900 F7800.000
G1 X108.400 Y106.781 E236.33387 F4800.000
G1 X108.400 Y105.797 E236.59567
G1 X106.297 Y107.900 E237.38659
G1 X105.312 Y107.900 E237.64840
G1 X108.400 Y104.812 E238.80956
G1 X108.400 Y103.828 E239.07136
G1 X104.328 Y107.900 E240.60278
G1 X103.343 Y107.900 E240.86458
G1 X108.400 Y102.843 E242.76623
G1 X108.400 Y101.858 E243.02803
G1 X102.358 Y107.900 E245.29993
G1 X101.374 Y107.900 E245.56173
G1 X108.400 Y100.874 E248.20386
G1 X108.400 Y99.889 E248.46566
G1 X100.389 Y107.900 E251.47804
G1 X99.405 Y107.900 E251.73984
G1 X108.400 Y98.905 E255.12247
G1 X108.400 Y97.920 E255.38427
G1 X98.420 Y107.900 E259.13713
G1 X97.436 Y107.900 E259.39893
G1 X108.400 Y96.936 E263.52204
G1 X108.400 Y95.951 E263.78384
G1 X96.451 Y107.900 E268.27719
G1 X95.467 Y107.900 E268.53899
G1 X108.400 Y94.967 E273.40258
G1 X108.400 Y93.982 E273.66438
G1 X94.482 Y107.900 E278.89821
G1 X93.498 Y107.900 E279.16001
G1 X108.400 Y92.998 E284.76409
G1 X108.313 Y92.100 E285.00387
G1 X92.513 Y107.900 E290.94547
G1 X91.600 Y107.828 E291.18900
G1 X107.328 Y92.100 E297.10370
G1 X106.344 Y92.100 E297.36550
G1 X91.600 Y106.844 E302.90996
G1 X91.600 Y105.859 E303.17177
G1 X105.359 Y92.100 E308.34599
G1 X104.375 Y92.100 E308.60779
G1 X91.600 Y104.875 E313.41176
G1 X91.600 Y103.890 E313.67356
G1 X103.390 Y92.100 E318.10730
G1 X102.406 Y92.100 E318.36910
G1 X91.600 Y102.906 E322.43260
G1 X91.600 Y101.921 E322.69440
G1 X101.421 Y92.100 E326.38765
G1 X100.437 Y92.100 E326.64945
G1 X91.600 Y100.937 E329.97246
G1 X91.600 Y99.952 E330.23426
G1 X99.452 Y92.100 E333.18703
G1 X98.468 Y92.100 E333.44883
G1 X91.600 Y98.968 E336.03135
G1 X91.600 Y97.983 E336.29315
G1 X97.483 Y92.100 E338.50543
G1 X96.498 Y92.100 E338.76724
G1 X91.600 Y96.998 E340.60928
G1 X91.600 Y96.014 E340.87108
G1 X95.514 Y92.100 E342.34288
G1 X94.529 Y92.100 E342.60468
G1 X91.600 Y95.029 E343.70623
G1 X91.600 Y94.045 E343.96803
G1 X93.545 Y92.100 E344.69935
G1 X92.560 Y92.100 E344.96115
G1 X91.600 Y93.060 E345.32222
G1 Z1.500 F7800.000
G1 X92.560 Y107.900 F7800.000
G1 X91.600 Y106.940 E345.68329 F4800.000
G1 X91.600 Y105.955 E345.94509
G1 X93.545 Y107.900 E346.67641
G1 X94.529 Y107.900 E346.93821
G1 X91.600 Y104.971 E348.03976
G1 X91.600 Y103.986 E348.30156
G1 X95.514 Y107.900 E349.77336
G1 X96.498 Y107.900 E350.03516
G1 X91.600 Y103.002 E351.87720
G1 X91.600 Y102.017 E352.13901
G1 X97.483 Y107.900 E354.35129
G1 X98.468 Y107.900 E354.61309
G1 X91.600 Y101.032 E357.19561
G1 X91.600 Y100.048 E357.45741
G1 X99.452 Y107.900 E360.41018
G1 X100.437 Y107.900 E360.67198
G1 X91.600 Y99.063 E363.99499
G1 X91.600 Y98.079 E364.25679
G1 X101.421 Y107.900 E367.95004
G1 X102.406 Y107.900 E368.21184
G1 X91.600 Y97.094 E372.27534
G1 X91.600 Y96.110 E372.53714
G1 X103.390 Y107.900 E376.97087
G1 X104.375 Y107.900 E377.23267
G1 X91.600 Y95.125 E382.03665
G1 X91.600 Y94.141 E382.29845
G1 X105.359 Y107.900 E387.47267
G1 X106.344 Y107.900 E387.73447
G1 X91.600 Y93.156 E393.27894
G1 X91.600 Y92.172 E393.54074
G1 X107.328 Y107.900 E399.45544
G1 X108.313 Y107.900 E399.71724
G1 X92.513 Y92.100 E405.65884
G1 X93.498 Y92.100 E405.92065
G1 X108.400 Y107.002 E411.52472
G1 X108.400 Y106.018 E411.78652
G1 X94.482 Y92.100 E417.02035
G1 X95.467 Y92.100 E417.28216
G1 X108.400 Y105.033 E422.14575
G1 X108.400 Y104.049 E422.40755
G1 X96.451 Y92.100 E426.90089
G1 X97.436 Y92.100 E427.16270
G1 X108.400 Y103.064 E431.28580
G1 X108.400 Y102.080 E431.54760
G1 X98.420 Y92.100 E435.30047
G1 X99.405 Y92.100 E435.56227
G1 X108.400 Y101.095 E438.94489
G1 X108.400 Y100.111 E439.20669
G1 X100.389 Y92.100 E442.21907
G1 X101.374 Y92.100 E442.48087
G1 X108.400 Y99.126 E445.12301
G1 X108.400 Y98.142 E445.38481
G1 X102.358 Y92.100 E447.65670
G1 X103.343 Y92.100 E447.91850
G1 X108.400 Y97.157 E449.82016
G1 X108.400 Y96.172 E450.08196
G1 X104.328 Y92.100 E451.61337
G1 X105.312 Y92.100 E451.87517
G1 X108.400 Y95.188 E453.03634
G1 X108.400 Y94.203 E453.29814
G1 X106.297 Y92.100 E454.08907
G1 X107.281 Y92.100 E454.35087
G1 X108.400 Y93.219 E454.77155
M106 S252.45
G1 Z2.000 F7800.000
G1 X107.281 Y107.900 F7800.000
G1 X108.400 Y106.781 E455.19224 F4800.000
G1 X108.400 Y105.797 E455.45404
G1 X106.297 Y107.900 E456.24496
G1 X105.312 Y107.900 E456.50676
G1 X108.400 Y104.812 E457.66793
G1 X108.400 Y103.828 E457.92973
G1 X104.328 Y107.900 E459.46114
G1 X103.343 Y107.900 E459.72294
G1 X108.400 Y102.843 E461.62460
G1 X108.400 Y101.858 E461.88640
G1 X102.358 Y107.900 E464.15829
G1 X101.374 Y107.900 E464.42009
G1 X108.400 Y100.874 E467.06223
G1 X108.400 Y99.889 E467.32403
G1 X100.389 Y107.900 E470.33641
G1 X99.405 Y107.900 E470.59821
G1 X108.400 Y98.905 E473.98083
G1 X108.400 Y97.920 E474.24264
G1 X98.420 Y107.900 E477.99550
G1 X97.436 Y107.900 E478.25730
G1 X108.400 Y96.936 E482.38041
G1 X108.400 Y95.951 E482.64221
G1 X96.451 Y107.900 E487.13555
G1 X95.467 Y107.900 E487.39736
G1 X108.400 Y94.967 E492.26094
G1 X108.400 Y93.982 E492.52275
G1 X94.482 Y107.900 E497.75658
G1 X93.498 Y107.900 E498.01838
G1 X108.400 Y92.998 E503.62245
G1 X108.313 Y92.100 E503.86224
G1 X92.513 Y107.900 E509.80384
G1 X91.600 Y107.828 E510.04737
G1 X107.328 Y92.100 E515.96207
G1 X106.344 Y92.100 E516.22387
G1 X91.600 Y106.844 E521.76833
G1 X91.600 Y105.859 E522.03013
G1 X105.359 Y92.100 E527.20435
G1 X104.375 Y92.100 E527.46615
G1 X91.600 Y104.875 E532.27013
G1 X91.600 Y103.890 E532.53193
G1 X103.390 Y92.100 E536.96567
G1 X102.406 Y92.100 E537.22747
G1 X91.600 Y102.906 E541.29096
G1 X91.600 Y101.921 E541.55276
G1 X101.421 Y92.100 E545.24602
G1 X100.437 Y92.100 E545.50782
G1 X91.600 Y100.937 E548.83083
G1 X91.600 Y99.952 E549.09263
G1 X99.452 Y92.100 E552.04539
G1 X98.468 Y92.100 E552.30719
G1 X91.600 Y98.968 E554.88972
G1 X91.600 Y97.983 E555.15152
G1 X97.483 Y92.100 E557.36380
G1 X96.498 Y92.100 E557.62560
G1 X91.600 Y96.998 E559.46764
G1 X91.600 Y96.014 E559.72945
G1 X95.514 Y92.100 E561.20124
G1 X94.529 Y92.100 E561.46304
G1 X91.600 Y95.029 E562.56460
G1 X91.600 Y94.045 E562.82640
G1 X93.545 Y92.100 E563.55772
G1 X92.560 Y92.100 E563.81952
G1 X91.600 Y93.060 E564.18059
G1 Z2.500 F7800.000
G1 X92.560 Y107.900 F7800.000
G1 X91.600 Y106.940 E564.54166 F4800.000
G1 X91.600 Y105.955 E564.80346
G1 X93.545 Y107.900 E565.53478
G1 X94.529 Y107.900 E565.79658
G1 X91.600 Y104.971 E566.89813
G1 X91.600 Y103.986 E567.15993
G1 X95.514 Y107.900 E568.63173
G1 X96.498 Y107.900 E568.89353
G1 X91.600 Y103.002 E570.73557
G1 X91.600 Y102.017 E570.99737
G1 X97.483 Y107.900 E573.20966
G1 X98.468 Y107.900 E573.47146
G1 X91.600 Y101.032 E576.05398
G1 X91.600 Y100.048 E576.31578
G1 X99.452 Y107.900 E579.26855
G1 X100.437 Y107.900 E579.53035
G1 X91.600 Y99.063 E582.85336
G1 X91.600 Y98.079 E583.11516
G1 X101.421 Y107.900 E586.80841
G1 X102.406 Y107.900 E587.07021
G1 X91.600 Y97.094 E591.13370
G1 X91.600 Y96.110 E591.39551
G1 X103.390 Y107.900 E595.82924
G1 X104.375 Y107.900 E596.09104
G1 X91.600 Y95.125 E600.89502
G1 X91.600 Y94.141 E601.15682
G1 X105.359 Y107.900 E606.33104
G1 X106.344 Y107.900 E606.59284
G1 X91.600 Y93.156 E612.13730
G1 X91.600 Y92.172 E612.39911
G1 X107.328 Y107.900 E618.31381
G1 X108.313 Y107.900 E618.57561
G1 X92.513 Y92.100 E624.51721
G1 X93.498 Y92.100 E624.77901
G1 X108.400 Y107.002 E630.38309
G1 X108.400 Y106.018 E630.64489
G1 X94.482 Y92.100 E635.87872
G1 X95.467 Y92.100 E636.14052
G1 X108.400 Y105.033 E641.00411
G1 X108.400 Y104.049 E641.26591
G1 X96.451 Y92.100 E645.75926
G1 X97.436 Y92.100 E646.02106
G1 X108.400 Y103.064 E650.14417
G1 X108.400 Y102.080 E650.40597
G1 X98.420 Y92.100 E654.15883
G1 X99.405 Y92.100 E654.42063
G1 X108.400 Y101.095 E657.80326
G1 X108.400 Y100.111 E658.06506
G1 X100.389 Y92.100 E661.07744
G1 X101.374 Y92.100 E661.33924
G1 X108.400 Y99.126 E663.98138
G1 X108.400 Y98.142 E664.24318
G1 X102.358 Y92.100 E666.51507
G1 X103.343 Y92.100 E666.77687
G1 X108.400 Y97.157 E668.67853
G1 X108.400 Y96.172 E668.94033
G1 X104.328 Y92.100 E670.47174
G1 X105.312 Y92.100 E670.73354
G1 X108.400 Y95.188 E671.89471
G1 X108.400 Y94.203 E672.15651
G1 X106.297 Y92.100 E672.94743
G1 X107.281 Y92.100 E673.20923
G1 X108.400 Y93.219 E673.62992
G1 Z3.000 F7800.000
G1 X107.281 Y107.900 F7800.000
G1 X108.400 Y106.781 E674.05060 F4800.000
G1 X108.400 Y105.797 E674.31240
G1 X106.297 Y107.900 E675.10333
G1 X105.312 Y107.900 E675.36513
G1 X108.400 Y104.812 E676.52630
G1 X108.400 Y103.828 E676.78810
G1 X104.328 Y107.900 E678.31951
G1 X103.343 Y107.900 E678.58131
G1 X108.400 Y102.843 E680.48297
G1 X108.400 Y101.858 E680.74477
G1 X102.358 Y107.900 E683.01666
G1 X101.374 Y107.900 E683.27846
G1 X108.400 Y100.874 E685.92060
G1 X108.400 Y99.889 E686.18240
G1 X100.389 Y107.900 E689.19478
G1 X99.405 Y107.900 E689.45658
G1 X108.400 Y98.905 E692.83920
G1 X108.400 Y97.920 E693.10100
G1 X98.420 Y107.900 E696.85387
G1 X97.436 Y107.900 E697.11567
G1 X108.400 Y96.936 E701.23877
G1 X108.400 Y95.951 E701.50057
G1 X96.451 Y107.900 E705.99392
G1 X95.467 Y107.900 E706.25572
G1 X108.400 Y94.967 E711.11931
G1 X108.400 Y93.982 E711.38111
G1 X94.482 Y107.900 E716.61495
G1 X93.498 Y107.900 E716.87675
G1 X108.400 Y92.998 E722.48082
G1 X108.313 Y92.100 E722.72061
G1 X92.513 Y107.900 E728.66221
G1 X91.600 Y107.828 E728.90573
G1 X107.328 Y92.100 E734.82044
G1 X106.344 Y92.100 E735.08224
G1 X91.600 Y106.844 E740.62670
G1 X91.600 Y105.859 E740.88850
G1 X105.359 Y92.100 E746.06272
G1 X104.375 Y92.100 E746.32452
G1 X91.600 Y104.875 E751.12850
G1 X91.600 Y103.890 E751.39030
G1 X103.390 Y92.100 E755.82404
G1 X102.406 Y92.100 E756.08584
G1 X91.600 Y102.906 E760.14933
G1 X91.600 Y101.921 E760.41113
G1 X101.421 Y92.100 E764.10438
G1 X100.437 Y92.100 E764.36618
G1 X91.600 Y100.937 E767.68919
G1 X91.600 Y99.952 E767.95100
G1 X99.452 Y92.100 E770.90376
G1 X98.468 Y92.100 E771.16556
G1 X91.600 Y98.968 E773.74809
G1 X91.600 Y97.983 E774.00989
G1 X97.483 Y92.100 E776.22217
G1 X96.498 Y92.100 E776.48397
G1 X91.600 Y96.998 E778.32601
G1 X91.600 Y96.014 E778.58781
G1 X95.514 Y92.100 E780.05961
G1 X94.529 Y92.100 E780.32141
G1 X91.600 Y95.029 E781.42297
G1 X91.600 Y94.045 E781.68477
G1 X93.545 Y92.100 E782.41608
G1 X92.560 Y92.100 E782.67789
G1 X91.600 Y93.060 E783.03896
G1 Z3.500 F7800.000
G1 X92.560 Y107.900 F7800.000
G1 X91.600 Y106.940 E783.40003 F4800.000
G1 X91.600 Y105.955 E783.66183
G1 X93.545 Y107.900 E784.39314
G1 X94.529 Y107.900 E784.65494
G1 X91.600 Y104.971 E785.75650
G1 X91.600 Y103.986 E786.01830
G1 X95.514 Y107.900 E787.49010
G1 X96.498 Y107.900 E787.75190
G1 X91.600 Y103.002 E789.59394
G1 X91.600 Y102.017 E789.85574
G1 X97.483 Y107.900 E792.06802
G1 X98.468 Y107.900 E792.32983
G1 X91.600 Y101.032 E794.91235
G1 X91.600 Y100.048 E795.17415
G1 X99.452 Y107.900 E798.12692
G1 X100.437 Y107.900 E798.38872
G1 X91.600 Y99.063 E801.71173
G1 X91.600 Y98.079 E801.97353
G1 X101.421 Y107.900 E805.66678
G1 X102.406 Y107.900 E805.92858
G1 X91.600 Y97.094 E809.99207
G1 X91.600 Y96.110 E810.25387
G1 X103.390 Y107.900 E814.68761
G1 X104.375 Y107.900 E814.94941
G1 X91.600 Y95.125 E819.75339
G1 X91.600 Y94.141 E820.01519
G1 X105.359 Y107.900 E825.18941
G1 X106.344 Y107.900 E825.45121
G1 X91.600 Y93.156 E830.99567
G1 X91.600 Y92.172 E831.25747
G1 X107.328 Y107.900 E837.17218
G1 X108.313 Y107.900 E837.43398
G1 X92.513 Y92.100 E843.37558
G1 X93.498 Y92.100 E843.63738
G1 X108.400 Y107.002 E849.24146
G1 X108.400 Y106.018 E849.50326
G1 X94.482 Y92.100 E854.73709
G1 X95.467 Y92.100 E854.99889
G1 X108.400 Y105.033 E859.86248
G1 X108.400 Y104.049 E860.12428
G1 X96.451 Y92.100 E864.61763
G1 X97.436 Y92.100 E864.87943
G1 X108.400 Y103.064 E869.00254
G1 X108.400 Y102.080 E869.26434
G1 X98.420 Y92.100 E873.01720
G1 X99.405 Y92.100 E873.27900
G1 X108.400 Y101.095 E876.66162
G1 X108.400 Y100.111 E876.92343
G1 X100.389 Y92.100 E879.93581
G1 X101.374 Y92.100 E880.19761
G1 X108.400 Y99.126 E882.83974
G1 X108.400 Y98.142 E883.10154
G1 X102.358 Y92.100 E885.37344
G1 X103.343 Y92.100 E885.63524
G1 X108.400 Y97.157 E887.53689
G1 X108.400 Y96.172 E887.79870
G1 X104.328 Y92.100 E889.33011
G1 X105.312 Y92.100 E889.59191
G1 X108.400 Y95.188 E890.75308
G1 X108.400 Y94.203 E891.01488
G1 X106.297 Y92.100 E891.80580
G1 X107.281 Y92.100 E892.06760
G1 X108.400 Y93.219 E892.48829
G1 Z4.000 F7800.000
G1 X107.281 Y107.900 F7800.000
G1 X108.400 Y106.781 E892.90897 F4800.000
G1 X108.400 Y105.797 E893.17077
G1 X106.297 Y107.900 E893.96170
G1 X105.312 Y107.900 E894.22350
G1 X108.400 Y104.812 E895.38467
G1 X108.400 Y103.828 E895.64647
G1 X104.328 Y107.900 E897.17788
G1 X103.343 Y107.900 E897.43968
G1 X108.400 Y102.843 E899.34133
G1 X108.400 Y101.858 E899.60313
G1 X102.358 Y107.900 E901.87503
G1 X101.374 Y107.900 E902.13683
G1 X108.400 Y100.874 E904.77897
G1 X108.400 Y99.889 E905.04077
G1 X100.389 Y107.900 E908.05315
G1 X99.405 Y107.900 E908.31495
G1 X108.400 Y98.905 E911.69757
G1 X108.400 Y97.920 E911.95937
G1 X98.420 Y107.900 E915.71224
G1 X97.436 Y107.900 E915.97404
G1 X108.400 Y96.936 E920.09714
G1 X108.400 Y95.951 E920.35894
G1 X96.451 Y107.900 E924.85229
G1 X95.467 Y107.900 E925.11409
G1 X108.400 Y94.967 E929.97768
G1 X108.400 Y93.982 E930.23948
G1 X94.482 Y107.900 E935.47331
G1 X93.498 Y107.900 E935.73512
G1 X108.400 Y92.998 E941.33919
G1 X108.313 Y92.100 E941.57898
G1 X92.513 Y107.900 E947.52058
G1 X91.600 Y107.828 E947.76410
G1 X107.328 Y92.100 E953.67881
G1 X106.344 Y92.100 E953.94061
G1 X91.600 Y106.844 E959.48507
G1 X91.600 Y105.859 E959.74687
G1 X105.359 Y92.100 E964.92109
G1 X104.375 Y92.100 E965.18289
G1 X91.600 Y104.875 E969.98687
G1 X91.600 Y103.890 E970.24867
G1 X103.390 Y92.100 E974.68241
G1 X102.406 Y92.100 E974.94421
G1 X91.600 Y102.906 E979.00770
G1 X91.600 Y101.921 E979.26950
G1 X101.421 Y92.100 E982.96275
G1 X100.437 Y92.100 E983.22455
G1 X91.600 Y100.937 E986.54756
G1 X91.600 Y99.952 E986.80936
G1 X99.452 Y92.100 E989.76213
G1 X98.468 Y92.100 E990.02393
G1 X91.600 Y98.968 E992.60646
G1 X91.600 Y97.983 E992.86826
G1 X97.483 Y92.100 E995.08054
G1 X96.498 Y92.100 E995.34234
G1 X91.600 Y96.998 E997.18438
G1 X91.600 Y96.014 E997.44618
G1 X95.514 Y92.100 E998.91798
G1 X94.529 Y92.100 E999.17978
G1 X91.600 Y95.029 E1000.28134
G1 X91.600 Y94.045 E1000.54314
G1 X93.545 Y92.100 E1001.27445
G1 X92.560 Y92.100 E1001.53625
G1 X91.600 Y93.060 E1001.89733
G1 Z4.500 F7800.000
G1 X92.560 Y107.900 F7800.000
G1 X91.600 Y106.940 E1002.25840 F4800.000
G1 X91.600 Y105.955 E1002.52020
G1 X93.545 Y107.900 E1003.25151
G1 X94.529 Y107.900 E1003.51331
G1 X91.600 Y104.971 E1004.61487
G1 X91.600 Y103.986 E1004.87667
G1 X95.514 Y107.900 E1006.34847
G1 X96.498 Y107.900 E1006.61027
G1 X91.600 Y103.002 E1008.45231
G1 X91.600 Y102.017 E1008.71411
G1 X97.483 Y107.900 E1010.92639
G1 X98.468 Y107.900 E1011.18819
G1 X91.600 Y101.032 E1013.77072
G1 X91.600 Y100.048 E1014.03252
G1 X99.452 Y107.900 E1016.98529
G1 X100.437 Y107.900 E1017.24709
G1 X91.600 Y99.063 E1020.57010
G1 X91.600 Y98.079 E1020.83190
G1 X101.421 Y107.900 E1024.52515
G1 X102.406 Y107.900 E1024.78695
G1 X91.600 Y97.094 E1028.85044
G1 X91.600 Y96.110 E1029.11224
G1 X103.390 Y107.900 E1033.54598
G1 X104.375 Y107.900 E1033.80778
G1 X91.600 Y95.125 E1038.61176
G1 X91.600 Y94.141 E1038.87356
G1 X105.359 Y107.900 E1044.04778
G1 X106.344 Y107.900 E1044.30958
G1 X91.600 Y93.156 E1049.85404
G1 X91.600 Y92.172 E1050.11584
G1 X107.328 Y107.900 E1056.03055
G1 X108.313 Y107.900 E1056.29235
G1 X92.513 Y92.100 E1062.23395
G1 X93.498 Y92.100 E1062.49575
G1 X108.400 Y107.002 E1068.09982
G1 X108.400 Y106.018 E1068.36163
G1 X94.482 Y92.100 E1073.59546
G1 X95.467 Y92.100 E1073.85726
G1 X108.400 Y105.033 E1078.72085
G1 X108.400 Y104.049 E1078.98265
G1 X96.451 Y92.100 E1083.47600
G1 X97.436 Y92.100 E1083.73780
G1 X108.400 Y103.064 E1087.86091
G1 X108.400 Y102.080 E1088.12271
G1 X98.420 Y92.100 E1091.87557
G1 X99.405 Y92.100 E1092.13737
G1 X108.400 Y101.095 E1095.51999
G1 X108.400 Y100.111 E1095.78179
G1 X100.389 Y92.100 E1098.79417
G1 X101.374 Y92.100 E1099.05597
G1 X108.400 Y99.126 E1101.69811
G1 X108.400 Y98.142 E1101.95991
G1 X102.358 Y92.100 E1104.23181
G1 X103.343 Y92.100 E1104.49361
G1 X108.400 Y97.157 E1106.39526
G1 X108.400 Y96.172 E1106.65706
G1 X104.328 Y92.100 E1108.18847
G1 X105.312 Y92.100 E1108.45027
G1 X108.400 Y95.188 E1109.61144
G1 X108.400 Y94.203 E1109.87324
G1 X106.297 Y92.100 E1110.66417
G1 X107.281 Y92.100 E1110.92597
G1 X108.400 Y93.219 E1111.34666
G1 Z5.000 F7800.000
G1 X107.281 Y107.900 F7800.000
G1 X108.400 Y106.781 E1111.76734 F4800.000
G1 X108.400 Y105.797 E1112.02914
G1 X106.297 Y107.900 E1112.82007
G1 X105.312 Y107.900 E1113.08187
G1 X108.400 Y104.812 E1114.24304
G1 X108.400 Y103.828 E1114.50484
G1 X104.328 Y107.900 E1116.03625
G1 X103.343 Y107.900 E1116.29805
G1 X108.400 Y102.843 E1118.19970
G1 X108.400 Y101.858 E1118.46150
G1 X102.358 Y107.900 E1120.73340
G1 X101.374 Y107.900 E1120.99520
G1 X108.400 Y100.874 E1123.63734
G1 X108.400 Y99.889 E1123.89914
G1 X100.389 Y107.900 E1126.91152
G1 X99.405 Y107.900 E1127.17332
G1 X108.400 Y98.905 E1130.55594
G1 X108.400 Y97.920 E1130.81774
G1 X98.420 Y107.900 E1134.57060
G1 X97.436 Y107.900 E1134.83240
G1 X108.400 Y96.936 E1138.95551
G1 X108.400 Y95.951 E1139.21731
G1 X96.451 Y107.900 E1143.71066
G1 X95.467 Y107.900 E1143.97246
G1 X108.400 Y94.967 E1148.83605
G1 X108.400 Y93.982 E1149.09785
G1 X94.482 Y107.900 E1154.33168
G1 X93.498 Y107.900 E1154.59348
G1 X108.400 Y92.998 E1160.19756
G1 X108.313 Y92.100 E1160.43734
G1 X92.513 Y107.900 E1166.37894
G1 X91.600 Y107.828 E1166.62247
G1 X107.328 Y92.100 E1172.53717
G1 X106.344 Y92.100 E1172.79898
G1 X91.600 Y106.844 E1178.34344
G1 X91.600 Y105.859 E1178.60524
G1 X105.359 Y92.100 E1183.77946
G1 X104.375 Y92.100 E1184.04126
G1 X91.600 Y104.875 E1188.84524
G1 X91.600 Y103.890 E1189.10704
G1 X103.390 Y92.100 E1193.54077
G1 X102.406 Y92.100 E1193.80257
G1 X91.600 Y102.906 E1197.86607
G1 X91.600 Y101.921 E1198.12787
G1 X101.421 Y92.100 E1201.82112
G1 X100.437 Y92.100 E1202.08292
G1 X91.600 Y100.937 E1205.40593
G1 X91.600 Y99.952 E1205.66773
G1 X99.452 Y92.100 E1208.62050
G1 X98.468 Y92.100 E1208.88230
G1 X91.600 Y98.968 E1211.46482
G1 X91.600 Y97.983 E1211.72662
G1 X97.483 Y92.100 E1213.93891
G1 X96.498 Y92.100 E1214.20071
G1 X91.600 Y96.998 E1216.04275
G1 X91.600 Y96.014 E1216.30455
G1 X95.514 Y92.100 E1217.77635
G1 X94.529 Y92.100 E1218.03815
G1 X91.600 Y95.029 E1219.13971
G1 X91.600 Y94.045 E1219.40151
G1 X93.545 Y92.100 E1220.13282
G1 X92.560 Y92.100 E1220.39462
G1 X91.600 Y93.060 E1220.75569
G1 Z5.500 F7800.000
G1 X92.560 Y107.900 F7800.000
G1 X91.600 Y106.940 E1221.11677 F4800.000
G1 X91.600 Y105.955 E1221.37857
G1 X93.545 Y107.900 E1222.10988
G1 X94.529 Y107.900 E1222.37168
G1 X91.600 Y104.971 E1223.47324
G1 X91.600 Y103.986 E1223.73504
G1 X95.514 Y107.900 E1225.20684
G1 X96.498 Y107.900 E1225.46864
G1 X91.600 Y103.002 E1227.31068
G1 X91.600 Y102.017 E1227.57248
G1 X97.483 Y107.900 E1229.78476
G1 X98.468 Y107.900 E1230.04656
G1 X91.600 Y101.032 E1232.62909
G1 X91.600 Y100.048 E1232.89089
G1 X99.452 Y107.900 E1235.84365
G1 X100.437 Y107.900 E1236.10545
G1 X91.600 Y99.063 E1239.42846
G1 X91.600 Y98.079 E1239.69026
G1 X101.421 Y107.900 E1243.38352
G1 X102.406 Y107.900 E1243.64532
G1 X91.600 Y97.094 E1247.70881
G1 X91.600 Y96.110 E1247.97061
G1 X103.390 Y107.900 E1252.40435
G1 X104.375 Y107.900 E1252.66615
G1 X91.600 Y95.125 E1257.47013
G1 X91.600 Y94.141 E1257.73193
G1 X105.359 Y107.900 E1262.90615
G1 X106.344 Y107.900 E1263.16795
G1 X91.600 Y93.156 E1268.71241
G1 X91.600 Y92.172 E1268.97421
G1 X107.328 Y107.900 E1274.88891
G1 X108.313 Y107.900 E1275.15072
G1 X92.513 Y92.100 E1281.09232
G1 X93.498 Y92.100 E1281.35412
G1 X108.400 Y107.002 E1286.95819
G1 X108.400 Y106.018 E1287.21999
G1 X94.482 Y92.100 E1292.45383
G1 X95.467 Y92.100 E1292.71563
G1 X108.400 Y105.033 E1297.57922
G1 X108.400 Y104.049 E1297.84102
G1 X96.451 Y92.100 E1302.33437
G1 X97.436 Y92.100 E1302.59617
G1 X108.400 Y103.064 E1306.71927
G1 X108.400 Y102.080 E1306.98107
G1 X98.420 Y92.100 E1310.73394
G1 X99.405 Y92.100 E1310.99574
G1 X108.400 Y101.095 E1314.37836
G1 X108.400 Y100.111 E1314.64016
G1 X100.389 Y92.100 E1317.65254
G1 X101.374 Y92.100 E1317.91434
G1 X108.400 Y99.126 E1320.55648
G1 X108.400 Y98.142 E1320.81828
G1 X102.358 Y92.100 E1323.09018
G1 X103.343 Y92.100 E1323.35198
G1 X108.400 Y97.157 E1325.25363
G1 X108.400 Y96.172 E1325.51543
G1 X104.328 Y92.100 E1327.04684
G1 X105.312 Y92.100 E1327.30864
G1 X108.400 Y95.188 E1328.46981
G1 X108.400 Y94.203 E1328.73161
G1 X106.297 Y92.100 E1329.52254
G1 X107.281 Y92.100 E1329.78434
G1 X108.400 Y93.219 E1330.20502
G1 Z6.000 F7800.000
G1 E1328.20502 F2400.00000
G92 E0
G1 X107.281 Y107.900 F7800.000
G1 E2.00000 F2400.00000
G1 X108.400 Y106.781 E2.42068 F4800.000
G1 X108.400 Y105.797 E2.68249
G1 X106.297 Y107.900 E3.47341
G1 X105.312 Y107.900 E3.73521
G1 X108.400 Y104.812 E4.89638
G1 X108.400 Y103.828 E5.15818
G1 X104.328 Y107.900 E6.68959
G1 X103.343 Y107.900 E6.95139
G1 X108.400 Y102.843 E8.85305
G1 X108.400 Y101.858 E9.11485
G1 X102.358 Y107.900 E11.38674
G1 X101.374 Y107.900 E11.64854
G1 X108.400 Y100.874 E14.29068
G1 X108.400 Y99.889 E14.55248
G1 X100.389 Y107.900 E17.56486
G1 X99.405 Y107.900 E17.82666
G1 X108.400 Y98.905 E21.20928
G1 X108.400 Y97.920 E21.47108
G1 X98.420 Y107.900 E25.22395
G1 X97.436 Y107.900 E25.48575
G1 X108.400 Y96.936 E29.60885
G1 X108.400 Y95.951 E29.87066
G1 X96.451 Y107.900 E34.36400
G1 X95.467 Y107.900 E34.62580
G1 X108.400 Y94.967 E39.48939
G1 X108.400 Y93.982 E39.75119
G1 X94.482 Y107.900 E44.98503
G1 X93.498 Y107.900 E45.24683
G1 X108.400 Y92.998 E50.85090
G1 X108.313 Y92.100 E51.09069
G1 X92.513 Y107.900 E57.03229
G1 X91.600 Y107.828 E57.27581
G1 X107.328 Y92.100 E63.19052
G1 X106.344 Y92.100 E63.45232
G1 X91.600 Y106.844 E68.99678
G1 X91.600 Y105.859 E69.25858
G1 X105.359 Y92.100 E74.43280
G1 X104.375 Y92.100 E74.69460
G1 X91.600 Y104.875 E79.49858
G1 X91.600 Y103.890 E79.76038
G1 X103.390 Y92.100 E84.19412
G1 X102.406 Y92.100 E84.45592
G1 X91.600 Y102.906 E88.51941
G1 X91.600 Y101.921 E88.78121
G1 X101.421 Y92.100 E92.47447
G1 X100.437 Y92.100 E92.73627
G1 X91.600 Y100.937 E96.05928
G1 X91.600 Y99.952 E96.32108
G1 X99.452 Y92.100 E99.27384
G1 X98.468 Y92.100 E99.53564
G1 X91.600 Y98.968 E102.11817
G1 X91.600 Y97.983 E102.37997
G1 X97.483 Y92.100 E104.59225
G1 X96.498 Y92.100 E104.85405
G1 X91.600 Y96.998 E106.69609
G1 X91.600 Y96.014 E106.95789
G1 X95.514 Y92.100 E108.42969
G1 X94.529 Y92.100 E108.69149
G1 X91.600 Y95.029 E109.79305
G1 X91.600 Y94.045 E110.05485
G1 X93.545 Y92.100 E110.78617
G1 X92.560 Y92.100 E111.04797
G1 X91.600 Y93.060 E111.40904
G1 E109.40904 F2400.00000
G92 E0
M107
M104 S0 ; turn off temperature
G28 X0  ; home X axis
M84     ; disable motors

; filament used = 1437.6mm (1.1cm3)

; avoid_crossing_perimeters = 0
; bed_shape = 0x0,200x0,200x200,0x200
; bed_temperature = 0
; before_layer_gcode = 
; bridge_acceleration = 0
; bridge_fan_speed = 100
; brim_width = 0
; complete_objects = 0
; cooling = 1
; default_acceleration = 0
; disable_fan_first_layers = 3
; duplicate_distance = 6
; end_gcode = M104 S0 ; turn off temperature\nG28 X0  ; home X axis\nM84     ; disable motors\n
; extruder_clearance_height = 20
; extruder_clearance_radius = 20
; extruder_offset = 0x0
; extrusion_axis = E
; extrusion_multiplier = 1
; fan_always_on = 0
; fan_below_layer_time = 60
; filament_colour = #FFFFFF
; filament_diameter = 1
; first_layer_acceleration = 0
; first_layer_bed_temperature = 0
; first_layer_extrusion_width = 200%
; first_layer_speed = 30
; first_layer_temperature = 200
; gcode_arcs = 0
; gcode_comments = 0
; gcode_flavor = reprap
; infill_acceleration = 0
; infill_first = 0
; layer_gcode = 
; max_fan_speed = 100
; max_print_speed = 80
; max_volumetric_speed = 0
; min_fan_speed = 35
; min_print_speed = 10
; min_skirt_length = 0
; notes = 
; nozzle_diameter = 0.5
; only_retract_when_crossing_perimeters = 1
; ooze_prevention = 0
; output_filename_format = [input_filename_base].gcode
; perimeter_acceleration = 0
; post_process = 
; pressure_advance = 0
; resolution = 0
; retract_before_travel = 2
; retract_layer_change = 0
; retract_length = 2
; retract_length_toolchange = 10
; retract_lift = 0
; retract_restart_extra = 0
; retract_restart_extra_toolchange = 0
; retract_speed = 40
; skirt_distance = 6
; skirt_height = 1
; skirts = 0
; slowdown_below_layer_time = 5
; spiral_vase = 0
; standby_temperature_delta = -5
; start_gcode = G28 ; home all axes\nG1 Z5 F5000 ; lift nozzle\n
; temperature = 200
; threads = 2
; toolchange_gcode = 
; travel_speed = 130
; use_firmware_retraction = 0
; use_relative_e_distances = 0
; use_volumetric_e = 0
; vibration_limit = 0
; wipe = 0
; z_offset = 0
; dont_support_bridges = 1
; extrusion_width = 0
; first_layer_height = 0.5
; infill_only_where_needed = 0
; interface_shells = 0
; layer_height = 0.5
; raft_layers = 0
; seam_position = aligned
; support_material = 0
; support_material_angle = 0
; support_material_contact_distance = 0.2
; support_material_enforce_layers = 0
; support_material_extruder = 1
; support_material_extrusion_width = 0
; support_material_interface_extruder = 1
; support_material_interface_layers = 3
; support_material_interface_spacing = 0
; support_material_interface_speed = 100%
; support_material_pattern = pillars
; support_material_spacing = 2.5
; support_material_speed = 60
; support_material_threshold = 0
; xy_size_compensation = 0
; bottom_solid_layers = 0
; bridge_flow_ratio = 1
; bridge_speed = 60
; external_fill_pattern = rectilinear
; external_perimeter_extrusion_width = 0
; external_perimeter_speed = 50%
; external_perimeters_first = 0
; extra_perimeters = 1
; fill_angle = 45
; fill_density = 60%
; fill_pattern = rectilinear
; gap_fill_speed = 20
; infill_every_layers = 1
; infill_extruder = 1
; infill_extrusion_width = 0
; infill_overlap = 15%
; infill_speed = 80
; overhangs = 1
; perimeter_extruder = 1
; perimeter_extrusion_width = 0
; perimeter_speed = 60
; perimeters = 0
; small_perimeter_speed = 15
; solid_infill_below_area = 70
; solid_infill_every_layers = 0
; solid_infill_extruder = 1
; solid_infill_extrusion_width = 0
; solid_infill_speed = 20
; thin_walls = 1
; top_infill_extrusion_width = 0
; top_solid_infill_speed = 15
; top_solid_layers = 0
