; generated by Slic3r 1.2.9 on 2019-07-27 at 12:14:21

; external perimeters extrusion width = 0.50mm
; perimeters extrusion width = 0.58mm
; infill extrusion width = 0.58mm
; solid infill extrusion width = 0.58mm
; top infill extrusion width = 0.58mm

M107
M104 S200 ; set temperature
G28 ; home all axes
G1 Z5 F5000 ; lift nozzle

M109 S200 ; wait for temperature to be reached
G21 ; set units to millimeters
G90 ; use absolute coordinates
M82 ; use absolute distances for extrusion
G92 E0
G1 Z0.400 F7800.000
G1 E-2.00000 F2400.00000
G92 E0
G1 X91.621 Y107.496 F7800.000
G1 E2.00000 F2400.00000
G1 X92.504 Y108.379 E2.45394 F1800.000
G1 X94.239 Y108.379 E3.08518
G1 X91.621 Y105.761 E4.43182
G1 X91.621 Y104.025 E5.06306
G1 X95.975 Y108.379 E7.30240
G1 X97.710 Y108.379 E7.93363
G1 X91.621 Y102.290 E11.06567
G1 X91.621 Y100.554 E11.69691
G1 X99.446 Y108.379 E15.72165
G1 X101.181 Y108.379 E16.35288
G1 X91.621 Y98.819 E21.27032
G1 X91.621 Y97.083 E21.90156
G1 X102.917 Y108.379 E27.71169
G1 X104.652 Y108.379 E28.34293
G1 X91.621 Y95.348 E35.04577
G1 X91.621 Y93.612 E35.67700
G1 X106.388 Y108.379 E43.27254
G1 X108.123 Y108.379 E43.90377
G1 X91.621 Y91.877 E52.39201
G1 X93.101 Y91.621 E52.93831
G1 X108.379 Y106.899 E60.79657
G1 X108.379 Y105.163 E61.42781
G1 X94.837 Y91.621 E68.39337
G1 X96.572 Y91.621 E69.02460
G1 X108.379 Y103.428 E75.09747
G1 X108.379 Y101.692 E75.72870
G1 X98.308 Y91.621 E80.90886
G1 X100.043 Y91.621 E81.54010
G1 X108.379 Y99.957 E85.82756
G1 X108.379 Y98.221 E86.45880
G1 X101.779 Y91.621 E89.85356
G1 X103.514 Y91.621 E90.48480
G1 X108.379 Y96.486 E92.98686
G1 X108.379 Y94.750 E93.61810
G1 X105.250 Y91.621 E95.22747
G1 X106.985 Y91.621 E95.85870
G1 X108.379 Y93.015 E96.57537
G1 Z0.800 F7800.000
G1 X106.985 Y108.379 F7800.000
G1 X108.379 Y106.985 E97.06797 F3120.284
G1 X108.379 Y105.250 E97.50184
G1 X105.250 Y108.379 E98.60803
G1 X103.514 Y108.379 E99.04191
G1 X108.379 Y103.514 E100.76169
G1 X108.379 Y101.779 E101.19557
G1 X101.779 Y108.379 E103.52894
G1 X100.043 Y108.379 E103.96282
G1 X108.379 Y100.043 E106.90978
G1 X108.379 Y98.308 E107.34366
G1 X98.308 Y108.379 E110.90422
G1 X96.572 Y108.379 E111.33809
G1 X108.379 Y96.572 E115.51225
G1 X108.379 Y94.837 E115.94612
G1 X94.837 Y108.379 E120.73387
G1 X93.101 Y108.379 E121.16774
G1 X108.379 Y93.101 E126.56908
G1 X108.123 Y91.621 E126.94458
G1 X91.621 Y108.123 E132.77892
G1 X91.621 Y106.388 E133.21280
G1 X106.388 Y91.621 E138.43355
G1 X104.652 Y91.621 E138.86743
G1 X91.621 Y104.652 E143.47459
G1 X91.621 Y102.917 E143.90847
G1 X102.917 Y91.621 E147.90204
G1 X101.181 Y91.621 E148.33591
G1 X91.621 Y101.181 E151.71589
G1 X91.621 Y99.446 E152.14977
G1 X99.446 Y91.621 E154.91615
G1 X97.710 Y91.621 E155.35003
G1 X91.621 Y97.710 E157.50282
G1 X91.621 Y95.975 E157.93670
G1 X95.975 Y91.621 E159.47590
G1 X94.239 Y91.621 E159.90978
G1 X91.621 Y94.239 E160.83538
G1 X91.621 Y92.504 E161.26926
G1 X92.504 Y91.621 E161.58128
G1 Z1.200 F7800.000
G1 X91.621 Y107.496 F7800.000
G1 X92.504 Y108.379 E161.89329 F3120.284
G1 X94.239 Y108.379 E162.32717
G1 X91.621 Y105.761 E163.25278
G1 X91.621 Y104.025 E163.68665
G1 X95.975 Y108.379 E165.22585
G1 X97.710 Y108.379 E165.65973
G1 X91.621 Y102.290 E167.81252
G1 X91.621 Y100.554 E168.24640
G1 X99.446 Y108.379 E171.01278
G1 X101.181 Y108.379 E171.44666
G1 X91.621 Y98.819 E174.82664
G1 X91.621 Y97.083 E175.26051
G1 X102.917 Y108.379 E179.25408
G1 X104.652 Y108.379 E179.68796
G1 X91.621 Y95.348 E184.29512
G1 X91.621 Y93.612 E184.72899
G1 X106.388 Y108.379 E189.94975
G1 X108.123 Y108.379 E190.38363
G1 X91.621 Y91.877 E196.21797
G1 X93.101 Y91.621 E196.59347
G1 X108.379 Y106.899 E201.99481
G1 X108.379 Y105.163 E202.42868
G1 X94.837 Y91.621 E207.21643
G1 X96.572 Y91.621 E207.65030
G1 X108.379 Y103.428 E211.82445
G1 X108.379 Y101.692 E212.25833
G1 X98.308 Y91.621 E215.81889
G1 X100.043 Y91.621 E216.25277
G1 X108.379 Y99.957 E219.19973
G1 X108.379 Y98.221 E219.63361
G1 X101.779 Y91.621 E221.96698
G1 X103.514 Y91.621 E222.40086
G1 X108.379 Y96.486 E224.12064
G1 X108.379 Y94.750 E224.55452
G1 X105.250 Y91.621 E225.66071
G1 X106.985 Y91.621 E226.09458
G1 X108.379 Y93.015 E226.58718
M106 S255
G1 Z1.600 F7800.000
G1 X106.985 Y108.379 F7800.000
G1 X108.379 Y106.985 E227.07978 F3120.284
G1 X108.379 Y105.250 E227.51366
G1 X105.250 Y108.379 E228.61985
G1 X103.514 Y108.379 E229.05372
G1 X108.379 Y103.514 E230.77351
G1 X108.379 Y101.779 E231.20738
G1 X101.779 Y108.379 E233.54076
G1 X100.043 Y108.379 E233.97463
G1 X108.379 Y100.043 E236.92160
G1 X108.379 Y98.308 E237.35547
G1 X98.308 Y108.379 E240.91603
G1 X96.572 Y108.379 E241.34991
G1 X108.379 Y96.572 E245.52406
G1 X108.379 Y94.837 E245.95794
G1 X94.837 Y108.379 E250.74568
G1 X93.101 Y108.379 E251.17956
G1 X108.379 Y93.101 E256.58089
G1 X108.123 Y91.621 E256.95639
G1 X91.621 Y108.123 E262.79074
G1 X91.621 Y106.388 E263.22461
G1 X106.388 Y91.621 E268.44537
G1 X104.652 Y91.621 E268.87924
G1 X91.621 Y104.652 E273.48641
G1 X91.621 Y102.917 E273.92028
G1 X102.917 Y91.621 E277.91385
G1 X101.181 Y91.621 E278.34773
G1 X91.621 Y101.181 E281.72771
G1 X91.621 Y99.446 E282.16158
G1 X99.446 Y91.621 E284.92797
G1 X97.710 Y91.621 E285.36184
G1 X91.621 Y97.710 E287.51464
G1 X91.621 Y95.975 E287.94851
G1 X95.975 Y91.621 E289.48772
G1 X94.239 Y91.621 E289.92159
G1 X91.621 Y94.239 E290.84720
G1 X91.621 Y92.504 E291.28107
G1 X92.504 Y91.621 E291.59309
G1 Z2.000 F7800.000
G1 X91.621 Y107.496 F7800.000
G1 X92.504 Y108.379 E291.90511 F3120.284
G1 X94.239 Y108.379 E292.33898
G1 X91.621 Y105.761 E293.26459
G1 X91.621 Y104.025 E293.69847
G1 X95.975 Y108.379 E295.23767
G1 X97.710 Y108.379 E295.67154
G1 X91.621 Y102.290 E297.82434
G1 X91.621 Y100.554 E298.25821
G1 X99.446 Y108.379 E301.02460
G1 X101.181 Y108.379 E301.45847
G1 X91.621 Y98.819 E304.83845
G1 X91.621 Y97.083 E305.27233
G1 X102.917 Y108.379 E309.26590
G1 X104.652 Y108.379 E309.69977
G1 X91.621 Y95.348 E314.30693
G1 X91.621 Y93.612 E314.74081
G1 X106.388 Y108.379 E319.96156
G1 X108.123 Y108.379 E320.39544
G1 X91.621 Y91.877 E326.22979
G1 X93.101 Y91.621 E326.60528
G1 X108.379 Y106.899 E332.00662
G1 X108.379 Y105.163 E332.44050
G1 X94.837 Y91.621 E337.22824
G1 X96.572 Y91.621 E337.66212
G1 X108.379 Y103.428 E341.83627
G1 X108.379 Y101.692 E342.27014
G1 X98.308 Y91.621 E345.83070
G1 X100.043 Y91.621 E346.26458
G1 X108.379 Y99.957 E349.21155
G1 X108.379 Y98.221 E349.64542
G1 X101.779 Y91.621 E351.97880
G1 X103.514 Y91.621 E352.41267
G1 X108.379 Y96.486 E354.13246
G1 X108.379 Y94.750 E354.56633
G1 X105.250 Y91.621 E355.67252
G1 X106.985 Y91.621 E356.10640
G1 X108.379 Y93.015 E356.59900
G1 Z2.400 F7800.000
G1 X106.985 Y108.379 F7800.000
G1 X108.379 Y106.985 E357.09160 F3120.284
G1 X108.379 Y105.250 E357.52547
G1 X105.250 Y108.379 E358.63166
G1 X103.514 Y108.379 E359.06554
G1 X108.379 Y103.514 E360.78532
G1 X108.379 Y101.779 E361.21920
G1 X101.779 Y108.379 E363.55257
G1 X100.043 Y108.379 E363.98645
G1 X108.379 Y100.043 E366.93341
G1 X108.379 Y98.308 E367.36729
G1 X98.308 Y108.379 E370.92785
G1 X96.572 Y108.379 E371.36172
G1 X108.379 Y96.572 E375.53588
G1 X108.379 Y94.837 E375.96975
G1 X94.837 Y108.379 E380.75750
G1 X93.101 Y108.379 E381.19137
G1 X108.379 Y93.101 E386.59271
G1 X108.123 Y91.621 E386.96821
G1 X91.621 Y108.123 E392.80255
G1 X91.621 Y106.388 E393.23643
G1 X106.388 Y91.621 E398.45718
G1 X104.652 Y91.621 E398.89106
G1 X91.621 Y104.652 E403.49822
G1 X91.621 Y102.917 E403.93210
G1 X102.917 Y91.621 E407.92567
G1 X101.181 Y91.621 E408.35954
G1 X91.621 Y101.181 E411.73952
G1 X91.621 Y99.446 E412.17340
G1 X99.446 Y91.621 E414.93978
G1 X97.710 Y91.621 E415.37366
G1 X91.621 Y97.710 E417.52645
G1 X91.621 Y95.975 E417.96033
G1 X95.975 Y91.621 E419.49953
G1 X94.239 Y91.621 E419.93341
G1 X91.621 Y94.239 E420.85901
G1 X91.621 Y92.504 E421.29289
G1 X92.504 Y91.621 E421.60491
G1 Z2.800 F7800.000
G1 X91.621 Y107.496 F7800.000
G1 X92.504 Y108.379 E421.91692 F3120.284
G1 X94.239 Y108.379 E422.35080
G1 X91.621 Y105.761 E423.27641
G1 X91.621 Y104.025 E423.71028
G1 X95.975 Y108.379 E425.24948
G1 X97.710 Y108.379 E425.68336
G1 X91.621 Y102.290 E427.83615
G1 X91.621 Y100.554 E428.27003
G1 X99.446 Y108.379 E431.03641
G1 X101.181 Y108.379 E431.47029
G1 X91.621 Y98.819 E434.85027
G1 X91.621 Y97.083 E435.28414
G1 X102.917 Y108.379 E439.27771
G1 X104.652 Y108.379 E439.71159
G1 X91.621 Y95.348 E444.31875
G1 X91.621 Y93.612 E444.75262
G1 X106.388 Y108.379 E449.97338
G1 X108.123 Y108.379 E450.40725
G1 X91.621 Y91.877 E456.24160
G1 X93.101 Y91.621 E456.61710
G1 X108.379 Y106.899 E462.01844
G1 X108.379 Y105.163 E462.45231
G1 X94.837 Y91.621 E467.24006
G1 X96.572 Y91.621 E467.67393
G1 X108.379 Y103.428 E471.84808
G1 X108.379 Y101.692 E472.28196
G1 X98.308 Y91.621 E475.84252
G1 X100.043 Y91.621 E476.27639
G1 X108.379 Y99.957 E479.22336
G1 X108.379 Y98.221 E479.65724
G1 X101.779 Y91.621 E481.99061
G1 X103.514 Y91.621 E482.42449
G1 X108.379 Y96.486 E484.14427
G1 X108.379 Y94.750 E484.57815
G1 X105.250 Y91.621 E485.68434
G1 X106.985 Y91.621 E486.11821
G1 X108.379 Y93.015 E486.61081
G1 Z3.200 F7800.000
G1 X106.985 Y108.379 F7800.000
G1 X108.379 Y106.985 E487.10341 F3120.284
G1 X108.379 Y105.250 E487.53729
G1 X105.250 Y108.379 E488.64348
G1 X103.514 Y108.379 E489.07735
G1 X108.379 Y103.514 E490.79714
G1 X108.379 Y101.779 E491.23101
G1 X101.779 Y108.379 E493.56439
G1 X100.043 Y108.379 E493.99826
G1 X108.379 Y100.043 E496.94523
G1 X108.379 Y98.308 E497.37910
G1 X98.308 Y108.379 E500.93966
G1 X96.572 Y108.379 E501.37354
G1 X108.379 Y96.572 E505.54769
G1 X108.379 Y94.837 E505.98157
G1 X94.837 Y108.379 E510.76931
G1 X93.101 Y108.379 E511.20319
G1 X108.379 Y93.101 E516.60452
G1 X108.123 Y91.621 E516.98002
G1 X91.621 Y108.123 E522.81437
G1 X91.621 Y106.388 E523.24824
G1 X106.388 Y91.621 E528.46900
G1 X104.652 Y91.621 E528.90287
G1 X91.621 Y104.652 E533.51004
G1 X91.621 Y102.917 E533.94391
G1 X102.917 Y91.621 E537.93748
G1 X101.181 Y91.621 E538.37136
G1 X91.621 Y101.181 E541.75134
G1 X91.621 Y99.446 E542.18521
G1 X99.446 Y91.621 E544.95160
G1 X97.710 Y91.621 E545.38547
G1 X91.621 Y97.710 E547.53827
G1 X91.621 Y95.975 E547.97214
G1 X95.975 Y91.621 E549.51134
G1 X94.239 Y91.621 E549.94522
G1 X91.621 Y94.239 E550.87083
G1 X91.621 Y92.504 E551.30470
G1 X92.504 Y91.621 E551.61672
G1 Z3.600 F7800.000
G1 X91.621 Y107.496 F7800.000
G1 X92.504 Y108.379 E551.92874 F3120.284
G1 X94.239 Y108.379 E552.36261
G1 X91.621 Y105.761 E553.28822
G1 X91.621 Y104.025 E553.72210
G1 X95.975 Y108.379 E555.26130
G1 X97.710 Y108.379 E555.69517
G1 X91.621 Y102.290 E557.84797
G1 X91.621 Y100.554 E558.28184
G1 X99.446 Y108.379 E561.04823
G1 X101.181 Y108.379 E561.48210
G1 X91.621 Y98.819 E564.86208
G1 X91.621 Y97.083 E565.29596
G1 X102.917 Y108.379 E569.28953
G1 X104.652 Y108.379 E569.72340
G1 X91.621 Y95.348 E574.33056
G1 X91.621 Y93.612 E574.76444
G1 X106.388 Y108.379 E579.98519
G1 X108.123 Y108.379 E580.41907
G1 X91.621 Y91.877 E586.25342
G1 X93.101 Y91.621 E586.62891
G1 X108.379 Y106.899 E592.03025
G1 X108.379 Y105.163 E592.46413
G1 X94.837 Y91.621 E597.25187
G1 X96.572 Y91.621 E597.68575
G1 X108.379 Y103.428 E601.85990
G1 X108.379 Y101.692 E602.29377
G1 X98.308 Y91.621 E605.85433
G1 X100.043 Y91.621 E606.28821
G1 X108.379 Y99.957 E609.23518
G1 X108.379 Y98.221 E609.66905
G1 X101.779 Y91.621 E612.00243
G1 X103.514 Y91.621 E612.43630
G1 X108.379 Y96.486 E614.15609
G1 X108.379 Y94.750 E614.58996
G1 X105.250 Y91.621 E615.69615
G1 X106.985 Y91.621 E616.13003
G1 X108.379 Y93.015 E616.62263
G1 Z4.000 F7800.000
G1 X106.985 Y108.379 F7800.000
G1 X108.379 Y106.985 E617.11523 F3120.284
G1 X108.379 Y105.250 E617.54910
G1 X105.250 Y108.379 E618.65529
G1 X103.514 Y108.379 E619.08917
G1 X108.379 Y103.514 E620.80895
G1 X108.379 Y101.779 E621.24283
G1 X101.779 Y108.379 E623.57620
G1 X100.043 Y108.379 E624.01008
G1 X108.379 Y100.043 E626.95704
G1 X108.379 Y98.308 E627.39092
G1 X98.308 Y108.379 E630.95148
G1 X96.572 Y108.379 E631.38535
G1 X108.379 Y96.572 E635.55951
G1 X108.379 Y94.837 E635.99338
G1 X94.837 Y108.379 E640.78113
G1 X93.101 Y108.379 E641.21500
G1 X108.379 Y93.101 E646.61634
G1 X108.123 Y91.621 E646.99183
G1 X91.621 Y108.123 E652.82618
G1 X91.621 Y106.388 E653.26006
G1 X106.388 Y91.621 E658.48081
G1 X104.652 Y91.621 E658.91469
G1 X91.621 Y104.652 E663.52185
G1 X91.621 Y102.917 E663.95573
G1 X102.917 Y91.621 E667.94930
G1 X101.181 Y91.621 E668.38317
G1 X91.621 Y101.181 E671.76315
G1 X91.621 Y99.446 E672.19703
G1 X99.446 Y91.621 E674.96341
G1 X97.710 Y91.621 E675.39729
G1 X91.621 Y97.710 E677.55008
G1 X91.621 Y95.975 E677.98396
G1 X95.975 Y91.621 E679.52316
G1 X94.239 Y91.621 E679.95703
G1 X91.621 Y94.239 E680.88264
G1 X91.621 Y92.504 E681.31652
G1 X92.504 Y91.621 E681.62854
G1 Z4.400 F7800.000
G1 X91.621 Y107.496 F7800.000
G1 X92.504 Y108.379 E681.94055 F3120.284
G1 X94.239 Y108.379 E682.37443
G1 X91.621 Y105.761 E683.30004
G1 X91.621 Y104.025 E683.73391
G1 X95.975 Y108.379 E685.27311
G1 X97.710 Y108.379 E685.70699
G1 X91.621 Y102.290 E687.85978
G1 X91.621 Y100.554 E688.29366
G1 X99.446 Y108.379 E691.06004
G1 X101.181 Y108.379 E691.49392
G1 X91.621 Y98.819 E694.87390
G1 X91.621 Y97.083 E695.30777
G1 X102.917 Y108.379 E699.30134
G1 X104.652 Y108.379 E699.73522
G1 X91.621 Y95.348 E704.34238
G1 X91.621 Y93.612 E704.77625
G1 X106.388 Y108.379 E709.99701
G1 X108.123 Y108.379 E710.43088
G1 X91.621 Y91.877 E716.26523
G1 X93.101 Y91.621 E716.64073
G1 X108.379 Y106.899 E722.04207
G1 X108.379 Y105.163 E722.47594
G1 X94.837 Y91.621 E727.26369
G1 X96.572 Y91.621 E727.69756
G1 X108.379 Y103.428 E731.87171
G1 X108.379 Y101.692 E732.30559
G1 X98.308 Y91.621 E735.86615
G1 X100.043 Y91.621 E736.30002
G1 X108.379 Y99.957 E739.24699
G1 X108.379 Y98.221 E739.68087
G1 X101.779 Y91.621 E742.01424
G1 X103.514 Y91.621 E742.44812
G1 X108.379 Y96.486 E744.16790
G1 X108.379 Y94.750 E744.60178
G1 X105.250 Y91.621 E745.70797
G1 X106.985 Y91.621 E746.14184
G1 X108.379 Y93.015 E746.63444
G1 Z4.800 F7800.000
G1 X106.985 Y108.379 F7800.000
G1 X108.379 Y106.985 E747.12704 F3120.284
G1 X108.379 Y105.250 E747.56092
G1 X105.250 Y108.379 E748.66711
G1 X103.514 Y108.379 E749.10098
G1 X108.379 Y103.514 E750.82077
G1 X108.379 Y101.779 E751.25464
G1 X101.779 Y108.379 E753.58802
G1 X100.043 Y108.379 E754.02189
G1 X108.379 Y100.043 E756.96886
G1 X108.379 Y98.308 E757.40273
G1 X98.308 Y108.379 E760.96329
G1 X96.572 Y108.379 E761.39717
G1 X108.379 Y96.572 E765.57132
G1 X108.379 Y94.837 E766.00520
G1 X94.837 Y108.379 E770.79294
G1 X93.101 Y108.379 E771.22682
G1 X108.379 Y93.101 E776.62815
G1 X108.123 Y91.621 E777.00365
G1 X91.621 Y108.123 E782.83800
G1 X91.621 Y106.388 E783.27187
G1 X106.388 Y91.621 E788.49263
G1 X104.652 Y91.621 E788.92650
G1 X91.621 Y104.652 E793.53367
G1 X91.621 Y102.917 E793.96754
G1 X102.917 Y91.621 E797.96111
G1 X101.181 Y91.621 E798.39499
G1 X91.621 Y101.181 E801.77497
G1 X91.621 Y99.446 E802.20884
G1 X99.446 Y91.621 E804.97523
G1 X97.710 Y91.621 E805.40910
G1 X91.621 Y97.710 E807.56190
G1 X91.621 Y95.975 E807.99577
G1 X95.975 Y91.621 E809.53497
G1 X94.239 Y91.621 E809.96885
G1 X91.621 Y94.239 E810.89446
G1 X91.621 Y92.504 E811.32833
G1 X92.504 Y91.621 E811.64035
G1 Z5.200 F7800.000
G1 X91.621 Y107.496 F7800.000
G1 X92.504 Y108.379 E811.95237 F3120.284
G1 X94.239 Y108.379 E812.38624
G1 X91.621 Y105.761 E813.31185
G1 X91.621 Y104.025 E813.74573
G1 X95.975 Y108.379 E815.28493
G1 X97.710 Y108.379 E815.71880
G1 X91.621 Y102.290 E817.87160
G1 X91.621 Y100.554 E818.30547
G1 X99.446 Y108.379 E821.07186
G1 X101.181 Y108.379 E821.50573
G1 X91.621 Y98.819 E824.88571
G1 X91.621 Y97.083 E825.31959
G1 X102.917 Y108.379 E829.31316
G1 X104.652 Y108.379 E829.74703
G1 X91.621 Y95.348 E834.35419
G1 X91.621 Y93.612 E834.78807
G1 X106.388 Y108.379 E840.00882
G1 X108.123 Y108.379 E840.44270
G1 X91.621 Y91.877 E846.27705
G1 X93.101 Y91.621 E846.65254
G1 X108.379 Y106.899 E852.05388
G1 X108.379 Y105.163 E852.48776
G1 X94.837 Y91.621 E857.27550
G1 X96.572 Y91.621 E857.70938
G1 X108.379 Y103.428 E861.88353
G1 X108.379 Y101.692 E862.31740
G1 X98.308 Y91.621 E865.87796
G1 X100.043 Y91.621 E866.31184
G1 X108.379 Y99.957 E869.25881
G1 X108.379 Y98.221 E869.69268
G1 X101.779 Y91.621 E872.02606
G1 X103.514 Y91.621 E872.45993
G1 X108.379 Y96.486 E874.17972
G1 X108.379 Y94.750 E874.61359
G1 X105.250 Y91.621 E875.71978
G1 X106.985 Y91.621 E876.15366
G1 X108.379 Y93.015 E876.64626
G1 Z5.600 F7800.000
G1 X106.985 Y108.379 F7800.000
G1 X108.379 Y106.985 E877.13886 F3120.284
G1 X108.379 Y105.250 E877.57273
G1 X105.250 Y108.379 E878.67892
G1 X103.514 Y108.379 E879.11280
G1 X108.379 Y103.514 E880.83258
G1 X108.379 Y101.779 E881.26646
G1 X101.779 Y108.379 E883.59983
G1 X100.043 Y108.379 E884.03371
G1 X108.379 Y100.043 E886.98067
G1 X108.379 Y98.308 E887.41455
G1 X98.308 Y108.379 E890.97511
G1 X96.572 Y108.379 E891.40898
G1 X108.379 Y96.572 E895.58314
G1 X108.379 Y94.837 E896.01701
G1 X94.837 Y108.379 E900.80476
G1 X93.101 Y108.379 E901.23863
G1 X108.379 Y93.101 E906.63997
G1 X108.123 Y91.621 E907.01546
G1 X91.621 Y108.123 E912.84981
G1 X91.621 Y106.388 E913.28369
G1 X106.388 Y91.621 E918.50444
G1 X104.652 Y91.621 E918.93832
G1 X91.621 Y104.652 E923.54548
G1 X91.621 Y102.917 E923.97936
G1 X102.917 Y91.621 E927.97293
G1 X101.181 Y91.621 E928.40680
G1 X91.621 Y101.181 E931.78678
G1 X91.621 Y99.446 E932.22066
G1 X99.446 Y91.621 E934.98704
G1 X97.710 Y91.621 E935.42092
G1 X91.621 Y97.710 E937.57371
G1 X91.621 Y95.975 E938.00759
G1 X95.975 Y91.621 E939.54679
G1 X94.239 Y91.621 E939.98066
G1 X91.621 Y94.239 E940.90627
G1 X91.621 Y92.504 E941.34015
G1 X92.504 Y91.621 E941.65217
G1 Z6.000 F7800.000
G1 X91.621 Y107.496 F7800.000
G1 X92.504 Y108.379 E941.96418 F3120.284
G1 X94.239 Y108.379 E942.39806
G1 X91.621 Y105.761 E943.32367
G1 X91.621 Y104.025 E943.75754
G1 X95.975 Y108.379 E945.29674
G1 X97.710 Y108.379 E945.73062
G1 X91.621 Y102.290 E947.88341
G1 X91.621 Y100.554 E948.31729
G1 X99.446 Y108.379 E951.08367
G1 X101.181 Y108.379 E951.51755
G1 X91.621 Y98.819 E954.89752
G1 X91.621 Y97.083 E955.33140
G1 X102.917 Y108.379 E959.32497
G1 X104.652 Y108.379 E959.75885
G1 X91.621 Y95.348 E964.36601
G1 X91.621 Y93.612 E964.79988
G1 X106.388 Y108.379 E970.02064
G1 X108.123 Y108.379 E970.45451
G1 X91.621 Y91.877 E976.28886
G1 X93.101 Y91.621 E976.66436
G1 X108.379 Y106.899 E982.06570
G1 X108.379 Y105.163 E982.49957
G1 X94.837 Y91.621 E987.28732
G1 X96.572 Y91.621 E987.72119
G1 X108.379 Y103.428 E991.89534
G1 X108.379 Y101.692 E992.32922
G1 X98.308 Y91.621 E995.88978
G1 X100.043 Y91.621 E996.32365
G1 X108.379 Y99.957 E999.27062
G1 X108.379 Y98.221 E999.70450
G1 X101.779 Y91.621 E1002.03787
G1 X103.514 Y91.621 E1002.47175
G1 X108.379 Y96.486 E1004.19153
G1 X108.379 Y94.750 E1004.62541
G1 X105.250 Y91.621 E1005.73160
G1 X106.985 Y91.621 E1006.16547
G1 X108.379 Y93.015 E1006.65807
G1 Z6.400 F7800.000
G1 X106.985 Y108.379 F7800.000
G1 X108.379 Y106.985 E1007.15067 F3120.284
G1 X108.379 Y105.250 E1007.58455
G1 X105.250 Y108.379 E1008.69074
G1 X103.514 Y108.379 E1009.12461
G1 X108.379 Y103.514 E1010.84440
G1 X108.379 Y101.779 E1011.27827
G1 X101.779 Y108.379 E1013.61165
G1 X100.043 Y108.379 E1014.04552
G1 X108.379 Y100.043 E1016.99249
G1 X108.379 Y98.308 E1017.42636
G1 X98.308 Y108.379 E1020.98692
G1 X96.572 Y108.379 E1021.42080
G1 X108.379 Y96.572 E1025.59495
G1 X108.379 Y94.837 E1026.02883
G1 X94.837 Y108.379 E1030.81657
G1 X93.101 Y108.379 E1031.25045
G1 X108.379 Y93.101 E1036.65178
G1 X108.123 Y91.621 E1037.02728
G1 X91.621 Y108.123 E1042.86163
G1 X91.621 Y106.388 E1043.29550
G1 X106.388 Y91.621 E1048.51626
G1 X104.652 Y91.621 E1048.95013
G1 X91.621 Y104.652 E1053.55730
G1 X91.621 Y102.917 E1053.99117
G1 X102.917 Y91.621 E1057.98474
G1 X101.181 Y91.621 E1058.41862
G1 X91.621 Y101.181 E1061.79860
G1 X91.621 Y99.446 E1062.23247
G1 X99.446 Y91.621 E1064.99886
G1 X97.710 Y91.621 E1065.43273
G1 X91.621 Y97.710 E1067.58553
G1 X91.621 Y95.975 E1068.01940
G1 X95.975 Y91.621 E1069.55860
G1 X94.239 Y91.621 E1069.99248
G1 X91.621 Y94.239 E1070.91809
G1 X91.621 Y92.504 E1071.35196
G1 X92.504 Y91.621 E1071.66398
G1 Z6.800 F7800.000
G1 X91.621 Y107.496 F7800.000
G1 X92.504 Y108.379 E1071.97600 F3120.284
G1 X94.239 Y108.379 E1072.40987
G1 X91.621 Y105.761 E1073.33548
G1 X91.621 Y104.025 E1073.76936
G1 X95.975 Y108.379 E1075.30856
G1 X97.710 Y108.379 E1075.74243
G1 X91.621 Y102.290 E1077.89523
G1 X91.621 Y100.554 E1078.32910
G1 X99.446 Y108.379 E1081.09549
G1 X101.181 Y108.379 E1081.52936
G1 X91.621 Y98.819 E1084.90934
G1 X91.621 Y97.083 E1085.34322
G1 X102.917 Y108.379 E1089.33679
G1 X104.652 Y108.379 E1089.77066
G1 X91.621 Y95.348 E1094.37782
G1 X91.621 Y93.612 E1094.81170
G1 X106.388 Y108.379 E1100.03245
G1 X108.123 Y108.379 E1100.46633
G1 X91.621 Y91.877 E1106.30068
G1 X93.101 Y91.621 E1106.67617
G1 X108.379 Y106.899 E1112.07751
G1 X108.379 Y105.163 E1112.51139
G1 X94.837 Y91.621 E1117.29913
G1 X96.572 Y91.621 E1117.73301
G1 X108.379 Y103.428 E1121.90716
G1 X108.379 Y101.692 E1122.34103
G1 X98.308 Y91.621 E1125.90159
G1 X100.043 Y91.621 E1126.33547
G1 X108.379 Y99.957 E1129.28244
G1 X108.379 Y98.221 E1129.71631
G1 X101.779 Y91.621 E1132.04969
G1 X103.514 Y91.621 E1132.48356
G1 X108.379 Y96.486 E1134.20335
G1 X108.379 Y94.750 E1134.63722
G1 X105.250 Y91.621 E1135.74341
G1 X106.985 Y91.621 E1136.17729
G1 X108.379 Y93.015 E1136.66989
G1 Z7.200 F7800.000
G1 X106.985 Y108.379 F7800.000
G1 X108.379 Y106.985 E1137.16249 F3120.284
G1 X108.379 Y105.250 E1137.59636
G1 X105.250 Y108.379 E1138.70255
G1 X103.514 Y108.379 E1139.13643
G1 X108.379 Y103.514 E1140.85621
G1 X108.379 Y101.779 E1141.29009
G1 X101.779 Y108.379 E1143.62346
G1 X100.043 Y108.379 E1144.05734
G1 X108.379 Y100.043 E1147.00430
G1 X108.379 Y98.308 E1147.43818
G1 X98.308 Y108.379 E1150.99874
G1 X96.572 Y108.379 E1151.43261
G1 X108.379 Y96.572 E1155.60677
G1 X108.379 Y94.837 E1156.04064
G1 X94.837 Y108.379 E1160.82839
G1 X93.101 Y108.379 E1161.26226
G1 X108.379 Y93.101 E1166.66360
G1 X108.123 Y91.621 E1167.03909
G1 X91.621 Y108.123 E1172.87344
G1 X91.621 Y106.388 E1173.30732
G1 X106.388 Y91.621 E1178.52807
G1 X104.652 Y91.621 E1178.96195
G1 X91.621 Y104.652 E1183.56911
G1 X91.621 Y102.917 E1184.00299
G1 X102.917 Y91.621 E1187.99656
G1 X101.181 Y91.621 E1188.43043
G1 X91.621 Y101.181 E1191.81041
G1 X91.621 Y99.446 E1192.24429
G1 X99.446 Y91.621 E1195.01067
G1 X97.710 Y91.621 E1195.44455
G1 X91.621 Y97.710 E1197.59734
G1 X91.621 Y95.975 E1198.03122
G1 X95.975 Y91.621 E1199.57042
G1 X94.239 Y91.621 E1200.00429
G1 X91.621 Y94.239 E1200.92990
G1 X91.621 Y92.504 E1201.36378
G1 X92.504 Y91.621 E1201.67580
G1 Z7.600 F7800.000
G1 X91.621 Y107.496 F7800.000
G1 X92.504 Y108.379 E1201.98781 F3120.284
G1 X94.239 Y108.379 E1202.42169
G1 X91.621 Y105.761 E1203.34730
G1 X91.621 Y104.025 E1203.78117
G1 X95.975 Y108.379 E1205.32037
G1 X97.710 Y108.379 E1205.75425
G1 X91.621 Y102.290 E1207.90704
G1 X91.621 Y100.554 E1208.34092
G1 X99.446 Y108.379 E1211.10730
G1 X101.181 Y108.379 E1211.54118
G1 X91.621 Y98.819 E1214.92115
G1 X91.621 Y97.083 E1215.35503
G1 X102.917 Y108.379 E1219.34860
G1 X104.652 Y108.379 E1219.78248
G1 X91.621 Y95.348 E1224.38964
G1 X91.621 Y93.612 E1224.82351
G1 X106.388 Y108.379 E1230.04427
G1 X108.123 Y108.379 E1230.47814
G1 X91.621 Y91.877 E1236.31249
G1 X93.101 Y91.621 E1236.68799
G1 X108.379 Y106.899 E1242.08933
G1 X108.379 Y105.163 E1242.52320
G1 X94.837 Y91.621 E1247.31095
G1 X96.572 Y91.621 E1247.74482
G1 X108.379 Y103.428 E1251.91897
G1 X108.379 Y101.692 E1252.35285
G1 X98.308 Y91.621 E1255.91341
G1 X100.043 Y91.621 E1256.34728
G1 X108.379 Y99.957 E1259.29425
G1 X108.379 Y98.221 E1259.72813
G1 X101.779 Y91.621 E1262.06150
G1 X103.514 Y91.621 E1262.49538
G1 X108.379 Y96.486 E1264.21516
G1 X108.379 Y94.750 E1264.64904
G1 X105.250 Y91.621 E1265.75523
G1 X106.985 Y91.621 E1266.18910
G1 X108.379 Y93.015 E1266.68170
G1 Z8.000 F7800.000
G1 X106.985 Y108.379 F7800.000
G1 X108.379 Y106.985 E1267.17430 F3120.284
G1 X108.379 Y105.250 E1267.60818
G1 X105.250 Y108.379 E1268.71437
G1 X103.514 Y108.379 E1269.14824
G1 X108.379 Y103.514 E1270.86803
G1 X108.379 Y101.779 E1271.30190
G1 X101.779 Y108.379 E1273.63528
G1 X100.043 Y108.379 E1274.06915
G1 X108.379 Y100.043 E1277.01612
G1 X108.379 Y98.308 E1277.44999
G1 X98.308 Y108.379 E1281.01055
G1 X96.572 Y108.379 E1281.44443
G1 X108.379 Y96.572 E1285.61858
G1 X108.379 Y94.837 E1286.05246
G1 X94.837 Y108.379 E1290.84020
G1 X93.101 Y108.379 E1291.27407
G1 X108.379 Y93.101 E1296.67541
G1 X108.123 Y91.621 E1297.05091
G1 X91.621 Y108.123 E1302.88526
G1 X91.621 Y106.388 E1303.31913
G1 X106.388 Y91.621 E1308.53989
G1 X104.652 Y91.621 E1308.97376
G1 X91.621 Y104.652 E1313.58093
G1 X91.621 Y102.917 E1314.01480
G1 X102.917 Y91.621 E1318.00837
G1 X101.181 Y91.621 E1318.44225
G1 X91.621 Y101.181 E1321.82223
G1 X91.621 Y99.446 E1322.25610
G1 X99.446 Y91.621 E1325.02249
G1 X97.710 Y91.621 E1325.45636
G1 X91.621 Y97.710 E1327.60916
G1 X91.621 Y95.975 E1328.04303
G1 X95.975 Y91.621 E1329.58223
G1 X94.239 Y91.621 E1330.01611
G1 X91.621 Y94.239 E1330.94172
G1 X91.621 Y92.504 E1331.37559
G1 X92.504 Y91.621 E1331.68761
G1 Z8.400 F7800.000
G1 X91.621 Y107.496 F7800.000
G1 X92.504 Y108.379 E1331.99963 F3120.284
G1 X94.239 Y108.379 E1332.43350
G1 X91.621 Y105.761 E1333.35911
G1 X91.621 Y104.025 E1333.79299
G1 X95.975 Y108.379 E1335.33219
G1 X97.710 Y108.379 E1335.76606
G1 X91.621 Y102.290 E1337.91886
G1 X91.621 Y100.554 E1338.35273
G1 X99.446 Y108.379 E1341.11912
G1 X101.181 Y108.379 E1341.55299
G1 X91.621 Y98.819 E1344.93297
G1 X91.621 Y97.083 E1345.36684
G1 X102.917 Y108.379 E1349.36042
G1 X104.652 Y108.379 E1349.79429
G1 X91.621 Y95.348 E1354.40145
G1 X91.621 Y93.612 E1354.83533
G1 X106.388 Y108.379 E1360.05608
G1 X108.123 Y108.379 E1360.48996
G1 X91.621 Y91.877 E1366.32431
G1 X93.101 Y91.621 E1366.69980
G1 X108.379 Y106.899 E1372.10114
G1 X108.379 Y105.163 E1372.53502
G1 X94.837 Y91.621 E1377.32276
G1 X96.572 Y91.621 E1377.75664
G1 X108.379 Y103.428 E1381.93079
G1 X108.379 Y101.692 E1382.36466
G1 X98.308 Y91.621 E1385.92522
G1 X100.043 Y91.621 E1386.35910
G1 X108.379 Y99.957 E1389.30607
G1 X108.379 Y98.221 E1389.73994
G1 X101.779 Y91.621 E1392.07332
G1 X103.514 Y91.621 E1392.50719
G1 X108.379 Y96.486 E1394.22698
G1 X108.379 Y94.750 E1394.66085
G1 X105.250 Y91.621 E1395.76704
G1 X106.985 Y91.621 E1396.20092
G1 X108.379 Y93.015 E1396.69352
G1 Z8.800 F7800.000
G1 X106.985 Y108.379 F7800.000
G1 X108.379 Y106.985 E1397.18612 F3120.284
G1 X108.379 Y105.250 E1397.61999
G1 X105.250 Y108.379 E1398.72618
G1 X103.514 Y108.379 E1399.16006
G1 X108.379 Y103.514 E1400.87984
G1 X108.379 Y101.779 E1401.31372
G1 X101.779 Y108.379 E1403.64709
G1 X100.043 Y108.379 E1404.08097
G1 X108.379 Y100.043 E1407.02793
G1 X108.379 Y98.308 E1407.46181
G1 X98.308 Y108.379 E1411.02237
G1 X96.572 Y108.379 E1411.45624
G1 X108.379 Y96.572 E1415.63040
G1 X108.379 Y94.837 E1416.06427
G1 X94.837 Y108.379 E1420.85201
G1 X93.101 Y108.379 E1421.28589
G1 X108.379 Y93.101 E1426.68723
G1 X108.123 Y91.621 E1427.06272
G1 X91.621 Y108.123 E1432.89707
G1 X91.621 Y106.388 E1433.33095
G1 X106.388 Y91.621 E1438.55170
G1 X104.652 Y91.621 E1438.98558
G1 X91.621 Y104.652 E1443.59274
G1 X91.621 Y102.917 E1444.02662
G1 X102.917 Y91.621 E1448.02019
G1 X101.181 Y91.621 E1448.45406
G1 X91.621 Y101.181 E1451.83404
G1 X91.621 Y99.446 E1452.26792
G1 X99.446 Y91.621 E1455.03430
G1 X97.710 Y91.621 E1455.46818
G1 X91.621 Y97.710 E1457.62097
G1 X91.621 Y95.975 E1458.05485
G1 X95.975 Y91.621 E1459.59405
G1 X94.239 Y91.621 E1460.02792
G1 X91.621 Y94.239 E1460.95353
G1 X91.621 Y92.504 E1461.38741
G1 X92.504 Y91.621 E1461.69943
G1 Z9.200 F7800.000
G1 X91.621 Y107.496 F7800.000
G1 X92.504 Y108.379 E1462.01144 F3120.284
G1 X94.239 Y108.379 E1462.44532
G1 X91.621 Y105.761 E1463.37093
G1 X91.621 Y104.025 E1463.80480
G1 X95.975 Y108.379 E1465.34400
G1 X97.710 Y108.379 E1465.77788
G1 X91.621 Y102.290 E1467.93067
G1 X91.621 Y100.554 E1468.36455
G1 X99.446 Y108.379 E1471.13093
G1 X101.181 Y108.379 E1471.56481
G1 X91.621 Y98.819 E1474.94478
G1 X91.621 Y97.083 E1475.37866
G1 X102.917 Y108.379 E1479.37223
G1 X104.652 Y108.379 E1479.80611
G1 X91.621 Y95.348 E1484.41327
G1 X91.621 Y93.612 E1484.84714
G1 X106.388 Y108.379 E1490.06790
G1 X108.123 Y108.379 E1490.50177
G1 X91.621 Y91.877 E1496.33612
G1 X93.101 Y91.621 E1496.71162
G1 X108.379 Y106.899 E1502.11296
G1 X108.379 Y105.163 E1502.54683
G1 X94.837 Y91.621 E1507.33458
G1 X96.572 Y91.621 E1507.76845
G1 X108.379 Y103.428 E1511.94260
G1 X108.379 Y101.692 E1512.37648
G1 X98.308 Y91.621 E1515.93704
G1 X100.043 Y91.621 E1516.37091
G1 X108.379 Y99.957 E1519.31788
G1 X108.379 Y98.221 E1519.75176
G1 X101.779 Y91.621 E1522.08513
G1 X103.514 Y91.621 E1522.51901
G1 X108.379 Y96.486 E1524.23879
G1 X108.379 Y94.750 E1524.67267
G1 X105.250 Y91.621 E1525.77886
G1 X106.985 Y91.621 E1526.21273
G1 X108.379 Y93.015 E1526.70533
G1 Z9.600 F7800.000
G1 X106.985 Y108.379 F7800.000
G1 X108.379 Y106.985 E1527.19793 F3120.284
G1 X108.379 Y105.250 E1527.63181
G1 X105.250 Y108.379 E1528.73800
G1 X103.514 Y108.379 E1529.17187
G1 X108.379 Y103.514 E1530.89165
G1 X108.379 Y101.779 E1531.32553
G1 X101.779 Y108.379 E1533.65890
G1 X100.043 Y108.379 E1534.09278
G1 X108.379 Y100.043 E1537.03975
G1 X108.379 Y98.308 E1537.47362
G1 X98.308 Y108.379 E1541.03418
G1 X96.572 Y108.379 E1541.46806
G1 X108.379 Y96.572 E1545.64221
G1 X108.379 Y94.837 E1546.07609
G1 X94.837 Y108.379 E1550.86383
G1 X93.101 Y108.379 E1551.29770
G1 X108.379 Y93.101 E1556.69904
G1 X108.123 Y91.621 E1557.07454
G1 X91.621 Y108.123 E1562.90889
G1 X91.621 Y106.388 E1563.34276
G1 X106.388 Y91.621 E1568.56352
G1 X104.652 Y91.621 E1568.99739
G1 X91.621 Y104.652 E1573.60456
G1 X91.621 Y102.917 E1574.03843
G1 X102.917 Y91.621 E1578.03200
G1 X101.181 Y91.621 E1578.46588
G1 X91.621 Y101.181 E1581.84586
G1 X91.621 Y99.446 E1582.27973
G1 X99.446 Y91.621 E1585.04612
G1 X97.710 Y91.621 E1585.47999
G1 X91.621 Y97.710 E1587.63279
G1 X91.621 Y95.975 E1588.06666
G1 X95.975 Y91.621 E1589.60586
G1 X94.239 Y91.621 E1590.03974
G1 X91.621 Y94.239 E1590.96535
G1 X91.621 Y92.504 E1591.39922
G1 X92.504 Y91.621 E1591.71124
G1 Z10.000 F7800.000
G1 E1589.71124 F2400.00000
G92 E0
G1 X91.621 Y107.496 F7800.000
G1 E2.00000 F2400.00000
G1 X92.504 Y108.379 E2.31202 F3120.284
G1 X94.239 Y108.379 E2.74589
G1 X91.621 Y105.761 E3.67150
G1 X91.621 Y104.025 E4.10538
G1 X95.975 Y108.379 E5.64458
G1 X97.710 Y108.379 E6.07845
G1 X91.621 Y102.290 E8.23124
G1 X91.621 Y100.554 E8.66512
G1 X99.446 Y108.379 E11.43151
G1 X101.181 Y108.379 E11.86538
G1 X91.621 Y98.819 E15.24536
G1 X91.621 Y97.083 E15.67923
G1 X102.917 Y108.379 E19.67280
G1 X104.652 Y108.379 E20.10668
G1 X91.621 Y95.348 E24.71384
G1 X91.621 Y93.612 E25.14772
G1 X106.388 Y108.379 E30.36847
G1 X108.123 Y108.379 E30.80235
G1 X91.621 Y91.877 E36.63670
G1 X93.101 Y91.621 E37.01219
G1 X108.379 Y106.899 E42.41353
G1 X108.379 Y105.163 E42.84741
G1 X94.837 Y91.621 E47.63515
G1 X96.572 Y91.621 E48.06903
G1 X108.379 Y103.428 E52.24318
G1 X108.379 Y101.692 E52.67705
G1 X98.308 Y91.621 E56.23761
G1 X100.043 Y91.621 E56.67149
G1 X108.379 Y99.957 E59.61846
G1 X108.379 Y98.221 E60.05233
G1 X101.779 Y91.621 E62.38571
G1 X103.514 Y91.621 E62.81958
G1 X108.379 Y96.486 E64.53937
G1 X108.379 Y94.750 E64.97324
G1 X105.250 Y91.621 E66.07943
G1 X106.985 Y91.621 E66.51331
G1 X108.379 Y93.015 E67.00591
G1 E65.00591 F2400.00000
G92 E0
M107
M104 S0 ; turn off temperature
G28 X0  ; home X axis
M84     ; disable motors

; filament used = 1654.7mm (1.3cm3)

; avoid_crossing_perimeters = 0
; bed_shape = 0x0,200x0,200x200,0x200
; bed_temperature = 0
; before_layer_gcode = 
; bridge_acceleration = 0
; bridge_fan_speed = 100
; brim_width = 0
; complete_objects = 0
; cooling = 1
; default_acceleration = 0
; disable_fan_first_layers = 3
; duplicate_distance = 6
; end_gcode = M104 S0 ; turn off temperature\nG28 X0  ; home X axis\nM84     ; disable motors\n
; extruder_clearance_height = 20
; extruder_clearance_radius = 20
; extruder_offset = 0x0
; extrusion_axis = E
; extrusion_multiplier = 1
; fan_always_on = 0
; fan_below_layer_time = 60
; filament_colour = #FFFFFF
; filament_diameter = 1
; first_layer_acceleration = 0
; first_layer_bed_temperature = 0
; first_layer_extrusion_width = 200%
; first_layer_speed = 30
; first_layer_temperature = 200
; gcode_arcs = 0
; gcode_comments = 0
; gcode_flavor = reprap
; infill_acceleration = 0
; infill_first = 0
; layer_gcode = 
; max_fan_speed = 100
; max_print_speed = 80
; max_volumetric_speed = 0
; min_fan_speed = 35
; min_print_speed = 10
; min_skirt_length = 0
; notes = 
; nozzle_diameter = 0.5
; only_retract_when_crossing_perimeters = 1
; ooze_prevention = 0
; output_filename_format = [input_filename_base].gcode
; perimeter_acceleration = 0
; post_process = 
; pressure_advance = 0
; resolution = 0
; retract_before_travel = 2
; retract_layer_change = 0
; retract_length = 2
; retract_length_toolchange = 10
; retract_lift = 0
; retract_restart_extra = 0
; retract_restart_extra_toolchange = 0
; retract_speed = 40
; skirt_distance = 6
; skirt_height = 1
; skirts = 0
; slowdown_below_layer_time = 5
; spiral_vase = 0
; standby_temperature_delta = -5
; start_gcode = G28 ; home all axes\nG1 Z5 F5000 ; lift nozzle\n
; temperature = 200
; threads = 2
; toolchange_gcode = 
; travel_speed = 130
; use_firmware_retraction = 0
; use_relative_e_distances = 0
; use_volumetric_e = 0
; vibration_limit = 0
; wipe = 0
; z_offset = 0
; dont_support_bridges = 1
; extrusion_width = 0
; first_layer_height = 0.4
; infill_only_where_needed = 0
; interface_shells = 0
; layer_height = 0.4
; raft_layers = 0
; seam_position = aligned
; support_material = 0
; support_material_angle = 0
; support_material_contact_distance = 0.2
; support_material_enforce_layers = 0
; support_material_extruder = 1
; support_material_extrusion_width = 0
; support_material_interface_extruder = 1
; support_material_interface_layers = 3
; support_material_interface_spacing = 0
; support_material_interface_speed = 100%
; support_material_pattern = pillars
; support_material_spacing = 2.5
; support_material_speed = 60
; support_material_threshold = 0
; xy_size_compensation = 0
; bottom_solid_layers = 0
; bridge_flow_ratio = 1
; bridge_speed = 60
; external_fill_pattern = rectilinear
; external_perimeter_extrusion_width = 0
; external_perimeter_speed = 50%
; external_perimeters_first = 0
; extra_perimeters = 1
; fill_angle = 45
; fill_density = 40%
; fill_pattern = rectilinear
; gap_fill_speed = 20
; infill_every_layers = 1
; infill_extruder = 1
; infill_extrusion_width = 0
; infill_overlap = 15%
; infill_speed = 80
; overhangs = 1
; perimeter_extruder = 1
; perimeter_extrusion_width = 0
; perimeter_speed = 60
; perimeters = 0
; small_perimeter_speed = 15
; solid_infill_below_area = 70
; solid_infill_every_layers = 0
; solid_infill_extruder = 1
; solid_infill_extrusion_width = 0
; solid_infill_speed = 20
; thin_walls = 1
; top_infill_extrusion_width = 0
; top_solid_infill_speed = 15
; top_solid_layers = 0
