; generated by Slic3r 1.2.9 on 2019-08-08 at 17:22:47

; external perimeters extrusion width = 0.50mm
; perimeters extrusion width = 0.58mm
; infill extrusion width = 0.58mm
; solid infill extrusion width = 0.58mm
; top infill extrusion width = 0.58mm

M107
M104 S200 ; set temperature
G28 ; home all axes
G1 Z5 F5000 ; lift nozzle

M109 S200 ; wait for temperature to be reached
G21 ; set units to millimeters
G90 ; use absolute coordinates
M82 ; use absolute distances for extrusion
G92 E0
G1 Z0.400 F7800.000
G1 E-2.00000 F2400.00000
G92 E0
G1 X91.621 Y105.761 F7800.000
G1 E2.00000 F2400.00000
G1 X94.239 Y108.379 E3.34665 F1707.289
G1 X97.710 Y108.379 E4.60912
G1 X91.621 Y102.290 E7.74117
G1 X91.621 Y98.819 E9.00364
G1 X101.181 Y108.379 E13.92109
G1 X104.652 Y108.379 E15.18355
G1 X91.621 Y95.348 E21.88640
G1 X91.621 Y91.877 E23.14887
G1 X108.123 Y108.379 E31.63711
G1 X108.379 Y105.163 E32.81038
G1 X94.837 Y91.621 E39.77595
G1 X98.308 Y91.621 E41.03842
G1 X108.379 Y101.692 E46.21859
G1 X108.379 Y98.221 E47.48106
G1 X101.779 Y91.621 E50.87584
G1 X105.250 Y91.621 E52.13831
G1 X108.379 Y94.750 E53.74769
G1 Z0.800 F7800.000
G1 X105.250 Y108.379 F7800.000
G1 X108.379 Y105.250 E54.85389 F1707.289
G1 X108.379 Y101.779 E55.72164
G1 X101.779 Y108.379 E58.05502
G1 X98.308 Y108.379 E58.92277
G1 X108.379 Y98.308 E62.48334
G1 X108.379 Y94.837 E63.35109
G1 X94.837 Y108.379 E68.13884
G1 X91.621 Y108.123 E68.94528
G1 X108.123 Y91.621 E74.77963
G1 X104.652 Y91.621 E75.64738
G1 X91.621 Y104.652 E80.25455
G1 X91.621 Y101.181 E81.12230
G1 X101.181 Y91.621 E84.50229
G1 X97.710 Y91.621 E85.37004
G1 X91.621 Y97.710 E87.52284
G1 X91.621 Y94.239 E88.39059
G1 X94.239 Y91.621 E89.31620
G1 Z1.200 F7800.000
G1 X91.621 Y105.761 F7800.000
G1 X94.239 Y108.379 E90.24182 F1707.289
G1 X97.710 Y108.379 E91.10957
G1 X91.621 Y102.290 E93.26237
G1 X91.621 Y98.819 E94.13012
G1 X101.181 Y108.379 E97.51010
G1 X104.652 Y108.379 E98.37785
G1 X91.621 Y95.348 E102.98502
G1 X91.621 Y91.877 E103.85277
G1 X108.123 Y108.379 E109.68712
G1 X108.379 Y105.163 E110.49356
G1 X94.837 Y91.621 E115.28131
G1 X98.308 Y91.621 E116.14906
G1 X108.379 Y101.692 E119.70963
G1 X108.379 Y98.221 E120.57738
G1 X101.779 Y91.621 E122.91077
G1 X105.250 Y91.621 E123.77852
G1 X108.379 Y94.750 E124.88471
M106 S255
G1 Z1.600 F7800.000
G1 X105.250 Y108.379 F7800.000
G1 X108.379 Y105.250 E125.99091 F1707.289
G1 X108.379 Y101.779 E126.85866
G1 X101.779 Y108.379 E129.19205
G1 X98.308 Y108.379 E130.05980
G1 X108.379 Y98.308 E133.62037
G1 X108.379 Y94.837 E134.48812
G1 X94.837 Y108.379 E139.27587
G1 X91.621 Y108.123 E140.08230
G1 X108.123 Y91.621 E145.91666
G1 X104.652 Y91.621 E146.78441
G1 X91.621 Y104.652 E151.39158
G1 X91.621 Y101.181 E152.25933
G1 X101.181 Y91.621 E155.63931
G1 X97.710 Y91.621 E156.50706
G1 X91.621 Y97.710 E158.65986
G1 X91.621 Y94.239 E159.52761
G1 X94.239 Y91.621 E160.45323
G1 Z2.000 F7800.000
G1 X91.621 Y105.761 F7800.000
G1 X94.239 Y108.379 E161.37884 F1707.289
G1 X97.710 Y108.379 E162.24659
G1 X91.621 Y102.290 E164.39939
G1 X91.621 Y98.819 E165.26714
G1 X101.181 Y108.379 E168.64713
G1 X104.652 Y108.379 E169.51488
G1 X91.621 Y95.348 E174.12205
G1 X91.621 Y91.877 E174.98980
G1 X108.123 Y108.379 E180.82415
G1 X108.379 Y105.163 E181.63059
G1 X94.837 Y91.621 E186.41834
G1 X98.308 Y91.621 E187.28609
G1 X108.379 Y101.692 E190.84666
G1 X108.379 Y98.221 E191.71441
G1 X101.779 Y91.621 E194.04779
G1 X105.250 Y91.621 E194.91554
G1 X108.379 Y94.750 E196.02174
G1 Z2.400 F7800.000
G1 X105.250 Y108.379 F7800.000
G1 X108.379 Y105.250 E197.12794 F1707.289
G1 X108.379 Y101.779 E197.99569
G1 X101.779 Y108.379 E200.32907
G1 X98.308 Y108.379 E201.19683
G1 X108.379 Y98.308 E204.75739
G1 X108.379 Y94.837 E205.62514
G1 X94.837 Y108.379 E210.41290
G1 X91.621 Y108.123 E211.21933
G1 X108.123 Y91.621 E217.05369
G1 X104.652 Y91.621 E217.92144
G1 X91.621 Y104.652 E222.52861
G1 X91.621 Y101.181 E223.39636
G1 X101.181 Y91.621 E226.77634
G1 X97.710 Y91.621 E227.64409
G1 X91.621 Y97.710 E229.79689
G1 X91.621 Y94.239 E230.66464
G1 X94.239 Y91.621 E231.59026
G1 Z2.800 F7800.000
G1 X91.621 Y105.761 F7800.000
G1 X94.239 Y108.379 E232.51587 F1707.289
G1 X97.710 Y108.379 E233.38362
G1 X91.621 Y102.290 E235.53642
G1 X91.621 Y98.819 E236.40417
G1 X101.181 Y108.379 E239.78416
G1 X104.652 Y108.379 E240.65191
G1 X91.621 Y95.348 E245.25908
G1 X91.621 Y91.877 E246.12683
G1 X108.123 Y108.379 E251.96118
G1 X108.379 Y105.163 E252.76761
G1 X94.837 Y91.621 E257.55537
G1 X98.308 Y91.621 E258.42312
G1 X108.379 Y101.692 E261.98369
G1 X108.379 Y98.221 E262.85144
G1 X101.779 Y91.621 E265.18482
G1 X105.250 Y91.621 E266.05257
G1 X108.379 Y94.750 E267.15877
G1 Z3.200 F7800.000
G1 X105.250 Y108.379 F7800.000
G1 X108.379 Y105.250 E268.26497 F1707.289
G1 X108.379 Y101.779 E269.13272
G1 X101.779 Y108.379 E271.46610
G1 X98.308 Y108.379 E272.33385
G1 X108.379 Y98.308 E275.89442
G1 X108.379 Y94.837 E276.76217
G1 X94.837 Y108.379 E281.54992
G1 X91.621 Y108.123 E282.35636
G1 X108.123 Y91.621 E288.19071
G1 X104.652 Y91.621 E289.05846
G1 X91.621 Y104.652 E293.66563
G1 X91.621 Y101.181 E294.53338
G1 X101.181 Y91.621 E297.91337
G1 X97.710 Y91.621 E298.78112
G1 X91.621 Y97.710 E300.93392
G1 X91.621 Y94.239 E301.80167
G1 X94.239 Y91.621 E302.72728
G1 Z3.600 F7800.000
G1 X91.621 Y105.761 F7800.000
G1 X94.239 Y108.379 E303.65290 F1707.289
G1 X97.710 Y108.379 E304.52065
G1 X91.621 Y102.290 E306.67345
G1 X91.621 Y98.819 E307.54120
G1 X101.181 Y108.379 E310.92118
G1 X104.652 Y108.379 E311.78893
G1 X91.621 Y95.348 E316.39610
G1 X91.621 Y91.877 E317.26385
G1 X108.123 Y108.379 E323.09821
G1 X108.379 Y105.163 E323.90464
G1 X94.837 Y91.621 E328.69240
G1 X98.308 Y91.621 E329.56015
G1 X108.379 Y101.692 E333.12071
G1 X108.379 Y98.221 E333.98847
G1 X101.779 Y91.621 E336.32185
G1 X105.250 Y91.621 E337.18960
G1 X108.379 Y94.750 E338.29580
G1 Z4.000 F7800.000
G1 X105.250 Y108.379 F7800.000
G1 X108.379 Y105.250 E339.40200 F1707.289
G1 X108.379 Y101.779 E340.26975
G1 X101.779 Y108.379 E342.60313
G1 X98.308 Y108.379 E343.47088
G1 X108.379 Y98.308 E347.03145
G1 X108.379 Y94.837 E347.89920
G1 X94.837 Y108.379 E352.68695
G1 X91.621 Y108.123 E353.49339
G1 X108.123 Y91.621 E359.32774
G1 X104.652 Y91.621 E360.19549
G1 X91.621 Y104.652 E364.80266
G1 X91.621 Y101.181 E365.67041
G1 X101.181 Y91.621 E369.05040
G1 X97.710 Y91.621 E369.91815
G1 X91.621 Y97.710 E372.07095
G1 X91.621 Y94.239 E372.93870
G1 X94.239 Y91.621 E373.86431
G1 Z4.400 F7800.000
G1 X91.621 Y105.761 F7800.000
G1 X94.239 Y108.379 E374.78993 F1707.289
G1 X97.710 Y108.379 E375.65768
G1 X91.621 Y102.290 E377.81048
G1 X91.621 Y98.819 E378.67823
G1 X101.181 Y108.379 E382.05821
G1 X104.652 Y108.379 E382.92596
G1 X91.621 Y95.348 E387.53313
G1 X91.621 Y91.877 E388.40088
G1 X108.123 Y108.379 E394.23523
G1 X108.379 Y105.163 E395.04167
G1 X94.837 Y91.621 E399.82942
G1 X98.308 Y91.621 E400.69717
G1 X108.379 Y101.692 E404.25774
G1 X108.379 Y98.221 E405.12549
G1 X101.779 Y91.621 E407.45888
G1 X105.250 Y91.621 E408.32663
G1 X108.379 Y94.750 E409.43283
G1 Z4.800 F7800.000
G1 X105.250 Y108.379 F7800.000
G1 X108.379 Y105.250 E410.53902 F1707.289
G1 X108.379 Y101.779 E411.40678
G1 X101.779 Y108.379 E413.74016
G1 X98.308 Y108.379 E414.60791
G1 X108.379 Y98.308 E418.16848
G1 X108.379 Y94.837 E419.03623
G1 X94.837 Y108.379 E423.82398
G1 X91.621 Y108.123 E424.63042
G1 X108.123 Y91.621 E430.46477
G1 X104.652 Y91.621 E431.33252
G1 X91.621 Y104.652 E435.93969
G1 X91.621 Y101.181 E436.80744
G1 X101.181 Y91.621 E440.18742
G1 X97.710 Y91.621 E441.05517
G1 X91.621 Y97.710 E443.20797
G1 X91.621 Y94.239 E444.07573
G1 X94.239 Y91.621 E445.00134
G1 Z5.200 F7800.000
G1 X91.621 Y105.761 F7800.000
G1 X94.239 Y108.379 E445.92696 F1707.289
G1 X97.710 Y108.379 E446.79471
G1 X91.621 Y102.290 E448.94750
G1 X91.621 Y98.819 E449.81526
G1 X101.181 Y108.379 E453.19524
G1 X104.652 Y108.379 E454.06299
G1 X91.621 Y95.348 E458.67016
G1 X91.621 Y91.877 E459.53791
G1 X108.123 Y108.379 E465.37226
G1 X108.379 Y105.163 E466.17870
G1 X94.837 Y91.621 E470.96645
G1 X98.308 Y91.621 E471.83420
G1 X108.379 Y101.692 E475.39477
G1 X108.379 Y98.221 E476.26252
G1 X101.779 Y91.621 E478.59590
G1 X105.250 Y91.621 E479.46365
G1 X108.379 Y94.750 E480.56985
G1 Z5.600 F7800.000
G1 X105.250 Y108.379 F7800.000
G1 X108.379 Y105.250 E481.67605 F1707.289
G1 X108.379 Y101.779 E482.54380
G1 X101.779 Y108.379 E484.87719
G1 X98.308 Y108.379 E485.74494
G1 X108.379 Y98.308 E489.30551
G1 X108.379 Y94.837 E490.17326
G1 X94.837 Y108.379 E494.96101
G1 X91.621 Y108.123 E495.76744
G1 X108.123 Y91.621 E501.60180
G1 X104.652 Y91.621 E502.46955
G1 X91.621 Y104.652 E507.07672
G1 X91.621 Y101.181 E507.94447
G1 X101.181 Y91.621 E511.32445
G1 X97.710 Y91.621 E512.19220
G1 X91.621 Y97.710 E514.34500
G1 X91.621 Y94.239 E515.21275
G1 X94.239 Y91.621 E516.13837
G1 Z6.000 F7800.000
G1 X91.621 Y105.761 F7800.000
G1 X94.239 Y108.379 E517.06398 F1707.289
G1 X97.710 Y108.379 E517.93173
G1 X91.621 Y102.290 E520.08453
G1 X91.621 Y98.819 E520.95228
G1 X101.181 Y108.379 E524.33227
G1 X104.652 Y108.379 E525.20002
G1 X91.621 Y95.348 E529.80719
G1 X91.621 Y91.877 E530.67494
G1 X108.123 Y108.379 E536.50929
G1 X108.379 Y105.163 E537.31573
G1 X94.837 Y91.621 E542.10348
G1 X98.308 Y91.621 E542.97123
G1 X108.379 Y101.692 E546.53180
G1 X108.379 Y98.221 E547.39955
G1 X101.779 Y91.621 E549.73293
G1 X105.250 Y91.621 E550.60068
G1 X108.379 Y94.750 E551.70688
G1 Z6.400 F7800.000
G1 X105.250 Y108.379 F7800.000
G1 X108.379 Y105.250 E552.81308 F1707.289
G1 X108.379 Y101.779 E553.68083
G1 X101.779 Y108.379 E556.01421
G1 X98.308 Y108.379 E556.88196
G1 X108.379 Y98.308 E560.44253
G1 X108.379 Y94.837 E561.31028
G1 X94.837 Y108.379 E566.09804
G1 X91.621 Y108.123 E566.90447
G1 X108.123 Y91.621 E572.73883
G1 X104.652 Y91.621 E573.60658
G1 X91.621 Y104.652 E578.21375
G1 X91.621 Y101.181 E579.08150
G1 X101.181 Y91.621 E582.46148
G1 X97.710 Y91.621 E583.32923
G1 X91.621 Y97.710 E585.48203
G1 X91.621 Y94.239 E586.34978
G1 X94.239 Y91.621 E587.27540
G1 Z6.800 F7800.000
G1 X91.621 Y105.761 F7800.000
G1 X94.239 Y108.379 E588.20101 F1707.289
G1 X97.710 Y108.379 E589.06876
G1 X91.621 Y102.290 E591.22156
G1 X91.621 Y98.819 E592.08931
G1 X101.181 Y108.379 E595.46929
G1 X104.652 Y108.379 E596.33705
G1 X91.621 Y95.348 E600.94421
G1 X91.621 Y91.877 E601.81196
G1 X108.123 Y108.379 E607.64632
G1 X108.379 Y105.163 E608.45275
G1 X94.837 Y91.621 E613.24051
G1 X98.308 Y91.621 E614.10826
G1 X108.379 Y101.692 E617.66883
G1 X108.379 Y98.221 E618.53658
G1 X101.779 Y91.621 E620.86996
G1 X105.250 Y91.621 E621.73771
G1 X108.379 Y94.750 E622.84391
G1 Z7.200 F7800.000
G1 X105.250 Y108.379 F7800.000
G1 X108.379 Y105.250 E623.95011 F1707.289
G1 X108.379 Y101.779 E624.81786
G1 X101.779 Y108.379 E627.15124
G1 X98.308 Y108.379 E628.01899
G1 X108.379 Y98.308 E631.57956
G1 X108.379 Y94.837 E632.44731
G1 X94.837 Y108.379 E637.23506
G1 X91.621 Y108.123 E638.04150
G1 X108.123 Y91.621 E643.87585
G1 X104.652 Y91.621 E644.74360
G1 X91.621 Y104.652 E649.35077
G1 X91.621 Y101.181 E650.21852
G1 X101.181 Y91.621 E653.59851
G1 X97.710 Y91.621 E654.46626
G1 X91.621 Y97.710 E656.61906
G1 X91.621 Y94.239 E657.48681
G1 X94.239 Y91.621 E658.41242
G1 Z7.600 F7800.000
G1 X91.621 Y105.761 F7800.000
G1 X94.239 Y108.379 E659.33804 F1707.289
G1 X97.710 Y108.379 E660.20579
G1 X91.621 Y102.290 E662.35859
G1 X91.621 Y98.819 E663.22634
G1 X101.181 Y108.379 E666.60632
G1 X104.652 Y108.379 E667.47407
G1 X91.621 Y95.348 E672.08124
G1 X91.621 Y91.877 E672.94899
G1 X108.123 Y108.379 E678.78335
G1 X108.379 Y105.163 E679.58978
G1 X94.837 Y91.621 E684.37753
G1 X98.308 Y91.621 E685.24528
G1 X108.379 Y101.692 E688.80585
G1 X108.379 Y98.221 E689.67360
G1 X101.779 Y91.621 E692.00699
G1 X105.250 Y91.621 E692.87474
G1 X108.379 Y94.750 E693.98094
G1 Z8.000 F7800.000
G1 X105.250 Y108.379 F7800.000
G1 X108.379 Y105.250 E695.08714 F1707.289
G1 X108.379 Y101.779 E695.95489
G1 X101.779 Y108.379 E698.28827
G1 X98.308 Y108.379 E699.15602
G1 X108.379 Y98.308 E702.71659
G1 X108.379 Y94.837 E703.58434
G1 X94.837 Y108.379 E708.37209
G1 X91.621 Y108.123 E709.17853
G1 X108.123 Y91.621 E715.01288
G1 X104.652 Y91.621 E715.88063
G1 X91.621 Y104.652 E720.48780
G1 X91.621 Y101.181 E721.35555
G1 X101.181 Y91.621 E724.73554
G1 X97.710 Y91.621 E725.60329
G1 X91.621 Y97.710 E727.75609
G1 X91.621 Y94.239 E728.62384
G1 X94.239 Y91.621 E729.54945
G1 Z8.400 F7800.000
G1 X91.621 Y105.761 F7800.000
G1 X94.239 Y108.379 E730.47507 F1707.289
G1 X97.710 Y108.379 E731.34282
G1 X91.621 Y102.290 E733.49562
G1 X91.621 Y98.819 E734.36337
G1 X101.181 Y108.379 E737.74335
G1 X104.652 Y108.379 E738.61110
G1 X91.621 Y95.348 E743.21827
G1 X91.621 Y91.877 E744.08602
G1 X108.123 Y108.379 E749.92037
G1 X108.379 Y105.163 E750.72681
G1 X94.837 Y91.621 E755.51456
G1 X98.308 Y91.621 E756.38231
G1 X108.379 Y101.692 E759.94288
G1 X108.379 Y98.221 E760.81063
G1 X101.779 Y91.621 E763.14402
G1 X105.250 Y91.621 E764.01177
G1 X108.379 Y94.750 E765.11797
G1 Z8.800 F7800.000
G1 X105.250 Y108.379 F7800.000
G1 X108.379 Y105.250 E766.22416 F1707.289
G1 X108.379 Y101.779 E767.09191
G1 X101.779 Y108.379 E769.42530
G1 X98.308 Y108.379 E770.29305
G1 X108.379 Y98.308 E773.85362
G1 X108.379 Y94.837 E774.72137
G1 X94.837 Y108.379 E779.50912
G1 X91.621 Y108.123 E780.31556
G1 X108.123 Y91.621 E786.14991
G1 X104.652 Y91.621 E787.01766
G1 X91.621 Y104.652 E791.62483
G1 X91.621 Y101.181 E792.49258
G1 X101.181 Y91.621 E795.87256
G1 X97.710 Y91.621 E796.74031
G1 X91.621 Y97.710 E798.89311
G1 X91.621 Y94.239 E799.76086
G1 X94.239 Y91.621 E800.68648
G1 Z9.200 F7800.000
G1 X91.621 Y105.761 F7800.000
G1 X94.239 Y108.379 E801.61209 F1707.289
G1 X97.710 Y108.379 E802.47984
G1 X91.621 Y102.290 E804.63264
G1 X91.621 Y98.819 E805.50039
G1 X101.181 Y108.379 E808.88038
G1 X104.652 Y108.379 E809.74813
G1 X91.621 Y95.348 E814.35530
G1 X91.621 Y91.877 E815.22305
G1 X108.123 Y108.379 E821.05740
G1 X108.379 Y105.163 E821.86384
G1 X94.837 Y91.621 E826.65159
G1 X98.308 Y91.621 E827.51934
G1 X108.379 Y101.692 E831.07991
G1 X108.379 Y98.221 E831.94766
G1 X101.779 Y91.621 E834.28104
G1 X105.250 Y91.621 E835.14879
G1 X108.379 Y94.750 E836.25499
G1 Z9.600 F7800.000
G1 X105.250 Y108.379 F7800.000
G1 X108.379 Y105.250 E837.36119 F1707.289
G1 X108.379 Y101.779 E838.22894
G1 X101.779 Y108.379 E840.56233
G1 X98.308 Y108.379 E841.43008
G1 X108.379 Y98.308 E844.99064
G1 X108.379 Y94.837 E845.85839
G1 X94.837 Y108.379 E850.64615
G1 X91.621 Y108.123 E851.45258
G1 X108.123 Y91.621 E857.28694
G1 X104.652 Y91.621 E858.15469
G1 X91.621 Y104.652 E862.76186
G1 X91.621 Y101.181 E863.62961
G1 X101.181 Y91.621 E867.00959
G1 X97.710 Y91.621 E867.87734
G1 X91.621 Y97.710 E870.03014
G1 X91.621 Y94.239 E870.89789
G1 X94.239 Y91.621 E871.82351
G1 Z10.000 F7800.000
G1 E869.82351 F2400.00000
G92 E0
G1 X91.621 Y105.761 F7800.000
G1 E2.00000 F2400.00000
G1 X94.239 Y108.379 E2.92561 F1707.289
G1 X97.710 Y108.379 E3.79337
G1 X91.621 Y102.290 E5.94616
G1 X91.621 Y98.819 E6.81391
G1 X101.181 Y108.379 E10.19390
G1 X104.652 Y108.379 E11.06165
G1 X91.621 Y95.348 E15.66882
G1 X91.621 Y91.877 E16.53657
G1 X108.123 Y108.379 E22.37092
G1 X108.379 Y105.163 E23.17736
G1 X94.837 Y91.621 E27.96511
G1 X98.308 Y91.621 E28.83286
G1 X108.379 Y101.692 E32.39343
G1 X108.379 Y98.221 E33.26118
G1 X101.779 Y91.621 E35.59456
G1 X105.250 Y91.621 E36.46231
G1 X108.379 Y94.750 E37.56851
G1 E35.56851 F2400.00000
G92 E0
M107
M104 S0 ; turn off temperature
G28 X0  ; home X axis
M84     ; disable motors

; filament used = 905.4mm (0.7cm3)

; avoid_crossing_perimeters = 0
; bed_shape = 0x0,200x0,200x200,0x200
; bed_temperature = 0
; before_layer_gcode = 
; bridge_acceleration = 0
; bridge_fan_speed = 100
; brim_width = 0
; complete_objects = 0
; cooling = 1
; default_acceleration = 0
; disable_fan_first_layers = 3
; duplicate_distance = 6
; end_gcode = M104 S0 ; turn off temperature\nG28 X0  ; home X axis\nM84     ; disable motors\n
; extruder_clearance_height = 20
; extruder_clearance_radius = 20
; extruder_offset = 0x0
; extrusion_axis = E
; extrusion_multiplier = 1
; fan_always_on = 0
; fan_below_layer_time = 60
; filament_colour = #FFFFFF
; filament_diameter = 1
; first_layer_acceleration = 0
; first_layer_bed_temperature = 0
; first_layer_extrusion_width = 200%
; first_layer_speed = 30
; first_layer_temperature = 200
; gcode_arcs = 0
; gcode_comments = 0
; gcode_flavor = reprap
; infill_acceleration = 0
; infill_first = 0
; layer_gcode = 
; max_fan_speed = 100
; max_print_speed = 80
; max_volumetric_speed = 0
; min_fan_speed = 35
; min_print_speed = 10
; min_skirt_length = 0
; notes = 
; nozzle_diameter = 0.5
; only_retract_when_crossing_perimeters = 1
; ooze_prevention = 0
; output_filename_format = [input_filename_base].gcode
; perimeter_acceleration = 0
; post_process = 
; pressure_advance = 0
; resolution = 0
; retract_before_travel = 2
; retract_layer_change = 0
; retract_length = 2
; retract_length_toolchange = 10
; retract_lift = 0
; retract_restart_extra = 0
; retract_restart_extra_toolchange = 0
; retract_speed = 40
; skirt_distance = 6
; skirt_height = 1
; skirts = 0
; slowdown_below_layer_time = 5
; spiral_vase = 0
; standby_temperature_delta = -5
; start_gcode = G28 ; home all axes\nG1 Z5 F5000 ; lift nozzle\n
; temperature = 200
; threads = 2
; toolchange_gcode = 
; travel_speed = 130
; use_firmware_retraction = 0
; use_relative_e_distances = 0
; use_volumetric_e = 0
; vibration_limit = 0
; wipe = 0
; z_offset = 0
; dont_support_bridges = 1
; extrusion_width = 0
; first_layer_height = 0.4
; infill_only_where_needed = 0
; interface_shells = 0
; layer_height = 0.4
; raft_layers = 0
; seam_position = aligned
; support_material = 0
; support_material_angle = 0
; support_material_contact_distance = 0.2
; support_material_enforce_layers = 0
; support_material_extruder = 1
; support_material_extrusion_width = 0
; support_material_interface_extruder = 1
; support_material_interface_layers = 3
; support_material_interface_spacing = 0
; support_material_interface_speed = 100%
; support_material_pattern = pillars
; support_material_spacing = 2.5
; support_material_speed = 60
; support_material_threshold = 0
; xy_size_compensation = 0
; bottom_solid_layers = 0
; bridge_flow_ratio = 1
; bridge_speed = 60
; external_fill_pattern = rectilinear
; external_perimeter_extrusion_width = 0
; external_perimeter_speed = 50%
; external_perimeters_first = 0
; extra_perimeters = 1
; fill_angle = 45
; fill_density = 20%
; fill_pattern = rectilinear
; gap_fill_speed = 20
; infill_every_layers = 1
; infill_extruder = 1
; infill_extrusion_width = 0
; infill_overlap = 15%
; infill_speed = 80
; overhangs = 1
; perimeter_extruder = 1
; perimeter_extrusion_width = 0
; perimeter_speed = 60
; perimeters = 0
; small_perimeter_speed = 15
; solid_infill_below_area = 70
; solid_infill_every_layers = 0
; solid_infill_extruder = 1
; solid_infill_extrusion_width = 0
; solid_infill_speed = 20
; thin_walls = 1
; top_infill_extrusion_width = 0
; top_solid_infill_speed = 15
; top_solid_layers = 0
