; generated by Slic3r 1.2.9 on 2019-06-16 at 20:12:12

; external perimeters extrusion width = 0.50mm
; perimeters extrusion width = 0.52mm
; infill extrusion width = 0.52mm
; solid infill extrusion width = 0.52mm
; top infill extrusion width = 0.52mm

M107
M104 S200 ; set temperature
G28 ; home all axes
G1 Z5 F5000 ; lift nozzle

M109 S200 ; wait for temperature to be reached
G21 ; set units to millimeters
G90 ; use absolute coordinates
M82 ; use absolute distances for extrusion
G92 E0
G1 Z0.500 F7800.000
G1 E-2.00000 F2400.00000
G92 E0
G1 X91.600 Y105.955 F7800.000
G1 E2.00000 F2400.00000
G1 X93.545 Y107.900 E3.56295 F1800.000
G1 X96.498 Y107.900 E5.24150
G1 X91.600 Y103.002 E9.17828
G1 X91.600 Y100.048 E10.85682
G1 X99.452 Y107.900 E17.16743
G1 X102.406 Y107.900 E18.84597
G1 X91.600 Y97.094 E27.53040
G1 X91.600 Y94.141 E29.20895
G1 X105.359 Y107.900 E40.26720
G1 X108.313 Y107.900 E41.94575
G1 X92.513 Y92.100 E54.64403
G1 X95.467 Y92.100 E56.32258
G1 X108.400 Y105.033 E66.71696
G1 X108.400 Y102.080 E68.39551
G1 X98.420 Y92.100 E76.41607
G1 X101.374 Y92.100 E78.09461
G1 X108.400 Y99.126 E83.74134
G1 X108.400 Y96.172 E85.41989
G1 X104.328 Y92.100 E88.69280
G1 X107.281 Y92.100 E90.37135
G1 X108.400 Y93.219 E91.27042
G1 Z1.000 F7800.000
G1 X107.281 Y107.900 F7800.000
G1 X108.400 Y106.781 E91.69111 F1875.322
G1 X108.400 Y103.828 E92.47651
G1 X104.328 Y107.900 E94.00792
G1 X101.374 Y107.900 E94.79332
G1 X108.400 Y100.874 E97.43546
G1 X108.400 Y97.920 E98.22086
G1 X98.420 Y107.900 E101.97373
G1 X95.467 Y107.900 E102.75913
G1 X108.400 Y94.967 E107.62272
G1 X108.313 Y92.100 E108.38534
G1 X92.513 Y107.900 E114.32694
G1 X91.600 Y105.859 E114.92140
G1 X105.359 Y92.100 E120.09562
G1 X102.406 Y92.100 E120.88102
G1 X91.600 Y102.906 E124.94451
G1 X91.600 Y99.952 E125.72992
G1 X99.452 Y92.100 E128.68268
G1 X96.498 Y92.100 E129.46809
G1 X91.600 Y96.998 E131.31013
G1 X91.600 Y94.045 E132.09553
G1 X93.545 Y92.100 E132.82684
G1 Z1.500 F7800.000
G1 X91.600 Y105.955 F7800.000
G1 X93.545 Y107.900 E133.55816 F1884.966
G1 X96.498 Y107.900 E134.34356
G1 X91.600 Y103.002 E136.18560
G1 X91.600 Y100.048 E136.97100
G1 X99.452 Y107.900 E139.92377
G1 X102.406 Y107.900 E140.70917
G1 X91.600 Y97.094 E144.77266
G1 X91.600 Y94.141 E145.55807
G1 X105.359 Y107.900 E150.73229
G1 X108.313 Y107.900 E151.51769
G1 X92.513 Y92.100 E157.45929
G1 X95.467 Y92.100 E158.24469
G1 X108.400 Y105.033 E163.10828
G1 X108.400 Y102.080 E163.89369
G1 X98.420 Y92.100 E167.64655
G1 X101.374 Y92.100 E168.43195
G1 X108.400 Y99.126 E171.07409
G1 X108.400 Y96.172 E171.85949
G1 X104.328 Y92.100 E173.39090
G1 X107.281 Y92.100 E174.17631
G1 X108.400 Y93.219 E174.59699
M106 S255
G1 Z2.000 F7800.000
G1 X107.281 Y107.900 F7800.000
G1 X108.400 Y106.781 E175.01767 F1875.322
G1 X108.400 Y103.828 E175.80308
G1 X104.328 Y107.900 E177.33449
G1 X101.374 Y107.900 E178.11989
G1 X108.400 Y100.874 E180.76203
G1 X108.400 Y97.920 E181.54743
G1 X98.420 Y107.900 E185.30029
G1 X95.467 Y107.900 E186.08570
G1 X108.400 Y94.967 E190.94929
G1 X108.313 Y92.100 E191.71191
G1 X92.513 Y107.900 E197.65351
G1 X91.600 Y105.859 E198.24796
G1 X105.359 Y92.100 E203.42218
G1 X102.406 Y92.100 E204.20759
G1 X91.600 Y102.906 E208.27108
G1 X91.600 Y99.952 E209.05648
G1 X99.452 Y92.100 E212.00925
G1 X96.498 Y92.100 E212.79465
G1 X91.600 Y96.998 E214.63669
G1 X91.600 Y94.045 E215.42209
G1 X93.545 Y92.100 E216.15341
G1 Z2.500 F7800.000
G1 X91.600 Y105.955 F7800.000
G1 X93.545 Y107.900 E216.88472 F1884.966
G1 X96.498 Y107.900 E217.67012
G1 X91.600 Y103.002 E219.51216
G1 X91.600 Y100.048 E220.29757
G1 X99.452 Y107.900 E223.25033
G1 X102.406 Y107.900 E224.03574
G1 X91.600 Y97.094 E228.09923
G1 X91.600 Y94.141 E228.88463
G1 X105.359 Y107.900 E234.05885
G1 X108.313 Y107.900 E234.84425
G1 X92.513 Y92.100 E240.78586
G1 X95.467 Y92.100 E241.57126
G1 X108.400 Y105.033 E246.43485
G1 X108.400 Y102.080 E247.22025
G1 X98.420 Y92.100 E250.97312
G1 X101.374 Y92.100 E251.75852
G1 X108.400 Y99.126 E254.40065
G1 X108.400 Y96.172 E255.18606
G1 X104.328 Y92.100 E256.71747
G1 X107.281 Y92.100 E257.50287
G1 X108.400 Y93.219 E257.92356
G1 Z3.000 F7800.000
G1 X107.281 Y107.900 F7800.000
G1 X108.400 Y106.781 E258.34424 F1875.322
G1 X108.400 Y103.828 E259.12964
G1 X104.328 Y107.900 E260.66105
G1 X101.374 Y107.900 E261.44646
G1 X108.400 Y100.874 E264.08859
G1 X108.400 Y97.920 E264.87399
G1 X98.420 Y107.900 E268.62686
G1 X95.467 Y107.900 E269.41226
G1 X108.400 Y94.967 E274.27585
G1 X108.313 Y92.100 E275.03847
G1 X92.513 Y107.900 E280.98007
G1 X91.600 Y105.859 E281.57453
G1 X105.359 Y92.100 E286.74875
G1 X102.406 Y92.100 E287.53415
G1 X91.600 Y102.906 E291.59764
G1 X91.600 Y99.952 E292.38305
G1 X99.452 Y92.100 E295.33581
G1 X96.498 Y92.100 E296.12122
G1 X91.600 Y96.998 E297.96326
G1 X91.600 Y94.045 E298.74866
G1 X93.545 Y92.100 E299.47997
G1 Z3.500 F7800.000
G1 X91.600 Y105.955 F7800.000
G1 X93.545 Y107.900 E300.21129 F1884.966
G1 X96.498 Y107.900 E300.99669
G1 X91.600 Y103.002 E302.83873
G1 X91.600 Y100.048 E303.62413
G1 X99.452 Y107.900 E306.57690
G1 X102.406 Y107.900 E307.36230
G1 X91.600 Y97.094 E311.42579
G1 X91.600 Y94.141 E312.21120
G1 X105.359 Y107.900 E317.38542
G1 X108.313 Y107.900 E318.17082
G1 X92.513 Y92.100 E324.11242
G1 X95.467 Y92.100 E324.89782
G1 X108.400 Y105.033 E329.76141
G1 X108.400 Y102.080 E330.54682
G1 X98.420 Y92.100 E334.29968
G1 X101.374 Y92.100 E335.08508
G1 X108.400 Y99.126 E337.72722
G1 X108.400 Y96.172 E338.51262
G1 X104.328 Y92.100 E340.04403
G1 X107.281 Y92.100 E340.82944
G1 X108.400 Y93.219 E341.25012
G1 Z4.000 F7800.000
G1 X107.281 Y107.900 F7800.000
G1 X108.400 Y106.781 E341.67081 F1875.322
G1 X108.400 Y103.828 E342.45621
G1 X104.328 Y107.900 E343.98762
G1 X101.374 Y107.900 E344.77302
G1 X108.400 Y100.874 E347.41516
G1 X108.400 Y97.920 E348.20056
G1 X98.420 Y107.900 E351.95342
G1 X95.467 Y107.900 E352.73883
G1 X108.400 Y94.967 E357.60242
G1 X108.313 Y92.100 E358.36504
G1 X92.513 Y107.900 E364.30664
G1 X91.600 Y105.859 E364.90109
G1 X105.359 Y92.100 E370.07531
G1 X102.406 Y92.100 E370.86072
G1 X91.600 Y102.906 E374.92421
G1 X91.600 Y99.952 E375.70961
G1 X99.452 Y92.100 E378.66238
G1 X96.498 Y92.100 E379.44778
G1 X91.600 Y96.998 E381.28982
G1 X91.600 Y94.045 E382.07522
G1 X93.545 Y92.100 E382.80654
G1 Z4.500 F7800.000
G1 X91.600 Y105.955 F7800.000
G1 X93.545 Y107.900 E383.53785 F1884.966
G1 X96.498 Y107.900 E384.32326
G1 X91.600 Y103.002 E386.16530
G1 X91.600 Y100.048 E386.95070
G1 X99.452 Y107.900 E389.90346
G1 X102.406 Y107.900 E390.68887
G1 X91.600 Y97.094 E394.75236
G1 X91.600 Y94.141 E395.53776
G1 X105.359 Y107.900 E400.71198
G1 X108.313 Y107.900 E401.49739
G1 X92.513 Y92.100 E407.43899
G1 X95.467 Y92.100 E408.22439
G1 X108.400 Y105.033 E413.08798
G1 X108.400 Y102.080 E413.87338
G1 X98.420 Y92.100 E417.62625
G1 X101.374 Y92.100 E418.41165
G1 X108.400 Y99.126 E421.05379
G1 X108.400 Y96.172 E421.83919
G1 X104.328 Y92.100 E423.37060
G1 X107.281 Y92.100 E424.15600
G1 X108.400 Y93.219 E424.57669
G1 Z5.000 F7800.000
G1 X107.281 Y107.900 F7800.000
G1 X108.400 Y106.781 E424.99737 F1875.322
G1 X108.400 Y103.828 E425.78277
G1 X104.328 Y107.900 E427.31418
G1 X101.374 Y107.900 E428.09959
G1 X108.400 Y100.874 E430.74172
G1 X108.400 Y97.920 E431.52713
G1 X98.420 Y107.900 E435.27999
G1 X95.467 Y107.900 E436.06539
G1 X108.400 Y94.967 E440.92898
G1 X108.313 Y92.100 E441.69160
G1 X92.513 Y107.900 E447.63320
G1 X91.600 Y105.859 E448.22766
G1 X105.359 Y92.100 E453.40188
G1 X102.406 Y92.100 E454.18728
G1 X91.600 Y102.906 E458.25078
G1 X91.600 Y99.952 E459.03618
G1 X99.452 Y92.100 E461.98895
G1 X96.498 Y92.100 E462.77435
G1 X91.600 Y96.998 E464.61639
G1 X91.600 Y94.045 E465.40179
G1 X93.545 Y92.100 E466.13310
G1 Z5.500 F7800.000
G1 X91.600 Y105.955 F7800.000
G1 X93.545 Y107.900 E466.86442 F1884.966
G1 X96.498 Y107.900 E467.64982
G1 X91.600 Y103.002 E469.49186
G1 X91.600 Y100.048 E470.27726
G1 X99.452 Y107.900 E473.23003
G1 X102.406 Y107.900 E474.01543
G1 X91.600 Y97.094 E478.07893
G1 X91.600 Y94.141 E478.86433
G1 X105.359 Y107.900 E484.03855
G1 X108.313 Y107.900 E484.82395
G1 X92.513 Y92.100 E490.76555
G1 X95.467 Y92.100 E491.55095
G1 X108.400 Y105.033 E496.41455
G1 X108.400 Y102.080 E497.19995
G1 X98.420 Y92.100 E500.95281
G1 X101.374 Y92.100 E501.73821
G1 X108.400 Y99.126 E504.38035
G1 X108.400 Y96.172 E505.16575
G1 X104.328 Y92.100 E506.69716
G1 X107.281 Y92.100 E507.48257
G1 X108.400 Y93.219 E507.90325
G1 Z6.000 F7800.000
G1 E505.90325 F2400.00000
G92 E0
G1 X107.281 Y107.900 F7800.000
G1 E2.00000 F2400.00000
G1 X108.400 Y106.781 E2.42068 F1875.322
G1 X108.400 Y103.828 E3.20609
G1 X104.328 Y107.900 E4.73750
G1 X101.374 Y107.900 E5.52290
G1 X108.400 Y100.874 E8.16504
G1 X108.400 Y97.920 E8.95044
G1 X98.420 Y107.900 E12.70330
G1 X95.467 Y107.900 E13.48871
G1 X108.400 Y94.967 E18.35230
G1 X108.313 Y92.100 E19.11492
G1 X92.513 Y107.900 E25.05652
G1 X91.600 Y105.859 E25.65097
G1 X105.359 Y92.100 E30.82519
G1 X102.406 Y92.100 E31.61060
G1 X91.600 Y102.906 E35.67409
G1 X91.600 Y99.952 E36.45949
G1 X99.452 Y92.100 E39.41226
G1 X96.498 Y92.100 E40.19766
G1 X91.600 Y96.998 E42.03970
G1 X91.600 Y94.045 E42.82510
G1 X93.545 Y92.100 E43.55642
G1 E41.55642 F2400.00000
G92 E0
M107
M104 S0 ; turn off temperature
G28 X0  ; home X axis
M84     ; disable motors

; filament used = 547.5mm (0.4cm3)

; avoid_crossing_perimeters = 0
; bed_shape = 0x0,200x0,200x200,0x200
; bed_temperature = 0
; before_layer_gcode = 
; bridge_acceleration = 0
; bridge_fan_speed = 100
; brim_width = 0
; complete_objects = 0
; cooling = 1
; default_acceleration = 0
; disable_fan_first_layers = 3
; duplicate_distance = 6
; end_gcode = M104 S0 ; turn off temperature\nG28 X0  ; home X axis\nM84     ; disable motors\n
; extruder_clearance_height = 20
; extruder_clearance_radius = 20
; extruder_offset = 0x0
; extrusion_axis = E
; extrusion_multiplier = 1
; fan_always_on = 0
; fan_below_layer_time = 60
; filament_colour = #FFFFFF
; filament_diameter = 1
; first_layer_acceleration = 0
; first_layer_bed_temperature = 0
; first_layer_extrusion_width = 200%
; first_layer_speed = 30
; first_layer_temperature = 200
; gcode_arcs = 0
; gcode_comments = 0
; gcode_flavor = reprap
; infill_acceleration = 0
; infill_first = 0
; layer_gcode = 
; max_fan_speed = 100
; max_print_speed = 80
; max_volumetric_speed = 0
; min_fan_speed = 35
; min_print_speed = 10
; min_skirt_length = 0
; notes = 
; nozzle_diameter = 0.5
; only_retract_when_crossing_perimeters = 1
; ooze_prevention = 0
; output_filename_format = [input_filename_base].gcode
; perimeter_acceleration = 0
; post_process = 
; pressure_advance = 0
; resolution = 0
; retract_before_travel = 2
; retract_layer_change = 0
; retract_length = 2
; retract_length_toolchange = 10
; retract_lift = 0
; retract_restart_extra = 0
; retract_restart_extra_toolchange = 0
; retract_speed = 40
; skirt_distance = 6
; skirt_height = 1
; skirts = 0
; slowdown_below_layer_time = 5
; spiral_vase = 0
; standby_temperature_delta = -5
; start_gcode = G28 ; home all axes\nG1 Z5 F5000 ; lift nozzle\n
; temperature = 200
; threads = 2
; toolchange_gcode = 
; travel_speed = 130
; use_firmware_retraction = 0
; use_relative_e_distances = 0
; use_volumetric_e = 0
; vibration_limit = 0
; wipe = 0
; z_offset = 0
; dont_support_bridges = 1
; extrusion_width = 0
; first_layer_height = 0.5
; infill_only_where_needed = 0
; interface_shells = 0
; layer_height = 0.5
; raft_layers = 0
; seam_position = aligned
; support_material = 0
; support_material_angle = 0
; support_material_contact_distance = 0.2
; support_material_enforce_layers = 0
; support_material_extruder = 1
; support_material_extrusion_width = 0
; support_material_interface_extruder = 1
; support_material_interface_layers = 3
; support_material_interface_spacing = 0
; support_material_interface_speed = 100%
; support_material_pattern = pillars
; support_material_spacing = 2.5
; support_material_speed = 60
; support_material_threshold = 0
; xy_size_compensation = 0
; bottom_solid_layers = 0
; bridge_flow_ratio = 1
; bridge_speed = 60
; external_fill_pattern = rectilinear
; external_perimeter_extrusion_width = 0
; external_perimeter_speed = 50%
; external_perimeters_first = 0
; extra_perimeters = 1
; fill_angle = 45
; fill_density = 20%
; fill_pattern = rectilinear
; gap_fill_speed = 20
; infill_every_layers = 1
; infill_extruder = 1
; infill_extrusion_width = 0
; infill_overlap = 15%
; infill_speed = 80
; overhangs = 1
; perimeter_extruder = 1
; perimeter_extrusion_width = 0
; perimeter_speed = 60
; perimeters = 0
; small_perimeter_speed = 15
; solid_infill_below_area = 70
; solid_infill_every_layers = 0
; solid_infill_extruder = 1
; solid_infill_extrusion_width = 0
; solid_infill_speed = 20
; thin_walls = 1
; top_infill_extrusion_width = 0
; top_solid_infill_speed = 15
; top_solid_layers = 0
