; generated by Slic3r 1.2.9 on 2019-08-21 at 09:33:57

; external perimeters extrusion width = 0.50mm
; perimeters extrusion width = 0.58mm
; infill extrusion width = 0.58mm
; solid infill extrusion width = 0.58mm
; top infill extrusion width = 0.58mm

M107
M104 S200 ; set temperature
G28 ; home all axes
G1 Z5 F5000 ; lift nozzle

M109 S200 ; wait for temperature to be reached
G21 ; set units to millimeters
G90 ; use absolute coordinates
M82 ; use absolute distances for extrusion
G92 E0
G1 Z0.400 F7800.000
G1 E-2.00000 F2400.00000
G92 E0
G1 X109.629 Y90.729 F7800.000
G1 E2.00000 F2400.00000
G1 X109.271 Y90.371 E2.18405 F1800.000
G1 X108.403 Y90.371 E2.49966
G1 X109.629 Y91.597 E3.13006
G1 X109.629 Y92.465 E3.44568
G1 X107.535 Y90.371 E4.52242
G1 X106.668 Y90.371 E4.83804
G1 X109.629 Y93.332 E6.36113
G1 X109.629 Y94.200 E6.67675
G1 X105.800 Y90.371 E8.64620
G1 X104.932 Y90.371 E8.96181
G1 X109.629 Y95.068 E11.37761
G1 X109.629 Y95.936 E11.69322
G1 X104.064 Y90.371 E14.55537
G1 X103.197 Y90.371 E14.87098
G1 X109.629 Y96.803 E18.17948
G1 X109.629 Y97.671 E18.49510
G1 X102.329 Y90.371 E22.24994
G1 X101.461 Y90.371 E22.56556
G1 X109.629 Y98.539 E26.76675
G1 X109.629 Y99.407 E27.08236
G1 X100.593 Y90.371 E31.72991
G1 X99.726 Y90.371 E32.04552
G1 X109.629 Y100.274 E37.13942
G1 X109.629 Y101.142 E37.45503
G1 X98.858 Y90.371 E42.99527
G1 X97.990 Y90.371 E43.31089
G1 X109.629 Y102.010 E49.29748
G1 X109.629 Y102.878 E49.61310
G1 X97.122 Y90.371 E56.04604
G1 X96.255 Y90.371 E56.36165
G1 X109.629 Y103.745 E63.24094
G1 X109.629 Y104.613 E63.55656
G1 X95.387 Y90.371 E70.88220
G1 X94.519 Y90.371 E71.19782
G1 X109.629 Y105.481 E78.96980
G1 X109.629 Y106.349 E79.28542
G1 X93.651 Y90.371 E87.50376
G1 X92.784 Y90.371 E87.81938
G1 X109.629 Y107.216 E96.48407
G1 X109.629 Y108.084 E96.79968
G1 X91.916 Y90.371 E105.91072
G1 X91.048 Y90.371 E106.22634
G1 X109.629 Y108.952 E115.78372
G1 X109.438 Y109.629 E116.03952
G1 X90.371 Y90.562 E125.84692
G1 X90.371 Y91.430 E126.16254
G1 X108.570 Y109.629 E135.52359
G1 X107.702 Y109.629 E135.83921
G1 X90.371 Y92.298 E144.75391
G1 X90.371 Y93.165 E145.06952
G1 X106.835 Y109.629 E153.53788
G1 X105.967 Y109.629 E153.85349
G1 X90.371 Y94.033 E161.87549
G1 X90.371 Y94.901 E162.19111
G1 X105.099 Y109.629 E169.76676
G1 X104.231 Y109.629 E170.08238
G1 X90.371 Y95.769 E177.21168
G1 X90.371 Y96.636 E177.52730
G1 X103.364 Y109.629 E184.21025
G1 X102.496 Y109.629 E184.52587
G1 X90.371 Y97.504 E190.76247
G1 X90.371 Y98.372 E191.07809
G1 X101.628 Y109.629 E196.86834
G1 X100.760 Y109.629 E197.18396
G1 X90.371 Y99.240 E202.52786
G1 X90.371 Y100.107 E202.84348
G1 X99.893 Y109.629 E207.74104
G1 X99.025 Y109.629 E208.05665
G1 X90.371 Y100.975 E212.50786
G1 X90.371 Y101.843 E212.82347
G1 X98.157 Y109.629 E216.82833
G1 X97.289 Y109.629 E217.14395
G1 X90.371 Y102.711 E220.70245
G1 X90.371 Y103.578 E221.01807
G1 X96.422 Y109.629 E224.13022
G1 X95.554 Y109.629 E224.44584
G1 X90.371 Y104.446 E227.11165
G1 X90.371 Y105.314 E227.42726
G1 X94.686 Y109.629 E229.64672
G1 X93.818 Y109.629 E229.96234
G1 X90.371 Y106.182 E231.73545
G1 X90.371 Y107.049 E232.05106
G1 X92.951 Y109.629 E233.37782
G1 X92.083 Y109.629 E233.69344
G1 X90.371 Y107.917 E234.57385
G1 X90.371 Y108.785 E234.88946
G1 X91.215 Y109.629 E235.32352
G1 Z0.800 F7800.000
G1 X109.271 Y109.629 F7800.000
G1 X109.629 Y109.271 E235.45002 F4800.000
G1 X109.629 Y108.403 E235.66696
G1 X108.403 Y109.629 E236.10026
G1 X107.535 Y109.629 E236.31720
G1 X109.629 Y107.535 E237.05729
G1 X109.629 Y106.668 E237.27423
G1 X106.668 Y109.629 E238.32112
G1 X105.800 Y109.629 E238.53806
G1 X109.629 Y105.800 E239.89175
G1 X109.629 Y104.932 E240.10869
G1 X104.932 Y109.629 E241.76917
G1 X104.064 Y109.629 E241.98611
G1 X109.629 Y104.064 E243.95339
G1 X109.629 Y103.197 E244.17032
G1 X103.197 Y109.629 E246.44440
G1 X102.329 Y109.629 E246.66134
G1 X109.629 Y102.329 E249.24221
G1 X109.629 Y101.461 E249.45915
G1 X101.461 Y109.629 E252.34681
G1 X100.593 Y109.629 E252.56375
G1 X109.629 Y100.593 E255.75822
G1 X109.629 Y99.726 E255.97515
G1 X99.726 Y109.629 E259.47641
G1 X98.858 Y109.629 E259.69335
G1 X109.629 Y98.858 E263.50141
G1 X109.629 Y97.990 E263.71835
G1 X97.990 Y109.629 E267.83320
G1 X97.122 Y109.629 E268.05014
G1 X109.629 Y97.122 E272.47179
G1 X109.629 Y96.255 E272.68872
G1 X96.255 Y109.629 E277.41717
G1 X95.387 Y109.629 E277.63410
G1 X109.629 Y95.387 E282.66935
G1 X109.629 Y94.519 E282.88628
G1 X94.519 Y109.629 E288.22832
G1 X93.651 Y109.629 E288.44526
G1 X109.629 Y93.651 E294.09409
G1 X109.629 Y92.784 E294.31103
G1 X92.784 Y109.629 E300.26666
G1 X91.916 Y109.629 E300.48360
G1 X109.629 Y91.916 E306.74602
G1 X109.629 Y91.048 E306.96296
G1 X91.048 Y109.629 E313.53218
G1 X90.371 Y109.438 E313.70800
G1 X109.438 Y90.371 E320.44907
G1 X108.570 Y90.371 E320.66601
G1 X90.371 Y108.570 E327.10028
G1 X90.371 Y107.702 E327.31722
G1 X107.702 Y90.371 E333.44469
G1 X106.835 Y90.371 E333.66163
G1 X90.371 Y106.835 E339.48231
G1 X90.371 Y105.967 E339.69925
G1 X105.967 Y90.371 E345.21313
G1 X105.099 Y90.371 E345.43007
G1 X90.371 Y105.099 E350.63716
G1 X90.371 Y104.231 E350.85409
G1 X104.231 Y90.371 E355.75438
G1 X103.364 Y90.371 E355.97132
G1 X90.371 Y103.364 E360.56482
G1 X90.371 Y102.496 E360.78175
G1 X102.496 Y90.371 E365.06845
G1 X101.628 Y90.371 E365.28539
G1 X90.371 Y101.628 E369.26529
G1 X90.371 Y100.760 E369.48223
G1 X100.760 Y90.371 E373.15534
G1 X99.893 Y90.371 E373.37227
G1 X90.371 Y99.893 E376.73858
G1 X90.371 Y99.025 E376.95552
G1 X99.025 Y90.371 E380.01504
G1 X98.157 Y90.371 E380.23197
G1 X90.371 Y98.157 E382.98469
G1 X90.371 Y97.289 E383.20163
G1 X97.289 Y90.371 E385.64755
G1 X96.422 Y90.371 E385.86449
G1 X90.371 Y96.422 E388.00361
G1 X90.371 Y95.554 E388.22055
G1 X95.554 Y90.371 E390.05288
G1 X94.686 Y90.371 E390.26982
G1 X90.371 Y94.686 E391.79535
G1 X90.371 Y93.818 E392.01229
G1 X93.818 Y90.371 E393.23103
G1 X92.951 Y90.371 E393.44796
G1 X90.371 Y92.951 E394.35990
G1 X90.371 Y92.083 E394.57684
G1 X92.083 Y90.371 E395.18199
G1 X91.215 Y90.371 E395.39892
G1 X90.371 Y91.215 E395.69727
G1 Z1.200 F7800.000
G1 X91.215 Y109.629 F7800.000
G1 X90.371 Y108.785 E395.99562 F4800.000
G1 X90.371 Y107.917 E396.21256
G1 X92.083 Y109.629 E396.81770
G1 X92.951 Y109.629 E397.03464
G1 X90.371 Y107.049 E397.94658
G1 X90.371 Y106.182 E398.16352
G1 X93.818 Y109.629 E399.38226
G1 X94.686 Y109.629 E399.59919
G1 X90.371 Y105.314 E401.12473
G1 X90.371 Y104.446 E401.34166
G1 X95.554 Y109.629 E403.17399
G1 X96.422 Y109.629 E403.39093
G1 X90.371 Y103.578 E405.53005
G1 X90.371 Y102.711 E405.74699
G1 X97.289 Y109.629 E408.19291
G1 X98.157 Y109.629 E408.40985
G1 X90.371 Y101.843 E411.16257
G1 X90.371 Y100.975 E411.37951
G1 X99.025 Y109.629 E414.43902
G1 X99.893 Y109.629 E414.65596
G1 X90.371 Y100.107 E418.02227
G1 X90.371 Y99.240 E418.23920
G1 X100.760 Y109.629 E421.91231
G1 X101.628 Y109.629 E422.12925
G1 X90.371 Y98.372 E426.10915
G1 X90.371 Y97.504 E426.32609
G1 X102.496 Y109.629 E430.61279
G1 X103.364 Y109.629 E430.82972
G1 X90.371 Y96.636 E435.42322
G1 X90.371 Y95.769 E435.64015
G1 X104.231 Y109.629 E440.54045
G1 X105.099 Y109.629 E440.75738
G1 X90.371 Y94.901 E445.96447
G1 X90.371 Y94.033 E446.18141
G1 X105.967 Y109.629 E451.69529
G1 X106.835 Y109.629 E451.91223
G1 X90.371 Y93.165 E457.73291
G1 X90.371 Y92.298 E457.94984
G1 X107.702 Y109.629 E464.07732
G1 X108.570 Y109.629 E464.29426
G1 X90.371 Y91.430 E470.72853
G1 X90.371 Y90.562 E470.94547
G1 X109.438 Y109.629 E477.68653
G1 X109.629 Y108.952 E477.86236
G1 X91.048 Y90.371 E484.43158
G1 X91.916 Y90.371 E484.64852
G1 X109.629 Y108.084 E490.91094
G1 X109.629 Y107.216 E491.12788
G1 X92.784 Y90.371 E497.08351
G1 X93.651 Y90.371 E497.30045
G1 X109.629 Y106.349 E502.94928
G1 X109.629 Y105.481 E503.16622
G1 X94.519 Y90.371 E508.50826
G1 X95.387 Y90.371 E508.72519
G1 X109.629 Y104.613 E513.76043
G1 X109.629 Y103.745 E513.97737
G1 X96.255 Y90.371 E518.70582
G1 X97.122 Y90.371 E518.92275
G1 X109.629 Y102.878 E523.34440
G1 X109.629 Y102.010 E523.56134
G1 X97.990 Y90.371 E527.67620
G1 X98.858 Y90.371 E527.89313
G1 X109.629 Y101.142 E531.70119
G1 X109.629 Y100.274 E531.91813
G1 X99.726 Y90.371 E535.41939
G1 X100.593 Y90.371 E535.63633
G1 X109.629 Y99.407 E538.83079
G1 X109.629 Y98.539 E539.04773
G1 X101.461 Y90.371 E541.93540
G1 X102.329 Y90.371 E542.15233
G1 X109.629 Y97.671 E544.73321
G1 X109.629 Y96.803 E544.95015
G1 X103.197 Y90.371 E547.22422
G1 X104.064 Y90.371 E547.44116
G1 X109.629 Y95.936 E549.40844
G1 X109.629 Y95.068 E549.62538
G1 X104.932 Y90.371 E551.28586
G1 X105.800 Y90.371 E551.50280
G1 X109.629 Y94.200 E552.85649
G1 X109.629 Y93.332 E553.07342
G1 X106.668 Y90.371 E554.12032
G1 X107.535 Y90.371 E554.33725
G1 X109.629 Y92.465 E555.07735
G1 X109.629 Y91.597 E555.29429
G1 X108.403 Y90.371 E555.72759
G1 X109.271 Y90.371 E555.94453
G1 X109.629 Y90.729 E556.07103
M106 S244.8
G1 Z1.600 F7800.000
G1 X109.271 Y109.629 F7800.000
G1 X109.629 Y109.271 E556.19753 F4800.000
G1 X109.629 Y108.403 E556.41447
G1 X108.403 Y109.629 E556.84777
G1 X107.535 Y109.629 E557.06471
G1 X109.629 Y107.535 E557.80480
G1 X109.629 Y106.668 E558.02174
G1 X106.668 Y109.629 E559.06863
G1 X105.800 Y109.629 E559.28557
G1 X109.629 Y105.800 E560.63926
G1 X109.629 Y104.932 E560.85619
G1 X104.932 Y109.629 E562.51668
G1 X104.064 Y109.629 E562.73361
G1 X109.629 Y104.064 E564.70089
G1 X109.629 Y103.197 E564.91783
G1 X103.197 Y109.629 E567.19191
G1 X102.329 Y109.629 E567.40885
G1 X109.629 Y102.329 E569.98972
G1 X109.629 Y101.461 E570.20665
G1 X101.461 Y109.629 E573.09432
G1 X100.593 Y109.629 E573.31126
G1 X109.629 Y100.593 E576.50572
G1 X109.629 Y99.726 E576.72266
G1 X99.726 Y109.629 E580.22392
G1 X98.858 Y109.629 E580.44086
G1 X109.629 Y98.858 E584.24892
G1 X109.629 Y97.990 E584.46585
G1 X97.990 Y109.629 E588.58071
G1 X97.122 Y109.629 E588.79764
G1 X109.629 Y97.122 E593.21929
G1 X109.629 Y96.255 E593.43623
G1 X96.255 Y109.629 E598.16468
G1 X95.387 Y109.629 E598.38161
G1 X109.629 Y95.387 E603.41685
G1 X109.629 Y94.519 E603.63379
G1 X94.519 Y109.629 E608.97583
G1 X93.651 Y109.629 E609.19277
G1 X109.629 Y93.651 E614.84160
G1 X109.629 Y92.784 E615.05854
G1 X92.784 Y109.629 E621.01417
G1 X91.916 Y109.629 E621.23110
G1 X109.629 Y91.916 E627.49353
G1 X109.629 Y91.048 E627.71047
G1 X91.048 Y109.629 E634.27969
G1 X90.371 Y109.438 E634.45551
G1 X109.438 Y90.371 E641.19658
G1 X108.570 Y90.371 E641.41352
G1 X90.371 Y108.570 E647.84779
G1 X90.371 Y107.702 E648.06473
G1 X107.702 Y90.371 E654.19220
G1 X106.835 Y90.371 E654.40914
G1 X90.371 Y106.835 E660.22982
G1 X90.371 Y105.967 E660.44676
G1 X105.967 Y90.371 E665.96064
G1 X105.099 Y90.371 E666.17758
G1 X90.371 Y105.099 E671.38466
G1 X90.371 Y104.231 E671.60160
G1 X104.231 Y90.371 E676.50189
G1 X103.364 Y90.371 E676.71883
G1 X90.371 Y103.364 E681.31232
G1 X90.371 Y102.496 E681.52926
G1 X102.496 Y90.371 E685.81596
G1 X101.628 Y90.371 E686.03290
G1 X90.371 Y101.628 E690.01280
G1 X90.371 Y100.760 E690.22974
G1 X100.760 Y90.371 E693.90284
G1 X99.893 Y90.371 E694.11978
G1 X90.371 Y99.893 E697.48609
G1 X90.371 Y99.025 E697.70303
G1 X99.025 Y90.371 E700.76254
G1 X98.157 Y90.371 E700.97948
G1 X90.371 Y98.157 E703.73220
G1 X90.371 Y97.289 E703.94914
G1 X97.289 Y90.371 E706.39506
G1 X96.422 Y90.371 E706.61200
G1 X90.371 Y96.422 E708.75112
G1 X90.371 Y95.554 E708.96806
G1 X95.554 Y90.371 E710.80039
G1 X94.686 Y90.371 E711.01733
G1 X90.371 Y94.686 E712.54286
G1 X90.371 Y93.818 E712.75980
G1 X93.818 Y90.371 E713.97853
G1 X92.951 Y90.371 E714.19547
G1 X90.371 Y92.951 E715.10741
G1 X90.371 Y92.083 E715.32435
G1 X92.083 Y90.371 E715.92949
G1 X91.215 Y90.371 E716.14643
G1 X90.371 Y91.215 E716.44478
G1 Z2.000 F7800.000
G1 X91.215 Y109.629 F7800.000
G1 X90.371 Y108.785 E716.74313 F4800.000
G1 X90.371 Y107.917 E716.96007
G1 X92.083 Y109.629 E717.56521
G1 X92.951 Y109.629 E717.78215
G1 X90.371 Y107.049 E718.69409
G1 X90.371 Y106.182 E718.91103
G1 X93.818 Y109.629 E720.12976
G1 X94.686 Y109.629 E720.34670
G1 X90.371 Y105.314 E721.87223
G1 X90.371 Y104.446 E722.08917
G1 X95.554 Y109.629 E723.92150
G1 X96.422 Y109.629 E724.13844
G1 X90.371 Y103.578 E726.27756
G1 X90.371 Y102.711 E726.49450
G1 X97.289 Y109.629 E728.94042
G1 X98.157 Y109.629 E729.15736
G1 X90.371 Y101.843 E731.91008
G1 X90.371 Y100.975 E732.12701
G1 X99.025 Y109.629 E735.18653
G1 X99.893 Y109.629 E735.40346
G1 X90.371 Y100.107 E738.76977
G1 X90.371 Y99.240 E738.98671
G1 X100.760 Y109.629 E742.65982
G1 X101.628 Y109.629 E742.87676
G1 X90.371 Y98.372 E746.85666
G1 X90.371 Y97.504 E747.07359
G1 X102.496 Y109.629 E751.36029
G1 X103.364 Y109.629 E751.57723
G1 X90.371 Y96.636 E756.17073
G1 X90.371 Y95.769 E756.38766
G1 X104.231 Y109.629 E761.28795
G1 X105.099 Y109.629 E761.50489
G1 X90.371 Y94.901 E766.71198
G1 X90.371 Y94.033 E766.92891
G1 X105.967 Y109.629 E772.44280
G1 X106.835 Y109.629 E772.65974
G1 X90.371 Y93.165 E778.48041
G1 X90.371 Y92.298 E778.69735
G1 X107.702 Y109.629 E784.82483
G1 X108.570 Y109.629 E785.04176
G1 X90.371 Y91.430 E791.47604
G1 X90.371 Y90.562 E791.69297
G1 X109.438 Y109.629 E798.43404
G1 X109.629 Y108.952 E798.60986
G1 X91.048 Y90.371 E805.17909
G1 X91.916 Y90.371 E805.39602
G1 X109.629 Y108.084 E811.65845
G1 X109.629 Y107.216 E811.87539
G1 X92.784 Y90.371 E817.83102
G1 X93.651 Y90.371 E818.04795
G1 X109.629 Y106.349 E823.69679
G1 X109.629 Y105.481 E823.91373
G1 X94.519 Y90.371 E829.25576
G1 X95.387 Y90.371 E829.47270
G1 X109.629 Y104.613 E834.50794
G1 X109.629 Y103.745 E834.72488
G1 X96.255 Y90.371 E839.45333
G1 X97.122 Y90.371 E839.67026
G1 X109.629 Y102.878 E844.09191
G1 X109.629 Y102.010 E844.30885
G1 X97.990 Y90.371 E848.42370
G1 X98.858 Y90.371 E848.64064
G1 X109.629 Y101.142 E852.44870
G1 X109.629 Y100.274 E852.66564
G1 X99.726 Y90.371 E856.16690
G1 X100.593 Y90.371 E856.38383
G1 X109.629 Y99.407 E859.57830
G1 X109.629 Y98.539 E859.79524
G1 X101.461 Y90.371 E862.68290
G1 X102.329 Y90.371 E862.89984
G1 X109.629 Y97.671 E865.48072
G1 X109.629 Y96.803 E865.69765
G1 X103.197 Y90.371 E867.97173
G1 X104.064 Y90.371 E868.18867
G1 X109.629 Y95.936 E870.15595
G1 X109.629 Y95.068 E870.37288
G1 X104.932 Y90.371 E872.03337
G1 X105.800 Y90.371 E872.25031
G1 X109.629 Y94.200 E873.60399
G1 X109.629 Y93.332 E873.82093
G1 X106.668 Y90.371 E874.86782
G1 X107.535 Y90.371 E875.08476
G1 X109.629 Y92.465 E875.82486
G1 X109.629 Y91.597 E876.04180
G1 X108.403 Y90.371 E876.47510
G1 X109.271 Y90.371 E876.69203
G1 X109.629 Y90.729 E876.81854
G1 Z2.400 F7800.000
G1 X109.271 Y109.629 F7800.000
G1 X109.629 Y109.271 E876.94504 F4800.000
G1 X109.629 Y108.403 E877.16198
G1 X108.403 Y109.629 E877.59528
G1 X107.535 Y109.629 E877.81221
G1 X109.629 Y107.535 E878.55231
G1 X109.629 Y106.668 E878.76925
G1 X106.668 Y109.629 E879.81614
G1 X105.800 Y109.629 E880.03308
G1 X109.629 Y105.800 E881.38676
G1 X109.629 Y104.932 E881.60370
G1 X104.932 Y109.629 E883.26418
G1 X104.064 Y109.629 E883.48112
G1 X109.629 Y104.064 E885.44840
G1 X109.629 Y103.197 E885.66534
G1 X103.197 Y109.629 E887.93941
G1 X102.329 Y109.629 E888.15635
G1 X109.629 Y102.329 E890.73723
G1 X109.629 Y101.461 E890.95416
G1 X101.461 Y109.629 E893.84183
G1 X100.593 Y109.629 E894.05877
G1 X109.629 Y100.593 E897.25323
G1 X109.629 Y99.726 E897.47017
G1 X99.726 Y109.629 E900.97143
G1 X98.858 Y109.629 E901.18837
G1 X109.629 Y98.858 E904.99642
G1 X109.629 Y97.990 E905.21336
G1 X97.990 Y109.629 E909.32821
G1 X97.122 Y109.629 E909.54515
G1 X109.629 Y97.122 E913.96680
G1 X109.629 Y96.255 E914.18374
G1 X96.255 Y109.629 E918.91218
G1 X95.387 Y109.629 E919.12912
G1 X109.629 Y95.387 E924.16436
G1 X109.629 Y94.519 E924.38130
G1 X94.519 Y109.629 E929.72334
G1 X93.651 Y109.629 E929.94027
G1 X109.629 Y93.651 E935.58911
G1 X109.629 Y92.784 E935.80604
G1 X92.784 Y109.629 E941.76167
G1 X91.916 Y109.629 E941.97861
G1 X109.629 Y91.916 E948.24104
G1 X109.629 Y91.048 E948.45797
G1 X91.048 Y109.629 E955.02720
G1 X90.371 Y109.438 E955.20302
G1 X109.438 Y90.371 E961.94409
G1 X108.570 Y90.371 E962.16102
G1 X90.371 Y108.570 E968.59530
G1 X90.371 Y107.702 E968.81223
G1 X107.702 Y90.371 E974.93971
G1 X106.835 Y90.371 E975.15665
G1 X90.371 Y106.835 E980.97733
G1 X90.371 Y105.967 E981.19426
G1 X105.967 Y90.371 E986.70815
G1 X105.099 Y90.371 E986.92508
G1 X90.371 Y105.099 E992.13217
G1 X90.371 Y104.231 E992.34911
G1 X104.231 Y90.371 E997.24940
G1 X103.364 Y90.371 E997.46634
G1 X90.371 Y103.364 E1002.05983
G1 X90.371 Y102.496 E1002.27677
G1 X102.496 Y90.371 E1006.56347
G1 X101.628 Y90.371 E1006.78041
G1 X90.371 Y101.628 E1010.76031
G1 X90.371 Y100.760 E1010.97725
G1 X100.760 Y90.371 E1014.65035
G1 X99.893 Y90.371 E1014.86729
G1 X90.371 Y99.893 E1018.23360
G1 X90.371 Y99.025 E1018.45054
G1 X99.025 Y90.371 E1021.51005
G1 X98.157 Y90.371 E1021.72699
G1 X90.371 Y98.157 E1024.47971
G1 X90.371 Y97.289 E1024.69664
G1 X97.289 Y90.371 E1027.14257
G1 X96.422 Y90.371 E1027.35950
G1 X90.371 Y96.422 E1029.49863
G1 X90.371 Y95.554 E1029.71557
G1 X95.554 Y90.371 E1031.54790
G1 X94.686 Y90.371 E1031.76483
G1 X90.371 Y94.686 E1033.29037
G1 X90.371 Y93.818 E1033.50730
G1 X93.818 Y90.371 E1034.72604
G1 X92.951 Y90.371 E1034.94298
G1 X90.371 Y92.951 E1035.85492
G1 X90.371 Y92.083 E1036.07186
G1 X92.083 Y90.371 E1036.67700
G1 X91.215 Y90.371 E1036.89394
G1 X90.371 Y91.215 E1037.19229
G1 Z2.800 F7800.000
G1 X91.215 Y109.629 F7800.000
G1 X90.371 Y108.785 E1037.49064 F4800.000
G1 X90.371 Y107.917 E1037.70757
G1 X92.083 Y109.629 E1038.31272
G1 X92.951 Y109.629 E1038.52966
G1 X90.371 Y107.049 E1039.44160
G1 X90.371 Y106.182 E1039.65853
G1 X93.818 Y109.629 E1040.87727
G1 X94.686 Y109.629 E1041.09421
G1 X90.371 Y105.314 E1042.61974
G1 X90.371 Y104.446 E1042.83668
G1 X95.554 Y109.629 E1044.66901
G1 X96.422 Y109.629 E1044.88595
G1 X90.371 Y103.578 E1047.02507
G1 X90.371 Y102.711 E1047.24201
G1 X97.289 Y109.629 E1049.68793
G1 X98.157 Y109.629 E1049.90487
G1 X90.371 Y101.843 E1052.65758
G1 X90.371 Y100.975 E1052.87452
G1 X99.025 Y109.629 E1055.93403
G1 X99.893 Y109.629 E1056.15097
G1 X90.371 Y100.107 E1059.51728
G1 X90.371 Y99.240 E1059.73422
G1 X100.760 Y109.629 E1063.40733
G1 X101.628 Y109.629 E1063.62426
G1 X90.371 Y98.372 E1067.60416
G1 X90.371 Y97.504 E1067.82110
G1 X102.496 Y109.629 E1072.10780
G1 X103.364 Y109.629 E1072.32474
G1 X90.371 Y96.636 E1076.91823
G1 X90.371 Y95.769 E1077.13517
G1 X104.231 Y109.629 E1082.03546
G1 X105.099 Y109.629 E1082.25240
G1 X90.371 Y94.901 E1087.45949
G1 X90.371 Y94.033 E1087.67642
G1 X105.967 Y109.629 E1093.19031
G1 X106.835 Y109.629 E1093.40724
G1 X90.371 Y93.165 E1099.22792
G1 X90.371 Y92.298 E1099.44486
G1 X107.702 Y109.629 E1105.57233
G1 X108.570 Y109.629 E1105.78927
G1 X90.371 Y91.430 E1112.22354
G1 X90.371 Y90.562 E1112.44048
G1 X109.438 Y109.629 E1119.18155
G1 X109.629 Y108.952 E1119.35737
G1 X91.048 Y90.371 E1125.92659
G1 X91.916 Y90.371 E1126.14353
G1 X109.629 Y108.084 E1132.40596
G1 X109.629 Y107.216 E1132.62289
G1 X92.784 Y90.371 E1138.57852
G1 X93.651 Y90.371 E1138.79546
G1 X109.629 Y106.349 E1144.44430
G1 X109.629 Y105.481 E1144.66123
G1 X94.519 Y90.371 E1150.00327
G1 X95.387 Y90.371 E1150.22021
G1 X109.629 Y104.613 E1155.25545
G1 X109.629 Y103.745 E1155.47239
G1 X96.255 Y90.371 E1160.20083
G1 X97.122 Y90.371 E1160.41777
G1 X109.629 Y102.878 E1164.83942
G1 X109.629 Y102.010 E1165.05636
G1 X97.990 Y90.371 E1169.17121
G1 X98.858 Y90.371 E1169.38815
G1 X109.629 Y101.142 E1173.19621
G1 X109.629 Y100.274 E1173.41314
G1 X99.726 Y90.371 E1176.91440
G1 X100.593 Y90.371 E1177.13134
G1 X109.629 Y99.407 E1180.32581
G1 X109.629 Y98.539 E1180.54274
G1 X101.461 Y90.371 E1183.43041
G1 X102.329 Y90.371 E1183.64735
G1 X109.629 Y97.671 E1186.22822
G1 X109.629 Y96.803 E1186.44516
G1 X103.197 Y90.371 E1188.71924
G1 X104.064 Y90.371 E1188.93617
G1 X109.629 Y95.936 E1190.90346
G1 X109.629 Y95.068 E1191.12039
G1 X104.932 Y90.371 E1192.78088
G1 X105.800 Y90.371 E1192.99781
G1 X109.629 Y94.200 E1194.35150
G1 X109.629 Y93.332 E1194.56844
G1 X106.668 Y90.371 E1195.61533
G1 X107.535 Y90.371 E1195.83227
G1 X109.629 Y92.465 E1196.57237
G1 X109.629 Y91.597 E1196.78930
G1 X108.403 Y90.371 E1197.22260
G1 X109.271 Y90.371 E1197.43954
G1 X109.629 Y90.729 E1197.56604
G1 Z3.200 F7800.000
G1 X109.271 Y109.629 F7800.000
G1 X109.629 Y109.271 E1197.69255 F4800.000
G1 X109.629 Y108.403 E1197.90949
G1 X108.403 Y109.629 E1198.34278
G1 X107.535 Y109.629 E1198.55972
G1 X109.629 Y107.535 E1199.29982
G1 X109.629 Y106.668 E1199.51675
G1 X106.668 Y109.629 E1200.56365
G1 X105.800 Y109.629 E1200.78058
G1 X109.629 Y105.800 E1202.13427
G1 X109.629 Y104.932 E1202.35121
G1 X104.932 Y109.629 E1204.01169
G1 X104.064 Y109.629 E1204.22863
G1 X109.629 Y104.064 E1206.19591
G1 X109.629 Y103.197 E1206.41285
G1 X103.197 Y109.629 E1208.68692
G1 X102.329 Y109.629 E1208.90386
G1 X109.629 Y102.329 E1211.48473
G1 X109.629 Y101.461 E1211.70167
G1 X101.461 Y109.629 E1214.58934
G1 X100.593 Y109.629 E1214.80628
G1 X109.629 Y100.593 E1218.00074
G1 X109.629 Y99.726 E1218.21768
G1 X99.726 Y109.629 E1221.71894
G1 X98.858 Y109.629 E1221.93588
G1 X109.629 Y98.858 E1225.74393
G1 X109.629 Y97.990 E1225.96087
G1 X97.990 Y109.629 E1230.07572
G1 X97.122 Y109.629 E1230.29266
G1 X109.629 Y97.122 E1234.71431
G1 X109.629 Y96.255 E1234.93125
G1 X96.255 Y109.629 E1239.65969
G1 X95.387 Y109.629 E1239.87663
G1 X109.629 Y95.387 E1244.91187
G1 X109.629 Y94.519 E1245.12881
G1 X94.519 Y109.629 E1250.47084
G1 X93.651 Y109.629 E1250.68778
G1 X109.629 Y93.651 E1256.33661
G1 X109.629 Y92.784 E1256.55355
G1 X92.784 Y109.629 E1262.50918
G1 X91.916 Y109.629 E1262.72612
G1 X109.629 Y91.916 E1268.98854
G1 X109.629 Y91.048 E1269.20548
G1 X91.048 Y109.629 E1275.77470
G1 X90.371 Y109.438 E1275.95053
G1 X109.438 Y90.371 E1282.69159
G1 X108.570 Y90.371 E1282.90853
G1 X90.371 Y108.570 E1289.34280
G1 X90.371 Y107.702 E1289.55974
G1 X107.702 Y90.371 E1295.68722
G1 X106.835 Y90.371 E1295.90415
G1 X90.371 Y106.835 E1301.72483
G1 X90.371 Y105.967 E1301.94177
G1 X105.967 Y90.371 E1307.45565
G1 X105.099 Y90.371 E1307.67259
G1 X90.371 Y105.099 E1312.87968
G1 X90.371 Y104.231 E1313.09662
G1 X104.231 Y90.371 E1317.99691
G1 X103.364 Y90.371 E1318.21385
G1 X90.371 Y103.364 E1322.80734
G1 X90.371 Y102.496 E1323.02428
G1 X102.496 Y90.371 E1327.31098
G1 X101.628 Y90.371 E1327.52791
G1 X90.371 Y101.628 E1331.50782
G1 X90.371 Y100.760 E1331.72475
G1 X100.760 Y90.371 E1335.39786
G1 X99.893 Y90.371 E1335.61480
G1 X90.371 Y99.893 E1338.98111
G1 X90.371 Y99.025 E1339.19805
G1 X99.025 Y90.371 E1342.25756
G1 X98.157 Y90.371 E1342.47450
G1 X90.371 Y98.157 E1345.22721
G1 X90.371 Y97.289 E1345.44415
G1 X97.289 Y90.371 E1347.89007
G1 X96.422 Y90.371 E1348.10701
G1 X90.371 Y96.422 E1350.24614
G1 X90.371 Y95.554 E1350.46307
G1 X95.554 Y90.371 E1352.29540
G1 X94.686 Y90.371 E1352.51234
G1 X90.371 Y94.686 E1354.03787
G1 X90.371 Y93.818 E1354.25481
G1 X93.818 Y90.371 E1355.47355
G1 X92.951 Y90.371 E1355.69049
G1 X90.371 Y92.951 E1356.60243
G1 X90.371 Y92.083 E1356.81937
G1 X92.083 Y90.371 E1357.42451
G1 X91.215 Y90.371 E1357.64145
G1 X90.371 Y91.215 E1357.93980
G1 Z3.600 F7800.000
G1 X91.215 Y109.629 F7800.000
G1 X90.371 Y108.785 E1358.23815 F4800.000
G1 X90.371 Y107.917 E1358.45508
G1 X92.083 Y109.629 E1359.06023
G1 X92.951 Y109.629 E1359.27716
G1 X90.371 Y107.049 E1360.18910
G1 X90.371 Y106.182 E1360.40604
G1 X93.818 Y109.629 E1361.62478
G1 X94.686 Y109.629 E1361.84172
G1 X90.371 Y105.314 E1363.36725
G1 X90.371 Y104.446 E1363.58419
G1 X95.554 Y109.629 E1365.41652
G1 X96.422 Y109.629 E1365.63345
G1 X90.371 Y103.578 E1367.77258
G1 X90.371 Y102.711 E1367.98952
G1 X97.289 Y109.629 E1370.43544
G1 X98.157 Y109.629 E1370.65237
G1 X90.371 Y101.843 E1373.40509
G1 X90.371 Y100.975 E1373.62203
G1 X99.025 Y109.629 E1376.68154
G1 X99.893 Y109.629 E1376.89848
G1 X90.371 Y100.107 E1380.26479
G1 X90.371 Y99.240 E1380.48173
G1 X100.760 Y109.629 E1384.15483
G1 X101.628 Y109.629 E1384.37177
G1 X90.371 Y98.372 E1388.35167
G1 X90.371 Y97.504 E1388.56861
G1 X102.496 Y109.629 E1392.85531
G1 X103.364 Y109.629 E1393.07225
G1 X90.371 Y96.636 E1397.66574
G1 X90.371 Y95.769 E1397.88268
G1 X104.231 Y109.629 E1402.78297
G1 X105.099 Y109.629 E1402.99991
G1 X90.371 Y94.901 E1408.20699
G1 X90.371 Y94.033 E1408.42393
G1 X105.967 Y109.629 E1413.93781
G1 X106.835 Y109.629 E1414.15475
G1 X90.371 Y93.165 E1419.97543
G1 X90.371 Y92.298 E1420.19237
G1 X107.702 Y109.629 E1426.31984
G1 X108.570 Y109.629 E1426.53678
G1 X90.371 Y91.430 E1432.97105
G1 X90.371 Y90.562 E1433.18799
G1 X109.438 Y109.629 E1439.92906
G1 X109.629 Y108.952 E1440.10488
G1 X91.048 Y90.371 E1446.67410
G1 X91.916 Y90.371 E1446.89104
G1 X109.629 Y108.084 E1453.15347
G1 X109.629 Y107.216 E1453.37040
G1 X92.784 Y90.371 E1459.32603
G1 X93.651 Y90.371 E1459.54297
G1 X109.629 Y106.349 E1465.19180
G1 X109.629 Y105.481 E1465.40874
G1 X94.519 Y90.371 E1470.75078
G1 X95.387 Y90.371 E1470.96772
G1 X109.629 Y104.613 E1476.00296
G1 X109.629 Y103.745 E1476.21990
G1 X96.255 Y90.371 E1480.94834
G1 X97.122 Y90.371 E1481.16528
G1 X109.629 Y102.878 E1485.58693
G1 X109.629 Y102.010 E1485.80387
G1 X97.990 Y90.371 E1489.91872
G1 X98.858 Y90.371 E1490.13566
G1 X109.629 Y101.142 E1493.94371
G1 X109.629 Y100.274 E1494.16065
G1 X99.726 Y90.371 E1497.66191
G1 X100.593 Y90.371 E1497.87885
G1 X109.629 Y99.407 E1501.07331
G1 X109.629 Y98.539 E1501.29025
G1 X101.461 Y90.371 E1504.17792
G1 X102.329 Y90.371 E1504.39486
G1 X109.629 Y97.671 E1506.97573
G1 X109.629 Y96.803 E1507.19267
G1 X103.197 Y90.371 E1509.46675
G1 X104.064 Y90.371 E1509.68368
G1 X109.629 Y95.936 E1511.65096
G1 X109.629 Y95.068 E1511.86790
G1 X104.932 Y90.371 E1513.52838
G1 X105.800 Y90.371 E1513.74532
G1 X109.629 Y94.200 E1515.09901
G1 X109.629 Y93.332 E1515.31595
G1 X106.668 Y90.371 E1516.36284
G1 X107.535 Y90.371 E1516.57978
G1 X109.629 Y92.465 E1517.31987
G1 X109.629 Y91.597 E1517.53681
G1 X108.403 Y90.371 E1517.97011
G1 X109.271 Y90.371 E1518.18705
G1 X109.629 Y90.729 E1518.31355
G1 Z4.000 F7800.000
G1 X109.271 Y109.629 F7800.000
G1 X109.629 Y109.271 E1518.44006 F4800.000
G1 X109.629 Y108.403 E1518.65699
G1 X108.403 Y109.629 E1519.09029
G1 X107.535 Y109.629 E1519.30723
G1 X109.629 Y107.535 E1520.04733
G1 X109.629 Y106.668 E1520.26426
G1 X106.668 Y109.629 E1521.31115
G1 X105.800 Y109.629 E1521.52809
G1 X109.629 Y105.800 E1522.88178
G1 X109.629 Y104.932 E1523.09872
G1 X104.932 Y109.629 E1524.75920
G1 X104.064 Y109.629 E1524.97614
G1 X109.629 Y104.064 E1526.94342
G1 X109.629 Y103.197 E1527.16036
G1 X103.197 Y109.629 E1529.43443
G1 X102.329 Y109.629 E1529.65137
G1 X109.629 Y102.329 E1532.23224
G1 X109.629 Y101.461 E1532.44918
G1 X101.461 Y109.629 E1535.33685
G1 X100.593 Y109.629 E1535.55378
G1 X109.629 Y100.593 E1538.74825
G1 X109.629 Y99.726 E1538.96519
G1 X99.726 Y109.629 E1542.46645
G1 X98.858 Y109.629 E1542.68338
G1 X109.629 Y98.858 E1546.49144
G1 X109.629 Y97.990 E1546.70838
G1 X97.990 Y109.629 E1550.82323
G1 X97.122 Y109.629 E1551.04017
G1 X109.629 Y97.122 E1555.46182
G1 X109.629 Y96.255 E1555.67875
G1 X96.255 Y109.629 E1560.40720
G1 X95.387 Y109.629 E1560.62414
G1 X109.629 Y95.387 E1565.65938
G1 X109.629 Y94.519 E1565.87632
G1 X94.519 Y109.629 E1571.21835
G1 X93.651 Y109.629 E1571.43529
G1 X109.629 Y93.651 E1577.08412
G1 X109.629 Y92.784 E1577.30106
G1 X92.784 Y109.629 E1583.25669
G1 X91.916 Y109.629 E1583.47363
G1 X109.629 Y91.916 E1589.73605
G1 X109.629 Y91.048 E1589.95299
G1 X91.048 Y109.629 E1596.52221
G1 X90.371 Y109.438 E1596.69803
G1 X109.438 Y90.371 E1603.43910
G1 X108.570 Y90.371 E1603.65604
G1 X90.371 Y108.570 E1610.09031
G1 X90.371 Y107.702 E1610.30725
G1 X107.702 Y90.371 E1616.43473
G1 X106.835 Y90.371 E1616.65166
G1 X90.371 Y106.835 E1622.47234
G1 X90.371 Y105.967 E1622.68928
G1 X105.967 Y90.371 E1628.20316
G1 X105.099 Y90.371 E1628.42010
G1 X90.371 Y105.099 E1633.62719
G1 X90.371 Y104.231 E1633.84412
G1 X104.231 Y90.371 E1638.74442
G1 X103.364 Y90.371 E1638.96135
G1 X90.371 Y103.364 E1643.55485
G1 X90.371 Y102.496 E1643.77179
G1 X102.496 Y90.371 E1648.05848
G1 X101.628 Y90.371 E1648.27542
G1 X90.371 Y101.628 E1652.25532
G1 X90.371 Y100.760 E1652.47226
G1 X100.760 Y90.371 E1656.14537
G1 X99.893 Y90.371 E1656.36231
G1 X90.371 Y99.893 E1659.72862
G1 X90.371 Y99.025 E1659.94555
G1 X99.025 Y90.371 E1663.00507
G1 X98.157 Y90.371 E1663.22200
G1 X90.371 Y98.157 E1665.97472
G1 X90.371 Y97.289 E1666.19166
G1 X97.289 Y90.371 E1668.63758
G1 X96.422 Y90.371 E1668.85452
G1 X90.371 Y96.422 E1670.99365
G1 X90.371 Y95.554 E1671.21058
G1 X95.554 Y90.371 E1673.04291
G1 X94.686 Y90.371 E1673.25985
G1 X90.371 Y94.686 E1674.78538
G1 X90.371 Y93.818 E1675.00232
G1 X93.818 Y90.371 E1676.22106
G1 X92.951 Y90.371 E1676.43800
G1 X90.371 Y92.951 E1677.34994
G1 X90.371 Y92.083 E1677.56687
G1 X92.083 Y90.371 E1678.17202
G1 X91.215 Y90.371 E1678.38896
G1 X90.371 Y91.215 E1678.68731
G1 Z4.400 F7800.000
G1 X91.215 Y109.629 F7800.000
G1 X90.371 Y108.785 E1678.98565 F4800.000
G1 X90.371 Y107.917 E1679.20259
G1 X92.083 Y109.629 E1679.80773
G1 X92.951 Y109.629 E1680.02467
G1 X90.371 Y107.049 E1680.93661
G1 X90.371 Y106.182 E1681.15355
G1 X93.818 Y109.629 E1682.37229
G1 X94.686 Y109.629 E1682.58922
G1 X90.371 Y105.314 E1684.11476
G1 X90.371 Y104.446 E1684.33169
G1 X95.554 Y109.629 E1686.16402
G1 X96.422 Y109.629 E1686.38096
G1 X90.371 Y103.578 E1688.52009
G1 X90.371 Y102.711 E1688.73702
G1 X97.289 Y109.629 E1691.18295
G1 X98.157 Y109.629 E1691.39988
G1 X90.371 Y101.843 E1694.15260
G1 X90.371 Y100.975 E1694.36954
G1 X99.025 Y109.629 E1697.42905
G1 X99.893 Y109.629 E1697.64599
G1 X90.371 Y100.107 E1701.01230
G1 X90.371 Y99.240 E1701.22924
G1 X100.760 Y109.629 E1704.90234
G1 X101.628 Y109.629 E1705.11928
G1 X90.371 Y98.372 E1709.09918
G1 X90.371 Y97.504 E1709.31612
G1 X102.496 Y109.629 E1713.60282
G1 X103.364 Y109.629 E1713.81975
G1 X90.371 Y96.636 E1718.41325
G1 X90.371 Y95.769 E1718.63019
G1 X104.231 Y109.629 E1723.53048
G1 X105.099 Y109.629 E1723.74741
G1 X90.371 Y94.901 E1728.95450
G1 X90.371 Y94.033 E1729.17144
G1 X105.967 Y109.629 E1734.68532
G1 X106.835 Y109.629 E1734.90226
G1 X90.371 Y93.165 E1740.72294
G1 X90.371 Y92.298 E1740.93988
G1 X107.702 Y109.629 E1747.06735
G1 X108.570 Y109.629 E1747.28429
G1 X90.371 Y91.430 E1753.71856
G1 X90.371 Y90.562 E1753.93550
G1 X109.438 Y109.629 E1760.67656
G1 X109.629 Y108.952 E1760.85239
G1 X91.048 Y90.371 E1767.42161
G1 X91.916 Y90.371 E1767.63855
G1 X109.629 Y108.084 E1773.90097
G1 X109.629 Y107.216 E1774.11791
G1 X92.784 Y90.371 E1780.07354
G1 X93.651 Y90.371 E1780.29048
G1 X109.629 Y106.349 E1785.93931
G1 X109.629 Y105.481 E1786.15625
G1 X94.519 Y90.371 E1791.49829
G1 X95.387 Y90.371 E1791.71522
G1 X109.629 Y104.613 E1796.75047
G1 X109.629 Y103.745 E1796.96740
G1 X96.255 Y90.371 E1801.69585
G1 X97.122 Y90.371 E1801.91279
G1 X109.629 Y102.878 E1806.33444
G1 X109.629 Y102.010 E1806.55137
G1 X97.990 Y90.371 E1810.66623
G1 X98.858 Y90.371 E1810.88316
G1 X109.629 Y101.142 E1814.69122
G1 X109.629 Y100.274 E1814.90816
G1 X99.726 Y90.371 E1818.40942
G1 X100.593 Y90.371 E1818.62636
G1 X109.629 Y99.407 E1821.82082
G1 X109.629 Y98.539 E1822.03776
G1 X101.461 Y90.371 E1824.92543
G1 X102.329 Y90.371 E1825.14237
G1 X109.629 Y97.671 E1827.72324
G1 X109.629 Y96.803 E1827.94018
G1 X103.197 Y90.371 E1830.21425
G1 X104.064 Y90.371 E1830.43119
G1 X109.629 Y95.936 E1832.39847
G1 X109.629 Y95.068 E1832.61541
G1 X104.932 Y90.371 E1834.27589
G1 X105.800 Y90.371 E1834.49283
G1 X109.629 Y94.200 E1835.84652
G1 X109.629 Y93.332 E1836.06346
G1 X106.668 Y90.371 E1837.11035
G1 X107.535 Y90.371 E1837.32729
G1 X109.629 Y92.465 E1838.06738
G1 X109.629 Y91.597 E1838.28432
G1 X108.403 Y90.371 E1838.71762
G1 X109.271 Y90.371 E1838.93456
G1 X109.629 Y90.729 E1839.06106
G1 Z4.800 F7800.000
G1 X109.271 Y109.629 F7800.000
G1 X109.629 Y109.271 E1839.18756 F4800.000
G1 X109.629 Y108.403 E1839.40450
G1 X108.403 Y109.629 E1839.83780
G1 X107.535 Y109.629 E1840.05474
G1 X109.629 Y107.535 E1840.79483
G1 X109.629 Y106.668 E1841.01177
G1 X106.668 Y109.629 E1842.05866
G1 X105.800 Y109.629 E1842.27560
G1 X109.629 Y105.800 E1843.62929
G1 X109.629 Y104.932 E1843.84622
G1 X104.932 Y109.629 E1845.50671
G1 X104.064 Y109.629 E1845.72365
G1 X109.629 Y104.064 E1847.69093
G1 X109.629 Y103.197 E1847.90786
G1 X103.197 Y109.629 E1850.18194
G1 X102.329 Y109.629 E1850.39888
G1 X109.629 Y102.329 E1852.97975
G1 X109.629 Y101.461 E1853.19669
G1 X101.461 Y109.629 E1856.08435
G1 X100.593 Y109.629 E1856.30129
G1 X109.629 Y100.593 E1859.49576
G1 X109.629 Y99.726 E1859.71269
G1 X99.726 Y109.629 E1863.21395
G1 X98.858 Y109.629 E1863.43089
G1 X109.629 Y98.858 E1867.23895
G1 X109.629 Y97.990 E1867.45589
G1 X97.990 Y109.629 E1871.57074
G1 X97.122 Y109.629 E1871.78768
G1 X109.629 Y97.122 E1876.20932
G1 X109.629 Y96.255 E1876.42626
G1 X96.255 Y109.629 E1881.15471
G1 X95.387 Y109.629 E1881.37164
G1 X109.629 Y95.387 E1886.40689
G1 X109.629 Y94.519 E1886.62382
G1 X94.519 Y109.629 E1891.96586
G1 X93.651 Y109.629 E1892.18280
G1 X109.629 Y93.651 E1897.83163
G1 X109.629 Y92.784 E1898.04857
G1 X92.784 Y109.629 E1904.00420
G1 X91.916 Y109.629 E1904.22114
G1 X109.629 Y91.916 E1910.48356
G1 X109.629 Y91.048 E1910.70050
G1 X91.048 Y109.629 E1917.26972
G1 X90.371 Y109.438 E1917.44554
G1 X109.438 Y90.371 E1924.18661
G1 X108.570 Y90.371 E1924.40355
G1 X90.371 Y108.570 E1930.83782
G1 X90.371 Y107.702 E1931.05476
G1 X107.702 Y90.371 E1937.18223
G1 X106.835 Y90.371 E1937.39917
G1 X90.371 Y106.835 E1943.21985
G1 X90.371 Y105.967 E1943.43679
G1 X105.967 Y90.371 E1948.95067
G1 X105.099 Y90.371 E1949.16761
G1 X90.371 Y105.099 E1954.37470
G1 X90.371 Y104.231 E1954.59163
G1 X104.231 Y90.371 E1959.49192
G1 X103.364 Y90.371 E1959.70886
G1 X90.371 Y103.364 E1964.30236
G1 X90.371 Y102.496 E1964.51929
G1 X102.496 Y90.371 E1968.80599
G1 X101.628 Y90.371 E1969.02293
G1 X90.371 Y101.628 E1973.00283
G1 X90.371 Y100.760 E1973.21977
G1 X100.760 Y90.371 E1976.89288
G1 X99.893 Y90.371 E1977.10981
G1 X90.371 Y99.893 E1980.47612
G1 X90.371 Y99.025 E1980.69306
G1 X99.025 Y90.371 E1983.75258
G1 X98.157 Y90.371 E1983.96951
G1 X90.371 Y98.157 E1986.72223
G1 X90.371 Y97.289 E1986.93917
G1 X97.289 Y90.371 E1989.38509
G1 X96.422 Y90.371 E1989.60203
G1 X90.371 Y96.422 E1991.74115
G1 X90.371 Y95.554 E1991.95809
G1 X95.554 Y90.371 E1993.79042
G1 X94.686 Y90.371 E1994.00736
G1 X90.371 Y94.686 E1995.53289
G1 X90.371 Y93.818 E1995.74983
G1 X93.818 Y90.371 E1996.96857
G1 X92.951 Y90.371 E1997.18550
G1 X90.371 Y92.951 E1998.09744
G1 X90.371 Y92.083 E1998.31438
G1 X92.083 Y90.371 E1998.91953
G1 X91.215 Y90.371 E1999.13646
G1 X90.371 Y91.215 E1999.43481
G1 Z5.200 F7800.000
G1 X91.215 Y109.629 F7800.000
G1 X90.371 Y108.785 E1999.73316 F4800.000
G1 X90.371 Y107.917 E1999.95010
G1 X92.083 Y109.629 E2000.55524
G1 X92.951 Y109.629 E2000.77218
G1 X90.371 Y107.049 E2001.68412
G1 X90.371 Y106.182 E2001.90106
G1 X93.818 Y109.629 E2003.11980
G1 X94.686 Y109.629 E2003.33673
G1 X90.371 Y105.314 E2004.86227
G1 X90.371 Y104.446 E2005.07920
G1 X95.554 Y109.629 E2006.91153
G1 X96.422 Y109.629 E2007.12847
G1 X90.371 Y103.578 E2009.26759
G1 X90.371 Y102.711 E2009.48453
G1 X97.289 Y109.629 E2011.93045
G1 X98.157 Y109.629 E2012.14739
G1 X90.371 Y101.843 E2014.90011
G1 X90.371 Y100.975 E2015.11705
G1 X99.025 Y109.629 E2018.17656
G1 X99.893 Y109.629 E2018.39350
G1 X90.371 Y100.107 E2021.75981
G1 X90.371 Y99.240 E2021.97674
G1 X100.760 Y109.629 E2025.64985
G1 X101.628 Y109.629 E2025.86679
G1 X90.371 Y98.372 E2029.84669
G1 X90.371 Y97.504 E2030.06363
G1 X102.496 Y109.629 E2034.35032
G1 X103.364 Y109.629 E2034.56726
G1 X90.371 Y96.636 E2039.16076
G1 X90.371 Y95.769 E2039.37769
G1 X104.231 Y109.629 E2044.27798
G1 X105.099 Y109.629 E2044.49492
G1 X90.371 Y94.901 E2049.70201
G1 X90.371 Y94.033 E2049.91895
G1 X105.967 Y109.629 E2055.43283
G1 X106.835 Y109.629 E2055.64977
G1 X90.371 Y93.165 E2061.47045
G1 X90.371 Y92.298 E2061.68738
G1 X107.702 Y109.629 E2067.81486
G1 X108.570 Y109.629 E2068.03180
G1 X90.371 Y91.430 E2074.46607
G1 X90.371 Y90.562 E2074.68301
G1 X109.438 Y109.629 E2081.42407
G1 X109.629 Y108.952 E2081.59990
G1 X91.048 Y90.371 E2088.16912
G1 X91.916 Y90.371 E2088.38606
G1 X109.629 Y108.084 E2094.64848
G1 X109.629 Y107.216 E2094.86542
G1 X92.784 Y90.371 E2100.82105
G1 X93.651 Y90.371 E2101.03799
G1 X109.629 Y106.349 E2106.68682
G1 X109.629 Y105.481 E2106.90376
G1 X94.519 Y90.371 E2112.24580
G1 X95.387 Y90.371 E2112.46273
G1 X109.629 Y104.613 E2117.49797
G1 X109.629 Y103.745 E2117.71491
G1 X96.255 Y90.371 E2122.44336
G1 X97.122 Y90.371 E2122.66029
G1 X109.629 Y102.878 E2127.08194
G1 X109.629 Y102.010 E2127.29888
G1 X97.990 Y90.371 E2131.41373
G1 X98.858 Y90.371 E2131.63067
G1 X109.629 Y101.142 E2135.43873
G1 X109.629 Y100.274 E2135.65567
G1 X99.726 Y90.371 E2139.15693
G1 X100.593 Y90.371 E2139.37387
G1 X109.629 Y99.407 E2142.56833
G1 X109.629 Y98.539 E2142.78527
G1 X101.461 Y90.371 E2145.67294
G1 X102.329 Y90.371 E2145.88987
G1 X109.629 Y97.671 E2148.47075
G1 X109.629 Y96.803 E2148.68768
G1 X103.197 Y90.371 E2150.96176
G1 X104.064 Y90.371 E2151.17870
G1 X109.629 Y95.936 E2153.14598
G1 X109.629 Y95.068 E2153.36292
G1 X104.932 Y90.371 E2155.02340
G1 X105.800 Y90.371 E2155.24034
G1 X109.629 Y94.200 E2156.59403
G1 X109.629 Y93.332 E2156.81096
G1 X106.668 Y90.371 E2157.85786
G1 X107.535 Y90.371 E2158.07479
G1 X109.629 Y92.465 E2158.81489
G1 X109.629 Y91.597 E2159.03183
G1 X108.403 Y90.371 E2159.46513
G1 X109.271 Y90.371 E2159.68206
G1 X109.629 Y90.729 E2159.80857
G1 Z5.600 F7800.000
G1 X109.271 Y109.629 F7800.000
G1 X109.629 Y109.271 E2159.93507 F4800.000
G1 X109.629 Y108.403 E2160.15201
G1 X108.403 Y109.629 E2160.58531
G1 X107.535 Y109.629 E2160.80225
G1 X109.629 Y107.535 E2161.54234
G1 X109.629 Y106.668 E2161.75928
G1 X106.668 Y109.629 E2162.80617
G1 X105.800 Y109.629 E2163.02311
G1 X109.629 Y105.800 E2164.37680
G1 X109.629 Y104.932 E2164.59373
G1 X104.932 Y109.629 E2166.25422
G1 X104.064 Y109.629 E2166.47115
G1 X109.629 Y104.064 E2168.43843
G1 X109.629 Y103.197 E2168.65537
G1 X103.197 Y109.629 E2170.92945
G1 X102.329 Y109.629 E2171.14638
G1 X109.629 Y102.329 E2173.72726
G1 X109.629 Y101.461 E2173.94419
G1 X101.461 Y109.629 E2176.83186
G1 X100.593 Y109.629 E2177.04880
G1 X109.629 Y100.593 E2180.24326
G1 X109.629 Y99.726 E2180.46020
G1 X99.726 Y109.629 E2183.96146
G1 X98.858 Y109.629 E2184.17840
G1 X109.629 Y98.858 E2187.98646
G1 X109.629 Y97.990 E2188.20339
G1 X97.990 Y109.629 E2192.31825
G1 X97.122 Y109.629 E2192.53518
G1 X109.629 Y97.122 E2196.95683
G1 X109.629 Y96.255 E2197.17377
G1 X96.255 Y109.629 E2201.90221
G1 X95.387 Y109.629 E2202.11915
G1 X109.629 Y95.387 E2207.15439
G1 X109.629 Y94.519 E2207.37133
G1 X94.519 Y109.629 E2212.71337
G1 X93.651 Y109.629 E2212.93031
G1 X109.629 Y93.651 E2218.57914
G1 X109.629 Y92.784 E2218.79608
G1 X92.784 Y109.629 E2224.75171
G1 X91.916 Y109.629 E2224.96864
G1 X109.629 Y91.916 E2231.23107
G1 X109.629 Y91.048 E2231.44801
G1 X91.048 Y109.629 E2238.01723
G1 X90.371 Y109.438 E2238.19305
G1 X109.438 Y90.371 E2244.93412
G1 X108.570 Y90.371 E2245.15106
G1 X90.371 Y108.570 E2251.58533
G1 X90.371 Y107.702 E2251.80227
G1 X107.702 Y90.371 E2257.92974
G1 X106.835 Y90.371 E2258.14668
G1 X90.371 Y106.835 E2263.96736
G1 X90.371 Y105.967 E2264.18430
G1 X105.967 Y90.371 E2269.69818
G1 X105.099 Y90.371 E2269.91512
G1 X90.371 Y105.099 E2275.12220
G1 X90.371 Y104.231 E2275.33914
G1 X104.231 Y90.371 E2280.23943
G1 X103.364 Y90.371 E2280.45637
G1 X90.371 Y103.364 E2285.04986
G1 X90.371 Y102.496 E2285.26680
G1 X102.496 Y90.371 E2289.55350
G1 X101.628 Y90.371 E2289.77044
G1 X90.371 Y101.628 E2293.75034
G1 X90.371 Y100.760 E2293.96728
G1 X100.760 Y90.371 E2297.64038
G1 X99.893 Y90.371 E2297.85732
G1 X90.371 Y99.893 E2301.22363
G1 X90.371 Y99.025 E2301.44057
G1 X99.025 Y90.371 E2304.50008
G1 X98.157 Y90.371 E2304.71702
G1 X90.371 Y98.157 E2307.46974
G1 X90.371 Y97.289 E2307.68668
G1 X97.289 Y90.371 E2310.13260
G1 X96.422 Y90.371 E2310.34954
G1 X90.371 Y96.422 E2312.48866
G1 X90.371 Y95.554 E2312.70560
G1 X95.554 Y90.371 E2314.53793
G1 X94.686 Y90.371 E2314.75487
G1 X90.371 Y94.686 E2316.28040
G1 X90.371 Y93.818 E2316.49734
G1 X93.818 Y90.371 E2317.71607
G1 X92.951 Y90.371 E2317.93301
G1 X90.371 Y92.951 E2318.84495
G1 X90.371 Y92.083 E2319.06189
G1 X92.083 Y90.371 E2319.66703
G1 X91.215 Y90.371 E2319.88397
G1 X90.371 Y91.215 E2320.18232
G1 Z6.000 F7800.000
G1 X91.215 Y109.629 F7800.000
G1 X90.371 Y108.785 E2320.48067 F4800.000
G1 X90.371 Y107.917 E2320.69761
G1 X92.083 Y109.629 E2321.30275
G1 X92.951 Y109.629 E2321.51969
G1 X90.371 Y107.049 E2322.43163
G1 X90.371 Y106.182 E2322.64857
G1 X93.818 Y109.629 E2323.86730
G1 X94.686 Y109.629 E2324.08424
G1 X90.371 Y105.314 E2325.60977
G1 X90.371 Y104.446 E2325.82671
G1 X95.554 Y109.629 E2327.65904
G1 X96.422 Y109.629 E2327.87598
G1 X90.371 Y103.578 E2330.01510
G1 X90.371 Y102.711 E2330.23204
G1 X97.289 Y109.629 E2332.67796
G1 X98.157 Y109.629 E2332.89490
G1 X90.371 Y101.843 E2335.64762
G1 X90.371 Y100.975 E2335.86455
G1 X99.025 Y109.629 E2338.92407
G1 X99.893 Y109.629 E2339.14100
G1 X90.371 Y100.107 E2342.50731
G1 X90.371 Y99.240 E2342.72425
G1 X100.760 Y109.629 E2346.39736
G1 X101.628 Y109.629 E2346.61429
G1 X90.371 Y98.372 E2350.59420
G1 X90.371 Y97.504 E2350.81113
G1 X102.496 Y109.629 E2355.09783
G1 X103.364 Y109.629 E2355.31477
G1 X90.371 Y96.636 E2359.90826
G1 X90.371 Y95.769 E2360.12520
G1 X104.231 Y109.629 E2365.02549
G1 X105.099 Y109.629 E2365.24243
G1 X90.371 Y94.901 E2370.44952
G1 X90.371 Y94.033 E2370.66645
G1 X105.967 Y109.629 E2376.18034
G1 X106.835 Y109.629 E2376.39728
G1 X90.371 Y93.165 E2382.21795
G1 X90.371 Y92.298 E2382.43489
G1 X107.702 Y109.629 E2388.56237
G1 X108.570 Y109.629 E2388.77930
G1 X90.371 Y91.430 E2395.21358
G1 X90.371 Y90.562 E2395.43051
G1 X109.438 Y109.629 E2402.17158
G1 X109.629 Y108.952 E2402.34740
G1 X91.048 Y90.371 E2408.91663
G1 X91.916 Y90.371 E2409.13356
G1 X109.629 Y108.084 E2415.39599
G1 X109.629 Y107.216 E2415.61293
G1 X92.784 Y90.371 E2421.56856
G1 X93.651 Y90.371 E2421.78549
G1 X109.629 Y106.349 E2427.43433
G1 X109.629 Y105.481 E2427.65127
G1 X94.519 Y90.371 E2432.99330
G1 X95.387 Y90.371 E2433.21024
G1 X109.629 Y104.613 E2438.24548
G1 X109.629 Y103.745 E2438.46242
G1 X96.255 Y90.371 E2443.19086
G1 X97.122 Y90.371 E2443.40780
G1 X109.629 Y102.878 E2447.82945
G1 X109.629 Y102.010 E2448.04639
G1 X97.990 Y90.371 E2452.16124
G1 X98.858 Y90.371 E2452.37818
G1 X109.629 Y101.142 E2456.18624
G1 X109.629 Y100.274 E2456.40317
G1 X99.726 Y90.371 E2459.90444
G1 X100.593 Y90.371 E2460.12137
G1 X109.629 Y99.407 E2463.31584
G1 X109.629 Y98.539 E2463.53278
G1 X101.461 Y90.371 E2466.42044
G1 X102.329 Y90.371 E2466.63738
G1 X109.629 Y97.671 E2469.21825
G1 X109.629 Y96.803 E2469.43519
G1 X103.197 Y90.371 E2471.70927
G1 X104.064 Y90.371 E2471.92621
G1 X109.629 Y95.936 E2473.89349
G1 X109.629 Y95.068 E2474.11042
G1 X104.932 Y90.371 E2475.77091
G1 X105.800 Y90.371 E2475.98785
G1 X109.629 Y94.200 E2477.34153
G1 X109.629 Y93.332 E2477.55847
G1 X106.668 Y90.371 E2478.60536
G1 X107.535 Y90.371 E2478.82230
G1 X109.629 Y92.465 E2479.56240
G1 X109.629 Y91.597 E2479.77933
G1 X108.403 Y90.371 E2480.21263
G1 X109.271 Y90.371 E2480.42957
G1 X109.629 Y90.729 E2480.55608
G1 Z6.400 F7800.000
G1 X109.271 Y109.629 F7800.000
G1 X109.629 Y109.271 E2480.68258 F4800.000
G1 X109.629 Y108.403 E2480.89952
G1 X108.403 Y109.629 E2481.33282
G1 X107.535 Y109.629 E2481.54975
G1 X109.629 Y107.535 E2482.28985
G1 X109.629 Y106.668 E2482.50679
G1 X106.668 Y109.629 E2483.55368
G1 X105.800 Y109.629 E2483.77062
G1 X109.629 Y105.800 E2485.12430
G1 X109.629 Y104.932 E2485.34124
G1 X104.932 Y109.629 E2487.00172
G1 X104.064 Y109.629 E2487.21866
G1 X109.629 Y104.064 E2489.18594
G1 X109.629 Y103.197 E2489.40288
G1 X103.197 Y109.629 E2491.67695
G1 X102.329 Y109.629 E2491.89389
G1 X109.629 Y102.329 E2494.47476
G1 X109.629 Y101.461 E2494.69170
G1 X101.461 Y109.629 E2497.57937
G1 X100.593 Y109.629 E2497.79631
G1 X109.629 Y100.593 E2500.99077
G1 X109.629 Y99.726 E2501.20771
G1 X99.726 Y109.629 E2504.70897
G1 X98.858 Y109.629 E2504.92591
G1 X109.629 Y98.858 E2508.73396
G1 X109.629 Y97.990 E2508.95090
G1 X97.990 Y109.629 E2513.06575
G1 X97.122 Y109.629 E2513.28269
G1 X109.629 Y97.122 E2517.70434
G1 X109.629 Y96.255 E2517.92128
G1 X96.255 Y109.629 E2522.64972
G1 X95.387 Y109.629 E2522.86666
G1 X109.629 Y95.387 E2527.90190
G1 X109.629 Y94.519 E2528.11884
G1 X94.519 Y109.629 E2533.46088
G1 X93.651 Y109.629 E2533.67781
G1 X109.629 Y93.651 E2539.32665
G1 X109.629 Y92.784 E2539.54358
G1 X92.784 Y109.629 E2545.49921
G1 X91.916 Y109.629 E2545.71615
G1 X109.629 Y91.916 E2551.97858
G1 X109.629 Y91.048 E2552.19551
G1 X91.048 Y109.629 E2558.76474
G1 X90.371 Y109.438 E2558.94056
G1 X109.438 Y90.371 E2565.68163
G1 X108.570 Y90.371 E2565.89856
G1 X90.371 Y108.570 E2572.33284
G1 X90.371 Y107.702 E2572.54977
G1 X107.702 Y90.371 E2578.67725
G1 X106.835 Y90.371 E2578.89419
G1 X90.371 Y106.835 E2584.71487
G1 X90.371 Y105.967 E2584.93180
G1 X105.967 Y90.371 E2590.44569
G1 X105.099 Y90.371 E2590.66262
G1 X90.371 Y105.099 E2595.86971
G1 X90.371 Y104.231 E2596.08665
G1 X104.231 Y90.371 E2600.98694
G1 X103.364 Y90.371 E2601.20388
G1 X90.371 Y103.364 E2605.79737
G1 X90.371 Y102.496 E2606.01431
G1 X102.496 Y90.371 E2610.30101
G1 X101.628 Y90.371 E2610.51795
G1 X90.371 Y101.628 E2614.49785
G1 X90.371 Y100.760 E2614.71479
G1 X100.760 Y90.371 E2618.38789
G1 X99.893 Y90.371 E2618.60483
G1 X90.371 Y99.893 E2621.97114
G1 X90.371 Y99.025 E2622.18808
G1 X99.025 Y90.371 E2625.24759
G1 X98.157 Y90.371 E2625.46453
G1 X90.371 Y98.157 E2628.21725
G1 X90.371 Y97.289 E2628.43418
G1 X97.289 Y90.371 E2630.88011
G1 X96.422 Y90.371 E2631.09704
G1 X90.371 Y96.422 E2633.23617
G1 X90.371 Y95.554 E2633.45311
G1 X95.554 Y90.371 E2635.28544
G1 X94.686 Y90.371 E2635.50237
G1 X90.371 Y94.686 E2637.02791
G1 X90.371 Y93.818 E2637.24484
G1 X93.818 Y90.371 E2638.46358
G1 X92.951 Y90.371 E2638.68052
G1 X90.371 Y92.951 E2639.59246
G1 X90.371 Y92.083 E2639.80940
G1 X92.083 Y90.371 E2640.41454
G1 X91.215 Y90.371 E2640.63148
G1 X90.371 Y91.215 E2640.92983
G1 Z6.800 F7800.000
G1 X91.215 Y109.629 F7800.000
G1 X90.371 Y108.785 E2641.22818 F4800.000
G1 X90.371 Y107.917 E2641.44511
G1 X92.083 Y109.629 E2642.05026
G1 X92.951 Y109.629 E2642.26720
G1 X90.371 Y107.049 E2643.17914
G1 X90.371 Y106.182 E2643.39607
G1 X93.818 Y109.629 E2644.61481
G1 X94.686 Y109.629 E2644.83175
G1 X90.371 Y105.314 E2646.35728
G1 X90.371 Y104.446 E2646.57422
G1 X95.554 Y109.629 E2648.40655
G1 X96.422 Y109.629 E2648.62349
G1 X90.371 Y103.578 E2650.76261
G1 X90.371 Y102.711 E2650.97955
G1 X97.289 Y109.629 E2653.42547
G1 X98.157 Y109.629 E2653.64241
G1 X90.371 Y101.843 E2656.39512
G1 X90.371 Y100.975 E2656.61206
G1 X99.025 Y109.629 E2659.67157
G1 X99.893 Y109.629 E2659.88851
G1 X90.371 Y100.107 E2663.25482
G1 X90.371 Y99.240 E2663.47176
G1 X100.760 Y109.629 E2667.14487
G1 X101.628 Y109.629 E2667.36180
G1 X90.371 Y98.372 E2671.34170
G1 X90.371 Y97.504 E2671.55864
G1 X102.496 Y109.629 E2675.84534
G1 X103.364 Y109.629 E2676.06228
G1 X90.371 Y96.636 E2680.65577
G1 X90.371 Y95.769 E2680.87271
G1 X104.231 Y109.629 E2685.77300
G1 X105.099 Y109.629 E2685.98994
G1 X90.371 Y94.901 E2691.19702
G1 X90.371 Y94.033 E2691.41396
G1 X105.967 Y109.629 E2696.92785
G1 X106.835 Y109.629 E2697.14478
G1 X90.371 Y93.165 E2702.96546
G1 X90.371 Y92.298 E2703.18240
G1 X107.702 Y109.629 E2709.30987
G1 X108.570 Y109.629 E2709.52681
G1 X90.371 Y91.430 E2715.96108
G1 X90.371 Y90.562 E2716.17802
G1 X109.438 Y109.629 E2722.91909
G1 X109.629 Y108.952 E2723.09491
G1 X91.048 Y90.371 E2729.66413
G1 X91.916 Y90.371 E2729.88107
G1 X109.629 Y108.084 E2736.14350
G1 X109.629 Y107.216 E2736.36043
G1 X92.784 Y90.371 E2742.31606
G1 X93.651 Y90.371 E2742.53300
G1 X109.629 Y106.349 E2748.18184
G1 X109.629 Y105.481 E2748.39877
G1 X94.519 Y90.371 E2753.74081
G1 X95.387 Y90.371 E2753.95775
G1 X109.629 Y104.613 E2758.99299
G1 X109.629 Y103.745 E2759.20993
G1 X96.255 Y90.371 E2763.93837
G1 X97.122 Y90.371 E2764.15531
G1 X109.629 Y102.878 E2768.57696
G1 X109.629 Y102.010 E2768.79390
G1 X97.990 Y90.371 E2772.90875
G1 X98.858 Y90.371 E2773.12569
G1 X109.629 Y101.142 E2776.93375
G1 X109.629 Y100.274 E2777.15068
G1 X99.726 Y90.371 E2780.65194
G1 X100.593 Y90.371 E2780.86888
G1 X109.629 Y99.407 E2784.06335
G1 X109.629 Y98.539 E2784.28028
G1 X101.461 Y90.371 E2787.16795
G1 X102.329 Y90.371 E2787.38489
G1 X109.629 Y97.671 E2789.96576
G1 X109.629 Y96.803 E2790.18270
G1 X103.197 Y90.371 E2792.45678
G1 X104.064 Y90.371 E2792.67371
G1 X109.629 Y95.936 E2794.64099
G1 X109.629 Y95.068 E2794.85793
G1 X104.932 Y90.371 E2796.51842
G1 X105.800 Y90.371 E2796.73535
G1 X109.629 Y94.200 E2798.08904
G1 X109.629 Y93.332 E2798.30598
G1 X106.668 Y90.371 E2799.35287
G1 X107.535 Y90.371 E2799.56981
G1 X109.629 Y92.465 E2800.30991
G1 X109.629 Y91.597 E2800.52684
G1 X108.403 Y90.371 E2800.96014
G1 X109.271 Y90.371 E2801.17708
G1 X109.629 Y90.729 E2801.30358
G1 Z7.200 F7800.000
G1 X109.271 Y109.629 F7800.000
G1 X109.629 Y109.271 E2801.43009 F4800.000
G1 X109.629 Y108.403 E2801.64702
G1 X108.403 Y109.629 E2802.08032
G1 X107.535 Y109.629 E2802.29726
G1 X109.629 Y107.535 E2803.03736
G1 X109.629 Y106.668 E2803.25429
G1 X106.668 Y109.629 E2804.30119
G1 X105.800 Y109.629 E2804.51812
G1 X109.629 Y105.800 E2805.87181
G1 X109.629 Y104.932 E2806.08875
G1 X104.932 Y109.629 E2807.74923
G1 X104.064 Y109.629 E2807.96617
G1 X109.629 Y104.064 E2809.93345
G1 X109.629 Y103.197 E2810.15039
G1 X103.197 Y109.629 E2812.42446
G1 X102.329 Y109.629 E2812.64140
G1 X109.629 Y102.329 E2815.22227
G1 X109.629 Y101.461 E2815.43921
G1 X101.461 Y109.629 E2818.32688
G1 X100.593 Y109.629 E2818.54382
G1 X109.629 Y100.593 E2821.73828
G1 X109.629 Y99.726 E2821.95522
G1 X99.726 Y109.629 E2825.45648
G1 X98.858 Y109.629 E2825.67342
G1 X109.629 Y98.858 E2829.48147
G1 X109.629 Y97.990 E2829.69841
G1 X97.990 Y109.629 E2833.81326
G1 X97.122 Y109.629 E2834.03020
G1 X109.629 Y97.122 E2838.45185
G1 X109.629 Y96.255 E2838.66879
G1 X96.255 Y109.629 E2843.39723
G1 X95.387 Y109.629 E2843.61417
G1 X109.629 Y95.387 E2848.64941
G1 X109.629 Y94.519 E2848.86635
G1 X94.519 Y109.629 E2854.20838
G1 X93.651 Y109.629 E2854.42532
G1 X109.629 Y93.651 E2860.07415
G1 X109.629 Y92.784 E2860.29109
G1 X92.784 Y109.629 E2866.24672
G1 X91.916 Y109.629 E2866.46366
G1 X109.629 Y91.916 E2872.72608
G1 X109.629 Y91.048 E2872.94302
G1 X91.048 Y109.629 E2879.51224
G1 X90.371 Y109.438 E2879.68807
G1 X109.438 Y90.371 E2886.42913
G1 X108.570 Y90.371 E2886.64607
G1 X90.371 Y108.570 E2893.08034
G1 X90.371 Y107.702 E2893.29728
G1 X107.702 Y90.371 E2899.42476
G1 X106.835 Y90.371 E2899.64169
G1 X90.371 Y106.835 E2905.46237
G1 X90.371 Y105.967 E2905.67931
G1 X105.967 Y90.371 E2911.19319
G1 X105.099 Y90.371 E2911.41013
G1 X90.371 Y105.099 E2916.61722
G1 X90.371 Y104.231 E2916.83416
G1 X104.231 Y90.371 E2921.73445
G1 X103.364 Y90.371 E2921.95138
G1 X90.371 Y103.364 E2926.54488
G1 X90.371 Y102.496 E2926.76182
G1 X102.496 Y90.371 E2931.04852
G1 X101.628 Y90.371 E2931.26545
G1 X90.371 Y101.628 E2935.24536
G1 X90.371 Y100.760 E2935.46229
G1 X100.760 Y90.371 E2939.13540
G1 X99.893 Y90.371 E2939.35234
G1 X90.371 Y99.893 E2942.71865
G1 X90.371 Y99.025 E2942.93559
G1 X99.025 Y90.371 E2945.99510
G1 X98.157 Y90.371 E2946.21204
G1 X90.371 Y98.157 E2948.96475
G1 X90.371 Y97.289 E2949.18169
G1 X97.289 Y90.371 E2951.62761
G1 X96.422 Y90.371 E2951.84455
G1 X90.371 Y96.422 E2953.98368
G1 X90.371 Y95.554 E2954.20061
G1 X95.554 Y90.371 E2956.03294
G1 X94.686 Y90.371 E2956.24988
G1 X90.371 Y94.686 E2957.77541
G1 X90.371 Y93.818 E2957.99235
G1 X93.818 Y90.371 E2959.21109
G1 X92.951 Y90.371 E2959.42803
G1 X90.371 Y92.951 E2960.33997
G1 X90.371 Y92.083 E2960.55691
G1 X92.083 Y90.371 E2961.16205
G1 X91.215 Y90.371 E2961.37899
G1 X90.371 Y91.215 E2961.67734
G1 Z7.600 F7800.000
G1 X91.215 Y109.629 F7800.000
G1 X90.371 Y108.785 E2961.97568 F4800.000
G1 X90.371 Y107.917 E2962.19262
G1 X92.083 Y109.629 E2962.79777
G1 X92.951 Y109.629 E2963.01470
G1 X90.371 Y107.049 E2963.92664
G1 X90.371 Y106.182 E2964.14358
G1 X93.818 Y109.629 E2965.36232
G1 X94.686 Y109.629 E2965.57926
G1 X90.371 Y105.314 E2967.10479
G1 X90.371 Y104.446 E2967.32173
G1 X95.554 Y109.629 E2969.15406
G1 X96.422 Y109.629 E2969.37099
G1 X90.371 Y103.578 E2971.51012
G1 X90.371 Y102.711 E2971.72706
G1 X97.289 Y109.629 E2974.17298
G1 X98.157 Y109.629 E2974.38991
G1 X90.371 Y101.843 E2977.14263
G1 X90.371 Y100.975 E2977.35957
G1 X99.025 Y109.629 E2980.41908
G1 X99.893 Y109.629 E2980.63602
G1 X90.371 Y100.107 E2984.00233
G1 X90.371 Y99.240 E2984.21927
G1 X100.760 Y109.629 E2987.89237
G1 X101.628 Y109.629 E2988.10931
G1 X90.371 Y98.372 E2992.08921
G1 X90.371 Y97.504 E2992.30615
G1 X102.496 Y109.629 E2996.59285
G1 X103.364 Y109.629 E2996.80979
G1 X90.371 Y96.636 E3001.40328
G1 X90.371 Y95.769 E3001.62022
G1 X104.231 Y109.629 E3006.52051
G1 X105.099 Y109.629 E3006.73745
G1 X90.371 Y94.901 E3011.94453
G1 X90.371 Y94.033 E3012.16147
G1 X105.967 Y109.629 E3017.67535
G1 X106.835 Y109.629 E3017.89229
G1 X90.371 Y93.165 E3023.71297
G1 X90.371 Y92.298 E3023.92991
G1 X107.702 Y109.629 E3030.05738
G1 X108.570 Y109.629 E3030.27432
G1 X90.371 Y91.430 E3036.70859
G1 X90.371 Y90.562 E3036.92553
G1 X109.438 Y109.629 E3043.66660
G1 X109.629 Y108.952 E3043.84242
G1 X91.048 Y90.371 E3050.41164
G1 X91.916 Y90.371 E3050.62858
G1 X109.629 Y108.084 E3056.89100
G1 X109.629 Y107.216 E3057.10794
G1 X92.784 Y90.371 E3063.06357
G1 X93.651 Y90.371 E3063.28051
G1 X109.629 Y106.349 E3068.92934
G1 X109.629 Y105.481 E3069.14628
G1 X94.519 Y90.371 E3074.48832
G1 X95.387 Y90.371 E3074.70526
G1 X109.629 Y104.613 E3079.74050
G1 X109.629 Y103.745 E3079.95744
G1 X96.255 Y90.371 E3084.68588
G1 X97.122 Y90.371 E3084.90282
G1 X109.629 Y102.878 E3089.32447
G1 X109.629 Y102.010 E3089.54141
G1 X97.990 Y90.371 E3093.65626
G1 X98.858 Y90.371 E3093.87320
G1 X109.629 Y101.142 E3097.68125
G1 X109.629 Y100.274 E3097.89819
G1 X99.726 Y90.371 E3101.39945
G1 X100.593 Y90.371 E3101.61639
G1 X109.629 Y99.407 E3104.81085
G1 X109.629 Y98.539 E3105.02779
G1 X101.461 Y90.371 E3107.91546
G1 X102.329 Y90.371 E3108.13240
G1 X109.629 Y97.671 E3110.71327
G1 X109.629 Y96.803 E3110.93021
G1 X103.197 Y90.371 E3113.20428
G1 X104.064 Y90.371 E3113.42122
G1 X109.629 Y95.936 E3115.38850
G1 X109.629 Y95.068 E3115.60544
G1 X104.932 Y90.371 E3117.26592
G1 X105.800 Y90.371 E3117.48286
G1 X109.629 Y94.200 E3118.83655
G1 X109.629 Y93.332 E3119.05349
G1 X106.668 Y90.371 E3120.10038
G1 X107.535 Y90.371 E3120.31732
G1 X109.629 Y92.465 E3121.05741
G1 X109.629 Y91.597 E3121.27435
G1 X108.403 Y90.371 E3121.70765
G1 X109.271 Y90.371 E3121.92459
G1 X109.629 Y90.729 E3122.05109
G1 Z8.000 F7800.000
G1 X109.271 Y109.629 F7800.000
G1 X109.629 Y109.271 E3122.17759 F4800.000
G1 X109.629 Y108.403 E3122.39453
G1 X108.403 Y109.629 E3122.82783
G1 X107.535 Y109.629 E3123.04477
G1 X109.629 Y107.535 E3123.78486
G1 X109.629 Y106.668 E3124.00180
G1 X106.668 Y109.629 E3125.04869
G1 X105.800 Y109.629 E3125.26563
G1 X109.629 Y105.800 E3126.61932
G1 X109.629 Y104.932 E3126.83626
G1 X104.932 Y109.629 E3128.49674
G1 X104.064 Y109.629 E3128.71368
G1 X109.629 Y104.064 E3130.68096
G1 X109.629 Y103.197 E3130.89789
G1 X103.197 Y109.629 E3133.17197
G1 X102.329 Y109.629 E3133.38891
G1 X109.629 Y102.329 E3135.96978
G1 X109.629 Y101.461 E3136.18672
G1 X101.461 Y109.629 E3139.07439
G1 X100.593 Y109.629 E3139.29132
G1 X109.629 Y100.593 E3142.48579
G1 X109.629 Y99.726 E3142.70273
G1 X99.726 Y109.629 E3146.20399
G1 X98.858 Y109.629 E3146.42092
G1 X109.629 Y98.858 E3150.22898
G1 X109.629 Y97.990 E3150.44592
G1 X97.990 Y109.629 E3154.56077
G1 X97.122 Y109.629 E3154.77771
G1 X109.629 Y97.122 E3159.19936
G1 X109.629 Y96.255 E3159.41629
G1 X96.255 Y109.629 E3164.14474
G1 X95.387 Y109.629 E3164.36168
G1 X109.629 Y95.387 E3169.39692
G1 X109.629 Y94.519 E3169.61385
G1 X94.519 Y109.629 E3174.95589
G1 X93.651 Y109.629 E3175.17283
G1 X109.629 Y93.651 E3180.82166
G1 X109.629 Y92.784 E3181.03860
G1 X92.784 Y109.629 E3186.99423
G1 X91.916 Y109.629 E3187.21117
G1 X109.629 Y91.916 E3193.47359
G1 X109.629 Y91.048 E3193.69053
G1 X91.048 Y109.629 E3200.25975
G1 X90.371 Y109.438 E3200.43557
G1 X109.438 Y90.371 E3207.17664
G1 X108.570 Y90.371 E3207.39358
G1 X90.371 Y108.570 E3213.82785
G1 X90.371 Y107.702 E3214.04479
G1 X107.702 Y90.371 E3220.17226
G1 X106.835 Y90.371 E3220.38920
G1 X90.371 Y106.835 E3226.20988
G1 X90.371 Y105.967 E3226.42682
G1 X105.967 Y90.371 E3231.94070
G1 X105.099 Y90.371 E3232.15764
G1 X90.371 Y105.099 E3237.36473
G1 X90.371 Y104.231 E3237.58166
G1 X104.231 Y90.371 E3242.48196
G1 X103.364 Y90.371 E3242.69889
G1 X90.371 Y103.364 E3247.29239
G1 X90.371 Y102.496 E3247.50933
G1 X102.496 Y90.371 E3251.79602
G1 X101.628 Y90.371 E3252.01296
G1 X90.371 Y101.628 E3255.99286
G1 X90.371 Y100.760 E3256.20980
G1 X100.760 Y90.371 E3259.88291
G1 X99.893 Y90.371 E3260.09985
G1 X90.371 Y99.893 E3263.46616
G1 X90.371 Y99.025 E3263.68309
G1 X99.025 Y90.371 E3266.74261
G1 X98.157 Y90.371 E3266.95954
G1 X90.371 Y98.157 E3269.71226
G1 X90.371 Y97.289 E3269.92920
G1 X97.289 Y90.371 E3272.37512
G1 X96.422 Y90.371 E3272.59206
G1 X90.371 Y96.422 E3274.73118
G1 X90.371 Y95.554 E3274.94812
G1 X95.554 Y90.371 E3276.78045
G1 X94.686 Y90.371 E3276.99739
G1 X90.371 Y94.686 E3278.52292
G1 X90.371 Y93.818 E3278.73986
G1 X93.818 Y90.371 E3279.95860
G1 X92.951 Y90.371 E3280.17554
G1 X90.371 Y92.951 E3281.08748
G1 X90.371 Y92.083 E3281.30441
G1 X92.083 Y90.371 E3281.90956
G1 X91.215 Y90.371 E3282.12650
G1 X90.371 Y91.215 E3282.42484
G1 Z8.400 F7800.000
G1 X91.215 Y109.629 F7800.000
G1 X90.371 Y108.785 E3282.72319 F4800.000
G1 X90.371 Y107.917 E3282.94013
G1 X92.083 Y109.629 E3283.54527
G1 X92.951 Y109.629 E3283.76221
G1 X90.371 Y107.049 E3284.67415
G1 X90.371 Y106.182 E3284.89109
G1 X93.818 Y109.629 E3286.10983
G1 X94.686 Y109.629 E3286.32676
G1 X90.371 Y105.314 E3287.85230
G1 X90.371 Y104.446 E3288.06923
G1 X95.554 Y109.629 E3289.90156
G1 X96.422 Y109.629 E3290.11850
G1 X90.371 Y103.578 E3292.25763
G1 X90.371 Y102.711 E3292.47456
G1 X97.289 Y109.629 E3294.92048
G1 X98.157 Y109.629 E3295.13742
G1 X90.371 Y101.843 E3297.89014
G1 X90.371 Y100.975 E3298.10708
G1 X99.025 Y109.629 E3301.16659
G1 X99.893 Y109.629 E3301.38353
G1 X90.371 Y100.107 E3304.74984
G1 X90.371 Y99.240 E3304.96678
G1 X100.760 Y109.629 E3308.63988
G1 X101.628 Y109.629 E3308.85682
G1 X90.371 Y98.372 E3312.83672
G1 X90.371 Y97.504 E3313.05366
G1 X102.496 Y109.629 E3317.34036
G1 X103.364 Y109.629 E3317.55729
G1 X90.371 Y96.636 E3322.15079
G1 X90.371 Y95.769 E3322.36773
G1 X104.231 Y109.629 E3327.26802
G1 X105.099 Y109.629 E3327.48495
G1 X90.371 Y94.901 E3332.69204
G1 X90.371 Y94.033 E3332.90898
G1 X105.967 Y109.629 E3338.42286
G1 X106.835 Y109.629 E3338.63980
G1 X90.371 Y93.165 E3344.46048
G1 X90.371 Y92.298 E3344.67742
G1 X107.702 Y109.629 E3350.80489
G1 X108.570 Y109.629 E3351.02183
G1 X90.371 Y91.430 E3357.45610
G1 X90.371 Y90.562 E3357.67304
G1 X109.438 Y109.629 E3364.41410
G1 X109.629 Y108.952 E3364.58993
G1 X91.048 Y90.371 E3371.15915
G1 X91.916 Y90.371 E3371.37609
G1 X109.629 Y108.084 E3377.63851
G1 X109.629 Y107.216 E3377.85545
G1 X92.784 Y90.371 E3383.81108
G1 X93.651 Y90.371 E3384.02802
G1 X109.629 Y106.349 E3389.67685
G1 X109.629 Y105.481 E3389.89379
G1 X94.519 Y90.371 E3395.23583
G1 X95.387 Y90.371 E3395.45276
G1 X109.629 Y104.613 E3400.48801
G1 X109.629 Y103.745 E3400.70494
G1 X96.255 Y90.371 E3405.43339
G1 X97.122 Y90.371 E3405.65033
G1 X109.629 Y102.878 E3410.07198
G1 X109.629 Y102.010 E3410.28891
G1 X97.990 Y90.371 E3414.40377
G1 X98.858 Y90.371 E3414.62070
G1 X109.629 Y101.142 E3418.42876
G1 X109.629 Y100.274 E3418.64570
G1 X99.726 Y90.371 E3422.14696
G1 X100.593 Y90.371 E3422.36390
G1 X109.629 Y99.407 E3425.55836
G1 X109.629 Y98.539 E3425.77530
G1 X101.461 Y90.371 E3428.66297
G1 X102.329 Y90.371 E3428.87991
G1 X109.629 Y97.671 E3431.46078
G1 X109.629 Y96.803 E3431.67772
G1 X103.197 Y90.371 E3433.95179
G1 X104.064 Y90.371 E3434.16873
G1 X109.629 Y95.936 E3436.13601
G1 X109.629 Y95.068 E3436.35295
G1 X104.932 Y90.371 E3438.01343
G1 X105.800 Y90.371 E3438.23037
G1 X109.629 Y94.200 E3439.58406
G1 X109.629 Y93.332 E3439.80100
G1 X106.668 Y90.371 E3440.84789
G1 X107.535 Y90.371 E3441.06483
G1 X109.629 Y92.465 E3441.80492
G1 X109.629 Y91.597 E3442.02186
G1 X108.403 Y90.371 E3442.45516
G1 X109.271 Y90.371 E3442.67210
G1 X109.629 Y90.729 E3442.79860
G1 Z8.800 F7800.000
G1 X109.271 Y109.629 F7800.000
G1 X109.629 Y109.271 E3442.92510 F4800.000
G1 X109.629 Y108.403 E3443.14204
G1 X108.403 Y109.629 E3443.57534
G1 X107.535 Y109.629 E3443.79228
G1 X109.629 Y107.535 E3444.53237
G1 X109.629 Y106.668 E3444.74931
G1 X106.668 Y109.629 E3445.79620
G1 X105.800 Y109.629 E3446.01314
G1 X109.629 Y105.800 E3447.36683
G1 X109.629 Y104.932 E3447.58376
G1 X104.932 Y109.629 E3449.24425
G1 X104.064 Y109.629 E3449.46119
G1 X109.629 Y104.064 E3451.42847
G1 X109.629 Y103.197 E3451.64540
G1 X103.197 Y109.629 E3453.91948
G1 X102.329 Y109.629 E3454.13642
G1 X109.629 Y102.329 E3456.71729
G1 X109.629 Y101.461 E3456.93423
G1 X101.461 Y109.629 E3459.82189
G1 X100.593 Y109.629 E3460.03883
G1 X109.629 Y100.593 E3463.23330
G1 X109.629 Y99.726 E3463.45023
G1 X99.726 Y109.629 E3466.95149
G1 X98.858 Y109.629 E3467.16843
G1 X109.629 Y98.858 E3470.97649
G1 X109.629 Y97.990 E3471.19343
G1 X97.990 Y109.629 E3475.30828
G1 X97.122 Y109.629 E3475.52522
G1 X109.629 Y97.122 E3479.94686
G1 X109.629 Y96.255 E3480.16380
G1 X96.255 Y109.629 E3484.89225
G1 X95.387 Y109.629 E3485.10918
G1 X109.629 Y95.387 E3490.14442
G1 X109.629 Y94.519 E3490.36136
G1 X94.519 Y109.629 E3495.70340
G1 X93.651 Y109.629 E3495.92034
G1 X109.629 Y93.651 E3501.56917
G1 X109.629 Y92.784 E3501.78611
G1 X92.784 Y109.629 E3507.74174
G1 X91.916 Y109.629 E3507.95867
G1 X109.629 Y91.916 E3514.22110
G1 X109.629 Y91.048 E3514.43804
G1 X91.048 Y109.629 E3521.00726
G1 X90.371 Y109.438 E3521.18308
G1 X109.438 Y90.371 E3527.92415
G1 X108.570 Y90.371 E3528.14109
G1 X90.371 Y108.570 E3534.57536
G1 X90.371 Y107.702 E3534.79230
G1 X107.702 Y90.371 E3540.91977
G1 X106.835 Y90.371 E3541.13671
G1 X90.371 Y106.835 E3546.95739
G1 X90.371 Y105.967 E3547.17433
G1 X105.967 Y90.371 E3552.68821
G1 X105.099 Y90.371 E3552.90515
G1 X90.371 Y105.099 E3558.11223
G1 X90.371 Y104.231 E3558.32917
G1 X104.231 Y90.371 E3563.22946
G1 X103.364 Y90.371 E3563.44640
G1 X90.371 Y103.364 E3568.03990
G1 X90.371 Y102.496 E3568.25683
G1 X102.496 Y90.371 E3572.54353
G1 X101.628 Y90.371 E3572.76047
G1 X90.371 Y101.628 E3576.74037
G1 X90.371 Y100.760 E3576.95731
G1 X100.760 Y90.371 E3580.63042
G1 X99.893 Y90.371 E3580.84735
G1 X90.371 Y99.893 E3584.21366
G1 X90.371 Y99.025 E3584.43060
G1 X99.025 Y90.371 E3587.49011
G1 X98.157 Y90.371 E3587.70705
G1 X90.371 Y98.157 E3590.45977
G1 X90.371 Y97.289 E3590.67671
G1 X97.289 Y90.371 E3593.12263
G1 X96.422 Y90.371 E3593.33957
G1 X90.371 Y96.422 E3595.47869
G1 X90.371 Y95.554 E3595.69563
G1 X95.554 Y90.371 E3597.52796
G1 X94.686 Y90.371 E3597.74490
G1 X90.371 Y94.686 E3599.27043
G1 X90.371 Y93.818 E3599.48737
G1 X93.818 Y90.371 E3600.70611
G1 X92.951 Y90.371 E3600.92304
G1 X90.371 Y92.951 E3601.83498
G1 X90.371 Y92.083 E3602.05192
G1 X92.083 Y90.371 E3602.65707
G1 X91.215 Y90.371 E3602.87400
G1 X90.371 Y91.215 E3603.17235
G1 Z9.200 F7800.000
G1 X91.215 Y109.629 F7800.000
G1 X90.371 Y108.785 E3603.47070 F4800.000
G1 X90.371 Y107.917 E3603.68764
G1 X92.083 Y109.629 E3604.29278
G1 X92.951 Y109.629 E3604.50972
G1 X90.371 Y107.049 E3605.42166
G1 X90.371 Y106.182 E3605.63860
G1 X93.818 Y109.629 E3606.85733
G1 X94.686 Y109.629 E3607.07427
G1 X90.371 Y105.314 E3608.59981
G1 X90.371 Y104.446 E3608.81674
G1 X95.554 Y109.629 E3610.64907
G1 X96.422 Y109.629 E3610.86601
G1 X90.371 Y103.578 E3613.00513
G1 X90.371 Y102.711 E3613.22207
G1 X97.289 Y109.629 E3615.66799
G1 X98.157 Y109.629 E3615.88493
G1 X90.371 Y101.843 E3618.63765
G1 X90.371 Y100.975 E3618.85458
G1 X99.025 Y109.629 E3621.91410
G1 X99.893 Y109.629 E3622.13104
G1 X90.371 Y100.107 E3625.49735
G1 X90.371 Y99.240 E3625.71428
G1 X100.760 Y109.629 E3629.38739
G1 X101.628 Y109.629 E3629.60433
G1 X90.371 Y98.372 E3633.58423
G1 X90.371 Y97.504 E3633.80117
G1 X102.496 Y109.629 E3638.08786
G1 X103.364 Y109.629 E3638.30480
G1 X90.371 Y96.636 E3642.89830
G1 X90.371 Y95.769 E3643.11523
G1 X104.231 Y109.629 E3648.01552
G1 X105.099 Y109.629 E3648.23246
G1 X90.371 Y94.901 E3653.43955
G1 X90.371 Y94.033 E3653.65649
G1 X105.967 Y109.629 E3659.17037
G1 X106.835 Y109.629 E3659.38731
G1 X90.371 Y93.165 E3665.20799
G1 X90.371 Y92.298 E3665.42492
G1 X107.702 Y109.629 E3671.55240
G1 X108.570 Y109.629 E3671.76934
G1 X90.371 Y91.430 E3678.20361
G1 X90.371 Y90.562 E3678.42054
G1 X109.438 Y109.629 E3685.16161
G1 X109.629 Y108.952 E3685.33743
G1 X91.048 Y90.371 E3691.90666
G1 X91.916 Y90.371 E3692.12359
G1 X109.629 Y108.084 E3698.38602
G1 X109.629 Y107.216 E3698.60296
G1 X92.784 Y90.371 E3704.55859
G1 X93.651 Y90.371 E3704.77553
G1 X109.629 Y106.349 E3710.42436
G1 X109.629 Y105.481 E3710.64130
G1 X94.519 Y90.371 E3715.98333
G1 X95.387 Y90.371 E3716.20027
G1 X109.629 Y104.613 E3721.23551
G1 X109.629 Y103.745 E3721.45245
G1 X96.255 Y90.371 E3726.18090
G1 X97.122 Y90.371 E3726.39783
G1 X109.629 Y102.878 E3730.81948
G1 X109.629 Y102.010 E3731.03642
G1 X97.990 Y90.371 E3735.15127
G1 X98.858 Y90.371 E3735.36821
G1 X109.629 Y101.142 E3739.17627
G1 X109.629 Y100.274 E3739.39321
G1 X99.726 Y90.371 E3742.89447
G1 X100.593 Y90.371 E3743.11141
G1 X109.629 Y99.407 E3746.30587
G1 X109.629 Y98.539 E3746.52281
G1 X101.461 Y90.371 E3749.41048
G1 X102.329 Y90.371 E3749.62741
G1 X109.629 Y97.671 E3752.20829
G1 X109.629 Y96.803 E3752.42522
G1 X103.197 Y90.371 E3754.69930
G1 X104.064 Y90.371 E3754.91624
G1 X109.629 Y95.936 E3756.88352
G1 X109.629 Y95.068 E3757.10046
G1 X104.932 Y90.371 E3758.76094
G1 X105.800 Y90.371 E3758.97788
G1 X109.629 Y94.200 E3760.33157
G1 X109.629 Y93.332 E3760.54850
G1 X106.668 Y90.371 E3761.59540
G1 X107.535 Y90.371 E3761.81233
G1 X109.629 Y92.465 E3762.55243
G1 X109.629 Y91.597 E3762.76937
G1 X108.403 Y90.371 E3763.20267
G1 X109.271 Y90.371 E3763.41960
G1 X109.629 Y90.729 E3763.54611
G1 Z9.600 F7800.000
G1 X109.271 Y109.629 F7800.000
G1 X109.629 Y109.271 E3763.67261 F4800.000
G1 X109.629 Y108.403 E3763.88955
G1 X108.403 Y109.629 E3764.32285
G1 X107.535 Y109.629 E3764.53979
G1 X109.629 Y107.535 E3765.27988
G1 X109.629 Y106.668 E3765.49682
G1 X106.668 Y109.629 E3766.54371
G1 X105.800 Y109.629 E3766.76065
G1 X109.629 Y105.800 E3768.11433
G1 X109.629 Y104.932 E3768.33127
G1 X104.932 Y109.629 E3769.99176
G1 X104.064 Y109.629 E3770.20869
G1 X109.629 Y104.064 E3772.17597
G1 X109.629 Y103.197 E3772.39291
G1 X103.197 Y109.629 E3774.66699
G1 X102.329 Y109.629 E3774.88392
G1 X109.629 Y102.329 E3777.46480
G1 X109.629 Y101.461 E3777.68173
G1 X101.461 Y109.629 E3780.56940
G1 X100.593 Y109.629 E3780.78634
G1 X109.629 Y100.593 E3783.98080
G1 X109.629 Y99.726 E3784.19774
G1 X99.726 Y109.629 E3787.69900
G1 X98.858 Y109.629 E3787.91594
G1 X109.629 Y98.858 E3791.72400
G1 X109.629 Y97.990 E3791.94093
G1 X97.990 Y109.629 E3796.05579
G1 X97.122 Y109.629 E3796.27272
G1 X109.629 Y97.122 E3800.69437
G1 X109.629 Y96.255 E3800.91131
G1 X96.255 Y109.629 E3805.63975
G1 X95.387 Y109.629 E3805.85669
G1 X109.629 Y95.387 E3810.89193
G1 X109.629 Y94.519 E3811.10887
G1 X94.519 Y109.629 E3816.45091
G1 X93.651 Y109.629 E3816.66785
G1 X109.629 Y93.651 E3822.31668
G1 X109.629 Y92.784 E3822.53362
G1 X92.784 Y109.629 E3828.48925
G1 X91.916 Y109.629 E3828.70618
G1 X109.629 Y91.916 E3834.96861
G1 X109.629 Y91.048 E3835.18555
G1 X91.048 Y109.629 E3841.75477
G1 X90.371 Y109.438 E3841.93059
G1 X109.438 Y90.371 E3848.67166
G1 X108.570 Y90.371 E3848.88860
G1 X90.371 Y108.570 E3855.32287
G1 X90.371 Y107.702 E3855.53981
G1 X107.702 Y90.371 E3861.66728
G1 X106.835 Y90.371 E3861.88422
G1 X90.371 Y106.835 E3867.70490
G1 X90.371 Y105.967 E3867.92184
G1 X105.967 Y90.371 E3873.43572
G1 X105.099 Y90.371 E3873.65266
G1 X90.371 Y105.099 E3878.85974
G1 X90.371 Y104.231 E3879.07668
G1 X104.231 Y90.371 E3883.97697
G1 X103.364 Y90.371 E3884.19391
G1 X90.371 Y103.364 E3888.78740
G1 X90.371 Y102.496 E3889.00434
G1 X102.496 Y90.371 E3893.29104
G1 X101.628 Y90.371 E3893.50798
G1 X90.371 Y101.628 E3897.48788
G1 X90.371 Y100.760 E3897.70482
G1 X100.760 Y90.371 E3901.37792
G1 X99.893 Y90.371 E3901.59486
G1 X90.371 Y99.893 E3904.96117
G1 X90.371 Y99.025 E3905.17811
G1 X99.025 Y90.371 E3908.23762
G1 X98.157 Y90.371 E3908.45456
G1 X90.371 Y98.157 E3911.20728
G1 X90.371 Y97.289 E3911.42422
G1 X97.289 Y90.371 E3913.87014
G1 X96.422 Y90.371 E3914.08708
G1 X90.371 Y96.422 E3916.22620
G1 X90.371 Y95.554 E3916.44314
G1 X95.554 Y90.371 E3918.27547
G1 X94.686 Y90.371 E3918.49241
G1 X90.371 Y94.686 E3920.01794
G1 X90.371 Y93.818 E3920.23488
G1 X93.818 Y90.371 E3921.45361
G1 X92.951 Y90.371 E3921.67055
G1 X90.371 Y92.951 E3922.58249
G1 X90.371 Y92.083 E3922.79943
G1 X92.083 Y90.371 E3923.40457
G1 X91.215 Y90.371 E3923.62151
G1 X90.371 Y91.215 E3923.91986
G1 Z10.000 F7800.000
G1 X91.215 Y109.629 F7800.000
G1 X90.371 Y108.785 E3924.21821 F4800.000
G1 X90.371 Y107.917 E3924.43515
G1 X92.083 Y109.629 E3925.04029
G1 X92.951 Y109.629 E3925.25723
G1 X90.371 Y107.049 E3926.16917
G1 X90.371 Y106.182 E3926.38611
G1 X93.818 Y109.629 E3927.60484
G1 X94.686 Y109.629 E3927.82178
G1 X90.371 Y105.314 E3929.34731
G1 X90.371 Y104.446 E3929.56425
G1 X95.554 Y109.629 E3931.39658
G1 X96.422 Y109.629 E3931.61352
G1 X90.371 Y103.578 E3933.75264
G1 X90.371 Y102.711 E3933.96958
G1 X97.289 Y109.629 E3936.41550
G1 X98.157 Y109.629 E3936.63244
G1 X90.371 Y101.843 E3939.38516
G1 X90.371 Y100.975 E3939.60209
G1 X99.025 Y109.629 E3942.66161
G1 X99.893 Y109.629 E3942.87854
G1 X90.371 Y100.107 E3946.24485
G1 X90.371 Y99.240 E3946.46179
G1 X100.760 Y109.629 E3950.13490
G1 X101.628 Y109.629 E3950.35183
G1 X90.371 Y98.372 E3954.33174
G1 X90.371 Y97.504 E3954.54867
G1 X102.496 Y109.629 E3958.83537
G1 X103.364 Y109.629 E3959.05231
G1 X90.371 Y96.636 E3963.64580
G1 X90.371 Y95.769 E3963.86274
G1 X104.231 Y109.629 E3968.76303
G1 X105.099 Y109.629 E3968.97997
G1 X90.371 Y94.901 E3974.18706
G1 X90.371 Y94.033 E3974.40399
G1 X105.967 Y109.629 E3979.91788
G1 X106.835 Y109.629 E3980.13481
G1 X90.371 Y93.165 E3985.95549
G1 X90.371 Y92.298 E3986.17243
G1 X107.702 Y109.629 E3992.29991
G1 X108.570 Y109.629 E3992.51684
G1 X90.371 Y91.430 E3998.95112
G1 X90.371 Y90.562 E3999.16805
G1 X109.438 Y109.629 E4005.90912
G1 X109.629 Y108.952 E4006.08494
G1 X91.048 Y90.371 E4012.65416
G1 X91.916 Y90.371 E4012.87110
G1 X109.629 Y108.084 E4019.13353
G1 X109.629 Y107.216 E4019.35047
G1 X92.784 Y90.371 E4025.30610
G1 X93.651 Y90.371 E4025.52303
G1 X109.629 Y106.349 E4031.17187
G1 X109.629 Y105.481 E4031.38881
G1 X94.519 Y90.371 E4036.73084
G1 X95.387 Y90.371 E4036.94778
G1 X109.629 Y104.613 E4041.98302
G1 X109.629 Y103.745 E4042.19996
G1 X96.255 Y90.371 E4046.92840
G1 X97.122 Y90.371 E4047.14534
G1 X109.629 Y102.878 E4051.56699
G1 X109.629 Y102.010 E4051.78393
G1 X97.990 Y90.371 E4055.89878
G1 X98.858 Y90.371 E4056.11572
G1 X109.629 Y101.142 E4059.92378
G1 X109.629 Y100.274 E4060.14071
G1 X99.726 Y90.371 E4063.64198
G1 X100.593 Y90.371 E4063.85891
G1 X109.629 Y99.407 E4067.05338
G1 X109.629 Y98.539 E4067.27032
G1 X101.461 Y90.371 E4070.15798
G1 X102.329 Y90.371 E4070.37492
G1 X109.629 Y97.671 E4072.95579
G1 X109.629 Y96.803 E4073.17273
G1 X103.197 Y90.371 E4075.44681
G1 X104.064 Y90.371 E4075.66375
G1 X109.629 Y95.936 E4077.63103
G1 X109.629 Y95.068 E4077.84796
G1 X104.932 Y90.371 E4079.50845
G1 X105.800 Y90.371 E4079.72539
G1 X109.629 Y94.200 E4081.07907
G1 X109.629 Y93.332 E4081.29601
G1 X106.668 Y90.371 E4082.34290
G1 X107.535 Y90.371 E4082.55984
G1 X109.629 Y92.465 E4083.29994
G1 X109.629 Y91.597 E4083.51687
G1 X108.403 Y90.371 E4083.95017
G1 X109.271 Y90.371 E4084.16711
G1 X109.629 Y90.729 E4084.29362
G1 Z10.400 F7800.000
G1 E4082.29362 F2400.00000
G92 E0
G1 X109.271 Y109.629 F7800.000
G1 E2.00000 F2400.00000
G1 X109.629 Y109.271 E2.12650 F4800.000
G1 X109.629 Y108.403 E2.34344
G1 X108.403 Y109.629 E2.77674
G1 X107.535 Y109.629 E2.99368
G1 X109.629 Y107.535 E3.73377
G1 X109.629 Y106.668 E3.95071
G1 X106.668 Y109.629 E4.99760
G1 X105.800 Y109.629 E5.21454
G1 X109.629 Y105.800 E6.56823
G1 X109.629 Y104.932 E6.78516
G1 X104.932 Y109.629 E8.44565
G1 X104.064 Y109.629 E8.66259
G1 X109.629 Y104.064 E10.62987
G1 X109.629 Y103.197 E10.84680
G1 X103.197 Y109.629 E13.12088
G1 X102.329 Y109.629 E13.33782
G1 X109.629 Y102.329 E15.91869
G1 X109.629 Y101.461 E16.13563
G1 X101.461 Y109.629 E19.02329
G1 X100.593 Y109.629 E19.24023
G1 X109.629 Y100.593 E22.43470
G1 X109.629 Y99.726 E22.65163
G1 X99.726 Y109.629 E26.15289
G1 X98.858 Y109.629 E26.36983
G1 X109.629 Y98.858 E30.17789
G1 X109.629 Y97.990 E30.39483
G1 X97.990 Y109.629 E34.50968
G1 X97.122 Y109.629 E34.72662
G1 X109.629 Y97.122 E39.14826
G1 X109.629 Y96.255 E39.36520
G1 X96.255 Y109.629 E44.09365
G1 X95.387 Y109.629 E44.31058
G1 X109.629 Y95.387 E49.34583
G1 X109.629 Y94.519 E49.56276
G1 X94.519 Y109.629 E54.90480
G1 X93.651 Y109.629 E55.12174
G1 X109.629 Y93.651 E60.77057
G1 X109.629 Y92.784 E60.98751
G1 X92.784 Y109.629 E66.94314
G1 X91.916 Y109.629 E67.16007
G1 X109.629 Y91.916 E73.42250
G1 X109.629 Y91.048 E73.63944
G1 X91.048 Y109.629 E80.20866
G1 X90.371 Y109.438 E80.38448
G1 X109.438 Y90.371 E87.12555
G1 X108.570 Y90.371 E87.34249
G1 X90.371 Y108.570 E93.77676
G1 X90.371 Y107.702 E93.99370
G1 X107.702 Y90.371 E100.12117
G1 X106.835 Y90.371 E100.33811
G1 X90.371 Y106.835 E106.15879
G1 X90.371 Y105.967 E106.37573
G1 X105.967 Y90.371 E111.88961
G1 X105.099 Y90.371 E112.10655
G1 X90.371 Y105.099 E117.31364
G1 X90.371 Y104.231 E117.53057
G1 X104.231 Y90.371 E122.43086
G1 X103.364 Y90.371 E122.64780
G1 X90.371 Y103.364 E127.24130
G1 X90.371 Y102.496 E127.45823
G1 X102.496 Y90.371 E131.74493
G1 X101.628 Y90.371 E131.96187
G1 X90.371 Y101.628 E135.94177
G1 X90.371 Y100.760 E136.15871
G1 X100.760 Y90.371 E139.83182
G1 X99.893 Y90.371 E140.04875
G1 X90.371 Y99.893 E143.41506
G1 X90.371 Y99.025 E143.63200
G1 X99.025 Y90.371 E146.69152
G1 X98.157 Y90.371 E146.90845
G1 X90.371 Y98.157 E149.66117
G1 X90.371 Y97.289 E149.87811
G1 X97.289 Y90.371 E152.32403
G1 X96.422 Y90.371 E152.54097
G1 X90.371 Y96.422 E154.68009
G1 X90.371 Y95.554 E154.89703
G1 X95.554 Y90.371 E156.72936
G1 X94.686 Y90.371 E156.94630
G1 X90.371 Y94.686 E158.47183
G1 X90.371 Y93.818 E158.68877
G1 X93.818 Y90.371 E159.90751
G1 X92.951 Y90.371 E160.12444
G1 X90.371 Y92.951 E161.03638
G1 X90.371 Y92.083 E161.25332
G1 X92.083 Y90.371 E161.85847
G1 X91.215 Y90.371 E162.07540
G1 X90.371 Y91.215 E162.37375
G1 E160.37375 F2400.00000
G92 E0
M107
M104 S0 ; turn off temperature
G28 X0  ; home X axis
M84     ; disable motors

; filament used = 4242.7mm (3.3cm3)

; avoid_crossing_perimeters = 0
; bed_shape = 0x0,200x0,200x200,0x200
; bed_temperature = 0
; before_layer_gcode = 
; bridge_acceleration = 0
; bridge_fan_speed = 100
; brim_width = 0
; complete_objects = 0
; cooling = 1
; default_acceleration = 0
; disable_fan_first_layers = 3
; duplicate_distance = 6
; end_gcode = M104 S0 ; turn off temperature\nG28 X0  ; home X axis\nM84     ; disable motors\n
; extruder_clearance_height = 20
; extruder_clearance_radius = 20
; extruder_offset = 0x0
; extrusion_axis = E
; extrusion_multiplier = 1
; fan_always_on = 0
; fan_below_layer_time = 60
; filament_colour = #FFFFFF
; filament_diameter = 1
; first_layer_acceleration = 0
; first_layer_bed_temperature = 0
; first_layer_extrusion_width = 200%
; first_layer_speed = 30
; first_layer_temperature = 200
; gcode_arcs = 0
; gcode_comments = 0
; gcode_flavor = reprap
; infill_acceleration = 0
; infill_first = 0
; layer_gcode = 
; max_fan_speed = 100
; max_print_speed = 80
; max_volumetric_speed = 0
; min_fan_speed = 35
; min_print_speed = 10
; min_skirt_length = 0
; notes = 
; nozzle_diameter = 0.5
; only_retract_when_crossing_perimeters = 1
; ooze_prevention = 0
; output_filename_format = [input_filename_base].gcode
; perimeter_acceleration = 0
; post_process = 
; pressure_advance = 0
; resolution = 0
; retract_before_travel = 2
; retract_layer_change = 0
; retract_length = 2
; retract_length_toolchange = 10
; retract_lift = 0
; retract_restart_extra = 0
; retract_restart_extra_toolchange = 0
; retract_speed = 40
; skirt_distance = 6
; skirt_height = 1
; skirts = 0
; slowdown_below_layer_time = 5
; spiral_vase = 0
; standby_temperature_delta = -5
; start_gcode = G28 ; home all axes\nG1 Z5 F5000 ; lift nozzle\n
; temperature = 200
; threads = 2
; toolchange_gcode = 
; travel_speed = 130
; use_firmware_retraction = 0
; use_relative_e_distances = 0
; use_volumetric_e = 0
; vibration_limit = 0
; wipe = 0
; z_offset = 0
; dont_support_bridges = 1
; extrusion_width = 0
; first_layer_height = 0.4
; infill_only_where_needed = 0
; interface_shells = 0
; layer_height = 0.4
; raft_layers = 0
; seam_position = aligned
; support_material = 0
; support_material_angle = 0
; support_material_contact_distance = 0.2
; support_material_enforce_layers = 0
; support_material_extruder = 1
; support_material_extrusion_width = 0
; support_material_interface_extruder = 1
; support_material_interface_layers = 3
; support_material_interface_spacing = 0
; support_material_interface_speed = 100%
; support_material_pattern = pillars
; support_material_spacing = 2.5
; support_material_speed = 60
; support_material_threshold = 0
; xy_size_compensation = 0
; bottom_solid_layers = 0
; bridge_flow_ratio = 1
; bridge_speed = 60
; external_fill_pattern = rectilinear
; external_perimeter_extrusion_width = 0
; external_perimeter_speed = 50%
; external_perimeters_first = 0
; extra_perimeters = 1
; fill_angle = 45
; fill_density = 80%
; fill_pattern = rectilinear
; gap_fill_speed = 20
; infill_every_layers = 1
; infill_extruder = 1
; infill_extrusion_width = 0
; infill_overlap = 15%
; infill_speed = 80
; overhangs = 1
; perimeter_extruder = 1
; perimeter_extrusion_width = 0
; perimeter_speed = 60
; perimeters = 0
; small_perimeter_speed = 15
; solid_infill_below_area = 70
; solid_infill_every_layers = 0
; solid_infill_extruder = 1
; solid_infill_extrusion_width = 0
; solid_infill_speed = 20
; thin_walls = 1
; top_infill_extrusion_width = 0
; top_solid_infill_speed = 15
; top_solid_layers = 0
