; generated by Slic3r 1.2.9 on 2019-08-21 at 09:33:04

; external perimeters extrusion width = 0.50mm
; perimeters extrusion width = 0.58mm
; infill extrusion width = 0.58mm
; solid infill extrusion width = 0.58mm
; top infill extrusion width = 0.58mm

M107
M104 S200 ; set temperature
G28 ; home all axes
G1 Z5 F5000 ; lift nozzle

M109 S200 ; wait for temperature to be reached
G21 ; set units to millimeters
G90 ; use absolute coordinates
M82 ; use absolute distances for extrusion
G92 E0
G1 Z0.400 F7800.000
G1 E-2.00000 F2400.00000
G92 E0
G1 X90.371 Y109.074 F7800.000
G1 E2.00000 F2400.00000
G1 X90.926 Y109.629 E2.28524 F1800.000
G1 X92.083 Y109.629 E2.70607
G1 X90.371 Y107.917 E3.58644
G1 X90.371 Y106.760 E4.00726
G1 X93.240 Y109.629 E5.48277
G1 X94.397 Y109.629 E5.90360
G1 X90.371 Y105.603 E7.97424
G1 X90.371 Y104.446 E8.39506
G1 X95.554 Y109.629 E11.06083
G1 X96.711 Y109.629 E11.48166
G1 X90.371 Y103.289 E14.74256
G1 X90.371 Y102.132 E15.16339
G1 X97.868 Y109.629 E19.01942
G1 X99.025 Y109.629 E19.44025
G1 X90.371 Y100.975 E23.89142
G1 X90.371 Y99.818 E24.31224
G1 X100.182 Y109.629 E29.35855
G1 X101.339 Y109.629 E29.77937
G1 X90.371 Y98.661 E35.42081
G1 X90.371 Y97.504 E35.84163
G1 X102.496 Y109.629 E42.07820
G1 X103.653 Y109.629 E42.49902
G1 X90.371 Y96.347 E49.33073
G1 X90.371 Y95.190 E49.75155
G1 X104.810 Y109.629 E57.17838
G1 X105.967 Y109.629 E57.59921
G1 X90.371 Y94.033 E65.62118
G1 X90.371 Y92.876 E66.04200
G1 X107.124 Y109.629 E74.65910
G1 X108.281 Y109.629 E75.07992
G1 X90.371 Y91.719 E84.29216
G1 X90.371 Y90.562 E84.71298
G1 X109.438 Y109.629 E94.52035
G1 X109.629 Y108.663 E94.87854
G1 X91.337 Y90.371 E104.28712
G1 X92.494 Y90.371 E104.70794
G1 X109.629 Y107.506 E113.52138
G1 X109.629 Y106.349 E113.94220
G1 X93.651 Y90.371 E122.16051
G1 X94.808 Y90.371 E122.58133
G1 X109.629 Y105.192 E130.20451
G1 X109.629 Y104.035 E130.62533
G1 X95.965 Y90.371 E137.65338
G1 X97.122 Y90.371 E138.07420
G1 X109.629 Y102.878 E144.50711
G1 X109.629 Y101.721 E144.92793
G1 X98.279 Y90.371 E150.76571
G1 X99.436 Y90.371 E151.18653
G1 X109.629 Y100.564 E156.42918
G1 X109.629 Y99.407 E156.85000
G1 X100.593 Y90.371 E161.49751
G1 X101.750 Y90.371 E161.91834
G1 X109.629 Y98.250 E165.97072
G1 X109.629 Y97.093 E166.39154
G1 X102.907 Y90.371 E169.84879
G1 X104.064 Y90.371 E170.26961
G1 X109.629 Y95.936 E173.13172
G1 X109.629 Y94.779 E173.55255
G1 X105.221 Y90.371 E175.81953
G1 X106.378 Y90.371 E176.24035
G1 X109.629 Y93.622 E177.91220
G1 X109.629 Y92.465 E178.33302
G1 X107.535 Y90.371 E179.40974
G1 X108.692 Y90.371 E179.83056
G1 X109.629 Y91.308 E180.31214
G1 Z0.800 F7800.000
G1 X108.692 Y109.629 F7800.000
G1 X109.629 Y108.692 E180.64316 F4800.000
G1 X109.629 Y107.535 E180.93241
G1 X107.535 Y109.629 E181.67248
G1 X106.378 Y109.629 E181.96173
G1 X109.629 Y106.378 E183.11087
G1 X109.629 Y105.221 E183.40012
G1 X105.221 Y109.629 E184.95832
G1 X104.064 Y109.629 E185.24757
G1 X109.629 Y104.064 E187.21483
G1 X109.629 Y102.907 E187.50408
G1 X102.907 Y109.629 E189.88040
G1 X101.750 Y109.629 E190.16965
G1 X109.629 Y101.750 E192.95503
G1 X109.629 Y100.593 E193.24428
G1 X100.593 Y109.629 E196.43873
G1 X99.436 Y109.629 E196.72798
G1 X109.629 Y99.436 E200.33148
G1 X109.629 Y98.279 E200.62073
G1 X98.279 Y109.629 E204.63330
G1 X97.122 Y109.629 E204.92255
G1 X109.629 Y97.122 E209.34418
G1 X109.629 Y95.965 E209.63343
G1 X95.965 Y109.629 E214.46412
G1 X94.808 Y109.629 E214.75337
G1 X109.629 Y94.808 E219.99312
G1 X109.629 Y93.651 E220.28237
G1 X93.651 Y109.629 E225.93119
G1 X92.494 Y109.629 E226.22044
G1 X109.629 Y92.494 E232.27831
G1 X109.629 Y91.337 E232.56756
G1 X91.337 Y109.629 E239.03450
G1 X90.371 Y109.438 E239.28070
G1 X109.438 Y90.371 E246.02175
G1 X108.281 Y90.371 E246.31100
G1 X90.371 Y108.281 E252.64298
G1 X90.371 Y107.124 E252.93223
G1 X107.124 Y90.371 E258.85515
G1 X105.967 Y90.371 E259.14441
G1 X90.371 Y105.967 E264.65827
G1 X90.371 Y104.810 E264.94752
G1 X104.810 Y90.371 E270.05232
G1 X103.653 Y90.371 E270.34157
G1 X90.371 Y103.653 E275.03730
G1 X90.371 Y102.496 E275.32655
G1 X102.496 Y90.371 E279.61323
G1 X101.339 Y90.371 E279.90248
G1 X90.371 Y101.339 E283.78010
G1 X90.371 Y100.182 E284.06935
G1 X100.182 Y90.371 E287.53790
G1 X99.025 Y90.371 E287.82715
G1 X90.371 Y99.025 E290.88664
G1 X90.371 Y97.868 E291.17589
G1 X97.868 Y90.371 E293.82632
G1 X96.711 Y90.371 E294.11557
G1 X90.371 Y96.711 E296.35694
G1 X90.371 Y95.554 E296.64619
G1 X95.554 Y90.371 E298.47850
G1 X94.397 Y90.371 E298.76775
G1 X90.371 Y94.397 E300.19099
G1 X90.371 Y93.240 E300.48024
G1 X93.240 Y90.371 E301.49442
G1 X92.083 Y90.371 E301.78367
G1 X90.371 Y92.083 E302.38880
G1 X90.371 Y90.926 E302.67805
G1 X90.926 Y90.371 E302.87411
G1 Z1.200 F7800.000
G1 X90.371 Y109.074 F7800.000
G1 X90.926 Y109.629 E303.07017 F4800.000
G1 X92.083 Y109.629 E303.35942
G1 X90.371 Y107.917 E303.96454
G1 X90.371 Y106.760 E304.25379
G1 X93.240 Y109.629 E305.26797
G1 X94.397 Y109.629 E305.55722
G1 X90.371 Y105.603 E306.98047
G1 X90.371 Y104.446 E307.26972
G1 X95.554 Y109.629 E309.10203
G1 X96.711 Y109.629 E309.39128
G1 X90.371 Y103.289 E311.63264
G1 X90.371 Y102.132 E311.92189
G1 X97.868 Y109.629 E314.57232
G1 X99.025 Y109.629 E314.86157
G1 X90.371 Y100.975 E317.92107
G1 X90.371 Y99.818 E318.21032
G1 X100.182 Y109.629 E321.67887
G1 X101.339 Y109.629 E321.96812
G1 X90.371 Y98.661 E325.84573
G1 X90.371 Y97.504 E326.13498
G1 X102.496 Y109.629 E330.42166
G1 X103.653 Y109.629 E330.71091
G1 X90.371 Y96.347 E335.40665
G1 X90.371 Y95.190 E335.69590
G1 X104.810 Y109.629 E340.80069
G1 X105.967 Y109.629 E341.08994
G1 X90.371 Y94.033 E346.60380
G1 X90.371 Y92.876 E346.89306
G1 X107.124 Y109.629 E352.81598
G1 X108.281 Y109.629 E353.10523
G1 X90.371 Y91.719 E359.43721
G1 X90.371 Y90.562 E359.72646
G1 X109.438 Y109.629 E366.46751
G1 X109.629 Y108.663 E366.71371
G1 X91.337 Y90.371 E373.18065
G1 X92.494 Y90.371 E373.46990
G1 X109.629 Y107.506 E379.52777
G1 X109.629 Y106.349 E379.81702
G1 X93.651 Y90.371 E385.46584
G1 X94.808 Y90.371 E385.75509
G1 X109.629 Y105.192 E390.99484
G1 X109.629 Y104.035 E391.28409
G1 X95.965 Y90.371 E396.11478
G1 X97.122 Y90.371 E396.40403
G1 X109.629 Y102.878 E400.82566
G1 X109.629 Y101.721 E401.11491
G1 X98.279 Y90.371 E405.12748
G1 X99.436 Y90.371 E405.41673
G1 X109.629 Y100.564 E409.02023
G1 X109.629 Y99.407 E409.30948
G1 X100.593 Y90.371 E412.50393
G1 X101.750 Y90.371 E412.79318
G1 X109.629 Y98.250 E415.57856
G1 X109.629 Y97.093 E415.86781
G1 X102.907 Y90.371 E418.24413
G1 X104.064 Y90.371 E418.53338
G1 X109.629 Y95.936 E420.50064
G1 X109.629 Y94.779 E420.78989
G1 X105.221 Y90.371 E422.34809
G1 X106.378 Y90.371 E422.63734
G1 X109.629 Y93.622 E423.78648
G1 X109.629 Y92.465 E424.07573
G1 X107.535 Y90.371 E424.81580
G1 X108.692 Y90.371 E425.10505
G1 X109.629 Y91.308 E425.43607
M106 S249.9
G1 Z1.600 F7800.000
G1 X108.692 Y109.629 F7800.000
G1 X109.629 Y108.692 E425.76708 F4800.000
G1 X109.629 Y107.535 E426.05633
G1 X107.535 Y109.629 E426.79641
G1 X106.378 Y109.629 E427.08566
G1 X109.629 Y106.378 E428.23479
G1 X109.629 Y105.221 E428.52404
G1 X105.221 Y109.629 E430.08224
G1 X104.064 Y109.629 E430.37149
G1 X109.629 Y104.064 E432.33875
G1 X109.629 Y102.907 E432.62800
G1 X102.907 Y109.629 E435.00432
G1 X101.750 Y109.629 E435.29357
G1 X109.629 Y101.750 E438.07896
G1 X109.629 Y100.593 E438.36821
G1 X100.593 Y109.629 E441.56265
G1 X99.436 Y109.629 E441.85190
G1 X109.629 Y99.436 E445.45541
G1 X109.629 Y98.279 E445.74466
G1 X98.279 Y109.629 E449.75722
G1 X97.122 Y109.629 E450.04647
G1 X109.629 Y97.122 E454.46810
G1 X109.629 Y95.965 E454.75735
G1 X95.965 Y109.629 E459.58804
G1 X94.808 Y109.629 E459.87729
G1 X109.629 Y94.808 E465.11705
G1 X109.629 Y93.651 E465.40630
G1 X93.651 Y109.629 E471.05511
G1 X92.494 Y109.629 E471.34436
G1 X109.629 Y92.494 E477.40223
G1 X109.629 Y91.337 E477.69148
G1 X91.337 Y109.629 E484.15842
G1 X90.371 Y109.438 E484.40463
G1 X109.438 Y90.371 E491.14567
G1 X108.281 Y90.371 E491.43492
G1 X90.371 Y108.281 E497.76691
G1 X90.371 Y107.124 E498.05616
G1 X107.124 Y90.371 E503.97908
G1 X105.967 Y90.371 E504.26833
G1 X90.371 Y105.967 E509.78219
G1 X90.371 Y104.810 E510.07144
G1 X104.810 Y90.371 E515.17624
G1 X103.653 Y90.371 E515.46549
G1 X90.371 Y103.653 E520.16123
G1 X90.371 Y102.496 E520.45048
G1 X102.496 Y90.371 E524.73715
G1 X101.339 Y90.371 E525.02641
G1 X90.371 Y101.339 E528.90402
G1 X90.371 Y100.182 E529.19327
G1 X100.182 Y90.371 E532.66182
G1 X99.025 Y90.371 E532.95107
G1 X90.371 Y99.025 E536.01056
G1 X90.371 Y97.868 E536.29981
G1 X97.868 Y90.371 E538.95024
G1 X96.711 Y90.371 E539.23949
G1 X90.371 Y96.711 E541.48086
G1 X90.371 Y95.554 E541.77011
G1 X95.554 Y90.371 E543.60242
G1 X94.397 Y90.371 E543.89167
G1 X90.371 Y94.397 E545.31492
G1 X90.371 Y93.240 E545.60417
G1 X93.240 Y90.371 E546.61835
G1 X92.083 Y90.371 E546.90760
G1 X90.371 Y92.083 E547.51272
G1 X90.371 Y90.926 E547.80197
G1 X90.926 Y90.371 E547.99803
G1 Z2.000 F7800.000
G1 X90.371 Y109.074 F7800.000
G1 X90.926 Y109.629 E548.19409 F4800.000
G1 X92.083 Y109.629 E548.48334
G1 X90.371 Y107.917 E549.08847
G1 X90.371 Y106.760 E549.37772
G1 X93.240 Y109.629 E550.39190
G1 X94.397 Y109.629 E550.68115
G1 X90.371 Y105.603 E552.10439
G1 X90.371 Y104.446 E552.39364
G1 X95.554 Y109.629 E554.22595
G1 X96.711 Y109.629 E554.51520
G1 X90.371 Y103.289 E556.75657
G1 X90.371 Y102.132 E557.04582
G1 X97.868 Y109.629 E559.69625
G1 X99.025 Y109.629 E559.98550
G1 X90.371 Y100.975 E563.04499
G1 X90.371 Y99.818 E563.33424
G1 X100.182 Y109.629 E566.80279
G1 X101.339 Y109.629 E567.09204
G1 X90.371 Y98.661 E570.96966
G1 X90.371 Y97.504 E571.25891
G1 X102.496 Y109.629 E575.54558
G1 X103.653 Y109.629 E575.83483
G1 X90.371 Y96.347 E580.53057
G1 X90.371 Y95.190 E580.81982
G1 X104.810 Y109.629 E585.92462
G1 X105.967 Y109.629 E586.21387
G1 X90.371 Y94.033 E591.72773
G1 X90.371 Y92.876 E592.01698
G1 X107.124 Y109.629 E597.93990
G1 X108.281 Y109.629 E598.22915
G1 X90.371 Y91.719 E604.56113
G1 X90.371 Y90.562 E604.85039
G1 X109.438 Y109.629 E611.59143
G1 X109.629 Y108.663 E611.83763
G1 X91.337 Y90.371 E618.30457
G1 X92.494 Y90.371 E618.59382
G1 X109.629 Y107.506 E624.65170
G1 X109.629 Y106.349 E624.94095
G1 X93.651 Y90.371 E630.58976
G1 X94.808 Y90.371 E630.87901
G1 X109.629 Y105.192 E636.11876
G1 X109.629 Y104.035 E636.40801
G1 X95.965 Y90.371 E641.23870
G1 X97.122 Y90.371 E641.52795
G1 X109.629 Y102.878 E645.94958
G1 X109.629 Y101.721 E646.23883
G1 X98.279 Y90.371 E650.25140
G1 X99.436 Y90.371 E650.54065
G1 X109.629 Y100.564 E654.14416
G1 X109.629 Y99.407 E654.43341
G1 X100.593 Y90.371 E657.62785
G1 X101.750 Y90.371 E657.91710
G1 X109.629 Y98.250 E660.70248
G1 X109.629 Y97.093 E660.99174
G1 X102.907 Y90.371 E663.36806
G1 X104.064 Y90.371 E663.65731
G1 X109.629 Y95.936 E665.62457
G1 X109.629 Y94.779 E665.91382
G1 X105.221 Y90.371 E667.47202
G1 X106.378 Y90.371 E667.76127
G1 X109.629 Y93.622 E668.91040
G1 X109.629 Y92.465 E669.19965
G1 X107.535 Y90.371 E669.93973
G1 X108.692 Y90.371 E670.22898
G1 X109.629 Y91.308 E670.55999
G1 Z2.400 F7800.000
G1 X108.692 Y109.629 F7800.000
G1 X109.629 Y108.692 E670.89101 F4800.000
G1 X109.629 Y107.535 E671.18026
G1 X107.535 Y109.629 E671.92033
G1 X106.378 Y109.629 E672.20958
G1 X109.629 Y106.378 E673.35872
G1 X109.629 Y105.221 E673.64797
G1 X105.221 Y109.629 E675.20617
G1 X104.064 Y109.629 E675.49542
G1 X109.629 Y104.064 E677.46268
G1 X109.629 Y102.907 E677.75193
G1 X102.907 Y109.629 E680.12825
G1 X101.750 Y109.629 E680.41750
G1 X109.629 Y101.750 E683.20288
G1 X109.629 Y100.593 E683.49213
G1 X100.593 Y109.629 E686.68658
G1 X99.436 Y109.629 E686.97583
G1 X109.629 Y99.436 E690.57933
G1 X109.629 Y98.279 E690.86858
G1 X98.279 Y109.629 E694.88115
G1 X97.122 Y109.629 E695.17040
G1 X109.629 Y97.122 E699.59203
G1 X109.629 Y95.965 E699.88128
G1 X95.965 Y109.629 E704.71197
G1 X94.808 Y109.629 E705.00122
G1 X109.629 Y94.808 E710.24097
G1 X109.629 Y93.651 E710.53022
G1 X93.651 Y109.629 E716.17903
G1 X92.494 Y109.629 E716.46828
G1 X109.629 Y92.494 E722.52616
G1 X109.629 Y91.337 E722.81541
G1 X91.337 Y109.629 E729.28235
G1 X90.371 Y109.438 E729.52855
G1 X109.438 Y90.371 E736.26960
G1 X108.281 Y90.371 E736.55885
G1 X90.371 Y108.281 E742.89083
G1 X90.371 Y107.124 E743.18008
G1 X107.124 Y90.371 E749.10300
G1 X105.967 Y90.371 E749.39225
G1 X90.371 Y105.967 E754.90612
G1 X90.371 Y104.810 E755.19537
G1 X104.810 Y90.371 E760.30017
G1 X103.653 Y90.371 E760.58942
G1 X90.371 Y103.653 E765.28515
G1 X90.371 Y102.496 E765.57440
G1 X102.496 Y90.371 E769.86108
G1 X101.339 Y90.371 E770.15033
G1 X90.371 Y101.339 E774.02794
G1 X90.371 Y100.182 E774.31719
G1 X100.182 Y90.371 E777.78575
G1 X99.025 Y90.371 E778.07500
G1 X90.371 Y99.025 E781.13449
G1 X90.371 Y97.868 E781.42374
G1 X97.868 Y90.371 E784.07417
G1 X96.711 Y90.371 E784.36342
G1 X90.371 Y96.711 E786.60479
G1 X90.371 Y95.554 E786.89404
G1 X95.554 Y90.371 E788.72634
G1 X94.397 Y90.371 E789.01559
G1 X90.371 Y94.397 E790.43884
G1 X90.371 Y93.240 E790.72809
G1 X93.240 Y90.371 E791.74227
G1 X92.083 Y90.371 E792.03152
G1 X90.371 Y92.083 E792.63665
G1 X90.371 Y90.926 E792.92590
G1 X90.926 Y90.371 E793.12196
G1 Z2.800 F7800.000
G1 X90.371 Y109.074 F7800.000
G1 X90.926 Y109.629 E793.31802 F4800.000
G1 X92.083 Y109.629 E793.60727
G1 X90.371 Y107.917 E794.21239
G1 X90.371 Y106.760 E794.50164
G1 X93.240 Y109.629 E795.51582
G1 X94.397 Y109.629 E795.80507
G1 X90.371 Y105.603 E797.22832
G1 X90.371 Y104.446 E797.51757
G1 X95.554 Y109.629 E799.34988
G1 X96.711 Y109.629 E799.63913
G1 X90.371 Y103.289 E801.88049
G1 X90.371 Y102.132 E802.16974
G1 X97.868 Y109.629 E804.82017
G1 X99.025 Y109.629 E805.10942
G1 X90.371 Y100.975 E808.16891
G1 X90.371 Y99.818 E808.45816
G1 X100.182 Y109.629 E811.92672
G1 X101.339 Y109.629 E812.21597
G1 X90.371 Y98.661 E816.09358
G1 X90.371 Y97.504 E816.38283
G1 X102.496 Y109.629 E820.66951
G1 X103.653 Y109.629 E820.95876
G1 X90.371 Y96.347 E825.65449
G1 X90.371 Y95.190 E825.94374
G1 X104.810 Y109.629 E831.04854
G1 X105.967 Y109.629 E831.33779
G1 X90.371 Y94.033 E836.85165
G1 X90.371 Y92.876 E837.14090
G1 X107.124 Y109.629 E843.06383
G1 X108.281 Y109.629 E843.35308
G1 X90.371 Y91.719 E849.68506
G1 X90.371 Y90.562 E849.97431
G1 X109.438 Y109.629 E856.71535
G1 X109.629 Y108.663 E856.96156
G1 X91.337 Y90.371 E863.42850
G1 X92.494 Y90.371 E863.71775
G1 X109.629 Y107.506 E869.77562
G1 X109.629 Y106.349 E870.06487
G1 X93.651 Y90.371 E875.71368
G1 X94.808 Y90.371 E876.00293
G1 X109.629 Y105.192 E881.24269
G1 X109.629 Y104.035 E881.53194
G1 X95.965 Y90.371 E886.36263
G1 X97.122 Y90.371 E886.65188
G1 X109.629 Y102.878 E891.07351
G1 X109.629 Y101.721 E891.36276
G1 X98.279 Y90.371 E895.37532
G1 X99.436 Y90.371 E895.66457
G1 X109.629 Y100.564 E899.26808
G1 X109.629 Y99.407 E899.55733
G1 X100.593 Y90.371 E902.75178
G1 X101.750 Y90.371 E903.04103
G1 X109.629 Y98.250 E905.82641
G1 X109.629 Y97.093 E906.11566
G1 X102.907 Y90.371 E908.49198
G1 X104.064 Y90.371 E908.78123
G1 X109.629 Y95.936 E910.74849
G1 X109.629 Y94.779 E911.03774
G1 X105.221 Y90.371 E912.59594
G1 X106.378 Y90.371 E912.88519
G1 X109.629 Y93.622 E914.03433
G1 X109.629 Y92.465 E914.32358
G1 X107.535 Y90.371 E915.06365
G1 X108.692 Y90.371 E915.35290
G1 X109.629 Y91.308 E915.68392
G1 Z3.200 F7800.000
G1 X108.692 Y109.629 F7800.000
G1 X109.629 Y108.692 E916.01493 F4800.000
G1 X109.629 Y107.535 E916.30418
G1 X107.535 Y109.629 E917.04426
G1 X106.378 Y109.629 E917.33351
G1 X109.629 Y106.378 E918.48264
G1 X109.629 Y105.221 E918.77189
G1 X105.221 Y109.629 E920.33009
G1 X104.064 Y109.629 E920.61934
G1 X109.629 Y104.064 E922.58660
G1 X109.629 Y102.907 E922.87585
G1 X102.907 Y109.629 E925.25217
G1 X101.750 Y109.629 E925.54142
G1 X109.629 Y101.750 E928.32681
G1 X109.629 Y100.593 E928.61606
G1 X100.593 Y109.629 E931.81050
G1 X99.436 Y109.629 E932.09975
G1 X109.629 Y99.436 E935.70326
G1 X109.629 Y98.279 E935.99251
G1 X98.279 Y109.629 E940.00507
G1 X97.122 Y109.629 E940.29432
G1 X109.629 Y97.122 E944.71595
G1 X109.629 Y95.965 E945.00520
G1 X95.965 Y109.629 E949.83589
G1 X94.808 Y109.629 E950.12514
G1 X109.629 Y94.808 E955.36490
G1 X109.629 Y93.651 E955.65415
G1 X93.651 Y109.629 E961.30296
G1 X92.494 Y109.629 E961.59221
G1 X109.629 Y92.494 E967.65008
G1 X109.629 Y91.337 E967.93933
G1 X91.337 Y109.629 E974.40627
G1 X90.371 Y109.438 E974.65247
G1 X109.438 Y90.371 E981.39352
G1 X108.281 Y90.371 E981.68277
G1 X90.371 Y108.281 E988.01476
G1 X90.371 Y107.124 E988.30401
G1 X107.124 Y90.371 E994.22693
G1 X105.967 Y90.371 E994.51618
G1 X90.371 Y105.967 E1000.03004
G1 X90.371 Y104.810 E1000.31929
G1 X104.810 Y90.371 E1005.42409
G1 X103.653 Y90.371 E1005.71334
G1 X90.371 Y103.653 E1010.40908
G1 X90.371 Y102.496 E1010.69833
G1 X102.496 Y90.371 E1014.98500
G1 X101.339 Y90.371 E1015.27425
G1 X90.371 Y101.339 E1019.15187
G1 X90.371 Y100.182 E1019.44112
G1 X100.182 Y90.371 E1022.90967
G1 X99.025 Y90.371 E1023.19892
G1 X90.371 Y99.025 E1026.25841
G1 X90.371 Y97.868 E1026.54766
G1 X97.868 Y90.371 E1029.19809
G1 X96.711 Y90.371 E1029.48734
G1 X90.371 Y96.711 E1031.72871
G1 X90.371 Y95.554 E1032.01796
G1 X95.554 Y90.371 E1033.85027
G1 X94.397 Y90.371 E1034.13952
G1 X90.371 Y94.397 E1035.56276
G1 X90.371 Y93.240 E1035.85201
G1 X93.240 Y90.371 E1036.86620
G1 X92.083 Y90.371 E1037.15545
G1 X90.371 Y92.083 E1037.76057
G1 X90.371 Y90.926 E1038.04982
G1 X90.926 Y90.371 E1038.24588
G1 Z3.600 F7800.000
G1 X90.371 Y109.074 F7800.000
G1 X90.926 Y109.629 E1038.44194 F4800.000
G1 X92.083 Y109.629 E1038.73119
G1 X90.371 Y107.917 E1039.33631
G1 X90.371 Y106.760 E1039.62556
G1 X93.240 Y109.629 E1040.63975
G1 X94.397 Y109.629 E1040.92900
G1 X90.371 Y105.603 E1042.35224
G1 X90.371 Y104.446 E1042.64149
G1 X95.554 Y109.629 E1044.47380
G1 X96.711 Y109.629 E1044.76305
G1 X90.371 Y103.289 E1047.00442
G1 X90.371 Y102.132 E1047.29367
G1 X97.868 Y109.629 E1049.94410
G1 X99.025 Y109.629 E1050.23335
G1 X90.371 Y100.975 E1053.29284
G1 X90.371 Y99.818 E1053.58209
G1 X100.182 Y109.629 E1057.05064
G1 X101.339 Y109.629 E1057.33989
G1 X90.371 Y98.661 E1061.21751
G1 X90.371 Y97.504 E1061.50676
G1 X102.496 Y109.629 E1065.79343
G1 X103.653 Y109.629 E1066.08268
G1 X90.371 Y96.347 E1070.77842
G1 X90.371 Y95.190 E1071.06767
G1 X104.810 Y109.629 E1076.17247
G1 X105.967 Y109.629 E1076.46172
G1 X90.371 Y94.033 E1081.97558
G1 X90.371 Y92.876 E1082.26483
G1 X107.124 Y109.629 E1088.18775
G1 X108.281 Y109.629 E1088.47700
G1 X90.371 Y91.719 E1094.80898
G1 X90.371 Y90.562 E1095.09823
G1 X109.438 Y109.629 E1101.83928
G1 X109.629 Y108.663 E1102.08548
G1 X91.337 Y90.371 E1108.55242
G1 X92.494 Y90.371 E1108.84167
G1 X109.629 Y107.506 E1114.89954
G1 X109.629 Y106.349 E1115.18879
G1 X93.651 Y90.371 E1120.83761
G1 X94.808 Y90.371 E1121.12686
G1 X109.629 Y105.192 E1126.36661
G1 X109.629 Y104.035 E1126.65586
G1 X95.965 Y90.371 E1131.48655
G1 X97.122 Y90.371 E1131.77580
G1 X109.629 Y102.878 E1136.19743
G1 X109.629 Y101.721 E1136.48668
G1 X98.279 Y90.371 E1140.49925
G1 X99.436 Y90.371 E1140.78850
G1 X109.629 Y100.564 E1144.39201
G1 X109.629 Y99.407 E1144.68126
G1 X100.593 Y90.371 E1147.87570
G1 X101.750 Y90.371 E1148.16495
G1 X109.629 Y98.250 E1150.95033
G1 X109.629 Y97.093 E1151.23958
G1 X102.907 Y90.371 E1153.61591
G1 X104.064 Y90.371 E1153.90516
G1 X109.629 Y95.936 E1155.87242
G1 X109.629 Y94.779 E1156.16167
G1 X105.221 Y90.371 E1157.71986
G1 X106.378 Y90.371 E1158.00911
G1 X109.629 Y93.622 E1159.15825
G1 X109.629 Y92.465 E1159.44750
G1 X107.535 Y90.371 E1160.18758
G1 X108.692 Y90.371 E1160.47683
G1 X109.629 Y91.308 E1160.80784
G1 Z4.000 F7800.000
G1 X108.692 Y109.629 F7800.000
G1 X109.629 Y108.692 E1161.13886 F4800.000
G1 X109.629 Y107.535 E1161.42811
G1 X107.535 Y109.629 E1162.16818
G1 X106.378 Y109.629 E1162.45743
G1 X109.629 Y106.378 E1163.60657
G1 X109.629 Y105.221 E1163.89582
G1 X105.221 Y109.629 E1165.45402
G1 X104.064 Y109.629 E1165.74327
G1 X109.629 Y104.064 E1167.71053
G1 X109.629 Y102.907 E1167.99978
G1 X102.907 Y109.629 E1170.37610
G1 X101.750 Y109.629 E1170.66535
G1 X109.629 Y101.750 E1173.45073
G1 X109.629 Y100.593 E1173.73998
G1 X100.593 Y109.629 E1176.93442
G1 X99.436 Y109.629 E1177.22367
G1 X109.629 Y99.436 E1180.82718
G1 X109.629 Y98.279 E1181.11643
G1 X98.279 Y109.629 E1185.12900
G1 X97.122 Y109.629 E1185.41825
G1 X109.629 Y97.122 E1189.83988
G1 X109.629 Y95.965 E1190.12913
G1 X95.965 Y109.629 E1194.95982
G1 X94.808 Y109.629 E1195.24907
G1 X109.629 Y94.808 E1200.48882
G1 X109.629 Y93.651 E1200.77807
G1 X93.651 Y109.629 E1206.42688
G1 X92.494 Y109.629 E1206.71613
G1 X109.629 Y92.494 E1212.77401
G1 X109.629 Y91.337 E1213.06326
G1 X91.337 Y109.629 E1219.53019
G1 X90.371 Y109.438 E1219.77640
G1 X109.438 Y90.371 E1226.51744
G1 X108.281 Y90.371 E1226.80670
G1 X90.371 Y108.281 E1233.13868
G1 X90.371 Y107.124 E1233.42793
G1 X107.124 Y90.371 E1239.35085
G1 X105.967 Y90.371 E1239.64010
G1 X90.371 Y105.967 E1245.15396
G1 X90.371 Y104.810 E1245.44321
G1 X104.810 Y90.371 E1250.54801
G1 X103.653 Y90.371 E1250.83726
G1 X90.371 Y103.653 E1255.53300
G1 X90.371 Y102.496 E1255.82225
G1 X102.496 Y90.371 E1260.10893
G1 X101.339 Y90.371 E1260.39818
G1 X90.371 Y101.339 E1264.27579
G1 X90.371 Y100.182 E1264.56504
G1 X100.182 Y90.371 E1268.03360
G1 X99.025 Y90.371 E1268.32285
G1 X90.371 Y99.025 E1271.38234
G1 X90.371 Y97.868 E1271.67159
G1 X97.868 Y90.371 E1274.32202
G1 X96.711 Y90.371 E1274.61127
G1 X90.371 Y96.711 E1276.85264
G1 X90.371 Y95.554 E1277.14189
G1 X95.554 Y90.371 E1278.97419
G1 X94.397 Y90.371 E1279.26344
G1 X90.371 Y94.397 E1280.68669
G1 X90.371 Y93.240 E1280.97594
G1 X93.240 Y90.371 E1281.99012
G1 X92.083 Y90.371 E1282.27937
G1 X90.371 Y92.083 E1282.88449
G1 X90.371 Y90.926 E1283.17375
G1 X90.926 Y90.371 E1283.36981
G1 Z4.400 F7800.000
G1 X90.371 Y109.074 F7800.000
G1 X90.926 Y109.629 E1283.56587 F4800.000
G1 X92.083 Y109.629 E1283.85512
G1 X90.371 Y107.917 E1284.46024
G1 X90.371 Y106.760 E1284.74949
G1 X93.240 Y109.629 E1285.76367
G1 X94.397 Y109.629 E1286.05292
G1 X90.371 Y105.603 E1287.47617
G1 X90.371 Y104.446 E1287.76542
G1 X95.554 Y109.629 E1289.59772
G1 X96.711 Y109.629 E1289.88697
G1 X90.371 Y103.289 E1292.12834
G1 X90.371 Y102.132 E1292.41759
G1 X97.868 Y109.629 E1295.06802
G1 X99.025 Y109.629 E1295.35727
G1 X90.371 Y100.975 E1298.41676
G1 X90.371 Y99.818 E1298.70601
G1 X100.182 Y109.629 E1302.17457
G1 X101.339 Y109.629 E1302.46382
G1 X90.371 Y98.661 E1306.34143
G1 X90.371 Y97.504 E1306.63068
G1 X102.496 Y109.629 E1310.91736
G1 X103.653 Y109.629 E1311.20661
G1 X90.371 Y96.347 E1315.90234
G1 X90.371 Y95.190 E1316.19159
G1 X104.810 Y109.629 E1321.29639
G1 X105.967 Y109.629 E1321.58564
G1 X90.371 Y94.033 E1327.09950
G1 X90.371 Y92.876 E1327.38875
G1 X107.124 Y109.629 E1333.31167
G1 X108.281 Y109.629 E1333.60092
G1 X90.371 Y91.719 E1339.93291
G1 X90.371 Y90.562 E1340.22216
G1 X109.438 Y109.629 E1346.96320
G1 X109.629 Y108.663 E1347.20941
G1 X91.337 Y90.371 E1353.67634
G1 X92.494 Y90.371 E1353.96559
G1 X109.629 Y107.506 E1360.02347
G1 X109.629 Y106.349 E1360.31272
G1 X93.651 Y90.371 E1365.96153
G1 X94.808 Y90.371 E1366.25078
G1 X109.629 Y105.192 E1371.49053
G1 X109.629 Y104.035 E1371.77979
G1 X95.965 Y90.371 E1376.61048
G1 X97.122 Y90.371 E1376.89973
G1 X109.629 Y102.878 E1381.32136
G1 X109.629 Y101.721 E1381.61061
G1 X98.279 Y90.371 E1385.62317
G1 X99.436 Y90.371 E1385.91242
G1 X109.629 Y100.564 E1389.51593
G1 X109.629 Y99.407 E1389.80518
G1 X100.593 Y90.371 E1392.99962
G1 X101.750 Y90.371 E1393.28887
G1 X109.629 Y98.250 E1396.07426
G1 X109.629 Y97.093 E1396.36351
G1 X102.907 Y90.371 E1398.73983
G1 X104.064 Y90.371 E1399.02908
G1 X109.629 Y95.936 E1400.99634
G1 X109.629 Y94.779 E1401.28559
G1 X105.221 Y90.371 E1402.84379
G1 X106.378 Y90.371 E1403.13304
G1 X109.629 Y93.622 E1404.28218
G1 X109.629 Y92.465 E1404.57143
G1 X107.535 Y90.371 E1405.31150
G1 X108.692 Y90.371 E1405.60075
G1 X109.629 Y91.308 E1405.93177
G1 Z4.800 F7800.000
G1 X108.692 Y109.629 F7800.000
G1 X109.629 Y108.692 E1406.26278 F4800.000
G1 X109.629 Y107.535 E1406.55203
G1 X107.535 Y109.629 E1407.29210
G1 X106.378 Y109.629 E1407.58136
G1 X109.629 Y106.378 E1408.73049
G1 X109.629 Y105.221 E1409.01974
G1 X105.221 Y109.629 E1410.57794
G1 X104.064 Y109.629 E1410.86719
G1 X109.629 Y104.064 E1412.83445
G1 X109.629 Y102.907 E1413.12370
G1 X102.907 Y109.629 E1415.50002
G1 X101.750 Y109.629 E1415.78927
G1 X109.629 Y101.750 E1418.57465
G1 X109.629 Y100.593 E1418.86390
G1 X100.593 Y109.629 E1422.05835
G1 X99.436 Y109.629 E1422.34760
G1 X109.629 Y99.436 E1425.95110
G1 X109.629 Y98.279 E1426.24035
G1 X98.279 Y109.629 E1430.25292
G1 X97.122 Y109.629 E1430.54217
G1 X109.629 Y97.122 E1434.96380
G1 X109.629 Y95.965 E1435.25305
G1 X95.965 Y109.629 E1440.08374
G1 X94.808 Y109.629 E1440.37299
G1 X109.629 Y94.808 E1445.61274
G1 X109.629 Y93.651 E1445.90199
G1 X93.651 Y109.629 E1451.55081
G1 X92.494 Y109.629 E1451.84006
G1 X109.629 Y92.494 E1457.89793
G1 X109.629 Y91.337 E1458.18718
G1 X91.337 Y109.629 E1464.65412
G1 X90.371 Y109.438 E1464.90032
G1 X109.438 Y90.371 E1471.64137
G1 X108.281 Y90.371 E1471.93062
G1 X90.371 Y108.281 E1478.26260
G1 X90.371 Y107.124 E1478.55185
G1 X107.124 Y90.371 E1484.47478
G1 X105.967 Y90.371 E1484.76403
G1 X90.371 Y105.967 E1490.27789
G1 X90.371 Y104.810 E1490.56714
G1 X104.810 Y90.371 E1495.67194
G1 X103.653 Y90.371 E1495.96119
G1 X90.371 Y103.653 E1500.65693
G1 X90.371 Y102.496 E1500.94618
G1 X102.496 Y90.371 E1505.23285
G1 X101.339 Y90.371 E1505.52210
G1 X90.371 Y101.339 E1509.39972
G1 X90.371 Y100.182 E1509.68897
G1 X100.182 Y90.371 E1513.15752
G1 X99.025 Y90.371 E1513.44677
G1 X90.371 Y99.025 E1516.50626
G1 X90.371 Y97.868 E1516.79551
G1 X97.868 Y90.371 E1519.44594
G1 X96.711 Y90.371 E1519.73519
G1 X90.371 Y96.711 E1521.97656
G1 X90.371 Y95.554 E1522.26581
G1 X95.554 Y90.371 E1524.09812
G1 X94.397 Y90.371 E1524.38737
G1 X90.371 Y94.397 E1525.81061
G1 X90.371 Y93.240 E1526.09986
G1 X93.240 Y90.371 E1527.11405
G1 X92.083 Y90.371 E1527.40330
G1 X90.371 Y92.083 E1528.00842
G1 X90.371 Y90.926 E1528.29767
G1 X90.926 Y90.371 E1528.49373
G1 Z5.200 F7800.000
G1 X90.371 Y109.074 F7800.000
G1 X90.926 Y109.629 E1528.68979 F4800.000
G1 X92.083 Y109.629 E1528.97904
G1 X90.371 Y107.917 E1529.58416
G1 X90.371 Y106.760 E1529.87341
G1 X93.240 Y109.629 E1530.88760
G1 X94.397 Y109.629 E1531.17685
G1 X90.371 Y105.603 E1532.60009
G1 X90.371 Y104.446 E1532.88934
G1 X95.554 Y109.629 E1534.72165
G1 X96.711 Y109.629 E1535.01090
G1 X90.371 Y103.289 E1537.25227
G1 X90.371 Y102.132 E1537.54152
G1 X97.868 Y109.629 E1540.19195
G1 X99.025 Y109.629 E1540.48120
G1 X90.371 Y100.975 E1543.54069
G1 X90.371 Y99.818 E1543.82994
G1 X100.182 Y109.629 E1547.29849
G1 X101.339 Y109.629 E1547.58774
G1 X90.371 Y98.661 E1551.46535
G1 X90.371 Y97.504 E1551.75460
G1 X102.496 Y109.629 E1556.04128
G1 X103.653 Y109.629 E1556.33053
G1 X90.371 Y96.347 E1561.02627
G1 X90.371 Y95.190 E1561.31552
G1 X104.810 Y109.629 E1566.42032
G1 X105.967 Y109.629 E1566.70957
G1 X90.371 Y94.033 E1572.22343
G1 X90.371 Y92.876 E1572.51268
G1 X107.124 Y109.629 E1578.43560
G1 X108.281 Y109.629 E1578.72485
G1 X90.371 Y91.719 E1585.05683
G1 X90.371 Y90.562 E1585.34608
G1 X109.438 Y109.629 E1592.08713
G1 X109.629 Y108.663 E1592.33333
G1 X91.337 Y90.371 E1598.80027
G1 X92.494 Y90.371 E1599.08952
G1 X109.629 Y107.506 E1605.14739
G1 X109.629 Y106.349 E1605.43664
G1 X93.651 Y90.371 E1611.08546
G1 X94.808 Y90.371 E1611.37471
G1 X109.629 Y105.192 E1616.61446
G1 X109.629 Y104.035 E1616.90371
G1 X95.965 Y90.371 E1621.73440
G1 X97.122 Y90.371 E1622.02365
G1 X109.629 Y102.878 E1626.44528
G1 X109.629 Y101.721 E1626.73453
G1 X98.279 Y90.371 E1630.74710
G1 X99.436 Y90.371 E1631.03635
G1 X109.629 Y100.564 E1634.63985
G1 X109.629 Y99.407 E1634.92910
G1 X100.593 Y90.371 E1638.12355
G1 X101.750 Y90.371 E1638.41280
G1 X109.629 Y98.250 E1641.19818
G1 X109.629 Y97.093 E1641.48743
G1 X102.907 Y90.371 E1643.86375
G1 X104.064 Y90.371 E1644.15300
G1 X109.629 Y95.936 E1646.12026
G1 X109.629 Y94.779 E1646.40951
G1 X105.221 Y90.371 E1647.96771
G1 X106.378 Y90.371 E1648.25696
G1 X109.629 Y93.622 E1649.40610
G1 X109.629 Y92.465 E1649.69535
G1 X107.535 Y90.371 E1650.43543
G1 X108.692 Y90.371 E1650.72468
G1 X109.629 Y91.308 E1651.05569
G1 Z5.600 F7800.000
G1 X108.692 Y109.629 F7800.000
G1 X109.629 Y108.692 E1651.38670 F4800.000
G1 X109.629 Y107.535 E1651.67595
G1 X107.535 Y109.629 E1652.41603
G1 X106.378 Y109.629 E1652.70528
G1 X109.629 Y106.378 E1653.85442
G1 X109.629 Y105.221 E1654.14367
G1 X105.221 Y109.629 E1655.70186
G1 X104.064 Y109.629 E1655.99111
G1 X109.629 Y104.064 E1657.95837
G1 X109.629 Y102.907 E1658.24762
G1 X102.907 Y109.629 E1660.62395
G1 X101.750 Y109.629 E1660.91320
G1 X109.629 Y101.750 E1663.69858
G1 X109.629 Y100.593 E1663.98783
G1 X100.593 Y109.629 E1667.18227
G1 X99.436 Y109.629 E1667.47152
G1 X109.629 Y99.436 E1671.07503
G1 X109.629 Y98.279 E1671.36428
G1 X98.279 Y109.629 E1675.37685
G1 X97.122 Y109.629 E1675.66610
G1 X109.629 Y97.122 E1680.08773
G1 X109.629 Y95.965 E1680.37698
G1 X95.965 Y109.629 E1685.20767
G1 X94.808 Y109.629 E1685.49692
G1 X109.629 Y94.808 E1690.73667
G1 X109.629 Y93.651 E1691.02592
G1 X93.651 Y109.629 E1696.67473
G1 X92.494 Y109.629 E1696.96398
G1 X109.629 Y92.494 E1703.02186
G1 X109.629 Y91.337 E1703.31111
G1 X91.337 Y109.629 E1709.77804
G1 X90.371 Y109.438 E1710.02425
G1 X109.438 Y90.371 E1716.76529
G1 X108.281 Y90.371 E1717.05454
G1 X90.371 Y108.281 E1723.38653
G1 X90.371 Y107.124 E1723.67578
G1 X107.124 Y90.371 E1729.59870
G1 X105.967 Y90.371 E1729.88795
G1 X90.371 Y105.967 E1735.40181
G1 X90.371 Y104.810 E1735.69106
G1 X104.810 Y90.371 E1740.79586
G1 X103.653 Y90.371 E1741.08511
G1 X90.371 Y103.653 E1745.78085
G1 X90.371 Y102.496 E1746.07010
G1 X102.496 Y90.371 E1750.35678
G1 X101.339 Y90.371 E1750.64603
G1 X90.371 Y101.339 E1754.52364
G1 X90.371 Y100.182 E1754.81289
G1 X100.182 Y90.371 E1758.28145
G1 X99.025 Y90.371 E1758.57070
G1 X90.371 Y99.025 E1761.63019
G1 X90.371 Y97.868 E1761.91944
G1 X97.868 Y90.371 E1764.56987
G1 X96.711 Y90.371 E1764.85912
G1 X90.371 Y96.711 E1767.10049
G1 X90.371 Y95.554 E1767.38974
G1 X95.554 Y90.371 E1769.22204
G1 X94.397 Y90.371 E1769.51129
G1 X90.371 Y94.397 E1770.93454
G1 X90.371 Y93.240 E1771.22379
G1 X93.240 Y90.371 E1772.23797
G1 X92.083 Y90.371 E1772.52722
G1 X90.371 Y92.083 E1773.13234
G1 X90.371 Y90.926 E1773.42159
G1 X90.926 Y90.371 E1773.61765
G1 Z6.000 F7800.000
G1 X90.371 Y109.074 F7800.000
G1 X90.926 Y109.629 E1773.81371 F4800.000
G1 X92.083 Y109.629 E1774.10297
G1 X90.371 Y107.917 E1774.70809
G1 X90.371 Y106.760 E1774.99734
G1 X93.240 Y109.629 E1776.01152
G1 X94.397 Y109.629 E1776.30077
G1 X90.371 Y105.603 E1777.72402
G1 X90.371 Y104.446 E1778.01327
G1 X95.554 Y109.629 E1779.84557
G1 X96.711 Y109.629 E1780.13482
G1 X90.371 Y103.289 E1782.37619
G1 X90.371 Y102.132 E1782.66544
G1 X97.868 Y109.629 E1785.31587
G1 X99.025 Y109.629 E1785.60512
G1 X90.371 Y100.975 E1788.66461
G1 X90.371 Y99.818 E1788.95386
G1 X100.182 Y109.629 E1792.42241
G1 X101.339 Y109.629 E1792.71167
G1 X90.371 Y98.661 E1796.58928
G1 X90.371 Y97.504 E1796.87853
G1 X102.496 Y109.629 E1801.16520
G1 X103.653 Y109.629 E1801.45445
G1 X90.371 Y96.347 E1806.15019
G1 X90.371 Y95.190 E1806.43944
G1 X104.810 Y109.629 E1811.54424
G1 X105.967 Y109.629 E1811.83349
G1 X90.371 Y94.033 E1817.34735
G1 X90.371 Y92.876 E1817.63660
G1 X107.124 Y109.629 E1823.55952
G1 X108.281 Y109.629 E1823.84877
G1 X90.371 Y91.719 E1830.18076
G1 X90.371 Y90.562 E1830.47001
G1 X109.438 Y109.629 E1837.21105
G1 X109.629 Y108.663 E1837.45726
G1 X91.337 Y90.371 E1843.92419
G1 X92.494 Y90.371 E1844.21344
G1 X109.629 Y107.506 E1850.27132
G1 X109.629 Y106.349 E1850.56057
G1 X93.651 Y90.371 E1856.20938
G1 X94.808 Y90.371 E1856.49863
G1 X109.629 Y105.192 E1861.73838
G1 X109.629 Y104.035 E1862.02763
G1 X95.965 Y90.371 E1866.85832
G1 X97.122 Y90.371 E1867.14757
G1 X109.629 Y102.878 E1871.56920
G1 X109.629 Y101.721 E1871.85845
G1 X98.279 Y90.371 E1875.87102
G1 X99.436 Y90.371 E1876.16027
G1 X109.629 Y100.564 E1879.76378
G1 X109.629 Y99.407 E1880.05303
G1 X100.593 Y90.371 E1883.24747
G1 X101.750 Y90.371 E1883.53672
G1 X109.629 Y98.250 E1886.32211
G1 X109.629 Y97.093 E1886.61136
G1 X102.907 Y90.371 E1888.98768
G1 X104.064 Y90.371 E1889.27693
G1 X109.629 Y95.936 E1891.24419
G1 X109.629 Y94.779 E1891.53344
G1 X105.221 Y90.371 E1893.09164
G1 X106.378 Y90.371 E1893.38089
G1 X109.629 Y93.622 E1894.53002
G1 X109.629 Y92.465 E1894.81927
G1 X107.535 Y90.371 E1895.55935
G1 X108.692 Y90.371 E1895.84860
G1 X109.629 Y91.308 E1896.17961
G1 Z6.400 F7800.000
G1 X108.692 Y109.629 F7800.000
G1 X109.629 Y108.692 E1896.51063 F4800.000
G1 X109.629 Y107.535 E1896.79988
G1 X107.535 Y109.629 E1897.53995
G1 X106.378 Y109.629 E1897.82920
G1 X109.629 Y106.378 E1898.97834
G1 X109.629 Y105.221 E1899.26759
G1 X105.221 Y109.629 E1900.82579
G1 X104.064 Y109.629 E1901.11504
G1 X109.629 Y104.064 E1903.08230
G1 X109.629 Y102.907 E1903.37155
G1 X102.907 Y109.629 E1905.74787
G1 X101.750 Y109.629 E1906.03712
G1 X109.629 Y101.750 E1908.82250
G1 X109.629 Y100.593 E1909.11175
G1 X100.593 Y109.629 E1912.30620
G1 X99.436 Y109.629 E1912.59545
G1 X109.629 Y99.436 E1916.19895
G1 X109.629 Y98.279 E1916.48820
G1 X98.279 Y109.629 E1920.50077
G1 X97.122 Y109.629 E1920.79002
G1 X109.629 Y97.122 E1925.21165
G1 X109.629 Y95.965 E1925.50090
G1 X95.965 Y109.629 E1930.33159
G1 X94.808 Y109.629 E1930.62084
G1 X109.629 Y94.808 E1935.86059
G1 X109.629 Y93.651 E1936.14984
G1 X93.651 Y109.629 E1941.79866
G1 X92.494 Y109.629 E1942.08791
G1 X109.629 Y92.494 E1948.14578
G1 X109.629 Y91.337 E1948.43503
G1 X91.337 Y109.629 E1954.90197
G1 X90.371 Y109.438 E1955.14817
G1 X109.438 Y90.371 E1961.88922
G1 X108.281 Y90.371 E1962.17847
G1 X90.371 Y108.281 E1968.51045
G1 X90.371 Y107.124 E1968.79970
G1 X107.124 Y90.371 E1974.72263
G1 X105.967 Y90.371 E1975.01188
G1 X90.371 Y105.967 E1980.52574
G1 X90.371 Y104.810 E1980.81499
G1 X104.810 Y90.371 E1985.91979
G1 X103.653 Y90.371 E1986.20904
G1 X90.371 Y103.653 E1990.90478
G1 X90.371 Y102.496 E1991.19403
G1 X102.496 Y90.371 E1995.48070
G1 X101.339 Y90.371 E1995.76995
G1 X90.371 Y101.339 E1999.64757
G1 X90.371 Y100.182 E1999.93682
G1 X100.182 Y90.371 E2003.40537
G1 X99.025 Y90.371 E2003.69462
G1 X90.371 Y99.025 E2006.75411
G1 X90.371 Y97.868 E2007.04336
G1 X97.868 Y90.371 E2009.69379
G1 X96.711 Y90.371 E2009.98304
G1 X90.371 Y96.711 E2012.22441
G1 X90.371 Y95.554 E2012.51366
G1 X95.554 Y90.371 E2014.34597
G1 X94.397 Y90.371 E2014.63522
G1 X90.371 Y94.397 E2016.05846
G1 X90.371 Y93.240 E2016.34771
G1 X93.240 Y90.371 E2017.36190
G1 X92.083 Y90.371 E2017.65115
G1 X90.371 Y92.083 E2018.25627
G1 X90.371 Y90.926 E2018.54552
G1 X90.926 Y90.371 E2018.74158
G1 Z6.800 F7800.000
G1 X90.371 Y109.074 F7800.000
G1 X90.926 Y109.629 E2018.93764 F4800.000
G1 X92.083 Y109.629 E2019.22689
G1 X90.371 Y107.917 E2019.83201
G1 X90.371 Y106.760 E2020.12126
G1 X93.240 Y109.629 E2021.13545
G1 X94.397 Y109.629 E2021.42470
G1 X90.371 Y105.603 E2022.84794
G1 X90.371 Y104.446 E2023.13719
G1 X95.554 Y109.629 E2024.96950
G1 X96.711 Y109.629 E2025.25875
G1 X90.371 Y103.289 E2027.50012
G1 X90.371 Y102.132 E2027.78937
G1 X97.868 Y109.629 E2030.43980
G1 X99.025 Y109.629 E2030.72905
G1 X90.371 Y100.975 E2033.78854
G1 X90.371 Y99.818 E2034.07779
G1 X100.182 Y109.629 E2037.54634
G1 X101.339 Y109.629 E2037.83559
G1 X90.371 Y98.661 E2041.71320
G1 X90.371 Y97.504 E2042.00245
G1 X102.496 Y109.629 E2046.28913
G1 X103.653 Y109.629 E2046.57838
G1 X90.371 Y96.347 E2051.27412
G1 X90.371 Y95.190 E2051.56337
G1 X104.810 Y109.629 E2056.66816
G1 X105.967 Y109.629 E2056.95742
G1 X90.371 Y94.033 E2062.47128
G1 X90.371 Y92.876 E2062.76053
G1 X107.124 Y109.629 E2068.68345
G1 X108.281 Y109.629 E2068.97270
G1 X90.371 Y91.719 E2075.30468
G1 X90.371 Y90.562 E2075.59393
G1 X109.438 Y109.629 E2082.33498
G1 X109.629 Y108.663 E2082.58118
G1 X91.337 Y90.371 E2089.04812
G1 X92.494 Y90.371 E2089.33737
G1 X109.629 Y107.506 E2095.39524
G1 X109.629 Y106.349 E2095.68449
G1 X93.651 Y90.371 E2101.33331
G1 X94.808 Y90.371 E2101.62256
G1 X109.629 Y105.192 E2106.86231
G1 X109.629 Y104.035 E2107.15156
G1 X95.965 Y90.371 E2111.98225
G1 X97.122 Y90.371 E2112.27150
G1 X109.629 Y102.878 E2116.69313
G1 X109.629 Y101.721 E2116.98238
G1 X98.279 Y90.371 E2120.99495
G1 X99.436 Y90.371 E2121.28420
G1 X109.629 Y100.564 E2124.88770
G1 X109.629 Y99.407 E2125.17695
G1 X100.593 Y90.371 E2128.37140
G1 X101.750 Y90.371 E2128.66065
G1 X109.629 Y98.250 E2131.44603
G1 X109.629 Y97.093 E2131.73528
G1 X102.907 Y90.371 E2134.11160
G1 X104.064 Y90.371 E2134.40085
G1 X109.629 Y95.936 E2136.36811
G1 X109.629 Y94.779 E2136.65736
G1 X105.221 Y90.371 E2138.21556
G1 X106.378 Y90.371 E2138.50481
G1 X109.629 Y93.622 E2139.65395
G1 X109.629 Y92.465 E2139.94320
G1 X107.535 Y90.371 E2140.68327
G1 X108.692 Y90.371 E2140.97252
G1 X109.629 Y91.308 E2141.30354
G1 Z7.200 F7800.000
G1 X108.692 Y109.629 F7800.000
G1 X109.629 Y108.692 E2141.63455 F4800.000
G1 X109.629 Y107.535 E2141.92380
G1 X107.535 Y109.629 E2142.66388
G1 X106.378 Y109.629 E2142.95313
G1 X109.629 Y106.378 E2144.10226
G1 X109.629 Y105.221 E2144.39152
G1 X105.221 Y109.629 E2145.94971
G1 X104.064 Y109.629 E2146.23896
G1 X109.629 Y104.064 E2148.20622
G1 X109.629 Y102.907 E2148.49547
G1 X102.907 Y109.629 E2150.87179
G1 X101.750 Y109.629 E2151.16104
G1 X109.629 Y101.750 E2153.94643
G1 X109.629 Y100.593 E2154.23568
G1 X100.593 Y109.629 E2157.43012
G1 X99.436 Y109.629 E2157.71937
G1 X109.629 Y99.436 E2161.32288
G1 X109.629 Y98.279 E2161.61213
G1 X98.279 Y109.629 E2165.62470
G1 X97.122 Y109.629 E2165.91395
G1 X109.629 Y97.122 E2170.33557
G1 X109.629 Y95.965 E2170.62483
G1 X95.965 Y109.629 E2175.45552
G1 X94.808 Y109.629 E2175.74477
G1 X109.629 Y94.808 E2180.98452
G1 X109.629 Y93.651 E2181.27377
G1 X93.651 Y109.629 E2186.92258
G1 X92.494 Y109.629 E2187.21183
G1 X109.629 Y92.494 E2193.26971
G1 X109.629 Y91.337 E2193.55896
G1 X91.337 Y109.629 E2200.02589
G1 X90.371 Y109.438 E2200.27210
G1 X109.438 Y90.371 E2207.01314
G1 X108.281 Y90.371 E2207.30239
G1 X90.371 Y108.281 E2213.63438
G1 X90.371 Y107.124 E2213.92363
G1 X107.124 Y90.371 E2219.84655
G1 X105.967 Y90.371 E2220.13580
G1 X90.371 Y105.967 E2225.64966
G1 X90.371 Y104.810 E2225.93891
G1 X104.810 Y90.371 E2231.04371
G1 X103.653 Y90.371 E2231.33296
G1 X90.371 Y103.653 E2236.02870
G1 X90.371 Y102.496 E2236.31795
G1 X102.496 Y90.371 E2240.60463
G1 X101.339 Y90.371 E2240.89388
G1 X90.371 Y101.339 E2244.77149
G1 X90.371 Y100.182 E2245.06074
G1 X100.182 Y90.371 E2248.52929
G1 X99.025 Y90.371 E2248.81854
G1 X90.371 Y99.025 E2251.87804
G1 X90.371 Y97.868 E2252.16729
G1 X97.868 Y90.371 E2254.81772
G1 X96.711 Y90.371 E2255.10697
G1 X90.371 Y96.711 E2257.34833
G1 X90.371 Y95.554 E2257.63758
G1 X95.554 Y90.371 E2259.46989
G1 X94.397 Y90.371 E2259.75914
G1 X90.371 Y94.397 E2261.18239
G1 X90.371 Y93.240 E2261.47164
G1 X93.240 Y90.371 E2262.48582
G1 X92.083 Y90.371 E2262.77507
G1 X90.371 Y92.083 E2263.38019
G1 X90.371 Y90.926 E2263.66944
G1 X90.926 Y90.371 E2263.86550
G1 Z7.600 F7800.000
G1 X90.371 Y109.074 F7800.000
G1 X90.926 Y109.629 E2264.06156 F4800.000
G1 X92.083 Y109.629 E2264.35081
G1 X90.371 Y107.917 E2264.95594
G1 X90.371 Y106.760 E2265.24519
G1 X93.240 Y109.629 E2266.25937
G1 X94.397 Y109.629 E2266.54862
G1 X90.371 Y105.603 E2267.97186
G1 X90.371 Y104.446 E2268.26112
G1 X95.554 Y109.629 E2270.09342
G1 X96.711 Y109.629 E2270.38267
G1 X90.371 Y103.289 E2272.62404
G1 X90.371 Y102.132 E2272.91329
G1 X97.868 Y109.629 E2275.56372
G1 X99.025 Y109.629 E2275.85297
G1 X90.371 Y100.975 E2278.91246
G1 X90.371 Y99.818 E2279.20171
G1 X100.182 Y109.629 E2282.67026
G1 X101.339 Y109.629 E2282.95951
G1 X90.371 Y98.661 E2286.83713
G1 X90.371 Y97.504 E2287.12638
G1 X102.496 Y109.629 E2291.41305
G1 X103.653 Y109.629 E2291.70230
G1 X90.371 Y96.347 E2296.39804
G1 X90.371 Y95.190 E2296.68729
G1 X104.810 Y109.629 E2301.79209
G1 X105.967 Y109.629 E2302.08134
G1 X90.371 Y94.033 E2307.59520
G1 X90.371 Y92.876 E2307.88445
G1 X107.124 Y109.629 E2313.80737
G1 X108.281 Y109.629 E2314.09662
G1 X90.371 Y91.719 E2320.42861
G1 X90.371 Y90.562 E2320.71786
G1 X109.438 Y109.629 E2327.45890
G1 X109.629 Y108.663 E2327.70511
G1 X91.337 Y90.371 E2334.17204
G1 X92.494 Y90.371 E2334.46129
G1 X109.629 Y107.506 E2340.51917
G1 X109.629 Y106.349 E2340.80842
G1 X93.651 Y90.371 E2346.45723
G1 X94.808 Y90.371 E2346.74648
G1 X109.629 Y105.192 E2351.98623
G1 X109.629 Y104.035 E2352.27548
G1 X95.965 Y90.371 E2357.10617
G1 X97.122 Y90.371 E2357.39542
G1 X109.629 Y102.878 E2361.81705
G1 X109.629 Y101.721 E2362.10630
G1 X98.279 Y90.371 E2366.11887
G1 X99.436 Y90.371 E2366.40812
G1 X109.629 Y100.564 E2370.01163
G1 X109.629 Y99.407 E2370.30088
G1 X100.593 Y90.371 E2373.49532
G1 X101.750 Y90.371 E2373.78457
G1 X109.629 Y98.250 E2376.56996
G1 X109.629 Y97.093 E2376.85921
G1 X102.907 Y90.371 E2379.23553
G1 X104.064 Y90.371 E2379.52478
G1 X109.629 Y95.936 E2381.49204
G1 X109.629 Y94.779 E2381.78129
G1 X105.221 Y90.371 E2383.33949
G1 X106.378 Y90.371 E2383.62874
G1 X109.629 Y93.622 E2384.77787
G1 X109.629 Y92.465 E2385.06712
G1 X107.535 Y90.371 E2385.80720
G1 X108.692 Y90.371 E2386.09645
G1 X109.629 Y91.308 E2386.42746
G1 Z8.000 F7800.000
G1 X108.692 Y109.629 F7800.000
G1 X109.629 Y108.692 E2386.75848 F4800.000
G1 X109.629 Y107.535 E2387.04773
G1 X107.535 Y109.629 E2387.78780
G1 X106.378 Y109.629 E2388.07705
G1 X109.629 Y106.378 E2389.22619
G1 X109.629 Y105.221 E2389.51544
G1 X105.221 Y109.629 E2391.07364
G1 X104.064 Y109.629 E2391.36289
G1 X109.629 Y104.064 E2393.33015
G1 X109.629 Y102.907 E2393.61940
G1 X102.907 Y109.629 E2395.99572
G1 X101.750 Y109.629 E2396.28497
G1 X109.629 Y101.750 E2399.07035
G1 X109.629 Y100.593 E2399.35960
G1 X100.593 Y109.629 E2402.55405
G1 X99.436 Y109.629 E2402.84330
G1 X109.629 Y99.436 E2406.44680
G1 X109.629 Y98.279 E2406.73605
G1 X98.279 Y109.629 E2410.74862
G1 X97.122 Y109.629 E2411.03787
G1 X109.629 Y97.122 E2415.45950
G1 X109.629 Y95.965 E2415.74875
G1 X95.965 Y109.629 E2420.57944
G1 X94.808 Y109.629 E2420.86869
G1 X109.629 Y94.808 E2426.10844
G1 X109.629 Y93.651 E2426.39769
G1 X93.651 Y109.629 E2432.04651
G1 X92.494 Y109.629 E2432.33576
G1 X109.629 Y92.494 E2438.39363
G1 X109.629 Y91.337 E2438.68288
G1 X91.337 Y109.629 E2445.14982
G1 X90.371 Y109.438 E2445.39602
G1 X109.438 Y90.371 E2452.13707
G1 X108.281 Y90.371 E2452.42632
G1 X90.371 Y108.281 E2458.75830
G1 X90.371 Y107.124 E2459.04755
G1 X107.124 Y90.371 E2464.97047
G1 X105.967 Y90.371 E2465.25973
G1 X90.371 Y105.967 E2470.77359
G1 X90.371 Y104.810 E2471.06284
G1 X104.810 Y90.371 E2476.16764
G1 X103.653 Y90.371 E2476.45689
G1 X90.371 Y103.653 E2481.15262
G1 X90.371 Y102.496 E2481.44187
G1 X102.496 Y90.371 E2485.72855
G1 X101.339 Y90.371 E2486.01780
G1 X90.371 Y101.339 E2489.89542
G1 X90.371 Y100.182 E2490.18467
G1 X100.182 Y90.371 E2493.65322
G1 X99.025 Y90.371 E2493.94247
G1 X90.371 Y99.025 E2497.00196
G1 X90.371 Y97.868 E2497.29121
G1 X97.868 Y90.371 E2499.94164
G1 X96.711 Y90.371 E2500.23089
G1 X90.371 Y96.711 E2502.47226
G1 X90.371 Y95.554 E2502.76151
G1 X95.554 Y90.371 E2504.59382
G1 X94.397 Y90.371 E2504.88307
G1 X90.371 Y94.397 E2506.30631
G1 X90.371 Y93.240 E2506.59556
G1 X93.240 Y90.371 E2507.60974
G1 X92.083 Y90.371 E2507.89899
G1 X90.371 Y92.083 E2508.50412
G1 X90.371 Y90.926 E2508.79337
G1 X90.926 Y90.371 E2508.98943