; generated by Slic3r 1.3.0 on 2020-03-14 at 13:56:28

; external perimeters extrusion width = 0.55mm (3.04mm^3/s)
; perimeters extrusion width = 0.70mm (7.88mm^3/s)
; infill extrusion width = 0.63mm (9.31mm^3/s)
; solid infill extrusion width = 0.70mm (2.63mm^3/s)
; top infill extrusion width = 0.70mm (1.97mm^3/s)

M107
M104 S205 ; set temperature
G28 ; home all axes
G1 Z5 F5000 ; lift nozzle

; Filament gcode

M109 S205 ; set temperature and wait for it to be reached
G21 ; set units to millimeters
G90 ; use absolute coordinates
M82 ; use absolute distances for extrusion
G92 E0
G1 Z0.200 F7800.000
G1 E-2.00000 F2400.00000
G92 E0
G1 X90.359 Y90.724 F7800.000
G1 E2.00000 F2400.00000
G1 F1800
G1 X90.724 Y90.358 E2.00522
G1 X91.565 Y90.358 E2.01371
G1 X90.358 Y91.565 E2.03095
G1 X90.358 Y92.405 E2.03944
G1 X92.405 Y90.358 E2.06869
G1 X93.246 Y90.358 E2.07718
G1 X90.358 Y93.246 E2.11845
G1 X90.358 Y94.087 E2.12694
G1 X94.087 Y90.358 E2.18021
G1 X94.928 Y90.358 E2.18871
G1 X90.358 Y94.928 E2.25400
G1 X90.358 Y95.769 E2.26249
G1 X95.769 Y90.358 E2.33979
G1 X96.609 Y90.358 E2.34829
G1 X90.358 Y96.609 E2.43760
G1 X90.358 Y97.450 E2.44610
G1 X97.450 Y90.358 E2.54743
G1 X98.291 Y90.358 E2.55592
G1 X90.358 Y98.291 E2.66926
G1 X90.358 Y99.132 E2.67776
G1 X99.132 Y90.358 E2.80311
G1 X99.973 Y90.358 E2.81161
G1 X90.358 Y99.972 E2.94897
G1 X90.358 Y100.813 E2.95747
G1 X100.813 Y90.358 E3.10685
G1 X101.654 Y90.358 E3.11535
G1 X90.358 Y101.654 E3.27674
G1 X90.358 Y102.495 E3.28523
G1 X102.495 Y90.358 E3.45864
G1 X103.336 Y90.358 E3.46714
G1 X90.358 Y103.336 E3.65256
G1 X90.358 Y104.176 E3.66105
G1 X104.176 Y90.358 E3.85849
G1 X105.017 Y90.358 E3.86698
G1 X90.358 Y105.017 E4.07643
G1 X90.358 Y105.858 E4.08493
G1 X105.858 Y90.358 E4.30639
G1 X106.699 Y90.358 E4.31488
G1 X90.358 Y106.699 E4.54836
G1 X90.358 Y107.540 E4.55685
G1 X107.540 Y90.358 E4.80234
G1 X108.380 Y90.358 E4.81084
G1 X90.358 Y108.380 E5.06834
G1 X90.358 Y109.221 E5.07683
G1 X109.221 Y90.358 E5.34635
G1 X109.642 Y90.358 E5.35060
G1 X109.642 Y90.779 E5.35485
G1 X90.779 Y109.642 E5.62436
G1 X91.620 Y109.642 E5.63286
G1 X109.642 Y91.620 E5.89036
G1 X109.642 Y92.460 E5.89885
G1 X92.460 Y109.642 E6.14434
G1 X93.301 Y109.642 E6.15284
G1 X109.642 Y93.301 E6.38631
G1 X109.642 Y94.142 E6.39481
G1 X94.142 Y109.642 E6.61627
G1 X94.983 Y109.642 E6.62476
G1 X109.642 Y94.983 E6.83421
G1 X109.642 Y95.824 E6.84271
G1 X95.824 Y109.642 E7.04014
G1 X96.664 Y109.642 E7.04863
G1 X109.642 Y96.664 E7.23406
G1 X109.642 Y97.505 E7.24255
G1 X97.505 Y109.642 E7.41596
G1 X98.346 Y109.642 E7.42445
G1 X109.642 Y98.346 E7.58585
G1 X109.642 Y99.187 E7.59434
G1 X99.187 Y109.642 E7.74373
G1 X100.028 Y109.642 E7.75222
G1 X109.642 Y100.028 E7.88959
G1 X109.642 Y100.868 E7.89808
G1 X100.868 Y109.642 E8.02344
G1 X101.709 Y109.642 E8.03193
G1 X109.642 Y101.709 E8.14527
G1 X109.642 Y102.550 E8.15377
G1 X102.550 Y109.642 E8.25510
G1 X103.391 Y109.642 E8.26359
G1 X109.642 Y103.391 E8.35291
G1 X109.642 Y104.231 E8.36140
G1 X104.231 Y109.642 E8.43870
G1 X105.072 Y109.642 E8.44720
G1 X109.642 Y105.072 E8.51248
G1 X109.642 Y105.913 E8.52098
G1 X105.913 Y109.642 E8.57425
G1 X106.754 Y109.642 E8.58275
G1 X109.642 Y106.754 E8.62401
G1 X109.642 Y107.595 E8.63250
G1 X107.595 Y109.642 E8.66175
G1 X108.435 Y109.642 E8.67025
G1 X109.642 Y108.435 E8.68748
G1 X109.642 Y109.276 E8.69597
G1 X109.276 Y109.642 E8.70120
M104 S200 ; set temperature
G1 Z0.400 F7800.000
G1 X90.782 Y109.700 F7800.000
G1 F4800
G1 X90.300 Y109.218 E8.71242
G1 X90.300 Y108.377 E8.72627
G1 X91.623 Y109.700 E8.75708
G1 X92.464 Y109.700 E8.77093
G1 X90.300 Y107.536 E8.82132
G1 X90.300 Y106.695 E8.83517
G1 X93.305 Y109.700 E8.90515
G1 X94.145 Y109.700 E8.91899
G1 X90.300 Y105.855 E9.00855
G1 X90.300 Y105.014 E9.02240
G1 X94.986 Y109.700 E9.13154
G1 X95.827 Y109.700 E9.14539
G1 X90.300 Y104.173 E9.27412
G1 X90.300 Y103.332 E9.28797
G1 X96.668 Y109.700 E9.43628
G1 X97.508 Y109.700 E9.45012
G1 X90.300 Y102.492 E9.61802
G1 X90.300 Y101.651 E9.63186
G1 X98.349 Y109.700 E9.81934
G1 X99.190 Y109.700 E9.83319
G1 X90.300 Y100.810 E10.04025
G1 X90.300 Y99.969 E10.05410
G1 X100.031 Y109.700 E10.28074
G1 X100.872 Y109.700 E10.29459
G1 X90.300 Y99.128 E10.54081
G1 X90.300 Y98.288 E10.55466
G1 X101.712 Y109.700 E10.82047
G1 X102.553 Y109.700 E10.83432
G1 X90.300 Y97.447 E11.11971
G1 X90.300 Y96.606 E11.13356
G1 X103.394 Y109.700 E11.43853
G1 X104.235 Y109.700 E11.45238
G1 X90.300 Y95.765 E11.77694
G1 X90.300 Y94.924 E11.79079
G1 X105.076 Y109.700 E12.13493
G1 X105.916 Y109.700 E12.14877
G1 X90.300 Y94.084 E12.51250
G1 X90.300 Y93.243 E12.52635
G1 X106.757 Y109.700 E12.90966
G1 X107.598 Y109.700 E12.92350
G1 X90.300 Y92.402 E13.32639
G1 X90.300 Y91.561 E13.34024
G1 X108.439 Y109.700 E13.76272
G1 X109.280 Y109.700 E13.77656
G1 X90.300 Y90.720 E14.21862
G1 X90.300 Y90.300 E14.22554
G1 X90.720 Y90.300 E14.23247
G1 X109.700 Y109.280 E14.67453
G1 X109.700 Y108.439 E14.68837
G1 X91.561 Y90.300 E15.11085
G1 X92.402 Y90.300 E15.12470
G1 X109.700 Y107.598 E15.52759
G1 X109.700 Y106.757 E15.54143
G1 X93.243 Y90.300 E15.92474
G1 X94.084 Y90.300 E15.93859
G1 X109.700 Y105.916 E16.30231
G1 X109.700 Y105.076 E16.31616
G1 X94.924 Y90.300 E16.66030
G1 X95.765 Y90.300 E16.67415
G1 X109.700 Y104.235 E16.99871
G1 X109.700 Y103.394 E17.01256
G1 X96.606 Y90.300 E17.31753
G1 X97.447 Y90.300 E17.33138
G1 X109.700 Y102.553 E17.61677
G1 X109.700 Y101.712 E17.63062
G1 X98.288 Y90.300 E17.89643
G1 X99.128 Y90.300 E17.91028
G1 X109.700 Y100.872 E18.15650
G1 X109.700 Y100.031 E18.17035
G1 X99.969 Y90.300 E18.39699
G1 X100.810 Y90.300 E18.41084
G1 X109.700 Y99.190 E18.61790
G1 X109.700 Y98.349 E18.63175
G1 X101.651 Y90.300 E18.81922
G1 X102.492 Y90.300 E18.83307
G1 X109.700 Y97.508 E19.00096
G1 X109.700 Y96.668 E19.01481
G1 X103.332 Y90.300 E19.16312
G1 X104.173 Y90.300 E19.17697
G1 X109.700 Y95.827 E19.30570
G1 X109.700 Y94.986 E19.31954
G1 X105.014 Y90.300 E19.42869
G1 X105.855 Y90.300 E19.44253
G1 X109.700 Y94.145 E19.53209
G1 X109.700 Y93.305 E19.54594
G1 X106.695 Y90.300 E19.61592
G1 X107.536 Y90.300 E19.62977
G1 X109.700 Y92.464 E19.68016
G1 X109.700 Y91.623 E19.69401
G1 X108.377 Y90.300 E19.72482
G1 X109.218 Y90.300 E19.73867
G1 X109.700 Y90.782 E19.74989
G1 Z0.600 F7800.000
G1 X109.218 Y109.700 F7800.000
G1 F4800
G1 X109.700 Y109.218 E19.76112
G1 X109.700 Y108.377 E19.77497
G1 X108.377 Y109.700 E19.80578
G1 X107.536 Y109.700 E19.81963
G1 X109.700 Y107.536 E19.87002
G1 X109.700 Y106.695 E19.88387
G1 X106.695 Y109.700 E19.95385
G1 X105.855 Y109.700 E19.96769
G1 X109.700 Y105.855 E20.05725
G1 X109.700 Y105.014 E20.07110
G1 X105.014 Y109.700 E20.18025
G1 X104.173 Y109.700 E20.19409
G1 X109.700 Y104.173 E20.32282
G1 X109.700 Y103.332 E20.33667
G1 X103.332 Y109.700 E20.48498
G1 X102.492 Y109.700 E20.49883
G1 X109.700 Y102.492 E20.66672
G1 X109.700 Y101.651 E20.68057
G1 X101.651 Y109.700 E20.86804
G1 X100.810 Y109.700 E20.88189
G1 X109.700 Y100.810 E21.08895
G1 X109.700 Y99.969 E21.10280
G1 X99.969 Y109.700 E21.32944
G1 X99.128 Y109.700 E21.34329
G1 X109.700 Y99.128 E21.58951
G1 X109.700 Y98.288 E21.60336
G1 X98.288 Y109.700 E21.86917
G1 X97.447 Y109.700 E21.88302
G1 X109.700 Y97.447 E22.16841
G1 X109.700 Y96.606 E22.18226
G1 X96.606 Y109.700 E22.48723
G1 X95.765 Y109.700 E22.50108
G1 X109.700 Y95.765 E22.82564
G1 X109.700 Y94.924 E22.83948
G1 X94.924 Y109.700 E23.18363
G1 X94.084 Y109.700 E23.19747
G1 X109.700 Y94.084 E23.56120
G1 X109.700 Y93.243 E23.57505
G1 X93.243 Y109.700 E23.95835
G1 X92.402 Y109.700 E23.97220
G1 X109.700 Y92.402 E24.37509
G1 X109.700 Y91.561 E24.38894
G1 X91.561 Y109.700 E24.81141
G1 X90.720 Y109.700 E24.82526
G1 X109.700 Y90.720 E25.26732
G1 X109.700 Y90.300 E25.27424
G1 X109.280 Y90.300 E25.28117
G1 X90.300 Y109.280 E25.72322
G1 X90.300 Y108.439 E25.73707
G1 X108.439 Y90.300 E26.15955
G1 X107.598 Y90.300 E26.17339
G1 X90.300 Y107.598 E26.57629
G1 X90.300 Y106.757 E26.59013
G1 X106.757 Y90.300 E26.97344
G1 X105.916 Y90.300 E26.98729
G1 X90.300 Y105.916 E27.35101
G1 X90.300 Y105.076 E27.36486
G1 X105.076 Y90.300 E27.70900
G1 X104.235 Y90.300 E27.72285
G1 X90.300 Y104.235 E28.04741
G1 X90.300 Y103.394 E28.06126
G1 X103.394 Y90.300 E28.36623
G1 X102.553 Y90.300 E28.38008
G1 X90.300 Y102.553 E28.66547
G1 X90.300 Y101.712 E28.67932
G1 X101.712 Y90.300 E28.94513
G1 X100.872 Y90.300 E28.95898
G1 X90.300 Y100.872 E29.20520
G1 X90.300 Y100.031 E29.21905
G1 X100.031 Y90.300 E29.44569
G1 X99.190 Y90.300 E29.45954
G1 X90.300 Y99.190 E29.66660
G1 X90.300 Y98.349 E29.68045
G1 X98.349 Y90.300 E29.86792
G1 X97.508 Y90.300 E29.88177
G1 X90.300 Y97.508 E30.04966
G1 X90.300 Y96.668 E30.06351
G1 X96.668 Y90.300 E30.21182
G1 X95.827 Y90.300 E30.22567
G1 X90.300 Y95.827 E30.35440
G1 X90.300 Y94.986 E30.36824
G1 X94.986 Y90.300 E30.47739
G1 X94.145 Y90.300 E30.49123
G1 X90.300 Y94.145 E30.58080
G1 X90.300 Y93.305 E30.59464
G1 X93.305 Y90.300 E30.66462
G1 X92.464 Y90.300 E30.67847
G1 X90.300 Y92.464 E30.72886
G1 X90.300 Y91.623 E30.74271
G1 X91.623 Y90.300 E30.77352
G1 X90.782 Y90.300 E30.78737
G1 X90.300 Y90.782 E30.79859
M106 S242.25
G1 Z0.800 F7800.000
G1 X90.782 Y109.700 F7800.000
G1 F4800
G1 X90.300 Y109.218 E30.80982
G1 X90.300 Y108.377 E30.82366
G1 X91.623 Y109.700 E30.85448
G1 X92.464 Y109.700 E30.86832
G1 X90.300 Y107.536 E30.91872
G1 X90.300 Y106.695 E30.93256
G1 X93.305 Y109.700 E31.00254
G1 X94.145 Y109.700 E31.01639
G1 X90.300 Y105.855 E31.10595
G1 X90.300 Y105.014 E31.11980
G1 X94.986 Y109.700 E31.22894
G1 X95.827 Y109.700 E31.24279
G1 X90.300 Y104.173 E31.37152
G1 X90.300 Y103.332 E31.38536
G1 X96.668 Y109.700 E31.53367
G1 X97.508 Y109.700 E31.54752
G1 X90.300 Y102.492 E31.71541
G1 X90.300 Y101.651 E31.72926
G1 X98.349 Y109.700 E31.91674
G1 X99.190 Y109.700 E31.93059
G1 X90.300 Y100.810 E32.13765
G1 X90.300 Y99.969 E32.15149
G1 X100.031 Y109.700 E32.37814
G1 X100.872 Y109.700 E32.39198
G1 X90.300 Y99.128 E32.63821
G1 X90.300 Y98.288 E32.65206
G1 X101.712 Y109.700 E32.91787
G1 X102.553 Y109.700 E32.93171
G1 X90.300 Y97.447 E33.21711
G1 X90.300 Y96.606 E33.23095
G1 X103.394 Y109.700 E33.53593
G1 X104.235 Y109.700 E33.54978
G1 X90.300 Y95.765 E33.87434
G1 X90.300 Y94.924 E33.88818
G1 X105.076 Y109.700 E34.23232
G1 X105.916 Y109.700 E34.24617
G1 X90.300 Y94.084 E34.60990
G1 X90.300 Y93.243 E34.62374
G1 X106.757 Y109.700 E35.00705
G1 X107.598 Y109.700 E35.02090
G1 X90.300 Y92.402 E35.42379
G1 X90.300 Y91.561 E35.43764
G1 X108.439 Y109.700 E35.86011
G1 X109.280 Y109.700 E35.87396
G1 X90.300 Y90.720 E36.31602
G1 X90.300 Y90.300 E36.32294
G1 X90.720 Y90.300 E36.32987
G1 X109.700 Y109.280 E36.77192
G1 X109.700 Y108.439 E36.78577
G1 X91.561 Y90.300 E37.20825
G1 X92.402 Y90.300 E37.22209
G1 X109.700 Y107.598 E37.62498
G1 X109.700 Y106.757 E37.63883
G1 X93.243 Y90.300 E38.02214
G1 X94.084 Y90.300 E38.03599
G1 X109.700 Y105.916 E38.39971
G1 X109.700 Y105.076 E38.41356
G1 X94.924 Y90.300 E38.75770
G1 X95.765 Y90.300 E38.77155
G1 X109.700 Y104.235 E39.09611
G1 X109.700 Y103.394 E39.10995
G1 X96.606 Y90.300 E39.41493
G1 X97.447 Y90.300 E39.42878
G1 X109.700 Y102.553 E39.71417
G1 X109.700 Y101.712 E39.72802
G1 X98.288 Y90.300 E39.99383
G1 X99.128 Y90.300 E40.00767
G1 X109.700 Y100.872 E40.25390
G1 X109.700 Y100.031 E40.26775
G1 X99.969 Y90.300 E40.49439
G1 X100.810 Y90.300 E40.50824
G1 X109.700 Y99.190 E40.71530
G1 X109.700 Y98.349 E40.72914
G1 X101.651 Y90.300 E40.91662
G1 X102.492 Y90.300 E40.93047
G1 X109.700 Y97.508 E41.09836
G1 X109.700 Y96.668 E41.11221
G1 X103.332 Y90.300 E41.26052
G1 X104.173 Y90.300 E41.27437
G1 X109.700 Y95.827 E41.40309
G1 X109.700 Y94.986 E41.41694
G1 X105.014 Y90.300 E41.52608
G1 X105.855 Y90.300 E41.53993
G1 X109.700 Y94.145 E41.62949
G1 X109.700 Y93.305 E41.64334
G1 X106.695 Y90.300 E41.71332
G1 X107.536 Y90.300 E41.72716
G1 X109.700 Y92.464 E41.77756
G1 X109.700 Y91.623 E41.79141
G1 X108.377 Y90.300 E41.82222
G1 X109.218 Y90.300 E41.83606
G1 X109.700 Y90.782 E41.84729
G1 Z1.000 F7800.000
G1 X109.218 Y109.700 F7800.000
G1 F4800
G1 X109.700 Y109.218 E41.85852
G1 X109.700 Y108.377 E41.87237
G1 X108.377 Y109.700 E41.90318
G1 X107.536 Y109.700 E41.91703
G1 X109.700 Y107.536 E41.96742
G1 X109.700 Y106.695 E41.98127
G1 X106.695 Y109.700 E42.05124
G1 X105.855 Y109.700 E42.06509
G1 X109.700 Y105.855 E42.15465
G1 X109.700 Y105.014 E42.16850
G1 X105.014 Y109.700 E42.27764
G1 X104.173 Y109.700 E42.29149
G1 X109.700 Y104.173 E42.42022
G1 X109.700 Y103.332 E42.43407
G1 X103.332 Y109.700 E42.58238
G1 X102.492 Y109.700 E42.59622
G1 X109.700 Y102.492 E42.76412
G1 X109.700 Y101.651 E42.77796
G1 X101.651 Y109.700 E42.96544
G1 X100.810 Y109.700 E42.97929
G1 X109.700 Y100.810 E43.18635
G1 X109.700 Y99.969 E43.20019
G1 X99.969 Y109.700 E43.42684
G1 X99.128 Y109.700 E43.44068
G1 X109.700 Y99.128 E43.68691
G1 X109.700 Y98.288 E43.70076
G1 X98.288 Y109.700 E43.96657
G1 X97.447 Y109.700 E43.98041
G1 X109.700 Y97.447 E44.26581
G1 X109.700 Y96.606 E44.27965
G1 X96.606 Y109.700 E44.58463
G1 X95.765 Y109.700 E44.59848
G1 X109.700 Y95.765 E44.92303
G1 X109.700 Y94.924 E44.93688
G1 X94.924 Y109.700 E45.28102
G1 X94.084 Y109.700 E45.29487
G1 X109.700 Y94.084 E45.65860
G1 X109.700 Y93.243 E45.67244
G1 X93.243 Y109.700 E46.05575
G1 X92.402 Y109.700 E46.06960
G1 X109.700 Y92.402 E46.47249
G1 X109.700 Y91.561 E46.48634
G1 X91.561 Y109.700 E46.90881
G1 X90.720 Y109.700 E46.92266
G1 X109.700 Y90.720 E47.36472
G1 X109.700 Y90.300 E47.37164
G1 X109.280 Y90.300 E47.37856
G1 X90.300 Y109.280 E47.82062
G1 X90.300 Y108.439 E47.83447
G1 X108.439 Y90.300 E48.25694
G1 X107.598 Y90.300 E48.27079
G1 X90.300 Y107.598 E48.67368
G1 X90.300 Y106.757 E48.68753
G1 X106.757 Y90.300 E49.07084
G1 X105.916 Y90.300 E49.08469
G1 X90.300 Y105.916 E49.44841
G1 X90.300 Y105.076 E49.46226
G1 X105.076 Y90.300 E49.80640
G1 X104.235 Y90.300 E49.82025
G1 X90.300 Y104.235 E50.14481
G1 X90.300 Y103.394 E50.15865
G1 X103.394 Y90.300 E50.46363
G1 X102.553 Y90.300 E50.47748
G1 X90.300 Y102.553 E50.76287
G1 X90.300 Y101.712 E50.77672
G1 X101.712 Y90.300 E51.04253
G1 X100.872 Y90.300 E51.05637
G1 X90.300 Y100.872 E51.30260
G1 X90.300 Y100.031 E51.31645
G1 X100.031 Y90.300 E51.54309
G1 X99.190 Y90.300 E51.55694
G1 X90.300 Y99.190 E51.76400
G1 X90.300 Y98.349 E51.77784
G1 X98.349 Y90.300 E51.96532
G1 X97.508 Y90.300 E51.97917
G1 X90.300 Y97.508 E52.14706
G1 X90.300 Y96.668 E52.16091
G1 X96.668 Y90.300 E52.30922
G1 X95.827 Y90.300 E52.32307
G1 X90.300 Y95.827 E52.45179
G1 X90.300 Y94.986 E52.46564
G1 X94.986 Y90.300 E52.57478
G1 X94.145 Y90.300 E52.58863
G1 X90.300 Y94.145 E52.67819
G1 X90.300 Y93.305 E52.69204
G1 X93.305 Y90.300 E52.76202
G1 X92.464 Y90.300 E52.77587
G1 X90.300 Y92.464 E52.82626
G1 X90.300 Y91.623 E52.84011
G1 X91.623 Y90.300 E52.87092
G1 X90.782 Y90.300 E52.88477
G1 X90.300 Y90.782 E52.89599
G1 Z1.200 F7800.000
G1 X90.782 Y109.700 F7800.000
G1 F4800
G1 X90.300 Y109.218 E52.90721
G1 X90.300 Y108.377 E52.92106
G1 X91.623 Y109.700 E52.95187
G1 X92.464 Y109.700 E52.96572
G1 X90.300 Y107.536 E53.01611
G1 X90.300 Y106.695 E53.02996
G1 X93.305 Y109.700 E53.09994
G1 X94.145 Y109.700 E53.11379
G1 X90.300 Y105.855 E53.20335
G1 X90.300 Y105.014 E53.21720
G1 X94.986 Y109.700 E53.32634
G1 X95.827 Y109.700 E53.34019
G1 X90.300 Y104.173 E53.46891
G1 X90.300 Y103.332 E53.48276
G1 X96.668 Y109.700 E53.63107
G1 X97.508 Y109.700 E53.64492
G1 X90.300 Y102.492 E53.81281
G1 X90.300 Y101.651 E53.82666
G1 X98.349 Y109.700 E54.01414
G1 X99.190 Y109.700 E54.02798
G1 X90.300 Y100.810 E54.23504
G1 X90.300 Y99.969 E54.24889
G1 X100.031 Y109.700 E54.47553
G1 X100.872 Y109.700 E54.48938
G1 X90.300 Y99.128 E54.73561
G1 X90.300 Y98.288 E54.74945
G1 X101.712 Y109.700 E55.01526
G1 X102.553 Y109.700 E55.02911
G1 X90.300 Y97.447 E55.31450
G1 X90.300 Y96.606 E55.32835
G1 X103.394 Y109.700 E55.63333
G1 X104.235 Y109.700 E55.64717
G1 X90.300 Y95.765 E55.97173
G1 X90.300 Y94.924 E55.98558
G1 X105.076 Y109.700 E56.32972
G1 X105.916 Y109.700 E56.34357
G1 X90.300 Y94.084 E56.70729
G1 X90.300 Y93.243 E56.72114
G1 X106.757 Y109.700 E57.10445
G1 X107.598 Y109.700 E57.11830
G1 X90.300 Y92.402 E57.52119
G1 X90.300 Y91.561 E57.53504
G1 X108.439 Y109.700 E57.95751
G1 X109.280 Y109.700 E57.97136
G1 X90.300 Y90.720 E58.41342
G1 X90.300 Y90.300 E58.42034
G1 X90.720 Y90.300 E58.42726
G1 X109.700 Y109.280 E58.86932
G1 X109.700 Y108.439 E58.88317
G1 X91.561 Y90.300 E59.30564
G1 X92.402 Y90.300 E59.31949
G1 X109.700 Y107.598 E59.72238
G1 X109.700 Y106.757 E59.73623
G1 X93.243 Y90.300 E60.11954
G1 X94.084 Y90.300 E60.13338
G1 X109.700 Y105.916 E60.49711
G1 X109.700 Y105.076 E60.51096
G1 X94.924 Y90.300 E60.85510
G1 X95.765 Y90.300 E60.86895
G1 X109.700 Y104.235 E61.19350
G1 X109.700 Y103.394 E61.20735
G1 X96.606 Y90.300 E61.51233
G1 X97.447 Y90.300 E61.52617
G1 X109.700 Y102.553 E61.81157
G1 X109.700 Y101.712 E61.82541
G1 X98.288 Y90.300 E62.09122
G1 X99.128 Y90.300 E62.10507
G1 X109.700 Y100.872 E62.35130
G1 X109.700 Y100.031 E62.36514
G1 X99.969 Y90.300 E62.59179
G1 X100.810 Y90.300 E62.60563
G1 X109.700 Y99.190 E62.81269
G1 X109.700 Y98.349 E62.82654
G1 X101.651 Y90.300 E63.01402
G1 X102.492 Y90.300 E63.02787
G1 X109.700 Y97.508 E63.19576
G1 X109.700 Y96.668 E63.20961
G1 X103.332 Y90.300 E63.35792
G1 X104.173 Y90.300 E63.37176
G1 X109.700 Y95.827 E63.50049
G1 X109.700 Y94.986 E63.51434
G1 X105.014 Y90.300 E63.62348
G1 X105.855 Y90.300 E63.63733
G1 X109.700 Y94.145 E63.72689
G1 X109.700 Y93.305 E63.74074
G1 X106.695 Y90.300 E63.81071
G1 X107.536 Y90.300 E63.82456
G1 X109.700 Y92.464 E63.87496
G1 X109.700 Y91.623 E63.88880
G1 X108.377 Y90.300 E63.91961
G1 X109.218 Y90.300 E63.93346
G1 X109.700 Y90.782 E63.94469
G1 Z1.400 F7800.000
G1 X109.218 Y109.700 F7800.000
G1 F4800
G1 X109.700 Y109.218 E63.95592
G1 X109.700 Y108.377 E63.96976
G1 X108.377 Y109.700 E64.00058
G1 X107.536 Y109.700 E64.01442
G1 X109.700 Y107.536 E64.06482
G1 X109.700 Y106.695 E64.07866
G1 X106.695 Y109.700 E64.14864
G1 X105.855 Y109.700 E64.16249
G1 X109.700 Y105.855 E64.25205
G1 X109.700 Y105.014 E64.26590
G1 X105.014 Y109.700 E64.37504
G1 X104.173 Y109.700 E64.38889
G1 X109.700 Y104.173 E64.51762
G1 X109.700 Y103.332 E64.53146
G1 X103.332 Y109.700 E64.67977
G1 X102.492 Y109.700 E64.69362
G1 X109.700 Y102.492 E64.86151
G1 X109.700 Y101.651 E64.87536
G1 X101.651 Y109.700 E65.06284
G1 X100.810 Y109.700 E65.07668
G1 X109.700 Y100.810 E65.28374
G1 X109.700 Y99.969 E65.29759
G1 X99.969 Y109.700 E65.52423
G1 X99.128 Y109.700 E65.53808
G1 X109.700 Y99.128 E65.78431
G1 X109.700 Y98.288 E65.79815
G1 X98.288 Y109.700 E66.06396
G1 X97.447 Y109.700 E66.07781
G1 X109.700 Y97.447 E66.36320
G1 X109.700 Y96.606 E66.37705
G1 X96.606 Y109.700 E66.68203
G1 X95.765 Y109.700 E66.69587
G1 X109.700 Y95.765 E67.02043
G1 X109.700 Y94.924 E67.03428
G1 X94.924 Y109.700 E67.37842
G1 X94.084 Y109.700 E67.39227
G1 X109.700 Y94.084 E67.75599
G1 X109.700 Y93.243 E67.76984
G1 X93.243 Y109.700 E68.15315
G1 X92.402 Y109.700 E68.16700
G1 X109.700 Y92.402 E68.56989
G1 X109.700 Y91.561 E68.58374
G1 X91.561 Y109.700 E69.00621
G1 X90.720 Y109.700 E69.02006
G1 X109.700 Y90.720 E69.46211
G1 X109.700 Y90.300 E69.46904
G1 X109.280 Y90.300 E69.47596
G1 X90.300 Y109.280 E69.91802
G1 X90.300 Y108.439 E69.93187
G1 X108.439 Y90.300 E70.35434
G1 X107.598 Y90.300 E70.36819
G1 X90.300 Y107.598 E70.77108
G1 X90.300 Y106.757 E70.78493
G1 X106.757 Y90.300 E71.16824
G1 X105.916 Y90.300 E71.18208
G1 X90.300 Y105.916 E71.54581
G1 X90.300 Y105.076 E71.55966
G1 X105.076 Y90.300 E71.90380
G1 X104.235 Y90.300 E71.91765
G1 X90.300 Y104.235 E72.24220
G1 X90.300 Y103.394 E72.25605
G1 X103.394 Y90.300 E72.56103
G1 X102.553 Y90.300 E72.57487
G1 X90.300 Y102.553 E72.86027
G1 X90.300 Y101.712 E72.87411
G1 X101.712 Y90.300 E73.13992
G1 X100.872 Y90.300 E73.15377
G1 X90.300 Y100.872 E73.40000
G1 X90.300 Y100.031 E73.41384
G1 X100.031 Y90.300 E73.64049
G1 X99.190 Y90.300 E73.65433
G1 X90.300 Y99.190 E73.86139
G1 X90.300 Y98.349 E73.87524
G1 X98.349 Y90.300 E74.06272
G1 X97.508 Y90.300 E74.07657
G1 X90.300 Y97.508 E74.24446
G1 X90.300 Y96.668 E74.25831
G1 X96.668 Y90.300 E74.40662
G1 X95.827 Y90.300 E74.42046
G1 X90.300 Y95.827 E74.54919
G1 X90.300 Y94.986 E74.56304
G1 X94.986 Y90.300 E74.67218
G1 X94.145 Y90.300 E74.68603
G1 X90.300 Y94.145 E74.77559
G1 X90.300 Y93.305 E74.78944
G1 X93.305 Y90.300 E74.85942
G1 X92.464 Y90.300 E74.87326
G1 X90.300 Y92.464 E74.92366
G1 X90.300 Y91.623 E74.93750
G1 X91.623 Y90.300 E74.96832
G1 X90.782 Y90.300 E74.98216
G1 X90.300 Y90.782 E74.99339
G1 Z1.600 F7800.000
G1 X90.782 Y109.700 F7800.000
G1 F4800
G1 X90.300 Y109.218 E75.00461
G1 X90.300 Y108.377 E75.01846
G1 X91.623 Y109.700 E75.04927
G1 X92.464 Y109.700 E75.06312
G1 X90.300 Y107.536 E75.11351
G1 X90.300 Y106.695 E75.12736
G1 X93.305 Y109.700 E75.19734
G1 X94.145 Y109.700 E75.21118
G1 X90.300 Y105.855 E75.30075
G1 X90.300 Y105.014 E75.31459
G1 X94.986 Y109.700 E75.42374
G1 X95.827 Y109.700 E75.43758
G1 X90.300 Y104.173 E75.56631
G1 X90.300 Y103.332 E75.58016
G1 X96.668 Y109.700 E75.72847
G1 X97.508 Y109.700 E75.74232
G1 X90.300 Y102.492 E75.91021
G1 X90.300 Y101.651 E75.92406
G1 X98.349 Y109.700 E76.11153
G1 X99.190 Y109.700 E76.12538
G1 X90.300 Y100.810 E76.33244
G1 X90.300 Y99.969 E76.34629
G1 X100.031 Y109.700 E76.57293
G1 X100.872 Y109.700 E76.58678
G1 X90.300 Y99.128 E76.83300
G1 X90.300 Y98.288 E76.84685
G1 X101.712 Y109.700 E77.11266
G1 X102.553 Y109.700 E77.12651
G1 X90.300 Y97.447 E77.41190
G1 X90.300 Y96.606 E77.42575
G1 X103.394 Y109.700 E77.73072
G1 X104.235 Y109.700 E77.74457
G1 X90.300 Y95.765 E78.06913
G1 X90.300 Y94.924 E78.08298
G1 X105.076 Y109.700 E78.42712
G1 X105.916 Y109.700 E78.44097
G1 X90.300 Y94.084 E78.80469
G1 X90.300 Y93.243 E78.81854
G1 X106.757 Y109.700 E79.20185
G1 X107.598 Y109.700 E79.21569
G1 X90.300 Y92.402 E79.61859
G1 X90.300 Y91.561 E79.63243
G1 X108.439 Y109.700 E80.05491
G1 X109.280 Y109.700 E80.06876
G1 X90.300 Y90.720 E80.51081
G1 X90.300 Y90.300 E80.51774
G1 X90.720 Y90.300 E80.52466
G1 X109.700 Y109.280 E80.96672
G1 X109.700 Y108.439 E80.98057
G1 X91.561 Y90.300 E81.40304
G1 X92.402 Y90.300 E81.41689
G1 X109.700 Y107.598 E81.81978
G1 X109.700 Y106.757 E81.83363
G1 X93.243 Y90.300 E82.21693
G1 X94.084 Y90.300 E82.23078
G1 X109.700 Y105.916 E82.59451
G1 X109.700 Y105.076 E82.60835
G1 X94.924 Y90.300 E82.95250
G1 X95.765 Y90.300 E82.96634
G1 X109.700 Y104.235 E83.29090
G1 X109.700 Y103.394 E83.30475
G1 X96.606 Y90.300 E83.60973
G1 X97.447 Y90.300 E83.62357
G1 X109.700 Y102.553 E83.90896
G1 X109.700 Y101.712 E83.92281
G1 X98.288 Y90.300 E84.18862
G1 X99.128 Y90.300 E84.20247
G1 X109.700 Y100.872 E84.44869
G1 X109.700 Y100.031 E84.46254
G1 X99.969 Y90.300 E84.68918
G1 X100.810 Y90.300 E84.70303
G1 X109.700 Y99.190 E84.91009
G1 X109.700 Y98.349 E84.92394
G1 X101.651 Y90.300 E85.11142
G1 X102.492 Y90.300 E85.12526
G1 X109.700 Y97.508 E85.29316
G1 X109.700 Y96.668 E85.30700
G1 X103.332 Y90.300 E85.45531
G1 X104.173 Y90.300 E85.46916
G1 X109.700 Y95.827 E85.59789
G1 X109.700 Y94.986 E85.61174
G1 X105.014 Y90.300 E85.72088
G1 X105.855 Y90.300 E85.73473
G1 X109.700 Y94.145 E85.82429
G1 X109.700 Y93.305 E85.83813
G1 X106.695 Y90.300 E85.90811
G1 X107.536 Y90.300 E85.92196
G1 X109.700 Y92.464 E85.97235
G1 X109.700 Y91.623 E85.98620
G1 X108.377 Y90.300 E86.01701
G1 X109.218 Y90.300 E86.03086
G1 X109.700 Y90.782 E86.04209
G1 Z1.800 F7800.000
G1 X109.218 Y109.700 F7800.000
G1 F4800
G1 X109.700 Y109.218 E86.05331
G1 X109.700 Y108.377 E86.06716
G1 X108.377 Y109.700 E86.09797
G1 X107.536 Y109.700 E86.11182
G1 X109.700 Y107.536 E86.16221
G1 X109.700 Y106.695 E86.17606
G1 X106.695 Y109.700 E86.24604
G1 X105.855 Y109.700 E86.25989
G1 X109.700 Y105.855 E86.34945
G1 X109.700 Y105.014 E86.36329
G1 X105.014 Y109.700 E86.47244
G1 X104.173 Y109.700 E86.48629
G1 X109.700 Y104.173 E86.61501
G1 X109.700 Y103.332 E86.62886
G1 X103.332 Y109.700 E86.77717
G1 X102.492 Y109.700 E86.79102
G1 X109.700 Y102.492 E86.95891
G1 X109.700 Y101.651 E86.97276
G1 X101.651 Y109.700 E87.16023
G1 X100.810 Y109.700 E87.17408
G1 X109.700 Y100.810 E87.38114
G1 X109.700 Y99.969 E87.39499
G1 X99.969 Y109.700 E87.62163
G1 X99.128 Y109.700 E87.63548
G1 X109.700 Y99.128 E87.88170
G1 X109.700 Y98.288 E87.89555
G1 X98.288 Y109.700 E88.16136
G1 X97.447 Y109.700 E88.17521
G1 X109.700 Y97.447 E88.46060
G1 X109.700 Y96.606 E88.47445
G1 X96.606 Y109.700 E88.77942
G1 X95.765 Y109.700 E88.79327
G1 X109.700 Y95.765 E89.11783
G1 X109.700 Y94.924 E89.13168
G1 X94.924 Y109.700 E89.47582
G1 X94.084 Y109.700 E89.48967
G1 X109.700 Y94.084 E89.85339
G1 X109.700 Y93.243 E89.86724
G1 X93.243 Y109.700 E90.25055
G1 X92.402 Y109.700 E90.26439
G1 X109.700 Y92.402 E90.66729
G1 X109.700 Y91.561 E90.68113
G1 X91.561 Y109.700 E91.10361
G1 X90.720 Y109.700 E91.11745
G1 X109.700 Y90.720 E91.55951
G1 X109.700 Y90.300 E91.56644
G1 X109.280 Y90.300 E91.57336
G1 X90.300 Y109.280 E92.01542
G1 X90.300 Y108.439 E92.02926
G1 X108.439 Y90.300 E92.45174
G1 X107.598 Y90.300 E92.46559
G1 X90.300 Y107.598 E92.86848
G1 X90.300 Y106.757 E92.88233
G1 X106.757 Y90.300 E93.26563
G1 X105.916 Y90.300 E93.27948
G1 X90.300 Y105.916 E93.64321
G1 X90.300 Y105.076 E93.65705
G1 X105.076 Y90.300 E94.00120
G1 X104.235 Y90.300 E94.01504
G1 X90.300 Y104.235 E94.33960
G1 X90.300 Y103.394 E94.35345
G1 X103.394 Y90.300 E94.65842
G1 X102.553 Y90.300 E94.67227
G1 X90.300 Y102.553 E94.95766
G1 X90.300 Y101.712 E94.97151
G1 X101.712 Y90.300 E95.23732
G1 X100.872 Y90.300 E95.25117
G1 X90.300 Y100.872 E95.49739
G1 X90.300 Y100.031 E95.51124
G1 X100.031 Y90.300 E95.73788
G1 X99.190 Y90.300 E95.75173
G1 X90.300 Y99.190 E95.95879
G1 X90.300 Y98.349 E95.97264
G1 X98.349 Y90.300 E96.16012
G1 X97.508 Y90.300 E96.17396
G1 X90.300 Y97.508 E96.34186
G1 X90.300 Y96.668 E96.35570
G1 X96.668 Y90.300 E96.50401
G1 X95.827 Y90.300 E96.51786
G1 X90.300 Y95.827 E96.64659
G1 X90.300 Y94.986 E96.66044
G1 X94.986 Y90.300 E96.76958
G1 X94.145 Y90.300 E96.78343
G1 X90.300 Y94.145 E96.87299
G1 X90.300 Y93.305 E96.88684
G1 X93.305 Y90.300 E96.95681
G1 X92.464 Y90.300 E96.97066
G1 X90.300 Y92.464 E97.02105
G1 X90.300 Y91.623 E97.03490
G1 X91.623 Y90.300 E97.06571
G1 X90.782 Y90.300 E97.07956
G1 X90.300 Y90.782 E97.09078
G1 Z2.000 F7800.000
G1 X90.782 Y109.700 F7800.000
G1 F4800
G1 X90.300 Y109.218 E97.10201
G1 X90.300 Y108.377 E97.11586
G1 X91.623 Y109.700 E97.14667
G1 X92.464 Y109.700 E97.16052
G1 X90.300 Y107.536 E97.21091
G1 X90.300 Y106.695 E97.22476
G1 X93.305 Y109.700 E97.29473
G1 X94.145 Y109.700 E97.30858
G1 X90.300 Y105.855 E97.39814
G1 X90.300 Y105.014 E97.41199
G1 X94.986 Y109.700 E97.52113
G1 X95.827 Y109.700 E97.53498
G1 X90.300 Y104.173 E97.66371
G1 X90.300 Y103.332 E97.67756
G1 X96.668 Y109.700 E97.82587
G1 X97.508 Y109.700 E97.83971
G1 X90.300 Y102.492 E98.00761
G1 X90.300 Y101.651 E98.02145
G1 X98.349 Y109.700 E98.20893
G1 X99.190 Y109.700 E98.22278
G1 X90.300 Y100.810 E98.42984
G1 X90.300 Y99.969 E98.44369
G1 X100.031 Y109.700 E98.67033
G1 X100.872 Y109.700 E98.68418
G1 X90.300 Y99.128 E98.93040
G1 X90.300 Y98.288 E98.94425
G1 X101.712 Y109.700 E99.21006
G1 X102.553 Y109.700 E99.22391
G1 X90.300 Y97.447 E99.50930
G1 X90.300 Y96.606 E99.52315
G1 X103.394 Y109.700 E99.82812
G1 X104.235 Y109.700 E99.84197
G1 X90.300 Y95.765 E100.16653
G1 X90.300 Y94.924 E100.18037
G1 X105.076 Y109.700 E100.52452
G1 X105.916 Y109.700 E100.53836
G1 X90.300 Y94.084 E100.90209
G1 X90.300 Y93.243 E100.91594
G1 X106.757 Y109.700 E101.29924
G1 X107.598 Y109.700 E101.31309
G1 X90.300 Y92.402 E101.71598
G1 X90.300 Y91.561 E101.72983
G1 X108.439 Y109.700 E102.15231
G1 X109.280 Y109.700 E102.16615
G1 X90.300 Y90.720 E102.60821
G1 X90.300 Y90.300 E102.61513
G1 X90.720 Y90.300 E102.62206
G1 X109.700 Y109.280 E103.06412
G1 X109.700 Y108.439 E103.07796
G1 X91.561 Y90.300 E103.50044
G1 X92.402 Y90.300 E103.51429
G1 X109.700 Y107.598 E103.91718
G1 X109.700 Y106.757 E103.93102
G1 X93.243 Y90.300 E104.31433
G1 X94.084 Y90.300 E104.32818
G1 X109.700 Y105.916 E104.69190
G1 X109.700 Y105.076 E104.70575
G1 X94.924 Y90.300 E105.04989
G1 X95.765 Y90.300 E105.06374
G1 X109.700 Y104.235 E105.38830
G1 X109.700 Y103.394 E105.40215
G1 X96.606 Y90.300 E105.70712
G1 X97.447 Y90.300 E105.72097
G1 X109.700 Y102.553 E106.00636
G1 X109.700 Y101.712 E106.02021
G1 X98.288 Y90.300 E106.28602
G1 X99.128 Y90.300 E106.29987
G1 X109.700 Y100.872 E106.54609
G1 X109.700 Y100.031 E106.55994
G1 X99.969 Y90.300 E106.78658
G1 X100.810 Y90.300 E106.80043
G1 X109.700 Y99.190 E107.00749
G1 X109.700 Y98.349 E107.02134
G1 X101.651 Y90.300 E107.20881
G1 X102.492 Y90.300 E107.22266
G1 X109.700 Y97.508 E107.39055
G1 X109.700 Y96.668 E107.40440
G1 X103.332 Y90.300 E107.55271
G1 X104.173 Y90.300 E107.56656
G1 X109.700 Y95.827 E107.69529
G1 X109.700 Y94.986 E107.70913
G1 X105.014 Y90.300 E107.81828
G1 X105.855 Y90.300 E107.83212
G1 X109.700 Y94.145 E107.92168
G1 X109.700 Y93.305 E107.93553
G1 X106.695 Y90.300 E108.00551
G1 X107.536 Y90.300 E108.01936
G1 X109.700 Y92.464 E108.06975
G1 X109.700 Y91.623 E108.08360
G1 X108.377 Y90.300 E108.11441
G1 X109.218 Y90.300 E108.12826
G1 X109.700 Y90.782 E108.13948
G1 Z2.200 F7800.000
G1 X109.218 Y109.700 F7800.000
G1 F4800
G1 X109.700 Y109.218 E108.15071
G1 X109.700 Y108.377 E108.16456
G1 X108.377 Y109.700 E108.19537
G1 X107.536 Y109.700 E108.20922
G1 X109.700 Y107.536 E108.25961
G1 X109.700 Y106.695 E108.27346
G1 X106.695 Y109.700 E108.34344
G1 X105.855 Y109.700 E108.35728
G1 X109.700 Y105.855 E108.44684
G1 X109.700 Y105.014 E108.46069
G1 X105.014 Y109.700 E108.56984
G1 X104.173 Y109.700 E108.58368
G1 X109.700 Y104.173 E108.71241
G1 X109.700 Y103.332 E108.72626
G1 X103.332 Y109.700 E108.87457
G1 X102.492 Y109.700 E108.88841
G1 X109.700 Y102.492 E109.05631
G1 X109.700 Y101.651 E109.07016
G1 X101.651 Y109.700 E109.25763
G1 X100.810 Y109.700 E109.27148
G1 X109.700 Y100.810 E109.47854
G1 X109.700 Y99.969 E109.49239
G1 X99.969 Y109.700 E109.71903
G1 X99.128 Y109.700 E109.73288
G1 X109.700 Y99.128 E109.97910
G1 X109.700 Y98.288 E109.99295
G1 X98.288 Y109.700 E110.25876
G1 X97.447 Y109.700 E110.27261
G1 X109.700 Y97.447 E110.55800
G1 X109.700 Y96.606 E110.57185
G1 X96.606 Y109.700 E110.87682
G1 X95.765 Y109.700 E110.89067
G1 X109.700 Y95.765 E111.21523
G1 X109.700 Y94.924 E111.22907
G1 X94.924 Y109.700 E111.57322
G1 X94.084 Y109.700 E111.58706
G1 X109.700 Y94.084 E111.95079
G1 X109.700 Y93.243 E111.96464
G1 X93.243 Y109.700 E112.34794
G1 X92.402 Y109.700 E112.36179
G1 X109.700 Y92.402 E112.76468
G1 X109.700 Y91.561 E112.77853
G1 X91.561 Y109.700 E113.20100
G1 X90.720 Y109.700 E113.21485
G1 X109.700 Y90.720 E113.65691
G1 X109.700 Y90.300 E113.66383
G1 X109.280 Y90.300 E113.67076
G1 X90.300 Y109.280 E114.11281
G1 X90.300 Y108.439 E114.12666
G1 X108.439 Y90.300 E114.54914
G1 X107.598 Y90.300 E114.56298
G1 X90.300 Y107.598 E114.96588
G1 X90.300 Y106.757 E114.97972
G1 X106.757 Y90.300 E115.36303
G1 X105.916 Y90.300 E115.37688
G1 X90.300 Y105.916 E115.74060
G1 X90.300 Y105.076 E115.75445
G1 X105.076 Y90.300 E116.09859
G1 X104.235 Y90.300 E116.11244
G1 X90.300 Y104.235 E116.43700
G1 X90.300 Y103.394 E116.45085
G1 X103.394 Y90.300 E116.75582
G1 X102.553 Y90.300 E116.76967
G1 X90.300 Y102.553 E117.05506
G1 X90.300 Y101.712 E117.06891
G1 X101.712 Y90.300 E117.33472
G1 X100.872 Y90.300 E117.34857
G1 X90.300 Y100.872 E117.59479
G1 X90.300 Y100.031 E117.60864
G1 X100.031 Y90.300 E117.83528
G1 X99.190 Y90.300 E117.84913
G1 X90.300 Y99.190 E118.05619
G1 X90.300 Y98.349 E118.07004
G1 X98.349 Y90.300 E118.25751
G1 X97.508 Y90.300 E118.27136
G1 X90.300 Y97.508 E118.43925
G1 X90.300 Y96.668 E118.45310
G1 X96.668 Y90.300 E118.60141
G1 X95.827 Y90.300 E118.61526
G1 X90.300 Y95.827 E118.74399
G1 X90.300 Y94.986 E118.75783
G1 X94.986 Y90.300 E118.86698
G1 X94.145 Y90.300 E118.88082
G1 X90.300 Y94.145 E118.97039
G1 X90.300 Y93.305 E118.98423
G1 X93.305 Y90.300 E119.05421
G1 X92.464 Y90.300 E119.06806
G1 X90.300 Y92.464 E119.11845
G1 X90.300 Y91.623 E119.13230
G1 X91.623 Y90.300 E119.16311
G1 X90.782 Y90.300 E119.17696
G1 X90.300 Y90.782 E119.18818
G1 Z2.400 F7800.000
G1 X90.782 Y109.700 F7800.000
G1 F4800
G1 X90.300 Y109.218 E119.19941
G1 X90.300 Y108.377 E119.21325
G1 X91.623 Y109.700 E119.24407
G1 X92.464 Y109.700 E119.25791
G1 X90.300 Y107.536 E119.30831
G1 X90.300 Y106.695 E119.32215
G1 X93.305 Y109.700 E119.39213
G1 X94.145 Y109.700 E119.40598
G1 X90.300 Y105.855 E119.49554
G1 X90.300 Y105.014 E119.50939
G1 X94.986 Y109.700 E119.61853
G1 X95.827 Y109.700 E119.63238
G1 X90.300 Y104.173 E119.76111
G1 X90.300 Y103.332 E119.77495
G1 X96.668 Y109.700 E119.92326
G1 X97.508 Y109.700 E119.93711
G1 X90.300 Y102.492 E120.10500
G1 X90.300 Y101.651 E120.11885
G1 X98.349 Y109.700 E120.30633
G1 X99.190 Y109.700 E120.32018
G1 X90.300 Y100.810 E120.52724
G1 X90.300 Y99.969 E120.54108
G1 X100.031 Y109.700 E120.76773
G1 X100.872 Y109.700 E120.78157
G1 X90.300 Y99.128 E121.02780
G1 X90.300 Y98.288 E121.04165
G1 X101.712 Y109.700 E121.30746
G1 X102.553 Y109.700 E121.32130
G1 X90.300 Y97.447 E121.60670
G1 X90.300 Y96.606 E121.62054
G1 X103.394 Y109.700 E121.92552
G1 X104.235 Y109.700 E121.93937
G1 X90.300 Y95.765 E122.26392
G1 X90.300 Y94.924 E122.27777
G1 X105.076 Y109.700 E122.62191
G1 X105.916 Y109.700 E122.63576
G1 X90.300 Y94.084 E122.99949
G1 X90.300 Y93.243 E123.01333
G1 X106.757 Y109.700 E123.39664
G1 X107.598 Y109.700 E123.41049
G1 X90.300 Y92.402 E123.81338
G1 X90.300 Y91.561 E123.82723
G1 X108.439 Y109.700 E124.24970
G1 X109.280 Y109.700 E124.26355
G1 X90.300 Y90.720 E124.70561
G1 X90.300 Y90.300 E124.71253
G1 X90.720 Y90.300 E124.71946
G1 X109.700 Y109.280 E125.16151
G1 X109.700 Y108.439 E125.17536
G1 X91.561 Y90.300 E125.59784
G1 X92.402 Y90.300 E125.61168
G1 X109.700 Y107.598 E126.01457
G1 X109.700 Y106.757 E126.02842
G1 X93.243 Y90.300 E126.41173
G1 X94.084 Y90.300 E126.42558
G1 X109.700 Y105.916 E126.78930
G1 X109.700 Y105.076 E126.80315
G1 X94.924 Y90.300 E127.14729
G1 X95.765 Y90.300 E127.16114
G1 X109.700 Y104.235 E127.48570
G1 X109.700 Y103.394 E127.49954
G1 X96.606 Y90.300 E127.80452
G1 X97.447 Y90.300 E127.81837
G1 X109.700 Y102.553 E128.10376
G1 X109.700 Y101.712 E128.11761
G1 X98.288 Y90.300 E128.38342
G1 X99.128 Y90.300 E128.39726
G1 X109.700 Y100.872 E128.64349
G1 X109.700 Y100.031 E128.65734
G1 X99.969 Y90.300 E128.88398
G1 X100.810 Y90.300 E128.89783
G1 X109.700 Y99.190 E129.10489
G1 X109.700 Y98.349 E129.11873
G1 X101.651 Y90.300 E129.30621
G1 X102.492 Y90.300 E129.32006
G1 X109.700 Y97.508 E129.48795
G1 X109.700 Y96.668 E129.50180
G1 X103.332 Y90.300 E129.65011
G1 X104.173 Y90.300 E129.66396
G1 X109.700 Y95.827 E129.79268
G1 X109.700 Y94.986 E129.80653
G1 X105.014 Y90.300 E129.91567
G1 X105.855 Y90.300 E129.92952
G1 X109.700 Y94.145 E130.01908
G1 X109.700 Y93.305 E130.03293
G1 X106.695 Y90.300 E130.10291
G1 X107.536 Y90.300 E130.11675
G1 X109.700 Y92.464 E130.16715
G1 X109.700 Y91.623 E130.18100
G1 X108.377 Y90.300 E130.21181
G1 X109.218 Y90.300 E130.22565
G1 X109.700 Y90.782 E130.23688
G1 Z2.600 F7800.000
G1 X109.218 Y109.700 F7800.000
G1 F4800
G1 X109.700 Y109.218 E130.24811
G1 X109.700 Y108.377 E130.26196
G1 X108.377 Y109.700 E130.29277
G1 X107.536 Y109.700 E130.30662
G1 X109.700 Y107.536 E130.35701
G1 X109.700 Y106.695 E130.37086
G1 X106.695 Y109.700 E130.44083
G1 X105.855 Y109.700 E130.45468
G1 X109.700 Y105.855 E130.54424
G1 X109.700 Y105.014 E130.55809
G1 X105.014 Y109.700 E130.66723
G1 X104.173 Y109.700 E130.68108
G1 X109.700 Y104.173 E130.80981
G1 X109.700 Y103.332 E130.82365
G1 X103.332 Y109.700 E130.97196
G1 X102.492 Y109.700 E130.98581
G1 X109.700 Y102.492 E131.15371
G1 X109.700 Y101.651 E131.16755
G1 X101.651 Y109.700 E131.35503
G1 X100.810 Y109.700 E131.36888
G1 X109.700 Y100.810 E131.57594
G1 X109.700 Y99.969 E131.58978
G1 X99.969 Y109.700 E131.81643
G1 X99.128 Y109.700 E131.83027
G1 X109.700 Y99.128 E132.07650
G1 X109.700 Y98.288 E132.09035
G1 X98.288 Y109.700 E132.35616
G1 X97.447 Y109.700 E132.37000
G1 X109.700 Y97.447 E132.65540
G1 X109.700 Y96.606 E132.66924
G1 X96.606 Y109.700 E132.97422
G1 X95.765 Y109.700 E132.98807
G1 X109.700 Y95.765 E133.31262
G1 X109.700 Y94.924 E133.32647
G1 X94.924 Y109.700 E133.67061
G1 X94.084 Y109.700 E133.68446
G1 X109.700 Y94.084 E134.04819
G1 X109.700 Y93.243 E134.06203
G1 X93.243 Y109.700 E134.44534
G1 X92.402 Y109.700 E134.45919
G1 X109.700 Y92.402 E134.86208
G1 X109.700 Y91.561 E134.87593
G1 X91.561 Y109.700 E135.29840
G1 X90.720 Y109.700 E135.31225
G1 X109.700 Y90.720 E135.75431
G1 X109.700 Y90.300 E135.76123
G1 X109.280 Y90.300 E135.76815
G1 X90.300 Y109.280 E136.21021
G1 X90.300 Y108.439 E136.22406
G1 X108.439 Y90.300 E136.64653
G1 X107.598 Y90.300 E136.66038
G1 X90.300 Y107.598 E137.06327
G1 X90.300 Y106.757 E137.07712
G1 X106.757 Y90.300 E137.46043
G1 X105.916 Y90.300 E137.47428
G1 X90.300 Y105.916 E137.83800
G1 X90.300 Y105.076 E137.85185
G1 X105.076 Y90.300 E138.19599
G1 X104.235 Y90.300 E138.20984
G1 X90.300 Y104.235 E138.53440
G1 X90.300 Y103.394 E138.54824
G1 X103.394 Y90.300 E138.85322
G1 X102.553 Y90.300 E138.86707
G1 X90.300 Y102.553 E139.15246
G1 X90.300 Y101.712 E139.16631
G1 X101.712 Y90.300 E139.43212
G1 X100.872 Y90.300 E139.44596
G1 X90.300 Y100.872 E139.69219
G1 X90.300 Y100.031 E139.70604
G1 X100.031 Y90.300 E139.93268
G1 X99.190 Y90.300 E139.94653
G1 X90.300 Y99.190 E140.15359
G1 X90.300 Y98.349 E140.16743
G1 X98.349 Y90.300 E140.35491
G1 X97.508 Y90.300 E140.36876
G1 X90.300 Y97.508 E140.53665
G1 X90.300 Y96.668 E140.55050
G1 X96.668 Y90.300 E140.69881
G1 X95.827 Y90.300 E140.71266
G1 X90.300 Y95.827 E140.84138
G1 X90.300 Y94.986 E140.85523
G1 X94.986 Y90.300 E140.96437
G1 X94.145 Y90.300 E140.97822
G1 X90.300 Y94.145 E141.06778
G1 X90.300 Y93.305 E141.08163
G1 X93.305 Y90.300 E141.15161
G1 X92.464 Y90.300 E141.16545
G1 X90.300 Y92.464 E141.21585
G1 X90.300 Y91.623 E141.22970
G1 X91.623 Y90.300 E141.26051
G1 X90.782 Y90.300 E141.27436
G1 X90.300 Y90.782 E141.28558
G1 Z2.800 F7800.000
G1 E139.28558 F2400.00000
G92 E0
G1 X90.782 Y109.700 F7800.000
G1 E2.00000 F2400.00000
G1 F4800
G1 X90.300 Y109.218 E2.01122
G1 X90.300 Y108.377 E2.02507
G1 X91.623 Y109.700 E2.05588
G1 X92.464 Y109.700 E2.06973
G1 X90.300 Y107.536 E2.12012
G1 X90.300 Y106.695 E2.13397
G1 X93.305 Y109.700 E2.20395
G1 X94.145 Y109.700 E2.21780
G1 X90.300 Y105.855 E2.30736
G1 X90.300 Y105.014 E2.32121
G1 X94.986 Y109.700 E2.43035
G1 X95.827 Y109.700 E2.44420
G1 X90.300 Y104.173 E2.57292
G1 X90.300 Y103.332 E2.58677
G1 X96.668 Y109.700 E2.73508
G1 X97.508 Y109.700 E2.74893
G1 X90.300 Y102.492 E2.91682
G1 X90.300 Y101.651 E2.93067
G1 X98.349 Y109.700 E3.11815
G1 X99.190 Y109.700 E3.13199
G1 X90.300 Y100.810 E3.33905
G1 X90.300 Y99.969 E3.35290
G1 X100.031 Y109.700 E3.57954
G1 X100.872 Y109.700 E3.59339
G1 X90.300 Y99.128 E3.83962
G1 X90.300 Y98.288 E3.85346
G1 X101.712 Y109.700 E4.11927
G1 X102.553 Y109.700 E4.13312
G1 X90.300 Y97.447 E4.41851
G1 X90.300 Y96.606 E4.43236
G1 X103.394 Y109.700 E4.73734
G1 X104.235 Y109.700 E4.75118
G1 X90.300 Y95.765 E5.07574
G1 X90.300 Y94.924 E5.08959
G1 X105.076 Y109.700 E5.43373
G1 X105.916 Y109.700 E5.44758
G1 X90.300 Y94.084 E5.81130
G1 X90.300 Y93.243 E5.82515
G1 X106.757 Y109.700 E6.20846
G1 X107.598 Y109.700 E6.22231
G1 X90.300 Y92.402 E6.62520
G1 X90.300 Y91.561 E6.63905
G1 X108.439 Y109.700 E7.06152
G1 X109.280 Y109.700 E7.07537
G1 X90.300 Y90.720 E7.51743
G1 X90.300 Y90.300 E7.52435
G1 X90.720 Y90.300 E7.53127
G1 X109.700 Y109.280 E7.97333
G1 X109.700 Y108.439 E7.98718
G1 X91.561 Y90.300 E8.40965
G1 X92.402 Y90.300 E8.42350
G1 X109.700 Y107.598 E8.82639
G1 X109.700 Y106.757 E8.84024
G1 X93.243 Y90.300 E9.22355
G1 X94.084 Y90.300 E9.23739
G1 X109.700 Y105.916 E9.60112
G1 X109.700 Y105.076 E9.61497
G1 X94.924 Y90.300 E9.95911
G1 X95.765 Y90.300 E9.97296
G1 X109.700 Y104.235 E10.29751
G1 X109.700 Y103.394 E10.31136
G1 X96.606 Y90.300 E10.61634
G1 X97.447 Y90.300 E10.63018
G1 X109.700 Y102.553 E10.91558
G1 X109.700 Y101.712 E10.92942
G1 X98.288 Y90.300 E11.19523
G1 X99.128 Y90.300 E11.20908
G1 X109.700 Y100.872 E11.45531
G1 X109.700 Y100.031 E11.46915
G1 X99.969 Y90.300 E11.69580
G1 X100.810 Y90.300 E11.70964
G1 X109.700 Y99.190 E11.91670
G1 X109.700 Y98.349 E11.93055
G1 X101.651 Y90.300 E12.11803
G1 X102.492 Y90.300 E12.13188
G1 X109.700 Y97.508 E12.29977
G1 X109.700 Y96.668 E12.31362
G1 X103.332 Y90.300 E12.46193
G1 X104.173 Y90.300 E12.47577
G1 X109.700 Y95.827 E12.60450
G1 X109.700 Y94.986 E12.61835
G1 X105.014 Y90.300 E12.72749
G1 X105.855 Y90.300 E12.74134
G1 X109.700 Y94.145 E12.83090
G1 X109.700 Y93.305 E12.84475
G1 X106.695 Y90.300 E12.91472
G1 X107.536 Y90.300 E12.92857
G1 X109.700 Y92.464 E12.97897
G1 X109.700 Y91.623 E12.99281
G1 X108.377 Y90.300 E13.02362
G1 X109.218 Y90.300 E13.03747
G1 X109.700 Y90.782 E13.04870
G1 E11.04870 F2400.00000
G92 E0
M107
; Filament-specific end gcode 
;END gcode for filament

M104 S0 ; turn off temperature
G28 X0  ; home X axis
M84     ; disable motors

M140 S0 ; set bed temperature
; filament used = 150.3mm (1.1cm3)
; total filament cost = 0.0

; avoid_crossing_perimeters = 0
; bed_shape = 0x0,200x0,200x200,0x200
; bed_temperature = 0
; before_layer_gcode = 
; between_objects_gcode = 
; bridge_acceleration = 0
; bridge_fan_speed = 100
; brim_connections_width = 0
; brim_width = 0
; complete_objects = 0
; cooling = 1
; default_acceleration = 0
; disable_fan_first_layers = 3
; duplicate_distance = 6
; end_filament_gcode = "; Filament-specific end gcode \n;END gcode for filament\n"
; end_gcode = M104 S0 ; turn off temperature\nG28 X0  ; home X axis\nM84     ; disable motors\n
; extruder_clearance_height = 20
; extruder_clearance_radius = 20
; extruder_offset = 0x0
; extrusion_axis = E
; extrusion_multiplier = 1
; fan_always_on = 0
; fan_below_layer_time = 60
; filament_colour = #FFFFFF
; filament_cost = 0
; filament_density = 0
; filament_diameter = 3
; filament_max_volumetric_speed = 0
; filament_notes = ""
; first_layer_acceleration = 0
; first_layer_bed_temperature = 0
; first_layer_extrusion_width = 200%
; first_layer_speed = 30
; first_layer_temperature = 205
; gcode_arcs = 0
; gcode_comments = 0
; gcode_flavor = reprap
; has_heatbed = 1
; infill_acceleration = 0
; infill_first = 0
; interior_brim_width = 0
; layer_gcode = 
; max_fan_speed = 100
; max_layer_height = 0.3
; max_print_speed = 80
; max_volumetric_speed = 0
; min_fan_speed = 35
; min_layer_height = 0.15
; min_print_speed = 10
; min_skirt_length = 0
; notes = 
; nozzle_diameter = 0.5
; only_retract_when_crossing_perimeters = 1
; ooze_prevention = 0
; output_filename_format = [input_filename_base].gcode
; perimeter_acceleration = 0
; post_process = 
; pressure_advance = 0
; printer_notes = 
; resolution = 0
; retract_before_travel = 2
; retract_layer_change = 0
; retract_length = 2
; retract_length_toolchange = 10
; retract_lift = 0
; retract_lift_above = 0
; retract_lift_below = 0
; retract_restart_extra = 0
; retract_restart_extra_toolchange = 0
; retract_speed = 40
; skirt_distance = 6
; skirt_height = 1
; skirts = 0
; slowdown_below_layer_time = 5
; spiral_vase = 0
; standby_temperature_delta = -5
; start_filament_gcode = "; Filament gcode\n"
; start_gcode = G28 ; home all axes\nG1 Z5 F5000 ; lift nozzle\n
; temperature = 200
; threads = 8
; toolchange_gcode = 
; travel_speed = 130
; use_firmware_retraction = 0
; use_relative_e_distances = 0
; use_set_and_wait_bed = 0
; use_set_and_wait_extruder = 0
; use_volumetric_e = 0
; vibration_limit = 0
; wipe = 0
; z_offset = 0
; z_steps_per_mm = 0
; adaptive_slicing = 0
; adaptive_slicing_quality = 75%
; dont_support_bridges = 1
; extrusion_width = 0
; first_layer_height = 0.2
; infill_only_where_needed = 0
; interface_shells = 0
; layer_height = 0.2
; match_horizontal_surfaces = 0
; raft_layers = 0
; regions_overlap = 0
; seam_position = aligned
; sequential_print_priority = 0
; support_material = 0
; support_material_angle = 0
; support_material_buildplate_only = 0
; support_material_contact_distance = 0.2
; support_material_enforce_layers = 0
; support_material_extruder = 1
; support_material_extrusion_width = 0
; support_material_interface_extruder = 1
; support_material_interface_extrusion_width = 0
; support_material_interface_layers = 3
; support_material_interface_spacing = 0
; support_material_interface_speed = 100%
; support_material_max_layers = 0
; support_material_pattern = pillars
; support_material_spacing = 2.5
; support_material_speed = 60
; support_material_threshold = 60%
; xy_size_compensation = 0
; bottom_infill_pattern = rectilinear
; bottom_solid_layers = 0
; bridge_flow_ratio = 1
; bridge_speed = 60
; external_perimeter_extrusion_width = 0
; external_perimeter_speed = 50%
; external_perimeters_first = 0
; extra_perimeters = 1
; fill_angle = 45
; fill_density = 100%
; fill_gaps = 1
; fill_pattern = rectilinear
; gap_fill_speed = 20
; infill_every_layers = 1
; infill_extruder = 1
; infill_extrusion_width = 0
; infill_overlap = 55%
; infill_speed = 80
; overhangs = 1
; perimeter_extruder = 1
; perimeter_extrusion_width = 0
; perimeter_speed = 60
; perimeters = 0
; small_perimeter_speed = 15
; solid_infill_below_area = 70
; solid_infill_every_layers = 0
; solid_infill_extruder = 1
; solid_infill_extrusion_width = 0
; solid_infill_speed = 20
; thin_walls = 1
; top_infill_extrusion_width = 0
; top_infill_pattern = rectilinear
; top_solid_infill_speed = 15
; top_solid_layers = 0
