; generated by Slic3r 1.2.9 on 2019-06-20 at 19:01:55

; external perimeters extrusion width = 0.50mm
; perimeters extrusion width = 0.58mm
; infill extrusion width = 0.58mm
; solid infill extrusion width = 0.58mm
; top infill extrusion width = 0.58mm

M107
M104 S200 ; set temperature
G28 ; home all axes
G1 Z5 F5000 ; lift nozzle

M109 S200 ; wait for temperature to be reached
G21 ; set units to millimeters
G90 ; use absolute coordinates
M82 ; use absolute distances for extrusion
G92 E0
G1 Z0.400 F7800.000
G1 E-2.00000 F2400.00000
G92 E0
G1 X109.629 Y90.729 F7800.000
G1 E2.00000 F2400.00000
G1 X109.271 Y90.371 E2.18406 F1800.000
G1 X108.403 Y90.371 E2.49967
G1 X109.629 Y91.597 E3.13008
G1 X109.629 Y92.465 E3.44570
G1 X107.535 Y90.371 E4.52245
G1 X106.668 Y90.371 E4.83807
G1 X109.629 Y93.332 E6.36117
G1 X109.629 Y94.200 E6.67679
G1 X105.800 Y90.371 E8.64625
G1 X104.932 Y90.371 E8.96186
G1 X109.629 Y95.068 E11.37767
G1 X109.629 Y95.936 E11.69328
G1 X104.064 Y90.371 E14.55544
G1 X103.197 Y90.371 E14.87105
G1 X109.629 Y96.803 E18.17956
G1 X109.629 Y97.671 E18.49518
G1 X102.329 Y90.371 E22.25003
G1 X101.461 Y90.371 E22.56565
G1 X109.629 Y98.539 E26.76685
G1 X109.629 Y99.407 E27.08246
G1 X100.593 Y90.371 E31.73002
G1 X99.726 Y90.371 E32.04563
G1 X109.629 Y100.274 E37.13954
G1 X109.629 Y101.142 E37.45515
G1 X98.858 Y90.371 E42.99540
G1 X97.990 Y90.371 E43.31102
G1 X109.629 Y102.010 E49.29762
G1 X109.629 Y102.878 E49.61324
G1 X97.122 Y90.371 E56.04619
G1 X96.255 Y90.371 E56.36181
G1 X109.629 Y103.745 E63.24111
G1 X109.629 Y104.613 E63.55672
G1 X95.387 Y90.371 E70.88237
G1 X94.519 Y90.371 E71.19799
G1 X109.629 Y105.481 E78.96999
G1 X109.629 Y106.349 E79.28560
G1 X93.651 Y90.371 E87.50395
G1 X92.784 Y90.371 E87.81957
G1 X109.629 Y107.216 E96.48427
G1 X109.629 Y108.084 E96.79988
G1 X91.916 Y90.371 E105.91093
G1 X91.048 Y90.371 E106.22655
G1 X109.629 Y108.952 E115.78395
G1 X109.438 Y109.629 E116.03975
G1 X90.371 Y90.562 E125.84716
G1 X90.371 Y91.430 E126.16277
G1 X108.570 Y109.629 E135.52383
G1 X107.702 Y109.629 E135.83945
G1 X90.371 Y92.298 E144.75416
G1 X90.371 Y93.165 E145.06978
G1 X106.835 Y109.629 E153.53814
G1 X105.967 Y109.629 E153.85376
G1 X90.371 Y94.033 E161.87577
G1 X90.371 Y94.901 E162.19139
G1 X105.099 Y109.629 E169.76705
G1 X104.231 Y109.629 E170.08267
G1 X90.371 Y95.769 E177.21198
G1 X90.371 Y96.636 E177.52760
G1 X103.364 Y109.629 E184.21056
G1 X102.496 Y109.629 E184.52617
G1 X90.371 Y97.504 E190.76279
G1 X90.371 Y98.372 E191.07841
G1 X101.628 Y109.629 E196.86867
G1 X100.760 Y109.629 E197.18429
G1 X90.371 Y99.240 E202.52820
G1 X90.371 Y100.107 E202.84382
G1 X99.893 Y109.629 E207.74138
G1 X99.025 Y109.629 E208.05700
G1 X90.371 Y100.975 E212.50822
G1 X90.371 Y101.843 E212.82383
G1 X98.157 Y109.629 E216.82870
G1 X97.289 Y109.629 E217.14431
G1 X90.371 Y102.711 E220.70283
G1 X90.371 Y103.578 E221.01845
G1 X96.422 Y109.629 E224.13061
G1 X95.554 Y109.629 E224.44623
G1 X90.371 Y104.446 E227.11205
G1 X90.371 Y105.314 E227.42767
G1 X94.686 Y109.629 E229.64713
G1 X93.818 Y109.629 E229.96275
G1 X90.371 Y106.182 E231.73587
G1 X90.371 Y107.049 E232.05148
G1 X92.951 Y109.629 E233.37825
G1 X92.083 Y109.629 E233.69387
G1 X90.371 Y107.917 E234.57429
G1 X90.371 Y108.785 E234.88990
G1 X91.215 Y109.629 E235.32397
G1 Z0.800 F7800.000
G1 X109.271 Y109.629 F7800.000
G1 X109.629 Y109.271 E235.45048 F4800.000
G1 X109.629 Y108.403 E235.66742
G1 X108.403 Y109.629 E236.10073
G1 X107.535 Y109.629 E236.31767
G1 X109.629 Y107.535 E237.05777
G1 X109.629 Y106.668 E237.27471
G1 X106.668 Y109.629 E238.32160
G1 X105.800 Y109.629 E238.53854
G1 X109.629 Y105.800 E239.89224
G1 X109.629 Y104.932 E240.10917
G1 X104.932 Y109.629 E241.76967
G1 X104.064 Y109.629 E241.98660
G1 X109.629 Y104.064 E243.95389
G1 X109.629 Y103.197 E244.17083
G1 X103.197 Y109.629 E246.44491
G1 X102.329 Y109.629 E246.66185
G1 X109.629 Y102.329 E249.24273
G1 X109.629 Y101.461 E249.45967
G1 X101.461 Y109.629 E252.34734
G1 X100.593 Y109.629 E252.56428
G1 X109.629 Y100.593 E255.75875
G1 X109.629 Y99.726 E255.97569
G1 X99.726 Y109.629 E259.47696
G1 X98.858 Y109.629 E259.69389
G1 X109.629 Y98.858 E263.50196
G1 X109.629 Y97.990 E263.71889
G1 X97.990 Y109.629 E267.83375
G1 X97.122 Y109.629 E268.05069
G1 X109.629 Y97.122 E272.47235
G1 X109.629 Y96.255 E272.68929
G1 X96.255 Y109.629 E277.41774
G1 X95.387 Y109.629 E277.63467
G1 X109.629 Y95.387 E282.66992
G1 X109.629 Y94.519 E282.88686
G1 X94.519 Y109.629 E288.22890
G1 X93.651 Y109.629 E288.44584
G1 X109.629 Y93.651 E294.09468
G1 X109.629 Y92.784 E294.31162
G1 X92.784 Y109.629 E300.26726
G1 X91.916 Y109.629 E300.48419
G1 X109.629 Y91.916 E306.74663
G1 X109.629 Y91.048 E306.96356
G1 X91.048 Y109.629 E313.53279
G1 X90.371 Y109.438 E313.70862
G1 X109.438 Y90.371 E320.44969
G1 X108.570 Y90.371 E320.66663
G1 X90.371 Y108.570 E327.10091
G1 X90.371 Y107.702 E327.31784
G1 X107.702 Y90.371 E333.44533
G1 X106.835 Y90.371 E333.66226
G1 X90.371 Y106.835 E339.48295
G1 X90.371 Y105.967 E339.69989
G1 X105.967 Y90.371 E345.21378
G1 X105.099 Y90.371 E345.43072
G1 X90.371 Y105.099 E350.63781
G1 X90.371 Y104.231 E350.85475
G1 X104.231 Y90.371 E355.75505
G1 X103.364 Y90.371 E355.97198
G1 X90.371 Y103.364 E360.56549
G1 X90.371 Y102.496 E360.78242
G1 X102.496 Y90.371 E365.06913
G1 X101.628 Y90.371 E365.28607
G1 X90.371 Y101.628 E369.26598
G1 X90.371 Y100.760 E369.48291
G1 X100.760 Y90.371 E373.15603
G1 X99.893 Y90.371 E373.37296
G1 X90.371 Y99.893 E376.73928
G1 X90.371 Y99.025 E376.95622
G1 X99.025 Y90.371 E380.01574
G1 X98.157 Y90.371 E380.23268
G1 X90.371 Y98.157 E382.98540
G1 X90.371 Y97.289 E383.20234
G1 X97.289 Y90.371 E385.64827
G1 X96.422 Y90.371 E385.86521
G1 X90.371 Y96.422 E388.00434
G1 X90.371 Y95.554 E388.22128
G1 X95.554 Y90.371 E390.05361
G1 X94.686 Y90.371 E390.27055
G1 X90.371 Y94.686 E391.79609
G1 X90.371 Y93.818 E392.01303
G1 X93.818 Y90.371 E393.23177
G1 X92.951 Y90.371 E393.44871
G1 X90.371 Y92.951 E394.36066
G1 X90.371 Y92.083 E394.57759
G1 X92.083 Y90.371 E395.18275
G1 X91.215 Y90.371 E395.39968
G1 X90.371 Y91.215 E395.69804
G1 Z1.200 F7800.000
G1 X91.215 Y109.629 F7800.000
G1 X90.371 Y108.785 E395.99639 F4800.000
G1 X90.371 Y107.917 E396.21333
G1 X92.083 Y109.629 E396.81848
G1 X92.951 Y109.629 E397.03542
G1 X90.371 Y107.049 E397.94737
G1 X90.371 Y106.182 E398.16431
G1 X93.818 Y109.629 E399.38305
G1 X94.686 Y109.629 E399.59999
G1 X90.371 Y105.314 E401.12553
G1 X90.371 Y104.446 E401.34246
G1 X95.554 Y109.629 E403.17480
G1 X96.422 Y109.629 E403.39174
G1 X90.371 Y103.578 E405.53087
G1 X90.371 Y102.711 E405.74781
G1 X97.289 Y109.629 E408.19374
G1 X98.157 Y109.629 E408.41067
G1 X90.371 Y101.843 E411.16340
G1 X90.371 Y100.975 E411.38034
G1 X99.025 Y109.629 E414.43986
G1 X99.893 Y109.629 E414.65679
G1 X90.371 Y100.107 E418.02311
G1 X90.371 Y99.240 E418.24005
G1 X100.760 Y109.629 E421.91316
G1 X101.628 Y109.629 E422.13010
G1 X90.371 Y98.372 E426.11001
G1 X90.371 Y97.504 E426.32695
G1 X102.496 Y109.629 E430.61365
G1 X103.364 Y109.629 E430.83059
G1 X90.371 Y96.636 E435.42409
G1 X90.371 Y95.769 E435.64103
G1 X104.231 Y109.629 E440.54133
G1 X105.099 Y109.629 E440.75826
G1 X90.371 Y94.901 E445.96536
G1 X90.371 Y94.033 E446.18229
G1 X105.967 Y109.629 E451.69618
G1 X106.835 Y109.629 E451.91312
G1 X90.371 Y93.165 E457.73381
G1 X90.371 Y92.298 E457.95075
G1 X107.702 Y109.629 E464.07823
G1 X108.570 Y109.629 E464.29517
G1 X90.371 Y91.430 E470.72944
G1 X90.371 Y90.562 E470.94638
G1 X109.438 Y109.629 E477.68746
G1 X109.629 Y108.952 E477.86328
G1 X91.048 Y90.371 E484.43251
G1 X91.916 Y90.371 E484.64945
G1 X109.629 Y108.084 E490.91188
G1 X109.629 Y107.216 E491.12882
G1 X92.784 Y90.371 E497.08445
G1 X93.651 Y90.371 E497.30139
G1 X109.629 Y106.349 E502.95023
G1 X109.629 Y105.481 E503.16717
G1 X94.519 Y90.371 E508.50921
G1 X95.387 Y90.371 E508.72615
G1 X109.629 Y104.613 E513.76140
G1 X109.629 Y103.745 E513.97834
G1 X96.255 Y90.371 E518.70679
G1 X97.122 Y90.371 E518.92373
G1 X109.629 Y102.878 E523.34538
G1 X109.629 Y102.010 E523.56232
G1 X97.990 Y90.371 E527.67718
G1 X98.858 Y90.371 E527.89412
G1 X109.629 Y101.142 E531.70218
G1 X109.629 Y100.274 E531.91912
G1 X99.726 Y90.371 E535.42039
G1 X100.593 Y90.371 E535.63733
G1 X109.629 Y99.407 E538.83180
G1 X109.629 Y98.539 E539.04874
G1 X101.461 Y90.371 E541.93641
G1 X102.329 Y90.371 E542.15335
G1 X109.629 Y97.671 E544.73423
G1 X109.629 Y96.803 E544.95117
G1 X103.197 Y90.371 E547.22525
G1 X104.064 Y90.371 E547.44219
G1 X109.629 Y95.936 E549.40947
G1 X109.629 Y95.068 E549.62641
G1 X104.932 Y90.371 E551.28690
G1 X105.800 Y90.371 E551.50384
G1 X109.629 Y94.200 E552.85754
G1 X109.629 Y93.332 E553.07447
G1 X106.668 Y90.371 E554.12137
G1 X107.535 Y90.371 E554.33831
G1 X109.629 Y92.465 E555.07841
G1 X109.629 Y91.597 E555.29535
G1 X108.403 Y90.371 E555.72866
G1 X109.271 Y90.371 E555.94560
G1 X109.629 Y90.729 E556.07211
M106 S244.8
G1 Z1.600 F7800.000
G1 X109.271 Y109.629 F7800.000
G1 X109.629 Y109.271 E556.19862 F4800.000
G1 X109.629 Y108.403 E556.41555
G1 X108.403 Y109.629 E556.84886
G1 X107.535 Y109.629 E557.06580
G1 X109.629 Y107.535 E557.80590
G1 X109.629 Y106.668 E558.02284
G1 X106.668 Y109.629 E559.06974
G1 X105.800 Y109.629 E559.28667
G1 X109.629 Y105.800 E560.64037
G1 X109.629 Y104.932 E560.85731
G1 X104.932 Y109.629 E562.51780
G1 X104.064 Y109.629 E562.73474
G1 X109.629 Y104.064 E564.70202
G1 X109.629 Y103.197 E564.91896
G1 X103.197 Y109.629 E567.19304
G1 X102.329 Y109.629 E567.40998
G1 X109.629 Y102.329 E569.99086
G1 X109.629 Y101.461 E570.20780
G1 X101.461 Y109.629 E573.09547
G1 X100.593 Y109.629 E573.31241
G1 X109.629 Y100.593 E576.50688
G1 X109.629 Y99.726 E576.72382
G1 X99.726 Y109.629 E580.22509
G1 X98.858 Y109.629 E580.44203
G1 X109.629 Y98.858 E584.25009
G1 X109.629 Y97.990 E584.46703
G1 X97.990 Y109.629 E588.58189
G1 X97.122 Y109.629 E588.79882
G1 X109.629 Y97.122 E593.22048
G1 X109.629 Y96.255 E593.43742
G1 X96.255 Y109.629 E598.16587
G1 X95.387 Y109.629 E598.38281
G1 X109.629 Y95.387 E603.41806
G1 X109.629 Y94.519 E603.63499
G1 X94.519 Y109.629 E608.97704
G1 X93.651 Y109.629 E609.19397
G1 X109.629 Y93.651 E614.84281
G1 X109.629 Y92.784 E615.05975
G1 X92.784 Y109.629 E621.01539
G1 X91.916 Y109.629 E621.23233
G1 X109.629 Y91.916 E627.49476
G1 X109.629 Y91.048 E627.71170
G1 X91.048 Y109.629 E634.28092
G1 X90.371 Y109.438 E634.45675
G1 X109.438 Y90.371 E641.19782
G1 X108.570 Y90.371 E641.41476
G1 X90.371 Y108.570 E647.84904
G1 X90.371 Y107.702 E648.06598
G1 X107.702 Y90.371 E654.19346
G1 X106.835 Y90.371 E654.41040
G1 X90.371 Y106.835 E660.23108
G1 X90.371 Y105.967 E660.44802
G1 X105.967 Y90.371 E665.96191
G1 X105.099 Y90.371 E666.17885
G1 X90.371 Y105.099 E671.38594
G1 X90.371 Y104.231 E671.60288
G1 X104.231 Y90.371 E676.50318
G1 X103.364 Y90.371 E676.72012
G1 X90.371 Y103.364 E681.31362
G1 X90.371 Y102.496 E681.53056
G1 X102.496 Y90.371 E685.81726
G1 X101.628 Y90.371 E686.03420
G1 X90.371 Y101.628 E690.01411
G1 X90.371 Y100.760 E690.23105
G1 X100.760 Y90.371 E693.90416
G1 X99.893 Y90.371 E694.12110
G1 X90.371 Y99.893 E697.48741
G1 X90.371 Y99.025 E697.70435
G1 X99.025 Y90.371 E700.76387
G1 X98.157 Y90.371 E700.98081
G1 X90.371 Y98.157 E703.73353
G1 X90.371 Y97.289 E703.95047
G1 X97.289 Y90.371 E706.39640
G1 X96.422 Y90.371 E706.61334
G1 X90.371 Y96.422 E708.75247
G1 X90.371 Y95.554 E708.96941
G1 X95.554 Y90.371 E710.80174
G1 X94.686 Y90.371 E711.01868
G1 X90.371 Y94.686 E712.54422
G1 X90.371 Y93.818 E712.76116
G1 X93.818 Y90.371 E713.97990
G1 X92.951 Y90.371 E714.19684
G1 X90.371 Y92.951 E715.10879
G1 X90.371 Y92.083 E715.32573
G1 X92.083 Y90.371 E715.93088
G1 X91.215 Y90.371 E716.14782
G1 X90.371 Y91.215 E716.44617
G1 Z2.000 F7800.000
G1 X91.215 Y109.629 F7800.000
G1 X90.371 Y108.785 E716.74453 F4800.000
G1 X90.371 Y107.917 E716.96146
G1 X92.083 Y109.629 E717.56662
G1 X92.951 Y109.629 E717.78355
G1 X90.371 Y107.049 E718.69550
G1 X90.371 Y106.182 E718.91244
G1 X93.818 Y109.629 E720.13118
G1 X94.686 Y109.629 E720.34812
G1 X90.371 Y105.314 E721.87366
G1 X90.371 Y104.446 E722.09060
G1 X95.554 Y109.629 E723.92293
G1 X96.422 Y109.629 E724.13987
G1 X90.371 Y103.578 E726.27900
G1 X90.371 Y102.711 E726.49594
G1 X97.289 Y109.629 E728.94187
G1 X98.157 Y109.629 E729.15881
G1 X90.371 Y101.843 E731.91153
G1 X90.371 Y100.975 E732.12847
G1 X99.025 Y109.629 E735.18799
G1 X99.893 Y109.629 E735.40493
G1 X90.371 Y100.107 E738.77124
G1 X90.371 Y99.240 E738.98818
G1 X100.760 Y109.629 E742.66129
G1 X101.628 Y109.629 E742.87823
G1 X90.371 Y98.372 E746.85814
G1 X90.371 Y97.504 E747.07508
G1 X102.496 Y109.629 E751.36178
G1 X103.364 Y109.629 E751.57872
G1 X90.371 Y96.636 E756.17222
G1 X90.371 Y95.769 E756.38916
G1 X104.231 Y109.629 E761.28946
G1 X105.099 Y109.629 E761.50640
G1 X90.371 Y94.901 E766.71349
G1 X90.371 Y94.033 E766.93043
G1 X105.967 Y109.629 E772.44432
G1 X106.835 Y109.629 E772.66125
G1 X90.371 Y93.165 E778.48194
G1 X90.371 Y92.298 E778.69888
G1 X107.702 Y109.629 E784.82636
G1 X108.570 Y109.629 E785.04330
G1 X90.371 Y91.430 E791.47758
G1 X90.371 Y90.562 E791.69451
G1 X109.438 Y109.629 E798.43559
G1 X109.629 Y108.952 E798.61141
G1 X91.048 Y90.371 E805.18064
G1 X91.916 Y90.371 E805.39758
G1 X109.629 Y108.084 E811.66001
G1 X109.629 Y107.216 E811.87695
G1 X92.784 Y90.371 E817.83259
G1 X93.651 Y90.371 E818.04952
G1 X109.629 Y106.349 E823.69836
G1 X109.629 Y105.481 E823.91530
G1 X94.519 Y90.371 E829.25735
G1 X95.387 Y90.371 E829.47428
G1 X109.629 Y104.613 E834.50953
G1 X109.629 Y103.745 E834.72647
G1 X96.255 Y90.371 E839.45492
G1 X97.122 Y90.371 E839.67186
G1 X109.629 Y102.878 E844.09352
G1 X109.629 Y102.010 E844.31045
G1 X97.990 Y90.371 E848.42531
G1 X98.858 Y90.371 E848.64225
G1 X109.629 Y101.142 E852.45032
G1 X109.629 Y100.274 E852.66725
G1 X99.726 Y90.371 E856.16852
G1 X100.593 Y90.371 E856.38546
G1 X109.629 Y99.407 E859.57993
G1 X109.629 Y98.539 E859.79687
G1 X101.461 Y90.371 E862.68454
G1 X102.329 Y90.371 E862.90148
G1 X109.629 Y97.671 E865.48236
G1 X109.629 Y96.803 E865.69930
G1 X103.197 Y90.371 E867.97338
G1 X104.064 Y90.371 E868.19032
G1 X109.629 Y95.936 E870.15761
G1 X109.629 Y95.068 E870.37454
G1 X104.932 Y90.371 E872.03504
G1 X105.800 Y90.371 E872.25197
G1 X109.629 Y94.200 E873.60567
G1 X109.629 Y93.332 E873.82261
G1 X106.668 Y90.371 E874.86951
G1 X107.535 Y90.371 E875.08644
G1 X109.629 Y92.465 E875.82655
G1 X109.629 Y91.597 E876.04348
G1 X108.403 Y90.371 E876.47679
G1 X109.271 Y90.371 E876.69373
G1 X109.629 Y90.729 E876.82024
G1 Z2.400 F7800.000
G1 X109.271 Y109.629 F7800.000
G1 X109.629 Y109.271 E876.94675 F4800.000
G1 X109.629 Y108.403 E877.16369
G1 X108.403 Y109.629 E877.59699
G1 X107.535 Y109.629 E877.81393
G1 X109.629 Y107.535 E878.55403
G1 X109.629 Y106.668 E878.77097
G1 X106.668 Y109.629 E879.81787
G1 X105.800 Y109.629 E880.03481
G1 X109.629 Y105.800 E881.38850
G1 X109.629 Y104.932 E881.60544
G1 X104.932 Y109.629 E883.26593
G1 X104.064 Y109.629 E883.48287
G1 X109.629 Y104.064 E885.45015
G1 X109.629 Y103.197 E885.66709
G1 X103.197 Y109.629 E887.94118
G1 X102.329 Y109.629 E888.15811
G1 X109.629 Y102.329 E890.73899
G1 X109.629 Y101.461 E890.95593
G1 X101.461 Y109.629 E893.84361
G1 X100.593 Y109.629 E894.06054
G1 X109.629 Y100.593 E897.25501
G1 X109.629 Y99.726 E897.47195
G1 X99.726 Y109.629 E900.97322
G1 X98.858 Y109.629 E901.19016
G1 X109.629 Y98.858 E904.99822
G1 X109.629 Y97.990 E905.21516
G1 X97.990 Y109.629 E909.33002
G1 X97.122 Y109.629 E909.54696
G1 X109.629 Y97.122 E913.96861
G1 X109.629 Y96.255 E914.18555
G1 X96.255 Y109.629 E918.91400
G1 X95.387 Y109.629 E919.13094
G1 X109.629 Y95.387 E924.16619
G1 X109.629 Y94.519 E924.38313
G1 X94.519 Y109.629 E929.72517
G1 X93.651 Y109.629 E929.94211
G1 X109.629 Y93.651 E935.59095
G1 X109.629 Y92.784 E935.80788
G1 X92.784 Y109.629 E941.76352
G1 X91.916 Y109.629 E941.98046
G1 X109.629 Y91.916 E948.24289
G1 X109.629 Y91.048 E948.45983
G1 X91.048 Y109.629 E955.02906
G1 X90.371 Y109.438 E955.20488
G1 X109.438 Y90.371 E961.94595
G1 X108.570 Y90.371 E962.16289
G1 X90.371 Y108.570 E968.59717
G1 X90.371 Y107.702 E968.81411
G1 X107.702 Y90.371 E974.94159
G1 X106.835 Y90.371 E975.15853
G1 X90.371 Y106.835 E980.97922
G1 X90.371 Y105.967 E981.19615
G1 X105.967 Y90.371 E986.71004
G1 X105.099 Y90.371 E986.92698
G1 X90.371 Y105.099 E992.13408
G1 X90.371 Y104.231 E992.35101
G1 X104.231 Y90.371 E997.25131
G1 X103.364 Y90.371 E997.46825
G1 X90.371 Y103.364 E1002.06175
G1 X90.371 Y102.496 E1002.27869
G1 X102.496 Y90.371 E1006.56539
G1 X101.628 Y90.371 E1006.78233
G1 X90.371 Y101.628 E1010.76224
G1 X90.371 Y100.760 E1010.97918
G1 X100.760 Y90.371 E1014.65229
G1 X99.893 Y90.371 E1014.86923
G1 X90.371 Y99.893 E1018.23555
G1 X90.371 Y99.025 E1018.45248
G1 X99.025 Y90.371 E1021.51200
G1 X98.157 Y90.371 E1021.72894
G1 X90.371 Y98.157 E1024.48167
G1 X90.371 Y97.289 E1024.69860
G1 X97.289 Y90.371 E1027.14453
G1 X96.422 Y90.371 E1027.36147
G1 X90.371 Y96.422 E1029.50060
G1 X90.371 Y95.554 E1029.71754
G1 X95.554 Y90.371 E1031.54988
G1 X94.686 Y90.371 E1031.76681
G1 X90.371 Y94.686 E1033.29235
G1 X90.371 Y93.818 E1033.50929
G1 X93.818 Y90.371 E1034.72804
G1 X92.951 Y90.371 E1034.94497
G1 X90.371 Y92.951 E1035.85692
G1 X90.371 Y92.083 E1036.07386
G1 X92.083 Y90.371 E1036.67901
G1 X91.215 Y90.371 E1036.89595
G1 X90.371 Y91.215 E1037.19430
G1 Z2.800 F7800.000
G1 X91.215 Y109.629 F7800.000
G1 X90.371 Y108.785 E1037.49266 F4800.000
G1 X90.371 Y107.917 E1037.70960
G1 X92.083 Y109.629 E1038.31475
G1 X92.951 Y109.629 E1038.53169
G1 X90.371 Y107.049 E1039.44363
G1 X90.371 Y106.182 E1039.66057
G1 X93.818 Y109.629 E1040.87931
G1 X94.686 Y109.629 E1041.09625
G1 X90.371 Y105.314 E1042.62179
G1 X90.371 Y104.446 E1042.83873
G1 X95.554 Y109.629 E1044.67107
G1 X96.422 Y109.629 E1044.88800
G1 X90.371 Y103.578 E1047.02713
G1 X90.371 Y102.711 E1047.24407
G1 X97.289 Y109.629 E1049.69000
G1 X98.157 Y109.629 E1049.90694
G1 X90.371 Y101.843 E1052.65966
G1 X90.371 Y100.975 E1052.87660
G1 X99.025 Y109.629 E1055.93612
G1 X99.893 Y109.629 E1056.15306
G1 X90.371 Y100.107 E1059.51938
G1 X90.371 Y99.240 E1059.73631
G1 X100.760 Y109.629 E1063.40943
G1 X101.628 Y109.629 E1063.62636
G1 X90.371 Y98.372 E1067.60627
G1 X90.371 Y97.504 E1067.82321
G1 X102.496 Y109.629 E1072.10992
G1 X103.364 Y109.629 E1072.32685
G1 X90.371 Y96.636 E1076.92036
G1 X90.371 Y95.769 E1077.13729
G1 X104.231 Y109.629 E1082.03759
G1 X105.099 Y109.629 E1082.25453
G1 X90.371 Y94.901 E1087.46162
G1 X90.371 Y94.033 E1087.67856
G1 X105.967 Y109.629 E1093.19245
G1 X106.835 Y109.629 E1093.40939
G1 X90.371 Y93.165 E1099.23007
G1 X90.371 Y92.298 E1099.44701
G1 X107.702 Y109.629 E1105.57449
G1 X108.570 Y109.629 E1105.79143
G1 X90.371 Y91.430 E1112.22571
G1 X90.371 Y90.562 E1112.44265
G1 X109.438 Y109.629 E1119.18372
G1 X109.629 Y108.952 E1119.35954
G1 X91.048 Y90.371 E1125.92877
G1 X91.916 Y90.371 E1126.14571
G1 X109.629 Y108.084 E1132.40814
G1 X109.629 Y107.216 E1132.62508
G1 X92.784 Y90.371 E1138.58072
G1 X93.651 Y90.371 E1138.79766
G1 X109.629 Y106.349 E1144.44650
G1 X109.629 Y105.481 E1144.66343
G1 X94.519 Y90.371 E1150.00548
G1 X95.387 Y90.371 E1150.22242
G1 X109.629 Y104.613 E1155.25766
G1 X109.629 Y103.745 E1155.47460
G1 X96.255 Y90.371 E1160.20306
G1 X97.122 Y90.371 E1160.41999
G1 X109.629 Y102.878 E1164.84165
G1 X109.629 Y102.010 E1165.05859
G1 X97.990 Y90.371 E1169.17345
G1 X98.858 Y90.371 E1169.39038
G1 X109.629 Y101.142 E1173.19845
G1 X109.629 Y100.274 E1173.41539
G1 X99.726 Y90.371 E1176.91665
G1 X100.593 Y90.371 E1177.13359
G1 X109.629 Y99.407 E1180.32806
G1 X109.629 Y98.539 E1180.54500
G1 X101.461 Y90.371 E1183.43268
G1 X102.329 Y90.371 E1183.64961
G1 X109.629 Y97.671 E1186.23049
G1 X109.629 Y96.803 E1186.44743
G1 X103.197 Y90.371 E1188.72152
G1 X104.064 Y90.371 E1188.93845
G1 X109.629 Y95.936 E1190.90574
G1 X109.629 Y95.068 E1191.12268
G1 X104.932 Y90.371 E1192.78317
G1 X105.800 Y90.371 E1193.00011
G1 X109.629 Y94.200 E1194.35380
G1 X109.629 Y93.332 E1194.57074
G1 X106.668 Y90.371 E1195.61764
G1 X107.535 Y90.371 E1195.83458
G1 X109.629 Y92.465 E1196.57468
G1 X109.629 Y91.597 E1196.79162
G1 X108.403 Y90.371 E1197.22492
G1 X109.271 Y90.371 E1197.44186
G1 X109.629 Y90.729 E1197.56837
G1 Z3.200 F7800.000
G1 X109.271 Y109.629 F7800.000
G1 X109.629 Y109.271 E1197.69488 F4800.000
G1 X109.629 Y108.403 E1197.91182
G1 X108.403 Y109.629 E1198.34512
G1 X107.535 Y109.629 E1198.56206
G1 X109.629 Y107.535 E1199.30217
G1 X109.629 Y106.668 E1199.51910
G1 X106.668 Y109.629 E1200.56600
G1 X105.800 Y109.629 E1200.78294
G1 X109.629 Y105.800 E1202.13663
G1 X109.629 Y104.932 E1202.35357
G1 X104.932 Y109.629 E1204.01406
G1 X104.064 Y109.629 E1204.23100
G1 X109.629 Y104.064 E1206.19829
G1 X109.629 Y103.197 E1206.41523
G1 X103.197 Y109.629 E1208.68931
G1 X102.329 Y109.629 E1208.90625
G1 X109.629 Y102.329 E1211.48713
G1 X109.629 Y101.461 E1211.70406
G1 X101.461 Y109.629 E1214.59174
G1 X100.593 Y109.629 E1214.80868
G1 X109.629 Y100.593 E1218.00315
G1 X109.629 Y99.726 E1218.22008
G1 X99.726 Y109.629 E1221.72135
G1 X98.858 Y109.629 E1221.93829
G1 X109.629 Y98.858 E1225.74635
G1 X109.629 Y97.990 E1225.96329
G1 X97.990 Y109.629 E1230.07815
G1 X97.122 Y109.629 E1230.29509
G1 X109.629 Y97.122 E1234.71674
G1 X109.629 Y96.255 E1234.93368
G1 X96.255 Y109.629 E1239.66213
G1 X95.387 Y109.629 E1239.87907
G1 X109.629 Y95.387 E1244.91432
G1 X109.629 Y94.519 E1245.13126
G1 X94.519 Y109.629 E1250.47330
G1 X93.651 Y109.629 E1250.69024
G1 X109.629 Y93.651 E1256.33908
G1 X109.629 Y92.784 E1256.55602
G1 X92.784 Y109.629 E1262.51165
G1 X91.916 Y109.629 E1262.72859
G1 X109.629 Y91.916 E1268.99102
G1 X109.629 Y91.048 E1269.20796
G1 X91.048 Y109.629 E1275.77719
G1 X90.371 Y109.438 E1275.95301
G1 X109.438 Y90.371 E1282.69409
G1 X108.570 Y90.371 E1282.91102
G1 X90.371 Y108.570 E1289.34530
G1 X90.371 Y107.702 E1289.56224
G1 X107.702 Y90.371 E1295.68972
G1 X106.835 Y90.371 E1295.90666
G1 X90.371 Y106.835 E1301.72735
G1 X90.371 Y105.967 E1301.94429
G1 X105.967 Y90.371 E1307.45818
G1 X105.099 Y90.371 E1307.67511
G1 X90.371 Y105.099 E1312.88221
G1 X90.371 Y104.231 E1313.09915
G1 X104.231 Y90.371 E1317.99944
G1 X103.364 Y90.371 E1318.21638
G1 X90.371 Y103.364 E1322.80988
G1 X90.371 Y102.496 E1323.02682
G1 X102.496 Y90.371 E1327.31353
G1 X101.628 Y90.371 E1327.53046
G1 X90.371 Y101.628 E1331.51037
G1 X90.371 Y100.760 E1331.72731
G1 X100.760 Y90.371 E1335.40042
G1 X99.893 Y90.371 E1335.61736
G1 X90.371 Y99.893 E1338.98368
G1 X90.371 Y99.025 E1339.20062
G1 X99.025 Y90.371 E1342.26014
G1 X98.157 Y90.371 E1342.47707
G1 X90.371 Y98.157 E1345.22980
G1 X90.371 Y97.289 E1345.44674
G1 X97.289 Y90.371 E1347.89267
G1 X96.422 Y90.371 E1348.10960
G1 X90.371 Y96.422 E1350.24874
G1 X90.371 Y95.554 E1350.46567
G1 X95.554 Y90.371 E1352.29801
G1 X94.686 Y90.371 E1352.51495
G1 X90.371 Y94.686 E1354.04049
G1 X90.371 Y93.818 E1354.25742
G1 X93.818 Y90.371 E1355.47617
G1 X92.951 Y90.371 E1355.69311
G1 X90.371 Y92.951 E1356.60505
G1 X90.371 Y92.083 E1356.82199
G1 X92.083 Y90.371 E1357.42714
G1 X91.215 Y90.371 E1357.64408
G1 X90.371 Y91.215 E1357.94244
G1 Z3.600 F7800.000
G1 X91.215 Y109.629 F7800.000
G1 X90.371 Y108.785 E1358.24079 F4800.000
G1 X90.371 Y107.917 E1358.45773
G1 X92.083 Y109.629 E1359.06288
G1 X92.951 Y109.629 E1359.27982
G1 X90.371 Y107.049 E1360.19177
G1 X90.371 Y106.182 E1360.40870
G1 X93.818 Y109.629 E1361.62745
G1 X94.686 Y109.629 E1361.84438
G1 X90.371 Y105.314 E1363.36992
G1 X90.371 Y104.446 E1363.58686
G1 X95.554 Y109.629 E1365.41920
G1 X96.422 Y109.629 E1365.63614
G1 X90.371 Y103.578 E1367.77527
G1 X90.371 Y102.711 E1367.99221
G1 X97.289 Y109.629 E1370.43813
G1 X98.157 Y109.629 E1370.65507
G1 X90.371 Y101.843 E1373.40780
G1 X90.371 Y100.975 E1373.62473
G1 X99.025 Y109.629 E1376.68425
G1 X99.893 Y109.629 E1376.90119
G1 X90.371 Y100.107 E1380.26751
G1 X90.371 Y99.240 E1380.48445
G1 X100.760 Y109.629 E1384.15756
G1 X101.628 Y109.629 E1384.37450
G1 X90.371 Y98.372 E1388.35441
G1 X90.371 Y97.504 E1388.57134
G1 X102.496 Y109.629 E1392.85805
G1 X103.364 Y109.629 E1393.07499
G1 X90.371 Y96.636 E1397.66849
G1 X90.371 Y95.769 E1397.88543
G1 X104.231 Y109.629 E1402.78572
G1 X105.099 Y109.629 E1403.00266
G1 X90.371 Y94.901 E1408.20975
G1 X90.371 Y94.033 E1408.42669
G1 X105.967 Y109.629 E1413.94058
G1 X106.835 Y109.629 E1414.15752
G1 X90.371 Y93.165 E1419.97821
G1 X90.371 Y92.298 E1420.19514
G1 X107.702 Y109.629 E1426.32262
G1 X108.570 Y109.629 E1426.53956
G1 X90.371 Y91.430 E1432.97384
G1 X90.371 Y90.562 E1433.19078
G1 X109.438 Y109.629 E1439.93185
G1 X109.629 Y108.952 E1440.10768
G1 X91.048 Y90.371 E1446.67691
G1 X91.916 Y90.371 E1446.89384
G1 X109.629 Y108.084 E1453.15628
G1 X109.629 Y107.216 E1453.37321
G1 X92.784 Y90.371 E1459.32885
G1 X93.651 Y90.371 E1459.54579
G1 X109.629 Y106.349 E1465.19463
G1 X109.629 Y105.481 E1465.41157
G1 X94.519 Y90.371 E1470.75361
G1 X95.387 Y90.371 E1470.97055
G1 X109.629 Y104.613 E1476.00580
G1 X109.629 Y103.745 E1476.22273
G1 X96.255 Y90.371 E1480.95119
G1 X97.122 Y90.371 E1481.16813
G1 X109.629 Y102.878 E1485.58978
G1 X109.629 Y102.010 E1485.80672
G1 X97.990 Y90.371 E1489.92158
G1 X98.858 Y90.371 E1490.13852
G1 X109.629 Y101.142 E1493.94658
G1 X109.629 Y100.274 E1494.16352
G1 X99.726 Y90.371 E1497.66479
G1 X100.593 Y90.371 E1497.88172
G1 X109.629 Y99.407 E1501.07620
G1 X109.629 Y98.539 E1501.29313
G1 X101.461 Y90.371 E1504.18081
G1 X102.329 Y90.371 E1504.39775
G1 X109.629 Y97.671 E1506.97863
G1 X109.629 Y96.803 E1507.19556
G1 X103.197 Y90.371 E1509.46965
G1 X104.064 Y90.371 E1509.68658
G1 X109.629 Y95.936 E1511.65387
G1 X109.629 Y95.068 E1511.87081
G1 X104.932 Y90.371 E1513.53130
G1 X105.800 Y90.371 E1513.74824
G1 X109.629 Y94.200 E1515.10193
G1 X109.629 Y93.332 E1515.31887
G1 X106.668 Y90.371 E1516.36577
G1 X107.535 Y90.371 E1516.58271
G1 X109.629 Y92.465 E1517.32281
G1 X109.629 Y91.597 E1517.53975
G1 X108.403 Y90.371 E1517.97305
G1 X109.271 Y90.371 E1518.18999
G1 X109.629 Y90.729 E1518.31650
G1 Z4.000 F7800.000
G1 X109.271 Y109.629 F7800.000
G1 X109.629 Y109.271 E1518.44301 F4800.000
G1 X109.629 Y108.403 E1518.65995
G1 X108.403 Y109.629 E1519.09326
G1 X107.535 Y109.629 E1519.31019
G1 X109.629 Y107.535 E1520.05030
G1 X109.629 Y106.668 E1520.26724
G1 X106.668 Y109.629 E1521.31413
G1 X105.800 Y109.629 E1521.53107
G1 X109.629 Y105.800 E1522.88477
G1 X109.629 Y104.932 E1523.10170
G1 X104.932 Y109.629 E1524.76220
G1 X104.064 Y109.629 E1524.97913
G1 X109.629 Y104.064 E1526.94642
G1 X109.629 Y103.197 E1527.16336
G1 X103.197 Y109.629 E1529.43744
G1 X102.329 Y109.629 E1529.65438
G1 X109.629 Y102.329 E1532.23526
G1 X109.629 Y101.461 E1532.45220
G1 X101.461 Y109.629 E1535.33987
G1 X100.593 Y109.629 E1535.55681
G1 X109.629 Y100.593 E1538.75128
G1 X109.629 Y99.726 E1538.96822
G1 X99.726 Y109.629 E1542.46949
G1 X98.858 Y109.629 E1542.68642
G1 X109.629 Y98.858 E1546.49449
G1 X109.629 Y97.990 E1546.71142
G1 X97.990 Y109.629 E1550.82628
G1 X97.122 Y109.629 E1551.04322
G1 X109.629 Y97.122 E1555.46488
G1 X109.629 Y96.255 E1555.68181
G1 X96.255 Y109.629 E1560.41027
G1 X95.387 Y109.629 E1560.62720
G1 X109.629 Y95.387 E1565.66245
G1 X109.629 Y94.519 E1565.87939
G1 X94.519 Y109.629 E1571.22143
G1 X93.651 Y109.629 E1571.43837
G1 X109.629 Y93.651 E1577.08721
G1 X109.629 Y92.784 E1577.30415
G1 X92.784 Y109.629 E1583.25979
G1 X91.916 Y109.629 E1583.47672
G1 X109.629 Y91.916 E1589.73916
G1 X109.629 Y91.048 E1589.95609
G1 X91.048 Y109.629 E1596.52532
G1 X90.371 Y109.438 E1596.70115
G1 X109.438 Y90.371 E1603.44222
G1 X108.570 Y90.371 E1603.65916
G1 X90.371 Y108.570 E1610.09344
G1 X90.371 Y107.702 E1610.31037
G1 X107.702 Y90.371 E1616.43786
G1 X106.835 Y90.371 E1616.65479
G1 X90.371 Y106.835 E1622.47548
G1 X90.371 Y105.967 E1622.69242
G1 X105.967 Y90.371 E1628.20631
G1 X105.099 Y90.371 E1628.42325
G1 X90.371 Y105.099 E1633.63034
G1 X90.371 Y104.231 E1633.84728
G1 X104.231 Y90.371 E1638.74758
G1 X103.364 Y90.371 E1638.96451
G1 X90.371 Y103.364 E1643.55801
G1 X90.371 Y102.496 E1643.77495
G1 X102.496 Y90.371 E1648.06166
G1 X101.628 Y90.371 E1648.27860
G1 X90.371 Y101.628 E1652.25851
G1 X90.371 Y100.760 E1652.47544
G1 X100.760 Y90.371 E1656.14856
G1 X99.893 Y90.371 E1656.36549
G1 X90.371 Y99.893 E1659.73181
G1 X90.371 Y99.025 E1659.94875
G1 X99.025 Y90.371 E1663.00827
G1 X98.157 Y90.371 E1663.22521
G1 X90.371 Y98.157 E1665.97793
G1 X90.371 Y97.289 E1666.19487
G1 X97.289 Y90.371 E1668.64080
G1 X96.422 Y90.371 E1668.85774
G1 X90.371 Y96.422 E1670.99687
G1 X90.371 Y95.554 E1671.21381
G1 X95.554 Y90.371 E1673.04614
G1 X94.686 Y90.371 E1673.26308
G1 X90.371 Y94.686 E1674.78862
G1 X90.371 Y93.818 E1675.00556
G1 X93.818 Y90.371 E1676.22430
G1 X92.951 Y90.371 E1676.44124
G1 X90.371 Y92.951 E1677.35319
G1 X90.371 Y92.083 E1677.57012
G1 X92.083 Y90.371 E1678.17528
G1 X91.215 Y90.371 E1678.39221
G1 X90.371 Y91.215 E1678.69057
G1 Z4.400 F7800.000
G1 X91.215 Y109.629 F7800.000
G1 X90.371 Y108.785 E1678.98892 F4800.000
G1 X90.371 Y107.917 E1679.20586
G1 X92.083 Y109.629 E1679.81101
G1 X92.951 Y109.629 E1680.02795
G1 X90.371 Y107.049 E1680.93990
G1 X90.371 Y106.182 E1681.15684
G1 X93.818 Y109.629 E1682.37558
G1 X94.686 Y109.629 E1682.59252
G1 X90.371 Y105.314 E1684.11806
G1 X90.371 Y104.446 E1684.33499
G1 X95.554 Y109.629 E1686.16733
G1 X96.422 Y109.629 E1686.38427
G1 X90.371 Y103.578 E1688.52340
G1 X90.371 Y102.711 E1688.74034
G1 X97.289 Y109.629 E1691.18627
G1 X98.157 Y109.629 E1691.40320
G1 X90.371 Y101.843 E1694.15593
G1 X90.371 Y100.975 E1694.37287
G1 X99.025 Y109.629 E1697.43239
G1 X99.893 Y109.629 E1697.64932
G1 X90.371 Y100.107 E1701.01564
G1 X90.371 Y99.240 E1701.23258
G1 X100.760 Y109.629 E1704.90569
G1 X101.628 Y109.629 E1705.12263
G1 X90.371 Y98.372 E1709.10254
G1 X90.371 Y97.504 E1709.31948
G1 X102.496 Y109.629 E1713.60618
G1 X103.364 Y109.629 E1713.82312
G1 X90.371 Y96.636 E1718.41662
G1 X90.371 Y95.769 E1718.63356
G1 X104.231 Y109.629 E1723.53386
G1 X105.099 Y109.629 E1723.75079
G1 X90.371 Y94.901 E1728.95789
G1 X90.371 Y94.033 E1729.17482
G1 X105.967 Y109.629 E1734.68871
G1 X106.835 Y109.629 E1734.90565
G1 X90.371 Y93.165 E1740.72634
G1 X90.371 Y92.298 E1740.94328
G1 X107.702 Y109.629 E1747.07076
G1 X108.570 Y109.629 E1747.28770
G1 X90.371 Y91.430 E1753.72197
G1 X90.371 Y90.562 E1753.93891
G1 X109.438 Y109.629 E1760.67999
G1 X109.629 Y108.952 E1760.85581
G1 X91.048 Y90.371 E1767.42504
G1 X91.916 Y90.371 E1767.64198
G1 X109.629 Y108.084 E1773.90441
G1 X109.629 Y107.216 E1774.12135
G1 X92.784 Y90.371 E1780.07698
G1 X93.651 Y90.371 E1780.29392
G1 X109.629 Y106.349 E1785.94276
G1 X109.629 Y105.481 E1786.15970
G1 X94.519 Y90.371 E1791.50174
G1 X95.387 Y90.371 E1791.71868
G1 X109.629 Y104.613 E1796.75393
G1 X109.629 Y103.745 E1796.97087
G1 X96.255 Y90.371 E1801.69932
G1 X97.122 Y90.371 E1801.91626
G1 X109.629 Y102.878 E1806.33791
G1 X109.629 Y102.010 E1806.55485
G1 X97.990 Y90.371 E1810.66971
G1 X98.858 Y90.371 E1810.88665
G1 X109.629 Y101.142 E1814.69471
G1 X109.629 Y100.274 E1814.91165
G1 X99.726 Y90.371 E1818.41292
G1 X100.593 Y90.371 E1818.62986
G1 X109.629 Y99.407 E1821.82433
G1 X109.629 Y98.539 E1822.04127
G1 X101.461 Y90.371 E1824.92894
G1 X102.329 Y90.371 E1825.14588
G1 X109.629 Y97.671 E1827.72676
G1 X109.629 Y96.803 E1827.94370
G1 X103.197 Y90.371 E1830.21778
G1 X104.064 Y90.371 E1830.43472
G1 X109.629 Y95.936 E1832.40200
G1 X109.629 Y95.068 E1832.61894
G1 X104.932 Y90.371 E1834.27943
G1 X105.800 Y90.371 E1834.49637
G1 X109.629 Y94.200 E1835.85007
G1 X109.629 Y93.332 E1836.06700
G1 X106.668 Y90.371 E1837.11390
G1 X107.535 Y90.371 E1837.33084
G1 X109.629 Y92.465 E1838.07094
G1 X109.629 Y91.597 E1838.28788
G1 X108.403 Y90.371 E1838.72119
G1 X109.271 Y90.371 E1838.93812
G1 X109.629 Y90.729 E1839.06464
G1 Z4.800 F7800.000
G1 X109.271 Y109.629 F7800.000
G1 X109.629 Y109.271 E1839.19115 F4800.000
G1 X109.629 Y108.403 E1839.40808
G1 X108.403 Y109.629 E1839.84139
G1 X107.535 Y109.629 E1840.05833
G1 X109.629 Y107.535 E1840.79843
G1 X109.629 Y106.668 E1841.01537
G1 X106.668 Y109.629 E1842.06227
G1 X105.800 Y109.629 E1842.27920
G1 X109.629 Y105.800 E1843.63290
G1 X109.629 Y104.932 E1843.84984
G1 X104.932 Y109.629 E1845.51033
G1 X104.064 Y109.629 E1845.72727
G1 X109.629 Y104.064 E1847.69455
G1 X109.629 Y103.197 E1847.91149
G1 X103.197 Y109.629 E1850.18557
G1 X102.329 Y109.629 E1850.40251
G1 X109.629 Y102.329 E1852.98339
G1 X109.629 Y101.461 E1853.20033
G1 X101.461 Y109.629 E1856.08800
G1 X100.593 Y109.629 E1856.30494
G1 X109.629 Y100.593 E1859.49941
G1 X109.629 Y99.726 E1859.71635
G1 X99.726 Y109.629 E1863.21762
G1 X98.858 Y109.629 E1863.43456
G1 X109.629 Y98.858 E1867.24262
G1 X109.629 Y97.990 E1867.45956
G1 X97.990 Y109.629 E1871.57442
G1 X97.122 Y109.629 E1871.79135
G1 X109.629 Y97.122 E1876.21301
G1 X109.629 Y96.255 E1876.42995
G1 X96.255 Y109.629 E1881.15840
G1 X95.387 Y109.629 E1881.37534
G1 X109.629 Y95.387 E1886.41059
G1 X109.629 Y94.519 E1886.62752
G1 X94.519 Y109.629 E1891.96957
G1 X93.651 Y109.629 E1892.18650
G1 X109.629 Y93.651 E1897.83534
G1 X109.629 Y92.784 E1898.05228
G1 X92.784 Y109.629 E1904.00792
G1 X91.916 Y109.629 E1904.22486
G1 X109.629 Y91.916 E1910.48729
G1 X109.629 Y91.048 E1910.70423
G1 X91.048 Y109.629 E1917.27345
G1 X90.371 Y109.438 E1917.44928
G1 X109.438 Y90.371 E1924.19035
G1 X108.570 Y90.371 E1924.40729
G1 X90.371 Y108.570 E1930.84157
G1 X90.371 Y107.702 E1931.05851
G1 X107.702 Y90.371 E1937.18599
G1 X106.835 Y90.371 E1937.40293
G1 X90.371 Y106.835 E1943.22361
G1 X90.371 Y105.967 E1943.44055
G1 X105.967 Y90.371 E1948.95444
G1 X105.099 Y90.371 E1949.17138
G1 X90.371 Y105.099 E1954.37847
G1 X90.371 Y104.231 E1954.59541
G1 X104.231 Y90.371 E1959.49571
G1 X103.364 Y90.371 E1959.71265
G1 X90.371 Y103.364 E1964.30615
G1 X90.371 Y102.496 E1964.52308
G1 X102.496 Y90.371 E1968.80979
G1 X101.628 Y90.371 E1969.02673
G1 X90.371 Y101.628 E1973.00664
G1 X90.371 Y100.760 E1973.22358
G1 X100.760 Y90.371 E1976.89669
G1 X99.893 Y90.371 E1977.11363
G1 X90.371 Y99.893 E1980.47994
G1 X90.371 Y99.025 E1980.69688
G1 X99.025 Y90.371 E1983.75640
G1 X98.157 Y90.371 E1983.97334
G1 X90.371 Y98.157 E1986.72606
G1 X90.371 Y97.289 E1986.94300
G1 X97.289 Y90.371 E1989.38893
G1 X96.422 Y90.371 E1989.60587
G1 X90.371 Y96.422 E1991.74500
G1 X90.371 Y95.554 E1991.96194
G1 X95.554 Y90.371 E1993.79427
G1 X94.686 Y90.371 E1994.01121
G1 X90.371 Y94.686 E1995.53675
G1 X90.371 Y93.818 E1995.75369
G1 X93.818 Y90.371 E1996.97243
G1 X92.951 Y90.371 E1997.18937
G1 X90.371 Y92.951 E1998.10132
G1 X90.371 Y92.083 E1998.31826
G1 X92.083 Y90.371 E1998.92341
G1 X91.215 Y90.371 E1999.14035
G1 X90.371 Y91.215 E1999.43870
G1 Z5.200 F7800.000
G1 X91.215 Y109.629 F7800.000
G1 X90.371 Y108.785 E1999.73706 F4800.000
G1 X90.371 Y107.917 E1999.95399
G1 X92.083 Y109.629 E2000.55915
G1 X92.951 Y109.629 E2000.77608
G1 X90.371 Y107.049 E2001.68803
G1 X90.371 Y106.182 E2001.90497
G1 X93.818 Y109.629 E2003.12371
G1 X94.686 Y109.629 E2003.34065
G1 X90.371 Y105.314 E2004.86619
G1 X90.371 Y104.446 E2005.08313
G1 X95.554 Y109.629 E2006.91546
G1 X96.422 Y109.629 E2007.13240
G1 X90.371 Y103.578 E2009.27153
G1 X90.371 Y102.711 E2009.48847
G1 X97.289 Y109.629 E2011.93440
G1 X98.157 Y109.629 E2012.15134
G1 X90.371 Y101.843 E2014.90406
G1 X90.371 Y100.975 E2015.12100
G1 X99.025 Y109.629 E2018.18052
G1 X99.893 Y109.629 E2018.39746
G1 X90.371 Y100.107 E2021.76377
G1 X90.371 Y99.240 E2021.98071
G1 X100.760 Y109.629 E2025.65382
G1 X101.628 Y109.629 E2025.87076
G1 X90.371 Y98.372 E2029.85067
G1 X90.371 Y97.504 E2030.06761
G1 X102.496 Y109.629 E2034.35431
G1 X103.364 Y109.629 E2034.57125
G1 X90.371 Y96.636 E2039.16475
G1 X90.371 Y95.769 E2039.38169
G1 X104.231 Y109.629 E2044.28199
G1 X105.099 Y109.629 E2044.49893
G1 X90.371 Y94.901 E2049.70602
G1 X90.371 Y94.033 E2049.92296
G1 X105.967 Y109.629 E2055.43685
G1 X106.835 Y109.629 E2055.65378
G1 X90.371 Y93.165 E2061.47447
G1 X90.371 Y92.298 E2061.69141
G1 X107.702 Y109.629 E2067.81889
G1 X108.570 Y109.629 E2068.03583
G1 X90.371 Y91.430 E2074.47011
G1 X90.371 Y90.562 E2074.68704
G1 X109.438 Y109.629 E2081.42812
G1 X109.629 Y108.952 E2081.60394
G1 X91.048 Y90.371 E2088.17317
G1 X91.916 Y90.371 E2088.39011
G1 X109.629 Y108.084 E2094.65254
G1 X109.629 Y107.216 E2094.86948
G1 X92.784 Y90.371 E2100.82512
G1 X93.651 Y90.371 E2101.04205
G1 X109.629 Y106.349 E2106.69089
G1 X109.629 Y105.481 E2106.90783
G1 X94.519 Y90.371 E2112.24988
G1 X95.387 Y90.371 E2112.46681
G1 X109.629 Y104.613 E2117.50206
G1 X109.629 Y103.745 E2117.71900
G1 X96.255 Y90.371 E2122.44745
G1 X97.122 Y90.371 E2122.66439
G1 X109.629 Y102.878 E2127.08605
G1 X109.629 Y102.010 E2127.30298
G1 X97.990 Y90.371 E2131.41784
G1 X98.858 Y90.371 E2131.63478
G1 X109.629 Y101.142 E2135.44285
G1 X109.629 Y100.274 E2135.65978
G1 X99.726 Y90.371 E2139.16105
G1 X100.593 Y90.371 E2139.37799
G1 X109.629 Y99.407 E2142.57246
G1 X109.629 Y98.539 E2142.78940
G1 X101.461 Y90.371 E2145.67707
G1 X102.329 Y90.371 E2145.89401
G1 X109.629 Y97.671 E2148.47489
G1 X109.629 Y96.803 E2148.69183
G1 X103.197 Y90.371 E2150.96591
G1 X104.064 Y90.371 E2151.18285
G1 X109.629 Y95.936 E2153.15014
G1 X109.629 Y95.068 E2153.36707
G1 X104.932 Y90.371 E2155.02757
G1 X105.800 Y90.371 E2155.24450
G1 X109.629 Y94.200 E2156.59820
G1 X109.629 Y93.332 E2156.81514
G1 X106.668 Y90.371 E2157.86203
G1 X107.535 Y90.371 E2158.07897
G1 X109.629 Y92.465 E2158.81908
G1 X109.629 Y91.597 E2159.03601
G1 X108.403 Y90.371 E2159.46932
G1 X109.271 Y90.371 E2159.68626
G1 X109.629 Y90.729 E2159.81277
G1 Z5.600 F7800.000
G1 X109.271 Y109.629 F7800.000
G1 X109.629 Y109.271 E2159.93928 F4800.000
G1 X109.629 Y108.403 E2160.15622
G1 X108.403 Y109.629 E2160.58952
G1 X107.535 Y109.629 E2160.80646
G1 X109.629 Y107.535 E2161.54656
G1 X109.629 Y106.668 E2161.76350
G1 X106.668 Y109.629 E2162.81040
G1 X105.800 Y109.629 E2163.02734
G1 X109.629 Y105.800 E2164.38103
G1 X109.629 Y104.932 E2164.59797
G1 X104.932 Y109.629 E2166.25846
G1 X104.064 Y109.629 E2166.47540
G1 X109.629 Y104.064 E2168.44268
G1 X109.629 Y103.197 E2168.65962
G1 X103.197 Y109.629 E2170.93371
G1 X102.329 Y109.629 E2171.15064
G1 X109.629 Y102.329 E2173.73152
G1 X109.629 Y101.461 E2173.94846
G1 X101.461 Y109.629 E2176.83614
G1 X100.593 Y109.629 E2177.05307
G1 X109.629 Y100.593 E2180.24754
G1 X109.629 Y99.726 E2180.46448
G1 X99.726 Y109.629 E2183.96575
G1 X98.858 Y109.629 E2184.18269
G1 X109.629 Y98.858 E2187.99075
G1 X109.629 Y97.990 E2188.20769
G1 X97.990 Y109.629 E2192.32255
G1 X97.122 Y109.629 E2192.53949
G1 X109.629 Y97.122 E2196.96114
G1 X109.629 Y96.255 E2197.17808
G1 X96.255 Y109.629 E2201.90653
G1 X95.387 Y109.629 E2202.12347
G1 X109.629 Y95.387 E2207.15872
G1 X109.629 Y94.519 E2207.37565
G1 X94.519 Y109.629 E2212.71770
G1 X93.651 Y109.629 E2212.93464
G1 X109.629 Y93.651 E2218.58348
G1 X109.629 Y92.784 E2218.80041
G1 X92.784 Y109.629 E2224.75605
G1 X91.916 Y109.629 E2224.97299
G1 X109.629 Y91.916 E2231.23542
G1 X109.629 Y91.048 E2231.45236
G1 X91.048 Y109.629 E2238.02159
G1 X90.371 Y109.438 E2238.19741
G1 X109.438 Y90.371 E2244.93848
G1 X108.570 Y90.371 E2245.15542
G1 X90.371 Y108.570 E2251.58970
G1 X90.371 Y107.702 E2251.80664
G1 X107.702 Y90.371 E2257.93412
G1 X106.835 Y90.371 E2258.15106
G1 X90.371 Y106.835 E2263.97175
G1 X90.371 Y105.967 E2264.18868
G1 X105.967 Y90.371 E2269.70257
G1 X105.099 Y90.371 E2269.91951
G1 X90.371 Y105.099 E2275.12660
G1 X90.371 Y104.231 E2275.34354
G1 X104.231 Y90.371 E2280.24384
G1 X103.364 Y90.371 E2280.46078
G1 X90.371 Y103.364 E2285.05428
G1 X90.371 Y102.496 E2285.27122
G1 X102.496 Y90.371 E2289.55792
G1 X101.628 Y90.371 E2289.77486
G1 X90.371 Y101.628 E2293.75477
G1 X90.371 Y100.760 E2293.97171
G1 X100.760 Y90.371 E2297.64482
G1 X99.893 Y90.371 E2297.86176
G1 X90.371 Y99.893 E2301.22808
G1 X90.371 Y99.025 E2301.44501
G1 X99.025 Y90.371 E2304.50453
G1 X98.157 Y90.371 E2304.72147
G1 X90.371 Y98.157 E2307.47420
G1 X90.371 Y97.289 E2307.69113
G1 X97.289 Y90.371 E2310.13706
G1 X96.422 Y90.371 E2310.35400
G1 X90.371 Y96.422 E2312.49313
G1 X90.371 Y95.554 E2312.71007
G1 X95.554 Y90.371 E2314.54241
G1 X94.686 Y90.371 E2314.75934
G1 X90.371 Y94.686 E2316.28488
G1 X90.371 Y93.818 E2316.50182
G1 X93.818 Y90.371 E2317.72057
G1 X92.951 Y90.371 E2317.93750
G1 X90.371 Y92.951 E2318.84945
G1 X90.371 Y92.083 E2319.06639
G1 X92.083 Y90.371 E2319.67154
G1 X91.215 Y90.371 E2319.88848
G1 X90.371 Y91.215 E2320.18683
M107
M104 S0 ; turn off temperature
G28 X0  ; home X axis
M84     ; disable motors

; filament used = 2959.7mm (2.3cm3)

; avoid_crossing_perimeters = 0
; bed_shape = 0x0,200x0,200x200,0x200
; bed_temperature = 0
; before_layer_gcode = 
; bridge_acceleration = 0
; bridge_fan_speed = 100
; brim_width = 0
; complete_objects = 0
; cooling = 1
; default_acceleration = 0
; disable_fan_first_layers = 3
; duplicate_distance = 6
; end_gcode = M104 S0 ; turn off temperature\nG28 X0  ; home X axis\nM84     ; disable motors\n
; extruder_clearance_height = 20
; extruder_clearance_radius = 20
; extruder_offset = 0x0
; extrusion_axis = E
; extrusion_multiplier = 1
; fan_always_on = 0
; fan_below_layer_time = 60
; filament_colour = #FFFFFF
; filament_diameter = 1
; first_layer_acceleration = 0
; first_layer_bed_temperature = 0
; first_layer_extrusion_width = 200%
; first_layer_speed = 30
; first_layer_temperature = 200
; gcode_arcs = 0
; gcode_comments = 0
; gcode_flavor = reprap
; infill_acceleration = 0
; infill_first = 0
; layer_gcode = 
; max_fan_speed = 100
; max_print_speed = 80
; max_volumetric_speed = 0
; min_fan_speed = 35
; min_print_speed = 10
; min_skirt_length = 0
; notes = 
; nozzle_diameter = 0.5
; only_retract_when_crossing_perimeters = 1
; ooze_prevention = 0
; output_filename_format = [input_filename_base].gcode
; perimeter_acceleration = 0
; post_process = 
; pressure_advance = 0
; resolution = 0
; retract_before_travel = 2
; retract_layer_change = 0
; retract_length = 2
; retract_length_toolchange = 10
; retract_lift = 0
; retract_restart_extra = 0
; retract_restart_extra_toolchange = 0
; retract_speed = 40
; skirt_distance = 6
; skirt_height = 1
; skirts = 0
; slowdown_below_layer_time = 5
; spiral_vase = 0
; standby_temperature_delta = -5
; start_gcode = G28 ; home all axes\nG1 Z5 F5000 ; lift nozzle\n
; temperature = 200
; threads = 2
; toolchange_gcode = 
; travel_speed = 130
; use_firmware_retraction = 0
; use_relative_e_distances = 0
; use_volumetric_e = 0
; vibration_limit = 0
; wipe = 0
; z_offset = 0
; dont_support_bridges = 1
; extrusion_width = 0
; first_layer_height = 0.4
; infill_only_where_needed = 0
; interface_shells = 0
; layer_height = 0.4
; raft_layers = 0
; seam_position = aligned
; support_material = 0
; support_material_angle = 0
; support_material_contact_distance = 0.2
; support_material_enforce_layers = 0
; support_material_extruder = 1
; support_material_extrusion_width = 0
; support_material_interface_extruder = 1
; support_material_interface_layers = 3
; support_material_interface_spacing = 0
; support_material_interface_speed = 100%
; support_material_pattern = pillars
; support_material_spacing = 2.5
; support_material_speed = 60
; support_material_threshold = 0
; xy_size_compensation = 0
; bottom_solid_layers = 0
; bridge_flow_ratio = 1
; bridge_speed = 60
; external_fill_pattern = rectilinear
; external_perimeter_extrusion_width = 0
; external_perimeter_speed = 50%
; external_perimeters_first = 0
; extra_perimeters = 1
; fill_angle = 45
; fill_density = 80%
; fill_pattern = rectilinear
; gap_fill_speed = 20
; infill_every_layers = 1
; infill_extruder = 1
; infill_extrusion_width = 0
; infill_overlap = 15%
; infill_speed = 80
; overhangs = 1
; perimeter_extruder = 1
; perimeter_extrusion_width = 0
; perimeter_speed = 60
; perimeters = 0
; small_perimeter_speed = 15
; solid_infill_below_area = 70
; solid_infill_every_layers = 0
; solid_infill_extruder = 1
; solid_infill_extrusion_width = 0
; solid_infill_speed = 20
; thin_walls = 1
; top_infill_extrusion_width = 0
; top_solid_infill_speed = 15
; top_solid_layers = 0
