; generated by Slic3r 1.2.9 on 2019-08-09 at 13:47:02

; external perimeters extrusion width = 0.50mm
; perimeters extrusion width = 0.58mm
; infill extrusion width = 0.58mm
; solid infill extrusion width = 0.58mm
; top infill extrusion width = 0.58mm

M107
M104 S200 ; set temperature
G28 ; home all axes
G1 Z5 F5000 ; lift nozzle

M109 S200 ; wait for temperature to be reached
G21 ; set units to millimeters
G90 ; use absolute coordinates
M82 ; use absolute distances for extrusion
G92 E0
G1 Z0.400 F7800.000
G1 E-2.00000 F2400.00000
G92 E0
G1 X83.121 Y116.607 F7800.000
G1 E2.00000 F2400.00000
G1 X83.393 Y116.879 E2.13998 F1800.000
G1 X85.129 Y116.879 E2.77122
G1 X83.121 Y114.871 E3.80390
G1 X83.121 Y113.136 E4.43513
G1 X86.864 Y116.879 E6.36051
G1 X88.600 Y116.879 E6.99175
G1 X83.121 Y111.400 E9.80983
G1 X83.121 Y109.665 E10.44106
G1 X90.335 Y116.879 E14.15184
G1 X92.071 Y116.879 E14.78308
G1 X83.121 Y107.929 E19.38656
G1 X83.121 Y106.194 E20.01779
G1 X93.806 Y116.879 E25.51397
G1 X95.542 Y116.879 E26.14520
G1 X83.121 Y104.458 E32.53408
G1 X83.121 Y102.723 E33.16531
G1 X97.277 Y116.879 E40.44689
G1 X99.013 Y116.879 E41.07812
G1 X83.121 Y100.987 E49.25240
G1 X83.121 Y99.252 E49.88363
G1 X100.748 Y116.879 E58.95061
G1 X102.484 Y116.879 E59.58184
G1 X83.121 Y97.516 E69.54152
G1 X83.121 Y95.781 E70.17275
G1 X104.219 Y116.879 E81.02512
G1 X105.955 Y116.879 E81.65636
G1 X83.121 Y94.045 E93.40143
G1 X83.121 Y92.310 E94.03266
G1 X107.690 Y116.879 E106.67043
G1 X109.426 Y116.879 E107.30167
G1 X83.121 Y90.574 E120.83214
G1 X83.121 Y88.839 E121.46337
G1 X111.161 Y116.879 E135.88654
G1 X112.897 Y116.879 E136.51778
G1 X83.121 Y87.103 E151.83365
G1 X83.121 Y85.368 E152.46488
G1 X114.632 Y116.879 E168.67345
G1 X116.368 Y116.879 E169.30468
G1 X83.121 Y83.632 E186.40595
G1 X84.346 Y83.121 E186.88860
G1 X116.879 Y115.654 E203.62261
G1 X116.879 Y113.918 E204.25385
G1 X86.082 Y83.121 E220.09516
G1 X87.817 Y83.121 E220.72640
G1 X116.879 Y112.183 E235.67502
G1 X116.879 Y110.447 E236.30625
G1 X89.553 Y83.121 E250.36217
G1 X91.288 Y83.121 E250.99340
G1 X116.879 Y108.712 E264.15662
G1 X116.879 Y106.976 E264.78786
G1 X93.024 Y83.121 E277.05838
G1 X94.759 Y83.121 E277.68961
G1 X116.879 Y105.241 E289.06743
G1 X116.879 Y103.505 E289.69867
G1 X96.495 Y83.121 E300.18379
G1 X98.230 Y83.121 E300.81502
G1 X116.879 Y101.770 E310.40745
G1 X116.879 Y100.034 E311.03868
G1 X99.966 Y83.121 E319.73841
G1 X101.701 Y83.121 E320.36964
G1 X116.879 Y98.299 E328.17667
G1 X116.879 Y96.563 E328.80790
G1 X103.437 Y83.121 E335.72222
G1 X105.172 Y83.121 E336.35346
G1 X116.879 Y94.828 E342.37509
G1 X116.879 Y93.092 E343.00632
G1 X106.908 Y83.121 E348.13525
G1 X108.643 Y83.121 E348.76648
G1 X116.879 Y91.357 E353.00271
G1 X116.879 Y89.621 E353.63394
G1 X110.379 Y83.121 E356.97747
G1 X112.114 Y83.121 E357.60871
G1 X116.879 Y87.886 E360.05954
G1 X116.879 Y86.150 E360.69077
G1 X113.850 Y83.121 E362.24890
G1 X115.585 Y83.121 E362.88014
G1 X116.879 Y84.415 E363.54557
G1 Z0.800 F7800.000
G1 X115.585 Y116.879 F7800.000
G1 X116.879 Y115.585 E364.00295 F4800.000
G1 X116.879 Y113.850 E364.43682
G1 X113.850 Y116.879 E365.50780
G1 X112.114 Y116.879 E365.94167
G1 X116.879 Y112.114 E367.62624
G1 X116.879 Y110.379 E368.06012
G1 X110.379 Y116.879 E370.35827
G1 X108.643 Y116.879 E370.79215
G1 X116.879 Y108.643 E373.70390
G1 X116.879 Y106.908 E374.13778
G1 X106.908 Y116.879 E377.66312
G1 X105.172 Y116.879 E378.09699
G1 X116.879 Y105.172 E382.23593
G1 X116.879 Y103.437 E382.66980
G1 X103.437 Y116.879 E387.42233
G1 X101.701 Y116.879 E387.85621
G1 X116.879 Y101.701 E393.22233
G1 X116.879 Y99.966 E393.65620
G1 X99.966 Y116.879 E399.63591
G1 X98.230 Y116.879 E400.06979
G1 X116.879 Y98.230 E406.66309
G1 X116.879 Y96.495 E407.09697
G1 X96.495 Y116.879 E414.30386
G1 X94.759 Y116.879 E414.73774
G1 X116.879 Y94.759 E422.55823
G1 X116.879 Y93.024 E422.99210
G1 X93.024 Y116.879 E431.42618
G1 X91.288 Y116.879 E431.86006
G1 X116.879 Y91.288 E440.90773
G1 X116.879 Y89.553 E441.34161
G1 X89.553 Y116.879 E451.00287
G1 X87.817 Y116.879 E451.43675
G1 X116.879 Y87.817 E461.71160
G1 X116.879 Y86.082 E462.14548
G1 X86.082 Y116.879 E473.03393
G1 X84.346 Y116.879 E473.46780
G1 X116.879 Y84.346 E484.96985
G1 X116.368 Y83.121 E485.30159
G1 X83.121 Y116.368 E497.05606
G1 X83.121 Y114.632 E497.48994
G1 X114.632 Y83.121 E508.63081
G1 X112.897 Y83.121 E509.06469
G1 X83.121 Y112.897 E519.59198
G1 X83.121 Y111.161 E520.02585
G1 X111.161 Y83.121 E529.93955
G1 X109.426 Y83.121 E530.37342
G1 X83.121 Y109.426 E539.67352
G1 X83.121 Y107.690 E540.10740
G1 X107.690 Y83.121 E548.79391
G1 X105.955 Y83.121 E549.22778
G1 X83.121 Y105.955 E557.30070
G1 X83.121 Y104.219 E557.73457
G1 X104.219 Y83.121 E565.19390
G1 X102.484 Y83.121 E565.62777
G1 X83.121 Y102.484 E572.47351
G1 X83.121 Y100.748 E572.90738
G1 X100.748 Y83.121 E579.13952
G1 X99.013 Y83.121 E579.57340
G1 X83.121 Y99.013 E585.19195
G1 X83.121 Y97.277 E585.62582
G1 X97.277 Y83.121 E590.63078
G1 X95.542 Y83.121 E591.06465
G1 X83.121 Y95.542 E595.45602
G1 X83.121 Y93.806 E595.88989
G1 X93.806 Y83.121 E599.66766
G1 X92.071 Y83.121 E600.10154
G1 X83.121 Y92.071 E603.26572
G1 X83.121 Y90.335 E603.69959
G1 X90.335 Y83.121 E606.25018
G1 X88.600 Y83.121 E606.68405
G1 X83.121 Y88.600 E608.62105
G1 X83.121 Y86.864 E609.05492
G1 X86.864 Y83.121 E610.37833
G1 X85.129 Y83.121 E610.81220
G1 X83.121 Y85.129 E611.52201
G1 X83.121 Y83.393 E611.95589
G1 X83.393 Y83.121 E612.05210
G1 Z1.200 F7800.000
G1 X83.121 Y116.607 F7800.000
G1 X83.393 Y116.879 E612.14832 F4800.000
G1 X85.129 Y116.879 E612.58220
G1 X83.121 Y114.871 E613.29200
G1 X83.121 Y113.136 E613.72588
G1 X86.864 Y116.879 E615.04928
G1 X88.600 Y116.879 E615.48316
G1 X83.121 Y111.400 E617.42015
G1 X83.121 Y109.665 E617.85403
G1 X90.335 Y116.879 E620.40461
G1 X92.071 Y116.879 E620.83849
G1 X83.121 Y107.929 E624.00266
G1 X83.121 Y106.194 E624.43654
G1 X93.806 Y116.879 E628.21431
G1 X95.542 Y116.879 E628.64819
G1 X83.121 Y104.458 E633.03955
G1 X83.121 Y102.723 E633.47342
G1 X97.277 Y116.879 E638.47838
G1 X99.013 Y116.879 E638.91226
G1 X83.121 Y100.987 E644.53080
G1 X83.121 Y99.252 E644.96468
G1 X100.748 Y116.879 E651.19682
G1 X102.484 Y116.879 E651.63069
G1 X83.121 Y97.516 E658.47643
G1 X83.121 Y95.781 E658.91030
G1 X104.219 Y116.879 E666.36963
G1 X105.955 Y116.879 E666.80350
G1 X83.121 Y94.045 E674.87642
G1 X83.121 Y92.310 E675.31029
G1 X107.690 Y116.879 E683.99680
G1 X109.426 Y116.879 E684.43068
G1 X83.121 Y90.574 E693.73078
G1 X83.121 Y88.839 E694.16466
G1 X111.161 Y116.879 E704.07835
G1 X112.897 Y116.879 E704.51222
G1 X83.121 Y87.103 E715.03951
G1 X83.121 Y85.368 E715.47339
G1 X114.632 Y116.879 E726.61426
G1 X116.368 Y116.879 E727.04814
G1 X83.121 Y83.632 E738.80261
G1 X84.346 Y83.121 E739.13435
G1 X116.879 Y115.654 E750.63640
G1 X116.879 Y113.918 E751.07027
G1 X86.082 Y83.121 E761.95872
G1 X87.817 Y83.121 E762.39260
G1 X116.879 Y112.183 E772.66746
G1 X116.879 Y110.447 E773.10133
G1 X89.553 Y83.121 E782.76260
G1 X91.288 Y83.121 E783.19647
G1 X116.879 Y108.712 E792.24415
G1 X116.879 Y106.976 E792.67802
G1 X93.024 Y83.121 E801.11210
G1 X94.759 Y83.121 E801.54598
G1 X116.879 Y105.241 E809.36647
G1 X116.879 Y103.505 E809.80034
G1 X96.495 Y83.121 E817.00724
G1 X98.230 Y83.121 E817.44112
G1 X116.879 Y101.770 E824.03442
G1 X116.879 Y100.034 E824.46830
G1 X99.966 Y83.121 E830.44801
G1 X101.701 Y83.121 E830.88188
G1 X116.879 Y98.299 E836.24800
G1 X116.879 Y96.563 E836.68188
G1 X103.437 Y83.121 E841.43441
G1 X105.172 Y83.121 E841.86828
G1 X116.879 Y94.828 E846.00722
G1 X116.879 Y93.092 E846.44109
G1 X106.908 Y83.121 E849.96643
G1 X108.643 Y83.121 E850.40031
G1 X116.879 Y91.357 E853.31206
G1 X116.879 Y89.621 E853.74594
G1 X110.379 Y83.121 E856.04409
G1 X112.114 Y83.121 E856.47797
G1 X116.879 Y87.886 E858.16254
G1 X116.879 Y86.150 E858.59641
G1 X113.850 Y83.121 E859.66738
G1 X115.585 Y83.121 E860.10126
G1 X116.879 Y84.415 E860.55864
M106 S232.05
G1 Z1.600 F7800.000
G1 X115.585 Y116.879 F7800.000
G1 X116.879 Y115.585 E861.01602 F4800.000
G1 X116.879 Y113.850 E861.44990
G1 X113.850 Y116.879 E862.52087
G1 X112.114 Y116.879 E862.95475
G1 X116.879 Y112.114 E864.63931
G1 X116.879 Y110.379 E865.07319
G1 X110.379 Y116.879 E867.37135
G1 X108.643 Y116.879 E867.80522
G1 X116.879 Y108.643 E870.71697
G1 X116.879 Y106.908 E871.15085
G1 X106.908 Y116.879 E874.67619
G1 X105.172 Y116.879 E875.11007
G1 X116.879 Y105.172 E879.24900
G1 X116.879 Y103.437 E879.68288
G1 X103.437 Y116.879 E884.43540
G1 X101.701 Y116.879 E884.86928
G1 X116.879 Y101.701 E890.23540
G1 X116.879 Y99.966 E890.66927
G1 X99.966 Y116.879 E896.64899
G1 X98.230 Y116.879 E897.08286
G1 X116.879 Y98.230 E903.67616
G1 X116.879 Y96.495 E904.11004
G1 X96.495 Y116.879 E911.31694
G1 X94.759 Y116.879 E911.75081
G1 X116.879 Y94.759 E919.57130
G1 X116.879 Y93.024 E920.00517
G1 X93.024 Y116.879 E928.43926
G1 X91.288 Y116.879 E928.87313
G1 X116.879 Y91.288 E937.92080
G1 X116.879 Y89.553 E938.35468
G1 X89.553 Y116.879 E948.01594
G1 X87.817 Y116.879 E948.44982
G1 X116.879 Y87.817 E958.72468
G1 X116.879 Y86.082 E959.15855
G1 X86.082 Y116.879 E970.04700
G1 X84.346 Y116.879 E970.48088
G1 X116.879 Y84.346 E981.98292
G1 X116.368 Y83.121 E982.31466
G1 X83.121 Y116.368 E994.06913
G1 X83.121 Y114.632 E994.50301
G1 X114.632 Y83.121 E1005.64389
G1 X112.897 Y83.121 E1006.07776
G1 X83.121 Y112.897 E1016.60505
G1 X83.121 Y111.161 E1017.03892
G1 X111.161 Y83.121 E1026.95262
G1 X109.426 Y83.121 E1027.38649
G1 X83.121 Y109.426 E1036.68660
G1 X83.121 Y107.690 E1037.12047
G1 X107.690 Y83.121 E1045.80698
G1 X105.955 Y83.121 E1046.24086
G1 X83.121 Y105.955 E1054.31377
G1 X83.121 Y104.219 E1054.74765
G1 X104.219 Y83.121 E1062.20697
G1 X102.484 Y83.121 E1062.64085
G1 X83.121 Y102.484 E1069.48658
G1 X83.121 Y100.748 E1069.92046
G1 X100.748 Y83.121 E1076.15260
G1 X99.013 Y83.121 E1076.58647
G1 X83.121 Y99.013 E1082.20502
G1 X83.121 Y97.277 E1082.63889
G1 X97.277 Y83.121 E1087.64385
G1 X95.542 Y83.121 E1088.07773
G1 X83.121 Y95.542 E1092.46909
G1 X83.121 Y93.806 E1092.90296
G1 X93.806 Y83.121 E1096.68074
G1 X92.071 Y83.121 E1097.11461
G1 X83.121 Y92.071 E1100.27879
G1 X83.121 Y90.335 E1100.71267
G1 X90.335 Y83.121 E1103.26325
G1 X88.600 Y83.121 E1103.69713
G1 X83.121 Y88.600 E1105.63412
G1 X83.121 Y86.864 E1106.06800
G1 X86.864 Y83.121 E1107.39140
G1 X85.129 Y83.121 E1107.82527
G1 X83.121 Y85.129 E1108.53508
G1 X83.121 Y83.393 E1108.96896
G1 X83.393 Y83.121 E1109.06518
G1 Z2.000 F7800.000
G1 X83.121 Y116.607 F7800.000
G1 X83.393 Y116.879 E1109.16139 F4800.000
G1 X85.129 Y116.879 E1109.59527
G1 X83.121 Y114.871 E1110.30508
G1 X83.121 Y113.136 E1110.73895
G1 X86.864 Y116.879 E1112.06235
G1 X88.600 Y116.879 E1112.49623
G1 X83.121 Y111.400 E1114.43322
G1 X83.121 Y109.665 E1114.86710
G1 X90.335 Y116.879 E1117.41768
G1 X92.071 Y116.879 E1117.85156
G1 X83.121 Y107.929 E1121.01574
G1 X83.121 Y106.194 E1121.44961
G1 X93.806 Y116.879 E1125.22738
G1 X95.542 Y116.879 E1125.66126
G1 X83.121 Y104.458 E1130.05262
G1 X83.121 Y102.723 E1130.48650
G1 X97.277 Y116.879 E1135.49145
G1 X99.013 Y116.879 E1135.92533
G1 X83.121 Y100.987 E1141.54388
G1 X83.121 Y99.252 E1141.97775
G1 X100.748 Y116.879 E1148.20989
G1 X102.484 Y116.879 E1148.64377
G1 X83.121 Y97.516 E1155.48950
G1 X83.121 Y95.781 E1155.92338
G1 X104.219 Y116.879 E1163.38270
G1 X105.955 Y116.879 E1163.81657
G1 X83.121 Y94.045 E1171.88949
G1 X83.121 Y92.310 E1172.32337
G1 X107.690 Y116.879 E1181.00988
G1 X109.426 Y116.879 E1181.44375
G1 X83.121 Y90.574 E1190.74385
G1 X83.121 Y88.839 E1191.17773
G1 X111.161 Y116.879 E1201.09142
G1 X112.897 Y116.879 E1201.52530
G1 X83.121 Y87.103 E1212.05258
G1 X83.121 Y85.368 E1212.48646
G1 X114.632 Y116.879 E1223.62734
G1 X116.368 Y116.879 E1224.06121
G1 X83.121 Y83.632 E1235.81568
G1 X84.346 Y83.121 E1236.14743
G1 X116.879 Y115.654 E1247.64947
G1 X116.879 Y113.918 E1248.08335
G1 X86.082 Y83.121 E1258.97180
G1 X87.817 Y83.121 E1259.40567
G1 X116.879 Y112.183 E1269.68053
G1 X116.879 Y110.447 E1270.11440
G1 X89.553 Y83.121 E1279.77567
G1 X91.288 Y83.121 E1280.20955
G1 X116.879 Y108.712 E1289.25722
G1 X116.879 Y106.976 E1289.69110
G1 X93.024 Y83.121 E1298.12518
G1 X94.759 Y83.121 E1298.55905
G1 X116.879 Y105.241 E1306.37954
G1 X116.879 Y103.505 E1306.81342
G1 X96.495 Y83.121 E1314.02031
G1 X98.230 Y83.121 E1314.45419
G1 X116.879 Y101.770 E1321.04749
G1 X116.879 Y100.034 E1321.48137
G1 X99.966 Y83.121 E1327.46108
G1 X101.701 Y83.121 E1327.89496
G1 X116.879 Y98.299 E1333.26108
G1 X116.879 Y96.563 E1333.69495
G1 X103.437 Y83.121 E1338.44748
G1 X105.172 Y83.121 E1338.88135
G1 X116.879 Y94.828 E1343.02029
G1 X116.879 Y93.092 E1343.45416
G1 X106.908 Y83.121 E1346.97951
G1 X108.643 Y83.121 E1347.41338
G1 X116.879 Y91.357 E1350.32513
G1 X116.879 Y89.621 E1350.75901
G1 X110.379 Y83.121 E1353.05717
G1 X112.114 Y83.121 E1353.49104
G1 X116.879 Y87.886 E1355.17561
G1 X116.879 Y86.150 E1355.60948
G1 X113.850 Y83.121 E1356.68046
G1 X115.585 Y83.121 E1357.11433
G1 X116.879 Y84.415 E1357.57171
G1 Z2.400 F7800.000
G1 X115.585 Y116.879 F7800.000
G1 X116.879 Y115.585 E1358.02910 F4800.000
G1 X116.879 Y113.850 E1358.46297
G1 X113.850 Y116.879 E1359.53395
G1 X112.114 Y116.879 E1359.96782
G1 X116.879 Y112.114 E1361.65239
G1 X116.879 Y110.379 E1362.08626
G1 X110.379 Y116.879 E1364.38442
G1 X108.643 Y116.879 E1364.81830
G1 X116.879 Y108.643 E1367.73005
G1 X116.879 Y106.908 E1368.16392
G1 X106.908 Y116.879 E1371.68926
G1 X105.172 Y116.879 E1372.12314
G1 X116.879 Y105.172 E1376.26207
G1 X116.879 Y103.437 E1376.69595
G1 X103.437 Y116.879 E1381.44848
G1 X101.701 Y116.879 E1381.88235
G1 X116.879 Y101.701 E1387.24847
G1 X116.879 Y99.966 E1387.68235
G1 X99.966 Y116.879 E1393.66206
G1 X98.230 Y116.879 E1394.09593
G1 X116.879 Y98.230 E1400.68924
G1 X116.879 Y96.495 E1401.12311
G1 X96.495 Y116.879 E1408.33001
G1 X94.759 Y116.879 E1408.76388
G1 X116.879 Y94.759 E1416.58437
G1 X116.879 Y93.024 E1417.01825
G1 X93.024 Y116.879 E1425.45233
G1 X91.288 Y116.879 E1425.88620
G1 X116.879 Y91.288 E1434.93388
G1 X116.879 Y89.553 E1435.36775
G1 X89.553 Y116.879 E1445.02902
G1 X87.817 Y116.879 E1445.46289
G1 X116.879 Y87.817 E1455.73775
G1 X116.879 Y86.082 E1456.17162
G1 X86.082 Y116.879 E1467.06007
G1 X84.346 Y116.879 E1467.49395
G1 X116.879 Y84.346 E1478.99599
G1 X116.368 Y83.121 E1479.32774
G1 X83.121 Y116.368 E1491.08221
G1 X83.121 Y114.632 E1491.51608
G1 X114.632 Y83.121 E1502.65696
G1 X112.897 Y83.121 E1503.09084
G1 X83.121 Y112.897 E1513.61812
G1 X83.121 Y111.161 E1514.05200
G1 X111.161 Y83.121 E1523.96569
G1 X109.426 Y83.121 E1524.39957
G1 X83.121 Y109.426 E1533.69967
G1 X83.121 Y107.690 E1534.13354
G1 X107.690 Y83.121 E1542.82005
G1 X105.955 Y83.121 E1543.25393
G1 X83.121 Y105.955 E1551.32685
G1 X83.121 Y104.219 E1551.76072
G1 X104.219 Y83.121 E1559.22005
G1 X102.484 Y83.121 E1559.65392
G1 X83.121 Y102.484 E1566.49965
G1 X83.121 Y100.748 E1566.93353
G1 X100.748 Y83.121 E1573.16567
G1 X99.013 Y83.121 E1573.59954
G1 X83.121 Y99.013 E1579.21809
G1 X83.121 Y97.277 E1579.65197
G1 X97.277 Y83.121 E1584.65692
G1 X95.542 Y83.121 E1585.09080
G1 X83.121 Y95.542 E1589.48216
G1 X83.121 Y93.806 E1589.91604
G1 X93.806 Y83.121 E1593.69381
G1 X92.071 Y83.121 E1594.12768
G1 X83.121 Y92.071 E1597.29186
G1 X83.121 Y90.335 E1597.72574
G1 X90.335 Y83.121 E1600.27633
G1 X88.600 Y83.121 E1600.71020
G1 X83.121 Y88.600 E1602.64719
G1 X83.121 Y86.864 E1603.08107
G1 X86.864 Y83.121 E1604.40447
G1 X85.129 Y83.121 E1604.83835
G1 X83.121 Y85.129 E1605.54816
G1 X83.121 Y83.393 E1605.98203
G1 X83.393 Y83.121 E1606.07825
G1 Z2.800 F7800.000
G1 X83.121 Y116.607 F7800.000
G1 X83.393 Y116.879 E1606.17447 F4800.000
G1 X85.129 Y116.879 E1606.60834
G1 X83.121 Y114.871 E1607.31815
G1 X83.121 Y113.136 E1607.75203
G1 X86.864 Y116.879 E1609.07543
G1 X88.600 Y116.879 E1609.50930
G1 X83.121 Y111.400 E1611.44630
G1 X83.121 Y109.665 E1611.88017
G1 X90.335 Y116.879 E1614.43076
G1 X92.071 Y116.879 E1614.86463
G1 X83.121 Y107.929 E1618.02881
G1 X83.121 Y106.194 E1618.46269
G1 X93.806 Y116.879 E1622.24046
G1 X95.542 Y116.879 E1622.67433
G1 X83.121 Y104.458 E1627.06570
G1 X83.121 Y102.723 E1627.49957
G1 X97.277 Y116.879 E1632.50453
G1 X99.013 Y116.879 E1632.93840
G1 X83.121 Y100.987 E1638.55695
G1 X83.121 Y99.252 E1638.99083
G1 X100.748 Y116.879 E1645.22297
G1 X102.484 Y116.879 E1645.65684
G1 X83.121 Y97.516 E1652.50257
G1 X83.121 Y95.781 E1652.93645
G1 X104.219 Y116.879 E1660.39577
G1 X105.955 Y116.879 E1660.82965
G1 X83.121 Y94.045 E1668.90257
G1 X83.121 Y92.310 E1669.33644
G1 X107.690 Y116.879 E1678.02295
G1 X109.426 Y116.879 E1678.45682
G1 X83.121 Y90.574 E1687.75693
G1 X83.121 Y88.839 E1688.19080
G1 X111.161 Y116.879 E1698.10450
G1 X112.897 Y116.879 E1698.53837
G1 X83.121 Y87.103 E1709.06566
G1 X83.121 Y85.368 E1709.49953
G1 X114.632 Y116.879 E1720.64041
G1 X116.368 Y116.879 E1721.07429
G1 X83.121 Y83.632 E1732.82876
G1 X84.346 Y83.121 E1733.16050
G1 X116.879 Y115.654 E1744.66254
G1 X116.879 Y113.918 E1745.09642
G1 X86.082 Y83.121 E1755.98487
G1 X87.817 Y83.121 E1756.41875
G1 X116.879 Y112.183 E1766.69360
G1 X116.879 Y110.447 E1767.12748
G1 X89.553 Y83.121 E1776.78874
G1 X91.288 Y83.121 E1777.22262
G1 X116.879 Y108.712 E1786.27029
G1 X116.879 Y106.976 E1786.70417
G1 X93.024 Y83.121 E1795.13825
G1 X94.759 Y83.121 E1795.57213
G1 X116.879 Y105.241 E1803.39261
G1 X116.879 Y103.505 E1803.82649
G1 X96.495 Y83.121 E1811.03339
G1 X98.230 Y83.121 E1811.46726
G1 X116.879 Y101.770 E1818.06057
G1 X116.879 Y100.034 E1818.49444
G1 X99.966 Y83.121 E1824.47415
G1 X101.701 Y83.121 E1824.90803
G1 X116.879 Y98.299 E1830.27415
G1 X116.879 Y96.563 E1830.70802
G1 X103.437 Y83.121 E1835.46055
G1 X105.172 Y83.121 E1835.89443
G1 X116.879 Y94.828 E1840.03336
G1 X116.879 Y93.092 E1840.46724
G1 X106.908 Y83.121 E1843.99258
G1 X108.643 Y83.121 E1844.42646
G1 X116.879 Y91.357 E1847.33821
G1 X116.879 Y89.621 E1847.77208
G1 X110.379 Y83.121 E1850.07024
G1 X112.114 Y83.121 E1850.50412
G1 X116.879 Y87.886 E1852.18868
G1 X116.879 Y86.150 E1852.62256
G1 X113.850 Y83.121 E1853.69353
G1 X115.585 Y83.121 E1854.12741
G1 X116.879 Y84.415 E1854.58479
G1 Z3.200 F7800.000
G1 X115.585 Y116.879 F7800.000
G1 X116.879 Y115.585 E1855.04217 F4800.000
G1 X116.879 Y113.850 E1855.47604
G1 X113.850 Y116.879 E1856.54702
G1 X112.114 Y116.879 E1856.98089
G1 X116.879 Y112.114 E1858.66546
G1 X116.879 Y110.379 E1859.09934
G1 X110.379 Y116.879 E1861.39749
G1 X108.643 Y116.879 E1861.83137
G1 X116.879 Y108.643 E1864.74312
G1 X116.879 Y106.908 E1865.17700
G1 X106.908 Y116.879 E1868.70234
G1 X105.172 Y116.879 E1869.13621
G1 X116.879 Y105.172 E1873.27515
G1 X116.879 Y103.437 E1873.70902
G1 X103.437 Y116.879 E1878.46155
G1 X101.701 Y116.879 E1878.89543
G1 X116.879 Y101.701 E1884.26155
G1 X116.879 Y99.966 E1884.69542
G1 X99.966 Y116.879 E1890.67513
G1 X98.230 Y116.879 E1891.10901
G1 X116.879 Y98.230 E1897.70231
G1 X116.879 Y96.495 E1898.13619
G1 X96.495 Y116.879 E1905.34308
G1 X94.759 Y116.879 E1905.77696
G1 X116.879 Y94.759 E1913.59745
G1 X116.879 Y93.024 E1914.03132
G1 X93.024 Y116.879 E1922.46540
G1 X91.288 Y116.879 E1922.89928
G1 X116.879 Y91.288 E1931.94695
G1 X116.879 Y89.553 E1932.38083
G1 X89.553 Y116.879 E1942.04209
G1 X87.817 Y116.879 E1942.47597
G1 X116.879 Y87.817 E1952.75082
G1 X116.879 Y86.082 E1953.18470
G1 X86.082 Y116.879 E1964.07315
G1 X84.346 Y116.879 E1964.50702
G1 X116.879 Y84.346 E1976.00907
G1 X116.368 Y83.121 E1976.34081
G1 X83.121 Y116.368 E1988.09528
G1 X83.121 Y114.632 E1988.52916
G1 X114.632 Y83.121 E1999.67003
G1 X112.897 Y83.121 E2000.10391
G1 X83.121 Y112.897 E2010.63120
G1 X83.121 Y111.161 E2011.06507
G1 X111.161 Y83.121 E2020.97877
G1 X109.426 Y83.121 E2021.41264
G1 X83.121 Y109.426 E2030.71274
G1 X83.121 Y107.690 E2031.14662
G1 X107.690 Y83.121 E2039.83313
G1 X105.955 Y83.121 E2040.26700
G1 X83.121 Y105.955 E2048.33992
G1 X83.121 Y104.219 E2048.77379
G1 X104.219 Y83.121 E2056.23312
G1 X102.484 Y83.121 E2056.66699
G1 X83.121 Y102.484 E2063.51273
G1 X83.121 Y100.748 E2063.94660
G1 X100.748 Y83.121 E2070.17874
G1 X99.013 Y83.121 E2070.61262
G1 X83.121 Y99.013 E2076.23117
G1 X83.121 Y97.277 E2076.66504
G1 X97.277 Y83.121 E2081.67000
G1 X95.542 Y83.121 E2082.10387
G1 X83.121 Y95.542 E2086.49524
G1 X83.121 Y93.806 E2086.92911
G1 X93.806 Y83.121 E2090.70688
G1 X92.071 Y83.121 E2091.14076
G1 X83.121 Y92.071 E2094.30494
G1 X83.121 Y90.335 E2094.73881
G1 X90.335 Y83.121 E2097.28940
G1 X88.600 Y83.121 E2097.72327
G1 X83.121 Y88.600 E2099.66027
G1 X83.121 Y86.864 E2100.09414
G1 X86.864 Y83.121 E2101.41755
G1 X85.129 Y83.121 E2101.85142
G1 X83.121 Y85.129 E2102.56123
G1 X83.121 Y83.393 E2102.99511
G1 X83.393 Y83.121 E2103.09132
G1 Z3.600 F7800.000
G1 X83.121 Y116.607 F7800.000
G1 X83.393 Y116.879 E2103.18754 F4800.000
G1 X85.129 Y116.879 E2103.62141
G1 X83.121 Y114.871 E2104.33122
G1 X83.121 Y113.136 E2104.76510
G1 X86.864 Y116.879 E2106.08850
G1 X88.600 Y116.879 E2106.52238
G1 X83.121 Y111.400 E2108.45937
G1 X83.121 Y109.665 E2108.89324
G1 X90.335 Y116.879 E2111.44383
G1 X92.071 Y116.879 E2111.87771
G1 X83.121 Y107.929 E2115.04188
G1 X83.121 Y106.194 E2115.47576
G1 X93.806 Y116.879 E2119.25353
G1 X95.542 Y116.879 E2119.68741
G1 X83.121 Y104.458 E2124.07877
G1 X83.121 Y102.723 E2124.51264
G1 X97.277 Y116.879 E2129.51760
G1 X99.013 Y116.879 E2129.95148
G1 X83.121 Y100.987 E2135.57002
G1 X83.121 Y99.252 E2136.00390
G1 X100.748 Y116.879 E2142.23604
G1 X102.484 Y116.879 E2142.66991
G1 X83.121 Y97.516 E2149.51565
G1 X83.121 Y95.781 E2149.94952
G1 X104.219 Y116.879 E2157.40885
G1 X105.955 Y116.879 E2157.84272
G1 X83.121 Y94.045 E2165.91564
G1 X83.121 Y92.310 E2166.34951
G1 X107.690 Y116.879 E2175.03602
G1 X109.426 Y116.879 E2175.46990
G1 X83.121 Y90.574 E2184.77000
G1 X83.121 Y88.839 E2185.20387
G1 X111.161 Y116.879 E2195.11757
G1 X112.897 Y116.879 E2195.55144
G1 X83.121 Y87.103 E2206.07873
G1 X83.121 Y85.368 E2206.51261
G1 X114.632 Y116.879 E2217.65348
G1 X116.368 Y116.879 E2218.08736
G1 X83.121 Y83.632 E2229.84183
G1 X84.346 Y83.121 E2230.17357
G1 X116.879 Y115.654 E2241.67562
G1 X116.879 Y113.918 E2242.10949
G1 X86.082 Y83.121 E2252.99794
G1 X87.817 Y83.121 E2253.43182
G1 X116.879 Y112.183 E2263.70668
G1 X116.879 Y110.447 E2264.14055
G1 X89.553 Y83.121 E2273.80182
G1 X91.288 Y83.121 E2274.23569
G1 X116.879 Y108.712 E2283.28337
G1 X116.879 Y106.976 E2283.71724
G1 X93.024 Y83.121 E2292.15132
G1 X94.759 Y83.121 E2292.58520
G1 X116.879 Y105.241 E2300.40569
G1 X116.879 Y103.505 E2300.83956
G1 X96.495 Y83.121 E2308.04646
G1 X98.230 Y83.121 E2308.48033
G1 X116.879 Y101.770 E2315.07364
G1 X116.879 Y100.034 E2315.50751
G1 X99.966 Y83.121 E2321.48723
G1 X101.701 Y83.121 E2321.92110
G1 X116.879 Y98.299 E2327.28722
G1 X116.879 Y96.563 E2327.72110
G1 X103.437 Y83.121 E2332.47363
G1 X105.172 Y83.121 E2332.90750
G1 X116.879 Y94.828 E2337.04644
G1 X116.879 Y93.092 E2337.48031
G1 X106.908 Y83.121 E2341.00565
G1 X108.643 Y83.121 E2341.43953
G1 X116.879 Y91.357 E2344.35128
G1 X116.879 Y89.621 E2344.78516
G1 X110.379 Y83.121 E2347.08331
G1 X112.114 Y83.121 E2347.51719
G1 X116.879 Y87.886 E2349.20176
G1 X116.879 Y86.150 E2349.63563
G1 X113.850 Y83.121 E2350.70660
G1 X115.585 Y83.121 E2351.14048
G1 X116.879 Y84.415 E2351.59786
G1 Z4.000 F7800.000
G1 X115.585 Y116.879 F7800.000
G1 X116.879 Y115.585 E2352.05524 F4800.000
G1 X116.879 Y113.850 E2352.48912
G1 X113.850 Y116.879 E2353.56009
G1 X112.114 Y116.879 E2353.99397
G1 X116.879 Y112.114 E2355.67853
G1 X116.879 Y110.379 E2356.11241
G1 X110.379 Y116.879 E2358.41057
G1 X108.643 Y116.879 E2358.84444
G1 X116.879 Y108.643 E2361.75619
G1 X116.879 Y106.908 E2362.19007
G1 X106.908 Y116.879 E2365.71541
G1 X105.172 Y116.879 E2366.14929
G1 X116.879 Y105.172 E2370.28822
G1 X116.879 Y103.437 E2370.72210
G1 X103.437 Y116.879 E2375.47462
G1 X101.701 Y116.879 E2375.90850
G1 X116.879 Y101.701 E2381.27462
G1 X116.879 Y99.966 E2381.70849
G1 X99.966 Y116.879 E2387.68821
G1 X98.230 Y116.879 E2388.12208
G1 X116.879 Y98.230 E2394.71538
G1 X116.879 Y96.495 E2395.14926
G1 X96.495 Y116.879 E2402.35616
G1 X94.759 Y116.879 E2402.79003
G1 X116.879 Y94.759 E2410.61052
G1 X116.879 Y93.024 E2411.04439
G1 X93.024 Y116.879 E2419.47848
G1 X91.288 Y116.879 E2419.91235
G1 X116.879 Y91.288 E2428.96002
G1 X116.879 Y89.553 E2429.39390
G1 X89.553 Y116.879 E2439.05516
G1 X87.817 Y116.879 E2439.48904
G1 X116.879 Y87.817 E2449.76390
G1 X116.879 Y86.082 E2450.19777
G1 X86.082 Y116.879 E2461.08622
G1 X84.346 Y116.879 E2461.52010
G1 X116.879 Y84.346 E2473.02214
G1 X116.368 Y83.121 E2473.35388
G1 X83.121 Y116.368 E2485.10835
G1 X83.121 Y114.632 E2485.54223
G1 X114.632 Y83.121 E2496.68311
G1 X112.897 Y83.121 E2497.11698
G1 X83.121 Y112.897 E2507.64427
G1 X83.121 Y111.161 E2508.07814
G1 X111.161 Y83.121 E2517.99184
G1 X109.426 Y83.121 E2518.42571
G1 X83.121 Y109.426 E2527.72582
G1 X83.121 Y107.690 E2528.15969
G1 X107.690 Y83.121 E2536.84620
G1 X105.955 Y83.121 E2537.28008
G1 X83.121 Y105.955 E2545.35299
G1 X83.121 Y104.219 E2545.78687
G1 X104.219 Y83.121 E2553.24619
G1 X102.484 Y83.121 E2553.68007
G1 X83.121 Y102.484 E2560.52580
G1 X83.121 Y100.748 E2560.95968
G1 X100.748 Y83.121 E2567.19182
G1 X99.013 Y83.121 E2567.62569
G1 X83.121 Y99.013 E2573.24424
G1 X83.121 Y97.277 E2573.67811
G1 X97.277 Y83.121 E2578.68307
G1 X95.542 Y83.121 E2579.11695
G1 X83.121 Y95.542 E2583.50831
G1 X83.121 Y93.806 E2583.94218
G1 X93.806 Y83.121 E2587.71996
G1 X92.071 Y83.121 E2588.15383
G1 X83.121 Y92.071 E2591.31801
G1 X83.121 Y90.335 E2591.75188
G1 X90.335 Y83.121 E2594.30247
G1 X88.600 Y83.121 E2594.73635
G1 X83.121 Y88.600 E2596.67334
G1 X83.121 Y86.864 E2597.10722
G1 X86.864 Y83.121 E2598.43062
G1 X85.129 Y83.121 E2598.86449
G1 X83.121 Y85.129 E2599.57430
G1 X83.121 Y83.393 E2600.00818
G1 X83.393 Y83.121 E2600.10440
G1 Z4.400 F7800.000
G1 X83.121 Y116.607 F7800.000
G1 X83.393 Y116.879 E2600.20061 F4800.000
G1 X85.129 Y116.879 E2600.63449
G1 X83.121 Y114.871 E2601.34430
G1 X83.121 Y113.136 E2601.77817
G1 X86.864 Y116.879 E2603.10157
G1 X88.600 Y116.879 E2603.53545
G1 X83.121 Y111.400 E2605.47244
G1 X83.121 Y109.665 E2605.90632
G1 X90.335 Y116.879 E2608.45690
G1 X92.071 Y116.879 E2608.89078
G1 X83.121 Y107.929 E2612.05496
G1 X83.121 Y106.194 E2612.48883
G1 X93.806 Y116.879 E2616.26660
G1 X95.542 Y116.879 E2616.70048
G1 X83.121 Y104.458 E2621.09184
G1 X83.121 Y102.723 E2621.52572
G1 X97.277 Y116.879 E2626.53067
G1 X99.013 Y116.879 E2626.96455
G1 X83.121 Y100.987 E2632.58310
G1 X83.121 Y99.252 E2633.01697
G1 X100.748 Y116.879 E2639.24911
G1 X102.484 Y116.879 E2639.68299
G1 X83.121 Y97.516 E2646.52872
G1 X83.121 Y95.781 E2646.96259
G1 X104.219 Y116.879 E2654.42192
G1 X105.955 Y116.879 E2654.85579
G1 X83.121 Y94.045 E2662.92871
G1 X83.121 Y92.310 E2663.36259
G1 X107.690 Y116.879 E2672.04910
G1 X109.426 Y116.879 E2672.48297
G1 X83.121 Y90.574 E2681.78307
G1 X83.121 Y88.839 E2682.21695
G1 X111.161 Y116.879 E2692.13064
G1 X112.897 Y116.879 E2692.56452
G1 X83.121 Y87.103 E2703.09180
G1 X83.121 Y85.368 E2703.52568
G1 X114.632 Y116.879 E2714.66656
G1 X116.368 Y116.879 E2715.10043
G1 X83.121 Y83.632 E2726.85490
G1 X84.346 Y83.121 E2727.18665
G1 X116.879 Y115.654 E2738.68869
G1 X116.879 Y113.918 E2739.12257
G1 X86.082 Y83.121 E2750.01102
G1 X87.817 Y83.121 E2750.44489
G1 X116.879 Y112.183 E2760.71975
G1 X116.879 Y110.447 E2761.15362
G1 X89.553 Y83.121 E2770.81489
G1 X91.288 Y83.121 E2771.24877
G1 X116.879 Y108.712 E2780.29644
G1 X116.879 Y106.976 E2780.73031
G1 X93.024 Y83.121 E2789.16440
G1 X94.759 Y83.121 E2789.59827
G1 X116.879 Y105.241 E2797.41876
G1 X116.879 Y103.505 E2797.85264
G1 X96.495 Y83.121 E2805.05953
G1 X98.230 Y83.121 E2805.49341
G1 X116.879 Y101.770 E2812.08671
G1 X116.879 Y100.034 E2812.52059
G1 X99.966 Y83.121 E2818.50030
G1 X101.701 Y83.121 E2818.93418
G1 X116.879 Y98.299 E2824.30030
G1 X116.879 Y96.563 E2824.73417
G1 X103.437 Y83.121 E2829.48670
G1 X105.172 Y83.121 E2829.92057
G1 X116.879 Y94.828 E2834.05951
G1 X116.879 Y93.092 E2834.49338
G1 X106.908 Y83.121 E2838.01873
G1 X108.643 Y83.121 E2838.45260
G1 X116.879 Y91.357 E2841.36435
G1 X116.879 Y89.621 E2841.79823
G1 X110.379 Y83.121 E2844.09639
G1 X112.114 Y83.121 E2844.53026
G1 X116.879 Y87.886 E2846.21483
G1 X116.879 Y86.150 E2846.64870
G1 X113.850 Y83.121 E2847.71968
G1 X115.585 Y83.121 E2848.15355
G1 X116.879 Y84.415 E2848.61093
G1 Z4.800 F7800.000
G1 X115.585 Y116.879 F7800.000
G1 X116.879 Y115.585 E2849.06832 F4800.000
G1 X116.879 Y113.850 E2849.50219
G1 X113.850 Y116.879 E2850.57316
G1 X112.114 Y116.879 E2851.00704
G1 X116.879 Y112.114 E2852.69161
G1 X116.879 Y110.379 E2853.12548
G1 X110.379 Y116.879 E2855.42364
G1 X108.643 Y116.879 E2855.85752
G1 X116.879 Y108.643 E2858.76927
G1 X116.879 Y106.908 E2859.20314
G1 X106.908 Y116.879 E2862.72848
G1 X105.172 Y116.879 E2863.16236
G1 X116.879 Y105.172 E2867.30129
G1 X116.879 Y103.437 E2867.73517
G1 X103.437 Y116.879 E2872.48770
G1 X101.701 Y116.879 E2872.92157
G1 X116.879 Y101.701 E2878.28769
G1 X116.879 Y99.966 E2878.72157
G1 X99.966 Y116.879 E2884.70128
G1 X98.230 Y116.879 E2885.13515
G1 X116.879 Y98.230 E2891.72846
G1 X116.879 Y96.495 E2892.16233
G1 X96.495 Y116.879 E2899.36923
G1 X94.759 Y116.879 E2899.80310
G1 X116.879 Y94.759 E2907.62359
G1 X116.879 Y93.024 E2908.05747
G1 X93.024 Y116.879 E2916.49155
G1 X91.288 Y116.879 E2916.92542
G1 X116.879 Y91.288 E2925.97310
G1 X116.879 Y89.553 E2926.40697
G1 X89.553 Y116.879 E2936.06824
G1 X87.817 Y116.879 E2936.50211
G1 X116.879 Y87.817 E2946.77697
G1 X116.879 Y86.082 E2947.21084
G1 X86.082 Y116.879 E2958.09929
G1 X84.346 Y116.879 E2958.53317
G1 X116.879 Y84.346 E2970.03521
G1 X116.368 Y83.121 E2970.36696
G1 X83.121 Y116.368 E2982.12143
G1 X83.121 Y114.632 E2982.55530
G1 X114.632 Y83.121 E2993.69618
G1 X112.897 Y83.121 E2994.13006
G1 X83.121 Y112.897 E3004.65734
G1 X83.121 Y111.161 E3005.09122
G1 X111.161 Y83.121 E3015.00491
G1 X109.426 Y83.121 E3015.43879
G1 X83.121 Y109.426 E3024.73889
G1 X83.121 Y107.690 E3025.17276
G1 X107.690 Y83.121 E3033.85927
G1 X105.955 Y83.121 E3034.29315
G1 X83.121 Y105.955 E3042.36607
G1 X83.121 Y104.219 E3042.79994
G1 X104.219 Y83.121 E3050.25927
G1 X102.484 Y83.121 E3050.69314
G1 X83.121 Y102.484 E3057.53887
G1 X83.121 Y100.748 E3057.97275
G1 X100.748 Y83.121 E3064.20489
G1 X99.013 Y83.121 E3064.63876
G1 X83.121 Y99.013 E3070.25731
G1 X83.121 Y97.277 E3070.69119
G1 X97.277 Y83.121 E3075.69614
G1 X95.542 Y83.121 E3076.13002
G1 X83.121 Y95.542 E3080.52138
G1 X83.121 Y93.806 E3080.95526
G1 X93.806 Y83.121 E3084.73303
G1 X92.071 Y83.121 E3085.16690
G1 X83.121 Y92.071 E3088.33108
G1 X83.121 Y90.335 E3088.76496
G1 X90.335 Y83.121 E3091.31554
G1 X88.600 Y83.121 E3091.74942
G1 X83.121 Y88.600 E3093.68641
G1 X83.121 Y86.864 E3094.12029
G1 X86.864 Y83.121 E3095.44369
G1 X85.129 Y83.121 E3095.87757
G1 X83.121 Y85.129 E3096.58738
G1 X83.121 Y83.393 E3097.02125
G1 X83.393 Y83.121 E3097.11747
G1 Z5.200 F7800.000
G1 X83.121 Y116.607 F7800.000
G1 X83.393 Y116.879 E3097.21369 F4800.000
G1 X85.129 Y116.879 E3097.64756
G1 X83.121 Y114.871 E3098.35737
G1 X83.121 Y113.136 E3098.79125
G1 X86.864 Y116.879 E3100.11465
G1 X88.600 Y116.879 E3100.54852
G1 X83.121 Y111.400 E3102.48552
G1 X83.121 Y109.665 E3102.91939
G1 X90.335 Y116.879 E3105.46998
G1 X92.071 Y116.879 E3105.90385
G1 X83.121 Y107.929 E3109.06803
G1 X83.121 Y106.194 E3109.50191
G1 X93.806 Y116.879 E3113.27968
G1 X95.542 Y116.879 E3113.71355
G1 X83.121 Y104.458 E3118.10492
G1 X83.121 Y102.723 E3118.53879
G1 X97.277 Y116.879 E3123.54375
G1 X99.013 Y116.879 E3123.97762
G1 X83.121 Y100.987 E3129.59617
G1 X83.121 Y99.252 E3130.03005
G1 X100.748 Y116.879 E3136.26218
G1 X102.484 Y116.879 E3136.69606
G1 X83.121 Y97.516 E3143.54179
G1 X83.121 Y95.781 E3143.97567
G1 X104.219 Y116.879 E3151.43499
G1 X105.955 Y116.879 E3151.86887
G1 X83.121 Y94.045 E3159.94178
G1 X83.121 Y92.310 E3160.37566
G1 X107.690 Y116.879 E3169.06217
G1 X109.426 Y116.879 E3169.49604
G1 X83.121 Y90.574 E3178.79615
G1 X83.121 Y88.839 E3179.23002
G1 X111.161 Y116.879 E3189.14372
G1 X112.897 Y116.879 E3189.57759
G1 X83.121 Y87.103 E3200.10488
G1 X83.121 Y85.368 E3200.53875
G1 X114.632 Y116.879 E3211.67963
G1 X116.368 Y116.879 E3212.11351
G1 X83.121 Y83.632 E3223.86798
G1 X84.346 Y83.121 E3224.19972
G1 X116.879 Y115.654 E3235.70176
G1 X116.879 Y113.918 E3236.13564
G1 X86.082 Y83.121 E3247.02409
G1 X87.817 Y83.121 E3247.45797
G1 X116.879 Y112.183 E3257.73282
G1 X116.879 Y110.447 E3258.16670
G1 X89.553 Y83.121 E3267.82796
G1 X91.288 Y83.121 E3268.26184
G1 X116.879 Y108.712 E3277.30951
G1 X116.879 Y106.976 E3277.74339
G1 X93.024 Y83.121 E3286.17747
G1 X94.759 Y83.121 E3286.61135
G1 X116.879 Y105.241 E3294.43183
G1 X116.879 Y103.505 E3294.86571
G1 X96.495 Y83.121 E3302.07261
G1 X98.230 Y83.121 E3302.50648
G1 X116.879 Y101.770 E3309.09979
G1 X116.879 Y100.034 E3309.53366
G1 X99.966 Y83.121 E3315.51337
G1 X101.701 Y83.121 E3315.94725
G1 X116.879 Y98.299 E3321.31337
G1 X116.879 Y96.563 E3321.74724
G1 X103.437 Y83.121 E3326.49977
G1 X105.172 Y83.121 E3326.93365
G1 X116.879 Y94.828 E3331.07258
G1 X116.879 Y93.092 E3331.50646
G1 X106.908 Y83.121 E3335.03180
G1 X108.643 Y83.121 E3335.46568
G1 X116.879 Y91.357 E3338.37743
G1 X116.879 Y89.621 E3338.81130
G1 X110.379 Y83.121 E3341.10946
G1 X112.114 Y83.121 E3341.54334
G1 X116.879 Y87.886 E3343.22790
G1 X116.879 Y86.150 E3343.66178
G1 X113.850 Y83.121 E3344.73275
G1 X115.585 Y83.121 E3345.16663
G1 X116.879 Y84.415 E3345.62401
G1 Z5.600 F7800.000
G1 X115.585 Y116.879 F7800.000
G1 X116.879 Y115.585 E3346.08139 F4800.000
G1 X116.879 Y113.850 E3346.51526
G1 X113.850 Y116.879 E3347.58624
G1 X112.114 Y116.879 E3348.02011
G1 X116.879 Y112.114 E3349.70468
G1 X116.879 Y110.379 E3350.13856
G1 X110.379 Y116.879 E3352.43671
G1 X108.643 Y116.879 E3352.87059
G1 X116.879 Y108.643 E3355.78234
G1 X116.879 Y106.908 E3356.21621
G1 X106.908 Y116.879 E3359.74156
G1 X105.172 Y116.879 E3360.17543
G1 X116.879 Y105.172 E3364.31437
G1 X116.879 Y103.437 E3364.74824
G1 X103.437 Y116.879 E3369.50077
G1 X101.701 Y116.879 E3369.93465
G1 X116.879 Y101.701 E3375.30076
G1 X116.879 Y99.966 E3375.73464
G1 X99.966 Y116.879 E3381.71435
G1 X98.230 Y116.879 E3382.14823
G1 X116.879 Y98.230 E3388.74153
G1 X116.879 Y96.495 E3389.17541
G1 X96.495 Y116.879 E3396.38230
G1 X94.759 Y116.879 E3396.81618
G1 X116.879 Y94.759 E3404.63667
G1 X116.879 Y93.024 E3405.07054
G1 X93.024 Y116.879 E3413.50462
G1 X91.288 Y116.879 E3413.93850
G1 X116.879 Y91.288 E3422.98617
G1 X116.879 Y89.553 E3423.42005
G1 X89.553 Y116.879 E3433.08131
G1 X87.817 Y116.879 E3433.51519
G1 X116.879 Y87.817 E3443.79004
G1 X116.879 Y86.082 E3444.22392
G1 X86.082 Y116.879 E3455.11237
G1 X84.346 Y116.879 E3455.54624
G1 X116.879 Y84.346 E3467.04829
G1 X116.368 Y83.121 E3467.38003
G1 X83.121 Y116.368 E3479.13450
G1 X83.121 Y114.632 E3479.56838
G1 X114.632 Y83.121 E3490.70925
G1 X112.897 Y83.121 E3491.14313
G1 X83.121 Y112.897 E3501.67042
G1 X83.121 Y111.161 E3502.10429
G1 X111.161 Y83.121 E3512.01798
G1 X109.426 Y83.121 E3512.45186
G1 X83.121 Y109.426 E3521.75196
G1 X83.121 Y107.690 E3522.18584
G1 X107.690 Y83.121 E3530.87235
G1 X105.955 Y83.121 E3531.30622
G1 X83.121 Y105.955 E3539.37914
G1 X83.121 Y104.219 E3539.81301
G1 X104.219 Y83.121 E3547.27234
G1 X102.484 Y83.121 E3547.70621
G1 X83.121 Y102.484 E3554.55195
G1 X83.121 Y100.748 E3554.98582
G1 X100.748 Y83.121 E3561.21796
G1 X99.013 Y83.121 E3561.65184
G1 X83.121 Y99.013 E3567.27039
G1 X83.121 Y97.277 E3567.70426
G1 X97.277 Y83.121 E3572.70922
G1 X95.542 Y83.121 E3573.14309
G1 X83.121 Y95.542 E3577.53446
G1 X83.121 Y93.806 E3577.96833
G1 X93.806 Y83.121 E3581.74610
G1 X92.071 Y83.121 E3582.17998
G1 X83.121 Y92.071 E3585.34416
G1 X83.121 Y90.335 E3585.77803
G1 X90.335 Y83.121 E3588.32862
G1 X88.600 Y83.121 E3588.76249
G1 X83.121 Y88.600 E3590.69949
G1 X83.121 Y86.864 E3591.13336
G1 X86.864 Y83.121 E3592.45676
G1 X85.129 Y83.121 E3592.89064
G1 X83.121 Y85.129 E3593.60045
G1 X83.121 Y83.393 E3594.03433
G1 X83.393 Y83.121 E3594.13054
G1 Z6.000 F7800.000
G1 X83.121 Y116.607 F7800.000
G1 X83.393 Y116.879 E3594.22676 F4800.000
G1 X85.129 Y116.879 E3594.66063
G1 X83.121 Y114.871 E3595.37044
G1 X83.121 Y113.136 E3595.80432
G1 X86.864 Y116.879 E3597.12772
G1 X88.600 Y116.879 E3597.56160
G1 X83.121 Y111.400 E3599.49859
G1 X83.121 Y109.665 E3599.93246
G1 X90.335 Y116.879 E3602.48305
G1 X92.071 Y116.879 E3602.91693
G1 X83.121 Y107.929 E3606.08110
G1 X83.121 Y106.194 E3606.51498
G1 X93.806 Y116.879 E3610.29275
G1 X95.542 Y116.879 E3610.72663
G1 X83.121 Y104.458 E3615.11799
G1 X83.121 Y102.723 E3615.55186
G1 X97.277 Y116.879 E3620.55682
G1 X99.013 Y116.879 E3620.99070
G1 X83.121 Y100.987 E3626.60924
G1 X83.121 Y99.252 E3627.04312
G1 X100.748 Y116.879 E3633.27526
G1 X102.484 Y116.879 E3633.70913
G1 X83.121 Y97.516 E3640.55487
G1 X83.121 Y95.781 E3640.98874
G1 X104.219 Y116.879 E3648.44807
G1 X105.955 Y116.879 E3648.88194
G1 X83.121 Y94.045 E3656.95486
G1 X83.121 Y92.310 E3657.38873
G1 X107.690 Y116.879 E3666.07524
G1 X109.426 Y116.879 E3666.50912
G1 X83.121 Y90.574 E3675.80922
G1 X83.121 Y88.839 E3676.24309
G1 X111.161 Y116.879 E3686.15679
G1 X112.897 Y116.879 E3686.59066
G1 X83.121 Y87.103 E3697.11795
G1 X83.121 Y85.368 E3697.55183
G1 X114.632 Y116.879 E3708.69270
G1 X116.368 Y116.879 E3709.12658
G1 X83.121 Y83.632 E3720.88105
G1 X84.346 Y83.121 E3721.21279
G1 X116.879 Y115.654 E3732.71484
G1 X116.879 Y113.918 E3733.14871
G1 X86.082 Y83.121 E3744.03716
G1 X87.817 Y83.121 E3744.47104
G1 X116.879 Y112.183 E3754.74590
G1 X116.879 Y110.447 E3755.17977
G1 X89.553 Y83.121 E3764.84104
G1 X91.288 Y83.121 E3765.27491
G1 X116.879 Y108.712 E3774.32259
G1 X116.879 Y106.976 E3774.75646
G1 X93.024 Y83.121 E3783.19054
G1 X94.759 Y83.121 E3783.62442
G1 X116.879 Y105.241 E3791.44491
G1 X116.879 Y103.505 E3791.87878
G1 X96.495 Y83.121 E3799.08568
G1 X98.230 Y83.121 E3799.51955
G1 X116.879 Y101.770 E3806.11286
G1 X116.879 Y100.034 E3806.54673
G1 X99.966 Y83.121 E3812.52645
G1 X101.701 Y83.121 E3812.96032
G1 X116.879 Y98.299 E3818.32644
G1 X116.879 Y96.563 E3818.76032
G1 X103.437 Y83.121 E3823.51284
G1 X105.172 Y83.121 E3823.94672
G1 X116.879 Y94.828 E3828.08566
G1 X116.879 Y93.092 E3828.51953
G1 X106.908 Y83.121 E3832.04487
G1 X108.643 Y83.121 E3832.47875
G1 X116.879 Y91.357 E3835.39050
G1 X116.879 Y89.621 E3835.82438
G1 X110.379 Y83.121 E3838.12253
G1 X112.114 Y83.121 E3838.55641
G1 X116.879 Y87.886 E3840.24097
G1 X116.879 Y86.150 E3840.67485
G1 X113.850 Y83.121 E3841.74582
G1 X115.585 Y83.121 E3842.17970
G1 X116.879 Y84.415 E3842.63708
G1 Z6.400 F7800.000
G1 X115.585 Y116.879 F7800.000
G1 X116.879 Y115.585 E3843.09446 F4800.000
G1 X116.879 Y113.850 E3843.52834
G1 X113.850 Y116.879 E3844.59931
G1 X112.114 Y116.879 E3845.03319
G1 X116.879 Y112.114 E3846.71775
G1 X116.879 Y110.379 E3847.15163
G1 X110.379 Y116.879 E3849.44979
G1 X108.643 Y116.879 E3849.88366
G1 X116.879 Y108.643 E3852.79541
G1 X116.879 Y106.908 E3853.22929
G1 X106.908 Y116.879 E3856.75463
G1 X105.172 Y116.879 E3857.18851
G1 X116.879 Y105.172 E3861.32744
G1 X116.879 Y103.437 E3861.76132
G1 X103.437 Y116.879 E3866.51384
G1 X101.701 Y116.879 E3866.94772
G1 X116.879 Y101.701 E3872.31384
G1 X116.879 Y99.966 E3872.74771
G1 X99.966 Y116.879 E3878.72743
G1 X98.230 Y116.879 E3879.16130
G1 X116.879 Y98.230 E3885.75460
G1 X116.879 Y96.495 E3886.18848
G1 X96.495 Y116.879 E3893.39538
G1 X94.759 Y116.879 E3893.82925
G1 X116.879 Y94.759 E3901.64974
G1 X116.879 Y93.024 E3902.08361
G1 X93.024 Y116.879 E3910.51770
G1 X91.288 Y116.879 E3910.95157
G1 X116.879 Y91.288 E3919.99924
G1 X116.879 Y89.553 E3920.43312
G1 X89.553 Y116.879 E3930.09438
G1 X87.817 Y116.879 E3930.52826
G1 X116.879 Y87.817 E3940.80312
G1 X116.879 Y86.082 E3941.23699
G1 X86.082 Y116.879 E3952.12544
G1 X84.346 Y116.879 E3952.55932
G1 X116.879 Y84.346 E3964.06136
G1 X116.368 Y83.121 E3964.39310
G1 X83.121 Y116.368 E3976.14757
G1 X83.121 Y114.632 E3976.58145
G1 X114.632 Y83.121 E3987.72233
G1 X112.897 Y83.121 E3988.15620
G1 X83.121 Y112.897 E3998.68349
G1 X83.121 Y111.161 E3999.11736
G1 X111.161 Y83.121 E4009.03106
G1 X109.426 Y83.121 E4009.46493
G1 X83.121 Y109.426 E4018.76503
G1 X83.121 Y107.690 E4019.19891
G1 X107.690 Y83.121 E4027.88542
G1 X105.955 Y83.121 E4028.31929
G1 X83.121 Y105.955 E4036.39221
G1 X83.121 Y104.219 E4036.82609
G1 X104.219 Y83.121 E4044.28541
G1 X102.484 Y83.121 E4044.71929
G1 X83.121 Y102.484 E4051.56502
G1 X83.121 Y100.748 E4051.99890
G1 X100.748 Y83.121 E4058.23104
G1 X99.013 Y83.121 E4058.66491
G1 X83.121 Y99.013 E4064.28346
G1 X83.121 Y97.277 E4064.71733
G1 X97.277 Y83.121 E4069.72229
G1 X95.542 Y83.121 E4070.15617
G1 X83.121 Y95.542 E4074.54753
G1 X83.121 Y93.806 E4074.98140
G1 X93.806 Y83.121 E4078.75918
G1 X92.071 Y83.121 E4079.19305
G1 X83.121 Y92.071 E4082.35723
G1 X83.121 Y90.335 E4082.79110
G1 X90.335 Y83.121 E4085.34169
G1 X88.600 Y83.121 E4085.77557
G1 X83.121 Y88.600 E4087.71256
G1 X83.121 Y86.864 E4088.14644
G1 X86.864 Y83.121 E4089.46984
G1 X85.129 Y83.121 E4089.90371
G1 X83.121 Y85.129 E4090.61352
G1 X83.121 Y83.393 E4091.04740
G1 X83.393 Y83.121 E4091.14362
G1 Z6.800 F7800.000
G1 X83.121 Y116.607 F7800.000
G1 X83.393 Y116.879 E4091.23983 F4800.000
G1 X85.129 Y116.879 E4091.67371
G1 X83.121 Y114.871 E4092.38352
G1 X83.121 Y113.136 E4092.81739
G1 X86.864 Y116.879 E4094.14079
G1 X88.600 Y116.879 E4094.57467
G1 X83.121 Y111.400 E4096.51166
G1 X83.121 Y109.665 E4096.94554
G1 X90.335 Y116.879 E4099.49612
G1 X92.071 Y116.879 E4099.93000
G1 X83.121 Y107.929 E4103.09418
G1 X83.121 Y106.194 E4103.52805
G1 X93.806 Y116.879 E4107.30582
G1 X95.542 Y116.879 E4107.73970
G1 X83.121 Y104.458 E4112.13106
G1 X83.121 Y102.723 E4112.56494
G1 X97.277 Y116.879 E4117.56989
G1 X99.013 Y116.879 E4118.00377
G1 X83.121 Y100.987 E4123.62232
G1 X83.121 Y99.252 E4124.05619
G1 X100.748 Y116.879 E4130.28833
G1 X102.484 Y116.879 E4130.72221
G1 X83.121 Y97.516 E4137.56794
G1 X83.121 Y95.781 E4138.00181
G1 X104.219 Y116.879 E4145.46114
G1 X105.955 Y116.879 E4145.89501
G1 X83.121 Y94.045 E4153.96793
G1 X83.121 Y92.310 E4154.40181
G1 X107.690 Y116.879 E4163.08832
G1 X109.426 Y116.879 E4163.52219
G1 X83.121 Y90.574 E4172.82229
G1 X83.121 Y88.839 E4173.25617
G1 X111.161 Y116.879 E4183.16986
G1 X112.897 Y116.879 E4183.60374
G1 X83.121 Y87.103 E4194.13102
G1 X83.121 Y85.368 E4194.56490
G1 X114.632 Y116.879 E4205.70578
G1 X116.368 Y116.879 E4206.13965
G1 X83.121 Y83.632 E4217.89412
G1 X84.346 Y83.121 E4218.22587
G1 X116.879 Y115.654 E4229.72791
G1 X116.879 Y113.918 E4230.16179
G1 X86.082 Y83.121 E4241.05024
G1 X87.817 Y83.121 E4241.48411
G1 X116.879 Y112.183 E4251.75897
G1 X116.879 Y110.447 E4252.19284
G1 X89.553 Y83.121 E4261.85411
G1 X91.288 Y83.121 E4262.28799
G1 X116.879 Y108.712 E4271.33566
G1 X116.879 Y106.976 E4271.76953
G1 X93.024 Y83.121 E4280.20362
G1 X94.759 Y83.121 E4280.63749
G1 X116.879 Y105.241 E4288.45798
G1 X116.879 Y103.505 E4288.89186
G1 X96.495 Y83.121 E4296.09875
G1 X98.230 Y83.121 E4296.53263
G1 X116.879 Y101.770 E4303.12593
G1 X116.879 Y100.034 E4303.55981
G1 X99.966 Y83.121 E4309.53952
G1 X101.701 Y83.121 E4309.97340
G1 X116.879 Y98.299 E4315.33952
G1 X116.879 Y96.563 E4315.77339
G1 X103.437 Y83.121 E4320.52592
G1 X105.172 Y83.121 E4320.95979
G1 X116.879 Y94.828 E4325.09873
G1 X116.879 Y93.092 E4325.53260
G1 X106.908 Y83.121 E4329.05795
G1 X108.643 Y83.121 E4329.49182
G1 X116.879 Y91.357 E4332.40357
G1 X116.879 Y89.621 E4332.83745
G1 X110.379 Y83.121 E4335.13561
G1 X112.114 Y83.121 E4335.56948
G1 X116.879 Y87.886 E4337.25405
G1 X116.879 Y86.150 E4337.68792
G1 X113.850 Y83.121 E4338.75890
G1 X115.585 Y83.121 E4339.19277
G1 X116.879 Y84.415 E4339.65015
G1 Z7.200 F7800.000
G1 X115.585 Y116.879 F7800.000
G1 X116.879 Y115.585 E4340.10754 F4800.000
G1 X116.879 Y113.850 E4340.54141
G1 X113.850 Y116.879 E4341.61238
G1 X112.114 Y116.879 E4342.04626
G1 X116.879 Y112.114 E4343.73083
G1 X116.879 Y110.379 E4344.16470
G1 X110.379 Y116.879 E4346.46286
G1 X108.643 Y116.879 E4346.89674
G1 X116.879 Y108.643 E4349.80849
G1 X116.879 Y106.908 E4350.24236
G1 X106.908 Y116.879 E4353.76770
G1 X105.172 Y116.879 E4354.20158
G1 X116.879 Y105.172 E4358.34051
G1 X116.879 Y103.437 E4358.77439
G1 X103.437 Y116.879 E4363.52692
G1 X101.701 Y116.879 E4363.96079
G1 X116.879 Y101.701 E4369.32691
G1 X116.879 Y99.966 E4369.76079
G1 X99.966 Y116.879 E4375.74050
G1 X98.230 Y116.879 E4376.17437
G1 X116.879 Y98.230 E4382.76768
G1 X116.879 Y96.495 E4383.20155
G1 X96.495 Y116.879 E4390.40845
G1 X94.759 Y116.879 E4390.84232
G1 X116.879 Y94.759 E4398.66281
G1 X116.879 Y93.024 E4399.09669
G1 X93.024 Y116.879 E4407.53077
G1 X91.288 Y116.879 E4407.96464
G1 X116.879 Y91.288 E4417.01232
G1 X116.879 Y89.553 E4417.44619
G1 X89.553 Y116.879 E4427.10746
G1 X87.817 Y116.879 E4427.54133
G1 X116.879 Y87.817 E4437.81619
G1 X116.879 Y86.082 E4438.25006
G1 X86.082 Y116.879 E4449.13851
G1 X84.346 Y116.879 E4449.57239
G1 X116.879 Y84.346 E4461.07443
G1 X116.368 Y83.121 E4461.40618
G1 X83.121 Y116.368 E4473.16065
G1 X83.121 Y114.632 E4473.59452
G1 X114.632 Y83.121 E4484.73540
G1 X112.897 Y83.121 E4485.16928
G1 X83.121 Y112.897 E4495.69656
G1 X83.121 Y111.161 E4496.13044
G1 X111.161 Y83.121 E4506.04413
G1 X109.426 Y83.121 E4506.47801
G1 X83.121 Y109.426 E4515.77811
G1 X83.121 Y107.690 E4516.21198
G1 X107.690 Y83.121 E4524.89849
G1 X105.955 Y83.121 E4525.33237
G1 X83.121 Y105.955 E4533.40529
G1 X83.121 Y104.219 E4533.83916
G1 X104.219 Y83.121 E4541.29849
G1 X102.484 Y83.121 E4541.73236
G1 X83.121 Y102.484 E4548.57809
G1 X83.121 Y100.748 E4549.01197
G1 X100.748 Y83.121 E4555.24411
G1 X99.013 Y83.121 E4555.67798
G1 X83.121 Y99.013 E4561.29653
G1 X83.121 Y97.277 E4561.73041
G1 X97.277 Y83.121 E4566.73536
G1 X95.542 Y83.121 E4567.16924
G1 X83.121 Y95.542 E4571.56060
G1 X83.121 Y93.806 E4571.99448
G1 X93.806 Y83.121 E4575.77225
G1 X92.071 Y83.121 E4576.20612
G1 X83.121 Y92.071 E4579.37030
G1 X83.121 Y90.335 E4579.80418
G1 X90.335 Y83.121 E4582.35476
G1 X88.600 Y83.121 E4582.78864
G1 X83.121 Y88.600 E4584.72563
G1 X83.121 Y86.864 E4585.15951
G1 X86.864 Y83.121 E4586.48291
G1 X85.129 Y83.121 E4586.91679
G1 X83.121 Y85.129 E4587.62660
G1 X83.121 Y83.393 E4588.06047
G1 X83.393 Y83.121 E4588.15669
G1 Z7.600 F7800.000
G1 X83.121 Y116.607 F7800.000
G1 X83.393 Y116.879 E4588.25291 F4800.000
G1 X85.129 Y116.879 E4588.68678
G1 X83.121 Y114.871 E4589.39659
G1 X83.121 Y113.136 E4589.83047
G1 X86.864 Y116.879 E4591.15387
G1 X88.600 Y116.879 E4591.58774
G1 X83.121 Y111.400 E4593.52474
G1 X83.121 Y109.665 E4593.95861
G1 X90.335 Y116.879 E4596.50920
G1 X92.071 Y116.879 E4596.94307
G1 X83.121 Y107.929 E4600.10725
G1 X83.121 Y106.194 E4600.54113
G1 X93.806 Y116.879 E4604.31890
G1 X95.542 Y116.879 E4604.75277
G1 X83.121 Y104.458 E4609.14414
G1 X83.121 Y102.723 E4609.57801
G1 X97.277 Y116.879 E4614.58297
G1 X99.013 Y116.879 E4615.01684
G1 X83.121 Y100.987 E4620.63539
G1 X83.121 Y99.252 E4621.06926
G1 X100.748 Y116.879 E4627.30140
G1 X102.484 Y116.879 E4627.73528
G1 X83.121 Y97.516 E4634.58101
G1 X83.121 Y95.781 E4635.01489
G1 X104.219 Y116.879 E4642.47421
G1 X105.955 Y116.879 E4642.90809
G1 X83.121 Y94.045 E4650.98100
G1 X83.121 Y92.310 E4651.41488
G1 X107.690 Y116.879 E4660.10139
G1 X109.426 Y116.879 E4660.53526
G1 X83.121 Y90.574 E4669.83537
G1 X83.121 Y88.839 E4670.26924
G1 X111.161 Y116.879 E4680.18293
G1 X112.897 Y116.879 E4680.61681
G1 X83.121 Y87.103 E4691.14410
G1 X83.121 Y85.368 E4691.57797
G1 X114.632 Y116.879 E4702.71885
G1 X116.368 Y116.879 E4703.15273
G1 X83.121 Y83.632 E4714.90720
G1 X84.346 Y83.121 E4715.23894
G1 X116.879 Y115.654 E4726.74098
G1 X116.879 Y113.918 E4727.17486
G1 X86.082 Y83.121 E4738.06331
G1 X87.817 Y83.121 E4738.49718
G1 X116.879 Y112.183 E4748.77204
G1 X116.879 Y110.447 E4749.20592
G1 X89.553 Y83.121 E4758.86718
G1 X91.288 Y83.121 E4759.30106
G1 X116.879 Y108.712 E4768.34873
G1 X116.879 Y106.976 E4768.78261
G1 X93.024 Y83.121 E4777.21669
G1 X94.759 Y83.121 E4777.65056
G1 X116.879 Y105.241 E4785.47105
G1 X116.879 Y103.505 E4785.90493
G1 X96.495 Y83.121 E4793.11183
G1 X98.230 Y83.121 E4793.54570
G1 X116.879 Y101.770 E4800.13901
G1 X116.879 Y100.034 E4800.57288
G1 X99.966 Y83.121 E4806.55259
G1 X101.701 Y83.121 E4806.98647
G1 X116.879 Y98.299 E4812.35259
G1 X116.879 Y96.563 E4812.78646
G1 X103.437 Y83.121 E4817.53899
G1 X105.172 Y83.121 E4817.97287
G1 X116.879 Y94.828 E4822.11180
G1 X116.879 Y93.092 E4822.54568
G1 X106.908 Y83.121 E4826.07102
G1 X108.643 Y83.121 E4826.50490
G1 X116.879 Y91.357 E4829.41665
G1 X116.879 Y89.621 E4829.85052
G1 X110.379 Y83.121 E4832.14868
G1 X112.114 Y83.121 E4832.58256
G1 X116.879 Y87.886 E4834.26712
G1 X116.879 Y86.150 E4834.70100
G1 X113.850 Y83.121 E4835.77197
G1 X115.585 Y83.121 E4836.20585
G1 X116.879 Y84.415 E4836.66323
G1 Z8.000 F7800.000
G1 X115.585 Y116.879 F7800.000
G1 X116.879 Y115.585 E4837.12061 F4800.000
G1 X116.879 Y113.850 E4837.55448
G1 X113.850 Y116.879 E4838.62546
G1 X112.114 Y116.879 E4839.05933
G1 X116.879 Y112.114 E4840.74390
G1 X116.879 Y110.379 E4841.17777
G1 X110.379 Y116.879 E4843.47593
G1 X108.643 Y116.879 E4843.90981
G1 X116.879 Y108.643 E4846.82156
G1 X116.879 Y106.908 E4847.25543
G1 X106.908 Y116.879 E4850.78078
G1 X105.172 Y116.879 E4851.21465
G1 X116.879 Y105.172 E4855.35359
G1 X116.879 Y103.437 E4855.78746
G1 X103.437 Y116.879 E4860.53999
G1 X101.701 Y116.879 E4860.97387
G1 X116.879 Y101.701 E4866.33998
G1 X116.879 Y99.966 E4866.77386
G1 X99.966 Y116.879 E4872.75357
G1 X98.230 Y116.879 E4873.18745
G1 X116.879 Y98.230 E4879.78075
G1 X116.879 Y96.495 E4880.21463
G1 X96.495 Y116.879 E4887.42152
G1 X94.759 Y116.879 E4887.85540
G1 X116.879 Y94.759 E4895.67589
G1 X116.879 Y93.024 E4896.10976
G1 X93.024 Y116.879 E4904.54384
G1 X91.288 Y116.879 E4904.97772
G1 X116.879 Y91.288 E4914.02539
G1 X116.879 Y89.553 E4914.45926
G1 X89.553 Y116.879 E4924.12053
G1 X87.817 Y116.879 E4924.55441
G1 X116.879 Y87.817 E4934.82926
G1 X116.879 Y86.082 E4935.26314
G1 X86.082 Y116.879 E4946.15159
G1 X84.346 Y116.879 E4946.58546
G1 X116.879 Y84.346 E4958.08750
G1 X116.368 Y83.121 E4958.41925
G1 X83.121 Y116.368 E4970.17372
G1 X83.121 Y114.632 E4970.60759
G1 X114.632 Y83.121 E4981.74847
G1 X112.897 Y83.121 E4982.18235
G1 X83.121 Y112.897 E4992.70964
G1 X83.121 Y111.161 E4993.14351
G1 X111.161 Y83.121 E5003.05720
G1 X109.426 Y83.121 E5003.49108
G1 X83.121 Y109.426 E5012.79118
G1 X83.121 Y107.690 E5013.22506
G1 X107.690 Y83.121 E5021.91157
G1 X105.955 Y83.121 E5022.34544
G1 X83.121 Y105.955 E5030.41836
G1 X83.121 Y104.219 E5030.85223
G1 X104.219 Y83.121 E5038.31156
G1 X102.484 Y83.121 E5038.74543
G1 X83.121 Y102.484 E5045.59117
G1 X83.121 Y100.748 E5046.02504
G1 X100.748 Y83.121 E5052.25718
G1 X99.013 Y83.121 E5052.69106
G1 X83.121 Y99.013 E5058.30961
G1 X83.121 Y97.277 E5058.74348
G1 X97.277 Y83.121 E5063.74844
G1 X95.542 Y83.121 E5064.18231
G1 X83.121 Y95.542 E5068.57368
G1 X83.121 Y93.806 E5069.00755
G1 X93.806 Y83.121 E5072.78532
G1 X92.071 Y83.121 E5073.21920
G1 X83.121 Y92.071 E5076.38338
G1 X83.121 Y90.335 E5076.81725
G1 X90.335 Y83.121 E5079.36784
G1 X88.600 Y83.121 E5079.80171
G1 X83.121 Y88.600 E5081.73871
G1 X83.121 Y86.864 E5082.17258
G1 X86.864 Y83.121 E5083.49598
G1 X85.129 Y83.121 E5083.92986
G1 X83.121 Y85.129 E5084.63967
G1 X83.121 Y83.393 E5085.07354
G1 X83.393 Y83.121 E5085.16976
G1 Z8.400 F7800.000
G1 X83.121 Y116.607 F7800.000
G1 X83.393 Y116.879 E5085.26598 F4800.000
G1 X85.129 Y116.879 E5085.69985
G1 X83.121 Y114.871 E5086.40966
G1 X83.121 Y113.136 E5086.84354
G1 X86.864 Y116.879 E5088.16694
G1 X88.600 Y116.879 E5088.60082
G1 X83.121 Y111.400 E5090.53781
G1 X83.121 Y109.665 E5090.97168
G1 X90.335 Y116.879 E5093.52227
G1 X92.071 Y116.879 E5093.95615
G1 X83.121 Y107.929 E5097.12032
G1 X83.121 Y106.194 E5097.55420
G1 X93.806 Y116.879 E5101.33197
G1 X95.542 Y116.879 E5101.76585
G1 X83.121 Y104.458 E5106.15721
G1 X83.121 Y102.723 E5106.59108
G1 X97.277 Y116.879 E5111.59604
G1 X99.013 Y116.879 E5112.02992
G1 X83.121 Y100.987 E5117.64846
G1 X83.121 Y99.252 E5118.08234
G1 X100.748 Y116.879 E5124.31448
G1 X102.484 Y116.879 E5124.74835
G1 X83.121 Y97.516 E5131.59409
G1 X83.121 Y95.781 E5132.02796
G1 X104.219 Y116.879 E5139.48729
G1 X105.955 Y116.879 E5139.92116
G1 X83.121 Y94.045 E5147.99408
G1 X83.121 Y92.310 E5148.42795
G1 X107.690 Y116.879 E5157.11446
G1 X109.426 Y116.879 E5157.54834
G1 X83.121 Y90.574 E5166.84844
G1 X83.121 Y88.839 E5167.28231
G1 X111.161 Y116.879 E5177.19601
G1 X112.897 Y116.879 E5177.62988
G1 X83.121 Y87.103 E5188.15717
G1 X83.121 Y85.368 E5188.59105
G1 X114.632 Y116.879 E5199.73192
G1 X116.368 Y116.879 E5200.16580
G1 X83.121 Y83.632 E5211.92027
G1 X84.346 Y83.121 E5212.25201
G1 X116.879 Y115.654 E5223.75406
G1 X116.879 Y113.918 E5224.18793
G1 X86.082 Y83.121 E5235.07638
G1 X87.817 Y83.121 E5235.51026
G1 X116.879 Y112.183 E5245.78512
G1 X116.879 Y110.447 E5246.21899
G1 X89.553 Y83.121 E5255.88026
G1 X91.288 Y83.121 E5256.31413
G1 X116.879 Y108.712 E5265.36181
G1 X116.879 Y106.976 E5265.79568
G1 X93.024 Y83.121 E5274.22976
G1 X94.759 Y83.121 E5274.66364
G1 X116.879 Y105.241 E5282.48413
G1 X116.879 Y103.505 E5282.91800
G1 X96.495 Y83.121 E5290.12490
G1 X98.230 Y83.121 E5290.55877
G1 X116.879 Y101.770 E5297.15208
G1 X116.879 Y100.034 E5297.58595
G1 X99.966 Y83.121 E5303.56567
G1 X101.701 Y83.121 E5303.99954
G1 X116.879 Y98.299 E5309.36566
G1 X116.879 Y96.563 E5309.79954
G1 X103.437 Y83.121 E5314.55206
G1 X105.172 Y83.121 E5314.98594
G1 X116.879 Y94.828 E5319.12488
G1 X116.879 Y93.092 E5319.55875
G1 X106.908 Y83.121 E5323.08409
G1 X108.643 Y83.121 E5323.51797
G1 X116.879 Y91.357 E5326.42972
G1 X116.879 Y89.621 E5326.86359
G1 X110.379 Y83.121 E5329.16175
G1 X112.114 Y83.121 E5329.59563
G1 X116.879 Y87.886 E5331.28019
G1 X116.879 Y86.150 E5331.71407
G1 X113.850 Y83.121 E5332.78504
G1 X115.585 Y83.121 E5333.21892
G1 X116.879 Y84.415 E5333.67630
G1 Z8.800 F7800.000
G1 X115.585 Y116.879 F7800.000
G1 X116.879 Y115.585 E5334.13368 F4800.000
G1 X116.879 Y113.850 E5334.56756
G1 X113.850 Y116.879 E5335.63853
G1 X112.114 Y116.879 E5336.07241
G1 X116.879 Y112.114 E5337.75697
G1 X116.879 Y110.379 E5338.19085
G1 X110.379 Y116.879 E5340.48901
G1 X108.643 Y116.879 E5340.92288
G1 X116.879 Y108.643 E5343.83463
G1 X116.879 Y106.908 E5344.26851
G1 X106.908 Y116.879 E5347.79385
G1 X105.172 Y116.879 E5348.22773
G1 X116.879 Y105.172 E5352.36666
G1 X116.879 Y103.437 E5352.80054
G1 X103.437 Y116.879 E5357.55306
G1 X101.701 Y116.879 E5357.98694
G1 X116.879 Y101.701 E5363.35306
G1 X116.879 Y99.966 E5363.78693
G1 X99.966 Y116.879 E5369.76665
G1 X98.230 Y116.879 E5370.20052
G1 X116.879 Y98.230 E5376.79382
G1 X116.879 Y96.495 E5377.22770
G1 X96.495 Y116.879 E5384.43460
G1 X94.759 Y116.879 E5384.86847
G1 X116.879 Y94.759 E5392.68896
G1 X116.879 Y93.024 E5393.12283
G1 X93.024 Y116.879 E5401.55692
G1 X91.288 Y116.879 E5401.99079
G1 X116.879 Y91.288 E5411.03846
G1 X116.879 Y89.553 E5411.47234
G1 X89.553 Y116.879 E5421.13360
G1 X87.817 Y116.879 E5421.56748
G1 X116.879 Y87.817 E5431.84234
G1 X116.879 Y86.082 E5432.27621
G1 X86.082 Y116.879 E5443.16466
G1 X84.346 Y116.879 E5443.59854
G1 X116.879 Y84.346 E5455.10058
G1 X116.368 Y83.121 E5455.43232
G1 X83.121 Y116.368 E5467.18679
G1 X83.121 Y114.632 E5467.62067
G1 X114.632 Y83.121 E5478.76155
G1 X112.897 Y83.121 E5479.19542
G1 X83.121 Y112.897 E5489.72271
G1 X83.121 Y111.161 E5490.15658
G1 X111.161 Y83.121 E5500.07028
G1 X109.426 Y83.121 E5500.50415
G1 X83.121 Y109.426 E5509.80425
G1 X83.121 Y107.690 E5510.23813
G1 X107.690 Y83.121 E5518.92464
G1 X105.955 Y83.121 E5519.35851
G1 X83.121 Y105.955 E5527.43143
G1 X83.121 Y104.219 E5527.86531
G1 X104.219 Y83.121 E5535.32463
G1 X102.484 Y83.121 E5535.75851
G1 X83.121 Y102.484 E5542.60424
G1 X83.121 Y100.748 E5543.03812
G1 X100.748 Y83.121 E5549.27026
G1 X99.013 Y83.121 E5549.70413
G1 X83.121 Y99.013 E5555.32268
G1 X83.121 Y97.277 E5555.75655
G1 X97.277 Y83.121 E5560.76151
G1 X95.542 Y83.121 E5561.19538
G1 X83.121 Y95.542 E5565.58675
G1 X83.121 Y93.806 E5566.02062
G1 X93.806 Y83.121 E5569.79840
G1 X92.071 Y83.121 E5570.23227
G1 X83.121 Y92.071 E5573.39645
G1 X83.121 Y90.335 E5573.83032
G1 X90.335 Y83.121 E5576.38091
G1 X88.600 Y83.121 E5576.81479
G1 X83.121 Y88.600 E5578.75178
G1 X83.121 Y86.864 E5579.18566
G1 X86.864 Y83.121 E5580.50906
G1 X85.129 Y83.121 E5580.94293
G1 X83.121 Y85.129 E5581.65274
G1 X83.121 Y83.393 E5582.08662
G1 X83.393 Y83.121 E5582.18284
G1 Z9.200 F7800.000
G1 X83.121 Y116.607 F7800.000
G1 X83.393 Y116.879 E5582.27905 F4800.000
G1 X85.129 Y116.879 E5582.71293
G1 X83.121 Y114.871 E5583.42274
G1 X83.121 Y113.136 E5583.85661
G1 X86.864 Y116.879 E5585.18001
G1 X88.600 Y116.879 E5585.61389
G1 X83.121 Y111.400 E5587.55088
G1 X83.121 Y109.665 E5587.98476
G1 X90.335 Y116.879 E5590.53534
G1 X92.071 Y116.879 E5590.96922
G1 X83.121 Y107.929 E5594.13340
G1 X83.121 Y106.194 E5594.56727
G1 X93.806 Y116.879 E5598.34504
G1 X95.542 Y116.879 E5598.77892
G1 X83.121 Y104.458 E5603.17028
G1 X83.121 Y102.723 E5603.60416
G1 X97.277 Y116.879 E5608.60911
G1 X99.013 Y116.879 E5609.04299
G1 X83.121 Y100.987 E5614.66154
G1 X83.121 Y99.252 E5615.09541
G1 X100.748 Y116.879 E5621.32755
G1 X102.484 Y116.879 E5621.76143
G1 X83.121 Y97.516 E5628.60716
G1 X83.121 Y95.781 E5629.04103
G1 X104.219 Y116.879 E5636.50036
G1 X105.955 Y116.879 E5636.93423
G1 X83.121 Y94.045 E5645.00715
G1 X83.121 Y92.310 E5645.44103
G1 X107.690 Y116.879 E5654.12754
G1 X109.426 Y116.879 E5654.56141
G1 X83.121 Y90.574 E5663.86151
G1 X83.121 Y88.839 E5664.29539
G1 X111.161 Y116.879 E5674.20908
G1 X112.897 Y116.879 E5674.64296
G1 X83.121 Y87.103 E5685.17024
G1 X83.121 Y85.368 E5685.60412
G1 X114.632 Y116.879 E5696.74500
G1 X116.368 Y116.879 E5697.17887
G1 X83.121 Y83.632 E5708.93334
G1 X84.346 Y83.121 E5709.26509
G1 X116.879 Y115.654 E5720.76713
G1 X116.879 Y113.918 E5721.20101
G1 X86.082 Y83.121 E5732.08946
G1 X87.817 Y83.121 E5732.52333
G1 X116.879 Y112.183 E5742.79819
G1 X116.879 Y110.447 E5743.23206
G1 X89.553 Y83.121 E5752.89333
G1 X91.288 Y83.121 E5753.32721
G1 X116.879 Y108.712 E5762.37488
G1 X116.879 Y106.976 E5762.80875
G1 X93.024 Y83.121 E5771.24284
G1 X94.759 Y83.121 E5771.67671
G1 X116.879 Y105.241 E5779.49720
G1 X116.879 Y103.505 E5779.93108
G1 X96.495 Y83.121 E5787.13797
G1 X98.230 Y83.121 E5787.57185
G1 X116.879 Y101.770 E5794.16515
G1 X116.879 Y100.034 E5794.59903
G1 X99.966 Y83.121 E5800.57874
G1 X101.701 Y83.121 E5801.01262
G1 X116.879 Y98.299 E5806.37874
G1 X116.879 Y96.563 E5806.81261
G1 X103.437 Y83.121 E5811.56514
G1 X105.172 Y83.121 E5811.99901
G1 X116.879 Y94.828 E5816.13795
G1 X116.879 Y93.092 E5816.57182
G1 X106.908 Y83.121 E5820.09717
G1 X108.643 Y83.121 E5820.53104
G1 X116.879 Y91.357 E5823.44279
G1 X116.879 Y89.621 E5823.87667
G1 X110.379 Y83.121 E5826.17483
G1 X112.114 Y83.121 E5826.60870
G1 X116.879 Y87.886 E5828.29327
G1 X116.879 Y86.150 E5828.72714
G1 X113.850 Y83.121 E5829.79812
G1 X115.585 Y83.121 E5830.23199
G1 X116.879 Y84.415 E5830.68937
G1 Z9.600 F7800.000
G1 X115.585 Y116.879 F7800.000
G1 X116.879 Y115.585 E5831.14676 F4800.000
G1 X116.879 Y113.850 E5831.58063
G1 X113.850 Y116.879 E5832.65160
G1 X112.114 Y116.879 E5833.08548
G1 X116.879 Y112.114 E5834.77005
G1 X116.879 Y110.379 E5835.20392
G1 X110.379 Y116.879 E5837.50208
G1 X108.643 Y116.879 E5837.93596
G1 X116.879 Y108.643 E5840.84771
G1 X116.879 Y106.908 E5841.28158
G1 X106.908 Y116.879 E5844.80692
G1 X105.172 Y116.879 E5845.24080
G1 X116.879 Y105.172 E5849.37973
G1 X116.879 Y103.437 E5849.81361
G1 X103.437 Y116.879 E5854.56614
G1 X101.701 Y116.879 E5855.00001
G1 X116.879 Y101.701 E5860.36613
G1 X116.879 Y99.966 E5860.80001
G1 X99.966 Y116.879 E5866.77972
G1 X98.230 Y116.879 E5867.21359
G1 X116.879 Y98.230 E5873.80690
G1 X116.879 Y96.495 E5874.24077
G1 X96.495 Y116.879 E5881.44767
G1 X94.759 Y116.879 E5881.88154
G1 X116.879 Y94.759 E5889.70203
G1 X116.879 Y93.024 E5890.13591
G1 X93.024 Y116.879 E5898.56999
G1 X91.288 Y116.879 E5899.00386
G1 X116.879 Y91.288 E5908.05154
G1 X116.879 Y89.553 E5908.48541
G1 X89.553 Y116.879 E5918.14668
G1 X87.817 Y116.879 E5918.58055
G1 X116.879 Y87.817 E5928.85541
G1 X116.879 Y86.082 E5929.28928
G1 X86.082 Y116.879 E5940.17773
G1 X84.346 Y116.879 E5940.61161
G1 X116.879 Y84.346 E5952.11365
G1 X116.368 Y83.121 E5952.44540
G1 X83.121 Y116.368 E5964.19987
G1 X83.121 Y114.632 E5964.63374
G1 X114.632 Y83.121 E5975.77462
G1 X112.897 Y83.121 E5976.20849
G1 X83.121 Y112.897 E5986.73578
G1 X83.121 Y111.161 E5987.16966
G1 X111.161 Y83.121 E5997.08335
G1 X109.426 Y83.121 E5997.51723
G1 X83.121 Y109.426 E6006.81733
G1 X83.121 Y107.690 E6007.25120
G1 X107.690 Y83.121 E6015.93771
G1 X105.955 Y83.121 E6016.37159
G1 X83.121 Y105.955 E6024.44451
G1 X83.121 Y104.219 E6024.87838
G1 X104.219 Y83.121 E6032.33771
G1 X102.484 Y83.121 E6032.77158
G1 X83.121 Y102.484 E6039.61731
G1 X83.121 Y100.748 E6040.05119
G1 X100.748 Y83.121 E6046.28333
G1 X99.013 Y83.121 E6046.71720
G1 X83.121 Y99.013 E6052.33575
G1 X83.121 Y97.277 E6052.76963
G1 X97.277 Y83.121 E6057.77458
G1 X95.542 Y83.121 E6058.20846
G1 X83.121 Y95.542 E6062.59982
G1 X83.121 Y93.806 E6063.03370
G1 X93.806 Y83.121 E6066.81147
G1 X92.071 Y83.121 E6067.24534
G1 X83.121 Y92.071 E6070.40952
G1 X83.121 Y90.335 E6070.84340
G1 X90.335 Y83.121 E6073.39398
G1 X88.600 Y83.121 E6073.82786
G1 X83.121 Y88.600 E6075.76485
G1 X83.121 Y86.864 E6076.19873
G1 X86.864 Y83.121 E6077.52213
G1 X85.129 Y83.121 E6077.95601
G1 X83.121 Y85.129 E6078.66582
G1 X83.121 Y83.393 E6079.09969
G1 X83.393 Y83.121 E6079.19591
G1 Z10.000 F7800.000
G1 X83.121 Y116.607 F7800.000
G1 X83.393 Y116.879 E6079.29213 F4800.000
G1 X85.129 Y116.879 E6079.72600
G1 X83.121 Y114.871 E6080.43581
G1 X83.121 Y113.136 E6080.86969
G1 X86.864 Y116.879 E6082.19309
G1 X88.600 Y116.879 E6082.62696
G1 X83.121 Y111.400 E6084.56396
G1 X83.121 Y109.665 E6084.99783
G1 X90.335 Y116.879 E6087.54842
G1 X92.071 Y116.879 E6087.98229
G1 X83.121 Y107.929 E6091.14647
G1 X83.121 Y106.194 E6091.58035
G1 X93.806 Y116.879 E6095.35812
G1 X95.542 Y116.879 E6095.79199
G1 X83.121 Y104.458 E6100.18336
G1 X83.121 Y102.723 E6100.61723
G1 X97.277 Y116.879 E6105.62219
G1 X99.013 Y116.879 E6106.05606
G1 X83.121 Y100.987 E6111.67461
G1 X83.121 Y99.252 E6112.10848
G1 X100.748 Y116.879 E6118.34062
G1 X102.484 Y116.879 E6118.77450
G1 X83.121 Y97.516 E6125.62023
G1 X83.121 Y95.781 E6126.05411
G1 X104.219 Y116.879 E6133.51343
G1 X105.955 Y116.879 E6133.94731
G1 X83.121 Y94.045 E6142.02022
G1 X83.121 Y92.310 E6142.45410
G1 X107.690 Y116.879 E6151.14061
G1 X109.426 Y116.879 E6151.57448
G1 X83.121 Y90.574 E6160.87459
G1 X83.121 Y88.839 E6161.30846
G1 X111.161 Y116.879 E6171.22215
G1 X112.897 Y116.879 E6171.65603
G1 X83.121 Y87.103 E6182.18332
G1 X83.121 Y85.368 E6182.61719
G1 X114.632 Y116.879 E6193.75807
G1 X116.368 Y116.879 E6194.19195
G1 X83.121 Y83.632 E6205.94642
G1 X84.346 Y83.121 E6206.27816
G1 X116.879 Y115.654 E6217.78020
G1 X116.879 Y113.918 E6218.21408
G1 X86.082 Y83.121 E6229.10253
G1 X87.817 Y83.121 E6229.53640
G1 X116.879 Y112.183 E6239.81126
G1 X116.879 Y110.447 E6240.24514
G1 X89.553 Y83.121 E6249.90640
G1 X91.288 Y83.121 E6250.34028
G1 X116.879 Y108.712 E6259.38795
G1 X116.879 Y106.976 E6259.82183
G1 X93.024 Y83.121 E6268.25591
G1 X94.759 Y83.121 E6268.68978
G1 X116.879 Y105.241 E6276.51027
G1 X116.879 Y103.505 E6276.94415
G1 X96.495 Y83.121 E6284.15105
G1 X98.230 Y83.121 E6284.58492
G1 X116.879 Y101.770 E6291.17823
G1 X116.879 Y100.034 E6291.61210
G1 X99.966 Y83.121 E6297.59181
G1 X101.701 Y83.121 E6298.02569
G1 X116.879 Y98.299 E6303.39181
G1 X116.879 Y96.563 E6303.82568
G1 X103.437 Y83.121 E6308.57821
G1 X105.172 Y83.121 E6309.01209
G1 X116.879 Y94.828 E6313.15102
G1 X116.879 Y93.092 E6313.58490
G1 X106.908 Y83.121 E6317.11024
G1 X108.643 Y83.121 E6317.54412
G1 X116.879 Y91.357 E6320.45587
G1 X116.879 Y89.621 E6320.88974
G1 X110.379 Y83.121 E6323.18790
G1 X112.114 Y83.121 E6323.62177
G1 X116.879 Y87.886 E6325.30634
G1 X116.879 Y86.150 E6325.74022
G1 X113.850 Y83.121 E6326.81119
G1 X115.585 Y83.121 E6327.24507
G1 X116.879 Y84.415 E6327.70245
G1 Z10.400 F7800.000
G1 X115.585 Y116.879 F7800.000
G1 X116.879 Y115.585 E6328.15983 F4800.000
G1 X116.879 Y113.850 E6328.59370
G1 X113.850 Y116.879 E6329.66468
G1 X112.114 Y116.879 E6330.09855
G1 X116.879 Y112.114 E6331.78312
G1 X116.879 Y110.379 E6332.21699
G1 X110.379 Y116.879 E6334.51515
G1 X108.643 Y116.879 E6334.94903
G1 X116.879 Y108.643 E6337.86078
G1 X116.879 Y106.908 E6338.29465
G1 X106.908 Y116.879 E6341.82000
G1 X105.172 Y116.879 E6342.25387
G1 X116.879 Y105.172 E6346.39281
G1 X116.879 Y103.437 E6346.82668
G1 X103.437 Y116.879 E6351.57921
G1 X101.701 Y116.879 E6352.01308
G1 X116.879 Y101.701 E6357.37920
G1 X116.879 Y99.966 E6357.81308
G1 X99.966 Y116.879 E6363.79279
G1 X98.230 Y116.879 E6364.22667
G1 X116.879 Y98.230 E6370.81997
G1 X116.879 Y96.495 E6371.25385
G1 X96.495 Y116.879 E6378.46074
G1 X94.759 Y116.879 E6378.89462
G1 X116.879 Y94.759 E6386.71511
G1 X116.879 Y93.024 E6387.14898
G1 X93.024 Y116.879 E6395.58306
G1 X91.288 Y116.879 E6396.01694
G1 X116.879 Y91.288 E6405.06461
G1 X116.879 Y89.553 E6405.49848
G1 X89.553 Y116.879 E6415.15975
G1 X87.817 Y116.879 E6415.59362
G1 X116.879 Y87.817 E6425.86848
G1 X116.879 Y86.082 E6426.30236
G1 X86.082 Y116.879 E6437.19081
G1 X84.346 Y116.879 E6437.62468
G1 X116.879 Y84.346 E6449.12672
G1 X116.368 Y83.121 E6449.45847
G1 X83.121 Y116.368 E6461.21294
G1 X83.121 Y114.632 E6461.64681
G1 X114.632 Y83.121 E6472.78769
G1 X112.897 Y83.121 E6473.22157
G1 X83.121 Y112.897 E6483.74885
G1 X83.121 Y111.161 E6484.18273
G1 X111.161 Y83.121 E6494.09642
G1 X109.426 Y83.121 E6494.53030
G1 X83.121 Y109.426 E6503.83040
G1 X83.121 Y107.690 E6504.26428
G1 X107.690 Y83.121 E6512.95079
G1 X105.955 Y83.121 E6513.38466
G1 X83.121 Y105.955 E6521.45758
G1 X83.121 Y104.219 E6521.89145
G1 X104.219 Y83.121 E6529.35078
G1 X102.484 Y83.121 E6529.78465
G1 X83.121 Y102.484 E6536.63039
G1 X83.121 Y100.748 E6537.06426
G1 X100.748 Y83.121 E6543.29640
G1 X99.013 Y83.121 E6543.73028
G1 X83.121 Y99.013 E6549.34883
G1 X83.121 Y97.277 E6549.78270
G1 X97.277 Y83.121 E6554.78766
G1 X95.542 Y83.121 E6555.22153
G1 X83.121 Y95.542 E6559.61290
G1 X83.121 Y93.806 E6560.04677
G1 X93.806 Y83.121 E6563.82454
G1 X92.071 Y83.121 E6564.25842
G1 X83.121 Y92.071 E6567.42260
G1 X83.121 Y90.335 E6567.85647
G1 X90.335 Y83.121 E6570.40706
G1 X88.600 Y83.121 E6570.84093
G1 X83.121 Y88.600 E6572.77793
G1 X83.121 Y86.864 E6573.21180
G1 X86.864 Y83.121 E6574.53520
G1 X85.129 Y83.121 E6574.96908
G1 X83.121 Y85.129 E6575.67889
G1 X83.121 Y83.393 E6576.11276
G1 X83.393 Y83.121 E6576.20898
G1 Z10.800 F7800.000
G1 X83.121 Y116.607 F7800.000
G1 X83.393 Y116.879 E6576.30520 F4800.000
G1 X85.129 Y116.879 E6576.73907
G1 X83.121 Y114.871 E6577.44888
G1 X83.121 Y113.136 E6577.88276
G1 X86.864 Y116.879 E6579.20616
G1 X88.600 Y116.879 E6579.64004
G1 X83.121 Y111.400 E6581.57703
G1 X83.121 Y109.665 E6582.01090
G1 X90.335 Y116.879 E6584.56149
G1 X92.071 Y116.879 E6584.99537
G1 X83.121 Y107.929 E6588.15954
G1 X83.121 Y106.194 E6588.59342
G1 X93.806 Y116.879 E6592.37119
G1 X95.542 Y116.879 E6592.80507
G1 X83.121 Y104.458 E6597.19643
G1 X83.121 Y102.723 E6597.63030
G1 X97.277 Y116.879 E6602.63526
G1 X99.013 Y116.879 E6603.06913
G1 X83.121 Y100.987 E6608.68768
G1 X83.121 Y99.252 E6609.12156
G1 X100.748 Y116.879 E6615.35370
G1 X102.484 Y116.879 E6615.78757
G1 X83.121 Y97.516 E6622.63331
G1 X83.121 Y95.781 E6623.06718
G1 X104.219 Y116.879 E6630.52651
G1 X105.955 Y116.879 E6630.96038
G1 X83.121 Y94.045 E6639.03330
G1 X83.121 Y92.310 E6639.46717
G1 X107.690 Y116.879 E6648.15368
G1 X109.426 Y116.879 E6648.58756
G1 X83.121 Y90.574 E6657.88766
G1 X83.121 Y88.839 E6658.32153
G1 X111.161 Y116.879 E6668.23523
G1 X112.897 Y116.879 E6668.66910
G1 X83.121 Y87.103 E6679.19639
G1 X83.121 Y85.368 E6679.63027
G1 X114.632 Y116.879 E6690.77114
G1 X116.368 Y116.879 E6691.20502
G1 X83.121 Y83.632 E6702.95949
G1 X84.346 Y83.121 E6703.29123
G1 X116.879 Y115.654 E6714.79328
G1 X116.879 Y113.918 E6715.22715
G1 X86.082 Y83.121 E6726.11560
G1 X87.817 Y83.121 E6726.54948
G1 X116.879 Y112.183 E6736.82434
G1 X116.879 Y110.447 E6737.25821
G1 X89.553 Y83.121 E6746.91948
G1 X91.288 Y83.121 E6747.35335
G1 X116.879 Y108.712 E6756.40103
G1 X116.879 Y106.976 E6756.83490
G1 X93.024 Y83.121 E6765.26898
G1 X94.759 Y83.121 E6765.70286
G1 X116.879 Y105.241 E6773.52335
G1 X116.879 Y103.505 E6773.95722
G1 X96.495 Y83.121 E6781.16412
G1 X98.230 Y83.121 E6781.59799
G1 X116.879 Y101.770 E6788.19130
G1 X116.879 Y100.034 E6788.62517
G1 X99.966 Y83.121 E6794.60489
G1 X101.701 Y83.121 E6795.03876
G1 X116.879 Y98.299 E6800.40488
G1 X116.879 Y96.563 E6800.83876
G1 X103.437 Y83.121 E6805.59128
G1 X105.172 Y83.121 E6806.02516
G1 X116.879 Y94.828 E6810.16410
G1 X116.879 Y93.092 E6810.59797
G1 X106.908 Y83.121 E6814.12331
G1 X108.643 Y83.121 E6814.55719
G1 X116.879 Y91.357 E6817.46894
G1 X116.879 Y89.621 E6817.90281
G1 X110.379 Y83.121 E6820.20097
G1 X112.114 Y83.121 E6820.63485
G1 X116.879 Y87.886 E6822.31941
G1 X116.879 Y86.150 E6822.75329
G1 X113.850 Y83.121 E6823.82426
G1 X115.585 Y83.121 E6824.25814
G1 X116.879 Y84.415 E6824.71552
G1 Z11.200 F7800.000
G1 X115.585 Y116.879 F7800.000
G1 X116.879 Y115.585 E6825.17290 F4800.000
G1 X116.879 Y113.850 E6825.60678
G1 X113.850 Y116.879 E6826.67775
G1 X112.114 Y116.879 E6827.11163
G1 X116.879 Y112.114 E6828.79619
G1 X116.879 Y110.379 E6829.23007
G1 X110.379 Y116.879 E6831.52823
G1 X108.643 Y116.879 E6831.96210
G1 X116.879 Y108.643 E6834.87385
G1 X116.879 Y106.908 E6835.30773
G1 X106.908 Y116.879 E6838.83307
G1 X105.172 Y116.879 E6839.26695
G1 X116.879 Y105.172 E6843.40588
G1 X116.879 Y103.437 E6843.83976
G1 X103.437 Y116.879 E6848.59228
G1 X101.701 Y116.879 E6849.02616
G1 X116.879 Y101.701 E6854.39228
G1 X116.879 Y99.966 E6854.82615
G1 X99.966 Y116.879 E6860.80586
G1 X98.230 Y116.879 E6861.23974
G1 X116.879 Y98.230 E6867.83304
G1 X116.879 Y96.495 E6868.26692
G1 X96.495 Y116.879 E6875.47381
G1 X94.759 Y116.879 E6875.90769
G1 X116.879 Y94.759 E6883.72818
G1 X116.879 Y93.024 E6884.16205
G1 X93.024 Y116.879 E6892.59613
G1 X91.288 Y116.879 E6893.03001
G1 X116.879 Y91.288 E6902.07768
G1 X116.879 Y89.553 E6902.51156
G1 X89.553 Y116.879 E6912.17282
G1 X87.817 Y116.879 E6912.60670
G1 X116.879 Y87.817 E6922.88156
G1 X116.879 Y86.082 E6923.31543
G1 X86.082 Y116.879 E6934.20388
G1 X84.346 Y116.879 E6934.63776
G1 X116.879 Y84.346 E6946.13980
G1 X116.368 Y83.121 E6946.47154
G1 X83.121 Y116.368 E6958.22601
G1 X83.121 Y114.632 E6958.65989
G1 X114.632 Y83.121 E6969.80077
G1 X112.897 Y83.121 E6970.23464
G1 X83.121 Y112.897 E6980.76193
G1 X83.121 Y111.161 E6981.19580
G1 X111.161 Y83.121 E6991.10950
G1 X109.426 Y83.121 E6991.54337
G1 X83.121 Y109.426 E7000.84347
G1 X83.121 Y107.690 E7001.27735
G1 X107.690 Y83.121 E7009.96386
G1 X105.955 Y83.121 E7010.39773
G1 X83.121 Y105.955 E7018.47065
G1 X83.121 Y104.219 E7018.90453
G1 X104.219 Y83.121 E7026.36385
G1 X102.484 Y83.121 E7026.79773
G1 X83.121 Y102.484 E7033.64346
G1 X83.121 Y100.748 E7034.07734
G1 X100.748 Y83.121 E7040.30948
G1 X99.013 Y83.121 E7040.74335
G1 X83.121 Y99.013 E7046.36190
G1 X83.121 Y97.277 E7046.79577
G1 X97.277 Y83.121 E7051.80073
G1 X95.542 Y83.121 E7052.23460
G1 X83.121 Y95.542 E7056.62597
G1 X83.121 Y93.806 E7057.05984
G1 X93.806 Y83.121 E7060.83762
G1 X92.071 Y83.121 E7061.27149
G1 X83.121 Y92.071 E7064.43567
G1 X83.121 Y90.335 E7064.86954
G1 X90.335 Y83.121 E7067.42013
G1 X88.600 Y83.121 E7067.85401
G1 X83.121 Y88.600 E7069.79100
G1 X83.121 Y86.864 E7070.22488
G1 X86.864 Y83.121 E7071.54828
G1 X85.129 Y83.121 E7071.98215
G1 X83.121 Y85.129 E7072.69196
G1 X83.121 Y83.393 E7073.12584
G1 X83.393 Y83.121 E7073.22206
G1 Z11.600 F7800.000
G1 X83.121 Y116.607 F7800.000
G1 X83.393 Y116.879 E7073.31827 F4800.000
G1 X85.129 Y116.879 E7073.75215
G1 X83.121 Y114.871 E7074.46196
G1 X83.121 Y113.136 E7074.89583
G1 X86.864 Y116.879 E7076.21923
G1 X88.600 Y116.879 E7076.65311
G1 X83.121 Y111.400 E7078.59010
G1 X83.121 Y109.665 E7079.02398
G1 X90.335 Y116.879 E7081.57456
G1 X92.071 Y116.879 E7082.00844
G1 X83.121 Y107.929 E7085.17262
G1 X83.121 Y106.194 E7085.60649
G1 X93.806 Y116.879 E7089.38426
G1 X95.542 Y116.879 E7089.81814
G1 X83.121 Y104.458 E7094.20950
G1 X83.121 Y102.723 E7094.64338
G1 X97.277 Y116.879 E7099.64833
G1 X99.013 Y116.879 E7100.08221
G1 X83.121 Y100.987 E7105.70076
G1 X83.121 Y99.252 E7106.13463
G1 X100.748 Y116.879 E7112.36677
G1 X102.484 Y116.879 E7112.80065
G1 X83.121 Y97.516 E7119.64638
G1 X83.121 Y95.781 E7120.08025
G1 X104.219 Y116.879 E7127.53958
G1 X105.955 Y116.879 E7127.97345
G1 X83.121 Y94.045 E7136.04637
G1 X83.121 Y92.310 E7136.48025
G1 X107.690 Y116.879 E7145.16676
G1 X109.426 Y116.879 E7145.60063
G1 X83.121 Y90.574 E7154.90073
G1 X83.121 Y88.839 E7155.33461
G1 X111.161 Y116.879 E7165.24830
G1 X112.897 Y116.879 E7165.68218
G1 X83.121 Y87.103 E7176.20946
G1 X83.121 Y85.368 E7176.64334
G1 X114.632 Y116.879 E7187.78422
G1 X116.368 Y116.879 E7188.21809
G1 X83.121 Y83.632 E7199.97256
G1 X84.346 Y83.121 E7200.30431
G1 X116.879 Y115.654 E7211.80635
G1 X116.879 Y113.918 E7212.24022
G1 X86.082 Y83.121 E7223.12868
G1 X87.817 Y83.121 E7223.56255
G1 X116.879 Y112.183 E7233.83741
G1 X116.879 Y110.447 E7234.27128
G1 X89.553 Y83.121 E7243.93255
G1 X91.288 Y83.121 E7244.36643
G1 X116.879 Y108.712 E7253.41410
G1 X116.879 Y106.976 E7253.84797
G1 X93.024 Y83.121 E7262.28206
G1 X94.759 Y83.121 E7262.71593
G1 X116.879 Y105.241 E7270.53642
G1 X116.879 Y103.505 E7270.97030
G1 X96.495 Y83.121 E7278.17719
G1 X98.230 Y83.121 E7278.61107
G1 X116.879 Y101.770 E7285.20437
G1 X116.879 Y100.034 E7285.63825
G1 X99.966 Y83.121 E7291.61796
G1 X101.701 Y83.121 E7292.05184
G1 X116.879 Y98.299 E7297.41795
G1 X116.879 Y96.563 E7297.85183
G1 X103.437 Y83.121 E7302.60436
G1 X105.172 Y83.121 E7303.03823
G1 X116.879 Y94.828 E7307.17717
G1 X116.879 Y93.092 E7307.61104
G1 X106.908 Y83.121 E7311.13639
G1 X108.643 Y83.121 E7311.57026
G1 X116.879 Y91.357 E7314.48201
G1 X116.879 Y89.621 E7314.91589
G1 X110.379 Y83.121 E7317.21405
G1 X112.114 Y83.121 E7317.64792
G1 X116.879 Y87.886 E7319.33249
G1 X116.879 Y86.150 E7319.76636
G1 X113.850 Y83.121 E7320.83734
G1 X115.585 Y83.121 E7321.27121
G1 X116.879 Y84.415 E7321.72859
G1 Z12.000 F7800.000
G1 X115.585 Y116.879 F7800.000
G1 X116.879 Y115.585 E7322.18598 F4800.000
G1 X116.879 Y113.850 E7322.61985
G1 X113.850 Y116.879 E7323.69082
G1 X112.114 Y116.879 E7324.12470
G1 X116.879 Y112.114 E7325.80927
G1 X116.879 Y110.379 E7326.24314
G1 X110.379 Y116.879 E7328.54130
G1 X108.643 Y116.879 E7328.97517
G1 X116.879 Y108.643 E7331.88693
G1 X116.879 Y106.908 E7332.32080
G1 X106.908 Y116.879 E7335.84614
G1 X105.172 Y116.879 E7336.28002
G1 X116.879 Y105.172 E7340.41895
G1 X116.879 Y103.437 E7340.85283
G1 X103.437 Y116.879 E7345.60536
G1 X101.701 Y116.879 E7346.03923
G1 X116.879 Y101.701 E7351.40535
G1 X116.879 Y99.966 E7351.83923
G1 X99.966 Y116.879 E7357.81894
G1 X98.230 Y116.879 E7358.25281
G1 X116.879 Y98.230 E7364.84612
G1 X116.879 Y96.495 E7365.27999
G1 X96.495 Y116.879 E7372.48689
G1 X94.759 Y116.879 E7372.92076
G1 X116.879 Y94.759 E7380.74125
G1 X116.879 Y93.024 E7381.17513
G1 X93.024 Y116.879 E7389.60921
G1 X91.288 Y116.879 E7390.04308
G1 X116.879 Y91.288 E7399.09076
G1 X116.879 Y89.553 E7399.52463
G1 X89.553 Y116.879 E7409.18590
G1 X87.817 Y116.879 E7409.61977
G1 X116.879 Y87.817 E7419.89463
G1 X116.879 Y86.082 E7420.32850
G1 X86.082 Y116.879 E7431.21695
G1 X84.346 Y116.879 E7431.65083
G1 X116.879 Y84.346 E7443.15287
G1 X116.368 Y83.121 E7443.48461
G1 X83.121 Y116.368 E7455.23909
G1 X83.121 Y114.632 E7455.67296
G1 X114.632 Y83.121 E7466.81384
G1 X112.897 Y83.121 E7467.24771
G1 X83.121 Y112.897 E7477.77500
G1 X83.121 Y111.161 E7478.20888
G1 X111.161 Y83.121 E7488.12257
G1 X109.426 Y83.121 E7488.55645
G1 X83.121 Y109.426 E7497.85655
G1 X83.121 Y107.690 E7498.29042
G1 X107.690 Y83.121 E7506.97693
G1 X105.955 Y83.121 E7507.41081
G1 X83.121 Y105.955 E7515.48372
G1 X83.121 Y104.219 E7515.91760
G1 X104.219 Y83.121 E7523.37693
G1 X102.484 Y83.121 E7523.81080
G1 X83.121 Y102.484 E7530.65653
G1 X83.121 Y100.748 E7531.09041
G1 X100.748 Y83.121 E7537.32255
G1 X99.013 Y83.121 E7537.75642
G1 X83.121 Y99.013 E7543.37497
G1 X83.121 Y97.277 E7543.80885
G1 X97.277 Y83.121 E7548.81380
G1 X95.542 Y83.121 E7549.24768
G1 X83.121 Y95.542 E7553.63904
G1 X83.121 Y93.806 E7554.07292
G1 X93.806 Y83.121 E7557.85069
G1 X92.071 Y83.121 E7558.28456
G1 X83.121 Y92.071 E7561.44874
G1 X83.121 Y90.335 E7561.88262
G1 X90.335 Y83.121 E7564.43320
G1 X88.600 Y83.121 E7564.86708
G1 X83.121 Y88.600 E7566.80407
G1 X83.121 Y86.864 E7567.23795
G1 X86.864 Y83.121 E7568.56135
G1 X85.129 Y83.121 E7568.99523
G1 X83.121 Y85.129 E7569.70504
G1 X83.121 Y83.393 E7570.13891
G1 X83.393 Y83.121 E7570.23513
G1 Z12.400 F7800.000
G1 X83.121 Y116.607 F7800.000
G1 X83.393 Y116.879 E7570.33135 F4800.000
G1 X85.129 Y116.879 E7570.76522
G1 X83.121 Y114.871 E7571.47503
G1 X83.121 Y113.136 E7571.90890
G1 X86.864 Y116.879 E7573.23231
G1 X88.600 Y116.879 E7573.66618
G1 X83.121 Y111.400 E7575.60318
G1 X83.121 Y109.665 E7576.03705
G1 X90.335 Y116.879 E7578.58764
G1 X92.071 Y116.879 E7579.02151
G1 X83.121 Y107.929 E7582.18569
G1 X83.121 Y106.194 E7582.61957
G1 X93.806 Y116.879 E7586.39734
G1 X95.542 Y116.879 E7586.83121
G1 X83.121 Y104.458 E7591.22258
G1 X83.121 Y102.723 E7591.65645
G1 X97.277 Y116.879 E7596.66141
G1 X99.013 Y116.879 E7597.09528
G1 X83.121 Y100.987 E7602.71383
G1 X83.121 Y99.252 E7603.14770
G1 X100.748 Y116.879 E7609.37984
G1 X102.484 Y116.879 E7609.81372
G1 X83.121 Y97.516 E7616.65945
G1 X83.121 Y95.781 E7617.09333
G1 X104.219 Y116.879 E7624.55265
G1 X105.955 Y116.879 E7624.98653
G1 X83.121 Y94.045 E7633.05944
G1 X83.121 Y92.310 E7633.49332
G1 X107.690 Y116.879 E7642.17983
G1 X109.426 Y116.879 E7642.61370
G1 X83.121 Y90.574 E7651.91381
G1 X83.121 Y88.839 E7652.34768
G1 X111.161 Y116.879 E7662.26137
G1 X112.897 Y116.879 E7662.69525
G1 X83.121 Y87.103 E7673.22254
G1 X83.121 Y85.368 E7673.65641
G1 X114.632 Y116.879 E7684.79729
G1 X116.368 Y116.879 E7685.23117
G1 X83.121 Y83.632 E7696.98564
G1 X84.346 Y83.121 E7697.31738
G1 X116.879 Y115.654 E7708.81942
G1 X116.879 Y113.918 E7709.25330
G1 X86.082 Y83.121 E7720.14175
G1 X87.817 Y83.121 E7720.57562
G1 X116.879 Y112.183 E7730.85048
G1 X116.879 Y110.447 E7731.28436
G1 X89.553 Y83.121 E7740.94562
G1 X91.288 Y83.121 E7741.37950
G1 X116.879 Y108.712 E7750.42717
G1 X116.879 Y106.976 E7750.86105
G1 X93.024 Y83.121 E7759.29513
G1 X94.759 Y83.121 E7759.72900
G1 X116.879 Y105.241 E7767.54949
G1 X116.879 Y103.505 E7767.98337
G1 X96.495 Y83.121 E7775.19027
G1 X98.230 Y83.121 E7775.62414
G1 X116.879 Y101.770 E7782.21745
G1 X116.879 Y100.034 E7782.65132
G1 X99.966 Y83.121 E7788.63103
G1 X101.701 Y83.121 E7789.06491
G1 X116.879 Y98.299 E7794.43103
G1 X116.879 Y96.563 E7794.86490
G1 X103.437 Y83.121 E7799.61743
G1 X105.172 Y83.121 E7800.05131
G1 X116.879 Y94.828 E7804.19024
G1 X116.879 Y93.092 E7804.62412
G1 X106.908 Y83.121 E7808.14946
G1 X108.643 Y83.121 E7808.58334
G1 X116.879 Y91.357 E7811.49509
G1 X116.879 Y89.621 E7811.92896
G1 X110.379 Y83.121 E7814.22712
G1 X112.114 Y83.121 E7814.66099
G1 X116.879 Y87.886 E7816.34556
G1 X116.879 Y86.150 E7816.77944
G1 X113.850 Y83.121 E7817.85041
G1 X115.585 Y83.121 E7818.28428
G1 X116.879 Y84.415 E7818.74167
G1 Z12.800 F7800.000
G1 X115.585 Y116.879 F7800.000
G1 X116.879 Y115.585 E7819.19905 F4800.000
G1 X116.879 Y113.850 E7819.63292
G1 X113.850 Y116.879 E7820.70390
G1 X112.114 Y116.879 E7821.13777
G1 X116.879 Y112.114 E7822.82234
G1 X116.879 Y110.379 E7823.25621
G1 X110.379 Y116.879 E7825.55437
G1 X108.643 Y116.879 E7825.98825
G1 X116.879 Y108.643 E7828.90000
G1 X116.879 Y106.908 E7829.33387
G1 X106.908 Y116.879 E7832.85922
G1 X105.172 Y116.879 E7833.29309
G1 X116.879 Y105.172 E7837.43203
G1 X116.879 Y103.437 E7837.86590
G1 X103.437 Y116.879 E7842.61843
G1 X101.701 Y116.879 E7843.05230
G1 X116.879 Y101.701 E7848.41842
G1 X116.879 Y99.966 E7848.85230
G1 X99.966 Y116.879 E7854.83201
G1 X98.230 Y116.879 E7855.26589
G1 X116.879 Y98.230 E7861.85919
G1 X116.879 Y96.495 E7862.29307
G1 X96.495 Y116.879 E7869.49996
G1 X94.759 Y116.879 E7869.93384
G1 X116.879 Y94.759 E7877.75433
G1 X116.879 Y93.024 E7878.18820
G1 X93.024 Y116.879 E7886.62228
G1 X91.288 Y116.879 E7887.05616
G1 X116.879 Y91.288 E7896.10383
G1 X116.879 Y89.553 E7896.53770
G1 X89.553 Y116.879 E7906.19897
G1 X87.817 Y116.879 E7906.63284
G1 X116.879 Y87.817 E7916.90770
G1 X116.879 Y86.082 E7917.34158
G1 X86.082 Y116.879 E7928.23003
G1 X84.346 Y116.879 E7928.66390
G1 X116.879 Y84.346 E7940.16594
G1 X116.368 Y83.121 E7940.49769
G1 X83.121 Y116.368 E7952.25216
G1 X83.121 Y114.632 E7952.68603
G1 X114.632 Y83.121 E7963.82691
G1 X112.897 Y83.121 E7964.26079
G1 X83.121 Y112.897 E7974.78807
G1 X83.121 Y111.161 E7975.22195
G1 X111.161 Y83.121 E7985.13564
G1 X109.426 Y83.121 E7985.56952
G1 X83.121 Y109.426 E7994.86962
G1 X83.121 Y107.690 E7995.30350
G1 X107.690 Y83.121 E8003.99001
G1 X105.955 Y83.121 E8004.42388
G1 X83.121 Y105.955 E8012.49680
G1 X83.121 Y104.219 E8012.93067
G1 X104.219 Y83.121 E8020.39000
G1 X102.484 Y83.121 E8020.82387
G1 X83.121 Y102.484 E8027.66961
G1 X83.121 Y100.748 E8028.10348
G1 X100.748 Y83.121 E8034.33562
G1 X99.013 Y83.121 E8034.76950
G1 X83.121 Y99.013 E8040.38805
G1 X83.121 Y97.277 E8040.82192
G1 X97.277 Y83.121 E8045.82688
G1 X95.542 Y83.121 E8046.26075
G1 X83.121 Y95.542 E8050.65211
G1 X83.121 Y93.806 E8051.08599
G1 X93.806 Y83.121 E8054.86376
G1 X92.071 Y83.121 E8055.29764
G1 X83.121 Y92.071 E8058.46182
G1 X83.121 Y90.335 E8058.89569
G1 X90.335 Y83.121 E8061.44628
G1 X88.600 Y83.121 E8061.88015
G1 X83.121 Y88.600 E8063.81715
G1 X83.121 Y86.864 E8064.25102
G1 X86.864 Y83.121 E8065.57442
G1 X85.129 Y83.121 E8066.00830
G1 X83.121 Y85.129 E8066.71811
G1 X83.121 Y83.393 E8067.15198
G1 X83.393 Y83.121 E8067.24820
G1 Z13.200 F7800.000
G1 X83.121 Y116.607 F7800.000
G1 X83.393 Y116.879 E8067.34442 F4800.000
G1 X85.129 Y116.879 E8067.77829
G1 X83.121 Y114.871 E8068.48810
G1 X83.121 Y113.136 E8068.92198
G1 X86.864 Y116.879 E8070.24538
G1 X88.600 Y116.879 E8070.67925
G1 X83.121 Y111.400 E8072.61625
G1 X83.121 Y109.665 E8073.05012
G1 X90.335 Y116.879 E8075.60071
G1 X92.071 Y116.879 E8076.03459
G1 X83.121 Y107.929 E8079.19876
G1 X83.121 Y106.194 E8079.63264
G1 X93.806 Y116.879 E8083.41041
G1 X95.542 Y116.879 E8083.84429
G1 X83.121 Y104.458 E8088.23565
G1 X83.121 Y102.723 E8088.66952
G1 X97.277 Y116.879 E8093.67448
G1 X99.013 Y116.879 E8094.10835
G1 X83.121 Y100.987 E8099.72690
G1 X83.121 Y99.252 E8100.16078
G1 X100.748 Y116.879 E8106.39292
G1 X102.484 Y116.879 E8106.82679
G1 X83.121 Y97.516 E8113.67253
G1 X83.121 Y95.781 E8114.10640
G1 X104.219 Y116.879 E8121.56573
G1 X105.955 Y116.879 E8121.99960
G1 X83.121 Y94.045 E8130.07252
G1 X83.121 Y92.310 E8130.50639
G1 X107.690 Y116.879 E8139.19290
G1 X109.426 Y116.879 E8139.62678
G1 X83.121 Y90.574 E8148.92688
G1 X83.121 Y88.839 E8149.36075
G1 X111.161 Y116.879 E8159.27445
G1 X112.897 Y116.879 E8159.70832
G1 X83.121 Y87.103 E8170.23561
G1 X83.121 Y85.368 E8170.66948
G1 X114.632 Y116.879 E8181.81036
G1 X116.368 Y116.879 E8182.24424
G1 X83.121 Y83.632 E8193.99871
G1 X84.346 Y83.121 E8194.33045
G1 X116.879 Y115.654 E8205.83250
G1 X116.879 Y113.918 E8206.26637
G1 X86.082 Y83.121 E8217.15482
G1 X87.817 Y83.121 E8217.58870
G1 X116.879 Y112.183 E8227.86356
G1 X116.879 Y110.447 E8228.29743
G1 X89.553 Y83.121 E8237.95870
G1 X91.288 Y83.121 E8238.39257
G1 X116.879 Y108.712 E8247.44025
G1 X116.879 Y106.976 E8247.87412
G1 X93.024 Y83.121 E8256.30820
G1 X94.759 Y83.121 E8256.74208
G1 X116.879 Y105.241 E8264.56257
G1 X116.879 Y103.505 E8264.99644
G1 X96.495 Y83.121 E8272.20334
G1 X98.230 Y83.121 E8272.63721
G1 X116.879 Y101.770 E8279.23052
G1 X116.879 Y100.034 E8279.66439
G1 X99.966 Y83.121 E8285.64411
G1 X101.701 Y83.121 E8286.07798
G1 X116.879 Y98.299 E8291.44410
G1 X116.879 Y96.563 E8291.87798
G1 X103.437 Y83.121 E8296.63050
G1 X105.172 Y83.121 E8297.06438
G1 X116.879 Y94.828 E8301.20331
G1 X116.879 Y93.092 E8301.63719
G1 X106.908 Y83.121 E8305.16253
G1 X108.643 Y83.121 E8305.59641
G1 X116.879 Y91.357 E8308.50816
G1 X116.879 Y89.621 E8308.94203
G1 X110.379 Y83.121 E8311.24019
G1 X112.114 Y83.121 E8311.67407
G1 X116.879 Y87.886 E8313.35863
G1 X116.879 Y86.150 E8313.79251
G1 X113.850 Y83.121 E8314.86348
G1 X115.585 Y83.121 E8315.29736
G1 X116.879 Y84.415 E8315.75474
G1 Z13.600 F7800.000
G1 X115.585 Y116.879 F7800.000
G1 X116.879 Y115.585 E8316.21212 F4800.000
G1 X116.879 Y113.850 E8316.64600
G1 X113.850 Y116.879 E8317.71697
G1 X112.114 Y116.879 E8318.15085
G1 X116.879 Y112.114 E8319.83541
G1 X116.879 Y110.379 E8320.26929
G1 X110.379 Y116.879 E8322.56745
G1 X108.643 Y116.879 E8323.00132
G1 X116.879 Y108.643 E8325.91307
G1 X116.879 Y106.908 E8326.34695
G1 X106.908 Y116.879 E8329.87229
G1 X105.172 Y116.879 E8330.30617
G1 X116.879 Y105.172 E8334.44510
G1 X116.879 Y103.437 E8334.87898
G1 X103.437 Y116.879 E8339.63150
G1 X101.701 Y116.879 E8340.06538
G1 X116.879 Y101.701 E8345.43150
G1 X116.879 Y99.966 E8345.86537
G1 X99.966 Y116.879 E8351.84508
G1 X98.230 Y116.879 E8352.27896
G1 X116.879 Y98.230 E8358.87226
G1 X116.879 Y96.495 E8359.30614
G1 X96.495 Y116.879 E8366.51303
G1 X94.759 Y116.879 E8366.94691
G1 X116.879 Y94.759 E8374.76740
G1 X116.879 Y93.024 E8375.20127
G1 X93.024 Y116.879 E8383.63535
G1 X91.288 Y116.879 E8384.06923
G1 X116.879 Y91.288 E8393.11690
G1 X116.879 Y89.553 E8393.55078
G1 X89.553 Y116.879 E8403.21204
G1 X87.817 Y116.879 E8403.64592
G1 X116.879 Y87.817 E8413.92077
G1 X116.879 Y86.082 E8414.35465
G1 X86.082 Y116.879 E8425.24310
G1 X84.346 Y116.879 E8425.67698
G1 X116.879 Y84.346 E8437.17902
G1 X116.368 Y83.121 E8437.51076
G1 X83.121 Y116.368 E8449.26523
G1 X83.121 Y114.632 E8449.69911
G1 X114.632 Y83.121 E8460.83999
G1 X112.897 Y83.121 E8461.27386
G1 X83.121 Y112.897 E8471.80115
G1 X83.121 Y111.161 E8472.23502
G1 X111.161 Y83.121 E8482.14872
G1 X109.426 Y83.121 E8482.58259
G1 X83.121 Y109.426 E8491.88269
G1 X83.121 Y107.690 E8492.31657
G1 X107.690 Y83.121 E8501.00308
G1 X105.955 Y83.121 E8501.43695
G1 X83.121 Y105.955 E8509.50987
G1 X83.121 Y104.219 E8509.94375
G1 X104.219 Y83.121 E8517.40307
G1 X102.484 Y83.121 E8517.83695
G1 X83.121 Y102.484 E8524.68268
G1 X83.121 Y100.748 E8525.11656
G1 X100.748 Y83.121 E8531.34870
G1 X99.013 Y83.121 E8531.78257
G1 X83.121 Y99.013 E8537.40112
G1 X83.121 Y97.277 E8537.83499
G1 X97.277 Y83.121 E8542.83995
G1 X95.542 Y83.121 E8543.27382
G1 X83.121 Y95.542 E8547.66519
G1 X83.121 Y93.806 E8548.09906
G1 X93.806 Y83.121 E8551.87683
G1 X92.071 Y83.121 E8552.31071
G1 X83.121 Y92.071 E8555.47489
G1 X83.121 Y90.335 E8555.90876
G1 X90.335 Y83.121 E8558.45935
G1 X88.600 Y83.121 E8558.89323
G1 X83.121 Y88.600 E8560.83022
G1 X83.121 Y86.864 E8561.26410
G1 X86.864 Y83.121 E8562.58750
G1 X85.129 Y83.121 E8563.02137
G1 X83.121 Y85.129 E8563.73118
G1 X83.121 Y83.393 E8564.16506
G1 X83.393 Y83.121 E8564.26127
G1 Z14.000 F7800.000
G1 X83.121 Y116.607 F7800.000
G1 X83.393 Y116.879 E8564.35749 F4800.000
G1 X85.129 Y116.879 E8564.79137
G1 X83.121 Y114.871 E8565.50118
G1 X83.121 Y113.136 E8565.93505
G1 X86.864 Y116.879 E8567.25845
G1 X88.600 Y116.879 E8567.69233
G1 X83.121 Y111.400 E8569.62932
G1 X83.121 Y109.665 E8570.06320
G1 X90.335 Y116.879 E8572.61378
G1 X92.071 Y116.879 E8573.04766
G1 X83.121 Y107.929 E8576.21184
G1 X83.121 Y106.194 E8576.64571
G1 X93.806 Y116.879 E8580.42348
G1 X95.542 Y116.879 E8580.85736
G1 X83.121 Y104.458 E8585.24872
G1 X83.121 Y102.723 E8585.68260
G1 X97.277 Y116.879 E8590.68755
G1 X99.013 Y116.879 E8591.12143
G1 X83.121 Y100.987 E8596.73998
G1 X83.121 Y99.252 E8597.17385
G1 X100.748 Y116.879 E8603.40599
G1 X102.484 Y116.879 E8603.83987
G1 X83.121 Y97.516 E8610.68560
G1 X83.121 Y95.781 E8611.11947
G1 X104.219 Y116.879 E8618.57880
G1 X105.955 Y116.879 E8619.01267
G1 X83.121 Y94.045 E8627.08559
G1 X83.121 Y92.310 E8627.51947
G1 X107.690 Y116.879 E8636.20597
G1 X109.426 Y116.879 E8636.63985
G1 X83.121 Y90.574 E8645.93995
G1 X83.121 Y88.839 E8646.37383
G1 X111.161 Y116.879 E8656.28752
G1 X112.897 Y116.879 E8656.72140
G1 X83.121 Y87.103 E8667.24868
G1 X83.121 Y85.368 E8667.68256
G1 X114.632 Y116.879 E8678.82344
G1 X116.368 Y116.879 E8679.25731
G1 X83.121 Y83.632 E8691.01178
G1 X84.346 Y83.121 E8691.34353
G1 X116.879 Y115.654 E8702.84557
G1 X116.879 Y113.918 E8703.27944
G1 X86.082 Y83.121 E8714.16790
G1 X87.817 Y83.121 E8714.60177
G1 X116.879 Y112.183 E8724.87663
G1 X116.879 Y110.447 E8725.31050
G1 X89.553 Y83.121 E8734.97177
G1 X91.288 Y83.121 E8735.40565
G1 X116.879 Y108.712 E8744.45332
G1 X116.879 Y106.976 E8744.88719
G1 X93.024 Y83.121 E8753.32128
G1 X94.759 Y83.121 E8753.75515
G1 X116.879 Y105.241 E8761.57564
G1 X116.879 Y103.505 E8762.00952
G1 X96.495 Y83.121 E8769.21641
G1 X98.230 Y83.121 E8769.65029
G1 X116.879 Y101.770 E8776.24359
G1 X116.879 Y100.034 E8776.67747
G1 X99.966 Y83.121 E8782.65718
G1 X101.701 Y83.121 E8783.09105
G1 X116.879 Y98.299 E8788.45717
G1 X116.879 Y96.563 E8788.89105
G1 X103.437 Y83.121 E8793.64358
G1 X105.172 Y83.121 E8794.07745
G1 X116.879 Y94.828 E8798.21639
G1 X116.879 Y93.092 E8798.65026
G1 X106.908 Y83.121 E8802.17561
G1 X108.643 Y83.121 E8802.60948
G1 X116.879 Y91.357 E8805.52123
G1 X116.879 Y89.621 E8805.95511
G1 X110.379 Y83.121 E8808.25327
G1 X112.114 Y83.121 E8808.68714
G1 X116.879 Y87.886 E8810.37171
G1 X116.879 Y86.150 E8810.80558
G1 X113.850 Y83.121 E8811.87656
G1 X115.585 Y83.121 E8812.31043
G1 X116.879 Y84.415 E8812.76781
G1 Z14.400 F7800.000
G1 X115.585 Y116.879 F7800.000
G1 X116.879 Y115.585 E8813.22519 F4800.000
G1 X116.879 Y113.850 E8813.65907
G1 X113.850 Y116.879 E8814.73004
G1 X112.114 Y116.879 E8815.16392
G1 X116.879 Y112.114 E8816.84849
G1 X116.879 Y110.379 E8817.28236
G1 X110.379 Y116.879 E8819.58052
G1 X108.643 Y116.879 E8820.01439
G1 X116.879 Y108.643 E8822.92615
G1 X116.879 Y106.908 E8823.36002
G1 X106.908 Y116.879 E8826.88536
G1 X105.172 Y116.879 E8827.31924
G1 X116.879 Y105.172 E8831.45817
G1 X116.879 Y103.437 E8831.89205
G1 X103.437 Y116.879 E8836.64458
G1 X101.701 Y116.879 E8837.07845
G1 X116.879 Y101.701 E8842.44457
G1 X116.879 Y99.966 E8842.87845
G1 X99.966 Y116.879 E8848.85816
G1 X98.230 Y116.879 E8849.29203
G1 X116.879 Y98.230 E8855.88534
G1 X116.879 Y96.495 E8856.31921
G1 X96.495 Y116.879 E8863.52611
G1 X94.759 Y116.879 E8863.95998
G1 X116.879 Y94.759 E8871.78047
G1 X116.879 Y93.024 E8872.21435
G1 X93.024 Y116.879 E8880.64843
G1 X91.288 Y116.879 E8881.08230
G1 X116.879 Y91.288 E8890.12998
G1 X116.879 Y89.553 E8890.56385
G1 X89.553 Y116.879 E8900.22512
G1 X87.817 Y116.879 E8900.65899
G1 X116.879 Y87.817 E8910.93385
G1 X116.879 Y86.082 E8911.36772
G1 X86.082 Y116.879 E8922.25617
G1 X84.346 Y116.879 E8922.69005
G1 X116.879 Y84.346 E8934.19209
G1 X116.368 Y83.121 E8934.52383
G1 X83.121 Y116.368 E8946.27831
G1 X83.121 Y114.632 E8946.71218
G1 X114.632 Y83.121 E8957.85306
G1 X112.897 Y83.121 E8958.28693
G1 X83.121 Y112.897 E8968.81422
G1 X83.121 Y111.161 E8969.24810
G1 X111.161 Y83.121 E8979.16179
G1 X109.426 Y83.121 E8979.59567
G1 X83.121 Y109.426 E8988.89577
G1 X83.121 Y107.690 E8989.32964
G1 X107.690 Y83.121 E8998.01615
G1 X105.955 Y83.121 E8998.45003
G1 X83.121 Y105.955 E9006.52294
G1 X83.121 Y104.219 E9006.95682
G1 X104.219 Y83.121 E9014.41614
G1 X102.484 Y83.121 E9014.85002
G1 X83.121 Y102.484 E9021.69575
G1 X83.121 Y100.748 E9022.12963
G1 X100.748 Y83.121 E9028.36177
G1 X99.013 Y83.121 E9028.79564
G1 X83.121 Y99.013 E9034.41419
G1 X83.121 Y97.277 E9034.84807
G1 X97.277 Y83.121 E9039.85302
G1 X95.542 Y83.121 E9040.28690
G1 X83.121 Y95.542 E9044.67826
G1 X83.121 Y93.806 E9045.11214
G1 X93.806 Y83.121 E9048.88991
G1 X92.071 Y83.121 E9049.32378
G1 X83.121 Y92.071 E9052.48796
G1 X83.121 Y90.335 E9052.92184
G1 X90.335 Y83.121 E9055.47242
G1 X88.600 Y83.121 E9055.90630
G1 X83.121 Y88.600 E9057.84329
G1 X83.121 Y86.864 E9058.27717
G1 X86.864 Y83.121 E9059.60057
G1 X85.129 Y83.121 E9060.03445
G1 X83.121 Y85.129 E9060.74426
G1 X83.121 Y83.393 E9061.17813
G1 X83.393 Y83.121 E9061.27435
G1 Z14.800 F7800.000
G1 X83.121 Y116.607 F7800.000
G1 X83.393 Y116.879 E9061.37056 F4800.000
G1 X85.129 Y116.879 E9061.80444
G1 X83.121 Y114.871 E9062.51425
G1 X83.121 Y113.136 E9062.94812
G1 X86.864 Y116.879 E9064.27153
G1 X88.600 Y116.879 E9064.70540
G1 X83.121 Y111.400 E9066.64240
G1 X83.121 Y109.665 E9067.07627
G1 X90.335 Y116.879 E9069.62686
G1 X92.071 Y116.879 E9070.06073
G1 X83.121 Y107.929 E9073.22491
G1 X83.121 Y106.194 E9073.65879
G1 X93.806 Y116.879 E9077.43656
G1 X95.542 Y116.879 E9077.87043
G1 X83.121 Y104.458 E9082.26180
G1 X83.121 Y102.723 E9082.69567
G1 X97.277 Y116.879 E9087.70063
G1 X99.013 Y116.879 E9088.13450
G1 X83.121 Y100.987 E9093.75305
G1 X83.121 Y99.252 E9094.18692
G1 X100.748 Y116.879 E9100.41906
G1 X102.484 Y116.879 E9100.85294
G1 X83.121 Y97.516 E9107.69867
G1 X83.121 Y95.781 E9108.13255
G1 X104.219 Y116.879 E9115.59187
G1 X105.955 Y116.879 E9116.02575
G1 X83.121 Y94.045 E9124.09866
G1 X83.121 Y92.310 E9124.53254
G1 X107.690 Y116.879 E9133.21905
G1 X109.426 Y116.879 E9133.65292
G1 X83.121 Y90.574 E9142.95302
G1 X83.121 Y88.839 E9143.38690
G1 X111.161 Y116.879 E9153.30059
G1 X112.897 Y116.879 E9153.73447
G1 X83.121 Y87.103 E9164.26176
G1 X83.121 Y85.368 E9164.69563
G1 X114.632 Y116.879 E9175.83651
G1 X116.368 Y116.879 E9176.27039
G1 X83.121 Y83.632 E9188.02486
G1 X84.346 Y83.121 E9188.35660
G1 X116.879 Y115.654 E9199.85864
G1 X116.879 Y113.918 E9200.29252
G1 X86.082 Y83.121 E9211.18097
G1 X87.817 Y83.121 E9211.61484
G1 X116.879 Y112.183 E9221.88970
G1 X116.879 Y110.447 E9222.32358
G1 X89.553 Y83.121 E9231.98484
G1 X91.288 Y83.121 E9232.41872
G1 X116.879 Y108.712 E9241.46639
G1 X116.879 Y106.976 E9241.90027
G1 X93.024 Y83.121 E9250.33435
G1 X94.759 Y83.121 E9250.76822
G1 X116.879 Y105.241 E9258.58871
G1 X116.879 Y103.505 E9259.02259
G1 X96.495 Y83.121 E9266.22949
G1 X98.230 Y83.121 E9266.66336
G1 X116.879 Y101.770 E9273.25666
G1 X116.879 Y100.034 E9273.69054
G1 X99.966 Y83.121 E9279.67025
G1 X101.701 Y83.121 E9280.10413
G1 X116.879 Y98.299 E9285.47025
G1 X116.879 Y96.563 E9285.90412
G1 X103.437 Y83.121 E9290.65665
G1 X105.172 Y83.121 E9291.09053
G1 X116.879 Y94.828 E9295.22946
G1 X116.879 Y93.092 E9295.66334
G1 X106.908 Y83.121 E9299.18868
G1 X108.643 Y83.121 E9299.62256
G1 X116.879 Y91.357 E9302.53431
G1 X116.879 Y89.621 E9302.96818
G1 X110.379 Y83.121 E9305.26634
G1 X112.114 Y83.121 E9305.70021
G1 X116.879 Y87.886 E9307.38478
G1 X116.879 Y86.150 E9307.81866
G1 X113.850 Y83.121 E9308.88963
G1 X115.585 Y83.121 E9309.32350
G1 X116.879 Y84.415 E9309.78089
G1 Z15.200 F7800.000
G1 X115.585 Y116.879 F7800.000
G1 X116.879 Y115.585 E9310.23827 F4800.000
G1 X116.879 Y113.850 E9310.67214
G1 X113.850 Y116.879 E9311.74312
G1 X112.114 Y116.879 E9312.17699
G1 X116.879 Y112.114 E9313.86156
G1 X116.879 Y110.379 E9314.29543
G1 X110.379 Y116.879 E9316.59359
G1 X108.643 Y116.879 E9317.02747
G1 X116.879 Y108.643 E9319.93922
G1 X116.879 Y106.908 E9320.37309
G1 X106.908 Y116.879 E9323.89844
G1 X105.172 Y116.879 E9324.33231
G1 X116.879 Y105.172 E9328.47125
G1 X116.879 Y103.437 E9328.90512
G1 X103.437 Y116.879 E9333.65765
G1 X101.701 Y116.879 E9334.09152
G1 X116.879 Y101.701 E9339.45764
G1 X116.879 Y99.966 E9339.89152
G1 X99.966 Y116.879 E9345.87123
G1 X98.230 Y116.879 E9346.30511
G1 X116.879 Y98.230 E9352.89841
G1 X116.879 Y96.495 E9353.33229
G1 X96.495 Y116.879 E9360.53918
G1 X94.759 Y116.879 E9360.97306
G1 X116.879 Y94.759 E9368.79354
G1 X116.879 Y93.024 E9369.22742
G1 X93.024 Y116.879 E9377.66150
G1 X91.288 Y116.879 E9378.09538
G1 X116.879 Y91.288 E9387.14305
G1 X116.879 Y89.553 E9387.57692
G1 X89.553 Y116.879 E9397.23819
G1 X87.817 Y116.879 E9397.67206
G1 X116.879 Y87.817 E9407.94692
G1 X116.879 Y86.082 E9408.38080
G1 X86.082 Y116.879 E9419.26925
G1 X84.346 Y116.879 E9419.70312
G1 X116.879 Y84.346 E9431.20516
G1 X116.368 Y83.121 E9431.53691
G1 X83.121 Y116.368 E9443.29138
G1 X83.121 Y114.632 E9443.72525
G1 X114.632 Y83.121 E9454.86613
G1 X112.897 Y83.121 E9455.30001
G1 X83.121 Y112.897 E9465.82729
G1 X83.121 Y111.161 E9466.26117
G1 X111.161 Y83.121 E9476.17486
G1 X109.426 Y83.121 E9476.60874
G1 X83.121 Y109.426 E9485.90884
G1 X83.121 Y107.690 E9486.34272
G1 X107.690 Y83.121 E9495.02923
G1 X105.955 Y83.121 E9495.46310
G1 X83.121 Y105.955 E9503.53602
G1 X83.121 Y104.219 E9503.96989
G1 X104.219 Y83.121 E9511.42922
G1 X102.484 Y83.121 E9511.86309
G1 X83.121 Y102.484 E9518.70883
G1 X83.121 Y100.748 E9519.14270
G1 X100.748 Y83.121 E9525.37484
G1 X99.013 Y83.121 E9525.80872
G1 X83.121 Y99.013 E9531.42726
G1 X83.121 Y97.277 E9531.86114
G1 X97.277 Y83.121 E9536.86610
G1 X95.542 Y83.121 E9537.29997
G1 X83.121 Y95.542 E9541.69133
G1 X83.121 Y93.806 E9542.12521
G1 X93.806 Y83.121 E9545.90298
G1 X92.071 Y83.121 E9546.33686
G1 X83.121 Y92.071 E9549.50104
G1 X83.121 Y90.335 E9549.93491
G1 X90.335 Y83.121 E9552.48550
G1 X88.600 Y83.121 E9552.91937
G1 X83.121 Y88.600 E9554.85637
G1 X83.121 Y86.864 E9555.29024
G1 X86.864 Y83.121 E9556.61364
G1 X85.129 Y83.121 E9557.04752
G1 X83.121 Y85.129 E9557.75733
G1 X83.121 Y83.393 E9558.19120
G1 X83.393 Y83.121 E9558.28742
G1 Z15.600 F7800.000
G1 X83.121 Y116.607 F7800.000
G1 X83.393 Y116.879 E9558.38364 F4800.000
G1 X85.129 Y116.879 E9558.81751
G1 X83.121 Y114.871 E9559.52732
G1 X83.121 Y113.136 E9559.96120
G1 X86.864 Y116.879 E9561.28460
G1 X88.600 Y116.879 E9561.71847
G1 X83.121 Y111.400 E9563.65547
G1 X83.121 Y109.665 E9564.08934
G1 X90.335 Y116.879 E9566.63993
G1 X92.071 Y116.879 E9567.07380
G1 X83.121 Y107.929 E9570.23798
G1 X83.121 Y106.194 E9570.67186
G1 X93.806 Y116.879 E9574.44963
G1 X95.542 Y116.879 E9574.88350
G1 X83.121 Y104.458 E9579.27487
G1 X83.121 Y102.723 E9579.70874
G1 X97.277 Y116.879 E9584.71370
G1 X99.013 Y116.879 E9585.14757
G1 X83.121 Y100.987 E9590.76612
G1 X83.121 Y99.252 E9591.20000
G1 X100.748 Y116.879 E9597.43214
G1 X102.484 Y116.879 E9597.86601
G1 X83.121 Y97.516 E9604.71174
G1 X83.121 Y95.781 E9605.14562
G1 X104.219 Y116.879 E9612.60494
G1 X105.955 Y116.879 E9613.03882
G1 X83.121 Y94.045 E9621.11174
G1 X83.121 Y92.310 E9621.54561
G1 X107.690 Y116.879 E9630.23212
G1 X109.426 Y116.879 E9630.66600
G1 X83.121 Y90.574 E9639.96610
G1 X83.121 Y88.839 E9640.39997
G1 X111.161 Y116.879 E9650.31367
G1 X112.897 Y116.879 E9650.74754
G1 X83.121 Y87.103 E9661.27483
G1 X83.121 Y85.368 E9661.70870
G1 X114.632 Y116.879 E9672.84958
G1 X116.368 Y116.879 E9673.28346
G1 X83.121 Y83.632 E9685.03793
G1 X84.346 Y83.121 E9685.36967
G1 X116.879 Y115.654 E9696.87172
G1 X116.879 Y113.918 E9697.30559
G1 X86.082 Y83.121 E9708.19404
G1 X87.817 Y83.121 E9708.62792
G1 X116.879 Y112.183 E9718.90278
G1 X116.879 Y110.447 E9719.33665
G1 X89.553 Y83.121 E9728.99792
G1 X91.288 Y83.121 E9729.43179
G1 X116.879 Y108.712 E9738.47947
G1 X116.879 Y106.976 E9738.91334
G1 X93.024 Y83.121 E9747.34742
G1 X94.759 Y83.121 E9747.78130
G1 X116.879 Y105.241 E9755.60179
G1 X116.879 Y103.505 E9756.03566
G1 X96.495 Y83.121 E9763.24256
G1 X98.230 Y83.121 E9763.67643
G1 X116.879 Y101.770 E9770.26974
G1 X116.879 Y100.034 E9770.70361
G1 X99.966 Y83.121 E9776.68333
G1 X101.701 Y83.121 E9777.11720
G1 X116.879 Y98.299 E9782.48332
G1 X116.879 Y96.563 E9782.91720
G1 X103.437 Y83.121 E9787.66972
G1 X105.172 Y83.121 E9788.10360
G1 X116.879 Y94.828 E9792.24253
G1 X116.879 Y93.092 E9792.67641
G1 X106.908 Y83.121 E9796.20175
G1 X108.643 Y83.121 E9796.63563
G1 X116.879 Y91.357 E9799.54738
G1 X116.879 Y89.621 E9799.98125
G1 X110.379 Y83.121 E9802.27941
G1 X112.114 Y83.121 E9802.71329
G1 X116.879 Y87.886 E9804.39785
G1 X116.879 Y86.150 E9804.83173
G1 X113.850 Y83.121 E9805.90270
G1 X115.585 Y83.121 E9806.33658
G1 X116.879 Y84.415 E9806.79396
G1 Z16.000 F7800.000
G1 X115.585 Y116.879 F7800.000
G1 X116.879 Y115.585 E9807.25134 F4800.000
G1 X116.879 Y113.850 E9807.68522
G1 X113.850 Y116.879 E9808.75619
G1 X112.114 Y116.879 E9809.19007
G1 X116.879 Y112.114 E9810.87463
G1 X116.879 Y110.379 E9811.30851
G1 X110.379 Y116.879 E9813.60667
G1 X108.643 Y116.879 E9814.04054
G1 X116.879 Y108.643 E9816.95229
G1 X116.879 Y106.908 E9817.38617
G1 X106.908 Y116.879 E9820.91151
G1 X105.172 Y116.879 E9821.34538
G1 X116.879 Y105.172 E9825.48432
G1 X116.879 Y103.437 E9825.91820
G1 X103.437 Y116.879 E9830.67072
G1 X101.701 Y116.879 E9831.10460
G1 X116.879 Y101.701 E9836.47072
G1 X116.879 Y99.966 E9836.90459
G1 X99.966 Y116.879 E9842.88430
G1 X98.230 Y116.879 E9843.31818
G1 X116.879 Y98.230 E9849.91148
G1 X116.879 Y96.495 E9850.34536
G1 X96.495 Y116.879 E9857.55225
G1 X94.759 Y116.879 E9857.98613
G1 X116.879 Y94.759 E9865.80662
G1 X116.879 Y93.024 E9866.24049
G1 X93.024 Y116.879 E9874.67457
G1 X91.288 Y116.879 E9875.10845
G1 X116.879 Y91.288 E9884.15612
G1 X116.879 Y89.553 E9884.59000
G1 X89.553 Y116.879 E9894.25126
G1 X87.817 Y116.879 E9894.68514
G1 X116.879 Y87.817 E9904.95999
G1 X116.879 Y86.082 E9905.39387
G1 X86.082 Y116.879 E9916.28232
G1 X84.346 Y116.879 E9916.71620
G1 X116.879 Y84.346 E9928.21824
G1 X116.368 Y83.121 E9928.54998
G1 X83.121 Y116.368 E9940.30445
