; generated by Slic3r 1.2.9 on 2019-08-09 at 13:46:28

; external perimeters extrusion width = 0.50mm
; perimeters extrusion width = 0.58mm
; infill extrusion width = 0.58mm
; solid infill extrusion width = 0.58mm
; top infill extrusion width = 0.58mm

M107
M104 S200 ; set temperature
G28 ; home all axes
G1 Z5 F5000 ; lift nozzle

M109 S200 ; wait for temperature to be reached
G21 ; set units to millimeters
G90 ; use absolute coordinates
M82 ; use absolute distances for extrusion
G92 E0
G1 Z0.400 F7800.000
G1 E-2.00000 F2400.00000
G92 E0
G1 X116.879 Y83.836 F7800.000
G1 E2.00000 F2400.00000
G1 X116.164 Y83.121 E2.36786 F1800.000
G1 X115.007 Y83.121 E2.78868
G1 X116.879 Y84.993 E3.75167
G1 X116.879 Y86.150 E4.17249
G1 X113.850 Y83.121 E5.73062
G1 X112.693 Y83.121 E6.15144
G1 X116.879 Y87.307 E8.30470
G1 X116.879 Y88.464 E8.72552
G1 X111.536 Y83.121 E11.47391
G1 X110.379 Y83.121 E11.89473
G1 X116.879 Y89.621 E15.23825
G1 X116.879 Y90.778 E15.65908
G1 X109.222 Y83.121 E19.59773
G1 X108.065 Y83.121 E20.01855
G1 X116.879 Y91.935 E24.55234
G1 X116.879 Y93.092 E24.97317
G1 X106.908 Y83.121 E30.10209
G1 X105.751 Y83.121 E30.52291
G1 X116.879 Y94.249 E36.24696
G1 X116.879 Y95.406 E36.66779
G1 X104.594 Y83.121 E42.98697
G1 X103.437 Y83.121 E43.40779
G1 X116.879 Y96.563 E50.32211
G1 X116.879 Y97.720 E50.74294
G1 X102.280 Y83.121 E58.25239
G1 X101.123 Y83.121 E58.67321
G1 X116.879 Y98.877 E66.77779
G1 X116.879 Y100.034 E67.19862
G1 X99.966 Y83.121 E75.89833
G1 X98.809 Y83.121 E76.31916
G1 X116.879 Y101.191 E85.61401
G1 X116.879 Y102.348 E86.03483
G1 X97.652 Y83.121 E95.92481
G1 X96.495 Y83.121 E96.34563
G1 X116.879 Y103.505 E106.83075
G1 X116.879 Y104.662 E107.25157
G1 X95.338 Y83.121 E118.33182
G1 X94.181 Y83.121 E118.75264
G1 X116.879 Y105.819 E130.42802
G1 X116.879 Y106.976 E130.84884
G1 X93.024 Y83.121 E143.11936
G1 X91.867 Y83.121 E143.54018
G1 X116.879 Y108.133 E156.40582
G1 X116.879 Y109.290 E156.82665
G1 X90.710 Y83.121 E170.28743
G1 X89.553 Y83.121 E170.70825
G1 X116.879 Y110.447 E184.76416
G1 X116.879 Y111.604 E185.18498
G1 X88.396 Y83.121 E199.83603
G1 X87.239 Y83.121 E200.25685
G1 X116.879 Y112.761 E215.50303
G1 X116.879 Y113.918 E215.92385
G1 X86.082 Y83.121 E231.76516
G1 X84.925 Y83.121 E232.18598
G1 X116.879 Y115.075 E248.62242
G1 X116.879 Y116.232 E249.04325
G1 X83.768 Y83.121 E266.07482
G1 X83.121 Y83.632 E266.37442
G1 X116.368 Y116.879 E283.47567
G1 X115.211 Y116.879 E283.89650
G1 X83.121 Y84.789 E300.40262
G1 X83.121 Y85.946 E300.82344
G1 X114.054 Y116.879 E316.73443
G1 X112.897 Y116.879 E317.15525
G1 X83.121 Y87.103 E332.47111
G1 X83.121 Y88.260 E332.89193
G1 X111.740 Y116.879 E347.61265
G1 X110.583 Y116.879 E348.03348
G1 X83.121 Y89.417 E362.15907
G1 X83.121 Y90.574 E362.57989
G1 X109.426 Y116.879 E376.11035
G1 X108.269 Y116.879 E376.53117
G1 X83.121 Y91.731 E389.46649
G1 X83.121 Y92.888 E389.88732
G1 X107.112 Y116.879 E402.22751
G1 X105.955 Y116.879 E402.64833
G1 X83.121 Y94.045 E414.39339
G1 X83.121 Y95.202 E414.81421
G1 X104.798 Y116.879 E425.96414
G1 X103.641 Y116.879 E426.38496
G1 X83.121 Y96.359 E436.93976
G1 X83.121 Y97.516 E437.36058
G1 X102.484 Y116.879 E447.32024
G1 X101.327 Y116.879 E447.74106
G1 X83.121 Y98.673 E457.10559
G1 X83.121 Y99.830 E457.52641
G1 X100.170 Y116.879 E466.29581
G1 X99.013 Y116.879 E466.71663
G1 X83.121 Y100.987 E474.89089
G1 X83.121 Y102.144 E475.31171
G1 X97.856 Y116.879 E482.89084
G1 X96.699 Y116.879 E483.31167
G1 X83.121 Y103.301 E490.29566
G1 X83.121 Y104.458 E490.71649
G1 X95.542 Y116.879 E497.10535
G1 X94.385 Y116.879 E497.52617
G1 X83.121 Y105.615 E503.31991
G1 X83.121 Y106.772 E503.74073
G1 X93.228 Y116.879 E508.93933
G1 X92.071 Y116.879 E509.36015
G1 X83.121 Y107.929 E513.96361
G1 X83.121 Y109.086 E514.38444
G1 X90.914 Y116.879 E518.39277
G1 X89.757 Y116.879 E518.81359
G1 X83.121 Y110.243 E522.22679
G1 X83.121 Y111.400 E522.64762
G1 X88.600 Y116.879 E525.46568
G1 X87.443 Y116.879 E525.88651
G1 X83.121 Y112.557 E528.10944
G1 X83.121 Y113.714 E528.53026
G1 X86.286 Y116.879 E530.15806
G1 X85.129 Y116.879 E530.57889
G1 X83.121 Y114.871 E531.61156
G1 X83.121 Y116.028 E532.03238
G1 X83.972 Y116.879 E532.46992
G1 Z0.800 F7800.000
G1 X116.164 Y116.879 F7800.000
G1 X116.879 Y116.164 E532.72276 F4800.000
G1 X116.879 Y115.007 E533.01201
G1 X115.007 Y116.879 E533.67392
G1 X113.850 Y116.879 E533.96317
G1 X116.879 Y113.850 E535.03414
G1 X116.879 Y112.693 E535.32339
G1 X112.693 Y116.879 E536.80342
G1 X111.536 Y116.879 E537.09267
G1 X116.879 Y111.536 E538.98176
G1 X116.879 Y110.379 E539.27101
G1 X110.379 Y116.879 E541.56916
G1 X109.222 Y116.879 E541.85841
G1 X116.879 Y109.222 E544.56562
G1 X116.879 Y108.065 E544.85487
G1 X108.065 Y116.879 E547.97115
G1 X106.908 Y116.879 E548.26040
G1 X116.879 Y106.908 E551.78574
G1 X116.879 Y105.751 E552.07499
G1 X105.751 Y116.879 E556.00939
G1 X104.594 Y116.879 E556.29864
G1 X116.879 Y104.594 E560.64210
G1 X116.879 Y103.437 E560.93135
G1 X103.437 Y116.879 E565.68387
G1 X102.280 Y116.879 E565.97312
G1 X116.879 Y102.280 E571.13470
G1 X116.879 Y101.123 E571.42395
G1 X101.123 Y116.879 E576.99460
G1 X99.966 Y116.879 E577.28385
G1 X116.879 Y99.966 E583.26356
G1 X116.879 Y98.809 E583.55281
G1 X98.809 Y116.879 E589.94157
G1 X97.652 Y116.879 E590.23082
G1 X116.879 Y97.652 E597.02865
G1 X116.879 Y96.495 E597.31790
G1 X96.495 Y116.879 E604.52479
G1 X95.338 Y116.879 E604.81405
G1 X116.879 Y95.338 E612.43000
G1 X116.879 Y94.181 E612.71925
G1 X94.181 Y116.879 E620.74426
G1 X93.024 Y116.879 E621.03351
G1 X116.879 Y93.024 E629.46759
G1 X116.879 Y91.867 E629.75684
G1 X91.867 Y116.879 E638.59997
G1 X90.710 Y116.879 E638.88923
G1 X116.879 Y90.710 E648.14142
G1 X116.879 Y89.553 E648.43067
G1 X89.553 Y116.879 E658.09193
G1 X88.396 Y116.879 E658.38118
G1 X116.879 Y88.396 E668.45151
G1 X116.879 Y87.239 E668.74076
G1 X87.239 Y116.879 E679.22014
G1 X86.082 Y116.879 E679.50939
G1 X116.879 Y86.082 E690.39783
G1 X116.879 Y84.925 E690.68708
G1 X84.925 Y116.879 E701.98459
G1 X83.768 Y116.879 E702.27384
G1 X116.879 Y83.768 E713.98041
G1 X116.368 Y83.121 E714.18634
G1 X83.121 Y116.368 E725.94080
G1 X83.121 Y115.211 E726.23005
G1 X115.211 Y83.121 E737.57545
G1 X114.054 Y83.121 E737.86470
G1 X83.121 Y114.054 E748.80104
G1 X83.121 Y112.897 E749.09029
G1 X112.897 Y83.121 E759.61757
G1 X111.740 Y83.121 E759.90682
G1 X83.121 Y111.740 E770.02503
G1 X83.121 Y110.583 E770.31428
G1 X110.583 Y83.121 E780.02344
G1 X109.426 Y83.121 E780.31269
G1 X83.121 Y109.426 E789.61278
G1 X83.121 Y108.269 E789.90203
G1 X108.269 Y83.121 E798.79306
G1 X107.112 Y83.121 E799.08231
G1 X83.121 Y107.112 E807.56428
G1 X83.121 Y105.955 E807.85353
G1 X105.955 Y83.121 E815.92644
G1 X104.798 Y83.121 E816.21569
G1 X83.121 Y104.798 E823.87954
G1 X83.121 Y103.641 E824.16879
G1 X103.641 Y83.121 E831.42357
G1 X102.484 Y83.121 E831.71282
G1 X83.121 Y102.484 E838.55855
G1 X83.121 Y101.327 E838.84780
G1 X101.327 Y83.121 E845.28446
G1 X100.170 Y83.121 E845.57371
G1 X83.121 Y100.170 E851.60131
G1 X83.121 Y99.013 E851.89056
G1 X99.013 Y83.121 E857.50910
G1 X97.856 Y83.121 E857.79835
G1 X83.121 Y97.856 E863.00783
G1 X83.121 Y96.699 E863.29708
G1 X96.699 Y83.121 E868.09749
G1 X95.542 Y83.121 E868.38674
G1 X83.121 Y95.542 E872.77810
G1 X83.121 Y94.385 E873.06735
G1 X94.385 Y83.121 E877.04964
G1 X93.228 Y83.121 E877.33889
G1 X83.121 Y93.228 E880.91212
G1 X83.121 Y92.071 E881.20137
G1 X92.071 Y83.121 E884.36554
G1 X90.914 Y83.121 E884.65479
G1 X83.121 Y90.914 E887.40990
G1 X83.121 Y89.757 E887.69915
G1 X89.757 Y83.121 E890.04520
G1 X88.600 Y83.121 E890.33445
G1 X83.121 Y88.600 E892.27143
G1 X83.121 Y87.443 E892.56068
G1 X87.443 Y83.121 E894.08861
G1 X86.286 Y83.121 E894.37786
G1 X83.121 Y86.286 E895.49672
G1 X83.121 Y85.129 E895.78597
G1 X85.129 Y83.121 E896.49577
G1 X83.972 Y83.121 E896.78502
G1 X83.121 Y83.972 E897.08576
G1 Z1.200 F7800.000
G1 X83.972 Y116.879 F7800.000
G1 X83.121 Y116.028 E897.38650 F4800.000
G1 X83.121 Y114.871 E897.67575
G1 X85.129 Y116.879 E898.38555
G1 X86.286 Y116.879 E898.67480
G1 X83.121 Y113.714 E899.79366
G1 X83.121 Y112.557 E900.08291
G1 X87.443 Y116.879 E901.61083
G1 X88.600 Y116.879 E901.90008
G1 X83.121 Y111.400 E903.83707
G1 X83.121 Y110.243 E904.12632
G1 X89.757 Y116.879 E906.47236
G1 X90.914 Y116.879 E906.76161
G1 X83.121 Y109.086 E909.51672
G1 X83.121 Y107.929 E909.80597
G1 X92.071 Y116.879 E912.97014
G1 X93.228 Y116.879 E913.25939
G1 X83.121 Y106.772 E916.83262
G1 X83.121 Y105.615 E917.12187
G1 X94.385 Y116.879 E921.10416
G1 X95.542 Y116.879 E921.39341
G1 X83.121 Y104.458 E925.78477
G1 X83.121 Y103.301 E926.07402
G1 X96.699 Y116.879 E930.87443
G1 X97.856 Y116.879 E931.16368
G1 X83.121 Y102.144 E936.37316
G1 X83.121 Y100.987 E936.66241
G1 X99.013 Y116.879 E942.28095
G1 X100.170 Y116.879 E942.57020
G1 X83.121 Y99.830 E948.59780
G1 X83.121 Y98.673 E948.88705
G1 X101.327 Y116.879 E955.32371
G1 X102.484 Y116.879 E955.61296
G1 X83.121 Y97.516 E962.45869
G1 X83.121 Y96.359 E962.74794
G1 X103.641 Y116.879 E970.00272
G1 X104.798 Y116.879 E970.29197
G1 X83.121 Y95.202 E977.95582
G1 X83.121 Y94.045 E978.24507
G1 X105.955 Y116.879 E986.31798
G1 X107.112 Y116.879 E986.60723
G1 X83.121 Y92.888 E995.08919
G1 X83.121 Y91.731 E995.37844
G1 X108.269 Y116.879 E1004.26948
G1 X109.426 Y116.879 E1004.55873
G1 X83.121 Y90.574 E1013.85882
G1 X83.121 Y89.417 E1014.14807
G1 X110.583 Y116.879 E1023.85722
G1 X111.740 Y116.879 E1024.14647
G1 X83.121 Y88.260 E1034.26469
G1 X83.121 Y87.103 E1034.55394
G1 X112.897 Y116.879 E1045.08122
G1 X114.054 Y116.879 E1045.37047
G1 X83.121 Y85.946 E1056.30680
G1 X83.121 Y84.789 E1056.59605
G1 X115.211 Y116.879 E1067.94145
G1 X116.368 Y116.879 E1068.23070
G1 X83.121 Y83.632 E1079.98517
G1 X83.768 Y83.121 E1080.19109
G1 X116.879 Y116.232 E1091.89766
G1 X116.879 Y115.075 E1092.18691
G1 X84.925 Y83.121 E1103.48442
G1 X86.082 Y83.121 E1103.77367
G1 X116.879 Y113.918 E1114.66211
G1 X116.879 Y112.761 E1114.95136
G1 X87.239 Y83.121 E1125.43075
G1 X88.396 Y83.121 E1125.72000
G1 X116.879 Y111.604 E1135.79032
G1 X116.879 Y110.447 E1136.07957
G1 X89.553 Y83.121 E1145.74083
G1 X90.710 Y83.121 E1146.03008
G1 X116.879 Y109.290 E1155.28228
G1 X116.879 Y108.133 E1155.57153
G1 X91.867 Y83.121 E1164.41467
G1 X93.024 Y83.121 E1164.70392
G1 X116.879 Y106.976 E1173.13799
G1 X116.879 Y105.819 E1173.42724
G1 X94.181 Y83.121 E1181.45226
G1 X95.338 Y83.121 E1181.74151
G1 X116.879 Y104.662 E1189.35746
G1 X116.879 Y103.505 E1189.64671
G1 X96.495 Y83.121 E1196.85360
G1 X97.652 Y83.121 E1197.14285
G1 X116.879 Y102.348 E1203.94068
G1 X116.879 Y101.191 E1204.22993
G1 X98.809 Y83.121 E1210.61870
G1 X99.966 Y83.121 E1210.90795
G1 X116.879 Y100.034 E1216.88766
G1 X116.879 Y98.877 E1217.17691
G1 X101.123 Y83.121 E1222.74755
G1 X102.280 Y83.121 E1223.03681
G1 X116.879 Y97.720 E1228.19839
G1 X116.879 Y96.563 E1228.48764
G1 X103.437 Y83.121 E1233.24016
G1 X104.594 Y83.121 E1233.52941
G1 X116.879 Y95.406 E1237.87287
G1 X116.879 Y94.249 E1238.16212
G1 X105.751 Y83.121 E1242.09652
G1 X106.908 Y83.121 E1242.38577
G1 X116.879 Y93.092 E1245.91111
G1 X116.879 Y91.935 E1246.20036
G1 X108.065 Y83.121 E1249.31664
G1 X109.222 Y83.121 E1249.60589
G1 X116.879 Y90.778 E1252.31310
G1 X116.879 Y89.621 E1252.60235
G1 X110.379 Y83.121 E1254.90051
G1 X111.536 Y83.121 E1255.18976
G1 X116.879 Y88.464 E1257.07885
G1 X116.879 Y87.307 E1257.36810
G1 X112.693 Y83.121 E1258.84813
G1 X113.850 Y83.121 E1259.13738
G1 X116.879 Y86.150 E1260.20835
G1 X116.879 Y84.993 E1260.49760
G1 X115.007 Y83.121 E1261.15951
G1 X116.164 Y83.121 E1261.44876
G1 X116.879 Y83.836 E1261.70160
M106 S214.2
G1 Z1.600 F7800.000
G1 X116.164 Y116.879 F7800.000
G1 X116.879 Y116.164 E1261.95445 F4800.000
G1 X116.879 Y115.007 E1262.24370
G1 X115.007 Y116.879 E1262.90560
G1 X113.850 Y116.879 E1263.19485
G1 X116.879 Y113.850 E1264.26582
G1 X116.879 Y112.693 E1264.55507
G1 X112.693 Y116.879 E1266.03510
G1 X111.536 Y116.879 E1266.32435
G1 X116.879 Y111.536 E1268.21344
G1 X116.879 Y110.379 E1268.50269
G1 X110.379 Y116.879 E1270.80085
G1 X109.222 Y116.879 E1271.09010
G1 X116.879 Y109.222 E1273.79731
G1 X116.879 Y108.065 E1274.08656
G1 X108.065 Y116.879 E1277.20284
G1 X106.908 Y116.879 E1277.49209
G1 X116.879 Y106.908 E1281.01743
G1 X116.879 Y105.751 E1281.30668
G1 X105.751 Y116.879 E1285.24107
G1 X104.594 Y116.879 E1285.53032
G1 X116.879 Y104.594 E1289.87379
G1 X116.879 Y103.437 E1290.16304
G1 X103.437 Y116.879 E1294.91556
G1 X102.280 Y116.879 E1295.20481
G1 X116.879 Y102.280 E1300.36639
G1 X116.879 Y101.123 E1300.65564
G1 X101.123 Y116.879 E1306.22629
G1 X99.966 Y116.879 E1306.51554
G1 X116.879 Y99.966 E1312.49524
G1 X116.879 Y98.809 E1312.78449
G1 X98.809 Y116.879 E1319.17326
G1 X97.652 Y116.879 E1319.46251
G1 X116.879 Y97.652 E1326.26034
G1 X116.879 Y96.495 E1326.54959
G1 X96.495 Y116.879 E1333.75648
G1 X95.338 Y116.879 E1334.04573
G1 X116.879 Y95.338 E1341.66168
G1 X116.879 Y94.181 E1341.95093
G1 X94.181 Y116.879 E1349.97595
G1 X93.024 Y116.879 E1350.26520
G1 X116.879 Y93.024 E1358.69927
G1 X116.879 Y91.867 E1358.98852
G1 X91.867 Y116.879 E1367.83166
G1 X90.710 Y116.879 E1368.12091
G1 X116.879 Y90.710 E1377.37311
G1 X116.879 Y89.553 E1377.66236
G1 X89.553 Y116.879 E1387.32362
G1 X88.396 Y116.879 E1387.61287
G1 X116.879 Y88.396 E1397.68319
G1 X116.879 Y87.239 E1397.97244
G1 X87.239 Y116.879 E1408.45183
G1 X86.082 Y116.879 E1408.74108
G1 X116.879 Y86.082 E1419.62952
G1 X116.879 Y84.925 E1419.91877
G1 X84.925 Y116.879 E1431.21628
G1 X83.768 Y116.879 E1431.50553
G1 X116.879 Y83.768 E1443.21210
G1 X116.368 Y83.121 E1443.41802
G1 X83.121 Y116.368 E1455.17249
G1 X83.121 Y115.211 E1455.46174
G1 X115.211 Y83.121 E1466.80714
G1 X114.054 Y83.121 E1467.09639
G1 X83.121 Y114.054 E1478.03273
G1 X83.121 Y112.897 E1478.32198
G1 X112.897 Y83.121 E1488.84925
G1 X111.740 Y83.121 E1489.13850
G1 X83.121 Y111.740 E1499.25672
G1 X83.121 Y110.583 E1499.54597
G1 X110.583 Y83.121 E1509.25512
G1 X109.426 Y83.121 E1509.54437
G1 X83.121 Y109.426 E1518.84447
G1 X83.121 Y108.269 E1519.13372
G1 X108.269 Y83.121 E1528.02475
G1 X107.112 Y83.121 E1528.31400
G1 X83.121 Y107.112 E1536.79597
G1 X83.121 Y105.955 E1537.08522
G1 X105.955 Y83.121 E1545.15813
G1 X104.798 Y83.121 E1545.44738
G1 X83.121 Y104.798 E1553.11122
G1 X83.121 Y103.641 E1553.40047
G1 X103.641 Y83.121 E1560.65526
G1 X102.484 Y83.121 E1560.94451
G1 X83.121 Y102.484 E1567.79023
G1 X83.121 Y101.327 E1568.07948
G1 X101.327 Y83.121 E1574.51614
G1 X100.170 Y83.121 E1574.80539
G1 X83.121 Y100.170 E1580.83300
G1 X83.121 Y99.013 E1581.12225
G1 X99.013 Y83.121 E1586.74078
G1 X97.856 Y83.121 E1587.03003
G1 X83.121 Y97.856 E1592.23951
G1 X83.121 Y96.699 E1592.52876
G1 X96.699 Y83.121 E1597.32918
G1 X95.542 Y83.121 E1597.61843
G1 X83.121 Y95.542 E1602.00978
G1 X83.121 Y94.385 E1602.29903
G1 X94.385 Y83.121 E1606.28133
G1 X93.228 Y83.121 E1606.57058
G1 X83.121 Y93.228 E1610.14381
G1 X83.121 Y92.071 E1610.43306
G1 X92.071 Y83.121 E1613.59723
G1 X90.914 Y83.121 E1613.88648
G1 X83.121 Y90.914 E1616.64159
G1 X83.121 Y89.757 E1616.93084
G1 X89.757 Y83.121 E1619.27688
G1 X88.600 Y83.121 E1619.56613
G1 X83.121 Y88.600 E1621.50312
G1 X83.121 Y87.443 E1621.79237
G1 X87.443 Y83.121 E1623.32029
G1 X86.286 Y83.121 E1623.60954
G1 X83.121 Y86.286 E1624.72840
G1 X83.121 Y85.129 E1625.01765
G1 X85.129 Y83.121 E1625.72746
G1 X83.972 Y83.121 E1626.01671
G1 X83.121 Y83.972 E1626.31744
G1 Z2.000 F7800.000
G1 X83.972 Y116.879 F7800.000
G1 X83.121 Y116.028 E1626.61818 F4800.000
G1 X83.121 Y114.871 E1626.90743
G1 X85.129 Y116.879 E1627.61723
G1 X86.286 Y116.879 E1627.90648
G1 X83.121 Y113.714 E1629.02535
G1 X83.121 Y112.557 E1629.31460
G1 X87.443 Y116.879 E1630.84252
G1 X88.600 Y116.879 E1631.13177
G1 X83.121 Y111.400 E1633.06875
G1 X83.121 Y110.243 E1633.35800
G1 X89.757 Y116.879 E1635.70405
G1 X90.914 Y116.879 E1635.99330
G1 X83.121 Y109.086 E1638.74841
G1 X83.121 Y107.929 E1639.03766
G1 X92.071 Y116.879 E1642.20183
G1 X93.228 Y116.879 E1642.49108
G1 X83.121 Y106.772 E1646.06431
G1 X83.121 Y105.615 E1646.35356
G1 X94.385 Y116.879 E1650.33585
G1 X95.542 Y116.879 E1650.62510
G1 X83.121 Y104.458 E1655.01646
G1 X83.121 Y103.301 E1655.30571
G1 X96.699 Y116.879 E1660.10612
G1 X97.856 Y116.879 E1660.39537
G1 X83.121 Y102.144 E1665.60485
G1 X83.121 Y100.987 E1665.89410
G1 X99.013 Y116.879 E1671.51264
G1 X100.170 Y116.879 E1671.80189
G1 X83.121 Y99.830 E1677.82949
G1 X83.121 Y98.673 E1678.11874
G1 X101.327 Y116.879 E1684.55540
G1 X102.484 Y116.879 E1684.84465
G1 X83.121 Y97.516 E1691.69037
G1 X83.121 Y96.359 E1691.97962
G1 X103.641 Y116.879 E1699.23441
G1 X104.798 Y116.879 E1699.52366
G1 X83.121 Y95.202 E1707.18750
G1 X83.121 Y94.045 E1707.47675
G1 X105.955 Y116.879 E1715.54966
G1 X107.112 Y116.879 E1715.83891
G1 X83.121 Y92.888 E1724.32088
G1 X83.121 Y91.731 E1724.61013
G1 X108.269 Y116.879 E1733.50116
G1 X109.426 Y116.879 E1733.79041
G1 X83.121 Y90.574 E1743.09050
G1 X83.121 Y89.417 E1743.37975
G1 X110.583 Y116.879 E1753.08891
G1 X111.740 Y116.879 E1753.37816
G1 X83.121 Y88.260 E1763.49637
G1 X83.121 Y87.103 E1763.78562
G1 X112.897 Y116.879 E1774.31290
G1 X114.054 Y116.879 E1774.60215
G1 X83.121 Y85.946 E1785.53849
G1 X83.121 Y84.789 E1785.82774
G1 X115.211 Y116.879 E1797.17314
G1 X116.368 Y116.879 E1797.46239
G1 X83.121 Y83.632 E1809.21685
G1 X83.768 Y83.121 E1809.42278
G1 X116.879 Y116.232 E1821.12935
G1 X116.879 Y115.075 E1821.41860
G1 X84.925 Y83.121 E1832.71611
G1 X86.082 Y83.121 E1833.00536
G1 X116.879 Y113.918 E1843.89380
G1 X116.879 Y112.761 E1844.18305
G1 X87.239 Y83.121 E1854.66243
G1 X88.396 Y83.121 E1854.95168
G1 X116.879 Y111.604 E1865.02201
G1 X116.879 Y110.447 E1865.31126
G1 X89.553 Y83.121 E1874.97252
G1 X90.710 Y83.121 E1875.26177
G1 X116.879 Y109.290 E1884.51397
G1 X116.879 Y108.133 E1884.80322
G1 X91.867 Y83.121 E1893.64635
G1 X93.024 Y83.121 E1893.93560
G1 X116.879 Y106.976 E1902.36968
G1 X116.879 Y105.819 E1902.65893
G1 X94.181 Y83.121 E1910.68395
G1 X95.338 Y83.121 E1910.97320
G1 X116.879 Y104.662 E1918.58915
G1 X116.879 Y103.505 E1918.87840
G1 X96.495 Y83.121 E1926.08529
G1 X97.652 Y83.121 E1926.37454
G1 X116.879 Y102.348 E1933.17237
G1 X116.879 Y101.191 E1933.46162
G1 X98.809 Y83.121 E1939.85039
G1 X99.966 Y83.121 E1940.13964
G1 X116.879 Y100.034 E1946.11935
G1 X116.879 Y98.877 E1946.40860
G1 X101.123 Y83.121 E1951.97924
G1 X102.280 Y83.121 E1952.26849
G1 X116.879 Y97.720 E1957.43008
G1 X116.879 Y96.563 E1957.71933
G1 X103.437 Y83.121 E1962.47185
G1 X104.594 Y83.121 E1962.76110
G1 X116.879 Y95.406 E1967.10456
G1 X116.879 Y94.249 E1967.39381
G1 X105.751 Y83.121 E1971.32821
G1 X106.908 Y83.121 E1971.61746
G1 X116.879 Y93.092 E1975.14280
G1 X116.879 Y91.935 E1975.43205
G1 X108.065 Y83.121 E1978.54832
G1 X109.222 Y83.121 E1978.83758
G1 X116.879 Y90.778 E1981.54479
G1 X116.879 Y89.621 E1981.83404
G1 X110.379 Y83.121 E1984.13219
G1 X111.536 Y83.121 E1984.42144
G1 X116.879 Y88.464 E1986.31054
G1 X116.879 Y87.307 E1986.59979
G1 X112.693 Y83.121 E1988.07982
G1 X113.850 Y83.121 E1988.36907
G1 X116.879 Y86.150 E1989.44004
G1 X116.879 Y84.993 E1989.72929
G1 X115.007 Y83.121 E1990.39119
G1 X116.164 Y83.121 E1990.68044
G1 X116.879 Y83.836 E1990.93329
G1 Z2.400 F7800.000
G1 X116.164 Y116.879 F7800.000
G1 X116.879 Y116.164 E1991.18613 F4800.000
G1 X116.879 Y115.007 E1991.47538
G1 X115.007 Y116.879 E1992.13729
G1 X113.850 Y116.879 E1992.42654
G1 X116.879 Y113.850 E1993.49751
G1 X116.879 Y112.693 E1993.78676
G1 X112.693 Y116.879 E1995.26679
G1 X111.536 Y116.879 E1995.55604
G1 X116.879 Y111.536 E1997.44513
G1 X116.879 Y110.379 E1997.73438
G1 X110.379 Y116.879 E2000.03253
G1 X109.222 Y116.879 E2000.32178
G1 X116.879 Y109.222 E2003.02900
G1 X116.879 Y108.065 E2003.31825
G1 X108.065 Y116.879 E2006.43452
G1 X106.908 Y116.879 E2006.72377
G1 X116.879 Y106.908 E2010.24911
G1 X116.879 Y105.751 E2010.53836
G1 X105.751 Y116.879 E2014.47276
G1 X104.594 Y116.879 E2014.76201
G1 X116.879 Y104.594 E2019.10547
G1 X116.879 Y103.437 E2019.39472
G1 X103.437 Y116.879 E2024.14724
G1 X102.280 Y116.879 E2024.43649
G1 X116.879 Y102.280 E2029.59808
G1 X116.879 Y101.123 E2029.88733
G1 X101.123 Y116.879 E2035.45797
G1 X99.966 Y116.879 E2035.74722
G1 X116.879 Y99.966 E2041.72693
G1 X116.879 Y98.809 E2042.01618
G1 X98.809 Y116.879 E2048.40495
G1 X97.652 Y116.879 E2048.69420
G1 X116.879 Y97.652 E2055.49203
G1 X116.879 Y96.495 E2055.78128
G1 X96.495 Y116.879 E2062.98817
G1 X95.338 Y116.879 E2063.27742
G1 X116.879 Y95.338 E2070.89337
G1 X116.879 Y94.181 E2071.18262
G1 X94.181 Y116.879 E2079.20763
G1 X93.024 Y116.879 E2079.49688
G1 X116.879 Y93.024 E2087.93096
G1 X116.879 Y91.867 E2088.22021
G1 X91.867 Y116.879 E2097.06335
G1 X90.710 Y116.879 E2097.35260
G1 X116.879 Y90.710 E2106.60480
G1 X116.879 Y89.553 E2106.89405
G1 X89.553 Y116.879 E2116.55531
G1 X88.396 Y116.879 E2116.84456
G1 X116.879 Y88.396 E2126.91488
G1 X116.879 Y87.239 E2127.20413
G1 X87.239 Y116.879 E2137.68351
G1 X86.082 Y116.879 E2137.97276
G1 X116.879 Y86.082 E2148.86121
G1 X116.879 Y84.925 E2149.15046
G1 X84.925 Y116.879 E2160.44796
G1 X83.768 Y116.879 E2160.73721
G1 X116.879 Y83.768 E2172.44378
G1 X116.368 Y83.121 E2172.64971
G1 X83.121 Y116.368 E2184.40417
G1 X83.121 Y115.211 E2184.69342
G1 X115.211 Y83.121 E2196.03882
G1 X114.054 Y83.121 E2196.32807
G1 X83.121 Y114.054 E2207.26441
G1 X83.121 Y112.897 E2207.55366
G1 X112.897 Y83.121 E2218.08094
G1 X111.740 Y83.121 E2218.37019
G1 X83.121 Y111.740 E2228.48841
G1 X83.121 Y110.583 E2228.77766
G1 X110.583 Y83.121 E2238.48681
G1 X109.426 Y83.121 E2238.77606
G1 X83.121 Y109.426 E2248.07615
G1 X83.121 Y108.269 E2248.36540
G1 X108.269 Y83.121 E2257.25643
G1 X107.112 Y83.121 E2257.54568
G1 X83.121 Y107.112 E2266.02765
G1 X83.121 Y105.955 E2266.31690
G1 X105.955 Y83.121 E2274.38981
G1 X104.798 Y83.121 E2274.67906
G1 X83.121 Y104.798 E2282.34291
G1 X83.121 Y103.641 E2282.63216
G1 X103.641 Y83.121 E2289.88694
G1 X102.484 Y83.121 E2290.17619
G1 X83.121 Y102.484 E2297.02192
G1 X83.121 Y101.327 E2297.31117
G1 X101.327 Y83.121 E2303.74783
G1 X100.170 Y83.121 E2304.03708
G1 X83.121 Y100.170 E2310.06468
G1 X83.121 Y99.013 E2310.35393
G1 X99.013 Y83.121 E2315.97247
G1 X97.856 Y83.121 E2316.26172
G1 X83.121 Y97.856 E2321.47120
G1 X83.121 Y96.699 E2321.76045
G1 X96.699 Y83.121 E2326.56086
G1 X95.542 Y83.121 E2326.85012
G1 X83.121 Y95.542 E2331.24147
G1 X83.121 Y94.385 E2331.53072
G1 X94.385 Y83.121 E2335.51301
G1 X93.228 Y83.121 E2335.80226
G1 X83.121 Y93.228 E2339.37549
G1 X83.121 Y92.071 E2339.66474
G1 X92.071 Y83.121 E2342.82891
G1 X90.914 Y83.121 E2343.11816
G1 X83.121 Y90.914 E2345.87327
G1 X83.121 Y89.757 E2346.16252
G1 X89.757 Y83.121 E2348.50857
G1 X88.600 Y83.121 E2348.79782
G1 X83.121 Y88.600 E2350.73480
G1 X83.121 Y87.443 E2351.02406
G1 X87.443 Y83.121 E2352.55198
G1 X86.286 Y83.121 E2352.84123
G1 X83.121 Y86.286 E2353.96009
G1 X83.121 Y85.129 E2354.24934
G1 X85.129 Y83.121 E2354.95914
G1 X83.972 Y83.121 E2355.24839
G1 X83.121 Y83.972 E2355.54913
G1 Z2.800 F7800.000
G1 X83.972 Y116.879 F7800.000
G1 X83.121 Y116.028 E2355.84987 F4800.000
G1 X83.121 Y114.871 E2356.13912
G1 X85.129 Y116.879 E2356.84892
G1 X86.286 Y116.879 E2357.13817
G1 X83.121 Y113.714 E2358.25703
G1 X83.121 Y112.557 E2358.54628
G1 X87.443 Y116.879 E2360.07421
G1 X88.600 Y116.879 E2360.36346
G1 X83.121 Y111.400 E2362.30044
G1 X83.121 Y110.243 E2362.58969
G1 X89.757 Y116.879 E2364.93574
G1 X90.914 Y116.879 E2365.22499
G1 X83.121 Y109.086 E2367.98009
G1 X83.121 Y107.929 E2368.26934
G1 X92.071 Y116.879 E2371.43351
G1 X93.228 Y116.879 E2371.72276
G1 X83.121 Y106.772 E2375.29599
G1 X83.121 Y105.615 E2375.58524
G1 X94.385 Y116.879 E2379.56754
G1 X95.542 Y116.879 E2379.85679
G1 X83.121 Y104.458 E2384.24814
G1 X83.121 Y103.301 E2384.53739
G1 X96.699 Y116.879 E2389.33781
G1 X97.856 Y116.879 E2389.62706
G1 X83.121 Y102.144 E2394.83653
G1 X83.121 Y100.987 E2395.12578
G1 X99.013 Y116.879 E2400.74432
G1 X100.170 Y116.879 E2401.03357
G1 X83.121 Y99.830 E2407.06117
G1 X83.121 Y98.673 E2407.35042
G1 X101.327 Y116.879 E2413.78709
G1 X102.484 Y116.879 E2414.07634
G1 X83.121 Y97.516 E2420.92206
G1 X83.121 Y96.359 E2421.21131
G1 X103.641 Y116.879 E2428.46609
G1 X104.798 Y116.879 E2428.75534
G1 X83.121 Y95.202 E2436.41919
G1 X83.121 Y94.045 E2436.70844
G1 X105.955 Y116.879 E2444.78135
G1 X107.112 Y116.879 E2445.07060
G1 X83.121 Y92.888 E2453.55257
G1 X83.121 Y91.731 E2453.84182
G1 X108.269 Y116.879 E2462.73285
G1 X109.426 Y116.879 E2463.02210
G1 X83.121 Y90.574 E2472.32219
G1 X83.121 Y89.417 E2472.61144
G1 X110.583 Y116.879 E2482.32059
G1 X111.740 Y116.879 E2482.60985
G1 X83.121 Y88.260 E2492.72806
G1 X83.121 Y87.103 E2493.01731
G1 X112.897 Y116.879 E2503.54459
G1 X114.054 Y116.879 E2503.83384
G1 X83.121 Y85.946 E2514.77018
G1 X83.121 Y84.789 E2515.05943
G1 X115.211 Y116.879 E2526.40483
G1 X116.368 Y116.879 E2526.69408
G1 X83.121 Y83.632 E2538.44854
G1 X83.768 Y83.121 E2538.65447
G1 X116.879 Y116.232 E2550.36104
G1 X116.879 Y115.075 E2550.65029
G1 X84.925 Y83.121 E2561.94779
G1 X86.082 Y83.121 E2562.23704
G1 X116.879 Y113.918 E2573.12549
G1 X116.879 Y112.761 E2573.41474
G1 X87.239 Y83.121 E2583.89412
G1 X88.396 Y83.121 E2584.18337
G1 X116.879 Y111.604 E2594.25369
G1 X116.879 Y110.447 E2594.54294
G1 X89.553 Y83.121 E2604.20420
G1 X90.710 Y83.121 E2604.49345
G1 X116.879 Y109.290 E2613.74565
G1 X116.879 Y108.133 E2614.03490
G1 X91.867 Y83.121 E2622.87804
G1 X93.024 Y83.121 E2623.16729
G1 X116.879 Y106.976 E2631.60137
G1 X116.879 Y105.819 E2631.89062
G1 X94.181 Y83.121 E2639.91563
G1 X95.338 Y83.121 E2640.20488
G1 X116.879 Y104.662 E2647.82084
G1 X116.879 Y103.505 E2648.11009
G1 X96.495 Y83.121 E2655.31698
G1 X97.652 Y83.121 E2655.60623
G1 X116.879 Y102.348 E2662.40406
G1 X116.879 Y101.191 E2662.69331
G1 X98.809 Y83.121 E2669.08207
G1 X99.966 Y83.121 E2669.37132
G1 X116.879 Y100.034 E2675.35103
G1 X116.879 Y98.877 E2675.64028
G1 X101.123 Y83.121 E2681.21093
G1 X102.280 Y83.121 E2681.50018
G1 X116.879 Y97.720 E2686.66176
G1 X116.879 Y96.563 E2686.95101
G1 X103.437 Y83.121 E2691.70354
G1 X104.594 Y83.121 E2691.99279
G1 X116.879 Y95.406 E2696.33625
G1 X116.879 Y94.249 E2696.62550
G1 X105.751 Y83.121 E2700.55990
G1 X106.908 Y83.121 E2700.84915
G1 X116.879 Y93.092 E2704.37448
G1 X116.879 Y91.935 E2704.66373
G1 X108.065 Y83.121 E2707.78001
G1 X109.222 Y83.121 E2708.06926
G1 X116.879 Y90.778 E2710.77648
G1 X116.879 Y89.621 E2711.06573
G1 X110.379 Y83.121 E2713.36388
G1 X111.536 Y83.121 E2713.65313
G1 X116.879 Y88.464 E2715.54222
G1 X116.879 Y87.307 E2715.83147
G1 X112.693 Y83.121 E2717.31150
G1 X113.850 Y83.121 E2717.60075
G1 X116.879 Y86.150 E2718.67172
G1 X116.879 Y84.993 E2718.96097
G1 X115.007 Y83.121 E2719.62288
G1 X116.164 Y83.121 E2719.91213
G1 X116.879 Y83.836 E2720.16498
G1 Z3.200 F7800.000
G1 X116.164 Y116.879 F7800.000
G1 X116.879 Y116.164 E2720.41782 F4800.000
G1 X116.879 Y115.007 E2720.70707
G1 X115.007 Y116.879 E2721.36898
G1 X113.850 Y116.879 E2721.65823
G1 X116.879 Y113.850 E2722.72920
G1 X116.879 Y112.693 E2723.01845
G1 X112.693 Y116.879 E2724.49847
G1 X111.536 Y116.879 E2724.78773
G1 X116.879 Y111.536 E2726.67682
G1 X116.879 Y110.379 E2726.96607
G1 X110.379 Y116.879 E2729.26422
G1 X109.222 Y116.879 E2729.55347
G1 X116.879 Y109.222 E2732.26068
G1 X116.879 Y108.065 E2732.54993
G1 X108.065 Y116.879 E2735.66621
G1 X106.908 Y116.879 E2735.95546
G1 X116.879 Y106.908 E2739.48080
G1 X116.879 Y105.751 E2739.77005
G1 X105.751 Y116.879 E2743.70445
G1 X104.594 Y116.879 E2743.99370
G1 X116.879 Y104.594 E2748.33716
G1 X116.879 Y103.437 E2748.62641
G1 X103.437 Y116.879 E2753.37893
G1 X102.280 Y116.879 E2753.66818
G1 X116.879 Y102.280 E2758.82976
G1 X116.879 Y101.123 E2759.11901
G1 X101.123 Y116.879 E2764.68966
G1 X99.966 Y116.879 E2764.97891
G1 X116.879 Y99.966 E2770.95862
G1 X116.879 Y98.809 E2771.24787
G1 X98.809 Y116.879 E2777.63663
G1 X97.652 Y116.879 E2777.92588
G1 X116.879 Y97.652 E2784.72371
G1 X116.879 Y96.495 E2785.01296
G1 X96.495 Y116.879 E2792.21985
G1 X95.338 Y116.879 E2792.50910
G1 X116.879 Y95.338 E2800.12506
G1 X116.879 Y94.181 E2800.41431
G1 X94.181 Y116.879 E2808.43932
G1 X93.024 Y116.879 E2808.72857
G1 X116.879 Y93.024 E2817.16265
G1 X116.879 Y91.867 E2817.45190
G1 X91.867 Y116.879 E2826.29503
G1 X90.710 Y116.879 E2826.58428
G1 X116.879 Y90.710 E2835.83648
G1 X116.879 Y89.553 E2836.12573
G1 X89.553 Y116.879 E2845.78699
G1 X88.396 Y116.879 E2846.07624
G1 X116.879 Y88.396 E2856.14657
G1 X116.879 Y87.239 E2856.43582
G1 X87.239 Y116.879 E2866.91520
G1 X86.082 Y116.879 E2867.20445
G1 X116.879 Y86.082 E2878.09289
G1 X116.879 Y84.925 E2878.38214
G1 X84.925 Y116.879 E2889.67965
G1 X83.768 Y116.879 E2889.96890
G1 X116.879 Y83.768 E2901.67547
G1 X116.368 Y83.121 E2901.88140
G1 X83.121 Y116.368 E2913.63586
G1 X83.121 Y115.211 E2913.92511
G1 X115.211 Y83.121 E2925.27051
G1 X114.054 Y83.121 E2925.55976
G1 X83.121 Y114.054 E2936.49610
G1 X83.121 Y112.897 E2936.78535
G1 X112.897 Y83.121 E2947.31263
G1 X111.740 Y83.121 E2947.60188
G1 X83.121 Y111.740 E2957.72009
G1 X83.121 Y110.583 E2958.00934
G1 X110.583 Y83.121 E2967.71850
G1 X109.426 Y83.121 E2968.00775
G1 X83.121 Y109.426 E2977.30784
G1 X83.121 Y108.269 E2977.59709
G1 X108.269 Y83.121 E2986.48812
G1 X107.112 Y83.121 E2986.77737
G1 X83.121 Y107.112 E2995.25934
G1 X83.121 Y105.955 E2995.54859
G1 X105.955 Y83.121 E3003.62150
G1 X104.798 Y83.121 E3003.91075
G1 X83.121 Y104.798 E3011.57460
G1 X83.121 Y103.641 E3011.86385
G1 X103.641 Y83.121 E3019.11863
G1 X102.484 Y83.121 E3019.40788
G1 X83.121 Y102.484 E3026.25361
G1 X83.121 Y101.327 E3026.54286
G1 X101.327 Y83.121 E3032.97952
G1 X100.170 Y83.121 E3033.26877
G1 X83.121 Y100.170 E3039.29637
G1 X83.121 Y99.013 E3039.58562
G1 X99.013 Y83.121 E3045.20416
G1 X97.856 Y83.121 E3045.49341
G1 X83.121 Y97.856 E3050.70289
G1 X83.121 Y96.699 E3050.99214
G1 X96.699 Y83.121 E3055.79255
G1 X95.542 Y83.121 E3056.08180
G1 X83.121 Y95.542 E3060.47316
G1 X83.121 Y94.385 E3060.76241
G1 X94.385 Y83.121 E3064.74470
G1 X93.228 Y83.121 E3065.03395
G1 X83.121 Y93.228 E3068.60718
G1 X83.121 Y92.071 E3068.89643
G1 X92.071 Y83.121 E3072.06060
G1 X90.914 Y83.121 E3072.34985
G1 X83.121 Y90.914 E3075.10496
G1 X83.121 Y89.757 E3075.39421
G1 X89.757 Y83.121 E3077.74026
G1 X88.600 Y83.121 E3078.02951
G1 X83.121 Y88.600 E3079.96649
G1 X83.121 Y87.443 E3080.25574
G1 X87.443 Y83.121 E3081.78367
G1 X86.286 Y83.121 E3082.07292
G1 X83.121 Y86.286 E3083.19178
G1 X83.121 Y85.129 E3083.48103
G1 X85.129 Y83.121 E3084.19083
G1 X83.972 Y83.121 E3084.48008
G1 X83.121 Y83.972 E3084.78082
G1 Z3.600 F7800.000
G1 X83.972 Y116.879 F7800.000
G1 X83.121 Y116.028 E3085.08156 F4800.000
G1 X83.121 Y114.871 E3085.37081
G1 X85.129 Y116.879 E3086.08061
G1 X86.286 Y116.879 E3086.36986
G1 X83.121 Y113.714 E3087.48872
G1 X83.121 Y112.557 E3087.77797
G1 X87.443 Y116.879 E3089.30589
G1 X88.600 Y116.879 E3089.59514
G1 X83.121 Y111.400 E3091.53213
G1 X83.121 Y110.243 E3091.82138
G1 X89.757 Y116.879 E3094.16742
G1 X90.914 Y116.879 E3094.45667
G1 X83.121 Y109.086 E3097.21178
G1 X83.121 Y107.929 E3097.50103
G1 X92.071 Y116.879 E3100.66520
G1 X93.228 Y116.879 E3100.95445
G1 X83.121 Y106.772 E3104.52768
G1 X83.121 Y105.615 E3104.81693
G1 X94.385 Y116.879 E3108.79922
G1 X95.542 Y116.879 E3109.08847
G1 X83.121 Y104.458 E3113.47983
G1 X83.121 Y103.301 E3113.76908
G1 X96.699 Y116.879 E3118.56949
G1 X97.856 Y116.879 E3118.85874
G1 X83.121 Y102.144 E3124.06822
G1 X83.121 Y100.987 E3124.35747
G1 X99.013 Y116.879 E3129.97601
G1 X100.170 Y116.879 E3130.26526
G1 X83.121 Y99.830 E3136.29286
G1 X83.121 Y98.673 E3136.58211
G1 X101.327 Y116.879 E3143.01877
G1 X102.484 Y116.879 E3143.30802
G1 X83.121 Y97.516 E3150.15375
G1 X83.121 Y96.359 E3150.44300
G1 X103.641 Y116.879 E3157.69778
G1 X104.798 Y116.879 E3157.98703
G1 X83.121 Y95.202 E3165.65088
G1 X83.121 Y94.045 E3165.94013
G1 X105.955 Y116.879 E3174.01303
G1 X107.112 Y116.879 E3174.30229
G1 X83.121 Y92.888 E3182.78425
G1 X83.121 Y91.731 E3183.07350
G1 X108.269 Y116.879 E3191.96454
G1 X109.426 Y116.879 E3192.25379
G1 X83.121 Y90.574 E3201.55388
G1 X83.121 Y89.417 E3201.84313
G1 X110.583 Y116.879 E3211.55228
G1 X111.740 Y116.879 E3211.84153
G1 X83.121 Y88.260 E3221.95975
G1 X83.121 Y87.103 E3222.24900
G1 X112.897 Y116.879 E3232.77627
G1 X114.054 Y116.879 E3233.06553
G1 X83.121 Y85.946 E3244.00186
G1 X83.121 Y84.789 E3244.29111
G1 X115.211 Y116.879 E3255.63651
G1 X116.368 Y116.879 E3255.92576
G1 X83.121 Y83.632 E3267.68023
G1 X83.768 Y83.121 E3267.88615
G1 X116.879 Y116.232 E3279.59272
G1 X116.879 Y115.075 E3279.88197
G1 X84.925 Y83.121 E3291.17948
G1 X86.082 Y83.121 E3291.46873
G1 X116.879 Y113.918 E3302.35717
G1 X116.879 Y112.761 E3302.64642
G1 X87.239 Y83.121 E3313.12581
G1 X88.396 Y83.121 E3313.41506
G1 X116.879 Y111.604 E3323.48538
G1 X116.879 Y110.447 E3323.77463
G1 X89.553 Y83.121 E3333.43589
G1 X90.710 Y83.121 E3333.72514
G1 X116.879 Y109.290 E3342.97734
G1 X116.879 Y108.133 E3343.26659
G1 X91.867 Y83.121 E3352.10973
G1 X93.024 Y83.121 E3352.39898
G1 X116.879 Y106.976 E3360.83305
G1 X116.879 Y105.819 E3361.12230
G1 X94.181 Y83.121 E3369.14732
G1 X95.338 Y83.121 E3369.43657
G1 X116.879 Y104.662 E3377.05252
G1 X116.879 Y103.505 E3377.34177
G1 X96.495 Y83.121 E3384.54866
G1 X97.652 Y83.121 E3384.83791
G1 X116.879 Y102.348 E3391.63574
G1 X116.879 Y101.191 E3391.92499
G1 X98.809 Y83.121 E3398.31376
G1 X99.966 Y83.121 E3398.60301
G1 X116.879 Y100.034 E3404.58272
G1 X116.879 Y98.877 E3404.87197
G1 X101.123 Y83.121 E3410.44261
G1 X102.280 Y83.121 E3410.73186
G1 X116.879 Y97.720 E3415.89345
G1 X116.879 Y96.563 E3416.18270
G1 X103.437 Y83.121 E3420.93522
G1 X104.594 Y83.121 E3421.22447
G1 X116.879 Y95.406 E3425.56793
G1 X116.879 Y94.249 E3425.85718
G1 X105.751 Y83.121 E3429.79158
G1 X106.908 Y83.121 E3430.08083
G1 X116.879 Y93.092 E3433.60617
G1 X116.879 Y91.935 E3433.89542
G1 X108.065 Y83.121 E3437.01170
G1 X109.222 Y83.121 E3437.30095
G1 X116.879 Y90.778 E3440.00816
G1 X116.879 Y89.621 E3440.29741
G1 X110.379 Y83.121 E3442.59557
G1 X111.536 Y83.121 E3442.88482
G1 X116.879 Y88.464 E3444.77391
G1 X116.879 Y87.307 E3445.06316
G1 X112.693 Y83.121 E3446.54319
G1 X113.850 Y83.121 E3446.83244
G1 X116.879 Y86.150 E3447.90341
G1 X116.879 Y84.993 E3448.19266
G1 X115.007 Y83.121 E3448.85457
G1 X116.164 Y83.121 E3449.14382
G1 X116.879 Y83.836 E3449.39666
G1 Z4.000 F7800.000
G1 X116.164 Y116.879 F7800.000
G1 X116.879 Y116.164 E3449.64951 F4800.000
G1 X116.879 Y115.007 E3449.93876
G1 X115.007 Y116.879 E3450.60066
G1 X113.850 Y116.879 E3450.88991
G1 X116.879 Y113.850 E3451.96088
G1 X116.879 Y112.693 E3452.25013
G1 X112.693 Y116.879 E3453.73016
G1 X111.536 Y116.879 E3454.01941
G1 X116.879 Y111.536 E3455.90850
G1 X116.879 Y110.379 E3456.19775
G1 X110.379 Y116.879 E3458.49591
G1 X109.222 Y116.879 E3458.78516
G1 X116.879 Y109.222 E3461.49237
G1 X116.879 Y108.065 E3461.78162
G1 X108.065 Y116.879 E3464.89790
G1 X106.908 Y116.879 E3465.18715
G1 X116.879 Y106.908 E3468.71248
G1 X116.879 Y105.751 E3469.00174
G1 X105.751 Y116.879 E3472.93613
G1 X104.594 Y116.879 E3473.22538
G1 X116.879 Y104.594 E3477.56884
G1 X116.879 Y103.437 E3477.85810
G1 X103.437 Y116.879 E3482.61062
G1 X102.280 Y116.879 E3482.89987
G1 X116.879 Y102.280 E3488.06145
G1 X116.879 Y101.123 E3488.35070
G1 X101.123 Y116.879 E3493.92135
G1 X99.966 Y116.879 E3494.21060
G1 X116.879 Y99.966 E3500.19030
G1 X116.879 Y98.809 E3500.47955
G1 X98.809 Y116.879 E3506.86832
G1 X97.652 Y116.879 E3507.15757
G1 X116.879 Y97.652 E3513.95540
G1 X116.879 Y96.495 E3514.24465
G1 X96.495 Y116.879 E3521.45154
G1 X95.338 Y116.879 E3521.74079
G1 X116.879 Y95.338 E3529.35674
G1 X116.879 Y94.181 E3529.64599
G1 X94.181 Y116.879 E3537.67101
G1 X93.024 Y116.879 E3537.96026
G1 X116.879 Y93.024 E3546.39433
G1 X116.879 Y91.867 E3546.68358
G1 X91.867 Y116.879 E3555.52672
G1 X90.710 Y116.879 E3555.81597
G1 X116.879 Y90.710 E3565.06817
G1 X116.879 Y89.553 E3565.35742
G1 X89.553 Y116.879 E3575.01868
G1 X88.396 Y116.879 E3575.30793
G1 X116.879 Y88.396 E3585.37825
G1 X116.879 Y87.239 E3585.66750
G1 X87.239 Y116.879 E3596.14689
G1 X86.082 Y116.879 E3596.43614
G1 X116.879 Y86.082 E3607.32458
G1 X116.879 Y84.925 E3607.61383
G1 X84.925 Y116.879 E3618.91134
G1 X83.768 Y116.879 E3619.20059
G1 X116.879 Y83.768 E3630.90715
G1 X116.368 Y83.121 E3631.11308
G1 X83.121 Y116.368 E3642.86754
G1 X83.121 Y115.211 E3643.15680
G1 X115.211 Y83.121 E3654.50220
G1 X114.054 Y83.121 E3654.79145
G1 X83.121 Y114.054 E3665.72779
G1 X83.121 Y112.897 E3666.01704
G1 X112.897 Y83.121 E3676.54431
G1 X111.740 Y83.121 E3676.83356
G1 X83.121 Y111.740 E3686.95178
G1 X83.121 Y110.583 E3687.24103
G1 X110.583 Y83.121 E3696.95018
G1 X109.426 Y83.121 E3697.23943
G1 X83.121 Y109.426 E3706.53953
G1 X83.121 Y108.269 E3706.82878
G1 X108.269 Y83.121 E3715.71981
G1 X107.112 Y83.121 E3716.00906
G1 X83.121 Y107.112 E3724.49103
G1 X83.121 Y105.955 E3724.78028
G1 X105.955 Y83.121 E3732.85319
G1 X104.798 Y83.121 E3733.14244
G1 X83.121 Y104.798 E3740.80628
G1 X83.121 Y103.641 E3741.09553
G1 X103.641 Y83.121 E3748.35032
G1 X102.484 Y83.121 E3748.63957
G1 X83.121 Y102.484 E3755.48529
G1 X83.121 Y101.327 E3755.77454
G1 X101.327 Y83.121 E3762.21120
G1 X100.170 Y83.121 E3762.50045
G1 X83.121 Y100.170 E3768.52805
G1 X83.121 Y99.013 E3768.81731
G1 X99.013 Y83.121 E3774.43584
G1 X97.856 Y83.121 E3774.72509
G1 X83.121 Y97.856 E3779.93457
G1 X83.121 Y96.699 E3780.22382
G1 X96.699 Y83.121 E3785.02424
G1 X95.542 Y83.121 E3785.31349
G1 X83.121 Y95.542 E3789.70484
G1 X83.121 Y94.385 E3789.99409
G1 X94.385 Y83.121 E3793.97639
G1 X93.228 Y83.121 E3794.26564
G1 X83.121 Y93.228 E3797.83887
G1 X83.121 Y92.071 E3798.12812
G1 X92.071 Y83.121 E3801.29229
G1 X90.914 Y83.121 E3801.58154
G1 X83.121 Y90.914 E3804.33665
G1 X83.121 Y89.757 E3804.62590
G1 X89.757 Y83.121 E3806.97194
G1 X88.600 Y83.121 E3807.26119
G1 X83.121 Y88.600 E3809.19818
G1 X83.121 Y87.443 E3809.48743
G1 X87.443 Y83.121 E3811.01535
G1 X86.286 Y83.121 E3811.30460
G1 X83.121 Y86.286 E3812.42346
G1 X83.121 Y85.129 E3812.71271
G1 X85.129 Y83.121 E3813.42252
G1 X83.972 Y83.121 E3813.71177
G1 X83.121 Y83.972 E3814.01250
G1 Z4.400 F7800.000
G1 X83.972 Y116.879 F7800.000
G1 X83.121 Y116.028 E3814.31324 F4800.000
G1 X83.121 Y114.871 E3814.60249
G1 X85.129 Y116.879 E3815.31229
G1 X86.286 Y116.879 E3815.60154
G1 X83.121 Y113.714 E3816.72041
G1 X83.121 Y112.557 E3817.00966
G1 X87.443 Y116.879 E3818.53758
G1 X88.600 Y116.879 E3818.82683
G1 X83.121 Y111.400 E3820.76381
G1 X83.121 Y110.243 E3821.05306
G1 X89.757 Y116.879 E3823.39911
G1 X90.914 Y116.879 E3823.68836
G1 X83.121 Y109.086 E3826.44347
G1 X83.121 Y107.929 E3826.73272
G1 X92.071 Y116.879 E3829.89689
G1 X93.228 Y116.879 E3830.18614
G1 X83.121 Y106.772 E3833.75937
G1 X83.121 Y105.615 E3834.04862
G1 X94.385 Y116.879 E3838.03091
G1 X95.542 Y116.879 E3838.32016
G1 X83.121 Y104.458 E3842.71151
G1 X83.121 Y103.301 E3843.00076
G1 X96.699 Y116.879 E3847.80118
G1 X97.856 Y116.879 E3848.09043
G1 X83.121 Y102.144 E3853.29991
G1 X83.121 Y100.987 E3853.58916
G1 X99.013 Y116.879 E3859.20770
G1 X100.170 Y116.879 E3859.49695
G1 X83.121 Y99.830 E3865.52455
G1 X83.121 Y98.673 E3865.81380
G1 X101.327 Y116.879 E3872.25046
G1 X102.484 Y116.879 E3872.53971
G1 X83.121 Y97.516 E3879.38543
G1 X83.121 Y96.359 E3879.67468
G1 X103.641 Y116.879 E3886.92947
G1 X104.798 Y116.879 E3887.21872
G1 X83.121 Y95.202 E3894.88256
G1 X83.121 Y94.045 E3895.17181
G1 X105.955 Y116.879 E3903.24472
G1 X107.112 Y116.879 E3903.53397
G1 X83.121 Y92.888 E3912.01594
G1 X83.121 Y91.731 E3912.30519
G1 X108.269 Y116.879 E3921.19622
G1 X109.426 Y116.879 E3921.48547
G1 X83.121 Y90.574 E3930.78556
G1 X83.121 Y89.417 E3931.07481
G1 X110.583 Y116.879 E3940.78397
G1 X111.740 Y116.879 E3941.07322
G1 X83.121 Y88.260 E3951.19143
G1 X83.121 Y87.103 E3951.48068
G1 X112.897 Y116.879 E3962.00796
G1 X114.054 Y116.879 E3962.29721
G1 X83.121 Y85.946 E3973.23355
G1 X83.121 Y84.789 E3973.52280
G1 X115.211 Y116.879 E3984.86820
G1 X116.368 Y116.879 E3985.15745
G1 X83.121 Y83.632 E3996.91191
G1 X83.768 Y83.121 E3997.11784
G1 X116.879 Y116.232 E4008.82441
G1 X116.879 Y115.075 E4009.11366
G1 X84.925 Y83.121 E4020.41117
G1 X86.082 Y83.121 E4020.70042
G1 X116.879 Y113.918 E4031.58886
G1 X116.879 Y112.761 E4031.87811
G1 X87.239 Y83.121 E4042.35749
G1 X88.396 Y83.121 E4042.64674
G1 X116.879 Y111.604 E4052.71707
G1 X116.879 Y110.447 E4053.00632
G1 X89.553 Y83.121 E4062.66758
G1 X90.710 Y83.121 E4062.95683
G1 X116.879 Y109.290 E4072.20903
G1 X116.879 Y108.133 E4072.49828
G1 X91.867 Y83.121 E4081.34141
G1 X93.024 Y83.121 E4081.63066
G1 X116.879 Y106.976 E4090.06474
G1 X116.879 Y105.819 E4090.35399
G1 X94.181 Y83.121 E4098.37901
G1 X95.338 Y83.121 E4098.66826
G1 X116.879 Y104.662 E4106.28421
G1 X116.879 Y103.505 E4106.57346
G1 X96.495 Y83.121 E4113.78035
G1 X97.652 Y83.121 E4114.06960
G1 X116.879 Y102.348 E4120.86743
G1 X116.879 Y101.191 E4121.15668
G1 X98.809 Y83.121 E4127.54545
G1 X99.966 Y83.121 E4127.83470
G1 X116.879 Y100.034 E4133.81441
G1 X116.879 Y98.877 E4134.10366
G1 X101.123 Y83.121 E4139.67430
G1 X102.280 Y83.121 E4139.96355
G1 X116.879 Y97.720 E4145.12514
G1 X116.879 Y96.563 E4145.41439
G1 X103.437 Y83.121 E4150.16691
G1 X104.594 Y83.121 E4150.45616
G1 X116.879 Y95.406 E4154.79962
G1 X116.879 Y94.249 E4155.08887
G1 X105.751 Y83.121 E4159.02327
G1 X106.908 Y83.121 E4159.31252
G1 X116.879 Y93.092 E4162.83786
G1 X116.879 Y91.935 E4163.12711
G1 X108.065 Y83.121 E4166.24338
G1 X109.222 Y83.121 E4166.53263
G1 X116.879 Y90.778 E4169.23985
G1 X116.879 Y89.621 E4169.52910
G1 X110.379 Y83.121 E4171.82725
G1 X111.536 Y83.121 E4172.11650
G1 X116.879 Y88.464 E4174.00560
G1 X116.879 Y87.307 E4174.29485
G1 X112.693 Y83.121 E4175.77488
G1 X113.850 Y83.121 E4176.06413
G1 X116.879 Y86.150 E4177.13510
G1 X116.879 Y84.993 E4177.42435
G1 X115.007 Y83.121 E4178.08625
G1 X116.164 Y83.121 E4178.37550
G1 X116.879 Y83.836 E4178.62835
G1 Z4.800 F7800.000
G1 X116.164 Y116.879 F7800.000
G1 X116.879 Y116.164 E4178.88119 F4800.000
G1 X116.879 Y115.007 E4179.17044
G1 X115.007 Y116.879 E4179.83235
G1 X113.850 Y116.879 E4180.12160
G1 X116.879 Y113.850 E4181.19257
G1 X116.879 Y112.693 E4181.48182
G1 X112.693 Y116.879 E4182.96185
G1 X111.536 Y116.879 E4183.25110
G1 X116.879 Y111.536 E4185.14019
G1 X116.879 Y110.379 E4185.42944
G1 X110.379 Y116.879 E4187.72759
G1 X109.222 Y116.879 E4188.01684
G1 X116.879 Y109.222 E4190.72406
G1 X116.879 Y108.065 E4191.01331
G1 X108.065 Y116.879 E4194.12958
G1 X106.908 Y116.879 E4194.41883
G1 X116.879 Y106.908 E4197.94417
G1 X116.879 Y105.751 E4198.23342
G1 X105.751 Y116.879 E4202.16782
G1 X104.594 Y116.879 E4202.45707
G1 X116.879 Y104.594 E4206.80053
G1 X116.879 Y103.437 E4207.08978
G1 X103.437 Y116.879 E4211.84230
G1 X102.280 Y116.879 E4212.13155
G1 X116.879 Y102.280 E4217.29314
G1 X116.879 Y101.123 E4217.58239
G1 X101.123 Y116.879 E4223.15303
G1 X99.966 Y116.879 E4223.44228
G1 X116.879 Y99.966 E4229.42199
G1 X116.879 Y98.809 E4229.71124
G1 X98.809 Y116.879 E4236.10001
G1 X97.652 Y116.879 E4236.38926
G1 X116.879 Y97.652 E4243.18709
G1 X116.879 Y96.495 E4243.47634
G1 X96.495 Y116.879 E4250.68323
G1 X95.338 Y116.879 E4250.97248
G1 X116.879 Y95.338 E4258.58843
G1 X116.879 Y94.181 E4258.87768
G1 X94.181 Y116.879 E4266.90269
G1 X93.024 Y116.879 E4267.19194
G1 X116.879 Y93.024 E4275.62602
G1 X116.879 Y91.867 E4275.91527
G1 X91.867 Y116.879 E4284.75841
G1 X90.710 Y116.879 E4285.04766
G1 X116.879 Y90.710 E4294.29986
G1 X116.879 Y89.553 E4294.58911
G1 X89.553 Y116.879 E4304.25037
G1 X88.396 Y116.879 E4304.53962
G1 X116.879 Y88.396 E4314.60994
G1 X116.879 Y87.239 E4314.89919
G1 X87.239 Y116.879 E4325.37857
G1 X86.082 Y116.879 E4325.66782
G1 X116.879 Y86.082 E4336.55627
G1 X116.879 Y84.925 E4336.84552
G1 X84.925 Y116.879 E4348.14302
G1 X83.768 Y116.879 E4348.43227
G1 X116.879 Y83.768 E4360.13884
G1 X116.368 Y83.121 E4360.34477
G1 X83.121 Y116.368 E4372.09923
G1 X83.121 Y115.211 E4372.38848
G1 X115.211 Y83.121 E4383.73388
G1 X114.054 Y83.121 E4384.02313
G1 X83.121 Y114.054 E4394.95947
G1 X83.121 Y112.897 E4395.24872
G1 X112.897 Y83.121 E4405.77600
G1 X111.740 Y83.121 E4406.06525
G1 X83.121 Y111.740 E4416.18347
G1 X83.121 Y110.583 E4416.47272
G1 X110.583 Y83.121 E4426.18187
G1 X109.426 Y83.121 E4426.47112
G1 X83.121 Y109.426 E4435.77121
G1 X83.121 Y108.269 E4436.06046
G1 X108.269 Y83.121 E4444.95149
G1 X107.112 Y83.121 E4445.24074
G1 X83.121 Y107.112 E4453.72271
G1 X83.121 Y105.955 E4454.01196
G1 X105.955 Y83.121 E4462.08487
G1 X104.798 Y83.121 E4462.37412
G1 X83.121 Y104.798 E4470.03797
G1 X83.121 Y103.641 E4470.32722
G1 X103.641 Y83.121 E4477.58200
G1 X102.484 Y83.121 E4477.87125
G1 X83.121 Y102.484 E4484.71698
G1 X83.121 Y101.327 E4485.00623
G1 X101.327 Y83.121 E4491.44289
G1 X100.170 Y83.121 E4491.73214
G1 X83.121 Y100.170 E4497.75974
G1 X83.121 Y99.013 E4498.04899
G1 X99.013 Y83.121 E4503.66753
G1 X97.856 Y83.121 E4503.95678
G1 X83.121 Y97.856 E4509.16626
G1 X83.121 Y96.699 E4509.45551
G1 X96.699 Y83.121 E4514.25592
G1 X95.542 Y83.121 E4514.54517
G1 X83.121 Y95.542 E4518.93653
G1 X83.121 Y94.385 E4519.22578
G1 X94.385 Y83.121 E4523.20807
G1 X93.228 Y83.121 E4523.49732
G1 X83.121 Y93.228 E4527.07055
G1 X83.121 Y92.071 E4527.35980
G1 X92.071 Y83.121 E4530.52397
G1 X90.914 Y83.121 E4530.81322
G1 X83.121 Y90.914 E4533.56833
G1 X83.121 Y89.757 E4533.85758
G1 X89.757 Y83.121 E4536.20363
G1 X88.600 Y83.121 E4536.49288
G1 X83.121 Y88.600 E4538.42986
G1 X83.121 Y87.443 E4538.71911
G1 X87.443 Y83.121 E4540.24704
G1 X86.286 Y83.121 E4540.53629
G1 X83.121 Y86.286 E4541.65515
G1 X83.121 Y85.129 E4541.94440
G1 X85.129 Y83.121 E4542.65420
G1 X83.972 Y83.121 E4542.94345
G1 X83.121 Y83.972 E4543.24419
G1 Z5.200 F7800.000
G1 X83.972 Y116.879 F7800.000
G1 X83.121 Y116.028 E4543.54493 F4800.000
G1 X83.121 Y114.871 E4543.83418
G1 X85.129 Y116.879 E4544.54398
G1 X86.286 Y116.879 E4544.83323
G1 X83.121 Y113.714 E4545.95209
G1 X83.121 Y112.557 E4546.24134
G1 X87.443 Y116.879 E4547.76927
G1 X88.600 Y116.879 E4548.05852
G1 X83.121 Y111.400 E4549.99550
G1 X83.121 Y110.243 E4550.28475
G1 X89.757 Y116.879 E4552.63080
G1 X90.914 Y116.879 E4552.92005
G1 X83.121 Y109.086 E4555.67515
G1 X83.121 Y107.929 E4555.96440
G1 X92.071 Y116.879 E4559.12857
G1 X93.228 Y116.879 E4559.41782
G1 X83.121 Y106.772 E4562.99105
G1 X83.121 Y105.615 E4563.28030
G1 X94.385 Y116.879 E4567.26260
G1 X95.542 Y116.879 E4567.55185
G1 X83.121 Y104.458 E4571.94320
G1 X83.121 Y103.301 E4572.23245
G1 X96.699 Y116.879 E4577.03287
G1 X97.856 Y116.879 E4577.32212
G1 X83.121 Y102.144 E4582.53159
G1 X83.121 Y100.987 E4582.82084
G1 X99.013 Y116.879 E4588.43938
G1 X100.170 Y116.879 E4588.72863
G1 X83.121 Y99.830 E4594.75623
G1 X83.121 Y98.673 E4595.04548
G1 X101.327 Y116.879 E4601.48215
G1 X102.484 Y116.879 E4601.77140
G1 X83.121 Y97.516 E4608.61712
G1 X83.121 Y96.359 E4608.90637
G1 X103.641 Y116.879 E4616.16115
G1 X104.798 Y116.879 E4616.45040
G1 X83.121 Y95.202 E4624.11425
G1 X83.121 Y94.045 E4624.40350
G1 X105.955 Y116.879 E4632.47641
G1 X107.112 Y116.879 E4632.76566
G1 X83.121 Y92.888 E4641.24763
G1 X83.121 Y91.731 E4641.53688
G1 X108.269 Y116.879 E4650.42791
G1 X109.426 Y116.879 E4650.71716
G1 X83.121 Y90.574 E4660.01725
G1 X83.121 Y89.417 E4660.30650
G1 X110.583 Y116.879 E4670.01565
G1 X111.740 Y116.879 E4670.30491
G1 X83.121 Y88.260 E4680.42312
G1 X83.121 Y87.103 E4680.71237
G1 X112.897 Y116.879 E4691.23965
G1 X114.054 Y116.879 E4691.52890
G1 X83.121 Y85.946 E4702.46524
G1 X83.121 Y84.789 E4702.75449
G1 X115.211 Y116.879 E4714.09989
G1 X116.368 Y116.879 E4714.38914
G1 X83.121 Y83.632 E4726.14360
G1 X83.768 Y83.121 E4726.34953
G1 X116.879 Y116.232 E4738.05609
G1 X116.879 Y115.075 E4738.34535
G1 X84.925 Y83.121 E4749.64285
G1 X86.082 Y83.121 E4749.93210
G1 X116.879 Y113.918 E4760.82055
G1 X116.879 Y112.761 E4761.10980
G1 X87.239 Y83.121 E4771.58918
G1 X88.396 Y83.121 E4771.87843
G1 X116.879 Y111.604 E4781.94875
G1 X116.879 Y110.447 E4782.23800
G1 X89.553 Y83.121 E4791.89926
G1 X90.710 Y83.121 E4792.18851
G1 X116.879 Y109.290 E4801.44071
G1 X116.879 Y108.133 E4801.72996
G1 X91.867 Y83.121 E4810.57310
G1 X93.024 Y83.121 E4810.86235
G1 X116.879 Y106.976 E4819.29643
G1 X116.879 Y105.819 E4819.58568
G1 X94.181 Y83.121 E4827.61069
G1 X95.338 Y83.121 E4827.89994
G1 X116.879 Y104.662 E4835.51589
G1 X116.879 Y103.505 E4835.80515
G1 X96.495 Y83.121 E4843.01204
G1 X97.652 Y83.121 E4843.30129
G1 X116.879 Y102.348 E4850.09912
G1 X116.879 Y101.191 E4850.38837
G1 X98.809 Y83.121 E4856.77713
G1 X99.966 Y83.121 E4857.06638
G1 X116.879 Y100.034 E4863.04609
G1 X116.879 Y98.877 E4863.33534
G1 X101.123 Y83.121 E4868.90599
G1 X102.280 Y83.121 E4869.19524
G1 X116.879 Y97.720 E4874.35682
G1 X116.879 Y96.563 E4874.64607
G1 X103.437 Y83.121 E4879.39859
G1 X104.594 Y83.121 E4879.68784
G1 X116.879 Y95.406 E4884.03131
G1 X116.879 Y94.249 E4884.32056
G1 X105.751 Y83.121 E4888.25496
G1 X106.908 Y83.121 E4888.54421
G1 X116.879 Y93.092 E4892.06954
G1 X116.879 Y91.935 E4892.35879
G1 X108.065 Y83.121 E4895.47507
G1 X109.222 Y83.121 E4895.76432
G1 X116.879 Y90.778 E4898.47154
G1 X116.879 Y89.621 E4898.76079
G1 X110.379 Y83.121 E4901.05894
G1 X111.536 Y83.121 E4901.34819
G1 X116.879 Y88.464 E4903.23728
G1 X116.879 Y87.307 E4903.52653
G1 X112.693 Y83.121 E4905.00656
G1 X113.850 Y83.121 E4905.29581
G1 X116.879 Y86.150 E4906.36678
G1 X116.879 Y84.993 E4906.65603
G1 X115.007 Y83.121 E4907.31794
G1 X116.164 Y83.121 E4907.60719
G1 X116.879 Y83.836 E4907.86003
G1 Z5.600 F7800.000
G1 X116.164 Y116.879 F7800.000
G1 X116.879 Y116.164 E4908.11288 F4800.000
G1 X116.879 Y115.007 E4908.40213
G1 X115.007 Y116.879 E4909.06404
G1 X113.850 Y116.879 E4909.35329
G1 X116.879 Y113.850 E4910.42425
G1 X116.879 Y112.693 E4910.71350
G1 X112.693 Y116.879 E4912.19353
G1 X111.536 Y116.879 E4912.48278
G1 X116.879 Y111.536 E4914.37188
G1 X116.879 Y110.379 E4914.66113
G1 X110.379 Y116.879 E4916.95928
G1 X109.222 Y116.879 E4917.24853
G1 X116.879 Y109.222 E4919.95574
G1 X116.879 Y108.065 E4920.24499
G1 X108.065 Y116.879 E4923.36127
G1 X106.908 Y116.879 E4923.65052
G1 X116.879 Y106.908 E4927.17586
G1 X116.879 Y105.751 E4927.46511
G1 X105.751 Y116.879 E4931.39951
G1 X104.594 Y116.879 E4931.68876
G1 X116.879 Y104.594 E4936.03222
G1 X116.879 Y103.437 E4936.32147
G1 X103.437 Y116.879 E4941.07399
G1 X102.280 Y116.879 E4941.36324
G1 X116.879 Y102.280 E4946.52482
G1 X116.879 Y101.123 E4946.81407
G1 X101.123 Y116.879 E4952.38472
G1 X99.966 Y116.879 E4952.67397
G1 X116.879 Y99.966 E4958.65368
G1 X116.879 Y98.809 E4958.94293
G1 X98.809 Y116.879 E4965.33169
G1 X97.652 Y116.879 E4965.62094
G1 X116.879 Y97.652 E4972.41877
G1 X116.879 Y96.495 E4972.70802
G1 X96.495 Y116.879 E4979.91491
G1 X95.338 Y116.879 E4980.20416
G1 X116.879 Y95.338 E4987.82012
G1 X116.879 Y94.181 E4988.10937
G1 X94.181 Y116.879 E4996.13438
G1 X93.024 Y116.879 E4996.42363
G1 X116.879 Y93.024 E5004.85771
G1 X116.879 Y91.867 E5005.14696
G1 X91.867 Y116.879 E5013.99009
G1 X90.710 Y116.879 E5014.27934
G1 X116.879 Y90.710 E5023.53154
G1 X116.879 Y89.553 E5023.82079
G1 X89.553 Y116.879 E5033.48205
G1 X88.396 Y116.879 E5033.77130
G1 X116.879 Y88.396 E5043.84163
G1 X116.879 Y87.239 E5044.13088
G1 X87.239 Y116.879 E5054.61026
G1 X86.082 Y116.879 E5054.89951
G1 X116.879 Y86.082 E5065.78795
G1 X116.879 Y84.925 E5066.07720
G1 X84.925 Y116.879 E5077.37471
G1 X83.768 Y116.879 E5077.66396
G1 X116.879 Y83.768 E5089.37053
G1 X116.368 Y83.121 E5089.57646
G1 X83.121 Y116.368 E5101.33092
G1 X83.121 Y115.211 E5101.62017
G1 X115.211 Y83.121 E5112.96557
G1 X114.054 Y83.121 E5113.25482
G1 X83.121 Y114.054 E5124.19116
G1 X83.121 Y112.897 E5124.48041
G1 X112.897 Y83.121 E5135.00769
G1 X111.740 Y83.121 E5135.29694
G1 X83.121 Y111.740 E5145.41515
G1 X83.121 Y110.583 E5145.70440
G1 X110.583 Y83.121 E5155.41356
G1 X109.426 Y83.121 E5155.70281
G1 X83.121 Y109.426 E5165.00290
G1 X83.121 Y108.269 E5165.29215
G1 X108.269 Y83.121 E5174.18318
G1 X107.112 Y83.121 E5174.47243
G1 X83.121 Y107.112 E5182.95440
G1 X83.121 Y105.955 E5183.24365
G1 X105.955 Y83.121 E5191.31656
G1 X104.798 Y83.121 E5191.60581
G1 X83.121 Y104.798 E5199.26966
G1 X83.121 Y103.641 E5199.55891
G1 X103.641 Y83.121 E5206.81369
G1 X102.484 Y83.121 E5207.10294
G1 X83.121 Y102.484 E5213.94866
G1 X83.121 Y101.327 E5214.23792
G1 X101.327 Y83.121 E5220.67458
G1 X100.170 Y83.121 E5220.96383
G1 X83.121 Y100.170 E5226.99143
G1 X83.121 Y99.013 E5227.28068
G1 X99.013 Y83.121 E5232.89922
G1 X97.856 Y83.121 E5233.18847
G1 X83.121 Y97.856 E5238.39794
G1 X83.121 Y96.699 E5238.68719
G1 X96.699 Y83.121 E5243.48761
G1 X95.542 Y83.121 E5243.77686
G1 X83.121 Y95.542 E5248.16822
G1 X83.121 Y94.385 E5248.45747
G1 X94.385 Y83.121 E5252.43976
G1 X93.228 Y83.121 E5252.72901
G1 X83.121 Y93.228 E5256.30224
G1 X83.121 Y92.071 E5256.59149
G1 X92.071 Y83.121 E5259.75566
G1 X90.914 Y83.121 E5260.04491
G1 X83.121 Y90.914 E5262.80002
G1 X83.121 Y89.757 E5263.08927
G1 X89.757 Y83.121 E5265.43532
G1 X88.600 Y83.121 E5265.72457
G1 X83.121 Y88.600 E5267.66155
G1 X83.121 Y87.443 E5267.95080
G1 X87.443 Y83.121 E5269.47873
G1 X86.286 Y83.121 E5269.76798
G1 X83.121 Y86.286 E5270.88684
G1 X83.121 Y85.129 E5271.17609
G1 X85.129 Y83.121 E5271.88589
G1 X83.972 Y83.121 E5272.17514
G1 X83.121 Y83.972 E5272.47588
G1 Z6.000 F7800.000
G1 X83.972 Y116.879 F7800.000
G1 X83.121 Y116.028 E5272.77662 F4800.000
G1 X83.121 Y114.871 E5273.06587
G1 X85.129 Y116.879 E5273.77567
G1 X86.286 Y116.879 E5274.06492
G1 X83.121 Y113.714 E5275.18378
G1 X83.121 Y112.557 E5275.47303
G1 X87.443 Y116.879 E5277.00095
G1 X88.600 Y116.879 E5277.29020
G1 X83.121 Y111.400 E5279.22719
G1 X83.121 Y110.243 E5279.51644
G1 X89.757 Y116.879 E5281.86248
G1 X90.914 Y116.879 E5282.15173
G1 X83.121 Y109.086 E5284.90684
G1 X83.121 Y107.929 E5285.19609
G1 X92.071 Y116.879 E5288.36026
G1 X93.228 Y116.879 E5288.64951
G1 X83.121 Y106.772 E5292.22274
G1 X83.121 Y105.615 E5292.51199
G1 X94.385 Y116.879 E5296.49428
G1 X95.542 Y116.879 E5296.78353
G1 X83.121 Y104.458 E5301.17489
G1 X83.121 Y103.301 E5301.46414
G1 X96.699 Y116.879 E5306.26455
G1 X97.856 Y116.879 E5306.55380
G1 X83.121 Y102.144 E5311.76328
G1 X83.121 Y100.987 E5312.05253
G1 X99.013 Y116.879 E5317.67107
G1 X100.170 Y116.879 E5317.96032
G1 X83.121 Y99.830 E5323.98792
G1 X83.121 Y98.673 E5324.27717
G1 X101.327 Y116.879 E5330.71383
G1 X102.484 Y116.879 E5331.00308
G1 X83.121 Y97.516 E5337.84881
G1 X83.121 Y96.359 E5338.13806
G1 X103.641 Y116.879 E5345.39284
G1 X104.798 Y116.879 E5345.68209
G1 X83.121 Y95.202 E5353.34594
G1 X83.121 Y94.045 E5353.63519
G1 X105.955 Y116.879 E5361.70809
G1 X107.112 Y116.879 E5361.99734
G1 X83.121 Y92.888 E5370.47931
G1 X83.121 Y91.731 E5370.76856
G1 X108.269 Y116.879 E5379.65959
G1 X109.426 Y116.879 E5379.94884
G1 X83.121 Y90.574 E5389.24894
G1 X83.121 Y89.417 E5389.53819
G1 X110.583 Y116.879 E5399.24734
G1 X111.740 Y116.879 E5399.53659
G1 X83.121 Y88.260 E5409.65481
G1 X83.121 Y87.103 E5409.94406
G1 X112.897 Y116.879 E5420.47133
G1 X114.054 Y116.879 E5420.76058
G1 X83.121 Y85.946 E5431.69692
G1 X83.121 Y84.789 E5431.98617
G1 X115.211 Y116.879 E5443.33157
G1 X116.368 Y116.879 E5443.62082
G1 X83.121 Y83.632 E5455.37529
G1 X83.768 Y83.121 E5455.58121
G1 X116.879 Y116.232 E5467.28778
G1 X116.879 Y115.075 E5467.57703
G1 X84.925 Y83.121 E5478.87454
G1 X86.082 Y83.121 E5479.16379
G1 X116.879 Y113.918 E5490.05223
G1 X116.879 Y112.761 E5490.34148
G1 X87.239 Y83.121 E5500.82087
G1 X88.396 Y83.121 E5501.11012
G1 X116.879 Y111.604 E5511.18044
G1 X116.879 Y110.447 E5511.46969
G1 X89.553 Y83.121 E5521.13095
G1 X90.710 Y83.121 E5521.42020
G1 X116.879 Y109.290 E5530.67240
G1 X116.879 Y108.133 E5530.96165
G1 X91.867 Y83.121 E5539.80479
G1 X93.024 Y83.121 E5540.09404
G1 X116.879 Y106.976 E5548.52811
G1 X116.879 Y105.819 E5548.81736
G1 X94.181 Y83.121 E5556.84238
G1 X95.338 Y83.121 E5557.13163
G1 X116.879 Y104.662 E5564.74758
G1 X116.879 Y103.505 E5565.03683
G1 X96.495 Y83.121 E5572.24372
G1 X97.652 Y83.121 E5572.53297
G1 X116.879 Y102.348 E5579.33080
G1 X116.879 Y101.191 E5579.62005
G1 X98.809 Y83.121 E5586.00882
G1 X99.966 Y83.121 E5586.29807
G1 X116.879 Y100.034 E5592.27778
G1 X116.879 Y98.877 E5592.56703
G1 X101.123 Y83.121 E5598.13767
G1 X102.280 Y83.121 E5598.42692
G1 X116.879 Y97.720 E5603.58851
G1 X116.879 Y96.563 E5603.87776
G1 X103.437 Y83.121 E5608.63028
G1 X104.594 Y83.121 E5608.91953
G1 X116.879 Y95.406 E5613.26299
G1 X116.879 Y94.249 E5613.55224
G1 X105.751 Y83.121 E5617.48664
G1 X106.908 Y83.121 E5617.77589
G1 X116.879 Y93.092 E5621.30123
G1 X116.879 Y91.935 E5621.59048
G1 X108.065 Y83.121 E5624.70676
G1 X109.222 Y83.121 E5624.99601
G1 X116.879 Y90.778 E5627.70322
G1 X116.879 Y89.621 E5627.99247
G1 X110.379 Y83.121 E5630.29063
G1 X111.536 Y83.121 E5630.57988
G1 X116.879 Y88.464 E5632.46897
G1 X116.879 Y87.307 E5632.75822
G1 X112.693 Y83.121 E5634.23825
G1 X113.850 Y83.121 E5634.52750
G1 X116.879 Y86.150 E5635.59847
G1 X116.879 Y84.993 E5635.88772
G1 X115.007 Y83.121 E5636.54963
G1 X116.164 Y83.121 E5636.83888
G1 X116.879 Y83.836 E5637.09172
G1 Z6.400 F7800.000
G1 X116.164 Y116.879 F7800.000
G1 X116.879 Y116.164 E5637.34457 F4800.000
G1 X116.879 Y115.007 E5637.63382
G1 X115.007 Y116.879 E5638.29572
G1 X113.850 Y116.879 E5638.58497
G1 X116.879 Y113.850 E5639.65594
G1 X116.879 Y112.693 E5639.94519
G1 X112.693 Y116.879 E5641.42522
G1 X111.536 Y116.879 E5641.71447
G1 X116.879 Y111.536 E5643.60356
G1 X116.879 Y110.379 E5643.89281
G1 X110.379 Y116.879 E5646.19097
G1 X109.222 Y116.879 E5646.48022
G1 X116.879 Y109.222 E5649.18743
G1 X116.879 Y108.065 E5649.47668
G1 X108.065 Y116.879 E5652.59296
G1 X106.908 Y116.879 E5652.88221
G1 X116.879 Y106.908 E5656.40754
G1 X116.879 Y105.751 E5656.69679
G1 X105.751 Y116.879 E5660.63119
G1 X104.594 Y116.879 E5660.92044
G1 X116.879 Y104.594 E5665.26390
G1 X116.879 Y103.437 E5665.55315
G1 X103.437 Y116.879 E5670.30568
G1 X102.280 Y116.879 E5670.59493
G1 X116.879 Y102.280 E5675.75651
G1 X116.879 Y101.123 E5676.04576
G1 X101.123 Y116.879 E5681.61641
G1 X99.966 Y116.879 E5681.90566
G1 X116.879 Y99.966 E5687.88536
G1 X116.879 Y98.809 E5688.17461
G1 X98.809 Y116.879 E5694.56338
G1 X97.652 Y116.879 E5694.85263
G1 X116.879 Y97.652 E5701.65046
G1 X116.879 Y96.495 E5701.93971
G1 X96.495 Y116.879 E5709.14660
G1 X95.338 Y116.879 E5709.43585
G1 X116.879 Y95.338 E5717.05180
G1 X116.879 Y94.181 E5717.34105
G1 X94.181 Y116.879 E5725.36607
G1 X93.024 Y116.879 E5725.65532
G1 X116.879 Y93.024 E5734.08939
G1 X116.879 Y91.867 E5734.37864
G1 X91.867 Y116.879 E5743.22178
G1 X90.710 Y116.879 E5743.51103
G1 X116.879 Y90.710 E5752.76323
G1 X116.879 Y89.553 E5753.05248
G1 X89.553 Y116.879 E5762.71374
G1 X88.396 Y116.879 E5763.00299
G1 X116.879 Y88.396 E5773.07331
G1 X116.879 Y87.239 E5773.36256
G1 X87.239 Y116.879 E5783.84195
G1 X86.082 Y116.879 E5784.13120
G1 X116.879 Y86.082 E5795.01964
G1 X116.879 Y84.925 E5795.30889
G1 X84.925 Y116.879 E5806.60640
G1 X83.768 Y116.879 E5806.89565
G1 X116.879 Y83.768 E5818.60221
G1 X116.368 Y83.121 E5818.80814
G1 X83.121 Y116.368 E5830.56260
G1 X83.121 Y115.211 E5830.85185
G1 X115.211 Y83.121 E5842.19726
G1 X114.054 Y83.121 E5842.48651
G1 X83.121 Y114.054 E5853.42284
G1 X83.121 Y112.897 E5853.71209
G1 X112.897 Y83.121 E5864.23937
G1 X111.740 Y83.121 E5864.52862
G1 X83.121 Y111.740 E5874.64684
G1 X83.121 Y110.583 E5874.93609
G1 X110.583 Y83.121 E5884.64524
G1 X109.426 Y83.121 E5884.93449
G1 X83.121 Y109.426 E5894.23459
G1 X83.121 Y108.269 E5894.52384
G1 X108.269 Y83.121 E5903.41487
G1 X107.112 Y83.121 E5903.70412
G1 X83.121 Y107.112 E5912.18609
G1 X83.121 Y105.955 E5912.47534
G1 X105.955 Y83.121 E5920.54824
G1 X104.798 Y83.121 E5920.83750
G1 X83.121 Y104.798 E5928.50134
G1 X83.121 Y103.641 E5928.79059
G1 X103.641 Y83.121 E5936.04538
G1 X102.484 Y83.121 E5936.33463
G1 X83.121 Y102.484 E5943.18035
G1 X83.121 Y101.327 E5943.46960
G1 X101.327 Y83.121 E5949.90626
G1 X100.170 Y83.121 E5950.19551
G1 X83.121 Y100.170 E5956.22311
G1 X83.121 Y99.013 E5956.51236
G1 X99.013 Y83.121 E5962.13090
G1 X97.856 Y83.121 E5962.42015
G1 X83.121 Y97.856 E5967.62963
G1 X83.121 Y96.699 E5967.91888
G1 X96.699 Y83.121 E5972.71930
G1 X95.542 Y83.121 E5973.00855
G1 X83.121 Y95.542 E5977.39990
G1 X83.121 Y94.385 E5977.68915
G1 X94.385 Y83.121 E5981.67145
G1 X93.228 Y83.121 E5981.96070
G1 X83.121 Y93.228 E5985.53393
G1 X83.121 Y92.071 E5985.82318
G1 X92.071 Y83.121 E5988.98735
G1 X90.914 Y83.121 E5989.27660
G1 X83.121 Y90.914 E5992.03171
G1 X83.121 Y89.757 E5992.32096
G1 X89.757 Y83.121 E5994.66700
G1 X88.600 Y83.121 E5994.95625
G1 X83.121 Y88.600 E5996.89324
G1 X83.121 Y87.443 E5997.18249
G1 X87.443 Y83.121 E5998.71041
G1 X86.286 Y83.121 E5998.99966
G1 X83.121 Y86.286 E6000.11852
G1 X83.121 Y85.129 E6000.40777
G1 X85.129 Y83.121 E6001.11757
G1 X83.972 Y83.121 E6001.40682
G1 X83.121 Y83.972 E6001.70756
G1 Z6.800 F7800.000
G1 X83.972 Y116.879 F7800.000
G1 X83.121 Y116.028 E6002.00830 F4800.000
G1 X83.121 Y114.871 E6002.29755
G1 X85.129 Y116.879 E6003.00735
G1 X86.286 Y116.879 E6003.29660
G1 X83.121 Y113.714 E6004.41547
G1 X83.121 Y112.557 E6004.70472
G1 X87.443 Y116.879 E6006.23264
G1 X88.600 Y116.879 E6006.52189
G1 X83.121 Y111.400 E6008.45887
G1 X83.121 Y110.243 E6008.74812
G1 X89.757 Y116.879 E6011.09417
G1 X90.914 Y116.879 E6011.38342
G1 X83.121 Y109.086 E6014.13853
G1 X83.121 Y107.929 E6014.42778
G1 X92.071 Y116.879 E6017.59195
G1 X93.228 Y116.879 E6017.88120
G1 X83.121 Y106.772 E6021.45443
G1 X83.121 Y105.615 E6021.74368
G1 X94.385 Y116.879 E6025.72597
G1 X95.542 Y116.879 E6026.01522
G1 X83.121 Y104.458 E6030.40657
G1 X83.121 Y103.301 E6030.69582
G1 X96.699 Y116.879 E6035.49624
G1 X97.856 Y116.879 E6035.78549
G1 X83.121 Y102.144 E6040.99497
G1 X83.121 Y100.987 E6041.28422
G1 X99.013 Y116.879 E6046.90276
G1 X100.170 Y116.879 E6047.19201
G1 X83.121 Y99.830 E6053.21961
G1 X83.121 Y98.673 E6053.50886
G1 X101.327 Y116.879 E6059.94552
G1 X102.484 Y116.879 E6060.23477
G1 X83.121 Y97.516 E6067.08049
G1 X83.121 Y96.359 E6067.36974
G1 X103.641 Y116.879 E6074.62453
G1 X104.798 Y116.879 E6074.91378
G1 X83.121 Y95.202 E6082.57762
G1 X83.121 Y94.045 E6082.86687
G1 X105.955 Y116.879 E6090.93978
G1 X107.112 Y116.879 E6091.22903
G1 X83.121 Y92.888 E6099.71100
G1 X83.121 Y91.731 E6100.00025
G1 X108.269 Y116.879 E6108.89128
G1 X109.426 Y116.879 E6109.18053
G1 X83.121 Y90.574 E6118.48062
G1 X83.121 Y89.417 E6118.76987
G1 X110.583 Y116.879 E6128.47903
G1 X111.740 Y116.879 E6128.76828
G1 X83.121 Y88.260 E6138.88649
G1 X83.121 Y87.103 E6139.17574
G1 X112.897 Y116.879 E6149.70302
G1 X114.054 Y116.879 E6149.99227
G1 X83.121 Y85.946 E6160.92861
G1 X83.121 Y84.789 E6161.21786
G1 X115.211 Y116.879 E6172.56326
G1 X116.368 Y116.879 E6172.85251
G1 X83.121 Y83.632 E6184.60697
G1 X83.768 Y83.121 E6184.81290
G1 X116.879 Y116.232 E6196.51947
G1 X116.879 Y115.075 E6196.80872
G1 X84.925 Y83.121 E6208.10622
G1 X86.082 Y83.121 E6208.39547
G1 X116.879 Y113.918 E6219.28392
G1 X116.879 Y112.761 E6219.57317
G1 X87.239 Y83.121 E6230.05255
G1 X88.396 Y83.121 E6230.34180
G1 X116.879 Y111.604 E6240.41213
G1 X116.879 Y110.447 E6240.70138
G1 X89.553 Y83.121 E6250.36264
G1 X90.710 Y83.121 E6250.65189
G1 X116.879 Y109.290 E6259.90409
G1 X116.879 Y108.133 E6260.19334
G1 X91.867 Y83.121 E6269.03647
G1 X93.024 Y83.121 E6269.32572
G1 X116.879 Y106.976 E6277.75980
G1 X116.879 Y105.819 E6278.04905
G1 X94.181 Y83.121 E6286.07407
G1 X95.338 Y83.121 E6286.36332
G1 X116.879 Y104.662 E6293.97927
G1 X116.879 Y103.505 E6294.26852
G1 X96.495 Y83.121 E6301.47541
G1 X97.652 Y83.121 E6301.76466
G1 X116.879 Y102.348 E6308.56249
G1 X116.879 Y101.191 E6308.85174
G1 X98.809 Y83.121 E6315.24051
G1 X99.966 Y83.121 E6315.52976
G1 X116.879 Y100.034 E6321.50946
G1 X116.879 Y98.877 E6321.79872
G1 X101.123 Y83.121 E6327.36936
G1 X102.280 Y83.121 E6327.65861
G1 X116.879 Y97.720 E6332.82020
G1 X116.879 Y96.563 E6333.10945
G1 X103.437 Y83.121 E6337.86197
G1 X104.594 Y83.121 E6338.15122
G1 X116.879 Y95.406 E6342.49468
G1 X116.879 Y94.249 E6342.78393
G1 X105.751 Y83.121 E6346.71833
G1 X106.908 Y83.121 E6347.00758
G1 X116.879 Y93.092 E6350.53292
G1 X116.879 Y91.935 E6350.82217
G1 X108.065 Y83.121 E6353.93844
G1 X109.222 Y83.121 E6354.22769
G1 X116.879 Y90.778 E6356.93491
G1 X116.879 Y89.621 E6357.22416
G1 X110.379 Y83.121 E6359.52231
G1 X111.536 Y83.121 E6359.81156
G1 X116.879 Y88.464 E6361.70066
G1 X116.879 Y87.307 E6361.98991
G1 X112.693 Y83.121 E6363.46994
G1 X113.850 Y83.121 E6363.75919
G1 X116.879 Y86.150 E6364.83015
G1 X116.879 Y84.993 E6365.11940
G1 X115.007 Y83.121 E6365.78131
G1 X116.164 Y83.121 E6366.07056
G1 X116.879 Y83.836 E6366.32341
G1 Z7.200 F7800.000
G1 X116.164 Y116.879 F7800.000
G1 X116.879 Y116.164 E6366.57625 F4800.000
G1 X116.879 Y115.007 E6366.86550
G1 X115.007 Y116.879 E6367.52741
G1 X113.850 Y116.879 E6367.81666
G1 X116.879 Y113.850 E6368.88763
G1 X116.879 Y112.693 E6369.17688
G1 X112.693 Y116.879 E6370.65691
G1 X111.536 Y116.879 E6370.94616
G1 X116.879 Y111.536 E6372.83525
G1 X116.879 Y110.379 E6373.12450
G1 X110.379 Y116.879 E6375.42265
G1 X109.222 Y116.879 E6375.71190
G1 X116.879 Y109.222 E6378.41912
G1 X116.879 Y108.065 E6378.70837
G1 X108.065 Y116.879 E6381.82464
G1 X106.908 Y116.879 E6382.11389
G1 X116.879 Y106.908 E6385.63923
G1 X116.879 Y105.751 E6385.92848
G1 X105.751 Y116.879 E6389.86288
G1 X104.594 Y116.879 E6390.15213
G1 X116.879 Y104.594 E6394.49559
G1 X116.879 Y103.437 E6394.78484
G1 X103.437 Y116.879 E6399.53736
G1 X102.280 Y116.879 E6399.82661
G1 X116.879 Y102.280 E6404.98820
G1 X116.879 Y101.123 E6405.27745
G1 X101.123 Y116.879 E6410.84809
G1 X99.966 Y116.879 E6411.13734
G1 X116.879 Y99.966 E6417.11705
G1 X116.879 Y98.809 E6417.40630
G1 X98.809 Y116.879 E6423.79507
G1 X97.652 Y116.879 E6424.08432
G1 X116.879 Y97.652 E6430.88215
G1 X116.879 Y96.495 E6431.17140
G1 X96.495 Y116.879 E6438.37829
G1 X95.338 Y116.879 E6438.66754
G1 X116.879 Y95.338 E6446.28349
G1 X116.879 Y94.181 E6446.57274
G1 X94.181 Y116.879 E6454.59775
G1 X93.024 Y116.879 E6454.88700
G1 X116.879 Y93.024 E6463.32108
G1 X116.879 Y91.867 E6463.61033
G1 X91.867 Y116.879 E6472.45347
G1 X90.710 Y116.879 E6472.74272
G1 X116.879 Y90.710 E6481.99492
G1 X116.879 Y89.553 E6482.28417
G1 X89.553 Y116.879 E6491.94543
G1 X88.396 Y116.879 E6492.23468
G1 X116.879 Y88.396 E6502.30500
G1 X116.879 Y87.239 E6502.59425
G1 X87.239 Y116.879 E6513.07363
G1 X86.082 Y116.879 E6513.36288
G1 X116.879 Y86.082 E6524.25133
G1 X116.879 Y84.925 E6524.54058
G1 X84.925 Y116.879 E6535.83808
G1 X83.768 Y116.879 E6536.12733
G1 X116.879 Y83.768 E6547.83390
G1 X116.368 Y83.121 E6548.03983
G1 X83.121 Y116.368 E6559.79429
G1 X83.121 Y115.211 E6560.08354
G1 X115.211 Y83.121 E6571.42894
G1 X114.054 Y83.121 E6571.71819
G1 X83.121 Y114.054 E6582.65453
G1 X83.121 Y112.897 E6582.94378
G1 X112.897 Y83.121 E6593.47106
G1 X111.740 Y83.121 E6593.76031
G1 X83.121 Y111.740 E6603.87852
G1 X83.121 Y110.583 E6604.16778
G1 X110.583 Y83.121 E6613.87693
G1 X109.426 Y83.121 E6614.16618
G1 X83.121 Y109.426 E6623.46627
G1 X83.121 Y108.269 E6623.75552
G1 X108.269 Y83.121 E6632.64655
G1 X107.112 Y83.121 E6632.93580
G1 X83.121 Y107.112 E6641.41777
G1 X83.121 Y105.955 E6641.70702
G1 X105.955 Y83.121 E6649.77993
G1 X104.798 Y83.121 E6650.06918
G1 X83.121 Y104.798 E6657.73303
G1 X83.121 Y103.641 E6658.02228
G1 X103.641 Y83.121 E6665.27706
G1 X102.484 Y83.121 E6665.56631
G1 X83.121 Y102.484 E6672.41204
G1 X83.121 Y101.327 E6672.70129
G1 X101.327 Y83.121 E6679.13795
G1 X100.170 Y83.121 E6679.42720
G1 X83.121 Y100.170 E6685.45480
G1 X83.121 Y99.013 E6685.74405
G1 X99.013 Y83.121 E6691.36259
G1 X97.856 Y83.121 E6691.65184
G1 X83.121 Y97.856 E6696.86132
G1 X83.121 Y96.699 E6697.15057
G1 X96.699 Y83.121 E6701.95098
G1 X95.542 Y83.121 E6702.24023
G1 X83.121 Y95.542 E6706.63159
G1 X83.121 Y94.385 E6706.92084
G1 X94.385 Y83.121 E6710.90313
G1 X93.228 Y83.121 E6711.19238
G1 X83.121 Y93.228 E6714.76561
G1 X83.121 Y92.071 E6715.05486
G1 X92.071 Y83.121 E6718.21903
G1 X90.914 Y83.121 E6718.50828
G1 X83.121 Y90.914 E6721.26339
G1 X83.121 Y89.757 E6721.55264
G1 X89.757 Y83.121 E6723.89869
G1 X88.600 Y83.121 E6724.18794
G1 X83.121 Y88.600 E6726.12492
G1 X83.121 Y87.443 E6726.41417
G1 X87.443 Y83.121 E6727.94210
G1 X86.286 Y83.121 E6728.23135
G1 X83.121 Y86.286 E6729.35021
G1 X83.121 Y85.129 E6729.63946
G1 X85.129 Y83.121 E6730.34926
G1 X83.972 Y83.121 E6730.63851
G1 X83.121 Y83.972 E6730.93925
G1 Z7.600 F7800.000
G1 X83.972 Y116.879 F7800.000
G1 X83.121 Y116.028 E6731.23999 F4800.000
G1 X83.121 Y114.871 E6731.52924
G1 X85.129 Y116.879 E6732.23904
G1 X86.286 Y116.879 E6732.52829
G1 X83.121 Y113.714 E6733.64715
G1 X83.121 Y112.557 E6733.93640
G1 X87.443 Y116.879 E6735.46432
G1 X88.600 Y116.879 E6735.75357
G1 X83.121 Y111.400 E6737.69056
G1 X83.121 Y110.243 E6737.97981
G1 X89.757 Y116.879 E6740.32586
G1 X90.914 Y116.879 E6740.61511
G1 X83.121 Y109.086 E6743.37021
G1 X83.121 Y107.929 E6743.65946
G1 X92.071 Y116.879 E6746.82363
G1 X93.228 Y116.879 E6747.11288
G1 X83.121 Y106.772 E6750.68611
G1 X83.121 Y105.615 E6750.97536
G1 X94.385 Y116.879 E6754.95766
G1 X95.542 Y116.879 E6755.24691
G1 X83.121 Y104.458 E6759.63826
G1 X83.121 Y103.301 E6759.92751
G1 X96.699 Y116.879 E6764.72793
G1 X97.856 Y116.879 E6765.01718
G1 X83.121 Y102.144 E6770.22665
G1 X83.121 Y100.987 E6770.51590
G1 X99.013 Y116.879 E6776.13444
G1 X100.170 Y116.879 E6776.42369
G1 X83.121 Y99.830 E6782.45129
G1 X83.121 Y98.673 E6782.74054
G1 X101.327 Y116.879 E6789.17721
G1 X102.484 Y116.879 E6789.46646
G1 X83.121 Y97.516 E6796.31218
G1 X83.121 Y96.359 E6796.60143
G1 X103.641 Y116.879 E6803.85621
G1 X104.798 Y116.879 E6804.14546
G1 X83.121 Y95.202 E6811.80931
G1 X83.121 Y94.045 E6812.09856
G1 X105.955 Y116.879 E6820.17147
G1 X107.112 Y116.879 E6820.46072
G1 X83.121 Y92.888 E6828.94269
G1 X83.121 Y91.731 E6829.23194
G1 X108.269 Y116.879 E6838.12297
G1 X109.426 Y116.879 E6838.41222
G1 X83.121 Y90.574 E6847.71231
G1 X83.121 Y89.417 E6848.00156
G1 X110.583 Y116.879 E6857.71071
G1 X111.740 Y116.879 E6857.99996
G1 X83.121 Y88.260 E6868.11818
G1 X83.121 Y87.103 E6868.40743
G1 X112.897 Y116.879 E6878.93471
G1 X114.054 Y116.879 E6879.22396
G1 X83.121 Y85.946 E6890.16030
G1 X83.121 Y84.789 E6890.44955
G1 X115.211 Y116.879 E6901.79495
G1 X116.368 Y116.879 E6902.08420
G1 X83.121 Y83.632 E6913.83866
G1 X83.768 Y83.121 E6914.04459
G1 X116.879 Y116.232 E6925.75115
G1 X116.879 Y115.075 E6926.04040
G1 X84.925 Y83.121 E6937.33791
G1 X86.082 Y83.121 E6937.62716
G1 X116.879 Y113.918 E6948.51561
G1 X116.879 Y112.761 E6948.80486
G1 X87.239 Y83.121 E6959.28424
G1 X88.396 Y83.121 E6959.57349
G1 X116.879 Y111.604 E6969.64381
G1 X116.879 Y110.447 E6969.93306
G1 X89.553 Y83.121 E6979.59432
G1 X90.710 Y83.121 E6979.88357
G1 X116.879 Y109.290 E6989.13577
G1 X116.879 Y108.133 E6989.42502
G1 X91.867 Y83.121 E6998.26816
G1 X93.024 Y83.121 E6998.55741
G1 X116.879 Y106.976 E7006.99149
G1 X116.879 Y105.819 E7007.28074
G1 X94.181 Y83.121 E7015.30575
G1 X95.338 Y83.121 E7015.59500
G1 X116.879 Y104.662 E7023.21095
G1 X116.879 Y103.505 E7023.50020
G1 X96.495 Y83.121 E7030.70710
G1 X97.652 Y83.121 E7030.99635
G1 X116.879 Y102.348 E7037.79418
G1 X116.879 Y101.191 E7038.08343
G1 X98.809 Y83.121 E7044.47219
G1 X99.966 Y83.121 E7044.76144
G1 X116.879 Y100.034 E7050.74115
G1 X116.879 Y98.877 E7051.03040
G1 X101.123 Y83.121 E7056.60105
G1 X102.280 Y83.121 E7056.89030
G1 X116.879 Y97.720 E7062.05188
G1 X116.879 Y96.563 E7062.34113
G1 X103.437 Y83.121 E7067.09365
G1 X104.594 Y83.121 E7067.38290
G1 X116.879 Y95.406 E7071.72637
G1 X116.879 Y94.249 E7072.01562
G1 X105.751 Y83.121 E7075.95002
G1 X106.908 Y83.121 E7076.23927
G1 X116.879 Y93.092 E7079.76460
G1 X116.879 Y91.935 E7080.05385
G1 X108.065 Y83.121 E7083.17013
G1 X109.222 Y83.121 E7083.45938
G1 X116.879 Y90.778 E7086.16660
G1 X116.879 Y89.621 E7086.45585
G1 X110.379 Y83.121 E7088.75400
G1 X111.536 Y83.121 E7089.04325
G1 X116.879 Y88.464 E7090.93234
G1 X116.879 Y87.307 E7091.22159
G1 X112.693 Y83.121 E7092.70162
G1 X113.850 Y83.121 E7092.99087
G1 X116.879 Y86.150 E7094.06184
G1 X116.879 Y84.993 E7094.35109
G1 X115.007 Y83.121 E7095.01300
G1 X116.164 Y83.121 E7095.30225
G1 X116.879 Y83.836 E7095.55509
G1 Z8.000 F7800.000
G1 X116.164 Y116.879 F7800.000
G1 X116.879 Y116.164 E7095.80794 F4800.000
G1 X116.879 Y115.007 E7096.09719
G1 X115.007 Y116.879 E7096.75910
G1 X113.850 Y116.879 E7097.04835
G1 X116.879 Y113.850 E7098.11931
G1 X116.879 Y112.693 E7098.40856
G1 X112.693 Y116.879 E7099.88859
G1 X111.536 Y116.879 E7100.17784
G1 X116.879 Y111.536 E7102.06694
G1 X116.879 Y110.379 E7102.35619
G1 X110.379 Y116.879 E7104.65434
G1 X109.222 Y116.879 E7104.94359
G1 X116.879 Y109.222 E7107.65080
G1 X116.879 Y108.065 E7107.94005
G1 X108.065 Y116.879 E7111.05633
G1 X106.908 Y116.879 E7111.34558
G1 X116.879 Y106.908 E7114.87092
G1 X116.879 Y105.751 E7115.16017
G1 X105.751 Y116.879 E7119.09457
G1 X104.594 Y116.879 E7119.38382
G1 X116.879 Y104.594 E7123.72728
G1 X116.879 Y103.437 E7124.01653
G1 X103.437 Y116.879 E7128.76905
G1 X102.280 Y116.879 E7129.05830
G1 X116.879 Y102.280 E7134.21988
G1 X116.879 Y101.123 E7134.50913
G1 X101.123 Y116.879 E7140.07978
G1 X99.966 Y116.879 E7140.36903
G1 X116.879 Y99.966 E7146.34874
G1 X116.879 Y98.809 E7146.63799
G1 X98.809 Y116.879 E7153.02675
G1 X97.652 Y116.879 E7153.31600
G1 X116.879 Y97.652 E7160.11383
G1 X116.879 Y96.495 E7160.40308
G1 X96.495 Y116.879 E7167.60997
G1 X95.338 Y116.879 E7167.89922
G1 X116.879 Y95.338 E7175.51518
G1 X116.879 Y94.181 E7175.80443
G1 X94.181 Y116.879 E7183.82944
G1 X93.024 Y116.879 E7184.11869
G1 X116.879 Y93.024 E7192.55277
G1 X116.879 Y91.867 E7192.84202
G1 X91.867 Y116.879 E7201.68515
G1 X90.710 Y116.879 E7201.97440
G1 X116.879 Y90.710 E7211.22660
G1 X116.879 Y89.553 E7211.51585
G1 X89.553 Y116.879 E7221.17711
G1 X88.396 Y116.879 E7221.46636
G1 X116.879 Y88.396 E7231.53668
G1 X116.879 Y87.239 E7231.82594
G1 X87.239 Y116.879 E7242.30532
G1 X86.082 Y116.879 E7242.59457
G1 X116.879 Y86.082 E7253.48301
G1 X116.879 Y84.925 E7253.77226
G1 X84.925 Y116.879 E7265.06977
G1 X83.768 Y116.879 E7265.35902
G1 X116.879 Y83.768 E7277.06559
G1 X116.368 Y83.121 E7277.27152
G1 X83.121 Y116.368 E7289.02598
G1 X83.121 Y115.211 E7289.31523
G1 X115.211 Y83.121 E7300.66063
G1 X114.054 Y83.121 E7300.94988
G1 X83.121 Y114.054 E7311.88622
G1 X83.121 Y112.897 E7312.17547
G1 X112.897 Y83.121 E7322.70275
G1 X111.740 Y83.121 E7322.99200
G1 X83.121 Y111.740 E7333.11021
G1 X83.121 Y110.583 E7333.39946
G1 X110.583 Y83.121 E7343.10862
G1 X109.426 Y83.121 E7343.39787
G1 X83.121 Y109.426 E7352.69796
G1 X83.121 Y108.269 E7352.98721
G1 X108.269 Y83.121 E7361.87824
G1 X107.112 Y83.121 E7362.16749
G1 X83.121 Y107.112 E7370.64946
G1 X83.121 Y105.955 E7370.93871
G1 X105.955 Y83.121 E7379.01162
G1 X104.798 Y83.121 E7379.30087
G1 X83.121 Y104.798 E7386.96472
G1 X83.121 Y103.641 E7387.25397
G1 X103.641 Y83.121 E7394.50875
G1 X102.484 Y83.121 E7394.79800
G1 X83.121 Y102.484 E7401.64372
G1 X83.121 Y101.327 E7401.93297
G1 X101.327 Y83.121 E7408.36964
G1 X100.170 Y83.121 E7408.65889
G1 X83.121 Y100.170 E7414.68649
G1 X83.121 Y99.013 E7414.97574
G1 X99.013 Y83.121 E7420.59428
G1 X97.856 Y83.121 E7420.88353
G1 X83.121 Y97.856 E7426.09300
G1 X83.121 Y96.699 E7426.38225
G1 X96.699 Y83.121 E7431.18267
G1 X95.542 Y83.121 E7431.47192
G1 X83.121 Y95.542 E7435.86328
G1 X83.121 Y94.385 E7436.15253
G1 X94.385 Y83.121 E7440.13482
G1 X93.228 Y83.121 E7440.42407
G1 X83.121 Y93.228 E7443.99730
G1 X83.121 Y92.071 E7444.28655
G1 X92.071 Y83.121 E7447.45072
G1 X90.914 Y83.121 E7447.73997
G1 X83.121 Y90.914 E7450.49508
G1 X83.121 Y89.757 E7450.78433
G1 X89.757 Y83.121 E7453.13038
G1 X88.600 Y83.121 E7453.41963
G1 X83.121 Y88.600 E7455.35661
G1 X83.121 Y87.443 E7455.64586
G1 X87.443 Y83.121 E7457.17378
G1 X86.286 Y83.121 E7457.46303
G1 X83.121 Y86.286 E7458.58190
G1 X83.121 Y85.129 E7458.87115
G1 X85.129 Y83.121 E7459.58095
G1 X83.972 Y83.121 E7459.87020
G1 X83.121 Y83.972 E7460.17094
G1 Z8.400 F7800.000
G1 X83.972 Y116.879 F7800.000
G1 X83.121 Y116.028 E7460.47168 F4800.000
G1 X83.121 Y114.871 E7460.76093
G1 X85.129 Y116.879 E7461.47073
G1 X86.286 Y116.879 E7461.75998
G1 X83.121 Y113.714 E7462.87884
G1 X83.121 Y112.557 E7463.16809
G1 X87.443 Y116.879 E7464.69601
G1 X88.600 Y116.879 E7464.98526
G1 X83.121 Y111.400 E7466.92225
G1 X83.121 Y110.243 E7467.21150
G1 X89.757 Y116.879 E7469.55754
G1 X90.914 Y116.879 E7469.84679
G1 X83.121 Y109.086 E7472.60190
G1 X83.121 Y107.929 E7472.89115
G1 X92.071 Y116.879 E7476.05532
G1 X93.228 Y116.879 E7476.34457
G1 X83.121 Y106.772 E7479.91780
G1 X83.121 Y105.615 E7480.20705
G1 X94.385 Y116.879 E7484.18934
G1 X95.542 Y116.879 E7484.47859
G1 X83.121 Y104.458 E7488.86995
G1 X83.121 Y103.301 E7489.15920
G1 X96.699 Y116.879 E7493.95961
G1 X97.856 Y116.879 E7494.24886
G1 X83.121 Y102.144 E7499.45834
G1 X83.121 Y100.987 E7499.74759
G1 X99.013 Y116.879 E7505.36613
G1 X100.170 Y116.879 E7505.65538
G1 X83.121 Y99.830 E7511.68298
G1 X83.121 Y98.673 E7511.97223
G1 X101.327 Y116.879 E7518.40889
G1 X102.484 Y116.879 E7518.69814
G1 X83.121 Y97.516 E7525.54387
G1 X83.121 Y96.359 E7525.83312
G1 X103.641 Y116.879 E7533.08790
G1 X104.798 Y116.879 E7533.37715
G1 X83.121 Y95.202 E7541.04100
G1 X83.121 Y94.045 E7541.33025
G1 X105.955 Y116.879 E7549.40315
G1 X107.112 Y116.879 E7549.69240
G1 X83.121 Y92.888 E7558.17437
G1 X83.121 Y91.731 E7558.46362
G1 X108.269 Y116.879 E7567.35465
G1 X109.426 Y116.879 E7567.64390
G1 X83.121 Y90.574 E7576.94400
G1 X83.121 Y89.417 E7577.23325
G1 X110.583 Y116.879 E7586.94240
G1 X111.740 Y116.879 E7587.23165
G1 X83.121 Y88.260 E7597.34987
G1 X83.121 Y87.103 E7597.63912
G1 X112.897 Y116.879 E7608.16639
G1 X114.054 Y116.879 E7608.45564
G1 X83.121 Y85.946 E7619.39198
G1 X83.121 Y84.789 E7619.68123
G1 X115.211 Y116.879 E7631.02663
G1 X116.368 Y116.879 E7631.31588
G1 X83.121 Y83.632 E7643.07035
G1 X83.768 Y83.121 E7643.27627
G1 X116.879 Y116.232 E7654.98284
G1 X116.879 Y115.075 E7655.27209
G1 X84.925 Y83.121 E7666.56960
G1 X86.082 Y83.121 E7666.85885
G1 X116.879 Y113.918 E7677.74729
G1 X116.879 Y112.761 E7678.03654
G1 X87.239 Y83.121 E7688.51593
G1 X88.396 Y83.121 E7688.80518
G1 X116.879 Y111.604 E7698.87550
G1 X116.879 Y110.447 E7699.16475
G1 X89.553 Y83.121 E7708.82601
G1 X90.710 Y83.121 E7709.11526
G1 X116.879 Y109.290 E7718.36746
G1 X116.879 Y108.133 E7718.65671
G1 X91.867 Y83.121 E7727.49985
G1 X93.024 Y83.121 E7727.78910
G1 X116.879 Y106.976 E7736.22317
G1 X116.879 Y105.819 E7736.51242
G1 X94.181 Y83.121 E7744.53744
G1 X95.338 Y83.121 E7744.82669
G1 X116.879 Y104.662 E7752.44264
G1 X116.879 Y103.505 E7752.73189
G1 X96.495 Y83.121 E7759.93878
G1 X97.652 Y83.121 E7760.22803
G1 X116.879 Y102.348 E7767.02586
G1 X116.879 Y101.191 E7767.31511
G1 X98.809 Y83.121 E7773.70388
G1 X99.966 Y83.121 E7773.99313
G1 X116.879 Y100.034 E7779.97284
G1 X116.879 Y98.877 E7780.26209
G1 X101.123 Y83.121 E7785.83273
G1 X102.280 Y83.121 E7786.12198
G1 X116.879 Y97.720 E7791.28357
G1 X116.879 Y96.563 E7791.57282
G1 X103.437 Y83.121 E7796.32534
G1 X104.594 Y83.121 E7796.61459
G1 X116.879 Y95.406 E7800.95805
G1 X116.879 Y94.249 E7801.24730
G1 X105.751 Y83.121 E7805.18170
G1 X106.908 Y83.121 E7805.47095
G1 X116.879 Y93.092 E7808.99629
G1 X116.879 Y91.935 E7809.28554
G1 X108.065 Y83.121 E7812.40182
G1 X109.222 Y83.121 E7812.69107
G1 X116.879 Y90.778 E7815.39828
G1 X116.879 Y89.621 E7815.68753
G1 X110.379 Y83.121 E7817.98569
G1 X111.536 Y83.121 E7818.27494
G1 X116.879 Y88.464 E7820.16403
G1 X116.879 Y87.307 E7820.45328
G1 X112.693 Y83.121 E7821.93331
G1 X113.850 Y83.121 E7822.22256
G1 X116.879 Y86.150 E7823.29353
G1 X116.879 Y84.993 E7823.58278
G1 X115.007 Y83.121 E7824.24469
G1 X116.164 Y83.121 E7824.53394
G1 X116.879 Y83.836 E7824.78678
G1 Z8.800 F7800.000
G1 X116.164 Y116.879 F7800.000
G1 X116.879 Y116.164 E7825.03963 F4800.000
G1 X116.879 Y115.007 E7825.32888
G1 X115.007 Y116.879 E7825.99078
G1 X113.850 Y116.879 E7826.28003
G1 X116.879 Y113.850 E7827.35100
G1 X116.879 Y112.693 E7827.64025
G1 X112.693 Y116.879 E7829.12028
G1 X111.536 Y116.879 E7829.40953
G1 X116.879 Y111.536 E7831.29862
G1 X116.879 Y110.379 E7831.58787
G1 X110.379 Y116.879 E7833.88603
G1 X109.222 Y116.879 E7834.17528
G1 X116.879 Y109.222 E7836.88249
G1 X116.879 Y108.065 E7837.17174
G1 X108.065 Y116.879 E7840.28802
G1 X106.908 Y116.879 E7840.57727
G1 X116.879 Y106.908 E7844.10260
G1 X116.879 Y105.751 E7844.39185
G1 X105.751 Y116.879 E7848.32625
G1 X104.594 Y116.879 E7848.61550
G1 X116.879 Y104.594 E7852.95896
G1 X116.879 Y103.437 E7853.24821
G1 X103.437 Y116.879 E7858.00074
G1 X102.280 Y116.879 E7858.28999
G1 X116.879 Y102.280 E7863.45157
G1 X116.879 Y101.123 E7863.74082
G1 X101.123 Y116.879 E7869.31147
G1 X99.966 Y116.879 E7869.60072
G1 X116.879 Y99.966 E7875.58042
G1 X116.879 Y98.809 E7875.86967
G1 X98.809 Y116.879 E7882.25844
G1 X97.652 Y116.879 E7882.54769
G1 X116.879 Y97.652 E7889.34552
G1 X116.879 Y96.495 E7889.63477
G1 X96.495 Y116.879 E7896.84166
G1 X95.338 Y116.879 E7897.13091
G1 X116.879 Y95.338 E7904.74686
G1 X116.879 Y94.181 E7905.03611
G1 X94.181 Y116.879 E7913.06113
G1 X93.024 Y116.879 E7913.35038
G1 X116.879 Y93.024 E7921.78445
G1 X116.879 Y91.867 E7922.07370
G1 X91.867 Y116.879 E7930.91684
G1 X90.710 Y116.879 E7931.20609
G1 X116.879 Y90.710 E7940.45829
G1 X116.879 Y89.553 E7940.74754
G1 X89.553 Y116.879 E7950.40880
G1 X88.396 Y116.879 E7950.69805
G1 X116.879 Y88.396 E7960.76837
G1 X116.879 Y87.239 E7961.05762
G1 X87.239 Y116.879 E7971.53700
G1 X86.082 Y116.879 E7971.82626
G1 X116.879 Y86.082 E7982.71470
G1 X116.879 Y84.925 E7983.00395
G1 X84.925 Y116.879 E7994.30146
G1 X83.768 Y116.879 E7994.59071
G1 X116.879 Y83.768 E8006.29727
G1 X116.368 Y83.121 E8006.50320
G1 X83.121 Y116.368 E8018.25766
G1 X83.121 Y115.211 E8018.54691
G1 X115.211 Y83.121 E8029.89232
G1 X114.054 Y83.121 E8030.18157
G1 X83.121 Y114.054 E8041.11790
G1 X83.121 Y112.897 E8041.40715
G1 X112.897 Y83.121 E8051.93443
G1 X111.740 Y83.121 E8052.22368
G1 X83.121 Y111.740 E8062.34190
G1 X83.121 Y110.583 E8062.63115
G1 X110.583 Y83.121 E8072.34030
G1 X109.426 Y83.121 E8072.62955
G1 X83.121 Y109.426 E8081.92965
G1 X83.121 Y108.269 E8082.21890
G1 X108.269 Y83.121 E8091.10993
G1 X107.112 Y83.121 E8091.39918
G1 X83.121 Y107.112 E8099.88115
G1 X83.121 Y105.955 E8100.17040
G1 X105.955 Y83.121 E8108.24330
G1 X104.798 Y83.121 E8108.53255
G1 X83.121 Y104.798 E8116.19640
G1 X83.121 Y103.641 E8116.48565
G1 X103.641 Y83.121 E8123.74044
G1 X102.484 Y83.121 E8124.02969
G1 X83.121 Y102.484 E8130.87541
G1 X83.121 Y101.327 E8131.16466
G1 X101.327 Y83.121 E8137.60132
G1 X100.170 Y83.121 E8137.89057
G1 X83.121 Y100.170 E8143.91817
G1 X83.121 Y99.013 E8144.20742
G1 X99.013 Y83.121 E8149.82596
G1 X97.856 Y83.121 E8150.11521
G1 X83.121 Y97.856 E8155.32469
G1 X83.121 Y96.699 E8155.61394
G1 X96.699 Y83.121 E8160.41436
G1 X95.542 Y83.121 E8160.70361
G1 X83.121 Y95.542 E8165.09496
G1 X83.121 Y94.385 E8165.38421
G1 X94.385 Y83.121 E8169.36651
G1 X93.228 Y83.121 E8169.65576
G1 X83.121 Y93.228 E8173.22899
G1 X83.121 Y92.071 E8173.51824
G1 X92.071 Y83.121 E8176.68241
G1 X90.914 Y83.121 E8176.97166
G1 X83.121 Y90.914 E8179.72676
G1 X83.121 Y89.757 E8180.01602
G1 X89.757 Y83.121 E8182.36206
G1 X88.600 Y83.121 E8182.65131
G1 X83.121 Y88.600 E8184.58830
G1 X83.121 Y87.443 E8184.87755
G1 X87.443 Y83.121 E8186.40547
G1 X86.286 Y83.121 E8186.69472
G1 X83.121 Y86.286 E8187.81358
G1 X83.121 Y85.129 E8188.10283
G1 X85.129 Y83.121 E8188.81263
G1 X83.972 Y83.121 E8189.10188
G1 X83.121 Y83.972 E8189.40262
G1 Z9.200 F7800.000
G1 X83.972 Y116.879 F7800.000
G1 X83.121 Y116.028 E8189.70336 F4800.000
G1 X83.121 Y114.871 E8189.99261
G1 X85.129 Y116.879 E8190.70241
G1 X86.286 Y116.879 E8190.99166
G1 X83.121 Y113.714 E8192.11052
G1 X83.121 Y112.557 E8192.39977
G1 X87.443 Y116.879 E8193.92770
G1 X88.600 Y116.879 E8194.21695
G1 X83.121 Y111.400 E8196.15393
G1 X83.121 Y110.243 E8196.44318
G1 X89.757 Y116.879 E8198.78923
G1 X90.914 Y116.879 E8199.07848
G1 X83.121 Y109.086 E8201.83359
G1 X83.121 Y107.929 E8202.12284
G1 X92.071 Y116.879 E8205.28701
G1 X93.228 Y116.879 E8205.57626
G1 X83.121 Y106.772 E8209.14949
G1 X83.121 Y105.615 E8209.43874
G1 X94.385 Y116.879 E8213.42103
G1 X95.542 Y116.879 E8213.71028
G1 X83.121 Y104.458 E8218.10163
G1 X83.121 Y103.301 E8218.39088
G1 X96.699 Y116.879 E8223.19130
G1 X97.856 Y116.879 E8223.48055
G1 X83.121 Y102.144 E8228.69003
G1 X83.121 Y100.987 E8228.97928
G1 X99.013 Y116.879 E8234.59782
G1 X100.170 Y116.879 E8234.88707
G1 X83.121 Y99.830 E8240.91467
G1 X83.121 Y98.673 E8241.20392
G1 X101.327 Y116.879 E8247.64058
G1 X102.484 Y116.879 E8247.92983
G1 X83.121 Y97.516 E8254.77555
G1 X83.121 Y96.359 E8255.06480
G1 X103.641 Y116.879 E8262.31959
G1 X104.798 Y116.879 E8262.60884
G1 X83.121 Y95.202 E8270.27268
G1 X83.121 Y94.045 E8270.56193
G1 X105.955 Y116.879 E8278.63484
G1 X107.112 Y116.879 E8278.92409
G1 X83.121 Y92.888 E8287.40606
G1 X83.121 Y91.731 E8287.69531
G1 X108.269 Y116.879 E8296.58634
G1 X109.426 Y116.879 E8296.87559
G1 X83.121 Y90.574 E8306.17568
G1 X83.121 Y89.417 E8306.46493
G1 X110.583 Y116.879 E8316.17409
G1 X111.740 Y116.879 E8316.46334
G1 X83.121 Y88.260 E8326.58155
G1 X83.121 Y87.103 E8326.87080
G1 X112.897 Y116.879 E8337.39808
G1 X114.054 Y116.879 E8337.68733
G1 X83.121 Y85.946 E8348.62367
G1 X83.121 Y84.789 E8348.91292
G1 X115.211 Y116.879 E8360.25832
G1 X116.368 Y116.879 E8360.54757
G1 X83.121 Y83.632 E8372.30203
G1 X83.768 Y83.121 E8372.50796
G1 X116.879 Y116.232 E8384.21453
G1 X116.879 Y115.075 E8384.50378
G1 X84.925 Y83.121 E8395.80128
G1 X86.082 Y83.121 E8396.09053
G1 X116.879 Y113.918 E8406.97898
G1 X116.879 Y112.761 E8407.26823
G1 X87.239 Y83.121 E8417.74761
G1 X88.396 Y83.121 E8418.03686
G1 X116.879 Y111.604 E8428.10719
G1 X116.879 Y110.447 E8428.39644
G1 X89.553 Y83.121 E8438.05770
G1 X90.710 Y83.121 E8438.34695
G1 X116.879 Y109.290 E8447.59915
G1 X116.879 Y108.133 E8447.88840
G1 X91.867 Y83.121 E8456.73153
G1 X93.024 Y83.121 E8457.02078
G1 X116.879 Y106.976 E8465.45486
G1 X116.879 Y105.819 E8465.74411
G1 X94.181 Y83.121 E8473.76912
G1 X95.338 Y83.121 E8474.05838
G1 X116.879 Y104.662 E8481.67433
G1 X116.879 Y103.505 E8481.96358
G1 X96.495 Y83.121 E8489.17047
G1 X97.652 Y83.121 E8489.45972
G1 X116.879 Y102.348 E8496.25755
G1 X116.879 Y101.191 E8496.54680
G1 X98.809 Y83.121 E8502.93557
G1 X99.966 Y83.121 E8503.22482
G1 X116.879 Y100.034 E8509.20452
G1 X116.879 Y98.877 E8509.49377
G1 X101.123 Y83.121 E8515.06442
G1 X102.280 Y83.121 E8515.35367
G1 X116.879 Y97.720 E8520.51525
G1 X116.879 Y96.563 E8520.80450
G1 X103.437 Y83.121 E8525.55703
G1 X104.594 Y83.121 E8525.84628
G1 X116.879 Y95.406 E8530.18974
G1 X116.879 Y94.249 E8530.47899
G1 X105.751 Y83.121 E8534.41339
G1 X106.908 Y83.121 E8534.70264
G1 X116.879 Y93.092 E8538.22798
G1 X116.879 Y91.935 E8538.51723
G1 X108.065 Y83.121 E8541.63350
G1 X109.222 Y83.121 E8541.92275
G1 X116.879 Y90.778 E8544.62997
G1 X116.879 Y89.621 E8544.91922
G1 X110.379 Y83.121 E8547.21737
G1 X111.536 Y83.121 E8547.50662
G1 X116.879 Y88.464 E8549.39572
G1 X116.879 Y87.307 E8549.68497
G1 X112.693 Y83.121 E8551.16500
G1 X113.850 Y83.121 E8551.45425
G1 X116.879 Y86.150 E8552.52521
G1 X116.879 Y84.993 E8552.81446
G1 X115.007 Y83.121 E8553.47637
G1 X116.164 Y83.121 E8553.76562
G1 X116.879 Y83.836 E8554.01847
G1 Z9.600 F7800.000
G1 X116.164 Y116.879 F7800.000
G1 X116.879 Y116.164 E8554.27131 F4800.000
G1 X116.879 Y115.007 E8554.56056
G1 X115.007 Y116.879 E8555.22247
G1 X113.850 Y116.879 E8555.51172
G1 X116.879 Y113.850 E8556.58269
G1 X116.879 Y112.693 E8556.87194
G1 X112.693 Y116.879 E8558.35197
G1 X111.536 Y116.879 E8558.64122
G1 X116.879 Y111.536 E8560.53031
G1 X116.879 Y110.379 E8560.81956
G1 X110.379 Y116.879 E8563.11771
G1 X109.222 Y116.879 E8563.40696
G1 X116.879 Y109.222 E8566.11418
G1 X116.879 Y108.065 E8566.40343
G1 X108.065 Y116.879 E8569.51970
G1 X106.908 Y116.879 E8569.80895
G1 X116.879 Y106.908 E8573.33429
G1 X116.879 Y105.751 E8573.62354
G1 X105.751 Y116.879 E8577.55794
G1 X104.594 Y116.879 E8577.84719
G1 X116.879 Y104.594 E8582.19065
G1 X116.879 Y103.437 E8582.47990
G1 X103.437 Y116.879 E8587.23242
G1 X102.280 Y116.879 E8587.52167
G1 X116.879 Y102.280 E8592.68326
G1 X116.879 Y101.123 E8592.97251
G1 X101.123 Y116.879 E8598.54315
G1 X99.966 Y116.879 E8598.83240
G1 X116.879 Y99.966 E8604.81211
G1 X116.879 Y98.809 E8605.10136
G1 X98.809 Y116.879 E8611.49013
G1 X97.652 Y116.879 E8611.77938
G1 X116.879 Y97.652 E8618.57721
G1 X116.879 Y96.495 E8618.86646
G1 X96.495 Y116.879 E8626.07335
G1 X95.338 Y116.879 E8626.36260
G1 X116.879 Y95.338 E8633.97855
G1 X116.879 Y94.181 E8634.26780
G1 X94.181 Y116.879 E8642.29281
G1 X93.024 Y116.879 E8642.58206
G1 X116.879 Y93.024 E8651.01614
G1 X116.879 Y91.867 E8651.30539
G1 X91.867 Y116.879 E8660.14853
G1 X90.710 Y116.879 E8660.43778
G1 X116.879 Y90.710 E8669.68998
G1 X116.879 Y89.553 E8669.97923
G1 X89.553 Y116.879 E8679.64049
G1 X88.396 Y116.879 E8679.92974
G1 X116.879 Y88.396 E8690.00006
G1 X116.879 Y87.239 E8690.28931
G1 X87.239 Y116.879 E8700.76869
G1 X86.082 Y116.879 E8701.05794
G1 X116.879 Y86.082 E8711.94639
G1 X116.879 Y84.925 E8712.23564
G1 X84.925 Y116.879 E8723.53314
G1 X83.768 Y116.879 E8723.82239
G1 X116.879 Y83.768 E8735.52896
G1 X116.368 Y83.121 E8735.73489
G1 X83.121 Y116.368 E8747.48935
G1 X83.121 Y115.211 E8747.77860
G1 X115.211 Y83.121 E8759.12400
G1 X114.054 Y83.121 E8759.41325
G1 X83.121 Y114.054 E8770.34959
G1 X83.121 Y112.897 E8770.63884
G1 X112.897 Y83.121 E8781.16612
G1 X111.740 Y83.121 E8781.45537
G1 X83.121 Y111.740 E8791.57358
G1 X83.121 Y110.583 E8791.86284
G1 X110.583 Y83.121 E8801.57199
G1 X109.426 Y83.121 E8801.86124
G1 X83.121 Y109.426 E8811.16133
G1 X83.121 Y108.269 E8811.45058
G1 X108.269 Y83.121 E8820.34161
G1 X107.112 Y83.121 E8820.63086
G1 X83.121 Y107.112 E8829.11283
G1 X83.121 Y105.955 E8829.40208
G1 X105.955 Y83.121 E8837.47499
G1 X104.798 Y83.121 E8837.76424
G1 X83.121 Y104.798 E8845.42809
G1 X83.121 Y103.641 E8845.71734
G1 X103.641 Y83.121 E8852.97212
G1 X102.484 Y83.121 E8853.26137
G1 X83.121 Y102.484 E8860.10710
G1 X83.121 Y101.327 E8860.39635
G1 X101.327 Y83.121 E8866.83301
G1 X100.170 Y83.121 E8867.12226
G1 X83.121 Y100.170 E8873.14986
G1 X83.121 Y99.013 E8873.43911
G1 X99.013 Y83.121 E8879.05765
G1 X97.856 Y83.121 E8879.34690
G1 X83.121 Y97.856 E8884.55638
G1 X83.121 Y96.699 E8884.84563
G1 X96.699 Y83.121 E8889.64604
G1 X95.542 Y83.121 E8889.93529
G1 X83.121 Y95.542 E8894.32665
G1 X83.121 Y94.385 E8894.61590
G1 X94.385 Y83.121 E8898.59819
G1 X93.228 Y83.121 E8898.88744
G1 X83.121 Y93.228 E8902.46067
G1 X83.121 Y92.071 E8902.74992
G1 X92.071 Y83.121 E8905.91409
G1 X90.914 Y83.121 E8906.20334
G1 X83.121 Y90.914 E8908.95845
G1 X83.121 Y89.757 E8909.24770
G1 X89.757 Y83.121 E8911.59375
G1 X88.600 Y83.121 E8911.88300
G1 X83.121 Y88.600 E8913.81998
G1 X83.121 Y87.443 E8914.10923
G1 X87.443 Y83.121 E8915.63716
G1 X86.286 Y83.121 E8915.92641
G1 X83.121 Y86.286 E8917.04527
G1 X83.121 Y85.129 E8917.33452
G1 X85.129 Y83.121 E8918.04432
G1 X83.972 Y83.121 E8918.33357
G1 X83.121 Y83.972 E8918.63431
G1 Z10.000 F7800.000
G1 X83.972 Y116.879 F7800.000
G1 X83.121 Y116.028 E8918.93505 F4800.000
G1 X83.121 Y114.871 E8919.22430
G1 X85.129 Y116.879 E8919.93410
G1 X86.286 Y116.879 E8920.22335
G1 X83.121 Y113.714 E8921.34221
G1 X83.121 Y112.557 E8921.63146
G1 X87.443 Y116.879 E8923.15938
G1 X88.600 Y116.879 E8923.44863
G1 X83.121 Y111.400 E8925.38562
G1 X83.121 Y110.243 E8925.67487
G1 X89.757 Y116.879 E8928.02092
G1 X90.914 Y116.879 E8928.31017
G1 X83.121 Y109.086 E8931.06527
G1 X83.121 Y107.929 E8931.35452
G1 X92.071 Y116.879 E8934.51869
G1 X93.228 Y116.879 E8934.80794
G1 X83.121 Y106.772 E8938.38117
G1 X83.121 Y105.615 E8938.67042
G1 X94.385 Y116.879 E8942.65272
G1 X95.542 Y116.879 E8942.94197
G1 X83.121 Y104.458 E8947.33332
G1 X83.121 Y103.301 E8947.62257
G1 X96.699 Y116.879 E8952.42299
G1 X97.856 Y116.879 E8952.71224
G1 X83.121 Y102.144 E8957.92171
G1 X83.121 Y100.987 E8958.21096
G1 X99.013 Y116.879 E8963.82950
G1 X100.170 Y116.879 E8964.11875
G1 X83.121 Y99.830 E8970.14635
G1 X83.121 Y98.673 E8970.43560
G1 X101.327 Y116.879 E8976.87226
G1 X102.484 Y116.879 E8977.16151
G1 X83.121 Y97.516 E8984.00724
G1 X83.121 Y96.359 E8984.29649
G1 X103.641 Y116.879 E8991.55127
G1 X104.798 Y116.879 E8991.84052
G1 X83.121 Y95.202 E8999.50437
G1 X83.121 Y94.045 E8999.79362
G1 X105.955 Y116.879 E9007.86653
G1 X107.112 Y116.879 E9008.15578
G1 X83.121 Y92.888 E9016.63775
G1 X83.121 Y91.731 E9016.92700
G1 X108.269 Y116.879 E9025.81803
G1 X109.426 Y116.879 E9026.10728
G1 X83.121 Y90.574 E9035.40737
G1 X83.121 Y89.417 E9035.69662
G1 X110.583 Y116.879 E9045.40577
G1 X111.740 Y116.879 E9045.69502
G1 X83.121 Y88.260 E9055.81324
G1 X83.121 Y87.103 E9056.10249
G1 X112.897 Y116.879 E9066.62977
G1 X114.054 Y116.879 E9066.91902
G1 X83.121 Y85.946 E9077.85536
G1 X83.121 Y84.789 E9078.14461
G1 X115.211 Y116.879 E9089.49001
G1 X116.368 Y116.879 E9089.77926
G1 X83.121 Y83.632 E9101.53372
G1 X83.768 Y83.121 E9101.73965
G1 X116.879 Y116.232 E9113.44621
G1 X116.879 Y115.075 E9113.73546
G1 X84.925 Y83.121 E9125.03297
G1 X86.082 Y83.121 E9125.32222
G1 X116.879 Y113.918 E9136.21067
G1 X116.879 Y112.761 E9136.49992
G1 X87.239 Y83.121 E9146.97930
G1 X88.396 Y83.121 E9147.26855
G1 X116.879 Y111.604 E9157.33887
G1 X116.879 Y110.447 E9157.62812
G1 X89.553 Y83.121 E9167.28938
G1 X90.710 Y83.121 E9167.57863
G1 X116.879 Y109.290 E9176.83083
G1 X116.879 Y108.133 E9177.12008
G1 X91.867 Y83.121 E9185.96322
G1 X93.024 Y83.121 E9186.25247
G1 X116.879 Y106.976 E9194.68655
G1 X116.879 Y105.819 E9194.97580
G1 X94.181 Y83.121 E9203.00081
G1 X95.338 Y83.121 E9203.29006
G1 X116.879 Y104.662 E9210.90601
G1 X116.879 Y103.505 E9211.19526
G1 X96.495 Y83.121 E9218.40216
G1 X97.652 Y83.121 E9218.69141
G1 X116.879 Y102.348 E9225.48924
G1 X116.879 Y101.191 E9225.77849
G1 X98.809 Y83.121 E9232.16725
G1 X99.966 Y83.121 E9232.45650
G1 X116.879 Y100.034 E9238.43621
G1 X116.879 Y98.877 E9238.72546
G1 X101.123 Y83.121 E9244.29611
G1 X102.280 Y83.121 E9244.58536
G1 X116.879 Y97.720 E9249.74694
G1 X116.879 Y96.563 E9250.03619
G1 X103.437 Y83.121 E9254.78871
G1 X104.594 Y83.121 E9255.07796
G1 X116.879 Y95.406 E9259.42143
G1 X116.879 Y94.249 E9259.71068
G1 X105.751 Y83.121 E9263.64508
G1 X106.908 Y83.121 E9263.93433
G1 X116.879 Y93.092 E9267.45966
G1 X116.879 Y91.935 E9267.74891
G1 X108.065 Y83.121 E9270.86519
G1 X109.222 Y83.121 E9271.15444
G1 X116.879 Y90.778 E9273.86166
G1 X116.879 Y89.621 E9274.15091
G1 X110.379 Y83.121 E9276.44906
G1 X111.536 Y83.121 E9276.73831
G1 X116.879 Y88.464 E9278.62740
G1 X116.879 Y87.307 E9278.91665
G1 X112.693 Y83.121 E9280.39668
G1 X113.850 Y83.121 E9280.68593
G1 X116.879 Y86.150 E9281.75690
G1 X116.879 Y84.993 E9282.04615
G1 X115.007 Y83.121 E9282.70806
G1 X116.164 Y83.121 E9282.99731
G1 X116.879 Y83.836 E9283.25015
G1 Z10.400 F7800.000
G1 X116.164 Y116.879 F7800.000
G1 X116.879 Y116.164 E9283.50300 F4800.000
G1 X116.879 Y115.007 E9283.79225
G1 X115.007 Y116.879 E9284.45416
G1 X113.850 Y116.879 E9284.74341
G1 X116.879 Y113.850 E9285.81437
G1 X116.879 Y112.693 E9286.10362
G1 X112.693 Y116.879 E9287.58365
G1 X111.536 Y116.879 E9287.87290
G1 X116.879 Y111.536 E9289.76200
G1 X116.879 Y110.379 E9290.05125
G1 X110.379 Y116.879 E9292.34940
G1 X109.222 Y116.879 E9292.63865
G1 X116.879 Y109.222 E9295.34586
G1 X116.879 Y108.065 E9295.63511
G1 X108.065 Y116.879 E9298.75139
G1 X106.908 Y116.879 E9299.04064
G1 X116.879 Y106.908 E9302.56598
G1 X116.879 Y105.751 E9302.85523
G1 X105.751 Y116.879 E9306.78963
G1 X104.594 Y116.879 E9307.07888
G1 X116.879 Y104.594 E9311.42234
G1 X116.879 Y103.437 E9311.71159
G1 X103.437 Y116.879 E9316.46411
G1 X102.280 Y116.879 E9316.75336
G1 X116.879 Y102.280 E9321.91494
G1 X116.879 Y101.123 E9322.20419
G1 X101.123 Y116.879 E9327.77484
G1 X99.966 Y116.879 E9328.06409
G1 X116.879 Y99.966 E9334.04380
G1 X116.879 Y98.809 E9334.33305
G1 X98.809 Y116.879 E9340.72181
G1 X97.652 Y116.879 E9341.01106
G1 X116.879 Y97.652 E9347.80889
G1 X116.879 Y96.495 E9348.09814
G1 X96.495 Y116.879 E9355.30503
G1 X95.338 Y116.879 E9355.59428
G1 X116.879 Y95.338 E9363.21024
G1 X116.879 Y94.181 E9363.49949
G1 X94.181 Y116.879 E9371.52450
G1 X93.024 Y116.879 E9371.81375
G1 X116.879 Y93.024 E9380.24783
G1 X116.879 Y91.867 E9380.53708
G1 X91.867 Y116.879 E9389.38021
G1 X90.710 Y116.879 E9389.66946
G1 X116.879 Y90.710 E9398.92166
G1 X116.879 Y89.553 E9399.21091
G1 X89.553 Y116.879 E9408.87217
G1 X88.396 Y116.879 E9409.16142
G1 X116.879 Y88.396 E9419.23174
G1 X116.879 Y87.239 E9419.52099
G1 X87.239 Y116.879 E9430.00038
G1 X86.082 Y116.879 E9430.28963
G1 X116.879 Y86.082 E9441.17807
G1 X116.879 Y84.925 E9441.46732
G1 X84.925 Y116.879 E9452.76483
G1 X83.768 Y116.879 E9453.05408
G1 X116.879 Y83.768 E9464.76065
G1 X116.368 Y83.121 E9464.96658
G1 X83.121 Y116.368 E9476.72104
G1 X83.121 Y115.211 E9477.01029
G1 X115.211 Y83.121 E9488.35569
G1 X114.054 Y83.121 E9488.64494
G1 X83.121 Y114.054 E9499.58128
G1 X83.121 Y112.897 E9499.87053
G1 X112.897 Y83.121 E9510.39781
G1 X111.740 Y83.121 E9510.68706
G1 X83.121 Y111.740 E9520.80527
G1 X83.121 Y110.583 E9521.09452
G1 X110.583 Y83.121 E9530.80368
G1 X109.426 Y83.121 E9531.09293
G1 X83.121 Y109.426 E9540.39302
G1 X83.121 Y108.269 E9540.68227
G1 X108.269 Y83.121 E9549.57330
G1 X107.112 Y83.121 E9549.86255
G1 X83.121 Y107.112 E9558.34452
G1 X83.121 Y105.955 E9558.63377
G1 X105.955 Y83.121 E9566.70668
G1 X104.798 Y83.121 E9566.99593
G1 X83.121 Y104.798 E9574.65977
G1 X83.121 Y103.641 E9574.94902
G1 X103.641 Y83.121 E9582.20381
G1 X102.484 Y83.121 E9582.49306
G1 X83.121 Y102.484 E9589.33878
G1 X83.121 Y101.327 E9589.62803
G1 X101.327 Y83.121 E9596.06470
G1 X100.170 Y83.121 E9596.35395
G1 X83.121 Y100.170 E9602.38155
G1 X83.121 Y99.013 E9602.67080
G1 X99.013 Y83.121 E9608.28934
G1 X97.856 Y83.121 E9608.57859
G1 X83.121 Y97.856 E9613.78806
G1 X83.121 Y96.699 E9614.07731
G1 X96.699 Y83.121 E9618.87773
G1 X95.542 Y83.121 E9619.16698
G1 X83.121 Y95.542 E9623.55834
G1 X83.121 Y94.385 E9623.84759
G1 X94.385 Y83.121 E9627.82988
G1 X93.228 Y83.121 E9628.11913
G1 X83.121 Y93.228 E9631.69236
G1 X83.121 Y92.071 E9631.98161
G1 X92.071 Y83.121 E9635.14578
G1 X90.914 Y83.121 E9635.43503
G1 X83.121 Y90.914 E9638.19014
G1 X83.121 Y89.757 E9638.47939
G1 X89.757 Y83.121 E9640.82543
G1 X88.600 Y83.121 E9641.11469
G1 X83.121 Y88.600 E9643.05167
G1 X83.121 Y87.443 E9643.34092
G1 X87.443 Y83.121 E9644.86884
G1 X86.286 Y83.121 E9645.15809
G1 X83.121 Y86.286 E9646.27696
G1 X83.121 Y85.129 E9646.56621
G1 X85.129 Y83.121 E9647.27601
G1 X83.972 Y83.121 E9647.56526
G1 X83.121 Y83.972 E9647.86600
G1 Z10.800 F7800.000
G1 X83.972 Y116.879 F7800.000
G1 X83.121 Y116.028 E9648.16674 F4800.000
G1 X83.121 Y114.871 E9648.45599
G1 X85.129 Y116.879 E9649.16579
G1 X86.286 Y116.879 E9649.45504
G1 X83.121 Y113.714 E9650.57390
G1 X83.121 Y112.557 E9650.86315
G1 X87.443 Y116.879 E9652.39107
G1 X88.600 Y116.879 E9652.68032
G1 X83.121 Y111.400 E9654.61731
G1 X83.121 Y110.243 E9654.90656
G1 X89.757 Y116.879 E9657.25260
G1 X90.914 Y116.879 E9657.54185
G1 X83.121 Y109.086 E9660.29696
G1 X83.121 Y107.929 E9660.58621
G1 X92.071 Y116.879 E9663.75038
G1 X93.228 Y116.879 E9664.03963
G1 X83.121 Y106.772 E9667.61286
G1 X83.121 Y105.615 E9667.90211
G1 X94.385 Y116.879 E9671.88440
G1 X95.542 Y116.879 E9672.17365
G1 X83.121 Y104.458 E9676.56501
G1 X83.121 Y103.301 E9676.85426
G1 X96.699 Y116.879 E9681.65467
G1 X97.856 Y116.879 E9681.94392
G1 X83.121 Y102.144 E9687.15340
G1 X83.121 Y100.987 E9687.44265
G1 X99.013 Y116.879 E9693.06119
G1 X100.170 Y116.879 E9693.35044
G1 X83.121 Y99.830 E9699.37804
G1 X83.121 Y98.673 E9699.66729
G1 X101.327 Y116.879 E9706.10395
G1 X102.484 Y116.879 E9706.39320
G1 X83.121 Y97.516 E9713.23892
G1 X83.121 Y96.359 E9713.52817
G1 X103.641 Y116.879 E9720.78296
G1 X104.798 Y116.879 E9721.07221
G1 X83.121 Y95.202 E9728.73606
G1 X83.121 Y94.045 E9729.02531
G1 X105.955 Y116.879 E9737.09821
G1 X107.112 Y116.879 E9737.38746
G1 X83.121 Y92.888 E9745.86943
G1 X83.121 Y91.731 E9746.15868
G1 X108.269 Y116.879 E9755.04971
G1 X109.426 Y116.879 E9755.33896
G1 X83.121 Y90.574 E9764.63906
G1 X83.121 Y89.417 E9764.92831
G1 X110.583 Y116.879 E9774.63746
G1 X111.740 Y116.879 E9774.92671
G1 X83.121 Y88.260 E9785.04493
G1 X83.121 Y87.103 E9785.33418
G1 X112.897 Y116.879 E9795.86145
G1 X114.054 Y116.879 E9796.15070
G1 X83.121 Y85.946 E9807.08704
G1 X83.121 Y84.789 E9807.37629
G1 X115.211 Y116.879 E9818.72169
G1 X116.368 Y116.879 E9819.01094
G1 X83.121 Y83.632 E9830.76540
G1 X83.768 Y83.121 E9830.97133
G1 X116.879 Y116.232 E9842.67790
G1 X116.879 Y115.075 E9842.96715
G1 X84.925 Y83.121 E9854.26466
G1 X86.082 Y83.121 E9854.55391
G1 X116.879 Y113.918 E9865.44235
G1 X116.879 Y112.761 E9865.73160
G1 X87.239 Y83.121 E9876.21099
G1 X88.396 Y83.121 E9876.50024
G1 X116.879 Y111.604 E9886.57056
G1 X116.879 Y110.447 E9886.85981
G1 X89.553 Y83.121 E9896.52107
G1 X90.710 Y83.121 E9896.81032
G1 X116.879 Y109.290 E9906.06252
G1 X116.879 Y108.133 E9906.35177
G1 X91.867 Y83.121 E9915.19491
G1 X93.024 Y83.121 E9915.48416
G1 X116.879 Y106.976 E9923.91823
G1 X116.879 Y105.819 E9924.20748
