; generated by Slic3r 1.2.9 on 2019-08-09 at 13:48:37

; external perimeters extrusion width = 0.50mm
; perimeters extrusion width = 0.58mm
; infill extrusion width = 0.58mm
; solid infill extrusion width = 0.58mm
; top infill extrusion width = 0.58mm

M107
M104 S200 ; set temperature
G28 ; home all axes
G1 Z5 F5000 ; lift nozzle

M109 S200 ; wait for temperature to be reached
G21 ; set units to millimeters
G90 ; use absolute coordinates
M82 ; use absolute distances for extrusion
G92 E0
G1 Z0.400 F7800.000
G1 E-2.00000 F2400.00000
G92 E0
G1 X83.393 Y116.879 F7800.000
G1 E2.00000 F2400.00000
G1 X83.121 Y116.607 E2.14000 F1800.000
G1 X83.121 Y115.739 E2.45562
G1 X84.261 Y116.879 E3.04198
G1 X85.129 Y116.879 E3.35759
G1 X83.121 Y114.871 E4.39030
G1 X83.121 Y114.003 E4.70591
G1 X85.997 Y116.879 E6.18497
G1 X86.864 Y116.879 E6.50058
G1 X83.121 Y113.136 E8.42598
G1 X83.121 Y112.268 E8.74160
G1 X87.732 Y116.879 E11.11335
G1 X88.600 Y116.879 E11.42897
G1 X83.121 Y111.400 E14.24707
G1 X83.121 Y110.532 E14.56269
G1 X89.468 Y116.879 E17.82714
G1 X90.335 Y116.879 E18.14276
G1 X83.121 Y109.665 E21.85356
G1 X83.121 Y108.797 E22.16918
G1 X91.203 Y116.879 E26.32633
G1 X92.071 Y116.879 E26.64194
G1 X83.121 Y107.929 E31.24544
G1 X83.121 Y107.061 E31.56106
G1 X92.939 Y116.879 E36.61091
G1 X93.806 Y116.879 E36.92653
G1 X83.121 Y106.194 E42.42273
G1 X83.121 Y105.326 E42.73834
G1 X94.674 Y116.879 E48.68089
G1 X95.542 Y116.879 E48.99651
G1 X83.121 Y104.458 E55.38541
G1 X83.121 Y103.590 E55.70102
G1 X96.410 Y116.879 E62.53627
G1 X97.277 Y116.879 E62.85189
G1 X83.121 Y102.723 E70.13349
G1 X83.121 Y101.855 E70.44910
G1 X98.145 Y116.879 E78.17705
G1 X99.013 Y116.879 E78.49267
G1 X83.121 Y100.987 E86.66696
G1 X83.121 Y100.119 E86.98258
G1 X99.881 Y116.879 E95.60323
G1 X100.748 Y116.879 E95.91884
G1 X83.121 Y99.252 E104.98584
G1 X83.121 Y98.384 E105.30146
G1 X101.616 Y116.879 E114.81480
G1 X102.484 Y116.879 E115.13042
G1 X83.121 Y97.516 E125.09011
G1 X83.121 Y96.648 E125.40573
G1 X103.352 Y116.879 E135.81177
G1 X104.219 Y116.879 E136.12739
G1 X83.121 Y95.781 E146.97979
G1 X83.121 Y94.913 E147.29540
G1 X105.087 Y116.879 E158.59415
G1 X105.955 Y116.879 E158.90976
G1 X83.121 Y94.045 E170.65486
G1 X83.121 Y93.177 E170.97047
G1 X106.823 Y116.879 E183.16192
G1 X107.690 Y116.879 E183.47753
G1 X83.121 Y92.310 E196.11533
G1 X83.121 Y91.442 E196.43094
G1 X108.558 Y116.879 E209.51508
G1 X109.426 Y116.879 E209.83070
G1 X83.121 Y90.574 E223.36119
G1 X83.121 Y89.706 E223.67681
G1 X110.294 Y116.879 E237.65365
G1 X111.161 Y116.879 E237.96927
G1 X83.121 Y88.839 E252.39246
G1 X83.121 Y87.971 E252.70807
G1 X112.029 Y116.879 E267.57761
G1 X112.897 Y116.879 E267.89323
G1 X83.121 Y87.103 E283.20912
G1 X83.121 Y86.235 E283.52474
G1 X113.765 Y116.879 E299.28698
G1 X114.632 Y116.879 E299.60259
G1 X83.121 Y85.368 E315.81118
G1 X83.121 Y84.500 E316.12680
G1 X115.500 Y116.879 E332.78174
G1 X116.368 Y116.879 E333.09735
G1 X83.121 Y83.632 E350.19864
G1 X83.478 Y83.121 E350.42529
G1 X116.879 Y116.522 E367.60568
G1 X116.879 Y115.654 E367.92130
G1 X84.346 Y83.121 E384.65533
G1 X85.214 Y83.121 E384.97095
G1 X116.879 Y114.786 E401.25864
G1 X116.879 Y113.918 E401.57426
G1 X86.082 Y83.121 E417.41559
G1 X86.949 Y83.121 E417.73121
G1 X116.879 Y113.051 E433.12620
G1 X116.879 Y112.183 E433.44182
G1 X87.817 Y83.121 E448.39045
G1 X88.685 Y83.121 E448.70607
G1 X116.879 Y111.315 E463.20836
G1 X116.879 Y110.447 E463.52398
G1 X89.553 Y83.121 E477.57992
G1 X90.420 Y83.121 E477.89553
G1 X116.879 Y109.580 E491.50512
G1 X116.879 Y108.712 E491.82074
G1 X91.288 Y83.121 E504.98398
G1 X92.156 Y83.121 E505.29960
G1 X116.879 Y107.844 E518.01649
G1 X116.879 Y106.976 E518.33211
G1 X93.024 Y83.121 E530.60265
G1 X93.891 Y83.121 E530.91826
G1 X116.879 Y106.109 E542.74246
G1 X116.879 Y105.241 E543.05807
G1 X94.759 Y83.121 E554.43592
G1 X95.627 Y83.121 E554.75153
G1 X116.879 Y104.373 E565.68303
G1 X116.879 Y103.505 E565.99864
G1 X96.495 Y83.121 E576.48379
G1 X97.362 Y83.121 E576.79940
G1 X116.879 Y102.638 E586.83820
G1 X116.879 Y101.770 E587.15381
G1 X98.230 Y83.121 E596.74626
G1 X99.098 Y83.121 E597.06187
G1 X116.879 Y100.902 E606.20797
G1 X116.879 Y100.034 E606.52358
G1 X99.966 Y83.121 E615.22333
G1 X100.833 Y83.121 E615.53895
G1 X116.879 Y99.167 E623.79234
G1 X116.879 Y98.299 E624.10796
G1 X101.701 Y83.121 E631.91500
G1 X102.569 Y83.121 E632.23062
G1 X116.879 Y97.431 E639.59132
G1 X116.879 Y96.563 E639.90693
G1 X103.437 Y83.121 E646.82128
G1 X104.304 Y83.121 E647.13690
G1 X116.879 Y95.696 E653.60489
G1 X116.879 Y94.828 E653.92051
G1 X105.172 Y83.121 E659.94216
G1 X106.040 Y83.121 E660.25778
G1 X116.879 Y93.960 E665.83307
G1 X116.879 Y93.092 E666.14869
G1 X106.908 Y83.121 E671.27764
G1 X107.775 Y83.121 E671.59326
G1 X116.879 Y92.225 E676.27586
G1 X116.879 Y91.357 E676.59147
G1 X108.643 Y83.121 E680.82772
G1 X109.511 Y83.121 E681.14334
G1 X116.879 Y90.489 E684.93324
G1 X116.879 Y89.621 E685.24886
G1 X110.379 Y83.121 E688.59241
G1 X111.246 Y83.121 E688.90802
G1 X116.879 Y88.754 E691.80522
G1 X116.879 Y87.886 E692.12084
G1 X112.114 Y83.121 E694.57169
G1 X112.982 Y83.121 E694.88731
G1 X116.879 Y87.018 E696.89181
G1 X116.879 Y86.150 E697.20743
G1 X113.850 Y83.121 E698.76558
G1 X114.717 Y83.121 E699.08120
G1 X116.879 Y85.283 E700.19300
G1 X116.879 Y84.415 E700.50862
G1 X115.585 Y83.121 E701.17407
G1 X116.453 Y83.121 E701.48969
G1 X116.879 Y83.547 E701.70879
G1 Z0.800 F7800.000
G1 X116.453 Y116.879 F7800.000
G1 X116.879 Y116.453 E701.85939 F4800.000
G1 X116.879 Y115.585 E702.07633
G1 X115.585 Y116.879 E702.53372
G1 X114.717 Y116.879 E702.75066
G1 X116.879 Y114.717 E703.51485
G1 X116.879 Y113.850 E703.73179
G1 X113.850 Y116.879 E704.80278
G1 X112.982 Y116.879 E705.01972
G1 X116.879 Y112.982 E706.39750
G1 X116.879 Y112.114 E706.61444
G1 X112.114 Y116.879 E708.29902
G1 X111.246 Y116.879 E708.51596
G1 X116.879 Y111.246 E710.50733
G1 X116.879 Y110.379 E710.72427
G1 X110.379 Y116.879 E713.02244
G1 X109.511 Y116.879 E713.23938
G1 X116.879 Y109.511 E715.84435
G1 X116.879 Y108.643 E716.06129
G1 X108.643 Y116.879 E718.97305
G1 X107.775 Y116.879 E719.18999
G1 X116.879 Y107.775 E722.40855
G1 X116.879 Y106.908 E722.62549
G1 X106.908 Y116.879 E726.15084
G1 X106.040 Y116.879 E726.36778
G1 X116.879 Y106.040 E730.19993
G1 X116.879 Y105.172 E730.41687
G1 X105.172 Y116.879 E734.55582
G1 X104.304 Y116.879 E734.77276
G1 X116.879 Y104.304 E739.21850
G1 X116.879 Y103.437 E739.43544
G1 X103.437 Y116.879 E744.18798
G1 X102.569 Y116.879 E744.40492
G1 X116.879 Y102.569 E749.46426
G1 X116.879 Y101.701 E749.68120
G1 X101.701 Y116.879 E755.04733
G1 X100.833 Y116.879 E755.26427
G1 X116.879 Y100.833 E760.93720
G1 X116.879 Y99.966 E761.15414
G1 X99.966 Y116.879 E767.13386
G1 X99.098 Y116.879 E767.35080
G1 X116.879 Y99.098 E773.63732
G1 X116.879 Y98.230 E773.85426
G1 X98.230 Y116.879 E780.44758
G1 X97.362 Y116.879 E780.66451
G1 X116.879 Y97.362 E787.56463
G1 X116.879 Y96.495 E787.78157
G1 X96.495 Y116.879 E794.98848
G1 X95.627 Y116.879 E795.20541
G1 X116.879 Y95.627 E802.71912
G1 X116.879 Y94.759 E802.93606
G1 X94.759 Y116.879 E810.75656
G1 X93.891 Y116.879 E810.97350
G1 X116.879 Y93.891 E819.10080
G1 X116.879 Y93.024 E819.31774
G1 X93.024 Y116.879 E827.75183
G1 X92.156 Y116.879 E827.96877
G1 X116.879 Y92.156 E836.70966
G1 X116.879 Y91.288 E836.92660
G1 X91.288 Y116.879 E845.97428
G1 X90.420 Y116.879 E846.19122
G1 X116.879 Y90.420 E855.54570
G1 X116.879 Y89.553 E855.76264
G1 X89.553 Y116.879 E865.42392
G1 X88.685 Y116.879 E865.64086
G1 X116.879 Y88.685 E875.60894
G1 X116.879 Y87.817 E875.82587
G1 X87.817 Y116.879 E886.10074
G1 X86.949 Y116.879 E886.31768
G1 X116.879 Y86.949 E896.89935
G1 X116.879 Y86.082 E897.11629
G1 X86.082 Y116.879 E908.00475
G1 X85.214 Y116.879 E908.22169
G1 X116.879 Y85.214 E919.41695
G1 X116.879 Y84.346 E919.63389
G1 X84.346 Y116.879 E931.13594
G1 X83.478 Y116.879 E931.35288
G1 X116.879 Y83.478 E943.16173
G1 X116.368 Y83.121 E943.31752
G1 X83.121 Y116.368 E955.07201
G1 X83.121 Y115.500 E955.28895
G1 X115.500 Y83.121 E966.73663
G1 X114.632 Y83.121 E966.95357
G1 X83.121 Y114.632 E978.09447
G1 X83.121 Y113.765 E978.31140
G1 X113.765 Y83.121 E989.14550
G1 X112.897 Y83.121 E989.36244
G1 X83.121 Y112.897 E999.88974
G1 X83.121 Y112.029 E1000.10668
G1 X112.029 Y83.121 E1010.32718
G1 X111.161 Y83.121 E1010.54412
G1 X83.121 Y111.161 E1020.45783
G1 X83.121 Y110.294 E1020.67477
G1 X110.294 Y83.121 E1030.28168
G1 X109.426 Y83.121 E1030.49862
G1 X83.121 Y109.426 E1039.79873
G1 X83.121 Y108.558 E1040.01567
G1 X108.558 Y83.121 E1049.00899
G1 X107.690 Y83.121 E1049.22593
G1 X83.121 Y107.690 E1057.91245
G1 X83.121 Y106.823 E1058.12939
G1 X106.823 Y83.121 E1066.50912
G1 X105.955 Y83.121 E1066.72605
G1 X83.121 Y105.955 E1074.79899
G1 X83.121 Y105.087 E1075.01592
G1 X105.087 Y83.121 E1082.78206
G1 X104.219 Y83.121 E1082.99900
G1 X83.121 Y104.219 E1090.45834
G1 X83.121 Y103.352 E1090.67527
G1 X103.352 Y83.121 E1097.82782
G1 X102.484 Y83.121 E1098.04475
G1 X83.121 Y102.484 E1104.89050
G1 X83.121 Y101.616 E1105.10744
G1 X101.616 Y83.121 E1111.64639
G1 X100.748 Y83.121 E1111.86333
G1 X83.121 Y100.748 E1118.09548
G1 X83.121 Y99.881 E1118.31242
G1 X99.881 Y83.121 E1124.23778
G1 X99.013 Y83.121 E1124.45471
G1 X83.121 Y99.013 E1130.07328
G1 X83.121 Y98.145 E1130.29021
G1 X98.145 Y83.121 E1135.60198
G1 X97.277 Y83.121 E1135.81892
G1 X83.121 Y97.277 E1140.82389
G1 X83.121 Y96.410 E1141.04083
G1 X96.410 Y83.121 E1145.73900
G1 X95.542 Y83.121 E1145.95594
G1 X83.121 Y95.542 E1150.34731
G1 X83.121 Y94.674 E1150.56425
G1 X94.674 Y83.121 E1154.64883
G1 X93.806 Y83.121 E1154.86577
G1 X83.121 Y93.806 E1158.64356
G1 X83.121 Y92.939 E1158.86049
G1 X92.939 Y83.121 E1162.33148
G1 X92.071 Y83.121 E1162.54842
G1 X83.121 Y92.071 E1165.71261
G1 X83.121 Y91.203 E1165.92955
G1 X91.203 Y83.121 E1168.78695
G1 X90.335 Y83.121 E1169.00389
G1 X83.121 Y90.335 E1171.55449
G1 X83.121 Y89.468 E1171.77143
G1 X89.468 Y83.121 E1174.01523
G1 X88.600 Y83.121 E1174.23217
G1 X83.121 Y88.600 E1176.16918
G1 X83.121 Y87.732 E1176.38611
G1 X87.732 Y83.121 E1178.01632
G1 X86.864 Y83.121 E1178.23326
G1 X83.121 Y86.864 E1179.55668
G1 X83.121 Y85.997 E1179.77362
G1 X85.997 Y83.121 E1180.79024
G1 X85.129 Y83.121 E1181.00717
G1 X83.121 Y85.129 E1181.71700
G1 X83.121 Y84.261 E1181.93393
G1 X84.261 Y83.121 E1182.33696
G1 X83.393 Y83.121 E1182.55390
G1 X83.121 Y83.393 E1182.65013
G1 Z1.200 F7800.000
G1 X83.393 Y116.879 F7800.000
G1 X83.121 Y116.607 E1182.74636 F4800.000
G1 X83.121 Y115.739 E1182.96330
G1 X84.261 Y116.879 E1183.36633
G1 X85.129 Y116.879 E1183.58327
G1 X83.121 Y114.871 E1184.29309
G1 X83.121 Y114.003 E1184.51003
G1 X85.997 Y116.879 E1185.52665
G1 X86.864 Y116.879 E1185.74358
G1 X83.121 Y113.136 E1187.06700
G1 X83.121 Y112.268 E1187.28394
G1 X87.732 Y116.879 E1188.91415
G1 X88.600 Y116.879 E1189.13109
G1 X83.121 Y111.400 E1191.06810
G1 X83.121 Y110.532 E1191.28503
G1 X89.468 Y116.879 E1193.52884
G1 X90.335 Y116.879 E1193.74577
G1 X83.121 Y109.665 E1196.29638
G1 X83.121 Y108.797 E1196.51331
G1 X91.203 Y116.879 E1199.37071
G1 X92.071 Y116.879 E1199.58765
G1 X83.121 Y107.929 E1202.75184
G1 X83.121 Y107.061 E1202.96878
G1 X92.939 Y116.879 E1206.43977
G1 X93.806 Y116.879 E1206.65670
G1 X83.121 Y106.194 E1210.43449
G1 X83.121 Y105.326 E1210.65143
G1 X94.674 Y116.879 E1214.73601
G1 X95.542 Y116.879 E1214.95295
G1 X83.121 Y104.458 E1219.34432
G1 X83.121 Y103.590 E1219.56126
G1 X96.410 Y116.879 E1224.25944
G1 X97.277 Y116.879 E1224.47637
G1 X83.121 Y102.723 E1229.48134
G1 X83.121 Y101.855 E1229.69828
G1 X98.145 Y116.879 E1235.01005
G1 X99.013 Y116.879 E1235.22698
G1 X83.121 Y100.987 E1240.84555
G1 X83.121 Y100.119 E1241.06248
G1 X99.881 Y116.879 E1246.98784
G1 X100.748 Y116.879 E1247.20478
G1 X83.121 Y99.252 E1253.43693
G1 X83.121 Y98.384 E1253.65387
G1 X101.616 Y116.879 E1260.19282
G1 X102.484 Y116.879 E1260.40976
G1 X83.121 Y97.516 E1267.25550
G1 X83.121 Y96.648 E1267.47244
G1 X103.352 Y116.879 E1274.62499
G1 X104.219 Y116.879 E1274.84192
G1 X83.121 Y95.781 E1282.30126
G1 X83.121 Y94.913 E1282.51820
G1 X105.087 Y116.879 E1290.28433
G1 X105.955 Y116.879 E1290.50127
G1 X83.121 Y94.045 E1298.57420
G1 X83.121 Y93.177 E1298.79114
G1 X106.823 Y116.879 E1307.17087
G1 X107.690 Y116.879 E1307.38781
G1 X83.121 Y92.310 E1316.07433
G1 X83.121 Y91.442 E1316.29127
G1 X108.558 Y116.879 E1325.28459
G1 X109.426 Y116.879 E1325.50152
G1 X83.121 Y90.574 E1334.80164
G1 X83.121 Y89.706 E1335.01858
G1 X110.294 Y116.879 E1344.62549
G1 X111.161 Y116.879 E1344.84243
G1 X83.121 Y88.839 E1354.75613
G1 X83.121 Y87.971 E1354.97307
G1 X112.029 Y116.879 E1365.19358
G1 X112.897 Y116.879 E1365.41051
G1 X83.121 Y87.103 E1375.93781
G1 X83.121 Y86.235 E1376.15475
G1 X113.765 Y116.879 E1386.98885
G1 X114.632 Y116.879 E1387.20579
G1 X83.121 Y85.368 E1398.34668
G1 X83.121 Y84.500 E1398.56362
G1 X115.500 Y116.879 E1410.01130
G1 X116.368 Y116.879 E1410.22824
G1 X83.121 Y83.632 E1421.98273
G1 X83.478 Y83.121 E1422.13851
G1 X116.879 Y116.522 E1433.94737
G1 X116.879 Y115.654 E1434.16431
G1 X84.346 Y83.121 E1445.66636
G1 X85.214 Y83.121 E1445.88330
G1 X116.879 Y114.786 E1457.07856
G1 X116.879 Y113.918 E1457.29550
G1 X86.082 Y83.121 E1468.18396
G1 X86.949 Y83.121 E1468.40090
G1 X116.879 Y113.051 E1478.98257
G1 X116.879 Y112.183 E1479.19951
G1 X87.817 Y83.121 E1489.47438
G1 X88.685 Y83.121 E1489.69132
G1 X116.879 Y111.315 E1499.65939
G1 X116.879 Y110.447 E1499.87633
G1 X89.553 Y83.121 E1509.53761
G1 X90.420 Y83.121 E1509.75455
G1 X116.879 Y109.580 E1519.10903
G1 X116.879 Y108.712 E1519.32597
G1 X91.288 Y83.121 E1528.37366
G1 X92.156 Y83.121 E1528.59059
G1 X116.879 Y107.844 E1537.33148
G1 X116.879 Y106.976 E1537.54842
G1 X93.024 Y83.121 E1545.98252
G1 X93.891 Y83.121 E1546.19946
G1 X116.879 Y106.109 E1554.32675
G1 X116.879 Y105.241 E1554.54369
G1 X94.759 Y83.121 E1562.36419
G1 X95.627 Y83.121 E1562.58113
G1 X116.879 Y104.373 E1570.09484
G1 X116.879 Y103.505 E1570.31178
G1 X96.495 Y83.121 E1577.51869
G1 X97.362 Y83.121 E1577.73563
G1 X116.879 Y102.638 E1584.63574
G1 X116.879 Y101.770 E1584.85268
G1 X98.230 Y83.121 E1591.44600
G1 X99.098 Y83.121 E1591.66293
G1 X116.879 Y100.902 E1597.94946
G1 X116.879 Y100.034 E1598.16639
G1 X99.966 Y83.121 E1604.14612
G1 X100.833 Y83.121 E1604.36306
G1 X116.879 Y99.167 E1610.03599
G1 X116.879 Y98.299 E1610.25293
G1 X101.701 Y83.121 E1615.61906
G1 X102.569 Y83.121 E1615.83600
G1 X116.879 Y97.431 E1620.89533
G1 X116.879 Y96.563 E1621.11227
G1 X103.437 Y83.121 E1625.86481
G1 X104.304 Y83.121 E1626.08175
G1 X116.879 Y95.696 E1630.52750
G1 X116.879 Y94.828 E1630.74443
G1 X105.172 Y83.121 E1634.88338
G1 X106.040 Y83.121 E1635.10032
G1 X116.879 Y93.960 E1638.93247
G1 X116.879 Y93.092 E1639.14941
G1 X106.908 Y83.121 E1642.67477
G1 X107.775 Y83.121 E1642.89171
G1 X116.879 Y92.225 E1646.11027
G1 X116.879 Y91.357 E1646.32721
G1 X108.643 Y83.121 E1649.23897
G1 X109.511 Y83.121 E1649.45591
G1 X116.879 Y90.489 E1652.06088
G1 X116.879 Y89.621 E1652.27782
G1 X110.379 Y83.121 E1654.57599
G1 X111.246 Y83.121 E1654.79293
G1 X116.879 Y88.754 E1656.78430
G1 X116.879 Y87.886 E1657.00124
G1 X112.114 Y83.121 E1658.68582
G1 X112.982 Y83.121 E1658.90276
G1 X116.879 Y87.018 E1660.28054
G1 X116.879 Y86.150 E1660.49748
G1 X113.850 Y83.121 E1661.56847
G1 X114.717 Y83.121 E1661.78541
G1 X116.879 Y85.283 E1662.54960
G1 X116.879 Y84.415 E1662.76654
G1 X115.585 Y83.121 E1663.22393
G1 X116.453 Y83.121 E1663.44087
G1 X116.879 Y83.547 E1663.59147
M106 S196.35
G1 Z1.600 F7800.000
G1 X116.453 Y116.879 F7800.000
G1 X116.879 Y116.453 E1663.74207 F4800.000
G1 X116.879 Y115.585 E1663.95901
G1 X115.585 Y116.879 E1664.41640
G1 X114.717 Y116.879 E1664.63334
G1 X116.879 Y114.717 E1665.39753
G1 X116.879 Y113.850 E1665.61447
G1 X113.850 Y116.879 E1666.68546
G1 X112.982 Y116.879 E1666.90239
G1 X116.879 Y112.982 E1668.28018
G1 X116.879 Y112.114 E1668.49712
G1 X112.114 Y116.879 E1670.18170
G1 X111.246 Y116.879 E1670.39863
G1 X116.879 Y111.246 E1672.39001
G1 X116.879 Y110.379 E1672.60695
G1 X110.379 Y116.879 E1674.90512
G1 X109.511 Y116.879 E1675.12206
G1 X116.879 Y109.511 E1677.72703
G1 X116.879 Y108.643 E1677.94396
G1 X108.643 Y116.879 E1680.85573
G1 X107.775 Y116.879 E1681.07267
G1 X116.879 Y107.775 E1684.29123
G1 X116.879 Y106.908 E1684.50817
G1 X106.908 Y116.879 E1688.03352
G1 X106.040 Y116.879 E1688.25046
G1 X116.879 Y106.040 E1692.08261
G1 X116.879 Y105.172 E1692.29955
G1 X105.172 Y116.879 E1696.43850
G1 X104.304 Y116.879 E1696.65544
G1 X116.879 Y104.304 E1701.10118
G1 X116.879 Y103.437 E1701.31812
G1 X103.437 Y116.879 E1706.07066
G1 X102.569 Y116.879 E1706.28760
G1 X116.879 Y102.569 E1711.34694
G1 X116.879 Y101.701 E1711.56388
G1 X101.701 Y116.879 E1716.93001
G1 X100.833 Y116.879 E1717.14695
G1 X116.879 Y100.833 E1722.81988
G1 X116.879 Y99.966 E1723.03681
G1 X99.966 Y116.879 E1729.01654
G1 X99.098 Y116.879 E1729.23348
G1 X116.879 Y99.098 E1735.52000
G1 X116.879 Y98.230 E1735.73694
G1 X98.230 Y116.879 E1742.33026
G1 X97.362 Y116.879 E1742.54719
G1 X116.879 Y97.362 E1749.44731
G1 X116.879 Y96.495 E1749.66424
G1 X96.495 Y116.879 E1756.87116
G1 X95.627 Y116.879 E1757.08809
G1 X116.879 Y95.627 E1764.60180
G1 X116.879 Y94.759 E1764.81874
G1 X94.759 Y116.879 E1772.63924
G1 X93.891 Y116.879 E1772.85618
G1 X116.879 Y93.891 E1780.98348
G1 X116.879 Y93.024 E1781.20041
G1 X93.024 Y116.879 E1789.63451
G1 X92.156 Y116.879 E1789.85145
G1 X116.879 Y92.156 E1798.59234
G1 X116.879 Y91.288 E1798.80928
G1 X91.288 Y116.879 E1807.85696
G1 X90.420 Y116.879 E1808.07390
G1 X116.879 Y90.420 E1817.42838
G1 X116.879 Y89.553 E1817.64532
G1 X89.553 Y116.879 E1827.30660
G1 X88.685 Y116.879 E1827.52354
G1 X116.879 Y88.685 E1837.49161
G1 X116.879 Y87.817 E1837.70855
G1 X87.817 Y116.879 E1847.98342
G1 X86.949 Y116.879 E1848.20036
G1 X116.879 Y86.949 E1858.78203
G1 X116.879 Y86.082 E1858.99897
G1 X86.082 Y116.879 E1869.88743
G1 X85.214 Y116.879 E1870.10437
G1 X116.879 Y85.214 E1881.29963
G1 X116.879 Y84.346 E1881.51657
G1 X84.346 Y116.879 E1893.01862
G1 X83.478 Y116.879 E1893.23556
G1 X116.879 Y83.478 E1905.04441
G1 X116.368 Y83.121 E1905.20020
G1 X83.121 Y116.368 E1916.95469
G1 X83.121 Y115.500 E1917.17162
G1 X115.500 Y83.121 E1928.61931
G1 X114.632 Y83.121 E1928.83625
G1 X83.121 Y114.632 E1939.97714
G1 X83.121 Y113.765 E1940.19408
G1 X113.765 Y83.121 E1951.02818
G1 X112.897 Y83.121 E1951.24512
G1 X83.121 Y112.897 E1961.77242
G1 X83.121 Y112.029 E1961.98936
G1 X112.029 Y83.121 E1972.20986
G1 X111.161 Y83.121 E1972.42680
G1 X83.121 Y111.161 E1982.34051
G1 X83.121 Y110.294 E1982.55744
G1 X110.294 Y83.121 E1992.16436
G1 X109.426 Y83.121 E1992.38129
G1 X83.121 Y109.426 E2001.68141
G1 X83.121 Y108.558 E2001.89835
G1 X108.558 Y83.121 E2010.89167
G1 X107.690 Y83.121 E2011.10861
G1 X83.121 Y107.690 E2019.79513
G1 X83.121 Y106.823 E2020.01207
G1 X106.823 Y83.121 E2028.39179
G1 X105.955 Y83.121 E2028.60873
G1 X83.121 Y105.955 E2036.68166
G1 X83.121 Y105.087 E2036.89860
G1 X105.087 Y83.121 E2044.66474
G1 X104.219 Y83.121 E2044.88167
G1 X83.121 Y104.219 E2052.34101
G1 X83.121 Y103.352 E2052.55795
G1 X103.352 Y83.121 E2059.71049
G1 X102.484 Y83.121 E2059.92743
G1 X83.121 Y102.484 E2066.77318
G1 X83.121 Y101.616 E2066.99012
G1 X101.616 Y83.121 E2073.52907
G1 X100.748 Y83.121 E2073.74600
G1 X83.121 Y100.748 E2079.97816
G1 X83.121 Y99.881 E2080.19510
G1 X99.881 Y83.121 E2086.12046
G1 X99.013 Y83.121 E2086.33739
G1 X83.121 Y99.013 E2091.95596
G1 X83.121 Y98.145 E2092.17289
G1 X98.145 Y83.121 E2097.48466
G1 X97.277 Y83.121 E2097.70160
G1 X83.121 Y97.277 E2102.70657
G1 X83.121 Y96.410 E2102.92350
G1 X96.410 Y83.121 E2107.62168
G1 X95.542 Y83.121 E2107.83862
G1 X83.121 Y95.542 E2112.22999
G1 X83.121 Y94.674 E2112.44693
G1 X94.674 Y83.121 E2116.53151
G1 X93.806 Y83.121 E2116.74845
G1 X83.121 Y93.806 E2120.52624
G1 X83.121 Y92.939 E2120.74317
G1 X92.939 Y83.121 E2124.21416
G1 X92.071 Y83.121 E2124.43110
G1 X83.121 Y92.071 E2127.59529
G1 X83.121 Y91.203 E2127.81223
G1 X91.203 Y83.121 E2130.66963
G1 X90.335 Y83.121 E2130.88657
G1 X83.121 Y90.335 E2133.43717
G1 X83.121 Y89.468 E2133.65410
G1 X89.468 Y83.121 E2135.89791
G1 X88.600 Y83.121 E2136.11485
G1 X83.121 Y88.600 E2138.05185
G1 X83.121 Y87.732 E2138.26879
G1 X87.732 Y83.121 E2139.89900
G1 X86.864 Y83.121 E2140.11594
G1 X83.121 Y86.864 E2141.43936
G1 X83.121 Y85.997 E2141.65629
G1 X85.997 Y83.121 E2142.67291
G1 X85.129 Y83.121 E2142.88985
G1 X83.121 Y85.129 E2143.59968
G1 X83.121 Y84.261 E2143.81661
G1 X84.261 Y83.121 E2144.21964
G1 X83.393 Y83.121 E2144.43658
G1 X83.121 Y83.393 E2144.53281
G1 Z2.000 F7800.000
G1 X83.393 Y116.879 F7800.000
G1 X83.121 Y116.607 E2144.62904 F4800.000
G1 X83.121 Y115.739 E2144.84598
G1 X84.261 Y116.879 E2145.24901
G1 X85.129 Y116.879 E2145.46594
G1 X83.121 Y114.871 E2146.17577
G1 X83.121 Y114.003 E2146.39271
G1 X85.997 Y116.879 E2147.40932
G1 X86.864 Y116.879 E2147.62626
G1 X83.121 Y113.136 E2148.94968
G1 X83.121 Y112.268 E2149.16662
G1 X87.732 Y116.879 E2150.79683
G1 X88.600 Y116.879 E2151.01377
G1 X83.121 Y111.400 E2152.95077
G1 X83.121 Y110.532 E2153.16771
G1 X89.468 Y116.879 E2155.41152
G1 X90.335 Y116.879 E2155.62845
G1 X83.121 Y109.665 E2158.17905
G1 X83.121 Y108.797 E2158.39599
G1 X91.203 Y116.879 E2161.25339
G1 X92.071 Y116.879 E2161.47033
G1 X83.121 Y107.929 E2164.63452
G1 X83.121 Y107.061 E2164.85146
G1 X92.939 Y116.879 E2168.32245
G1 X93.806 Y116.879 E2168.53938
G1 X83.121 Y106.194 E2172.31717
G1 X83.121 Y105.326 E2172.53411
G1 X94.674 Y116.879 E2176.61869
G1 X95.542 Y116.879 E2176.83562
G1 X83.121 Y104.458 E2181.22700
G1 X83.121 Y103.590 E2181.44394
G1 X96.410 Y116.879 E2186.14211
G1 X97.277 Y116.879 E2186.35905
G1 X83.121 Y102.723 E2191.36402
G1 X83.121 Y101.855 E2191.58096
G1 X98.145 Y116.879 E2196.89272
G1 X99.013 Y116.879 E2197.10966
G1 X83.121 Y100.987 E2202.72822
G1 X83.121 Y100.119 E2202.94516
G1 X99.881 Y116.879 E2208.87052
G1 X100.748 Y116.879 E2209.08746
G1 X83.121 Y99.252 E2215.31961
G1 X83.121 Y98.384 E2215.53655
G1 X101.616 Y116.879 E2222.07550
G1 X102.484 Y116.879 E2222.29244
G1 X83.121 Y97.516 E2229.13818
G1 X83.121 Y96.648 E2229.35512
G1 X103.352 Y116.879 E2236.50766
G1 X104.219 Y116.879 E2236.72460
G1 X83.121 Y95.781 E2244.18394
G1 X83.121 Y94.913 E2244.40088
G1 X105.087 Y116.879 E2252.16701
G1 X105.955 Y116.879 E2252.38395
G1 X83.121 Y94.045 E2260.45688
G1 X83.121 Y93.177 E2260.67382
G1 X106.823 Y116.879 E2269.05355
G1 X107.690 Y116.879 E2269.27048
G1 X83.121 Y92.310 E2277.95701
G1 X83.121 Y91.442 E2278.17395
G1 X108.558 Y116.879 E2287.16726
G1 X109.426 Y116.879 E2287.38420
G1 X83.121 Y90.574 E2296.68432
G1 X83.121 Y89.706 E2296.90126
G1 X110.294 Y116.879 E2306.50817
G1 X111.161 Y116.879 E2306.72510
G1 X83.121 Y88.839 E2316.63881
G1 X83.121 Y87.971 E2316.85575
G1 X112.029 Y116.879 E2327.07625
G1 X112.897 Y116.879 E2327.29319
G1 X83.121 Y87.103 E2337.82049
G1 X83.121 Y86.235 E2338.03743
G1 X113.765 Y116.879 E2348.87153
G1 X114.632 Y116.879 E2349.08846
G1 X83.121 Y85.368 E2360.22936
G1 X83.121 Y84.500 E2360.44629
G1 X115.500 Y116.879 E2371.89398
G1 X116.368 Y116.879 E2372.11092
G1 X83.121 Y83.632 E2383.86541
G1 X83.478 Y83.121 E2384.02119
G1 X116.879 Y116.522 E2395.83005
G1 X116.879 Y115.654 E2396.04698
G1 X84.346 Y83.121 E2407.54904
G1 X85.214 Y83.121 E2407.76598
G1 X116.879 Y114.786 E2418.96124
G1 X116.879 Y113.918 E2419.17818
G1 X86.082 Y83.121 E2430.06664
G1 X86.949 Y83.121 E2430.28358
G1 X116.879 Y113.051 E2440.86525
G1 X116.879 Y112.183 E2441.08218
G1 X87.817 Y83.121 E2451.35706
G1 X88.685 Y83.121 E2451.57399
G1 X116.879 Y111.315 E2461.54207
G1 X116.879 Y110.447 E2461.75901
G1 X89.553 Y83.121 E2471.42029
G1 X90.420 Y83.121 E2471.63723
G1 X116.879 Y109.580 E2480.99171
G1 X116.879 Y108.712 E2481.20865
G1 X91.288 Y83.121 E2490.25633
G1 X92.156 Y83.121 E2490.47327
G1 X116.879 Y107.844 E2499.21416
G1 X116.879 Y106.976 E2499.43110
G1 X93.024 Y83.121 E2507.86520
G1 X93.891 Y83.121 E2508.08213
G1 X116.879 Y106.109 E2516.20943
G1 X116.879 Y105.241 E2516.42637
G1 X94.759 Y83.121 E2524.24687
G1 X95.627 Y83.121 E2524.46381
G1 X116.879 Y104.373 E2531.97752
G1 X116.879 Y103.505 E2532.19446
G1 X96.495 Y83.121 E2539.40137
G1 X97.362 Y83.121 E2539.61830
G1 X116.879 Y102.638 E2546.51842
G1 X116.879 Y101.770 E2546.73536
G1 X98.230 Y83.121 E2553.32867
G1 X99.098 Y83.121 E2553.54561
G1 X116.879 Y100.902 E2559.83213
G1 X116.879 Y100.034 E2560.04907
G1 X99.966 Y83.121 E2566.02880
G1 X100.833 Y83.121 E2566.24574
G1 X116.879 Y99.167 E2571.91867
G1 X116.879 Y98.299 E2572.13560
G1 X101.701 Y83.121 E2577.50174
G1 X102.569 Y83.121 E2577.71868
G1 X116.879 Y97.431 E2582.77801
G1 X116.879 Y96.563 E2582.99495
G1 X103.437 Y83.121 E2587.74749
G1 X104.304 Y83.121 E2587.96443
G1 X116.879 Y95.696 E2592.41018
G1 X116.879 Y94.828 E2592.62711
G1 X105.172 Y83.121 E2596.76606
G1 X106.040 Y83.121 E2596.98300
G1 X116.879 Y93.960 E2600.81515
G1 X116.879 Y93.092 E2601.03209
G1 X106.908 Y83.121 E2604.55745
G1 X107.775 Y83.121 E2604.77439
G1 X116.879 Y92.225 E2607.99295
G1 X116.879 Y91.357 E2608.20988
G1 X108.643 Y83.121 E2611.12165
G1 X109.511 Y83.121 E2611.33859
G1 X116.879 Y90.489 E2613.94356
G1 X116.879 Y89.621 E2614.16049
G1 X110.379 Y83.121 E2616.45867
G1 X111.246 Y83.121 E2616.67560
G1 X116.879 Y88.754 E2618.66698
G1 X116.879 Y87.886 E2618.88392
G1 X112.114 Y83.121 E2620.56850
G1 X112.982 Y83.121 E2620.78544
G1 X116.879 Y87.018 E2622.16322
G1 X116.879 Y86.150 E2622.38016
G1 X113.850 Y83.121 E2623.45115
G1 X114.717 Y83.121 E2623.66808
G1 X116.879 Y85.283 E2624.43228
G1 X116.879 Y84.415 E2624.64921
G1 X115.585 Y83.121 E2625.10661
G1 X116.453 Y83.121 E2625.32355
G1 X116.879 Y83.547 E2625.47415
