; generated by Slic3r 1.2.9 on 2019-07-02 at 16:22:08

; external perimeters extrusion width = 0.50mm
; perimeters extrusion width = 0.58mm
; infill extrusion width = 0.58mm
; solid infill extrusion width = 0.58mm
; top infill extrusion width = 0.58mm

M107
M104 S200 ; set temperature
G28 ; home all axes
G1 Z5 F5000 ; lift nozzle

M109 S200 ; wait for temperature to be reached
G21 ; set units to millimeters
G90 ; use absolute coordinates
M82 ; use absolute distances for extrusion
G92 E0
G1 Z0.400 F7800.000
G1 E-2.00000 F2400.00000
G92 E0
G1 X104.879 Y80.324 F7800.000
G1 E2.00000 F2400.00000
G1 X103.176 Y78.621 E2.87562 F1800.000
G1 X101.441 Y78.621 E3.50685
G1 X104.879 Y82.059 E5.27517
G1 X104.879 Y83.795 E5.90640
G1 X99.705 Y78.621 E8.56741
G1 X97.970 Y78.621 E9.19865
G1 X104.879 Y85.530 E12.75236
G1 X104.879 Y87.266 E13.38359
G1 X96.234 Y78.621 E17.83001
G1 X95.121 Y79.244 E18.29386
G1 X104.879 Y89.001 E23.31284
G1 X104.879 Y90.737 E23.94407
G1 X95.121 Y80.979 E28.96306
G1 X95.121 Y82.715 E29.59429
G1 X104.879 Y92.472 E34.61327
G1 X104.879 Y94.208 E35.24450
G1 X95.121 Y84.450 E40.26348
G1 X95.121 Y86.186 E40.89472
G1 X104.879 Y95.943 E45.91370
G1 X104.879 Y97.679 E46.54493
G1 X95.121 Y87.921 E51.56391
G1 X95.121 Y89.657 E52.19515
G1 X104.879 Y99.414 E57.21413
G1 X104.879 Y101.150 E57.84536
G1 X95.121 Y91.392 E62.86434
G1 X95.121 Y93.128 E63.49558
G1 X104.879 Y102.885 E68.51456
G1 X104.879 Y104.621 E69.14579
G1 X95.121 Y94.863 E74.16477
G1 X95.121 Y96.599 E74.79601
G1 X104.879 Y106.356 E79.81499
G1 X104.879 Y108.092 E80.44622
G1 X95.121 Y98.334 E85.46520
G1 X95.121 Y100.070 E86.09644
G1 X104.879 Y109.827 E91.11542
G1 X104.879 Y111.563 E91.74665
G1 X95.121 Y101.805 E96.76563
G1 X95.121 Y103.541 E97.39687
G1 X104.879 Y113.298 E102.41585
G1 X104.879 Y115.034 E103.04708
G1 X95.121 Y105.276 E108.06606
G1 X95.121 Y107.012 E108.69729
G1 X104.879 Y116.769 E113.71628
G1 X104.879 Y118.505 E114.34751
G1 X95.121 Y108.747 E119.36649
G1 X95.121 Y110.483 E119.99772
G1 X104.879 Y120.240 E125.01671
G1 X104.282 Y121.379 E125.48429
G1 X95.121 Y112.218 E130.19625
G1 X95.121 Y113.954 E130.82748
G1 X102.546 Y121.379 E134.64674
G1 X100.811 Y121.379 E135.27797
G1 X95.121 Y115.689 E138.20453
G1 X95.121 Y117.425 E138.83577
G1 X99.075 Y121.379 E140.86962
G1 X97.340 Y121.379 E141.50086
G1 X95.121 Y119.160 E142.64202
G1 X95.121 Y120.896 E143.27325
G1 X95.604 Y121.379 E143.52171
G1 Z0.800 F7800.000
G1 X103.176 Y121.379 F7800.000
G1 X104.879 Y119.676 E144.12356 F4680.085
G1 X104.879 Y117.941 E144.55743
G1 X101.441 Y121.379 E145.77288
G1 X99.705 Y121.379 E146.20675
G1 X104.879 Y116.205 E148.03579
G1 X104.879 Y114.470 E148.46966
G1 X97.970 Y121.379 E150.91229
G1 X96.234 Y121.379 E151.34616
G1 X104.879 Y112.734 E154.40238
G1 X104.879 Y110.999 E154.83626
G1 X95.121 Y120.756 E158.28603
G1 X95.121 Y119.021 E158.71990
G1 X104.879 Y109.263 E162.16968
G1 X104.879 Y107.528 E162.60355
G1 X95.121 Y117.285 E166.05332
G1 X95.121 Y115.550 E166.48720
G1 X104.879 Y105.792 E169.93697
G1 X104.879 Y104.057 E170.37085
G1 X95.121 Y113.814 E173.82062
G1 X95.121 Y112.079 E174.25449
G1 X104.879 Y102.321 E177.70426
G1 X104.879 Y100.586 E178.13814
G1 X95.121 Y110.343 E181.58791
G1 X95.121 Y108.608 E182.02179
G1 X104.879 Y98.850 E185.47156
G1 X104.879 Y97.115 E185.90543
G1 X95.121 Y106.872 E189.35520
G1 X95.121 Y105.137 E189.78908
G1 X104.879 Y95.379 E193.23885
G1 X104.879 Y93.644 E193.67273
G1 X95.121 Y103.401 E197.12250
G1 X95.121 Y101.666 E197.55637
G1 X104.879 Y91.908 E201.00614
G1 X104.879 Y90.173 E201.44002
G1 X95.121 Y99.930 E204.88979
G1 X95.121 Y98.195 E205.32367
G1 X104.879 Y88.437 E208.77344
G1 X104.879 Y86.702 E209.20731
G1 X95.121 Y96.459 E212.65708
G1 X95.121 Y94.724 E213.09096
G1 X104.879 Y84.966 E216.54073
G1 X104.879 Y83.231 E216.97460
G1 X95.121 Y92.988 E220.42438
G1 X95.121 Y91.253 E220.85825
G1 X104.879 Y81.495 E224.30802
G1 X104.879 Y79.760 E224.74190
G1 X95.121 Y89.517 E228.19167
G1 X95.121 Y87.782 E228.62554
G1 X104.282 Y78.621 E231.86428
G1 X102.546 Y78.621 E232.29816
G1 X95.121 Y86.046 E234.92331
G1 X95.121 Y84.311 E235.35718
G1 X100.811 Y78.621 E237.36874
G1 X99.075 Y78.621 E237.80261
G1 X95.121 Y82.575 E239.20057
G1 X95.121 Y80.840 E239.63445
G1 X97.340 Y78.621 E240.41882
G1 X95.604 Y78.621 E240.85269
G1 X95.121 Y79.104 E241.02347
G1 Z1.200 F7800.000
G1 X104.879 Y80.324 F7800.000
G1 X103.176 Y78.621 E241.62532 F4669.164
G1 X101.441 Y78.621 E242.05920
G1 X104.879 Y82.059 E243.27464
G1 X104.879 Y83.795 E243.70851
G1 X99.705 Y78.621 E245.53755
G1 X97.970 Y78.621 E245.97142
G1 X104.879 Y85.530 E248.41405
G1 X104.879 Y87.266 E248.84793
G1 X96.234 Y78.621 E251.90415
G1 X95.121 Y79.244 E252.22297
G1 X104.879 Y89.001 E255.67275
G1 X104.879 Y90.737 E256.10662
G1 X95.121 Y80.979 E259.55639
G1 X95.121 Y82.715 E259.99027
G1 X104.879 Y92.472 E263.44004
G1 X104.879 Y94.208 E263.87391
G1 X95.121 Y84.450 E267.32369
G1 X95.121 Y86.186 E267.75756
G1 X104.879 Y95.943 E271.20733
G1 X104.879 Y97.679 E271.64121
G1 X95.121 Y87.921 E275.09098
G1 X95.121 Y89.657 E275.52485
G1 X104.879 Y99.414 E278.97463
G1 X104.879 Y101.150 E279.40850
G1 X95.121 Y91.392 E282.85827
G1 X95.121 Y93.128 E283.29215
G1 X104.879 Y102.885 E286.74192
G1 X104.879 Y104.621 E287.17579
G1 X95.121 Y94.863 E290.62557
G1 X95.121 Y96.599 E291.05944
G1 X104.879 Y106.356 E294.50921
G1 X104.879 Y108.092 E294.94309
G1 X95.121 Y98.334 E298.39286
G1 X95.121 Y100.070 E298.82674
G1 X104.879 Y109.827 E302.27651
G1 X104.879 Y111.563 E302.71038
G1 X95.121 Y101.805 E306.16015
G1 X95.121 Y103.541 E306.59403
G1 X104.879 Y113.298 E310.04380
G1 X104.879 Y115.034 E310.47768
G1 X95.121 Y105.276 E313.92745
G1 X95.121 Y107.012 E314.36132
G1 X104.879 Y116.769 E317.81109
G1 X104.879 Y118.505 E318.24497
G1 X95.121 Y108.747 E321.69474
G1 X95.121 Y110.483 E322.12862
G1 X104.879 Y120.240 E325.57839
G1 X104.282 Y121.379 E325.89978
G1 X95.121 Y112.218 E329.13852
G1 X95.121 Y113.954 E329.57240
G1 X102.546 Y121.379 E332.19754
G1 X100.811 Y121.379 E332.63142
G1 X95.121 Y115.689 E334.64297
G1 X95.121 Y117.425 E335.07685
G1 X99.075 Y121.379 E336.47481
G1 X97.340 Y121.379 E336.90869
G1 X95.121 Y119.160 E337.69306
G1 X95.121 Y120.896 E338.12693
G1 X95.604 Y121.379 E338.29771
M106 S255
G1 Z1.600 F7800.000
G1 X103.176 Y121.379 F7800.000
G1 X104.879 Y119.676 E338.89956 F4680.085
G1 X104.879 Y117.941 E339.33343
G1 X101.441 Y121.379 E340.54888
G1 X99.705 Y121.379 E340.98275
G1 X104.879 Y116.205 E342.81179
G1 X104.879 Y114.470 E343.24566
G1 X97.970 Y121.379 E345.68829
G1 X96.234 Y121.379 E346.12217
G1 X104.879 Y112.734 E349.17838
G1 X104.879 Y110.999 E349.61226
G1 X95.121 Y120.756 E353.06203
G1 X95.121 Y119.021 E353.49591
G1 X104.879 Y109.263 E356.94568
G1 X104.879 Y107.528 E357.37955
G1 X95.121 Y117.285 E360.82933
G1 X95.121 Y115.550 E361.26320
G1 X104.879 Y105.792 E364.71297
G1 X104.879 Y104.057 E365.14685
G1 X95.121 Y113.814 E368.59662
G1 X95.121 Y112.079 E369.03049
G1 X104.879 Y102.321 E372.48027
G1 X104.879 Y100.586 E372.91414
G1 X95.121 Y110.343 E376.36391
G1 X95.121 Y108.608 E376.79779
G1 X104.879 Y98.850 E380.24756
G1 X104.879 Y97.115 E380.68143
G1 X95.121 Y106.872 E384.13121
G1 X95.121 Y105.137 E384.56508
G1 X104.879 Y95.379 E388.01485
G1 X104.879 Y93.644 E388.44873
G1 X95.121 Y103.401 E391.89850
G1 X95.121 Y101.666 E392.33237
G1 X104.879 Y91.908 E395.78214
G1 X104.879 Y90.173 E396.21602
G1 X95.121 Y99.930 E399.66579
G1 X95.121 Y98.195 E400.09967
G1 X104.879 Y88.437 E403.54944
G1 X104.879 Y86.702 E403.98331
G1 X95.121 Y96.459 E407.43308
G1 X95.121 Y94.724 E407.86696
G1 X104.879 Y84.966 E411.31673
G1 X104.879 Y83.231 E411.75061
G1 X95.121 Y92.988 E415.20038
G1 X95.121 Y91.253 E415.63425
G1 X104.879 Y81.495 E419.08402
G1 X104.879 Y79.760 E419.51790
G1 X95.121 Y89.517 E422.96767
G1 X95.121 Y87.782 E423.40155
G1 X104.282 Y78.621 E426.64028
G1 X102.546 Y78.621 E427.07416
G1 X95.121 Y86.046 E429.69931
G1 X95.121 Y84.311 E430.13318
G1 X100.811 Y78.621 E432.14474
G1 X99.075 Y78.621 E432.57861
G1 X95.121 Y82.575 E433.97657
G1 X95.121 Y80.840 E434.41045
G1 X97.340 Y78.621 E435.19482
G1 X95.604 Y78.621 E435.62869
G1 X95.121 Y79.104 E435.79947
G1 Z2.000 F7800.000
G1 X104.879 Y80.324 F7800.000
G1 X103.176 Y78.621 E436.40132 F4669.164
G1 X101.441 Y78.621 E436.83520
G1 X104.879 Y82.059 E438.05064
G1 X104.879 Y83.795 E438.48452
G1 X99.705 Y78.621 E440.31355
G1 X97.970 Y78.621 E440.74743
G1 X104.879 Y85.530 E443.19005
G1 X104.879 Y87.266 E443.62393
G1 X96.234 Y78.621 E446.68015
G1 X95.121 Y79.244 E446.99898
G1 X104.879 Y89.001 E450.44875
G1 X104.879 Y90.737 E450.88262
G1 X95.121 Y80.979 E454.33239
G1 X95.121 Y82.715 E454.76627
G1 X104.879 Y92.472 E458.21604
G1 X104.879 Y94.208 E458.64992
G1 X95.121 Y84.450 E462.09969
G1 X95.121 Y86.186 E462.53356
G1 X104.879 Y95.943 E465.98333
G1 X104.879 Y97.679 E466.41721
G1 X95.121 Y87.921 E469.86698
G1 X95.121 Y89.657 E470.30086
G1 X104.879 Y99.414 E473.75063
G1 X104.879 Y101.150 E474.18450
G1 X95.121 Y91.392 E477.63427
G1 X95.121 Y93.128 E478.06815
G1 X104.879 Y102.885 E481.51792
G1 X104.879 Y104.621 E481.95180
G1 X95.121 Y94.863 E485.40157
G1 X95.121 Y96.599 E485.83544
G1 X104.879 Y106.356 E489.28521
G1 X104.879 Y108.092 E489.71909
G1 X95.121 Y98.334 E493.16886
G1 X95.121 Y100.070 E493.60274
G1 X104.879 Y109.827 E497.05251
G1 X104.879 Y111.563 E497.48638
G1 X95.121 Y101.805 E500.93616
G1 X95.121 Y103.541 E501.37003
G1 X104.879 Y113.298 E504.81980
G1 X104.879 Y115.034 E505.25368
G1 X95.121 Y105.276 E508.70345
G1 X95.121 Y107.012 E509.13732
G1 X104.879 Y116.769 E512.58710
G1 X104.879 Y118.505 E513.02097
G1 X95.121 Y108.747 E516.47074
G1 X95.121 Y110.483 E516.90462
G1 X104.879 Y120.240 E520.35439
G1 X104.282 Y121.379 E520.67578
G1 X95.121 Y112.218 E523.91452
G1 X95.121 Y113.954 E524.34840
G1 X102.546 Y121.379 E526.97355
G1 X100.811 Y121.379 E527.40742
G1 X95.121 Y115.689 E529.41898
G1 X95.121 Y117.425 E529.85285
G1 X99.075 Y121.379 E531.25081
G1 X97.340 Y121.379 E531.68469
G1 X95.121 Y119.160 E532.46906
G1 X95.121 Y120.896 E532.90293
G1 X95.604 Y121.379 E533.07371
G1 Z2.400 F7800.000
G1 X103.176 Y121.379 F7800.000
G1 X104.879 Y119.676 E533.67556 F4680.085
G1 X104.879 Y117.941 E534.10944
G1 X101.441 Y121.379 E535.32488
G1 X99.705 Y121.379 E535.75875
G1 X104.879 Y116.205 E537.58779
G1 X104.879 Y114.470 E538.02166
G1 X97.970 Y121.379 E540.46429
G1 X96.234 Y121.379 E540.89817
G1 X104.879 Y112.734 E543.95439
G1 X104.879 Y110.999 E544.38826
G1 X95.121 Y120.756 E547.83803
G1 X95.121 Y119.021 E548.27191
G1 X104.879 Y109.263 E551.72168
G1 X104.879 Y107.528 E552.15555
G1 X95.121 Y117.285 E555.60533
G1 X95.121 Y115.550 E556.03920
G1 X104.879 Y105.792 E559.48897
G1 X104.879 Y104.057 E559.92285
G1 X95.121 Y113.814 E563.37262
G1 X95.121 Y112.079 E563.80650
G1 X104.879 Y102.321 E567.25627
G1 X104.879 Y100.586 E567.69014
G1 X95.121 Y110.343 E571.13991
G1 X95.121 Y108.608 E571.57379
G1 X104.879 Y98.850 E575.02356
G1 X104.879 Y97.115 E575.45744
G1 X95.121 Y106.872 E578.90721
G1 X95.121 Y105.137 E579.34108
G1 X104.879 Y95.379 E582.79085
G1 X104.879 Y93.644 E583.22473
G1 X95.121 Y103.401 E586.67450
G1 X95.121 Y101.666 E587.10837
G1 X104.879 Y91.908 E590.55815
G1 X104.879 Y90.173 E590.99202
G1 X95.121 Y99.930 E594.44179
G1 X95.121 Y98.195 E594.87567
G1 X104.879 Y88.437 E598.32544
G1 X104.879 Y86.702 E598.75931
G1 X95.121 Y96.459 E602.20909
G1 X95.121 Y94.724 E602.64296
G1 X104.879 Y84.966 E606.09273
G1 X104.879 Y83.231 E606.52661
G1 X95.121 Y92.988 E609.97638
G1 X95.121 Y91.253 E610.41025
G1 X104.879 Y81.495 E613.86003
G1 X104.879 Y79.760 E614.29390
G1 X95.121 Y89.517 E617.74367
G1 X95.121 Y87.782 E618.17755
G1 X104.282 Y78.621 E621.41629
G1 X102.546 Y78.621 E621.85016
G1 X95.121 Y86.046 E624.47531
G1 X95.121 Y84.311 E624.90918
G1 X100.811 Y78.621 E626.92074
G1 X99.075 Y78.621 E627.35461
G1 X95.121 Y82.575 E628.75258
G1 X95.121 Y80.840 E629.18645
G1 X97.340 Y78.621 E629.97082
G1 X95.604 Y78.621 E630.40470
G1 X95.121 Y79.104 E630.57547
G1 Z2.800 F7800.000
G1 X104.879 Y80.324 F7800.000
G1 X103.176 Y78.621 E631.17732 F4669.164
G1 X101.441 Y78.621 E631.61120
G1 X104.879 Y82.059 E632.82664
G1 X104.879 Y83.795 E633.26052
G1 X99.705 Y78.621 E635.08955
G1 X97.970 Y78.621 E635.52343
G1 X104.879 Y85.530 E637.96605
G1 X104.879 Y87.266 E638.39993
G1 X96.234 Y78.621 E641.45615
G1 X95.121 Y79.244 E641.77498
G1 X104.879 Y89.001 E645.22475
G1 X104.879 Y90.737 E645.65862
G1 X95.121 Y80.979 E649.10839
G1 X95.121 Y82.715 E649.54227
G1 X104.879 Y92.472 E652.99204
G1 X104.879 Y94.208 E653.42592
G1 X95.121 Y84.450 E656.87569
G1 X95.121 Y86.186 E657.30956
G1 X104.879 Y95.943 E660.75934
G1 X104.879 Y97.679 E661.19321
G1 X95.121 Y87.921 E664.64298
G1 X95.121 Y89.657 E665.07686
G1 X104.879 Y99.414 E668.52663
G1 X104.879 Y101.150 E668.96050
G1 X95.121 Y91.392 E672.41028
G1 X95.121 Y93.128 E672.84415
G1 X104.879 Y102.885 E676.29392
G1 X104.879 Y104.621 E676.72780
G1 X95.121 Y94.863 E680.17757
G1 X95.121 Y96.599 E680.61144
G1 X104.879 Y106.356 E684.06122
G1 X104.879 Y108.092 E684.49509
G1 X95.121 Y98.334 E687.94486
G1 X95.121 Y100.070 E688.37874
G1 X104.879 Y109.827 E691.82851
G1 X104.879 Y111.563 E692.26239
G1 X95.121 Y101.805 E695.71216
G1 X95.121 Y103.541 E696.14603
G1 X104.879 Y113.298 E699.59580
G1 X104.879 Y115.034 E700.02968
G1 X95.121 Y105.276 E703.47945
G1 X95.121 Y107.012 E703.91333
G1 X104.879 Y116.769 E707.36310
G1 X104.879 Y118.505 E707.79697
G1 X95.121 Y108.747 E711.24674
G1 X95.121 Y110.483 E711.68062
G1 X104.879 Y120.240 E715.13039
G1 X104.282 Y121.379 E715.45179
G1 X95.121 Y112.218 E718.69053
G1 X95.121 Y113.954 E719.12440
G1 X102.546 Y121.379 E721.74955
G1 X100.811 Y121.379 E722.18342
G1 X95.121 Y115.689 E724.19498
G1 X95.121 Y117.425 E724.62885
G1 X99.075 Y121.379 E726.02681
G1 X97.340 Y121.379 E726.46069
G1 X95.121 Y119.160 E727.24506
G1 X95.121 Y120.896 E727.67893
G1 X95.604 Y121.379 E727.84971
G1 Z3.200 F7800.000
G1 X103.176 Y121.379 F7800.000
G1 X104.879 Y119.676 E728.45156 F4680.085
G1 X104.879 Y117.941 E728.88544
G1 X101.441 Y121.379 E730.10088
G1 X99.705 Y121.379 E730.53476
G1 X104.879 Y116.205 E732.36379
G1 X104.879 Y114.470 E732.79767
G1 X97.970 Y121.379 E735.24029
G1 X96.234 Y121.379 E735.67417
G1 X104.879 Y112.734 E738.73039
G1 X104.879 Y110.999 E739.16426
G1 X95.121 Y120.756 E742.61403
G1 X95.121 Y119.021 E743.04791
G1 X104.879 Y109.263 E746.49768
G1 X104.879 Y107.528 E746.93156
G1 X95.121 Y117.285 E750.38133
G1 X95.121 Y115.550 E750.81520
G1 X104.879 Y105.792 E754.26497
G1 X104.879 Y104.057 E754.69885
G1 X95.121 Y113.814 E758.14862
G1 X95.121 Y112.079 E758.58250
G1 X104.879 Y102.321 E762.03227
G1 X104.879 Y100.586 E762.46614
G1 X95.121 Y110.343 E765.91591
G1 X95.121 Y108.608 E766.34979
G1 X104.879 Y98.850 E769.79956
G1 X104.879 Y97.115 E770.23344
G1 X95.121 Y106.872 E773.68321
G1 X95.121 Y105.137 E774.11708
G1 X104.879 Y95.379 E777.56685
G1 X104.879 Y93.644 E778.00073
G1 X95.121 Y103.401 E781.45050
G1 X95.121 Y101.666 E781.88438
G1 X104.879 Y91.908 E785.33415
G1 X104.879 Y90.173 E785.76802
G1 X95.121 Y99.930 E789.21779
G1 X95.121 Y98.195 E789.65167
G1 X104.879 Y88.437 E793.10144
G1 X104.879 Y86.702 E793.53532
G1 X95.121 Y96.459 E796.98509
G1 X95.121 Y94.724 E797.41896
G1 X104.879 Y84.966 E800.86873
G1 X104.879 Y83.231 E801.30261
G1 X95.121 Y92.988 E804.75238
G1 X95.121 Y91.253 E805.18626
G1 X104.879 Y81.495 E808.63603
G1 X104.879 Y79.760 E809.06990
G1 X95.121 Y89.517 E812.51967
G1 X95.121 Y87.782 E812.95355
G1 X104.282 Y78.621 E816.19229
G1 X102.546 Y78.621 E816.62616
G1 X95.121 Y86.046 E819.25131
G1 X95.121 Y84.311 E819.68518
G1 X100.811 Y78.621 E821.69674
G1 X99.075 Y78.621 E822.13061
G1 X95.121 Y82.575 E823.52858
G1 X95.121 Y80.840 E823.96245
G1 X97.340 Y78.621 E824.74682
G1 X95.604 Y78.621 E825.18070
G1 X95.121 Y79.104 E825.35147
G1 Z3.600 F7800.000
G1 X104.879 Y80.324 F7800.000
G1 X103.176 Y78.621 E825.95333 F4669.164
G1 X101.441 Y78.621 E826.38720
G1 X104.879 Y82.059 E827.60264
G1 X104.879 Y83.795 E828.03652
G1 X99.705 Y78.621 E829.86555
G1 X97.970 Y78.621 E830.29943
G1 X104.879 Y85.530 E832.74206
G1 X104.879 Y87.266 E833.17593
G1 X96.234 Y78.621 E836.23215
G1 X95.121 Y79.244 E836.55098
G1 X104.879 Y89.001 E840.00075
G1 X104.879 Y90.737 E840.43462
G1 X95.121 Y80.979 E843.88440
G1 X95.121 Y82.715 E844.31827
G1 X104.879 Y92.472 E847.76804
G1 X104.879 Y94.208 E848.20192
G1 X95.121 Y84.450 E851.65169
G1 X95.121 Y86.186 E852.08557
G1 X104.879 Y95.943 E855.53534
G1 X104.879 Y97.679 E855.96921
G1 X95.121 Y87.921 E859.41898
G1 X95.121 Y89.657 E859.85286
G1 X104.879 Y99.414 E863.30263
G1 X104.879 Y101.150 E863.73651
G1 X95.121 Y91.392 E867.18628
G1 X95.121 Y93.128 E867.62015
G1 X104.879 Y102.885 E871.06992
G1 X104.879 Y104.621 E871.50380
G1 X95.121 Y94.863 E874.95357
G1 X95.121 Y96.599 E875.38745
G1 X104.879 Y106.356 E878.83722
G1 X104.879 Y108.092 E879.27109
G1 X95.121 Y98.334 E882.72086
G1 X95.121 Y100.070 E883.15474
G1 X104.879 Y109.827 E886.60451
G1 X104.879 Y111.563 E887.03839
G1 X95.121 Y101.805 E890.48816
G1 X95.121 Y103.541 E890.92203
G1 X104.879 Y113.298 E894.37180
G1 X104.879 Y115.034 E894.80568
G1 X95.121 Y105.276 E898.25545
G1 X95.121 Y107.012 E898.68933
G1 X104.879 Y116.769 E902.13910
G1 X104.879 Y118.505 E902.57297
G1 X95.121 Y108.747 E906.02275
G1 X95.121 Y110.483 E906.45662
G1 X104.879 Y120.240 E909.90639
G1 X104.282 Y121.379 E910.22779
G1 X95.121 Y112.218 E913.46653
G1 X95.121 Y113.954 E913.90040
G1 X102.546 Y121.379 E916.52555
G1 X100.811 Y121.379 E916.95942
G1 X95.121 Y115.689 E918.97098
G1 X95.121 Y117.425 E919.40485
G1 X99.075 Y121.379 E920.80282
G1 X97.340 Y121.379 E921.23669
G1 X95.121 Y119.160 E922.02106
G1 X95.121 Y120.896 E922.45494
G1 X95.604 Y121.379 E922.62571
G1 Z4.000 F7800.000
G1 X103.176 Y121.379 F7800.000
G1 X104.879 Y119.676 E923.22756 F4680.085
G1 X104.879 Y117.941 E923.66144
G1 X101.441 Y121.379 E924.87688
G1 X99.705 Y121.379 E925.31076
G1 X104.879 Y116.205 E927.13979
G1 X104.879 Y114.470 E927.57367
G1 X97.970 Y121.379 E930.01629
G1 X96.234 Y121.379 E930.45017
G1 X104.879 Y112.734 E933.50639
G1 X104.879 Y110.999 E933.94026
G1 X95.121 Y120.756 E937.39004
G1 X95.121 Y119.021 E937.82391
G1 X104.879 Y109.263 E941.27368
G1 X104.879 Y107.528 E941.70756
G1 X95.121 Y117.285 E945.15733
G1 X95.121 Y115.550 E945.59120
G1 X104.879 Y105.792 E949.04098
G1 X104.879 Y104.057 E949.47485
G1 X95.121 Y113.814 E952.92462
G1 X95.121 Y112.079 E953.35850
G1 X104.879 Y102.321 E956.80827
G1 X104.879 Y100.586 E957.24214
G1 X95.121 Y110.343 E960.69192
G1 X95.121 Y108.608 E961.12579
G1 X104.879 Y98.850 E964.57556
G1 X104.879 Y97.115 E965.00944
G1 X95.121 Y106.872 E968.45921
G1 X95.121 Y105.137 E968.89308
G1 X104.879 Y95.379 E972.34286
G1 X104.879 Y93.644 E972.77673
G1 X95.121 Y103.401 E976.22650
G1 X95.121 Y101.666 E976.66038
G1 X104.879 Y91.908 E980.11015
G1 X104.879 Y90.173 E980.54402
G1 X95.121 Y99.930 E983.99380
G1 X95.121 Y98.195 E984.42767
G1 X104.879 Y88.437 E987.87744
G1 X104.879 Y86.702 E988.31132
G1 X95.121 Y96.459 E991.76109
G1 X95.121 Y94.724 E992.19496
G1 X104.879 Y84.966 E995.64474
G1 X104.879 Y83.231 E996.07861
G1 X95.121 Y92.988 E999.52838
G1 X95.121 Y91.253 E999.96226
G1 X104.879 Y81.495 E1003.41203
G1 X104.879 Y79.760 E1003.84590
G1 X95.121 Y89.517 E1007.29567
G1 X95.121 Y87.782 E1007.72955
G1 X104.282 Y78.621 E1010.96829
G1 X102.546 Y78.621 E1011.40216
G1 X95.121 Y86.046 E1014.02731
G1 X95.121 Y84.311 E1014.46119
G1 X100.811 Y78.621 E1016.47274
G1 X99.075 Y78.621 E1016.90662
G1 X95.121 Y82.575 E1018.30458
G1 X95.121 Y80.840 E1018.73845
G1 X97.340 Y78.621 E1019.52282
G1 X95.604 Y78.621 E1019.95670
G1 X95.121 Y79.104 E1020.12748
G1 Z4.400 F7800.000
G1 X104.879 Y80.324 F7800.000
G1 X103.176 Y78.621 E1020.72933 F4669.164
G1 X101.441 Y78.621 E1021.16320
G1 X104.879 Y82.059 E1022.37864
G1 X104.879 Y83.795 E1022.81252
G1 X99.705 Y78.621 E1024.64156
G1 X97.970 Y78.621 E1025.07543
G1 X104.879 Y85.530 E1027.51806
G1 X104.879 Y87.266 E1027.95193
G1 X96.234 Y78.621 E1031.00815
G1 X95.121 Y79.244 E1031.32698
G1 X104.879 Y89.001 E1034.77675
G1 X104.879 Y90.737 E1035.21063
G1 X95.121 Y80.979 E1038.66040
G1 X95.121 Y82.715 E1039.09427
G1 X104.879 Y92.472 E1042.54404
G1 X104.879 Y94.208 E1042.97792
G1 X95.121 Y84.450 E1046.42769
G1 X95.121 Y86.186 E1046.86157
G1 X104.879 Y95.943 E1050.31134
G1 X104.879 Y97.679 E1050.74521
G1 X95.121 Y87.921 E1054.19499
G1 X95.121 Y89.657 E1054.62886
G1 X104.879 Y99.414 E1058.07863
G1 X104.879 Y101.150 E1058.51251
G1 X95.121 Y91.392 E1061.96228
G1 X95.121 Y93.128 E1062.39615
G1 X104.879 Y102.885 E1065.84593
G1 X104.879 Y104.621 E1066.27980
G1 X95.121 Y94.863 E1069.72957
G1 X95.121 Y96.599 E1070.16345
G1 X104.879 Y106.356 E1073.61322
G1 X104.879 Y108.092 E1074.04709
G1 X95.121 Y98.334 E1077.49687
G1 X95.121 Y100.070 E1077.93074
G1 X104.879 Y109.827 E1081.38051
G1 X104.879 Y111.563 E1081.81439
G1 X95.121 Y101.805 E1085.26416
G1 X95.121 Y103.541 E1085.69803
G1 X104.879 Y113.298 E1089.14781
G1 X104.879 Y115.034 E1089.58168
G1 X95.121 Y105.276 E1093.03145
G1 X95.121 Y107.012 E1093.46533
G1 X104.879 Y116.769 E1096.91510
G1 X104.879 Y118.505 E1097.34898
G1 X95.121 Y108.747 E1100.79875
G1 X95.121 Y110.483 E1101.23262
G1 X104.879 Y120.240 E1104.68239
G1 X104.282 Y121.379 E1105.00379
G1 X95.121 Y112.218 E1108.24253
G1 X95.121 Y113.954 E1108.67640
G1 X102.546 Y121.379 E1111.30155
G1 X100.811 Y121.379 E1111.73543
G1 X95.121 Y115.689 E1113.74698
G1 X95.121 Y117.425 E1114.18086
G1 X99.075 Y121.379 E1115.57882
G1 X97.340 Y121.379 E1116.01269
G1 X95.121 Y119.160 E1116.79706
G1 X95.121 Y120.896 E1117.23094
G1 X95.604 Y121.379 E1117.40171
G1 Z4.800 F7800.000
G1 X103.176 Y121.379 F7800.000
G1 X104.879 Y119.676 E1118.00357 F4680.085
G1 X104.879 Y117.941 E1118.43744
G1 X101.441 Y121.379 E1119.65288
G1 X99.705 Y121.379 E1120.08676
G1 X104.879 Y116.205 E1121.91579
G1 X104.879 Y114.470 E1122.34967
G1 X97.970 Y121.379 E1124.79230
G1 X96.234 Y121.379 E1125.22617
G1 X104.879 Y112.734 E1128.28239
G1 X104.879 Y110.999 E1128.71626
G1 X95.121 Y120.756 E1132.16604
G1 X95.121 Y119.021 E1132.59991
G1 X104.879 Y109.263 E1136.04968
G1 X104.879 Y107.528 E1136.48356
G1 X95.121 Y117.285 E1139.93333
G1 X95.121 Y115.550 E1140.36721
G1 X104.879 Y105.792 E1143.81698
G1 X104.879 Y104.057 E1144.25085
G1 X95.121 Y113.814 E1147.70062
G1 X95.121 Y112.079 E1148.13450
G1 X104.879 Y102.321 E1151.58427
G1 X104.879 Y100.586 E1152.01815
G1 X95.121 Y110.343 E1155.46792
G1 X95.121 Y108.608 E1155.90179
G1 X104.879 Y98.850 E1159.35156
G1 X104.879 Y97.115 E1159.78544
G1 X95.121 Y106.872 E1163.23521
G1 X95.121 Y105.137 E1163.66909
G1 X104.879 Y95.379 E1167.11886
G1 X104.879 Y93.644 E1167.55273
G1 X95.121 Y103.401 E1171.00250
G1 X95.121 Y101.666 E1171.43638
G1 X104.879 Y91.908 E1174.88615
G1 X104.879 Y90.173 E1175.32003
G1 X95.121 Y99.930 E1178.76980
G1 X95.121 Y98.195 E1179.20367
G1 X104.879 Y88.437 E1182.65344
G1 X104.879 Y86.702 E1183.08732
G1 X95.121 Y96.459 E1186.53709
G1 X95.121 Y94.724 E1186.97096
G1 X104.879 Y84.966 E1190.42074
G1 X104.879 Y83.231 E1190.85461
G1 X95.121 Y92.988 E1194.30438
G1 X95.121 Y91.253 E1194.73826
G1 X104.879 Y81.495 E1198.18803
G1 X104.879 Y79.760 E1198.62190
G1 X95.121 Y89.517 E1202.07168
G1 X95.121 Y87.782 E1202.50555
G1 X104.282 Y78.621 E1205.74429
G1 X102.546 Y78.621 E1206.17817
G1 X95.121 Y86.046 E1208.80331
G1 X95.121 Y84.311 E1209.23719
G1 X100.811 Y78.621 E1211.24874
G1 X99.075 Y78.621 E1211.68262
G1 X95.121 Y82.575 E1213.08058
G1 X95.121 Y80.840 E1213.51446
G1 X97.340 Y78.621 E1214.29882
G1 X95.604 Y78.621 E1214.73270
G1 X95.121 Y79.104 E1214.90348
G1 Z5.200 F7800.000
G1 X104.879 Y80.324 F7800.000
G1 X103.176 Y78.621 E1215.50533 F4669.164
G1 X101.441 Y78.621 E1215.93920
G1 X104.879 Y82.059 E1217.15465
G1 X104.879 Y83.795 E1217.58852
G1 X99.705 Y78.621 E1219.41756
G1 X97.970 Y78.621 E1219.85143
G1 X104.879 Y85.530 E1222.29406
G1 X104.879 Y87.266 E1222.72793
G1 X96.234 Y78.621 E1225.78415
G1 X95.121 Y79.244 E1226.10298
G1 X104.879 Y89.001 E1229.55275
G1 X104.879 Y90.737 E1229.98663
G1 X95.121 Y80.979 E1233.43640
G1 X95.121 Y82.715 E1233.87027
G1 X104.879 Y92.472 E1237.32005
G1 X104.879 Y94.208 E1237.75392
G1 X95.121 Y84.450 E1241.20369
G1 X95.121 Y86.186 E1241.63757
G1 X104.879 Y95.943 E1245.08734
G1 X104.879 Y97.679 E1245.52121
G1 X95.121 Y87.921 E1248.97099
G1 X95.121 Y89.657 E1249.40486
G1 X104.879 Y99.414 E1252.85463
G1 X104.879 Y101.150 E1253.28851
G1 X95.121 Y91.392 E1256.73828
G1 X95.121 Y93.128 E1257.17215
G1 X104.879 Y102.885 E1260.62193
G1 X104.879 Y104.621 E1261.05580
G1 X95.121 Y94.863 E1264.50557
G1 X95.121 Y96.599 E1264.93945
G1 X104.879 Y106.356 E1268.38922
G1 X104.879 Y108.092 E1268.82309
G1 X95.121 Y98.334 E1272.27287
G1 X95.121 Y100.070 E1272.70674
G1 X104.879 Y109.827 E1276.15651
G1 X104.879 Y111.563 E1276.59039
G1 X95.121 Y101.805 E1280.04016
G1 X95.121 Y103.541 E1280.47404
G1 X104.879 Y113.298 E1283.92381
G1 X104.879 Y115.034 E1284.35768
G1 X95.121 Y105.276 E1287.80745
G1 X95.121 Y107.012 E1288.24133
G1 X104.879 Y116.769 E1291.69110
G1 X104.879 Y118.505 E1292.12498
G1 X95.121 Y108.747 E1295.57475
G1 X95.121 Y110.483 E1296.00862
G1 X104.879 Y120.240 E1299.45840
G1 X104.282 Y121.379 E1299.77979
G1 X95.121 Y112.218 E1303.01853
G1 X95.121 Y113.954 E1303.45240
G1 X102.546 Y121.379 E1306.07755
G1 X100.811 Y121.379 E1306.51143
G1 X95.121 Y115.689 E1308.52298
G1 X95.121 Y117.425 E1308.95686
G1 X99.075 Y121.379 E1310.35482
G1 X97.340 Y121.379 E1310.78869
G1 X95.121 Y119.160 E1311.57306
G1 X95.121 Y120.896 E1312.00694
G1 X95.604 Y121.379 E1312.17772
G1 Z5.600 F7800.000
G1 X103.176 Y121.379 F7800.000
G1 X104.879 Y119.676 E1312.77957 F4680.085
G1 X104.879 Y117.941 E1313.21344
G1 X101.441 Y121.379 E1314.42888
G1 X99.705 Y121.379 E1314.86276
G1 X104.879 Y116.205 E1316.69179
G1 X104.879 Y114.470 E1317.12567
G1 X97.970 Y121.379 E1319.56830
G1 X96.234 Y121.379 E1320.00217
G1 X104.879 Y112.734 E1323.05839
G1 X104.879 Y110.999 E1323.49227
G1 X95.121 Y120.756 E1326.94204
G1 X95.121 Y119.021 E1327.37591
G1 X104.879 Y109.263 E1330.82568
G1 X104.879 Y107.528 E1331.25956
G1 X95.121 Y117.285 E1334.70933
G1 X95.121 Y115.550 E1335.14321
G1 X104.879 Y105.792 E1338.59298
G1 X104.879 Y104.057 E1339.02685
G1 X95.121 Y113.814 E1342.47663
G1 X95.121 Y112.079 E1342.91050
G1 X104.879 Y102.321 E1346.36027
G1 X104.879 Y100.586 E1346.79415
G1 X95.121 Y110.343 E1350.24392
G1 X95.121 Y108.608 E1350.67779
G1 X104.879 Y98.850 E1354.12757
G1 X104.879 Y97.115 E1354.56144
G1 X95.121 Y106.872 E1358.01121
G1 X95.121 Y105.137 E1358.44509
G1 X104.879 Y95.379 E1361.89486
G1 X104.879 Y93.644 E1362.32873
G1 X95.121 Y103.401 E1365.77851
G1 X95.121 Y101.666 E1366.21238
G1 X104.879 Y91.908 E1369.66215
G1 X104.879 Y90.173 E1370.09603
G1 X95.121 Y99.930 E1373.54580
G1 X95.121 Y98.195 E1373.97967
G1 X104.879 Y88.437 E1377.42944
G1 X104.879 Y86.702 E1377.86332
G1 X95.121 Y96.459 E1381.31309
G1 X95.121 Y94.724 E1381.74697
G1 X104.879 Y84.966 E1385.19674
G1 X104.879 Y83.231 E1385.63061
G1 X95.121 Y92.988 E1389.08038
G1 X95.121 Y91.253 E1389.51426
G1 X104.879 Y81.495 E1392.96403
G1 X104.879 Y79.760 E1393.39791
G1 X95.121 Y89.517 E1396.84768
G1 X95.121 Y87.782 E1397.28155
G1 X104.282 Y78.621 E1400.52029
G1 X102.546 Y78.621 E1400.95417
G1 X95.121 Y86.046 E1403.57931
G1 X95.121 Y84.311 E1404.01319
G1 X100.811 Y78.621 E1406.02474
G1 X99.075 Y78.621 E1406.45862
G1 X95.121 Y82.575 E1407.85658
G1 X95.121 Y80.840 E1408.29046
G1 X97.340 Y78.621 E1409.07483
G1 X95.604 Y78.621 E1409.50870
G1 X95.121 Y79.104 E1409.67948
G1 Z6.000 F7800.000
G1 X104.879 Y80.324 F7800.000
G1 X103.176 Y78.621 E1410.28133 F4669.164
G1 X101.441 Y78.621 E1410.71520
G1 X104.879 Y82.059 E1411.93065
G1 X104.879 Y83.795 E1412.36452
G1 X99.705 Y78.621 E1414.19356
G1 X97.970 Y78.621 E1414.62743
G1 X104.879 Y85.530 E1417.07006
G1 X104.879 Y87.266 E1417.50394
G1 X96.234 Y78.621 E1420.56016
G1 X95.121 Y79.244 E1420.87898
G1 X104.879 Y89.001 E1424.32875
G1 X104.879 Y90.737 E1424.76263
G1 X95.121 Y80.979 E1428.21240
G1 X95.121 Y82.715 E1428.64628
G1 X104.879 Y92.472 E1432.09605
G1 X104.879 Y94.208 E1432.52992
G1 X95.121 Y84.450 E1435.97969
G1 X95.121 Y86.186 E1436.41357
G1 X104.879 Y95.943 E1439.86334
G1 X104.879 Y97.679 E1440.29722
G1 X95.121 Y87.921 E1443.74699
G1 X95.121 Y89.657 E1444.18086
G1 X104.879 Y99.414 E1447.63063
G1 X104.879 Y101.150 E1448.06451
G1 X95.121 Y91.392 E1451.51428
G1 X95.121 Y93.128 E1451.94816
G1 X104.879 Y102.885 E1455.39793
G1 X104.879 Y104.621 E1455.83180
G1 X95.121 Y94.863 E1459.28157
G1 X95.121 Y96.599 E1459.71545
G1 X104.879 Y106.356 E1463.16522
G1 X104.879 Y108.092 E1463.59910
G1 X95.121 Y98.334 E1467.04887
G1 X95.121 Y100.070 E1467.48274
G1 X104.879 Y109.827 E1470.93251
G1 X104.879 Y111.563 E1471.36639
G1 X95.121 Y101.805 E1474.81616
G1 X95.121 Y103.541 E1475.25004
G1 X104.879 Y113.298 E1478.69981
G1 X104.879 Y115.034 E1479.13368
G1 X95.121 Y105.276 E1482.58346
G1 X95.121 Y107.012 E1483.01733
G1 X104.879 Y116.769 E1486.46710
G1 X104.879 Y118.505 E1486.90098
G1 X95.121 Y108.747 E1490.35075
G1 X95.121 Y110.483 E1490.78462
G1 X104.879 Y120.240 E1494.23440
G1 X104.282 Y121.379 E1494.55579
G1 X95.121 Y112.218 E1497.79453
G1 X95.121 Y113.954 E1498.22841
G1 X102.546 Y121.379 E1500.85355
G1 X100.811 Y121.379 E1501.28743
G1 X95.121 Y115.689 E1503.29898
G1 X95.121 Y117.425 E1503.73286
G1 X99.075 Y121.379 E1505.13082
G1 X97.340 Y121.379 E1505.56470
G1 X95.121 Y119.160 E1506.34906
G1 X95.121 Y120.896 E1506.78294
G1 X95.604 Y121.379 E1506.95372
G1 Z6.400 F7800.000
G1 X103.176 Y121.379 F7800.000
G1 X104.879 Y119.676 E1507.55557 F4680.085
G1 X104.879 Y117.941 E1507.98944
G1 X101.441 Y121.379 E1509.20489
G1 X99.705 Y121.379 E1509.63876
G1 X104.879 Y116.205 E1511.46780
G1 X104.879 Y114.470 E1511.90167
G1 X97.970 Y121.379 E1514.34430
G1 X96.234 Y121.379 E1514.77817
G1 X104.879 Y112.734 E1517.83439
G1 X104.879 Y110.999 E1518.26827
G1 X95.121 Y120.756 E1521.71804
G1 X95.121 Y119.021 E1522.15191
G1 X104.879 Y109.263 E1525.60169
G1 X104.879 Y107.528 E1526.03556
G1 X95.121 Y117.285 E1529.48533
G1 X95.121 Y115.550 E1529.91921
G1 X104.879 Y105.792 E1533.36898
G1 X104.879 Y104.057 E1533.80286
G1 X95.121 Y113.814 E1537.25263
G1 X95.121 Y112.079 E1537.68650
G1 X104.879 Y102.321 E1541.13627
G1 X104.879 Y100.586 E1541.57015
G1 X95.121 Y110.343 E1545.01992
G1 X95.121 Y108.608 E1545.45380
G1 X104.879 Y98.850 E1548.90357
G1 X104.879 Y97.115 E1549.33744
G1 X95.121 Y106.872 E1552.78721
G1 X95.121 Y105.137 E1553.22109
G1 X104.879 Y95.379 E1556.67086
G1 X104.879 Y93.644 E1557.10474
G1 X95.121 Y103.401 E1560.55451
G1 X95.121 Y101.666 E1560.98838
G1 X104.879 Y91.908 E1564.43815
G1 X104.879 Y90.173 E1564.87203
G1 X95.121 Y99.930 E1568.32180
G1 X95.121 Y98.195 E1568.75567
G1 X104.879 Y88.437 E1572.20545
G1 X104.879 Y86.702 E1572.63932
G1 X95.121 Y96.459 E1576.08909
G1 X95.121 Y94.724 E1576.52297
G1 X104.879 Y84.966 E1579.97274
G1 X104.879 Y83.231 E1580.40661
G1 X95.121 Y92.988 E1583.85639
G1 X95.121 Y91.253 E1584.29026
G1 X104.879 Y81.495 E1587.74003
G1 X104.879 Y79.760 E1588.17391
G1 X95.121 Y89.517 E1591.62368
G1 X95.121 Y87.782 E1592.05755
G1 X104.282 Y78.621 E1595.29629
G1 X102.546 Y78.621 E1595.73017
G1 X95.121 Y86.046 E1598.35531
G1 X95.121 Y84.311 E1598.78919
G1 X100.811 Y78.621 E1600.80074
G1 X99.075 Y78.621 E1601.23462
G1 X95.121 Y82.575 E1602.63258
G1 X95.121 Y80.840 E1603.06646
G1 X97.340 Y78.621 E1603.85083
G1 X95.604 Y78.621 E1604.28470
G1 X95.121 Y79.104 E1604.45548
G1 Z6.800 F7800.000
G1 X104.879 Y80.324 F7800.000
G1 X103.176 Y78.621 E1605.05733 F4669.164
G1 X101.441 Y78.621 E1605.49121
G1 X104.879 Y82.059 E1606.70665
G1 X104.879 Y83.795 E1607.14052
G1 X99.705 Y78.621 E1608.96956
G1 X97.970 Y78.621 E1609.40343
G1 X104.879 Y85.530 E1611.84606
G1 X104.879 Y87.266 E1612.27994
G1 X96.234 Y78.621 E1615.33616
G1 X95.121 Y79.244 E1615.65498
G1 X104.879 Y89.001 E1619.10475
G1 X104.879 Y90.737 E1619.53863
G1 X95.121 Y80.979 E1622.98840
G1 X95.121 Y82.715 E1623.42228
G1 X104.879 Y92.472 E1626.87205
G1 X104.879 Y94.208 E1627.30592
G1 X95.121 Y84.450 E1630.75570
G1 X95.121 Y86.186 E1631.18957
G1 X104.879 Y95.943 E1634.63934
G1 X104.879 Y97.679 E1635.07322
G1 X95.121 Y87.921 E1638.52299
G1 X95.121 Y89.657 E1638.95686
G1 X104.879 Y99.414 E1642.40664
G1 X104.879 Y101.150 E1642.84051
G1 X95.121 Y91.392 E1646.29028
G1 X95.121 Y93.128 E1646.72416
G1 X104.879 Y102.885 E1650.17393
G1 X104.879 Y104.621 E1650.60780
G1 X95.121 Y94.863 E1654.05758
G1 X95.121 Y96.599 E1654.49145
G1 X104.879 Y106.356 E1657.94122
G1 X104.879 Y108.092 E1658.37510
G1 X95.121 Y98.334 E1661.82487
G1 X95.121 Y100.070 E1662.25874
G1 X104.879 Y109.827 E1665.70852
G1 X104.879 Y111.563 E1666.14239
G1 X95.121 Y101.805 E1669.59216
G1 X95.121 Y103.541 E1670.02604
G1 X104.879 Y113.298 E1673.47581
G1 X104.879 Y115.034 E1673.90969
G1 X95.121 Y105.276 E1677.35946
G1 X95.121 Y107.012 E1677.79333
G1 X104.879 Y116.769 E1681.24310
G1 X104.879 Y118.505 E1681.67698
G1 X95.121 Y108.747 E1685.12675
G1 X95.121 Y110.483 E1685.56063
G1 X104.879 Y120.240 E1689.01040
G1 X104.282 Y121.379 E1689.33179
G1 X95.121 Y112.218 E1692.57053
G1 X95.121 Y113.954 E1693.00441
G1 X102.546 Y121.379 E1695.62955
G1 X100.811 Y121.379 E1696.06343
G1 X95.121 Y115.689 E1698.07498
G1 X95.121 Y117.425 E1698.50886
G1 X99.075 Y121.379 E1699.90682
G1 X97.340 Y121.379 E1700.34070
G1 X95.121 Y119.160 E1701.12507
G1 X95.121 Y120.896 E1701.55894
G1 X95.604 Y121.379 E1701.72972
G1 Z7.200 F7800.000
G1 X103.176 Y121.379 F7800.000
G1 X104.879 Y119.676 E1702.33157 F4680.085
G1 X104.879 Y117.941 E1702.76544
G1 X101.441 Y121.379 E1703.98089
G1 X99.705 Y121.379 E1704.41476
G1 X104.879 Y116.205 E1706.24380
G1 X104.879 Y114.470 E1706.67767
G1 X97.970 Y121.379 E1709.12030
G1 X96.234 Y121.379 E1709.55417
G1 X104.879 Y112.734 E1712.61039
G1 X104.879 Y110.999 E1713.04427
G1 X95.121 Y120.756 E1716.49404
G1 X95.121 Y119.021 E1716.92792
G1 X104.879 Y109.263 E1720.37769
G1 X104.879 Y107.528 E1720.81156
G1 X95.121 Y117.285 E1724.26133
G1 X95.121 Y115.550 E1724.69521
G1 X104.879 Y105.792 E1728.14498
G1 X104.879 Y104.057 E1728.57886
G1 X95.121 Y113.814 E1732.02863
G1 X95.121 Y112.079 E1732.46250
G1 X104.879 Y102.321 E1735.91228
G1 X104.879 Y100.586 E1736.34615
G1 X95.121 Y110.343 E1739.79592
G1 X95.121 Y108.608 E1740.22980
G1 X104.879 Y98.850 E1743.67957
G1 X104.879 Y97.115 E1744.11344
G1 X95.121 Y106.872 E1747.56321
G1 X95.121 Y105.137 E1747.99709
G1 X104.879 Y95.379 E1751.44686
G1 X104.879 Y93.644 E1751.88074
G1 X95.121 Y103.401 E1755.33051
G1 X95.121 Y101.666 E1755.76438
G1 X104.879 Y91.908 E1759.21415
G1 X104.879 Y90.173 E1759.64803
G1 X95.121 Y99.930 E1763.09780
G1 X95.121 Y98.195 E1763.53168
G1 X104.879 Y88.437 E1766.98145
G1 X104.879 Y86.702 E1767.41532
G1 X95.121 Y96.459 E1770.86509
G1 X95.121 Y94.724 E1771.29897
G1 X104.879 Y84.966 E1774.74874
G1 X104.879 Y83.231 E1775.18262
G1 X95.121 Y92.988 E1778.63239
G1 X95.121 Y91.253 E1779.06626
G1 X104.879 Y81.495 E1782.51603
G1 X104.879 Y79.760 E1782.94991
G1 X95.121 Y89.517 E1786.39968
G1 X95.121 Y87.782 E1786.83356
G1 X104.282 Y78.621 E1790.07229
G1 X102.546 Y78.621 E1790.50617
G1 X95.121 Y86.046 E1793.13132
G1 X95.121 Y84.311 E1793.56519
G1 X100.811 Y78.621 E1795.57675
G1 X99.075 Y78.621 E1796.01062
G1 X95.121 Y82.575 E1797.40858
G1 X95.121 Y80.840 E1797.84246
G1 X97.340 Y78.621 E1798.62683
G1 X95.604 Y78.621 E1799.06070
G1 X95.121 Y79.104 E1799.23148
G1 Z7.600 F7800.000
G1 X104.879 Y80.324 F7800.000
G1 X103.176 Y78.621 E1799.83333 F4669.164
G1 X101.441 Y78.621 E1800.26721
G1 X104.879 Y82.059 E1801.48265
G1 X104.879 Y83.795 E1801.91653
G1 X99.705 Y78.621 E1803.74556
G1 X97.970 Y78.621 E1804.17944
G1 X104.879 Y85.530 E1806.62206
G1 X104.879 Y87.266 E1807.05594
G1 X96.234 Y78.621 E1810.11216
G1 X95.121 Y79.244 E1810.43098
G1 X104.879 Y89.001 E1813.88076
G1 X104.879 Y90.737 E1814.31463
G1 X95.121 Y80.979 E1817.76440
G1 X95.121 Y82.715 E1818.19828
G1 X104.879 Y92.472 E1821.64805
G1 X104.879 Y94.208 E1822.08192
G1 X95.121 Y84.450 E1825.53170
G1 X95.121 Y86.186 E1825.96557
G1 X104.879 Y95.943 E1829.41534
G1 X104.879 Y97.679 E1829.84922
G1 X95.121 Y87.921 E1833.29899
G1 X95.121 Y89.657 E1833.73287
G1 X104.879 Y99.414 E1837.18264
G1 X104.879 Y101.150 E1837.61651
G1 X95.121 Y91.392 E1841.06628
G1 X95.121 Y93.128 E1841.50016
G1 X104.879 Y102.885 E1844.94993
G1 X104.879 Y104.621 E1845.38381
G1 X95.121 Y94.863 E1848.83358
G1 X95.121 Y96.599 E1849.26745
G1 X104.879 Y106.356 E1852.71722
G1 X104.879 Y108.092 E1853.15110
G1 X95.121 Y98.334 E1856.60087
G1 X95.121 Y100.070 E1857.03475
G1 X104.879 Y109.827 E1860.48452
G1 X104.879 Y111.563 E1860.91839
G1 X95.121 Y101.805 E1864.36816
G1 X95.121 Y103.541 E1864.80204
G1 X104.879 Y113.298 E1868.25181
G1 X104.879 Y115.034 E1868.68569
G1 X95.121 Y105.276 E1872.13546
G1 X95.121 Y107.012 E1872.56933
G1 X104.879 Y116.769 E1876.01911
G1 X104.879 Y118.505 E1876.45298
G1 X95.121 Y108.747 E1879.90275
G1 X95.121 Y110.483 E1880.33663
G1 X104.879 Y120.240 E1883.78640
G1 X104.282 Y121.379 E1884.10779
G1 X95.121 Y112.218 E1887.34653
G1 X95.121 Y113.954 E1887.78041
G1 X102.546 Y121.379 E1890.40556
G1 X100.811 Y121.379 E1890.83943
G1 X95.121 Y115.689 E1892.85099
G1 X95.121 Y117.425 E1893.28486
G1 X99.075 Y121.379 E1894.68282
G1 X97.340 Y121.379 E1895.11670
G1 X95.121 Y119.160 E1895.90107
G1 X95.121 Y120.896 E1896.33494
G1 X95.604 Y121.379 E1896.50572
G1 Z8.000 F7800.000
G1 X103.176 Y121.379 F7800.000
G1 X104.879 Y119.676 E1897.10757 F4680.085
G1 X104.879 Y117.941 E1897.54145
G1 X101.441 Y121.379 E1898.75689
G1 X99.705 Y121.379 E1899.19076
G1 X104.879 Y116.205 E1901.01980
G1 X104.879 Y114.470 E1901.45367
G1 X97.970 Y121.379 E1903.89630
G1 X96.234 Y121.379 E1904.33018
G1 X104.879 Y112.734 E1907.38639
G1 X104.879 Y110.999 E1907.82027
G1 X95.121 Y120.756 E1911.27004
G1 X95.121 Y119.021 E1911.70392
G1 X104.879 Y109.263 E1915.15369
G1 X104.879 Y107.528 E1915.58756
G1 X95.121 Y117.285 E1919.03734
G1 X95.121 Y115.550 E1919.47121
G1 X104.879 Y105.792 E1922.92098
G1 X104.879 Y104.057 E1923.35486
G1 X95.121 Y113.814 E1926.80463
G1 X95.121 Y112.079 E1927.23850
G1 X104.879 Y102.321 E1930.68828
G1 X104.879 Y100.586 E1931.12215
G1 X95.121 Y110.343 E1934.57192
G1 X95.121 Y108.608 E1935.00580
G1 X104.879 Y98.850 E1938.45557
G1 X104.879 Y97.115 E1938.88944
G1 X95.121 Y106.872 E1942.33922
G1 X95.121 Y105.137 E1942.77309
G1 X104.879 Y95.379 E1946.22286
G1 X104.879 Y93.644 E1946.65674
G1 X95.121 Y103.401 E1950.10651
G1 X95.121 Y101.666 E1950.54038
G1 X104.879 Y91.908 E1953.99016
G1 X104.879 Y90.173 E1954.42403
G1 X95.121 Y99.930 E1957.87380
G1 X95.121 Y98.195 E1958.30768
G1 X104.879 Y88.437 E1961.75745
G1 X104.879 Y86.702 E1962.19132
G1 X95.121 Y96.459 E1965.64109
G1 X95.121 Y94.724 E1966.07497
G1 X104.879 Y84.966 E1969.52474
G1 X104.879 Y83.231 E1969.95862
G1 X95.121 Y92.988 E1973.40839
G1 X95.121 Y91.253 E1973.84226
G1 X104.879 Y81.495 E1977.29203
G1 X104.879 Y79.760 E1977.72591
G1 X95.121 Y89.517 E1981.17568
G1 X95.121 Y87.782 E1981.60956
G1 X104.282 Y78.621 E1984.84830
G1 X102.546 Y78.621 E1985.28217
G1 X95.121 Y86.046 E1987.90732
G1 X95.121 Y84.311 E1988.34119
G1 X100.811 Y78.621 E1990.35275
G1 X99.075 Y78.621 E1990.78662
G1 X95.121 Y82.575 E1992.18458
G1 X95.121 Y80.840 E1992.61846
G1 X97.340 Y78.621 E1993.40283
G1 X95.604 Y78.621 E1993.83671
G1 X95.121 Y79.104 E1994.00748
G1 Z8.400 F7800.000
G1 X104.879 Y80.324 F7800.000
G1 X103.176 Y78.621 E1994.60933 F4669.164
G1 X101.441 Y78.621 E1995.04321
G1 X104.879 Y82.059 E1996.25865
G1 X104.879 Y83.795 E1996.69253
G1 X99.705 Y78.621 E1998.52156
G1 X97.970 Y78.621 E1998.95544
G1 X104.879 Y85.530 E2001.39806
G1 X104.879 Y87.266 E2001.83194
G1 X96.234 Y78.621 E2004.88816
G1 X95.121 Y79.244 E2005.20699
G1 X104.879 Y89.001 E2008.65676
G1 X104.879 Y90.737 E2009.09063
G1 X95.121 Y80.979 E2012.54040
G1 X95.121 Y82.715 E2012.97428
G1 X104.879 Y92.472 E2016.42405
G1 X104.879 Y94.208 E2016.85793
G1 X95.121 Y84.450 E2020.30770
G1 X95.121 Y86.186 E2020.74157
G1 X104.879 Y95.943 E2024.19134
G1 X104.879 Y97.679 E2024.62522
G1 X95.121 Y87.921 E2028.07499
G1 X95.121 Y89.657 E2028.50887
G1 X104.879 Y99.414 E2031.95864
G1 X104.879 Y101.150 E2032.39251
G1 X95.121 Y91.392 E2035.84228
G1 X95.121 Y93.128 E2036.27616
G1 X104.879 Y102.885 E2039.72593
G1 X104.879 Y104.621 E2040.15981
G1 X95.121 Y94.863 E2043.60958
G1 X95.121 Y96.599 E2044.04345
G1 X104.879 Y106.356 E2047.49322
G1 X104.879 Y108.092 E2047.92710
G1 X95.121 Y98.334 E2051.37687
G1 X95.121 Y100.070 E2051.81075
G1 X104.879 Y109.827 E2055.26052
G1 X104.879 Y111.563 E2055.69439
G1 X95.121 Y101.805 E2059.14417
G1 X95.121 Y103.541 E2059.57804
G1 X104.879 Y113.298 E2063.02781
G1 X104.879 Y115.034 E2063.46169
G1 X95.121 Y105.276 E2066.91146
G1 X95.121 Y107.012 E2067.34533
G1 X104.879 Y116.769 E2070.79511
G1 X104.879 Y118.505 E2071.22898
G1 X95.121 Y108.747 E2074.67875
G1 X95.121 Y110.483 E2075.11263
G1 X104.879 Y120.240 E2078.56240
G1 X104.282 Y121.379 E2078.88380
G1 X95.121 Y112.218 E2082.12253
G1 X95.121 Y113.954 E2082.55641
G1 X102.546 Y121.379 E2085.18156
G1 X100.811 Y121.379 E2085.61543
G1 X95.121 Y115.689 E2087.62699
G1 X95.121 Y117.425 E2088.06086
G1 X99.075 Y121.379 E2089.45882
G1 X97.340 Y121.379 E2089.89270
G1 X95.121 Y119.160 E2090.67707
G1 X95.121 Y120.896 E2091.11094
G1 X95.604 Y121.379 E2091.28172
G1 Z8.800 F7800.000
G1 X103.176 Y121.379 F7800.000
G1 X104.879 Y119.676 E2091.88357 F4680.085
G1 X104.879 Y117.941 E2092.31745
G1 X101.441 Y121.379 E2093.53289
G1 X99.705 Y121.379 E2093.96676
G1 X104.879 Y116.205 E2095.79580
G1 X104.879 Y114.470 E2096.22967
G1 X97.970 Y121.379 E2098.67230
G1 X96.234 Y121.379 E2099.10618
G1 X104.879 Y112.734 E2102.16240
G1 X104.879 Y110.999 E2102.59627
G1 X95.121 Y120.756 E2106.04604
G1 X95.121 Y119.021 E2106.47992
G1 X104.879 Y109.263 E2109.92969
G1 X104.879 Y107.528 E2110.36357
G1 X95.121 Y117.285 E2113.81334
G1 X95.121 Y115.550 E2114.24721
G1 X104.879 Y105.792 E2117.69698
G1 X104.879 Y104.057 E2118.13086
G1 X95.121 Y113.814 E2121.58063
G1 X95.121 Y112.079 E2122.01451
G1 X104.879 Y102.321 E2125.46428
G1 X104.879 Y100.586 E2125.89815
G1 X95.121 Y110.343 E2129.34792
G1 X95.121 Y108.608 E2129.78180
G1 X104.879 Y98.850 E2133.23157
G1 X104.879 Y97.115 E2133.66545
G1 X95.121 Y106.872 E2137.11522
G1 X95.121 Y105.137 E2137.54909
G1 X104.879 Y95.379 E2140.99886
G1 X104.879 Y93.644 E2141.43274
G1 X95.121 Y103.401 E2144.88251
G1 X95.121 Y101.666 E2145.31639
G1 X104.879 Y91.908 E2148.76616
G1 X104.879 Y90.173 E2149.20003
G1 X95.121 Y99.930 E2152.64980
G1 X95.121 Y98.195 E2153.08368
G1 X104.879 Y88.437 E2156.53345
G1 X104.879 Y86.702 E2156.96733
G1 X95.121 Y96.459 E2160.41710
G1 X95.121 Y94.724 E2160.85097
G1 X104.879 Y84.966 E2164.30074
G1 X104.879 Y83.231 E2164.73462
G1 X95.121 Y92.988 E2168.18439
G1 X95.121 Y91.253 E2168.61826
G1 X104.879 Y81.495 E2172.06804
G1 X104.879 Y79.760 E2172.50191
G1 X95.121 Y89.517 E2175.95168
G1 X95.121 Y87.782 E2176.38556
G1 X104.282 Y78.621 E2179.62430
G1 X102.546 Y78.621 E2180.05817
G1 X95.121 Y86.046 E2182.68332
G1 X95.121 Y84.311 E2183.11719
G1 X100.811 Y78.621 E2185.12875
G1 X99.075 Y78.621 E2185.56262
G1 X95.121 Y82.575 E2186.96059
G1 X95.121 Y80.840 E2187.39446
G1 X97.340 Y78.621 E2188.17883
G1 X95.604 Y78.621 E2188.61271
G1 X95.121 Y79.104 E2188.78348
G1 Z9.200 F7800.000
G1 E2186.78348 F2400.00000
G92 E0
G1 X104.879 Y80.324 F7800.000
G1 E2.00000 F2400.00000
G1 X103.176 Y78.621 E2.60185 F4669.164
G1 X101.441 Y78.621 E3.03573
G1 X104.879 Y82.059 E4.25117
G1 X104.879 Y83.795 E4.68504
G1 X99.705 Y78.621 E6.51408
G1 X97.970 Y78.621 E6.94795
G1 X104.879 Y85.530 E9.39058
G1 X104.879 Y87.266 E9.82446
G1 X96.234 Y78.621 E12.88068
G1 X95.121 Y79.244 E13.19950
G1 X104.879 Y89.001 E16.64927
G1 X104.879 Y90.737 E17.08315
G1 X95.121 Y80.979 E20.53292
G1 X95.121 Y82.715 E20.96680
G1 X104.879 Y92.472 E24.41657
G1 X104.879 Y94.208 E24.85044
G1 X95.121 Y84.450 E28.30021
G1 X95.121 Y86.186 E28.73409
G1 X104.879 Y95.943 E32.18386
G1 X104.879 Y97.679 E32.61774
G1 X95.121 Y87.921 E36.06751
G1 X95.121 Y89.657 E36.50138
G1 X104.879 Y99.414 E39.95116
G1 X104.879 Y101.150 E40.38503
G1 X95.121 Y91.392 E43.83480
G1 X95.121 Y93.128 E44.26868
G1 X104.879 Y102.885 E47.71845
G1 X104.879 Y104.621 E48.15232
G1 X95.121 Y94.863 E51.60210
G1 X95.121 Y96.599 E52.03597
G1 X104.879 Y106.356 E55.48574
G1 X104.879 Y108.092 E55.91962
G1 X95.121 Y98.334 E59.36939
G1 X95.121 Y100.070 E59.80326
G1 X104.879 Y109.827 E63.25304
G1 X104.879 Y111.563 E63.68691
G1 X95.121 Y101.805 E67.13668
G1 X95.121 Y103.541 E67.57056
G1 X104.879 Y113.298 E71.02033
G1 X104.879 Y115.034 E71.45421
G1 X95.121 Y105.276 E74.90398
G1 X95.121 Y107.012 E75.33785
G1 X104.879 Y116.769 E78.78762
G1 X104.879 Y118.505 E79.22150
G1 X95.121 Y108.747 E82.67127
G1 X95.121 Y110.483 E83.10515
G1 X104.879 Y120.240 E86.55492
G1 X104.282 Y121.379 E86.87631
G1 X95.121 Y112.218 E90.11505
G1 X95.121 Y113.954 E90.54893
G1 X102.546 Y121.379 E93.17407
G1 X100.811 Y121.379 E93.60795
G1 X95.121 Y115.689 E95.61950
G1 X95.121 Y117.425 E96.05338
G1 X99.075 Y121.379 E97.45134
G1 X97.340 Y121.379 E97.88522
G1 X95.121 Y119.160 E98.66959
G1 X95.121 Y120.896 E99.10346
G1 X95.604 Y121.379 E99.27424
G1 E97.27424 F2400.00000
G92 E0
M107
M104 S0 ; turn off temperature
G28 X0  ; home X axis
M84     ; disable motors

; filament used = 2284.1mm (1.8cm3)

; avoid_crossing_perimeters = 0
; bed_shape = 0x0,200x0,200x200,0x200
; bed_temperature = 0
; before_layer_gcode = 
; bridge_acceleration = 0
; bridge_fan_speed = 100
; brim_width = 0
; complete_objects = 0
; cooling = 1
; default_acceleration = 0
; disable_fan_first_layers = 3
; duplicate_distance = 6
; end_gcode = M104 S0 ; turn off temperature\nG28 X0  ; home X axis\nM84     ; disable motors\n
; extruder_clearance_height = 20
; extruder_clearance_radius = 20
; extruder_offset = 0x0
; extrusion_axis = E
; extrusion_multiplier = 1
; fan_always_on = 0
; fan_below_layer_time = 60
; filament_colour = #FFFFFF
; filament_diameter = 1
; first_layer_acceleration = 0
; first_layer_bed_temperature = 0
; first_layer_extrusion_width = 200%
; first_layer_speed = 30
; first_layer_temperature = 200
; gcode_arcs = 0
; gcode_comments = 0
; gcode_flavor = reprap
; infill_acceleration = 0
; infill_first = 0
; layer_gcode = 
; max_fan_speed = 100
; max_print_speed = 80
; max_volumetric_speed = 0
; min_fan_speed = 35
; min_print_speed = 10
; min_skirt_length = 0
; notes = 
; nozzle_diameter = 0.5
; only_retract_when_crossing_perimeters = 1
; ooze_prevention = 0
; output_filename_format = [input_filename_base].gcode
; perimeter_acceleration = 0
; post_process = 
; pressure_advance = 0
; resolution = 0
; retract_before_travel = 2
; retract_layer_change = 0
; retract_length = 2
; retract_length_toolchange = 10
; retract_lift = 0
; retract_restart_extra = 0
; retract_restart_extra_toolchange = 0
; retract_speed = 40
; skirt_distance = 6
; skirt_height = 1
; skirts = 0
; slowdown_below_layer_time = 5
; spiral_vase = 0
; standby_temperature_delta = -5
; start_gcode = G28 ; home all axes\nG1 Z5 F5000 ; lift nozzle\n
; temperature = 200
; threads = 2
; toolchange_gcode = 
; travel_speed = 130
; use_firmware_retraction = 0
; use_relative_e_distances = 0
; use_volumetric_e = 0
; vibration_limit = 0
; wipe = 0
; z_offset = 0
; dont_support_bridges = 1
; extrusion_width = 0
; first_layer_height = 0.4
; infill_only_where_needed = 0
; interface_shells = 0
; layer_height = 0.4
; raft_layers = 0
; seam_position = aligned
; support_material = 0
; support_material_angle = 0
; support_material_contact_distance = 0.2
; support_material_enforce_layers = 0
; support_material_extruder = 1
; support_material_extrusion_width = 0
; support_material_interface_extruder = 1
; support_material_interface_layers = 3
; support_material_interface_spacing = 0
; support_material_interface_speed = 100%
; support_material_pattern = pillars
; support_material_spacing = 2.5
; support_material_speed = 60
; support_material_threshold = 0
; xy_size_compensation = 0
; bottom_solid_layers = 0
; bridge_flow_ratio = 1
; bridge_speed = 60
; external_fill_pattern = rectilinear
; external_perimeter_extrusion_width = 0
; external_perimeter_speed = 50%
; external_perimeters_first = 0
; extra_perimeters = 1
; fill_angle = 45
; fill_density = 40%
; fill_pattern = rectilinear
; gap_fill_speed = 20
; infill_every_layers = 1
; infill_extruder = 1
; infill_extrusion_width = 0
; infill_overlap = 15%
; infill_speed = 80
; overhangs = 1
; perimeter_extruder = 1
; perimeter_extrusion_width = 0
; perimeter_speed = 60
; perimeters = 0
; small_perimeter_speed = 15
; solid_infill_below_area = 70
; solid_infill_every_layers = 0
; solid_infill_extruder = 1
; solid_infill_extrusion_width = 0
; solid_infill_speed = 20
; thin_walls = 1
; top_infill_extrusion_width = 0
; top_solid_infill_speed = 15
; top_solid_layers = 0
