; generated by Slic3r 1.3.0 on 2019-11-11 at 12:34:47

; external perimeters extrusion width = 0.55mm (4.37mm^3/s)
; perimeters extrusion width = 0.70mm (11.44mm^3/s)
; infill extrusion width = 0.63mm (13.45mm^3/s)
; solid infill extrusion width = 0.70mm (3.81mm^3/s)
; top infill extrusion width = 0.70mm (2.86mm^3/s)

M107
M104 S205 ; set temperature
G28 ; home all axes
G1 Z5 F5000 ; lift nozzle

; Filament gcode

M109 S205 ; set temperature and wait for it to be reached
G21 ; set units to millimeters
G90 ; use absolute coordinates
M82 ; use absolute distances for extrusion
G92 E0
G1 Z0.300 F7800.000
G1 E-2.00000 F2400.00000
G92 E0
G1 X96.925 Y94.266 F7800.000
G1 E2.00000 F2400.00000
G1 F1800
G1 X96.162 Y94.656 E2.01948
G1 X95.720 Y94.948 E2.03152
G1 X95.301 Y95.280 E2.04366
G1 X94.912 Y95.652 E2.05592
G1 X94.737 Y95.845 E2.06184
G1 X94.343 Y96.357 E2.07651
G1 X94.177 Y96.618 E2.08355
G1 X93.885 Y97.186 E2.09806
G1 X93.818 Y97.373 E2.10259
G1 X97.351 Y93.840 E2.21619
G1 X97.786 Y93.666 E2.22683
G1 X98.289 Y93.508 E2.23882
G1 X98.648 Y93.424 E2.24719
G1 X93.526 Y98.545 E2.41183
G1 X93.509 Y98.721 E2.41584
G1 X93.524 Y99.429 E2.43193
G1 X99.676 Y93.276 E2.62972
G1 X100.271 Y93.254 E2.64324
G1 X100.564 Y93.269 E2.64992
G1 X93.663 Y100.171 E2.87179
G1 X93.692 Y100.305 E2.87492
G1 X93.883 Y100.831 E2.88764
G1 X101.360 Y93.355 E3.12800
G1 X101.778 Y93.421 E3.13763
G1 X102.096 Y93.500 E3.14506
G1 X94.165 Y101.430 E3.40002
G1 X94.195 Y101.494 E3.40162
G1 X93.729 Y101.974 E3.41684
G1 X93.511 Y102.257 E3.42495
G1 X93.325 Y102.562 E3.43308
G1 X93.173 Y102.885 E3.44120
G1 X93.059 Y103.223 E3.44931
G1 X93.005 Y103.472 E3.45509
G1 X102.759 Y93.717 E3.76868
G1 X103.376 Y93.981 E3.78393
G1 X92.969 Y104.388 E4.11850
G1 X93.025 Y104.764 E4.12713
G1 X93.131 Y105.107 E4.13529
G1 X103.942 Y94.296 E4.48285
G1 X104.460 Y94.659 E4.49722
G1 X93.439 Y105.693 E4.85173
G1 X93.657 Y105.963 E4.85961
G1 X93.853 Y106.147 E4.86572
G1 X104.932 Y95.068 E5.22191
G1 X105.355 Y95.526 E5.23608
G1 X94.388 Y106.493 E5.58864
G1 X94.567 Y106.582 E5.59319
G1 X94.853 Y106.673 E5.60000
G1 X95.051 Y106.711 E5.60460
G1 X105.721 Y96.041 E5.94760
G1 X105.793 Y96.147 E5.95052
G1 X106.027 Y96.616 E5.96243
G1 X98.404 Y104.239 E6.20748
G1 X99.200 Y104.324 E6.22568
G1 X106.267 Y97.256 E6.45287
G1 X106.423 Y97.982 E6.46973
G1 X100.063 Y104.341 E6.67419
G1 X100.395 Y104.326 E6.68175
G1 X101.033 Y104.253 E6.69634
G1 X106.462 Y98.824 E6.87085
G1 X106.447 Y99.150 E6.87827
G1 X106.354 Y99.705 E6.89107
G1 X106.307 Y99.859 E6.89473
G1 X101.392 Y104.774 E7.05273
G1 X101.690 Y105.357 E7.06762
G1 X102.209 Y104.839 E7.08429
G1 X101.989 Y104.423 E7.09497
G1 X102.685 Y104.158 E7.11191
G1 X103.056 Y103.991 E7.12115
G1 X105.891 Y101.156 E7.21230
G1 X106.318 Y101.610 E7.22646
G1 X105.402 Y102.527 E7.25593
G1 X105.581 Y102.827 E7.26388
G1 X105.713 Y103.096 E7.27070
G1 X106.671 Y102.138 E7.30148
G1 X106.772 Y102.337 E7.30655
G1 X106.920 Y102.770 E7.31696
G1 X105.930 Y103.760 E7.34878
G1 X105.981 Y104.054 E7.35557
G1 X105.995 Y104.576 E7.36744
G1 X107.036 Y103.535 E7.40092
G1 X107.047 Y103.740 E7.40558
G1 X106.993 Y104.228 E7.41675
G1 X106.902 Y104.550 E7.42435
G1 X104.801 Y106.651 E7.49189
G1 X103.842 Y106.729 F7800.000
G1 F1800
G1 X104.662 Y105.910 E7.51823
G1 X104.385 Y105.873 E7.52458
G1 X103.966 Y105.725 E7.53468
G1 X103.132 Y106.558 E7.56147
G1 X102.686 Y106.335 E7.57282
G1 X102.564 Y106.245 E7.57625
G1 X103.427 Y105.382 E7.60400
G1 X103.144 Y105.122 E7.61275
G1 X102.987 Y104.942 E7.61818
G1 X102.081 Y105.847 E7.64728
G1 X101.997 Y105.763 E7.64999
G1 X101.690 Y105.357 E7.66155
G1 E5.66155 F2400.00000
G92 E0
G1 X96.384 Y106.259 F7800.000
G1 E2.00000 F2400.00000
G1 F1800
G1 X96.617 Y106.211 E2.00541
G1 X96.822 Y106.141 E2.01032
G1 X97.239 Y105.943 E2.02083
G1 X97.620 Y105.687 E2.03126
G1 X97.963 Y105.376 E2.04178
G1 X98.244 Y105.033 E2.05187
G1 X98.482 Y104.638 E2.06235
G1 X98.574 Y104.440 E2.06732
G1 X98.783 Y103.860 E2.08133
G1 X95.958 Y106.685 E2.17216
M104 S200 ; set temperature
G1 Z0.600 F7800.000
G1 X93.524 Y104.976 F7800.000
G1 F3051.47
G1 X93.633 Y105.265 E2.17950
G1 X93.792 Y105.570 E2.18767
G1 X93.989 Y105.852 E2.19587
G1 X94.224 Y106.105 E2.20410
G1 X94.476 Y106.312 E2.21184
G1 X94.733 Y106.473 E2.21906
G1 X95.009 Y106.601 E2.22629
G1 X95.218 Y106.670 E2.23154
G1 X93.059 Y104.511 E2.30420
G1 X93.004 Y104.314 E2.30906
G1 X92.944 Y103.980 E2.31715
G1 X92.926 Y103.497 E2.32863
G1 X96.179 Y106.750 E2.43809
G1 X96.486 Y106.697 E2.44551
G1 X96.880 Y106.571 E2.45535
G1 X93.051 Y102.741 E2.58423
G1 X93.154 Y102.439 E2.59181
G1 X93.306 Y102.115 E2.60033
G1 X97.457 Y106.266 E2.74002
G1 X97.639 Y106.133 E2.74539
G1 X97.937 Y105.866 E2.75492
G1 X93.660 Y101.588 E2.89886
G1 X94.090 Y101.138 E2.91368
G1 X98.330 Y105.378 E3.05635
G1 X98.499 Y105.088 E3.06432
G1 X98.628 Y104.795 E3.07195
G1 X93.665 Y99.832 E3.23895
G1 X93.534 Y99.235 E3.25348
G1 X93.490 Y98.776 E3.26446
G1 X98.986 Y104.271 E3.44938
G1 X99.491 Y104.333 E3.46149
G1 X99.960 Y104.365 E3.47267
G1 X93.526 Y97.930 E3.68918
G1 X93.575 Y97.646 E3.69604
G1 X93.690 Y97.214 E3.70668
G1 X100.823 Y104.347 E3.94670
G1 X101.611 Y104.254 E3.96558
G1 X93.940 Y96.582 E4.22373
G1 X94.256 Y96.017 E4.23913
G1 X102.613 Y104.375 E4.52034
G1 X103.245 Y104.126 E4.53651
G1 X94.628 Y95.509 E4.82647
G1 X95.049 Y95.049 E4.84131
G1 X103.837 Y103.837 E5.13700
G1 X104.381 Y103.500 E5.15223
G1 X95.519 Y94.639 E5.45041
G1 X96.038 Y94.276 E5.46546
G1 X104.885 Y103.123 E5.76313
G1 X105.340 Y102.697 E5.77796
G1 X96.602 Y93.959 E6.07200
G1 X97.216 Y93.693 E6.08794
G1 X107.011 Y103.487 E6.41751
G1 X106.863 Y102.956 E6.43062
G1 X106.628 Y102.460 E6.44368
G1 X106.310 Y102.015 E6.45670
G1 X105.821 Y101.510 E6.47340
G1 X105.853 Y101.448 E6.47506
G1 X97.883 Y93.478 E6.74324
G1 X98.609 Y93.324 E6.76092
G1 X106.140 Y100.855 E7.01432
G1 X106.301 Y100.423 E7.02529
G1 X106.362 Y100.196 E7.03088
G1 X99.408 Y93.242 E7.26487
G1 X99.968 Y93.236 E7.27819
G1 X100.301 Y93.253 E7.28611
G1 X106.479 Y99.432 E7.49402
G1 X106.492 Y99.030 E7.50359
G1 X106.456 Y98.528 E7.51556
G1 X101.329 Y93.401 E7.68808
G1 X102.128 Y93.624 E7.70783
G1 X102.629 Y93.819 E7.72060
G1 X106.177 Y97.368 E7.84002
G1 E5.84002 F2400.00000
G92 E0
G1 X107.052 Y104.409 F7800.000
G1 E2.00000 F2400.00000
G1 F3051.47
G1 X105.896 Y103.253 E2.03889
G1 X105.961 Y103.609 E2.04749
G1 X105.980 Y103.859 E2.05347
G1 X105.968 Y104.206 E2.06173
G1 X106.887 Y105.125 E2.09266
G1 X106.818 Y105.295 E2.09703
G1 X106.585 Y105.705 E2.10823
G1 X105.790 Y104.910 E2.13498
G1 X105.634 Y105.202 E2.14286
G1 X105.438 Y105.438 E2.15017
G1 X106.169 Y106.169 E2.17478
G1 X105.922 Y106.359 E2.18218
G1 X105.639 Y106.520 E2.18994
G1 X104.908 Y105.789 E2.21453
G1 X104.573 Y105.881 E2.22279
G1 X104.356 Y105.898 E2.22798
G1 X104.121 Y105.883 E2.23357
G1 X104.971 Y106.733 E2.26215
G1 X104.561 Y106.768 E2.27193
G1 X104.225 Y106.746 E2.27995
G1 X104.080 Y106.723 E2.28344
G1 X101.196 Y103.839 E2.38048
G1 X101.176 Y103.785 E2.38184
G1 X101.146 Y103.789 E2.38256
G1 Z0.900 F7800.000
G1 X102.655 Y104.393 F7800.000
G1 F3500.63
G1 X101.406 Y105.642 E2.42458
G1 X101.576 Y105.878 E2.43151
G1 X101.800 Y106.128 E2.43951
G1 X103.006 Y104.922 E2.48010
G1 X103.163 Y105.102 E2.48578
G1 X103.446 Y105.363 E2.49494
G1 X102.277 Y106.532 E2.53429
G1 X102.464 Y106.662 E2.53971
G1 X102.840 Y106.850 E2.54971
G1 X103.985 Y105.705 E2.58824
G1 X104.380 Y105.846 E2.59822
G1 X104.681 Y105.890 E2.60546
G1 X103.497 Y107.074 E2.64529
G1 X103.908 Y107.129 E2.65515
G1 X104.275 Y107.129 E2.66389
G1 X104.328 Y107.124 E2.66516
G1 X107.398 Y104.054 E2.76846
G1 X107.332 Y104.461 E2.77828
G1 X107.216 Y104.827 E2.78742
G1 X107.064 Y105.161 E2.79614
G1 X106.889 Y105.444 E2.80407
G1 X105.717 Y106.616 E2.84349
G1 X105.975 Y104.596 F7800.000
G1 F3500.63
G1 X107.397 Y103.174 E2.89132
G1 X107.366 Y102.939 E2.89697
G1 X107.232 Y102.458 E2.90885
G1 X105.911 Y103.780 E2.95333
G1 X105.779 Y103.323 E2.96464
G1 X105.694 Y103.115 E2.96998
G1 X106.964 Y101.845 E3.01271
G1 X106.724 Y101.479 E3.02314
G1 X106.598 Y101.331 E3.02777
G1 X105.382 Y102.546 E3.06867
G1 X105.247 Y102.321 E3.07492
G1 X104.817 Y102.756 E3.08946
G1 X104.412 Y103.129 E3.10258
G1 X104.098 Y103.375 E3.11207
G1 X103.412 Y103.816 E3.13146
G1 X103.037 Y104.011 E3.14153
G1 X106.446 Y100.601 E3.25626
G1 X106.648 Y100.077 E3.26962
G1 X106.799 Y99.367 E3.28690
G1 X101.097 Y105.070 E3.47879
G1 X100.911 Y104.670 E3.48928
G1 X100.596 Y104.690 E3.49680
G1 X106.844 Y98.441 E3.70704
G1 X106.808 Y97.960 E3.71854
G1 X106.750 Y97.655 E3.72592
G1 X99.671 Y104.734 E3.96413
G1 X99.276 Y104.723 E3.97353
G1 X98.840 Y104.684 E3.98394
G1 X106.574 Y96.950 E4.24416
G1 X106.425 Y96.543 E4.25448
G1 X106.317 Y96.325 E4.26025
G1 X95.517 Y107.125 E4.62366
G1 X95.423 Y107.134 E4.62592
G1 X94.903 Y107.085 E4.63835
G1 X94.723 Y107.039 E4.64277
G1 X106.004 Y95.758 E5.02236
G1 X105.749 Y95.379 E5.03322
G1 X105.636 Y95.245 E5.03740
G1 X94.095 Y106.785 E5.42571
G1 X93.943 Y106.709 E5.42976
G1 X93.574 Y106.426 E5.44083
G1 X105.211 Y94.789 E5.83240
G1 X104.742 Y94.377 E5.84726
G1 X93.153 Y105.967 E6.23722
G1 X92.913 Y105.582 E6.24801
G1 X92.834 Y105.404 E6.25263
G1 X104.227 Y94.011 E6.63600
G1 X103.669 Y93.688 E6.65134
G1 X92.623 Y104.734 E7.02304
G1 X92.580 Y104.491 E7.02893
G1 X92.556 Y104.113 E7.03793
G1 X92.566 Y103.910 E7.04275
G1 X103.066 Y93.410 E7.39609
G1 X102.412 Y93.183 E7.41257
G1 X92.812 Y102.784 E7.73561
G1 X92.890 Y102.588 E7.74061
G1 X93.075 Y102.243 E7.74993
G1 X93.311 Y101.901 E7.75983
G1 X93.585 Y101.586 E7.76976
G1 X93.704 Y101.417 E7.77467
G1 X93.585 Y101.130 E7.78207
G1 X101.701 Y93.014 E8.05518
G1 X100.934 Y92.899 E8.07363
G1 X93.349 Y100.484 E8.32885
G1 X93.237 Y100.099 E8.33840
G1 X93.177 Y99.776 E8.34622
G1 X100.082 Y92.871 E8.57856
G1 X99.876 Y92.873 E8.58345
G1 X99.123 Y92.949 E8.60146
G1 X93.118 Y98.954 E8.80352
G1 X93.154 Y98.387 E8.81702
G1 X93.235 Y97.956 E8.82746
G1 X97.985 Y93.205 E8.98731
G1 X97.684 Y93.299 E8.99482
G1 X97.186 Y93.498 E9.00758
G1 X96.888 Y93.638 E9.01541
G1 X96.408 Y93.901 E9.02842
G1 X93.825 Y96.484 E9.11534
G1 X94.227 Y95.886 E9.13249
G1 X94.442 Y95.623 E9.14056
G1 X94.824 Y95.221 E9.15376
G1 X95.037 Y95.025 E9.16064
G1 X95.500 Y94.658 E9.17470
G1 X95.943 Y94.367 E9.18733
G1 X97.129 Y106.395 F7800.000
G1 F3500.63
G1 X97.665 Y106.100 E9.20190
G1 X98.060 Y105.791 E9.21383
G1 X98.246 Y105.611 E9.21999
G1 X98.562 Y105.228 E9.23181
G1 X98.703 Y105.014 E9.23792
G1 X98.900 Y104.624 E9.24831
G1 X96.663 Y106.860 E9.32357
M106 S255
G1 Z1.200 F7800.000
G1 X93.546 Y105.879 F7800.000
G1 F3491.45
G1 X93.865 Y106.279 E9.33574
G1 X94.143 Y106.531 E9.34468
G1 X94.323 Y106.656 E9.34988
G1 X93.059 Y105.385 E9.39252
G1 X92.880 Y105.070 E9.40114
G1 X92.740 Y104.739 E9.40970
G1 X92.641 Y104.399 E9.41812
G1 X92.588 Y104.040 E9.42677
G1 X95.682 Y107.134 E9.53090
G1 X96.046 Y107.139 E9.53955
G1 X96.503 Y107.074 E9.55053
G1 X92.585 Y103.156 E9.68235
G1 X92.650 Y102.803 E9.69089
G1 X92.759 Y102.449 E9.69970
G1 X97.169 Y106.859 E9.84808
G1 X97.582 Y106.640 E9.85921
G1 X97.727 Y106.537 E9.86346
G1 X93.032 Y101.841 E10.02145
G1 X93.136 Y101.663 E10.02636
G1 X93.393 Y101.322 E10.03653
G1 X98.205 Y106.133 E10.19843
G1 X98.497 Y105.797 E10.20903
G1 X98.600 Y105.647 E10.21336
G1 X93.545 Y100.592 E10.38345
G1 X93.406 Y100.267 E10.39186
G1 X93.279 Y99.849 E10.40226
G1 X93.179 Y99.345 E10.41446
G1 X98.914 Y105.081 E10.60745
G1 X99.089 Y104.671 E10.61805
G1 X99.415 Y104.701 E10.62584
G1 X93.138 Y98.424 E10.83704
G1 X93.144 Y98.201 E10.84235
G1 X93.223 Y97.628 E10.85611
G1 X100.339 Y104.743 E11.09553
G1 X101.166 Y104.690 E11.11527
G1 X93.412 Y96.936 E11.37618
G1 X93.539 Y96.586 E11.38505
G1 X93.668 Y96.311 E11.39227
G1 X104.495 Y107.138 E11.75659
G1 X104.963 Y107.115 E11.76774
G1 X105.286 Y107.047 E11.77558
G1 X104.123 Y105.885 E11.81469
G1 X104.356 Y105.898 E11.82024
G1 X104.573 Y105.881 E11.82542
G1 X104.908 Y105.789 E11.83368
G1 X105.914 Y106.795 E11.86755
G1 X106.321 Y106.532 E11.87908
G1 X106.432 Y106.432 E11.88263
G1 X105.438 Y105.438 E11.91611
G1 X105.634 Y105.202 E11.92341
G1 X105.790 Y104.910 E11.93130
G1 X106.851 Y105.970 E11.96698
G1 X106.938 Y105.853 E11.97045
G1 X107.173 Y105.411 E11.98236
G1 X105.968 Y104.206 E12.02292
G1 X105.980 Y103.859 E12.03117
G1 X105.961 Y103.609 E12.03715
G1 X105.896 Y103.253 E12.04576
G1 X107.377 Y104.734 E12.09560
G1 X107.425 Y104.502 E12.10124
G1 X107.442 Y103.918 E12.11515
G1 X96.927 Y93.403 E12.46896
G1 X97.585 Y93.180 E12.48548
G1 X107.196 Y102.791 E12.80888
G1 X107.042 Y102.434 E12.81813
G1 X106.764 Y101.984 E12.83071
G1 X106.294 Y101.428 E12.84803
G1 X106.424 Y101.138 E12.85559
G1 X98.290 Y93.004 E13.12930
G1 X99.057 Y92.890 E13.14775
G1 X106.667 Y100.501 E13.40383
G1 X106.795 Y99.993 E13.41628
G1 X106.828 Y99.780 E13.42141
G1 X99.908 Y92.861 E13.65423
G1 X100.504 Y92.892 E13.66841
G1 X100.863 Y92.935 E13.67702
G1 X106.881 Y98.952 E13.87951
G1 X106.851 Y98.469 E13.89103
G1 X106.759 Y97.949 E13.90359
G1 X102.007 Y93.198 E14.06347
G1 X102.632 Y93.411 E14.07916
G1 X103.303 Y93.728 E14.09681
G1 X103.598 Y93.907 E14.10504
G1 X106.198 Y96.508 E14.19254
G1 E12.19254 F2400.00000
G92 E0
G1 X105.340 Y102.697 F7800.000
G1 E2.00000 F2400.00000
G1 F3491.45
G1 X96.326 Y93.683 E2.30331
G1 X95.771 Y94.009 E2.31863
G1 X104.877 Y103.130 E2.62529
G1 X104.381 Y103.500 E2.64001
G1 X95.257 Y94.376 E2.94702
G1 X94.783 Y94.783 E2.96189
G1 X103.837 Y103.837 E3.26652
G1 X103.245 Y104.126 E3.28219
G1 X94.359 Y95.240 E3.58118
G1 X93.986 Y95.748 E3.59618
G1 X102.613 Y104.375 E3.88646
G1 X102.435 Y104.442 E3.89099
G1 X102.701 Y104.945 E3.90452
G1 X102.840 Y105.166 E3.91074
G1 X103.163 Y105.568 E3.92300
G1 X103.536 Y105.901 E3.93491
G1 X103.946 Y106.154 E3.94637
G1 X104.161 Y106.245 E3.95193
G1 X104.588 Y106.350 E3.96240
G1 X103.346 Y106.869 F7800.000
G1 F3491.45
G1 X101.092 Y104.616 E4.03822
G1 X100.906 Y104.206 E4.04893
G1 X100.701 Y104.225 E4.05383
G1 Z1.500 F7800.000
G1 X101.673 Y101.434 F7800.000
G1 F1031.79
G1 X102.371 Y100.736 E4.08578
G1 X102.718 Y101.468 F7800.000
G1 F1031.79
G1 X103.213 Y100.973 E4.10841
G1 E2.10841 F2400.00000
G92 E0
G1 X97.973 Y101.311 F7800.000
G1 E2.00000 F2400.00000
G1 F1031.79
G1 X98.605 Y100.667 E2.02790
G1 X98.447 Y100.708 E2.03297
G1 X98.202 Y100.737 E2.04059
G1 X97.798 Y100.731 E2.05307
G1 X97.798 Y100.710 E2.05373
G1 X97.592 Y100.662 E2.06026
G1 X96.787 Y101.467 E2.09547
G1 X96.676 Y101.338 E2.10073
G1 X96.577 Y101.177 E2.10658
G1 X96.429 Y100.796 E2.11922
G1 X96.923 Y100.301 E2.14083
G1 E0.14083 F2400.00000
G92 E0
G1 X94.894 Y102.820 F7800.000
G1 E2.00000 F2400.00000
G1 F1031.79
G1 X94.385 Y103.343 E2.02105
G1 X94.303 Y103.544 E2.02731
G1 X94.186 Y103.954 E2.03961
G1 X94.154 Y104.159 E2.04558
G1 X94.140 Y104.535 E2.05645
G1 X95.414 Y103.261 E2.10840
G1 X95.978 Y103.658 E2.12829
G1 X94.349 Y105.288 E2.19475
G1 X94.383 Y105.346 E2.19671
G1 X94.566 Y105.554 E2.20469
G1 X94.671 Y105.633 E2.20847
G1 X94.871 Y105.727 E2.21484
G1 X96.592 Y104.005 E2.28506
G1 X97.191 Y104.277 E2.30402
G1 X96.883 Y104.675 E2.31853
G1 X96.382 Y105.176 E2.33896
G1 X96.163 Y103.837 F7800.000
G1 F4127.15
G1 X98.378 Y101.622 E2.41348
G1 X98.161 Y101.716 E2.41911
G1 X97.878 Y101.780 E2.42600
G1 X97.593 Y101.781 E2.43280
G1 X97.381 Y101.738 E2.43794
G1 X95.619 Y103.500 E2.49723
G1 X95.115 Y103.123 E2.51220
G1 X96.836 Y101.402 E2.57009
G1 X96.625 Y101.142 E2.57807
G1 X96.478 Y100.880 E2.58523
G1 X94.660 Y102.697 E2.64640
G1 X94.288 Y102.321 E2.65899
G1 X93.973 Y102.846 E2.67356
G1 X93.855 Y103.080 E2.67980
G1 X93.755 Y103.323 E2.68603
G1 X93.639 Y103.718 E2.69584
G1 E0.69584 F2400.00000
G92 E0
G1 X94.854 Y106.908 F7800.000
G1 E2.00000 F2400.00000
G1 F4127.15
G1 X95.879 Y105.883 E2.03449
G1 X95.644 Y105.898 E2.04009
G1 X95.427 Y105.881 E2.04527
G1 X95.092 Y105.789 E2.05353
G1 X94.207 Y106.674 E2.08330
G1 X93.963 Y106.530 E2.09004
G1 X93.686 Y106.314 E2.09840
G1 X94.562 Y105.438 E2.12791
G1 X94.366 Y105.202 E2.13521
G1 X94.210 Y104.910 E2.14310
G1 X93.267 Y105.852 E2.17482
G1 X93.074 Y105.540 E2.18356
G1 X92.955 Y105.283 E2.19029
G1 X94.021 Y104.218 E2.22614
G1 X93.995 Y104.089 E2.22925
G1 X94.022 Y104.089 E2.22989
G1 X94.039 Y103.609 E2.24134
G1 X94.104 Y103.253 E2.24994
G1 X92.766 Y104.591 E2.29497
G1 X92.729 Y104.194 E2.30446
G1 X92.749 Y103.727 E2.31558
G1 X96.271 Y100.205 E2.43410
G1 X96.220 Y99.730 E2.44546
G1 X96.222 Y99.373 E2.45396
G1 X93.141 Y102.454 E2.55764
G1 X93.410 Y102.035 E2.56949
G1 X93.922 Y101.469 E2.58764
G1 X93.703 Y101.012 E2.59970
G1 X99.467 Y95.248 E2.79366
G1 X99.258 Y95.128 E2.79938
G1 X99.109 Y95.076 E2.80315
G1 X98.799 Y95.035 E2.81060
G1 X93.471 Y100.363 E2.98987
G1 X93.371 Y99.916 E3.00078
G1 X93.331 Y99.621 E3.00784
G1 X95.757 Y99.838 F7800.000
G1 F4127.15
G1 X95.791 Y99.420 E3.01782
G1 X96.200 Y99.395 E3.02757
G1 X99.860 Y95.735 E3.15073
G1 X99.952 Y96.030 E3.15807
G1 X100.446 Y96.031 E3.16981
G1 X96.530 Y99.946 E3.30157
G1 E1.30157 F2400.00000
G92 E0
G1 X100.832 Y100.049 F7800.000
G1 E2.00000 F2400.00000
G1 F4127.15
G1 X96.755 Y104.126 E2.13718
G1 X97.387 Y104.375 E2.15334
G1 X101.119 Y100.643 E2.27891
G1 X101.290 Y100.907 E2.28639
G1 X101.492 Y101.151 E2.29393
G1 X95.681 Y106.962 E2.48946
G1 X95.980 Y106.921 E2.49663
G1 X96.327 Y106.831 E2.50515
G1 X96.660 Y106.699 E2.51368
G1 X97.026 Y106.498 E2.52361
G1 X98.047 Y105.477 E2.55798
G1 X98.322 Y104.953 E2.57205
G1 X98.499 Y104.476 E2.58416
G1 X98.988 Y104.535 E2.59589
G1 X101.969 Y101.555 E2.69618
G1 X102.323 Y101.723 E2.70551
G1 X102.624 Y101.781 E2.71279
G1 X99.830 Y104.575 E2.80679
G1 X100.251 Y104.561 E2.81682
G1 X100.777 Y104.509 E2.82939
G1 X106.722 Y98.563 E3.02945
G1 X106.707 Y98.933 E3.03825
G1 X106.614 Y99.552 E3.05316
G1 X101.213 Y104.954 E3.23491
G1 X101.318 Y105.182 E3.24091
G1 X101.521 Y105.526 E3.25040
G1 X102.189 Y104.858 E3.27289
G1 X101.970 Y104.442 E3.28408
G1 X102.666 Y104.177 E3.30180
G1 X103.037 Y104.011 E3.31147
G1 X106.112 Y100.936 E3.41495
G1 X106.079 Y101.006 E3.41680
G1 X106.486 Y101.443 E3.43099
G1 X105.382 Y102.546 E3.46812
G1 X105.562 Y102.846 E3.47644
G1 X105.694 Y103.115 E3.48357
G1 X106.845 Y101.965 E3.52230
G1 X106.962 Y102.190 E3.52834
G1 X107.114 Y102.576 E3.53822
G1 X105.911 Y103.780 E3.57871
G1 X105.962 Y104.078 E3.58591
G1 X105.975 Y104.596 E3.59824
G1 X107.266 Y103.305 E3.64167
G1 X107.276 Y103.824 E3.65403
G1 X107.224 Y104.228 E3.66371
G1 X104.512 Y106.940 E3.75498
G1 X103.640 Y106.931 F7800.000
G1 F4127.15
G1 X104.681 Y105.890 E3.79001
G1 X104.380 Y105.846 E3.79725
G1 X103.985 Y105.705 E3.80723
G1 X102.965 Y106.726 E3.84156
G1 X102.641 Y106.567 E3.85013
G1 X102.397 Y106.412 E3.85701
G1 X103.446 Y105.363 E3.89231
G1 X103.163 Y105.102 E3.90147
G1 X103.006 Y104.922 E3.90715
G1 X101.918 Y106.010 E3.94376
G1 X101.710 Y105.783 E3.95109
G1 X101.521 Y105.526 E3.95868
G1 E1.95868 F2400.00000
G92 E0
G1 X102.030 Y100.613 F7800.000
G1 E2.00000 F2400.00000
G1 F4127.15
G1 X103.608 Y99.035 E2.05310
G1 X103.560 Y99.258 E2.05854
G1 X103.504 Y99.415 E2.06249
G1 X103.367 Y99.647 E2.06892
G1 X103.219 Y99.819 E2.07431
G1 X102.950 Y100.012 E2.08219
G1 X102.798 Y100.079 E2.08614
G1 X102.495 Y100.148 E2.09354
G1 X103.728 Y100.677 F7800.000
G1 F4127.15
G1 X106.652 Y97.752 E2.19193
G1 X106.547 Y97.283 E2.20338
G1 X106.473 Y97.051 E2.20918
G1 X103.771 Y99.752 E2.30008
G1 X103.752 Y99.427 E2.30784
G1 X103.254 Y99.389 E2.31973
G1 X106.214 Y96.429 E2.41934
G1 X105.892 Y95.870 E2.43469
G1 X101.303 Y100.459 E2.58912
G1 X101.089 Y100.310 E2.59531
G1 X100.851 Y100.030 E2.60407
G1 X105.518 Y95.363 E2.76110
G1 X105.096 Y94.904 E2.77593
G1 X98.867 Y101.133 E2.98551
G1 X99.056 Y100.780 E2.99503
G1 X99.293 Y100.169 E3.01063
G1 X99.070 Y100.049 E3.01665
G1 X104.627 Y94.492 E3.20363
G1 X104.111 Y94.127 E3.21867
G1 X97.621 Y100.617 E3.43706
G1 X97.361 Y100.591 E3.44327
G1 X97.202 Y100.545 E3.44722
G1 X96.945 Y100.412 E3.45409
G1 X103.550 Y93.807 E3.67636
G1 X102.943 Y93.533 E3.69221
G1 X101.232 Y95.245 E3.74980
G1 X101.281 Y94.901 E3.75806
G1 X100.897 Y94.699 E3.76838
G1 X102.284 Y93.311 E3.81506
G1 X101.568 Y93.147 E3.83254
G1 X100.224 Y94.491 E3.87776
G1 X99.798 Y94.451 E3.88794
G1 X99.349 Y94.485 E3.89866
G1 X100.785 Y93.048 E3.94700
G1 X100.303 Y93.027 E3.95847
G1 X99.918 Y93.035 E3.96765
G1 X93.331 Y99.621 E4.18928
G1 X93.310 Y99.328 E4.19627
G1 X93.319 Y98.752 E4.20998
G1 X98.928 Y93.143 E4.39872
G1 X98.212 Y93.303 E4.41618
G1 X97.734 Y93.456 E4.42812
G1 X93.510 Y97.681 E4.57026
G1 X93.640 Y97.276 E4.58036
G1 X93.811 Y96.872 E4.59080
G1 X94.014 Y96.485 E4.60120
G1 X94.248 Y96.120 E4.61152
G1 X94.437 Y95.873 E4.61892
G1 X95.744 Y94.566 E4.66290
G1 X100.002 Y96.474 F7800.000
G1 F4127.15
G1 X101.645 Y94.831 E4.71818
G1 X101.691 Y94.821 E4.71929
G1 X101.697 Y94.780 E4.72029
G1 X100.184 Y95.082 F7800.000
G1 F1031.79
G1 X99.690 Y95.576 E4.74004
G1 X99.182 Y95.142 F7800.000
G1 F1031.79
G1 X99.676 Y94.648 E4.75980
G1 Z1.800 F7800.000
G1 X99.476 Y95.952 F7800.000
G1 F2794.99
G1 X99.359 Y95.654 E4.76743
G1 X99.180 Y95.400 E4.77482
G1 X98.938 Y95.203 E4.78224
G1 X98.760 Y95.117 E4.78693
G1 X98.599 Y95.075 E4.79091
G1 X99.941 Y96.418 E4.83609
G1 X96.255 Y98.897 F7800.000
G1 F2794.99
G1 X96.343 Y98.892 E4.83821
G1 X96.383 Y99.025 E4.84151
G1 X97.970 Y100.613 E4.89494
G1 E2.89494 F2400.00000
G92 E0
G1 X96.963 Y104.011 F7800.000
G1 E2.00000 F2400.00000
G1 F2794.99
G1 X94.250 Y101.297 E2.09131
G1 X93.967 Y101.560 E2.10050
G1 X93.810 Y101.738 E2.10615
G1 X94.618 Y102.546 E2.13335
G1 X94.438 Y102.846 E2.14167
G1 X94.306 Y103.115 E2.14880
G1 X93.463 Y102.272 E2.17718
G1 X93.335 Y102.565 E2.18479
G1 X93.228 Y102.919 E2.19357
G1 X94.089 Y103.780 E2.22254
G1 X94.039 Y104.074 E2.22964
G1 X94.022 Y104.555 E2.24109
G1 X93.995 Y104.555 E2.24173
G1 X93.998 Y104.569 E2.24208
G1 X93.145 Y103.716 E2.27078
G1 X93.170 Y104.017 E2.27796
G1 X93.268 Y104.461 E2.28877
G1 X93.461 Y104.913 E2.30048
G1 X94.837 Y106.289 E2.34677
G1 X94.566 Y106.117 E2.35441
G1 X94.361 Y105.944 E2.36078
G1 X94.155 Y105.720 E2.36802
G1 X93.927 Y105.379 E2.37780
G1 X95.319 Y105.890 F7800.000
G1 F2794.99
G1 X95.983 Y106.554 E2.40013
G1 X96.366 Y106.512 E2.40930
G1 X96.723 Y106.413 E2.41812
G1 X96.015 Y105.705 E2.44194
G1 X96.263 Y105.573 E2.44862
G1 X96.554 Y105.363 E2.45716
G1 X97.310 Y106.119 E2.48261
G1 X97.501 Y105.983 E2.48819
G1 X97.791 Y105.720 E2.49752
G1 X96.994 Y104.922 E2.52436
G1 X97.149 Y104.718 E2.53045
G1 X97.345 Y104.393 E2.53950
G1 X98.178 Y105.226 E2.56753
G1 X98.334 Y104.944 E2.57518
G1 X98.465 Y104.632 E2.58324
G1 X93.992 Y100.158 E2.73378
G1 X93.830 Y99.635 E2.74681
G1 X93.735 Y99.020 E2.76161
G1 X98.734 Y104.020 E2.92985
G1 X99.737 Y104.141 E2.95387
G1 X97.843 Y102.248 E3.01758
G1 X97.513 Y102.241 E3.02544
G1 X97.315 Y102.181 E3.03037
G1 X97.027 Y102.029 E3.03810
G1 X96.861 Y101.894 E3.04320
G1 X96.673 Y101.677 E3.05005
G1 X96.477 Y101.344 E3.05922
G1 X96.338 Y100.963 E3.06887
G1 X96.273 Y100.677 E3.07585
G1 X93.744 Y98.149 E3.16092
G1 X93.801 Y97.752 E3.17046
G1 X93.882 Y97.406 E3.17892
G1 X96.228 Y99.751 E3.25783
G1 X96.259 Y99.391 E3.26645
G1 X96.720 Y99.363 E3.27743
G1 X94.109 Y96.751 E3.36529
G1 X94.408 Y96.170 E3.38085
G1 X98.697 Y100.459 E3.52516
G1 X98.911 Y100.310 E3.53135
G1 X99.149 Y100.030 E3.54011
G1 X94.773 Y95.654 E3.68735
G1 X95.196 Y95.196 E3.70218
G1 X101.133 Y101.133 E3.90194
G1 X100.913 Y100.714 E3.91321
G1 X100.701 Y100.136 E3.92787
G1 X100.908 Y100.027 E3.93344
G1 X95.669 Y94.788 E4.10970
G1 X96.190 Y94.429 E4.12476
G1 X102.379 Y100.618 E4.33301
G1 X102.639 Y100.591 E4.33922
G1 X102.798 Y100.545 E4.34317
G1 X103.055 Y100.412 E4.35005
G1 X96.761 Y94.118 E4.56184
G1 X97.383 Y93.859 E4.57788
G1 X98.468 Y94.945 E4.61441
G1 X98.698 Y94.775 E4.62120
G1 X99.006 Y94.601 E4.62961
G1 X98.059 Y93.655 E4.66147
G1 X98.798 Y93.513 E4.67938
G1 X99.665 Y94.379 E4.70853
G1 X100.125 Y94.322 E4.71957
G1 X100.500 Y94.334 E4.72849
G1 X99.613 Y93.446 E4.75834
G1 X100.096 Y93.452 E4.76985
G1 X100.533 Y93.486 E4.78028
G1 X106.298 Y99.251 E4.97426
G1 X106.300 Y98.759 E4.98597
G1 X106.247 Y98.319 E4.99652
G1 X101.615 Y93.687 E5.15237
G1 X102.364 Y93.936 E5.17114
G1 X103.090 Y94.280 E5.19025
G1 X105.795 Y96.986 E5.28130
G1 E3.28130 F2400.00000
G92 E0
G1 X106.188 Y100.022 F7800.000
G1 E2.00000 F2400.00000
G1 F2794.99
G1 X101.032 Y94.866 E2.17348
G1 X100.724 Y94.956 E2.18114
G1 X100.597 Y95.023 E2.18455
G1 X100.433 Y95.148 E2.18944
G1 X105.976 Y100.690 E2.37594
G1 X105.691 Y101.287 E2.39167
G1 X103.776 Y99.372 E2.45611
G1 X103.780 Y99.722 E2.46445
G1 X103.729 Y100.205 E2.47601
G1 X106.728 Y103.204 E2.57692
G1 X106.797 Y103.461 E2.58324
G1 X106.850 Y103.789 E2.59116
G1 X106.862 Y104.219 E2.60139
G1 X105.896 Y103.253 E2.63389
G1 X105.961 Y103.609 E2.64249
G1 X105.980 Y103.859 E2.64847
G1 X105.968 Y104.206 E2.65673
G1 X106.723 Y104.961 E2.68215
G1 X106.571 Y105.322 E2.69147
G1 X106.433 Y105.552 E2.69785
G1 X105.790 Y104.910 E2.71947
G1 X105.634 Y105.202 E2.72736
G1 X105.438 Y105.438 E2.73466
G1 X106.019 Y106.019 E2.75423
G1 X105.867 Y106.141 E2.75887
G1 X105.480 Y106.361 E2.76946
G1 X104.908 Y105.789 E2.78872
G1 X104.573 Y105.881 E2.79698
G1 X104.356 Y105.898 E2.80216
G1 X104.123 Y105.885 E2.80771
G1 X104.783 Y106.545 E2.82991
G1 X104.569 Y106.556 E2.83501
G1 X104.296 Y106.539 E2.84152
G1 X104.026 Y106.491 E2.84805
G1 X103.771 Y106.414 E2.85438
G1 X101.542 Y104.185 E2.92937
G1 X101.344 Y103.547 E2.94528
G1 X100.953 Y103.596 E2.95466
G1 X98.508 Y101.151 E3.03695
G1 X98.228 Y101.417 E3.04615
G1 X98.032 Y101.555 E3.05186
G1 X100.624 Y104.148 E3.13909
G1 X100.166 Y104.159 E3.15000
G1 X99.737 Y104.141 E3.16022
G1 E1.16022 F2400.00000
G92 E0
G1 X103.055 Y100.412 F7800.000
G1 E2.00000 F2400.00000
G1 F2794.99
G1 X103.219 Y100.284 E2.00495
G1 X103.332 Y100.163 E2.00890
G1 X103.470 Y99.946 E2.01501
G1 X99.584 Y96.060 E2.14578
G1 X100.009 Y96.033 E2.15592
G1 X100.095 Y95.690 E2.16432
G1 X103.764 Y99.360 E2.28779
G1 E0.28779 F2400.00000
G92 E0
G1 X105.338 Y102.695 F7800.000
G1 E2.00000 F2400.00000
G1 F2794.99
G1 X103.522 Y100.879 E2.06110
G1 X103.413 Y101.085 E2.06665
G1 X103.165 Y101.403 E2.07624
G1 X104.884 Y103.122 E2.13410
G1 X104.381 Y103.500 E2.14907
G1 X102.618 Y101.737 E2.20838
G1 X102.452 Y101.777 E2.21244
G1 X102.254 Y101.790 E2.21716
G1 X102.055 Y101.771 E2.22192
G1 X101.858 Y101.722 E2.22675
G1 X101.619 Y101.619 E2.23296
G1 X103.837 Y103.837 E2.30760
G1 X103.245 Y104.126 E2.32327
G1 X99.169 Y100.050 E2.46043
G1 X99.056 Y100.315 E2.46728
G1 X98.882 Y100.644 E2.47614
G1 X102.613 Y104.375 E2.60167
G1 X102.442 Y104.440 E2.60603
G1 X102.701 Y104.945 E2.61955
G1 X102.840 Y105.166 E2.62576
G1 X103.163 Y105.568 E2.63802
G1 X103.536 Y105.901 E2.64993
G1 X103.946 Y106.154 E2.66139
G1 X104.161 Y106.245 E2.66695
G1 X104.588 Y106.350 E2.67742
G1 Z2.100 F7800.000
G1 X105.164 Y106.288 F7800.000
G1 F3900.65
G1 X106.510 Y104.942 E2.72270
G1 X106.639 Y104.714 E2.72894
G1 X106.790 Y104.265 E2.74021
G1 X106.859 Y103.797 E2.75145
G1 X106.858 Y103.714 E2.75345
G1 X105.975 Y104.596 E2.78313
G1 X105.961 Y104.074 E2.79556
G1 X105.911 Y103.780 E2.80266
G1 X106.772 Y102.918 E2.83165
G1 X106.583 Y102.365 E2.84555
G1 X106.532 Y102.277 E2.84798
G1 X105.694 Y103.115 E2.87619
G1 X105.562 Y102.846 E2.88332
G1 X105.382 Y102.546 E2.89164
G1 X106.183 Y101.746 E2.91858
G1 X106.014 Y101.540 E2.92491
G1 X105.751 Y101.296 E2.93344
G1 X103.037 Y104.011 E3.02479
G1 X102.666 Y104.177 E3.03446
G1 X101.970 Y104.442 E3.05219
G1 X102.189 Y104.858 E3.06337
G1 X101.824 Y105.223 E3.07566
G1 X101.601 Y104.801 E3.08702
G1 X101.542 Y104.625 E3.09145
G1 X105.987 Y100.179 E3.24103
G1 X106.125 Y99.800 E3.25063
G1 X106.257 Y99.205 E3.26514
G1 X106.273 Y99.013 E3.26972
G1 X101.263 Y104.022 E3.43827
G1 X100.491 Y104.123 E3.45681
G1 X100.272 Y104.133 E3.46202
G1 X102.624 Y101.781 E3.54114
G1 X102.323 Y101.722 E3.54842
G1 X101.969 Y101.555 E3.55775
G1 X99.379 Y104.144 E3.64489
G1 X98.582 Y104.061 E3.66397
G1 X101.492 Y101.151 E3.76190
G1 X101.291 Y100.907 E3.76943
G1 X101.119 Y100.643 E3.77692
G1 X97.387 Y104.375 E3.90248
G1 X96.755 Y104.126 E3.91865
G1 X100.832 Y100.049 E4.05583
G1 X102.030 Y100.613 F7800.000
G1 F3900.65
G1 X103.608 Y99.035 E4.10893
G1 X103.560 Y99.258 E4.11437
G1 X103.504 Y99.415 E4.11832
G1 X103.428 Y99.562 E4.12227
G1 X103.219 Y99.819 E4.13015
G1 X102.950 Y100.012 E4.13803
G1 X102.798 Y100.079 E4.14198
G1 X102.495 Y100.148 E4.14938
G1 X103.728 Y100.677 F7800.000
G1 F3900.65
G1 X106.278 Y98.127 E4.23518
G1 X106.270 Y97.990 E4.23844
G1 X106.145 Y97.394 E4.25293
G1 X103.771 Y99.752 E4.33256
G1 X103.750 Y99.394 E4.34111
G1 X103.284 Y99.358 E4.35222
G1 X105.900 Y96.743 E4.44022
G1 X105.663 Y96.283 E4.45254
G1 X105.588 Y96.173 E4.45569
G1 X101.303 Y100.459 E4.59989
G1 X101.089 Y100.310 E4.60608
G1 X100.851 Y100.030 E4.61484
G1 X105.222 Y95.659 E4.76193
G1 X104.801 Y95.199 E4.77677
G1 X102.823 Y97.177 E4.84330
G1 X102.909 Y96.840 E4.85157
G1 X102.930 Y96.614 E4.85697
G1 X102.897 Y96.222 E4.86633
G1 X104.323 Y94.796 E4.91430
G1 X104.176 Y94.673 E4.91887
G1 X103.801 Y94.437 E4.92940
G1 X102.655 Y95.583 E4.96795
G1 X102.477 Y95.336 E4.97519
G1 X102.240 Y95.118 E4.98287
G1 X103.232 Y94.126 E5.01625
G1 X102.829 Y93.936 E5.02684
G1 X102.613 Y93.864 E5.03227
G1 X101.654 Y94.822 E5.06452
G1 X101.292 Y94.763 E5.07325
G1 X100.995 Y94.600 E5.08131
G1 X101.938 Y93.658 E5.11303
G1 X101.341 Y93.530 E5.12754
G1 X101.201 Y93.513 E5.13090
G1 X100.335 Y94.379 E5.16004
G1 X100.013 Y94.331 E5.16778
G1 X99.500 Y94.333 E5.17999
G1 X100.377 Y93.456 E5.20950
G1 X100.035 Y93.447 E5.21764
G1 X99.464 Y93.489 E5.23127
G1 X97.968 Y94.982 E5.28157
G1 X97.687 Y95.068 E5.28857
G1 X97.480 Y95.170 E5.29404
G1 X97.288 Y95.300 E5.29957
G1 X97.114 Y95.455 E5.30511
G1 X96.964 Y95.632 E5.31064
G1 X96.838 Y95.828 E5.31617
G1 X96.741 Y96.039 E5.32170
G1 X96.669 Y96.284 E5.32777
G1 X93.722 Y99.230 E5.42692
G1 X93.730 Y98.758 E5.43816
G1 X93.794 Y98.278 E5.44967
G1 X98.367 Y93.705 E5.60355
G1 X97.937 Y93.825 E5.61417
G1 X97.564 Y93.966 E5.62365
G1 X96.906 Y94.285 E5.64104
G1 X94.231 Y96.959 E5.73104
G1 X94.473 Y96.531 E5.74274
G1 X94.704 Y96.205 E5.75226
G1 X94.964 Y95.899 E5.76181
G1 X95.246 Y95.613 E5.77136
G1 X95.548 Y95.349 E5.78089
G1 X95.865 Y95.108 E5.79038
G1 X96.441 Y94.750 E5.80652
G1 E3.80652 F2400.00000
G92 E0
G1 X95.758 Y99.837 F7800.000
G1 E2.00000 F2400.00000
G1 F3900.65
G1 X95.793 Y99.388 E2.01071
G1 X96.234 Y99.362 E2.02120
G1 X97.885 Y97.710 E2.07678
G1 X98.090 Y97.867 E2.08291
G1 X98.414 Y98.062 E2.09192
G1 X96.530 Y99.946 E2.15531
G1 X96.668 Y100.163 E2.16142
G1 X96.781 Y100.284 E2.16537
G1 X96.945 Y100.412 E2.17032
G1 X99.037 Y98.320 E2.24072
G1 X99.409 Y98.416 E2.24987
G1 X99.766 Y98.472 E2.25845
G1 X97.621 Y100.618 E2.33063
G1 X97.856 Y100.599 E2.33624
G1 X98.016 Y100.557 E2.34019
G1 X98.314 Y100.412 E2.34807
G1 X98.562 Y100.192 E2.35595
G1 X98.802 Y99.873 E2.36545
G1 X99.093 Y100.026 E2.37327
G1 X100.640 Y98.479 E2.42534
G1 X100.976 Y98.432 E2.43341
G1 X101.301 Y98.359 E2.44133
G1 X101.830 Y98.170 E2.45470
G1 X98.867 Y101.133 E2.55440
G1 E0.55440 F2400.00000
G92 E0
G1 X96.163 Y103.837 F7800.000
G1 E2.00000 F2400.00000
G1 F3900.65
G1 X98.381 Y101.619 E2.07462
G1 X98.149 Y101.720 E2.08064
G1 X97.909 Y101.776 E2.08649
G1 X97.741 Y101.789 E2.09052
G1 X97.565 Y101.778 E2.09470
G1 X97.382 Y101.737 E2.09918
G1 X95.619 Y103.500 E2.15849
G1 X95.115 Y103.123 E2.17346
G1 X96.835 Y101.403 E2.23134
G1 X96.597 Y101.100 E2.24052
G1 X96.477 Y100.880 E2.24647
G1 X94.660 Y102.697 E2.30763
G1 X94.288 Y102.321 E2.32022
G1 X93.973 Y102.846 E2.33478
G1 X93.855 Y103.080 E2.34102
G1 X93.738 Y103.364 E2.34832
G1 X93.639 Y103.718 E2.35707
G1 E0.35707 F2400.00000
G92 E0
G1 X95.220 Y106.542 F7800.000
G1 E2.00000 F2400.00000
G1 F3900.65
G1 X95.879 Y105.883 E2.02217
G1 X95.644 Y105.898 E2.02776
G1 X95.427 Y105.881 E2.03294
G1 X95.092 Y105.789 E2.04120
G1 X94.520 Y106.361 E2.06046
G1 X94.295 Y106.246 E2.06647
G1 X94.009 Y106.044 E2.07480
G1 X93.982 Y106.018 E2.07569
G1 X94.562 Y105.438 E2.09523
G1 X94.366 Y105.202 E2.10253
G1 X94.210 Y104.910 E2.11042
G1 X93.569 Y105.551 E2.13198
G1 X93.441 Y105.342 E2.13780
G1 X93.282 Y104.956 E2.14773
G1 X94.032 Y104.206 E2.17297
G1 X94.020 Y103.859 E2.18122
G1 X94.039 Y103.609 E2.18720
G1 X94.104 Y103.253 E2.19580
G1 X93.154 Y104.204 E2.22779
G1 X93.153 Y103.867 E2.23579
G1 X93.197 Y103.528 E2.24392
G1 X93.279 Y103.197 E2.25204
G1 X96.271 Y100.205 E2.35271
G1 X96.220 Y99.724 E2.36423
G1 X96.224 Y99.372 E2.37261
G1 X94.309 Y101.287 E2.43704
G1 X94.092 Y100.863 E2.44836
G1 X94.026 Y100.688 E2.45281
G1 X97.461 Y97.253 E2.56840
G1 X97.264 Y96.929 E2.57744
G1 X97.166 Y96.668 E2.58407
G1 X93.819 Y100.014 E2.69666
G1 X93.778 Y99.836 E2.70101
G1 X93.722 Y99.230 E2.71549
G1 E0.71549 F2400.00000
G92 E0
G1 X96.681 Y105.962 F7800.000
G1 E2.00000 F2400.00000
G1 F3900.65
G1 X96.952 Y105.855 E2.00692
G1 X97.221 Y105.711 E2.01419
G1 X97.633 Y105.407 E2.02638
G1 X97.868 Y105.173 E2.03426
G1 X98.077 Y104.911 E2.04225
G1 X98.256 Y104.628 E2.05023
G1 X98.402 Y104.329 E2.05814
G1 X98.446 Y104.197 E2.06144
G1 X96.216 Y106.427 E2.13648
G1 E0.13648 F2400.00000
G92 E0
G1 X101.824 Y105.223 F7800.000
G1 E2.00000 F2400.00000
G1 F3900.65
G1 X102.035 Y105.522 E2.00869
G1 X102.216 Y105.712 E2.01495
G1 X103.006 Y104.922 E2.04153
G1 X103.239 Y105.190 E2.04997
G1 X103.446 Y105.363 E2.05639
G1 X102.698 Y106.112 E2.08159
G1 X103.033 Y106.303 E2.09079
G1 X103.289 Y106.401 E2.09730
G1 X103.985 Y105.705 E2.12073
G1 X104.382 Y105.847 E2.13075
G1 X104.681 Y105.890 E2.13795
G1 X104.027 Y106.544 E2.15996
G1 E0.15996 F2400.00000
G92 E0
G1 X101.843 Y97.615 F7800.000
G1 E2.00000 F2400.00000
G1 F975.162
G1 X102.463 Y96.984 E2.02675
G1 X102.654 Y96.699 E2.03712
G1 X102.721 Y96.551 E2.04201
G1 X102.800 Y96.254 E2.05130
G1 X102.806 Y95.953 E2.06041
G1 X102.752 Y95.700 E2.06823
G1 X100.087 Y98.364 E2.18210
G1 X99.614 Y98.378 E2.19641
G1 X99.120 Y98.324 E2.21141
G1 X102.342 Y95.102 E2.34907
G1 X102.140 Y94.979 E2.35622
G1 X101.997 Y94.925 E2.36085
G1 X101.695 Y94.877 E2.37008
G1 X101.550 Y94.887 E2.37447
G1 X100.070 Y96.368 E2.43773
G1 X100.137 Y96.102 E2.44602
G1 X100.196 Y95.968 E2.45045
G1 X100.272 Y95.843 E2.45487
G1 X100.412 Y95.684 E2.46127
G1 X100.614 Y95.528 E2.46898
G1 X100.742 Y95.462 E2.47333
G1 X100.882 Y95.413 E2.47780
G1 X101.056 Y95.382 E2.48315
G1 E0.48315 F2400.00000
G92 E0
G1 X97.529 Y95.888 F7800.000
G1 E2.00000 F2400.00000
G1 F975.162
G1 X98.134 Y95.294 E2.02562
G1 X98.395 Y95.142 E2.03476
G1 X98.702 Y95.063 E2.04433
G1 X98.982 Y95.070 E2.05280
G1 X99.269 Y95.155 E2.06184
G1 X97.310 Y97.114 E2.14557
G1 X97.409 Y97.302 E2.15199
G1 X97.514 Y97.450 E2.15748
G1 X97.743 Y97.688 E2.16745
G1 X99.794 Y95.637 E2.25509
G1 X99.975 Y96.089 E2.26980
G1 X100.374 Y96.063 E2.28189
G1 X98.354 Y98.084 E2.36824
G1 Z2.400 F7800.000
G1 X98.259 Y97.707 F7800.000
G1 F600
G1 X97.517 Y96.957 E2.40102
G1 X97.321 Y96.648 E2.41236
G1 X97.233 Y96.378 E2.42118
G1 X97.219 Y96.075 E2.43060
G1 X97.241 Y95.926 E2.43527
G1 X97.315 Y95.728 E2.44184
G1 X99.942 Y98.355 E2.55721
G1 X100.183 Y98.379 E2.56470
G1 X100.458 Y98.373 E2.57326
G1 X100.932 Y98.310 E2.58811
G1 X97.809 Y95.187 E2.72525
G1 X98.044 Y95.094 E2.73310
G1 X98.335 Y95.058 E2.74221
G1 X98.497 Y95.072 E2.74725
G1 X98.779 Y95.155 E2.75638
G1 X98.849 Y95.193 E2.75887
G1 X99.801 Y96.145 E2.80067
G1 X99.730 Y96.073 F7800.000
G1 F600
G1 X101.710 Y98.053 E2.88762
G1 X101.855 Y97.977 E2.89271
G1 X102.214 Y97.726 E2.90631
G1 X102.316 Y97.624 E2.91079
G1 X100.186 Y95.495 E3.00429
G1 X100.282 Y95.334 E3.01011
G1 X100.376 Y95.221 E3.01466
G1 X100.489 Y95.119 E3.01939
G1 X100.710 Y94.984 E3.02744
G1 X102.733 Y97.007 E3.11627
G1 X102.508 Y95.747 F7800.000
G1 F600
G1 X102.004 Y95.243 E3.13839
G1 X102.014 Y95.253 E3.13880
G1 Z2.700 F7800.000
G1 E1.13880 F2400.00000
G92 E0
G1 X100.538 Y97.029 F7800.000
G1 E2.00000 F2400.00000
G1 F600
G1 X99.232 Y98.335 E2.05981
G1 X100.312 Y98.333 F7800.000
G1 F600
G1 X100.806 Y97.839 E2.08245
G1 Z3.000 F7800.000
G1 E0.08245 F2400.00000
G92 E0
M107
; Filament-specific end gcode 
;END gcode for filament

M104 S0 ; turn off temperature
G28 X0  ; home X axis
M84     ; disable motors

M140 S0 ; set bed temperature
; filament used = 45.0mm (0.3cm3)
; total filament cost = 0.0

; avoid_crossing_perimeters = 0
; bed_shape = 0x0,200x0,200x200,0x200
; bed_temperature = 0
; before_layer_gcode = 
; between_objects_gcode = 
; bridge_acceleration = 0
; bridge_fan_speed = 100
; brim_connections_width = 0
; brim_width = 0
; complete_objects = 0
; cooling = 1
; default_acceleration = 0
; disable_fan_first_layers = 3
; duplicate_distance = 6
; end_filament_gcode = "; Filament-specific end gcode \n;END gcode for filament\n"
; end_gcode = M104 S0 ; turn off temperature\nG28 X0  ; home X axis\nM84     ; disable motors\n
; extruder_clearance_height = 20
; extruder_clearance_radius = 20
; extruder_offset = 0x0
; extrusion_axis = E
; extrusion_multiplier = 1
; fan_always_on = 0
; fan_below_layer_time = 60
; filament_colour = #FFFFFF
; filament_cost = 0
; filament_density = 0
; filament_diameter = 3
; filament_max_volumetric_speed = 0
; filament_notes = ""
; first_layer_acceleration = 0
; first_layer_bed_temperature = 0
; first_layer_extrusion_width = 200%
; first_layer_speed = 30
; first_layer_temperature = 205
; gcode_arcs = 0
; gcode_comments = 0
; gcode_flavor = reprap
; has_heatbed = 1
; infill_acceleration = 0
; infill_first = 0
; interior_brim_width = 0
; layer_gcode = 
; max_fan_speed = 100
; max_layer_height = 0.3
; max_print_speed = 80
; max_volumetric_speed = 0
; min_fan_speed = 35
; min_layer_height = 0.15
; min_print_speed = 10
; min_skirt_length = 0
; notes = 
; nozzle_diameter = 0.5
; only_retract_when_crossing_perimeters = 1
; ooze_prevention = 0
; output_filename_format = [input_filename_base].gcode
; perimeter_acceleration = 0
; post_process = 
; pressure_advance = 0
; printer_notes = 
; resolution = 0
; retract_before_travel = 2
; retract_layer_change = 0
; retract_length = 2
; retract_length_toolchange = 10
; retract_lift = 0
; retract_lift_above = 0
; retract_lift_below = 0
; retract_restart_extra = 0
; retract_restart_extra_toolchange = 0
; retract_speed = 40
; skirt_distance = 6
; skirt_height = 1
; skirts = 0
; slowdown_below_layer_time = 5
; spiral_vase = 0
; standby_temperature_delta = -5
; start_filament_gcode = "; Filament gcode\n"
; start_gcode = G28 ; home all axes\nG1 Z5 F5000 ; lift nozzle\n
; temperature = 200
; threads = 8
; toolchange_gcode = 
; travel_speed = 130
; use_firmware_retraction = 0
; use_relative_e_distances = 0
; use_set_and_wait_bed = 0
; use_set_and_wait_extruder = 0
; use_volumetric_e = 0
; vibration_limit = 0
; wipe = 0
; z_offset = 0
; z_steps_per_mm = 0
; adaptive_slicing = 0
; adaptive_slicing_quality = 75%
; dont_support_bridges = 1
; extrusion_width = 0
; first_layer_height = 0.3
; infill_only_where_needed = 0
; interface_shells = 0
; layer_height = 0.3
; match_horizontal_surfaces = 0
; raft_layers = 0
; regions_overlap = 0
; seam_position = aligned
; sequential_print_priority = 0
; support_material = 0
; support_material_angle = 0
; support_material_buildplate_only = 0
; support_material_contact_distance = 0.2
; support_material_enforce_layers = 0
; support_material_extruder = 1
; support_material_extrusion_width = 0
; support_material_interface_extruder = 1
; support_material_interface_extrusion_width = 0
; support_material_interface_layers = 3
; support_material_interface_spacing = 0
; support_material_interface_speed = 100%
; support_material_max_layers = 0
; support_material_pattern = pillars
; support_material_spacing = 2.5
; support_material_speed = 60
; support_material_threshold = 60%
; xy_size_compensation = 0
; bottom_infill_pattern = rectilinear
; bottom_solid_layers = 0
; bridge_flow_ratio = 1
; bridge_speed = 60
; external_perimeter_extrusion_width = 0
; external_perimeter_speed = 50%
; external_perimeters_first = 0
; extra_perimeters = 1
; fill_angle = 45
; fill_density = 90%
; fill_gaps = 1
; fill_pattern = rectilinear
; gap_fill_speed = 20
; infill_every_layers = 1
; infill_extruder = 1
; infill_extrusion_width = 0
; infill_overlap = 55%
; infill_speed = 80
; overhangs = 1
; perimeter_extruder = 1
; perimeter_extrusion_width = 0
; perimeter_speed = 60
; perimeters = 0
; small_perimeter_speed = 15
; solid_infill_below_area = 70
; solid_infill_every_layers = 0
; solid_infill_extruder = 1
; solid_infill_extrusion_width = 0
; solid_infill_speed = 20
; thin_walls = 1
; top_infill_extrusion_width = 0
; top_infill_pattern = rectilinear
; top_solid_infill_speed = 15
; top_solid_layers = 0
