; generated by Slic3r 1.3.0 on 2019-05-03 at 14:29:05

; external perimeters extrusion width = 0.55mm (3.04mm^3/s)
; perimeters extrusion width = 0.70mm (7.88mm^3/s)
; infill extrusion width = 0.63mm (9.31mm^3/s)
; solid infill extrusion width = 0.70mm (2.63mm^3/s)
; top infill extrusion width = 0.70mm (1.97mm^3/s)

M107
M104 S205 ; set temperature
G28 ; home all axes
G1 Z5 F5000 ; lift nozzle

; Filament gcode

M109 S205 ; set temperature and wait for it to be reached
G21 ; set units to millimeters
G90 ; use absolute coordinates
M82 ; use absolute distances for extrusion
G92 E0
G1 Z0.300 F7800.000
G1 E-2.00000 F2400.00000
G92 E0
G1 X95.631 Y96.314 F7800.000
G1 E2.00000 F2400.00000
G1 F600
G1 X95.945 Y96.030 E2.00896
G1 F600
G1 X96.400 Y95.764 E2.01876
G1 X96.814 Y95.632 E2.02687
G1 X97.115 Y95.590 E2.03252
G1 X97.314 Y95.580 E2.03624
G1 X97.674 Y95.611 E2.04296
G1 X98.047 Y95.706 E2.05013
G1 X98.349 Y95.828 E2.05620
G1 F600
G1 X98.725 Y96.037 E2.06520
G1 X99.116 Y96.351 E2.07568
G1 X99.406 Y96.707 E2.08529
G1 X99.594 Y97.078 E2.09400
G1 F600
G1 X99.687 Y97.403 E2.10196
G1 X99.716 Y97.611 E2.10690
G1 X99.719 Y97.851 E2.11255
G1 X99.687 Y98.101 E2.11849
G1 X99.640 Y98.290 E2.12307
G1 X99.544 Y98.530 E2.12917
G1 X99.357 Y98.813 E2.13715
G1 X99.198 Y98.984 E2.14265
G1 F600
G1 X98.849 Y99.231 E2.15151
G1 X98.542 Y99.364 E2.15845
G1 X98.316 Y99.417 E2.16326
G1 F600
G1 X98.071 Y99.454 E2.16786
G1 X97.665 Y99.456 E2.17543
G1 X97.155 Y99.378 E2.18502
G1 X96.641 Y99.224 E2.19500
G1 X96.153 Y98.995 E2.20502
G1 F600
G1 X95.775 Y98.742 E2.21446
G1 X95.456 Y98.422 E2.22384
G1 X95.245 Y98.063 E2.23249
G1 X95.189 Y97.884 E2.23640
G1 X95.141 Y97.603 E2.24233
G1 F600
G1 X95.145 Y97.357 E2.24753
G1 X95.205 Y97.062 E2.25390
G1 X95.363 Y96.690 E2.26246
G1 X95.583 Y96.372 E2.27065
G1 X95.631 Y96.314 F7800.000
M104 S200 ; set temperature
G1 Z0.500 F7800.000
G1 X95.718 Y96.388 F7800.000
G1 F600
G1 X96.038 Y96.089 E2.27713
G1 F600
G1 X96.441 Y95.844 E2.28330
G1 X96.732 Y95.733 E2.28738
G1 X96.970 Y95.667 E2.29061
G1 X97.408 Y95.623 E2.29638
G1 X97.791 Y95.653 E2.30141
G1 X98.121 Y95.734 E2.30585
G1 X98.437 Y95.852 E2.31027
G1 X98.786 Y96.034 E2.31543
G1 F600
G1 X99.052 Y96.216 E2.32018
G1 X99.326 Y96.462 E2.32560
G1 X99.580 Y96.793 E2.33174
G1 X99.733 Y97.089 E2.33665
G1 F600
G1 X99.837 Y97.425 E2.34234
G1 X99.867 Y97.595 E2.34513
G1 X99.882 Y97.887 E2.34987
G1 X99.851 Y98.159 E2.35429
G1 X99.731 Y98.552 E2.36094
G1 X99.561 Y98.836 E2.36630
G1 X99.375 Y99.042 E2.37079
G1 F600
G1 X98.982 Y99.312 E2.37781
G1 X98.711 Y99.425 E2.38213
G1 X98.373 Y99.502 E2.38724
G1 F600
G1 X97.818 Y99.517 E2.39446
G1 X97.332 Y99.443 E2.40085
G1 X96.816 Y99.293 E2.40784
G1 X96.281 Y99.040 E2.41556
G1 F600
G1 X95.871 Y98.760 E2.42285
G1 X95.605 Y98.494 E2.42839
G1 X95.477 Y98.310 E2.43169
G1 X95.375 Y98.126 E2.43477
G1 X95.313 Y97.943 E2.43762
G1 X95.267 Y97.732 E2.44079
G1 X95.259 Y97.425 E2.44530
G1 F600
G1 X95.317 Y97.117 E2.44994
G1 X95.429 Y96.831 E2.45449
G1 X95.557 Y96.600 E2.45840
G1 X95.671 Y96.447 E2.46122
G1 X95.710 Y96.366 F7800.000
G1 Z0.700 F7800.000
G1 X95.792 Y96.448 F7800.000
G1 F600
G1 X95.972 Y96.258 E2.46507
G1 F600
G1 X96.187 Y96.082 E2.46872
G1 X96.604 Y95.846 E2.47505
G1 X97.075 Y95.698 E2.48156
G1 X97.484 Y95.657 E2.48698
G1 X97.925 Y95.692 E2.49280
G1 X98.300 Y95.788 E2.49791
G1 X98.713 Y95.959 E2.50379
G1 X98.983 Y96.117 E2.50792
G1 F600
G1 X99.207 Y96.276 E2.51194
G1 X99.452 Y96.503 E2.51681
G1 X99.644 Y96.738 E2.52126
G1 X99.848 Y97.107 E2.52742
G1 F600
G1 X99.938 Y97.346 E2.53159
G1 X100.000 Y97.667 E2.53694
G1 X99.993 Y98.148 E2.54481
G1 X99.959 Y98.323 E2.54771
G1 X99.859 Y98.614 E2.55275
G1 X99.644 Y98.951 E2.55928
G1 F600
G1 X99.485 Y99.121 E2.56272
G1 X99.179 Y99.333 E2.56822
G1 X98.889 Y99.466 E2.57294
G1 X98.497 Y99.560 E2.57891
G1 F600
G1 X97.996 Y99.579 E2.58558
G1 X97.390 Y99.484 E2.59376
G1 X96.945 Y99.344 E2.59997
G1 X96.495 Y99.146 E2.60651
G1 X96.036 Y98.852 E2.61379
G1 F600
G1 X95.857 Y98.697 E2.61727
G1 X95.697 Y98.523 E2.62076
G1 X95.470 Y98.157 E2.62712
G1 X95.406 Y97.975 E2.62997
G1 X95.362 Y97.765 E2.63313
G1 X95.352 Y97.493 E2.63714
G1 F600
G1 X95.387 Y97.250 E2.64075
G1 X95.459 Y97.016 E2.64436
G1 X95.568 Y96.773 E2.64827
G1 X95.747 Y96.508 E2.65298
G1 X95.781 Y96.423 F7800.000
M106 S255
G1 Z0.900 F7800.000
G1 X95.867 Y96.508 F7800.000
G1 F600
G1 X95.935 Y96.426 E2.65455
G1 X96.245 Y96.146 E2.66074
G1 F600
G1 X96.653 Y95.902 E2.66705
G1 X96.944 Y95.793 E2.67116
G1 X97.190 Y95.730 E2.67452
G1 X97.626 Y95.687 E2.68032
G1 X97.971 Y95.716 E2.68492
G1 X98.355 Y95.802 E2.69013
G1 X98.733 Y95.947 E2.69550
G1 X99.074 Y96.128 E2.70061
G1 F600
G1 X99.308 Y96.292 E2.70481
G1 X99.564 Y96.525 E2.70989
G1 X99.740 Y96.731 E2.71387
G1 X99.975 Y97.148 E2.72089
G1 F600
G1 X100.061 Y97.384 E2.72498
G1 X100.126 Y97.706 E2.73032
G1 X100.137 Y98.040 E2.73574
G1 X100.119 Y98.217 E2.73863
G1 X100.085 Y98.391 E2.74151
G1 X99.981 Y98.688 E2.74662
G1 X99.763 Y99.029 E2.75319
G1 F600
G1 X99.591 Y99.202 E2.75679
G1 X99.266 Y99.416 E2.76254
G1 X98.997 Y99.533 E2.76688
G1 X98.593 Y99.625 E2.77300
G1 F600
G1 X98.366 Y99.640 E2.77597
G1 X98.007 Y99.630 E2.78066
G1 X97.640 Y99.575 E2.78551
G1 X97.358 Y99.502 E2.78930
G1 X96.979 Y99.371 E2.79454
G1 X96.522 Y99.152 E2.80115
G1 X96.068 Y98.831 E2.80842
G1 F600
G1 X95.785 Y98.549 E2.81425
G1 X95.641 Y98.337 E2.81799
G1 X95.500 Y98.000 E2.82332
G1 X95.463 Y97.826 E2.82591
G1 X95.448 Y97.628 E2.82881
G1 F600
G1 X95.464 Y97.406 E2.83211
G1 X95.511 Y97.174 E2.83562
G1 X95.666 Y96.801 E2.84160
G1 X95.820 Y96.566 E2.84577
G1 X95.844 Y96.450 F7800.000
G1 Z1.100 F7800.000
G1 X95.943 Y96.565 F7800.000
G1 F600
G1 X96.331 Y96.184 E2.85344
G1 X96.762 Y95.927 E2.86053
G1 X96.980 Y95.839 E2.86384
G1 X97.223 Y95.771 E2.86741
G1 X97.684 Y95.716 E2.87396
G1 X97.994 Y95.731 E2.87834
G1 X98.457 Y95.824 E2.88501
G1 X98.879 Y95.984 E2.89139
G1 X99.151 Y96.131 E2.89575
G1 X99.559 Y96.433 E2.90292
G1 X99.890 Y96.812 E2.91003
G1 F600
G1 X100.014 Y97.016 E2.91386
G1 X100.137 Y97.277 E2.91849
G1 X100.237 Y97.654 E2.92477
G1 X100.269 Y97.967 E2.92983
G1 X100.243 Y98.299 E2.93517
G1 X100.158 Y98.631 E2.94069
G1 X100.002 Y98.938 E2.94623
G1 X99.810 Y99.174 E2.95112
G1 F600
G1 X99.566 Y99.377 E2.95575
G1 X99.295 Y99.522 E2.96023
G1 X98.823 Y99.669 E2.96745
G1 F600
G1 X98.483 Y99.703 E2.97194
G1 X98.107 Y99.692 E2.97691
G1 X97.750 Y99.640 E2.98165
G1 X97.235 Y99.491 E2.98872
G1 X96.667 Y99.230 E2.99695
G1 X96.287 Y98.981 E3.00294
G1 X96.050 Y98.773 E3.00709
G1 F600
G1 X95.880 Y98.586 E3.01080
G1 X95.693 Y98.294 E3.01587
G1 X95.573 Y97.937 E3.02138
G1 X95.542 Y97.616 E3.02610
G1 F600
G1 X95.566 Y97.377 E3.02950
G1 X95.632 Y97.120 E3.03324
G1 X95.725 Y96.901 E3.03661
G1 X95.898 Y96.625 E3.04121
G1 X95.932 Y96.540 F7800.000
G1 Z1.300 F7800.000
G1 X96.020 Y96.622 F7800.000
G1 F600
G1 X96.101 Y96.520 E3.04314
G1 X96.420 Y96.221 E3.04961
G1 F600
G1 X96.867 Y95.951 E3.05642
G1 X97.364 Y95.789 E3.06323
G1 X97.835 Y95.741 E3.06940
G1 X98.210 Y95.771 E3.07431
G1 X98.519 Y95.836 E3.07842
G1 F600
G1 X99.015 Y96.020 E3.08614
G1 X99.376 Y96.226 E3.09220
G1 X99.578 Y96.378 E3.09589
G1 X99.794 Y96.580 E3.10020
G1 X99.943 Y96.752 E3.10353
G1 X100.155 Y97.091 E3.10936
G1 X100.242 Y97.278 E3.11237
G1 F600
G1 X100.324 Y97.531 E3.11666
G1 X100.366 Y97.745 E3.12018
G1 X100.388 Y98.148 E3.12670
G1 X100.332 Y98.505 E3.13252
G1 X100.283 Y98.669 E3.13530
G1 X100.092 Y99.042 E3.14205
G1 F600
G1 X99.871 Y99.296 E3.14702
G1 X99.600 Y99.489 E3.15191
G1 X99.314 Y99.627 E3.15658
G1 X98.907 Y99.736 E3.16278
G1 F600
G1 X98.648 Y99.765 E3.16621
G1 X98.303 Y99.764 E3.17077
G1 X97.725 Y99.672 E3.17849
G1 X97.302 Y99.540 E3.18434
G1 X96.813 Y99.313 E3.19144
G1 X96.306 Y98.972 E3.19950
G1 F600
G1 X95.998 Y98.666 E3.20586
G1 X95.773 Y98.312 E3.21200
G1 X95.660 Y97.954 E3.21748
G1 X95.638 Y97.584 E3.22291
G1 F600
G1 X95.676 Y97.335 E3.22663
G1 X95.735 Y97.142 E3.22962
G1 X95.827 Y96.920 E3.23316
G1 X95.974 Y96.682 E3.23730
G1 X95.987 Y96.546 F7800.000
G1 Z1.500 F7800.000
G1 X96.098 Y96.677 F7800.000
G1 F600
G1 X96.186 Y96.562 E3.23937
G1 X96.511 Y96.252 E3.24580
G1 X96.696 Y96.121 E3.24905
G1 X96.919 Y95.997 E3.25269
G1 X97.161 Y95.895 E3.25645
G1 X97.428 Y95.818 E3.26042
G1 X97.612 Y95.791 E3.26309
G1 X97.915 Y95.765 E3.26743
G1 X98.287 Y95.787 E3.27277
G1 X98.764 Y95.901 E3.27977
G1 X99.081 Y96.024 E3.28464
G1 X99.430 Y96.212 E3.29031
G1 X99.767 Y96.469 E3.29637
G1 X99.962 Y96.669 E3.30037
G1 X100.164 Y96.935 E3.30514
G1 X100.318 Y97.220 E3.30978
G1 F600
G1 X100.415 Y97.477 E3.31417
G1 X100.481 Y97.772 E3.31899
G1 X100.507 Y98.164 E3.32527
G1 X100.425 Y98.643 E3.33304
G1 X100.351 Y98.840 E3.33639
G1 X100.255 Y99.026 E3.33975
G1 F600
G1 X100.044 Y99.296 E3.34468
G1 X99.770 Y99.516 E3.34974
G1 X99.427 Y99.686 E3.35527
G1 X98.972 Y99.804 E3.36203
G1 F600
G1 X98.714 Y99.825 E3.36539
G1 X98.372 Y99.823 E3.36983
G1 X98.117 Y99.794 E3.37315
G1 X97.803 Y99.730 E3.37732
G1 X97.392 Y99.601 E3.38290
G1 X96.947 Y99.396 E3.38926
G1 X96.444 Y99.062 E3.39710
G1 F600
G1 X96.119 Y98.755 E3.40359
G1 X95.889 Y98.408 E3.40962
G1 X95.808 Y98.214 E3.41269
G1 X95.744 Y97.957 E3.41653
G1 X95.726 Y97.668 E3.42074
G1 F600
G1 X95.756 Y97.417 E3.42436
G1 X95.810 Y97.212 E3.42738
G1 X95.906 Y96.979 E3.43098
G1 X96.055 Y96.739 E3.43503
G1 X96.061 Y96.599 F7800.000
G1 Z1.700 F7800.000
G1 X96.170 Y96.728 F7800.000
G1 F600
G1 X96.262 Y96.610 E3.43722
G1 X96.539 Y96.331 E3.44296
G1 F600
G1 X96.784 Y96.149 E3.44697
G1 X97.059 Y95.999 E3.45111
G1 X97.444 Y95.860 E3.45650
G1 X97.927 Y95.790 E3.46292
G1 X98.301 Y95.804 E3.46786
G1 X98.701 Y95.875 E3.47322
G1 X99.046 Y95.990 E3.47801
G1 X99.416 Y96.168 E3.48341
G1 F600
G1 X99.698 Y96.352 E3.48833
G1 X99.969 Y96.586 E3.49355
G1 X100.172 Y96.817 E3.49804
G1 X100.361 Y97.108 E3.50311
G1 X100.519 Y97.483 E3.50904
G1 X100.594 Y97.812 E3.51397
G1 X100.620 Y98.174 E3.51927
G1 X100.577 Y98.529 E3.52448
G1 X100.536 Y98.686 E3.52685
G1 X100.471 Y98.867 E3.52967
G1 X100.296 Y99.183 E3.53494
G1 X100.103 Y99.403 E3.53922
G1 X99.997 Y99.489 E3.54120
G1 X99.708 Y99.667 E3.54616
G1 X99.442 Y99.774 E3.55034
G1 F600
G1 X99.084 Y99.860 E3.55508
G1 X98.750 Y99.890 E3.55939
G1 X98.420 Y99.876 E3.56364
G1 X97.975 Y99.808 E3.56943
G1 X97.605 Y99.708 E3.57436
G1 X97.283 Y99.584 E3.57881
G1 X96.996 Y99.440 E3.58293
G1 X96.574 Y99.152 E3.58950
G1 F600
G1 X96.221 Y98.822 E3.59647
G1 X96.086 Y98.645 E3.59969
G1 X95.979 Y98.463 E3.60273
G1 X95.882 Y98.225 E3.60643
G1 X95.839 Y98.052 E3.60900
G1 X95.813 Y97.746 E3.61344
G1 F600
G1 X95.838 Y97.503 E3.61700
G1 X95.907 Y97.234 E3.62105
G1 X95.998 Y97.010 E3.62458
G1 X96.127 Y96.789 E3.62832
G1 X96.150 Y96.685 F7800.000
G1 Z1.900 F7800.000
G1 X96.243 Y96.780 F7800.000
G1 F600
G1 X96.489 Y96.480 E3.63387
G1 X96.678 Y96.311 E3.63749
G1 X96.891 Y96.159 E3.64124
G1 X97.141 Y96.023 E3.64533
G1 X97.582 Y95.870 E3.65200
G1 X98.110 Y95.809 E3.65962
G1 X98.518 Y95.838 E3.66548
G1 X98.913 Y95.928 E3.67128
G1 X99.300 Y96.079 E3.67722
G1 X99.641 Y96.267 E3.68280
G1 X99.937 Y96.487 E3.68808
G1 X100.231 Y96.791 E3.69414
G1 X100.448 Y97.111 E3.69967
G1 X100.537 Y97.293 E3.70257
G1 X100.675 Y97.715 E3.70893
G1 X100.724 Y98.194 E3.71582
G1 X100.683 Y98.550 E3.72095
G1 X100.617 Y98.802 E3.72468
G1 X100.523 Y99.020 E3.72808
G1 X100.301 Y99.351 E3.73378
G1 X100.048 Y99.582 E3.73869
G1 X99.682 Y99.784 E3.74468
G1 X99.471 Y99.856 E3.74788
G1 X99.223 Y99.911 E3.75151
G1 X98.758 Y99.947 E3.75819
G1 X98.173 Y99.891 E3.76660
G1 X97.672 Y99.762 E3.77401
G1 X97.239 Y99.583 E3.78071
G1 X96.965 Y99.429 E3.78521
G1 X96.539 Y99.111 E3.79282
G1 X96.307 Y98.882 E3.79750
G1 X96.177 Y98.708 E3.80061
G1 X96.044 Y98.474 E3.80446
G1 X95.930 Y98.125 E3.80971
G1 X95.898 Y97.864 E3.81348
G1 X95.902 Y97.704 E3.81577
G1 X95.977 Y97.305 E3.82158
G1 X96.066 Y97.078 E3.82508
G1 X96.199 Y96.841 E3.82897
G1 X96.189 Y96.662 F7800.000
G1 Z2.100 F7800.000
G1 X96.316 Y96.830 F7800.000
G1 F600
G1 X96.444 Y96.650 E3.83215
G1 X96.782 Y96.320 E3.83895
G1 X97.009 Y96.169 E3.84288
G1 X97.267 Y96.029 E3.84710
G1 X97.676 Y95.891 E3.85332
G1 X97.888 Y95.857 E3.85640
G1 X98.209 Y95.833 E3.86104
G1 X98.642 Y95.870 E3.86729
G1 X99.031 Y95.959 E3.87304
G1 X99.389 Y96.098 E3.87856
G1 X99.692 Y96.267 E3.88356
G1 X99.956 Y96.452 E3.88820
G1 X100.222 Y96.698 E3.89341
G1 X100.408 Y96.923 E3.89762
G1 X100.569 Y97.182 E3.90200
G1 X100.698 Y97.482 E3.90671
G1 X100.794 Y97.849 E3.91217
G1 X100.821 Y98.216 E3.91745
G1 X100.782 Y98.573 E3.92263
G1 X100.740 Y98.749 E3.92523
G1 X100.683 Y98.915 E3.92776
G1 X100.521 Y99.233 E3.93290
G1 X100.287 Y99.513 E3.93815
G1 X100.085 Y99.673 E3.94186
G1 X99.747 Y99.848 E3.94733
G1 X99.527 Y99.918 E3.95066
G1 X99.262 Y99.972 E3.95456
G1 X98.742 Y99.999 E3.96205
G1 X98.019 Y99.908 E3.97253
G1 X97.619 Y99.791 E3.97853
G1 X97.363 Y99.678 E3.98255
G1 F600
G1 X97.077 Y99.522 E3.98677
G1 X96.674 Y99.212 E3.99334
G1 F600
G1 X96.338 Y98.872 E4.00020
G1 X96.127 Y98.512 E4.00621
G1 X96.065 Y98.357 E4.00860
G1 X96.001 Y98.096 E4.01246
G1 X95.982 Y97.782 E4.01698
G1 F600
G1 X96.014 Y97.522 E4.02076
G1 X96.079 Y97.287 E4.02426
G1 X96.173 Y97.063 E4.02777
G1 X96.276 Y96.894 E4.03061
G1 X96.242 Y96.681 F7800.000
G1 Z2.300 F7800.000
G1 X96.383 Y96.877 F7800.000
G1 F600
G1 X96.517 Y96.692 E4.03368
G1 X96.691 Y96.499 E4.03718
G1 X96.893 Y96.324 E4.04078
G1 X97.220 Y96.115 E4.04601
G1 X97.735 Y95.922 E4.05341
G1 X98.006 Y95.873 E4.05712
G1 X98.253 Y95.858 E4.06045
G1 X98.669 Y95.885 E4.06606
G1 X98.985 Y95.950 E4.07041
G1 X99.479 Y96.127 E4.07747
G1 X99.750 Y96.273 E4.08162
G1 X100.056 Y96.487 E4.08664
G1 X100.188 Y96.600 E4.08899
G1 X100.440 Y96.872 E4.09397
G1 X100.593 Y97.092 E4.09758
G1 X100.737 Y97.374 E4.10184
G1 X100.790 Y97.507 E4.10377
G1 X100.884 Y97.878 E4.10893
G1 X100.910 Y98.253 E4.11399
G1 X100.894 Y98.466 E4.11686
G1 X100.834 Y98.761 E4.12091
G1 X100.738 Y99.033 E4.12481
G1 X100.495 Y99.419 E4.13094
G1 X100.264 Y99.647 E4.13531
G1 X100.089 Y99.768 E4.13818
G1 X99.786 Y99.913 E4.14270
G1 X99.475 Y99.998 E4.14704
G1 X99.189 Y100.034 E4.15093
G1 X98.847 Y100.049 E4.15554
G1 F600
G1 X98.122 Y100.009 E4.16680
G1 X97.644 Y99.902 E4.17441
G1 X97.439 Y99.818 E4.17785
G1 X97.135 Y99.660 E4.18317
G1 X96.754 Y99.373 E4.19056
G1 F600
G1 X96.460 Y99.026 E4.19697
G1 X96.228 Y98.618 E4.20358
G1 X96.136 Y98.385 E4.20711
G1 X96.075 Y98.084 E4.21144
G1 F600
G1 X96.068 Y97.828 E4.21489
G1 X96.094 Y97.578 E4.21828
G1 X96.209 Y97.205 E4.22352
G1 X96.343 Y96.940 E4.22752
G1 X96.318 Y96.744 F7800.000
G1 Z2.500 F7800.000
G1 X96.458 Y96.922 F7800.000
G1 F600
G1 X96.650 Y96.659 E4.23187
G1 X96.836 Y96.467 E4.23543
G1 X97.051 Y96.294 E4.23912
G1 X97.299 Y96.142 E4.24300
G1 X97.561 Y96.026 E4.24683
G1 X97.809 Y95.949 E4.25030
G1 X98.385 Y95.886 E4.25803
G1 X98.728 Y95.913 E4.26263
G1 X98.991 Y95.958 E4.26619
G1 X99.355 Y96.068 E4.27126
G1 X99.623 Y96.183 E4.27516
G1 X100.120 Y96.497 E4.28301
G1 X100.391 Y96.749 E4.28795
G1 X100.574 Y96.967 E4.29175
G1 X100.784 Y97.317 E4.29720
G1 X100.900 Y97.616 E4.30148
G1 X100.976 Y97.997 E4.30666
G1 X100.990 Y98.194 E4.30931
G1 X100.987 Y98.369 E4.31164
G1 X100.931 Y98.725 E4.31646
G1 X100.816 Y99.058 E4.32116
G1 X100.696 Y99.280 E4.32453
G1 X100.408 Y99.634 E4.33062
G1 X100.217 Y99.781 E4.33384
G1 X99.937 Y99.926 E4.33805
G1 X99.815 Y99.973 E4.33979
G1 X99.374 Y100.070 E4.34581
G1 X98.807 Y100.095 E4.35339
G1 F600
G1 X98.259 Y100.123 E4.36195
G1 X97.980 Y100.098 E4.36631
G1 X97.598 Y100.000 E4.37247
G1 X97.230 Y99.847 E4.37869
G1 X96.913 Y99.651 E4.38450
G1 X96.757 Y99.527 E4.38760
G1 X96.509 Y99.263 E4.39325
G1 F600
G1 X96.380 Y99.059 E4.39660
G1 X96.282 Y98.851 E4.39979
G1 X96.222 Y98.640 E4.40283
G1 X96.150 Y98.142 E4.40981
G1 F600
G1 X96.150 Y97.824 E4.41405
G1 X96.189 Y97.547 E4.41778
G1 X96.262 Y97.308 E4.42112
G1 X96.419 Y96.986 E4.42590
G1 X96.425 Y96.863 F7800.000
G1 Z2.700 F7800.000
G1 X96.537 Y96.967 F7800.000
G1 F600
G1 X96.606 Y96.857 E4.42769
G1 X96.861 Y96.552 E4.43318
G1 X97.061 Y96.380 E4.43682
G1 X97.340 Y96.197 E4.44142
G1 X97.596 Y96.072 E4.44535
G1 X97.844 Y95.990 E4.44895
G1 X98.068 Y95.944 E4.45210
G1 X98.475 Y95.917 E4.45772
G1 X98.767 Y95.935 E4.46177
G1 X99.169 Y96.012 E4.46740
G1 X99.528 Y96.132 E4.47263
G1 X99.773 Y96.250 E4.47637
G1 X100.010 Y96.389 E4.48016
G1 X100.233 Y96.553 E4.48397
G1 X100.451 Y96.755 E4.48807
G1 X100.710 Y97.075 E4.49375
G1 X100.934 Y97.518 E4.50059
G1 X101.009 Y97.754 E4.50401
G1 X101.065 Y98.132 E4.50929
G1 X101.059 Y98.460 E4.51380
G1 X100.977 Y98.859 E4.51942
G1 X100.807 Y99.248 E4.52528
G1 X100.616 Y99.515 E4.52980
G1 X100.396 Y99.732 E4.53406
G1 X100.252 Y99.837 E4.53653
G1 X99.998 Y99.967 E4.54047
G1 X99.766 Y100.047 E4.54384
G1 X99.444 Y100.110 E4.54836
G1 X98.871 Y100.140 E4.55627
G1 F600
G1 X98.471 Y100.215 E4.56247
G1 X98.175 Y100.215 E4.56698
G1 X97.831 Y100.173 E4.57225
G1 X97.656 Y100.131 E4.57499
G1 X97.295 Y100.004 E4.58081
G1 X96.897 Y99.783 E4.58776
G1 X96.632 Y99.567 E4.59295
G1 X96.449 Y99.366 E4.59709
G1 F600
G1 X96.357 Y99.235 E4.59929
G1 X96.222 Y98.963 E4.60345
G1 X96.145 Y98.636 E4.60807
G1 X96.136 Y98.316 E4.61247
G1 F600
G1 X96.176 Y98.023 E4.61655
G1 X96.269 Y97.588 E4.62268
G1 X96.377 Y97.271 E4.62730
G1 X96.500 Y97.032 E4.63100
G1 X96.496 Y96.897 F7800.000
G1 Z2.900 F7800.000
G1 X96.617 Y97.018 F7800.000
G1 F600
G1 X96.771 Y96.780 E4.63485
G1 X97.013 Y96.519 E4.63971
G1 X97.457 Y96.210 E4.64706
G1 X97.711 Y96.090 E4.65089
G1 X98.023 Y96.002 E4.65531
G1 X98.298 Y95.961 E4.65910
G1 X98.575 Y95.951 E4.66286
G1 X98.856 Y95.971 E4.66670
G1 X99.262 Y96.051 E4.67234
G1 X99.630 Y96.178 E4.67764
G1 X99.932 Y96.329 E4.68224
G1 X100.166 Y96.478 E4.68602
G1 X100.377 Y96.652 E4.68974
G1 X100.568 Y96.838 E4.69337
G1 X100.779 Y97.114 E4.69810
G1 X100.955 Y97.430 E4.70303
G1 X101.045 Y97.674 E4.70657
G1 X101.105 Y97.917 E4.70997
G1 X101.136 Y98.177 E4.71354
G1 X101.104 Y98.625 E4.71966
G1 X101.016 Y98.952 E4.72426
G1 X100.876 Y99.259 E4.72886
G1 X100.631 Y99.592 E4.73449
G1 X100.414 Y99.793 E4.73851
G1 X100.194 Y99.939 E4.74212
G1 X99.994 Y100.031 E4.74511
G1 X99.673 Y100.118 E4.74964
G1 X99.442 Y100.151 E4.75282
G1 X98.963 Y100.177 E4.75935
G1 F600
G1 X98.450 Y100.301 E4.76751
G1 X98.130 Y100.310 E4.77246
G1 X97.770 Y100.269 E4.77807
G1 X97.426 Y100.173 E4.78360
G1 X97.057 Y100.010 E4.78984
G1 X96.781 Y99.840 E4.79485
G1 X96.491 Y99.585 E4.80083
G1 F600
G1 X96.270 Y99.296 E4.80590
G1 X96.164 Y99.072 E4.80935
G1 X96.095 Y98.827 E4.81290
G1 X96.067 Y98.566 E4.81656
G1 F600
G1 X96.079 Y98.290 E4.82032
G1 X96.174 Y97.905 E4.82571
G1 X96.333 Y97.535 E4.83120
G1 X96.578 Y97.081 E4.83822
G1 X96.515 Y96.831 F7800.000
G1 Z3.100 F7800.000
G1 X96.664 Y97.055 F7800.000
G1 F600
G1 X96.863 Y96.806 E4.84264
G1 X97.121 Y96.531 E4.84786
G1 X97.443 Y96.294 E4.85340
G1 X97.738 Y96.152 E4.85793
G1 X98.122 Y96.034 E4.86349
G1 X98.619 Y95.985 E4.87040
G1 X98.923 Y96.006 E4.87462
G1 X99.300 Y96.080 E4.87994
G1 X99.620 Y96.184 E4.88461
G1 X99.902 Y96.312 E4.88889
G1 X100.169 Y96.472 E4.89320
G1 X100.461 Y96.701 E4.89834
G1 X100.639 Y96.881 E4.90184
G1 X100.887 Y97.216 E4.90762
G1 X100.994 Y97.414 E4.91073
G1 X101.117 Y97.735 E4.91550
G1 X101.179 Y98.035 E4.91973
G1 X101.200 Y98.324 E4.92375
G1 X101.167 Y98.671 E4.92858
G1 X101.068 Y99.005 E4.93340
G1 X100.960 Y99.245 E4.93705
G1 X100.830 Y99.445 E4.94035
G1 X100.520 Y99.774 E4.94661
G1 X100.127 Y100.022 E4.95305
G1 X99.723 Y100.149 E4.95890
G1 X99.045 Y100.205 E4.96832
G1 X98.751 Y100.317 E4.97269
G1 F600
G1 X98.445 Y100.388 E4.97755
G1 X98.060 Y100.407 E4.98354
G1 X97.647 Y100.354 E4.99001
G1 X97.291 Y100.243 E4.99579
G1 X96.951 Y100.081 E5.00164
G1 X96.528 Y99.778 E5.00972
G1 F600
G1 X96.316 Y99.553 E5.01403
G1 X96.150 Y99.288 E5.01836
G1 X96.038 Y98.980 E5.02292
G1 X95.999 Y98.591 E5.02835
G1 F600
G1 X96.025 Y98.303 E5.03236
G1 X96.155 Y97.862 E5.03873
G1 X96.350 Y97.487 E5.04458
G1 X96.617 Y97.113 E5.05094
G1 X96.544 Y96.759 F7800.000
G1 Z3.300 F7800.000
G1 X96.680 Y97.071 F7800.000
G1 F600
G1 X97.234 Y96.548 E5.06115
G1 X97.555 Y96.321 E5.06643
G1 X97.679 Y96.255 E5.06831
G1 X97.952 Y96.142 E5.07228
G1 X98.245 Y96.066 E5.07634
G1 X98.650 Y96.026 E5.08180
G1 X98.960 Y96.044 E5.08596
G1 X99.236 Y96.089 E5.08971
G1 X99.708 Y96.235 E5.09634
G1 X100.005 Y96.378 E5.10076
G1 X100.249 Y96.527 E5.10459
G1 X100.474 Y96.708 E5.10847
G1 X100.719 Y96.949 E5.11307
G1 X100.989 Y97.332 E5.11937
G1 X101.107 Y97.582 E5.12308
G1 F600
G1 X101.194 Y97.844 E5.12717
G1 X101.240 Y98.114 E5.13124
G1 X101.262 Y98.387 E5.13531
G1 X101.241 Y98.673 E5.13956
G1 X101.175 Y98.968 E5.14405
G1 X101.083 Y99.189 E5.14760
G1 X100.991 Y99.352 E5.15037
G1 X100.774 Y99.619 E5.15549
G1 F600
G1 X100.411 Y99.911 E5.16167
G1 X100.053 Y100.090 E5.16699
G1 X99.711 Y100.183 E5.17169
G1 X99.086 Y100.239 E5.18002
G1 F600
G1 X98.691 Y100.410 E5.18648
G1 X98.311 Y100.491 E5.19230
G1 X97.933 Y100.501 E5.19799
G1 X97.416 Y100.403 E5.20587
G1 X97.085 Y100.282 E5.21116
G1 X96.548 Y99.946 E5.22067
G1 X96.351 Y99.765 E5.22468
G1 X96.210 Y99.594 E5.22800
G1 X96.018 Y99.228 E5.23420
G1 F600
G1 X95.943 Y98.904 E5.23871
G1 X95.930 Y98.697 E5.24151
G1 X95.943 Y98.518 E5.24394
G1 F600
G1 X96.007 Y98.186 E5.24847
G1 X96.172 Y97.774 E5.25442
G1 X96.373 Y97.444 E5.25961
G1 X96.630 Y97.127 E5.26509
G1 X96.662 Y97.011 F7800.000
G1 Z3.500 F7800.000
G1 X96.694 Y97.085 F7800.000
G1 F600
G1 X96.939 Y96.875 E5.26947
G1 X97.440 Y96.500 E5.27795
G1 X97.709 Y96.328 E5.28228
G1 X97.952 Y96.218 E5.28590
G1 X98.406 Y96.097 E5.29228
G1 X98.752 Y96.075 E5.29698
G1 X99.301 Y96.137 E5.30447
G1 X99.580 Y96.215 E5.30841
G1 X99.897 Y96.341 E5.31303
G1 X100.215 Y96.516 E5.31795
G1 X100.421 Y96.661 E5.32137
G1 X100.626 Y96.842 E5.32509
G1 X100.821 Y97.057 E5.32903
G1 X100.999 Y97.311 E5.33323
G1 X101.119 Y97.536 E5.33669
G1 X101.281 Y98.014 E5.34353
G1 F600
G1 X101.328 Y98.272 E5.34752
G1 X101.345 Y98.621 E5.35281
G1 F600
G1 X101.291 Y99.007 E5.35941
G1 X101.182 Y99.292 E5.36458
G1 X101.120 Y99.408 E5.36681
G1 X101.018 Y99.537 E5.36960
G1 X100.851 Y99.702 E5.37357
G1 F600
G1 X100.518 Y99.920 E5.37973
G1 F600
G1 X100.108 Y100.106 E5.38606
G1 X99.740 Y100.203 E5.39141
G1 X99.182 Y100.242 E5.39927
G1 X98.732 Y100.465 E5.40632
G1 X98.519 Y100.533 E5.40947
G1 F600
G1 X98.217 Y100.590 E5.41423
G1 X97.971 Y100.601 E5.41805
G1 X97.731 Y100.585 E5.42179
G1 X97.287 Y100.483 E5.42885
G1 X96.986 Y100.365 E5.43387
G1 X96.850 Y100.291 E5.43628
G1 X96.479 Y100.052 E5.44312
G1 X96.236 Y99.812 E5.44842
G1 F600
G1 X96.085 Y99.605 E5.45202
G1 X95.989 Y99.422 E5.45492
G1 X95.907 Y99.179 E5.45851
G1 X95.863 Y98.853 E5.46314
G1 F600
G1 X95.885 Y98.520 E5.46767
G1 X95.967 Y98.189 E5.47230
G1 X96.108 Y97.862 E5.47712
G1 X96.369 Y97.444 E5.48381
G1 X96.642 Y97.139 E5.48936
G1 X96.694 Y97.084 F7800.000
G1 Z3.700 F7800.000
G1 X96.710 Y97.104 F7800.000
G1 F600
G1 X96.916 Y96.933 E5.49299
G1 X97.669 Y96.455 E5.50510
G1 X98.021 Y96.278 E5.51045
G1 X98.329 Y96.181 E5.51483
G1 X98.732 Y96.132 E5.52034
G1 X99.077 Y96.144 E5.52503
G1 X99.353 Y96.190 E5.52883
G1 X99.665 Y96.281 E5.53324
G1 X99.933 Y96.388 E5.53716
G1 X100.234 Y96.554 E5.54182
G1 X100.477 Y96.728 E5.54588
G1 X100.804 Y97.042 E5.55203
G1 X101.009 Y97.312 E5.55663
G1 X101.189 Y97.629 E5.56158
G1 X101.306 Y97.903 E5.56563
G1 F600
G1 X101.451 Y98.390 E5.57360
G1 F600
G1 X101.482 Y98.782 E5.58045
G1 F600
G1 X101.445 Y99.088 E5.58632
G1 X101.378 Y99.292 E5.59041
G1 X101.273 Y99.490 E5.59468
G1 X101.078 Y99.729 E5.60055
G1 F600
G1 X100.906 Y99.864 E5.60437
G1 X100.645 Y100.000 E5.60951
G1 F600
G1 X100.381 Y100.083 E5.61393
G1 F600
G1 X99.864 Y100.209 E5.62142
G1 X99.214 Y100.259 E5.63059
G1 X98.846 Y100.474 E5.63659
G1 X98.447 Y100.628 E5.64261
G1 F600
G1 X98.139 Y100.688 E5.64752
G1 X97.786 Y100.694 E5.65303
G1 X97.306 Y100.616 E5.66062
G1 X96.982 Y100.502 E5.66599
G1 X96.656 Y100.334 E5.67172
G1 X96.309 Y100.064 E5.67858
G1 X96.098 Y99.831 E5.68348
G1 X95.907 Y99.491 E5.68957
G1 F600
G1 X95.861 Y99.366 E5.69138
G1 X95.807 Y99.107 E5.69498
G1 X95.801 Y98.773 E5.69954
G1 F600
G1 X95.872 Y98.375 E5.70502
G1 X96.017 Y97.997 E5.71052
G1 X96.256 Y97.604 E5.71676
G1 X96.424 Y97.390 E5.72046
G1 X96.653 Y97.153 E5.72493
G1 X96.665 Y96.871 F7800.000
G1 Z3.900 F7800.000
G1 X96.729 Y97.127 F7800.000
G1 F600
G1 X96.958 Y96.948 E5.72883
G1 F600
G1 X97.259 Y96.776 E5.73398
G1 X97.626 Y96.606 E5.73999
G1 X97.898 Y96.436 E5.74476
G1 F600
G1 X98.266 Y96.286 E5.75008
G1 X98.524 Y96.225 E5.75362
G1 X98.756 Y96.202 E5.75675
G1 X99.174 Y96.214 E5.76235
G1 X99.503 Y96.278 E5.76683
G1 X99.742 Y96.352 E5.77018
G1 X100.027 Y96.476 E5.77435
G1 X100.267 Y96.613 E5.77804
G1 X100.655 Y96.916 E5.78463
G1 X100.945 Y97.230 E5.79036
G1 X101.280 Y97.727 E5.79838
G1 F600
G1 X101.482 Y98.099 E5.80483
G1 F600
G1 X101.566 Y98.315 E5.80888
G1 X101.632 Y98.589 E5.81379
G1 F600
G1 X101.648 Y98.965 E5.82104
G1 X101.599 Y99.227 E5.82616
G1 X101.530 Y99.427 E5.83022
G1 X101.379 Y99.685 E5.83598
G1 X101.230 Y99.852 E5.84030
G1 X101.082 Y99.966 E5.84388
G1 F600
G1 X100.997 Y100.023 E5.84568
G1 X100.738 Y100.139 E5.85065
G1 X100.433 Y100.206 E5.85612
G1 F600
G1 X100.028 Y100.245 E5.86236
G1 F600
G1 X99.264 Y100.265 E5.87269
G1 X98.737 Y100.587 E5.88105
G1 F600
G1 X98.376 Y100.729 E5.88700
G1 X97.976 Y100.799 E5.89322
G1 X97.543 Y100.786 E5.89984
G1 X97.131 Y100.695 E5.90630
G1 X96.854 Y100.590 E5.91085
G1 X96.579 Y100.441 E5.91563
G1 X96.248 Y100.189 E5.92201
G1 X95.994 Y99.900 E5.92790
G1 X95.831 Y99.596 E5.93318
G1 F600
G1 X95.742 Y99.263 E5.93793
G1 X95.731 Y98.864 E5.94343
G1 F600
G1 X95.805 Y98.465 E5.94887
G1 X95.889 Y98.220 E5.95234
G1 X96.022 Y97.951 E5.95637
G1 X96.334 Y97.506 E5.96366
G1 X96.670 Y97.174 E5.97000
G1 X96.692 Y96.879 F7800.000
G1 Z4.100 F7800.000
G1 X96.745 Y97.148 F7800.000
G1 F600
G1 X97.118 Y96.908 E5.97637
G1 X97.401 Y96.776 E5.98085
G1 X97.694 Y96.676 E5.98529
G1 X98.247 Y96.397 E5.99419
G1 X98.619 Y96.301 E5.99970
G1 X98.923 Y96.272 E6.00409
G1 X99.223 Y96.287 E6.00839
G1 X99.559 Y96.353 E6.01332
G1 X99.872 Y96.465 E6.01808
G1 X100.287 Y96.678 E6.02479
G1 X100.571 Y96.886 E6.02984
G1 X100.777 Y97.071 E6.03381
G1 X101.365 Y97.726 E6.04644
G1 F600
G1 X101.606 Y98.069 E6.05315
G1 F600
G1 X101.762 Y98.443 E6.06023
G1 X101.819 Y98.720 E6.06518
G1 X101.827 Y98.927 E6.06879
G1 X101.806 Y99.157 E6.07284
G1 X101.756 Y99.373 E6.07670
G1 X101.687 Y99.550 E6.08003
G1 X101.518 Y99.826 E6.08569
G1 X101.332 Y100.019 E6.09037
G1 X101.086 Y100.184 E6.09554
G1 X100.863 Y100.273 E6.09975
G1 X100.612 Y100.331 E6.10424
G1 F600
G1 X100.306 Y100.351 E6.10915
G1 X100.015 Y100.333 E6.11381
G1 F600
G1 X99.288 Y100.283 E6.12411
G1 X99.204 Y100.320 E6.12541
G1 X98.829 Y100.600 E6.13203
G1 X98.495 Y100.774 E6.13736
G1 F600
G1 X98.253 Y100.854 E6.14140
G1 X97.829 Y100.914 E6.14817
G1 X97.465 Y100.896 E6.15393
G1 X97.049 Y100.802 E6.16069
G1 X96.671 Y100.643 E6.16717
G1 X96.338 Y100.431 E6.17342
G1 X96.054 Y100.167 E6.17956
G1 X95.827 Y99.847 E6.18578
G1 F600
G1 X95.773 Y99.740 E6.18745
G1 X95.687 Y99.474 E6.19135
G1 X95.650 Y99.141 E6.19602
G1 F600
G1 X95.681 Y98.802 E6.20043
G1 X95.789 Y98.400 E6.20580
G1 X95.922 Y98.102 E6.21002
G1 X96.098 Y97.821 E6.21431
G1 F600
G1 X96.378 Y97.477 E6.22066
G1 X96.687 Y97.196 E6.22667
G1 X96.741 Y97.125 F7800.000
G1 Z4.300 F7800.000
G1 X96.766 Y97.177 F7800.000
G1 F600
G1 X97.077 Y96.984 E6.23174
G1 X97.551 Y96.800 E6.23880
G1 F600
G1 X97.905 Y96.700 E6.24453
G1 X98.132 Y96.570 E6.24861
G1 X98.433 Y96.451 E6.25364
G1 F600
G1 X98.729 Y96.385 E6.25794
G1 X99.050 Y96.363 E6.26249
G1 X99.434 Y96.404 E6.26796
G1 X99.732 Y96.482 E6.27232
G1 X99.996 Y96.586 E6.27633
G1 X100.325 Y96.768 E6.28165
G1 X100.678 Y97.013 E6.28772
G1 X101.247 Y97.477 E6.29811
G1 F600
G1 X101.499 Y97.725 E6.30363
G1 X101.663 Y97.930 E6.30774
G1 F600
G1 X101.813 Y98.180 E6.31274
G1 X101.941 Y98.527 E6.31907
G1 X101.985 Y98.780 E6.32347
G1 X101.993 Y98.970 E6.32673
G1 X101.961 Y99.271 E6.33192
G1 X101.880 Y99.545 E6.33681
G1 X101.755 Y99.792 E6.34154
G1 X101.593 Y100.009 E6.34617
G1 X101.347 Y100.220 E6.35174
G1 F600
G1 X101.131 Y100.345 E6.35562
G1 X100.877 Y100.431 E6.35980
G1 X100.681 Y100.468 E6.36292
G1 X100.302 Y100.476 E6.36882
G1 X99.953 Y100.433 E6.37429
G1 F600
G1 X99.376 Y100.313 E6.38255
G1 X99.298 Y100.317 E6.38365
G1 X99.201 Y100.356 E6.38511
G1 X98.820 Y100.666 E6.39199
G1 X98.599 Y100.798 E6.39561
G1 X98.322 Y100.918 E6.39984
G1 F600
G1 X98.061 Y100.993 E6.40408
G1 X97.567 Y101.023 E6.41181
G1 X97.201 Y100.974 E6.41758
G1 X96.760 Y100.831 E6.42482
G1 X96.426 Y100.655 E6.43072
G1 X96.082 Y100.383 E6.43758
G1 X95.845 Y100.114 E6.44317
G1 X95.684 Y99.805 E6.44861
G1 F600
G1 X95.640 Y99.682 E6.45040
G1 X95.588 Y99.414 E6.45413
G1 X95.587 Y99.073 E6.45878
G1 F600
G1 X95.694 Y98.569 E6.46592
G1 X95.787 Y98.346 E6.46927
G1 X96.004 Y97.948 E6.47555
G1 X96.347 Y97.528 E6.48307
G1 X96.705 Y97.221 E6.48961
G1 X96.761 Y97.136 F7800.000
G1 Z4.500 F7800.000
G1 X96.787 Y97.211 F7800.000
G1 F600
G1 X97.012 Y97.076 E6.49333
G1 X97.433 Y96.905 E6.49975
G1 X97.787 Y96.832 E6.50488
G1 F600
G1 X98.048 Y96.773 E6.50907
G1 X98.523 Y96.556 E6.51727
G1 X98.741 Y96.502 E6.52081
G1 X98.987 Y96.475 E6.52470
G1 F600
G1 X99.280 Y96.480 E6.52888
G1 X99.567 Y96.526 E6.53305
G1 X99.816 Y96.599 E6.53675
G1 X100.088 Y96.712 E6.54095
G1 X100.722 Y97.056 E6.55127
G1 X101.144 Y97.315 E6.55835
G1 X101.406 Y97.509 E6.56300
G1 F600
G1 X101.676 Y97.770 E6.56893
G1 X101.861 Y98.012 E6.57375
G1 X101.991 Y98.258 E6.57813
G1 X102.089 Y98.550 E6.58300
G1 F600
G1 X102.131 Y98.781 E6.58705
G1 X102.140 Y99.008 E6.59096
G1 X102.109 Y99.331 E6.59656
G1 X102.037 Y99.589 E6.60117
G1 X101.869 Y99.911 E6.60744
G1 F600
G1 X101.736 Y100.083 E6.61086
G1 X101.601 Y100.215 E6.61384
G1 X101.369 Y100.381 E6.61834
G1 X101.121 Y100.496 E6.62266
G1 X100.731 Y100.587 E6.62897
G1 F600
G1 X100.580 Y100.599 E6.63111
G1 X100.201 Y100.578 E6.63645
G1 X99.806 Y100.496 E6.64212
G1 X99.386 Y100.370 E6.64828
G1 X99.272 Y100.372 E6.64989
G1 X99.188 Y100.407 E6.65117
G1 X98.782 Y100.753 E6.65866
G1 X98.522 Y100.913 E6.66297
G1 X98.237 Y101.034 E6.66731
G1 F600
G1 X97.902 Y101.120 E6.67277
G1 X97.536 Y101.136 E6.67855
G1 X97.042 Y101.065 E6.68643
G1 X96.758 Y100.972 E6.69113
G1 X96.502 Y100.850 E6.69561
G1 X96.173 Y100.640 E6.70176
G1 X95.873 Y100.355 E6.70828
G1 X95.712 Y100.123 E6.71274
G1 F600
G1 X95.557 Y99.753 E6.71839
G1 X95.506 Y99.351 E6.72409
G1 F600
G1 X95.525 Y99.059 E6.72824
G1 X95.622 Y98.673 E6.73386
G1 X95.822 Y98.236 E6.74066
G1 X96.053 Y97.883 E6.74664
G1 X96.247 Y97.653 E6.75089
G1 X96.507 Y97.415 E6.75588
G1 X96.724 Y97.252 E6.75972
G1 X96.775 Y96.978 F7800.000
G1 Z4.700 F7800.000
G1 X96.809 Y97.247 F7800.000
G1 F600
G1 X96.836 Y97.231 E6.76015
G1 F600
G1 X97.122 Y97.086 E6.76488
G1 X97.424 Y96.981 E6.76961
G1 X97.723 Y96.921 E6.77413
G1 X97.989 Y96.908 E6.77807
G1 F600
G1 X98.181 Y96.871 E6.78141
G1 X98.663 Y96.666 E6.79034
G1 F600
G1 X99.110 Y96.599 E6.79737
G1 X99.532 Y96.634 E6.80396
G1 F600
G1 X99.826 Y96.703 E6.80819
G1 X100.222 Y96.841 E6.81408
G1 X100.920 Y97.129 E6.82466
G1 X101.246 Y97.305 E6.82985
G1 X101.556 Y97.529 E6.83521
G1 F600
G1 X101.833 Y97.809 E6.84137
G1 X101.986 Y98.021 E6.84545
G1 X102.142 Y98.338 E6.85096
G1 X102.222 Y98.596 E6.85519
G1 X102.266 Y98.863 E6.85941
G1 X102.255 Y99.309 E6.86639
G1 X102.210 Y99.533 E6.86994
G1 X102.139 Y99.731 E6.87324
G1 X102.024 Y99.962 E6.87726
G1 X101.869 Y100.168 E6.88129
G1 X101.672 Y100.347 E6.88544
G1 X101.433 Y100.502 E6.88990
G1 X101.087 Y100.631 E6.89567
G1 F600
G1 X100.762 Y100.692 E6.90035
G1 X100.343 Y100.687 E6.90627
G1 X99.878 Y100.601 E6.91295
G1 X99.367 Y100.427 E6.92059
G1 X99.269 Y100.423 E6.92198
G1 X99.163 Y100.466 E6.92360
G1 X98.863 Y100.746 E6.92940
G1 X98.571 Y100.956 E6.93448
G1 X98.213 Y101.131 E6.94012
G1 F600
G1 X97.823 Y101.232 E6.94645
G1 X97.425 Y101.249 E6.95270
G1 X97.091 Y101.200 E6.95801
G1 X96.683 Y101.081 E6.96469
G1 X96.320 Y100.896 E6.97108
G1 X96.109 Y100.751 E6.97510
G1 X95.789 Y100.442 E6.98210
G1 X95.640 Y100.226 E6.98622
G1 F600
G1 X95.568 Y100.089 E6.98840
G1 X95.473 Y99.828 E6.99231
G1 X95.431 Y99.456 E6.99758
G1 F600
G1 X95.468 Y99.087 E7.00254
G1 X95.563 Y98.757 E7.00713
G1 X95.700 Y98.441 E7.01173
G1 X95.825 Y98.222 E7.01510
G1 X96.012 Y97.951 E7.01951
G1 X96.329 Y97.604 E7.02579
G1 X96.552 Y97.419 E7.02965
G1 X96.747 Y97.289 E7.03279
G1 X96.807 Y97.216 F7800.000
G1 Z4.900 F7800.000
G1 X96.834 Y97.290 F7800.000
G1 F600
G1 X96.911 Y97.247 E7.03398
G1 F600
G1 X97.206 Y97.119 E7.03883
G1 X97.487 Y97.042 E7.04322
G1 X97.776 Y97.003 E7.04761
G1 X98.104 Y97.014 E7.05256
G1 F600
G1 X98.325 Y96.985 E7.05640
G1 X98.557 Y96.873 E7.06087
G1 X98.820 Y96.787 E7.06564
G1 X99.203 Y96.739 E7.07234
G1 F600
G1 X99.638 Y96.763 E7.07918
G1 F600
G1 X100.073 Y96.844 E7.08523
G1 X100.601 Y96.980 E7.09268
G1 X100.980 Y97.118 E7.09820
G1 X101.280 Y97.265 E7.10277
G1 X101.496 Y97.403 E7.10627
G1 F600
G1 X101.740 Y97.602 E7.11103
G1 X101.933 Y97.813 E7.11535
G1 X102.143 Y98.125 E7.12103
G1 X102.287 Y98.448 E7.12636
G1 X102.375 Y98.812 E7.13202
G1 F600
G1 X102.400 Y99.081 E7.13661
G1 X102.367 Y99.474 E7.14333
G1 X102.272 Y99.803 E7.14915
G1 X102.120 Y100.092 E7.15471
G1 F600
G1 X101.888 Y100.355 E7.16013
G1 X101.615 Y100.547 E7.16532
G1 X101.350 Y100.672 E7.16985
G1 F600
G1 X101.019 Y100.756 E7.17465
G1 X100.725 Y100.782 E7.17880
G1 X100.426 Y100.772 E7.18300
G1 X100.161 Y100.738 E7.18676
G1 X99.849 Y100.665 E7.19126
G1 X99.352 Y100.483 E7.19870
G1 X99.247 Y100.477 E7.20018
G1 X99.134 Y100.524 E7.20190
G1 X98.786 Y100.861 E7.20871
G1 X98.494 Y101.070 E7.21376
G1 X98.134 Y101.242 E7.21936
G1 F600
G1 X97.932 Y101.304 E7.22263
G1 X97.675 Y101.352 E7.22669
G1 X97.331 Y101.355 E7.23200
G1 X97.123 Y101.335 E7.23525
G1 X96.630 Y101.200 E7.24316
G1 X96.152 Y100.949 E7.25152
G1 X95.830 Y100.682 E7.25799
G1 X95.612 Y100.412 E7.26337
G1 X95.460 Y100.121 E7.26845
G1 F600
G1 X95.370 Y99.772 E7.27338
G1 X95.379 Y99.310 E7.27970
G1 F600
G1 X95.437 Y99.019 E7.28371
G1 X95.606 Y98.587 E7.28999
G1 X95.853 Y98.178 E7.29645
G1 X96.105 Y97.869 E7.30184
G1 X96.364 Y97.615 E7.30677
G1 X96.626 Y97.413 E7.31124
G1 X96.769 Y97.328 E7.31349
G1 X96.834 Y97.238 F7800.000
G1 Z5.100 F7800.000
G1 X96.857 Y97.341 F7800.000
G1 F600
G1 X97.332 Y97.157 E7.32093
G1 X97.568 Y97.110 E7.32444
G1 X97.941 Y97.100 E7.32988
G1 F600
G1 X98.217 Y97.138 E7.33453
G1 X98.392 Y97.137 E7.33745
G1 X98.696 Y97.002 E7.34297
G1 X98.899 Y96.931 E7.34655
G1 X99.111 Y96.886 E7.35017
G1 F600
G1 X99.386 Y96.856 E7.35438
G1 F600
G1 X99.930 Y96.868 E7.36184
G1 X100.319 Y96.914 E7.36722
G1 X100.744 Y97.009 E7.37320
G1 X101.078 Y97.128 E7.37806
G1 X101.376 Y97.277 E7.38264
G1 X101.661 Y97.471 E7.38737
G1 X101.912 Y97.701 E7.39205
G1 X102.159 Y98.015 E7.39753
G1 F600
G1 X102.301 Y98.263 E7.40188
G1 X102.402 Y98.512 E7.40597
G1 X102.483 Y98.805 E7.41059
G1 X102.513 Y99.006 E7.41367
G1 F600
G1 X102.520 Y99.358 E7.41962
G1 X102.457 Y99.745 E7.42624
G1 X102.347 Y100.014 E7.43115
G1 X102.196 Y100.250 E7.43588
G1 X101.963 Y100.483 E7.44144
G1 F600
G1 X101.615 Y100.691 E7.44771
G1 X101.329 Y100.788 E7.45237
G1 F600
G1 X100.998 Y100.847 E7.45700
G1 X100.637 Y100.859 E7.46198
G1 X100.384 Y100.836 E7.46547
G1 X100.072 Y100.782 E7.46984
G1 X99.679 Y100.667 E7.47547
G1 X99.337 Y100.530 E7.48055
G1 X99.225 Y100.524 E7.48209
G1 X99.110 Y100.574 E7.48382
G1 X98.757 Y100.934 E7.49077
G1 X98.373 Y101.212 E7.49728
G1 F600
G1 X97.965 Y101.391 E7.50419
G1 X97.573 Y101.470 E7.51040
G1 X97.125 Y101.460 E7.51734
G1 X96.722 Y101.366 E7.52376
G1 X96.552 Y101.310 E7.52654
G1 X96.283 Y101.178 E7.53118
G1 X95.952 Y100.963 E7.53730
G1 X95.662 Y100.684 E7.54354
G1 X95.456 Y100.372 E7.54934
G1 F600
G1 X95.336 Y100.059 E7.55402
G1 X95.291 Y99.779 E7.55799
G1 X95.290 Y99.660 E7.55966
G1 F600
G1 X95.326 Y99.298 E7.56441
G1 X95.419 Y98.961 E7.56898
G1 X95.634 Y98.510 E7.57552
G1 X95.952 Y98.070 E7.58262
G1 F600
G1 X96.297 Y97.723 E7.58976
G1 X96.533 Y97.540 E7.59413
G1 X96.790 Y97.375 E7.59858
G1 X96.870 Y97.117 F7800.000
G1 Z5.300 F7800.000
G1 X96.888 Y97.405 F7800.000
G1 F600
G1 X97.273 Y97.257 E7.60497
G1 X97.652 Y97.196 E7.61092
G1 X98.034 Y97.208 E7.61683
G1 X98.305 Y97.273 E7.62115
G1 F600
G1 X98.509 Y97.282 E7.62472
G1 X98.801 Y97.129 E7.63052
G1 F600
G1 X99.198 Y96.996 E7.63710
G1 F600
G1 X99.559 Y96.930 E7.64224
G1 X100.011 Y96.904 E7.64856
G1 X100.315 Y96.923 E7.65282
G1 X100.648 Y96.978 E7.65755
G1 X101.039 Y97.095 E7.66325
G1 X101.388 Y97.259 E7.66865
G1 X101.623 Y97.407 E7.67253
G1 X101.866 Y97.601 E7.67688
G1 X102.150 Y97.906 E7.68271
G1 X102.330 Y98.174 E7.68722
G1 F600
G1 X102.493 Y98.505 E7.69291
G1 X102.590 Y98.808 E7.69783
G1 X102.642 Y99.094 E7.70231
G1 F600
G1 X102.656 Y99.460 E7.70851
G1 X102.605 Y99.790 E7.71418
G1 X102.510 Y100.057 E7.71898
G1 X102.414 Y100.228 E7.72230
G1 X102.270 Y100.422 E7.72640
G1 X102.041 Y100.619 E7.73152
G1 X101.793 Y100.755 E7.73632
G1 F600
G1 X101.452 Y100.872 E7.74181
G1 F600
G1 X101.120 Y100.925 E7.74644
G1 X100.822 Y100.932 E7.75054
G1 X100.508 Y100.912 E7.75487
G1 X100.183 Y100.861 E7.75939
G1 X99.755 Y100.743 E7.76550
G1 X99.326 Y100.566 E7.77188
G1 X99.207 Y100.560 E7.77352
G1 X99.088 Y100.615 E7.77532
G1 X98.706 Y101.027 E7.78305
G1 X98.295 Y101.325 E7.79003
G1 F600
G1 X97.871 Y101.511 E7.79733
G1 X97.446 Y101.590 E7.80413
G1 X96.984 Y101.565 E7.81142
G1 X96.526 Y101.446 E7.81887
G1 X96.092 Y101.232 E7.82649
G1 X95.777 Y100.996 E7.83268
G1 X95.559 Y100.753 E7.83782
G1 X95.381 Y100.477 E7.84299
G1 F600
G1 X95.246 Y100.104 E7.84852
G1 X95.215 Y99.764 E7.85327
G1 F600
G1 X95.252 Y99.402 E7.85823
G1 X95.352 Y99.067 E7.86298
G1 X95.468 Y98.798 E7.86698
G1 X95.714 Y98.393 E7.87343
G1 X96.014 Y98.034 E7.87980
G1 X96.228 Y97.831 E7.88382
G1 X96.488 Y97.630 E7.88829
G1 X96.768 Y97.463 E7.89274
G1 F600
G1 X96.820 Y97.438 E7.89363
G1 X96.980 Y97.319 F7800.000
G1 Z5.500 F7800.000
G1 X96.917 Y97.470 F7800.000
G1 F600
G1 X97.150 Y97.384 E7.89749
G1 X97.469 Y97.316 E7.90253
G1 X97.794 Y97.297 E7.90760
G1 X98.063 Y97.328 E7.91178
G1 F600
G1 X98.377 Y97.421 E7.91734
G1 X98.510 Y97.447 E7.91964
G1 X98.564 Y97.435 E7.92058
G1 F600
G1 X98.875 Y97.246 E7.92623
G1 X99.192 Y97.104 E7.93164
G1 F600
G1 X99.660 Y96.978 E7.93812
G1 X100.044 Y96.938 E7.94328
G1 X100.487 Y96.956 E7.94922
G1 X100.812 Y97.021 E7.95366
G1 X101.172 Y97.147 E7.95876
G1 X101.447 Y97.283 E7.96287
G1 X101.669 Y97.422 E7.96636
G1 X101.995 Y97.683 E7.97195
G1 X102.232 Y97.940 E7.97663
G1 F600
G1 X102.474 Y98.300 E7.98310
G1 X102.610 Y98.576 E7.98770
G1 X102.713 Y98.873 E7.99238
G1 F600
G1 X102.780 Y99.200 E7.99790
G1 X102.798 Y99.505 E8.00295
G1 F600
G1 X102.758 Y99.856 E8.00930
G1 X102.652 Y100.171 E8.01529
G1 X102.541 Y100.360 E8.01922
G1 X102.423 Y100.511 E8.02266
G1 X102.205 Y100.702 E8.02787
G1 F600
G1 X101.900 Y100.864 E8.03358
G1 X101.573 Y100.960 E8.03921
G1 F600
G1 X101.236 Y101.003 E8.04418
G1 X100.826 Y101.004 E8.05016
G1 F600
G1 X100.370 Y100.947 E8.05620
G1 X100.019 Y100.863 E8.06093
G1 X99.776 Y100.787 E8.06427
G1 X99.287 Y100.586 E8.07120
G1 X99.221 Y100.581 E8.07207
G1 X99.132 Y100.604 E8.07327
G1 X99.041 Y100.680 E8.07483
G1 F600
G1 X98.738 Y101.037 E8.08169
G1 X98.434 Y101.297 E8.08755
G1 X98.255 Y101.418 E8.09071
G1 X97.863 Y101.605 E8.09708
G1 F600
G1 X97.665 Y101.663 E8.10045
G1 X97.421 Y101.701 E8.10451
G1 X97.139 Y101.702 E8.10914
G1 X96.783 Y101.661 E8.11500
G1 X96.389 Y101.543 E8.12175
G1 X96.140 Y101.428 E8.12625
G1 X95.812 Y101.218 E8.13263
G1 X95.510 Y100.922 E8.13956
G1 X95.301 Y100.585 E8.14607
G1 F600
G1 X95.189 Y100.268 E8.15081
G1 X95.141 Y99.868 E8.15648
G1 F600
G1 X95.181 Y99.507 E8.16151
G1 X95.266 Y99.200 E8.16591
G1 X95.518 Y98.684 E8.17387
G1 X95.787 Y98.313 E8.18021
G1 X96.055 Y98.031 E8.18559
G1 X96.331 Y97.800 E8.19057
G1 X96.707 Y97.564 E8.19672
G1 F600
G1 X96.848 Y97.501 E8.19912
G1 X96.928 Y97.461 F7800.000
G1 Z5.700 F7800.000
G1 E6.19912 F2400.00000
G92 E0
G1 X102.714 Y100.448 F7800.000
G1 E2.00000 F2400.00000
G1 F600
G1 X102.446 Y100.744 E2.00760
G1 F600
G1 X102.131 Y100.932 E2.01394
G1 F600
G1 X101.747 Y101.051 E2.02032
G1 X101.384 Y101.092 E2.02611
G1 F600
G1 X100.828 Y101.073 E2.03389
G1 X100.278 Y100.976 E2.04170
G1 X99.809 Y100.829 E2.04858
G1 X99.312 Y100.610 E2.05619
G1 X99.187 Y100.601 E2.05794
G1 X99.065 Y100.659 E2.05983
G1 X98.731 Y101.078 E2.06732
G1 X98.508 Y101.295 E2.07169
G1 X98.169 Y101.539 E2.07752
G1 F600
G1 X97.814 Y101.712 E2.08364
G1 X97.501 Y101.795 E2.08865
G1 F600
G1 X97.149 Y101.836 E2.09476
G1 X96.920 Y101.827 E2.09869
G1 X96.695 Y101.799 E2.10260
G1 X96.271 Y101.667 E2.11022
G1 X95.900 Y101.470 E2.11745
G1 X95.755 Y101.370 E2.12048
G1 X95.431 Y101.056 E2.12825
G1 F600
G1 X95.216 Y100.700 E2.13475
G1 X95.108 Y100.371 E2.14017
G1 F600
G1 X95.066 Y100.020 E2.14499
G1 X95.110 Y99.611 E2.15060
G1 X95.206 Y99.276 E2.15536
G1 X95.401 Y98.866 E2.16154
G1 X95.669 Y98.478 E2.16797
G1 X95.986 Y98.139 E2.17430
G1 X96.489 Y97.757 E2.18292
G1 F600
G1 X96.777 Y97.606 E2.18791
G1 X97.135 Y97.478 E2.19373
G1 X97.527 Y97.415 E2.19982
G1 X97.887 Y97.425 E2.20535
G1 F600
G1 X98.152 Y97.475 E2.20989
G1 X98.411 Y97.573 E2.21456
G1 X98.544 Y97.601 E2.21685
G1 F600
G1 X98.677 Y97.536 E2.21920
G1 X98.965 Y97.325 E2.22486
G1 F600
G1 X99.397 Y97.116 E2.23166
G1 X99.693 Y97.031 E2.23603
G1 X100.081 Y96.975 E2.24159
G1 X100.572 Y96.992 E2.24854
G1 X100.837 Y97.046 E2.25238
G1 X101.089 Y97.126 E2.25613
G1 X101.609 Y97.378 E2.26433
G1 X102.042 Y97.700 E2.27198
G1 X102.410 Y98.100 E2.27968
G1 X102.704 Y98.586 E2.28774
G1 F600
G1 X102.813 Y98.845 E2.29218
G1 X102.915 Y99.219 E2.29829
G1 F600
G1 X102.948 Y99.502 E2.30325
G1 X102.939 Y99.792 E2.30830
G1 F600
G1 X102.845 Y100.188 E2.31603
G1 X102.751 Y100.382 E2.32014
G1 X102.749 Y100.521 F7800.000
G1 Z5.900 F7800.000
G1 E0.32014 F2400.00000
G92 E0
G1 X99.190 Y100.606 F7800.000
G1 E2.00000 F2400.00000
G1 F600
G1 X99.051 Y100.672 E2.00209
G1 X98.699 Y101.145 E2.01012
G1 X98.506 Y101.343 E2.01388
G1 X98.243 Y101.557 E2.01850
G1 F600
G1 X97.830 Y101.797 E2.02588
G1 X97.413 Y101.935 E2.03267
G1 F600
G1 X97.131 Y101.974 E2.03758
G1 X96.906 Y101.975 E2.04144
G1 X96.604 Y101.937 E2.04667
G1 X96.183 Y101.804 E2.05425
G1 X95.820 Y101.608 E2.06134
G1 X95.668 Y101.503 E2.06452
G1 X95.348 Y101.189 E2.07221
G1 F600
G1 X95.242 Y101.036 E2.07511
G1 X95.101 Y100.761 E2.07991
G1 X95.010 Y100.422 E2.08535
G1 F600
G1 X94.993 Y100.154 E2.08909
G1 X95.003 Y99.917 E2.09238
G1 F600
G1 X95.093 Y99.505 E2.09788
G1 X95.221 Y99.188 E2.10235
G1 X95.472 Y98.757 E2.10885
G1 X95.787 Y98.374 E2.11533
G1 F600
G1 X96.150 Y98.049 E2.12247
G1 X96.529 Y97.803 E2.12910
G1 X96.976 Y97.614 E2.13622
G1 X97.333 Y97.537 E2.14157
G1 F600
G1 X97.659 Y97.520 E2.14693
G1 X97.926 Y97.555 E2.15135
G1 X98.079 Y97.589 E2.15392
G1 X98.522 Y97.756 E2.16170
G1 X98.612 Y97.736 E2.16321
G1 X98.707 Y97.669 E2.16512
G1 F600
G1 X98.957 Y97.457 E2.16983
G1 X99.279 Y97.257 E2.17528
G1 X99.441 Y97.182 E2.17783
G1 X99.766 Y97.074 E2.18276
G1 X99.985 Y97.036 E2.18596
G1 X100.302 Y97.012 E2.19052
G1 X100.643 Y97.037 E2.19543
G1 X100.947 Y97.104 E2.19991
G1 X101.359 Y97.259 E2.20623
G1 X101.666 Y97.420 E2.21121
G1 X101.987 Y97.636 E2.21677
G1 X102.264 Y97.881 E2.22208
G1 X102.497 Y98.140 E2.22708
G1 X102.696 Y98.418 E2.23200
G1 X102.862 Y98.715 E2.23689
G1 F600
G1 X102.977 Y98.983 E2.24159
G1 X103.077 Y99.366 E2.24795
G1 F600
G1 X103.108 Y99.625 E2.25277
G1 X103.101 Y99.895 E2.25774
G1 X103.050 Y100.158 E2.26267
G1 X102.972 Y100.391 E2.26720
G1 X102.851 Y100.593 E2.27155
G1 X102.694 Y100.782 E2.27608
G1 X102.488 Y100.941 E2.28087
G1 X102.189 Y101.082 E2.28696
G1 F600
G1 X101.847 Y101.167 E2.29261
G1 X101.476 Y101.192 E2.29855
G1 F600
G1 X100.845 Y101.143 E2.30716
G1 X100.315 Y101.030 E2.31454
G1 X99.851 Y100.875 E2.32119
G1 X99.265 Y100.611 E2.32995
G1 X99.159 Y100.684 F7800.000
G1 Z6.100 F7800.000
G1 X99.182 Y100.604 F7800.000
G1 F600
G1 X99.098 Y100.631 E2.33119
G1 X99.040 Y100.673 E2.33219
G1 X98.778 Y101.069 E2.33882
G1 X98.623 Y101.262 E2.34226
G1 X98.346 Y101.537 E2.34772
G1 X98.083 Y101.747 E2.35241
G1 F600
G1 X97.845 Y101.892 E2.35678
G1 X97.651 Y101.980 E2.36013
G1 X97.307 Y102.083 E2.36577
G1 F600
G1 X97.026 Y102.117 E2.37062
G1 X96.813 Y102.115 E2.37427
G1 X96.515 Y102.076 E2.37944
G1 X96.096 Y101.940 E2.38701
G1 X95.734 Y101.742 E2.39410
G1 X95.581 Y101.635 E2.39730
G1 X95.264 Y101.320 E2.40497
G1 F600
G1 X95.046 Y100.962 E2.41156
G1 X94.983 Y100.780 E2.41457
G1 X94.932 Y100.550 E2.41827
G1 F600
G1 X94.915 Y100.402 E2.42032
G1 X94.925 Y100.045 E2.42524
G1 F600
G1 X94.980 Y99.766 E2.42892
G1 X95.052 Y99.525 E2.43217
G1 X95.265 Y99.077 E2.43857
G1 X95.402 Y98.862 E2.44187
G1 F600
G1 X95.719 Y98.480 E2.44904
G1 X96.055 Y98.179 E2.45556
G1 X96.208 Y98.067 E2.45830
G1 X96.459 Y97.911 E2.46257
G1 X96.726 Y97.787 E2.46682
G1 X97.104 Y97.675 E2.47251
G1 F600
G1 X97.385 Y97.632 E2.47711
G1 X97.846 Y97.663 E2.48458
G1 X98.127 Y97.738 E2.48929
G1 X98.536 Y97.916 E2.49650
G1 X98.614 Y97.901 E2.49778
G1 X98.734 Y97.809 E2.50023
G1 F600
G1 X98.967 Y97.580 E2.50501
G1 X99.200 Y97.403 E2.50929
G1 X99.465 Y97.263 E2.51366
G1 X99.756 Y97.155 E2.51820
G1 F600
G1 X99.992 Y97.103 E2.52140
G1 X100.335 Y97.070 E2.52592
G1 X100.705 Y97.095 E2.53081
G1 X101.035 Y97.169 E2.53527
G1 X101.381 Y97.296 E2.54011
G1 X101.739 Y97.479 E2.54541
G1 X102.132 Y97.744 E2.55165
G1 F600
G1 X102.411 Y97.990 E2.55710
G1 X102.659 Y98.260 E2.56245
G1 X102.869 Y98.554 E2.56774
G1 X103.037 Y98.860 E2.57284
G1 F600
G1 X103.162 Y99.173 E2.57830
G1 X103.236 Y99.467 E2.58320
G1 F600
G1 X103.269 Y99.922 E2.59125
G1 F600
G1 X103.222 Y100.246 E2.59755
G1 X103.111 Y100.559 E2.60394
G1 X102.904 Y100.861 E2.61099
G1 X102.701 Y101.030 E2.61607
G1 F600
G1 X102.393 Y101.187 E2.62211
G1 X102.019 Y101.277 E2.62882
G1 F600
G1 X101.572 Y101.300 E2.63598
G1 F600
G1 X101.029 Y101.246 E2.64360
G1 X100.430 Y101.107 E2.65218
G1 X99.896 Y100.916 E2.66010
G1 X99.257 Y100.609 E2.67000
G1 X99.150 Y100.686 F7800.000
G1 Z6.300 F7800.000
G1 X99.174 Y100.589 F7800.000
G1 F600
G1 X99.085 Y100.619 E2.67127
G1 X99.023 Y100.666 E2.67233
G1 X98.677 Y101.218 E2.68117
G1 X98.405 Y101.541 E2.68690
G1 X98.165 Y101.761 E2.69132
G1 F600
G1 X97.752 Y102.036 E2.69890
G1 X97.330 Y102.199 E2.70581
G1 F600
G1 X97.025 Y102.251 E2.71105
G1 X96.724 Y102.252 E2.71616
G1 X96.427 Y102.209 E2.72124
G1 X96.103 Y102.114 E2.72698
G1 X95.615 Y101.860 E2.73630
G1 X95.368 Y101.659 E2.74170
G1 X95.180 Y101.452 E2.74644
G1 F600
G1 X95.074 Y101.296 E2.74936
G1 X94.934 Y101.020 E2.75417
G1 X94.847 Y100.680 E2.75962
G1 F600
G1 X94.833 Y100.390 E2.76364
G1 X94.844 Y100.174 E2.76666
G1 F600
G1 X94.975 Y99.652 E2.77359
G1 X95.195 Y99.186 E2.78025
G1 X95.333 Y98.968 E2.78358
G1 F600
G1 X95.650 Y98.586 E2.79075
G1 X96.110 Y98.195 E2.79947
G1 X96.392 Y98.018 E2.80429
G1 X96.658 Y97.895 E2.80852
G1 X97.036 Y97.784 E2.81421
G1 F600
G1 X97.317 Y97.742 E2.81880
G1 X97.701 Y97.758 E2.82499
G1 X98.055 Y97.850 E2.83090
G1 X98.412 Y98.027 E2.83734
G1 F600
G1 X98.569 Y98.087 E2.84036
G1 X98.628 Y98.073 E2.84144
G1 F600
G1 X98.768 Y97.948 E2.84456
G1 F600
G1 X98.940 Y97.754 E2.84847
G1 X99.095 Y97.615 E2.85161
G1 X99.373 Y97.420 E2.85675
G1 X99.650 Y97.285 E2.86139
G1 F600
G1 X100.080 Y97.169 E2.86739
G1 X100.411 Y97.140 E2.87186
G1 X100.746 Y97.162 E2.87637
G1 X101.117 Y97.241 E2.88149
G1 X101.461 Y97.368 E2.88642
G1 X101.788 Y97.528 E2.89131
G1 X102.159 Y97.761 E2.89721
G1 X102.490 Y98.029 E2.90294
G1 X102.761 Y98.306 E2.90815
G1 F600
G1 X103.043 Y98.684 E2.91530
G1 X103.212 Y98.996 E2.92069
G1 X103.308 Y99.245 E2.92473
G1 F600
G1 X103.408 Y99.645 E2.93184
G1 X103.433 Y99.975 E2.93754
G1 F600
G1 X103.397 Y100.359 E2.94484
G1 X103.311 Y100.636 E2.95033
G1 X103.205 Y100.823 E2.95439
G1 X103.058 Y101.002 E2.95878
G1 X102.828 Y101.183 E2.96431
G1 X102.686 Y101.253 E2.96731
G1 F600
G1 X102.516 Y101.323 E2.97051
G1 X102.157 Y101.398 E2.97690
G1 F600
G1 X101.641 Y101.410 E2.98465
G1 X101.226 Y101.357 E2.99094
G1 F600
G1 X100.785 Y101.259 E2.99706
G1 X100.352 Y101.128 E3.00321
G1 X99.851 Y100.916 E3.01059
G1 X99.306 Y100.609 E3.01907
G1 X99.248 Y100.595 E3.01987
G1 X99.139 Y100.677 F7800.000
G1 Z6.500 F7800.000
G1 X99.196 Y100.562 F7800.000
G1 F600
G1 X99.092 Y100.583 E3.02131
G1 X99.013 Y100.639 E3.02262
G1 X98.657 Y101.262 E3.03230
G1 X98.481 Y101.504 E3.03633
G1 X98.240 Y101.766 E3.04113
G1 F600
G1 X98.013 Y101.961 E3.04563
G1 X97.754 Y102.133 E3.05030
G1 X97.337 Y102.314 E3.05711
G1 F600
G1 X97.122 Y102.370 E3.06092
G1 X96.877 Y102.396 E3.06515
G1 X96.474 Y102.377 E3.07206
G1 X96.226 Y102.324 E3.07640
G1 X95.969 Y102.235 E3.08106
G1 X95.741 Y102.126 E3.08538
G1 X95.518 Y101.986 E3.08990
G1 X95.282 Y101.791 E3.09515
G1 F600
G1 X95.048 Y101.510 E3.10086
G1 X94.890 Y101.242 E3.10573
G1 X94.818 Y101.038 E3.10912
G1 X94.769 Y100.808 E3.11280
G1 F600
G1 X94.754 Y100.672 E3.11473
G1 X94.767 Y100.303 E3.11993
G1 X94.850 Y99.921 E3.12545
G1 X95.074 Y99.392 E3.13355
G1 X95.333 Y98.982 E3.14040
G1 X95.581 Y98.692 E3.14578
G1 X95.952 Y98.367 E3.15274
G1 X96.360 Y98.110 E3.15954
G1 X96.667 Y97.978 E3.16426
G1 F600
G1 X97.130 Y97.865 E3.17172
G1 X97.417 Y97.850 E3.17621
G1 X97.775 Y97.897 E3.18186
G1 F600
G1 X98.098 Y98.007 E3.18769
G1 X98.489 Y98.227 E3.19534
G1 F600
G1 X98.636 Y98.275 E3.19830
G1 F600
G1 X98.751 Y98.167 E3.20114
G1 F600
G1 X99.027 Y97.842 E3.20789
G1 X99.380 Y97.551 E3.21514
G1 F600
G1 X99.764 Y97.357 E3.22131
G1 X100.006 Y97.282 E3.22494
G1 X100.281 Y97.233 E3.22895
G1 X100.526 Y97.221 E3.23246
G1 X100.893 Y97.253 E3.23775
G1 X101.270 Y97.342 E3.24330
G1 X101.640 Y97.485 E3.24898
G1 X101.984 Y97.659 E3.25451
G1 X102.369 Y97.907 E3.26108
G1 X102.719 Y98.202 E3.26763
G1 X102.870 Y98.357 E3.27072
G1 X103.107 Y98.650 E3.27613
G1 X103.294 Y98.951 E3.28121
G1 F600
G1 X103.460 Y99.336 E3.28782
G1 X103.546 Y99.650 E3.29295
G1 F600
G1 X103.592 Y99.986 E3.29909
G1 X103.595 Y100.219 E3.30332
G1 F600
G1 X103.577 Y100.444 E3.30775
G1 X103.520 Y100.679 E3.31251
G1 X103.394 Y100.949 E3.31839
G1 X103.286 Y101.091 E3.32189
G1 X103.164 Y101.205 E3.32519
G1 X103.039 Y101.295 E3.32822
G1 X102.871 Y101.376 E3.33189
G1 F600
G1 X102.664 Y101.457 E3.33589
G1 F600
G1 X102.286 Y101.525 E3.34222
G1 F600
G1 X101.786 Y101.526 E3.34975
G1 X101.336 Y101.462 E3.35659
G1 F600
G1 X100.880 Y101.351 E3.36292
G1 X100.312 Y101.151 E3.37104
G1 X99.890 Y100.951 E3.37735
G1 X99.270 Y100.575 E3.38713
G1 X99.146 Y100.656 F7800.000
G1 Z6.700 F7800.000
G1 X99.157 Y100.519 F7800.000
G1 F600
G1 X99.059 Y100.550 E3.38856
G1 X98.985 Y100.613 E3.38991
G1 X98.774 Y101.074 E3.39696
G1 X98.613 Y101.353 E3.40145
G1 X98.433 Y101.604 E3.40574
G1 X98.163 Y101.898 E3.41130
G1 X97.815 Y102.183 E3.41755
G1 F600
G1 X97.393 Y102.410 E3.42499
G1 X97.051 Y102.507 E3.43050
G1 F600
G1 X96.787 Y102.541 E3.43507
G1 X96.520 Y102.535 E3.43963
G1 X96.277 Y102.499 E3.44383
G1 X96.046 Y102.438 E3.44791
G1 X95.666 Y102.267 E3.45505
G1 X95.396 Y102.086 E3.46060
G1 X95.196 Y101.922 E3.46503
G1 F600
G1 X94.994 Y101.694 E3.46981
G1 X94.890 Y101.529 E3.47286
G1 X94.793 Y101.343 E3.47615
G1 X94.701 Y101.024 E3.48137
G1 F600
G1 X94.673 Y100.801 E3.48454
G1 X94.680 Y100.491 E3.48893
G1 X94.775 Y100.051 E3.49528
G1 X94.921 Y99.680 E3.50092
G1 X95.155 Y99.256 E3.50777
G1 X95.425 Y98.901 E3.51407
G1 X95.762 Y98.571 E3.52074
G1 X96.129 Y98.311 E3.52710
G1 X96.600 Y98.087 E3.53447
G1 F600
G1 X97.063 Y97.976 E3.54201
G1 X97.451 Y97.968 E3.54816
G1 X97.804 Y98.036 E3.55384
G1 X98.136 Y98.175 E3.55954
G1 X98.280 Y98.263 E3.56221
G1 F600
G1 X98.429 Y98.369 E3.56541
G1 X98.515 Y98.405 E3.56705
G1 F600
G1 X98.687 Y98.478 E3.57082
G1 F600
G1 X98.744 Y98.418 E3.57250
G1 F600
G1 X98.859 Y98.298 E3.57551
G1 F600
G1 X99.020 Y98.057 E3.58009
G1 X99.203 Y97.856 E3.58439
G1 X99.417 Y97.681 E3.58876
G1 X99.601 Y97.566 E3.59219
G1 X99.899 Y97.433 E3.59735
G1 F600
G1 X100.104 Y97.372 E3.60038
G1 X100.339 Y97.330 E3.60377
G1 X100.584 Y97.313 E3.60727
G1 X100.911 Y97.331 E3.61192
G1 X101.298 Y97.409 E3.61752
G1 X101.700 Y97.551 E3.62357
G1 X102.066 Y97.726 E3.62933
G1 X102.324 Y97.877 E3.63358
G1 X102.654 Y98.113 E3.63934
G1 X102.841 Y98.273 E3.64284
G1 X103.197 Y98.663 E3.65033
G1 X103.452 Y99.067 E3.65712
G1 F600
G1 X103.605 Y99.426 E3.66329
G1 X103.710 Y99.799 E3.66943
G1 F600
G1 X103.768 Y100.210 E3.67667
G1 F600
G1 X103.769 Y100.528 E3.68278
G1 F600
G1 X103.723 Y100.801 E3.68856
G1 F600
G1 X103.651 Y100.991 E3.69315
G1 X103.547 Y101.172 E3.69786
G1 F600
G1 X103.424 Y101.308 E3.70174
G1 X103.188 Y101.469 E3.70777
G1 F600
G1 X102.835 Y101.599 E3.71515
G1 F600
G1 X102.395 Y101.658 E3.72278
G1 F600
G1 X101.856 Y101.638 E3.73116
G1 F600
G1 X101.280 Y101.537 E3.73930
G1 X100.834 Y101.399 E3.74579
G1 X100.398 Y101.227 E3.75232
G1 X99.844 Y100.936 E3.76102
G1 X99.299 Y100.550 E3.77031
G1 X99.230 Y100.528 E3.77131
G1 X99.115 Y100.613 F7800.000
G1 Z6.900 F7800.000
G1 E1.77131 F2400.00000
G92 E0
G1 X103.221 Y101.851 F7800.000
G1 E2.00000 F2400.00000
G1 F600
G1 X103.149 Y101.610 E2.00361
G1 X103.322 Y101.519 E2.00642
G1 X103.602 Y101.275 E2.01174
G1 X103.758 Y101.034 E2.01587
G1 X103.822 Y100.843 E2.01876
G1 X104.095 Y100.911 E2.02280
G1 X104.033 Y101.282 E2.02819
G1 X103.950 Y101.478 E2.03125
G1 X103.895 Y101.559 E2.03265
G1 X103.711 Y101.718 E2.03614
G1 X103.543 Y101.793 E2.03878
G1 X103.295 Y101.843 E2.04241
G1 X103.288 Y101.608 F7800.000
G1 X103.989 Y100.601 F7800.000
G1 F600
G1 X103.897 Y100.008 E2.05296
G1 F600
G1 X103.766 Y99.564 E2.06019
G1 F600
G1 X103.626 Y99.232 E2.06516
G1 X103.427 Y98.885 E2.07067
G1 X103.216 Y98.606 E2.07547
G1 X102.918 Y98.303 E2.08131
G1 X102.636 Y98.083 E2.08624
G1 X102.275 Y97.856 E2.09211
G1 X101.870 Y97.662 E2.09830
G1 X101.449 Y97.513 E2.10443
G1 F600
G1 X101.089 Y97.436 E2.11006
G1 X100.750 Y97.408 E2.11526
G1 X100.338 Y97.442 E2.12159
G1 F600
G1 X99.902 Y97.570 E2.12937
G1 X99.656 Y97.697 E2.13412
G1 X99.458 Y97.830 E2.13821
G1 X99.252 Y98.017 E2.14298
G1 X99.093 Y98.206 E2.14721
G1 X98.922 Y98.493 E2.15293
G1 F600
G1 X98.847 Y98.592 E2.15527
G1 F600
G1 X98.746 Y98.711 E2.15842
G1 X98.604 Y98.640 E2.16162
G1 F600
G1 X98.462 Y98.568 E2.16440
G1 F600
G1 X98.155 Y98.340 E2.17031
G1 X98.033 Y98.272 E2.17248
G1 X97.791 Y98.167 E2.17656
G1 X97.430 Y98.086 E2.18229
G1 F600
G1 X97.111 Y98.074 E2.18676
G1 X96.630 Y98.165 E2.19359
G1 X96.458 Y98.225 E2.19614
G1 X96.061 Y98.416 E2.20229
G1 X95.694 Y98.687 E2.20867
G1 X95.518 Y98.850 E2.21202
G1 X95.290 Y99.106 E2.21681
G1 X94.966 Y99.572 E2.22474
G1 X94.743 Y100.037 E2.23196
G1 X94.615 Y100.530 E2.23906
G1 F600
G1 X94.590 Y100.889 E2.24465
G1 X94.665 Y101.342 E2.25178
G1 F600
G1 X94.821 Y101.690 E2.25830
G1 X94.974 Y101.906 E2.26281
G1 X95.077 Y102.027 E2.26554
G1 X95.338 Y102.259 E2.27151
G1 X95.648 Y102.456 E2.27778
G1 X95.987 Y102.593 E2.28404
G1 X96.297 Y102.668 E2.28949
G1 X96.663 Y102.686 E2.29575
G1 F600
G1 X96.960 Y102.651 E2.30034
G1 X97.254 Y102.569 E2.30501
G1 F600
G1 X97.485 Y102.474 E2.30847
G1 X97.748 Y102.318 E2.31270
G1 X97.998 Y102.122 E2.31710
G1 X98.245 Y101.873 E2.32196
G1 X98.438 Y101.633 E2.32622
G1 X98.655 Y101.285 E2.33191
G1 X98.810 Y100.960 E2.33689
G1 X98.973 Y100.541 E2.34311
G1 X99.061 Y100.467 E2.34471
G1 X99.116 Y100.446 E2.34552
G1 X99.179 Y100.447 E2.34639
G1 X99.284 Y100.484 E2.34794
G1 X99.743 Y100.871 E2.35624
G1 X100.239 Y101.180 E2.36434
G1 X100.801 Y101.443 E2.37293
G1 X101.308 Y101.618 E2.38035
G1 F600
G1 X101.692 Y101.712 E2.38654
G1 X102.160 Y101.778 E2.39392
G1 F600
G1 X102.418 Y101.804 E2.39843
G1 X102.916 Y101.791 E2.40707
G1 Z7.100 F7800.000
G1 X103.128 Y102.113 F7800.000
G1 F600
G1 X103.104 Y101.861 E2.41070
G1 X103.339 Y101.794 E2.41421
G1 X103.563 Y101.679 E2.41782
G1 X103.774 Y101.505 E2.42175
G1 X103.874 Y101.380 E2.42404
G1 X104.001 Y101.142 E2.42793
G1 X104.087 Y100.846 E2.43234
G1 X104.338 Y100.870 E2.43597
G1 X104.370 Y101.222 E2.44104
G1 X104.339 Y101.577 E2.44616
G1 X104.266 Y101.789 E2.44938
G1 X104.142 Y101.954 E2.45233
G1 X104.041 Y102.027 E2.45412
G1 X103.892 Y102.092 E2.45645
G1 X103.669 Y102.136 E2.45972
G1 X103.453 Y102.142 E2.46282
G1 X103.202 Y102.120 E2.46642
G1 X103.244 Y101.888 F7800.000
G1 X104.192 Y100.579 F7800.000
G1 F600
G1 X103.993 Y99.860 E2.47934
G1 F600
G1 X103.776 Y99.351 E2.48813
G1 F600
G1 X103.503 Y98.899 E2.49571
G1 X103.211 Y98.548 E2.50227
G1 X102.968 Y98.320 E2.50706
G1 X102.700 Y98.121 E2.51187
G1 X102.340 Y97.909 E2.51786
G1 X101.911 Y97.719 E2.52460
G1 X101.510 Y97.592 E2.53065
G1 X101.180 Y97.531 E2.53549
G1 X100.825 Y97.509 E2.54060
G1 X100.373 Y97.558 E2.54712
G1 F600
G1 X99.915 Y97.718 E2.55516
G1 X99.589 Y97.925 E2.56156
G1 X99.294 Y98.211 E2.56836
G1 X99.124 Y98.462 E2.57339
G1 X99.007 Y98.712 E2.57796
G1 F600
G1 X98.913 Y98.872 E2.58140
G1 F600
G1 X98.850 Y98.949 E2.58347
G1 F600
G1 X98.819 Y98.988 E2.58462
G1 X98.714 Y98.930 E2.58742
G1 F600
G1 X98.609 Y98.872 E2.58988
G1 F600
G1 X98.517 Y98.810 E2.59187
G1 F600
G1 X98.178 Y98.511 E2.59911
G1 X97.892 Y98.347 E2.60440
G1 X97.674 Y98.265 E2.60814
G1 X97.414 Y98.205 E2.61242
G1 X97.177 Y98.184 E2.61622
G1 X97.017 Y98.192 E2.61880
G1 X96.619 Y98.258 E2.62526
G1 F600
G1 X96.299 Y98.371 E2.63011
G1 X96.001 Y98.533 E2.63497
G1 X95.624 Y98.817 E2.64170
G1 X95.443 Y98.982 E2.64520
G1 X95.176 Y99.283 E2.65094
G1 X94.928 Y99.636 E2.65711
G1 X94.676 Y100.140 E2.66515
G1 X94.560 Y100.519 E2.67081
G1 X94.510 Y100.921 E2.67660
G1 X94.516 Y101.118 E2.67941
G1 X94.553 Y101.359 E2.68290
G1 F600
G1 X94.618 Y101.591 E2.68668
G1 X94.779 Y101.910 E2.69231
G1 F600
G1 X94.819 Y101.971 E2.69358
G1 F600
G1 X95.060 Y102.264 E2.70070
G1 X95.279 Y102.452 E2.70611
G1 X95.517 Y102.601 E2.71139
G1 X95.751 Y102.711 E2.71623
G1 X96.194 Y102.826 E2.72482
G1 X96.661 Y102.831 E2.73359
G1 F600
G1 X96.967 Y102.772 E2.73884
G1 F600
G1 X97.209 Y102.701 E2.74269
G1 X97.464 Y102.582 E2.74699
G1 X97.676 Y102.449 E2.75082
G1 X97.984 Y102.196 E2.75691
G1 F600
G1 X98.333 Y101.801 E2.76416
G1 X98.617 Y101.340 E2.77161
G1 X98.780 Y100.964 E2.77724
G1 X98.897 Y100.558 E2.78305
G1 X98.957 Y100.420 E2.78512
G1 F600
G1 X99.041 Y100.332 E2.78709
G1 F600
G1 X99.083 Y100.288 E2.78823
G1 X99.169 Y100.324 E2.78996
G1 F600
G1 X99.278 Y100.396 E2.79215
G1 F600
G1 X99.600 Y100.729 E2.79902
G1 F600
G1 X99.969 Y101.026 E2.80528
G1 X100.482 Y101.345 E2.81326
G1 X101.055 Y101.602 E2.82157
G1 X101.809 Y101.833 E2.83200
G1 F600
G1 X102.455 Y101.952 E2.84212
G1 F600
G1 X102.515 Y101.959 E2.84314
G1 X102.739 Y102.218 E2.84894
G1 F600
G1 X102.851 Y102.347 E2.85143
G1 E0.85143 F2400.00000
G92 E0
G1 X99.149 Y100.635 F7800.000
G1 E2.00000 F2400.00000
G1 F600
G1 X99.010 Y99.910 E2.00585
G1 F600
G1 X98.981 Y99.753 E2.00682
G1 F600
G1 X98.956 Y99.654 E2.00758
G1 F600
G1 X98.942 Y99.563 E2.00847
G1 F600
G1 X98.741 Y98.493 E2.02050
G1 Z7.300 F7800.000
G1 E0.02050 F2400.00000
G92 E0
G1 X103.170 Y102.355 F7800.000
G1 E2.00000 F2400.00000
G1 F600
G1 X103.178 Y102.108 E2.00354
G1 X103.455 Y102.059 E2.00757
G1 X103.649 Y101.997 E2.01050
G1 X103.839 Y101.898 E2.01357
G1 X104.048 Y101.718 E2.01753
G1 X104.214 Y101.456 E2.02198
G1 X104.312 Y101.116 E2.02706
G1 X104.318 Y100.959 E2.02931
G1 X104.578 Y100.930 E2.03306
G1 X104.636 Y101.146 E2.03627
G1 X104.688 Y101.546 E2.04205
G1 X104.666 Y101.862 E2.04659
G1 X104.589 Y102.087 E2.05001
G1 X104.461 Y102.256 E2.05305
G1 X104.290 Y102.375 E2.05604
G1 X104.126 Y102.434 E2.05854
G1 X103.982 Y102.459 E2.06064
G1 X103.714 Y102.461 E2.06448
G1 X103.469 Y102.428 E2.06802
G1 X103.243 Y102.373 E2.07137
G1 X103.311 Y102.153 F7800.000
G1 E0.07137 F2400.00000
G92 E0
G1 X104.408 Y100.673 F7800.000
G1 E2.00000 F2400.00000
G1 F600
G1 X104.288 Y100.263 E2.00746
G1 X104.185 Y100.012 E2.01221
G1 F600
G1 X103.900 Y99.419 E2.02274
G1 F600
G1 X103.662 Y99.039 E2.02900
G1 X103.408 Y98.722 E2.03468
G1 X103.120 Y98.437 E2.04033
G1 X102.899 Y98.264 E2.04425
G1 X102.546 Y98.041 E2.05008
G1 X102.106 Y97.838 E2.05685
G1 X101.695 Y97.704 E2.06289
G1 X101.262 Y97.624 E2.06904
G1 X100.935 Y97.609 E2.07361
G1 X100.761 Y97.621 E2.07605
G1 F600
G1 X100.563 Y97.645 E2.07917
G1 X100.278 Y97.721 E2.08378
G1 X99.973 Y97.860 E2.08903
G1 F600
G1 X99.652 Y98.084 E2.09594
G1 X99.419 Y98.330 E2.10192
G1 X99.193 Y98.700 E2.10957
G1 X99.061 Y99.063 E2.11638
G1 F600
G1 X99.000 Y99.166 E2.11874
G1 F600
G1 X98.939 Y99.268 E2.12140
G1 F600
G1 X98.899 Y99.318 E2.12296
G1 F600
G1 X98.826 Y99.277 E2.12511
G1 F600
G1 X98.753 Y99.236 E2.12702
G1 F600
G1 X98.631 Y99.134 E2.13021
G1 F600
G1 X98.534 Y99.036 E2.13261
G1 F600
G1 X98.262 Y98.746 E2.13887
G1 X97.940 Y98.522 E2.14507
G1 X97.598 Y98.376 E2.15094
G1 X97.236 Y98.301 E2.15678
G1 X96.836 Y98.314 E2.16309
G1 X96.486 Y98.394 E2.16877
G1 X96.198 Y98.509 E2.17367
G1 X95.791 Y98.760 E2.18123
G1 F600
G1 X95.566 Y98.937 E2.18516
G1 X95.317 Y99.170 E2.18984
G1 X95.055 Y99.477 E2.19537
G1 X94.814 Y99.829 E2.20124
G1 X94.600 Y100.265 E2.20790
G1 X94.501 Y100.567 E2.21226
G1 X94.429 Y101.050 E2.21897
G1 X94.450 Y101.405 E2.22385
G1 F600
G1 X94.538 Y101.755 E2.22952
G1 F600
G1 X94.729 Y102.139 E2.23723
G1 F600
G1 X94.966 Y102.447 E2.24486
G1 X95.179 Y102.637 E2.25048
G1 X95.410 Y102.789 E2.25592
G1 X95.617 Y102.891 E2.26045
G1 X95.939 Y102.992 E2.26709
G1 X96.170 Y103.019 E2.27166
G1 X96.431 Y103.020 E2.27679
G1 X96.633 Y102.995 E2.28080
G1 F600
G1 X96.878 Y102.934 E2.28538
G1 F600
G1 X97.262 Y102.788 E2.29209
G1 F600
G1 X97.462 Y102.679 E2.29546
G1 X97.748 Y102.478 E2.30062
G1 X98.036 Y102.203 E2.30649
G1 F600
G1 X98.367 Y101.773 E2.31369
G1 X98.626 Y101.293 E2.32092
G1 X98.787 Y100.820 E2.32754
G1 X98.857 Y100.441 E2.33265
G1 F600
G1 X98.904 Y100.290 E2.33502
G1 F600
G1 X98.947 Y100.216 E2.33651
G1 F600
G1 X98.991 Y100.141 E2.33823
G1 F600
G1 X99.034 Y100.066 E2.34018
G1 F600
G1 X98.931 Y99.509 E2.35361
G1 F600
G1 X98.899 Y99.318 E2.35856
G1 X99.034 Y100.066 F7800.000
G1 F600
G1 X99.065 Y100.083 E2.35941
G1 F600
G1 X99.142 Y100.146 E2.36151
G1 F600
G1 X99.218 Y100.209 E2.36336
G1 F600
G1 X99.295 Y100.272 E2.36496
G1 F600
G1 X99.497 Y100.557 E2.36982
G1 X99.728 Y100.814 E2.37462
G1 X99.947 Y101.008 E2.37869
G1 X100.240 Y101.225 E2.38376
G1 X100.814 Y101.551 E2.39294
G1 X101.497 Y101.829 E2.40320
G1 F600
G1 X102.232 Y102.046 E2.41503
G1 F600
G1 X102.900 Y102.192 E2.42666
G1 X104.135 Y102.080 F7800.000
G1 F600
G1 X104.302 Y101.930 E2.42695
G1 Z7.500 F7800.000
G1 X103.299 Y102.624 F7800.000
G1 F600
G1 X103.342 Y102.363 E2.43073
G1 X103.637 Y102.369 E2.43497
G1 X103.902 Y102.314 E2.43885
G1 X104.154 Y102.196 E2.44286
G1 X104.379 Y101.983 E2.44730
G1 X104.469 Y101.839 E2.44973
G1 X104.563 Y101.588 E2.45358
G1 X104.614 Y101.155 E2.45984
G1 X104.865 Y101.137 E2.46346
G1 X104.957 Y101.484 E2.46862
G1 X104.994 Y101.843 E2.47379
G1 X104.956 Y102.144 E2.47815
G1 X104.856 Y102.378 E2.48179
G1 X104.793 Y102.465 E2.48334
G1 X104.710 Y102.549 E2.48502
G1 X104.528 Y102.668 E2.48814
G1 X104.324 Y102.739 E2.49124
G1 X104.029 Y102.770 E2.49550
G1 X103.780 Y102.750 E2.49908
G1 X103.371 Y102.646 E2.50514
G1 X103.472 Y102.425 F7800.000
G1 E0.50514 F2400.00000
G92 E0
G1 X104.675 Y100.875 F7800.000
G1 E2.00000 F2400.00000
G1 F600
G1 X104.560 Y100.512 E2.00684
G1 X104.372 Y100.092 E2.01512
G1 F600
G1 X104.133 Y99.657 E2.02298
G1 F600
G1 X103.801 Y99.155 E2.03161
G1 X103.394 Y98.681 E2.04057
G1 X103.043 Y98.375 E2.04724
G1 X102.727 Y98.166 E2.05266
G1 X102.353 Y97.978 E2.05867
G1 X101.913 Y97.820 E2.06537
G1 X101.460 Y97.729 E2.07198
G1 X101.160 Y97.708 E2.07630
G1 X100.937 Y97.719 E2.07949
G1 F600
G1 X100.720 Y97.745 E2.08295
G1 X100.430 Y97.818 E2.08767
G1 X100.146 Y97.943 E2.09258
G1 X99.942 Y98.070 E2.09637
G1 F600
G1 X99.817 Y98.164 E2.09908
G1 X99.591 Y98.392 E2.10463
G1 X99.378 Y98.723 E2.11142
G1 X99.616 Y99.021 E2.11802
G1 X99.317 Y100.045 F7800.000
G1 F600
G1 X98.803 Y100.163 E2.12559
G1 X98.642 Y99.480 E2.13565
G1 X99.242 Y99.369 E2.14441
G1 X99.259 Y99.739 E2.14971
G1 X99.303 Y99.971 E2.15310
G1 X98.845 Y99.880 F7800.000
G1 X98.790 Y100.448 F7800.000
G1 F600
G1 X98.684 Y101.032 E2.16125
G1 X98.554 Y101.405 E2.16668
G1 X98.431 Y101.662 E2.17060
G1 X98.282 Y101.924 E2.17473
G1 X98.011 Y102.283 E2.18091
G1 X97.627 Y102.649 E2.18820
G1 F600
G1 X97.319 Y102.864 E2.19413
G1 X97.117 Y102.975 E2.19777
G1 F600
G1 X96.940 Y103.070 E2.20129
G1 X96.710 Y103.154 E2.20560
G1 F600
G1 X96.540 Y103.202 E2.20907
G1 X96.243 Y103.239 E2.21495
G1 F600
G1 X95.823 Y103.204 E2.22385
G1 X95.495 Y103.093 E2.23117
G1 F600
G1 X95.296 Y102.992 E2.23555
G1 X95.052 Y102.823 E2.24137
G1 X94.863 Y102.648 E2.24642
G1 X94.703 Y102.444 E2.25150
G1 F600
G1 X94.591 Y102.279 E2.25511
G1 X94.494 Y102.068 E2.25929
G1 F600
G1 X94.410 Y101.824 E2.26359
G1 F600
G1 X94.358 Y101.520 E2.26825
G1 X94.350 Y101.178 E2.27341
G1 F600
G1 X94.395 Y100.830 E2.27797
G1 X94.458 Y100.583 E2.28130
G1 X94.582 Y100.264 E2.28575
G1 X94.781 Y99.893 E2.29123
G1 F600
G1 X95.088 Y99.472 E2.29879
G1 X95.419 Y99.131 E2.30571
G1 X95.849 Y98.801 E2.31358
G1 X96.152 Y98.634 E2.31860
G1 F600
G1 X96.547 Y98.484 E2.32553
G1 X96.782 Y98.436 E2.32945
G1 X96.939 Y98.419 E2.33205
G1 X97.291 Y98.439 E2.33782
G1 X97.642 Y98.534 E2.34377
G1 X97.883 Y98.646 E2.34814
G1 X98.197 Y98.871 E2.35446
G1 X98.280 Y98.951 E2.35634
G1 X98.270 Y98.977 E2.35680
G1 F600
G1 X98.255 Y99.033 E2.35760
G1 F600
G1 X98.242 Y99.092 E2.35825
G1 F600
G1 X98.229 Y99.151 E2.35874
G1 F600
G1 X98.239 Y99.198 E2.35901
G1 F600
G1 X98.273 Y99.234 E2.35916
G1 F600
G1 X98.306 Y99.270 E2.35918
G1 X99.562 Y100.545 F7800.000
G1 F600
G1 X99.759 Y100.799 E2.36377
G1 X99.992 Y101.034 E2.36848
G1 X100.447 Y101.378 E2.37661
G1 X101.020 Y101.690 E2.38589
G1 X101.712 Y101.989 E2.39664
G1 F600
G1 X102.456 Y102.253 E2.40948
G1 F600
G1 X103.052 Y102.431 E2.42052
G1 Z7.700 F7800.000
G1 E0.42052 F2400.00000
G92 E0
G1 X98.693 Y100.147 F7800.000
G1 E2.00000 F2400.00000
G1 F600
G1 X98.709 Y100.547 E2.00584
G1 F600
G1 X98.678 Y100.827 E2.00948
G1 X98.575 Y101.272 E2.01539
G1 X98.410 Y101.692 E2.02121
G1 X98.131 Y102.162 E2.02829
G1 F600
G1 X97.782 Y102.581 E2.03622
G1 X97.412 Y102.912 E2.04344
G1 F600
G1 X96.985 Y103.204 E2.05169
G1 F600
G1 X96.584 Y103.381 E2.05953
G1 F600
G1 X96.250 Y103.448 E2.06617
G1 F600
G1 X96.054 Y103.458 E2.07029
G1 X95.885 Y103.443 E2.07386
G1 X95.548 Y103.366 E2.08110
G1 X95.307 Y103.264 E2.08658
G1 X95.040 Y103.102 E2.09315
G1 F600
G1 X94.775 Y102.858 E2.10017
G1 X94.548 Y102.565 E2.10742
G1 F600
G1 X94.456 Y102.408 E2.11069
G1 X94.383 Y102.222 E2.11428
G1 F600
G1 X94.312 Y102.027 E2.11769
G1 X94.261 Y101.703 E2.12304
G1 F600
G1 X94.268 Y101.269 E2.12913
G1 F600
G1 X94.348 Y100.827 E2.13501
G1 X94.466 Y100.489 E2.13969
G1 X94.685 Y100.059 E2.14600
G1 X95.015 Y99.605 E2.15334
G1 F600
G1 X95.345 Y99.264 E2.16027
G1 X95.654 Y99.021 E2.16599
G1 X96.054 Y98.785 E2.17276
G1 X96.224 Y98.711 E2.17546
G1 F600
G1 X96.495 Y98.617 E2.18005
G1 X96.921 Y98.555 E2.18697
G1 X97.227 Y98.569 E2.19188
G1 X97.575 Y98.664 E2.19768
G1 X97.820 Y98.777 E2.20201
G1 X98.186 Y99.059 E2.20942
G1 X98.455 Y99.406 E2.21648
G1 X98.596 Y99.714 E2.22192
G1 F600
G1 X98.681 Y100.073 E2.22729
G1 X98.738 Y100.163 F7800.000
G1 E0.22729 F2400.00000
G92 E0
G1 X103.666 Y102.963 F7800.000
G1 E2.00000 F2400.00000
G1 F600
G1 X103.706 Y102.690 E2.00395
G1 X103.843 Y102.697 E2.00592
G1 X104.093 Y102.669 E2.00953
G1 X104.292 Y102.608 E2.01251
G1 X104.473 Y102.514 E2.01544
G1 X104.703 Y102.299 E2.01996
G1 X104.859 Y101.997 E2.02484
G1 X104.939 Y101.518 E2.03180
G1 X105.194 Y101.515 E2.03546
G1 X105.257 Y101.854 E2.04040
G1 X105.252 Y102.196 E2.04531
G1 X105.193 Y102.433 E2.04881
G1 X105.055 Y102.675 E2.05281
G1 X104.853 Y102.860 E2.05674
G1 X104.570 Y102.992 E2.06122
G1 X104.233 Y103.044 E2.06610
G1 X103.862 Y103.012 E2.07146
G1 X103.738 Y102.981 E2.07328
G1 X103.836 Y102.747 F7800.000
G1 E0.07328 F2400.00000
G92 E0
G1 X105.380 Y101.198 F7800.000
G1 E2.00000 F2400.00000
G1 F639.351
G1 X105.055 Y100.996 E2.00613
G1 F639.351
G1 X104.893 Y100.895 E2.00966
G1 X104.729 Y100.493 E2.01770
G1 F639.351
G1 X104.467 Y100.012 E2.02703
G1 F639.351
G1 X104.113 Y99.484 E2.03686
G1 F639.351
G1 X103.736 Y99.018 E2.04524
G1 X103.317 Y98.608 E2.05343
G1 X102.956 Y98.337 E2.05975
G1 X102.563 Y98.116 E2.06605
G1 X102.127 Y97.943 E2.07261
G1 X101.734 Y97.849 E2.07827
G1 X101.307 Y97.809 E2.08427
G1 X101.023 Y97.821 E2.08824
G1 F639.351
G1 X100.759 Y97.869 E2.09237
G1 X100.500 Y97.946 E2.09654
G1 F639.351
G1 X100.246 Y98.065 E2.10133
G1 X99.904 Y98.318 E2.10858
G1 X99.692 Y98.547 E2.11390
G1 X99.556 Y98.762 E2.11823
G1 X99.434 Y99.056 E2.12366
G1 X99.362 Y99.447 E2.13044
G1 X99.376 Y99.789 E2.13626
G1 X99.427 Y100.042 E2.14066
G1 F639.351
G1 X99.569 Y100.410 E2.14671
G1 X99.779 Y100.750 E2.15283
G1 F639.351
G1 X99.987 Y100.996 E2.15718
G1 X100.198 Y101.192 E2.16107
G1 X100.665 Y101.531 E2.16885
G1 X101.384 Y101.918 E2.17988
G1 X101.869 Y102.137 E2.18706
G1 F639.351
G1 X102.341 Y102.349 E2.19501
G1 F639.351
G1 X103.048 Y102.640 E2.20785
G1 F639.351
G1 X103.084 Y102.653 E2.20854
G1 X103.473 Y102.383 E2.21724
G1 Z7.900 F7800.000
G1 E0.21724 F2400.00000
G92 E0
G1 X98.533 Y101.274 F7800.000
G1 E2.00000 F2400.00000
G1 F600
G1 X98.410 Y101.641 E2.00533
G1 X98.224 Y102.034 E2.01133
G1 X98.049 Y102.306 E2.01579
G1 X97.748 Y102.684 E2.02244
G1 F600
G1 X97.452 Y102.992 E2.02903
G1 X97.068 Y103.306 E2.03668
G1 F600
G1 X96.823 Y103.450 E2.04169
G1 X96.584 Y103.560 E2.04633
G1 F600
G1 X96.224 Y103.656 E2.05347
G1 F600
G1 X95.841 Y103.668 E2.06133
G1 X95.518 Y103.603 E2.06809
G1 X95.355 Y103.543 E2.07166
G1 X95.083 Y103.406 E2.07790
G1 X94.774 Y103.165 E2.08596
G1 F600
G1 X94.503 Y102.851 E2.09362
G1 X94.372 Y102.634 E2.09830
G1 F600
G1 X94.283 Y102.438 E2.10194
G1 X94.187 Y102.079 E2.10822
G1 F600
G1 X94.161 Y101.637 E2.11459
G1 F600
G1 X94.211 Y101.206 E2.12037
G1 X94.272 Y100.946 E2.12393
G1 X94.433 Y100.520 E2.13000
G1 X94.680 Y100.075 E2.13679
G1 X95.054 Y99.607 E2.14478
G1 F600
G1 X95.433 Y99.261 E2.15254
G1 X95.813 Y99.007 E2.15946
G1 X96.310 Y98.786 E2.16768
G1 F600
G1 X96.634 Y98.710 E2.17334
G1 X97.034 Y98.696 E2.18016
G1 X97.388 Y98.762 E2.18631
G1 X97.606 Y98.849 E2.19031
G1 X97.877 Y99.006 E2.19565
G1 X98.036 Y99.133 E2.19913
G1 X98.231 Y99.338 E2.20394
G1 F600
G1 X98.437 Y99.661 E2.20986
G1 X98.508 Y99.831 E2.21272
G1 X98.593 Y100.145 E2.21775
G1 F600
G1 X98.632 Y100.611 E2.22420
G1 X98.550 Y101.201 E2.23241
G1 X98.533 Y101.274 F7800.000
G1 E0.23241 F2400.00000
G92 E0
G1 X104.162 Y103.277 F7800.000
G1 E2.00000 F2400.00000
G1 F600
G1 X104.139 Y103.020 E2.00371
G1 X104.519 Y102.922 E2.00934
G1 X104.826 Y102.747 E2.01441
G1 X105.066 Y102.469 E2.01967
G1 X105.198 Y102.128 E2.02492
G1 X105.220 Y101.926 E2.02784
G1 X105.515 Y101.950 E2.03209
G1 X105.491 Y102.400 E2.03857
G1 X105.404 Y102.684 E2.04282
G1 X105.261 Y102.908 E2.04664
G1 X105.057 Y103.088 E2.05054
G1 X104.935 Y103.158 E2.05256
G1 X104.751 Y103.229 E2.05539
G1 X104.554 Y103.273 E2.05829
G1 X104.237 Y103.283 E2.06284
G1 X104.277 Y103.046 F7800.000
G1 E0.06284 F2400.00000
G92 E0
G1 X105.132 Y101.418 F7800.000
G1 E2.00000 F2400.00000
G1 F631.786
G1 X105.166 Y101.377 E2.00067
G1 F631.786
G1 X105.200 Y101.336 E2.00147
G1 F631.786
G1 X105.233 Y101.296 E2.00240
G1 X105.223 Y101.262 E2.00302
G1 X105.122 Y100.989 E2.00815
G1 X104.915 Y100.540 E2.01685
G1 F631.786
G1 X104.747 Y100.245 E2.02229
G1 X104.418 Y99.766 E2.03162
G1 F631.786
G1 X103.982 Y99.245 E2.04137
G1 X103.537 Y98.809 E2.05033
G1 X103.135 Y98.491 E2.05769
G1 X102.700 Y98.234 E2.06494
G1 X102.304 Y98.065 E2.07112
G1 X101.877 Y97.952 E2.07746
G1 X101.403 Y97.909 E2.08430
G1 X101.110 Y97.931 E2.08853
G1 F631.786
G1 X100.868 Y97.976 E2.09249
G1 X100.676 Y98.037 E2.09573
G1 X100.318 Y98.215 E2.10216
G1 F631.786
G1 X99.963 Y98.506 E2.11042
G1 X99.820 Y98.682 E2.11449
G1 X99.681 Y98.916 E2.11938
G1 X99.583 Y99.164 E2.12418
G1 X99.532 Y99.394 E2.12841
G1 X99.521 Y99.839 E2.13640
G1 F631.786
G1 X99.567 Y100.111 E2.14087
G1 X99.647 Y100.360 E2.14510
G1 F631.786
G1 X99.798 Y100.667 E2.15014
G1 X99.941 Y100.874 E2.15384
G1 X100.122 Y101.088 E2.15797
G1 F631.786
G1 X100.381 Y101.327 E2.16266
G1 X100.688 Y101.553 E2.16774
G1 X101.081 Y101.798 E2.17391
G1 X102.014 Y102.309 E2.18807
G1 F631.786
G1 X103.005 Y102.814 E2.20545
G1 F631.786
G1 X103.240 Y102.914 E2.20982
G1 F631.786
G1 X103.502 Y103.019 E2.21521
G1 X103.837 Y102.729 E2.22364
G1 X104.944 Y101.628 F7800.000
G1 F631.786
G1 X105.132 Y101.418 E2.22654
G1 Z8.100 F7800.000
G1 E0.22654 F2400.00000
G92 E0
G1 X98.453 Y101.425 F7800.000
G1 E2.00000 F2400.00000
G1 F600
G1 X98.286 Y101.894 E2.00711
G1 X98.045 Y102.337 E2.01430
G1 X97.741 Y102.764 E2.02178
G1 X97.469 Y103.071 E2.02764
G1 F600
G1 X97.219 Y103.318 E2.03316
G1 X96.847 Y103.595 E2.04044
G1 F600
G1 X96.517 Y103.765 E2.04688
G1 F600
G1 X96.105 Y103.875 E2.05505
G1 F600
G1 X95.731 Y103.881 E2.06279
G1 X95.389 Y103.806 E2.07003
G1 X95.087 Y103.679 E2.07682
G1 X94.802 Y103.488 E2.08391
G1 F600
G1 X94.500 Y103.187 E2.09210
G1 X94.277 Y102.847 E2.09990
G1 F600
G1 X94.123 Y102.449 E2.10745
G1 F600
G1 X94.062 Y102.076 E2.11356
G1 F600
G1 X94.074 Y101.632 E2.11981
G1 F600
G1 X94.182 Y101.118 E2.12699
G1 X94.300 Y100.779 E2.13189
G1 X94.450 Y100.468 E2.13661
G1 X94.757 Y100.002 E2.14423
G1 X95.140 Y99.583 E2.15200
G1 F600
G1 X95.462 Y99.322 E2.15829
G1 X95.772 Y99.123 E2.16388
G1 X96.243 Y98.922 E2.17165
G1 F600
G1 X96.591 Y98.848 E2.17778
G1 X96.961 Y98.837 E2.18413
G1 X97.314 Y98.904 E2.19033
G1 X97.533 Y98.993 E2.19439
G1 X97.802 Y99.151 E2.19975
G1 X98.101 Y99.417 E2.20665
G1 F600
G1 X98.241 Y99.599 E2.21026
G1 X98.443 Y100.014 E2.21754
G1 F600
G1 X98.536 Y100.415 E2.22342
G1 X98.550 Y100.813 E2.22910
G1 X98.472 Y101.352 E2.23687
G1 X98.453 Y101.425 F7800.000
G1 E0.23687 F2400.00000
G92 E0
G1 X104.694 Y103.504 F7800.000
G1 E2.00000 F2400.00000
G1 F600
G1 X104.598 Y103.250 E2.00389
G1 X105.004 Y103.042 E2.01042
G1 X105.248 Y102.810 E2.01526
G1 X105.496 Y102.354 E2.02271
G1 X105.742 Y102.442 E2.02646
G1 X105.644 Y102.840 E2.03235
G1 X105.507 Y103.080 E2.03630
G1 X105.395 Y103.203 E2.03869
G1 X105.172 Y103.356 E2.04257
G1 X105.002 Y103.427 E2.04522
G1 X104.767 Y103.486 E2.04870
G1 X104.743 Y103.237 F7800.000
G1 X105.551 Y101.707 F7800.000
G1 F609.81
G1 X105.438 Y101.324 E2.05616
G1 X105.277 Y100.950 E2.06378
G1 F609.81
G1 X105.000 Y100.432 E2.07333
G1 X104.726 Y100.030 E2.08126
G1 F609.81
G1 X104.370 Y99.604 E2.08923
G1 X103.977 Y99.208 E2.09724
G1 X103.584 Y98.859 E2.10479
G1 X103.153 Y98.542 E2.11246
G1 X102.805 Y98.341 E2.11823
G1 X102.320 Y98.140 E2.12576
G1 X101.923 Y98.047 E2.13161
G1 X101.577 Y98.018 E2.13659
G1 X101.289 Y98.031 E2.14072
G1 F609.81
G1 X100.959 Y98.096 E2.14615
G1 X100.688 Y98.197 E2.15082
G1 X100.501 Y98.294 E2.15421
G1 F609.81
G1 X100.300 Y98.440 E2.15872
G1 X100.117 Y98.603 E2.16317
G1 X99.968 Y98.785 E2.16744
G1 X99.849 Y98.981 E2.17160
G1 X99.759 Y99.189 E2.17573
G1 X99.697 Y99.411 E2.17991
G1 X99.662 Y99.796 E2.18694
G1 F609.81
G1 X99.691 Y100.105 E2.19207
G1 X99.755 Y100.354 E2.19632
G1 X99.848 Y100.580 E2.20037
G1 F609.81
G1 X100.080 Y100.960 E2.20683
G1 X100.322 Y101.234 E2.21213
G1 X100.550 Y101.438 E2.21658
G1 X101.032 Y101.786 E2.22521
G1 F609.81
G1 X101.765 Y102.240 E2.23646
G1 F609.81
G1 X102.714 Y102.817 E2.25307
G1 F609.81
G1 X103.239 Y103.107 E2.26293
G1 F609.81
G1 X103.665 Y103.276 E2.27127
G1 X103.957 Y103.352 E2.27674
G1 Z8.300 F7800.000
G1 E0.27674 F2400.00000
G92 E0
G1 X98.368 Y101.576 F7800.000
G1 E2.00000 F2400.00000
G1 F600
G1 X98.133 Y102.183 E2.00865
G1 X97.932 Y102.544 E2.01415
G1 X97.562 Y103.054 E2.02252
G1 F600
G1 X97.244 Y103.411 E2.02996
G1 X96.819 Y103.763 E2.03854
G1 F600
G1 X96.394 Y103.989 E2.04692
G1 F600
G1 X95.978 Y104.094 E2.05518
G1 F600
G1 X95.608 Y104.092 E2.06284
G1 X95.244 Y104.007 E2.07059
G1 X94.971 Y103.879 E2.07684
G1 X94.732 Y103.718 E2.08282
G1 F600
G1 X94.435 Y103.427 E2.09085
G1 X94.234 Y103.143 E2.09755
G1 F600
G1 X94.137 Y102.965 E2.10117
G1 X94.020 Y102.629 E2.10752
G1 F600
G1 X93.963 Y102.252 E2.11366
G1 F600
G1 X93.979 Y101.814 E2.11980
G1 F600
G1 X94.091 Y101.292 E2.12692
G1 X94.265 Y100.827 E2.13352
G1 X94.535 Y100.333 E2.14102
G1 X94.841 Y99.947 E2.14758
G1 X95.031 Y99.753 E2.15119
G1 F600
G1 X95.426 Y99.431 E2.15893
G1 X95.813 Y99.200 E2.16577
G1 X96.062 Y99.100 E2.16984
G1 X96.324 Y99.024 E2.17397
G1 F600
G1 X96.585 Y98.981 E2.17840
G1 X96.894 Y98.977 E2.18358
G1 X97.131 Y99.013 E2.18759
G1 X97.397 Y99.103 E2.19230
G1 X97.810 Y99.354 E2.20038
G1 X98.025 Y99.565 E2.20543
G1 X98.148 Y99.724 E2.20879
G1 F600
G1 X98.331 Y100.068 E2.21472
G1 X98.390 Y100.245 E2.21756
G1 X98.452 Y100.546 E2.22222
G1 F600
G1 X98.463 Y101.015 E2.22846
G1 X98.389 Y101.504 E2.23504
G1 X98.438 Y101.648 F7800.000
G1 E0.23504 F2400.00000
G92 E0
G1 X105.006 Y103.682 F7800.000
G1 E2.00000 F2400.00000
G1 F600
G1 X104.914 Y103.443 E2.00367
G1 X105.243 Y103.248 E2.00915
G1 X105.489 Y103.004 E2.01412
G1 X105.710 Y102.592 E2.02083
G1 X105.956 Y102.678 E2.02456
G1 X105.914 Y102.907 E2.02790
G1 X105.854 Y103.100 E2.03080
G1 X105.712 Y103.342 E2.03483
G1 X105.526 Y103.504 E2.03836
G1 X105.400 Y103.574 E2.04043
G1 X105.079 Y103.667 E2.04523
G1 X105.054 Y103.430 F7800.000
G1 X105.848 Y102.349 F7800.000
G1 F624.362
G1 X105.802 Y101.947 E2.05268
G1 X105.654 Y101.453 E2.06219
G1 F624.362
G1 X105.452 Y100.995 E2.07047
G1 X105.250 Y100.634 E2.07733
G1 F624.362
G1 X104.925 Y100.156 E2.08592
G1 X104.765 Y99.953 E2.08976
G1 X104.224 Y99.401 E2.10125
G1 F624.362
G1 X103.786 Y99.030 E2.10875
G1 X103.296 Y98.681 E2.11662
G1 X102.894 Y98.451 E2.12267
G1 X102.447 Y98.263 E2.12901
G1 F624.362
G1 X102.036 Y98.160 E2.13525
G1 X101.633 Y98.131 E2.14118
G1 X101.357 Y98.152 E2.14524
G1 F624.362
G1 X101.075 Y98.214 E2.15000
G1 X100.916 Y98.271 E2.15280
G1 X100.599 Y98.433 E2.15866
G1 F624.362
G1 X100.292 Y98.683 E2.16594
G1 X100.139 Y98.866 E2.17034
G1 X100.017 Y99.059 E2.17455
G1 X99.923 Y99.265 E2.17871
G1 X99.857 Y99.482 E2.18288
G1 X99.820 Y99.707 E2.18708
G1 X99.814 Y99.891 E2.19046
G1 F624.362
G1 X99.847 Y100.217 E2.19597
G1 X99.952 Y100.564 E2.20204
G1 F624.362
G1 X100.097 Y100.852 E2.20693
G1 X100.232 Y101.044 E2.21049
G1 X100.401 Y101.244 E2.21447
G1 X100.615 Y101.444 E2.21890
G1 F624.362
G1 X101.174 Y101.888 E2.22830
G1 X102.585 Y102.866 E2.25089
G1 F624.362
G1 X103.304 Y103.300 E2.26397
G1 F624.362
G1 X103.737 Y103.482 E2.27195
G1 X104.076 Y103.572 E2.27791
G1 F624.362
G1 X104.303 Y103.601 E2.28215
G1 X104.611 Y103.855 E2.28955
G1 F624.362
G1 X104.765 Y103.982 E2.29276
G1 E0.29276 F2400.00000
G92 E0
M107
; Filament-specific end gcode 
;END gcode for filament

M104 S0 ; turn off temperature
G28 X0  ; home X axis
M84     ; disable motors

M140 S0 ; set bed temperature
; filament used = 12.2mm (0.1cm3)
; total filament cost = 0.0

; avoid_crossing_perimeters = 0
; bed_shape = 0x0,200x0,200x200,0x200
; bed_temperature = 0
; before_layer_gcode = 
; between_objects_gcode = 
; bridge_acceleration = 0
; bridge_fan_speed = 100
; brim_connections_width = 0
; brim_width = 0
; complete_objects = 0
; cooling = 1
; default_acceleration = 0
; disable_fan_first_layers = 3
; duplicate_distance = 6
; end_filament_gcode = "; Filament-specific end gcode \n;END gcode for filament\n"
; end_gcode = M104 S0 ; turn off temperature\nG28 X0  ; home X axis\nM84     ; disable motors\n
; extruder_clearance_height = 20
; extruder_clearance_radius = 20
; extruder_offset = 0x0
; extrusion_axis = E
; extrusion_multiplier = 1
; fan_always_on = 0
; fan_below_layer_time = 60
; filament_colour = #FFFFFF
; filament_cost = 0
; filament_density = 0
; filament_diameter = 3
; filament_max_volumetric_speed = 0
; filament_notes = ""
; first_layer_acceleration = 0
; first_layer_bed_temperature = 0
; first_layer_extrusion_width = 200%
; first_layer_speed = 30
; first_layer_temperature = 205
; gcode_arcs = 0
; gcode_comments = 0
; gcode_flavor = reprap
; has_heatbed = 1
; infill_acceleration = 0
; infill_first = 0
; interior_brim_width = 0
; layer_gcode = 
; max_fan_speed = 100
; max_layer_height = 0.3
; max_print_speed = 80
; max_volumetric_speed = 0
; min_fan_speed = 35
; min_layer_height = 0.15
; min_print_speed = 10
; min_skirt_length = 0
; notes = 
; nozzle_diameter = 0.5
; only_retract_when_crossing_perimeters = 1
; ooze_prevention = 0
; output_filename_format = [input_filename_base].gcode
; perimeter_acceleration = 0
; post_process = 
; pressure_advance = 0
; printer_notes = 
; resolution = 0
; retract_before_travel = 2
; retract_layer_change = 0
; retract_length = 2
; retract_length_toolchange = 10
; retract_lift = 0
; retract_lift_above = 0
; retract_lift_below = 0
; retract_restart_extra = 0
; retract_restart_extra_toolchange = 0
; retract_speed = 40
; skirt_distance = 6
; skirt_height = 1
; skirts = 0
; slowdown_below_layer_time = 5
; spiral_vase = 0
; standby_temperature_delta = -5
; start_filament_gcode = "; Filament gcode\n"
; start_gcode = G28 ; home all axes\nG1 Z5 F5000 ; lift nozzle\n
; temperature = 200
; threads = 8
; toolchange_gcode = 
; travel_speed = 130
; use_firmware_retraction = 0
; use_relative_e_distances = 0
; use_set_and_wait_bed = 0
; use_set_and_wait_extruder = 0
; use_volumetric_e = 0
; vibration_limit = 0
; wipe = 0
; z_offset = 0
; z_steps_per_mm = 0
; adaptive_slicing = 0
; adaptive_slicing_quality = 75%
; dont_support_bridges = 1
; extrusion_width = 0
; first_layer_height = 0.3
; infill_only_where_needed = 0
; interface_shells = 0
; layer_height = 0.2
; match_horizontal_surfaces = 0
; raft_layers = 0
; regions_overlap = 0
; seam_position = aligned
; sequential_print_priority = 0
; support_material = 0
; support_material_angle = 0
; support_material_buildplate_only = 0
; support_material_contact_distance = 0.2
; support_material_enforce_layers = 0
; support_material_extruder = 1
; support_material_extrusion_width = 0
; support_material_interface_extruder = 1
; support_material_interface_extrusion_width = 0
; support_material_interface_layers = 3
; support_material_interface_spacing = 0
; support_material_interface_speed = 100%
; support_material_max_layers = 0
; support_material_pattern = pillars
; support_material_spacing = 2.5
; support_material_speed = 60
; support_material_threshold = 60%
; xy_size_compensation = 0
; bottom_infill_pattern = rectilinear
; bottom_solid_layers = 3
; bridge_flow_ratio = 1
; bridge_speed = 60
; external_perimeter_extrusion_width = 0
; external_perimeter_speed = 50%
; external_perimeters_first = 0
; extra_perimeters = 1
; fill_angle = 45
; fill_density = 20%
; fill_gaps = 1
; fill_pattern = stars
; gap_fill_speed = 20
; infill_every_layers = 1
; infill_extruder = 1
; infill_extrusion_width = 0
; infill_overlap = 55%
; infill_speed = 80
; overhangs = 1
; perimeter_extruder = 1
; perimeter_extrusion_width = 0
; perimeter_speed = 60
; perimeters = 3
; small_perimeter_speed = 15
; solid_infill_below_area = 70
; solid_infill_every_layers = 0
; solid_infill_extruder = 1
; solid_infill_extrusion_width = 0
; solid_infill_speed = 20
; thin_walls = 1
; top_infill_extrusion_width = 0
; top_infill_pattern = rectilinear
; top_solid_infill_speed = 15
; top_solid_layers = 3
