; generated by Slic3r 1.2.9 on 2019-08-13 at 14:01:09

; external perimeters extrusion width = 0.50mm
; perimeters extrusion width = 0.58mm
; infill extrusion width = 0.58mm
; solid infill extrusion width = 0.58mm
; top infill extrusion width = 0.58mm

M107
M104 S200 ; set temperature
G28 ; home all axes
G1 Z5 F5000 ; lift nozzle

M109 S200 ; wait for temperature to be reached
G21 ; set units to millimeters
G90 ; use absolute coordinates
M82 ; use absolute distances for extrusion
G92 E0
G1 Z0.400 F7800.000
G1 E-2.00000 F2400.00000
G92 E0
G1 X99.849 Y97.556 F7800.000
G1 E2.00000 F2400.00000
G1 X99.526 Y97.233 E2.18014 F600.000
G1 X99.280 Y98.081 E2.52838
G1 X99.636 Y98.438 E2.72708
G1 X99.125 Y99.021 E3.03286
G1 X98.799 Y98.695 E3.21421
G1 Z0.800 F7800.000
G1 X98.497 Y99.169 F7800.000
G1 X98.023 Y99.644 E3.38801 F600.000
G1 X97.675 Y99.272 E3.51990
G1 X97.304 Y99.643 E3.65572
G1 X97.035 Y99.192 E3.79165
G1 X96.692 Y99.535 E3.91732
G1 X96.471 Y99.037 E4.05867
G1 X96.140 Y99.368 E4.17996
G1 X95.647 Y99.142 E4.32062
G1 X95.965 Y98.823 E4.43739
G1 X95.512 Y98.557 E4.57364
G1 X95.187 Y98.882 E4.69244
G1 X94.802 Y98.547 E4.82458
G1 X95.117 Y98.233 E4.93991
G1 X94.802 Y97.828 E5.07275
G1 X94.458 Y98.172 E5.19886
G1 X94.226 Y97.685 E5.33872
G1 X94.606 Y97.304 E5.47809
G1 X94.151 Y97.040 E5.61448
G1 X94.629 Y96.562 E5.78969
G1 X94.635 Y95.837 E5.97760
G1 X95.289 Y95.182 E6.21744
G1 X96.125 Y95.066 E6.43598
G1 X96.570 Y94.621 E6.59917
G1 X96.956 Y94.955 E6.73133
G1 X97.310 Y94.600 E6.86118
G1 X97.581 Y95.049 E6.99699
G1 X97.914 Y94.716 E7.11895
G1 X98.109 Y95.240 E7.26385
G1 X98.437 Y94.913 E7.38378
G1 X98.899 Y95.170 E7.52086
G1 X98.572 Y95.497 E7.64078
G1 X98.971 Y95.817 E7.77339
G1 X99.297 Y95.492 E7.89280
G1 X99.655 Y95.853 E8.02462
G1 X99.301 Y96.207 E8.15430
G1 X99.547 Y96.680 E8.29249
G1 X99.926 Y96.301 E8.43130
G1 X100.111 Y96.836 E8.57784
G1 X99.687 Y97.260 E8.73321
G1 X100.177 Y97.489 E8.87344
G1 X99.623 Y98.043 E9.07658
G1 X99.816 Y98.570 E9.22189
G1 X99.190 Y99.196 E9.45129
G1 Z1.200 F7800.000
G1 E7.45129 F2400.00000
G92 E0
G1 X99.891 Y96.842 F7800.000
G1 E2.00000 F2400.00000
G1 X100.417 Y97.368 E2.19240 F600.000
G1 X100.405 Y98.074 E2.37514
G1 X99.948 Y97.617 E2.54233
G1 X99.803 Y98.191 E2.69550
G1 X100.234 Y98.622 E2.85313
G1 X99.934 Y99.040 E2.98637
G1 X99.536 Y98.642 E3.13202
G1 X99.162 Y98.987 E3.26360
G1 X99.557 Y99.382 E3.40834
G1 X99.080 Y99.624 E3.54668
G1 X98.691 Y99.235 E3.68901
G1 X98.499 Y99.760 E3.83389
G1 X98.110 Y99.372 E3.97600
G1 X97.785 Y99.765 E4.10805
G1 X97.382 Y99.362 E4.25567
G1 X96.891 Y99.590 E4.39562
G1 X96.423 Y99.122 E4.56685
G1 X95.403 Y98.821 E4.84205
G1 X94.750 Y98.168 E5.08101
G1 X94.782 Y97.481 E5.25887
G1 X94.339 Y97.037 E5.42119
G1 X94.828 Y96.809 E5.56106
G1 X94.434 Y96.415 E5.70522
G1 X94.664 Y95.925 E5.84503
G1 X95.037 Y96.299 E5.98163
G1 X95.339 Y95.882 E6.11474
G1 X94.988 Y95.532 E6.24312
G1 X95.359 Y95.184 E6.37465
G1 X95.716 Y95.541 E6.50521
G1 X96.165 Y95.271 E6.64072
G1 X95.811 Y94.917 E6.77049
G1 X96.343 Y94.730 E6.91638
G1 X96.695 Y95.083 E7.04540
G1 X96.978 Y94.648 E7.17978
G1 X97.348 Y95.017 E7.31499
G1 X97.796 Y94.747 E7.45043
G1 X98.225 Y95.176 E7.60734
G1 X99.190 Y95.422 E7.86494
G1 X99.880 Y96.112 E8.11744
M106 S255
G1 Z1.600 F7800.000
G1 E6.11744 F2400.00000
G92 E0
G1 X99.689 Y99.439 F7800.000
G1 E2.00000 F2400.00000
G1 X100.300 Y98.827 E2.23035 F600.000
G1 X100.149 Y98.239 E2.39221
G1 X100.674 Y97.714 E2.59006
G1 X100.198 Y97.450 E2.73501
G1 X100.616 Y97.032 E2.89234
G1 X100.428 Y96.480 E3.04760
G1 X100.054 Y96.854 E3.18822
G1 X99.803 Y96.366 E3.33451
G1 X100.153 Y96.016 E3.46641
G1 X99.792 Y95.636 E3.60579
G1 X99.467 Y95.961 E3.72816
G1 X99.060 Y95.629 E3.86822
G1 X99.392 Y95.297 E3.99332
G1 X98.917 Y95.032 E4.13816
G1 X98.586 Y95.363 E4.26299
G1 X98.376 Y94.833 E4.41487
G1 X98.043 Y95.167 E4.54056
G1 X97.749 Y94.721 E4.68278
G1 X97.399 Y95.071 E4.81455
G1 X96.991 Y94.739 E4.95463
G1 X96.562 Y95.168 E5.11631
G1 X95.676 Y95.315 E5.35554
G1 X95.007 Y95.983 E5.60728
G1 X95.001 Y96.729 E5.80593
G1 X94.532 Y97.198 E5.98274
G1 X94.990 Y97.479 E6.12600
G1 X94.616 Y97.854 E6.26698
G1 X94.860 Y98.350 E6.41420
G1 X95.198 Y98.012 E6.54141
G1 X95.523 Y98.426 E6.68175
G1 X95.216 Y98.733 E6.79747
G1 X95.607 Y99.082 E6.93703
G1 X95.926 Y98.763 E7.05742
G1 X96.386 Y99.042 E7.20085
G1 X96.063 Y99.365 E7.32252
G1 X96.570 Y99.599 E7.47102
G1 X96.900 Y99.268 E7.59558
G1 X97.124 Y99.784 E7.74534
G1 X97.475 Y99.433 E7.87759
G1 X97.756 Y99.892 E8.02093
G1 X98.136 Y99.512 E8.16413
G1 X98.500 Y99.888 E8.30349
G1 X98.975 Y99.413 E8.48247
G1 Z2.000 F7800.000
G1 E6.48247 F2400.00000
G92 E0
G1 X100.381 Y97.004 F7800.000
G1 E2.00000 F2400.00000
G1 X100.879 Y97.503 E2.18657 F600.000
G1 X100.444 Y97.803 E2.32649
G1 X100.872 Y98.231 E2.48662
G1 X100.305 Y98.399 E2.64315
G1 X100.711 Y98.805 E2.79528
G1 X100.422 Y99.252 E2.93604
G1 X100.040 Y98.869 E3.07923
G1 X99.661 Y99.226 E3.21693
G1 X100.045 Y99.609 E3.36056
G1 X99.552 Y99.851 E3.50603
G1 X99.175 Y99.475 E3.64682
G1 X98.962 Y99.997 E3.79606
G1 X98.581 Y99.616 E3.93877
G1 X98.251 Y100.021 E4.07714
G1 X97.855 Y99.625 E4.22546
G1 X97.347 Y99.852 E4.37279
G1 X96.892 Y99.397 E4.54318
G1 X95.850 Y99.091 E4.83074
G1 X95.150 Y98.390 E5.09308
G1 X95.148 Y97.653 E5.28819
G1 X94.713 Y97.219 E5.45082
G1 X94.804 Y96.574 E5.62314
G1 X95.193 Y96.963 E5.76857
G1 X95.403 Y96.438 E5.91819
G1 X95.036 Y96.071 E6.05586
G1 X95.365 Y95.665 E6.19424
G1 X95.710 Y96.009 E6.32310
G1 X96.091 Y95.656 E6.46084
G1 X95.740 Y95.305 E6.59229
G1 X96.202 Y95.032 E6.73442
G1 X96.547 Y95.377 E6.86352
G1 X96.743 Y94.837 E7.01545
G1 X97.090 Y95.184 E7.14540
G1 X97.390 Y94.749 E7.28531
G1 X97.757 Y95.116 E7.42252
G1 X98.215 Y94.839 E7.56430
G1 X98.642 Y95.266 E7.72404
G1 X99.633 Y95.522 E7.99515
G1 X100.338 Y96.226 E8.25895
G1 Z2.400 F7800.000
G1 E6.25895 F2400.00000
G92 E0
G1 X100.141 Y99.621 F7800.000
G1 E2.00000 F2400.00000
G1 X100.631 Y99.132 E2.18815 F600.000
G1 X100.615 Y98.394 E2.38852
G1 X101.093 Y97.916 E2.57199
G1 X100.656 Y97.598 E2.71855
G1 X101.054 Y97.201 E2.87122
G1 X100.508 Y96.993 E3.02988
G1 X100.867 Y96.634 E3.16779
G1 X100.592 Y96.155 E3.31779
G1 X100.252 Y96.494 E3.44829
G1 X99.913 Y96.079 E3.59380
G1 X100.231 Y95.762 E3.71576
G1 X99.826 Y95.413 E3.86094
G1 X99.501 Y95.738 E3.98577
G1 X99.020 Y95.465 E4.13593
G1 X99.348 Y95.136 E4.26204
G1 X98.804 Y94.927 E4.42042
G1 X98.467 Y95.264 E4.54994
G1 X98.164 Y94.812 E4.69751
G1 X97.813 Y95.164 E4.83245
G1 X97.399 Y94.824 E4.97793
G1 X96.982 Y95.241 E5.13799
G1 X96.071 Y95.398 E5.38894
G1 X95.399 Y96.070 E5.64704
G1 X95.352 Y96.871 E5.86503
G1 X94.890 Y97.333 E6.04233
G1 X95.333 Y97.644 E6.18932
G1 X94.966 Y98.011 E6.33034
G1 X95.199 Y98.532 E6.48528
G1 X95.534 Y98.196 E6.61405
G1 X95.856 Y98.628 E6.76035
G1 X95.547 Y98.938 E6.87915
G1 X95.936 Y99.302 E7.02400
G1 X96.258 Y98.981 E7.14741
G1 X96.720 Y99.273 E7.29582
G1 X96.396 Y99.597 E7.42013
G1 X96.907 Y99.839 E7.57383
G1 X97.240 Y99.506 E7.70169
G1 X97.480 Y100.021 E7.85580
G1 X97.829 Y99.672 E7.98981
G1 X98.131 Y100.124 E8.13744
G1 X98.501 Y99.754 E8.27955
G1 X98.894 Y100.115 E8.42445
G1 X99.340 Y99.668 E8.59605
G1 Z2.800 F7800.000
G1 E6.59605 F2400.00000
G92 E0
G1 X100.780 Y97.081 F7800.000
G1 E2.00000 F2400.00000
G1 X101.251 Y97.553 E2.16697 F600.000
G1 X100.863 Y97.860 E2.29095
G1 X101.263 Y98.260 E2.43255
G1 X101.130 Y98.822 E2.57722
G1 X100.755 Y98.448 E2.70991
G1 X100.537 Y98.925 E2.84140
G1 X100.898 Y99.286 E2.96926
G1 X100.568 Y99.652 E3.09258
G1 X100.226 Y99.309 E3.21387
G1 X99.813 Y99.592 E3.33917
G1 X100.170 Y99.949 E3.46552
G1 X99.663 Y100.138 E3.60085
G1 X99.303 Y99.777 E3.72861
G1 X99.062 Y100.232 E3.85749
G1 X98.699 Y99.869 E3.98620
G1 X98.353 Y100.218 E4.10936
G1 X97.949 Y99.814 E4.25242
G1 X97.610 Y100.171 E4.37561
G1 X97.064 Y99.625 E4.56898
G1 X96.342 Y99.598 E4.74998
G1 X95.736 Y98.992 E4.96452
G1 X95.530 Y98.091 E5.19596
G1 X95.077 Y97.638 E5.35646
G1 X95.482 Y97.347 E5.48125
G1 X95.087 Y96.952 E5.62115
G1 X95.259 Y96.428 E5.75916
G1 X95.630 Y96.799 E5.89055
G1 X95.874 Y96.348 E6.01904
G1 X95.517 Y95.991 E6.14556
G1 X95.851 Y95.630 E6.26880
G1 X96.189 Y95.968 E6.38835
G1 X96.570 Y95.654 E6.51207
G1 X96.226 Y95.310 E6.63373
G1 X96.678 Y95.066 E6.76223
G1 X97.021 Y95.409 E6.88388
G1 X97.204 Y94.897 E7.02015
G1 X97.559 Y95.252 E7.14586
G1 X97.841 Y94.839 E7.27117
G1 X98.217 Y95.215 E7.40435
G1 X98.649 Y94.950 E7.53100
G1 X99.076 Y95.378 E7.68231
G1 X100.055 Y95.661 E7.93755
G1 X100.656 Y96.263 E8.15067
G1 Z3.200 F7800.000
G1 E6.15067 F2400.00000
G92 E0
G1 X100.355 Y99.867 F7800.000
G1 E2.00000 F2400.00000
G1 X100.961 Y99.260 E2.23336 F600.000
G1 X100.982 Y98.484 E2.44473
G1 X101.429 Y98.037 E2.61658
G1 X101.018 Y97.692 E2.76254
G1 X101.389 Y97.321 E2.90523
G1 X100.875 Y97.079 E3.05978
G1 X101.211 Y96.743 E3.18917
G1 X100.939 Y96.260 E3.34011
G1 X100.606 Y96.593 E3.46802
G1 X100.264 Y96.179 E3.61409
G1 X100.577 Y95.867 E3.73431
G1 X100.171 Y95.517 E3.88013
G1 X99.848 Y95.839 E4.00420
G1 X99.365 Y95.567 E4.15519
G1 X99.692 Y95.240 E4.28116
G1 X99.139 Y95.037 E4.44142
G1 X98.808 Y95.369 E4.56911
G1 X98.501 Y94.920 E4.71708
G1 X98.150 Y95.270 E4.85198
G1 X97.738 Y94.927 E4.99802
G1 X97.332 Y95.333 E5.15427
G1 X96.421 Y95.488 E5.40564
G1 X95.778 Y96.132 E5.65329
G1 X95.695 Y96.969 E5.88238
G1 X95.227 Y97.437 E6.06254
G1 X95.461 Y97.959 E6.21818
G1 X95.201 Y98.219 E6.31824
G1 X95.690 Y98.487 E6.46976
G1 X95.307 Y98.869 E6.61693
G1 X95.575 Y99.357 E6.76839
G1 X95.956 Y98.976 E6.91498
G1 X96.331 Y99.357 E7.06040
G1 X95.952 Y99.735 E7.20590
G1 X96.396 Y100.047 E7.35350
G1 X96.787 Y99.656 E7.50409
G1 X97.324 Y99.874 E7.66190
G1 X96.922 Y100.277 E7.81684
G1 X97.552 Y100.403 E7.99170
G1 X97.964 Y99.991 E8.15012
G1 X98.392 Y100.318 E8.29686
G1 X98.765 Y99.945 E8.44017
G1 X99.162 Y100.304 E8.58577
G1 X99.564 Y99.902 E8.74078
G1 Z3.600 F7800.000
G1 E6.74078 F2400.00000
G92 E0
G1 X101.117 Y97.248 F7800.000
G1 E2.00000 F2400.00000
G1 X101.546 Y97.677 E2.15428 F600.000
G1 X101.171 Y98.008 E2.28143
G1 X101.551 Y98.388 E2.41816
G1 X101.407 Y98.951 E2.56568
G1 X101.048 Y98.591 E2.69484
G1 X100.817 Y99.066 E2.82902
G1 X101.160 Y99.409 E2.95265
G1 X100.820 Y99.775 E3.07963
G1 X100.498 Y99.453 E3.19530
G1 X100.093 Y99.754 E3.32358
G1 X100.429 Y100.090 E3.44452
G1 X99.927 Y100.294 E3.58234
G1 X99.578 Y99.945 E3.70764
G1 X99.310 Y100.382 E3.83810
G1 X98.946 Y100.019 E3.96874
G1 X98.688 Y100.467 E4.10014
G1 X98.340 Y100.119 E4.22526
G1 X98.116 Y100.600 E4.36028
G1 X97.696 Y100.181 E4.51108
G1 X97.362 Y100.552 E4.63815
G1 X96.817 Y100.008 E4.83395
G1 X96.101 Y99.998 E5.01598
G1 X95.446 Y99.342 E5.25169
G1 X95.500 Y98.691 E5.41780
G1 X95.063 Y98.254 E5.57504
G1 X95.486 Y97.971 E5.70443
G1 X95.137 Y97.622 E5.83007
G1 X95.653 Y97.432 E5.96984
G1 X95.327 Y97.105 E6.08721
G1 X95.563 Y96.636 E6.22080
G1 X95.896 Y96.969 E6.34055
G1 X96.173 Y96.540 E6.47038
G1 X95.807 Y96.173 E6.60218
G1 X96.135 Y95.796 E6.72938
G1 X96.477 Y96.138 E6.85252
G1 X96.851 Y95.806 E6.97963
G1 X96.499 Y95.454 E7.10599
G1 X96.950 Y95.199 E7.23762
G1 X97.300 Y95.549 E7.36364
G1 X97.486 Y95.029 E7.50400
G1 X97.838 Y95.381 E7.63028
G1 X98.121 Y94.958 E7.75965
G1 X98.497 Y95.335 E7.89517
G1 X98.923 Y95.054 E8.02468
G1 X99.360 Y95.492 E8.18208
G1 X100.303 Y95.728 E8.42910
G1 X101.006 Y96.431 E8.68178
G1 Z4.000 F7800.000
G1 E6.68178 F2400.00000
G92 E0
G1 X100.655 Y99.904 F7800.000
G1 E2.00000 F2400.00000
G1 X101.307 Y99.252 E2.24695 F600.000
G1 X101.259 Y98.556 E2.43393
G1 X101.694 Y98.122 E2.59848
G1 X101.287 Y97.784 E2.74003
G1 X101.642 Y97.430 E2.87430
G1 X101.126 Y97.201 E3.02538
G1 X101.459 Y96.868 E3.15149
G1 X101.190 Y96.393 E3.29776
G1 X100.865 Y96.718 E3.42094
G1 X100.525 Y96.314 E3.56241
G1 X100.833 Y96.006 E3.67905
G1 X100.438 Y95.657 E3.82027
G1 X100.117 Y95.978 E3.94204
G1 X99.640 Y95.711 E4.08844
G1 X99.969 Y95.382 E4.21310
G1 X99.430 Y95.177 E4.36759
G1 X99.091 Y95.516 E4.49613
G1 X98.808 Y95.056 E4.64101
G1 X98.446 Y95.417 E4.77785
G1 X98.057 Y95.062 E4.91895
G1 X97.618 Y95.501 E5.08553
G1 X96.770 Y95.605 E5.31434
G1 X96.148 Y96.227 E5.55006
G1 X95.411 Y97.708 F7800.000
G1 X94.971 Y98.148 E5.71682 F600.000
G1 X95.340 Y98.524 E5.85778
G1 X94.951 Y98.912 E6.00510
G1 X95.145 Y99.463 E6.16140
G1 X95.519 Y99.088 E6.30331
G1 X95.833 Y99.518 E6.44596
G1 X95.462 Y99.890 E6.58676
G1 X95.864 Y100.232 E6.72817
G1 X96.237 Y99.859 E6.86946
G1 X96.715 Y100.124 E7.01611
G1 X96.324 Y100.516 E7.16457
G1 X96.868 Y100.715 E7.31992
G1 X97.277 Y100.307 E7.47478
G1 X97.530 Y100.797 E7.62268
G1 X97.958 Y100.369 E7.78476
G1 X98.430 Y100.641 E7.93069
G1 X98.972 Y100.099 E8.13618
G1 X99.395 Y100.420 E8.27844
G1 X99.796 Y100.019 E8.43034
G1 Z4.400 F7800.000
G1 X101.527 Y99.735 F7800.000
G1 X101.196 Y99.403 E8.54964 F600.000
G1 X100.699 Y99.614 E8.68705
G1 X101.137 Y100.051 E8.84458
G1 X100.607 Y100.229 E8.98691
G1 X100.247 Y99.869 E9.11646
G1 X100.063 Y100.392 E9.25770
G1 X99.741 Y100.071 E9.37352
G1 X99.432 Y100.468 E9.50188
G1 X99.073 Y100.110 E9.63099
G1 X98.565 Y100.308 E9.77006
G1 X98.900 Y100.643 E9.89065
G1 X98.411 Y100.862 E10.02698
G1 X98.048 Y100.499 E10.15783
G1 X97.833 Y100.991 E10.29471
G1 X97.396 Y100.554 E10.45225
G1 X97.086 Y100.952 E10.58061
G1 X96.496 Y100.361 E10.79315
G1 X95.783 Y100.355 E10.97482
G1 X95.184 Y99.757 E11.19044
G1 X95.239 Y99.104 E11.35722
G1 X94.791 Y98.656 E11.51862
G1 X95.212 Y98.370 E11.64829
G1 X94.865 Y98.023 E11.77319
G1 X95.373 Y97.823 E11.91207
G1 X95.043 Y97.494 E12.03082
G1 X95.298 Y97.042 E12.16300
G1 X95.616 Y97.360 E12.27737
G1 X95.919 Y96.956 E12.40603
G1 X95.606 Y96.643 E12.51874
G1 X95.960 Y96.289 E12.64611
G1 X96.275 Y96.604 E12.75968
G1 X96.684 Y96.305 E12.88857
G1 X96.356 Y95.978 E13.00651
G1 X96.766 Y95.680 E13.13546
G1 X97.127 Y96.041 E13.26555
G1 X97.559 Y95.766 E13.39604
G1 X97.198 Y95.405 E13.52615
G1 X97.713 Y95.213 E13.66612
G1 X98.081 Y95.581 E13.79876
G1 X98.335 Y95.128 E13.93107
G1 X98.719 Y95.512 E14.06934
G1 X99.125 Y95.211 E14.19813
G1 X99.577 Y95.663 E14.36091
G1 X100.521 Y95.900 E14.60883
G1 X101.178 Y96.557 E14.84538
G1 X101.373 Y97.459 F7800.000
G1 X101.834 Y97.919 E15.01124 F600.000
G1 X101.942 Y98.734 E15.22062
G1 X101.448 Y98.241 E15.39848
G1 X101.324 Y98.824 E15.55034
G1 X101.815 Y99.315 E15.72726
G1 Z4.800 F7800.000
G1 X102.015 Y98.453 F7800.000
G1 X102.271 Y98.198 E15.82494 F600.000
G1 X102.076 Y97.642 E15.98388
G1 X101.642 Y98.076 E16.14959
G1 X101.428 Y97.540 E16.30544
G1 X101.782 Y97.187 E16.44052
G1 X101.470 Y96.749 E16.58576
G1 X101.153 Y97.065 E16.70666
G1 X100.809 Y96.660 E16.85036
G1 X101.130 Y96.339 E16.97303
G1 X100.752 Y95.966 E17.11626
G1 X100.418 Y96.301 E17.24394
G1 X99.963 Y96.006 E17.39041
G1 X100.304 Y95.664 E17.52095
G1 X99.791 Y95.427 E17.67355
G1 X99.446 Y95.773 E17.80563
G1 X99.192 Y95.277 E17.95617
G1 X98.807 Y95.662 E18.10336
G1 X98.452 Y95.267 E18.24680
G1 X97.988 Y95.730 E18.42391
G1 X97.272 Y95.697 E18.61767
G1 X96.972 Y95.997 E18.73210
G1 X96.084 Y96.426 F7800.000
G1 X95.379 Y97.130 E19.00119 F600.000
G1 X95.132 Y98.102 E19.27205
G1 X94.703 Y98.531 E19.43607
G1 X95.063 Y98.896 E19.57444
G1 X94.666 Y99.292 E19.72604
G1 X94.839 Y99.844 E19.88207
G1 X95.227 Y99.456 E20.03003
G1 X95.521 Y99.886 E20.17079
G1 X95.132 Y100.276 E20.31959
G1 X95.504 Y100.628 E20.45801
G1 X95.904 Y100.228 E20.61058
G1 X96.362 Y100.495 E20.75369
G1 X95.949 Y100.907 E20.91120
G1 X96.471 Y101.110 E21.06244
G1 X96.898 Y100.683 E21.22554
G1 X97.096 Y101.210 E21.37753
G1 X97.545 Y100.761 E21.54890
G1 X97.909 Y101.121 E21.68727
G1 X98.450 Y100.580 E21.89415
G1 X99.256 Y100.498 E22.11296
G1 X99.608 Y100.147 E22.24727
G1 X100.418 Y100.061 E22.46734
G1 X100.165 Y100.314 E22.56420
G1 X100.638 Y100.520 F7800.000
G1 X100.897 Y100.261 E22.66301 F600.000
G1 Z5.200 F7800.000
G1 E20.66301 F2400.00000
G92 E0
G1 X102.032 Y98.099 F7800.000
G1 E2.00000 F2400.00000
G1 X102.618 Y98.684 E2.21174 F600.000
G1 X102.076 Y98.853 E2.35680
G1 X102.568 Y99.345 E2.53490
G1 X102.372 Y99.859 E2.67553
G1 X101.908 Y99.395 E2.84314
G1 X101.616 Y99.813 E2.97354
G1 X102.052 Y100.249 E3.13139
G1 X101.657 Y100.564 E3.26065
G1 X101.212 Y100.119 E3.42160
G1 X100.675 Y100.293 E3.56577
G1 X101.136 Y100.753 E3.73225
G1 X100.459 Y100.787 E3.90549
G1 X99.963 Y100.291 E4.08491
G1 X99.466 Y100.504 E4.22317
G1 X99.140 Y100.178 E4.34115
G1 X98.681 Y100.429 E4.47497
G1 X99.002 Y100.750 E4.59092
G1 X98.596 Y101.054 E4.72063
G1 X98.258 Y100.716 E4.84297
G1 X97.748 Y100.916 E4.98308
G1 X98.116 Y101.284 E5.11620
G1 X97.547 Y101.426 E5.26615
G1 X97.104 Y100.982 E5.42640
G1 X96.810 Y101.399 E5.55671
G1 X96.216 Y100.805 E5.77137
G1 X95.473 Y100.772 E5.96158
G1 X94.887 Y100.186 E6.17365
G1 X94.959 Y99.547 E6.33797
G1 X94.505 Y99.093 E6.50213
G1 X94.928 Y98.806 E6.63289
G1 X94.574 Y98.452 E6.76105
G1 X95.081 Y98.249 E6.90076
G1 X94.751 Y97.919 E7.02017
G1 X94.993 Y97.451 E7.15491
G1 X95.316 Y97.774 E7.27184
G1 X95.616 Y97.364 E7.40183
G1 X95.305 Y97.053 E7.51423
G1 X95.660 Y96.698 E7.64265
G1 X95.969 Y97.007 E7.75445
G1 X96.375 Y96.702 E7.88416
G1 X96.049 Y96.376 E8.00207
G1 X96.501 Y96.118 E8.13520
G1 X96.840 Y96.458 E8.25798
G1 X97.019 Y95.926 E8.40133
G1 X97.388 Y96.296 E8.53484
G1 X97.894 Y96.091 E8.67438
G1 X97.489 Y95.686 E8.82106
G1 X98.007 Y95.494 E8.96236
G1 X98.408 Y95.895 E9.10768
G1 X98.626 Y95.403 E9.24536
G1 X99.058 Y95.835 E9.40159
G1 X99.442 Y95.508 E9.53043
G1 X99.973 Y96.039 E9.72250
G1 X101.452 Y96.808 F7800.000
G1 X102.151 Y97.508 E9.97558 F600.000
G1 Z5.600 F7800.000
G1 E7.97558 F2400.00000
G92 E0
G1 X101.326 Y100.479 F7800.000
G1 E2.00000 F2400.00000
G1 X100.814 Y100.991 E2.18459 F600.000
G1 X100.539 Y100.558 E2.31519
G1 X100.141 Y100.956 E2.45867
G1 X99.936 Y100.453 E2.59701
G1 X99.569 Y100.821 E2.72953
G1 X99.393 Y100.289 E2.87225
G1 X99.039 Y100.643 E2.99971
G1 X97.843 Y101.131 F7800.000
G1 X97.346 Y101.629 E3.17902 F600.000
G1 X97.066 Y101.202 E3.30921
G1 X96.633 Y101.635 E3.46516
G1 X96.046 Y101.514 E3.61773
G1 X96.469 Y101.091 E3.76999
G1 X95.967 Y100.885 E3.90814
G1 X95.559 Y101.293 E4.05528
G1 X95.140 Y101.005 E4.18490
G1 X95.537 Y100.608 E4.32794
G1 X95.178 Y100.259 E4.45542
G1 X94.786 Y100.651 E4.59663
G1 X94.513 Y100.217 E4.72737
G1 X94.905 Y99.825 E4.86874
G1 X94.367 Y99.656 E5.01260
G1 X94.766 Y99.257 E5.15646
G1 X94.420 Y98.895 E5.28396
G1 X94.870 Y98.445 E5.44628
G1 X95.161 Y97.446 E5.71134
G1 X95.793 Y96.814 E5.93887
G1 X96.765 Y96.550 E6.19565
G1 X97.247 Y96.067 E6.36937
G1 X97.584 Y96.439 E6.49700
G1 X98.329 Y95.694 E6.76545
G1 X98.635 Y96.095 E6.89407
G1 X99.124 Y95.606 E7.07043
G1 X99.731 Y95.706 E7.22714
G1 X99.321 Y96.117 E7.37496
G1 X99.879 Y96.266 E7.52226
G1 X100.242 Y95.903 E7.65280
G1 X100.712 Y96.140 E7.78707
G1 X100.386 Y96.467 E7.90486
G1 X100.857 Y96.703 E8.03920
G1 X101.189 Y96.371 E8.15887
G1 X101.645 Y96.622 E8.29157
G1 X101.308 Y96.960 E8.41316
G1 X101.695 Y97.280 E8.54120
G1 X102.039 Y96.936 E8.66504
G1 X102.393 Y97.290 E8.79251
G1 X102.026 Y97.657 E8.92469
G1 X102.271 Y98.119 E9.05804
G1 X102.659 Y97.731 E9.19779
G1 X102.844 Y98.254 E9.33905
G1 X102.400 Y98.697 E9.49877
G1 X102.893 Y98.912 E9.63567
G1 X102.313 Y99.492 E9.84468
G1 X102.477 Y100.036 E9.98932
G1 X101.914 Y100.599 E10.19223
G1 Z6.000 F7800.000
G1 E8.19223 F2400.00000
G92 E0
G1 X102.611 Y98.266 F7800.000
G1 E2.00000 F2400.00000
G1 X103.111 Y98.767 E2.18857 F600.000
G1 X103.114 Y99.510 E2.38663
G1 X102.655 Y99.051 E2.55957
G1 X102.500 Y99.636 E2.72095
G1 X102.944 Y100.080 E2.88820
G1 X102.631 Y100.507 E3.02938
G1 X102.216 Y100.093 E3.18556
G1 X101.819 Y100.436 E3.32546
G1 X102.232 Y100.849 E3.48127
G1 X101.710 Y101.067 E3.63206
G1 X101.308 Y100.665 E3.78361
G1 X101.057 Y101.154 E3.93008
G1 X100.655 Y100.752 E4.08154
G1 X100.254 Y101.091 E4.22153
G1 X99.798 Y100.635 E4.39347
G1 X98.864 Y100.442 E4.64767
G1 X99.160 Y100.737 E4.75908
G1 X98.804 Y101.121 E4.89870
G1 X98.479 Y100.796 E5.02121
G1 X98.054 Y101.112 E5.16224
G1 X98.387 Y101.445 E5.28790
G1 X97.908 Y101.706 E5.43335
G1 X97.541 Y101.339 E5.57171
G1 X97.328 Y101.866 E5.72331
G1 X96.893 Y101.431 E5.88758
G1 X96.564 Y101.842 E6.02796
G1 X95.992 Y101.271 E6.24334
G1 X95.192 Y101.211 E6.45720
G1 X94.673 Y100.692 E6.65281
G1 X94.657 Y99.936 E6.85443
G1 X94.220 Y99.499 E7.01918
G1 X94.645 Y99.183 E7.16022
G1 X94.297 Y98.835 E7.29134
G1 X94.818 Y98.616 E7.44199
G1 X94.490 Y98.288 E7.56580
G1 X94.758 Y97.816 E7.71052
G1 X95.075 Y98.133 E7.83016
G1 X95.393 Y97.711 E7.97105
G1 X95.083 Y97.401 E8.08785
G1 X95.453 Y97.031 E8.22736
G1 X95.764 Y97.342 E8.34452
G1 X96.185 Y97.022 E8.48535
G1 X95.855 Y96.693 E8.60972
G1 X96.337 Y96.434 E8.75548
G1 X96.688 Y96.785 E8.88780
G1 X96.900 Y96.257 E9.03954
G1 X97.287 Y96.644 E9.18542
G1 X97.598 Y96.214 E9.32674
G1 X98.076 Y96.693 E9.50703
G1 X98.608 Y96.484 E9.65931
G1 X98.127 Y96.004 E9.84051
G1 X98.734 Y95.870 E10.00602
G1 X99.220 Y96.356 E10.18948
G1 X99.534 Y95.930 E10.33061
G1 X99.987 Y96.384 E10.50164
G1 X100.503 Y96.159 E10.65151
G1 X100.946 Y96.601 E10.81840
G1 X101.925 Y96.840 E11.08702
G1 X102.557 Y97.473 E11.32545
G1 Z6.400 F7800.000
G1 E9.32545 F2400.00000
G92 E0
G1 X101.918 Y100.770 F7800.000
G1 E2.00000 F2400.00000
G1 X101.408 Y101.280 E2.18427 F600.000
G1 X101.072 Y100.906 E2.31260
G1 X100.677 Y101.301 E2.45560
G1 X100.418 Y100.850 E2.58840
G1 X100.062 Y101.207 E2.71721
G1 X99.515 Y101.044 E2.86292
G1 X99.856 Y100.703 E2.98611
G1 X99.350 Y100.500 E3.12549
G1 X99.015 Y100.835 E3.24654
G1 X97.569 Y101.572 F7800.000
G1 X97.048 Y102.092 E3.43464 F600.000
G1 X96.784 Y101.647 E3.56691
G1 X96.326 Y102.105 E3.73219
G1 X95.753 Y101.969 E3.88277
G1 X96.186 Y101.535 E4.03934
G1 X95.684 Y101.329 E4.17817
G1 X95.263 Y101.750 E4.33034
G1 X94.851 Y101.452 E4.46011
G1 X95.252 Y101.051 E4.60494
G1 X94.892 Y100.701 E4.73309
G1 X94.497 Y101.096 E4.87568
G1 X94.228 Y100.656 E5.00750
G1 X94.618 Y100.266 E5.14827
G1 X94.079 Y100.096 E5.29264
G1 X94.476 Y99.699 E5.43608
G1 X94.136 Y99.329 E5.56434
G1 X94.578 Y98.888 E5.72375
G1 X94.924 Y97.832 F7800.000
G1 X95.610 Y97.146 E5.97156 F600.000
G1 X96.536 Y96.929 E6.21456
G1 X97.033 Y96.432 E6.39420
G1 X97.347 Y96.828 E6.52321
G1 X97.767 Y96.408 E6.67505
G1 X98.211 Y96.673 E6.80722
G1 X98.621 Y96.263 E6.95521
G1 X99.015 Y96.578 E7.08415
G1 X99.486 Y96.108 E7.25411
G1 X99.838 Y96.465 E7.38226
G1 X100.206 Y96.097 E7.51525
G1 X100.492 Y96.520 E7.64575
G1 X100.831 Y96.181 E7.76832
G1 X101.051 Y96.670 E7.90542
G1 X101.382 Y96.339 E8.02505
G1 X101.859 Y96.572 E8.16053
G1 X101.535 Y96.896 E8.27737
G1 X101.955 Y97.185 E8.40764
G1 X102.275 Y96.865 E8.52324
G1 X102.632 Y97.218 E8.65139
G1 X102.311 Y97.539 E8.76751
G1 X102.599 Y97.960 E8.89786
G1 X102.943 Y97.616 E9.02199
G1 X103.183 Y98.085 E9.15661
G1 X102.810 Y98.459 E9.29153
G1 X103.345 Y98.633 E9.43531
G1 X102.918 Y99.060 E9.58977
G1 X103.411 Y99.276 E9.72741
G1 X102.810 Y99.877 E9.94448
G1 X103.029 Y100.367 E10.08171
G1 X102.532 Y100.865 E10.26145
G1 Z6.800 F7800.000
G1 X102.441 Y100.718 F7800.000
G1 X102.675 Y100.951 E10.34619 F600.000
G1 X102.386 Y101.376 E10.47810
G1 X101.957 Y100.947 E10.63426
G1 X101.764 Y101.467 E10.77683
G1 X101.346 Y101.049 E10.92851
G1 X101.025 Y101.441 E11.05870
G1 X100.618 Y101.034 E11.20667
G1 X100.115 Y101.244 E11.34672
G1 X99.653 Y100.783 E11.51424
G1 X99.063 Y100.906 E11.66925
G1 X98.755 Y100.598 E11.78098
G1 X98.433 Y100.989 E11.91113
G1 X98.754 Y101.311 E12.02795
G1 X98.397 Y101.667 E12.15750
G1 X98.071 Y101.341 E12.27590
G1 X97.642 Y101.624 E12.40814
G1 X97.988 Y101.971 E12.53411
G1 X97.510 Y102.206 E12.67101
G1 X97.122 Y101.818 E12.81181
G1 X96.943 Y102.352 E12.95651
G1 X96.460 Y101.870 E13.13183
G1 X96.215 Y102.338 E13.26754
G1 X95.550 Y101.672 E13.50919
G1 X94.972 Y101.808 E13.66169
G1 X94.337 Y101.173 E13.89222
G1 X94.412 Y100.535 E14.05722
G1 X93.924 Y100.047 E14.23449
G1 X94.335 Y99.745 E14.36552
G1 X93.977 Y99.387 E14.49556
G1 X94.151 Y98.847 E14.64113
G1 X94.479 Y99.175 E14.76015
G1 X94.710 Y98.693 E14.89749
G1 X94.389 Y98.372 E15.01411
G1 X94.680 Y97.949 E15.14586
G1 X95.002 Y98.271 E15.26288
G1 X95.344 Y97.900 E15.39255
G1 X95.034 Y97.590 E15.50512
G1 X95.407 Y97.250 E15.63482
G1 X95.737 Y97.580 E15.75452
G1 X96.185 Y97.315 E15.88826
G1 X95.836 Y96.966 E16.01487
G1 X96.331 Y96.748 E16.15381
G1 X96.705 Y97.122 E16.28974
G1 X96.909 Y96.612 E16.43079
G1 X97.344 Y97.048 E16.58909
G1 X97.659 Y96.649 E16.71952
G1 X98.296 Y97.286 E16.95067
G1 X98.756 Y97.033 E17.08559
G1 X98.367 Y96.643 E17.22705
G1 X98.835 Y96.399 E17.36284
G1 X99.206 Y96.769 E17.49743
G1 X99.386 Y96.236 E17.64200
G1 X99.742 Y96.592 E17.77136
G1 X100.021 Y96.158 E17.90397
G1 X100.388 Y96.525 E18.03749
G1 X100.815 Y96.238 E18.16949
G1 X101.247 Y96.670 E18.32644
G1 X102.263 Y96.974 E18.59895
G1 X102.904 Y97.614 E18.83172
G1 X103.088 Y98.511 F7800.000
G1 X103.635 Y99.059 E19.03070 F600.000
G1 X103.190 Y99.327 E19.16422
G1 X103.700 Y99.837 E19.34949
G1 Z7.200 F7800.000
G1 X103.590 Y99.906 F7800.000
G1 X104.020 Y99.476 E19.50427 F600.000
G1 X103.470 Y99.320 E19.64955
G1 X103.907 Y98.883 E19.80671
G1 X103.698 Y98.386 E19.94366
G1 X103.321 Y98.763 E20.07909
G1 X103.090 Y98.288 E20.21331
G1 X103.433 Y97.945 E20.33666
G1 X103.119 Y97.554 E20.46429
G1 X102.806 Y97.866 E20.57660
G1 X102.453 Y97.514 E20.70349
G1 X102.766 Y97.201 E20.81598
G1 X102.373 Y96.887 E20.94366
G1 X102.055 Y97.205 E21.05792
G1 X101.608 Y96.946 E21.18923
G1 X101.932 Y96.623 E21.30552
G1 X101.440 Y96.409 E21.44191
G1 X101.104 Y96.745 E21.56271
G1 X100.876 Y96.267 E21.69734
G1 X100.516 Y96.627 E21.82689
G1 X100.194 Y96.243 E21.95426
G1 X99.768 Y96.670 E22.10743
G1 X99.205 Y96.526 E22.25505
G1 X98.128 Y97.604 E22.64224
G1 X97.634 Y97.392 E22.77892
G1 X98.046 Y96.979 E22.92737
G1 X97.492 Y96.828 E23.07346
G1 X97.048 Y97.271 E23.23296
G1 X96.735 Y96.879 E23.36063
G1 X96.238 Y97.376 E23.53925
G1 X95.301 Y97.607 E23.78468
G1 X94.571 Y98.337 E24.04693
G1 X94.287 Y99.327 E24.30871
G1 X93.840 Y99.774 E24.46944
G1 X94.177 Y100.142 E24.59644
G1 X93.765 Y100.554 E24.74446
G1 X94.302 Y100.724 E24.88742
G1 X93.894 Y101.131 E25.03383
G1 X94.136 Y101.595 E25.16687
G1 X94.559 Y101.172 E25.31908
G1 X94.905 Y101.533 E25.44599
G1 X94.480 Y101.957 E25.59872
G1 X94.874 Y102.269 E25.72647
G1 X95.323 Y101.820 E25.88804
G1 X95.816 Y102.033 E26.02455
G1 X95.354 Y102.495 E26.19070
G1 X95.923 Y102.632 E26.33942
G1 X96.409 Y102.145 E26.51426
G1 X96.643 Y102.618 E26.64825
G1 X97.192 Y102.068 E26.84585
G1 E24.84585 F2400.00000
G92 E0
G1 X99.043 Y100.923 F7800.000
G1 E2.00000 F2400.00000
G1 X99.369 Y100.597 E2.11713 F600.000
G1 X99.843 Y100.829 E2.25126
G1 X99.515 Y101.158 E2.36932
G1 X100.027 Y101.352 E2.50850
G1 X100.361 Y101.017 E2.62876
G1 X100.574 Y101.510 E2.76531
G1 X100.929 Y101.155 E2.89318
G1 X101.169 Y101.621 E3.02641
G1 X101.561 Y101.230 E3.16708
G1 X101.825 Y101.671 E3.29792
G1 X102.313 Y101.183 E3.47353
G1 X102.869 Y101.333 E3.61992
G1 X102.618 Y101.584 E3.71020
G1 Z7.600 F7800.000
G1 X103.049 Y101.573 F7800.000
G1 X102.786 Y101.310 E3.81852 F600.000
G1 X102.208 Y101.438 E3.99134
G1 X102.674 Y101.904 E4.18338
G1 X101.946 Y101.882 E4.39581
G1 X101.485 Y101.421 E4.58616
G1 X101.057 Y101.699 E4.73516
G1 X100.598 Y101.240 E4.92461
G1 X99.949 Y101.298 E5.11455
G1 X99.376 Y100.725 E5.35124
G1 X98.955 Y101.010 E5.49962
G1 X98.632 Y100.686 E5.63321
G1 X98.372 Y101.132 E5.78393
G1 X98.692 Y101.453 E5.91611
G1 X98.387 Y101.853 E6.06316
G1 X98.061 Y101.528 E6.19742
G1 X97.702 Y101.875 E6.34317
G1 X98.036 Y102.209 E6.48078
G1 X97.634 Y102.513 E6.62786
G1 X97.281 Y102.160 E6.77358
G1 X96.777 Y102.362 E6.93211
G1 X97.174 Y102.760 E7.09617
G1 X96.613 Y102.904 E7.26541
G1 X96.140 Y102.432 E7.46049
G1 X95.905 Y102.903 E7.61414
G1 X95.239 Y102.236 E7.88922
G1 X94.649 Y102.353 E8.06465
G1 X94.021 Y101.724 E8.32412
G1 X94.105 Y101.102 E8.50733
G1 X93.606 Y100.603 E8.71307
G1 X94.013 Y100.305 E8.86050
G1 X93.656 Y99.947 E9.00800
G1 X94.150 Y99.735 E9.16495
G1 X93.813 Y99.398 E9.30421
G1 X94.039 Y98.918 E9.45912
G1 X94.360 Y99.239 E9.59187
G1 X94.636 Y98.809 E9.74106
G1 X94.319 Y98.492 E9.87183
G1 X94.654 Y98.121 E10.01774
G1 X94.963 Y98.430 E10.14515
G1 X95.339 Y98.100 E10.29118
G1 X95.014 Y97.775 E10.42519
G1 X95.427 Y97.481 E10.57294
G1 X95.768 Y97.822 E10.71380
G1 X96.261 Y97.610 E10.87061
G1 X95.894 Y97.243 E11.02214
G1 X96.447 Y97.089 E11.18954
G1 X96.853 Y97.496 E11.35729
G1 X97.112 Y97.048 E11.50811
G1 X97.665 Y97.602 E11.73649
G1 X98.217 Y97.447 E11.90372
G1 X98.430 Y97.660 E11.99151
G1 X98.513 Y97.121 F7800.000
G1 X98.889 Y97.498 E12.14681 F600.000
G1 X99.335 Y97.133 E12.31492
G1 X98.951 Y96.750 E12.47322
G1 X99.499 Y96.487 E12.65056
G1 X99.887 Y96.875 E12.81052
G1 X100.175 Y96.353 E12.98458
G1 X100.581 Y96.758 E13.15195
G1 X101.078 Y96.445 E13.32348
G1 X101.540 Y96.907 E13.51418
G1 X102.852 Y97.408 F7800.000
G1 X103.543 Y98.100 E13.79945 F600.000
G1 X103.746 Y99.113 F7800.000
G1 X104.317 Y99.684 E14.03535 F600.000
G1 Z8.000 F7800.000
G1 X104.421 Y100.277 F7800.000
G1 X104.701 Y99.997 E14.15678 F600.000
G1 X104.092 Y99.755 E14.35794
G1 X104.547 Y99.299 E14.55562
G1 X104.289 Y98.705 E14.75412
G1 X103.894 Y99.101 E14.92556
G1 X103.594 Y98.548 E15.11822
G1 X103.956 Y98.187 E15.27499
G1 X103.537 Y97.754 E15.45972
G1 X103.194 Y98.097 E15.60846
G1 X102.732 Y97.708 E15.79386
G1 X103.084 Y97.356 E15.94662
G1 X102.559 Y97.029 E16.13630
G1 X102.203 Y97.384 E16.29029
G1 X101.611 Y97.125 E16.48866
G1 X101.982 Y96.754 E16.64953
G1 X101.330 Y96.555 E16.85864
G1 X100.921 Y96.964 E17.03615
G1 X100.533 Y96.500 E17.22160
G1 X100.016 Y97.017 E17.44613
G1 X99.169 Y97.012 E17.70582
G1 X98.505 Y97.676 E17.99368
G1 X97.764 Y97.420 F7800.000
G1 X97.347 Y97.836 E18.17445 F600.000
G1 X97.198 Y97.277 E18.35185
G1 X96.761 Y97.714 E18.54117
G1 X96.450 Y97.318 E18.69580
G1 X95.949 Y97.818 E18.91287
G1 X95.001 Y98.059 E19.21311
G1 X94.290 Y98.769 E19.52116
G1 X94.001 Y99.767 E19.83973
G1 X93.540 Y100.228 E20.03979
G1 X93.855 Y100.621 E20.19423
G1 X93.444 Y101.032 E20.37257
G1 X93.964 Y101.220 E20.54214
G1 X93.553 Y101.630 E20.72018
G1 X93.788 Y102.103 E20.88214
G1 X94.211 Y101.680 E21.06560
G1 X94.547 Y102.052 E21.21932
G1 X94.127 Y102.473 E21.40187
G1 X94.521 Y102.787 E21.55638
G1 X94.957 Y102.350 E21.74572
G1 X95.441 Y102.574 E21.90925
G1 X94.981 Y103.034 E22.10885
G1 X95.534 Y103.189 E22.28513
G1 X96.020 Y102.703 E22.49586
G1 X96.235 Y103.196 E22.66083
G1 X96.774 Y102.657 E22.89461
G1 X97.541 Y102.598 F7800.000
G1 X98.232 Y101.907 E23.19418 F600.000
G1 X99.074 Y100.470 F7800.000
G1 X98.836 Y100.708 E23.29725 F600.000
G1 X99.290 Y101.055 E23.47246
G1 X99.615 Y100.731 E23.61331
G1 X100.114 Y101.033 E23.79216
G1 X99.786 Y101.360 E23.93407
G1 X100.321 Y101.626 E24.11729
G1 X100.661 Y101.286 E24.26482
G1 X100.903 Y101.845 E24.45162
G1 X101.258 Y101.489 E24.60564
G1 X101.520 Y102.029 E24.78944
G1 X101.914 Y101.635 E24.96029
G1 X102.205 Y102.144 E25.14030
G1 X102.670 Y101.679 E25.34191
G1 X103.258 Y101.892 E25.53372
G1 X103.006 Y102.145 E25.64332
G1 X104.035 Y101.761 F7800.000
G1 X104.332 Y101.464 E25.77221 F600.000
G1 X104.502 Y101.294 F7800.000
G1 X104.110 Y101.686 E25.94239 F600.000
G1 Z8.400 F7800.000
G1 X103.975 Y102.490 F7800.000
G1 X103.726 Y102.241 E26.05056 F600.000
G1 X103.912 Y101.626 E26.24874
G1 X104.627 Y102.341 E26.56053
G1 X105.020 Y101.933 E26.73512
G1 X104.298 Y101.211 E27.04989
G1 X104.911 Y101.022 E27.24744
G1 X105.166 Y101.278 E27.35863
G1 X105.015 Y100.233 F7800.000
G1 X104.367 Y99.585 E27.64099 F600.000
G1 X104.179 Y98.541 F7800.000
G1 X103.342 Y97.704 E28.00592 F600.000
G1 X102.102 Y97.320 E28.40580
G1 X101.584 Y96.802 E28.63150
G1 X101.073 Y97.147 E28.82148
G1 X100.598 Y96.671 E29.02877
G1 X100.335 Y97.265 E29.22872
G1 X99.867 Y96.796 E29.43280
G1 X99.288 Y97.073 E29.63055
G1 X99.759 Y97.544 E29.83559
G1 X99.307 Y97.948 E30.02238
G1 X98.837 Y97.478 E30.22715
G1 X98.479 Y97.976 E30.41611
G1 X98.819 Y98.315 E30.56425
G1 X98.549 Y98.558 F7800.000
G1 X98.838 Y98.846 E30.69015 F600.000
G1 X98.134 Y98.167 F7800.000
G1 X97.828 Y97.861 E30.82348 F600.000
G1 X97.267 Y98.013 E31.00265
G1 X96.746 Y97.492 E31.22970
G1 X96.486 Y97.944 E31.39058
G1 X96.078 Y97.537 E31.56830
G1 X95.541 Y97.712 E31.74252
G1 X95.904 Y98.076 E31.90103
G1 X95.416 Y98.300 E32.06662
G1 X95.072 Y97.956 E32.21664
G1 X94.676 Y98.273 E32.37291
G1 X95.000 Y98.597 E32.51399
G1 X94.639 Y98.948 E32.66934
G1 X94.320 Y98.630 E32.80817
G1 X94.001 Y99.023 E32.96435
G1 X94.319 Y99.341 E33.10302
G1 X94.045 Y99.780 E33.26247
G1 X93.722 Y99.457 E33.40339
G1 X93.491 Y99.939 E33.56801
G1 X93.832 Y100.280 E33.71665
G1 X93.332 Y100.493 E33.88409
G1 X93.705 Y100.865 E34.04654
G1 X93.285 Y101.159 E34.20428
G1 X93.792 Y101.666 E34.42528
G1 X93.674 Y102.260 E34.61209
G1 X93.992 Y102.578 E34.75065
G1 X94.120 Y102.710 F7800.000
G1 X94.426 Y103.016 E34.88384 F600.000
G1 X94.903 Y102.789 E35.04672
G1 X95.618 Y103.504 E35.35823
G1 X95.813 Y102.995 E35.52617
G1 X96.301 Y103.483 E35.73883
G1 X96.847 Y103.325 E35.91407
G1 X96.450 Y102.928 E36.08715
G1 X96.952 Y102.726 E36.25387
G1 X97.306 Y103.080 E36.40806
G1 X97.696 Y102.766 E36.56237
G1 X97.373 Y102.443 E36.70284
G1 X97.730 Y102.096 E36.85627
G1 X98.048 Y102.414 E36.99476
G1 X98.354 Y102.016 E37.14944
G1 X98.035 Y101.697 E37.28850
G1 X98.289 Y101.247 E37.44782
G1 X98.612 Y101.570 E37.58884
G1 X98.822 Y101.076 E37.75434
G1 X98.484 Y100.738 E37.90149
G1 X98.761 Y100.311 E38.05841
G1 X99.000 Y100.550 E38.16266
G1 X99.027 Y100.549 F7800.000
G1 X98.771 Y100.293 E38.27428 F600.000
G1 X98.949 Y100.462 F7800.000
G1 X99.479 Y100.992 E38.50528 F600.000
G1 X100.879 Y101.549 F7800.000
G1 X101.423 Y102.093 E38.74243 F600.000
G1 X102.042 Y101.870 E38.94529
G1 X102.570 Y102.398 E39.17554
G1 X102.932 Y101.918 E39.36095
G1 X103.212 Y102.197 E39.48289
G1 Z8.800 F7800.000
G1 X103.886 Y102.260 F7800.000
G1 X103.659 Y102.487 E39.64707 F600.000
G1 X104.034 Y103.069 E40.00231
G1 X105.738 Y101.366 E41.23728
G1 X105.604 Y102.457 E41.80112
G1 X105.132 Y102.929 E42.14321
G1 X104.925 Y101.221 F7800.000
G1 X105.183 Y100.963 E42.33006 F600.000
G1 X105.028 Y100.520 F7800.000
G1 X105.468 Y100.080 E42.64884 F600.000
G1 X104.990 Y99.135 E43.19220
G1 X104.446 Y99.678 E43.58660
G1 X103.900 Y98.801 E44.11654
G1 X104.398 Y98.303 E44.47782
G1 X103.660 Y97.617 E44.99433
G1 X103.159 Y98.118 E45.35782
G1 X102.216 Y97.637 E45.90045
G1 X102.740 Y97.114 E46.28010
G1 X101.610 Y96.819 E46.87843
G1 X101.011 Y97.418 E47.31270
G1 X99.701 Y97.305 E47.98725
G1 X98.963 Y98.043 E48.52234
G1 X98.706 Y99.219 F7800.000
G1 X98.256 Y99.669 E48.84865 F600.000
G1 X98.057 Y99.140 F7800.000
G1 X98.420 Y98.777 E49.11179 F600.000
G1 X97.888 Y98.002 E49.59380
G1 X97.382 Y98.508 E49.96084
G1 X96.921 Y97.662 E50.45473
G1 X96.379 Y98.204 E50.84758
G1 X94.858 Y98.418 E51.63488
G1 X93.984 Y99.292 E52.26900
G1 X93.584 Y100.999 F7800.000
G1 X93.076 Y101.507 E52.63755 F600.000
G1 X93.847 Y102.043 E53.11907
G1 X93.296 Y102.594 E53.51907
G1 E51.51907 F2400.00000
G92 E0
G1 X95.882 Y103.763 F7800.000
G1 E2.00000 F2400.00000
G1 X96.416 Y103.230 E2.38701 F600.000
G1 X97.215 Y103.162 F7800.000
G1 X97.890 Y102.486 E2.87680 F600.000
G1 X98.278 Y101.368 F7800.000
G1 X98.738 Y100.908 E3.21066 F600.000
G1 X98.459 Y100.456 E3.48281
G1 X98.690 Y100.225 E3.65078
G1 X98.816 Y100.135 F7800.000
G1 X99.282 Y99.668 E3.98927 F600.000
G1 X98.988 Y100.633 F7800.000
G1 X99.304 Y100.317 E4.21842 F600.000
G1 X99.862 Y100.774 E4.58836
G1 X99.473 Y101.163 E4.87050
G1 X100.024 Y101.628 E5.23995
G1 X100.425 Y101.227 E5.53052
G1 X101.072 Y101.595 E5.91236
G1 X100.662 Y102.005 E6.21011
G1 X101.362 Y102.320 E6.60395
G1 X101.794 Y101.888 E6.91701
G1 X102.114 Y102.584 E7.30950
G1 X102.588 Y102.109 E7.65352
G1 X103.220 Y102.493 E8.03238
G1 X102.892 Y102.822 E8.27033
G1 Z9.200 F7800.000
G1 X102.950 Y103.008 F7800.000
G1 X102.297 Y102.355 E8.51917 F600.000
G1 X101.616 Y102.400 E8.70310
G1 X101.033 Y101.817 E8.92530
G1 E6.92530 F2400.00000
G92 E0
G1 X99.519 Y100.303 F7800.000
G1 E2.00000 F2400.00000
G1 X98.671 Y99.455 E2.32331 F600.000
G1 X99.403 Y99.461 E2.52050
G1 X98.890 Y98.949 E2.71567
G1 X99.052 Y98.384 E2.87395
G1 X99.537 Y98.869 E3.05900
G1 X99.798 Y98.404 E3.20271
G1 X99.332 Y97.939 E3.38008
G1 X99.704 Y97.585 E3.51845
G1 X100.153 Y98.034 E3.68951
G1 X100.598 Y97.753 E3.83135
G1 X100.153 Y97.308 E4.00090
G1 X100.709 Y97.138 E4.15756
G1 X101.145 Y97.574 E4.32354
G1 X101.388 Y97.091 E4.46915
G1 X101.828 Y97.531 E4.63665
G1 X102.268 Y97.246 E4.77811
G1 X102.732 Y97.710 E4.95496
G1 X103.795 Y98.047 F7800.000
G1 X104.621 Y98.872 E5.26956 F600.000
G1 X105.131 Y100.108 F7800.000
G1 X105.775 Y100.753 E5.51516 F600.000
G1 X106.268 Y101.769 F7800.000
G1 X106.007 Y101.508 E5.61478 F600.000
G1 X105.489 Y101.739 E5.76756
G1 X106.362 Y102.612 E6.10040
G1 X106.167 Y103.165 E6.25850
G1 X105.313 Y102.311 E6.58397
G1 X104.930 Y102.676 E6.72666
G1 X105.777 Y103.523 E7.04963
G1 X105.199 Y103.694 E7.21202
G1 X104.332 Y102.827 E7.54244
G1 X104.081 Y103.324 E7.69264
G1 X104.345 Y103.588 E7.79296
G1 E5.79296 F2400.00000
G92 E0
G1 X98.715 Y100.225 F7800.000
G1 E2.00000 F2400.00000
G1 X98.207 Y99.717 E2.19366 F600.000
G1 X98.375 Y99.159 E2.35079
G1 X97.479 Y98.263 E2.69208
G1 X96.984 Y98.494 E2.83931
G1 X96.421 Y97.931 E3.05392
G1 X96.205 Y98.441 E3.20314
G1 X95.773 Y98.009 E3.36784
G1 X95.249 Y98.210 E3.51923
G1 X95.626 Y98.587 E3.66296
G1 X95.139 Y98.827 E3.80906
G1 X94.794 Y98.481 E3.94072
G1 X94.385 Y98.798 E4.08017
G1 X94.710 Y99.123 E4.20421
G1 X94.338 Y99.477 E4.34259
G1 X94.022 Y99.161 E4.46310
G1 X93.692 Y99.557 E4.60199
G1 X94.010 Y99.874 E4.72309
G1 X93.729 Y100.320 E4.86494
G1 X93.412 Y100.003 E4.98578
G1 X93.177 Y100.493 E5.13239
G1 X93.510 Y100.826 E5.25940
G1 X93.013 Y101.055 E5.40683
G1 X93.383 Y101.425 E5.54765
G1 X92.938 Y101.706 E5.68942
G1 X93.429 Y102.197 E5.87665
G1 X93.067 Y102.560 E6.01498
G1 X93.324 Y102.818 E6.11319
G1 E4.11319 F2400.00000
G92 E0
G1 X96.207 Y103.523 F7800.000
G1 E2.00000 F2400.00000
G1 X96.623 Y103.939 E2.15881 F600.000
G1 X97.044 Y103.634 E2.29887
G1 X96.675 Y103.266 E2.43937
G1 X97.101 Y102.965 E2.57975
G1 X97.433 Y103.297 E2.70625
G1 X97.781 Y102.919 E2.84469
G1 X97.460 Y102.598 E2.96704
G1 X97.765 Y102.178 E3.10711
G1 X98.085 Y102.498 E3.22925
G1 X98.343 Y102.030 E3.37325
G1 X98.014 Y101.702 E3.49846
G1 X98.545 Y101.506 E3.65081
G1 X98.201 Y101.162 E3.78207
G1 X98.678 Y100.914 E3.92718
G1 X98.296 Y100.532 E4.07280
G1 Z9.600 F7800.000
G1 X97.918 Y102.034 F7800.000
G1 X98.387 Y101.565 E4.24404 F600.000
G1 X98.130 Y101.106 E4.37964
G1 X98.541 Y100.695 E4.52942
G1 X98.097 Y100.423 E4.66365
G1 X98.506 Y100.014 E4.81270
G1 X98.343 Y99.462 E4.96129
G1 X97.924 Y99.880 E5.11395
G1 X97.645 Y99.443 E5.24760
G1 X98.072 Y99.017 E5.40321
G1 X97.714 Y98.659 E5.53372
G1 X97.275 Y99.098 E5.69395
G1 X96.815 Y98.841 E5.82958
G1 X97.275 Y98.381 E5.99731
G1 X96.716 Y98.225 E6.14700
G1 X96.232 Y98.709 E6.32367
G1 X95.966 Y98.259 E6.45844
G1 X95.410 Y98.815 E6.66112
G1 X94.503 Y99.006 E6.90014
G1 X93.743 Y99.766 E7.17729
G1 X93.361 Y100.864 F7800.000
G1 X92.902 Y101.323 E7.34449 F600.000
G1 X93.182 Y101.759 E7.47807
G1 X92.749 Y102.192 E7.63591
G1 X93.242 Y102.415 E7.77538
G1 X92.791 Y102.865 E7.93957
G1 E5.93957 F2400.00000
G92 E0
G1 X96.560 Y104.108 F7800.000
G1 E2.00000 F2400.00000
G1 X97.400 Y103.268 E2.30611 F600.000
G1 E0.30611 F2400.00000
G92 E0
G1 X99.562 Y98.674 F7800.000
G1 E2.00000 F2400.00000
G1 X99.282 Y98.953 E2.12401 F600.000
G1 X99.726 Y99.347 E2.31015
G1 X99.184 Y99.889 E2.55090
G1 X99.360 Y100.550 E2.76572
G1 X99.780 Y100.130 E2.95248
G1 X100.027 Y100.720 E3.15328
G1 X99.655 Y101.092 E3.31847
G1 X100.053 Y101.531 E3.50451
G1 X100.393 Y101.191 E3.65540
G1 X100.843 Y101.578 E3.84174
G1 X100.495 Y101.926 E3.99593
G1 X100.997 Y102.261 E4.18539
G1 X101.346 Y101.912 E4.34014
G1 X101.881 Y102.215 E4.53296
G1 X101.519 Y102.576 E4.69336
G1 X102.052 Y102.881 E4.88594
G1 X102.432 Y102.501 E5.05448
G1 X102.990 Y102.780 E5.25042
G1 X102.580 Y103.190 E5.43271
G1 X103.104 Y103.502 E5.62442
G1 X103.558 Y103.049 E5.82560
G1 X103.934 Y103.510 E6.01236
G1 X103.648 Y103.796 E6.13920
G1 X104.745 Y103.700 F7800.000
G1 X104.991 Y103.454 E6.24830 F600.000
G1 X105.033 Y104.195 F7800.000
G1 X106.860 Y102.369 E7.05924 F600.000
G1 X106.614 Y103.398 E7.39154
G1 X106.101 Y103.912 E7.61938
G1 E5.61938 F2400.00000
G92 E0
G1 X106.194 Y101.373 F7800.000
G1 E2.00000 F2400.00000
G1 X106.497 Y101.071 E2.13436 F600.000
G1 X106.200 Y100.496 E2.33745
G1 X105.738 Y100.958 E2.54252
G1 X105.437 Y100.387 E2.74504
G1 X105.859 Y99.965 E2.93222
G1 X105.479 Y99.474 E3.12729
G1 X105.086 Y99.866 E3.30146
G1 X104.697 Y99.383 E3.49604
G1 X105.057 Y99.023 E3.65577
G1 X104.621 Y98.588 E3.84924
G1 X104.270 Y98.939 E4.00513
G1 X103.801 Y98.537 E4.19919
G1 X104.161 Y98.176 E4.35921
G1 X103.642 Y97.823 E4.55615
G1 X103.272 Y98.194 E4.72052
G1 X102.670 Y97.924 E4.92752
G1 X103.060 Y97.534 E5.10065
G1 X102.393 Y97.329 E5.31974
G1 X101.956 Y97.766 E5.51358
G1 X101.576 Y97.275 E5.70860
G1 X101.000 Y97.851 E5.96439
G1 X100.201 Y97.779 E6.21626
G1 X99.786 Y98.194 E6.40051
G1 Z10.000 F7800.000
G1 E4.40051 F2400.00000
G92 E0
G1 X97.920 Y99.514 F7800.000
G1 E2.00000 F2400.00000
G1 X97.316 Y98.910 E2.22330 F684.775
G1 X96.764 Y99.085 E2.37457
G1 X96.165 Y98.485 E2.59614
G1 X95.948 Y98.995 E2.74085
G1 X95.511 Y98.558 E2.90239
G1 X94.974 Y98.747 E3.05128
G1 X95.355 Y99.128 E3.19218
G1 X94.861 Y99.360 E3.33494
G1 X94.508 Y99.006 E3.46559
G1 X94.102 Y99.326 E3.60079
G1 X94.430 Y99.655 E3.72226
G1 X94.049 Y100.000 E3.85669
G1 X93.739 Y99.689 E3.97141
G1 X93.392 Y100.069 E4.10581
G1 X93.716 Y100.393 E4.22568
G1 X93.433 Y100.836 E4.36319
G1 X93.115 Y100.518 E4.48080
G1 X92.879 Y101.008 E4.62303
G1 X93.209 Y101.338 E4.74499
G1 X92.694 Y101.549 E4.89059
G1 X93.046 Y101.901 E5.02080
G1 X92.576 Y102.157 E5.16080
G1 X92.985 Y102.566 E5.31227
G1 X92.566 Y102.873 E5.44814
G1 X93.261 Y103.569 E5.70535
G1 X93.055 Y104.088 E5.85157
G1 X93.735 Y104.769 E6.10315
G1 X93.988 Y104.295 E6.24346
G1 X94.899 Y105.207 E6.58042
G1 X95.544 Y105.126 E6.75043
G1 X94.979 Y104.560 E6.95960
G1 X95.604 Y104.459 E7.12529
G1 X96.049 Y104.905 E7.28991
G1 X96.476 Y104.605 E7.42623
G1 X96.092 Y104.221 E7.56829
G1 X96.503 Y103.906 E7.70373
G1 X96.844 Y104.247 E7.82968
G1 X97.193 Y103.870 E7.96404
G1 X96.864 Y103.541 E8.08575
G1 X97.186 Y103.137 E8.22088
G1 X97.510 Y103.461 E8.34089
G1 X97.795 Y103.019 E8.47828
G1 X97.472 Y102.697 E8.59759
G1 X97.715 Y102.213 E8.73902
G1 X98.045 Y102.544 E8.86114
G1 X98.236 Y102.009 E9.00969
G1 X97.907 Y101.680 E9.13136
G1 X98.363 Y101.410 E9.26997
G1 X97.977 Y101.024 E9.41279
G1 X98.373 Y100.693 E9.54760
G1 X97.852 Y100.172 E9.74028
G1 E7.74028 F2400.00000
G92 E0
G1 X100.796 Y101.925 F7800.000
G1 E2.00000 F2400.00000
G1 X100.061 Y101.190 E2.26254 F684.775
G1 X100.057 Y100.484 E2.44070
G1 X99.500 Y99.927 E2.63969
G1 X100.022 Y99.748 E2.77916
G1 X99.520 Y99.245 E2.95877
G1 X99.691 Y98.716 E3.09940
G1 X100.178 Y99.202 E3.27322
G1 X100.442 Y98.765 E3.40225
G1 X99.975 Y98.298 E3.56904
G1 X100.330 Y97.952 E3.69432
G1 X100.795 Y98.416 E3.86021
G1 X101.233 Y98.154 E3.98936
G1 X100.778 Y97.698 E4.15194
G1 X101.322 Y97.541 E4.29492
G1 X101.773 Y97.992 E4.45616
G1 X101.991 Y97.509 E4.59010
G1 X102.462 Y97.979 E4.75817
G1 X102.896 Y97.712 E4.88692
G1 X103.463 Y98.280 E5.08971
G1 X104.961 Y99.076 F7800.000
G1 X105.926 Y100.041 E5.43435 F684.775
G1 X106.247 Y101.063 F7800.000
G1 X107.027 Y101.843 E5.71282 F684.775
G1 X106.612 Y102.129 E5.84017
G1 X107.296 Y102.814 E6.08468
G1 X107.274 Y103.493 E6.25630
G1 X106.606 Y102.825 E6.49495
G1 X106.403 Y103.323 E6.63086
G1 X107.081 Y104.001 E6.87300
G1 X106.731 Y104.353 E6.99827
G1 X106.058 Y103.680 E7.23882
G1 X105.584 Y103.907 E7.37166
G1 X106.236 Y104.559 E7.60484
G1 X105.599 Y104.624 E7.76662
G1 X104.945 Y103.970 E8.00021
G1 X104.759 Y104.485 E8.13855
G1 X104.005 Y103.730 E8.40793
G1 X103.294 Y103.721 E8.58741
G1 X102.315 Y102.742 E8.93712
G1 E6.93712 F2400.00000
G92 E0
M107
M104 S0 ; turn off temperature
G28 X0  ; home X axis
M84     ; disable motors

; filament used = 222.8mm (0.2cm3)

; avoid_crossing_perimeters = 0
; bed_shape = 0x0,200x0,200x200,0x200
; bed_temperature = 0
; before_layer_gcode = 
; bridge_acceleration = 0
; bridge_fan_speed = 100
; brim_width = 0
; complete_objects = 0
; cooling = 1
; default_acceleration = 0
; disable_fan_first_layers = 3
; duplicate_distance = 6
; end_gcode = M104 S0 ; turn off temperature\nG28 X0  ; home X axis\nM84     ; disable motors\n
; extruder_clearance_height = 20
; extruder_clearance_radius = 20
; extruder_offset = 0x0
; extrusion_axis = E
; extrusion_multiplier = 1
; fan_always_on = 0
; fan_below_layer_time = 60
; filament_colour = #FFFFFF
; filament_diameter = 1
; first_layer_acceleration = 0
; first_layer_bed_temperature = 0
; first_layer_extrusion_width = 200%
; first_layer_speed = 30
; first_layer_temperature = 200
; gcode_arcs = 0
; gcode_comments = 0
; gcode_flavor = reprap
; infill_acceleration = 0
; infill_first = 0
; layer_gcode = 
; max_fan_speed = 100
; max_print_speed = 80
; max_volumetric_speed = 0
; min_fan_speed = 35
; min_print_speed = 10
; min_skirt_length = 0
; notes = 
; nozzle_diameter = 0.5
; only_retract_when_crossing_perimeters = 1
; ooze_prevention = 0
; output_filename_format = [input_filename_base].gcode
; perimeter_acceleration = 0
; post_process = 
; pressure_advance = 0
; resolution = 0
; retract_before_travel = 2
; retract_layer_change = 0
; retract_length = 2
; retract_length_toolchange = 10
; retract_lift = 0
; retract_restart_extra = 0
; retract_restart_extra_toolchange = 0
; retract_speed = 40
; skirt_distance = 6
; skirt_height = 1
; skirts = 0
; slowdown_below_layer_time = 5
; spiral_vase = 0
; standby_temperature_delta = -5
; start_gcode = G28 ; home all axes\nG1 Z5 F5000 ; lift nozzle\n
; temperature = 200
; threads = 2
; toolchange_gcode = 
; travel_speed = 130
; use_firmware_retraction = 0
; use_relative_e_distances = 0
; use_volumetric_e = 0
; vibration_limit = 0
; wipe = 0
; z_offset = 0
; dont_support_bridges = 1
; extrusion_width = 0
; first_layer_height = 0.4
; infill_only_where_needed = 0
; interface_shells = 0
; layer_height = 0.4
; raft_layers = 0
; seam_position = aligned
; support_material = 0
; support_material_angle = 0
; support_material_contact_distance = 0.2
; support_material_enforce_layers = 0
; support_material_extruder = 1
; support_material_extrusion_width = 0
; support_material_interface_extruder = 1
; support_material_interface_layers = 3
; support_material_interface_spacing = 0
; support_material_interface_speed = 100%
; support_material_pattern = pillars
; support_material_spacing = 2.5
; support_material_speed = 60
; support_material_threshold = 0
; xy_size_compensation = 0
; bottom_solid_layers = 0
; bridge_flow_ratio = 1
; bridge_speed = 60
; external_fill_pattern = rectilinear
; external_perimeter_extrusion_width = 0
; external_perimeter_speed = 50%
; external_perimeters_first = 0
; extra_perimeters = 1
; fill_angle = 45
; fill_density = 60%
; fill_pattern = rectilinear
; gap_fill_speed = 20
; infill_every_layers = 1
; infill_extruder = 1
; infill_extrusion_width = 0
; infill_overlap = 15%
; infill_speed = 80
; overhangs = 1
; perimeter_extruder = 1
; perimeter_extrusion_width = 0
; perimeter_speed = 60
; perimeters = 0
; small_perimeter_speed = 15
; solid_infill_below_area = 70
; solid_infill_every_layers = 0
; solid_infill_extruder = 1
; solid_infill_extrusion_width = 0
; solid_infill_speed = 20
; thin_walls = 1
; top_infill_extrusion_width = 0
; top_solid_infill_speed = 15
; top_solid_layers = 0
