; generated by Slic3r 1.3.0 on 2021-03-11 at 15:53:20

; external perimeters extrusion width = 0.40mm (3.02mm^3/s)
; perimeters extrusion width = 0.40mm (6.04mm^3/s)
; infill extrusion width = 0.40mm (8.05mm^3/s)
; solid infill extrusion width = 0.40mm (2.01mm^3/s)
; top infill extrusion width = 0.40mm (1.51mm^3/s)

M107
M104 S200 ; set temperature
G28 ; home all axes
G1 Z5 F5000 ; lift nozzle

; Filament gcode

M109 S200 ; set temperature and wait for it to be reached
G21 ; set units to millimeters
G90 ; use absolute coordinates
M82 ; use absolute distances for extrusion
G92 E0
G1 Z0.300 F7800.000
G1 E-2.00000 F2400.00000
G92 E0
G1 X93.464 Y91.242 F7800.000
G1 E2.00000 F2400.00000
G1 F1800
G1 X93.135 Y91.359 E2.07154
G1 X92.840 Y91.526 E2.14083
G1 X92.528 Y91.754 E2.21993
G1 X91.813 Y92.426 E2.42065
G1 X91.192 Y93.130 E2.61284
G1 X90.665 Y93.853 E2.79584
G1 X90.397 Y94.310 E2.90417
G1 X93.803 Y90.903 E3.88985
G1 X94.036 Y90.856 E3.93850
G1 X94.381 Y90.853 E4.00900
G1 X89.909 Y95.325 E5.30300
G1 X89.714 Y95.962 E5.43924
G1 X89.700 Y96.061 E5.45979
G1 X94.832 Y90.929 E6.94473
G1 X95.045 Y90.980 E6.98947
G1 X95.237 Y91.051 E7.03144
G1 X89.629 Y96.659 E8.65392
G1 X89.662 Y97.154 E8.75542
G1 X95.603 Y91.212 E10.47453
G1 X95.938 Y91.405 E10.55353
G1 X89.790 Y97.553 E12.33219
G1 X89.805 Y97.598 E12.34202
G1 X90.014 Y97.856 E12.40994
G1 X96.247 Y91.623 E14.21343
G1 X96.534 Y91.864 E14.29000
G1 X90.281 Y98.117 E16.09914
G1 X90.560 Y98.365 E16.17556
G1 X96.802 Y92.123 E17.98156
G1 X97.058 Y92.394 E18.05788
G1 X90.851 Y98.602 E19.85386
G1 X91.163 Y98.817 E19.93141
G1 X97.297 Y92.683 E21.70627
G1 X97.536 Y92.972 E21.78291
G1 X91.474 Y99.033 E23.53679
G1 E21.53679 F2400.00000
G92 E0
G1 X89.185 Y99.740 F7800.000
G1 E2.00000 F2400.00000
G1 F1800
G1 X88.834 Y100.044 E2.09506
G1 X88.606 Y100.319 E2.16811
G1 X89.524 Y99.401 E2.43367
G1 X89.726 Y99.261 E2.48386
G1 X90.042 Y99.103 E2.55621
G1 X90.485 Y98.968 E2.65094
G1 X88.145 Y101.308 E3.32792
G1 X88.023 Y101.957 E3.46301
G1 X91.084 Y98.896 E4.34854
G1 X91.654 Y98.854 E4.46543
G1 X87.909 Y102.599 E5.54901
G1 X87.811 Y103.224 E5.67852
G1 X97.774 Y93.260 E8.56137
G1 X97.829 Y93.326 E8.57881
G1 X97.995 Y93.567 E8.63871
G1 X87.611 Y103.951 E11.64332
G1 X87.454 Y104.361 E11.73308
G1 X87.214 Y104.875 E11.84917
G1 X98.211 Y93.878 E15.03095
G1 X98.427 Y94.190 E15.10850
G1 X86.792 Y105.825 E18.47485
G1 X86.597 Y106.271 E18.57453
G1 X86.459 Y106.685 E18.66376
G1 X98.636 Y94.508 E22.18707
G1 X98.830 Y94.841 E22.26601
G1 X86.291 Y107.380 E25.89387
G1 X86.287 Y107.825 E25.98481
G1 X86.303 Y107.896 E25.99976
G1 X99.024 Y95.175 E29.68028
G1 X99.211 Y95.516 E29.75974
G1 X86.439 Y108.287 E33.45496
G1 X86.488 Y108.382 E33.47682
G1 X86.670 Y108.583 E33.53236
G1 X99.385 Y95.869 E37.21119
G1 X99.559 Y96.222 E37.29174
G1 X86.978 Y108.803 E40.93203
G1 X87.339 Y108.969 E41.01336
G1 X100.411 Y95.897 E44.79553
G1 X100.424 Y96.173 E44.85188
G1 X100.621 Y96.215 E44.89312
G1 X87.739 Y109.097 E48.62020
G1 X88.193 Y109.170 E48.71431
G1 X106.514 Y90.849 E54.01529
G1 X106.889 Y91.002 E54.09804
G1 X88.696 Y109.195 E59.36193
G1 X89.133 Y109.183 E59.45148
G1 X89.255 Y109.163 E59.47667
G1 X107.214 Y91.204 E64.67277
G1 X107.526 Y91.419 E64.75037
G1 X89.886 Y109.059 E69.85416
G1 X90.611 Y108.861 E70.00786
G1 X107.807 Y91.666 E74.98321
G1 X108.088 Y91.912 E75.05967
G1 X91.429 Y108.571 E79.87966
G1 X91.750 Y108.449 E79.94994
G1 X92.365 Y108.162 E80.08881
G1 X108.340 Y92.188 E84.71075
G1 X108.588 Y92.467 E84.78718
G1 X93.463 Y107.592 E89.16355
G1 X93.794 Y107.411 E89.24072
G1 X94.794 Y106.788 E89.48194
G1 X98.442 Y103.140 E90.53740
G1 X98.816 Y102.370 E90.71256
G1 X99.137 Y102.413 E90.77869
G1 X99.141 Y102.441 E90.78459
G1 X108.821 Y92.761 E93.58547
G1 X109.042 Y93.067 E93.66275
G1 X99.208 Y102.902 E96.50825
G1 X99.303 Y103.334 E96.59876
G1 X109.258 Y93.378 E99.47923
G1 X109.454 Y93.710 E99.55803
G1 X100.776 Y102.388 E102.06893
G1 X101.014 Y102.678 E102.14560
G1 X109.650 Y94.042 E104.64430
G1 X109.820 Y94.399 E104.72519
G1 X101.200 Y103.019 E107.21938
G1 X101.386 Y103.360 E107.29888
G1 X109.988 Y94.758 E109.78761
G1 X110.129 Y95.144 E109.87169
G1 X101.587 Y103.687 E112.34340
G1 X101.800 Y104.001 E112.42109
G1 X110.262 Y95.539 E114.86960
G1 X110.347 Y95.982 E114.96185
G1 X102.032 Y104.296 E117.36749
G1 X102.148 Y104.443 E117.40581
G1 X102.274 Y104.581 E117.44409
G1 X110.395 Y96.461 E119.79372
G1 X110.364 Y96.759 E119.85520
G1 X110.244 Y97.112 E119.93139
G1 X110.199 Y97.184 E119.94879
G1 X108.793 Y98.590 E120.35552
G1 X108.703 Y98.680 F7800.000
G1 F1800
G1 X102.526 Y104.857 E122.14281
G1 X102.792 Y105.119 E122.21911
G1 X109.018 Y98.893 E124.02043
G1 X109.527 Y98.911 E124.12477
G1 X103.062 Y105.376 E125.99548
G1 X103.346 Y105.619 E126.07200
G1 X109.985 Y98.980 E127.99292
G1 X110.378 Y99.115 E128.07784
G1 X103.634 Y105.858 E130.02888
G1 X103.939 Y106.081 E130.10610
G1 X110.707 Y99.313 E132.06438
G1 X110.846 Y99.397 E132.09756
G1 X111.003 Y99.544 E132.14162
G1 X104.244 Y106.303 E134.09720
G1 X104.549 Y106.526 E134.17442
G1 X111.272 Y99.803 E136.11958
G1 X111.497 Y100.105 E136.19670
G1 X104.858 Y106.744 E138.11757
G1 X105.182 Y106.948 E138.19585
G1 X111.682 Y100.448 E140.07639
G1 X111.772 Y100.637 E140.11919
G1 X111.826 Y100.831 E140.16047
G1 X105.506 Y107.151 E141.98896
G1 X105.831 Y107.354 E142.06724
G1 X111.936 Y101.248 E143.83383
G1 X112.006 Y101.706 E143.92858
G1 X106.162 Y107.550 E145.61936
G1 X106.505 Y107.734 E145.69900
G1 X112.075 Y102.164 E147.31073
G1 X112.145 Y102.622 E147.40548
G1 X106.848 Y107.919 E148.93816
G1 X107.190 Y108.104 E149.01781
G1 X112.241 Y103.053 E150.47907
G1 X112.300 Y103.300 E150.53107
G1 X112.360 Y103.461 E150.56615
G1 X107.556 Y108.265 E151.95628
G1 X107.922 Y108.427 E152.03809
G1 X112.505 Y103.844 E153.36422
G1 X112.665 Y104.211 E153.44615
G1 X108.288 Y108.588 E154.71283
G1 X108.684 Y108.719 E154.79824
G1 X112.830 Y104.573 E155.99781
G1 X112.994 Y104.936 E156.07933
G1 X109.080 Y108.850 E157.21180
G1 X109.303 Y108.924 E157.25985
G1 X109.495 Y108.963 E157.29986
G1 X113.159 Y105.299 E158.35994
G1 X113.317 Y105.669 E158.44212
G1 X109.933 Y109.052 E159.42121
G1 X110.242 Y109.115 E159.48578
G1 X110.389 Y109.123 E159.51593
G1 X113.458 Y106.055 E160.40368
G1 X113.582 Y106.458 E160.48999
G1 X110.890 Y109.150 E161.26892
G1 X111.100 Y109.162 E161.31200
G1 X111.449 Y109.119 E161.38396
G1 X113.682 Y106.885 E162.03010
G1 X113.712 Y107.383 E162.13216
G1 X112.089 Y109.006 E162.60157
G1 E160.60157 F2400.00000
G92 E0
G1 X100.033 Y104.714 F7800.000
G1 E2.00000 F2400.00000
G1 F1800
G1 X100.389 Y104.358 E2.10301
G1 X100.478 Y104.119 E2.15510
G1 X100.488 Y103.731 E2.23452
G1 X99.607 Y104.612 E2.48941
G1 X99.526 Y104.418 E2.53247
G1 X99.527 Y104.164 E2.58429
G1 X100.665 Y103.027 E2.91348
G1 X100.753 Y102.787 E2.96572
G1 X100.822 Y102.342 E3.05777
G1 X99.445 Y103.720 E3.45625
G1 X99.303 Y103.334 E3.54033
G1 E1.54033 F2400.00000
G92 E0
G1 X99.608 Y96.173 F7800.000
G1 E2.00000 F2400.00000
G1 F1800
G1 X100.388 Y95.393 E2.22573
G1 X100.365 Y94.889 E2.32902
G1 X99.652 Y95.602 E2.53532
G1 X99.679 Y95.047 E2.64896
G1 X100.325 Y94.401 E2.83589
G1 X100.286 Y93.913 E2.93598
G1 X99.704 Y94.495 E3.10431
G1 X99.738 Y93.933 E3.21945
G1 X100.246 Y93.426 E3.36632
G1 E1.36632 F2400.00000
G92 E0
G1 X100.578 Y96.258 F7800.000
G1 E2.00000 F2400.00000
G1 F1800
G1 X106.028 Y90.807 E3.57703
G1 X105.560 Y90.889 E3.67427
G1 X105.354 Y90.955 E3.71867
G1 X101.200 Y95.108 E4.92032
G1 X101.420 Y94.728 E5.01009
G1 X102.103 Y93.724 E5.25857
G1 X102.261 Y93.520 E5.31122
G1 X104.397 Y91.384 E5.92924
G1 Z0.600 F7800.000
G1 X108.236 Y92.415 F7800.000
G1 F4800
G1 X107.659 Y91.837 E6.03398
G1 X107.205 Y91.440 E6.11128
G1 X106.648 Y91.065 E6.19735
G1 X106.167 Y90.873 E6.26383
G1 X109.574 Y94.280 E6.88164
G1 X109.991 Y95.149 E7.00520
G1 X110.030 Y95.263 E7.02058
G1 X105.630 Y90.863 E7.81826
G1 X105.189 Y90.950 E7.87581
G1 X110.262 Y96.023 E8.79555
G1 X110.353 Y96.537 E8.86246
G1 X110.354 Y96.643 E8.87596
G1 X104.790 Y91.078 E9.88480
G1 X104.425 Y91.241 E9.93600
G1 X110.305 Y97.120 E11.00191
G1 X110.205 Y97.412 E11.04142
G1 X110.153 Y97.496 E11.05409
G1 X104.087 Y91.430 E12.15391
G1 X103.769 Y91.639 E12.20271
G1 X109.937 Y97.807 E13.32094
G1 X109.680 Y98.077 E13.36877
G1 X103.472 Y91.870 E14.49419
G1 X103.208 Y92.133 E14.54200
G1 X109.391 Y98.316 E15.66293
G1 X109.096 Y98.549 E15.71107
G1 X102.952 Y92.405 E16.82499
G1 X102.711 Y92.691 E16.87296
G1 X108.796 Y98.775 E17.97614
G1 X108.636 Y98.896 E18.00173
G1 X108.736 Y99.193 E18.04191
G1 X109.213 Y99.193 E18.10310
G1 X111.956 Y101.936 E18.60046
G1 X112.051 Y102.558 E18.68108
G1 X102.480 Y92.988 E20.41617
G1 X102.250 Y93.284 E20.46435
G1 X112.165 Y103.200 E22.26194
G1 X112.261 Y103.600 E22.31478
G1 X112.396 Y103.958 E22.36378
G1 X102.028 Y93.590 E24.24342
G1 X101.815 Y93.904 E24.29208
G1 X112.797 Y104.886 E26.28308
G1 X113.234 Y105.850 E26.41880
G1 X101.601 Y94.218 E28.52773
G1 X101.395 Y94.539 E28.57664
G1 X113.519 Y106.664 E30.77486
G1 X113.640 Y107.151 E30.83919
G1 X113.655 Y107.327 E30.86183
G1 X101.202 Y94.873 E33.11962
G1 X101.009 Y95.208 E33.16912
G1 X113.648 Y107.847 E35.46054
G1 X113.622 Y108.016 E35.48254
G1 X113.513 Y108.239 E35.51434
G1 X100.825 Y95.551 E37.81468
G1 X100.646 Y95.900 E37.86493
G1 X113.273 Y108.527 E40.15412
G1 X113.224 Y108.577 E40.16315
G1 X112.956 Y108.737 E40.20314
G1 X100.468 Y96.249 E42.46717
G1 X99.447 Y96.282 F7800.000
G1 F4800
G1 X112.188 Y109.024 E44.77716
G1 X112.593 Y108.902 E44.83141
G1 X99.639 Y95.947 E47.17998
G1 X99.683 Y95.464 E47.24221
G1 X100.370 Y96.151 E47.36678
G1 X100.345 Y95.598 E47.43769
G1 X99.708 Y94.961 E47.55320
G1 X99.733 Y94.459 E47.61770
G1 X100.314 Y95.041 E47.72318
G1 X100.267 Y94.466 E47.79704
G1 X99.751 Y93.950 E47.89072
G1 X99.800 Y93.472 E47.95232
G1 X100.221 Y93.892 E48.02854
G1 E46.02854 F2400.00000
G92 E0
G1 X97.526 Y93.307 F7800.000
G1 E2.00000 F2400.00000
G1 F4800
G1 X95.717 Y91.498 E2.32788
G1 X95.525 Y91.367 E2.35779
G1 X95.140 Y91.166 E2.41344
G1 X94.699 Y91.008 E2.47347
G1 X98.733 Y95.042 E3.20480
G1 X99.111 Y95.692 E3.30117
G1 X99.359 Y96.195 E3.37316
G1 X94.052 Y90.888 E4.33529
G1 X93.736 Y90.895 E4.37580
G1 X93.566 Y90.929 E4.39810
G1 X111.720 Y109.083 E7.68942
G1 X111.400 Y109.123 E7.73078
G1 X111.223 Y109.113 E7.75351
G1 X93.171 Y91.061 E11.02632
G1 X92.838 Y91.256 E11.07574
G1 X110.665 Y109.083 E14.30784
G1 X110.542 Y109.077 E14.32365
G1 X110.026 Y108.971 E14.39117
G1 X92.537 Y91.482 E17.56193
G1 X92.265 Y91.738 E17.60976
G1 X109.319 Y108.791 E20.70151
G1 X108.520 Y108.520 E20.80963
G1 X91.993 Y91.993 E23.80590
G1 X91.733 Y92.261 E23.85372
G1 X107.575 Y108.102 E26.72583
G1 X106.449 Y107.504 E26.88933
G1 X91.486 Y92.541 E29.60210
G1 X91.239 Y92.821 E29.65000
G1 X100.865 Y102.447 E31.39525
G1 X100.801 Y102.528 E31.40851
G1 X100.749 Y102.859 E31.45141
G1 X91.016 Y93.125 E33.21612
G1 X90.793 Y93.430 E33.26451
G1 X100.643 Y103.280 E35.05028
G1 X100.513 Y103.677 E35.10387
G1 X99.214 Y102.378 E35.33939
G1 X99.253 Y102.648 E35.37432
G1 X99.342 Y103.033 E35.42503
G1 X100.442 Y104.133 E35.62440
G1 X100.439 Y104.419 E35.66106
G1 X100.370 Y104.589 E35.68460
G1 X99.565 Y103.784 E35.83062
G1 X99.565 Y104.118 E35.87345
G1 X99.685 Y104.431 E35.91643
G1 X99.954 Y104.701 E35.96533
G1 X99.943 Y104.710 E35.96714
G1 X99.946 Y104.692 E35.96942
G1 E33.96942 F2400.00000
G92 E0
G1 X99.175 Y102.339 F7800.000
G1 E2.00000 F2400.00000
G1 F4800
G1 X90.587 Y93.751 E3.55687
G1 X90.392 Y94.084 E3.60627
G1 X98.960 Y102.652 E5.15967
G1 X98.788 Y103.007 E5.21027
G1 X90.210 Y94.429 E6.76542
G1 X90.046 Y94.793 E6.81656
G1 X98.599 Y103.346 E8.36721
G1 X98.392 Y103.666 E8.41611
G1 X89.902 Y95.175 E9.95550
G1 X89.778 Y95.579 E10.00964
G1 X98.166 Y103.967 E11.53036
G1 X97.934 Y104.263 E11.57851
G1 X89.701 Y96.029 E13.07129
G1 X89.664 Y96.285 E13.10439
G1 X89.678 Y96.534 E13.13640
G1 X97.687 Y104.543 E14.58837
G1 X97.435 Y104.818 E14.63622
G1 X91.498 Y98.882 E15.71247
G1 X91.008 Y98.919 E15.77550
G1 X97.171 Y105.081 E16.89278
G1 X96.902 Y105.340 E16.94059
G1 X90.514 Y98.952 E18.09874
G1 X90.082 Y99.027 E18.15489
G1 X90.067 Y99.032 E18.15701
G1 X96.623 Y105.588 E19.34561
G1 X96.339 Y105.832 E19.39355
G1 X89.680 Y99.173 E20.60082
G1 X89.340 Y99.360 E20.65060
G1 X96.045 Y106.065 E21.86630
G1 X95.748 Y106.295 E21.91450
G1 X89.041 Y99.588 E23.13044
G1 X88.780 Y99.855 E23.17825
G1 X95.439 Y106.513 E24.38536
G1 X95.127 Y106.729 E24.43396
G1 X88.556 Y100.159 E25.62513
G1 X88.368 Y100.498 E25.67486
G1 X94.802 Y106.931 E26.84121
G1 X94.477 Y107.134 E26.89029
G1 X88.224 Y100.881 E28.02389
G1 X88.127 Y101.311 E28.08045
G1 X94.152 Y107.336 E29.17270
G1 X93.814 Y107.525 E29.22236
G1 X88.044 Y101.755 E30.26843
G1 X87.962 Y102.202 E30.32655
G1 X93.473 Y107.712 E31.32557
G1 X93.132 Y107.898 E31.37538
G1 X87.892 Y102.659 E32.32530
G1 X87.807 Y103.101 E32.38300
G1 X92.777 Y108.071 E33.28407
G1 X92.417 Y108.239 E33.33494
G1 X87.700 Y103.521 E34.19029
G1 X87.554 Y103.902 E34.24266
G1 X92.058 Y108.407 E35.05925
G1 X91.676 Y108.552 E35.11164
G1 X87.395 Y104.271 E35.88777
G1 X87.227 Y104.631 E35.93864
G1 X91.294 Y108.697 E36.67589
G1 X90.896 Y108.827 E36.72952
G1 X87.063 Y104.993 E37.42452
G1 X86.902 Y105.361 E37.47588
G1 X90.484 Y108.942 E38.12522
G1 X90.056 Y109.041 E38.18155
G1 X86.742 Y105.728 E38.78230
G1 X86.592 Y106.105 E38.83431
G1 X89.603 Y109.116 E39.38030
G1 X89.433 Y109.144 E39.40240
G1 X89.113 Y109.153 E39.44353
G1 X86.460 Y106.500 E39.92450
G1 X86.375 Y106.753 E39.95865
G1 X86.352 Y106.920 E39.98030
G1 X88.576 Y109.143 E40.38339
G1 X88.076 Y109.070 E40.44814
G1 X87.927 Y109.022 E40.46814
G1 X86.324 Y107.419 E40.75888
G1 E38.75888 F2400.00000
G92 E0
G1 X91.244 Y98.627 F7800.000
G1 E2.00000 F2400.00000
G1 F4800
G1 X89.810 Y97.193 E2.25997
G1 X100.604 Y102.186 F7800.000
G1 F4800
G1 X100.747 Y102.007 E2.28936
G1 X101.046 Y102.366 E2.34935
G1 X101.362 Y102.944 E2.43373
G1 X105.055 Y106.637 E3.10329
G1 X111.956 Y101.936 F7800.000
G1 F4800
G1 X111.891 Y101.506 E3.15907
G1 X111.829 Y101.281 E3.18897
G1 X109.530 Y98.983 E3.60570
G1 X109.601 Y98.990 E3.61484
G1 X110.093 Y99.159 E3.68151
G1 X110.456 Y99.381 E3.73608
G1 X111.393 Y100.318 E3.90597
G1 E1.90597 F2400.00000
G92 E0
G1 X97.799 Y107.450 F7800.000
G1 E2.00000 F2400.00000
G1 F1200
G1 X97.538 Y107.189 E2.05680
G1 X97.192 Y107.413 E2.12015
G1 X97.480 Y107.701 E2.18287
G1 X97.294 Y107.800 E2.21532
G1 X97.453 Y107.674 E2.24654
G1 Z0.900 F7800.000
G1 E0.24654 F2400.00000
G92 E0
G1 X102.337 Y107.509 F7800.000
G1 E2.00000 F2400.00000
G1 F1200
G1 X102.598 Y107.248 E2.05343
G1 X102.915 Y107.468 F7800.000
G1 F1200
G1 X102.654 Y107.729 E2.10686
G1 E0.10686 F2400.00000
G92 E0
G1 X100.072 Y104.675 F7800.000
G1 E2.00000 F2400.00000
G1 F4800
G1 X100.350 Y104.396 E2.05045
G1 X100.439 Y104.158 E2.08309
G1 X100.449 Y103.770 E2.13285
G1 X99.646 Y104.573 E2.27846
G1 X99.565 Y104.379 E2.30544
G1 X99.566 Y104.126 E2.33791
G1 X100.626 Y103.066 E2.53008
G1 X100.714 Y102.826 E2.56282
G1 X100.783 Y102.381 E2.62049
G1 X99.483 Y103.681 E2.85608
G1 X99.342 Y103.295 E2.90876
G1 X99.647 Y96.134 F7800.000
G1 F4800
G1 X100.349 Y95.432 E3.03610
G1 X100.326 Y94.928 E3.10083
G1 X99.691 Y95.563 E3.21599
G1 X99.718 Y95.008 E3.28720
G1 X100.287 Y94.440 E3.39023
G1 X100.247 Y93.952 E3.45295
G1 X99.743 Y94.456 E3.54432
G1 X99.777 Y93.894 E3.61647
G1 X100.207 Y93.465 E3.69439
G1 E1.69439 F2400.00000
G92 E0
G1 X100.617 Y96.219 F7800.000
G1 E2.00000 F2400.00000
G1 F4800
G1 X105.990 Y90.846 E2.97407
G1 X105.521 Y90.928 E3.03499
G1 X105.315 Y90.994 E3.06282
G1 X101.239 Y95.069 E3.80167
G1 X101.458 Y94.689 E3.85792
G1 X102.142 Y93.685 E4.01362
G1 X102.299 Y93.482 E4.04661
G1 X104.358 Y91.423 E4.41976
G1 X108.832 Y98.551 F7800.000
G1 F4800
G1 X110.160 Y97.223 E4.66052
G1 X110.205 Y97.151 E4.67142
G1 X110.325 Y96.798 E4.71917
G1 X110.356 Y96.499 E4.75768
G1 X102.313 Y104.542 E6.21586
G1 X102.187 Y104.404 E6.23985
G1 X102.071 Y104.257 E6.26386
G1 X110.308 Y96.021 E7.75714
G1 X110.223 Y95.578 E7.81494
G1 X101.839 Y103.963 E9.33507
G1 X101.626 Y103.648 E9.38376
G1 X110.091 Y95.183 E10.91843
G1 X109.949 Y94.797 E10.97111
G1 X101.425 Y103.321 E12.51645
