; generated by Slic3r 1.3.0 on 2020-02-25 at 13:36:54

; external perimeters extrusion width = 0.55mm (4.37mm^3/s)
; perimeters extrusion width = 0.70mm (11.44mm^3/s)
; infill extrusion width = 0.63mm (13.45mm^3/s)
; solid infill extrusion width = 0.70mm (3.81mm^3/s)
; top infill extrusion width = 0.70mm (2.86mm^3/s)

M107
M104 S205 ; set temperature
G28 ; home all axes
G1 Z5 F5000 ; lift nozzle

; Filament gcode

M109 S205 ; set temperature and wait for it to be reached
G21 ; set units to millimeters
G90 ; use absolute coordinates
M82 ; use absolute distances for extrusion
G92 E0
G1 Z3.000 F7800.000
G1 X108.179 Y98.706 F7800.000
G1 F3600
G1 X107.602 Y99.327 E16.16539
G1 X107.208 Y99.801 E16.18203
G1 X105.717 Y100.614 E16.22783
G1 X104.743 Y101.109 E16.25730
G1 X103.663 Y101.625 E16.28958
G1 X102.663 Y102.067 E16.31909
G1 X101.711 Y102.445 E16.34670
G1 X101.000 Y102.695 E16.36703
G1 X100.599 Y102.798 E16.37820
G1 X100.343 Y102.831 E16.38519
G1 X99.967 Y102.827 E16.39532
G1 X99.342 Y102.741 E16.41235
G1 X98.375 Y102.531 E16.43904
G1 X96.509 Y102.060 E16.49096
G1 X95.682 Y102.453 E16.51565
G1 X95.313 Y102.691 E16.52749
G1 X95.115 Y102.760 E16.53314
G1 X94.743 Y102.818 E16.54332
G1 X94.065 Y102.799 E16.56160
G1 X92.876 Y102.649 E16.59394
G1 X91.368 Y102.391 E16.63520
G1 X89.794 Y102.078 E16.67850
G1 X88.692 Y101.812 E16.70908
G1 X88.037 Y101.620 E16.72749
G1 X87.489 Y101.419 E16.74324
G1 X87.043 Y101.199 E16.75664
G1 X86.776 Y101.013 E16.76544
G1 X86.540 Y100.786 E16.77427
G1 X86.422 Y100.632 E16.77949
G1 X86.125 Y100.142 E16.79495
G1 X85.779 Y99.433 E16.81623
G1 X85.594 Y98.952 E16.83015
G1 X85.548 Y98.736 E16.83610
G1 X85.618 Y98.412 E16.84503
G1 X85.762 Y98.046 E16.85566
G1 X86.014 Y97.509 E16.87166
G1 X86.403 Y96.838 E16.89259
G1 X86.511 Y96.691 E16.89749
G1 X86.830 Y96.383 E16.90946
G1 X87.074 Y96.224 E16.91730
G1 X87.382 Y96.070 E16.92659
G1 X87.783 Y95.910 E16.93826
G1 X88.323 Y95.735 E16.95357
G1 X88.885 Y95.580 E16.96928
G1 X89.666 Y95.393 E16.99095
G1 X90.793 Y95.160 E17.02200
G1 X91.991 Y94.940 E17.05485
G1 X93.688 Y94.682 E17.10117
G1 X94.510 Y94.621 E17.12340
G1 X94.994 Y94.652 E17.13648
G1 X95.222 Y94.711 E17.14283
G1 X95.425 Y94.819 E17.14903
G1 X95.677 Y95.004 E17.15747
G1 X96.445 Y95.410 E17.18091
G1 X98.209 Y94.952 E17.23006
G1 X99.186 Y94.732 E17.25708
G1 X99.836 Y94.627 E17.27483
G1 X100.236 Y94.608 E17.28565
G1 X100.562 Y94.639 E17.29447
G1 X101.003 Y94.749 E17.30675
G1 X101.898 Y95.070 E17.33237
G1 X102.881 Y95.469 E17.36101
G1 X103.982 Y95.967 E17.39361
G1 X105.126 Y96.526 E17.42795
G1 X106.244 Y97.108 E17.46196
G1 X107.297 Y97.686 E17.49435
G1 X107.687 Y98.184 E17.51143
G1 X108.122 Y98.656 E17.52876
G1 X109.183 Y98.708 F7800.000
G1 F3600
G1 X108.525 Y99.267 E17.55203
G1 X108.080 Y99.747 E17.56971
G1 X107.625 Y100.293 E17.58886
G1 X107.312 Y100.478 E17.59868
G1 X106.012 Y101.177 E17.63851
G1 X105.024 Y101.679 E17.66840
G1 X103.928 Y102.202 E17.70115
G1 X102.909 Y102.653 E17.73122
G1 X101.934 Y103.040 E17.75951
G1 X101.186 Y103.303 E17.78092
G1 X100.720 Y103.423 E17.79389
G1 X100.380 Y103.467 E17.80314
G1 X99.920 Y103.462 E17.81554
G1 X99.231 Y103.367 E17.83431
G1 X98.229 Y103.150 E17.86195
G1 X96.575 Y102.733 E17.90798
G1 X95.992 Y103.010 E17.92540
G1 X95.623 Y103.247 E17.93723
G1 X95.264 Y103.381 E17.94757
G1 X94.796 Y103.452 E17.96033
G1 X94.480 Y103.458 E17.96886
G1 X94.008 Y103.432 E17.98161
G1 X92.782 Y103.278 E18.01494
G1 X91.252 Y103.016 E18.05681
G1 X89.657 Y102.699 E18.10069
G1 X88.528 Y102.426 E18.13203
G1 X87.838 Y102.224 E18.15142
G1 X87.238 Y102.004 E18.16866
G1 X86.719 Y101.748 E18.18427
G1 X86.371 Y101.505 E18.19572
G1 X86.064 Y101.210 E18.20720
G1 X85.897 Y100.991 E18.21464
G1 X85.566 Y100.447 E18.23181
G1 X85.196 Y99.687 E18.25463
G1 X84.985 Y99.139 E18.27046
G1 X84.926 Y98.887 E18.27746
G1 X84.913 Y98.690 E18.28278
G1 X84.945 Y98.453 E18.28922
G1 X85.015 Y98.208 E18.29610
G1 X85.178 Y97.794 E18.30810
G1 X85.607 Y96.921 E18.33434
G1 X85.875 Y96.484 E18.34818
G1 X86.026 Y96.276 E18.35510
G1 X86.335 Y95.967 E18.36689
G1 X86.757 Y95.672 E18.38078
G1 X87.121 Y95.490 E18.39176
G1 X87.567 Y95.312 E18.40472
G1 X88.140 Y95.126 E18.42098
G1 X89.528 Y94.773 E18.45960
G1 X90.671 Y94.536 E18.49110
G1 X91.886 Y94.313 E18.52440
G1 X93.617 Y94.050 E18.57165
G1 X94.493 Y93.985 E18.59534
G1 X94.808 Y93.991 E18.60386
G1 X95.107 Y94.025 E18.61196
G1 X95.481 Y94.129 E18.62242
G1 X95.764 Y94.279 E18.63108
G1 X96.015 Y94.464 E18.63950
G1 X96.524 Y94.733 E18.65501
G1 X98.059 Y94.335 E18.69780
G1 X99.066 Y94.108 E18.72562
G1 X99.770 Y93.994 E18.74487
G1 X100.252 Y93.971 E18.75788
G1 X100.669 Y94.011 E18.76920
G1 X101.188 Y94.140 E18.78361
G1 X102.124 Y94.476 E18.81045
G1 X103.132 Y94.885 E18.83978
G1 X104.253 Y95.392 E18.87297
G1 X105.413 Y95.958 E18.90779
G1 X106.544 Y96.548 E18.94221
G1 X107.717 Y97.191 E18.97830
G1 X108.176 Y97.778 E18.99840
G1 X108.489 Y98.132 E19.01115
G1 X108.979 Y98.563 E19.02875
G1 X109.122 Y98.665 E19.03347
G1 X110.077 Y98.695 F7800.000
G1 F1800
G1 X109.985 Y98.832 E19.03688
G1 X109.891 Y98.915 E19.03946
G1 X109.379 Y99.277 E19.05238
G1 X108.914 Y99.673 E19.06497
G1 X108.501 Y100.118 E19.07748
G1 X107.994 Y100.727 E19.09381
G1 X107.587 Y100.966 E19.10355
G1 X106.271 Y101.674 E19.13434
G1 X105.272 Y102.182 E19.15745
G1 X104.163 Y102.712 E19.18278
G1 X103.125 Y103.170 E19.20615
G1 X102.131 Y103.565 E19.22821
G1 X101.349 Y103.840 E19.24529
G1 X100.826 Y103.975 E19.25641
G1 X100.412 Y104.028 E19.26502
G1 X99.879 Y104.022 E19.27602
G1 X99.133 Y103.920 E19.29153
G1 X98.101 Y103.696 E19.31329
G1 X96.634 Y103.326 E19.34449
G1 X96.265 Y103.501 E19.35290
G1 X95.897 Y103.738 E19.36193
G1 X95.727 Y103.819 E19.36580
G1 X95.395 Y103.928 E19.37301
G1 X94.844 Y104.012 E19.38450
G1 X94.470 Y104.019 E19.39221
G1 X93.958 Y103.991 E19.40276
G1 X92.700 Y103.833 E19.42890
G1 X91.150 Y103.568 E19.46130
G1 X89.537 Y103.247 E19.49522
G1 X88.383 Y102.968 E19.51967
G1 X87.662 Y102.757 E19.53515
G1 X87.017 Y102.520 E19.54931
G1 X86.433 Y102.232 E19.56274
G1 X86.014 Y101.940 E19.57326
G1 X85.645 Y101.585 E19.58383
G1 X85.433 Y101.308 E19.59101
G1 X85.074 Y100.716 E19.60528
G1 X84.681 Y99.911 E19.62374
G1 X84.448 Y99.305 E19.63713
G1 X84.372 Y98.982 E19.64397
G1 X84.352 Y98.654 E19.65074
G1 X84.395 Y98.338 E19.65731
G1 X84.484 Y98.028 E19.66395
G1 X84.663 Y97.572 E19.67405
G1 X85.121 Y96.643 E19.69539
G1 X85.409 Y96.171 E19.70679
G1 X85.599 Y95.911 E19.71344
G1 X85.958 Y95.551 E19.72391
G1 X86.124 Y95.415 E19.72832
G1 X86.478 Y95.185 E19.73703
G1 X86.891 Y94.978 E19.74655
G1 X87.377 Y94.784 E19.75734
G1 X87.979 Y94.588 E19.77040
G1 X88.587 Y94.421 E19.78338
G1 X89.406 Y94.225 E19.80074
G1 X90.564 Y93.986 E19.82511
G1 X91.793 Y93.761 E19.85086
G1 X93.554 Y93.492 E19.88758
G1 X94.478 Y93.424 E19.90667
G1 X94.846 Y93.431 E19.91425
G1 X95.206 Y93.472 E19.92173
G1 X95.709 Y93.616 E19.93251
G1 X96.063 Y93.803 E19.94077
G1 X96.314 Y93.988 E19.94719
G1 X96.594 Y94.135 E19.95371
G1 X97.927 Y93.790 E19.98210
G1 X98.959 Y93.557 E20.00390
G1 X99.712 Y93.435 E20.01961
G1 X100.265 Y93.409 E20.03103
G1 X100.764 Y93.457 E20.04136
G1 X101.350 Y93.603 E20.05382
G1 X102.325 Y93.952 E20.07514
G1 X103.353 Y94.370 E20.09802
G1 X104.491 Y94.884 E20.12377
G1 X105.665 Y95.458 E20.15069
G1 X106.808 Y96.054 E20.17726
G1 X108.013 Y96.714 E20.20559
G1 X108.111 Y96.785 E20.20809
G1 X108.607 Y97.419 E20.22468
G1 X108.886 Y97.735 E20.23334
G1 X109.327 Y98.123 E20.24546
G1 X109.859 Y98.501 E20.25890
G1 X110.021 Y98.645 E20.26337
G1 X109.927 Y98.765 F7800.000
G1 E18.26337 F2400.00000
G92 E0
G1 X107.253 Y99.324 F7800.000
G1 E2.00000 F2400.00000
G1 F4800
G1 X104.898 Y96.970 E2.07922
G1 X103.181 Y96.134 E2.12466
G1 X106.767 Y99.720 E2.24531
G1 X106.197 Y100.030 E2.26076
G1 X101.638 Y95.472 E2.41415
G1 X100.597 Y95.090 E2.44054
G1 X100.302 Y95.016 E2.44778
G1 X105.626 Y100.340 E2.62692
G1 X105.042 Y100.637 E2.64251
G1 X99.433 Y95.028 E2.83125
G1 X98.695 Y95.171 E2.84913
G1 X104.452 Y100.929 E3.04288
G1 X103.856 Y101.213 E3.05860
G1 X97.980 Y95.337 E3.25634
G1 X97.280 Y95.518 E3.27353
G1 X103.250 Y101.489 E3.47442
G1 X102.639 Y101.758 E3.49033
G1 X96.581 Y95.700 E3.69417
G1 X96.139 Y95.814 E3.70504
G1 X95.452 Y95.452 E3.72351
G1 X102.008 Y102.008 E3.94411
G1 X101.366 Y102.247 E3.96042
G1 X94.119 Y95.000 E4.20426
G1 X93.314 Y95.076 E4.22350
G1 X100.685 Y102.447 E4.47151
G1 X100.540 Y102.465 E4.47498
G1 X100.244 Y102.462 E4.48204
G1 X99.752 Y102.394 E4.49386
G1 X92.550 Y95.192 E4.73620
G1 X91.787 Y95.311 E4.75456
G1 X98.629 Y102.152 E4.98478
G1 X97.450 Y101.855 E5.01370
G1 X91.042 Y95.447 E5.22932
G1 X90.305 Y95.591 E5.24719
G1 X96.473 Y101.758 E5.45471
G1 X95.876 Y102.042 E5.47044
G1 X89.576 Y95.742 E5.68244
G1 X88.873 Y95.920 E5.69969
G1 X95.314 Y102.361 E5.91642
G1 X95.202 Y102.410 E5.91934
G1 X94.938 Y102.451 E5.92569
G1 X94.511 Y102.439 E5.93586
G1 X88.175 Y96.103 E6.14905
G1 X87.523 Y96.332 E6.16549
G1 X93.522 Y102.331 E6.36735
G1 X92.477 Y102.167 E6.39252
G1 X86.951 Y96.642 E6.57844
G1 X86.747 Y96.835 E6.58515
G1 X86.558 Y97.129 E6.59345
G1 X91.404 Y101.975 E6.75652
G1 X90.304 Y101.756 E6.78320
G1 X86.250 Y97.702 E6.91960
G1 X86.081 Y98.047 E6.92873
G1 X85.984 Y98.317 E6.93557
G1 X89.151 Y101.484 E7.04213
G1 X88.457 Y101.284 E7.05931
G1 X87.957 Y101.101 E7.07198
G1 X87.819 Y101.033 E7.07566
G1 X86.431 Y99.645 E7.12235
G1 Z3.300 F7800.000
G1 X108.148 Y98.722 F7800.000
G1 F3600
G1 X107.788 Y99.086 E7.13615
G1 X106.988 Y100.051 E7.16998
G1 X106.235 Y100.472 E7.19323
G1 X105.221 Y100.996 E7.22403
G1 X104.278 Y101.448 E7.25223
G1 X103.353 Y101.861 E7.27956
G1 X102.451 Y102.231 E7.30585
G1 X101.655 Y102.522 E7.32872
G1 X100.998 Y102.726 E7.34729
G1 X100.513 Y102.810 E7.36058
G1 X100.311 Y102.808 E7.36601
G1 X99.813 Y102.749 E7.37953
G1 X98.580 Y102.488 E7.41354
G1 X96.968 Y102.077 E7.45843
G1 X95.960 Y102.179 E7.48575
G1 X95.363 Y102.657 E7.50639
G1 X95.192 Y102.757 E7.51174
G1 X94.856 Y102.854 E7.52118
G1 X94.603 Y102.875 E7.52801
G1 X93.968 Y102.847 E7.54515
G1 X93.289 Y102.762 E7.56363
G1 X91.902 Y102.529 E7.60156
G1 X90.351 Y102.231 E7.64418
G1 X89.079 Y101.950 E7.67930
G1 X88.157 Y101.707 E7.70504
G1 X87.478 Y101.484 E7.72430
G1 X87.102 Y101.325 E7.73532
G1 X86.821 Y101.166 E7.74403
G1 X86.619 Y101.001 E7.75108
G1 X86.493 Y100.859 E7.75619
G1 X86.307 Y100.579 E7.76526
G1 X86.035 Y100.103 E7.78004
G1 X85.674 Y99.377 E7.80193
G1 X85.524 Y99.032 E7.81206
G1 X85.460 Y98.839 E7.81757
G1 X85.438 Y98.704 E7.82124
G1 X85.478 Y98.541 E7.82578
G1 X85.612 Y98.200 E7.83565
G1 X85.836 Y97.726 E7.84978
G1 X86.193 Y97.056 E7.87027
G1 X86.421 Y96.685 E7.88203
G1 X86.511 Y96.560 E7.88619
G1 X86.693 Y96.367 E7.89335
G1 X86.893 Y96.231 E7.89985
G1 X87.324 Y96.020 E7.91280
G1 X87.962 Y95.795 E7.93105
G1 X89.023 Y95.506 E7.96072
G1 X90.714 Y95.140 E8.00740
G1 X92.675 Y94.778 E8.06118
G1 X93.839 Y94.609 E8.09292
G1 X94.597 Y94.567 E8.11340
G1 X94.931 Y94.602 E8.12245
G1 X95.174 Y94.678 E8.12932
G1 X95.294 Y94.738 E8.13295
G1 X96.074 Y95.370 E8.16004
G1 X97.061 Y95.342 E8.18665
G1 X98.574 Y94.956 E8.22879
G1 X99.699 Y94.713 E8.25985
G1 X100.141 Y94.647 E8.27190
G1 X100.383 Y94.632 E8.27843
G1 X100.636 Y94.646 E8.28526
G1 X100.973 Y94.710 E8.29452
G1 X101.483 Y94.862 E8.30888
G1 X102.362 Y95.179 E8.33409
G1 X103.722 Y95.743 E8.37380
G1 X104.845 Y96.263 E8.40719
G1 X106.178 Y96.941 E8.44754
G1 X107.080 Y97.446 E8.47541
G1 X107.912 Y98.485 E8.51131
G1 X108.095 Y98.669 E8.51831
G1 X109.043 Y98.721 F7800.000
G1 F3600
G1 X108.259 Y99.513 E8.54836
G1 X107.401 Y100.548 E8.58464
G1 X106.536 Y101.032 E8.61137
G1 X105.504 Y101.565 E8.64271
G1 X104.545 Y102.025 E8.67140
G1 X103.603 Y102.445 E8.69923
G1 X102.681 Y102.823 E8.72611
G1 X101.859 Y103.125 E8.74973
G1 X101.154 Y103.343 E8.76964
G1 X100.709 Y103.431 E8.78189
G1 X100.271 Y103.444 E8.79369
G1 X99.710 Y103.377 E8.80894
G1 X98.436 Y103.107 E8.84408
G1 X96.920 Y102.720 E8.88628
G1 X96.211 Y102.792 E8.90550
G1 X95.724 Y103.182 E8.92234
G1 X95.466 Y103.333 E8.93041
G1 X95.226 Y103.423 E8.93730
G1 X94.952 Y103.484 E8.94490
G1 X94.627 Y103.511 E8.95367
G1 X93.906 Y103.480 E8.97315
G1 X93.197 Y103.391 E8.99244
G1 X91.790 Y103.155 E9.03092
G1 X90.222 Y102.853 E9.07398
G1 X88.930 Y102.568 E9.10968
G1 X87.976 Y102.317 E9.13628
G1 X87.255 Y102.080 E9.15678
G1 X86.822 Y101.896 E9.16947
G1 X86.462 Y101.693 E9.18060
G1 X86.176 Y101.461 E9.19055
G1 X85.988 Y101.246 E9.19825
G1 X85.766 Y100.913 E9.20905
G1 X85.474 Y100.403 E9.22490
G1 X85.098 Y99.645 E9.24772
G1 X84.930 Y99.259 E9.25909
G1 X84.841 Y98.990 E9.26672
G1 X84.803 Y98.679 E9.27517
G1 X84.870 Y98.348 E9.28428
G1 X85.029 Y97.948 E9.29590
G1 X85.268 Y97.441 E9.31101
G1 X85.641 Y96.740 E9.33244
G1 X85.892 Y96.332 E9.34536
G1 X86.018 Y96.157 E9.35117
G1 X86.305 Y95.862 E9.36227
G1 X86.573 Y95.680 E9.37103
G1 X87.078 Y95.433 E9.38618
G1 X87.772 Y95.188 E9.40605
G1 X88.872 Y94.888 E9.43680
G1 X90.589 Y94.516 E9.48419
G1 X92.571 Y94.151 E9.53857
G1 X93.768 Y93.977 E9.57119
G1 X94.304 Y93.935 E9.58570
G1 X94.608 Y93.932 E9.59390
G1 X95.071 Y93.980 E9.60645
G1 X95.413 Y94.087 E9.61613
G1 X95.711 Y94.250 E9.62529
G1 X96.294 Y94.728 E9.64562
G1 X96.972 Y94.709 E9.66393
G1 X98.428 Y94.337 E9.70447
G1 X99.586 Y94.087 E9.73641
G1 X100.075 Y94.014 E9.74976
G1 X100.380 Y93.996 E9.75801
G1 X100.712 Y94.013 E9.76698
G1 X101.124 Y94.092 E9.77828
G1 X101.682 Y94.258 E9.79399
G1 X102.592 Y94.586 E9.82008
G1 X103.978 Y95.160 E9.86055
G1 X105.123 Y95.691 E9.89460
G1 X106.478 Y96.380 E9.93561
G1 X107.498 Y96.953 E9.96717
G1 X108.386 Y98.061 E10.00548
G1 X108.990 Y98.668 E10.02858
G1 X109.674 Y98.853 F7800.000
G1 F1800
G1 X109.558 Y98.998 E10.03241
G1 X108.675 Y99.890 E10.05826
G1 X107.766 Y100.987 E10.08763
G1 X106.802 Y101.526 E10.11040
G1 X105.754 Y102.067 E10.13470
G1 X104.781 Y102.534 E10.15695
G1 X103.824 Y102.961 E10.17855
G1 X102.884 Y103.346 E10.19948
G1 X102.039 Y103.656 E10.21804
G1 X101.292 Y103.888 E10.23415
G1 X100.786 Y103.987 E10.24477
G1 X100.236 Y104.004 E10.25611
G1 X99.619 Y103.931 E10.26893
G1 X98.308 Y103.654 E10.29654
G1 X96.877 Y103.288 E10.32697
G1 X96.432 Y103.333 E10.33619
G1 X96.042 Y103.646 E10.34650
G1 X95.707 Y103.841 E10.35449
G1 X95.387 Y103.962 E10.36155
G1 X95.036 Y104.039 E10.36895
G1 X94.649 Y104.072 E10.37696
G1 X94.278 Y104.069 E10.38461
G1 X93.851 Y104.038 E10.39343
G1 X93.115 Y103.945 E10.40871
G1 X91.690 Y103.707 E10.43849
G1 X90.109 Y103.402 E10.47168
G1 X88.798 Y103.113 E10.49935
G1 X87.817 Y102.855 E10.52025
G1 X87.057 Y102.605 E10.53674
G1 X86.574 Y102.400 E10.54756
G1 X86.145 Y102.158 E10.55770
G1 X85.786 Y101.866 E10.56726
G1 X85.541 Y101.587 E10.57489
G1 X85.289 Y101.207 E10.58430
G1 X84.980 Y100.667 E10.59712
G1 X84.589 Y99.882 E10.61519
G1 X84.405 Y99.459 E10.62471
G1 X84.295 Y99.124 E10.63197
G1 X84.243 Y98.806 E10.63862
G1 X84.242 Y98.651 E10.64181
G1 X84.259 Y98.491 E10.64511
G1 X84.335 Y98.179 E10.65174
G1 X84.514 Y97.725 E10.66180
G1 X84.766 Y97.189 E10.67400
G1 X85.155 Y96.462 E10.69100
G1 X85.425 Y96.021 E10.70166
G1 X85.583 Y95.802 E10.70721
G1 X85.835 Y95.528 E10.71490
G1 X85.962 Y95.417 E10.71837
G1 X86.291 Y95.194 E10.72658
G1 X86.861 Y94.915 E10.73964
G1 X87.605 Y94.652 E10.75591
G1 X88.739 Y94.344 E10.78013
G1 X90.479 Y93.967 E10.81682
G1 X92.480 Y93.597 E10.85877
G1 X93.706 Y93.420 E10.88428
G1 X94.279 Y93.374 E10.89614
G1 X94.618 Y93.371 E10.90313
G1 X94.840 Y93.381 E10.90771
G1 X95.194 Y93.431 E10.91509
G1 X95.624 Y93.565 E10.92437
G1 X96.041 Y93.796 E10.93419
G1 X96.487 Y94.162 E10.94608
G1 X96.894 Y94.150 E10.95446
G1 X98.300 Y93.791 E10.98437
G1 X99.485 Y93.535 E11.00936
G1 X100.017 Y93.456 E11.02044
G1 X100.378 Y93.434 E11.02790
G1 X100.780 Y93.455 E11.03620
G1 X101.257 Y93.546 E11.04621
G1 X101.857 Y93.725 E11.05911
G1 X102.794 Y94.063 E11.07964
G1 X104.203 Y94.647 E11.11107
G1 X105.368 Y95.187 E11.13753
G1 X106.742 Y95.886 E11.16931
G1 X107.868 Y96.517 E11.19590
G1 X108.805 Y97.687 E11.22681
G1 X109.536 Y98.422 E11.24817
G1 X109.666 Y98.575 E11.25231
G1 X109.680 Y98.778 E11.25651
G1 X109.489 Y98.868 F7800.000
G1 E9.25651 F2400.00000
G92 E0
G1 X106.331 Y99.836 F7800.000
G1 E2.00000 F2400.00000
G1 F4800
G1 X106.905 Y99.261 E2.01934
G1 X107.557 Y98.475 E2.04362
G1 X107.225 Y98.061 E2.05625
G1 X104.474 Y100.812 E2.14882
G1 X103.794 Y101.138 E2.16675
G1 X102.844 Y101.560 E2.19149
G1 X106.795 Y97.610 E2.32443
G1 X106.231 Y97.293 E2.33983
G1 X101.396 Y102.128 E2.50252
G1 X100.619 Y102.378 E2.52194
G1 X100.322 Y102.437 E2.52913
G1 X100.203 Y102.439 E2.53196
G1 X105.650 Y96.993 E2.71524
G1 X105.066 Y96.696 E2.73083
G1 X99.425 Y102.337 E2.92067
G1 X98.697 Y102.184 E2.93835
G1 X104.472 Y96.409 E3.13267
G1 X103.870 Y96.130 E3.14845
G1 X97.988 Y102.012 E3.34638
G1 X97.286 Y101.833 E3.36361
G1 X103.253 Y95.866 E3.56437
G1 X102.630 Y95.608 E3.58041
G1 X96.507 Y101.731 E3.78645
G1 X95.527 Y101.830 E3.80989
G1 X101.992 Y95.365 E4.02745
G1 X101.336 Y95.140 E4.04396
G1 X93.978 Y102.498 E4.29153
G1 X93.187 Y102.408 E4.31047
G1 X100.595 Y95.000 E4.55973
G1 X100.039 Y95.069 E4.57306
G1 X99.537 Y95.177 E4.58529
G1 X92.431 Y102.283 E4.82439
G1 X91.679 Y102.155 E4.84255
G1 X98.385 Y95.448 E5.06821
G1 X97.377 Y95.706 E5.09298
G1 X97.243 Y95.710 E5.09616
G1 X90.940 Y102.012 E5.30825
G1 X90.202 Y101.869 E5.32613
G1 X96.337 Y95.735 E5.53255
G1 X96.103 Y95.741 E5.53812
G1 X95.742 Y95.449 E5.54917
G1 X89.481 Y101.710 E5.75985
G1 X88.767 Y101.543 E5.77730
G1 X95.255 Y95.055 E5.99562
G1 X95.181 Y95.001 E5.99778
G1 X95.032 Y94.955 E6.00152
G1 X94.917 Y94.938 E6.00426
G1 X94.485 Y94.944 E6.01454
G1 X88.071 Y101.358 E6.23038
G1 X87.411 Y101.137 E6.24694
G1 X93.481 Y95.066 E6.45121
G1 X92.425 Y95.242 E6.47670
G1 X86.837 Y100.830 E6.66472
G1 X86.737 Y100.727 E6.66813
G1 X86.477 Y100.309 E6.67984
G1 X91.344 Y95.442 E6.84363
G1 X90.231 Y95.674 E6.87069
G1 X86.171 Y99.734 E7.00730
G1 X85.888 Y99.136 E7.02303
G1 X89.084 Y95.940 E7.13059
G1 X88.373 Y96.134 E7.14812
G1 X87.811 Y96.332 E7.16230
G1 X86.392 Y97.752 E7.21006
G1 X86.752 Y97.162 E7.22651
G1 X86.851 Y97.057 E7.22993
G1 X86.961 Y96.983 E7.23309
G1 X87.346 Y96.797 E7.24326
G1 Z3.600 F7800.000
G1 X108.075 Y98.722 F7800.000
G1 F3600
G1 X107.551 Y99.323 E7.26480
G1 X106.768 Y100.305 E7.29867
G1 X106.064 Y100.692 E7.32033
G1 X105.135 Y101.159 E7.34839
G1 X104.459 Y101.473 E7.36848
G1 X103.445 Y101.910 E7.39828
G1 X102.534 Y102.262 E7.42464
G1 X101.798 Y102.515 E7.44561
G1 X101.255 Y102.674 E7.46088
G1 X100.854 Y102.757 E7.47194
G1 X100.556 Y102.768 E7.47997
G1 X100.121 Y102.712 E7.49182
G1 X98.373 Y102.330 E7.54006
G1 X96.969 Y101.984 E7.57907
G1 X95.981 Y102.046 E7.60577
G1 X95.213 Y102.703 E7.63307
G1 X95.040 Y102.793 E7.63831
G1 X94.839 Y102.864 E7.64407
G1 X94.439 Y102.906 E7.65493
G1 X94.021 Y102.891 E7.66620
G1 X93.601 Y102.846 E7.67759
G1 X92.348 Y102.643 E7.71184
G1 X90.642 Y102.315 E7.75871
G1 X89.426 Y102.057 E7.79223
G1 X88.301 Y101.781 E7.82348
G1 X87.432 Y101.517 E7.84798
G1 X86.991 Y101.338 E7.86082
G1 X86.725 Y101.194 E7.86899
G1 X86.623 Y101.116 E7.87245
G1 X86.393 Y100.791 E7.88318
G1 X86.085 Y100.246 E7.90006
G1 X85.711 Y99.525 E7.92198
G1 X85.425 Y98.889 E7.94080
G1 X85.385 Y98.741 E7.94494
G1 X85.405 Y98.620 E7.94825
G1 X85.560 Y98.227 E7.95964
G1 X85.963 Y97.428 E7.98380
G1 X86.499 Y96.485 E8.01304
G1 X86.610 Y96.342 E8.01793
G1 X86.711 Y96.257 E8.02148
G1 X87.131 Y96.042 E8.03422
G1 X87.774 Y95.814 E8.05261
G1 X88.670 Y95.565 E8.07771
G1 X90.431 Y95.170 E8.12640
G1 X92.737 Y94.732 E8.18971
G1 X93.841 Y94.568 E8.21982
G1 X94.459 Y94.539 E8.23650
G1 X94.782 Y94.572 E8.24526
G1 X95.040 Y94.647 E8.25252
G1 X95.214 Y94.740 E8.25784
G1 X95.416 Y94.893 E8.26466
G1 X95.820 Y95.261 E8.27941
G1 X96.384 Y95.411 E8.29516
G1 X96.956 Y95.470 E8.31067
G1 X98.576 Y95.066 E8.35571
G1 X100.066 Y94.741 E8.39685
G1 X100.439 Y94.684 E8.40703
G1 X100.644 Y94.674 E8.41255
G1 X100.983 Y94.707 E8.42174
G1 X101.456 Y94.823 E8.43487
G1 X102.335 Y95.110 E8.45982
G1 X103.442 Y95.533 E8.49179
G1 X104.613 Y96.040 E8.52622
G1 X105.675 Y96.550 E8.55801
G1 X106.733 Y97.116 E8.59038
G1 X106.887 Y97.208 E8.59521
G1 X107.487 Y98.019 E8.62244
G1 X108.027 Y98.664 E8.64512
G1 X108.815 Y98.775 F7800.000
G1 F3600
G1 X108.746 Y98.856 E8.64799
G1 X108.658 Y99.020 E8.65301
G1 X108.039 Y99.730 E8.67844
G1 X107.182 Y100.800 E8.71541
G1 X106.360 Y101.255 E8.74074
G1 X105.411 Y101.732 E8.76939
G1 X104.719 Y102.053 E8.78998
G1 X103.685 Y102.498 E8.82034
G1 X102.752 Y102.859 E8.84734
G1 X101.991 Y103.121 E8.86903
G1 X101.409 Y103.292 E8.88540
G1 X100.948 Y103.387 E8.89811
G1 X100.517 Y103.403 E8.90974
G1 X100.012 Y103.339 E8.92346
G1 X98.230 Y102.949 E8.97269
G1 X96.912 Y102.625 E9.00931
G1 X96.238 Y102.667 E9.02752
G1 X95.716 Y103.125 E9.04624
G1 X95.546 Y103.247 E9.05190
G1 X95.294 Y103.377 E9.05955
G1 X95.009 Y103.478 E9.06770
G1 X94.852 Y103.510 E9.07204
G1 X94.453 Y103.543 E9.08284
G1 X93.975 Y103.526 E9.09573
G1 X93.516 Y103.476 E9.10818
G1 X92.237 Y103.269 E9.14314
G1 X90.516 Y102.938 E9.19042
G1 X89.284 Y102.677 E9.22438
G1 X88.133 Y102.395 E9.25637
G1 X87.220 Y102.116 E9.28211
G1 X86.720 Y101.914 E9.29667
G1 X86.394 Y101.737 E9.30667
G1 X86.172 Y101.566 E9.31422
G1 X86.068 Y101.444 E9.31856
G1 X85.853 Y101.126 E9.32892
G1 X85.527 Y100.549 E9.34679
G1 X85.139 Y99.802 E9.36951
G1 X84.825 Y99.105 E9.39013
G1 X84.758 Y98.860 E9.39698
G1 X84.747 Y98.701 E9.40126
G1 X84.787 Y98.463 E9.40780
G1 X84.985 Y97.957 E9.42245
G1 X85.401 Y97.131 E9.44739
G1 X85.784 Y96.434 E9.46885
G1 X85.976 Y96.123 E9.47871
G1 X86.142 Y95.908 E9.48603
G1 X86.280 Y95.784 E9.49105
G1 X86.541 Y95.620 E9.49935
G1 X86.887 Y95.455 E9.50971
G1 X87.582 Y95.207 E9.52960
G1 X88.516 Y94.949 E9.55575
G1 X90.302 Y94.548 E9.60514
G1 X92.631 Y94.106 E9.66908
G1 X93.767 Y93.936 E9.70007
G1 X94.107 Y93.908 E9.70926
G1 X94.487 Y93.903 E9.71952
G1 X94.904 Y93.945 E9.73083
G1 X95.282 Y94.056 E9.74144
G1 X95.557 Y94.203 E9.74988
G1 X95.822 Y94.403 E9.75882
G1 X96.134 Y94.686 E9.77018
G1 X96.500 Y94.784 E9.78040
G1 X96.911 Y94.826 E9.79155
G1 X98.431 Y94.447 E9.83383
G1 X99.950 Y94.115 E9.87577
G1 X100.377 Y94.050 E9.88740
G1 X100.660 Y94.037 E9.89505
G1 X101.090 Y94.079 E9.90670
G1 X101.630 Y94.211 E9.92171
G1 X102.547 Y94.510 E9.94773
G1 X103.682 Y94.944 E9.98050
G1 X104.877 Y95.462 E10.01564
G1 X105.963 Y95.983 E10.04813
G1 X107.288 Y96.707 E10.08887
G1 X107.331 Y96.739 E10.09030
G1 X107.987 Y97.626 E10.12007
G1 X108.606 Y98.366 E10.14611
G1 X108.776 Y98.615 E10.15423
G1 X108.797 Y98.702 E10.15666
G1 X109.344 Y98.887 F7800.000
G1 F1800
G1 X109.288 Y99.086 E10.16093
G1 X109.211 Y99.175 E10.16336
G1 X109.123 Y99.340 E10.16722
G1 X108.470 Y100.090 E10.18771
G1 X107.546 Y101.233 E10.21799
G1 X106.621 Y101.751 E10.23984
G1 X105.655 Y102.236 E10.26213
G1 X104.948 Y102.565 E10.27820
G1 X103.897 Y103.017 E10.30178
G1 X102.944 Y103.386 E10.32284
G1 X102.162 Y103.655 E10.33989
G1 X101.545 Y103.836 E10.35314
G1 X101.031 Y103.942 E10.36396
G1 X100.482 Y103.964 E10.37527
G1 X99.917 Y103.892 E10.38702
G1 X98.103 Y103.495 E10.42530
G1 X96.861 Y103.189 E10.45165
G1 X96.464 Y103.214 E10.45985
G1 X96.065 Y103.564 E10.47079
G1 X95.840 Y103.726 E10.47651
G1 X95.518 Y103.893 E10.48397
G1 X95.160 Y104.020 E10.49181
G1 X94.931 Y104.067 E10.49662
G1 X94.465 Y104.104 E10.50625
G1 X93.935 Y104.085 E10.51718
G1 X93.442 Y104.032 E10.52741
G1 X92.139 Y103.822 E10.55460
G1 X90.405 Y103.488 E10.59101
G1 X89.159 Y103.224 E10.61725
G1 X87.984 Y102.935 E10.64219
G1 X87.033 Y102.645 E10.66268
G1 X86.480 Y102.422 E10.67497
G1 X86.102 Y102.217 E10.68385
G1 X85.775 Y101.964 E10.69236
G1 X85.621 Y101.785 E10.69722
G1 X85.375 Y101.421 E10.70627
G1 X85.034 Y100.816 E10.72059
G1 X84.634 Y100.046 E10.73848
G1 X84.296 Y99.295 E10.75544
G1 X84.207 Y98.971 E10.76238
G1 X84.186 Y98.656 E10.76887
G1 X84.242 Y98.324 E10.77582
G1 X84.349 Y98.012 E10.78263
G1 X84.477 Y97.718 E10.78923
G1 X84.905 Y96.870 E10.80880
G1 X85.299 Y96.152 E10.82569
G1 X85.514 Y95.803 E10.83413
G1 X85.729 Y95.526 E10.84137
G1 X85.929 Y95.345 E10.84693
G1 X86.277 Y95.125 E10.85541
G1 X86.671 Y94.936 E10.86442
G1 X87.413 Y94.672 E10.88064
G1 X88.380 Y94.405 E10.90132
G1 X90.189 Y93.999 E10.93953
G1 X92.537 Y93.553 E10.98880
G1 X93.702 Y93.379 E11.01307
G1 X94.080 Y93.347 E11.02088
G1 X94.512 Y93.342 E11.02979
G1 X95.012 Y93.393 E11.04015
G1 X95.495 Y93.534 E11.05052
G1 X95.860 Y93.729 E11.05906
G1 X96.180 Y93.971 E11.06732
G1 X96.410 Y94.180 E11.07372
G1 X96.601 Y94.231 E11.07780
G1 X96.870 Y94.259 E11.08338
G1 X98.304 Y93.901 E11.11382
G1 X99.848 Y93.564 E11.14640
G1 X100.321 Y93.492 E11.15627
G1 X100.674 Y93.476 E11.16354
G1 X101.184 Y93.525 E11.17411
G1 X101.784 Y93.672 E11.18684
G1 X102.734 Y93.981 E11.20743
G1 X103.893 Y94.424 E11.23301
G1 X105.110 Y94.952 E11.26034
G1 X106.217 Y95.483 E11.28564
G1 X107.601 Y96.240 E11.31816
G1 X107.733 Y96.340 E11.32157
G1 X108.428 Y97.279 E11.34565
G1 X109.054 Y98.028 E11.36577
G1 X109.295 Y98.383 E11.37461
G1 X109.365 Y98.660 E11.38051
G1 X109.360 Y98.813 E11.38366
G1 X109.250 Y98.922 F7800.000
G1 E9.38366 F2400.00000
G92 E0
G1 X106.734 Y97.924 F7800.000
G1 E2.00000 F2400.00000
G1 F4800
G1 X106.225 Y97.416 E2.01710
G1 X105.172 Y96.851 E2.04555
G1 X104.417 Y96.488 E2.06548
G1 X107.225 Y99.297 E2.15997
G1 X106.834 Y99.787 E2.17488
G1 X102.851 Y95.803 E2.30893
G1 X101.903 Y95.441 E2.33306
G1 X101.465 Y95.298 E2.34402
G1 X106.369 Y100.202 E2.50904
G1 X105.794 Y100.508 E2.52454
G1 X100.330 Y95.044 E2.70840
G1 X99.942 Y95.096 E2.71770
G1 X99.580 Y95.176 E2.72652
G1 X105.207 Y100.803 E2.91587
G1 X104.601 Y101.078 E2.93170
G1 X98.857 Y95.334 E3.12498
G1 X98.143 Y95.500 E3.14243
G1 X103.991 Y101.348 E3.33922
G1 X103.378 Y101.617 E3.35514
G1 X97.438 Y95.676 E3.55503
G1 X96.767 Y95.843 E3.57149
G1 X96.719 Y95.838 E3.57262
G1 X102.743 Y101.862 E3.77532
G1 X102.093 Y102.093 E3.79173
G1 X95.669 Y95.669 E4.00792
G1 X95.293 Y95.568 E4.01716
G1 X94.801 Y95.121 E4.03299
G1 X94.580 Y94.971 E4.03933
G1 X94.434 Y94.929 E4.04296
G1 X94.210 Y94.906 E4.04831
G1 X94.033 Y94.914 E4.05252
G1 X101.422 Y102.303 E4.30114
G1 X101.015 Y102.394 E4.31107
G1 X100.816 Y102.401 E4.31580
G1 X100.613 Y102.375 E4.32067
G1 X93.234 Y94.996 E4.56896
G1 X92.472 Y95.115 E4.58731
G1 X99.504 Y102.147 E4.82394
G1 X98.363 Y101.887 E4.85178
G1 X91.732 Y95.255 E5.07492
G1 X90.991 Y95.396 E5.09285
G1 X97.212 Y101.617 E5.30218
G1 X96.383 Y101.669 E5.32194
G1 X90.253 Y95.538 E5.52821
G1 X89.533 Y95.700 E5.54576
G1 X95.736 Y101.902 E5.75446
G1 X95.267 Y102.314 E5.76932
G1 X88.814 Y95.861 E5.98645
G1 X88.115 Y96.043 E6.00364
G1 X94.610 Y102.538 E6.22220
G1 X94.296 Y102.527 E6.22967
G1 X93.631 Y102.440 E6.24564
G1 X87.442 Y96.251 E6.45388
G1 X87.140 Y96.359 E6.46152
G1 X86.831 Y96.521 E6.46982
G1 X92.576 Y102.266 E6.66313
G1 X91.485 Y102.056 E6.68956
G1 X86.493 Y97.064 E6.85753
G1 X86.180 Y97.632 E6.87296
G1 X90.379 Y101.831 E7.01426
G1 X89.238 Y101.571 E7.04211
G1 X85.885 Y98.218 E7.15493
G1 X85.774 Y98.491 E7.16195
G1 X86.017 Y99.032 E7.17605
G1 X86.232 Y99.446 E7.18715
G1 X88.017 Y101.231 E7.24722
G1 X87.479 Y101.029 E7.26091
G1 X87.261 Y100.895 E7.26700
G1 X87.135 Y100.709 E7.27235
G1 X86.697 Y99.911 E7.29399
G1 Z3.900 F7800.000
G1 X107.815 Y98.724 F7800.000
G1 F3600
G1 X107.554 Y99.269 E7.31028
G1 X106.570 Y100.527 E7.35338
G1 X105.884 Y100.903 E7.37446
G1 X104.532 Y101.534 E7.41472
G1 X103.589 Y101.921 E7.44221
G1 X102.659 Y102.260 E7.46893
G1 X101.936 Y102.491 E7.48941
G1 X101.289 Y102.662 E7.50745
G1 X101.062 Y102.699 E7.51366
G1 X100.837 Y102.709 E7.51972
G1 X100.488 Y102.669 E7.52921
G1 X98.375 Y102.205 E7.58757
G1 X96.981 Y101.872 E7.62624
G1 X95.946 Y101.938 E7.65420
G1 X95.287 Y102.541 E7.67830
G1 X95.068 Y102.699 E7.68559
G1 X94.859 Y102.805 E7.69191
G1 X94.710 Y102.853 E7.69613
G1 X94.475 Y102.899 E7.70260
G1 X94.238 Y102.913 E7.70899
G1 X93.974 Y102.907 E7.71612
G1 X93.536 Y102.861 E7.72800
G1 X92.484 Y102.686 E7.75677
G1 X90.692 Y102.337 E7.80602
G1 X89.238 Y102.025 E7.84614
G1 X88.115 Y101.748 E7.87734
G1 X87.417 Y101.538 E7.89699
G1 X86.936 Y101.349 E7.91093
G1 X86.731 Y101.243 E7.91717
G1 X86.633 Y101.169 E7.92048
G1 X86.347 Y100.674 E7.93589
G1 X85.823 Y99.682 E7.96617
G1 X85.500 Y99.025 E7.98591
G1 X85.446 Y98.892 E7.98979
G1 X85.406 Y98.697 E7.99515
G1 X85.446 Y98.551 E7.99924
G1 X85.625 Y98.152 E8.01104
G1 X86.521 Y96.455 E8.06280
G1 X86.635 Y96.269 E8.06870
G1 X87.103 Y96.023 E8.08295
G1 X87.754 Y95.799 E8.10154
G1 X88.662 Y95.554 E8.12690
G1 X90.255 Y95.196 E8.17094
G1 X92.887 Y94.685 E8.24327
G1 X93.822 Y94.548 E8.26876
G1 X94.103 Y94.530 E8.27636
G1 X94.604 Y94.565 E8.28991
G1 X94.853 Y94.632 E8.29688
G1 X95.126 Y94.777 E8.30520
G1 X95.495 Y95.082 E8.31812
G1 X96.062 Y95.496 E8.33706
G1 X96.748 Y95.639 E8.35596
G1 X98.041 Y95.314 E8.39192
G1 X100.433 Y94.784 E8.45801
G1 X100.718 Y94.740 E8.46579
G1 X100.948 Y94.733 E8.47200
G1 X101.262 Y94.776 E8.48055
G1 X102.122 Y95.009 E8.50458
G1 X103.217 Y95.382 E8.53579
G1 X104.164 Y95.754 E8.56325
G1 X105.124 Y96.173 E8.59151
G1 X106.002 Y96.601 E8.61785
G1 X106.622 Y96.944 E8.63696
G1 X106.678 Y96.981 E8.63877
G1 X107.504 Y98.100 E8.67629
G1 X107.783 Y98.656 E8.69309
G1 X108.478 Y98.787 F7800.000
G1 F3600
G1 X108.071 Y99.639 E8.71856
G1 X106.988 Y101.017 E8.76583
G1 X106.176 Y101.467 E8.79088
G1 X104.783 Y102.118 E8.83236
G1 X103.819 Y102.514 E8.86048
G1 X102.864 Y102.861 E8.88788
G1 X102.114 Y103.102 E8.90913
G1 X101.422 Y103.285 E8.92845
G1 X101.127 Y103.333 E8.93652
G1 X100.815 Y103.346 E8.94493
G1 X100.383 Y103.297 E8.95666
G1 X98.233 Y102.825 E9.01605
G1 X96.926 Y102.513 E9.05229
G1 X96.210 Y102.558 E9.07164
G1 X95.689 Y103.035 E9.09070
G1 X95.399 Y103.245 E9.10036
G1 X95.101 Y103.394 E9.10933
G1 X94.870 Y103.470 E9.11591
G1 X94.555 Y103.530 E9.12455
G1 X94.250 Y103.549 E9.13279
G1 X93.933 Y103.542 E9.14134
G1 X93.451 Y103.491 E9.15444
G1 X92.371 Y103.312 E9.18396
G1 X90.564 Y102.960 E9.23361
G1 X89.095 Y102.645 E9.27416
G1 X87.947 Y102.361 E9.30605
G1 X87.210 Y102.139 E9.32682
G1 X86.673 Y101.929 E9.34238
G1 X86.276 Y101.701 E9.35472
G1 X86.174 Y101.612 E9.35836
G1 X86.093 Y101.505 E9.36200
G1 X85.790 Y100.982 E9.37829
G1 X85.256 Y99.970 E9.40915
G1 X84.920 Y99.286 E9.42974
G1 X84.781 Y98.878 E9.44135
G1 X84.766 Y98.656 E9.44735
G1 X84.846 Y98.336 E9.45626
G1 X85.054 Y97.873 E9.46994
G1 X85.968 Y96.140 E9.52279
G1 X86.107 Y95.914 E9.52996
G1 X86.202 Y95.802 E9.53393
G1 X86.390 Y95.665 E9.54021
G1 X86.858 Y95.435 E9.55427
G1 X87.568 Y95.190 E9.57452
G1 X88.510 Y94.937 E9.60083
G1 X90.125 Y94.574 E9.64548
G1 X92.780 Y94.058 E9.71846
G1 X93.755 Y93.916 E9.74504
G1 X94.088 Y93.894 E9.75403
G1 X94.369 Y93.899 E9.76160
G1 X94.718 Y93.938 E9.77109
G1 X95.113 Y94.050 E9.78216
G1 X95.463 Y94.237 E9.79287
G1 X95.666 Y94.383 E9.79962
G1 X95.895 Y94.586 E9.80787
G1 X96.326 Y94.902 E9.82229
G1 X96.735 Y94.987 E9.83355
G1 X97.895 Y94.696 E9.86581
G1 X100.315 Y94.159 E9.93269
G1 X100.660 Y94.105 E9.94210
G1 X100.962 Y94.097 E9.95026
G1 X101.399 Y94.154 E9.96214
G1 X102.308 Y94.400 E9.98753
G1 X103.436 Y94.785 E10.01969
G1 X104.408 Y95.166 E10.04786
G1 X105.391 Y95.596 E10.07681
G1 X106.295 Y96.037 E10.10394
G1 X107.122 Y96.511 E10.12964
G1 X108.042 Y97.759 E10.17146
G1 X108.204 Y98.059 E10.18067
G1 X108.452 Y98.586 E10.19638
G1 X108.494 Y98.714 E10.20001
G1 X109.001 Y98.987 F7800.000
G1 F1800
G1 X108.602 Y99.849 E10.21959
G1 X108.529 Y99.963 E10.22239
G1 X107.354 Y101.448 E10.26141
G1 X106.434 Y101.965 E10.28317
G1 X105.780 Y102.284 E10.29815
G1 X105.005 Y102.633 E10.31568
G1 X104.021 Y103.037 E10.33760
G1 X103.046 Y103.392 E10.35898
G1 X102.272 Y103.640 E10.37574
G1 X101.538 Y103.834 E10.39137
G1 X101.184 Y103.891 E10.39878
G1 X100.795 Y103.908 E10.40680
G1 X100.291 Y103.850 E10.41726
G1 X98.108 Y103.371 E10.46333
G1 X96.878 Y103.077 E10.48939
G1 X96.443 Y103.105 E10.49836
G1 X96.044 Y103.471 E10.50953
G1 X95.690 Y103.726 E10.51851
G1 X95.315 Y103.914 E10.52716
G1 X95.010 Y104.013 E10.53377
G1 X94.626 Y104.088 E10.54183
G1 X94.261 Y104.110 E10.54937
G1 X93.898 Y104.102 E10.55686
G1 X93.375 Y104.047 E10.56768
G1 X92.271 Y103.864 E10.59075
G1 X90.452 Y103.509 E10.62895
G1 X88.969 Y103.191 E10.66021
G1 X87.799 Y102.902 E10.68505
G1 X87.026 Y102.669 E10.70168
G1 X86.440 Y102.440 E10.71465
G1 X86.114 Y102.270 E10.72223
G1 X85.932 Y102.145 E10.72679
G1 X85.762 Y101.997 E10.73143
G1 X85.625 Y101.816 E10.73611
G1 X85.300 Y101.254 E10.74950
G1 X84.757 Y100.225 E10.77347
G1 X84.408 Y99.515 E10.78977
G1 X84.313 Y99.281 E10.79498
G1 X84.226 Y98.974 E10.80155
G1 X84.203 Y98.642 E10.80841
G1 X84.220 Y98.498 E10.81141
G1 X84.317 Y98.145 E10.81894
G1 X84.550 Y97.627 E10.83064
G1 X85.481 Y95.863 E10.87177
G1 X85.651 Y95.585 E10.87849
G1 X85.798 Y95.411 E10.88317
G1 X86.105 Y95.180 E10.89108
G1 X86.642 Y94.916 E10.90343
G1 X87.404 Y94.654 E10.92003
G1 X88.375 Y94.393 E10.94076
G1 X90.010 Y94.025 E10.97529
G1 X92.686 Y93.505 E11.03148
G1 X93.697 Y93.358 E11.05254
G1 X94.074 Y93.334 E11.06033
G1 X94.404 Y93.339 E11.06713
G1 X94.818 Y93.385 E11.07571
G1 X95.341 Y93.537 E11.08694
G1 X95.761 Y93.760 E11.09673
G1 X96.559 Y94.377 E11.11754
G1 X96.723 Y94.412 E11.12099
G1 X97.766 Y94.150 E11.14314
G1 X100.211 Y93.608 E11.19477
G1 X100.609 Y93.546 E11.20306
G1 X100.975 Y93.535 E11.21062
G1 X101.208 Y93.553 E11.21542
G1 X101.520 Y93.606 E11.22195
G1 X102.471 Y93.864 E11.24227
G1 X103.629 Y94.259 E11.26746
G1 X104.622 Y94.648 E11.28947
G1 X105.626 Y95.087 E11.31205
G1 X106.554 Y95.540 E11.33332
G1 X107.239 Y95.918 E11.34945
G1 X107.466 Y96.066 E11.35503
G1 X107.539 Y96.132 E11.35706
G1 X108.516 Y97.457 E11.39100
G1 X108.705 Y97.806 E11.39917
G1 X108.972 Y98.374 E11.41210
G1 X109.053 Y98.663 E11.41829
G1 X109.050 Y98.795 E11.42101
G1 X109.023 Y98.915 E11.42355
G1 X108.845 Y99.023 F7800.000
G1 E9.42355 F2400.00000
G92 E0
G1 X105.788 Y100.379 F7800.000
G1 E2.00000 F2400.00000
G1 F4800
G1 X106.656 Y99.510 E2.02922
G1 X107.275 Y98.719 E2.05313
G1 X107.382 Y98.497 E2.05899
G1 X107.174 Y98.112 E2.06939
G1 X104.073 Y101.213 E2.17373
G1 X103.141 Y101.596 E2.19771
G1 X102.619 Y101.785 E2.21091
G1 X106.800 Y97.605 E2.35157
G1 X106.500 Y97.199 E2.36358
G1 X106.387 Y97.136 E2.36664
G1 X101.316 Y102.208 E2.53728
G1 X100.768 Y102.336 E2.55067
G1 X100.626 Y102.342 E2.55406
G1 X100.336 Y102.307 E2.56101
G1 X105.814 Y96.829 E2.74534
G1 X105.222 Y96.540 E2.76101
G1 X99.613 Y102.148 E2.94973
G1 X98.891 Y101.990 E2.96733
G1 X104.613 Y96.268 E3.15986
G1 X103.994 Y96.006 E3.17585
G1 X98.170 Y101.830 E3.37182
G1 X97.459 Y101.660 E3.38922
G1 X103.362 Y95.757 E3.58782
G1 X102.709 Y95.529 E3.60427
G1 X96.732 Y101.507 E3.80542
G1 X95.791 Y101.567 E3.82785
G1 X102.045 Y95.312 E4.03831
G1 X101.349 Y95.127 E4.05545
G1 X93.930 Y102.546 E4.30508
G1 X93.383 Y102.501 E4.31814
G1 X93.136 Y102.460 E4.32412
G1 X100.365 Y95.231 E4.56737
G1 X99.233 Y95.482 E4.59496
G1 X92.380 Y102.334 E4.82553
G1 X91.643 Y102.191 E4.84341
G1 X98.089 Y95.745 E5.06032
G1 X96.993 Y96.019 E5.08720
G1 X96.943 Y96.009 E5.08840
G1 X90.906 Y102.047 E5.29157
G1 X90.579 Y101.983 E5.29949
G1 X90.175 Y101.897 E5.30932
G1 X96.214 Y95.857 E5.51254
G1 X96.046 Y95.823 E5.51662
G1 X95.655 Y95.536 E5.52817
G1 X89.449 Y101.741 E5.73696
G1 X88.735 Y101.575 E5.75442
G1 X95.157 Y95.153 E5.97050
G1 X95.028 Y95.047 E5.97446
G1 X94.835 Y94.949 E5.97962
G1 X94.528 Y94.901 E5.98701
G1 X88.029 Y101.400 E6.20570
G1 X87.354 Y101.194 E6.22250
G1 X93.555 Y94.993 E6.43116
G1 X92.481 Y95.186 E6.45710
G1 X86.789 Y100.878 E6.64866
G1 X86.476 Y100.311 E6.66409
G1 X91.388 Y95.398 E6.82940
G1 X90.283 Y95.622 E6.85624
G1 X86.171 Y99.734 E6.99459
G1 X85.879 Y99.146 E7.01022
G1 X89.146 Y95.878 E7.12016
G1 X88.162 Y96.138 E7.14438
G1 X87.923 Y96.220 E7.15040
G1 X86.416 Y97.727 E7.20111
G1 X86.827 Y96.954 E7.22194
G1 X87.108 Y96.806 E7.22951
G1 X87.458 Y96.686 E7.23830
G1 Z4.200 F7800.000
G1 X107.474 Y98.715 F7800.000
G1 F3600
G1 X106.982 Y99.705 E7.26813
G1 X106.680 Y100.243 E7.28478
G1 X106.460 Y100.539 E7.29472
G1 X106.240 Y100.729 E7.30258
G1 X106.000 Y100.883 E7.31024
G1 X105.459 Y101.167 E7.32674
G1 X104.648 Y101.534 E7.35077
G1 X103.885 Y101.842 E7.37294
G1 X103.162 Y102.104 E7.39370
G1 X102.428 Y102.338 E7.41448
G1 X101.723 Y102.533 E7.43420
G1 X101.331 Y102.612 E7.44501
G1 X101.090 Y102.630 E7.45151
G1 X100.854 Y102.608 E7.45793
G1 X99.733 Y102.340 E7.48899
G1 X98.358 Y102.064 E7.52685
G1 X96.982 Y101.741 E7.56496
G1 X96.732 Y101.759 E7.57173
G1 X96.270 Y101.673 E7.58441
G1 X95.584 Y102.107 E7.60632
G1 X95.233 Y102.440 E7.61934
G1 X94.895 Y102.678 E7.63051
G1 X94.690 Y102.773 E7.63659
G1 X94.507 Y102.833 E7.64180
G1 X94.218 Y102.886 E7.64972
G1 X94.039 Y102.898 E7.65455
G1 X93.634 Y102.878 E7.66549
G1 X92.740 Y102.738 E7.68990
G1 X89.423 Y102.062 E7.78123
G1 X88.276 Y101.788 E7.81304
G1 X87.568 Y101.592 E7.83287
G1 X87.129 Y101.441 E7.84538
G1 X86.865 Y101.321 E7.85320
G1 X86.725 Y101.231 E7.85769
G1 X85.756 Y99.363 E7.91446
G1 X85.525 Y98.837 E7.92996
G1 X85.494 Y98.725 E7.93308
G1 X85.596 Y98.429 E7.94154
G1 X85.827 Y97.944 E7.95603
G1 X86.732 Y96.196 E8.00912
G1 X86.969 Y96.069 E8.01636
G1 X87.570 Y95.851 E8.03363
G1 X88.480 Y95.603 E8.05908
G1 X90.033 Y95.248 E8.10203
G1 X92.732 Y94.706 E8.17629
G1 X93.637 Y94.564 E8.20102
G1 X93.912 Y94.545 E8.20844
G1 X94.410 Y94.587 E8.22193
G1 X94.587 Y94.631 E8.22685
G1 X94.902 Y94.769 E8.23612
G1 X95.217 Y94.993 E8.24657
G1 X95.553 Y95.302 E8.25886
G1 X96.454 Y95.833 E8.28709
G1 X98.176 Y95.418 E8.33486
G1 X99.833 Y95.081 E8.38047
G1 X100.752 Y94.852 E8.40602
G1 X100.976 Y94.816 E8.41214
G1 X101.398 Y94.841 E8.42353
G1 X102.039 Y94.992 E8.44130
G1 X103.170 Y95.342 E8.47324
G1 X104.071 Y95.671 E8.49912
G1 X105.339 Y96.217 E8.53636
G1 X106.104 Y96.625 E8.55976
G1 X106.458 Y96.909 E8.57199
G1 X106.637 Y97.136 E8.57979
G1 X106.791 Y97.387 E8.58774
G1 X107.440 Y98.648 E8.62600
G1 X108.179 Y98.725 F7800.000
G1 F3600
G1 X107.544 Y100.002 E8.66448
G1 X107.223 Y100.574 E8.68218
G1 X107.089 Y100.778 E8.68876
G1 X106.915 Y100.986 E8.69608
G1 X106.620 Y101.240 E8.70657
G1 X106.320 Y101.432 E8.71618
G1 X105.738 Y101.738 E8.73392
G1 X104.898 Y102.119 E8.75881
G1 X104.113 Y102.435 E8.78164
G1 X103.367 Y102.706 E8.80305
G1 X102.609 Y102.948 E8.82450
G1 X101.871 Y103.151 E8.84516
G1 X101.417 Y103.243 E8.85765
G1 X101.084 Y103.268 E8.86666
G1 X100.750 Y103.237 E8.87572
G1 X99.597 Y102.961 E8.90769
G1 X98.223 Y102.685 E8.94551
G1 X96.931 Y102.382 E8.98129
G1 X96.696 Y102.399 E8.98765
G1 X96.399 Y102.344 E8.99581
G1 X95.976 Y102.611 E9.00930
G1 X95.645 Y102.926 E9.02162
G1 X95.369 Y103.134 E9.03096
G1 X95.194 Y103.240 E9.03647
G1 X94.923 Y103.366 E9.04452
G1 X94.663 Y103.450 E9.05189
G1 X94.297 Y103.518 E9.06195
G1 X94.044 Y103.534 E9.06879
G1 X93.569 Y103.511 E9.08160
G1 X92.630 Y103.365 E9.10726
G1 X89.283 Y102.682 E9.19939
G1 X88.117 Y102.404 E9.23173
G1 X87.379 Y102.199 E9.25239
G1 X86.894 Y102.032 E9.26622
G1 X86.560 Y101.881 E9.27612
G1 X86.298 Y101.712 E9.28453
G1 X86.168 Y101.537 E9.29042
G1 X85.183 Y99.637 E9.34814
G1 X84.924 Y99.050 E9.36545
G1 X84.873 Y98.863 E9.37068
G1 X84.859 Y98.699 E9.37513
G1 X84.881 Y98.555 E9.37905
G1 X85.006 Y98.188 E9.38950
G1 X85.257 Y97.662 E9.40523
G1 X86.187 Y95.868 E9.45975
G1 X86.252 Y95.775 E9.46281
G1 X86.342 Y95.693 E9.46610
G1 X86.691 Y95.496 E9.47690
G1 X87.382 Y95.244 E9.49674
G1 X88.326 Y94.986 E9.52314
G1 X89.900 Y94.627 E9.56668
G1 X92.620 Y94.081 E9.64153
G1 X93.565 Y93.932 E9.66735
G1 X93.894 Y93.909 E9.67623
G1 X94.521 Y93.960 E9.69322
G1 X94.777 Y94.024 E9.70032
G1 X95.007 Y94.111 E9.70697
G1 X95.354 Y94.301 E9.71764
G1 X95.624 Y94.503 E9.72673
G1 X95.934 Y94.788 E9.73808
G1 X96.556 Y95.155 E9.75756
G1 X98.038 Y94.797 E9.79870
G1 X99.693 Y94.461 E9.84424
G1 X100.625 Y94.229 E9.87015
G1 X100.907 Y94.184 E9.87787
G1 X101.068 Y94.174 E9.88222
G1 X101.517 Y94.216 E9.89437
G1 X102.206 Y94.378 E9.91346
G1 X103.373 Y94.740 E9.94643
G1 X104.305 Y95.080 E9.97321
G1 X105.611 Y95.642 E10.01155
G1 X106.149 Y95.920 E10.02787
G1 X106.581 Y96.181 E10.04151
G1 X106.917 Y96.466 E10.05339
G1 X107.159 Y96.771 E10.06390
G1 X107.345 Y97.075 E10.07351
G1 X108.151 Y98.655 E10.12137
G1 X108.711 Y98.886 F7800.000
G1 F1800
G1 X108.040 Y100.264 E10.15297
G1 X107.702 Y100.866 E10.16719
G1 X107.540 Y101.112 E10.17327
G1 X107.316 Y101.381 E10.18047
G1 X106.956 Y101.691 E10.19027
G1 X106.603 Y101.918 E10.19892
G1 X105.984 Y102.242 E10.21331
G1 X105.118 Y102.634 E10.23290
G1 X104.313 Y102.959 E10.25079
G1 X103.548 Y103.237 E10.26758
G1 X102.769 Y103.485 E10.28443
G1 X102.001 Y103.697 E10.30084
G1 X101.494 Y103.800 E10.31152
G1 X101.079 Y103.830 E10.32008
G1 X100.658 Y103.791 E10.32879
G1 X99.477 Y103.509 E10.35383
G1 X98.103 Y103.233 E10.38270
G1 X96.886 Y102.948 E10.40847
G1 X96.664 Y102.963 E10.41305
G1 X96.513 Y102.935 E10.41623
G1 X96.322 Y103.056 E10.42087
G1 X96.008 Y103.354 E10.42980
G1 X95.683 Y103.599 E10.43820
G1 X95.458 Y103.735 E10.44362
G1 X95.129 Y103.888 E10.45109
G1 X94.801 Y103.995 E10.45819
G1 X94.366 Y104.075 E10.46732
G1 X94.048 Y104.096 E10.47390
G1 X93.512 Y104.069 E10.48494
G1 X92.532 Y103.917 E10.50539
G1 X89.160 Y103.229 E10.57631
G1 X87.977 Y102.947 E10.60138
G1 X87.213 Y102.735 E10.61773
G1 X86.687 Y102.554 E10.62919
G1 X86.291 Y102.375 E10.63815
G1 X85.942 Y102.150 E10.64670
G1 X85.798 Y102.004 E10.65092
G1 X85.680 Y101.815 E10.65551
G1 X84.677 Y99.880 E10.70045
G1 X84.394 Y99.238 E10.71490
G1 X84.323 Y98.976 E10.72050
G1 X84.298 Y98.659 E10.72704
G1 X84.334 Y98.422 E10.73198
G1 X84.486 Y97.977 E10.74168
G1 X84.754 Y97.413 E10.75455
G1 X85.495 Y95.970 E10.78798
G1 X85.709 Y95.574 E10.79725
G1 X85.828 Y95.402 E10.80156
G1 X86.104 Y95.176 E10.80891
G1 X86.631 Y94.912 E10.82107
G1 X87.215 Y94.708 E10.83383
G1 X88.190 Y94.442 E10.85464
G1 X89.782 Y94.079 E10.88830
G1 X92.521 Y93.529 E10.94588
G1 X93.502 Y93.375 E10.96635
G1 X93.878 Y93.348 E10.97412
G1 X94.106 Y93.351 E10.97881
G1 X94.620 Y93.406 E10.98947
G1 X94.944 Y93.488 E10.99636
G1 X95.232 Y93.596 E11.00270
G1 X95.671 Y93.838 E11.01303
G1 X95.982 Y94.071 E11.02104
G1 X96.269 Y94.335 E11.02908
G1 X96.645 Y94.556 E11.03806
G1 X97.917 Y94.250 E11.06503
G1 X99.569 Y93.914 E11.09978
G1 X100.512 Y93.679 E11.11981
G1 X100.846 Y93.626 E11.12678
G1 X101.068 Y93.613 E11.13136
G1 X101.622 Y93.665 E11.14282
G1 X102.353 Y93.837 E11.15830
G1 X103.552 Y94.208 E11.18418
G1 X104.512 Y94.559 E11.20525
G1 X105.851 Y95.135 E11.23528
G1 X106.415 Y95.426 E11.24837
G1 X106.922 Y95.734 E11.26058
G1 X107.322 Y96.074 E11.27142
G1 X107.619 Y96.449 E11.28127
G1 X107.834 Y96.799 E11.28974
G1 X108.633 Y98.353 E11.32576
G1 X108.712 Y98.546 E11.33004
G1 X108.743 Y98.692 E11.33312
G1 X108.733 Y98.814 E11.33565
G1 X108.638 Y98.906 F7800.000
G1 X106.985 Y99.056 F7800.000
G1 F4800
G1 X104.154 Y96.225 E11.43091
G1 X103.617 Y95.995 E11.44481
G1 X102.714 Y95.667 E11.46766
G1 X106.692 Y99.645 E11.60152
G1 X106.368 Y100.202 E11.61685
G1 X101.458 Y95.292 E11.78206
G1 X101.078 Y95.203 E11.79135
G1 X100.774 Y95.185 E11.79861
G1 X100.521 Y95.236 E11.80474
G1 X105.900 Y100.614 E11.98573
G1 X105.317 Y100.912 E12.00131
G1 X99.816 Y95.411 E12.18641
G1 X99.087 Y95.563 E12.20413
G1 X104.711 Y101.187 E12.39336
G1 X104.085 Y101.443 E12.40944
G1 X98.355 Y95.712 E12.60227
G1 X97.636 Y95.875 E12.61979
G1 X103.444 Y101.683 E12.81523
G1 X102.785 Y101.904 E12.83178
G1 X96.926 Y96.046 E13.02890
G1 X96.217 Y96.217 E13.04628
G1 X102.104 Y102.104 E13.24438
G1 X101.817 Y102.183 E13.25147
G1 X101.378 Y102.259 E13.26207
G1 X94.063 Y94.944 E13.50822
G1 X93.782 Y94.914 E13.51493
G1 X93.464 Y94.928 E13.52250
G1 X93.206 Y94.968 E13.52871
G1 X100.268 Y102.030 E13.76633
G1 X99.158 Y101.801 E13.79330
G1 X92.451 Y95.094 E14.01899
G1 X91.717 Y95.241 E14.03680
G1 X98.026 Y101.550 E14.24909
G1 X97.263 Y101.371 E14.26776
G1 X96.982 Y101.387 E14.27444
G1 X90.984 Y95.388 E14.47629
G1 X90.250 Y95.536 E14.49409
G1 X96.141 Y101.427 E14.69232
G1 X95.602 Y101.768 E14.70751
G1 X89.526 Y95.692 E14.91196
G1 X88.808 Y95.856 E14.92947
G1 X95.125 Y102.172 E15.14200
G1 X94.925 Y102.331 E15.14807
G1 X94.692 Y102.452 E15.15432
G1 X94.562 Y102.490 E15.15755
G1 X88.102 Y96.030 E15.37492
G1 X87.415 Y96.225 E15.39189
G1 X93.664 Y102.473 E15.60215
G1 X92.597 Y102.287 E15.62793
G1 X86.866 Y96.556 E15.82076
G1 X86.565 Y97.137 E15.83630
G1 X91.498 Y102.069 E16.00229
G1 X90.385 Y101.837 E16.02934
G1 X86.265 Y97.717 E16.16800
G1 X85.973 Y98.306 E16.18364
G1 X89.250 Y101.583 E16.29389
G1 X88.062 Y101.276 E16.32307
G1 X86.500 Y99.714 E16.37564
G1 Z4.500 F7800.000
G1 X107.127 Y98.723 F7800.000
G1 F3600
G1 X106.516 Y99.867 E16.41063
G1 X106.197 Y100.370 E16.42670
G1 X105.935 Y100.683 E16.43770
G1 X105.724 Y100.871 E16.44533
G1 X105.055 Y101.287 E16.46658
G1 X104.692 Y101.465 E16.47749
G1 X103.711 Y101.872 E16.50613
G1 X102.542 Y102.257 E16.53935
G1 X101.963 Y102.410 E16.55550
G1 X101.566 Y102.490 E16.56642
G1 X101.249 Y102.517 E16.57501
G1 X101.102 Y102.502 E16.57901
G1 X99.953 Y102.204 E16.61103
G1 X98.314 Y101.906 E16.65596
G1 X96.529 Y101.490 E16.70539
G1 X95.642 Y101.862 E16.73134
G1 X95.164 Y102.318 E16.74916
G1 X94.750 Y102.609 E16.76281
G1 X94.496 Y102.725 E16.77036
G1 X94.289 Y102.791 E16.77621
G1 X93.961 Y102.853 E16.78522
G1 X93.677 Y102.866 E16.79288
G1 X93.450 Y102.848 E16.79901
G1 X92.717 Y102.727 E16.81907
G1 X90.217 Y102.213 E16.88792
G1 X88.848 Y101.911 E16.92574
G1 X87.907 Y101.678 E16.95190
G1 X87.398 Y101.528 E16.96620
G1 X87.075 Y101.407 E16.97551
G1 X86.860 Y101.291 E16.98211
G1 X85.791 Y99.124 E17.04729
G1 X85.677 Y98.819 E17.05607
G1 X85.655 Y98.701 E17.05932
G1 X85.742 Y98.439 E17.06675
G1 X86.560 Y96.739 E17.11765
G1 X86.861 Y96.150 E17.13550
G1 X86.979 Y96.081 E17.13919
G1 X87.407 Y95.913 E17.15159
G1 X88.087 Y95.718 E17.17067
G1 X89.631 Y95.356 E17.21343
G1 X92.705 Y94.719 E17.29813
G1 X93.431 Y94.598 E17.31799
G1 X93.803 Y94.581 E17.32803
G1 X94.226 Y94.634 E17.33954
G1 X94.633 Y94.774 E17.35113
G1 X94.970 Y94.972 E17.36169
G1 X95.245 Y95.195 E17.37124
G1 X95.593 Y95.532 E17.38432
G1 X96.542 Y95.948 E17.41225
G1 X98.452 Y95.509 E17.46512
G1 X99.970 Y95.237 E17.50674
G1 X101.060 Y94.947 E17.53715
G1 X101.242 Y94.926 E17.54210
G1 X101.520 Y94.947 E17.54963
G1 X102.149 Y95.081 E17.56698
G1 X103.096 Y95.355 E17.59357
G1 X103.963 Y95.667 E17.61843
G1 X104.607 Y95.941 E17.63729
G1 X105.358 Y96.324 E17.66004
G1 X105.779 Y96.617 E17.67388
G1 X106.035 Y96.871 E17.68360
G1 X106.249 Y97.147 E17.69302
G1 X106.463 Y97.483 E17.70377
G1 X107.092 Y98.657 E17.73969
G1 X107.848 Y98.722 F7800.000
G1 F3600
G1 X107.065 Y100.187 E17.78450
G1 X106.716 Y100.738 E17.80209
G1 X106.380 Y101.138 E17.81619
G1 X106.123 Y101.366 E17.82546
G1 X105.947 Y101.494 E17.83134
G1 X105.359 Y101.846 E17.84982
G1 X104.954 Y102.045 E17.86198
G1 X103.940 Y102.465 E17.89159
G1 X103.483 Y102.629 E17.90470
G1 X102.718 Y102.868 E17.92632
G1 X102.107 Y103.029 E17.94336
G1 X101.656 Y103.120 E17.95576
G1 X101.244 Y103.155 E17.96694
G1 X100.989 Y103.129 E17.97384
G1 X99.816 Y102.825 E18.00654
G1 X98.185 Y102.529 E18.05125
G1 X96.585 Y102.156 E18.09556
G1 X95.996 Y102.403 E18.11280
G1 X95.576 Y102.804 E18.12845
G1 X95.238 Y103.058 E18.13987
G1 X95.045 Y103.172 E18.14592
G1 X94.725 Y103.319 E18.15543
G1 X94.445 Y103.408 E18.16335
G1 X94.035 Y103.486 E18.17462
G1 X93.666 Y103.502 E18.18457
G1 X93.374 Y103.479 E18.19249
G1 X92.601 Y103.352 E18.21361
G1 X90.084 Y102.835 E18.28292
G1 X88.703 Y102.530 E18.32108
G1 X87.741 Y102.291 E18.34782
G1 X87.196 Y102.132 E18.36313
G1 X86.811 Y101.987 E18.37424
G1 X86.467 Y101.801 E18.38479
G1 X86.353 Y101.691 E18.38906
G1 X86.300 Y101.593 E18.39205
G1 X85.207 Y99.377 E18.45873
G1 X85.062 Y98.989 E18.46989
G1 X85.018 Y98.689 E18.47808
G1 X85.063 Y98.445 E18.48477
G1 X85.156 Y98.191 E18.49206
G1 X85.991 Y96.457 E18.54399
G1 X86.323 Y95.806 E18.56369
G1 X86.372 Y95.730 E18.56614
G1 X86.461 Y95.648 E18.56940
G1 X86.700 Y95.507 E18.57690
G1 X87.203 Y95.310 E18.59147
G1 X87.927 Y95.103 E18.61178
G1 X89.493 Y94.735 E18.65518
G1 X92.588 Y94.094 E18.74043
G1 X93.364 Y93.965 E18.76166
G1 X93.814 Y93.944 E18.77382
G1 X94.153 Y93.972 E18.78299
G1 X94.378 Y94.016 E18.78917
G1 X94.673 Y94.103 E18.79746
G1 X94.896 Y94.194 E18.80395
G1 X95.339 Y94.453 E18.81781
G1 X95.667 Y94.719 E18.82920
G1 X95.953 Y94.996 E18.83993
G1 X96.604 Y95.281 E18.85911
G1 X98.324 Y94.886 E18.90672
G1 X99.833 Y94.616 E18.94806
G1 X100.941 Y94.321 E18.97900
G1 X101.229 Y94.288 E18.98681
G1 X101.611 Y94.316 E18.99715
G1 X102.305 Y94.464 E19.01629
G1 X103.292 Y94.751 E19.04402
G1 X104.195 Y95.075 E19.06992
G1 X104.876 Y95.364 E19.08987
G1 X105.672 Y95.771 E19.11399
G1 X105.926 Y95.931 E19.12206
G1 X106.196 Y96.136 E19.13122
G1 X106.512 Y96.448 E19.14320
G1 X106.770 Y96.781 E19.15456
G1 X107.012 Y97.162 E19.16674
G1 X107.813 Y98.656 E19.21247
G1 X108.397 Y98.884 F7800.000
G1 F1800
G1 X107.550 Y100.469 E19.24952
G1 X107.174 Y101.063 E19.26399
G1 X106.772 Y101.540 E19.27685
G1 X106.475 Y101.803 E19.28504
G1 X106.257 Y101.962 E19.29061
G1 X105.627 Y102.339 E19.30573
G1 X105.185 Y102.556 E19.31588
G1 X104.142 Y102.988 E19.33914
G1 X103.662 Y103.160 E19.34967
G1 X102.873 Y103.407 E19.36669
G1 X102.234 Y103.575 E19.38031
G1 X101.736 Y103.676 E19.39079
G1 X101.239 Y103.718 E19.40107
G1 X100.890 Y103.683 E19.40830
G1 X99.695 Y103.373 E19.43374
G1 X98.071 Y103.078 E19.46775
G1 X96.635 Y102.743 E19.49816
G1 X96.308 Y102.880 E19.50545
G1 X95.940 Y103.232 E19.51595
G1 X95.551 Y103.524 E19.52599
G1 X95.306 Y103.670 E19.53185
G1 X94.927 Y103.843 E19.54045
G1 X94.583 Y103.952 E19.54789
G1 X94.100 Y104.045 E19.55802
G1 X93.657 Y104.064 E19.56716
G1 X93.306 Y104.036 E19.57442
G1 X92.499 Y103.903 E19.59127
G1 X89.968 Y103.383 E19.64453
G1 X88.575 Y103.076 E19.67393
G1 X87.594 Y102.833 E19.69475
G1 X87.019 Y102.664 E19.70712
G1 X86.578 Y102.498 E19.71682
G1 X86.153 Y102.269 E19.72677
G1 X85.996 Y102.140 E19.73096
G1 X85.885 Y102.004 E19.73457
G1 X84.692 Y99.599 E19.78990
G1 X84.519 Y99.139 E19.80003
G1 X84.458 Y98.807 E19.80700
G1 X84.457 Y98.656 E19.81011
G1 X84.525 Y98.282 E19.81793
G1 X84.639 Y97.972 E19.82474
G1 X85.489 Y96.207 E19.86511
G1 X85.836 Y95.527 E19.88085
G1 X85.939 Y95.367 E19.88478
G1 X86.125 Y95.195 E19.89001
G1 X86.454 Y95.002 E19.89787
G1 X87.023 Y94.778 E19.91047
G1 X87.786 Y94.560 E19.92682
G1 X89.373 Y94.188 E19.96041
G1 X92.485 Y93.543 E20.02591
G1 X93.305 Y93.406 E20.04305
G1 X93.824 Y93.383 E20.05377
G1 X94.230 Y93.416 E20.06216
G1 X94.512 Y93.471 E20.06808
G1 X94.859 Y93.574 E20.07554
G1 X95.127 Y93.684 E20.08151
G1 X95.665 Y93.996 E20.09433
G1 X96.039 Y94.300 E20.10426
G1 X96.270 Y94.523 E20.11088
G1 X96.659 Y94.693 E20.11963
G1 X98.212 Y94.336 E20.15247
G1 X99.711 Y94.068 E20.18386
G1 X100.836 Y93.769 E20.20785
G1 X101.217 Y93.725 E20.21575
G1 X101.691 Y93.760 E20.22554
G1 X102.441 Y93.920 E20.24137
G1 X103.465 Y94.217 E20.26333
G1 X104.400 Y94.553 E20.28381
G1 X105.114 Y94.856 E20.29979
G1 X105.950 Y95.283 E20.31915
G1 X106.245 Y95.470 E20.32634
G1 X106.564 Y95.712 E20.33459
G1 X106.932 Y96.075 E20.34525
G1 X107.229 Y96.458 E20.35524
G1 X107.496 Y96.879 E20.36552
G1 X108.401 Y98.566 E20.40496
G1 X108.434 Y98.685 E20.40751
G1 X108.420 Y98.813 E20.41016
G1 X107.902 Y98.951 F7800.000
G1 E18.41016 F2400.00000
G92 E0
G1 X104.076 Y101.209 F7800.000
G1 E2.00000 F2400.00000
G1 F4800
G1 X106.551 Y98.735 E2.08328
G1 X106.681 Y98.490 E2.08986
G1 X106.414 Y97.991 E2.10335
G1 X102.660 Y101.745 E2.22965
G1 X102.140 Y101.916 E2.24269
G1 X101.431 Y102.093 E2.26007
G1 X106.098 Y97.426 E2.41711
G1 X105.820 Y97.036 E2.42851
G1 X105.712 Y96.930 E2.43209
G1 X100.597 Y102.046 E2.60422
G1 X99.897 Y101.864 E2.62142
G1 X105.199 Y96.563 E2.79980
G1 X104.616 Y96.265 E2.81538
G1 X99.155 Y101.726 E2.99913
G1 X98.409 Y101.591 E3.01716
G1 X103.999 Y96.001 E3.20525
G1 X103.352 Y95.767 E3.22162
G1 X97.686 Y101.433 E3.41227
G1 X96.972 Y101.266 E3.42973
G1 X102.680 Y95.558 E3.62181
G1 X101.982 Y95.375 E3.63898
G1 X96.257 Y101.100 E3.83162
G1 X95.076 Y101.586 E3.86201
G1 X94.544 Y102.094 E3.87952
G1 X94.334 Y102.252 E3.88577
G1 X94.113 Y102.364 E3.89168
G1 X101.089 Y95.388 E4.12642
G1 X100.333 Y95.588 E4.14504
G1 X99.936 Y95.659 E4.15463
G1 X93.135 Y102.461 E4.38348
G1 X92.386 Y102.328 E4.40157
G1 X98.863 Y95.852 E4.61950
G1 X97.723 Y96.111 E4.64732
G1 X91.655 Y102.178 E4.85148
G1 X90.925 Y102.028 E4.86923
G1 X96.642 Y96.310 E5.06163
G1 X96.030 Y96.042 E5.07754
G1 X90.194 Y101.878 E5.27392
G1 X89.471 Y101.720 E5.29152
G1 X95.436 Y95.755 E5.49224
G1 X94.980 Y95.330 E5.50707
G1 X88.749 Y101.561 E5.71674
G1 X88.043 Y101.386 E5.73404
G1 X94.413 Y95.016 E5.94836
G1 X94.200 Y94.962 E5.95359
G1 X94.025 Y94.948 E5.95776
G1 X93.727 Y94.961 E5.96486
G1 X93.559 Y94.989 E5.96891
G1 X87.355 Y101.193 E6.17767
G1 X87.079 Y101.088 E6.18470
G1 X86.914 Y100.753 E6.19357
G1 X92.473 Y95.194 E6.38064
G1 X91.363 Y95.424 E6.40764
G1 X86.623 Y100.163 E6.56712
G1 X86.332 Y99.573 E6.58277
G1 X90.252 Y95.654 E6.71466
G1 X89.110 Y95.914 E6.74252
G1 X86.053 Y98.971 E6.84539
G1 X86.064 Y98.899 E6.84715
G1 X86.848 Y97.295 E6.88962
G1 X87.922 Y96.221 E6.92574
G1 Z4.800 F7800.000
G1 X106.802 Y98.724 F7800.000
G1 F3600
G1 X106.351 Y99.498 E6.94992
G1 X105.960 Y100.095 E6.96918
G1 X105.571 Y100.560 E6.98553
G1 X105.177 Y100.909 E6.99974
G1 X104.834 Y101.149 E7.01104
G1 X104.398 Y101.399 E7.02459
G1 X103.555 Y101.780 E7.04954
G1 X102.728 Y102.073 E7.07321
G1 X102.254 Y102.207 E7.08648
G1 X101.756 Y102.319 E7.10026
G1 X101.450 Y102.353 E7.10858
G1 X101.266 Y102.344 E7.11355
G1 X100.196 Y102.049 E7.14349
G1 X98.726 Y101.821 E7.18361
G1 X96.603 Y101.354 E7.24224
G1 X95.666 Y101.632 E7.26862
G1 X95.054 Y102.215 E7.29142
G1 X94.756 Y102.434 E7.30140
G1 X94.574 Y102.538 E7.30704
G1 X94.143 Y102.715 E7.31961
G1 X93.829 Y102.793 E7.32835
G1 X93.605 Y102.821 E7.33442
G1 X93.369 Y102.820 E7.34079
G1 X93.110 Y102.785 E7.34785
G1 X89.428 Y102.012 E7.44935
G1 X87.908 Y101.659 E7.49144
G1 X87.395 Y101.512 E7.50583
G1 X87.018 Y101.358 E7.51682
G1 X86.656 Y100.627 E7.53883
G1 X86.053 Y99.316 E7.57775
G1 X85.922 Y98.991 E7.58721
G1 X85.866 Y98.812 E7.59225
G1 X85.858 Y98.712 E7.59496
G1 X85.862 Y98.658 E7.59642
G1 X86.018 Y98.212 E7.60917
G1 X86.700 Y96.725 E7.65330
G1 X87.017 Y96.086 E7.67253
G1 X87.421 Y95.924 E7.68427
G1 X87.886 Y95.790 E7.69735
G1 X89.446 Y95.427 E7.74055
G1 X92.829 Y94.711 E7.83382
G1 X93.251 Y94.637 E7.84538
G1 X93.540 Y94.621 E7.85321
G1 X93.923 Y94.670 E7.86362
G1 X94.184 Y94.742 E7.87092
G1 X94.433 Y94.837 E7.87811
G1 X94.684 Y94.965 E7.88570
G1 X95.065 Y95.236 E7.89831
G1 X95.663 Y95.812 E7.92073
G1 X96.603 Y96.089 E7.94716
G1 X98.709 Y95.627 E8.00531
G1 X100.086 Y95.410 E8.04291
G1 X100.396 Y95.343 E8.05147
G1 X101.113 Y95.131 E8.07165
G1 X101.390 Y95.089 E8.07922
G1 X101.568 Y95.096 E8.08401
G1 X101.990 Y95.170 E8.09556
G1 X102.737 Y95.373 E8.11645
G1 X103.286 Y95.558 E8.13207
G1 X104.039 Y95.869 E8.15406
G1 X104.726 Y96.230 E8.17500
G1 X105.180 Y96.536 E8.18976
G1 X105.563 Y96.878 E8.20361
G1 X105.893 Y97.260 E8.21725
G1 X106.313 Y97.884 E8.23754
G1 X106.765 Y98.659 E8.26173
G1 X107.538 Y98.724 F7800.000
G1 F3600
G1 X106.892 Y99.833 E8.29635
G1 X106.477 Y100.465 E8.31677
G1 X106.229 Y100.784 E8.32766
G1 X105.871 Y101.157 E8.34160
G1 X105.564 Y101.414 E8.35241
G1 X105.174 Y101.687 E8.36523
G1 X104.687 Y101.966 E8.38037
G1 X103.792 Y102.370 E8.40687
G1 X102.920 Y102.679 E8.43182
G1 X102.411 Y102.823 E8.44609
G1 X101.862 Y102.947 E8.46129
G1 X101.468 Y102.991 E8.47197
G1 X101.180 Y102.976 E8.47975
G1 X100.911 Y102.916 E8.48719
G1 X100.058 Y102.671 E8.51112
G1 X98.609 Y102.446 E8.55070
G1 X96.627 Y102.010 E8.60543
G1 X95.994 Y102.198 E8.62326
G1 X95.463 Y102.704 E8.64304
G1 X95.102 Y102.968 E8.65511
G1 X94.863 Y103.105 E8.66253
G1 X94.326 Y103.324 E8.67818
G1 X93.945 Y103.420 E8.68877
G1 X93.642 Y103.457 E8.69700
G1 X93.326 Y103.455 E8.70554
G1 X93.008 Y103.413 E8.71420
G1 X89.290 Y102.633 E8.81668
G1 X87.748 Y102.274 E8.85937
G1 X87.196 Y102.116 E8.87487
G1 X86.744 Y101.931 E8.88803
G1 X86.532 Y101.791 E8.89491
G1 X86.502 Y101.748 E8.89631
G1 X86.082 Y100.900 E8.92184
G1 X85.470 Y99.568 E8.96140
G1 X85.323 Y99.205 E8.97196
G1 X85.236 Y98.899 E8.98055
G1 X85.221 Y98.714 E8.98555
G1 X85.248 Y98.490 E8.99164
G1 X85.427 Y97.974 E9.00638
G1 X86.126 Y96.451 E9.05158
G1 X86.486 Y95.727 E9.07339
G1 X86.529 Y95.656 E9.07563
G1 X86.614 Y95.588 E9.07856
G1 X86.771 Y95.500 E9.08341
G1 X87.214 Y95.323 E9.09629
G1 X87.726 Y95.175 E9.11067
G1 X89.308 Y94.806 E9.15449
G1 X92.707 Y94.087 E9.24822
G1 X93.178 Y94.004 E9.26112
G1 X93.539 Y93.985 E9.27088
G1 X93.763 Y93.996 E9.27692
G1 X94.063 Y94.050 E9.28515
G1 X94.383 Y94.137 E9.29408
G1 X94.691 Y94.256 E9.30300
G1 X95.002 Y94.413 E9.31239
G1 X95.266 Y94.584 E9.32088
G1 X95.483 Y94.756 E9.32835
G1 X95.992 Y95.246 E9.34742
G1 X96.626 Y95.433 E9.36525
G1 X98.591 Y95.002 E9.41952
G1 X99.969 Y94.785 E9.45714
G1 X100.238 Y94.726 E9.46458
G1 X100.975 Y94.509 E9.48529
G1 X101.355 Y94.451 E9.49567
G1 X101.636 Y94.463 E9.50326
G1 X102.128 Y94.549 E9.51674
G1 X102.922 Y94.765 E9.53892
G1 X103.508 Y94.962 E9.55562
G1 X104.301 Y95.289 E9.57874
G1 X104.705 Y95.487 E9.59088
G1 X105.062 Y95.689 E9.60194
G1 X105.571 Y96.033 E9.61852
G1 X106.017 Y96.431 E9.63465
G1 X106.400 Y96.874 E9.65044
G1 X106.852 Y97.547 E9.67230
G1 X107.500 Y98.659 E9.70704
G1 X108.145 Y98.762 F7800.000
G1 F1800
G1 X108.095 Y98.882 E9.70972
G1 X107.369 Y100.128 E9.73944
G1 X106.933 Y100.792 E9.75581
G1 X106.657 Y101.146 E9.76506
G1 X106.432 Y101.392 E9.77194
G1 X106.248 Y101.572 E9.77725
G1 X105.905 Y101.859 E9.78645
G1 X105.475 Y102.161 E9.79728
G1 X104.943 Y102.465 E9.80993
G1 X104.002 Y102.891 E9.83121
G1 X103.091 Y103.213 E9.85113
G1 X102.550 Y103.366 E9.86272
G1 X101.955 Y103.501 E9.87529
G1 X101.485 Y103.553 E9.88503
G1 X101.105 Y103.533 E9.89287
G1 X100.773 Y103.460 E9.89988
G1 X99.937 Y103.220 E9.91779
G1 X98.505 Y102.997 E9.94767
G1 X96.648 Y102.589 E9.98686
G1 X96.283 Y102.697 E9.99471
G1 X95.824 Y103.135 E10.00779
G1 X95.408 Y103.439 E10.01842
G1 X95.118 Y103.605 E10.02529
G1 X94.765 Y103.764 E10.03326
G1 X94.488 Y103.862 E10.03933
G1 X94.048 Y103.972 E10.04868
G1 X93.675 Y104.018 E10.05641
G1 X93.287 Y104.015 E10.06441
G1 X92.917 Y103.966 E10.07210
G1 X89.168 Y103.180 E10.15105
G1 X87.607 Y102.817 E10.18408
G1 X87.021 Y102.649 E10.19666
G1 X86.470 Y102.422 E10.20894
G1 X86.184 Y102.234 E10.21598
G1 X86.095 Y102.145 E10.21858
G1 X86.017 Y102.033 E10.22140
G1 X85.576 Y101.142 E10.24188
G1 X84.955 Y99.790 E10.27254
G1 X84.795 Y99.394 E10.28136
G1 X84.680 Y98.981 E10.29019
G1 X84.658 Y98.716 E10.29567
G1 X84.705 Y98.343 E10.30341
G1 X84.907 Y97.764 E10.31604
G1 X85.620 Y96.210 E10.35130
G1 X85.994 Y95.456 E10.36865
G1 X86.142 Y95.247 E10.37393
G1 X86.300 Y95.121 E10.37808
G1 X86.528 Y94.993 E10.38346
G1 X87.031 Y94.792 E10.39464
G1 X87.584 Y94.632 E10.40651
G1 X89.186 Y94.259 E10.44041
G1 X92.600 Y93.537 E10.51233
G1 X93.114 Y93.446 E10.52308
G1 X93.539 Y93.423 E10.53184
G1 X93.827 Y93.438 E10.53778
G1 X94.187 Y93.502 E10.54532
G1 X94.557 Y93.604 E10.55325
G1 X94.919 Y93.743 E10.56123
G1 X95.282 Y93.926 E10.56962
G1 X95.593 Y94.128 E10.57725
G1 X95.852 Y94.333 E10.58406
G1 X96.282 Y94.747 E10.59637
G1 X96.646 Y94.855 E10.60420
G1 X98.487 Y94.450 E10.64304
G1 X99.866 Y94.233 E10.67180
G1 X100.100 Y94.183 E10.67673
G1 X100.852 Y93.961 E10.69290
G1 X101.323 Y93.889 E10.70273
G1 X101.696 Y93.904 E10.71042
G1 X102.250 Y94.001 E10.72202
G1 X103.085 Y94.228 E10.73984
G1 X103.705 Y94.436 E10.75332
G1 X104.531 Y94.777 E10.77175
G1 X104.967 Y94.991 E10.78174
G1 X105.357 Y95.212 E10.79099
G1 X105.915 Y95.590 E10.80488
G1 X106.418 Y96.037 E10.81873
G1 X106.846 Y96.534 E10.83226
G1 X107.327 Y97.249 E10.85002
G1 X108.106 Y98.585 E10.88191
G1 X108.145 Y98.688 E10.88417
G1 X108.027 Y98.816 F7800.000
G1 X106.218 Y99.170 F7800.000
G1 F4800
G1 X102.996 Y95.948 E10.99259
G1 X102.330 Y95.713 E11.00939
G1 X101.711 Y95.545 E11.02465
G1 X105.880 Y99.713 E11.16493
G1 X105.711 Y99.971 E11.17226
G1 X105.504 Y100.219 E11.17994
G1 X100.824 Y95.539 E11.33742
G1 X100.133 Y95.728 E11.35447
G1 X105.058 Y100.654 E11.52020
G1 X104.746 Y100.877 E11.52934
G1 X104.526 Y101.002 E11.53536
G1 X99.381 Y95.857 E11.70850
G1 X98.620 Y95.977 E11.72683
G1 X103.933 Y101.290 E11.90563
G1 X103.564 Y101.457 E11.91526
G1 X103.309 Y101.547 E11.92170
G1 X97.896 Y96.134 E12.10387
G1 X97.173 Y96.292 E12.12146
G1 X102.652 Y101.771 E12.30582
G1 X101.948 Y101.948 E12.32309
G1 X96.451 Y96.451 E12.50806
G1 X96.349 Y96.473 E12.51054
G1 X95.277 Y96.158 E12.53713
G1 X100.915 Y101.796 E12.72683
G1 X100.554 Y101.696 E12.73573
G1 X99.820 Y101.582 E12.75339
G1 X93.236 Y94.998 E12.97493
G1 X93.076 Y95.001 E12.97876
G1 X92.473 Y95.116 E12.99335
G1 X98.753 Y101.396 E13.20467
G1 X97.624 Y101.147 E13.23218
G1 X91.746 Y95.270 E13.42996
G1 X91.019 Y95.424 E13.44764
G1 X96.622 Y101.026 E13.63617
G1 X95.942 Y101.228 E13.65303
G1 X90.292 Y95.577 E13.84317
G1 X89.565 Y95.731 E13.86085
G1 X95.373 Y101.540 E14.05630
G1 X94.922 Y101.970 E14.07113
G1 X88.846 Y95.894 E14.27557
G1 X88.132 Y96.060 E14.29303
G1 X94.373 Y102.302 E14.50305
G1 X94.188 Y102.378 E14.50781
G1 X93.952 Y102.437 E14.51361
G1 X93.643 Y102.452 E14.52097
G1 X87.434 Y96.243 E14.72990
G1 X87.218 Y96.324 E14.73537
G1 X87.025 Y96.715 E14.74575
G1 X92.558 Y102.248 E14.93194
G1 X91.440 Y102.011 E14.95913
G1 X86.747 Y97.318 E15.11705
G1 X86.470 Y97.922 E15.13286
G1 X90.322 Y101.774 E15.26249
G1 X89.188 Y101.521 E15.29012
G1 X86.273 Y98.606 E15.38822
G1 X87.003 Y100.217 E15.43032
G1 X88.021 Y101.235 E15.46456
G1 X87.686 Y101.122 E15.47296
G1 X87.469 Y100.683 E15.48463
M106 S252.45
G1 Z5.100 F7800.000
G1 X106.496 Y98.723 F7800.000
G1 F3600
G1 X105.757 Y99.816 E15.52024
G1 X105.291 Y100.347 E15.53930
G1 X104.781 Y100.801 E15.55771
G1 X104.180 Y101.205 E15.57724
G1 X103.734 Y101.448 E15.59094
G1 X102.967 Y101.778 E15.61346
G1 X102.501 Y101.937 E15.62674
G1 X101.752 Y102.122 E15.64756
G1 X101.565 Y102.141 E15.65263
G1 X101.374 Y102.133 E15.65777
G1 X100.308 Y101.858 E15.68749
G1 X99.610 Y101.777 E15.70643
G1 X98.915 Y101.666 E15.72543
G1 X97.993 Y101.482 E15.75079
G1 X96.673 Y101.183 E15.78730
G1 X95.670 Y101.400 E15.81498
G1 X95.029 Y102.031 E15.83924
G1 X94.785 Y102.226 E15.84768
G1 X94.539 Y102.383 E15.85554
G1 X94.276 Y102.515 E15.86348
G1 X94.001 Y102.622 E15.87144
G1 X93.560 Y102.747 E15.88380
G1 X93.370 Y102.775 E15.88899
G1 X93.195 Y102.775 E15.89371
G1 X92.926 Y102.731 E15.90106
G1 X90.091 Y102.116 E15.97931
G1 X89.908 Y102.107 E15.98425
G1 X89.753 Y102.065 E15.98859
G1 X89.375 Y102.019 E15.99886
G1 X88.925 Y101.871 E16.01165
G1 X87.905 Y101.641 E16.03984
G1 X87.419 Y101.503 E16.05348
G1 X87.161 Y101.398 E16.06099
G1 X86.766 Y100.564 E16.08589
G1 X86.159 Y99.099 E16.12867
G1 X86.094 Y98.876 E16.13495
G1 X86.072 Y98.717 E16.13927
G1 X86.092 Y98.583 E16.14292
G1 X86.211 Y98.199 E16.15376
G1 X86.856 Y96.676 E16.19839
G1 X87.154 Y96.053 E16.21701
G1 X87.283 Y95.992 E16.22085
G1 X87.723 Y95.850 E16.23332
G1 X89.062 Y95.542 E16.27041
G1 X89.541 Y95.382 E16.28401
G1 X89.812 Y95.369 E16.29132
G1 X90.137 Y95.317 E16.30022
G1 X93.181 Y94.667 E16.38417
G1 X93.427 Y94.672 E16.39082
G1 X93.753 Y94.742 E16.39982
G1 X94.102 Y94.856 E16.40971
G1 X94.364 Y94.968 E16.41742
G1 X94.669 Y95.138 E16.42682
G1 X95.149 Y95.521 E16.44339
G1 X95.724 Y96.117 E16.46574
G1 X96.730 Y96.247 E16.49310
G1 X97.983 Y95.963 E16.52777
G1 X99.041 Y95.755 E16.55685
G1 X100.348 Y95.577 E16.59245
G1 X101.209 Y95.344 E16.61649
G1 X101.483 Y95.302 E16.62397
G1 X101.651 Y95.308 E16.62852
G1 X101.961 Y95.362 E16.63699
G1 X102.597 Y95.537 E16.65481
G1 X103.073 Y95.705 E16.66840
G1 X103.787 Y96.024 E16.68952
G1 X104.359 Y96.347 E16.70723
G1 X104.878 Y96.722 E16.72450
G1 X105.287 Y97.091 E16.73937
G1 X105.679 Y97.529 E16.75522
G1 X106.121 Y98.135 E16.77544
G1 X106.456 Y98.660 E16.79224
G1 X107.250 Y98.722 F7800.000
G1 F3600
G1 X106.792 Y99.442 E16.81527
G1 X106.258 Y100.209 E16.84047
G1 X105.748 Y100.790 E16.86134
G1 X105.382 Y101.132 E16.87483
G1 X104.904 Y101.496 E16.89104
G1 X104.504 Y101.753 E16.90388
G1 X104.019 Y102.016 E16.91874
G1 X103.189 Y102.374 E16.94315
G1 X102.688 Y102.545 E16.95742
G1 X102.200 Y102.679 E16.97108
G1 X101.848 Y102.751 E16.98077
G1 X101.584 Y102.777 E16.98792
G1 X101.297 Y102.766 E16.99568
G1 X101.019 Y102.708 E17.00333
G1 X100.188 Y102.484 E17.02656
G1 X99.524 Y102.407 E17.04459
G1 X98.802 Y102.292 E17.06429
G1 X97.860 Y102.104 E17.09021
G1 X96.670 Y101.834 E17.12313
G1 X95.985 Y101.983 E17.14205
G1 X95.452 Y102.507 E17.16223
G1 X95.155 Y102.744 E17.17248
G1 X94.854 Y102.936 E17.18211
G1 X94.535 Y103.096 E17.19173
G1 X94.203 Y103.226 E17.20134
G1 X93.694 Y103.369 E17.21560
G1 X93.416 Y103.411 E17.22319
G1 X93.142 Y103.410 E17.23058
G1 X92.808 Y103.356 E17.23973
G1 X90.008 Y102.748 E17.31701
G1 X89.808 Y102.739 E17.32241
G1 X89.630 Y102.690 E17.32738
G1 X89.263 Y102.645 E17.33737
G1 X88.750 Y102.483 E17.35189
G1 X87.748 Y102.257 E17.37957
G1 X87.212 Y102.105 E17.39460
G1 X86.879 Y101.970 E17.40431
G1 X86.739 Y101.888 E17.40867
G1 X86.648 Y101.801 E17.41208
G1 X86.185 Y100.822 E17.44129
G1 X85.558 Y99.310 E17.48543
G1 X85.470 Y99.009 E17.49390
G1 X85.435 Y98.757 E17.50078
G1 X85.470 Y98.441 E17.50935
G1 X85.614 Y97.980 E17.52236
G1 X86.276 Y96.414 E17.56823
G1 X86.611 Y95.717 E17.58910
G1 X86.673 Y95.610 E17.59242
G1 X86.768 Y95.534 E17.59572
G1 X87.046 Y95.400 E17.60403
G1 X87.554 Y95.236 E17.61842
G1 X88.897 Y94.928 E17.65562
G1 X89.218 Y94.829 E17.66468
G1 X89.277 Y94.784 E17.66666
G1 X89.425 Y94.752 E17.67074
G1 X89.745 Y94.736 E17.67941
G1 X90.019 Y94.692 E17.68690
G1 X93.139 Y94.031 E17.77291
G1 X93.526 Y94.043 E17.78337
G1 X93.919 Y94.128 E17.79420
G1 X94.326 Y94.260 E17.80575
G1 X94.645 Y94.397 E17.81512
G1 X95.004 Y94.597 E17.82620
G1 X95.182 Y94.719 E17.83202
G1 X95.583 Y95.055 E17.84614
G1 X96.026 Y95.515 E17.86338
G1 X96.699 Y95.602 E17.88168
G1 X97.852 Y95.341 E17.91356
G1 X98.937 Y95.127 E17.94339
G1 X100.222 Y94.953 E17.97838
G1 X101.077 Y94.721 E18.00229
G1 X101.446 Y94.665 E18.01234
G1 X101.717 Y94.675 E18.01967
G1 X102.100 Y94.741 E18.03014
G1 X102.788 Y94.930 E18.04940
G1 X103.309 Y95.115 E18.06429
G1 X104.074 Y95.456 E18.08691
G1 X104.702 Y95.811 E18.10637
G1 X105.278 Y96.227 E18.12553
G1 X105.738 Y96.643 E18.14226
G1 X106.174 Y97.129 E18.15987
G1 X106.646 Y97.776 E18.18148
G1 X107.210 Y98.659 E18.20974
G1 X107.892 Y98.726 F7800.000
G1 F1800
G1 X107.818 Y98.873 E18.21314
G1 X107.259 Y99.753 E18.23463
G1 X106.700 Y100.555 E18.25477
G1 X106.151 Y101.181 E18.27194
G1 X105.750 Y101.555 E18.28323
G1 X105.220 Y101.959 E18.29697
G1 X104.789 Y102.236 E18.30753
G1 X104.272 Y102.517 E18.31966
G1 X103.384 Y102.900 E18.33958
G1 X102.853 Y103.081 E18.35115
G1 X102.330 Y103.224 E18.36232
G1 X101.932 Y103.306 E18.37069
G1 X101.601 Y103.339 E18.37756
G1 X101.228 Y103.324 E18.38525
G1 X100.889 Y103.254 E18.39239
G1 X100.082 Y103.036 E18.40962
G1 X99.447 Y102.963 E18.42279
G1 X98.703 Y102.844 E18.43831
G1 X97.743 Y102.652 E18.45849
G1 X96.668 Y102.408 E18.48122
G1 X96.263 Y102.496 E18.48977
G1 X95.824 Y102.927 E18.50244
G1 X95.481 Y103.201 E18.51149
G1 X95.131 Y103.424 E18.52004
G1 X94.764 Y103.609 E18.52852
G1 X94.382 Y103.758 E18.53697
G1 X93.813 Y103.918 E18.54915
G1 X93.457 Y103.972 E18.55657
G1 X93.096 Y103.970 E18.56402
G1 X92.703 Y103.907 E18.57221
G1 X89.934 Y103.306 E18.63061
G1 X89.720 Y103.296 E18.63503
G1 X89.522 Y103.242 E18.63926
G1 X89.163 Y103.198 E18.64670
G1 X88.953 Y103.148 E18.65117
G1 X88.595 Y103.023 E18.65898
G1 X87.610 Y102.801 E18.67978
G1 X87.030 Y102.636 E18.69221
G1 X86.631 Y102.474 E18.70109
G1 X86.399 Y102.338 E18.70663
G1 X86.209 Y102.155 E18.71207
G1 X86.144 Y102.046 E18.71468
G1 X85.672 Y101.050 E18.73741
G1 X85.029 Y99.497 E18.77205
G1 X84.921 Y99.127 E18.78000
G1 X84.874 Y98.792 E18.78696
G1 X84.876 Y98.623 E18.79045
G1 X84.922 Y98.315 E18.79686
G1 X85.087 Y97.787 E18.80826
G1 X85.765 Y96.184 E18.84414
G1 X86.115 Y95.455 E18.86081
G1 X86.225 Y95.266 E18.86531
G1 X86.344 Y95.146 E18.86880
G1 X86.485 Y95.048 E18.87234
G1 X86.837 Y94.878 E18.88039
G1 X87.405 Y94.695 E18.89268
G1 X88.752 Y94.386 E18.92117
G1 X88.958 Y94.323 E18.92562
G1 X89.035 Y94.264 E18.92762
G1 X89.350 Y94.194 E18.93426
G1 X89.687 Y94.178 E18.94121
G1 X89.916 Y94.141 E18.94599
G1 X92.937 Y93.492 E19.00969
G1 X93.102 Y93.471 E19.01310
G1 X93.614 Y93.488 E19.02366
G1 X94.065 Y93.586 E19.03317
G1 X94.524 Y93.735 E19.04312
G1 X94.893 Y93.894 E19.05140
G1 X95.299 Y94.120 E19.06099
G1 X95.521 Y94.272 E19.06653
G1 X95.966 Y94.645 E19.07849
G1 X96.293 Y94.985 E19.08822
G1 X96.672 Y95.033 E19.09609
G1 X97.735 Y94.792 E19.11856
G1 X98.845 Y94.574 E19.14186
G1 X100.111 Y94.402 E19.16819
G1 X100.961 Y94.172 E19.18636
G1 X101.413 Y94.103 E19.19577
G1 X101.776 Y94.116 E19.20325
G1 X102.222 Y94.193 E19.21259
G1 X102.956 Y94.395 E19.22828
G1 X103.517 Y94.593 E19.24054
G1 X104.327 Y94.955 E19.25882
G1 X105.005 Y95.339 E19.27488
G1 X105.631 Y95.790 E19.29079
G1 X106.136 Y96.247 E19.30482
G1 X106.610 Y96.776 E19.31946
G1 X107.109 Y97.460 E19.33690
G1 X107.862 Y98.657 E19.36606
G1 X107.740 Y98.790 F7800.000
G1 X103.291 Y101.114 F7800.000
G1 F4800
G1 X105.978 Y98.426 E19.45648
G1 X105.617 Y97.907 E19.47154
G1 X101.872 Y101.651 E19.59752
G1 X101.315 Y101.774 E19.61111
G1 X101.229 Y101.770 E19.61314
G1 X100.946 Y101.697 E19.62012
G1 X105.221 Y97.422 E19.76398
G1 X105.095 Y97.281 E19.76847
G1 X104.772 Y96.990 E19.77882
G1 X100.245 Y101.517 E19.93115
G1 X99.463 Y101.418 E19.94991
G1 X104.264 Y96.617 E20.11145
G1 X103.697 Y96.303 E20.12687
G1 X98.706 Y101.294 E20.29482
G1 X97.972 Y101.147 E20.31263
G1 X103.088 Y96.031 E20.48479
G1 X102.651 Y95.875 E20.49583
G1 X102.425 Y95.813 E20.50141
G1 X97.252 Y100.986 E20.67547
G1 X96.534 Y100.823 E20.69298
G1 X101.677 Y95.681 E20.86602
G1 X100.700 Y95.932 E20.89002
G1 X100.520 Y95.956 E20.89434
G1 X95.460 Y101.016 E21.06459
G1 X95.142 Y101.085 E21.07235
G1 X94.399 Y101.816 E21.09712
G1 X94.204 Y101.972 E21.10307
G1 X94.010 Y102.095 E21.10853
G1 X93.578 Y102.287 E21.11979
G1 X93.202 Y102.393 E21.12909
G1 X99.501 Y96.095 E21.34103
G1 X98.414 Y96.301 E21.36735
G1 X92.422 Y102.293 E21.56897
G1 X91.698 Y102.136 E21.58660
G1 X97.278 Y96.556 E21.77435
G1 X96.991 Y96.621 E21.78134
G1 X96.407 Y96.546 E21.79536
G1 X90.974 Y101.979 E21.97817
G1 X90.250 Y101.822 E21.99579
G1 X95.646 Y96.425 E22.17738
G1 X95.214 Y95.977 E22.19220
G1 X89.498 Y101.692 E22.38453
G1 X89.274 Y101.665 E22.38992
G1 X88.796 Y101.514 E22.40184
G1 X94.756 Y95.554 E22.60237
G1 X94.567 Y95.404 E22.60811
G1 X94.209 Y95.220 E22.61769
G1 X88.077 Y101.352 E22.82402
G1 X87.380 Y101.168 E22.84118
G1 X93.511 Y95.037 E23.04748
G1 X93.437 Y95.037 E23.04923
G1 X92.409 Y95.258 E23.07424
G1 X87.091 Y100.577 E23.25321
G1 X86.832 Y99.954 E23.26924
G1 X91.287 Y95.499 E23.41917
G1 X90.185 Y95.720 E23.44591
G1 X86.574 Y99.332 E23.56744
G1 X86.491 Y99.133 E23.57256
G1 X86.443 Y98.953 E23.57699
G1 X86.541 Y98.638 E23.58483
G1 X86.655 Y98.370 E23.59177
G1 X89.043 Y95.981 E23.67214
G1 X88.114 Y96.194 E23.69482
G1 X87.870 Y96.273 E23.70091
G1 X87.334 Y96.809 E23.71895
G1 X87.362 Y96.752 E23.72045
G1 X87.405 Y96.738 E23.72154
G1 Z5.400 F7800.000
G1 X106.225 Y98.730 F7800.000
G1 F3600
G1 X105.834 Y99.266 E23.73945
G1 X105.600 Y99.554 E23.74945
G1 X105.106 Y100.083 E23.76898
G1 X104.532 Y100.588 E23.78959
G1 X103.930 Y101.005 E23.80935
G1 X103.340 Y101.327 E23.82748
G1 X102.635 Y101.627 E23.84817
G1 X102.214 Y101.764 E23.86010
G1 X101.916 Y101.839 E23.86838
G1 X101.572 Y101.880 E23.87774
G1 X101.399 Y101.868 E23.88242
G1 X100.568 Y101.670 E23.90546
G1 X99.721 Y101.579 E23.92844
G1 X98.959 Y101.452 E23.94928
G1 X96.623 Y100.960 E24.01367
G1 X95.607 Y101.225 E24.04201
G1 X95.020 Y101.827 E24.06469
G1 X94.736 Y102.062 E24.07463
G1 X94.514 Y102.213 E24.08187
G1 X94.209 Y102.378 E24.09122
G1 X93.948 Y102.491 E24.09890
G1 X93.446 Y102.656 E24.11317
G1 X93.078 Y102.726 E24.12327
G1 X90.583 Y102.176 E24.19219
G1 X89.985 Y102.142 E24.20833
G1 X89.579 Y102.230 E24.21953
G1 X89.456 Y102.214 E24.22289
G1 X88.796 Y101.821 E24.24361
G1 X87.899 Y101.627 E24.26837
G1 X87.587 Y101.542 E24.27709
G1 X87.297 Y101.432 E24.28547
G1 X87.132 Y101.101 E24.29542
G1 X86.889 Y100.535 E24.31206
G1 X86.533 Y99.616 E24.33863
G1 X86.373 Y99.156 E24.35177
G1 X86.310 Y98.911 E24.35859
G1 X86.288 Y98.721 E24.36375
G1 X86.310 Y98.540 E24.36867
G1 X86.454 Y98.043 E24.38264
G1 X86.997 Y96.647 E24.42306
G1 X87.295 Y96.009 E24.44206
G1 X87.737 Y95.859 E24.45463
G1 X88.532 Y95.677 E24.47665
G1 X88.941 Y95.539 E24.48830
G1 X89.389 Y95.263 E24.50247
G1 X89.490 Y95.223 E24.50542
G1 X89.619 Y95.219 E24.50889
G1 X90.123 Y95.354 E24.52298
G1 X91.607 Y95.050 E24.56384
G1 X92.989 Y94.723 E24.60214
G1 X93.087 Y94.717 E24.60480
G1 X93.297 Y94.749 E24.61052
G1 X93.621 Y94.836 E24.61959
G1 X94.086 Y95.008 E24.63297
G1 X94.590 Y95.279 E24.64838
G1 X94.827 Y95.451 E24.65630
G1 X96.035 Y96.577 E24.70085
G1 X96.563 Y96.458 E24.71544
G1 X96.665 Y96.476 E24.71823
G1 X98.794 Y96.024 E24.77694
G1 X99.746 Y95.859 E24.80302
G1 X100.653 Y95.753 E24.82764
G1 X101.306 Y95.590 E24.84581
G1 X101.502 Y95.564 E24.85114
G1 X101.680 Y95.567 E24.85594
G1 X101.925 Y95.605 E24.86263
G1 X102.319 Y95.709 E24.87360
G1 X102.675 Y95.831 E24.88378
G1 X103.187 Y96.042 E24.89872
G1 X103.569 Y96.231 E24.91020
G1 X103.873 Y96.404 E24.91963
G1 X104.408 Y96.762 E24.93702
G1 X104.973 Y97.232 E24.95683
G1 X105.466 Y97.735 E24.97583
G1 X105.957 Y98.339 E24.99682
G1 X106.182 Y98.668 E25.00759
G1 X106.992 Y98.724 F7800.000
G1 F3600
G1 X106.338 Y99.654 E25.03826
G1 X106.080 Y99.972 E25.04931
G1 X105.555 Y100.534 E25.07005
G1 X105.199 Y100.863 E25.08314
G1 X104.628 Y101.308 E25.10266
G1 X104.257 Y101.550 E25.11461
G1 X103.618 Y101.899 E25.13426
G1 X102.858 Y102.223 E25.15654
G1 X102.390 Y102.375 E25.16982
G1 X102.032 Y102.465 E25.17977
G1 X101.589 Y102.518 E25.19180
G1 X101.319 Y102.500 E25.19908
G1 X100.455 Y102.297 E25.22303
G1 X99.635 Y102.209 E25.24529
G1 X98.841 Y102.077 E25.26700
G1 X96.639 Y101.613 E25.32771
G1 X95.938 Y101.796 E25.34725
G1 X95.451 Y102.295 E25.36606
G1 X95.118 Y102.571 E25.37773
G1 X94.844 Y102.757 E25.38666
G1 X94.487 Y102.950 E25.39760
G1 X94.175 Y103.086 E25.40681
G1 X93.618 Y103.269 E25.42263
G1 X93.312 Y103.340 E25.43110
G1 X93.072 Y103.365 E25.43760
G1 X92.835 Y103.336 E25.44404
G1 X91.689 Y103.063 E25.47582
G1 X90.498 Y102.808 E25.50869
G1 X90.035 Y102.782 E25.52119
G1 X89.658 Y102.863 E25.53160
G1 X89.315 Y102.837 E25.54086
G1 X89.097 Y102.748 E25.54721
G1 X88.557 Y102.420 E25.56428
G1 X87.748 Y102.245 E25.58661
G1 X87.390 Y102.147 E25.59661
G1 X87.014 Y102.005 E25.60745
G1 X86.866 Y101.922 E25.61204
G1 X86.804 Y101.869 E25.61421
G1 X86.555 Y101.369 E25.62930
G1 X86.300 Y100.775 E25.64673
G1 X85.936 Y99.835 E25.67392
G1 X85.764 Y99.340 E25.68806
G1 X85.684 Y99.028 E25.69674
G1 X85.651 Y98.752 E25.70426
G1 X85.686 Y98.407 E25.71361
G1 X85.851 Y97.839 E25.72957
G1 X86.411 Y96.400 E25.77122
G1 X86.813 Y95.557 E25.79641
G1 X87.080 Y95.411 E25.80461
G1 X87.563 Y95.246 E25.81839
G1 X88.359 Y95.064 E25.84043
G1 X88.669 Y94.960 E25.84926
G1 X89.103 Y94.692 E25.86300
G1 X89.322 Y94.606 E25.86936
G1 X89.660 Y94.582 E25.87849
G1 X90.143 Y94.701 E25.89191
G1 X91.470 Y94.429 E25.92845
G1 X92.860 Y94.101 E25.96698
G1 X93.130 Y94.081 E25.97429
G1 X93.427 Y94.125 E25.98239
G1 X93.815 Y94.230 E25.99323
G1 X94.333 Y94.422 E26.00812
G1 X94.592 Y94.544 E26.01585
G1 X94.938 Y94.746 E26.02665
G1 X95.232 Y94.960 E26.03648
G1 X96.223 Y95.883 E26.07302
G1 X96.547 Y95.810 E26.08198
G1 X96.653 Y95.829 E26.08488
G1 X98.673 Y95.400 E26.14059
G1 X99.655 Y95.230 E26.16747
G1 X100.539 Y95.126 E26.19147
G1 X101.188 Y94.964 E26.20952
G1 X101.465 Y94.928 E26.21707
G1 X101.734 Y94.932 E26.22431
G1 X102.055 Y94.982 E26.23309
G1 X102.503 Y95.100 E26.24559
G1 X102.900 Y95.236 E26.25690
G1 X103.450 Y95.463 E26.27294
G1 X103.867 Y95.669 E26.28550
G1 X104.207 Y95.862 E26.29604
G1 X104.790 Y96.252 E26.31496
G1 X105.405 Y96.764 E26.33654
G1 X105.940 Y97.311 E26.35721
G1 X106.466 Y97.958 E26.37968
G1 X106.950 Y98.663 E26.40274
G1 X107.645 Y98.719 F7800.000
G1 F1800
G1 X107.596 Y98.829 E26.40523
G1 X107.205 Y99.416 E26.41976
G1 X106.782 Y99.996 E26.43456
G1 X106.502 Y100.341 E26.44371
G1 X105.950 Y100.932 E26.46038
G1 X105.567 Y101.286 E26.47114
G1 X104.948 Y101.768 E26.48731
G1 X104.545 Y102.032 E26.49723
G1 X103.862 Y102.404 E26.51326
G1 X103.055 Y102.749 E26.53136
G1 X102.544 Y102.914 E26.54241
G1 X102.134 Y103.017 E26.55114
G1 X101.604 Y103.080 E26.56214
G1 X101.250 Y103.057 E26.56945
G1 X100.356 Y102.851 E26.58835
G1 X99.559 Y102.765 E26.60489
G1 X98.737 Y102.628 E26.62205
G1 X96.653 Y102.188 E26.66595
G1 X96.231 Y102.299 E26.67495
G1 X95.832 Y102.708 E26.68672
G1 X95.455 Y103.020 E26.69680
G1 X95.136 Y103.237 E26.70476
G1 X94.733 Y103.454 E26.71420
G1 X94.374 Y103.610 E26.72225
G1 X93.769 Y103.809 E26.73538
G1 X93.405 Y103.894 E26.74310
G1 X93.067 Y103.930 E26.75010
G1 X92.736 Y103.889 E26.75697
G1 X91.565 Y103.610 E26.78177
G1 X90.423 Y103.365 E26.80586
G1 X90.079 Y103.346 E26.81295
G1 X89.732 Y103.421 E26.82027
G1 X89.540 Y103.431 E26.82423
G1 X89.193 Y103.387 E26.83144
G1 X88.832 Y103.244 E26.83944
G1 X88.346 Y102.948 E26.85117
G1 X87.614 Y102.789 E26.86660
G1 X87.216 Y102.681 E26.87510
G1 X86.777 Y102.514 E26.88478
G1 X86.544 Y102.384 E26.89028
G1 X86.388 Y102.251 E26.89450
G1 X86.328 Y102.171 E26.89657
G1 X86.046 Y101.605 E26.90961
G1 X85.781 Y100.987 E26.92346
G1 X85.410 Y100.029 E26.94465
G1 X85.227 Y99.502 E26.95613
G1 X85.131 Y99.131 E26.96402
G1 X85.090 Y98.778 E26.97135
G1 X85.094 Y98.596 E26.97512
G1 X85.137 Y98.289 E26.98149
G1 X85.320 Y97.659 E26.99503
G1 X85.895 Y96.182 E27.02768
G1 X86.148 Y95.625 E27.04030
G1 X86.327 Y95.275 E27.04840
G1 X86.506 Y95.086 E27.05378
G1 X86.853 Y94.896 E27.06192
G1 X87.410 Y94.706 E27.07405
G1 X88.207 Y94.524 E27.09089
G1 X88.430 Y94.449 E27.09574
G1 X88.851 Y94.189 E27.10595
G1 X89.161 Y94.067 E27.11281
G1 X89.333 Y94.031 E27.11643
G1 X89.691 Y94.020 E27.12381
G1 X89.849 Y94.042 E27.12709
G1 X90.160 Y94.126 E27.13374
G1 X91.349 Y93.882 E27.15876
G1 X92.746 Y93.552 E27.18834
G1 X92.904 Y93.523 E27.19165
G1 X93.168 Y93.520 E27.19709
G1 X93.542 Y93.576 E27.20488
G1 X93.986 Y93.695 E27.21435
G1 X94.550 Y93.904 E27.22675
G1 X94.853 Y94.047 E27.23366
G1 X95.244 Y94.276 E27.24300
G1 X95.590 Y94.526 E27.25179
G1 X96.389 Y95.271 E27.27431
G1 X96.533 Y95.239 E27.27736
G1 X96.643 Y95.258 E27.27965
G1 X98.567 Y94.849 E27.32021
G1 X99.574 Y94.675 E27.34127
G1 X100.438 Y94.574 E27.35919
G1 X101.083 Y94.413 E27.37290
G1 X101.433 Y94.367 E27.38017
G1 X101.781 Y94.372 E27.38734
G1 X102.170 Y94.432 E27.39546
G1 X102.666 Y94.563 E27.40603
G1 X103.098 Y94.712 E27.41544
G1 X103.681 Y94.952 E27.42844
G1 X104.130 Y95.174 E27.43877
G1 X104.501 Y95.385 E27.44757
G1 X105.126 Y95.802 E27.46305
G1 X105.785 Y96.351 E27.48073
G1 X106.359 Y96.938 E27.49764
G1 X106.915 Y97.622 E27.51581
G1 X107.613 Y98.651 E27.54144
G1 X107.536 Y98.770 F7800.000
G1 X105.462 Y99.295 F7800.000
G1 F4800
G1 X102.391 Y96.224 E27.64478
G1 X101.912 Y96.049 E27.65690
G1 X101.570 Y95.958 E27.66532
G1 X101.397 Y95.932 E27.66948
G1 X101.226 Y95.941 E27.67356
G1 X105.042 Y99.757 E27.80197
G1 X104.592 Y100.187 E27.81680
G1 X100.516 Y96.111 E27.95394
G1 X99.727 Y96.204 E27.97283
G1 X104.092 Y100.569 E28.11970
G1 X103.855 Y100.724 E28.12644
G1 X103.539 Y100.896 E28.13501
G1 X98.970 Y96.328 E28.28874
G1 X98.234 Y96.472 E28.30659
G1 X102.940 Y101.179 E28.46495
G1 X102.665 Y101.296 E28.47208
G1 X102.288 Y101.407 E28.48143
G1 X97.508 Y96.627 E28.64228
G1 X96.781 Y96.781 E28.65996
G1 X101.441 Y101.441 E28.81675
G1 X100.902 Y101.312 E28.82992
G1 X100.374 Y101.255 E28.84255
G1 X96.026 Y96.907 E28.98886
G1 X95.626 Y96.998 E28.99862
G1 X94.214 Y95.681 E29.04455
G1 X94.038 Y95.554 E29.04971
G1 X93.533 Y95.295 E29.06323
G1 X99.341 Y101.103 E29.25867
G1 X98.227 Y100.870 E29.28576
G1 X92.519 Y95.162 E29.47784
G1 X91.806 Y95.330 E29.49527
G1 X97.111 Y100.635 E29.67377
G1 X96.841 Y100.578 E29.68033
G1 X96.312 Y100.716 E29.69336
G1 X91.083 Y95.488 E29.86930
G1 X90.352 Y95.638 E29.88705
G1 X95.613 Y100.899 E30.06409
G1 X95.527 Y100.921 E30.06621
G1 X95.146 Y101.312 E30.07920
G1 X89.458 Y95.625 E30.27058
G1 X89.370 Y95.601 E30.27277
G1 X88.965 Y95.851 E30.28408
G1 X88.844 Y95.892 E30.28711
G1 X94.696 Y101.744 E30.48403
G1 X94.436 Y101.934 E30.49170
G1 X94.154 Y102.083 E30.49928
G1 X88.161 Y96.089 E30.70095
G1 X87.667 Y96.202 E30.71301
G1 X87.497 Y96.260 E30.71729
G1 X87.482 Y96.291 E30.71811
G1 X93.504 Y102.313 E30.92074
G1 X93.320 Y102.348 E30.92521
G1 X92.471 Y102.161 E30.94588
G1 X87.215 Y96.906 E31.12272
G1 X86.969 Y97.540 E31.13891
G1 X91.341 Y101.912 E31.28605
G1 X90.897 Y101.815 E31.29687
G1 X90.330 Y101.782 E31.31038
G1 X86.735 Y98.187 E31.43136
G1 X86.665 Y98.428 E31.43733
G1 X86.667 Y98.569 E31.44069
G1 X86.872 Y99.205 E31.45661
G1 X89.131 Y101.464 E31.53261
G1 X88.274 Y101.278 E31.55349
G1 X87.983 Y101.197 E31.56068
G1 X87.481 Y100.695 E31.57757
M106 S242.25
G1 Z5.700 F7800.000
G1 X105.975 Y98.716 F7800.000
G1 F3600
G1 X105.563 Y99.217 E31.59507
G1 X104.975 Y99.818 E31.61775
G1 X104.336 Y100.360 E31.64035
G1 X103.807 Y100.729 E31.65776
G1 X103.118 Y101.112 E31.67901
G1 X102.496 Y101.376 E31.69723
G1 X102.188 Y101.478 E31.70599
G1 X101.818 Y101.567 E31.71627
G1 X101.596 Y101.585 E31.72228
G1 X101.393 Y101.573 E31.72776
G1 X100.615 Y101.430 E31.74909
G1 X100.152 Y101.391 E31.76163
G1 X99.578 Y101.304 E31.77730
G1 X96.533 Y100.675 E31.86118
G1 X95.523 Y101.076 E31.89049
G1 X94.963 Y101.665 E31.91241
G1 X94.780 Y101.825 E31.91897
G1 X94.420 Y102.083 E31.93092
G1 X94.230 Y102.192 E31.93684
G1 X93.709 Y102.424 E31.95221
G1 X93.310 Y102.559 E31.96359
G1 X92.896 Y102.660 E31.97508
G1 X92.044 Y102.448 E31.99877
G1 X90.895 Y102.197 E32.03049
G1 X90.185 Y102.142 E32.04970
G1 X89.679 Y102.341 E32.06437
G1 X89.570 Y102.361 E32.06737
G1 X89.472 Y102.352 E32.07003
G1 X89.332 Y102.301 E32.07403
G1 X89.210 Y102.211 E32.07811
G1 X88.869 Y101.876 E32.09102
G1 X87.568 Y101.516 E32.12744
G1 X87.427 Y101.462 E32.13150
G1 X87.147 Y100.846 E32.14975
G1 X86.927 Y100.253 E32.16682
G1 X86.627 Y99.357 E32.19232
G1 X86.533 Y98.981 E32.20275
G1 X86.507 Y98.758 E32.20882
G1 X86.525 Y98.518 E32.21532
G1 X86.693 Y97.880 E32.23311
G1 X87.195 Y96.480 E32.27322
G1 X87.435 Y95.982 E32.28814
G1 X87.622 Y95.909 E32.29355
G1 X88.454 Y95.700 E32.31671
G1 X88.959 Y95.441 E32.33201
G1 X89.345 Y95.142 E32.34517
G1 X89.434 Y95.100 E32.34784
G1 X89.568 Y95.082 E32.35149
G1 X89.731 Y95.112 E32.35595
G1 X90.442 Y95.342 E32.37611
G1 X92.023 Y95.001 E32.41975
G1 X92.882 Y94.784 E32.44366
G1 X93.134 Y94.833 E32.45057
G1 X93.475 Y94.935 E32.46019
G1 X93.860 Y95.077 E32.47125
G1 X94.173 Y95.221 E32.48053
G1 X94.469 Y95.392 E32.48976
G1 X94.722 Y95.572 E32.49815
G1 X95.028 Y95.843 E32.50917
G1 X95.663 Y96.535 E32.53452
G1 X96.648 Y96.746 E32.56168
G1 X99.672 Y96.122 E32.64498
G1 X100.212 Y96.044 E32.65971
G1 X100.635 Y96.013 E32.67115
G1 X101.237 Y95.892 E32.68770
G1 X101.485 Y95.861 E32.69445
G1 X101.696 Y95.862 E32.70013
G1 X101.922 Y95.896 E32.70630
G1 X102.230 Y95.977 E32.71488
G1 X102.646 Y96.124 E32.72679
G1 X103.294 Y96.419 E32.74600
G1 X103.813 Y96.718 E32.76216
G1 X104.467 Y97.184 E32.78382
G1 X104.947 Y97.598 E32.80094
G1 X105.450 Y98.101 E32.82010
G1 X105.926 Y98.659 E32.83989
G1 X106.756 Y98.727 F7800.000
G1 F3600
G1 X106.613 Y98.940 E32.84682
G1 X106.037 Y99.642 E32.87131
G1 X105.409 Y100.284 E32.89554
G1 X104.724 Y100.864 E32.91975
G1 X104.144 Y101.269 E32.93885
G1 X103.398 Y101.683 E32.96187
G1 X102.721 Y101.971 E32.98170
G1 X102.368 Y102.088 E32.99174
G1 X101.901 Y102.198 E33.00469
G1 X101.603 Y102.223 E33.01274
G1 X101.316 Y102.206 E33.02049
G1 X100.531 Y102.061 E33.04203
G1 X100.077 Y102.023 E33.05431
G1 X99.466 Y101.930 E33.07100
G1 X96.590 Y101.336 E33.15021
G1 X95.887 Y101.615 E33.17061
G1 X95.404 Y102.124 E33.18955
G1 X95.175 Y102.324 E33.19773
G1 X94.764 Y102.618 E33.21137
G1 X94.518 Y102.760 E33.21904
G1 X93.941 Y103.016 E33.23608
G1 X93.487 Y103.170 E33.24899
G1 X92.891 Y103.303 E33.26549
G1 X90.802 Y102.827 E33.32327
G1 X90.282 Y102.787 E33.33734
G1 X89.853 Y102.956 E33.34979
G1 X89.625 Y102.997 E33.35604
G1 X89.313 Y102.970 E33.36450
G1 X88.980 Y102.831 E33.37422
G1 X88.797 Y102.697 E33.38035
G1 X88.541 Y102.444 E33.39004
G1 X87.367 Y102.120 E33.42289
G1 X87.160 Y102.039 E33.42890
G1 X86.950 Y101.924 E33.43536
G1 X86.768 Y101.567 E33.44618
G1 X86.557 Y101.084 E33.46038
G1 X86.327 Y100.464 E33.47821
G1 X86.016 Y99.534 E33.50466
G1 X85.907 Y99.096 E33.51685
G1 X85.871 Y98.791 E33.52515
G1 X85.899 Y98.396 E33.53581
G1 X86.084 Y97.695 E33.55539
G1 X86.440 Y96.666 E33.58475
G1 X86.611 Y96.226 E33.59748
G1 X86.947 Y95.532 E33.61828
G1 X87.022 Y95.475 E33.62083
G1 X87.428 Y95.303 E33.63274
G1 X88.229 Y95.101 E33.65501
G1 X88.616 Y94.902 E33.66676
G1 X89.010 Y94.597 E33.68021
G1 X89.293 Y94.478 E33.68849
G1 X89.619 Y94.444 E33.69731
G1 X89.888 Y94.494 E33.70469
G1 X90.475 Y94.685 E33.72135
G1 X91.878 Y94.382 E33.76007
G1 X92.879 Y94.139 E33.78786
G1 X93.286 Y94.215 E33.79901
G1 X93.677 Y94.332 E33.81004
G1 X94.103 Y94.490 E33.82229
G1 X94.464 Y94.656 E33.83301
G1 X94.813 Y94.856 E33.84386
G1 X95.119 Y95.074 E33.85400
G1 X95.474 Y95.389 E33.86681
G1 X95.995 Y95.956 E33.88757
G1 X96.650 Y96.097 E33.90566
G1 X99.562 Y95.496 E33.98586
G1 X100.143 Y95.411 E34.00170
G1 X100.550 Y95.381 E34.01270
G1 X101.134 Y95.265 E34.02879
G1 X101.447 Y95.225 E34.03729
G1 X101.745 Y95.227 E34.04533
G1 X102.050 Y95.272 E34.05364
G1 X102.416 Y95.369 E34.06386
G1 X102.884 Y95.534 E34.07724
G1 X103.585 Y95.853 E34.09803
G1 X104.157 Y96.183 E34.11582
G1 X104.859 Y96.684 E34.13910
G1 X105.380 Y97.132 E34.15765
G1 X105.917 Y97.669 E34.17813
G1 X106.491 Y98.341 E34.20197
G1 X106.714 Y98.665 E34.21258
G1 X107.410 Y98.723 F7800.000
G1 F1800
G1 X107.349 Y98.850 E34.21548
G1 X107.063 Y99.275 E34.22604
G1 X106.455 Y100.017 E34.24580
G1 X105.791 Y100.694 E34.26535
G1 X105.067 Y101.309 E34.28493
G1 X104.441 Y101.745 E34.30066
G1 X103.644 Y102.188 E34.31945
G1 X102.919 Y102.496 E34.33567
G1 X102.526 Y102.626 E34.34422
G1 X101.973 Y102.755 E34.35591
G1 X101.610 Y102.785 E34.36343
G1 X101.249 Y102.763 E34.37088
G1 X100.457 Y102.617 E34.38748
G1 X100.012 Y102.580 E34.39668
G1 X99.367 Y102.482 E34.41013
G1 X96.641 Y101.919 E34.46749
G1 X96.209 Y102.091 E34.47708
G1 X95.792 Y102.529 E34.48954
G1 X95.524 Y102.764 E34.49688
G1 X95.068 Y103.090 E34.50844
G1 X94.772 Y103.261 E34.51549
G1 X94.145 Y103.539 E34.52962
G1 X93.644 Y103.709 E34.54052
G1 X93.037 Y103.857 E34.55340
G1 X92.860 Y103.866 E34.55706
G1 X92.572 Y103.819 E34.56308
G1 X91.767 Y103.612 E34.58021
G1 X90.720 Y103.383 E34.60229
G1 X90.368 Y103.356 E34.60958
G1 X90.006 Y103.498 E34.61758
G1 X89.673 Y103.557 E34.62455
G1 X89.434 Y103.557 E34.62948
G1 X89.172 Y103.515 E34.63495
G1 X88.837 Y103.394 E34.64230
G1 X88.675 Y103.303 E34.64612
G1 X88.432 Y103.125 E34.65233
G1 X88.251 Y102.946 E34.65757
G1 X87.190 Y102.653 E34.68026
G1 X86.922 Y102.548 E34.68620
G1 X86.671 Y102.411 E34.69208
G1 X86.555 Y102.318 E34.69516
G1 X86.456 Y102.190 E34.69850
G1 X86.260 Y101.806 E34.70737
G1 X86.037 Y101.294 E34.71888
G1 X85.798 Y100.651 E34.73302
G1 X85.478 Y99.691 E34.75387
G1 X85.354 Y99.198 E34.76436
G1 X85.310 Y98.819 E34.77221
G1 X85.314 Y98.561 E34.77754
G1 X85.348 Y98.290 E34.78317
G1 X85.547 Y97.531 E34.79933
G1 X85.914 Y96.473 E34.82242
G1 X86.097 Y96.003 E34.83282
G1 X86.467 Y95.236 E34.85037
G1 X86.562 Y95.120 E34.85345
G1 X86.714 Y95.004 E34.85738
G1 X86.864 Y94.921 E34.86094
G1 X87.257 Y94.768 E34.86963
G1 X88.030 Y94.573 E34.88605
G1 X88.314 Y94.427 E34.89263
G1 X88.716 Y94.116 E34.90310
G1 X89.010 Y93.977 E34.90981
G1 X89.174 Y93.928 E34.91334
G1 X89.518 Y93.881 E34.92050
G1 X89.677 Y93.885 E34.92378
G1 X90.026 Y93.950 E34.93109
G1 X90.504 Y94.105 E34.94145
G1 X91.750 Y93.836 E34.96773
G1 X92.717 Y93.592 E34.98828
G1 X92.882 Y93.576 E34.99169
G1 X93.420 Y93.670 E35.00294
G1 X93.855 Y93.800 E35.01230
G1 X94.318 Y93.971 E35.02247
G1 X94.722 Y94.157 E35.03164
G1 X95.116 Y94.384 E35.04102
G1 X95.469 Y94.635 E35.04994
G1 X95.868 Y94.989 E35.06093
G1 X96.287 Y95.446 E35.07370
G1 X96.652 Y95.524 E35.08141
G1 X99.465 Y94.944 E35.14060
G1 X100.082 Y94.854 E35.15345
G1 X100.474 Y94.825 E35.16155
G1 X101.044 Y94.711 E35.17353
G1 X101.414 Y94.664 E35.18121
G1 X101.789 Y94.667 E35.18894
G1 X102.162 Y94.722 E35.19673
G1 X102.581 Y94.832 E35.20565
G1 X103.094 Y95.013 E35.21686
G1 X103.842 Y95.354 E35.23380
G1 X104.460 Y95.710 E35.24851
G1 X105.206 Y96.242 E35.26738
G1 X105.762 Y96.721 E35.28251
G1 X106.329 Y97.289 E35.29904
G1 X106.936 Y98.000 E35.31831
G1 X107.381 Y98.654 E35.33462
G1 X107.281 Y98.781 F7800.000
G1 X103.271 Y96.729 F7800.000
G1 F4800
G1 X102.627 Y97.373 E35.35628
G1 X102.931 Y97.949 E35.37179
G1 X103.821 Y97.060 E35.40172
G1 X104.335 Y97.427 E35.41675
G1 X102.380 Y99.382 E35.48252
G1 X102.763 Y99.879 E35.49747
G1 X104.806 Y97.837 E35.56619
G1 X105.246 Y98.278 E35.58101
G1 X103.147 Y100.377 E35.65164
G1 X102.654 Y100.752 F7800.000
G1 F1200
G1 X103.149 Y100.257 E35.67056
G1 X102.757 Y99.748 E35.68793
G1 X101.311 Y101.194 E35.74321
G1 X100.541 Y101.063 E35.76434
G1 X102.365 Y99.239 E35.83408
G1 X101.973 Y98.730 E35.85145
G1 X99.734 Y100.969 E35.93708
G1 X98.974 Y100.828 E35.95798
G1 X102.596 Y97.206 E36.09650
G1 X102.285 Y96.616 E36.11453
G1 X98.227 Y100.674 E36.26971
G1 X97.480 Y100.520 E36.29034
G1 X101.747 Y96.252 E36.45354
G1 X101.587 Y96.273 E36.45792
G1 X100.968 Y96.396 E36.47496
G1 X100.681 Y96.417 E36.48275
G1 X96.733 Y100.366 E36.63375
G1 X96.228 Y100.262 E36.64770
G1 X95.744 Y100.453 E36.66176
G1 X99.610 Y96.588 E36.80957
G1 X98.474 Y96.822 E36.84092
G1 X93.212 Y102.084 E37.04215
G1 X92.885 Y102.195 E37.05151
G1 X92.650 Y102.253 E37.05803
G1 X92.510 Y102.217 E37.06195
G1 X92.622 Y101.774 E37.07432
G1 X97.339 Y97.056 E37.25474
G1 X96.893 Y97.149 E37.26707
G1 X96.442 Y97.052 E37.27952
G1 X92.926 Y100.569 E37.41400
G1 X93.064 Y100.023 E37.42923
G1 X93.074 Y99.519 E37.44284
G1 X95.700 Y96.893 E37.54328
G1 X95.579 Y96.867 E37.54662
G1 X95.218 Y96.474 E37.56105
G1 X93.093 Y98.599 E37.64233
G1 X93.112 Y97.679 E37.66722
G1 X94.783 Y96.009 E37.73111
G1 X94.573 Y95.823 E37.73868
G1 X94.270 Y95.621 E37.74854
G1 X93.131 Y96.759 E37.79209
G1 X93.150 Y95.839 E37.81697
G1 X93.644 Y95.345 E37.83589
G1 X89.093 Y95.931 F7800.000
G1 F4800
G1 X87.198 Y97.826 E37.89965
G1 X87.032 Y98.290 E37.91138
G1 X86.884 Y98.849 E37.92514
G1 X86.881 Y99.025 E37.92931
G1 X90.291 Y95.614 E38.04407
G1 X90.643 Y95.728 E38.05288
G1 X91.172 Y95.614 E38.06575
G1 X87.068 Y99.718 E38.20384
G1 X87.291 Y100.376 E38.22037
G1 X92.296 Y95.371 E38.38877
G1 X93.035 Y95.188 E38.40688
G1 X93.028 Y95.520 E38.41477
G1 X87.540 Y101.008 E38.59945
G1 X87.632 Y101.210 E38.60473
G1 X88.092 Y101.337 E38.61609
G1 X93.010 Y96.419 E38.78157
G1 X92.991 Y97.319 E38.80298
G1 X88.782 Y101.528 E38.94461
G1 X88.945 Y101.573 E38.94865
G1 X89.284 Y101.907 E38.95996
G1 X92.972 Y98.218 E39.08407
G1 X92.954 Y99.118 E39.10548
G1 X90.272 Y101.799 E39.19570
G1 X90.750 Y101.836 E39.20710
G1 X91.051 Y101.902 E39.21442
G1 X92.763 Y100.189 E39.27206
G1 X92.466 Y101.368 E39.30097
G1 X91.774 Y102.060 E39.32427
G1 Z6.000 F7800.000
G1 X105.725 Y98.734 F7800.000
G1 F3600
G1 X104.940 Y99.509 E39.35402
G1 X104.369 Y99.985 E39.37407
G1 X103.766 Y100.412 E39.39401
G1 X103.310 Y100.679 E39.40826
G1 X102.667 Y100.984 E39.42745
G1 X102.120 Y101.174 E39.44309
G1 X101.788 Y101.246 E39.45224
G1 X101.580 Y101.264 E39.45788
G1 X101.356 Y101.254 E39.46393
G1 X100.772 Y101.169 E39.47984
G1 X100.432 Y101.144 E39.48905
G1 X99.999 Y101.068 E39.50091
G1 X98.242 Y100.670 E39.54950
G1 X96.282 Y100.261 E39.60351
G1 X95.673 Y100.780 E39.62510
G1 X95.464 Y100.894 E39.63153
G1 X94.973 Y101.443 E39.65139
G1 X94.555 Y101.800 E39.66622
G1 X94.289 Y101.977 E39.67486
G1 X94.020 Y102.122 E39.68308
G1 X93.666 Y102.278 E39.69351
G1 X93.206 Y102.443 E39.70672
G1 X92.749 Y102.574 E39.71952
G1 X91.817 Y102.347 E39.74540
G1 X90.995 Y102.173 E39.76808
G1 X90.575 Y102.143 E39.77944
G1 X90.041 Y102.260 E39.79417
G1 X89.725 Y102.412 E39.80364
G1 X89.501 Y102.432 E39.80970
G1 X89.273 Y102.353 E39.81620
G1 X88.813 Y101.931 E39.83305
G1 X88.345 Y101.704 E39.84708
G1 X87.799 Y101.565 E39.86228
G1 X87.561 Y101.482 E39.86908
G1 X87.363 Y101.058 E39.88171
G1 X87.148 Y100.449 E39.89912
G1 X86.853 Y99.455 E39.92711
G1 X86.757 Y99.011 E39.93936
G1 X86.734 Y98.729 E39.94699
G1 X86.752 Y98.464 E39.95414
G1 X86.813 Y98.154 E39.96266
G1 X87.093 Y97.171 E39.99024
G1 X87.321 Y96.495 E40.00949
G1 X87.562 Y95.962 E40.02527
G1 X88.705 Y95.617 E40.05749
G1 X89.267 Y95.094 E40.07821
G1 X89.482 Y95.014 E40.08440
G1 X89.696 Y95.028 E40.09017
G1 X90.027 Y95.164 E40.09982
G1 X90.525 Y95.299 E40.11374
G1 X90.952 Y95.280 E40.12528
G1 X92.027 Y95.048 E40.15493
G1 X92.731 Y94.865 E40.17455
G1 X93.393 Y95.063 E40.19322
G1 X93.867 Y95.249 E40.20694
G1 X94.158 Y95.391 E40.21567
G1 X94.461 Y95.577 E40.22527
G1 X94.713 Y95.768 E40.23380
G1 X94.954 Y95.984 E40.24254
G1 X95.376 Y96.450 E40.25948
G1 X95.456 Y96.514 E40.26225
G1 X95.698 Y96.865 E40.27376
G1 X96.719 Y97.104 E40.30204
G1 X100.235 Y96.326 E40.39919
G1 X101.317 Y96.191 E40.42862
G1 X101.557 Y96.179 E40.43509
G1 X101.802 Y96.199 E40.44173
G1 X102.030 Y96.244 E40.44800
G1 X102.464 Y96.380 E40.46027
G1 X102.967 Y96.591 E40.47498
G1 X103.630 Y96.948 E40.49528
G1 X104.273 Y97.383 E40.51624
G1 X104.797 Y97.807 E40.53443
G1 X105.466 Y98.442 E40.55930
G1 X105.675 Y98.678 E40.56779
G1 X106.548 Y98.730 F7800.000
G1 F3600
G1 X106.096 Y99.260 E40.58660
G1 X105.368 Y99.980 E40.61422
G1 X104.757 Y100.490 E40.63569
G1 X104.111 Y100.947 E40.65704
G1 X103.608 Y101.241 E40.67276
G1 X102.908 Y101.573 E40.69364
G1 X102.292 Y101.787 E40.71126
G1 X101.883 Y101.875 E40.72253
G1 X101.594 Y101.900 E40.73036
G1 X101.297 Y101.888 E40.73838
G1 X100.703 Y101.802 E40.75456
G1 X100.353 Y101.776 E40.76403
G1 X99.873 Y101.692 E40.77718
G1 X98.107 Y101.291 E40.82604
G1 X96.457 Y100.947 E40.87150
G1 X96.035 Y101.306 E40.88647
G1 X95.864 Y101.399 E40.89170
G1 X95.426 Y101.890 E40.90945
G1 X95.176 Y102.119 E40.91859
G1 X94.929 Y102.315 E40.92709
G1 X94.616 Y102.523 E40.93724
G1 X94.300 Y102.693 E40.94693
G1 X93.902 Y102.869 E40.95865
G1 X93.401 Y103.048 E40.97303
G1 X92.749 Y103.228 E40.99125
G1 X91.676 Y102.967 E41.02105
G1 X90.906 Y102.804 E41.04228
G1 X90.622 Y102.784 E41.04998
G1 X90.249 Y102.865 E41.06026
G1 X89.879 Y103.030 E41.07119
G1 X89.643 Y103.071 E41.07765
G1 X89.421 Y103.066 E41.08365
G1 X89.180 Y103.009 E41.09033
G1 X88.959 Y102.909 E41.09686
G1 X88.452 Y102.462 E41.11510
G1 X88.125 Y102.304 E41.12488
G1 X87.616 Y102.174 E41.13907
G1 X87.343 Y102.079 E41.14687
G1 X87.082 Y101.941 E41.15483
G1 X86.771 Y101.292 E41.17423
G1 X86.543 Y100.645 E41.19273
G1 X86.237 Y99.612 E41.22180
G1 X86.128 Y99.105 E41.23580
G1 X86.096 Y98.733 E41.24586
G1 X86.121 Y98.380 E41.25541
G1 X86.195 Y98.006 E41.26570
G1 X86.486 Y96.983 E41.29439
G1 X86.726 Y96.270 E41.31467
G1 X86.888 Y95.882 E41.32604
G1 X87.101 Y95.491 E41.33804
G1 X87.444 Y95.324 E41.34834
G1 X88.382 Y95.049 E41.37469
G1 X88.870 Y94.596 E41.39267
G1 X88.961 Y94.536 E41.39560
G1 X89.198 Y94.427 E41.40265
G1 X89.403 Y94.380 E41.40831
G1 X89.643 Y94.374 E41.41480
G1 X89.874 Y94.414 E41.42112
G1 X90.231 Y94.561 E41.43153
G1 X90.595 Y94.659 E41.44171
G1 X90.871 Y94.647 E41.44915
G1 X91.879 Y94.430 E41.47699
G1 X92.702 Y94.219 E41.49991
G1 X92.850 Y94.237 E41.50391
G1 X93.601 Y94.462 E41.52506
G1 X94.123 Y94.666 E41.54020
G1 X94.464 Y94.833 E41.55044
G1 X94.820 Y95.051 E41.56169
G1 X95.118 Y95.277 E41.57178
G1 X95.403 Y95.533 E41.58213
G1 X95.812 Y95.985 E41.59857
G1 X95.926 Y96.076 E41.60249
G1 X96.082 Y96.302 E41.60991
G1 X96.723 Y96.452 E41.62766
G1 X100.127 Y95.699 E41.72171
G1 X101.262 Y95.557 E41.75257
G1 X101.567 Y95.542 E41.76082
G1 X101.890 Y95.569 E41.76956
G1 X102.187 Y95.627 E41.77773
G1 X102.683 Y95.783 E41.79174
G1 X103.241 Y96.016 E41.80807
G1 X103.959 Y96.403 E41.83007
G1 X104.652 Y96.872 E41.85264
G1 X105.217 Y97.329 E41.87224
G1 X105.923 Y98.000 E41.89853
G1 X106.504 Y98.670 E41.92242
G1 X107.154 Y98.774 F7800.000
G1 F1800
G1 X107.096 Y98.892 E41.92513
G1 X106.907 Y99.173 E41.93211
G1 X106.507 Y99.642 E41.94482
G1 X105.745 Y100.396 E41.96690
G1 X105.099 Y100.935 E41.98425
G1 X104.415 Y101.418 E42.00152
G1 X103.870 Y101.738 E42.01453
G1 X103.121 Y102.093 E42.03162
G1 X102.443 Y102.328 E42.04641
G1 X101.967 Y102.431 E42.05645
G1 X101.606 Y102.462 E42.06391
G1 X101.244 Y102.447 E42.07137
G1 X100.642 Y102.359 E42.08391
G1 X100.284 Y102.333 E42.09131
G1 X99.763 Y102.242 E42.10223
G1 X97.988 Y101.839 E42.13974
G1 X96.611 Y101.552 E42.16872
G1 X96.354 Y101.771 E42.17569
G1 X96.218 Y101.845 E42.17889
G1 X95.825 Y102.284 E42.19101
G1 X95.541 Y102.545 E42.19898
G1 X95.259 Y102.769 E42.20639
G1 X94.904 Y103.004 E42.21516
G1 X94.546 Y103.197 E42.22355
G1 X94.110 Y103.390 E42.23338
G1 X93.573 Y103.582 E42.24515
G1 X92.978 Y103.752 E42.25788
G1 X92.690 Y103.790 E42.26389
G1 X91.552 Y103.513 E42.28802
G1 X90.828 Y103.360 E42.30327
G1 X90.663 Y103.348 E42.30668
G1 X90.433 Y103.399 E42.31153
G1 X90.176 Y103.522 E42.31740
G1 X90.016 Y103.576 E42.32088
G1 X89.684 Y103.632 E42.32782
G1 X89.350 Y103.625 E42.33472
G1 X88.998 Y103.542 E42.34216
G1 X88.685 Y103.400 E42.34925
G1 X88.533 Y103.298 E42.35302
G1 X88.133 Y102.931 E42.36421
G1 X87.932 Y102.833 E42.36882
G1 X87.454 Y102.711 E42.37898
G1 X87.129 Y102.599 E42.38607
G1 X86.887 Y102.483 E42.39160
G1 X86.763 Y102.402 E42.39465
G1 X86.660 Y102.307 E42.39755
G1 X86.591 Y102.212 E42.39995
G1 X86.405 Y101.852 E42.40832
G1 X86.250 Y101.499 E42.41627
G1 X86.010 Y100.818 E42.43114
G1 X85.694 Y99.751 E42.45407
G1 X85.572 Y99.188 E42.46595
G1 X85.534 Y98.737 E42.47527
G1 X85.564 Y98.306 E42.48419
G1 X85.649 Y97.875 E42.49324
G1 X85.950 Y96.817 E42.51592
G1 X86.201 Y96.073 E42.53210
G1 X86.380 Y95.645 E42.54164
G1 X86.591 Y95.234 E42.55117
G1 X86.703 Y95.090 E42.55494
G1 X86.783 Y95.027 E42.55704
G1 X87.047 Y94.879 E42.56328
G1 X87.261 Y94.794 E42.56802
G1 X88.097 Y94.549 E42.58598
G1 X88.522 Y94.154 E42.59793
G1 X88.687 Y94.044 E42.60202
G1 X89.017 Y93.893 E42.60949
G1 X89.332 Y93.821 E42.61617
G1 X89.685 Y93.812 E42.62344
G1 X90.031 Y93.873 E42.63067
G1 X90.411 Y94.029 E42.63915
G1 X90.657 Y94.095 E42.64440
G1 X90.799 Y94.089 E42.64732
G1 X91.750 Y93.884 E42.66736
G1 X92.683 Y93.653 E42.68718
G1 X92.988 Y93.693 E42.69352
G1 X93.784 Y93.932 E42.71064
G1 X94.349 Y94.153 E42.72316
G1 X94.734 Y94.342 E42.73200
G1 X95.136 Y94.587 E42.74171
G1 X95.475 Y94.844 E42.75048
G1 X95.800 Y95.135 E42.75946
G1 X96.198 Y95.575 E42.77169
G1 X96.341 Y95.689 E42.77546
G1 X96.421 Y95.806 E42.77837
G1 X96.726 Y95.877 E42.78484
G1 X100.031 Y95.146 E42.85460
G1 X101.213 Y94.998 E42.87915
G1 X101.576 Y94.980 E42.88664
G1 X101.968 Y95.012 E42.89474
G1 X102.326 Y95.083 E42.90227
G1 X102.875 Y95.256 E42.91413
G1 X103.483 Y95.510 E42.92771
G1 X104.250 Y95.923 E42.94567
G1 X104.986 Y96.421 E42.96398
G1 X105.587 Y96.907 E42.97992
G1 X106.327 Y97.610 E43.00095
G1 X106.870 Y98.223 E43.01782
G1 X107.005 Y98.404 E43.02247
G1 X107.161 Y98.699 E43.02936
G1 X107.030 Y98.818 F7800.000
G1 X105.120 Y98.953 F7800.000
G1 F4800
G1 X104.592 Y98.426 E43.04711
G1 X104.655 Y98.488 E43.04921
G1 X104.669 Y99.383 F7800.000
G1 F4800
G1 X103.081 Y97.796 E43.10263
G1 X103.364 Y98.300 E43.11640
G1 X103.419 Y98.346 E43.11809
G1 X103.404 Y98.373 E43.11882
G1 X103.446 Y98.447 E43.12085
G1 X103.290 Y98.587 E43.12582
G1 X103.186 Y98.782 E43.13108
G1 X104.185 Y99.780 E43.16468
G1 X103.669 Y100.145 E43.17972
G1 X102.880 Y99.356 E43.20626
G1 X102.573 Y99.931 E43.22175
G1 X103.102 Y100.459 E43.23953
G1 X102.972 Y100.520 E43.24293
G1 X103.039 Y100.396 E43.24629
G1 X102.243 Y97.147 F7800.000
G1 F1200
G1 X101.749 Y96.652 E43.26580
G1 X101.467 Y96.582 E43.27388
G1 X101.300 Y96.569 E43.27857
G1 X100.787 Y96.620 E43.29293
G1 X103.142 Y98.974 E43.38576
G1 X102.818 Y99.580 E43.40490
G1 X99.972 Y96.734 E43.51713
G1 X99.211 Y96.902 E43.53885
G1 X102.495 Y100.186 E43.66834
G1 X102.172 Y100.792 E43.68748
G1 X98.451 Y97.070 E43.83421
G1 X97.690 Y97.238 E43.85593
G1 X101.261 Y100.809 E43.99673
G1 X100.757 Y100.760 E44.01084
G1 X100.169 Y100.646 E44.02755
G1 X96.929 Y97.407 E44.15528
G1 X96.467 Y97.509 E44.16847
G1 X95.991 Y97.397 E44.18212
G1 X98.967 Y100.374 E44.29948
G1 X97.785 Y100.121 E44.33317
G1 X93.174 Y95.509 E44.51499
G1 X92.939 Y95.418 E44.52203
G1 X92.472 Y95.277 E44.53563
G1 X92.108 Y95.372 E44.54611
G1 X96.611 Y99.876 E44.72367
G1 X96.355 Y99.822 E44.73098
G1 X95.962 Y100.156 E44.74534
G1 X91.350 Y95.544 E44.92719
G1 X90.787 Y95.665 E44.94325
G1 X90.553 Y95.676 E44.94978
G1 X95.441 Y100.564 E45.14252
G1 X95.310 Y100.635 E45.14668
G1 X94.967 Y101.019 E45.16102
G1 X91.943 Y97.994 E45.28027
G1 X91.394 Y98.375 E45.29888
G1 X94.494 Y101.475 E45.42110
