; generated by Slic3r 1.3.0 on 2020-03-18 at 19:49:07

; external perimeters extrusion width = 0.55mm (4.37mm^3/s)
; perimeters extrusion width = 0.70mm (11.44mm^3/s)
; infill extrusion width = 0.63mm (13.45mm^3/s)
; solid infill extrusion width = 0.70mm (3.81mm^3/s)
; top infill extrusion width = 0.70mm (2.86mm^3/s)

M107
M104 S205 ; set temperature
G28 ; home all axes
G1 Z5 F5000 ; lift nozzle

; Filament gcode

M109 S205 ; set temperature and wait for it to be reached
G21 ; set units to millimeters
G90 ; use absolute coordinates
M82 ; use absolute distances for extrusion
G92 E0
G1 Z0.300 F7800.000
G1 E-2.00000 F2400.00000
G92 E0
G1 X93.093 Y91.932 F7800.000
G1 E2.00000 F2400.00000
G1 F1800
G1 X92.242 Y92.783 E2.02736
G1 X92.520 Y92.951 E2.03475
G1 X92.623 Y93.282 E2.04264
G1 X93.842 Y92.063 E2.08183
G1 X93.871 Y92.069 E2.08251
G1 X94.342 Y91.849 E2.09432
G1 X95.015 Y91.627 E2.11042
G1 X95.189 Y91.597 E2.11444
G1 X94.116 Y92.670 E2.14893
G1 X94.887 Y92.634 E2.16646
G1 X94.962 Y92.596 E2.16838
G1 X95.082 Y92.585 E2.17112
G1 X96.348 Y91.319 E2.21182
G1 X96.932 Y91.219 E2.22530
G1 X97.003 Y91.240 E2.22696
G1 X97.384 Y91.164 E2.23580
G1 X96.069 Y92.479 E2.27807
G1 X96.301 Y92.442 E2.28341
G1 X96.404 Y92.396 E2.28597
G1 X96.493 Y92.404 E2.28800
G1 X96.966 Y92.301 E2.29901
G1 X96.984 Y92.282 E2.29961
G1 X97.209 Y92.220 E2.30491
G1 X97.886 Y91.543 E2.32666
G1 X98.353 Y91.691 E2.33782
G1 X98.655 Y90.987 E2.35523
G1 X98.741 Y90.925 E2.35764
G1 X98.896 Y90.744 E2.36305
G1 X98.962 Y90.696 E2.36492
G1 X99.080 Y90.716 E2.36765
G1 X99.122 Y90.761 E2.36904
G1 X99.269 Y91.041 E2.37623
G1 X97.739 Y92.570 E2.42540
G1 X97.770 Y92.636 E2.42705
G1 X97.678 Y93.191 E2.43984
G1 X97.654 Y93.537 E2.44773
G1 X99.471 Y91.720 E2.50615
G1 X99.532 Y92.122 E2.51541
G1 X99.554 Y92.518 E2.52441
G1 X97.679 Y94.392 E2.58467
G1 E0.58467 F2400.00000
G92 E0
G1 X101.261 Y92.572 F7800.000
G1 E2.00000 F2400.00000
G1 F1800
G1 X100.726 Y93.107 E2.01720
G1 X100.735 Y93.149 E2.01818
G1 X100.612 Y93.446 E2.02549
G1 X100.446 Y93.577 E2.03029
G1 X100.603 Y93.619 E2.03399
G1 X100.824 Y93.890 E2.04195
G1 X101.934 Y92.781 E2.07763
G1 X102.400 Y92.791 E2.08823
G1 X102.582 Y92.840 E2.09250
G1 X102.742 Y92.853 E2.09616
G1 X101.959 Y93.636 E2.12133
G1 X102.311 Y93.800 E2.13015
G1 X102.580 Y93.897 E2.13664
G1 X103.543 Y92.933 E2.16762
G1 X103.669 Y92.958 E2.17053
G1 X103.803 Y93.019 E2.17389
G1 X104.082 Y93.053 E2.18028
G1 X104.259 Y93.098 E2.18443
G1 X103.226 Y94.131 E2.21765
G1 X103.459 Y94.204 E2.22320
G1 X103.536 Y94.200 E2.22494
G1 X103.856 Y94.340 E2.23289
G1 X103.862 Y94.376 E2.23371
G1 X104.935 Y93.303 E2.26820
G1 X105.314 Y93.430 E2.27728
G1 X105.508 Y93.338 E2.28216
G1 X105.993 Y93.060 E2.29488
G1 X106.091 Y93.028 E2.29722
G1 X103.594 Y95.525 E2.37750
G1 E0.37750 F2400.00000
G92 E0
G1 X102.823 Y102.462 F7800.000
G1 E2.00000 F2400.00000
G1 F1800
G1 X102.794 Y102.912 E2.01025
G1 X102.811 Y103.356 E2.02034
G1 X104.111 Y102.055 E2.06216
G1 X104.225 Y102.233 E2.06696
G1 X104.420 Y102.627 E2.07695
G1 X102.915 Y104.133 E2.12535
G1 X103.104 Y104.824 E2.14165
G1 X104.684 Y103.244 E2.19244
G1 X104.755 Y103.434 E2.19705
G1 X104.882 Y103.927 E2.20862
G1 X103.362 Y105.448 E2.25751
G1 X103.715 Y105.975 E2.27194
G1 X104.977 Y104.714 E2.31248
G1 X104.970 Y105.189 E2.32328
G1 X104.895 Y105.677 E2.33450
G1 X104.166 Y106.405 E2.35792
G1 X102.968 Y105.842 F7800.000
G1 F1800
G1 X103.096 Y105.839 E2.36083
G1 X103.093 Y105.717 E2.36361
G1 X102.541 Y106.268 E2.38133
G1 X101.674 Y106.254 F7800.000
G1 F1800
G1 X102.832 Y105.096 E2.41858
G1 X102.479 Y105.094 E2.42661
G1 X102.351 Y105.131 E2.42964
G1 X101.896 Y105.152 E2.44000
G1 X100.887 Y106.160 E2.47242
G1 X100.782 Y106.143 E2.47483
G1 X100.725 Y106.160 E2.47619
G1 X100.229 Y106.061 E2.48767
G1 X100.093 Y106.073 E2.49079
G1 X100.917 Y105.249 E2.51729
G1 X100.723 Y105.291 E2.52180
G1 X100.563 Y105.294 E2.52545
G1 X100.358 Y105.257 E2.53017
G1 X100.159 Y105.127 E2.53559
G1 X99.199 Y106.086 E2.56643
G1 X99.097 Y105.915 E2.57096
G1 X99.031 Y105.882 E2.57264
G1 X99.351 Y105.502 E2.58393
G1 X99.313 Y105.396 E2.58648
G1 X99.477 Y105.489 E2.59076
G1 X99.733 Y105.553 E2.59676
G1 E0.59676 F2400.00000
G92 E0
G1 X98.714 Y103.048 F7800.000
G1 E2.00000 F2400.00000
G1 F1800
G1 X98.707 Y103.164 E2.00264
G1 X98.669 Y103.226 E2.00429
G1 X98.515 Y103.913 E2.02031
G1 X98.407 Y104.236 E2.02805
G1 X95.506 Y107.137 E2.12130
G1 X94.091 Y107.671 F7800.000
G1 F1800
G1 X95.692 Y106.070 E2.17277
G1 X94.939 Y106.302 E2.19068
G1 X94.351 Y106.530 E2.20502
G1 X92.917 Y107.964 E2.25111
G1 X92.684 Y107.992 E2.25646
G1 X92.616 Y108.031 E2.25824
G1 X92.353 Y108.067 E2.26426
G1 X91.990 Y108.085 E2.27252
G1 X91.707 Y108.293 E2.28051
G1 X92.479 Y107.521 E2.30533
G1 X92.093 Y107.479 E2.31417
G1 X91.923 Y107.381 E2.31862
G1 X91.776 Y107.343 E2.32207
G1 X90.873 Y108.247 E2.35112
G1 X90.675 Y108.119 E2.35645
G1 X90.810 Y108.033 E2.36008
G1 X91.021 Y107.721 E2.36865
G1 X91.025 Y107.633 E2.37065
G1 X91.350 Y107.769 E2.37865
G1 X91.981 Y108.019 F7800.000
G1 F1800
G1 X92.132 Y107.868 E2.38351
G1 X91.555 Y108.445 E2.40207
G1 E0.40207 F2400.00000
G92 E0
G1 X90.992 Y95.794 F7800.000
G1 E2.00000 F2400.00000
G1 F1800
G1 X89.590 Y97.196 E2.04506
G1 X89.479 Y97.407 E2.05050
G1 X89.386 Y97.670 E2.05683
G1 X89.330 Y97.902 E2.06227
G1 X89.274 Y98.393 E2.07350
G1 X92.635 Y95.032 E2.18155
G1 X92.735 Y95.027 E2.18384
G1 X92.792 Y94.989 E2.18539
G1 X93.139 Y94.893 E2.19359
G1 X93.297 Y94.859 E2.19724
G1 X93.356 Y94.867 E2.19861
G1 X93.772 Y94.776 E2.20828
G1 X89.266 Y99.282 E2.35312
G1 X89.264 Y99.708 E2.36280
G1 X89.300 Y100.128 E2.37240
G1 X94.719 Y94.710 E2.54660
G1 X95.208 Y94.717 E2.55770
G1 X95.536 Y94.773 E2.56529
G1 X89.466 Y100.844 E2.76045
G1 X89.594 Y101.114 E2.76725
G1 X89.793 Y101.397 E2.77512
G1 X96.142 Y95.049 E2.97922
G1 X96.270 Y95.155 E2.98299
G1 X96.629 Y95.271 E2.99158
G1 X96.951 Y95.121 E2.99964
G1 X90.236 Y101.836 E3.21551
G1 X90.757 Y102.196 E3.22991
G1 X99.478 Y93.474 E3.51029
G1 X99.429 Y93.745 E3.51654
G1 X99.254 Y94.403 E3.53203
G1 X99.307 Y94.526 E3.53508
G1 X91.335 Y102.499 E3.79138
G1 X91.962 Y102.752 E3.80676
G1 X99.743 Y94.972 E4.05690
G1 X100.378 Y95.218 E4.07238
G1 X92.649 Y102.946 E4.32083
G1 X93.197 Y103.067 E4.33359
G1 X93.237 Y103.053 E4.33455
G1 X93.403 Y103.074 E4.33834
G1 X100.994 Y95.482 E4.58239
G1 X101.636 Y95.721 E4.59796
G1 X94.188 Y103.169 E4.83740
G1 X94.424 Y103.174 E4.84277
G1 X94.821 Y103.145 E4.85180
G1 X94.923 Y103.127 E4.85417
G1 X94.989 Y103.091 E4.85587
G1 X95.078 Y103.098 E4.85791
G1 X95.157 Y103.082 E4.85974
G1 X102.317 Y95.921 E5.08994
G1 X102.390 Y95.955 E5.09176
G1 X103.122 Y95.997 E5.10844
G1 X96.421 Y102.698 E5.32387
G1 X96.996 Y102.971 E5.33834
G1 X97.001 Y102.999 E5.33896
G1 X106.308 Y93.692 E5.63814
G1 X106.272 Y93.862 E5.64209
G1 X106.106 Y94.361 E5.65405
G1 X105.882 Y94.833 E5.66592
G1 X105.601 Y95.280 E5.67792
G1 X96.623 Y104.258 E5.96656
G1 X96.441 Y104.605 E5.97547
G1 X96.203 Y105.239 E5.99085
G1 X96.102 Y105.660 E6.00068
G1 X98.287 Y103.475 E6.07093
G1 X98.290 Y103.421 E6.07214
G1 X98.402 Y103.343 E6.07525
G1 X98.458 Y103.173 E6.07931
G1 X98.647 Y103.115 E6.08379
G1 X105.125 Y96.637 E6.29207
G1 X105.472 Y96.734 E6.30026
G1 X105.533 Y96.796 E6.30223
G1 X105.631 Y96.839 E6.30466
G1 X105.723 Y96.920 E6.30745
G1 X99.809 Y102.834 E6.49758
G1 X99.896 Y102.826 E6.49957
G1 X100.016 Y102.772 E6.50257
G1 X100.486 Y102.722 E6.51333
G1 X100.542 Y102.686 E6.51482
G1 X100.907 Y102.616 E6.52328
G1 X106.149 Y97.374 E6.69180
G1 X106.354 Y97.616 E6.69900
G1 X106.573 Y97.832 E6.70599
G1 X102.509 Y101.896 E6.83663
G1 X102.668 Y101.994 E6.84089
G1 X102.842 Y102.173 E6.84657
G1 X102.823 Y102.462 E6.85315
G1 X103.309 Y101.976 E6.86878
G1 X103.258 Y101.913 E6.87063
G1 X103.321 Y101.381 E6.88280
G1 X104.173 Y101.112 E6.90312
G1 X107.108 Y98.178 E6.99746
G1 X107.340 Y98.254 E7.00301
G1 X107.820 Y98.347 E7.01412
G1 X105.462 Y100.705 E7.08992
G1 X105.517 Y100.699 E7.09119
G1 X105.694 Y100.596 E7.09583
G1 X105.889 Y100.438 E7.10155
G1 X106.337 Y99.867 E7.11804
G1 X106.545 Y99.709 E7.12398
G1 X106.787 Y99.610 E7.12992
G1 X107.325 Y99.540 E7.14224
G1 X107.574 Y99.474 E7.14810
G1 X108.548 Y98.500 E7.17942
G1 X109.322 Y98.606 E7.19719
G1 X108.444 Y99.484 E7.22544
G1 X108.690 Y99.494 E7.23102
G1 X109.213 Y99.596 E7.24315
G1 X110.003 Y98.806 E7.26856
G1 X110.080 Y98.836 E7.27042
G1 X110.582 Y99.109 E7.28341
G1 X109.886 Y99.804 E7.30575
G1 X110.129 Y99.970 E7.31244
G1 X110.343 Y100.228 E7.32006
G1 X111.018 Y99.553 E7.34174
G1 X111.169 Y99.802 E7.34836
G1 X111.308 Y100.145 E7.35676
G1 X110.612 Y100.840 E7.37910
G1 X110.673 Y101.056 E7.38422
G1 X110.655 Y101.116 E7.38563
G1 X110.677 Y101.329 E7.39051
G1 X110.679 Y101.654 E7.39790
G1 X111.466 Y100.867 E7.42319
G1 X111.489 Y101.088 E7.42823
G1 X111.475 Y101.470 E7.43691
G1 X111.418 Y101.796 E7.44443
G1 X110.525 Y102.689 E7.47317
G1 X109.933 Y103.281 F7800.000
G1 F1800
G1 X110.708 Y102.506 E7.49809
G1 X110.606 Y102.563 E7.50075
G1 X110.395 Y102.621 E7.50573
G1 X110.211 Y102.636 E7.50992
G1 X110.020 Y102.621 E7.51428
G1 X109.778 Y102.555 E7.51998
G1 X109.200 Y103.133 E7.53855
G1 X109.129 Y103.093 E7.54041
G1 X108.872 Y102.859 E7.54830
G1 X108.753 Y102.699 E7.55284
G1 X109.284 Y102.168 E7.56989
G1 X109.606 Y101.846 F7800.000
G1 F1800
G1 X110.131 Y101.321 E7.58675
G1 X109.847 Y101.042 E7.59582
G1 X109.604 Y100.967 E7.60158
G1 X108.598 Y101.973 E7.63393
G1 X108.643 Y101.787 E7.63828
G1 X108.764 Y101.582 E7.64368
G1 X108.851 Y101.493 E7.64651
G1 X108.978 Y101.417 E7.64988
G1 X109.178 Y101.393 E7.65445
M104 S200 ; set temperature
G1 Z0.600 F7800.000
G1 X109.582 Y101.653 F7800.000
G1 F3937.45
G1 X108.903 Y100.974 E7.67730
G1 X108.729 Y101.116 E7.68263
G1 X108.654 Y101.226 E7.68579
G1 X108.613 Y101.311 E7.68804
G1 X108.569 Y101.521 E7.69316
G1 E5.69316 F2400.00000
G92 E0
G1 X110.096 Y103.049 F7800.000
G1 E2.00000 F2400.00000
G1 F3937.45
G1 X109.837 Y103.003 E2.00626
G1 X109.652 Y102.934 E2.01095
G1 X109.425 Y102.791 E2.01733
G1 X109.328 Y102.644 E2.02153
G1 X109.165 Y102.727 E2.02587
G1 X109.149 Y102.102 E2.04074
G1 X109.034 Y101.987 E2.04462
G1 X109.023 Y102.357 E2.05344
G1 X109.053 Y102.523 E2.05744
G1 X109.172 Y102.740 E2.06333
G1 X109.400 Y103.006 E2.07166
G1 X109.553 Y103.132 E2.07638
G1 X109.770 Y103.255 E2.08232
G1 X110.057 Y103.337 E2.08941
G1 X110.367 Y103.353 E2.09680
G1 X110.396 Y103.348 E2.09750
G1 X109.631 Y102.583 E2.12324
G1 X109.963 Y102.571 E2.13115
G1 X110.246 Y102.472 E2.13828
G1 X110.331 Y102.403 E2.14088
G1 X111.016 Y103.088 E2.16394
G1 X111.206 Y102.869 E2.17083
G1 X111.330 Y102.647 E2.17689
G1 X111.363 Y102.553 E2.17924
G1 X110.619 Y101.810 E2.20425
G1 X110.645 Y101.644 E2.20826
G1 X110.377 Y101.487 E2.21564
G1 X110.657 Y101.376 E2.22281
G1 X110.654 Y100.964 E2.23260
G1 X111.519 Y101.829 E2.26169
G1 X111.429 Y100.858 F7800.000
G1 F3937.45
G1 X109.172 Y98.601 E2.33762
G1 X108.121 Y98.431 E2.36296
G1 X109.284 Y99.594 E2.40211
G1 X108.348 Y99.539 E2.42444
G1 X107.056 Y98.246 E2.46792
G1 X106.855 Y98.208 E2.47279
G1 X106.675 Y98.148 E2.47730
G1 X106.522 Y98.077 E2.48131
G1 X106.289 Y97.927 E2.48789
G1 X106.007 Y97.675 E2.49691
G1 X105.493 Y97.103 E2.51519
G1 X105.211 Y96.860 E2.52405
G1 X104.972 Y96.727 E2.53056
G1 X104.877 Y96.694 E2.53296
G1 X104.566 Y96.638 E2.54048
G1 X107.532 Y99.604 E2.64029
G1 X107.179 Y99.665 E2.64882
G1 X106.981 Y99.752 E2.65398
G1 X106.877 Y99.829 E2.65705
G1 E0.65705 F2400.00000
G92 E0
G1 X104.632 Y101.108 F7800.000
G1 E2.00000 F2400.00000
G1 F3937.45
G1 X97.678 Y94.155 E2.23398
G1 X97.690 Y94.271 E2.23677
G1 X97.633 Y94.473 E2.24175
G1 X97.598 Y94.523 E2.24320
G1 X97.596 Y94.635 E2.24586
G1 X97.401 Y94.758 E2.25136
G1 X103.977 Y101.334 E2.47263
G1 X103.614 Y101.552 E2.48271
G1 X103.614 Y101.853 E2.48986
G1 X96.742 Y94.981 E2.72109
G1 X96.174 Y95.263 E2.73619
G1 X96.117 Y95.236 E2.73770
G1 X102.869 Y101.988 E2.96491
G1 X102.731 Y101.918 E2.96858
G1 X102.218 Y102.218 E2.98273
G1 X94.655 Y94.655 E3.23723
G1 X94.429 Y94.642 E3.24259
G1 X93.802 Y94.683 E3.25755
G1 X101.608 Y102.489 E3.52019
G1 X101.538 Y102.502 E3.52188
G1 X100.971 Y102.733 E3.53645
G1 X93.043 Y94.804 E3.80323
G1 X92.331 Y94.973 E3.82064
G1 X100.215 Y102.858 E4.08596
G1 X99.875 Y102.896 E4.09410
G1 X99.490 Y103.014 E4.10368
G1 X91.664 Y95.188 E4.36702
G1 X91.054 Y95.459 E4.38289
G1 X98.875 Y103.280 E4.64605
G1 X98.848 Y103.362 E4.64812
G1 X98.736 Y103.441 E4.65137
G1 X98.722 Y103.696 E4.65745
G1 X98.658 Y103.777 E4.65990
G1 X98.627 Y103.912 E4.66322
G1 X90.502 Y95.788 E4.93660
G1 X90.299 Y95.925 E4.94244
G1 X90.006 Y96.172 E4.95156
G1 X96.503 Y102.669 E5.17019
G1 X96.205 Y102.770 E5.17768
G1 X96.201 Y102.873 E5.18011
G1 X95.960 Y103.007 E5.18667
G1 X89.602 Y96.649 E5.40061
G1 X89.413 Y96.999 E5.41005
G1 X89.324 Y97.252 E5.41645
G1 X95.271 Y103.199 E5.61656
G1 X94.783 Y103.222 E5.62818
G1 X94.388 Y103.198 E5.63759
G1 X89.196 Y98.005 E5.81232
G1 X89.179 Y98.869 E5.83289
G1 X93.336 Y103.026 E5.97277
G1 X92.624 Y102.850 E5.99023
G1 X92.082 Y102.653 E6.00393
G1 X89.248 Y99.819 E6.09930
G1 E4.09930 F2400.00000
G92 E0
G1 X93.478 Y107.573 F7800.000
G1 E2.00000 F2400.00000
G1 F3937.45
G1 X93.098 Y107.829 E2.01090
G1 X93.665 Y107.759 E2.02448
G1 X93.013 Y107.108 E2.04641
G1 X93.592 Y106.806 E2.06194
G1 X94.449 Y107.663 E2.09080
G1 X95.112 Y107.445 E2.10739
G1 X94.140 Y106.473 E2.14008
G1 X94.557 Y106.306 E2.15076
G1 X94.781 Y106.233 E2.15637
G1 X95.752 Y107.204 E2.18907
G1 X96.073 Y107.057 E2.19747
G1 X96.034 Y106.979 E2.19956
G1 X96.280 Y106.851 E2.20616
G1 X95.534 Y106.105 E2.23127
G1 X95.972 Y106.005 E2.24197
G1 X96.170 Y105.861 E2.24780
G1 X96.840 Y106.530 E2.27032
G1 X97.198 Y106.363 E2.27973
G1 X97.409 Y106.219 E2.28581
G1 X96.134 Y104.943 E2.32875
G1 X96.289 Y104.415 E2.34183
G1 X96.352 Y104.280 E2.34538
G1 X97.847 Y105.775 E2.39568
G1 X98.193 Y105.241 E2.41083
G1 X96.657 Y103.704 E2.46253
G1 X96.904 Y103.316 E2.47348
G1 X96.916 Y103.243 E2.47525
G1 X96.980 Y103.146 E2.47801
G1 X98.460 Y104.626 E2.52781
G1 X99.504 Y105.670 F7800.000
G1 F3937.45
G1 X99.674 Y105.655 E2.53188
G1 X99.843 Y105.454 E2.53813
G1 X99.895 Y105.441 E2.53940
G1 X99.874 Y105.403 E2.54043
G1 X99.800 Y105.358 E2.54248
G1 X99.591 Y105.110 E2.55020
G1 X99.529 Y105.089 E2.55176
G1 X99.211 Y105.378 E2.56197
G1 X99.969 Y106.135 E2.58746
G1 X101.384 Y105.788 F7800.000
G1 F3937.45
G1 X101.165 Y105.834 E2.59278
G1 X100.916 Y105.915 E2.59901
G1 X101.274 Y106.021 E2.60788
G1 X101.689 Y106.094 E2.61791
G1 X100.918 Y105.323 E2.64384
G1 X101.466 Y105.241 E2.65701
G1 X101.454 Y105.148 E2.65923
G1 X101.616 Y105.140 E2.66308
G1 X102.721 Y106.245 E2.70027
G1 X103.118 Y105.761 F7800.000
G1 F3937.45
G1 X102.575 Y105.217 E2.71855
G1 X102.660 Y105.223 E2.72059
G1 X102.653 Y105.295 E2.72232
G1 X104.202 Y105.963 F7800.000
G1 F3937.45
G1 X104.171 Y106.015 E2.72374
G1 X104.236 Y105.998 E2.72534
G1 X103.736 Y105.498 E2.74214
G1 X104.002 Y105.054 E2.75445
G1 X103.456 Y105.179 E2.76777
G1 X103.358 Y104.995 E2.77273
G1 X103.248 Y105.004 E2.77536
G1 X103.340 Y104.921 E2.77831
G1 X103.115 Y104.319 E2.79360
G1 X103.038 Y104.313 E2.79543
G1 X102.925 Y103.932 E2.80491
G1 X102.901 Y103.781 E2.80852
G1 X104.777 Y105.658 E2.87167
G1 X104.867 Y105.349 E2.87932
G1 X104.930 Y104.988 E2.88804
G1 X104.993 Y104.993 E2.88954
G1 X102.799 Y102.799 E2.96338
G1 X102.791 Y102.607 E2.96795
G1 X102.832 Y101.996 E2.98253
G1 X102.821 Y101.940 E2.98388
G1 X104.808 Y103.927 E3.05074
G1 E1.05074 F2400.00000
G92 E0
G1 X106.060 Y94.608 F7800.000
G1 E2.00000 F2400.00000
G1 F3937.45
G1 X104.997 Y93.545 E2.03579
G1 X104.788 Y93.550 E2.04076
G1 X104.477 Y93.429 E2.04871
G1 X104.482 Y93.335 E2.05094
G1 X103.656 Y93.085 E2.07146
G1 X105.893 Y95.322 E2.14673
G1 X105.839 Y95.440 E2.14982
G1 X105.555 Y95.864 E2.16197
G1 X104.051 Y94.361 E2.21256
G1 X103.844 Y94.650 E2.22101
G1 X103.814 Y94.639 E2.22179
G1 X103.683 Y94.874 E2.22818
G1 X105.142 Y96.333 E2.27729
G1 X105.079 Y96.397 E2.27944
G1 X104.618 Y96.300 E2.29064
G1 X105.005 Y97.076 E2.31126
G1 X103.403 Y95.475 E2.36514
G1 X103.379 Y95.535 E2.36668
G1 X103.412 Y95.560 E2.36769
G1 X103.284 Y95.946 E2.37736
G1 X103.084 Y96.036 E2.38258
G1 X106.877 Y99.829 E2.51021
G1 X106.784 Y99.898 E2.51295
G1 X106.661 Y100.036 E2.51736
G1 X106.465 Y100.299 E2.52515
G1 X102.085 Y95.918 E2.67254
G1 X101.275 Y95.733 E2.69230
G1 X100.866 Y95.581 E2.70268
G1 X105.967 Y100.682 E2.87432
G1 X105.592 Y100.840 E2.88402
G1 X105.321 Y100.916 E2.89071
G1 X99.392 Y94.987 E3.09022
G1 X99.857 Y95.453 F7800.000
G1 F3937.45
G1 X99.474 Y95.310 E3.09995
G1 X99.288 Y94.883 E3.11102
G1 X97.614 Y93.210 E3.16734
G1 X97.638 Y92.704 E3.17937
G1 X97.663 Y92.564 E3.18277
G1 X97.697 Y92.583 E3.18369
G1 X97.738 Y92.452 E3.18694
G1 X99.451 Y94.166 E3.24459
G1 X99.563 Y93.677 E3.25652
G1 X99.599 Y93.616 E3.25818
G1 X99.581 Y93.555 E3.25970
G1 X99.586 Y93.419 E3.26294
G1 X97.806 Y91.640 E3.32281
G1 X97.908 Y91.672 E3.32534
G1 X98.075 Y91.281 E3.33547
G1 X98.237 Y91.325 E3.33946
G1 X98.340 Y91.293 E3.34203
G1 X99.415 Y92.367 E3.37819
G1 X101.128 Y93.200 F7800.000
G1 F3937.45
G1 X101.240 Y93.125 E3.38138
G1 X101.289 Y93.045 E3.38363
G1 X101.308 Y92.995 E3.38488
G1 X101.278 Y92.865 E3.38807
G1 X101.064 Y92.710 E3.39435
G1 X101.082 Y92.669 E3.39542
G1 X100.955 Y92.639 E3.39852
G1 X100.688 Y92.499 E3.40570
G1 X100.737 Y92.742 E3.41159
G1 X100.717 Y92.789 E3.41280
G1 X101.593 Y93.665 E3.44228
G1 X102.693 Y93.003 F7800.000
G1 F3937.45
G1 X103.850 Y94.160 E3.48120
G1 E1.48120 F2400.00000
G92 E0
G1 X97.433 Y92.147 F7800.000
G1 E2.00000 F2400.00000
G1 F3937.45
G1 X96.523 Y91.237 E2.03061
G1 X95.767 Y91.363 E2.04884
G1 X96.801 Y92.396 E2.08362
G1 X96.038 Y92.514 E2.10199
G1 X95.046 Y91.522 E2.13536
G1 X94.723 Y91.606 E2.14331
G1 X94.752 Y91.693 E2.14550
G1 X94.445 Y91.802 E2.15326
G1 X95.140 Y92.497 E2.17665
G1 X94.793 Y92.499 E2.18491
G1 X94.448 Y92.470 E2.19315
G1 X94.910 Y92.267 E2.20515
G1 X93.650 Y92.588 F7800.000
G1 F984.363
G1 X93.156 Y92.094 E2.22775
G1 X92.614 Y92.629 F7800.000
G1 F984.363
G1 X93.109 Y93.123 E2.25035
G1 E0.25035 F2400.00000
G92 E0
G1 X91.799 Y107.581 F7800.000
G1 E2.00000 F2400.00000
G1 F984.363
G1 X92.293 Y108.076 E2.02263
G1 X91.617 Y108.478 F7800.000
G1 F984.363
G1 X91.057 Y107.919 E2.04825
G1 Z0.900 F7800.000
G1 E0.04825 F2400.00000
G92 E0
G1 X93.376 Y107.428 F7800.000
G1 E2.00000 F2400.00000
G1 F1093.3
G1 X93.870 Y106.934 E2.02037
G1 X94.365 Y106.701 E2.03631
G1 X94.915 Y106.479 E2.05359
G1 X95.483 Y106.292 E2.07101
G1 X94.365 Y107.410 E2.11708
G1 X96.075 Y106.671 F7800.000
G1 F1093.3
G1 X96.569 Y106.177 E2.13745
G1 E0.13745 F2400.00000
G92 E0
G1 X101.438 Y105.344 F7800.000
G1 E2.00000 F2400.00000
G1 F1093.3
G1 X100.944 Y105.838 E2.02189
G1 X101.344 Y106.080 E2.03653
G1 X101.713 Y106.112 E2.04812
G1 X102.585 Y105.240 E2.08672
G1 X103.482 Y105.265 E2.11480
G1 X103.554 Y105.199 E2.11787
G1 X103.604 Y105.264 E2.12043
G1 X103.109 Y105.759 E2.14234
G1 E0.14234 F2400.00000
G92 E0
G1 X109.247 Y102.164 F7800.000
G1 E2.00000 F2400.00000
G1 F1093.3
G1 X108.718 Y102.693 E2.02422
G1 X108.856 Y102.880 E2.03175
G1 X108.999 Y103.022 E2.03828
G1 X109.206 Y103.167 E2.04644
G1 X109.287 Y103.202 E2.04932
G1 X109.897 Y102.593 E2.07721
G1 X110.056 Y102.624 E2.08247
G1 X110.240 Y102.630 E2.08843
G1 X110.432 Y102.611 E2.09468
G1 X110.756 Y102.507 E2.10569
G1 X110.877 Y102.398 E2.11098
G1 X111.100 Y102.453 E2.11842
G1 X110.558 Y103.011 E2.14361
G1 X110.704 Y102.510 F7800.000
G1 F4373.2
G1 X111.246 Y101.968 E2.16183
G1 X111.351 Y101.579 E2.17142
G1 X111.383 Y101.035 E2.18439
G1 X111.380 Y100.953 E2.18634
G1 X110.803 Y101.530 E2.20575
G1 X110.775 Y101.198 E2.21367
G1 X110.668 Y100.784 E2.22385
G1 X111.344 Y100.108 E2.24660
G1 X111.298 Y99.923 E2.25114
G1 X111.203 Y99.677 E2.25741
G1 X111.083 Y99.489 E2.26273
G1 X110.367 Y100.204 E2.28680
G1 X110.307 Y100.108 E2.28948
G1 X110.214 Y100.161 E2.29202
G1 X110.005 Y99.955 E2.29900
G1 X109.833 Y99.857 E2.30370
G1 X110.638 Y99.052 E2.33077
G1 X110.338 Y98.868 E2.33916
G1 X110.069 Y98.740 E2.34624
G1 X109.152 Y99.658 E2.37710
G1 X108.809 Y99.602 E2.38537
G1 X108.357 Y99.571 E2.39613
G1 X109.388 Y98.540 E2.43082
G1 X108.621 Y98.426 E2.44926
G1 X107.505 Y99.542 E2.48682
G1 X106.898 Y99.616 E2.50139
G1 X106.718 Y99.665 E2.50582
G1 X106.515 Y99.758 E2.51113
G1 X106.336 Y99.890 E2.51642
G1 X105.884 Y100.398 E2.53261
G1 X105.664 Y100.563 E2.53915
G1 X105.529 Y100.638 E2.54282
G1 X107.857 Y98.309 E2.62117
G1 X107.466 Y98.251 E2.63057
G1 X107.139 Y98.147 E2.63875
G1 X104.211 Y101.074 E2.73725
G1 X103.711 Y101.253 E2.74990
G1 X103.148 Y101.552 E2.76505
G1 X103.150 Y102.038 E2.77660
G1 X103.201 Y102.084 E2.77826
G1 X102.874 Y102.412 E2.78928
G1 X102.459 Y101.945 E2.80413
G1 X106.614 Y97.791 E2.94392
G1 X106.186 Y97.338 E2.95875
G1 X100.978 Y102.545 E3.13398
G1 X100.721 Y102.639 E3.14049
G1 X100.661 Y102.681 E3.14225
G1 X100.601 Y102.687 E3.14368
G1 X100.071 Y102.937 E3.15762
G1 X99.446 Y103.197 E3.17374
G1 X105.720 Y96.922 E3.38488
G1 X105.571 Y96.841 E3.38892
G1 X104.969 Y96.793 E3.40330
G1 X96.345 Y105.417 E3.69350
G1 X96.442 Y104.804 E3.70828
G1 X96.388 Y104.791 E3.70960
G1 X96.554 Y104.429 E3.71909
G1 X96.733 Y104.148 E3.72701
G1 X104.566 Y96.315 E3.99058
G1 X104.733 Y96.148 F7800.000
G1 F4373.2
G1 X105.476 Y95.405 E4.01559
G1 X105.701 Y95.083 E4.02492
G1 X105.633 Y95.053 E4.02668
G1 X105.832 Y94.523 E4.04016
G1 X105.877 Y94.292 E4.04575
G1 X105.882 Y94.118 E4.04991
G1 X96.783 Y103.217 E4.35609
G1 X96.201 Y102.918 E4.37166
G1 X103.080 Y96.039 E4.60314
G1 X102.829 Y95.910 E4.60984
G1 X102.823 Y95.928 E4.61029
G1 X102.413 Y95.826 E4.62035
G1 X94.977 Y103.262 E4.87056
G1 X94.714 Y103.295 E4.87687
G1 X94.321 Y103.293 E4.88620
G1 X94.087 Y103.271 E4.89182
G1 X101.815 Y95.542 E5.15188
G1 X101.226 Y95.250 E5.16752
G1 X93.318 Y103.158 E5.43362
G1 X92.596 Y102.999 E5.45120
G1 X100.625 Y94.971 E5.72134
G1 X100.007 Y94.707 E5.73732
G1 X91.908 Y102.807 E6.00985
G1 X91.271 Y102.563 E6.02608
G1 X99.451 Y94.382 E6.30134
G1 X99.417 Y94.363 E6.30227
G1 X99.377 Y93.905 E6.31321
G1 X99.449 Y93.504 E6.32291
G1 X90.686 Y102.266 E6.61775
G1 X90.165 Y101.906 E6.63282
G1 X97.512 Y94.559 E6.88004
G1 X97.309 Y94.628 E6.88513
G1 X96.785 Y94.888 E6.89906
G1 X96.781 Y95.018 E6.90215
G1 X96.320 Y95.117 E6.91337
G1 X96.183 Y95.008 E6.91755
G1 X89.710 Y101.480 E7.13534
G1 X89.523 Y101.221 E7.14296
G1 X89.372 Y100.938 E7.15059
G1 X95.662 Y94.647 E7.36226
G1 X95.300 Y94.579 E7.37105
G1 X94.856 Y94.573 E7.38160
G1 X89.159 Y100.270 E7.57329
G1 X89.128 Y100.146 E7.57633
G1 X89.220 Y100.136 E7.57853
G1 X89.171 Y99.377 E7.59663
G1 X93.848 Y94.700 E7.75400
G1 X93.590 Y94.744 E7.76024
G1 X92.704 Y94.963 E7.78194
G1 X89.191 Y98.476 E7.90015
G1 X89.208 Y98.167 E7.90752
G1 X89.136 Y98.161 E7.90922
G1 X89.144 Y98.106 E7.91055
G1 X89.293 Y97.579 E7.92358
G1 X89.366 Y97.420 E7.92775
G1 X91.222 Y95.564 E7.99020
G1 E5.99020 F2400.00000
G92 E0
G1 X97.706 Y94.365 F7800.000
G1 E2.00000 F2400.00000
G1 F4373.2
G1 X99.441 Y92.631 E2.05836
G1 X99.365 Y92.226 E2.06815
G1 X99.254 Y91.937 E2.07553
G1 X97.671 Y93.520 E2.12880
G1 X97.676 Y93.325 E2.13345
G1 X97.705 Y93.146 E2.13774
G1 X97.767 Y93.165 E2.13927
G1 X97.973 Y92.610 E2.15335
G1 X98.077 Y92.424 E2.15842
G1 X98.188 Y92.274 E2.16286
G1 X98.387 Y92.102 E2.16913
G1 X98.491 Y92.066 E2.17174
G1 X98.594 Y92.132 E2.17465
G1 X98.686 Y92.236 E2.17795
G1 X98.789 Y92.402 E2.18260
G1 E0.18260 F2400.00000
G92 E0
G1 X103.529 Y93.828 F7800.000
G1 E2.00000 F2400.00000
G1 F4373.2
G1 X103.184 Y93.762 E2.00837
G1 X103.481 Y93.876 E2.01595
G1 X103.994 Y93.363 E2.03322
G1 X104.380 Y93.459 E2.04267
G1 X104.675 Y93.563 E2.05012
G1 X104.188 Y94.050 E2.06648
G1 X105.323 Y93.796 F7800.000
G1 F4373.2
G1 X103.673 Y95.446 E2.12201
G1 X102.874 Y102.412 F7800.000
G1 F4373.2
G1 X102.889 Y102.428 E2.12254
G1 X102.847 Y103.320 E2.14378
G1 X104.074 Y102.093 E2.18507
G1 X104.404 Y102.644 E2.20035
G1 X102.929 Y104.119 E2.24998
G1 X103.020 Y104.551 E2.26048
G1 X103.057 Y104.647 E2.26294
G1 X103.115 Y104.618 E2.26448
G1 X103.183 Y104.745 E2.26792
G1 X104.680 Y103.248 E2.31828
G1 X104.850 Y103.800 E2.33201
G1 X104.855 Y103.831 E2.33275
G1 X104.786 Y103.834 E2.33438
G1 X104.790 Y104.019 E2.33878
G1 X103.528 Y105.281 E2.38125
G1 X102.449 Y105.480 F7800.000
G1 F4373.2
G1 X103.055 Y105.475 E2.39567
G1 X103.156 Y105.466 E2.39808
G1 X103.144 Y105.446 E2.39864
G1 X103.170 Y105.434 E2.39934
G1 X102.509 Y105.420 E2.41509
G1 X101.984 Y105.945 E2.43275
G1 E0.43275 F2400.00000
G92 E0
G1 X96.969 Y105.674 F7800.000
G1 E2.00000 F2400.00000
G1 F4373.2
G1 X97.024 Y105.688 E2.00136
G1 X97.119 Y105.673 E2.00363
G1 X97.254 Y105.626 E2.00704
G1 X97.447 Y105.515 E2.01233
G1 X97.747 Y105.245 E2.02194
G1 X98.052 Y104.882 E2.03323
G1 X98.099 Y104.918 E2.03464
G1 X98.319 Y104.432 E2.04733
G1 X98.369 Y104.273 E2.05129
G1 X96.504 Y106.139 E2.11407
G1 E0.11407 F2400.00000
G92 E0
G1 X103.778 Y94.148 F7800.000
G1 E2.00000 F2400.00000
G1 F1093.3
G1 X104.273 Y93.653 E2.02264
G1 X104.281 Y93.246 E2.03583
G1 X103.730 Y93.117 E2.05414
G1 X102.955 Y93.892 E2.08962
G1 X102.770 Y93.824 E2.09601
G1 X102.750 Y93.597 E2.10339
G1 X102.762 Y93.535 E2.10543
G1 X103.236 Y93.611 E2.12095
G1 E0.12095 F2400.00000
G92 E0
G1 X97.714 Y91.551 F7800.000
G1 E2.00000 F2400.00000
G1 F1093.3
G1 X97.220 Y92.045 E2.02263
G1 X95.837 Y92.350 F7800.000
G1 F1093.3
G1 X96.808 Y91.378 E2.06711
G1 X95.970 Y91.532 E2.09470
G1 X95.434 Y91.674 E2.11266
G1 X94.854 Y92.254 E2.13920
G1 X94.766 Y92.214 E2.14231
G1 X94.939 Y92.168 E2.14810
M106 S255
G1 Z1.200 F7800.000
G1 E0.14810 F2400.00000
G92 E0
G1 X99.307 Y93.140 F7800.000
G1 E2.00000 F2400.00000
G1 F3262.04
G1 X98.287 Y92.121 E2.03431
G1 X98.173 Y92.210 E2.03776
G1 X98.092 Y92.310 E2.04082
G1 X98.012 Y92.449 E2.04463
G1 X97.934 Y92.649 E2.04973
G1 X99.357 Y94.071 E2.09760
G1 X99.328 Y94.233 E2.10152
G1 X99.501 Y94.691 E2.11316
G1 X99.540 Y94.701 E2.11411
G1 X99.606 Y94.823 E2.11741
G1 X100.001 Y94.959 E2.12735
G1 X100.416 Y95.131 E2.13804
G1 X99.951 Y94.665 F7800.000
G1 F3262.04
G1 X105.917 Y100.631 E2.33879
G1 X106.026 Y100.585 E2.34161
G1 X106.354 Y100.363 E2.35103
G1 X106.438 Y100.271 E2.35399
G1 X101.759 Y95.592 E2.51143
G1 X102.400 Y95.933 E2.52871
G1 X102.450 Y95.844 E2.53115
G1 X102.898 Y96.087 E2.54326
G1 X103.085 Y96.037 E2.54785
G1 X106.817 Y99.770 E2.67344
G1 X107.044 Y99.519 E2.68148
G1 X107.289 Y99.361 E2.68844
G1 X105.216 Y97.288 E2.75821
G1 X104.737 Y97.234 E2.76967
G1 X104.549 Y96.736 E2.78234
G1 X104.608 Y96.680 E2.78428
G1 X103.489 Y95.560 E2.82194
G1 X103.765 Y94.956 E2.83775
G1 X105.063 Y96.248 E2.88131
G1 X105.326 Y95.940 E2.89095
G1 X105.279 Y95.914 E2.89223
G1 X105.388 Y95.698 E2.89797
G1 X104.200 Y94.510 E2.93796
G1 X104.458 Y94.275 E2.94627
G1 X104.712 Y94.141 E2.95310
G1 X105.632 Y95.061 E2.98407
G1 E0.98407 F2400.00000
G92 E0
G1 X107.289 Y99.361 F7800.000
G1 E2.00000 F2400.00000
G1 F3262.04
G1 X107.486 Y99.312 E2.00481
G1 X107.677 Y99.295 E2.00939
G1 X108.118 Y99.309 E2.01988
G1 X107.377 Y98.568 E2.04481
G1 X107.622 Y98.581 E2.05064
G1 X108.399 Y98.709 E2.06937
G1 X109.021 Y99.331 E2.09032
G1 E0.09032 F2400.00000
G92 E0
G1 X105.273 Y100.868 F7800.000
G1 E2.00000 F2400.00000
G1 F3262.04
G1 X97.740 Y93.336 E2.25345
G1 X97.736 Y93.465 E2.25653
G1 X97.794 Y94.113 E2.27200
G1 X97.720 Y94.196 E2.27465
G1 X104.619 Y101.096 E2.50681
G1 X104.042 Y101.399 E2.52234
G1 X97.176 Y94.533 E2.75337
G1 X96.808 Y94.658 E2.76260
G1 X96.540 Y94.778 E2.76960
G1 X103.638 Y101.876 E3.00844
G1 X103.655 Y102.152 E3.01500
G1 X103.926 Y102.459 E3.02475
G1 X104.093 Y102.696 E3.03166
G1 X104.312 Y103.066 E3.04188
G1 X104.456 Y103.355 E3.04957
G1 X104.596 Y103.715 E3.05875
G1 X102.949 Y102.068 E3.11416
G1 X102.910 Y102.489 E3.12422
G1 X102.915 Y102.915 E3.13435
G1 X104.642 Y104.642 E3.19245
G1 X104.577 Y104.906 E3.19892
G1 X104.503 Y105.031 E3.20238
G1 X104.373 Y105.171 E3.20692
G1 X104.262 Y105.143 E3.20965
G1 X103.274 Y104.155 E3.24290
G1 X102.906 Y102.025 F7800.000
G1 F3262.04
G1 X102.434 Y101.553 E3.25879
G1 X102.389 Y101.473 E3.26097
G1 X102.366 Y101.485 E3.26160
G1 X95.716 Y94.835 E3.48536
G1 X95.516 Y94.677 E3.49142
G1 X95.502 Y94.724 E3.49257
G1 X95.098 Y94.619 E3.50252
G1 X94.655 Y94.536 E3.51324
G1 X94.667 Y94.469 E3.51485
G1 X94.476 Y94.476 E3.51941
G1 X102.256 Y102.256 E3.78120
G1 X101.680 Y102.561 E3.79670
G1 X93.692 Y94.573 E4.06551
G1 X92.960 Y94.722 E4.08327
G1 X101.103 Y102.864 E4.35726
G1 X100.512 Y103.155 E4.37292
G1 X92.257 Y94.900 E4.65069
G1 X91.586 Y95.109 E4.66742
G1 X99.889 Y103.412 E4.94680
G1 X99.319 Y103.588 E4.96098
G1 X99.332 Y103.640 E4.96226
G1 X99.238 Y103.643 E4.96449
G1 X90.962 Y95.367 E5.24298
G1 X90.553 Y95.580 E5.25397
G1 X90.398 Y95.684 E5.25839
G1 X98.566 Y103.851 E5.53321
G1 X98.517 Y103.899 E5.53484
G1 X98.362 Y104.529 E5.55026
G1 X97.139 Y103.306 E5.59141
G1 X96.941 Y103.615 E5.60013
G1 X96.863 Y103.608 E5.60201
G1 X96.746 Y103.793 E5.60722
G1 X98.038 Y105.085 E5.65069
G1 X97.887 Y105.318 E5.65728
G1 X97.645 Y105.573 E5.66566
G1 X96.562 Y104.491 E5.70209
G1 X96.854 Y103.020 F7800.000
G1 F3262.04
G1 X89.901 Y96.068 E5.93602
G1 X89.647 Y96.322 E5.94458
G1 X89.490 Y96.538 E5.95092
G1 X96.075 Y103.122 E6.17248
G1 X95.978 Y103.191 E6.17530
G1 X95.965 Y103.146 E6.17641
G1 X95.357 Y103.285 E6.19126
G1 X89.194 Y97.122 E6.39864
G1 X89.146 Y97.253 E6.40197
G1 X89.228 Y97.274 E6.40398
G1 X89.097 Y97.906 E6.41934
G1 X94.543 Y103.352 E6.60260
G1 X93.872 Y103.242 E6.61878
G1 X93.462 Y103.152 E6.62878
G1 X89.042 Y98.732 E6.77750
G1 X89.068 Y99.260 E6.79007
G1 X89.131 Y99.703 E6.80071
G1 X92.251 Y102.822 E6.90569
G1 X91.669 Y102.610 E6.92043
G1 X91.274 Y102.426 E6.93080
G1 X90.908 Y102.218 E6.94082
G1 X90.624 Y102.018 E6.94909
G1 X90.157 Y101.593 E6.96411
G1 X90.015 Y101.422 E6.96940
G1 X89.868 Y101.193 E6.97588
G1 X89.696 Y100.841 E6.98518
G1 X89.617 Y100.622 E6.99074
G1 X89.693 Y100.603 E6.99261
G1 X89.597 Y100.168 E7.00322
G1 E5.00322 F2400.00000
G92 E0
G1 X111.185 Y100.452 F7800.000
G1 E2.00000 F2400.00000
G1 F815.51
G1 X110.691 Y99.957 E2.02264
G1 X110.672 Y99.990 E2.02386
G1 X110.556 Y99.985 E2.02760
G1 X110.636 Y100.147 E2.03344
G1 X110.765 Y100.542 E2.04691
G1 X110.798 Y100.720 E2.05278
G1 X110.827 Y101.173 E2.06745
G1 X111.353 Y101.698 E2.09151
G1 X111.293 Y102.226 E2.10871
G1 X111.264 Y102.314 E2.11170
G1 X111.311 Y101.980 E2.12261
G1 X111.322 Y101.667 E2.13276
G1 Z1.500 F7800.000
G1 E0.13276 F2400.00000
G92 E0
G1 X108.812 Y99.313 F7800.000
G1 E2.00000 F2400.00000
G1 F767.682
G1 X109.306 Y98.819 E2.02149
G1 X108.441 Y98.660 E2.04852
G1 X107.815 Y99.286 E2.07573
G1 X107.206 Y99.273 E2.09446
G1 X107.001 Y99.290 E2.10078
G1 X107.006 Y99.071 E2.10753
G1 X107.501 Y98.576 E2.12902
G1 E0.12902 F2400.00000
G92 E0
G1 X105.734 Y100.433 F7800.000
G1 E2.00000 F2400.00000
G1 F3070.73
G1 X106.533 Y99.634 E2.02689
G1 X106.750 Y99.122 E2.04011
G1 X106.888 Y98.722 E2.05017
G1 X106.822 Y98.464 E2.05653
G1 X104.223 Y101.062 E2.14397
G1 X103.157 Y101.630 E2.17271
G1 X103.172 Y102.113 E2.18423
G1 E0.18423 F2400.00000
G92 E0
G1 X103.416 Y104.512 F7800.000
G1 E2.00000 F2400.00000
G1 F3070.73
G1 X104.452 Y103.476 E2.03484
G1 X104.338 Y102.997 E2.04657
G1 X104.404 Y102.979 E2.04819
G1 X104.384 Y102.925 E2.04956
G1 X104.295 Y102.752 E2.05418
G1 X103.148 Y103.900 E2.09279
G1 X103.088 Y103.704 E2.09766
G1 X103.019 Y103.721 E2.09935
G1 X102.983 Y103.184 E2.11217
G1 X103.975 Y102.191 E2.14556
G1 X103.773 Y101.901 E2.15398
G1 X103.636 Y101.978 E2.15772
G1 X103.637 Y101.648 E2.16557
G1 X102.934 Y102.352 E2.18925
G1 X102.728 Y102.104 E2.19692
G1 X102.475 Y102.006 E2.20337
G1 X102.297 Y102.107 E2.20825
G1 X106.572 Y97.832 E2.35210
G1 X106.527 Y97.721 E2.35496
G1 X106.304 Y97.462 E2.36309
G1 X106.175 Y97.349 E2.36718
G1 X100.289 Y103.234 E2.56521
G1 X100.073 Y103.342 E2.57096
G1 X100.106 Y103.413 E2.57283
G1 X99.597 Y103.568 E2.58548
G1 X99.231 Y103.626 E2.59430
G1 X99.013 Y103.630 E2.59949
G1 X105.647 Y96.995 E2.82273
G1 X105.245 Y96.900 E2.83255
G1 X104.964 Y96.798 E2.83968
G1 X98.200 Y103.561 E3.06726
G1 X97.924 Y103.769 E3.07549
G1 X97.904 Y103.858 E3.07765
G1 X96.753 Y105.009 E3.11640
G1 X96.747 Y104.968 E3.11739
G1 X96.773 Y104.734 E3.12300
G1 X96.859 Y104.470 E3.12960
G1 X97.041 Y104.061 E3.14025
G1 X97.375 Y103.613 E3.15356
G1 X97.354 Y103.527 E3.15566
G1 X104.632 Y96.249 E3.40056
G1 X104.604 Y96.129 E3.40348
G1 X104.988 Y95.739 E3.41650
G1 X104.929 Y95.696 E3.41826
G1 X105.209 Y95.275 E3.43028
G1 X105.291 Y95.114 E3.43459
G1 X105.367 Y94.849 E3.44113
G1 X105.344 Y94.656 E3.44577
G1 X96.964 Y103.036 E3.72774
G1 X96.336 Y102.783 E3.74385
G1 X103.146 Y95.973 E3.97300
G1 X102.583 Y95.655 E3.98838
G1 X94.845 Y103.393 E4.24874
G1 X94.323 Y103.402 E4.26116
G1 X94.323 Y103.484 E4.26310
G1 X93.933 Y103.424 E4.27249
G1 X102.024 Y95.333 E4.54477
G1 X101.467 Y95.010 E4.56011
G1 X93.204 Y103.273 E4.83815
G1 X92.500 Y103.096 E4.85542
G1 X100.895 Y94.701 E5.13789
G1 X100.537 Y94.529 E5.14735
G1 X100.573 Y94.449 E5.14943
G1 X100.340 Y94.374 E5.15525
G1 X91.817 Y102.898 E5.44205
G1 X91.166 Y102.667 E5.45847
G1 X99.542 Y94.292 E5.74030
G1 X99.256 Y94.137 E5.74802
G1 X99.134 Y93.818 E5.75614
G1 X90.559 Y102.394 E6.04470
G1 X90.365 Y102.282 E6.05002
G1 X90.411 Y102.222 E6.05181
G1 X90.100 Y101.971 E6.06131
G1 X97.123 Y94.949 E6.29762
G1 X96.803 Y95.082 E6.30586
G1 X96.443 Y95.000 E6.31465
G1 X96.435 Y94.913 E6.31673
G1 X96.330 Y94.860 E6.31951
G1 X89.646 Y101.545 E6.54443
G1 X89.579 Y101.476 E6.54671
G1 X89.517 Y101.536 E6.54876
G1 X89.434 Y101.435 E6.55187
G1 X89.238 Y101.072 E6.56169
G1 X95.755 Y94.555 E6.78097
G1 X95.439 Y94.484 E6.78867
G1 X94.963 Y94.466 E6.79999
G1 X89.065 Y100.364 E6.99848
G1 X88.986 Y100.046 E7.00628
G1 X88.913 Y99.635 E7.01622
G1 X94.032 Y94.516 E7.18847
G1 X92.870 Y94.797 E7.21691
G1 X88.905 Y98.762 E7.35033
G1 X88.990 Y98.262 E7.36239
G1 X89.139 Y97.691 E7.37643
G1 X89.105 Y97.681 E7.37728
G1 X91.558 Y95.228 E7.45981
G1 E5.45981 F2400.00000
G92 E0
G1 X97.838 Y94.234 F7800.000
G1 E2.00000 F2400.00000
G1 F3070.73
G1 X99.174 Y92.898 E2.04496
G1 Z1.800 F7800.000
G1 X98.571 Y93.285 F7800.000
G1 F2951.95
G1 X98.542 Y93.180 E2.04754
G1 X98.503 Y93.117 E2.04931
G1 X98.401 Y93.115 E2.05174
G1 X99.036 Y93.750 E2.07311
G1 X99.072 Y94.667 F7800.000
G1 F2951.95
G1 X98.038 Y93.634 E2.10789
G1 X98.031 Y93.903 E2.11430
G1 X98.071 Y94.337 E2.12468
G1 X97.983 Y94.459 E2.12826
G1 X96.270 Y95.389 F7800.000
G1 F2951.95
G1 X95.228 Y94.347 E2.16333
G1 X94.974 Y94.271 E2.16964
G1 X94.733 Y94.254 E2.17539
G1 X94.293 Y94.293 E2.18590
G1 X89.593 Y101.045 F7800.000
G1 F2951.95
G1 X89.762 Y101.382 E2.19484
G1 X89.805 Y101.346 E2.19617
G1 X90.249 Y101.843 E2.21202
G1 X90.497 Y102.061 E2.21989
G1 X90.801 Y102.285 E2.22885
G1 X90.756 Y102.351 E2.23076
G1 X91.044 Y102.496 E2.23844
G1 X89.128 Y100.580 E2.30290
G1 X88.840 Y99.850 E2.32159
G1 X88.920 Y99.827 E2.32356
G1 X88.806 Y99.377 E2.33460
G1 X92.434 Y103.005 E2.45668
G1 X93.648 Y103.338 E2.48662
G1 X88.733 Y98.424 E2.65198
G1 X88.782 Y98.128 E2.65912
G1 X88.887 Y97.696 E2.66968
G1 X94.764 Y103.573 E2.86742
G1 X95.075 Y103.608 E2.87488
G1 X95.319 Y103.607 E2.88068
G1 X95.617 Y103.546 E2.88792
G1 X89.061 Y96.989 E3.10855
G1 X89.143 Y96.778 E3.11393
G1 X89.279 Y96.516 E3.12095
G1 X89.319 Y96.549 E3.12218
G1 X89.403 Y96.451 E3.12525
G1 X96.133 Y103.180 E3.35169
G1 X96.242 Y103.049 E3.35575
G1 X96.191 Y102.907 E3.35934
G1 X96.444 Y102.777 E3.36610
G1 X96.494 Y102.684 E3.36860
G1 X96.514 Y102.680 E3.36909
G1 X89.821 Y95.987 E3.59431
G1 X90.311 Y95.596 E3.60922
G1 X97.691 Y102.977 E3.85756
G1 X97.016 Y104.063 F7800.000
G1 F2951.95
G1 X97.778 Y104.826 E3.88322
G1 X97.909 Y104.713 E3.88733
G1 X98.005 Y104.575 E3.89133
G1 X98.135 Y104.302 E3.89853
G1 X97.278 Y103.444 E3.92737
G1 X97.522 Y103.107 E3.93728
G1 X97.493 Y102.972 E3.94056
G1 X97.508 Y102.793 E3.94483
G1 X98.337 Y103.622 E3.97272
G1 X98.631 Y103.263 E3.98377
G1 X98.941 Y103.346 E3.99139
G1 X90.849 Y95.254 E4.26368
G1 X91.491 Y95.015 E4.27998
G1 X100.066 Y103.590 E4.56852
G1 X100.355 Y103.542 E4.57548
G1 X100.770 Y103.413 E4.58583
G1 X92.162 Y94.805 E4.87547
G1 X92.851 Y94.613 E4.89249
G1 X101.390 Y103.152 E5.17981
G1 X101.695 Y103.005 E5.18785
G1 X101.652 Y102.924 E5.19003
G1 X101.904 Y102.785 E5.19688
G1 X93.555 Y94.436 E5.47784
G1 X94.293 Y94.293 E5.49573
G1 X102.469 Y102.469 E5.77085
G1 X103.029 Y102.148 E5.78621
G1 X96.059 Y95.178 E6.02074
G1 X96.333 Y95.238 E6.02740
G1 X96.806 Y95.044 E6.03957
G1 X103.727 Y101.965 E6.27245
G1 X103.763 Y101.730 E6.27811
G1 X104.154 Y101.511 E6.28876
G1 X97.455 Y94.812 E6.51417
G1 X97.827 Y94.701 E6.52340
G1 X97.983 Y94.459 E6.53025
G1 X104.721 Y101.197 E6.75698
G1 X105.061 Y101.011 E6.76621
G1 X105.102 Y101.081 E6.76813
G1 X105.328 Y100.924 E6.77468
G1 X98.641 Y94.236 E6.99972
G1 X98.939 Y94.405 E7.00788
G1 X99.474 Y94.290 E7.02090
G1 X99.478 Y94.265 E7.02151
G1 X99.560 Y94.274 E7.02347
G1 X105.848 Y100.562 E7.23505
G1 X105.901 Y100.537 E7.23645
G1 X105.878 Y100.507 E7.23735
G1 X106.287 Y100.121 E7.25075
G1 X100.839 Y94.673 E7.43405
G1 X101.234 Y94.862 E7.44446
G1 X101.192 Y94.940 E7.44657
G1 X102.915 Y95.919 E7.49372
G1 X102.962 Y95.915 E7.49484
G1 X106.397 Y99.350 E7.61042
G1 X106.491 Y99.163 E7.61539
G1 X106.346 Y98.963 E7.62126
G1 X106.344 Y98.851 E7.62394
G1 X106.271 Y98.713 E7.62766
G1 X106.358 Y98.429 E7.63471
G1 X105.352 Y97.424 E7.66854
G1 X104.642 Y96.944 E7.68893
G1 X104.669 Y96.741 E7.69380
G1 X103.599 Y95.670 E7.72982
G1 X103.608 Y95.653 E7.73029
G1 X103.678 Y95.692 E7.73221
G1 X103.998 Y95.189 E7.74640
G1 X104.848 Y96.038 E7.77498
G1 E5.77498 F2400.00000
G92 E0
G1 X104.122 Y103.241 F7800.000
G1 E2.00000 F2400.00000
G1 F2951.95
G1 X102.866 Y101.985 E2.04227
G1 X102.969 Y102.147 E2.04685
G1 X103.057 Y102.215 E2.04950
G1 X103.060 Y102.763 E2.06253
G1 X103.134 Y102.750 E2.06431
G1 X103.233 Y103.233 E2.07604
G1 X104.119 Y104.119 E2.10588
G1 X103.976 Y104.175 E2.10953
G1 X103.928 Y104.152 E2.11079
G1 X103.866 Y104.090 E2.11288
G1 X103.792 Y103.961 E2.11641
G1 X103.698 Y103.698 E2.12306
G1 Z2.100 F7800.000
G1 X103.259 Y102.908 F7800.000
G1 F2808.87
G1 X103.781 Y102.385 E2.14064
G1 X103.898 Y102.609 E2.14663
G1 X103.972 Y102.819 E2.15193
G1 X103.996 Y102.985 E2.15592
G1 X103.838 Y103.026 E2.15981
G1 X103.828 Y103.006 E2.16036
G1 X103.790 Y102.920 E2.16258
G1 X103.741 Y102.698 E2.16801
G1 X103.724 Y102.443 E2.17409
G1 X103.291 Y101.995 F7800.000
G1 F2808.87
G1 X103.480 Y102.174 E2.18030
G1 X103.702 Y102.200 E2.18562
G1 X103.736 Y102.018 E2.19002
G1 X103.735 Y101.864 E2.19369
G1 X103.713 Y101.843 E2.19443
G1 X103.865 Y101.421 E2.20509
G1 X102.825 Y102.460 E2.24007
G1 X103.492 Y101.793 F7800.000
G1 F2808.87
G1 X105.812 Y99.473 E2.31813
G1 X105.810 Y99.312 E2.32198
G1 X105.857 Y99.089 E2.32738
G1 X106.005 Y98.877 E2.33354
G1 X106.173 Y98.699 E2.33937
G1 X105.954 Y98.450 E2.34725
G1 X101.372 Y103.032 E2.50142
G1 X100.461 Y103.411 E2.52491
G1 X99.995 Y103.529 E2.53635
G1 X105.731 Y97.793 E2.72935
G1 X105.634 Y97.403 E2.73891
G1 X105.496 Y97.147 E2.74584
G1 X99.279 Y103.364 E2.95505
G1 X98.587 Y103.175 E2.97212
G1 X105.029 Y96.733 E3.18887
G1 X104.642 Y96.481 E3.19985
G1 X104.674 Y96.207 E3.20642
G1 X97.712 Y103.169 E3.44069
G1 X97.672 Y102.938 E3.44626
G1 X97.214 Y102.786 E3.45775
G1 X104.479 Y95.521 E3.70221
G1 X104.465 Y95.511 E3.70261
G1 X104.328 Y95.623 E3.70682
G1 X104.043 Y95.663 E3.71366
G1 X104.040 Y95.702 E3.71459
G1 X103.674 Y95.806 E3.72366
G1 X103.531 Y95.826 E3.72709
G1 X103.379 Y95.741 E3.73125
G1 X96.576 Y102.543 E3.96013
G1 X96.280 Y102.417 E3.96780
G1 X95.853 Y102.658 E3.97944
G1 X95.620 Y103.035 E3.99001
G1 X95.686 Y103.107 E3.99232
G1 X95.510 Y103.311 E3.99872
G1 X95.315 Y103.477 E4.00482
G1 X95.060 Y103.613 E4.01169
G1 X94.842 Y103.664 E4.01702
G1 X94.565 Y103.673 E4.02361
G1 X102.810 Y95.428 E4.30106
G1 X102.234 Y95.123 E4.31657
G1 X93.804 Y103.553 E4.60023
G1 X93.104 Y103.373 E4.61744
G1 X101.703 Y94.773 E4.90681
G1 X101.081 Y94.514 E4.92285
G1 X92.414 Y103.181 E5.21447
G1 X91.736 Y102.978 E5.23131
G1 X100.341 Y94.374 E5.52084
G1 X99.995 Y94.433 E5.52918
G1 X99.175 Y94.658 E5.54941
G1 X91.076 Y102.757 E5.82194
G1 X90.448 Y102.505 E5.83806
G1 X97.970 Y94.983 E6.09118
G1 X97.501 Y95.142 E6.10297
G1 X96.771 Y95.439 E6.12171
G1 X96.674 Y95.398 E6.12422
G1 X89.877 Y102.195 E6.35292
G1 X89.578 Y101.959 E6.36199
G1 X89.425 Y101.766 E6.36785
G1 X96.192 Y94.999 E6.59555
G1 X96.115 Y94.874 E6.59904
G1 X96.174 Y94.789 E6.60151
G1 X96.009 Y94.589 E6.60768
G1 X95.857 Y94.452 E6.61254
G1 X89.135 Y101.175 E6.83874
G1 X88.874 Y100.554 E6.85475
G1 X95.233 Y94.196 E7.06869
G1 X94.818 Y94.208 E7.07857
G1 X94.226 Y94.322 E7.09291
G1 X88.637 Y99.911 E7.28099
G1 X88.545 Y99.611 E7.28847
G1 X88.497 Y99.377 E7.29414
G1 X88.485 Y99.182 E7.29878
G1 X93.025 Y94.642 E7.45154
G1 X91.751 Y95.035 E7.48324
G1 X88.805 Y97.981 E7.58239
G1 X89.018 Y97.410 E7.59689
G1 X89.289 Y96.791 E7.61297
G1 X89.426 Y96.557 E7.61943
G1 X89.613 Y96.339 E7.62627
G1 X89.898 Y96.116 E7.63488
G1 X90.180 Y95.951 E7.64264
G1 X90.668 Y95.728 E7.65542
G1 X91.286 Y95.500 E7.67109
G1 E5.67109 F2400.00000
G92 E0
G1 X98.189 Y94.763 F7800.000
G1 E2.00000 F2400.00000
G1 F2808.87
G1 X98.824 Y94.129 E2.02135
G1 Z2.400 F7800.000
G1 E0.02135 F2400.00000
G92 E0
G1 X105.382 Y98.335 F7800.000
G1 E2.00000 F2400.00000
G1 F2611.91
G1 X102.335 Y95.287 E2.10253
G1 X102.048 Y95.145 E2.11015
G1 X102.089 Y95.061 E2.11238
G1 X101.738 Y94.904 E2.12153
G1 X100.682 Y94.515 E2.14831
G1 X105.661 Y99.494 E2.31586
G1 X105.596 Y99.627 E2.31936
G1 X105.412 Y99.835 E2.32597
G1 X105.369 Y100.083 E2.33197
G1 X99.867 Y94.581 E2.51711
G1 X99.203 Y94.798 E2.53373
G1 X105.167 Y100.762 E2.73441
G1 X105.035 Y101.010 E2.74108
G1 X104.840 Y101.316 E2.74972
G1 X98.481 Y94.958 E2.96367
G1 X98.318 Y94.992 E2.96764
G1 X98.272 Y94.984 E2.96877
G1 X97.773 Y95.130 E2.98113
G1 X104.359 Y101.716 E3.20275
G1 X103.937 Y101.966 E3.21441
G1 X103.869 Y102.107 E3.21815
G1 X97.111 Y95.349 E3.44553
G1 X96.483 Y95.602 E3.46164
G1 X103.319 Y102.438 E3.69168
G1 X103.286 Y102.456 E3.69258
G1 X103.197 Y102.375 E3.69544
G1 X102.652 Y102.652 E3.70997
G1 X94.205 Y94.205 E3.99422
G1 X93.940 Y94.246 E4.00059
G1 X93.482 Y94.363 E4.01184
G1 X102.113 Y102.994 E4.30225
G1 X101.481 Y103.243 E4.31840
G1 X92.793 Y94.555 E4.61075
G1 X92.111 Y94.754 E4.62765
G1 X100.693 Y103.335 E4.91640
G1 X100.339 Y103.288 E4.92489
G1 X99.497 Y103.020 E4.94592
G1 X91.446 Y94.970 E5.21681
G1 X90.790 Y95.195 E5.23331
G1 X98.367 Y102.772 E5.48826
G1 X97.698 Y102.561 E5.50495
G1 X96.999 Y102.285 E5.52283
G1 X90.169 Y95.454 E5.75268
G1 X89.870 Y95.618 E5.76078
G1 X89.631 Y95.798 E5.76789
G1 X96.279 Y102.445 E5.99156
G1 X96.106 Y102.723 E5.99934
G1 X95.921 Y102.968 E6.00666
G1 X89.298 Y96.345 E6.22950
G1 X89.245 Y96.474 E6.23280
G1 X89.333 Y96.508 E6.23506
G1 X89.130 Y97.059 E6.24903
G1 X95.463 Y103.391 E6.46211
G1 X95.204 Y103.534 E6.46914
G1 X94.853 Y103.662 E6.47803
G1 X88.891 Y97.701 E6.67863
G1 X88.743 Y98.123 E6.68928
G1 X88.678 Y98.368 E6.69532
G1 X93.767 Y103.457 E6.86657
G1 X92.520 Y103.091 E6.89748
G1 X88.760 Y99.331 E7.02402
G1 X89.270 Y100.722 E7.05929
G1 X91.189 Y102.641 E7.12385
G1 X90.829 Y102.501 E7.13303
G1 X90.456 Y102.319 E7.14292
G1 X90.212 Y102.164 E7.14980
G1 X90.003 Y101.980 E7.15642
G1 X89.898 Y101.840 E7.16060
G1 X89.708 Y101.402 E7.17194
G1 X89.801 Y101.368 E7.17430
G1 X89.735 Y101.187 E7.17886
G1 Z2.700 F7800.000
G1 X91.737 Y95.049 F7800.000
G1 F2461.47
G1 X89.299 Y97.487 E7.26089
G1 X89.008 Y98.368 E7.28296
G1 X88.902 Y98.765 E7.29276
G1 X93.022 Y94.645 E7.43141
G1 X94.017 Y94.344 E7.45614
G1 X94.257 Y94.291 E7.46199
G1 X88.916 Y99.632 E7.64171
G1 X89.121 Y100.308 E7.65852
G1 X94.994 Y94.435 E7.85612
G1 X95.291 Y94.598 E7.86420
G1 X95.529 Y94.780 E7.87133
G1 X89.341 Y100.969 E8.07957
G1 X89.564 Y101.626 E8.09609
G1 X95.952 Y95.239 E8.31102
G1 X96.117 Y95.479 E8.31796
G1 X96.291 Y95.780 E8.32623
G1 X89.848 Y102.223 E8.54303
G1 X90.103 Y102.373 E8.55005
G1 X90.436 Y102.517 E8.55869
G1 X97.057 Y95.895 E8.78149
G1 X97.887 Y95.552 E8.80285
G1 X98.485 Y95.348 E8.81789
G1 X91.082 Y102.752 E9.06702
G1 X91.291 Y102.828 E9.07233
G1 X91.746 Y102.968 E9.08366
G1 X99.593 Y95.121 E9.34770
G1 X99.950 Y95.049 E9.35637
G1 X100.591 Y94.838 E9.37241
G1 X100.784 Y94.811 E9.37706
G1 X92.420 Y103.176 E9.65851
G1 X93.094 Y103.383 E9.67528
G1 X101.538 Y94.938 E9.95943
G1 X102.180 Y95.178 E9.97572
G1 X93.786 Y103.572 E10.25817
G1 X93.999 Y103.621 E10.26340
G1 X94.387 Y103.493 E10.27310
G1 X94.719 Y103.333 E10.28187
G1 X95.073 Y103.079 E10.29225
G1 X95.441 Y102.687 E10.30503
G1 X95.665 Y102.366 E10.31435
G1 X95.841 Y102.060 E10.32274
G1 X96.087 Y101.937 E10.32929
G1 X96.232 Y101.821 E10.33371
G1 X96.366 Y101.872 E10.33712
G1 X102.781 Y95.458 E10.55296
G1 X103.337 Y95.782 E10.56829
G1 X96.982 Y102.137 E10.78213
G1 X97.616 Y102.384 E10.79832
G1 X103.828 Y96.172 E11.00732
G1 X104.258 Y96.623 E11.02214
G1 X98.292 Y102.589 E11.22289
G1 X99.032 Y102.730 E11.24081
G1 X104.638 Y97.124 E11.42945
G1 X104.846 Y97.469 E11.43903
G1 X104.950 Y97.693 E11.44491
G1 X99.736 Y102.907 E11.62035
G1 X100.138 Y103.031 E11.63036
G1 X100.469 Y103.055 E11.63826
G1 X105.262 Y98.262 E11.79955
G1 X105.372 Y98.350 E11.80291
G1 X105.621 Y98.696 E11.81305
G1 X105.439 Y98.966 E11.82078
G1 X104.881 Y99.524 E11.83955
G1 X102.183 Y102.222 F7800.000
G1 F2461.47
G1 X102.791 Y101.937 E11.85554
G1 X103.285 Y101.656 E11.86907
G1 X103.637 Y101.396 E11.87948
G1 X103.976 Y101.084 E11.89044
G1 X104.302 Y100.726 E11.90195
G1 X104.687 Y100.201 E11.91746
G1 X104.909 Y99.805 E11.92825
G1 X105.092 Y99.364 E11.93962
G1 X105.171 Y99.234 E11.94323
G1 X101.717 Y102.687 E12.05942
G1 Z3.000 F7800.000
G1 E10.05942 F2400.00000
G92 E0
G1 X105.298 Y99.131 F7800.000
G1 E2.00000 F2400.00000
G1 F2264.34
G1 X101.815 Y95.649 E2.11717
G1 X101.512 Y95.500 E2.12522
G1 X101.131 Y95.346 E2.13499
G1 X100.764 Y95.243 E2.14406
G1 X100.495 Y95.210 E2.15051
G1 X104.915 Y99.629 E2.29923
G1 X104.557 Y100.153 E2.31431
G1 X99.759 Y95.355 E2.47576
G1 X99.602 Y95.395 E2.47962
G1 X98.995 Y95.471 E2.49418
G1 X104.178 Y100.654 E2.66857
G1 X103.758 Y101.115 E2.68341
G1 X98.342 Y95.700 E2.86563
G1 X97.809 Y96.048 E2.88078
G1 X103.297 Y101.535 E3.06542
G1 X102.792 Y101.911 E3.08039
G1 X97.225 Y96.344 E3.26773
G1 X96.551 Y96.551 E3.28450
G1 X102.239 Y102.239 E3.47587
G1 X101.626 Y102.507 E3.49179
G1 X93.507 Y94.388 E3.76497
G1 X92.841 Y94.603 E3.78162
G1 X100.894 Y102.656 E4.05258
G1 X100.632 Y102.625 E4.05886
G1 X100.149 Y102.488 E4.07079
G1 X99.799 Y102.442 E4.07919
G1 X92.172 Y94.815 E4.33583
G1 X91.505 Y95.028 E4.35251
G1 X98.326 Y101.850 E4.58205
G1 X98.010 Y101.662 E4.59081
G1 X97.681 Y101.516 E4.59937
G1 X96.871 Y101.275 E4.61948
G1 X90.837 Y95.242 E4.82251
G1 X90.480 Y95.356 E4.83143
G1 X90.191 Y95.477 E4.83888
G1 X96.338 Y101.623 E5.04571
G1 X96.024 Y102.191 E5.06113
G1 X89.788 Y95.955 E5.27098
G1 X89.570 Y96.617 E5.28758
G1 X95.639 Y102.687 E5.49181
G1 X95.399 Y102.916 E5.49971
G1 X95.165 Y103.093 E5.50670
G1 X89.371 Y97.300 E5.70166
G1 X89.184 Y97.993 E5.71875
G1 X94.589 Y103.399 E5.90064
G1 X94.169 Y103.529 E5.91111
G1 X93.700 Y103.390 E5.92274
G1 X89.087 Y98.777 E6.07798
G1 X89.150 Y99.259 E6.08955
G1 X89.309 Y99.880 E6.10481
G1 X92.416 Y102.987 E6.20936
G1 X91.111 Y102.563 E6.24200
G1 X89.682 Y101.134 E6.29011
G1 E4.29011 F2400.00000
G92 E0
G1 X97.223 Y96.355 F7800.000
G1 E2.00000 F2400.00000
G1 F600
G1 X96.729 Y95.861 E2.01917
G1 X97.374 Y95.592 E2.03832
G1 X97.869 Y96.087 E2.05749
G1 Z3.300 F7800.000
G1 X97.767 Y96.346 F7800.000
G1 F600
G1 X96.647 Y97.465 E2.10873
G1 X97.325 Y97.866 F7800.000
G1 F600
G1 X96.831 Y98.361 E2.13136
G1 X97.325 Y99.514 F7800.000
G1 F600
G1 X96.825 Y100.015 E2.15429
G1 X96.783 Y100.204 E2.16056
G1 X96.817 Y100.313 E2.16427
G1 X96.758 Y100.606 E2.17392
G1 X96.750 Y100.831 E2.18123
G1 X96.661 Y100.882 E2.18456
G1 X96.587 Y101.095 E2.19185
G1 X96.527 Y101.179 E2.19518
G1 X96.491 Y101.278 E2.19862
G1 X96.532 Y101.290 E2.20001
G1 X97.705 Y100.117 E2.25372
G1 X97.847 Y100.386 E2.26356
G1 X98.112 Y100.693 E2.27670
G1 X97.282 Y101.523 E2.31469
G1 X97.672 Y101.710 E2.32869
G1 X97.920 Y101.868 E2.33822
G1 X98.572 Y101.217 E2.36804
G1 X99.031 Y101.741 E2.39059
G1 X98.536 Y102.236 E2.41323
G1 E0.41323 F2400.00000
G92 E0
G1 X101.824 Y101.700 F7800.000
G1 E2.00000 F2400.00000
G1 F2399.9
G1 X104.940 Y98.584 E2.10484
G1 X104.519 Y98.124 E2.11968
G1 X100.479 Y102.164 E2.25560
G1 X100.145 Y102.149 E2.26355
G1 X100.103 Y102.175 E2.26475
G1 X100.010 Y102.175 E2.26695
G1 X99.939 Y102.117 E2.26915
G1 X99.694 Y102.068 E2.27510
G1 X104.113 Y97.649 E2.42380
G1 X103.670 Y97.211 E2.43862
G1 X99.030 Y101.851 E2.59474
G1 X98.614 Y101.386 E2.60958
G1 X103.202 Y96.798 E2.76397
G1 X102.698 Y96.421 E2.77895
G1 X98.208 Y100.911 E2.93003
G1 X97.934 Y100.617 E2.93960
G1 X97.844 Y100.500 E2.94309
G1 X97.813 Y100.425 E2.94504
G1 X102.149 Y96.089 E3.09093
G1 X101.839 Y95.937 E3.09915
G1 X101.538 Y95.819 E3.10684
G1 X97.495 Y99.863 E3.24290
G1 X97.126 Y99.351 E3.25791
G1 X100.771 Y95.705 E3.38057
G1 X100.629 Y95.719 E3.38397
G1 X100.447 Y95.702 E3.38832
G1 X100.340 Y95.774 E3.39139
G1 X99.877 Y95.830 E3.40249
G1 X99.719 Y95.877 E3.40641
G1 X98.433 Y97.162 E3.44966
G1 X98.980 Y96.527 E3.46960
G1 X99.105 Y96.419 E3.47353
G1 X99.254 Y96.342 E3.47751
G1 E1.47751 F2400.00000
G92 E0
G1 X91.771 Y95.015 F7800.000
G1 E2.00000 F2400.00000
G1 F2399.9
G1 X89.711 Y97.075 E2.06934
G1 X89.443 Y98.224 E2.09740
G1 X92.858 Y94.809 E2.21232
G1 X93.940 Y94.442 E2.23950
G1 X94.065 Y94.483 E2.24262
G1 X89.322 Y99.226 E2.40222
G1 X89.344 Y99.538 E2.40966
G1 X89.421 Y100.008 E2.42098
G1 X94.685 Y94.744 E2.59809
G1 X95.014 Y94.934 E2.60713
G1 X95.224 Y95.086 E2.61330
G1 X89.580 Y100.729 E2.80320
G1 X89.759 Y101.432 E2.82044
G1 X95.671 Y95.520 E3.01937
G1 X96.037 Y96.034 E3.03440
G1 X89.980 Y102.092 E3.23823
G1 X90.050 Y102.279 E3.24300
G1 X90.370 Y102.451 E3.25165
G1 X90.467 Y102.486 E3.25408
G1 X96.334 Y96.619 E3.45150
G1 X96.515 Y97.117 E3.46411
G1 X96.561 Y97.273 E3.46797
G1 X91.104 Y102.730 E3.65160
G1 X91.332 Y102.861 E3.65787
G1 X91.408 Y102.878 E3.65972
G1 X91.705 Y102.872 E3.66679
G1 X91.816 Y102.899 E3.66949
G1 X96.720 Y97.994 E3.83452
G1 X96.775 Y98.206 E3.83973
G1 X96.822 Y98.262 E3.84145
G1 X96.874 Y98.492 E3.84707
G1 X96.887 Y98.708 E3.85222
G1 X92.504 Y103.091 E3.99970
G1 X93.167 Y103.309 E4.01630
G1 X96.663 Y99.813 E4.13394
G1 X96.677 Y99.857 E4.13503
G1 X96.650 Y99.994 E4.13836
G1 X96.506 Y100.076 E4.14230
G1 X96.556 Y100.262 E4.14688
G1 X96.529 Y100.339 E4.14883
G1 X96.472 Y100.419 E4.15117
G1 X96.298 Y100.861 E4.16246
G1 X96.100 Y101.258 E4.17302
G1 X94.255 Y103.103 E4.23510
M106 S247.35
G1 Z3.600 F7800.000
G1 E2.23510 F2400.00000
G92 E0
G1 X90.594 Y102.240 F7800.000
G1 E2.00000 F2400.00000
G1 F1200
G1 X90.038 Y101.668 E2.02196
G1 X89.958 Y101.485 E2.02745
G1 X89.820 Y101.076 E2.03932
G1 X89.622 Y100.327 E2.06065
G1 X92.301 Y103.006 E2.16489
G1 X92.391 Y102.944 E2.16791
G1 X92.741 Y102.928 E2.17754
G1 X93.341 Y103.105 E2.19474
G1 X89.381 Y99.145 E2.34881
G1 X89.352 Y98.894 E2.35576
G1 X89.346 Y98.596 E2.36394
G1 X89.384 Y98.207 E2.37471
G1 X94.407 Y103.230 E2.57014
G1 X94.597 Y103.146 E2.57584
G1 X95.020 Y102.902 E2.58929
G1 X89.541 Y97.422 E2.80250
G1 X89.720 Y96.661 E2.82403
G1 X95.530 Y102.470 E3.05008
G1 X95.634 Y102.362 E3.05420
G1 X95.943 Y101.942 E3.06855
G1 X89.945 Y95.945 E3.30191
G1 X90.011 Y95.755 E3.30745
G1 X90.096 Y95.632 E3.31156
G1 X90.271 Y95.496 E3.31764
G1 X90.385 Y95.443 E3.32110
G1 X96.273 Y101.332 E3.55020
G1 X96.455 Y100.879 E3.56363
G1 X96.531 Y100.738 E3.56804
G1 X96.498 Y100.615 E3.57152
G1 X90.926 Y95.044 E3.78831
G1 X91.042 Y94.869 E3.79408
G1 X91.127 Y94.794 E3.79719
G1 X91.291 Y94.721 E3.80212
G1 X91.461 Y94.706 E3.80682
G1 X91.554 Y94.730 E3.80945
G1 X96.696 Y99.872 E4.00953
G1 X96.757 Y99.687 E4.01488
G1 X96.782 Y99.660 E4.01590
G1 X96.802 Y99.510 E4.02007
G1 X96.917 Y99.312 E4.02638
G1 X96.877 Y99.112 E4.03198
G1 X92.601 Y94.836 E4.19836
G1 X93.304 Y94.597 E4.21878
G1 X96.637 Y97.931 E4.34848
G1 E2.34848 F2400.00000
G92 E0
G1 X95.513 Y95.865 F7800.000
G1 E2.00000 F2400.00000
G1 F1200
G1 X95.018 Y95.371 E2.01924
G1 E0.01924 F2400.00000
G92 E0
G1 X99.340 Y101.638 F7800.000
G1 E2.00000 F2400.00000
G1 F1200
G1 X99.360 Y101.658 E2.00078
G1 X98.846 Y101.144 E2.02080
G1 X98.347 Y100.546 E2.04222
G1 X97.897 Y100.046 E2.06074
G1 X97.685 Y99.612 E2.07402
G1 X97.238 Y98.975 E2.09543
G1 X97.311 Y98.943 E2.09762
G1 X97.238 Y98.619 E2.10674
G1 X100.751 Y102.133 E2.24346
G1 X100.956 Y102.140 E2.24909
G1 X101.182 Y102.117 E2.25536
G1 X101.553 Y102.018 E2.26592
G1 X97.525 Y97.990 E2.42264
G1 X97.627 Y97.844 E2.42753
G1 X97.860 Y97.408 E2.44114
G1 X102.185 Y101.733 E2.60943
G1 X102.753 Y101.385 E2.62777
G1 X98.273 Y96.904 E2.80211
G1 X98.693 Y96.408 E2.82000
G1 X103.272 Y100.987 E2.99815
G1 X103.749 Y100.547 E3.01600
G1 X99.155 Y95.953 E3.19476
G1 X99.314 Y95.875 E3.19962
G1 X99.908 Y95.789 E3.21614
G1 X104.209 Y100.090 E3.38348
G1 X104.621 Y99.585 E3.40140
G1 X100.811 Y95.775 E3.54965
G1 X101.342 Y95.957 E3.56510
G1 X101.965 Y96.288 E3.58452
G1 X102.515 Y96.667 E3.60290
G1 X103.113 Y97.175 E3.62448
G1 X103.951 Y97.998 E3.65679
M106 S249.9
G1 Z3.900 F7800.000
G1 E1.65679 F2400.00000
G92 E0
G1 X95.011 Y102.215 F7800.000
G1 E2.00000 F2400.00000
G1 F1200
G1 X95.512 Y101.714 E2.01952
G1 X95.745 Y101.432 E2.02964
G1 X95.945 Y101.135 E2.03950
G1 X96.095 Y100.866 E2.04801
G1 X96.271 Y100.480 E2.05969
G1 X96.408 Y100.089 E2.07112
G1 X96.473 Y99.834 E2.07839
G1 X93.175 Y103.132 E2.20706
G1 X92.465 Y102.924 E2.22748
G1 X96.610 Y98.778 E2.38918
G1 X96.607 Y98.406 E2.39943
G1 X96.550 Y97.919 E2.41297
G1 X91.200 Y103.269 E2.62168
G1 X91.107 Y103.227 E2.62449
G1 X90.929 Y103.089 E2.63071
G1 X90.863 Y102.995 E2.63387
G1 X90.956 Y102.918 E2.63719
G1 X90.787 Y102.763 E2.64353
G1 X96.372 Y97.177 E2.86139
G1 X96.256 Y96.854 E2.87087
G1 X96.102 Y96.529 E2.88080
G1 X90.294 Y102.337 E3.10736
G1 X90.184 Y102.205 E3.11211
G1 X90.005 Y101.707 E3.12670
G1 X95.755 Y95.956 E3.35100
G1 X95.519 Y95.666 E3.36133
G1 X95.322 Y95.470 E3.36898
G1 X89.836 Y100.956 E3.58296
G1 X89.705 Y100.168 E3.60500
G1 X94.789 Y95.084 E3.80331
G1 X94.622 Y94.984 E3.80869
G1 X94.181 Y94.774 E3.82217
G1 X89.610 Y99.345 E4.00047
G1 X89.605 Y99.035 E4.00902
G1 X89.676 Y98.359 E4.02777
G1 X93.142 Y94.893 E4.16296
G1 X92.890 Y94.959 E4.17014
G1 X92.803 Y95.148 E4.17588
G1 X92.380 Y94.737 E4.19216
G1 X89.855 Y97.261 E4.29064
G1 X90.000 Y96.650 E4.30796
G1 X90.099 Y96.357 E4.31648
G1 X90.206 Y96.120 E4.32367
G1 X90.351 Y95.969 E4.32944
G1 X90.464 Y95.888 E4.33328
G1 X90.642 Y95.797 E4.33880
G1 X90.835 Y95.399 E4.35100
G1 X90.947 Y95.251 E4.35613
G1 X91.443 Y94.754 E4.37548
G1 E2.37548 F2400.00000
G92 E0
G1 X99.163 Y97.160 F7800.000
G1 E2.00000 F2400.00000
G1 F1200
G1 X99.739 Y96.592 E2.02467
G1 X100.169 Y96.357 E2.03964
G1 X100.398 Y96.295 E2.04690
G1 X100.755 Y96.584 E2.06092
G1 X97.856 Y99.483 E2.18607
G1 X98.217 Y99.925 E2.20350
G1 X98.166 Y99.917 E2.20509
G1 X98.295 Y100.061 E2.21101
G1 X101.837 Y96.520 E2.36387
G1 X102.214 Y96.691 E2.37651
G1 X102.508 Y96.865 E2.38696
G1 X98.723 Y100.650 E2.55035
G1 X98.852 Y100.832 E2.55716
G1 X99.178 Y101.213 E2.57244
G1 X103.118 Y97.273 E2.74250
G1 X103.669 Y97.738 E2.76453
G1 X99.853 Y101.554 E2.92924
G1 X100.136 Y101.672 E2.93859
G1 X100.300 Y101.637 E2.94371
G1 X100.330 Y101.611 E2.94494
G1 X100.819 Y101.530 E2.96007
G1 X100.928 Y101.497 E2.96354
G1 X104.197 Y98.228 E3.10465
G1 X104.480 Y98.514 E3.11695
G1 X104.740 Y98.701 E3.12673
G1 X104.246 Y99.196 E3.14808
M106 S252.45
G1 Z4.200 F7800.000
G1 E1.14808 F2400.00000
G92 E0
G1 X95.299 Y96.205 F7800.000
G1 E2.00000 F2400.00000
G1 F1200
G1 X94.802 Y95.707 E2.01905
G1 X94.525 Y95.483 E2.02869
G1 X94.250 Y95.310 E2.03748
G1 X93.260 Y94.819 E2.06740
G1 X93.060 Y94.868 E2.07297
G1 X96.391 Y98.199 E2.20049
G1 X96.437 Y98.409 E2.20633
G1 X96.490 Y98.874 E2.21900
G1 X96.497 Y99.207 E2.22801
G1 X92.246 Y94.955 E2.39078
G1 X92.105 Y94.915 E2.39474
G1 X91.870 Y94.668 E2.40396
G1 X91.730 Y94.581 E2.40842
G1 X91.566 Y94.527 E2.41311
G1 X91.373 Y94.516 E2.41834
G1 X91.187 Y94.555 E2.42349
G1 X91.027 Y94.639 E2.42837
G1 X96.419 Y100.030 E2.63476
G1 X96.284 Y100.575 E2.64995
G1 X96.223 Y100.737 E2.65462
G1 X90.679 Y95.193 E2.86684
G1 X90.389 Y95.555 E2.87940
G1 X90.307 Y95.723 E2.88446
G1 X95.936 Y101.351 E3.09994
G1 X95.748 Y101.645 E3.10938
G1 X95.561 Y101.879 E3.11748
G1 X90.108 Y96.426 E3.32626
G1 X90.022 Y97.242 E3.34849
G1 X95.098 Y102.318 E3.54281
G1 X94.759 Y102.548 E3.55391
G1 X94.537 Y102.659 E3.56062
G1 X89.952 Y98.073 E3.73618
G1 X89.919 Y98.662 E3.75213
G1 X89.929 Y98.953 E3.76002
G1 X93.930 Y102.954 E3.91317
G1 X93.763 Y103.048 E3.91836
G1 X93.716 Y103.046 E3.91963
G1 X92.927 Y102.853 E3.94163
G1 X90.005 Y99.931 E4.05347
G1 X90.070 Y100.717 E4.07482
G1 X90.109 Y100.937 E4.08087
G1 X92.368 Y103.196 E4.16736
G1 X92.256 Y103.269 E4.17099
G1 X92.045 Y103.341 E4.17701
G1 X91.864 Y103.351 E4.18190
G1 X91.766 Y103.335 E4.18460
G1 X91.571 Y103.262 E4.19025
G1 X91.394 Y103.124 E4.19630
G1 X90.898 Y102.628 E4.21531
G1 E2.21531 F2400.00000
G92 E0
G1 X98.666 Y99.656 F7800.000
G1 E2.00000 F2400.00000
G1 F1200
G1 X99.161 Y100.151 E2.02160
G1 X99.237 Y99.992 E2.02704
G1 X99.480 Y100.098 E2.03524
G1 X99.738 Y100.133 E2.04328
G1 X99.707 Y100.491 E2.05438
G1 X100.166 Y100.839 E2.07213
G1 X100.459 Y100.983 E2.08222
G1 X100.588 Y100.615 E2.09427
G1 X100.666 Y100.628 E2.09672
G1 X98.245 Y98.207 E2.20236
G1 X98.717 Y97.651 E2.22488
G1 X101.820 Y100.754 E2.36030
G1 X102.245 Y100.570 E2.37459
G1 X102.516 Y100.421 E2.38412
G1 X99.359 Y97.264 E2.52189
G1 X99.682 Y97.021 E2.53438
G1 X99.992 Y96.869 E2.54503
G1 X103.153 Y100.030 E2.68298
G1 X103.746 Y99.595 E2.70568
G1 X101.229 Y97.077 E2.81554
G1 X101.356 Y97.118 E2.81965
G1 X101.856 Y97.353 E2.83672
G1 X102.558 Y97.765 E2.86182
G1 X103.283 Y98.294 E2.88953
G1 X103.642 Y98.487 E2.90210
G1 X103.867 Y98.687 E2.91139
G1 X104.361 Y99.182 E2.93298
M106 S255
G1 Z4.500 F7800.000
G1 E0.93298 F2400.00000
G92 E0
G1 X94.986 Y101.721 F7800.000
G1 E2.00000 F2400.00000
G1 F1125.27
G1 X95.487 Y101.220 E2.02030
G1 X95.753 Y100.884 E2.03258
G1 X95.935 Y100.586 E2.04257
G1 X96.063 Y100.318 E2.05108
G1 X96.194 Y99.956 E2.06210
G1 X96.299 Y99.454 E2.07678
G1 X92.896 Y102.857 E2.21457
G1 X92.489 Y102.790 E2.22640
G1 X92.107 Y102.853 E2.23747
G1 X91.880 Y103.128 E2.24767
G1 X91.746 Y103.225 E2.25241
G1 X91.499 Y103.300 E2.25982
G1 X96.347 Y98.452 E2.45618
G1 X96.315 Y98.007 E2.46894
G1 X96.242 Y97.603 E2.48071
G1 X90.953 Y102.891 E2.69489
G1 X90.801 Y102.684 E2.70226
G1 X90.753 Y102.715 E2.70390
G1 X90.731 Y102.645 E2.70600
G1 X90.617 Y102.482 E2.71170
G1 X90.557 Y102.333 E2.71630
G1 X95.988 Y96.902 E2.93624
G1 X95.824 Y96.596 E2.94618
G1 X95.623 Y96.313 E2.95613
G1 X90.374 Y101.562 E3.16870
G1 X90.359 Y101.408 E3.17312
G1 X90.388 Y100.593 E3.19647
G1 X95.148 Y95.834 E3.38922
G1 X94.908 Y95.665 E3.39762
G1 X94.553 Y95.475 E3.40916
G1 X90.360 Y99.668 E3.57898
G1 X90.332 Y99.170 E3.59326
G1 X90.357 Y98.717 E3.60626
G1 X93.897 Y95.176 E3.74963
G1 X93.553 Y94.983 E3.76092
G1 X93.055 Y95.064 E3.77539
G1 X90.388 Y97.731 E3.88339
G1 X90.361 Y96.907 E3.90699
G1 X90.372 Y96.793 E3.91027
G1 X91.108 Y96.057 E3.94010
G1 X91.165 Y96.063 E3.94174
G1 X91.177 Y95.988 E3.94394
G1 X92.402 Y94.763 E3.99355
G1 X92.227 Y94.630 E3.99983
G1 X92.126 Y94.587 E4.00297
G1 X91.873 Y94.560 E4.01026
G1 X91.678 Y94.603 E4.01598
G1 X91.528 Y94.685 E4.02087
G1 X90.883 Y95.328 E4.04696
G1 E2.04696 F2400.00000
G92 E0
G1 X98.386 Y98.614 F7800.000
G1 E2.00000 F2400.00000
G1 F1125.27
G1 X97.890 Y99.109 E2.01903
G1 X97.869 Y99.164 E2.02064
G1 X97.906 Y99.264 E2.02352
G1 X98.087 Y99.371 E2.02923
G1 X98.329 Y99.575 E2.03784
G1 X100.357 Y97.547 E2.11573
G1 X100.586 Y97.438 E2.12263
G1 X100.879 Y97.227 E2.13243
G1 X101.032 Y97.412 E2.13895
G1 X101.095 Y97.449 E2.14093
G1 X101.226 Y97.583 E2.14601
G1 X98.790 Y100.019 E2.23957
G1 X98.986 Y100.098 E2.24530
G1 X99.234 Y100.126 E2.25209
G1 X99.512 Y100.202 E2.25992
G1 X101.902 Y97.812 E2.35167
G1 X102.258 Y97.934 E2.36190
G1 X102.542 Y98.077 E2.37053
G1 X100.150 Y100.469 E2.46239
G1 X100.386 Y100.640 E2.47032
G1 X100.705 Y100.296 E2.48308
G1 X100.919 Y100.210 E2.48934
G1 X101.491 Y100.033 E2.50558
G1 X103.095 Y98.429 E2.56719
G1 X103.501 Y98.602 E2.57918
G1 X103.677 Y98.648 E2.58412
G1 X103.700 Y98.728 E2.58639
G1 X103.206 Y99.223 E2.60539
G1 Z4.800 F7800.000
G1 E0.60539 F2400.00000
G92 E0
G1 X95.523 Y96.893 F7800.000
G1 E2.00000 F2400.00000
G1 F877.597
G1 X94.897 Y96.267 E2.02437
G1 X94.655 Y96.075 E2.03290
G1 X94.400 Y95.909 E2.04127
G1 X94.168 Y95.787 E2.04849
G1 X93.176 Y95.373 E2.07807
G1 X92.983 Y95.271 E2.08409
G1 X96.115 Y98.402 E2.20604
G1 X96.149 Y98.927 E2.22052
G1 X96.149 Y99.354 E2.23228
G1 X91.511 Y94.715 E2.41291
G1 X91.362 Y94.711 E2.41701
G1 X91.193 Y94.758 E2.42183
G1 X91.093 Y94.824 E2.42514
G1 X90.992 Y94.925 E2.42906
G1 X90.928 Y95.050 E2.43293
G1 X96.086 Y100.208 E2.63378
G1 X95.971 Y100.701 E2.64771
G1 X95.884 Y100.924 E2.65432
G1 X90.724 Y95.764 E2.85527
G1 X90.712 Y95.866 E2.85809
G1 X90.726 Y96.239 E2.86838
G1 X90.805 Y96.763 E2.88297
G1 X95.518 Y101.475 E3.06647
G1 X95.405 Y101.586 E3.07083
G1 X95.009 Y101.884 E3.08448
G1 X90.876 Y97.751 E3.24544
G1 X90.799 Y98.592 E3.26869
G1 X94.403 Y102.195 E3.40904
G1 X93.748 Y102.458 E3.42847
G1 X90.874 Y99.584 E3.54039
G1 X90.875 Y100.055 E3.55335
G1 X90.828 Y100.456 E3.56447
G1 X93.045 Y102.673 E3.65080
G1 X92.742 Y102.664 E3.65915
G1 X92.469 Y102.776 E3.66726
G1 X92.366 Y102.912 E3.67195
G1 X90.718 Y101.263 E3.73615
G1 X90.716 Y101.569 E3.74458
G1 X90.786 Y101.916 E3.75432
G1 X90.924 Y102.309 E3.76580
G1 X90.991 Y102.445 E3.76997
G1 X91.056 Y102.519 E3.77267
G1 X91.550 Y103.013 E3.79192
G1 E1.79192 F2400.00000
G92 E0
G1 X98.859 Y99.087 F7800.000
G1 E2.00000 F2400.00000
G1 F877.597
G1 X99.354 Y99.581 E2.02210
G1 X100.061 Y99.638 E2.04453
G1 X100.429 Y99.760 E2.05678
G1 X100.684 Y99.895 E2.06590
G1 X100.682 Y99.856 E2.06714
G1 X99.093 Y98.267 E2.13814
G1 X99.390 Y98.251 E2.14754
G1 X99.609 Y98.217 E2.15455
G1 X99.968 Y98.089 E2.16658
G1 X101.445 Y99.566 E2.23262
G1 X101.897 Y98.965 F7800.000
G1 F877.597
G1 X101.403 Y98.471 E2.25472
G1 Z5.100 F7800.000
G1 E0.25472 F2400.00000
G92 E0
G1 X95.903 Y98.492 F7800.000
G1 E2.00000 F2400.00000
G1 F665.175
G1 X95.895 Y99.217 E2.02047
G1 X95.874 Y99.461 E2.02739
G1 X95.163 Y100.172 E2.05576
G1 X94.679 Y101.596 F7800.000
G1 F665.175
G1 X95.402 Y100.861 E2.08484
G1 X95.608 Y100.529 E2.09586
G1 X95.675 Y100.361 E2.10099
G1 X95.370 Y100.234 E2.11033
G1 X95.546 Y99.789 E2.12384
G1 X93.133 Y102.202 E2.22015
G1 X92.513 Y102.422 E2.23870
G1 X91.887 Y102.521 E2.25660
G1 X91.821 Y102.573 E2.25897
G1 X95.903 Y98.492 E2.42186
G1 X95.895 Y98.158 E2.43129
G1 X95.837 Y97.618 E2.44661
G1 X91.103 Y102.352 E2.63552
G1 X91.094 Y102.171 E2.64061
G1 X91.125 Y101.901 E2.64829
G1 X91.289 Y101.225 E2.66791
G1 X95.629 Y96.885 E2.84110
G1 X95.496 Y96.641 E2.84894
G1 X95.244 Y96.330 E2.86025
G1 X91.404 Y100.169 E3.01347
G1 X91.291 Y99.342 E3.03703
G1 X94.669 Y95.965 E3.17181
G1 X93.939 Y95.754 E3.19324
G1 X91.394 Y98.299 E3.29480
G1 X91.413 Y97.880 E3.30665
G1 X91.353 Y97.400 E3.32028
G1 X93.230 Y95.523 E3.39521
G1 X93.016 Y95.443 E3.40167
G1 X92.449 Y95.363 E3.41781
G1 X91.165 Y96.648 E3.46908
G1 X91.104 Y96.307 E3.47887
G1 X91.093 Y96.125 E3.48402
G1 X91.129 Y95.906 E3.49026
G1 X91.238 Y95.651 E3.49810
G1 X91.281 Y95.592 E3.50016
G1 X91.776 Y95.096 E3.51992
G1 E1.51992 F2400.00000
G92 E0
G1 X99.670 Y99.234 F7800.000
G1 E2.00000 F2400.00000
G1 F665.175
G1 X100.284 Y98.619 E2.02812
G1 X100.799 Y99.183 F7800.000
G1 F665.175
G1 X101.294 Y98.689 E2.05076
G1 Z5.400 F7800.000
G1 E0.05076 F2400.00000
G92 E0
G1 X95.277 Y97.554 F7800.000
G1 E2.00000 F2400.00000
G1 F600
G1 X94.781 Y97.058 E2.01919
G1 X94.609 Y96.948 E2.02479
G1 X94.523 Y96.925 E2.02723
G1 X93.956 Y96.887 E2.04279
G1 X93.642 Y96.831 E2.05154
G1 X95.615 Y98.805 E2.12797
G1 X95.628 Y99.200 E2.13881
G1 X95.607 Y99.709 E2.15275
G1 X91.932 Y96.034 E2.29507
G1 X92.005 Y96.256 E2.30148
G1 X92.058 Y96.529 E2.30907
G1 X92.091 Y96.812 E2.31687
G1 X92.089 Y97.103 E2.32485
G1 X95.459 Y100.474 E2.45539
G1 X95.398 Y100.638 E2.46019
G1 X95.262 Y100.820 E2.46642
G1 X95.104 Y100.918 E2.47151
G1 X95.011 Y100.938 E2.47409
G1 X91.949 Y97.876 E2.59269
G1 X91.811 Y98.455 E2.60901
G1 X91.793 Y98.632 E2.61388
G1 X94.187 Y101.026 E2.70657
G1 X93.894 Y101.092 E2.71478
G1 X93.483 Y101.234 E2.72671
G1 X92.011 Y99.763 E2.78369
G1 X92.063 Y100.019 E2.79085
G1 X92.091 Y100.321 E2.79915
G1 X92.096 Y100.479 E2.80347
G1 X92.070 Y100.734 E2.81051
G1 X92.933 Y101.597 E2.84393
G1 X92.642 Y101.994 E2.85739
G1 X92.544 Y102.032 E2.86028
G1 X92.421 Y101.997 E2.86379
G1 X91.926 Y101.503 E2.88295
G1 Z5.700 F7800.000
G1 E0.88295 F2400.00000
G92 E0
G1 X94.607 Y100.132 F7800.000
G1 E2.00000 F2400.00000
G1 F600
G1 X95.102 Y99.637 E2.01949
G1 X95.186 Y99.497 E2.02403
G1 X95.271 Y99.150 E2.03395
G1 X95.294 Y98.517 E2.05159
G1 X93.620 Y100.192 E2.11748
G1 X93.000 Y100.151 E2.13476
G1 X92.801 Y100.084 E2.14062
G1 X95.121 Y97.764 E2.23191
G1 X95.098 Y97.728 E2.23308
G1 X94.991 Y97.667 E2.23650
G1 X94.853 Y97.653 E2.24036
G1 X94.287 Y97.670 E2.25612
G1 X92.410 Y99.548 E2.33000
G1 X92.370 Y99.451 E2.33290
G1 X92.328 Y99.249 E2.33865
G1 X92.337 Y99.050 E2.34417
G1 X92.375 Y98.897 E2.34858
G1 X92.492 Y98.616 E2.35704
G1 X92.666 Y98.364 E2.36556
G1 X93.162 Y97.868 E2.38507
G1 Z6.000 F7800.000
G1 X94.244 Y98.298 F7800.000
G1 F600
G1 X94.739 Y98.792 E2.40476
G1 X94.614 Y99.606 F7800.000
G1 F600
G1 X93.256 Y98.262 E2.45854
G1 X93.119 Y98.327 E2.46279
G1 X93.009 Y98.444 E2.46730
G1 X92.930 Y98.607 E2.47240
G1 X92.927 Y98.745 E2.47629
G1 X92.991 Y98.904 E2.48113
G1 X93.063 Y98.993 E2.48437
G1 X93.558 Y99.488 E2.50406
G1 E0.50406 F2400.00000
G92 E0
M107
; Filament-specific end gcode 
;END gcode for filament

M104 S0 ; turn off temperature
G28 X0  ; home X axis
M84     ; disable motors

M140 S0 ; set bed temperature
; filament used = 82.8mm (0.6cm3)
; total filament cost = 0.0

; avoid_crossing_perimeters = 0
; bed_shape = 0x0,200x0,200x200,0x200
; bed_temperature = 0
; before_layer_gcode = 
; between_objects_gcode = 
; bridge_acceleration = 0
; bridge_fan_speed = 100
; brim_connections_width = 0
; brim_width = 0
; complete_objects = 0
; cooling = 1
; default_acceleration = 0
; disable_fan_first_layers = 3
; duplicate_distance = 6
; end_filament_gcode = "; Filament-specific end gcode \n;END gcode for filament\n"
; end_gcode = M104 S0 ; turn off temperature\nG28 X0  ; home X axis\nM84     ; disable motors\n
; extruder_clearance_height = 20
; extruder_clearance_radius = 20
; extruder_offset = 0x0
; extrusion_axis = E
; extrusion_multiplier = 1
; fan_always_on = 0
; fan_below_layer_time = 60
; filament_colour = #FFFFFF
; filament_cost = 0
; filament_density = 0
; filament_diameter = 3
; filament_max_volumetric_speed = 0
; filament_notes = ""
; first_layer_acceleration = 0
; first_layer_bed_temperature = 0
; first_layer_extrusion_width = 200%
; first_layer_speed = 30
; first_layer_temperature = 205
; gcode_arcs = 0
; gcode_comments = 0
; gcode_flavor = reprap
; has_heatbed = 1
; infill_acceleration = 0
; infill_first = 0
; interior_brim_width = 0
; layer_gcode = 
; max_fan_speed = 100
; max_layer_height = 0.3
; max_print_speed = 80
; max_volumetric_speed = 0
; min_fan_speed = 35
; min_layer_height = 0.15
; min_print_speed = 10
; min_skirt_length = 0
; notes = 
; nozzle_diameter = 0.5
; only_retract_when_crossing_perimeters = 1
; ooze_prevention = 0
; output_filename_format = [input_filename_base].gcode
; perimeter_acceleration = 0
; post_process = 
; pressure_advance = 0
; printer_notes = 
; resolution = 0
; retract_before_travel = 2
; retract_layer_change = 0
; retract_length = 2
; retract_length_toolchange = 10
; retract_lift = 0
; retract_lift_above = 0
; retract_lift_below = 0
; retract_restart_extra = 0
; retract_restart_extra_toolchange = 0
; retract_speed = 40
; skirt_distance = 6
; skirt_height = 1
; skirts = 0
; slowdown_below_layer_time = 5
; spiral_vase = 0
; standby_temperature_delta = -5
; start_filament_gcode = "; Filament gcode\n"
; start_gcode = G28 ; home all axes\nG1 Z5 F5000 ; lift nozzle\n
; temperature = 200
; threads = 8
; toolchange_gcode = 
; travel_speed = 130
; use_firmware_retraction = 0
; use_relative_e_distances = 0
; use_set_and_wait_bed = 0
; use_set_and_wait_extruder = 0
; use_volumetric_e = 0
; vibration_limit = 0
; wipe = 0
; z_offset = 0
; z_steps_per_mm = 0
; adaptive_slicing = 0
; adaptive_slicing_quality = 75%
; dont_support_bridges = 1
; extrusion_width = 0
; first_layer_height = 0.3
; infill_only_where_needed = 0
; interface_shells = 0
; layer_height = 0.3
; match_horizontal_surfaces = 0
; raft_layers = 0
; regions_overlap = 0
; seam_position = aligned
; sequential_print_priority = 0
; support_material = 0
; support_material_angle = 0
; support_material_buildplate_only = 0
; support_material_contact_distance = 0.2
; support_material_enforce_layers = 0
; support_material_extruder = 1
; support_material_extrusion_width = 0
; support_material_interface_extruder = 1
; support_material_interface_extrusion_width = 0
; support_material_interface_layers = 3
; support_material_interface_spacing = 0
; support_material_interface_speed = 100%
; support_material_max_layers = 0
; support_material_pattern = pillars
; support_material_spacing = 2.5
; support_material_speed = 60
; support_material_threshold = 60%
; xy_size_compensation = 0
; bottom_infill_pattern = rectilinear
; bottom_solid_layers = 0
; bridge_flow_ratio = 1
; bridge_speed = 60
; external_perimeter_extrusion_width = 0
; external_perimeter_speed = 50%
; external_perimeters_first = 0
; extra_perimeters = 1
; fill_angle = 45
; fill_density = 90%
; fill_gaps = 1
; fill_pattern = rectilinear
; gap_fill_speed = 20
; infill_every_layers = 1
; infill_extruder = 1
; infill_extrusion_width = 0
; infill_overlap = 55%
; infill_speed = 80
; overhangs = 1
; perimeter_extruder = 1
; perimeter_extrusion_width = 0
; perimeter_speed = 60
; perimeters = 0
; small_perimeter_speed = 15
; solid_infill_below_area = 70
; solid_infill_every_layers = 0
; solid_infill_extruder = 1
; solid_infill_extrusion_width = 0
; solid_infill_speed = 20
; thin_walls = 1
; top_infill_extrusion_width = 0
; top_infill_pattern = rectilinear
; top_solid_infill_speed = 15
; top_solid_layers = 0
