; generated by Slic3r 1.3.0 on 2020-02-25 at 13:36:54

; external perimeters extrusion width = 0.55mm (4.37mm^3/s)
; perimeters extrusion width = 0.70mm (11.44mm^3/s)
; infill extrusion width = 0.63mm (13.45mm^3/s)
; solid infill extrusion width = 0.70mm (3.81mm^3/s)
; top infill extrusion width = 0.70mm (2.86mm^3/s)

M107
M104 S205 ; set temperature
G28 ; home all axes
G1 Z5 F5000 ; lift nozzle

; Filament gcode

M109 S205 ; set temperature and wait for it to be reached
G21 ; set units to millimeters
G90 ; use absolute coordinates
M82 ; use absolute distances for extrusion
G92 E0
G1 Z0.300 F7800.000
G1 E-2.00000 F2400.00000
G92 E0
G1 X105.934 Y107.121 F7800.000
G1 E2.00000 F2400.00000
G1 F1800
G1 X106.199 Y107.547 E2.01141
G1 X105.481 Y107.636 E2.02784
G1 X105.885 Y107.177 E2.04173
G1 E0.04173 F2400.00000
G92 E0
G1 X108.303 Y98.708 F7800.000
G1 E2.00000 F2400.00000
G1 F1800
G1 X107.763 Y99.269 E2.01770
G1 X107.043 Y100.073 E2.04224
G1 X106.847 Y100.097 E2.04672
G1 X106.639 Y100.254 E2.05264
G1 X106.094 Y100.361 E2.06527
G1 X105.874 Y100.487 E2.07104
G1 X105.314 Y100.626 E2.08415
G1 X104.743 Y101.039 E2.10017
G1 X104.091 Y101.038 E2.11499
G1 X103.389 Y101.172 E2.13125
G1 X103.306 Y101.242 E2.13372
G1 X102.924 Y101.311 E2.14253
G1 X102.168 Y101.514 E2.16032
G1 X101.760 Y101.567 E2.16969
G1 X101.423 Y101.715 E2.17806
G1 X100.107 Y101.990 E2.20863
G1 X99.850 Y102.074 E2.21476
G1 X98.431 Y102.291 E2.24741
G1 X97.318 Y102.116 E2.27302
G1 X96.617 Y101.946 E2.28941
G1 X96.225 Y102.032 E2.29852
G1 X96.017 Y102.036 E2.30326
G1 X95.824 Y102.110 E2.30797
G1 X95.449 Y102.148 E2.31653
G1 X95.306 Y102.291 E2.32112
G1 X94.437 Y102.386 E2.34100
G1 X94.366 Y102.428 E2.34286
G1 X94.185 Y102.448 E2.34702
G1 X93.350 Y102.450 E2.36600
G1 X93.285 Y102.422 E2.36761
G1 X92.648 Y102.347 E2.38219
G1 X91.227 Y102.236 E2.41459
G1 X90.921 Y102.138 E2.42189
G1 X90.111 Y102.007 E2.44053
G1 X89.987 Y101.953 E2.44361
G1 X89.472 Y101.818 E2.45572
G1 X89.378 Y101.737 E2.45855
G1 X89.130 Y101.690 E2.46427
G1 X89.033 Y101.635 E2.46680
G1 X88.603 Y101.523 E2.47692
G1 X88.404 Y101.423 E2.48199
G1 X88.291 Y101.205 E2.48757
G1 X87.831 Y101.140 E2.49814
G1 X87.801 Y101.103 E2.49921
G1 X87.604 Y100.998 E2.50429
G1 X87.543 Y101.000 E2.50567
G1 X87.301 Y100.819 E2.51255
G1 X87.239 Y100.808 E2.51399
G1 X86.949 Y100.538 E2.52298
G1 X86.752 Y100.307 E2.52987
G1 X86.688 Y100.036 E2.53621
G1 X86.625 Y99.971 E2.53826
G1 X86.525 Y99.268 E2.55439
G1 X86.520 Y98.234 E2.57791
G1 X86.652 Y97.317 E2.59897
G1 X86.749 Y97.086 E2.60467
G1 X86.933 Y96.860 E2.61130
G1 X87.065 Y96.743 E2.61530
G1 X87.492 Y96.464 E2.62690
G1 X87.694 Y96.457 E2.63149
G1 X87.901 Y96.252 E2.63810
G1 X88.091 Y96.140 E2.64312
G1 X88.505 Y95.993 E2.65312
G1 X88.539 Y95.959 E2.65422
G1 X88.819 Y95.836 E2.66116
G1 X89.570 Y95.608 E2.67901
G1 X89.614 Y95.574 E2.68027
G1 X90.038 Y95.492 E2.69010
G1 X90.459 Y95.357 E2.70014
G1 X91.350 Y95.256 E2.72053
G1 X91.633 Y95.178 E2.72718
G1 X91.976 Y95.167 E2.73499
G1 X92.136 Y95.051 E2.73949
G1 X92.198 Y95.071 E2.74098
G1 X93.527 Y95.019 E2.77121
G1 X94.328 Y95.024 E2.78941
G1 X95.036 Y95.065 E2.80553
G1 X95.220 Y95.149 E2.81014
G1 X95.713 Y95.311 E2.82193
G1 X95.802 Y95.318 E2.82396
G1 X96.188 Y95.435 E2.83312
G1 X96.247 Y95.433 E2.83447
G1 X96.633 Y95.628 E2.84431
G1 X97.195 Y95.357 E2.85849
G1 X97.729 Y95.266 E2.87080
G1 X98.392 Y95.219 E2.88590
G1 X98.920 Y94.980 E2.89909
G1 X98.996 Y95.118 E2.90266
G1 X99.430 Y95.265 E2.91309
G1 X99.566 Y95.375 E2.91707
G1 X100.576 Y95.557 E2.94039
G1 X101.310 Y95.769 E2.95776
G1 X101.384 Y95.760 E2.95944
G1 X101.887 Y95.842 E2.97104
G1 X102.072 Y96.014 E2.97678
G1 X102.458 Y96.016 E2.98555
G1 X103.199 Y96.141 E3.00264
G1 X103.606 Y96.337 E3.01291
G1 X103.890 Y96.363 E3.01939
G1 X104.146 Y96.532 E3.02636
G1 X104.867 Y96.567 E3.04278
G1 X105.524 Y96.458 E3.05792
G1 X105.661 Y96.831 E3.06695
G1 X106.530 Y97.265 E3.08903
G1 X106.704 Y97.294 E3.09304
G1 X106.735 Y97.332 E3.09415
G1 X106.980 Y97.401 E3.09994
G1 X107.000 Y97.668 E3.10604
G1 X107.519 Y97.828 E3.11839
G1 X107.697 Y98.093 E3.12563
G1 X107.799 Y98.147 E3.12826
G1 X108.039 Y98.444 E3.13695
G1 X108.250 Y98.655 E3.14373
G1 X109.109 Y98.848 F7800.000
G1 F1800
G1 X108.924 Y98.924 E3.14828
G1 X108.571 Y99.203 E3.15851
G1 X108.156 Y99.632 E3.17207
G1 X107.351 Y100.522 E3.19935
G1 X107.246 Y100.588 E3.20217
G1 X107.055 Y100.611 E3.20656
G1 X106.894 Y100.732 E3.21113
G1 X106.750 Y100.785 E3.21461
G1 X106.284 Y100.869 E3.22538
G1 X106.075 Y100.989 E3.23085
G1 X105.544 Y101.121 E3.24330
G1 X105.116 Y101.431 E3.25531
G1 X104.976 Y101.791 E3.26411
G1 X104.723 Y101.575 E3.27169
G1 X104.141 Y101.573 E3.28490
G1 X103.627 Y101.672 E3.29681
G1 X103.542 Y101.743 E3.29934
G1 X103.042 Y101.834 E3.31090
G1 X102.450 Y101.993 E3.32483
G1 X102.433 Y102.020 E3.32555
G1 X101.905 Y102.088 E3.33765
G1 X101.524 Y102.256 E3.34712
G1 X101.482 Y102.298 E3.34846
G1 X101.367 Y102.272 E3.35115
G1 X100.926 Y102.357 E3.36134
G1 X100.750 Y102.425 E3.36564
G1 X100.692 Y102.437 E3.36699
G1 X100.647 Y102.422 E3.36805
G1 X100.246 Y102.508 E3.37737
G1 X99.975 Y102.597 E3.38386
G1 X98.691 Y102.793 E3.41339
G1 X98.660 Y102.870 E3.41526
G1 X97.213 Y102.641 E3.44858
G1 X96.611 Y102.496 E3.46264
G1 X96.289 Y102.567 E3.47016
G1 X96.121 Y102.570 E3.47397
G1 X95.949 Y102.636 E3.47816
G1 X95.693 Y102.662 E3.48401
G1 X95.573 Y102.781 E3.48785
G1 X95.355 Y102.824 E3.49291
G1 X94.609 Y102.906 E3.50996
G1 X94.539 Y102.948 E3.51182
G1 X94.215 Y102.984 E3.51923
G1 X93.240 Y102.986 E3.54139
G1 X93.172 Y102.957 E3.54308
G1 X92.591 Y102.880 E3.55641
G1 X91.122 Y102.765 E3.58988
G1 X90.796 Y102.660 E3.59768
G1 X89.959 Y102.525 E3.61696
G1 X89.811 Y102.460 E3.62062
G1 X89.216 Y102.305 E3.63460
G1 X89.137 Y102.237 E3.63697
G1 X88.943 Y102.200 E3.64146
G1 X88.830 Y102.136 E3.64443
G1 X88.413 Y102.027 E3.65422
G1 X88.018 Y101.845 E3.66410
G1 X87.942 Y101.696 E3.66789
G1 X87.638 Y101.653 E3.67487
G1 X87.457 Y101.539 E3.67974
G1 X87.271 Y101.466 E3.68428
G1 X87.079 Y101.323 E3.68972
G1 X86.987 Y101.305 E3.69186
G1 X86.562 Y100.908 E3.70508
G1 X86.262 Y100.557 E3.71558
G1 X86.201 Y100.303 E3.72151
G1 X86.117 Y100.217 E3.72425
G1 X86.018 Y99.474 E3.74128
G1 X85.991 Y99.434 E3.74239
G1 X85.984 Y98.114 E3.77239
G1 X86.062 Y97.731 E3.78129
G1 X86.094 Y97.360 E3.78975
G1 X86.139 Y97.154 E3.79453
G1 X86.272 Y96.838 E3.80233
G1 X86.546 Y96.487 E3.81245
G1 X86.767 Y96.292 E3.81915
G1 X87.324 Y95.934 E3.83421
G1 X87.466 Y95.929 E3.83744
G1 X87.607 Y95.789 E3.84196
G1 X87.700 Y95.755 E3.84421
G1 X87.852 Y95.657 E3.84833
G1 X88.208 Y95.531 E3.85691
G1 X88.643 Y95.311 E3.86797
G1 X88.683 Y95.317 E3.86890
G1 X89.319 Y95.124 E3.88401
G1 X89.386 Y95.073 E3.88593
G1 X89.905 Y94.972 E3.89796
G1 X90.346 Y94.831 E3.90849
G1 X91.248 Y94.728 E3.92912
G1 X91.551 Y94.645 E3.93627
G1 X91.794 Y94.637 E3.94179
G1 X91.916 Y94.549 E3.94520
G1 X92.218 Y94.515 E3.95212
G1 X92.271 Y94.532 E3.95338
G1 X93.519 Y94.483 E3.98176
G1 X95.004 Y94.513 E4.01554
G1 X95.225 Y94.552 E4.02064
G1 X95.465 Y94.666 E4.02667
G1 X95.818 Y94.782 E4.03511
G1 X95.900 Y94.788 E4.03699
G1 X96.261 Y94.897 E4.04557
G1 X96.369 Y94.895 E4.04802
G1 X96.638 Y95.031 E4.05488
G1 X97.017 Y94.848 E4.06444
G1 X97.286 Y94.787 E4.07071
G1 X97.673 Y94.733 E4.07960
G1 X98.258 Y94.692 E4.09293
G1 X98.682 Y94.500 E4.10351
G1 X98.803 Y94.286 E4.10910
G1 X99.030 Y94.061 E4.11636
G1 X99.366 Y94.678 E4.13234
G1 X99.692 Y94.789 E4.14017
G1 X99.796 Y94.872 E4.14320
G1 X100.857 Y95.063 E4.16770
G1 X100.886 Y95.096 E4.16871
G1 X101.349 Y95.224 E4.17964
G1 X101.413 Y95.216 E4.18111
G1 X102.013 Y95.319 E4.19495
G1 X102.102 Y95.310 E4.19698
G1 X102.284 Y95.479 E4.20262
G1 X102.548 Y95.481 E4.20862
G1 X103.024 Y95.577 E4.21967
G1 X103.355 Y95.621 E4.22725
G1 X103.752 Y95.812 E4.23727
G1 X104.072 Y95.842 E4.24458
G1 X104.318 Y96.004 E4.25127
G1 X104.836 Y96.030 E4.26307
G1 X105.364 Y95.942 E4.27523
G1 X105.767 Y95.563 E4.28779
G1 X106.091 Y96.447 E4.30918
G1 X106.697 Y96.749 E4.32459
G1 X106.996 Y96.799 E4.33147
G1 X107.047 Y96.863 E4.33332
G1 X107.485 Y96.987 E4.34369
G1 X107.507 Y97.264 E4.35001
G1 X107.859 Y97.372 E4.35839
G1 X108.066 Y97.681 E4.36684
G1 X108.146 Y97.723 E4.36889
G1 X108.438 Y98.086 E4.37948
G1 X108.712 Y98.360 E4.38829
G1 X108.874 Y98.460 E4.39262
G1 X109.070 Y98.784 E4.40123
G1 E2.40123 F2400.00000
G92 E0
G1 X107.383 Y93.167 F7800.000
G1 E2.00000 F2400.00000
G1 F1800
G1 X106.958 Y92.003 E2.02816
G1 X107.334 Y92.148 E2.03731
G1 X108.132 Y92.250 E2.05561
G1 X107.674 Y92.687 E2.07000
G1 X107.422 Y93.102 E2.08105
G1 E0.08105 F2400.00000
G92 E0
G1 X105.116 Y95.440 F7800.000
G1 E2.00000 F2400.00000
G1 F1800
G1 X105.525 Y95.055 E2.01277
G1 X105.640 Y94.799 E2.01915
G1 X105.663 Y94.686 E2.02177
G1 X105.770 Y94.611 E2.02474
G1 X105.804 Y94.451 E2.02846
G1 X105.907 Y94.274 E2.03312
G1 X106.211 Y93.789 E2.04613
G1 X106.669 Y93.126 E2.06443
G1 X106.729 Y92.937 E2.06895
G1 X106.568 Y92.496 E2.07962
G1 X106.302 Y92.330 E2.08675
G1 X105.567 Y92.212 E2.10368
G1 X105.497 Y92.132 E2.10610
G1 X105.043 Y92.020 E2.11674
G1 X104.934 Y92.019 E2.11921
G1 X104.727 Y91.948 E2.12420
G1 X104.689 Y91.894 E2.12569
G1 X104.341 Y91.766 E2.13414
G1 X104.258 Y91.773 E2.13602
G1 X104.086 Y91.703 E2.14024
G1 X103.992 Y91.631 E2.14294
G1 X103.507 Y91.450 E2.15471
G1 X103.465 Y91.451 E2.15568
G1 X103.346 Y91.388 E2.15873
G1 X103.132 Y91.394 E2.16361
G1 X102.808 Y91.494 E2.17132
G1 X102.201 Y91.786 E2.18664
G1 X101.846 Y91.480 E2.19728
G1 X101.372 Y91.301 E2.20881
G1 X101.683 Y91.101 E2.21723
G1 X101.801 Y90.809 E2.22440
G1 X101.853 Y90.366 E2.23452
G1 X102.049 Y90.509 E2.24004
G1 X102.354 Y90.562 E2.24706
G1 X102.502 Y90.653 E2.25103
G1 X102.720 Y90.693 E2.25605
G1 X102.881 Y90.771 E2.26012
G1 X103.397 Y90.757 E2.27187
G1 X103.960 Y90.778 E2.28468
G1 X104.013 Y90.765 E2.28591
G1 X104.214 Y90.787 E2.29050
G1 X104.319 Y90.841 E2.29320
G1 X104.530 Y90.908 E2.29822
G1 X104.839 Y90.920 E2.30526
G1 X105.212 Y90.982 E2.31386
G1 X105.301 Y90.970 E2.31588
G1 X105.534 Y91.020 E2.32132
G1 X105.644 Y91.108 E2.32452
G1 X106.185 Y91.209 E2.33702
G1 X106.277 Y91.206 E2.33912
G1 X106.446 Y91.254 E2.34312
G1 X106.604 Y91.339 E2.34720
G1 X106.751 Y91.386 E2.35069
G1 X106.838 Y91.448 E2.35312
G1 X107.271 Y91.549 E2.36323
G1 X107.466 Y91.625 E2.36799
G1 X107.908 Y91.681 E2.37811
G1 X108.179 Y91.411 E2.38682
G1 X108.264 Y91.369 E2.38897
G1 X108.329 Y91.281 E2.39146
G1 X108.467 Y91.171 E2.39547
G1 X108.579 Y91.160 E2.39803
G1 X108.961 Y90.881 E2.40878
G1 X108.834 Y91.432 E2.42165
G1 X108.740 Y91.559 E2.42523
G1 X108.742 Y91.718 E2.42884
G1 X108.666 Y91.973 E2.43488
G1 X108.838 Y92.286 E2.44300
G1 X109.203 Y92.643 E2.45462
G1 X108.691 Y92.640 E2.46628
G1 X108.556 Y92.710 E2.46973
G1 X108.420 Y92.716 E2.47283
G1 X108.095 Y93.026 E2.48303
G1 X107.879 Y93.382 E2.49252
G1 X107.704 Y93.622 E2.49926
G1 X107.647 Y93.743 E2.50230
G1 X107.270 Y94.286 E2.51732
G1 X107.193 Y94.390 E2.52026
G1 X107.073 Y94.400 E2.52300
G1 X107.017 Y94.622 E2.52821
G1 X106.384 Y95.390 E2.55084
G1 X106.374 Y95.665 E2.55709
G1 X106.520 Y96.062 E2.56672
G1 X106.865 Y96.234 E2.57547
G1 X107.247 Y96.298 E2.58429
G1 X107.305 Y96.327 E2.58575
G1 X107.359 Y96.394 E2.58771
G1 X107.991 Y96.572 E2.60264
G1 X108.013 Y96.859 E2.60918
G1 X108.199 Y96.917 E2.61360
G1 X108.434 Y97.270 E2.62325
G1 X108.492 Y97.300 E2.62473
G1 X108.837 Y97.727 E2.63723
G1 X109.047 Y97.937 E2.64397
G1 X109.266 Y98.072 E2.64981
G1 X109.323 Y98.168 E2.65235
G1 X109.719 Y98.250 E2.66155
G1 X110.490 Y98.195 E2.67911
G1 X110.709 Y98.207 E2.68409
G1 X111.054 Y98.298 E2.69220
G1 X111.140 Y98.284 E2.69419
G1 X111.479 Y98.340 E2.70200
G1 X111.518 Y98.381 E2.70327
G1 X111.712 Y98.433 E2.70783
G1 X111.789 Y98.423 E2.70960
G1 X112.369 Y98.497 E2.72289
G1 X112.447 Y98.485 E2.72469
G1 X113.047 Y98.581 E2.73849
G1 X113.218 Y98.650 E2.74269
G1 X113.486 Y98.713 E2.74895
G1 X113.983 Y98.918 E2.76116
G1 X114.271 Y99.086 E2.76874
G1 X114.402 Y99.134 E2.77191
G1 X114.615 Y99.304 E2.77812
G1 X114.975 Y99.688 E2.79008
G1 X115.079 Y99.770 E2.79309
G1 X115.189 Y99.939 E2.79768
G1 X115.430 Y100.438 E2.81027
G1 X115.468 Y100.601 E2.81409
G1 X115.551 Y100.813 E2.81924
G1 X115.593 Y100.869 E2.82086
G1 X115.657 Y101.103 E2.82635
G1 X115.716 Y101.452 E2.83440
G1 X115.744 Y101.816 E2.84269
G1 X115.724 Y102.372 E2.85536
G1 X115.635 Y102.884 E2.86717
G1 X115.580 Y103.066 E2.87148
G1 X115.513 Y103.171 E2.87432
G1 X115.457 Y103.376 E2.87915
G1 X115.237 Y103.755 E2.88912
G1 X115.064 Y103.946 E2.89497
G1 X114.769 Y104.161 E2.90326
G1 X114.594 Y104.182 E2.90727
G1 X114.498 Y104.258 E2.91005
G1 X114.381 Y104.288 E2.91280
G1 X114.134 Y104.315 E2.91844
G1 X113.824 Y104.299 E2.92551
G1 X113.811 Y104.242 E2.92684
G1 X113.438 Y104.181 E2.93543
G1 X113.308 Y104.112 E2.93879
G1 X113.234 Y104.108 E2.94048
G1 X112.873 Y103.851 E2.95054
G1 X112.883 Y103.838 E2.95091
G1 X112.834 Y103.789 E2.95247
G1 X113.048 Y103.563 E2.95955
G1 X113.183 Y103.682 E2.96365
G1 X113.382 Y103.800 E2.96891
G1 X113.575 Y103.860 E2.97351
G1 X113.743 Y103.876 E2.97735
G1 X113.892 Y103.996 E2.98169
G1 X114.107 Y103.885 E2.98719
G1 X114.403 Y103.841 E2.99401
G1 X114.693 Y103.730 E3.00106
G1 X114.917 Y103.475 E3.00877
G1 X114.995 Y103.330 E3.01251
G1 X115.063 Y103.145 E3.01700
G1 X115.050 Y103.019 E3.01987
G1 X115.086 Y102.841 E3.02401
G1 X115.139 Y102.844 E3.02522
G1 X115.175 Y102.398 E3.03540
G1 X115.163 Y102.396 E3.03568
G1 X115.193 Y101.815 E3.04892
G1 X115.181 Y101.578 E3.05431
G1 X115.134 Y101.293 E3.06087
G1 X115.150 Y101.123 E3.06475
G1 X115.044 Y100.947 E3.06942
G1 X114.832 Y100.415 E3.08246
G1 X114.612 Y100.055 E3.09204
G1 X114.407 Y99.800 E3.09948
G1 X114.068 Y99.612 E3.10830
G1 X113.784 Y99.506 E3.11518
G1 X113.660 Y99.429 E3.11850
G1 X113.249 Y99.337 E3.12807
G1 X113.164 Y99.344 E3.13000
G1 X112.795 Y99.278 E3.13852
G1 X112.512 Y99.251 E3.14498
G1 X112.365 Y99.196 E3.14856
G1 X112.116 Y99.224 E3.15426
G1 X111.720 Y99.202 E3.16326
G1 X111.603 Y99.149 E3.16619
G1 X111.302 Y99.168 E3.17304
G1 X111.060 Y99.138 E3.17860
G1 X110.969 Y99.213 E3.18127
G1 X110.711 Y99.284 E3.18736
G1 X110.565 Y99.300 E3.19069
G1 X109.771 Y99.242 E3.20880
G1 X109.488 Y99.272 E3.21527
G1 X109.197 Y99.391 E3.22242
G1 X108.931 Y99.601 E3.23012
G1 X108.550 Y99.995 E3.24257
G1 X107.908 Y100.723 E3.26463
G1 X107.658 Y100.973 E3.27267
G1 X107.581 Y101.006 E3.27459
G1 X107.479 Y101.086 E3.27753
G1 X107.262 Y101.126 E3.28254
G1 X107.152 Y101.208 E3.28567
G1 X106.843 Y101.321 E3.29315
G1 X106.474 Y101.378 E3.30163
G1 X106.277 Y101.491 E3.30680
G1 X105.773 Y101.616 E3.31860
G1 X105.558 Y101.771 E3.32464
G1 X105.432 Y102.098 E3.33259
G1 X105.410 Y102.264 E3.33641
G1 X105.513 Y102.527 E3.34281
G1 X105.580 Y102.664 E3.34629
G1 X105.639 Y102.733 E3.34836
G1 X105.781 Y103.161 E3.35861
G1 X105.821 Y103.206 E3.35997
G1 X105.898 Y103.439 E3.36555
G1 X105.893 Y103.509 E3.36714
G1 X105.956 Y103.725 E3.37226
G1 X106.010 Y103.813 E3.37462
G1 X106.116 Y104.212 E3.38400
G1 X106.106 Y104.268 E3.38529
G1 X106.191 Y104.740 E3.39619
G1 X106.253 Y104.833 E3.39873
G1 X106.412 Y105.737 E3.41960
G1 X106.480 Y106.296 E3.43240
G1 X106.538 Y107.079 E3.45024
G1 X106.653 Y107.263 E3.45517
G1 X106.983 Y107.570 E3.46542
G1 X107.124 Y107.607 E3.46873
G1 X107.123 Y107.855 E3.47438
G1 X106.556 Y108.001 E3.48768
G1 X106.526 Y108.053 E3.48904
G1 X106.400 Y108.081 E3.49198
G1 X106.340 Y108.070 E3.49336
G1 X105.776 Y108.139 E3.50628
G1 X105.195 Y108.176 E3.51951
G1 X104.534 Y108.207 E3.53455
G1 X104.380 Y108.188 E3.53808
G1 X104.130 Y108.246 E3.54391
G1 X104.077 Y108.278 E3.54532
G1 X103.908 Y108.303 E3.54922
G1 X103.767 Y108.301 E3.55242
G1 X103.668 Y108.251 E3.55494
G1 X103.377 Y108.205 E3.56165
G1 X102.375 Y108.159 E3.58445
G1 X101.636 Y108.085 E3.60133
G1 X101.562 Y108.093 E3.60302
G1 X101.161 Y108.018 E3.61229
G1 X100.849 Y108.073 E3.61950
G1 X100.736 Y108.139 E3.62248
G1 X100.519 Y108.188 E3.62752
G1 X100.370 Y108.299 E3.63176
G1 X100.248 Y108.312 E3.63453
G1 X99.954 Y108.687 E3.64537
G1 X99.927 Y108.177 E3.65699
G1 X99.851 Y108.074 E3.65988
G1 X99.739 Y107.740 E3.66788
G1 X99.487 Y107.698 E3.67370
G1 X99.881 Y107.360 E3.68552
G1 X99.883 Y106.747 E3.69944
G1 X100.239 Y107.137 E3.71144
G1 X100.541 Y107.215 E3.71854
G1 X100.593 Y107.201 E3.71977
G1 X100.652 Y107.261 E3.72166
G1 X100.702 Y107.262 E3.72281
G1 X100.798 Y107.343 E3.72566
G1 X101.119 Y107.412 E3.73312
G1 X101.281 Y107.413 E3.73679
G1 X101.768 Y107.312 E3.74812
G1 X103.309 Y107.210 E3.78322
G1 X103.339 Y107.194 E3.78400
G1 X103.629 Y107.191 E3.79059
G1 X103.808 Y107.174 E3.79468
G1 X103.881 Y107.141 E3.79649
G1 X104.404 Y107.149 E3.80839
G1 X104.498 Y107.217 E3.81102
G1 X104.891 Y107.206 E3.81996
G1 X105.117 Y107.239 E3.82516
G1 X105.485 Y106.821 E3.83782
G1 X105.368 Y106.118 E3.85400
G1 X105.299 Y106.017 E3.85679
G1 X105.251 Y105.855 E3.86063
G1 X105.100 Y104.882 E3.88301
G1 X105.107 Y104.738 E3.88630
G1 X105.068 Y104.631 E3.88888
G1 X105.052 Y104.503 E3.89182
G1 X104.981 Y103.576 E3.91296
G1 X104.974 Y103.201 E3.92149
G1 X104.994 Y102.674 E3.93346
G1 X104.958 Y102.481 E3.93794
G1 X104.524 Y102.110 E3.95091
G1 X104.192 Y102.109 E3.95847
G1 X103.865 Y102.171 E3.96602
G1 X103.723 Y102.292 E3.97026
G1 X103.595 Y102.278 E3.97319
G1 X103.159 Y102.357 E3.98325
G1 X102.792 Y102.455 E3.99188
G1 X102.753 Y102.518 E3.99357
G1 X102.051 Y102.609 E4.00967
G1 X101.830 Y102.707 E4.01515
G1 X101.778 Y102.758 E4.01681
G1 X101.560 Y102.809 E4.02190
G1 X101.437 Y102.836 E4.02478
G1 X101.359 Y102.819 E4.02660
G1 X101.074 Y102.874 E4.03318
G1 X100.902 Y102.940 E4.03738
G1 X100.386 Y103.026 E4.04926
G1 X100.100 Y103.120 E4.05611
G1 X99.074 Y103.276 E4.07970
G1 X98.893 Y103.728 E4.09075
G1 X98.854 Y103.765 E4.09198
G1 X98.707 Y104.286 E4.10428
G1 X98.640 Y104.402 E4.10732
G1 X98.612 Y104.607 E4.11204
G1 X98.491 Y104.983 E4.12101
G1 X98.427 Y105.059 E4.12327
G1 X98.413 Y105.210 E4.12671
G1 X98.252 Y105.663 E4.13763
G1 X97.786 Y106.804 E4.16565
G1 X97.358 Y107.692 E4.18805
G1 X97.261 Y107.783 E4.19109
G1 X97.229 Y107.929 E4.19449
G1 X97.144 Y108.081 E4.19843
G1 X97.020 Y108.284 E4.20386
G1 X96.754 Y108.562 E4.21258
G1 X96.468 Y108.734 E4.22018
G1 X96.317 Y108.757 E4.22365
G1 X96.192 Y108.887 E4.22774
G1 X96.122 Y108.924 E4.22954
G1 X95.930 Y108.936 E4.23392
G1 X95.807 Y109.083 E4.23828
G1 X95.738 Y109.084 E4.23985
G1 X95.440 Y109.187 E4.24700
G1 X95.274 Y109.310 E4.25171
G1 X95.143 Y109.352 E4.25485
G1 X94.815 Y109.509 E4.26310
G1 X94.749 Y109.561 E4.26503
G1 X94.537 Y109.646 E4.27021
G1 X94.432 Y109.653 E4.27260
G1 X94.286 Y109.710 E4.27616
G1 X94.147 Y109.725 E4.27933
G1 X94.031 Y109.841 E4.28305
G1 X93.953 Y109.840 E4.28483
G1 X93.835 Y109.881 E4.28768
G1 X93.768 Y109.883 E4.28919
G1 X93.286 Y110.047 E4.30077
G1 X93.271 Y110.069 E4.30137
G1 X92.783 Y110.179 E4.31276
G1 X92.473 Y110.342 E4.32072
G1 X92.302 Y110.388 E4.32474
G1 X92.237 Y110.376 E4.32624
G1 X91.981 Y110.420 E4.33216
G1 X91.564 Y110.513 E4.34187
G1 X91.441 Y110.588 E4.34513
G1 X91.074 Y110.652 E4.35360
G1 X90.944 Y110.640 E4.35657
G1 X90.413 Y110.681 E4.36868
G1 X90.240 Y110.769 E4.37309
G1 X90.010 Y110.843 E4.37860
G1 X89.842 Y111.105 E4.38567
G1 X89.787 Y111.102 E4.38691
G1 X89.655 Y111.164 E4.39023
G1 X89.590 Y111.172 E4.39172
G1 X89.359 Y111.260 E4.39735
G1 X88.952 Y111.596 E4.40934
G1 X88.991 Y111.235 E4.41760
G1 X88.927 Y111.159 E4.41987
G1 X88.903 Y110.987 E4.42382
G1 X88.742 Y110.912 E4.42785
G1 X88.658 Y110.841 E4.43035
G1 X88.535 Y110.569 E4.43713
G1 X88.916 Y110.374 E4.44687
G1 X88.860 Y109.945 E4.45669
G1 X89.464 Y110.150 E4.47120
G1 X89.872 Y110.395 E4.48203
G1 X90.071 Y110.431 E4.48662
G1 X90.455 Y110.298 E4.49585
G1 X90.728 Y110.143 E4.50298
G1 X90.828 Y110.054 E4.50603
G1 X90.894 Y110.053 E4.50751
G1 X91.105 Y109.921 E4.51319
G1 X91.187 Y109.831 E4.51595
G1 X91.629 Y109.598 E4.52730
G1 X91.670 Y109.578 E4.52834
G1 X91.777 Y109.572 E4.53079
G1 X91.928 Y109.483 E4.53475
G1 X92.006 Y109.479 E4.53653
G1 X92.071 Y109.414 E4.53860
G1 X92.216 Y109.369 E4.54206
G1 X92.375 Y109.273 E4.54629
G1 X92.678 Y109.176 E4.55352
G1 X92.763 Y109.090 E4.55627
G1 X92.842 Y109.091 E4.55807
G1 X93.140 Y108.965 E4.56542
G1 X93.182 Y108.919 E4.56683
G1 X93.344 Y108.857 E4.57079
G1 X93.421 Y108.862 E4.57253
G1 X93.680 Y108.772 E4.57876
G1 X94.031 Y108.611 E4.58755
G1 X94.340 Y108.559 E4.59467
G1 X94.686 Y108.438 E4.60301
G1 X94.710 Y108.396 E4.60411
G1 X95.011 Y108.310 E4.61120
G1 X95.103 Y108.318 E4.61331
G1 X95.441 Y108.231 E4.62125
G1 X95.605 Y108.218 E4.62498
G1 X95.717 Y108.130 E4.62821
G1 X96.094 Y108.049 E4.63699
G1 X96.432 Y107.773 E4.64691
G1 X96.518 Y107.611 E4.65108
G1 X96.523 Y107.477 E4.65412
G1 X96.643 Y106.959 E4.66621
G1 X96.742 Y106.589 E4.67492
G1 X96.811 Y106.505 E4.67739
G1 X96.919 Y105.984 E4.68948
G1 X97.068 Y105.644 E4.69793
G1 X97.110 Y105.487 E4.70161
G1 X97.109 Y105.411 E4.70334
G1 X97.196 Y105.167 E4.70922
G1 X97.268 Y105.085 E4.71170
G1 X97.281 Y104.938 E4.71506
G1 X97.707 Y103.887 E4.74085
G1 X97.716 Y103.697 E4.74516
G1 X97.972 Y103.303 E4.75584
G1 X97.108 Y103.167 E4.77572
G1 X96.606 Y103.045 E4.78746
G1 X96.352 Y103.102 E4.79338
G1 X96.225 Y103.104 E4.79626
G1 X96.074 Y103.162 E4.79993
G1 X95.936 Y103.176 E4.80308
G1 X95.820 Y103.292 E4.80683
G1 X94.782 Y103.426 E4.83061
G1 X94.712 Y103.467 E4.83247
G1 X94.482 Y103.493 E4.83772
G1 X94.466 Y103.519 E4.83840
G1 X93.267 Y103.522 E4.86567
G1 X93.173 Y103.540 E4.86785
G1 X93.059 Y103.491 E4.87067
G1 X92.889 Y103.489 E4.87454
G1 X92.853 Y103.456 E4.87563
G1 X92.533 Y103.413 E4.88298
G1 X91.114 Y103.302 E4.91533
G1 X91.005 Y103.309 E4.91782
G1 X90.931 Y103.296 E4.91954
G1 X90.869 Y103.247 E4.92133
G1 X90.670 Y103.183 E4.92608
G1 X89.995 Y103.074 E4.94163
G1 X89.915 Y103.091 E4.94349
G1 X89.635 Y102.968 E4.95045
G1 X89.166 Y102.845 E4.96147
G1 X89.025 Y102.848 E4.96467
G1 X88.897 Y102.737 E4.96853
G1 X88.756 Y102.710 E4.97178
G1 X88.626 Y102.636 E4.97518
G1 X88.367 Y102.568 E4.98127
G1 X88.302 Y102.570 E4.98274
G1 X87.952 Y102.395 E4.99165
G1 X87.634 Y102.268 E4.99943
G1 X87.593 Y102.188 E5.00147
G1 X87.449 Y102.168 E5.00477
G1 X87.310 Y102.080 E5.00851
G1 X87.216 Y102.083 E5.01065
G1 X87.142 Y101.992 E5.01332
G1 X87.005 Y101.936 E5.01667
G1 X86.858 Y101.826 E5.02085
G1 X86.730 Y101.802 E5.02382
G1 X86.655 Y101.750 E5.02588
G1 X86.581 Y101.659 E5.02855
G1 X86.174 Y101.279 E5.04120
G1 X85.876 Y100.930 E5.05165
G1 X85.811 Y100.878 E5.05354
G1 X85.771 Y100.807 E5.05540
G1 X85.714 Y100.571 E5.06092
G1 X85.610 Y100.463 E5.06433
G1 X85.504 Y99.670 E5.08251
G1 X85.456 Y99.600 E5.08445
G1 X85.453 Y97.950 E5.12195
G1 X85.492 Y97.889 E5.12360
G1 X85.531 Y97.663 E5.12881
G1 X85.563 Y97.279 E5.13757
G1 X85.601 Y97.109 E5.14152
G1 X85.592 Y97.060 E5.14265
G1 X85.671 Y96.844 E5.14788
G1 X85.699 Y96.819 E5.14874
G1 X85.794 Y96.591 E5.15436
G1 X85.876 Y96.460 E5.15786
G1 X86.158 Y96.115 E5.16800
G1 X86.509 Y95.805 E5.17863
G1 X86.564 Y95.791 E5.17991
G1 X86.852 Y95.602 E5.18776
G1 X86.877 Y95.556 E5.18895
G1 X86.927 Y95.549 E5.19008
G1 X87.159 Y95.403 E5.19632
G1 X87.238 Y95.401 E5.19812
G1 X87.314 Y95.326 E5.20054
G1 X87.460 Y95.273 E5.20407
G1 X87.614 Y95.173 E5.20824
G1 X87.911 Y95.068 E5.21540
G1 X87.991 Y94.985 E5.21802
G1 X88.087 Y94.987 E5.22020
G1 X88.315 Y94.887 E5.22587
G1 X88.391 Y94.822 E5.22814
G1 X88.565 Y94.759 E5.23235
G1 X88.641 Y94.770 E5.23410
G1 X89.068 Y94.641 E5.24424
G1 X89.172 Y94.560 E5.24724
G1 X89.772 Y94.452 E5.26109
G1 X90.076 Y94.355 E5.26833
G1 X90.132 Y94.302 E5.27008
G1 X90.207 Y94.286 E5.27184
G1 X90.307 Y94.296 E5.27412
G1 X91.146 Y94.201 E5.29332
G1 X91.441 Y94.113 E5.30031
G1 X91.613 Y94.107 E5.30422
G1 X91.716 Y94.032 E5.30711
G1 X92.272 Y93.970 E5.31983
G1 X92.344 Y93.993 E5.32155
G1 X93.510 Y93.947 E5.34808
G1 X94.362 Y93.953 E5.36746
G1 X94.914 Y93.985 E5.38002
G1 X95.003 Y93.968 E5.38206
G1 X95.420 Y94.043 E5.39170
G1 X95.518 Y94.103 E5.39432
G1 X95.922 Y94.253 E5.40411
G1 X95.998 Y94.258 E5.40584
G1 X96.335 Y94.360 E5.41384
G1 X96.491 Y94.357 E5.41739
G1 X96.643 Y94.433 E5.42127
G1 X96.839 Y94.339 E5.42622
G1 X97.190 Y94.259 E5.43439
G1 X97.618 Y94.200 E5.44421
G1 X98.125 Y94.164 E5.45577
G1 X98.301 Y94.084 E5.46017
G1 X98.373 Y93.958 E5.46347
G1 X98.512 Y93.820 E5.46794
G1 X98.570 Y93.626 E5.47254
G1 X98.505 Y92.855 E5.49013
G1 X98.470 Y92.120 E5.50684
G1 X98.445 Y92.034 E5.50889
G1 X98.465 Y91.349 E5.52446
G1 X98.444 Y91.259 E5.52657
G1 X98.479 Y90.206 E5.55052
G1 X98.521 Y90.060 E5.55397
G1 X98.567 Y89.503 E5.56668
G1 X97.970 Y89.300 E5.58102
G1 X97.819 Y89.432 E5.58558
G1 X97.773 Y89.427 E5.58664
G1 X96.898 Y89.598 E5.60690
G1 X96.782 Y89.705 E5.61050
G1 X95.987 Y89.866 E5.62892
G1 X95.893 Y89.850 E5.63110
G1 X95.584 Y89.874 E5.63814
G1 X95.433 Y89.959 E5.64209
G1 X95.002 Y90.021 E5.65197
G1 X94.917 Y90.004 E5.65394
G1 X93.970 Y90.066 E5.67554
G1 X92.621 Y90.097 E5.70620
G1 X92.497 Y90.069 E5.70909
G1 X92.302 Y90.107 E5.71360
G1 X91.999 Y90.267 E5.72138
G1 X91.854 Y90.472 E5.72709
G1 X91.512 Y90.649 E5.73584
G1 X91.116 Y90.908 E5.74660
G1 X90.792 Y90.390 E5.76047
G1 X90.610 Y90.330 E5.76483
G1 X90.818 Y89.441 E5.78558
G1 X91.006 Y89.595 E5.79111
G1 X91.110 Y89.576 E5.79350
G1 X91.169 Y89.616 E5.79512
G1 X91.461 Y89.638 E5.80178
G1 X91.619 Y89.667 E5.80545
G1 X91.735 Y89.721 E5.80835
G1 X92.151 Y89.783 E5.81791
G1 X92.275 Y89.722 E5.82105
G1 X92.368 Y89.711 E5.82318
G1 X92.821 Y89.485 E5.83467
G1 X93.189 Y89.390 E5.84332
G1 X93.532 Y89.244 E5.85179
G1 X93.698 Y89.195 E5.85573
G1 X93.769 Y89.210 E5.85740
G1 X94.042 Y89.157 E5.86370
G1 X94.339 Y89.058 E5.87083
G1 X94.374 Y89.014 E5.87210
G1 X94.576 Y88.965 E5.87682
G1 X94.683 Y88.970 E5.87925
G1 X95.119 Y88.903 E5.88929
G1 X95.505 Y88.794 E5.89841
G1 X95.518 Y88.758 E5.89927
G1 X95.679 Y88.764 E5.90293
G1 X96.020 Y88.718 E5.91076
G1 X97.082 Y88.634 E5.93498
G1 X97.296 Y88.600 E5.93990
G1 X97.447 Y88.516 E5.94381
G1 X98.445 Y88.470 E5.96652
G1 X98.738 Y88.316 E5.97406
G1 X98.939 Y87.809 E5.98645
G1 X99.169 Y87.820 E5.99167
G1 X99.336 Y88.398 E6.00535
G1 X99.411 Y88.931 E6.01758
G1 X99.452 Y89.019 E6.01979
G1 X99.583 Y90.274 E6.04847
G1 X99.568 Y90.327 E6.04971
G1 X99.595 Y91.490 E6.07616
G1 X99.575 Y92.699 E6.10366
G1 X99.588 Y92.778 E6.10547
G1 X99.500 Y93.803 E6.12887
G1 X99.736 Y94.238 E6.14012
G1 X99.954 Y94.312 E6.14535
G1 X100.025 Y94.369 E6.14743
G1 X101.138 Y94.569 E6.17312
G1 X101.184 Y94.623 E6.17474
G1 X101.388 Y94.680 E6.17956
G1 X101.452 Y94.672 E6.18102
G1 X102.029 Y94.779 E6.19435
G1 X102.147 Y94.767 E6.19706
G1 X102.357 Y94.816 E6.20197
G1 X102.496 Y94.945 E6.20626
G1 X102.638 Y94.945 E6.20949
G1 X102.748 Y94.983 E6.21213
G1 X103.396 Y95.086 E6.22705
G1 X103.442 Y95.068 E6.22817
G1 X103.897 Y95.288 E6.23967
G1 X104.255 Y95.322 E6.24782
G1 X104.490 Y95.476 E6.25422
G1 X104.805 Y95.492 E6.26140
G1 X105.042 Y95.452 E6.26685
G1 X105.548 Y95.691 F7800.000
G1 E4.26685 F2400.00000
G92 E0
G1 X99.211 Y107.451 F7800.000
G1 E2.00000 F2400.00000
G1 F1800
G1 X98.241 Y107.966 E2.00644
G1 X99.586 Y108.901 F7800.000
G1 F1800
G1 X99.561 Y109.362 E2.01003
G1 X99.574 Y109.515 E2.01122
G1 X99.591 Y109.539 E2.01145
G1 F1800
G1 X99.643 Y109.577 E2.01178
G1 X99.873 Y109.569 E2.01299
G1 X99.956 Y109.293 F7800.000
G1 F1800
G1 X99.798 Y109.517 E2.01438
G1 X99.567 Y109.650 E2.01573
G1 E0.01573 F2400.00000
G92 E0
G1 X87.577 Y110.768 F7800.000
G1 E2.00000 F2400.00000
G1 F1800
G1 X87.483 Y110.785 E2.00166
G1 F1800
G1 X87.438 Y110.793 E2.00230
G1 E0.00230 F2400.00000
G92 E0
G1 X112.863 Y102.182 F7800.000
G1 E2.00000 F2400.00000
G1 F1800
G1 X112.697 Y102.443 E2.00704
G1 X112.676 Y102.830 E2.01586
G1 X112.773 Y103.290 E2.02654
G1 X112.515 Y103.387 E2.03282
G1 X112.400 Y103.181 E2.03817
G1 X112.345 Y102.993 E2.04264
G1 X112.347 Y102.546 E2.05280
G1 X112.396 Y102.286 E2.05881
G1 X112.445 Y102.170 E2.06167
G1 X112.526 Y102.030 E2.06534
G1 X112.639 Y101.892 E2.06940
G1 X112.777 Y101.775 E2.07352
G1 X112.931 Y101.716 E2.07728
G1 X113.123 Y101.679 E2.08172
G1 X113.250 Y101.700 E2.08466
G1 X113.442 Y101.772 E2.08931
G1 X113.579 Y101.841 E2.09280
G1 X113.715 Y101.952 E2.09679
G1 X113.629 Y102.170 E2.10212
G1 X113.166 Y102.140 E2.11267
G1 X112.937 Y102.171 E2.11792
G1 X112.575 Y102.069 F7800.000
G1 X114.133 Y102.414 F7800.000
G1 F1800
G1 X114.157 Y102.422 E2.11841
G1 F1800
G1 X114.206 Y102.439 E2.11924
G1 F1800
G1 X114.257 Y102.460 E2.11999
G1 F1800
G1 X114.334 Y102.486 E2.12084
G1 E0.12084 F2400.00000
G92 E0
G1 X113.719 Y99.134 F7800.000
G1 E2.00000 F2400.00000
G1 F1800
G1 X113.419 Y99.039 E2.00074
G1 X113.100 Y98.978 E2.00150
G1 F1800
G1 X112.949 Y98.935 E2.00237
G1 X112.596 Y98.886 E2.00433
G1 X112.444 Y98.846 E2.00520
G1 X112.105 Y98.844 E2.00706
G1 X111.790 Y98.811 E2.00880
G1 X111.544 Y98.776 F7800.000
G1 F1800
G1 X111.315 Y98.753 E2.01061
G1 F1800
G1 X111.271 Y98.736 E2.01110
G1 X111.498 Y98.653 F7800.000
G1 F1800
G1 X110.608 Y98.747 E2.02968
G1 X110.020 Y98.744 E2.04189
G1 F1800
G1 X109.353 Y98.734 E2.05404
G1 E0.05404 F2400.00000
G92 E0
G1 X111.544 Y98.776 F7800.000
G1 E2.00000 F2400.00000
G1 F1800
G1 X112.452 Y98.943 E2.00482
G1 E0.00482 F2400.00000
G92 E0
G1 X106.570 Y99.774 F7800.000
G1 E2.00000 F2400.00000
G1 F1800
G1 X106.988 Y99.356 E2.01381
G1 X107.770 Y98.497 E2.04095
G1 X107.661 Y98.362 E2.04500
G1 X107.536 Y98.297 E2.04830
G1 X107.429 Y98.137 E2.05280
G1 X105.342 Y100.224 E2.12175
G1 X104.876 Y100.339 E2.13295
G1 X104.362 Y100.711 E2.14778
G1 X104.077 Y100.711 E2.15444
G1 X106.871 Y97.916 E2.24674
G1 X106.703 Y97.864 E2.25085
G1 X106.683 Y97.607 E2.25689
G1 X106.482 Y97.527 E2.26193
G1 X103.173 Y100.836 E2.37125
G1 X102.942 Y100.881 E2.37673
G1 X102.861 Y100.949 E2.37920
G1 X102.599 Y100.996 E2.38543
G1 X102.101 Y101.130 E2.39746
G1 X105.963 Y97.268 E2.52502
G1 X105.444 Y97.009 E2.53857
G1 X101.039 Y101.413 E2.68405
G1 X100.056 Y101.618 E2.70752
G1 X104.793 Y96.881 E2.86398
G1 X104.182 Y96.851 E2.87826
G1 X104.099 Y96.797 E2.88058
G1 X99.067 Y101.829 E3.04678
G1 X98.224 Y101.957 E3.06672
G1 X98.169 Y101.949 E3.06801
G1 X103.531 Y96.587 E3.24513
G1 X103.243 Y96.448 E3.25259
G1 X102.942 Y96.397 E3.25972
G1 X97.497 Y101.843 E3.43959
G1 X97.214 Y101.798 E3.44627
G1 X96.851 Y101.710 E3.45500
G1 X102.220 Y96.341 E3.63235
G1 X102.068 Y96.340 E3.63591
G1 X101.849 Y96.136 E3.64290
G1 X101.675 Y96.108 E3.64701
G1 X96.112 Y101.671 E3.83078
G1 X95.954 Y101.706 E3.83455
G1 X95.705 Y101.711 E3.84037
G1 X95.491 Y101.793 E3.84573
G1 X95.181 Y101.824 E3.85300
G1 X101.028 Y95.977 E4.04614
G1 X100.662 Y95.871 E4.05504
G1 X100.402 Y95.824 E4.06120
G1 X94.163 Y102.063 E4.26728
G1 X94.056 Y102.075 E4.26980
G1 X93.946 Y102.121 E4.27259
G1 X93.326 Y102.123 E4.28707
G1 X99.743 Y95.705 E4.49903
G1 X99.545 Y95.670 E4.50372
G1 X99.376 Y95.534 E4.50879
G1 X99.197 Y95.473 E4.51321
G1 X92.631 Y102.039 E4.73007
G1 X91.915 Y101.977 E4.74687
G1 X98.324 Y95.567 E4.95859
G1 X98.001 Y95.590 E4.96615
G1 X97.568 Y95.664 E4.97642
G1 X97.339 Y95.774 E4.98234
G1 X91.193 Y101.921 E5.18537
G1 X91.122 Y101.915 E5.18702
G1 X90.838 Y101.824 E5.19399
G1 X90.557 Y101.779 E5.20065
G1 X96.492 Y95.843 E5.39669
G1 X96.333 Y95.763 E5.40084
G1 X95.916 Y95.641 E5.41100
G1 X89.914 Y101.643 E5.60925
G1 X89.519 Y101.540 E5.61878
G1 X89.410 Y101.445 E5.62215
G1 X89.345 Y101.433 E5.62368
G1 X95.312 Y95.467 E5.82077
G1 X95.113 Y95.385 E5.82580
G1 X94.642 Y95.358 E5.83680
G1 X88.734 Y101.266 E6.03195
G1 X88.590 Y101.229 E6.03543
G1 X88.432 Y100.921 E6.04350
G1 X88.317 Y100.905 E6.04621
G1 X93.875 Y95.347 E6.22980
G1 X93.072 Y95.372 E6.24858
G1 X87.688 Y100.756 E6.42640
G1 X87.505 Y100.667 E6.43116
G1 X87.213 Y100.453 E6.43962
G1 X92.171 Y95.495 E6.60339
G1 X91.922 Y95.503 E6.60921
G1 X91.661 Y95.575 E6.61554
G1 X91.268 Y95.620 E6.62478
G1 X86.939 Y99.949 E6.76777
G1 X86.922 Y99.932 E6.76832
G1 X86.853 Y99.438 E6.77997
G1 X86.852 Y99.258 E6.78418
G1 X90.288 Y95.821 E6.89770
G1 X90.050 Y95.867 E6.90337
G1 X89.190 Y96.141 E6.92445
G1 X86.848 Y98.483 E7.00182
G1 X86.964 Y97.669 E7.02103
G1 X87.005 Y97.572 E7.02348
G1 X87.111 Y97.442 E7.02742
G1 X87.530 Y97.023 E7.04125
G1 E5.04125 F2400.00000
G92 E0
G1 X92.878 Y89.787 F7800.000
G1 E2.00000 F2400.00000
G1 F1800
G1 X93.111 Y89.750 E2.00015
G1 F1800
G1 X93.409 Y89.703 E2.00144
G1 F1800
G1 X93.619 Y89.661 E2.00310
G1 F1800
G1 X94.146 Y89.599 E2.00893
G1 F1800
G1 X94.305 Y89.569 E2.01108
G1 F1800
G1 X94.575 Y89.516 E2.01556
G1 F1800
G1 X95.252 Y89.433 E2.02861
G1 X95.484 Y89.351 E2.03332
G1 X95.685 Y89.315 E2.03725
G1 E0.03725 F2400.00000
G92 E0
G1 X97.823 Y88.898 F7800.000
G1 E2.00000 F2400.00000
G1 F1800
G1 X97.948 Y88.882 E2.00118
G1 X98.064 Y88.898 E2.00228
G1 F1800
G1 X98.296 Y88.931 E2.00534
G1 F1800
G1 X98.527 Y88.964 E2.00926
G1 F1800
G1 X99.148 Y88.981 E2.02140
G1 X98.946 Y89.109 F7800.000
G1 F1800
G1 X99.004 Y89.187 E2.02302
G1 F1800
G1 X99.035 Y89.332 E2.02513
G1 X99.037 Y89.598 E2.02893
G1 F1800
G1 X99.042 Y90.130 E2.03798
G1 F1800
G1 X99.017 Y90.536 E2.04596
G1 F1800
G1 X99.030 Y91.491 E2.06798
G1 X99.015 Y91.945 E2.07845
G1 X99.037 Y92.715 E2.09617
G1 F1800
G1 X99.043 Y93.404 E2.11015
G1 E0.11015 F2400.00000
G92 E0
G1 X101.950 Y91.157 F7800.000
G1 E2.00000 F2400.00000
G1 F1800
G1 X102.825 Y91.122 E2.00371
G1 X102.949 Y91.102 E2.00424
G1 F1800
G1 X103.086 Y91.080 E2.00443
G1 X103.433 Y91.075 E2.00491
G1 X103.419 Y91.123 F7800.000
G1 F1800
G1 X102.563 Y91.119 E2.01399
G1 F1800
G1 X101.950 Y91.155 E2.02185
G1 X103.545 Y91.106 F7800.000
G1 F1800
G1 X103.713 Y91.136 E2.02280
G1 F1800
G1 X103.983 Y91.190 E2.02538
G1 F1800
G1 X104.088 Y91.206 E2.02664
G1 X104.327 Y91.316 E2.02978
G1 X104.476 Y91.346 E2.03159
G1 F1800
G1 X104.789 Y91.409 E2.03674
G1 F1800
G1 X105.050 Y91.491 E2.04205
G1 E0.04205 F2400.00000
G92 E0
G1 X107.183 Y93.399 F7800.000
G1 E2.00000 F2400.00000
G1 F1800
G1 X106.880 Y93.836 E2.01253
G1 X106.736 Y93.964 E2.01707
G1 F1800
G1 X106.634 Y94.068 E2.01992
G1 X106.565 Y94.229 E2.02337
G1 F1800
G1 X106.505 Y94.369 E2.02671
G1 X105.919 Y95.202 E2.04902
G1 X106.076 Y95.006 F7800.000
G1 F1800
G1 X106.093 Y94.979 E2.04953
G1 E0.04953 F2400.00000
G92 E0
G1 X108.144 Y91.981 F7800.000
G1 E2.00000 F2400.00000
G1 F1800
G1 X108.473 Y91.594 E2.00209
G1 E0.00209 F2400.00000
G92 E0
G1 X98.946 Y89.109 F7800.000
G1 E2.00000 F2400.00000
G1 F1800
G1 X98.572 Y88.705 E2.01076
G1 E0.01076 F2400.00000
G92 E0
G1 X98.632 Y103.136 F7800.000
G1 E2.00000 F2400.00000
G1 F1800
G1 X98.397 Y103.560 E2.00807
G1 F1800
G1 X98.255 Y103.871 E2.01478
G1 X98.219 Y104.045 E2.01826
G1 X98.121 Y104.278 E2.02321
G1 F1800
G1 X97.985 Y104.706 E2.03305
G1 X97.884 Y104.925 E2.03835
G1 X97.816 Y105.221 E2.04500
G1 X97.689 Y105.508 E2.05187
G1 X97.388 Y106.363 E2.07172
G1 F1800
G1 X97.291 Y106.671 E2.07756
G1 F1800
G1 X97.209 Y106.827 E2.08038
G1 X97.076 Y107.195 E2.08663
G1 F1800
G1 X96.697 Y108.228 E2.10172
G1 X96.427 Y108.446 F7800.000
G1 F1800
G1 X94.853 Y108.664 E2.11839
G1 X95.040 Y108.840 F7800.000
G1 F1800
G1 X94.496 Y109.075 E2.12931
G1 F1800
G1 X94.181 Y109.152 E2.13601
G1 X93.838 Y109.281 E2.14359
G1 X93.467 Y109.410 F7800.000
G1 F1800
G1 X92.894 Y109.637 E2.15529
G1 F1800
G1 X92.583 Y109.725 E2.16042
G1 X92.281 Y109.890 E2.16589
G1 F1800
G1 X91.944 Y109.982 E2.17068
G1 F1800
G1 X91.788 Y110.012 E2.17223
G1 X91.435 Y110.141 E2.17590
G1 F1800
G1 X91.307 Y110.233 E2.17687
G1 X91.190 Y110.279 E2.17763
G1 F1800
G1 X90.954 Y110.369 E2.17841
G1 X89.380 Y110.701 F7800.000
G1 F1800
G1 X89.372 Y110.706 E2.17858
G1 E0.17858 F2400.00000
G92 E0
G1 X96.107 Y108.431 F7800.000
G1 E2.00000 F2400.00000
G1 F1800
G1 X96.332 Y108.359 E2.00160
G1 X96.473 Y108.260 E2.00277
G1 X96.713 Y108.043 E2.00498
G1 X96.862 Y107.790 E2.00697
G1 X96.894 Y107.686 E2.00772
G1 F1800
G1 X96.931 Y107.532 E2.00919
G1 E0.00919 F2400.00000
G92 E0
G1 X100.299 Y107.700 F7800.000
G1 E2.00000 F2400.00000
G1 F1800
G1 X100.419 Y107.704 E2.00235
G1 F1800
G1 X100.529 Y107.716 E2.00418
G1 X101.167 Y107.713 F7800.000
G1 F1800
G1 X101.403 Y107.726 E2.00445
G1 F1800
G1 X101.645 Y107.715 E2.00544
G1 F1800
G1 X102.024 Y107.711 E2.00834
G1 F1800
G1 X102.422 Y107.711 E2.01273
G1 F1800
G1 X103.399 Y107.706 E2.02724
G1 F1800
G1 X103.645 Y107.716 E2.03143
G1 F1800
G1 X103.794 Y107.721 E2.03432
G1 F1800
G1 X103.892 Y107.732 E2.03650
G1 X103.997 Y107.702 E2.03893
G1 E0.03893 F2400.00000
G92 E0
G1 X105.955 Y106.410 F7800.000
G1 E2.00000 F2400.00000
G1 F1800
G1 X105.948 Y106.348 E2.00123
G1 F1800
G1 X105.894 Y105.970 E2.00979
G1 X105.820 Y105.729 E2.01546
G1 X105.708 Y105.052 E2.03085
G1 X105.659 Y104.892 E2.03461
G1 F1800
G1 X105.532 Y104.019 E2.05223
G1 F1800
G1 X105.496 Y103.897 E2.05440
G1 F1800
G1 X105.440 Y103.590 E2.05898
G1 F1800
G1 X105.401 Y103.358 E2.06180
G1 F1800
G1 X105.283 Y102.737 E2.06777
M104 S200 ; set temperature
G1 Z0.600 F7800.000
G1 E0.06777 F2400.00000
G92 E0
G1 X108.183 Y98.703 F7800.000
G1 E2.00000 F2400.00000
G1 F3600
G1 X107.565 Y99.352 E2.02418
G1 X107.065 Y99.926 E2.04472
G1 X105.070 Y100.577 E2.10131
G1 X105.020 Y100.514 E2.10349
G1 X103.748 Y100.940 E2.13968
G1 X103.207 Y101.078 E2.15476
G1 X102.925 Y101.182 E2.16284
G1 X102.524 Y101.284 E2.17402
G1 X102.315 Y101.376 E2.18018
G1 X102.141 Y101.418 E2.18502
G1 X101.890 Y101.529 E2.19240
G1 X101.691 Y101.578 E2.19794
G1 X101.451 Y101.682 E2.20499
G1 X99.890 Y102.213 E2.24947
G1 X98.543 Y102.595 E2.28725
G1 X96.781 Y102.026 E2.33721
G1 X96.073 Y101.941 E2.35643
G1 X95.399 Y102.184 E2.37577
G1 X95.007 Y102.276 E2.38663
G1 X94.544 Y102.334 E2.39921
G1 X94.041 Y102.360 E2.41279
G1 X93.339 Y102.351 E2.43174
G1 X92.609 Y102.302 E2.45149
G1 X91.723 Y102.201 E2.47552
G1 X90.988 Y102.087 E2.49560
G1 X90.050 Y101.885 E2.52147
G1 X89.103 Y101.603 E2.54813
G1 X88.320 Y101.303 E2.57076
G1 X87.979 Y101.145 E2.58090
G1 X87.600 Y100.940 E2.59252
G1 X87.275 Y100.722 E2.60307
G1 X86.928 Y100.388 E2.61607
G1 X86.797 Y100.181 E2.62268
G1 X86.718 Y99.966 E2.62884
G1 X86.647 Y99.528 E2.64082
G1 X86.640 Y98.073 E2.68008
G1 X86.694 Y97.574 E2.69363
G1 X86.768 Y97.324 E2.70066
G1 X86.894 Y97.104 E2.70750
G1 X87.013 Y96.957 E2.71260
G1 X87.364 Y96.656 E2.72507
G1 X87.673 Y96.461 E2.73493
G1 X88.176 Y96.204 E2.75017
G1 X88.655 Y96.003 E2.76419
G1 X89.350 Y95.758 E2.78405
G1 X90.064 Y95.554 E2.80409
G1 X90.789 Y95.394 E2.82410
G1 X91.563 Y95.264 E2.84529
G1 X92.620 Y95.141 E2.87399
G1 X93.548 Y95.085 E2.89908
G1 X94.216 Y95.088 E2.91710
G1 X94.710 Y95.124 E2.93045
G1 X95.255 Y95.218 E2.94537
G1 X96.027 Y95.469 E2.96729
G1 X96.689 Y95.428 E2.98518
G1 X97.624 Y95.158 E3.01142
G1 X98.776 Y94.938 E3.04307
G1 X98.972 Y94.770 E3.05002
G1 X99.120 Y94.982 E3.05700
G1 X100.910 Y95.566 E3.10781
G1 X102.133 Y96.020 E3.14300
G1 X102.837 Y96.242 E3.16290
G1 X103.156 Y96.317 E3.17176
G1 X103.534 Y96.459 E3.18265
G1 X104.268 Y96.662 E3.20318
G1 X104.866 Y96.794 E3.21970
G1 X105.381 Y96.631 E3.23427
G1 X105.526 Y97.016 E3.24537
G1 X107.248 Y97.580 E3.29425
G1 X107.534 Y97.968 E3.30726
G1 X108.014 Y98.549 E3.32758
G1 X108.127 Y98.652 E3.33172
G1 X109.450 Y98.727 F7800.000
G1 F3600
G1 X108.922 Y98.951 E3.34720
G1 X108.544 Y99.246 E3.36013
G1 X108.035 Y99.780 E3.38003
G1 X107.423 Y100.482 E3.40515
G1 X104.848 Y101.320 E3.47820
G1 X104.799 Y101.258 E3.48034
G1 X103.928 Y101.550 E3.50513
G1 X103.396 Y101.686 E3.51994
G1 X103.114 Y101.790 E3.52804
G1 X102.732 Y101.887 E3.53867
G1 X102.520 Y101.981 E3.54493
G1 X102.345 Y102.023 E3.54978
G1 X102.096 Y102.133 E3.55714
G1 X101.894 Y102.182 E3.56274
G1 X101.680 Y102.275 E3.56902
G1 X100.080 Y102.820 E3.61464
G1 X98.818 Y103.178 E3.65001
G1 X98.126 Y103.887 E3.67673
G1 X97.938 Y103.068 E3.69941
G1 X96.644 Y102.649 E3.73609
G1 X96.147 Y102.590 E3.74959
G1 X95.579 Y102.795 E3.76588
G1 X95.119 Y102.903 E3.77862
G1 X94.600 Y102.968 E3.79273
G1 X94.053 Y102.996 E3.80751
G1 X93.313 Y102.986 E3.82747
G1 X92.551 Y102.935 E3.84807
G1 X91.639 Y102.831 E3.87285
G1 X90.872 Y102.712 E3.89378
G1 X89.893 Y102.502 E3.92080
G1 X88.898 Y102.206 E3.94879
G1 X88.073 Y101.889 E3.97265
G1 X87.693 Y101.714 E3.98392
G1 X87.271 Y101.484 E3.99688
G1 X86.752 Y101.116 E4.01406
G1 X86.445 Y100.804 E4.02587
G1 X86.220 Y100.452 E4.03712
G1 X86.107 Y100.144 E4.04598
G1 X86.045 Y99.858 E4.05389
G1 X86.011 Y99.566 E4.06180
G1 X86.004 Y98.053 E4.10263
G1 X86.024 Y97.753 E4.11074
G1 X86.071 Y97.441 E4.11926
G1 X86.194 Y97.049 E4.13033
G1 X86.368 Y96.744 E4.13981
G1 X86.551 Y96.517 E4.14767
G1 X86.868 Y96.233 E4.15917
G1 X87.359 Y95.908 E4.17503
G1 X87.908 Y95.627 E4.19168
G1 X88.427 Y95.409 E4.20685
G1 X89.157 Y95.152 E4.22773
G1 X89.908 Y94.938 E4.24881
G1 X90.667 Y94.770 E4.26979
G1 X91.474 Y94.635 E4.29184
G1 X92.564 Y94.507 E4.32144
G1 X93.531 Y94.449 E4.34758
G1 X94.241 Y94.452 E4.36674
G1 X94.777 Y94.492 E4.38125
G1 X95.109 Y94.538 E4.39027
G1 X95.419 Y94.603 E4.39882
G1 X96.109 Y94.827 E4.41839
G1 X96.580 Y94.798 E4.43113
G1 X97.476 Y94.539 E4.45628
G1 X98.490 Y94.345 E4.48415
G1 X99.090 Y93.829 E4.50550
G1 X99.519 Y94.443 E4.52571
G1 X101.120 Y94.966 E4.57113
G1 X102.339 Y95.419 E4.60623
G1 X103.005 Y95.629 E4.62507
G1 X103.342 Y95.708 E4.63439
G1 X103.731 Y95.854 E4.64560
G1 X104.422 Y96.045 E4.66493
G1 X104.837 Y96.136 E4.67640
G1 X105.454 Y95.941 E4.69388
G1 X105.723 Y95.738 E4.70296
G1 X106.013 Y96.507 E4.72515
G1 X107.631 Y97.030 E4.77100
G1 X108.035 Y97.576 E4.78935
G1 X108.476 Y98.110 E4.80801
G1 X108.821 Y98.426 E4.82064
G1 X109.382 Y98.695 E4.83742
G1 E2.83742 F2400.00000
G92 E0
G1 X107.359 Y93.138 F7800.000
G1 E2.00000 F2400.00000
G1 F900
G1 X107.176 Y92.182 E2.02627
G1 X108.079 Y92.181 E2.05062
G1 X107.681 Y92.605 E2.06631
G1 X107.398 Y93.074 E2.08108
G1 X106.443 Y96.059 F7800.000
G1 F1800
G1 X107.969 Y96.544 E2.11408
G1 X108.477 Y97.231 E2.13169
G1 X108.883 Y97.723 E2.14483
G1 X109.139 Y97.956 E2.15196
G1 X109.472 Y98.116 E2.15960
G1 X109.748 Y98.148 E2.16532
G1 X110.544 Y98.081 E2.18177
G1 X110.714 Y98.094 E2.18528
G1 X111.084 Y98.190 E2.19316
G1 X112.879 Y98.461 E2.23059
G1 X113.234 Y98.533 E2.23805
G1 X113.601 Y98.657 E2.24602
G1 X114.022 Y98.846 E2.25554
G1 X114.453 Y99.086 E2.26570
G1 X114.680 Y99.243 E2.27139
G1 X115.000 Y99.545 E2.28047
G1 X115.203 Y99.804 E2.28725
G1 X115.413 Y100.202 E2.29652
G1 X115.587 Y100.657 E2.30655
G1 X115.711 Y101.097 E2.31598
G1 X115.790 Y101.636 E2.32721
G1 X115.801 Y102.192 E2.33868
G1 X115.737 Y102.737 E2.34999
G1 X115.653 Y103.068 E2.35702
G1 X115.557 Y103.334 E2.36284
G1 X115.444 Y103.560 E2.36805
G1 X115.199 Y103.908 E2.37684
G1 X115.059 Y104.045 E2.38087
G1 X114.782 Y104.232 E2.38776
G1 X114.589 Y104.309 E2.39204
G1 X114.279 Y104.375 E2.39857
G1 X113.934 Y104.384 E2.40568
G1 X113.778 Y104.368 E2.40892
G1 X113.426 Y104.280 E2.41640
G1 X113.090 Y104.108 E2.42417
G1 X112.767 Y103.833 E2.43292
G1 X112.584 Y103.621 E2.43868
G1 X112.423 Y103.376 E2.44472
G1 X112.307 Y103.111 E2.45068
G1 X112.290 Y102.976 E2.45348
G1 X112.305 Y102.443 E2.46447
G1 X112.389 Y102.140 E2.47095
G1 X112.498 Y101.954 E2.47541
G1 X112.723 Y101.723 E2.48205
G1 X112.911 Y101.619 E2.48648
G1 X113.035 Y101.575 E2.48919
G1 X113.238 Y101.571 E2.49337
G1 X113.395 Y101.622 E2.49679
G1 X113.702 Y101.826 E2.50437
G1 X113.868 Y101.990 E2.50918
G1 X114.031 Y102.188 E2.51446
G1 X114.172 Y102.402 E2.51975
G1 X113.981 Y102.541 E2.52461
G1 X113.780 Y102.612 E2.52899
G1 X113.601 Y102.291 E2.53659
G1 X112.756 Y102.224 E2.55405
G1 X112.705 Y102.619 E2.56227
G1 X112.747 Y103.062 E2.57144
G1 X112.840 Y103.294 E2.57658
G1 X112.970 Y103.456 E2.58087
G1 X113.135 Y103.585 E2.58518
G1 X113.423 Y103.729 E2.59182
G1 X113.645 Y103.795 E2.59660
G1 X113.902 Y103.829 E2.60193
G1 X114.168 Y103.819 E2.60743
G1 X114.419 Y103.761 E2.61274
G1 X114.623 Y103.661 E2.61742
G1 X114.731 Y103.573 E2.62028
G1 X114.885 Y103.403 E2.62500
G1 X114.993 Y103.129 E2.63109
G1 X115.070 Y102.717 E2.63972
G1 X114.613 Y102.413 E2.65104
G1 X115.115 Y102.257 E2.66186
G1 X115.093 Y101.527 E2.67691
G1 X115.000 Y101.070 E2.68652
G1 X114.854 Y100.666 E2.69537
G1 X114.625 Y100.207 E2.70596
G1 X114.462 Y99.998 E2.71141
G1 X114.318 Y99.860 E2.71552
G1 X114.034 Y99.680 E2.72245
G1 X113.642 Y99.541 E2.73103
G1 X112.979 Y99.392 E2.74503
G1 X112.417 Y99.329 E2.75668
G1 X111.357 Y99.273 E2.77856
G1 X110.958 Y99.291 E2.78680
G1 X110.704 Y99.351 E2.79217
G1 X110.551 Y99.362 E2.79534
G1 X109.748 Y99.295 E2.81195
G1 X109.462 Y99.331 E2.81787
G1 X109.208 Y99.439 E2.82356
G1 X108.921 Y99.662 E2.83107
G1 X108.450 Y100.158 E2.84516
G1 X107.723 Y100.978 E2.86775
G1 X107.095 Y101.166 E2.88126
G1 X105.478 Y101.702 E2.91636
G1 X105.413 Y101.975 E2.92214
G1 X105.412 Y102.332 E2.92951
G1 X105.602 Y102.696 E2.93796
G1 X105.798 Y103.182 E2.94877
G1 X106.005 Y103.827 E2.96273
G1 X106.217 Y104.677 E2.98079
G1 X106.411 Y105.786 E3.00399
G1 X106.495 Y106.565 E3.02014
G1 X106.524 Y107.072 E3.03060
G1 X106.638 Y107.310 E3.03604
G1 X106.818 Y107.488 E3.04125
G1 X107.336 Y107.707 E3.05285
G1 X106.994 Y107.882 E3.06076
G1 X106.718 Y107.983 E3.06682
G1 X106.113 Y108.124 E3.07963
G1 X105.358 Y108.226 E3.09532
G1 X104.494 Y108.286 E3.11318
G1 X103.840 Y108.296 E3.12666
G1 X103.018 Y108.266 E3.14361
G1 X102.055 Y108.165 E3.16356
G1 X101.265 Y108.007 E3.18018
G1 X101.013 Y108.025 E3.18538
G1 X100.873 Y108.059 E3.18835
G1 X100.675 Y108.198 E3.19333
G1 X100.564 Y108.246 E3.19583
G1 X100.252 Y108.310 E3.20240
G1 X100.144 Y108.451 E3.20606
G1 X99.938 Y108.368 E3.21064
G1 X99.958 Y108.196 E3.21421
G1 X99.766 Y107.943 E3.22075
G1 X99.400 Y107.611 E3.23093
G1 X99.858 Y107.461 E3.24086
G1 X99.857 Y106.711 E3.25632
G1 X100.290 Y107.120 E3.26859
G1 X100.549 Y107.169 E3.27402
G1 X100.697 Y107.234 E3.27734
G1 X100.867 Y107.356 E3.28167
G1 X101.203 Y107.452 E3.28887
G1 X102.045 Y107.280 E3.30659
G1 X102.848 Y107.190 E3.32324
G1 X103.799 Y107.147 E3.34285
G1 X105.203 Y107.193 E3.37181
G1 X105.442 Y106.577 E3.38543
G1 X105.199 Y105.459 E3.40900
G1 X105.045 Y104.336 E3.43237
G1 X104.989 Y103.410 E3.45149
G1 X105.002 Y102.874 E3.46253
G1 X105.045 Y102.471 E3.47089
G1 X104.604 Y101.915 E3.48552
G1 X104.087 Y102.088 E3.49677
G1 X103.563 Y102.222 E3.50792
G1 X103.280 Y102.326 E3.51412
G1 X102.916 Y102.418 E3.52187
G1 X102.701 Y102.514 E3.52671
G1 X102.526 Y102.556 E3.53043
G1 X102.277 Y102.666 E3.53604
G1 X102.074 Y102.715 E3.54035
G1 X101.883 Y102.798 E3.54464
G1 X100.247 Y103.356 E3.58026
G1 X99.115 Y103.677 E3.60450
G1 X98.812 Y103.987 E3.61345
G1 X98.778 Y104.086 E3.61561
G1 X98.747 Y104.118 E3.61652
G1 X98.458 Y105.062 E3.63688
G1 X98.023 Y106.232 E3.66260
G1 X97.677 Y107.022 E3.68037
G1 X97.171 Y107.998 E3.70302
G1 X96.963 Y108.335 E3.71120
G1 X96.848 Y108.472 E3.71488
G1 X96.272 Y108.828 E3.72883
G1 X95.514 Y109.216 E3.74639
G1 X94.652 Y109.592 E3.76576
G1 X93.581 Y109.994 E3.78935
G1 X92.744 Y110.258 E3.80744
G1 X91.616 Y110.541 E3.83140
G1 X90.898 Y110.654 E3.84639
G1 X90.198 Y110.692 E3.86084
G1 X89.945 Y110.932 E3.86802
G1 X89.803 Y111.110 E3.87272
G1 X89.719 Y111.175 E3.87491
G1 X89.606 Y111.233 E3.87751
G1 X89.340 Y111.297 E3.88316
G1 X88.915 Y111.593 E3.89383
G1 X88.960 Y111.199 E3.90201
G1 X88.708 Y110.857 E3.91078
G1 X88.513 Y110.783 E3.91507
G1 X88.518 Y110.577 E3.91932
G1 X88.752 Y110.500 E3.92442
G1 X88.932 Y110.245 E3.93084
G1 X88.846 Y109.850 E3.93916
G1 X89.385 Y110.131 E3.95168
G1 X89.612 Y110.191 E3.95652
G1 X89.730 Y110.252 E3.95927
G1 X89.917 Y110.404 E3.96422
G1 X90.159 Y110.372 E3.96926
G1 X90.496 Y110.293 E3.97638
G1 X90.883 Y110.026 E3.98606
G1 X91.465 Y109.696 E3.99986
G1 X92.222 Y109.325 E4.01724
G1 X92.858 Y109.052 E4.03150
G1 X93.584 Y108.773 E4.04753
G1 X94.545 Y108.454 E4.06839
G1 X95.318 Y108.237 E4.08495
G1 X95.976 Y108.087 E4.09886
G1 X96.387 Y107.846 E4.10867
G1 X96.490 Y107.711 E4.11218
G1 X96.699 Y106.788 E4.13168
G1 X96.987 Y105.793 E4.15303
G1 X97.294 Y104.921 E4.17207
G1 X97.651 Y104.032 E4.19182
G1 X97.549 Y103.878 E4.19563
G1 X97.463 Y103.503 E4.20356
G1 X96.524 Y103.200 E4.22391
G1 X96.213 Y103.163 E4.23036
G1 X95.739 Y103.333 E4.24074
G1 X95.219 Y103.455 E4.25175
G1 X94.650 Y103.527 E4.26357
G1 X94.064 Y103.557 E4.27566
G1 X93.291 Y103.546 E4.29160
G1 X92.501 Y103.493 E4.30791
G1 X91.564 Y103.387 E4.32735
G1 X90.770 Y103.263 E4.34390
G1 X89.754 Y103.045 E4.36533
G1 X88.718 Y102.737 E4.38761
G1 X87.854 Y102.406 E4.40667
G1 X87.442 Y102.215 E4.41604
G1 X86.981 Y101.964 E4.42685
G1 X86.564 Y101.685 E4.43719
G1 X86.374 Y101.531 E4.44223
G1 X86.019 Y101.170 E4.45267
G1 X85.885 Y100.991 E4.45727
G1 X85.711 Y100.692 E4.46442
G1 X85.567 Y100.301 E4.47300
G1 X85.491 Y99.949 E4.48042
G1 X85.451 Y99.600 E4.48767
G1 X85.443 Y98.035 E4.51991
G1 X85.466 Y97.692 E4.52701
G1 X85.522 Y97.324 E4.53468
G1 X85.615 Y96.988 E4.54186
G1 X85.687 Y96.806 E4.54589
G1 X85.903 Y96.426 E4.55491
G1 X86.144 Y96.130 E4.56277
G1 X86.513 Y95.798 E4.57299
G1 X87.081 Y95.420 E4.58706
G1 X87.672 Y95.118 E4.60073
G1 X88.225 Y94.886 E4.61310
G1 X88.987 Y94.618 E4.62974
G1 X89.770 Y94.394 E4.64654
G1 X90.561 Y94.219 E4.66322
G1 X91.395 Y94.080 E4.68065
G1 X92.514 Y93.949 E4.70388
G1 X93.515 Y93.888 E4.72455
G1 X94.263 Y93.892 E4.73996
G1 X94.837 Y93.934 E4.75182
G1 X95.205 Y93.986 E4.75949
G1 X95.563 Y94.061 E4.76703
G1 X96.180 Y94.261 E4.78040
G1 X96.484 Y94.242 E4.78667
G1 X97.345 Y93.994 E4.80514
G1 X98.238 Y93.823 E4.82388
G1 X98.413 Y93.672 E4.82864
G1 X98.487 Y93.435 E4.83376
G1 X98.552 Y93.370 E4.83566
G1 X98.489 Y92.418 E4.85530
G1 X98.471 Y91.511 E4.87402
G1 X98.489 Y90.713 E4.89046
G1 X98.572 Y89.556 E4.91437
G1 X97.988 Y89.368 E4.92702
G1 X97.175 Y89.593 E4.94440
G1 X96.552 Y89.739 E4.95760
G1 X95.686 Y89.906 E4.97578
G1 X94.634 Y90.054 E4.99767
G1 X93.883 Y90.122 E5.01320
G1 X93.296 Y90.147 E5.02531
G1 X92.714 Y90.136 E5.03730
G1 X92.258 Y90.089 E5.04677
G1 X91.963 Y90.295 E5.05418
G1 X91.834 Y90.476 E5.05875
G1 X91.737 Y90.564 E5.06145
G1 X91.611 Y90.632 E5.06441
G1 X91.375 Y90.703 E5.06948
G1 X91.121 Y91.006 E5.07763
G1 X90.874 Y90.458 E5.09002
G1 X90.383 Y90.247 E5.10104
G1 X90.868 Y89.851 E5.11395
G1 X90.642 Y89.445 E5.12352
G1 X91.245 Y89.538 E5.13610
G1 X91.454 Y89.546 E5.14040
G1 X91.603 Y89.588 E5.14361
G1 X91.834 Y89.705 E5.14895
G1 X92.143 Y89.808 E5.15564
G1 X92.677 Y89.551 E5.16786
G1 X93.398 Y89.287 E5.18369
G1 X94.160 Y89.068 E5.20002
G1 X95.112 Y88.848 E5.22017
G1 X96.104 Y88.672 E5.24093
G1 X96.872 Y88.572 E5.25690
G1 X97.657 Y88.507 E5.27313
G1 X98.576 Y88.482 E5.29208
G1 X98.860 Y88.109 E5.30174
G1 X99.039 Y87.675 E5.31141
G1 X99.241 Y88.150 E5.32204
G1 X99.359 Y88.598 E5.33160
G1 X99.488 Y89.368 E5.34768
G1 X99.587 Y90.467 E5.37042
G1 X99.618 Y91.491 E5.39153
G1 X99.588 Y92.660 E5.41565
G1 X99.525 Y93.473 E5.43245
G1 X99.871 Y93.969 E5.44490
G1 X101.304 Y94.436 E5.47597
G1 X102.521 Y94.888 E5.50273
G1 X103.154 Y95.088 E5.51640
G1 X103.505 Y95.171 E5.52383
G1 X103.904 Y95.320 E5.53262
G1 X104.811 Y95.557 E5.55193
G1 X105.193 Y95.435 E5.56020
G1 X105.370 Y95.302 E5.56475
G1 X105.713 Y94.628 E5.58035
G1 X106.115 Y93.953 E5.59654
G1 X106.764 Y93.009 E5.62014
G1 X106.663 Y92.486 E5.63113
G1 X105.466 Y92.180 E5.65659
G1 X104.701 Y91.930 E5.67319
G1 X103.939 Y91.628 E5.69007
G1 X103.275 Y91.298 E5.70536
G1 X102.876 Y91.441 E5.71410
G1 X102.671 Y91.601 E5.71946
G1 X102.494 Y91.672 E5.72339
G1 X102.041 Y92.009 E5.73502
G1 X102.028 Y91.731 E5.74078
G1 X101.966 Y91.577 E5.74419
G1 X101.851 Y91.466 E5.74749
G1 X101.311 Y91.285 E5.75923
G1 X101.641 Y91.122 E5.76683
G1 X101.737 Y90.967 E5.77059
G1 X101.825 Y90.768 E5.77507
G1 X101.811 Y90.387 E5.78293
G1 X102.256 Y90.536 E5.79260
G1 X102.422 Y90.541 E5.79601
G1 X102.565 Y90.573 E5.79903
G1 X102.675 Y90.620 E5.80150
G1 X102.867 Y90.751 E5.80628
G1 X103.938 Y90.772 E5.82838
G1 X104.387 Y90.819 E5.83767
G1 X104.974 Y90.912 E5.84993
G1 X106.101 Y91.165 E5.87373
G1 X106.881 Y91.396 E5.89050
G1 X107.505 Y91.621 E5.90417
G1 X107.971 Y91.620 E5.91377
G1 X108.211 Y91.406 E5.92040
G1 X108.541 Y91.160 E5.92888
G1 X108.899 Y90.951 E5.93743
G1 X108.805 Y91.440 E5.94769
G1 X108.664 Y91.872 E5.95706
G1 X108.893 Y92.311 E5.96726
G1 X109.171 Y92.574 E5.97514
G1 X108.906 Y92.655 E5.98086
G1 X108.336 Y92.726 E5.99270
G1 X108.130 Y92.945 E5.99889
G1 X107.790 Y93.509 E6.01246
G1 X107.279 Y94.260 E6.03119
G1 X106.876 Y94.789 E6.04491
G1 X106.378 Y95.378 E6.06080
G1 X106.321 Y95.734 E6.06822
G1 X106.417 Y95.989 E6.07384
G1 X106.354 Y96.551 F7800.000
G1 E4.07384 F2400.00000
G92 E0
G1 X100.400 Y91.526 F7800.000
G1 E2.00000 F2400.00000
G1 F1800
G1 X100.547 Y91.478 E2.00161
G1 X100.823 Y91.560 E2.00462
G1 F1800
G1 X101.013 Y91.591 E2.00612
G1 F1800
G1 X101.206 Y91.608 E2.00717
G1 E0.00717 F2400.00000
G92 E0
G1 X90.776 Y89.129 F7800.000
G1 E2.00000 F2400.00000
G1 F1800
G1 X89.660 Y88.581 E2.00783
G1 E0.00783 F2400.00000
G92 E0
G1 X99.092 Y105.896 F7800.000
G1 E2.00000 F2400.00000
G1 F1800
G1 X99.187 Y105.963 E2.00110
G1 F1800
G1 X99.240 Y106.004 E2.00187
G1 F1800
G1 X99.295 Y106.065 E2.00315
G1 F1800
G1 X99.340 Y106.115 E2.00434
G1 X99.471 Y106.758 E2.01600
G1 E0.01600 F2400.00000
G92 E0
G1 X89.177 Y111.814 F7800.000
G1 E2.00000 F2400.00000
G1 F1800
G1 X88.541 Y112.690 E2.00658
G1 E0.00658 F2400.00000
G92 E0
G1 X91.009 Y110.320 F7800.000
G1 E2.00000 F2400.00000
G1 F1200
G1 X91.055 Y110.301 E2.00005
G1 F1200
G1 X91.294 Y110.218 E2.00127
G1 F1200
G1 X91.533 Y110.134 E2.00346
G1 F1200
G1 X91.861 Y110.010 E2.00772
G1 F1200
G1 X92.247 Y109.869 E2.01421
G1 F1200
G1 X92.598 Y109.745 E2.02121
G1 F1200
G1 X94.443 Y109.075 E2.06421
G1 F1200
G1 X95.002 Y108.869 E2.07594
G1 F1200
G1 X95.438 Y108.709 E2.08339
G1 F1200
G1 X95.756 Y108.593 E2.08777
G1 F1200
G1 X96.074 Y108.477 E2.09095
G1 F1200
G1 X96.592 Y108.175 E2.09506
G1 F1200
G1 X96.657 Y108.114 E2.09546
G1 X96.833 Y107.851 E2.09687
G1 F1200
G1 X96.914 Y107.634 E2.09851
G1 F1200
G1 X97.046 Y107.273 E2.10283
G1 F1200
G1 X97.178 Y106.911 E2.10875
G1 F1200
G1 X97.316 Y106.542 E2.11581
G1 F1200
G1 X97.974 Y104.730 E2.15741
G1 E0.15741 F2400.00000
G92 E0
G1 X101.446 Y107.693 F7800.000
G1 E2.00000 F2400.00000
G1 F1200
G1 X102.122 Y107.722 E2.00775
G1 F1200
G1 X102.506 Y107.720 E2.01349
G1 F1200
G1 X102.889 Y107.719 E2.02058
G1 F1200
G1 X104.888 Y107.720 E2.06233
G1 F1200
G1 X105.385 Y107.708 E2.07092
G1 F1200
G1 X105.860 Y107.517 E2.08116
G1 F1200
G1 X106.335 Y107.326 E2.09308
G1 X105.881 Y107.872 F7800.000
G1 F1200
G1 X105.975 Y106.608 E2.11677
G1 X105.914 Y106.206 E2.12437
G1 F1200
G1 X105.573 Y104.284 E2.16503
G1 F1200
G1 X105.524 Y103.964 E2.17100
G1 F1200
G1 X105.453 Y103.589 E2.17709
G1 F1200
G1 X105.336 Y102.830 E2.18624
G1 X105.104 Y102.049 F7800.000
G1 F1200
G1 X104.964 Y101.577 E2.18792
G1 X107.105 Y98.369 F7800.000
G1 F1200
G1 X106.610 Y97.874 E2.20737
G1 X105.232 Y97.422 E2.24764
G1 X107.174 Y99.364 E2.32395
G1 X106.948 Y99.624 E2.33352
G1 X106.616 Y99.732 E2.34322
G1 X103.929 Y97.045 E2.44881
G1 X103.091 Y96.817 E2.47295
G1 X102.611 Y96.653 E2.48704
G1 X105.918 Y99.960 E2.61699
G1 X105.541 Y100.083 E2.62801
G1 X105.488 Y100.017 E2.63036
G1 X105.159 Y100.127 E2.64001
G1 X101.245 Y96.213 E2.79380
G1 X100.454 Y95.919 E2.81727
G1 X99.818 Y95.711 E2.83586
G1 X104.466 Y100.359 E3.01849
G1 X103.769 Y100.589 E3.03887
G1 X98.520 Y95.339 E3.24515
G1 X97.743 Y95.488 E3.26714
G1 X103.051 Y100.796 E3.47574
G1 X102.563 Y100.928 E3.48979
G1 X102.350 Y101.021 E3.49625
G1 X97.008 Y95.679 E3.70616
G1 X96.552 Y95.811 E3.71936
G1 X96.233 Y95.831 E3.72821
G1 X101.657 Y101.254 E3.94133
G1 X100.979 Y101.502 E3.96138
G1 X95.169 Y95.692 E4.18971
G1 X94.854 Y95.590 E4.19889
G1 X94.385 Y95.509 E4.21213
G1 X94.034 Y95.483 E4.22191
G1 X100.289 Y101.738 E4.46770
G1 X99.582 Y101.957 E4.48826
G1 X93.111 Y95.486 E4.74256
G1 X92.429 Y95.527 E4.76156
G1 X92.247 Y95.548 E4.76663
G1 X98.861 Y102.162 E5.02652
G1 X98.802 Y102.178 E5.02822
G1 X97.545 Y101.772 E5.06492
G1 X91.418 Y95.645 E5.30569
G1 X90.626 Y95.779 E5.32802
G1 X96.406 Y101.559 E5.55515
G1 X96.246 Y101.540 E5.55963
G1 X95.669 Y101.748 E5.57667
G1 X89.873 Y95.952 E5.80443
G1 X89.160 Y96.165 E5.82510
G1 X94.920 Y101.925 E6.05145
G1 X94.277 Y101.972 E6.06939
G1 X94.038 Y101.968 E6.07601
G1 X88.483 Y96.413 E6.29431
G1 X88.197 Y96.533 E6.30293
G1 X87.853 Y96.709 E6.31366
G1 X93.070 Y101.926 E6.51867
G1 X92.033 Y101.815 E6.54766
G1 X87.301 Y97.083 E6.73359
G1 X87.178 Y97.211 E6.73853
G1 X87.097 Y97.359 E6.74322
G1 X87.040 Y97.748 E6.75414
G1 X90.905 Y101.613 E6.90601
G1 X90.455 Y101.516 E6.91879
G1 X89.640 Y101.274 E6.94243
G1 X87.032 Y98.666 E7.04490
G1 X87.035 Y99.228 E7.06052
G1 X87.089 Y99.557 E7.06978
G1 X87.124 Y99.652 E7.07260
G1 X87.177 Y99.736 E7.07537
G1 X87.671 Y100.231 E7.09480
G1 E5.09480 F2400.00000
G92 E0
G1 X92.847 Y89.824 F7800.000
G1 E2.00000 F2400.00000
G1 F1200
G1 X92.958 Y89.805 E2.00027
G1 F1200
G1 X93.181 Y89.768 E2.00154
G1 F1200
G1 X93.413 Y89.725 E2.00362
G1 F1200
G1 X93.693 Y89.675 E2.00704
G1 F1200
G1 X94.070 Y89.608 E2.01297
G1 F1200
G1 X94.572 Y89.522 E2.02260
G1 F1200
G1 X96.435 Y89.193 E2.06334
G1 F1200
G1 X97.045 Y89.084 E2.07499
G1 F1200
G1 X97.470 Y89.008 E2.08204
G1 F1200
G1 X97.818 Y88.950 E2.08659
G1 F1200
G1 X98.041 Y88.930 E2.08888
G1 F1200
G1 X98.314 Y88.969 E2.09281
G1 F1200
G1 X98.588 Y89.008 E2.09783
G1 F1200
G1 X98.842 Y89.032 E2.10324
G1 X98.945 Y88.773 E2.10915
G1 F1200
G1 X99.047 Y88.513 E2.11416
G1 X98.752 Y88.713 F7800.000
G1 F1200
G1 X98.846 Y88.932 E2.11807
G1 F1200
G1 X99.034 Y89.368 E2.12467
G1 X99.039 Y89.694 E2.12920
G1 F1200
G1 X99.044 Y90.231 E2.13863
G1 F1200
G1 X99.047 Y92.633 E2.18766
G1 F1200
G1 X99.043 Y93.218 E2.19803
G1 E0.19803 F2400.00000
G92 E0
G1 X103.538 Y91.061 F7800.000
G1 E2.00000 F2400.00000
G1 F1200
G1 X103.828 Y91.145 E2.00268
G1 F1200
G1 X104.222 Y91.255 E2.00749
G1 F1200
G1 X104.509 Y91.331 E2.01188
G1 F1200
G1 X104.880 Y91.433 E2.01895
G1 F1200
G1 X106.559 Y91.883 E2.05699
G1 X107.136 Y93.465 F7800.000
G1 F1200
G1 X106.302 Y94.660 E2.08845
G1 F1200
G1 X106.063 Y95.004 E2.09591
G1 F1200
G1 X105.968 Y95.147 E2.09838
G1 E0.09838 F2400.00000
G92 E0
G1 X109.991 Y98.676 F7800.000
G1 E2.00000 F2400.00000
G1 F1200
G1 X110.958 Y98.733 E2.02077
G1 F1200
G1 X111.348 Y98.754 E2.02817
G1 F1200
G1 X112.090 Y98.829 E2.04001
G1 F1200
G1 X113.044 Y98.950 E2.05184
G1 F1200
G1 X113.594 Y99.107 E2.05751
G1 F1200
G1 X114.015 Y99.274 E2.06058
G1 F1200
G1 X114.201 Y99.358 E2.06133
G1 X114.454 Y99.522 E2.06244
G1 X114.718 Y99.760 E2.06376
G1 X114.919 Y100.013 E2.06495
G1 X115.087 Y100.341 E2.06631
G1 F1200
G1 X115.325 Y100.974 E2.06727
G1 X115.429 Y101.493 E2.06801
G1 X115.456 Y102.176 E2.06898
G1 X115.444 Y102.460 E2.06938
G1 X115.412 Y102.528 E2.06948
G1 X115.425 Y102.595 E2.06958
G1 X115.356 Y102.933 E2.07007
G1 E0.07007 F2400.00000
G92 E0
G1 X113.348 Y101.957 F7800.000
G1 E2.00000 F2400.00000
G1 F1200
G1 X113.151 Y101.909 E2.00036
G1 X112.988 Y101.931 E2.00066
G1 Z0.900 F7800.000
G1 E0.00066 F2400.00000
G92 E0
G1 X90.067 Y110.642 F7800.000
G1 E2.00000 F2400.00000
G1 F900
G1 X89.918 Y110.771 E2.00407
G1 X89.799 Y110.994 E2.00927
G1 X89.707 Y111.084 E2.01193
G1 X89.587 Y111.155 E2.01481
G1 X89.356 Y111.222 E2.01977
G1 X88.957 Y111.496 E2.02974
G1 X89.017 Y111.162 E2.03674
G1 X88.767 Y110.810 E2.04563
G1 X88.547 Y110.712 E2.05061
G1 X88.998 Y110.313 E2.06304
G1 X88.901 Y109.929 E2.07119
G1 X89.397 Y110.191 E2.08275
G1 X89.670 Y110.300 E2.08881
G1 X90.010 Y110.593 E2.09807
G1 X89.877 Y110.696 F7800.000
G1 X88.359 Y110.434 F7800.000
G1 F1800
G1 X87.647 Y110.739 E2.10258
G1 F1800
G1 X87.291 Y110.892 E2.10598
G1 E0.10598 F2400.00000
G92 E0
G1 X88.593 Y112.476 F7800.000
G1 E2.00000 F2400.00000
G1 F1800
G1 X88.511 Y112.541 E2.00099
G1 X88.593 Y112.476 F7800.000
G1 F1800
G1 X88.676 Y112.411 E2.00240
G1 F1800
G1 X88.721 Y112.282 E2.00463
G1 X89.211 Y111.794 E2.01591
G1 E0.01591 F2400.00000
G92 E0
G1 X99.958 Y107.386 F7800.000
G1 E2.00000 F2400.00000
G1 F900
G1 X99.934 Y106.920 E2.00962
G1 X100.321 Y107.186 E2.01930
G1 X100.535 Y107.232 E2.02380
G1 X100.650 Y107.284 E2.02641
G1 X100.838 Y107.434 E2.03136
G1 X101.232 Y107.564 E2.03992
G1 X101.623 Y107.451 E2.04830
G1 X102.066 Y107.360 E2.05763
G1 X102.908 Y107.259 E2.07511
G1 X103.875 Y107.218 E2.09505
G1 X104.460 Y107.228 E2.10710
G1 X105.241 Y107.274 E2.12323
G1 X105.563 Y106.755 E2.13583
G1 X105.288 Y105.567 E2.16094
G1 X105.185 Y104.932 E2.17420
G1 X105.118 Y104.364 E2.18600
G1 X105.072 Y103.388 E2.20614
G1 X105.108 Y102.832 E2.21762
G1 X105.195 Y102.301 E2.22872
G1 X105.424 Y102.595 E2.23640
G1 X105.595 Y102.921 E2.24398
G1 X105.759 Y103.321 E2.25290
G1 X105.951 Y103.904 E2.26555
G1 X106.144 Y104.667 E2.28176
G1 X106.316 Y105.605 E2.30142
G1 X106.413 Y106.470 E2.31936
G1 X106.447 Y107.258 E2.33562
G1 X106.706 Y107.575 E2.34406
G1 X106.986 Y107.720 E2.35055
G1 X106.684 Y107.873 E2.35752
G1 X106.485 Y107.942 E2.36186
G1 X106.031 Y108.052 E2.37149
G1 X105.351 Y108.152 E2.38567
G1 X104.384 Y108.220 E2.40564
G1 X103.603 Y108.221 E2.42172
G1 X103.023 Y108.194 E2.43370
G1 X102.044 Y108.082 E2.45400
G1 X101.683 Y108.009 E2.46160
G1 X101.246 Y107.886 E2.47096
G1 X100.850 Y107.961 E2.47926
G1 X100.653 Y108.120 E2.48447
G1 X100.530 Y108.176 E2.48727
G1 X100.351 Y108.221 E2.49107
G1 X100.052 Y108.408 E2.49834
G1 X99.937 Y108.062 E2.50586
G1 X99.814 Y107.887 E2.51027
G1 X99.483 Y107.679 E2.51832
G1 X99.895 Y107.425 E2.52828
G1 X100.376 Y107.177 F7800.000
G1 E0.52828 F2400.00000
G92 E0
G1 X108.218 Y98.716 F7800.000
G1 E2.00000 F2400.00000
G1 F3600
G1 X107.976 Y98.925 E2.00863
G1 X107.051 Y99.960 E2.04607
G1 X104.862 Y100.594 E2.10756
G1 X104.833 Y100.569 E2.10859
G1 X103.088 Y101.229 E2.15890
G1 X101.925 Y101.719 E2.19296
G1 X100.711 Y102.179 E2.22800
G1 X100.138 Y102.375 E2.24433
G1 X99.557 Y102.540 E2.26061
G1 X99.145 Y102.633 E2.27202
G1 X98.423 Y102.735 E2.29168
G1 X98.283 Y102.896 E2.29744
G1 X98.093 Y102.581 E2.30736
G1 X97.313 Y102.350 E2.32931
G1 X96.527 Y102.052 E2.35199
G1 X95.781 Y102.078 E2.37212
G1 X95.283 Y102.238 E2.38623
G1 X94.861 Y102.320 E2.39784
G1 X94.513 Y102.357 E2.40726
G1 X93.988 Y102.375 E2.42144
G1 X93.372 Y102.360 E2.43805
G1 X92.740 Y102.315 E2.45515
G1 X92.010 Y102.235 E2.47496
G1 X91.110 Y102.100 E2.49951
G1 X90.063 Y101.885 E2.52834
G1 X89.538 Y101.743 E2.54303
G1 X88.993 Y101.567 E2.55848
G1 X88.177 Y101.241 E2.58217
G1 X87.504 Y100.887 E2.60269
G1 X87.169 Y100.648 E2.61379
G1 X86.870 Y100.333 E2.62550
G1 X86.721 Y100.052 E2.63410
G1 X86.620 Y99.623 E2.64599
G1 X86.588 Y99.219 E2.65692
G1 X86.594 Y98.093 E2.68730
G1 X86.618 Y97.834 E2.69430
G1 X86.654 Y97.618 E2.70020
G1 X86.723 Y97.383 E2.70683
G1 X86.860 Y97.128 E2.71463
G1 X87.001 Y96.955 E2.72065
G1 X87.261 Y96.723 E2.73003
G1 X87.507 Y96.556 E2.73805
G1 X88.006 Y96.283 E2.75340
G1 X88.496 Y96.064 E2.76789
G1 X89.183 Y95.812 E2.78763
G1 X89.721 Y95.648 E2.80280
G1 X90.604 Y95.437 E2.82730
G1 X91.502 Y95.280 E2.85187
G1 X92.566 Y95.145 E2.88080
G1 X93.472 Y95.079 E2.90531
G1 X94.170 Y95.070 E2.92414
G1 X94.707 Y95.104 E2.93866
G1 X95.150 Y95.171 E2.95076
G1 X95.413 Y95.239 E2.95807
G1 X95.715 Y95.346 E2.96673
G1 X96.435 Y95.421 E2.98625
G1 X97.478 Y95.043 E3.01618
G1 X97.961 Y94.914 E3.02968
G1 X98.859 Y94.744 E3.05431
G1 X98.998 Y94.605 E3.05962
G1 X99.177 Y94.792 E3.06661
G1 X100.293 Y95.122 E3.09803
G1 X101.259 Y95.459 E3.12561
G1 X103.642 Y96.439 E3.19512
G1 X104.228 Y96.643 E3.21185
G1 X105.190 Y96.935 E3.23899
G1 X105.417 Y96.771 E3.24654
G1 X105.504 Y97.007 E3.25332
G1 X106.260 Y97.266 E3.27486
G1 X107.219 Y97.533 E3.30173
G1 X107.545 Y97.973 E3.31651
G1 X108.045 Y98.565 E3.33742
G1 X108.161 Y98.667 E3.34158
G1 X109.523 Y98.726 F7800.000
G1 F3600
G1 X108.967 Y98.950 E3.35774
G1 X108.763 Y99.086 E3.36435
G1 X108.422 Y99.379 E3.37649
G1 X107.404 Y100.520 E3.41774
G1 X104.902 Y101.244 E3.48800
G1 X104.834 Y101.414 E3.49294
G1 X104.701 Y101.298 E3.49771
G1 X103.324 Y101.819 E3.53742
G1 X102.161 Y102.310 E3.57147
G1 X100.926 Y102.777 E3.60711
G1 X100.327 Y102.982 E3.62417
G1 X99.714 Y103.156 E3.64136
G1 X99.260 Y103.259 E3.65394
G1 X98.746 Y103.331 E3.66793
G1 X98.623 Y103.473 E3.67300
G1 X98.389 Y103.565 E3.67976
G1 X97.770 Y103.276 E3.69819
G1 X97.676 Y103.120 E3.70311
G1 X97.110 Y102.953 E3.71903
G1 X96.421 Y102.691 E3.73890
G1 X95.892 Y102.711 E3.75320
G1 X95.441 Y102.855 E3.76595
G1 X94.955 Y102.949 E3.77932
G1 X94.558 Y102.992 E3.79009
G1 X93.991 Y103.011 E3.80539
G1 X93.342 Y102.995 E3.82292
G1 X92.683 Y102.948 E3.84073
G1 X91.928 Y102.865 E3.86121
G1 X90.999 Y102.726 E3.88656
G1 X89.916 Y102.504 E3.91637
G1 X89.357 Y102.352 E3.93201
G1 X88.777 Y102.165 E3.94845
G1 X87.920 Y101.823 E3.97334
G1 X87.554 Y101.645 E3.98433
G1 X87.170 Y101.428 E3.99623
G1 X86.743 Y101.122 E4.01039
G1 X86.433 Y100.809 E4.02227
G1 X86.193 Y100.434 E4.03429
G1 X86.122 Y100.268 E4.03916
G1 X86.049 Y100.022 E4.04608
G1 X85.989 Y99.707 E4.05472
G1 X85.952 Y99.242 E4.06732
G1 X85.959 Y98.062 E4.09914
G1 X85.987 Y97.752 E4.10754
G1 X86.034 Y97.475 E4.11512
G1 X86.123 Y97.173 E4.12361
G1 X86.334 Y96.768 E4.13593
G1 X86.540 Y96.514 E4.14475
G1 X86.869 Y96.221 E4.15663
G1 X87.174 Y96.013 E4.16660
G1 X87.723 Y95.713 E4.18349
G1 X88.257 Y95.475 E4.19924
G1 X88.981 Y95.209 E4.22005
G1 X89.555 Y95.034 E4.23623
G1 X90.476 Y94.814 E4.26178
G1 X91.407 Y94.652 E4.28728
G1 X92.502 Y94.513 E4.31706
G1 X93.445 Y94.443 E4.34255
G1 X94.186 Y94.435 E4.36254
G1 X94.775 Y94.471 E4.37846
G1 X95.277 Y94.548 E4.39219
G1 X95.599 Y94.630 E4.40113
G1 X95.856 Y94.722 E4.40851
G1 X96.356 Y94.774 E4.42205
G1 X97.288 Y94.436 E4.44879
G1 X97.820 Y94.294 E4.46365
G1 X98.548 Y94.156 E4.48364
G1 X99.009 Y93.695 E4.50122
G1 X99.519 Y94.231 E4.52118
G1 X100.488 Y94.517 E4.54843
G1 X101.485 Y94.864 E4.57689
G1 X103.867 Y95.844 E4.64640
G1 X104.425 Y96.038 E4.66232
G1 X105.074 Y96.235 E4.68061
G1 X105.713 Y95.773 E4.70191
G1 X105.756 Y96.210 E4.71376
G1 X105.928 Y96.320 E4.71928
G1 X105.996 Y96.503 E4.72455
G1 X106.448 Y96.658 E4.73744
G1 X107.600 Y96.979 E4.76971
G1 X108.044 Y97.579 E4.78983
G1 X108.499 Y98.118 E4.80888
G1 X108.856 Y98.429 E4.82166
G1 X109.454 Y98.696 E4.83932
G1 X106.287 Y95.884 F7800.000
G1 F1800
G1 X106.388 Y95.949 E4.84179
G1 X106.429 Y96.059 E4.84422
G1 X107.936 Y96.491 E4.87652
G1 X108.484 Y97.231 E4.89550
G1 X108.900 Y97.724 E4.90880
G1 X109.161 Y97.952 E4.91594
G1 X109.486 Y98.096 E4.92327
G1 X109.753 Y98.125 E4.92880
G1 X110.465 Y98.062 E4.94354
G1 X110.664 Y98.063 E4.94764
G1 X111.097 Y98.151 E4.95674
G1 X112.882 Y98.418 E4.99394
G1 X113.245 Y98.490 E5.00156
G1 X113.628 Y98.616 E5.00988
G1 X113.951 Y98.759 E5.01715
G1 X114.354 Y98.975 E5.02657
G1 X114.699 Y99.208 E5.03516
G1 X115.018 Y99.503 E5.04412
G1 X115.159 Y99.673 E5.04866
G1 X115.345 Y99.951 E5.05555
G1 X115.522 Y100.384 E5.06520
G1 X115.725 Y101.096 E5.08046
G1 X115.784 Y101.452 E5.08789
G1 X115.815 Y101.819 E5.09549
G1 X115.805 Y102.379 E5.10702
G1 X115.719 Y102.910 E5.11811
G1 X115.573 Y103.350 E5.12767
G1 X115.453 Y103.588 E5.13317
G1 X115.204 Y103.934 E5.14195
G1 X114.927 Y104.169 E5.14943
G1 X114.803 Y104.244 E5.15242
G1 X114.579 Y104.335 E5.15742
G1 X114.275 Y104.398 E5.16381
G1 X114.116 Y104.409 E5.16709
G1 X113.767 Y104.387 E5.17429
G1 X113.419 Y104.303 E5.18168
G1 X113.072 Y104.125 E5.18971
G1 X112.892 Y103.987 E5.19439
G1 X112.719 Y103.821 E5.19933
G1 X112.515 Y103.566 E5.20607
G1 X112.335 Y103.253 E5.21351
G1 X112.294 Y103.123 E5.21632
G1 X112.290 Y102.645 E5.22616
G1 X112.313 Y102.364 E5.23199
G1 X112.369 Y102.151 E5.23651
G1 X112.488 Y101.939 E5.24153
G1 X112.711 Y101.708 E5.24814
G1 X112.849 Y101.623 E5.25148
G1 X113.006 Y101.562 E5.25496
G1 X113.234 Y101.550 E5.25965
G1 X113.360 Y101.587 E5.26236
G1 X113.618 Y101.731 E5.26846
G1 X113.924 Y102.019 E5.27712
G1 X114.137 Y102.304 E5.28445
G1 X113.955 Y102.465 E5.28947
G1 X113.856 Y102.508 E5.29170
G1 X113.712 Y102.527 E5.29467
G1 X113.570 Y102.278 E5.30058
G1 X113.346 Y102.257 E5.30523
G1 X113.149 Y102.111 E5.31028
G1 X112.678 Y102.494 E5.32280
G1 X112.740 Y103.064 E5.33460
G1 X112.825 Y103.293 E5.33964
G1 X112.971 Y103.469 E5.34435
G1 X113.143 Y103.597 E5.34877
G1 X113.439 Y103.728 E5.35544
G1 X113.662 Y103.783 E5.36017
G1 X113.910 Y103.809 E5.36531
G1 X114.174 Y103.795 E5.37076
G1 X114.478 Y103.715 E5.37725
G1 X114.842 Y103.434 E5.38673
G1 X114.978 Y103.086 E5.39443
G1 X115.049 Y102.558 E5.40541
G1 X114.749 Y102.311 E5.41342
G1 X115.085 Y102.181 E5.42084
G1 X115.061 Y101.551 E5.43383
G1 X114.973 Y101.101 E5.44328
G1 X114.801 Y100.631 E5.45360
G1 X114.566 Y100.180 E5.46408
G1 X114.321 Y99.910 E5.47160
G1 X114.157 Y99.785 E5.47585
G1 X113.962 Y99.688 E5.48033
G1 X113.612 Y99.570 E5.48795
G1 X112.968 Y99.432 E5.50152
G1 X112.557 Y99.380 E5.51006
G1 X111.125 Y99.311 E5.53961
G1 X110.549 Y99.383 E5.55157
G1 X109.744 Y99.318 E5.56822
G1 X109.470 Y99.352 E5.57390
G1 X109.230 Y99.448 E5.57925
G1 X109.103 Y99.533 E5.58239
G1 X108.816 Y99.780 E5.59020
G1 X107.714 Y101.014 E5.62428
G1 X105.322 Y101.706 E5.67562
G1 X105.080 Y102.314 E5.68910
G1 X104.823 Y102.149 E5.69540
G1 X104.585 Y101.941 E5.70190
G1 X103.533 Y102.339 E5.72510
G1 X102.370 Y102.830 E5.75111
G1 X101.116 Y103.305 E5.77874
G1 X100.495 Y103.517 E5.79228
G1 X99.853 Y103.699 E5.80603
G1 X99.361 Y103.811 E5.81642
G1 X99.031 Y103.857 E5.82329
G1 X98.955 Y103.944 E5.82567
G1 X98.824 Y103.996 E5.82857
G1 X98.634 Y104.257 E5.83523
G1 X98.382 Y105.068 E5.85273
G1 X98.170 Y105.671 E5.86589
G1 X97.952 Y106.217 E5.87802
G1 X97.622 Y106.965 E5.89487
G1 X97.187 Y107.796 E5.91421
G1 X96.812 Y108.351 E5.92801
G1 X96.324 Y108.692 E5.94027
G1 X95.631 Y109.074 E5.95658
G1 X94.644 Y109.520 E5.97890
G1 X93.568 Y109.925 E6.00261
G1 X92.734 Y110.185 E6.02060
G1 X91.665 Y110.442 E6.04328
G1 X91.261 Y110.506 E6.05169
G1 X90.706 Y110.544 E6.06316
G1 X90.634 Y110.350 E6.06742
G1 X90.834 Y110.184 E6.07277
G1 X91.336 Y109.862 E6.08507
G1 X91.971 Y109.528 E6.09985
G1 X92.925 Y109.099 E6.12141
G1 X93.577 Y108.849 E6.13581
G1 X94.552 Y108.525 E6.15697
G1 X95.329 Y108.315 E6.17356
G1 X96.349 Y108.112 E6.19500
G1 X96.579 Y107.722 E6.20432
G1 X96.778 Y106.786 E6.22406
G1 X97.086 Y105.711 E6.24709
G1 X97.295 Y105.114 E6.26014
G1 X97.619 Y104.284 E6.27850
G1 X97.552 Y104.045 E6.28362
G1 X97.624 Y103.827 E6.28834
G1 X97.378 Y103.712 E6.29394
G1 X97.308 Y103.596 E6.29674
G1 X96.931 Y103.485 E6.30484
G1 X96.328 Y103.256 E6.31813
G1 X95.989 Y103.268 E6.32512
G1 X95.581 Y103.399 E6.33396
G1 X95.038 Y103.504 E6.34535
G1 X94.598 Y103.551 E6.35448
G1 X93.993 Y103.572 E6.36694
G1 X93.315 Y103.555 E6.38094
G1 X92.633 Y103.506 E6.39502
G1 X91.856 Y103.421 E6.41113
G1 X90.901 Y103.278 E6.43103
G1 X89.787 Y103.049 E6.45447
G1 X89.197 Y102.890 E6.46706
G1 X88.587 Y102.692 E6.48029
G1 X87.693 Y102.336 E6.50012
G1 X87.293 Y102.141 E6.50929
G1 X86.875 Y101.905 E6.51919
G1 X86.367 Y101.539 E6.53208
G1 X86.009 Y101.177 E6.54258
G1 X85.874 Y101.000 E6.54718
G1 X85.691 Y100.686 E6.55467
G1 X85.594 Y100.458 E6.55976
G1 X85.503 Y100.155 E6.56629
G1 X85.432 Y99.782 E6.57411
G1 X85.391 Y99.262 E6.58486
G1 X85.398 Y98.035 E6.61014
G1 X85.430 Y97.680 E6.61751
G1 X85.487 Y97.349 E6.62443
G1 X85.593 Y96.988 E6.63217
G1 X85.664 Y96.811 E6.63610
G1 X85.869 Y96.451 E6.64466
G1 X86.134 Y96.126 E6.65328
G1 X86.523 Y95.779 E6.66403
G1 X86.881 Y95.535 E6.67297
G1 X87.474 Y95.210 E6.68690
G1 X88.046 Y94.955 E6.69980
G1 X88.802 Y94.677 E6.71641
G1 X89.408 Y94.493 E6.72946
G1 X90.362 Y94.265 E6.74968
G1 X91.323 Y94.097 E6.76979
G1 X92.446 Y93.955 E6.79312
G1 X93.421 Y93.883 E6.81325
G1 X94.200 Y93.874 E6.82931
G1 X94.834 Y93.913 E6.84241
G1 X95.390 Y93.998 E6.85399
G1 X95.763 Y94.093 E6.86193
G1 X95.981 Y94.171 E6.86672
G1 X96.285 Y94.203 E6.87302
G1 X97.120 Y93.901 E6.89130
G1 X97.695 Y93.747 E6.90358
G1 X98.274 Y93.637 E6.91572
G1 X98.458 Y93.453 E6.92110
G1 X98.610 Y93.171 E6.92769
G1 X98.553 Y92.269 E6.94632
G1 X98.540 Y91.329 E6.96569
G1 X98.579 Y90.364 E6.98560
G1 X98.653 Y89.547 E7.00251
G1 X98.050 Y89.251 E7.01635
G1 X97.153 Y89.514 E7.03563
G1 X96.439 Y89.683 E7.05075
G1 X95.783 Y89.812 E7.06452
G1 X94.813 Y89.958 E7.08474
G1 X94.197 Y90.019 E7.09750
G1 X93.611 Y90.052 E7.10959
G1 X92.900 Y90.042 E7.12425
G1 X92.485 Y89.989 E7.13288
G1 X92.443 Y89.785 E7.13718
G1 X92.909 Y89.551 E7.14793
G1 X93.499 Y89.332 E7.16091
G1 X94.140 Y89.141 E7.17468
G1 X95.125 Y88.909 E7.19554
G1 X96.093 Y88.738 E7.21581
G1 X96.871 Y88.641 E7.23198
G1 X97.647 Y88.584 E7.24801
G1 X98.454 Y88.583 E7.26464
G1 X98.734 Y88.544 E7.27047
G1 X99.087 Y88.110 E7.28199
G1 X99.265 Y88.634 E7.29341
G1 X99.347 Y89.015 E7.30144
G1 X99.447 Y89.683 E7.31536
G1 X99.523 Y90.544 E7.33318
G1 X99.550 Y91.493 E7.35274
G1 X99.544 Y92.096 E7.36517
G1 X99.487 Y93.077 E7.38541
G1 X99.557 Y93.301 E7.39026
G1 X99.554 Y93.454 E7.39341
G1 X99.822 Y93.736 E7.40142
G1 X100.660 Y93.983 E7.41944
G1 X101.683 Y94.340 E7.44177
G1 X104.066 Y95.320 E7.49488
G1 X104.971 Y95.618 E7.51450
G1 X105.489 Y95.243 E7.52769
G1 X105.784 Y94.651 E7.54132
G1 X106.036 Y94.212 E7.55176
G1 X106.372 Y93.681 E7.56472
G1 X106.850 Y93.008 E7.58172
G1 X106.713 Y92.426 E7.59405
G1 X105.468 Y92.108 E7.62052
G1 X104.690 Y91.849 E7.63742
G1 X103.892 Y91.514 E7.65526
G1 X103.256 Y91.158 E7.67028
G1 X102.845 Y91.358 E7.67970
G1 X102.645 Y91.523 E7.68504
G1 X102.447 Y91.610 E7.68950
G1 X102.117 Y91.951 E7.69929
G1 X102.013 Y91.485 E7.70914
G1 X101.544 Y91.254 E7.71991
G1 X101.711 Y91.117 E7.72437
G1 X101.883 Y90.805 E7.73170
G1 X101.830 Y90.375 E7.74064
G1 X102.221 Y90.590 E7.74983
G1 X102.465 Y90.618 E7.75488
G1 X102.609 Y90.665 E7.75802
G1 X102.823 Y90.810 E7.76334
G1 X103.200 Y90.895 E7.77131
G1 X103.538 Y90.858 E7.77832
G1 X104.120 Y90.873 E7.79032
G1 X104.692 Y90.939 E7.80217
G1 X105.112 Y91.011 E7.81096
G1 X105.856 Y91.174 E7.82665
G1 X106.503 Y91.352 E7.84049
G1 X107.120 Y91.556 E7.85388
G1 X107.626 Y91.750 E7.86506
G1 X107.787 Y91.775 E7.86841
G1 X108.138 Y91.598 E7.87651
G1 X108.754 Y91.152 E7.89219
G1 X108.571 Y91.848 E7.90703
G1 X108.672 Y92.303 E7.91665
G1 X108.898 Y92.524 E7.92317
G1 X108.450 Y92.584 E7.93248
G1 X108.146 Y92.766 E7.93978
G1 X107.741 Y93.458 E7.95631
G1 X107.283 Y94.138 E7.97321
G1 X106.726 Y94.859 E7.99199
G1 X106.242 Y95.411 E8.00712
G1 X106.280 Y95.810 E8.01538
G1 X106.229 Y95.989 F7800.000
G1 E6.01538 F2400.00000
G92 E0
G1 X90.963 Y90.411 F7800.000
G1 E2.00000 F2400.00000
G1 F900
G1 X90.510 Y90.277 E2.00972
G1 X90.786 Y89.445 E2.02781
G1 X90.942 Y89.574 E2.03198
G1 X91.169 Y89.625 E2.03678
G1 X91.305 Y89.603 E2.03961
G1 X91.442 Y89.609 E2.04245
G1 X91.579 Y89.649 E2.04538
G1 X91.677 Y89.697 E2.04762
G1 X92.049 Y89.960 E2.05704
G1 X91.796 Y90.401 E2.06751
G1 X91.746 Y90.456 E2.06904
G1 X91.662 Y90.517 E2.07119
G1 X91.340 Y90.644 E2.07831
G1 X91.098 Y91.015 E2.08744
G1 X90.979 Y90.485 E2.09865
G1 X90.893 Y89.945 F7800.000
G1 X91.264 Y91.401 F7800.000
G1 F1800
G1 X91.068 Y91.773 E2.10104
G1 X90.884 Y91.860 E2.10220
G1 X91.388 Y90.101 F7800.000
G1 F1200
G1 X91.419 Y90.101 E2.10265
G1 X93.321 Y89.733 F7800.000
G1 F1200
G1 X93.616 Y89.682 E2.10408
G1 F1200
G1 X93.981 Y89.618 E2.10721
G1 F1200
G1 X94.254 Y89.569 E2.11028
G1 F1200
G1 X94.754 Y89.485 E2.11731
G1 F1200
G1 X96.167 Y89.230 E2.14037
G1 F1200
G1 X96.917 Y89.098 E2.15088
G1 F1200
G1 X97.246 Y89.042 E2.15476
G1 F1200
G1 X97.661 Y88.966 E2.15807
G1 F1200
G1 X97.929 Y88.928 E2.15923
G1 F1200
G1 X98.064 Y88.909 E2.15939
G1 X99.047 Y88.952 E2.16055
G1 X99.079 Y89.115 F7800.000
G1 F1200
G1 X97.789 Y88.864 E2.17246
G1 X98.826 Y88.814 F7800.000
G1 F1200
G1 X99.034 Y89.388 E2.17731
G1 X99.044 Y89.731 E2.18003
G1 F1200
G1 X99.043 Y90.173 E2.18502
G1 F1200
G1 X99.047 Y90.572 E2.19057
G1 F1200
G1 X99.047 Y92.079 E2.21506
G1 F1200
G1 X99.045 Y92.818 E2.22517
G1 F1200
G1 X99.048 Y93.139 E2.22862
G1 E0.22862 F2400.00000
G92 E0
G1 X103.937 Y91.181 F7800.000
G1 E2.00000 F2400.00000
G1 F1200
G1 X104.096 Y91.221 E2.00050
G1 F1200
G1 X104.363 Y91.291 E2.00226
G1 F1200
G1 X104.631 Y91.362 E2.00495
G1 F1200
G1 X104.850 Y91.425 E2.00765
G1 F1200
G1 X106.994 Y92.012 E2.04082
G1 X107.296 Y92.217 E2.04629
G1 F1200
G1 X107.901 Y92.629 E2.05938
G1 X107.746 Y92.052 F7800.000
G1 F1200
G1 X107.325 Y93.191 E2.08148
G1 F1200
G1 X106.368 Y94.564 E2.10722
G1 F1200
G1 X106.162 Y94.853 E2.11177
G1 F1200
G1 X105.956 Y95.160 E2.11539
G1 E0.11539 F2400.00000
G92 E0
G1 X106.770 Y91.735 F7800.000
G1 E2.00000 F2400.00000
G1 F1200
G1 X107.474 Y92.467 E2.03610
G1 X108.332 Y92.065 E2.06979
G1 E0.06979 F2400.00000
G92 E0
G1 X110.617 Y98.723 F7800.000
G1 E2.00000 F2400.00000
G1 F1200
G1 X110.873 Y98.730 E2.00696
G1 F1200
G1 X111.060 Y98.733 E2.01136
G1 F1200
G1 X111.787 Y98.799 E2.02660
G1 F1200
G1 X112.594 Y98.881 E2.04086
G1 F1200
G1 X113.059 Y98.952 E2.04793
G1 X113.459 Y99.056 E2.05415
G1 F1200
G1 X113.720 Y99.141 E2.05751
G1 F1200
G1 X114.110 Y99.307 E2.06153
G1 F1200
G1 X114.454 Y99.517 E2.06429
G1 X114.731 Y99.775 E2.06688
G1 X114.892 Y99.969 E2.06860
G1 X114.997 Y100.146 E2.07001
G1 X115.148 Y100.471 E2.07246
G1 F1200
G1 X115.324 Y101.010 E2.07488
G1 X115.422 Y101.497 E2.07699
G1 X115.449 Y102.347 E2.08062
G1 X115.429 Y102.430 E2.08098
G1 E0.08098 F2400.00000
G92 E0
G1 X106.452 Y99.648 F7800.000
G1 E2.00000 F2400.00000
G1 F1200
G1 X106.947 Y99.152 E2.01942
G1 X107.573 Y98.451 E2.04543
G1 X107.192 Y97.984 E2.06213
G1 X105.153 Y100.023 E2.14202
G1 X104.771 Y100.134 E2.15302
G1 X104.717 Y100.086 E2.15502
G1 X103.832 Y100.421 E2.18123
G1 X106.560 Y97.693 E2.28810
G1 X105.861 Y97.469 E2.30843
G1 X102.521 Y100.810 E2.43928
G1 X102.068 Y100.928 E2.45223
G1 X101.863 Y101.019 E2.45846
G1 X101.689 Y101.061 E2.46341
G1 X101.438 Y101.172 E2.47101
G1 X101.147 Y101.261 E2.47944
G1 X105.144 Y97.263 E2.63603
G1 X104.437 Y97.048 E2.65652
G1 X99.722 Y101.762 E2.84118
G1 X98.413 Y102.149 E2.87899
G1 X103.747 Y96.815 E3.08792
G1 X103.089 Y96.550 E3.10757
G1 X97.667 Y101.971 E3.31994
G1 X96.970 Y101.746 E3.34024
G1 X102.301 Y96.414 E3.54907
G1 X101.623 Y96.170 E3.56904
G1 X96.200 Y101.593 E3.78148
G1 X95.752 Y101.540 E3.79397
G1 X95.092 Y101.777 E3.81338
G1 X100.950 Y95.920 E4.04283
G1 X100.254 Y95.693 E4.06311
G1 X93.986 Y101.961 E4.30866
G1 X93.065 Y101.959 E4.33416
G1 X99.558 Y95.465 E4.58851
G1 X99.114 Y95.320 E4.60147
G1 X98.702 Y95.399 E4.61309
G1 X92.210 Y101.891 E4.86740
G1 X91.394 Y101.784 E4.89018
G1 X97.498 Y95.680 E5.12926
G1 X97.046 Y95.811 E5.14228
G1 X96.404 Y95.851 E5.16009
G1 X90.609 Y101.646 E5.38709
G1 X89.849 Y101.483 E5.40861
G1 X95.646 Y95.686 E5.63567
G1 X95.349 Y95.590 E5.64432
G1 X94.897 Y95.512 E5.65701
G1 X89.138 Y101.271 E5.88262
G1 X88.468 Y101.019 E5.90246
G1 X94.012 Y95.474 E6.11963
G1 X93.044 Y95.520 E6.14648
G1 X87.837 Y100.726 E6.35044
G1 X87.428 Y100.472 E6.36378
G1 X87.295 Y100.345 E6.36886
G1 X91.998 Y95.642 E6.55306
G1 X90.881 Y95.836 E6.58447
G1 X87.035 Y99.683 E6.73513
G1 X87.030 Y98.764 E6.76057
G1 X89.616 Y96.178 E6.86188
G1 X88.795 Y96.490 E6.88621
G1 X88.212 Y96.783 E6.90427
G1 X87.908 Y96.983 E6.91436
G1 X87.230 Y97.642 E6.94056
G1 X98.200 Y103.786 F7800.000
G1 F1200
G1 X98.098 Y104.371 E6.94976
G1 X97.412 Y106.278 E6.98117
G1 F1200
G1 X97.232 Y106.777 E6.98825
G1 F1200
G1 X97.122 Y107.069 E6.99145
G1 F1200
G1 X96.991 Y107.431 E6.99420
G1 F1200
G1 X96.926 Y107.612 E6.99476
G1 X96.021 Y108.499 F7800.000
G1 F1200
G1 X95.735 Y108.603 E6.99558
G1 F1200
G1 X95.423 Y108.716 E6.99769
G1 F1200
G1 X94.933 Y108.892 E7.00299
G1 F1200
G1 X94.458 Y109.070 E7.00995
G1 F1200
G1 X92.863 Y109.648 E7.03722
G1 F1200
G1 X92.382 Y109.822 E7.04426
G1 F1200
G1 X91.968 Y109.970 E7.04888
G1 F1200
G1 X91.598 Y110.108 E7.05144
G1 F1200
G1 X91.455 Y110.158 E7.05180
G1 E5.05180 F2400.00000
G92 E0
G1 X101.857 Y107.734 F7800.000
G1 E2.00000 F2400.00000
G1 F1200
G1 X102.125 Y107.722 E2.00122
G1 F1200
G1 X102.536 Y107.721 E2.00477
G1 F1200
G1 X102.946 Y107.720 E2.00998
G1 F1200
G1 X104.728 Y107.720 E2.03738
G1 F1200
G1 X105.382 Y107.713 E2.04557
G1 X106.225 Y107.429 E2.05673
G1 X106.383 Y107.678 F7800.000
G1 F1200
G1 X105.924 Y107.499 E2.06649
G1 F1200
G1 X105.875 Y107.471 E2.06777
G1 F1200
G1 X105.850 Y107.457 E2.06849
G1 X106.099 Y106.190 E2.10161
G1 X105.965 Y106.504 F7800.000
G1 F1200
G1 X105.824 Y105.677 E2.11303
G1 F1200
G1 X105.580 Y104.326 E2.13515
G1 F1200
G1 X105.535 Y104.025 E2.13903
G1 F1200
G1 X105.481 Y103.734 E2.14205
G1 F1200
G1 X105.428 Y103.443 E2.14406
G1 F1200
G1 X105.387 Y103.258 E2.14470
G1 X105.965 Y106.504 F7800.000
G1 F1200
G1 X106.002 Y106.772 E2.14753
G1 X105.937 Y107.782 E2.15814
M106 S229.5
G1 Z1.200 F7800.000
G1 E0.15814 F2400.00000
G92 E0
G1 X89.535 Y110.354 F7800.000
G1 E2.00000 F2400.00000
G1 F900
G1 X89.602 Y110.397 E2.00163
G1 X89.733 Y110.541 E2.00565
G1 X89.773 Y110.633 E2.00771
G1 X89.752 Y110.804 E2.01127
G1 X89.656 Y110.959 E2.01502
G1 X89.584 Y111.016 E2.01692
G1 X89.454 Y111.070 E2.01982
G1 X89.110 Y111.110 E2.02695
G1 X88.796 Y110.618 E2.03899
G1 X88.940 Y110.532 E2.04244
G1 X89.214 Y110.233 E2.05079
G1 X89.465 Y110.328 E2.05632
G1 X89.554 Y110.431 F7800.000
G1 X88.540 Y110.823 F7800.000
G1 F1800
G1 X88.216 Y110.680 E2.06279
G1 X87.736 Y110.767 E2.07171
G1 F1800
G1 X87.621 Y110.789 E2.07350
G1 F1800
G1 X87.431 Y110.820 E2.07578
G1 E0.07578 F2400.00000
G92 E0
G1 X99.830 Y107.668 F7800.000
G1 E2.00000 F2400.00000
G1 F900
G1 X100.173 Y107.277 E2.01073
G1 X100.460 Y107.326 E2.01673
G1 X100.612 Y107.397 E2.02018
G1 X100.723 Y107.514 E2.02351
G1 X100.819 Y107.715 E2.02811
G1 X100.638 Y107.978 E2.03469
G1 X100.525 Y108.043 E2.03737
G1 X100.257 Y108.115 E2.04310
G1 X100.110 Y108.261 E2.04737
G1 X100.020 Y107.966 E2.05373
G1 X99.871 Y107.732 E2.05945
G1 X100.321 Y107.573 F7800.000
G1 X99.914 Y106.815 F7800.000
G1 F1800
G1 X99.744 Y106.582 E2.06422
G1 F1800
G1 X99.538 Y106.335 E2.07025
G1 F1800
G1 X99.433 Y106.213 E2.07293
G1 F1800
G1 X99.382 Y106.144 E2.07409
G1 F1800
G1 X99.235 Y106.016 E2.07618
G1 E0.07618 F2400.00000
G92 E0
G1 X101.277 Y107.704 F7800.000
G1 E2.00000 F2400.00000
G1 F1800
G1 X101.278 Y107.733 E2.00029
G1 E0.00029 F2400.00000
G92 E0
G1 X105.599 Y107.216 F7800.000
G1 E2.00000 F2400.00000
G1 F900
G1 X105.714 Y106.786 E2.00917
G1 X105.473 Y105.887 E2.02835
G1 X105.357 Y105.290 E2.04088
G1 X105.252 Y104.497 E2.05737
G1 X105.214 Y103.750 E2.07279
G1 X105.256 Y103.120 E2.08580
G1 X105.468 Y103.072 E2.09027
G1 X105.638 Y103.426 E2.09837
G1 X105.849 Y104.018 E2.11133
G1 X106.042 Y104.751 E2.12695
G1 X106.167 Y105.400 E2.14057
G1 X106.251 Y106.025 E2.15357
G1 X106.300 Y106.752 E2.16859
G1 X106.284 Y107.373 E2.18139
G1 X106.322 Y107.586 E2.18585
G1 X106.457 Y107.713 E2.18968
G1 X106.174 Y107.847 E2.19614
G1 X105.760 Y107.952 E2.20494
G1 X105.349 Y108.020 E2.21352
G1 X104.576 Y108.094 E2.22953
G1 X103.800 Y108.110 E2.24552
G1 X102.866 Y108.057 E2.26479
G1 X102.091 Y107.939 E2.28096
G1 X101.698 Y107.835 E2.28933
G1 X101.698 Y107.612 E2.29394
G1 X102.117 Y107.498 E2.30288
G1 X102.643 Y107.410 E2.31387
G1 X103.216 Y107.356 E2.32574
G1 X103.794 Y107.332 E2.33767
G1 X104.576 Y107.347 E2.35378
G1 X105.263 Y107.407 E2.36799
G1 X105.534 Y107.253 E2.37442
G1 X106.040 Y107.274 F7800.000
G1 X105.539 Y107.642 F7800.000
G1 F1200
G1 X105.395 Y107.694 E2.37485
G1 X105.539 Y107.642 F7800.000
G1 F1200
G1 X105.901 Y107.504 E2.37715
G1 X105.922 Y107.423 E2.37764
G1 F1200
G1 X105.975 Y107.039 E2.37857
G1 X105.963 Y106.486 F7800.000
G1 F1200
G1 X105.892 Y106.061 E2.37962
G1 F1200
G1 X105.602 Y104.465 E2.38850
G1 F1200
G1 X105.552 Y104.140 E2.38961
G1 E0.38961 F2400.00000
G92 E0
G1 X105.165 Y107.718 F7800.000
G1 E2.00000 F2400.00000
G1 F1200
G1 X104.759 Y107.720 E2.00093
G1 F1200
G1 X102.901 Y107.723 E2.01054
G1 F1200
G1 X102.749 Y107.719 E2.01084
G1 E0.01084 F2400.00000
G92 E0
G1 X96.247 Y108.536 F7800.000
G1 E2.00000 F2400.00000
G1 F900
G1 X95.756 Y108.850 E2.01202
G1 X95.098 Y109.189 E2.02727
G1 X94.599 Y109.412 E2.03853
G1 X93.962 Y109.663 E2.05265
G1 X93.018 Y109.978 E2.07317
G1 X92.279 Y110.173 E2.08891
G1 X91.584 Y110.299 E2.10347
G1 X91.346 Y110.310 E2.10839
G1 X91.279 Y110.095 E2.11304
G1 X91.816 Y109.762 E2.12607
G1 X92.685 Y109.334 E2.14603
G1 X93.567 Y108.977 E2.16565
G1 X94.546 Y108.654 E2.18690
G1 X95.117 Y108.500 E2.19907
G1 X95.649 Y108.385 E2.21030
G1 X96.167 Y108.316 E2.22107
G1 X96.222 Y108.465 E2.22434
G1 X95.769 Y108.682 F7800.000
G1 E0.22434 F2400.00000
G92 E0
G1 X100.599 Y91.497 F7800.000
G1 E2.00000 F2400.00000
G1 F1800
G1 X100.815 Y91.421 E2.00292
G1 F1800
G1 X100.923 Y91.400 E2.00465
G1 F1800
G1 X101.256 Y91.339 E2.01094
G1 X101.645 Y90.963 E2.02102
G1 X102.190 Y91.717 F7800.000
G1 F900
G1 X102.163 Y91.472 E2.02610
G1 X101.965 Y91.313 E2.03133
G1 X101.831 Y91.277 E2.03419
G1 X102.051 Y90.609 E2.04869
G1 X102.476 Y90.730 E2.05779
G1 X102.604 Y90.794 E2.06075
G1 X102.709 Y90.892 E2.06369
G1 X102.833 Y91.121 E2.06906
G1 X102.629 Y91.385 E2.07594
G1 X102.414 Y91.490 E2.08088
G1 X102.243 Y91.663 E2.08589
G1 X102.246 Y91.477 F7800.000
G1 E0.08589 F2400.00000
G92 E0
G1 X108.235 Y98.712 F7800.000
G1 E2.00000 F2400.00000
G1 F3600
G1 X107.995 Y98.921 E2.00859
G1 X107.571 Y99.370 E2.02524
G1 X107.055 Y99.968 E2.04654
G1 X106.340 Y100.184 E2.06670
G1 X105.005 Y100.656 E2.10489
G1 X104.598 Y100.827 E2.11680
G1 X104.570 Y100.822 E2.11756
G1 X100.331 Y102.466 E2.24023
G1 X99.438 Y102.709 E2.26518
G1 X99.266 Y102.741 E2.26991
G1 X98.632 Y102.799 E2.28710
G1 X98.343 Y102.943 E2.29579
G1 X98.173 Y102.694 E2.30392
G1 X97.299 Y102.433 E2.32852
G1 X96.630 Y102.188 E2.34775
G1 X95.882 Y102.091 E2.36811
G1 X95.290 Y102.281 E2.38486
G1 X94.863 Y102.363 E2.39659
G1 X94.395 Y102.402 E2.40928
G1 X93.896 Y102.407 E2.42272
G1 X93.383 Y102.385 E2.43659
G1 X92.442 Y102.301 E2.46207
G1 X91.524 Y102.177 E2.48707
G1 X90.777 Y102.050 E2.50749
G1 X89.688 Y101.803 E2.53763
G1 X88.978 Y101.585 E2.55767
G1 X88.172 Y101.265 E2.58107
G1 X87.525 Y100.930 E2.60070
G1 X87.141 Y100.671 E2.61321
G1 X86.881 Y100.415 E2.62305
G1 X86.700 Y100.128 E2.63220
G1 X86.620 Y99.933 E2.63788
G1 X86.542 Y99.610 E2.64684
G1 X86.504 Y99.298 E2.65531
G1 X86.487 Y98.463 E2.67784
G1 X86.534 Y97.886 E2.69345
G1 X86.650 Y97.434 E2.70607
G1 X86.743 Y97.234 E2.71200
G1 X86.871 Y97.044 E2.71819
G1 X87.073 Y96.832 E2.72607
G1 X87.359 Y96.615 E2.73577
G1 X87.662 Y96.433 E2.74531
G1 X88.340 Y96.103 E2.76564
G1 X88.858 Y95.901 E2.78065
G1 X89.524 Y95.685 E2.79953
G1 X90.236 Y95.504 E2.81935
G1 X91.325 Y95.297 E2.84926
G1 X92.455 Y95.141 E2.88003
G1 X93.401 Y95.056 E2.90563
G1 X94.106 Y95.035 E2.92468
G1 X94.723 Y95.064 E2.94132
G1 X95.141 Y95.127 E2.95273
G1 X96.166 Y95.419 E2.98149
G1 X97.194 Y95.044 E3.01102
G1 X97.660 Y94.904 E3.02414
G1 X98.137 Y94.787 E3.03740
G1 X99.008 Y94.628 E3.06127
G1 X100.004 Y94.876 E3.08897
G1 X100.519 Y95.043 E3.10357
G1 X104.781 Y96.707 E3.22701
G1 X105.324 Y96.636 E3.24178
G1 X105.474 Y96.972 E3.25172
G1 X107.218 Y97.525 E3.30107
G1 X107.552 Y97.974 E3.31617
G1 X108.020 Y98.525 E3.33566
G1 X108.179 Y98.663 E3.34133
G1 X109.575 Y98.725 F7800.000
G1 F3600
G1 X108.984 Y98.959 E3.35848
G1 X108.742 Y99.113 E3.36622
G1 X108.436 Y99.380 E3.37717
G1 X108.043 Y99.796 E3.39261
G1 X107.415 Y100.523 E3.41851
G1 X106.538 Y100.788 E3.44325
G1 X105.235 Y101.249 E3.48053
G1 X104.953 Y101.368 E3.48877
G1 X104.851 Y101.522 E3.49376
G1 X104.631 Y101.480 E3.49979
G1 X100.537 Y103.067 E3.61825
G1 X100.039 Y103.216 E3.63226
G1 X99.572 Y103.330 E3.64523
G1 X99.354 Y103.371 E3.65123
G1 X98.809 Y103.421 E3.66599
G1 X98.131 Y103.759 E3.68641
G1 X97.776 Y103.239 E3.70342
G1 X97.099 Y103.037 E3.72248
G1 X96.478 Y102.809 E3.74032
G1 X95.941 Y102.740 E3.75493
G1 X95.448 Y102.898 E3.76889
G1 X94.950 Y102.993 E3.78257
G1 X94.424 Y103.037 E3.79680
G1 X93.886 Y103.043 E3.81131
G1 X93.341 Y103.020 E3.82603
G1 X92.371 Y102.933 E3.85231
G1 X91.428 Y102.805 E3.87798
G1 X90.654 Y102.674 E3.89917
G1 X89.524 Y102.418 E3.93042
G1 X88.767 Y102.185 E3.95179
G1 X87.908 Y101.844 E3.97672
G1 X87.206 Y101.481 E3.99802
G1 X86.865 Y101.262 E4.00896
G1 X86.721 Y101.150 E4.01388
G1 X86.403 Y100.835 E4.02596
G1 X86.302 Y100.703 E4.03043
G1 X86.129 Y100.411 E4.03958
G1 X86.020 Y100.143 E4.04739
G1 X85.915 Y99.718 E4.05920
G1 X85.869 Y99.343 E4.06939
G1 X85.851 Y98.454 E4.09338
G1 X85.905 Y97.787 E4.11144
G1 X85.967 Y97.485 E4.11975
G1 X86.057 Y97.202 E4.12777
G1 X86.189 Y96.920 E4.13616
G1 X86.374 Y96.645 E4.14512
G1 X86.648 Y96.357 E4.15583
G1 X87.003 Y96.088 E4.16785
G1 X87.359 Y95.874 E4.17906
G1 X88.085 Y95.520 E4.20084
G1 X88.645 Y95.302 E4.21705
G1 X89.348 Y95.074 E4.23699
G1 X90.098 Y94.883 E4.25788
G1 X91.222 Y94.670 E4.28875
G1 X92.383 Y94.510 E4.32036
G1 X93.362 Y94.422 E4.34688
G1 X94.112 Y94.399 E4.36710
G1 X94.785 Y94.431 E4.38529
G1 X95.276 Y94.505 E4.39867
G1 X96.142 Y94.751 E4.42297
G1 X96.993 Y94.440 E4.44742
G1 X97.493 Y94.290 E4.46150
G1 X98.005 Y94.165 E4.47571
G1 X98.842 Y94.012 E4.49867
G1 X99.012 Y93.640 E4.50969
G1 X99.185 Y94.017 E4.52087
G1 X100.179 Y94.264 E4.54850
G1 X100.733 Y94.444 E4.56420
G1 X104.860 Y96.056 E4.68373
G1 X105.710 Y95.943 E4.70688
G1 X105.939 Y96.455 E4.72199
G1 X107.130 Y96.841 E4.75576
G1 X107.598 Y96.971 E4.76888
G1 X108.050 Y97.578 E4.78929
G1 X108.474 Y98.077 E4.80694
G1 X108.872 Y98.424 E4.82120
G1 X109.506 Y98.696 E4.83981
G1 E2.83981 F2400.00000
G92 E0
G1 X112.748 Y102.069 F7800.000
G1 E2.00000 F2400.00000
G1 F1800
G1 X112.636 Y102.595 E2.01108
G1 X112.672 Y102.999 E2.01944
G1 X112.753 Y103.266 E2.02521
G1 X112.916 Y103.489 E2.03090
G1 X113.120 Y103.625 E2.03595
G1 X113.243 Y103.692 E2.03883
G1 X113.635 Y103.812 E2.04728
G1 X113.894 Y103.834 E2.05263
G1 X114.167 Y103.823 E2.05827
G1 X114.475 Y103.742 E2.06482
G1 X114.721 Y103.580 E2.07090
G1 X114.847 Y103.448 E2.07466
G1 X114.995 Y103.106 E2.08234
G1 X115.082 Y102.429 E2.09640
G1 X114.895 Y102.270 E2.10148
G1 X115.096 Y102.197 E2.10590
G1 X115.094 Y101.785 E2.11437
G1 X115.043 Y101.331 E2.12380
G1 X114.928 Y100.913 E2.13273
G1 X114.749 Y100.482 E2.14236
G1 X114.572 Y100.180 E2.14956
G1 X114.323 Y99.913 E2.15711
G1 X114.014 Y99.713 E2.16469
G1 X113.810 Y99.634 E2.16919
G1 X113.396 Y99.524 E2.17802
G1 X112.795 Y99.414 E2.19060
G1 X112.350 Y99.374 E2.19983
G1 X111.156 Y99.319 E2.22446
G1 X110.539 Y99.384 E2.23724
G1 X109.777 Y99.334 E2.25299
G1 X109.476 Y99.367 E2.25922
G1 X109.240 Y99.460 E2.26444
G1 X109.079 Y99.563 E2.26838
G1 X108.825 Y99.785 E2.27534
G1 X108.460 Y100.172 E2.28631
G1 X107.718 Y101.017 E2.30948
G1 X106.712 Y101.321 E2.33113
G1 X105.437 Y101.772 E2.35901
G1 X105.326 Y101.819 E2.36149
G1 X105.191 Y102.022 E2.36651
G1 X105.007 Y102.121 E2.37084
G1 X104.685 Y102.061 E2.37759
G1 X100.719 Y103.598 E2.46525
G1 X100.186 Y103.758 E2.47672
G1 X99.690 Y103.879 E2.48724
G1 X99.431 Y103.927 E2.49267
G1 X98.965 Y103.970 E2.50232
G1 X98.525 Y104.190 E2.51246
G1 X98.241 Y105.121 E2.53253
G1 X97.910 Y106.015 E2.55216
G1 X97.526 Y106.864 E2.57137
G1 X97.170 Y107.517 E2.58671
G1 X96.970 Y107.799 E2.59383
G1 X96.759 Y107.719 E2.59848
G1 X96.802 Y107.335 E2.60642
G1 X96.998 Y106.439 E2.62534
G1 X97.347 Y105.311 E2.64967
G1 X97.775 Y104.231 E2.67361
G1 X97.425 Y103.719 E2.68639
G1 X96.922 Y103.569 E2.69721
G1 X96.344 Y103.357 E2.70990
G1 X95.993 Y103.312 E2.71720
G1 X95.587 Y103.442 E2.72598
G1 X95.026 Y103.550 E2.73774
G1 X94.450 Y103.597 E2.74966
G1 X93.877 Y103.603 E2.76147
G1 X93.304 Y103.579 E2.77329
G1 X92.308 Y103.490 E2.79390
G1 X91.344 Y103.360 E2.81396
G1 X90.545 Y103.224 E2.83066
G1 X89.379 Y102.960 E2.85530
G1 X88.580 Y102.714 E2.87252
G1 X87.675 Y102.355 E2.89259
G1 X86.925 Y101.967 E2.90999
G1 X86.541 Y101.720 E2.91940
G1 X86.351 Y101.573 E2.92437
G1 X85.981 Y101.206 E2.93510
G1 X85.837 Y101.017 E2.93999
G1 X85.626 Y100.661 E2.94852
G1 X85.438 Y100.151 E2.95974
G1 X85.362 Y99.814 E2.96684
G1 X85.309 Y99.383 E2.97579
G1 X85.291 Y98.446 E2.99511
G1 X85.351 Y97.699 E3.01055
G1 X85.423 Y97.344 E3.01802
G1 X85.533 Y96.997 E3.02553
G1 X85.699 Y96.643 E3.03359
G1 X85.935 Y96.293 E3.04229
G1 X86.273 Y95.937 E3.05239
G1 X86.688 Y95.623 E3.06313
G1 X87.091 Y95.381 E3.07282
G1 X87.860 Y95.006 E3.09044
G1 X88.456 Y94.774 E3.10364
G1 X89.192 Y94.536 E3.11958
G1 X89.977 Y94.336 E3.13627
G1 X91.132 Y94.117 E3.16049
G1 X92.320 Y93.952 E3.18521
G1 X93.329 Y93.862 E3.20609
G1 X94.116 Y93.838 E3.22233
G1 X94.840 Y93.872 E3.23727
G1 X95.395 Y93.955 E3.24883
G1 X96.120 Y94.162 E3.26438
G1 X96.816 Y93.908 E3.27965
G1 X97.346 Y93.749 E3.29104
G1 X97.888 Y93.617 E3.30254
G1 X98.453 Y93.513 E3.31439
G1 X98.717 Y92.934 E3.32751
G1 X98.658 Y91.898 E3.34889
G1 X98.662 Y91.127 E3.36479
G1 X98.736 Y90.013 E3.38779
G1 X98.829 Y89.386 E3.40087
G1 X98.461 Y88.916 E3.41318
G1 X99.074 Y88.674 E3.42676
G1 X99.275 Y89.470 E3.44367
G1 X99.319 Y89.759 E3.44970
G1 X99.408 Y90.716 E3.46950
G1 X99.432 Y91.492 E3.48551
G1 X99.409 Y92.439 E3.50502
G1 X99.359 Y93.056 E3.51778
G1 X99.582 Y93.538 E3.52872
G1 X100.333 Y93.725 E3.54469
G1 X100.921 Y93.915 E3.55743
G1 X104.929 Y95.481 E3.64612
G1 X105.414 Y95.417 E3.65619
G1 X105.658 Y95.240 E3.66241
G1 X105.850 Y94.814 E3.67204
G1 X106.180 Y94.211 E3.68619
G1 X106.578 Y93.586 E3.70147
G1 X107.010 Y92.998 E3.71650
G1 X106.940 Y92.666 E3.72349
G1 X106.947 Y92.338 E3.73026
G1 X106.214 Y92.188 E3.74568
G1 X105.513 Y92.000 E3.76065
G1 X104.914 Y91.800 E3.77365
G1 X104.419 Y91.603 E3.78465
G1 X104.019 Y91.406 E3.79383
G1 X103.762 Y91.244 E3.80010
G1 X103.813 Y91.039 E3.80446
G1 X104.029 Y91.024 E3.80892
G1 X104.411 Y91.042 E3.81679
G1 X105.181 Y91.145 E3.83280
G1 X106.031 Y91.336 E3.85075
G1 X106.812 Y91.576 E3.86761
G1 X107.199 Y91.717 E3.87610
G1 X107.649 Y91.913 E3.88621
G1 X107.857 Y91.932 E3.89051
G1 X108.085 Y91.864 E3.89543
G1 X108.397 Y91.654 E3.90318
G1 X108.317 Y92.043 E3.91136
G1 X108.315 Y92.309 E3.91686
G1 X108.083 Y92.591 E3.92438
G1 X107.699 Y93.295 E3.94092
G1 X107.222 Y94.026 E3.95890
G1 X106.748 Y94.644 E3.97496
G1 X106.075 Y95.385 E3.99559
G1 X106.349 Y95.998 E4.00943
G1 X107.292 Y96.304 E4.02985
G1 X107.934 Y96.483 E4.04358
G1 X108.489 Y97.229 E4.06275
G1 X108.874 Y97.682 E4.07500
G1 X109.174 Y97.944 E4.08321
G1 X109.492 Y98.080 E4.09035
G1 X109.749 Y98.109 E4.09568
G1 X110.535 Y98.060 E4.11191
G1 X110.726 Y98.072 E4.11585
G1 X113.253 Y98.482 E4.16862
G1 X113.632 Y98.602 E4.17680
G1 X114.106 Y98.821 E4.18756
G1 X114.488 Y99.039 E4.19663
G1 X114.858 Y99.318 E4.20618
G1 X115.169 Y99.661 E4.21572
G1 X115.413 Y100.056 E4.22530
G1 X115.563 Y100.525 E4.23545
G1 X115.701 Y101.093 E4.24750
G1 X115.786 Y101.786 E4.26187
G1 X115.781 Y102.344 E4.27339
G1 X115.759 Y102.561 E4.27788
G1 X115.690 Y102.920 E4.28542
G1 X115.573 Y103.280 E4.29321
G1 X115.392 Y103.639 E4.30151
G1 X115.167 Y103.936 E4.30918
G1 X115.044 Y104.050 E4.31263
G1 X114.814 Y104.209 E4.31840
G1 X114.576 Y104.300 E4.32365
G1 X114.305 Y104.362 E4.32938
G1 X114.135 Y104.377 E4.33291
G1 X113.755 Y104.355 E4.34074
G1 X113.463 Y104.284 E4.34693
G1 X113.248 Y104.193 E4.35175
G1 X113.084 Y104.097 E4.35566
G1 X112.905 Y103.962 E4.36029
G1 X112.729 Y103.794 E4.36531
G1 X112.575 Y103.611 E4.37024
G1 X112.366 Y103.266 E4.37854
G1 X112.320 Y103.121 E4.38167
G1 X112.316 Y103.041 E4.38334
G1 X112.344 Y102.421 E4.39613
G1 X112.377 Y102.254 E4.39963
G1 X112.467 Y102.061 E4.40402
G1 X112.408 Y102.059 E4.40524
G1 X112.699 Y101.772 E4.41368
G1 X112.867 Y101.663 E4.41781
G1 X112.999 Y101.612 E4.42072
G1 X113.144 Y101.590 E4.42375
G1 X113.258 Y101.603 E4.42610
G1 X113.433 Y101.666 E4.42994
G1 X113.596 Y101.769 E4.43392
G1 X113.954 Y102.103 E4.44402
G1 X113.937 Y102.103 E4.44437
G1 X114.010 Y102.202 E4.44692
G1 X113.824 Y102.330 E4.45157
G1 X113.746 Y102.347 E4.45321
G1 X113.659 Y102.310 E4.45517
G1 X113.503 Y102.090 E4.46072
G1 X112.823 Y102.071 E4.47473
G1 X112.261 Y101.956 F7800.000
G1 E2.47473 F2400.00000
G92 E0
G1 X98.229 Y88.742 F7800.000
G1 E2.00000 F2400.00000
G1 F900
G1 X98.268 Y88.973 E2.00483
G1 X97.669 Y89.214 E2.01813
G1 X97.189 Y89.367 E2.02853
G1 X96.727 Y89.489 E2.03837
G1 X95.603 Y89.720 E2.06202
G1 X94.496 Y89.863 E2.08502
G1 X93.546 Y89.900 E2.10463
G1 X93.144 Y89.867 E2.11292
G1 X93.104 Y89.647 E2.11754
G1 X93.359 Y89.527 E2.12334
G1 X94.201 Y89.244 E2.14166
G1 X95.182 Y89.009 E2.16244
G1 X96.079 Y88.852 E2.18122
G1 X97.212 Y88.733 E2.20469
G1 X97.792 Y88.720 E2.21666
G1 X98.154 Y88.738 E2.22412
G1 X98.135 Y88.956 F7800.000
G1 X97.070 Y89.069 F7800.000
G1 F1200
G1 X96.647 Y89.146 E2.22502
G1 F1200
G1 X94.468 Y89.527 E2.23483
G1 F1200
G1 X94.276 Y89.553 E2.23524
G1 E0.23524 F2400.00000
G92 E0
G1 X99.042 Y90.222 F7800.000
G1 E2.00000 F2400.00000
G1 F1200
G1 X99.048 Y90.738 E2.00209
G1 F1200
G1 X99.040 Y91.888 E2.00925
G1 F1200
G1 X99.046 Y92.676 E2.01248
G1 F1200
G1 X99.052 Y92.985 E2.01281
G1 E0.01281 F2400.00000
G92 E0
G1 X104.803 Y91.414 F7800.000
G1 E2.00000 F2400.00000
G1 F1200
G1 X105.118 Y91.494 E2.00116
G1 F1200
G1 X106.302 Y91.817 E2.00897
G1 F1200
G1 X106.887 Y91.972 E2.01146
G1 F1200
G1 X107.204 Y92.066 E2.01201
G1 X107.690 Y92.199 F7800.000
G1 F1200
G1 X107.384 Y93.107 E2.01736
G1 X106.378 Y94.550 E2.02718
G1 F1200
G1 X106.283 Y94.685 E2.02755
G1 E0.02755 F2400.00000
G92 E0
G1 X107.107 Y98.298 F7800.000
G1 E2.00000 F2400.00000
G1 F4800
G1 X106.610 Y97.801 E2.01672
G1 X105.320 Y97.392 E2.04892
G1 X107.253 Y99.325 E2.11398
G1 X106.949 Y99.678 E2.12507
G1 X106.777 Y99.730 E2.12933
G1 X103.918 Y96.871 E2.22553
G1 X102.472 Y96.306 E2.26246
G1 X106.111 Y99.945 E2.38491
G1 X105.461 Y100.175 E2.40133
G1 X101.027 Y95.741 E2.55054
G1 X100.086 Y95.373 E2.57458
G1 X99.631 Y95.226 E2.58594
G1 X104.820 Y100.416 E2.76055
G1 X104.179 Y100.655 E2.77684
G1 X98.565 Y95.042 E2.96574
G1 X97.831 Y95.188 E2.98355
G1 X103.544 Y100.901 E3.17579
G1 X102.909 Y101.147 E3.19199
G1 X97.143 Y95.382 E3.38601
G1 X96.498 Y95.617 E3.40236
G1 X102.274 Y101.394 E3.59673
G1 X101.640 Y101.640 E3.61293
G1 X95.759 Y95.759 E3.81082
G1 X94.781 Y95.480 E3.83500
G1 X94.567 Y95.448 E3.84015
G1 X101.005 Y101.886 E4.05678
G1 X100.369 Y102.131 E4.07299
G1 X93.646 Y95.408 E4.29924
G1 X92.813 Y95.456 E4.31907
G1 X99.677 Y102.320 E4.55003
G1 X99.416 Y102.380 E4.55640
G1 X98.904 Y102.428 E4.56864
G1 X92.017 Y95.541 E4.80037
G1 X91.243 Y95.648 E4.81896
G1 X97.678 Y102.083 E5.03549
G1 X97.006 Y101.836 E5.05252
G1 X96.483 Y101.769 E5.06507
G1 X90.501 Y95.786 E5.26637
G1 X89.779 Y95.946 E5.28394
G1 X95.671 Y101.838 E5.48220
G1 X95.375 Y101.933 E5.48961
G1 X94.959 Y102.007 E5.49965
G1 X89.097 Y96.144 E5.69691
G1 X88.450 Y96.379 E5.71327
G1 X94.112 Y102.040 E5.90377
G1 X93.168 Y101.977 E5.92628
G1 X87.851 Y96.660 E6.10519
G1 X87.462 Y96.879 E6.11580
G1 X87.306 Y96.997 E6.12045
G1 X92.172 Y101.862 E6.28416
G1 X91.124 Y101.696 E6.30939
G1 X86.945 Y97.516 E6.45003
G1 X86.894 Y97.738 E6.45544
G1 X86.855 Y98.307 E6.46901
G1 X89.975 Y101.427 E6.57400
G1 X89.409 Y101.253 E6.58808
G1 X88.584 Y100.917 E6.60928
G1 X86.894 Y99.227 E6.66615
G1 E4.66615 F2400.00000
G92 E0
G1 X92.475 Y109.792 F7800.000
G1 E2.00000 F2400.00000
G1 F1200
G1 X92.914 Y109.632 E2.00196
G1 F1200
G1 X94.457 Y109.072 E2.01241
G1 F1200
G1 X94.801 Y108.943 E2.01384
G1 F1200
G1 X95.088 Y108.837 E2.01438
G1 E0.01438 F2400.00000
G92 E0
G1 X97.281 Y106.635 F7800.000
G1 E2.00000 F2400.00000
G1 F1200
G1 X97.318 Y106.523 E2.00018
G1 F1200
G1 X98.152 Y104.221 E2.01045
G1 X98.158 Y104.151 E2.01074
G1 X98.038 Y104.119 E2.01126
G1 X110.678 Y98.719 F7800.000
G1 F1200
G1 X110.970 Y98.727 E2.01954
G1 F1200
G1 X111.568 Y98.777 E2.03459
G1 F1200
G1 X112.379 Y98.861 E2.05180
G1 F1200
G1 X113.137 Y98.969 E2.06490
G1 X113.458 Y99.049 E2.07057
G1 F1200
G1 X113.906 Y99.209 E2.07726
G1 F1200
G1 X114.188 Y99.340 E2.08051
G1 F1200
G1 X114.588 Y99.613 E2.08453
G1 X114.880 Y99.936 E2.08814
G1 X115.090 Y100.304 E2.09166
G1 F1200
G1 X115.263 Y100.793 E2.09479
G1 F1200
G1 X115.378 Y101.262 E2.09654
G1 X115.437 Y101.762 E2.09836
G1 X115.428 Y102.431 E2.10078
G1 E0.10078 F2400.00000
G92 E0
G1 X91.804 Y90.080 F7800.000
G1 E2.00000 F2400.00000
G1 F900
G1 X91.711 Y90.284 E2.00464
G1 X91.602 Y90.400 E2.00791
G1 X91.527 Y90.447 E2.00973
G1 X91.318 Y90.509 E2.01424
G1 X91.269 Y90.586 E2.01611
G1 X90.601 Y90.251 E2.03151
G1 X90.979 Y90.023 E2.04061
G1 X90.938 Y89.770 E2.04592
G1 X91.416 Y89.715 E2.05584
G1 X91.514 Y89.747 E2.05796
G1 X91.658 Y89.843 E2.06152
G1 X91.770 Y90.013 E2.06572
G1 X91.599 Y90.172 F7800.000
G1 X90.767 Y89.368 F7800.000
G1 F1800
G1 X90.705 Y89.342 E2.06646
G1 F1800
G1 X90.639 Y89.300 E2.06757
G1 F1800
G1 X90.450 Y89.175 E2.07127
G1 F1800
G1 X90.075 Y88.912 E2.07992
G1 F1800
G1 X89.958 Y88.833 E2.08210
G1 F1800
G1 X89.922 Y88.803 E2.08267
G1 X89.893 Y90.468 F7800.000
G1 F1800
G1 X89.743 Y90.543 E2.08560
G1 F1800
G1 X89.637 Y90.593 E2.08739
G1 F1800
G1 X89.583 Y90.621 E2.08813
M106 S237.15
G1 Z1.500 F7800.000
G1 E0.08813 F2400.00000
G92 E0
G1 X89.004 Y111.495 F7800.000
G1 E2.00000 F2400.00000
G1 F1800
G1 X88.755 Y112.163 E2.00805
G1 F1800
G1 X88.722 Y112.308 E2.00923
G1 X89.422 Y110.517 F7800.000
G1 F900
G1 X89.498 Y110.567 E2.01111
G1 X89.580 Y110.714 E2.01457
G1 X89.488 Y110.823 E2.01752
G1 X89.322 Y110.912 E2.02140
G1 X89.050 Y110.561 E2.03055
G1 X89.349 Y110.500 E2.03684
G1 X89.438 Y110.606 F7800.000
G1 X88.535 Y110.623 F7800.000
G1 F1800
G1 X88.261 Y110.669 E2.03932
G1 F1800
G1 X87.821 Y110.745 E2.04482
G1 F1800
G1 X87.667 Y110.789 E2.04636
G1 X88.975 Y109.911 F7800.000
G1 F1800
G1 X88.933 Y109.801 E2.04702
G1 F1800
G1 X88.865 Y109.728 E2.04782
G1 F1800
G1 X88.776 Y109.617 E2.04929
G1 F1800
G1 X88.553 Y109.362 E2.05350
G1 F1800
G1 X88.429 Y109.200 E2.05558
