; generated by Slic3r 1.3.0 on 2020-02-25 at 17:50:00

; external perimeters extrusion width = 0.55mm (5.57mm^3/s)
; perimeters extrusion width = 0.58mm (11.78mm^3/s)
; infill extrusion width = 0.58mm (15.71mm^3/s)
; solid infill extrusion width = 0.58mm (3.93mm^3/s)
; top infill extrusion width = 0.58mm (2.95mm^3/s)

M107
M104 S205 ; set temperature
G28 ; home all axes
G1 Z5 F5000 ; lift nozzle

; Filament gcode

M109 S205 ; set temperature and wait for it to be reached
G21 ; set units to millimeters
G90 ; use absolute coordinates
M82 ; use absolute distances for extrusion
G92 E0
G1 Z0.400 F7800.000
G1 E-2.00000 F2400.00000
G92 E0
G1 X92.929 Y92.568 F7800.000
G1 E2.00000 F2400.00000
G1 F1800
G1 X93.485 Y92.013 E2.03390
G1 X93.821 Y92.754 F7800.000
G1 F1800
G1 X94.377 Y92.199 E2.06779
G1 X93.916 Y92.728 F7800.000
G1 F1800
G1 X94.471 Y92.173 E2.10168
G1 X94.958 Y91.957 E2.12466
G1 X95.373 Y91.815 E2.14360
G1 X96.025 Y91.635 E2.17277
G1 X94.915 Y92.745 E2.24051
G1 X95.712 Y92.686 E2.27502
G1 X96.038 Y92.639 E2.28921
G1 X97.302 Y91.374 E2.36636
G1 X97.801 Y91.303 E2.38809
G1 X98.453 Y91.240 E2.41632
G1 X97.279 Y92.414 E2.48789
G1 X98.231 Y92.168 E2.53030
G1 X98.477 Y92.232 E2.54126
G1 X99.644 Y91.066 E2.61242
G1 X99.724 Y91.480 E2.63061
G1 X99.777 Y91.949 E2.65098
G1 X98.745 Y92.981 E2.71392
G1 X98.709 Y94.034 E2.75938
G1 X99.841 Y92.901 E2.82848
G1 X99.858 Y93.341 E2.84749
G1 X99.844 Y93.915 E2.87225
G1 X98.749 Y95.010 E2.93905
G1 E0.93905 F2400.00000
G92 E0
G1 X102.016 Y92.759 F7800.000
G1 E2.00000 F2400.00000
G1 F1800
G1 X101.047 Y93.728 E2.05911
G1 X101.355 Y93.851 E2.07342
G1 X101.369 Y94.024 E2.08090
G1 X101.498 Y93.926 E2.08786
G1 X101.660 Y93.864 E2.09537
G1 X101.800 Y93.773 E2.10256
G1 X102.153 Y93.639 E2.11887
G1 X102.868 Y92.923 E2.16251
G1 X103.140 Y92.924 E2.17422
G1 X103.797 Y93.011 E2.20280
G1 X102.870 Y93.938 E2.25931
G1 X103.617 Y94.208 E2.29356
G1 X104.639 Y93.186 E2.35589
G1 X105.432 Y93.409 E2.39145
G1 X104.412 Y94.429 E2.45367
G1 X104.728 Y94.508 E2.46771
G1 X104.912 Y94.946 E2.48818
G1 X106.283 Y93.574 E2.57185
G1 X106.789 Y93.167 E2.59987
G1 X106.631 Y93.660 E2.62223
G1 X106.849 Y94.025 E2.64054
G1 X106.216 Y94.658 E2.67917
G1 E0.67917 F2400.00000
G92 E0
G1 X104.296 Y101.660 F7800.000
G1 E2.00000 F2400.00000
G1 F1800
G1 X103.611 Y102.345 E2.04181
G1 X103.594 Y102.819 E2.06228
G1 X103.630 Y103.343 E2.08491
G1 X104.578 Y102.395 E2.14277
G1 X104.793 Y103.196 E2.17858
G1 X103.741 Y104.248 E2.24271
G1 X103.777 Y104.485 E2.25309
G1 X103.915 Y105.091 E2.27987
G1 X104.950 Y104.056 E2.34301
G1 X105.037 Y104.984 E2.38325
G1 X103.708 Y106.314 E2.46437
G1 X102.640 Y106.366 F7800.000
G1 F1800
G1 X103.770 Y105.236 E2.53330
G1 X103.130 Y105.216 E2.56093
G1 X102.756 Y105.233 E2.57706
G1 X101.677 Y106.312 E2.64290
G1 X101.283 Y106.272 E2.65996
G1 X100.795 Y106.178 E2.68144
G1 X101.623 Y105.349 E2.73199
G1 X101.195 Y105.436 E2.75082
G1 X100.861 Y105.352 E2.76571
G1 X100.704 Y105.252 E2.77372
G1 X99.717 Y106.239 E2.83394
G1 X99.575 Y106.047 E2.84426
G1 X99.736 Y106.001 E2.85150
G1 X99.749 Y105.645 E2.86686
G1 X99.857 Y105.747 E2.87326
G1 X100.148 Y105.808 E2.88609
G1 E0.88609 F2400.00000
G92 E0
G1 X97.331 Y105.576 F7800.000
G1 E2.00000 F2400.00000
G1 F1800
G1 X98.733 Y104.174 E2.08553
G1 X99.003 Y103.449 E2.11893
G1 X99.251 Y102.640 E2.15541
G1 X97.785 Y104.105 E2.24481
G1 X98.094 Y103.325 E2.28102
G1 X98.072 Y103.253 E2.28424
G1 X98.156 Y102.941 E2.29821
G1 X98.007 Y102.867 E2.30536
G1 E0.30536 F2400.00000
G92 E0
G1 X95.495 Y107.412 F7800.000
G1 E2.00000 F2400.00000
G1 F1800
G1 X96.900 Y106.007 E2.08567
G1 X96.116 Y106.224 E2.12077
G1 X95.432 Y106.459 E2.15195
G1 X93.978 Y107.913 E2.24067
G1 X93.586 Y108.016 E2.25815
G1 X93.038 Y108.122 E2.28220
G1 X92.722 Y108.152 E2.29593
G1 X93.549 Y107.325 E2.34641
G1 X93.198 Y107.554 E2.36450
G1 X92.704 Y107.689 E2.38658
G1 X92.499 Y107.523 E2.39796
G1 X92.382 Y107.475 E2.40340
G1 X91.426 Y108.431 E2.46172
G1 X91.355 Y108.335 E2.46686
G1 X91.277 Y108.285 E2.47087
G1 X91.560 Y108.151 E2.48438
G1 X91.527 Y107.926 E2.49417
G1 X91.827 Y108.031 E2.50786
G1 E0.50786 F2400.00000
G92 E0
G1 X91.722 Y95.938 F7800.000
G1 E2.00000 F2400.00000
G1 F1800
G1 X88.964 Y98.697 E2.16829
G1 X88.949 Y98.830 E2.17409
G1 X88.956 Y99.720 E2.21249
G1 X93.131 Y95.545 E2.46720
G1 X93.965 Y95.403 E2.50369
G1 X94.332 Y95.361 E2.51961
G1 X89.088 Y100.606 E2.83956
G1 X89.141 Y100.747 E2.84610
G1 X89.245 Y100.929 E2.85514
G1 X89.495 Y101.215 E2.87151
G1 X95.422 Y95.287 E3.23313
G1 X95.994 Y95.289 E3.25782
G1 X96.399 Y95.327 E3.27537
G1 X90.074 Y101.652 E3.66128
G1 X90.389 Y101.823 E3.67676
G1 X90.757 Y101.986 E3.69409
G1 X97.230 Y95.512 E4.08903
G1 X97.591 Y95.628 E4.10539
G1 X97.722 Y95.618 E4.11106
G1 X98.290 Y95.468 E4.13640
G1 X91.502 Y102.257 E4.55055
G1 X92.296 Y102.479 E4.58613
G1 X99.772 Y95.003 E5.04222
G1 X100.061 Y95.478 E5.06620
G1 X100.261 Y95.531 E5.07512
G1 X93.151 Y102.640 E5.50886
G1 X94.062 Y102.746 E5.54842
G1 X101.066 Y95.743 E5.97567
G1 X101.870 Y95.954 E6.01157
G1 X95.027 Y102.798 E6.42906
G1 X95.405 Y102.795 E6.44537
G1 X96.120 Y102.721 E6.47639
G1 X102.674 Y96.167 E6.87621
G1 X103.480 Y96.378 E6.91214
G1 X97.344 Y102.513 E7.28645
G1 X97.897 Y102.656 E7.31110
G1 X97.976 Y102.851 E7.32018
G1 X98.007 Y102.867 E7.32168
G1 X105.837 Y95.037 E7.79935
G1 X105.621 Y95.350 E7.81576
G1 X104.919 Y96.226 E7.86416
G1 X104.913 Y96.483 E7.87528
G1 X105.056 Y96.835 E7.89164
G1 X99.219 Y102.671 E8.24772
G1 X100.578 Y102.329 E8.30817
G1 X105.786 Y97.121 E8.62589
G1 X106.157 Y97.257 E8.64296
G1 X106.372 Y97.551 E8.65867
G1 X101.969 Y101.954 E8.92732
G1 X103.106 Y101.663 E8.97797
G1 X103.201 Y101.739 E8.98320
G1 X106.824 Y98.116 E9.20424
G1 X107.002 Y98.289 E9.21495
G1 X107.276 Y98.451 E9.22869
G1 X107.473 Y98.483 E9.23730
G1 X104.869 Y101.088 E9.39617
G1 X105.412 Y100.898 E9.42101
G1 X106.223 Y99.992 E9.47344
G1 X106.546 Y99.717 E9.49176
G1 X106.830 Y99.601 E9.50496
G1 X107.064 Y99.586 E9.51511
G1 X107.364 Y99.609 E9.52807
G1 X108.461 Y98.511 E9.59501
G1 X109.330 Y98.659 E9.63302
G1 X108.427 Y99.562 E9.68810
G1 X109.376 Y99.630 E9.72913
G1 X110.195 Y98.811 E9.77909
G1 X110.301 Y98.841 E9.78384
G1 X110.675 Y98.997 E9.80135
G1 X110.905 Y99.117 E9.81253
G1 X110.192 Y99.830 E9.85601
G1 X110.356 Y99.900 E9.86370
G1 X110.565 Y100.033 E9.87436
G1 X110.780 Y100.259 E9.88782
G1 X111.461 Y99.577 E9.92941
G1 X111.610 Y99.807 E9.94121
G1 X111.799 Y100.256 E9.96224
G1 X111.112 Y100.943 E10.00417
G1 X111.198 Y101.276 E10.01902
G1 X111.222 Y101.452 E10.02668
G1 X111.229 Y101.843 E10.04352
G1 X111.958 Y101.113 E10.08802
G1 X111.962 Y101.357 E10.09855
G1 X111.916 Y101.735 E10.11497
G1 X111.806 Y102.109 E10.13178
G1 X111.690 Y102.346 E10.14317
G1 X111.558 Y102.530 E10.15292
G1 X111.001 Y103.087 E10.18692
G1 X109.781 Y103.290 F7800.000
G1 F1800
G1 X110.373 Y102.698 E10.22305
G1 X110.475 Y102.731 E10.22765
G1 X110.709 Y102.765 E10.23784
G1 X110.951 Y102.752 E10.24831
G1 X111.172 Y102.696 E10.25817
G1 X111.386 Y102.588 E10.26851
G1 X111.593 Y102.358 E10.28182
G1 X111.692 Y102.097 E10.29387
G1 X111.772 Y101.674 E10.31244
G1 X111.758 Y101.666 E10.31315
G1 X111.784 Y101.287 E10.32953
M104 S200 ; set temperature
G1 Z0.800 F7800.000
G1 X112.066 Y101.742 F7800.000

G1 F3600
G1 X112.005 Y102.116 E10.34293
G1 X111.913 Y102.393 E10.35324
G1 X111.334 Y102.495 E10.37404

G1 X110.413 Y103.281 F7800.000

G1 F3600
G1 X111.196 Y103.136 E10.40219
G1 X111.432 Y103.025 E10.41141
G1 X111.598 Y102.884 E10.41911
G1 X111.528 Y102.838 E10.42209
G1 X111.820 Y102.409 E10.44045
G1 X110.945 Y102.563 E10.47187
G1 X111.015 Y102.385 E10.47865
G1 X111.080 Y101.916 E10.49539
G1 X112.066 Y101.742 E10.53080
G1 X112.075 Y101.322 E10.54565
G1 X112.049 Y101.121 E10.55282
G1 X111.086 Y101.291 E10.58743
G1 X111.053 Y101.031 E10.59671
G1 X110.956 Y100.690 E10.60923
G1 X111.933 Y100.518 E10.64432
G1 X111.853 Y100.235 E10.65472
G1 X111.735 Y99.948 E10.66569
G1 X111.723 Y99.931 E10.66642
G1 X110.671 Y100.117 E10.70420
G1 X110.494 Y99.925 E10.71343
G1 X110.365 Y99.829 E10.71913
G1 X110.093 Y99.709 E10.72964
G1 X109.840 Y99.640 E10.73893
G1 X111.244 Y99.392 E10.78936
G1 X111.013 Y99.237 E10.79920
G1 X110.715 Y99.076 E10.81119
G1 X110.343 Y98.927 E10.82535
G1 X109.779 Y99.027 E10.84560

G1 E8.84560 F2400.00000
G92 E0
G1 X110.148 Y101.457 F7800.000
G1 E2.00000 F2400.00000

G1 F3600
G1 X109.085 Y101.644 E2.03820
G1 X109.011 Y101.923 E2.04840
G1 X109.000 Y102.283 E2.06114
G1 X109.751 Y102.150 E2.08810
G1 X109.762 Y102.249 E2.09163
G1 X109.837 Y102.455 E2.09937
G1 X109.960 Y102.606 E2.10625
G1 X110.109 Y102.711 E2.11269
G1 X109.294 Y102.855 E2.14198

G1 E0.14198 F2400.00000
G92 E0
G1 X109.356 Y98.967 F7800.000
G1 E2.00000 F2400.00000
G1 F1200
G1 X108.974 Y98.586 E2.01571
G1 X108.117 Y98.455 E2.04092
G1 X108.837 Y99.176 E2.07056
G1 X108.319 Y99.384 E2.08681
G1 X107.358 Y98.424 E2.12631
G1 X107.118 Y98.439 E2.13331
G1 X106.914 Y98.417 E2.13928
G1 X106.660 Y98.304 E2.14737
G1 X106.460 Y98.131 E2.15505
G1 X106.333 Y97.991 E2.16057
G1 X105.731 Y97.203 E2.18939
G1 X105.292 Y97.085 E2.20261
G1 X107.800 Y99.593 E2.30576
G1 X107.657 Y99.650 E2.31027
G1 X107.494 Y99.643 E2.31502
G1 X107.285 Y99.669 E2.32114
G1 X107.188 Y99.707 E2.32416
G1 X105.057 Y97.576 E2.41182
G1 X104.879 Y98.125 E2.42860
G1 X106.765 Y100.011 E2.50617
G1 X106.416 Y100.389 E2.52113
G1 X104.701 Y98.674 E2.59165
G1 X104.633 Y98.887 E2.59815
G1 X104.853 Y99.552 E2.61853
G1 X106.079 Y100.778 E2.66895
G1 X105.956 Y100.920 E2.67441
G1 X105.594 Y101.020 E2.68533
G1 X105.212 Y100.638 E2.70104
G1 E0.70104 F2400.00000
G92 E0
G1 X104.370 Y102.830 F7800.000
G1 E2.00000 F2400.00000

G1 F3600
G1 X103.639 Y103.109 E2.03233
G1 X103.651 Y103.369 E2.04311
G1 X103.710 Y103.788 E2.06059
G1 X104.785 Y103.378 E2.10818
G1 X104.906 Y104.010 E2.13478
G1 X104.359 Y104.247 E2.15943
G1 X103.822 Y104.452 E2.18319

G1 E0.18319 F2400.00000
G92 E0
G1 X97.775 Y105.766 F7800.000
G1 E2.00000 F2400.00000

G1 F3600
G1 X97.654 Y105.970 E2.00980
G1 X97.449 Y106.082 E2.01944
G1 X96.779 Y106.213 E2.04767
G1 X96.202 Y106.369 E2.07240
G1 X95.580 Y106.603 E2.09987

G1 X95.446 Y107.261 F7800.000

G1 F3600
G1 X96.733 Y106.738 E2.15728
G1 X97.447 Y106.359 E2.19068
G1 X97.812 Y106.099 E2.20922
G1 X98.122 Y105.634 E2.23233
G1 X97.240 Y105.970 E2.27135
G1 X97.371 Y105.313 E2.29905
G1 X98.500 Y104.883 E2.34897
G1 X98.797 Y104.163 E2.38118
G1 X97.553 Y104.637 E2.43620
G1 X97.788 Y103.941 E2.46658
G1 X99.036 Y103.465 E2.52179
G1 X99.230 Y102.819 E2.54971
G1 X99.364 Y102.831 E2.55527
G1 X99.589 Y102.738 E2.56533
G1 X100.182 Y102.616 E2.59037
G1 X100.918 Y102.394 E2.62214
G1 X101.697 Y102.108 E2.65644
G1 X103.447 Y101.388 E2.73469
G1 X103.717 Y101.301 E2.74640
G1 X103.865 Y101.407 E2.75394
G1 X104.111 Y101.305 E2.76499
G1 X104.180 Y101.138 E2.77247
G1 X105.161 Y100.844 E2.81480
G1 X105.067 Y100.559 E2.82717
G1 X98.014 Y103.248 E3.13922
G1 X97.980 Y103.140 E3.14388
G1 X98.039 Y102.922 E3.15325
G1 X97.776 Y102.799 E3.16524
G1 X97.726 Y102.751 E3.16811
G1 X104.888 Y100.021 E3.48504
G1 X104.710 Y99.482 E3.50850
G1 X96.907 Y102.456 E3.85376
G1 X96.692 Y102.370 E3.86334
G1 X96.683 Y102.499 E3.86869
G1 X96.395 Y102.583 E3.88109
G1 X96.513 Y102.000 E3.90571
G1 X104.532 Y98.943 E4.26051
G1 X104.448 Y98.689 E4.27157
G1 X102.262 Y99.202 E4.36440
G1 X96.647 Y101.342 E4.61285
G1 X96.736 Y100.902 E4.63141
G1 X97.306 Y100.734 E4.65597
G1 X97.494 Y100.412 E4.67136
G1 X98.029 Y100.208 E4.69506

G1 E2.69506 F2400.00000
G92 E0
G1 X95.476 Y106.846 F7800.000
G1 E2.00000 F2400.00000
G1 F1200
G1 X95.094 Y106.464 E2.01800
G1 X94.492 Y106.695 E2.03950
G1 X95.335 Y107.539 E2.07926
G1 X95.325 Y107.592 E2.08106
G1 X95.131 Y107.659 E2.08789
G1 X94.735 Y107.772 E2.10161
G1 X93.916 Y106.952 E2.14025
G1 X93.367 Y107.236 E2.16085
G1 X94.068 Y107.937 E2.19389
G1 X93.784 Y107.993 E2.20352
G1 X93.332 Y108.035 E2.21864
G1 X92.881 Y107.583 E2.23994
G1 X92.701 Y108.132 F7800.000
G1 F1200
G1 X92.320 Y107.750 E2.25794
G1 X92.272 Y108.535 F7800.000
G1 F1200
G1 X91.445 Y107.708 E2.29691
G1 E0.29691 F2400.00000
G92 E0
G1 X94.731 Y102.703 F7800.000
G1 E2.00000 F2400.00000

G1 F3600
G1 X94.236 Y102.416 E2.01729
G1 X94.280 Y101.782 E2.03650
G1 X95.960 Y102.752 E2.09512
G1 X96.328 Y102.727 E2.10627
G1 X96.405 Y102.349 E2.11791
G1 X94.324 Y101.148 E2.19051
G1 X94.368 Y100.513 E2.20972
G1 X96.525 Y101.759 E2.28496
G1 X96.645 Y101.168 E2.30316
G1 X94.879 Y100.148 E2.36475
G1 X95.679 Y99.951 E2.38967
G1 X96.764 Y100.577 E2.42751
G1 X96.778 Y100.509 E2.42961
G1 X97.447 Y100.312 E2.45068
G1 X96.480 Y99.754 E2.48440
G1 X97.223 Y99.570 E2.50751
G1 X97.405 Y99.628 E2.51327
G1 X97.901 Y99.914 E2.53057

G1 X97.584 Y98.327 F7800.000

G1 F3600
G1 X98.130 Y98.152 E2.54751
G1 X97.835 Y97.652 E2.56468
G1 X96.149 Y98.192 E2.61704
G1 X95.309 Y97.866 E2.64368
G1 X97.540 Y97.153 E2.71296
G1 X97.226 Y96.659 E2.73028
G1 X94.471 Y97.540 E2.81580
G1 X93.634 Y97.214 E2.84239
G1 X96.893 Y96.171 E2.94361
G1 X96.749 Y95.959 E2.95119
G1 X96.786 Y95.611 E2.96154
G1 X92.796 Y96.888 E3.08545
G1 X91.958 Y96.561 E3.11204
G1 X95.628 Y95.387 E3.22602
G1 X94.651 Y95.442 E3.25499
G1 X93.775 Y95.554 E3.28109
G1 X93.061 Y95.678 E3.30252
G1 X92.346 Y95.848 E3.32428
G1 X91.220 Y96.203 E3.35920
G1 X91.234 Y96.199 E3.35964

G1 E1.35964 F2400.00000
G92 E0
G1 X93.613 Y92.959 F7800.000
G1 E2.00000 F2400.00000
G1 F1200
G1 X93.035 Y92.381 E2.02725
G1 X93.798 Y92.311 F7800.000
G1 F1200
G1 X94.180 Y92.693 E2.04525
G1 X94.205 Y92.183 F7800.000
G1 F1200
G1 X94.660 Y92.638 E2.06670
G1 X95.150 Y92.679 E2.08309
G1 X95.517 Y92.662 E2.09534
G1 X94.776 Y91.921 E2.13026
G1 X95.406 Y91.718 E2.15232
G1 X96.258 Y92.570 E2.19247
G1 X96.728 Y92.377 E2.20941
G1 X96.802 Y92.377 E2.21186
G1 X96.872 Y92.351 E2.21437
G1 X96.079 Y91.558 E2.25175
G1 X96.783 Y91.429 E2.27561
G1 X97.165 Y91.811 E2.29361
G1 X97.708 Y92.255 F7800.000

G1 F3600
G1 X97.174 Y92.049 E2.31216
G1 X97.226 Y91.558 E2.32817
G1 X98.136 Y91.788 E2.35857
G1 X98.671 Y91.994 E2.37713

G1 X99.800 Y92.689 F7800.000

G1 F3600
G1 X98.784 Y92.297 E2.41242
G1 X98.736 Y92.918 E2.43260
G1 X99.840 Y93.344 E2.47093
G1 X99.844 Y93.985 E2.49170
G1 X98.718 Y93.551 E2.53080
G1 X98.726 Y94.097 E2.54849
G1 X98.733 Y94.196 E2.55171
G1 X99.818 Y94.614 E2.58940
G1 X99.802 Y94.907 E2.59891
G1 X99.871 Y95.158 E2.60735
G1 X99.869 Y95.273 E2.61106
G1 X98.778 Y94.853 E2.64891
G1 X98.808 Y95.203 E2.66030
G1 X98.640 Y95.151 E2.66599
G1 X98.125 Y95.240 E2.68290

G1 E0.68290 F2400.00000
G92 E0
G1 X98.001 Y97.750 F7800.000
G1 E2.00000 F2400.00000

G1 F3600
G1 X98.536 Y97.956 E2.01857
G1 X99.704 Y98.214 E2.05732
G1 X101.675 Y98.747 E2.12350
G1 X102.172 Y98.863 E2.14001
G1 X102.405 Y98.808 E2.14776
G1 X97.513 Y96.922 E2.31761
G1 X97.329 Y96.610 E2.32935
G1 X96.961 Y96.070 E2.35052
G1 X103.436 Y98.566 E2.57534
G1 X104.467 Y98.324 E2.60966
G1 X97.191 Y95.520 E2.86230
G1 X97.620 Y95.365 E2.87708
G1 X98.125 Y95.240 E2.89394
G1 X104.965 Y97.877 E3.13143
G1 X105.149 Y97.308 E3.15079
G1 X103.490 Y96.669 E3.20840
G1 X103.935 Y96.370 E3.22576
G1 X103.998 Y96.225 E3.23087
G1 X104.915 Y96.578 E3.26269
G1 X105.327 Y96.098 E3.28321
G1 X104.280 Y95.695 E3.31955
G1 X104.346 Y95.571 E3.32410
G1 X104.598 Y95.177 E3.33922
G1 X105.701 Y95.603 E3.37755
G1 X105.885 Y95.034 E3.39691
G1 X104.954 Y94.675 E3.42926
G1 X104.840 Y94.149 E3.44670
G1 X103.852 Y93.901 E3.47967
G1 X103.275 Y93.707 E3.49942
G1 X102.954 Y93.573 E3.51068
G1 X103.022 Y93.291 E3.52005
G1 X103.560 Y93.499 E3.53873

G1 E1.53873 F2400.00000
G92 E0
G1 X101.773 Y96.007 F7800.000
G1 E2.00000 F2400.00000

G1 F3600
G1 X100.940 Y95.686 E2.02891
G1 X101.238 Y95.801 E2.03927

G1 X101.074 Y99.225 F7800.000
G1 F1200
G1 X100.692 Y98.844 E2.05510
G1 X99.692 Y98.576 E2.08545
G1 X100.508 Y99.392 E2.11927
G1 X99.929 Y99.546 E2.13682
G1 X98.724 Y98.341 E2.18677
G1 X98.385 Y98.388 E2.19681
G1 X98.113 Y98.462 E2.20507
G1 X99.347 Y99.696 E2.25619
G1 X99.107 Y99.758 E2.26345
G1 X98.560 Y99.641 E2.27985
G1 X97.501 Y98.583 E2.32373
G1 X96.819 Y98.633 E2.34378
G1 X97.576 Y99.390 E2.37513
G1 X96.988 Y99.535 E2.39287
G1 X95.733 Y98.280 E2.44489
G1 X94.533 Y97.813 E2.48263
G1 X96.400 Y99.680 E2.56002
G1 X95.813 Y99.824 E2.57776
G1 X93.334 Y97.346 E2.68052
G1 X92.134 Y96.879 E2.71825
G1 X95.225 Y99.969 E2.84638
G1 X94.637 Y100.114 E2.86412
G1 X90.935 Y96.412 E3.01761
G1 X90.473 Y96.232 E3.03214
G1 X90.179 Y96.388 E3.04190
G1 X94.308 Y100.517 E3.21306
G1 X94.260 Y101.202 E3.23319
G1 X89.733 Y96.675 E3.42087
G1 X89.618 Y96.756 E3.42499
G1 X89.354 Y97.029 E3.43612
G1 X94.213 Y101.887 E3.63753
G1 X94.165 Y102.572 E3.65765
G1 X89.074 Y97.482 E3.86868
G1 X88.956 Y97.835 E3.87961
G1 X88.926 Y98.065 E3.88641
G1 X93.490 Y102.629 E4.07562
G1 X92.966 Y102.535 E4.09121
G1 X92.564 Y102.436 E4.10336
G1 X88.885 Y98.757 E4.25585
G1 X88.882 Y99.233 E4.26978
G1 X88.913 Y99.517 E4.27817
G1 X91.521 Y102.126 E4.38630
G1 X90.785 Y101.818 E4.40969
G1 X90.264 Y101.523 E4.42724
G1 X89.984 Y101.312 E4.43752
G1 X89.472 Y100.810 E4.45855
G1 E2.45855 F2400.00000
G92 E0
G1 X101.159 Y105.771 F7800.000
G1 E2.00000 F2400.00000
G1 F1200
G1 X101.541 Y106.153 E2.01697
G1 X101.665 Y106.186 E2.02102
G1 X102.454 Y106.282 E2.04598
G1 X101.753 Y105.580 E2.07713
G1 X102.328 Y105.370 E2.09635
G1 X103.264 Y106.306 E2.13796
G1 X104.011 Y106.268 E2.16146
G1 X103.023 Y105.280 E2.20536
G1 X103.758 Y105.315 E2.22849
G1 X103.801 Y105.273 E2.23038
G1 X104.395 Y105.867 E2.25675
G1 X104.778 Y105.656 E2.27050
G1 X104.921 Y105.907 E2.27956
G1 X104.988 Y106.096 E2.28587
G1 X105.153 Y106.052 E2.29124
G1 X105.285 Y105.983 E2.29593
G1 X105.212 Y105.966 E2.29831
G1 X104.998 Y105.685 E2.30942
G1 X103.997 Y104.683 E2.35390
G1 X104.544 Y104.446 E2.37265
G1 X104.926 Y104.828 E2.38962
G1 Z1.200 F7800.000
G1 E0.38962 F2400.00000
G92 E0
G1 X96.313 Y106.757 F7800.000
G1 E2.00000 F2400.00000
G1 F1200
G1 X96.695 Y106.375 E2.01637
G1 X96.235 Y106.454 E2.03053
G1 X95.704 Y106.608 E2.04727
G1 X94.940 Y107.372 E2.08002
G1 X94.150 Y107.587 E2.10483
G1 X93.946 Y107.609 E2.11104
G1 X94.328 Y107.227 E2.12742
G1 E0.12742 F2400.00000
G92 E0
G1 X102.106 Y106.054 F7800.000
G1 E2.00000 F2400.00000
G1 F1200
G1 X102.488 Y105.672 E2.01799
G1 X102.913 Y105.496 E2.03334
G1 X103.497 Y105.496 E2.05281
G1 X102.902 Y106.091 E2.08083
G1 X103.847 Y105.978 F7800.000
G1 F1200
G1 X104.229 Y105.597 E2.09883
G1 E0.09883 F2400.00000
G92 E0
G1 X105.784 Y99.820 F7800.000
G1 E2.00000 F2400.00000

G1 F3600
G1 X106.511 Y98.953 E2.03636
G1 X106.267 Y98.330 E2.05788
G1 X105.341 Y99.433 E2.10416
G1 X104.898 Y99.046 E2.12305
G1 X105.871 Y97.886 E2.17169
G1 X104.824 Y98.220 E2.20703
G1 X104.456 Y98.659 E2.22542

G1 X106.387 Y100.016 F7800.000

G1 F3600
G1 X106.755 Y99.577 E2.24382

G1 X106.761 Y98.174 F7800.000
G1 F1200
G1 X106.379 Y98.556 E2.25896
G1 X106.576 Y99.059 E2.27407
G1 X107.254 Y98.381 E2.30092
G1 X107.487 Y98.426 E2.30757
G1 X107.916 Y98.419 E2.31956
G1 X106.773 Y99.562 E2.36481
G1 X106.833 Y99.714 E2.36941
G1 X107.100 Y99.657 E2.37706
G1 X107.376 Y99.658 E2.38478
G1 X108.542 Y98.492 E2.43092
G1 X109.144 Y98.590 E2.44800
G1 X108.124 Y99.610 E2.48839
G1 X108.801 Y99.632 E2.50736
G1 X109.746 Y98.687 E2.54478
G1 X110.100 Y98.744 E2.55480
G1 X110.321 Y98.812 E2.56127
G1 X109.455 Y99.678 E2.59554
G1 X110.034 Y99.798 E2.61209
G1 X110.801 Y99.031 E2.64249
G1 X110.871 Y99.070 E2.64472
G1 X110.675 Y99.321 E2.65364
G1 X110.905 Y99.626 E2.66435
G1 X110.523 Y100.008 E2.67946
G1 X110.595 Y100.063 F7800.000
G1 F1200
G1 X110.977 Y99.681 E2.69458
G1 X111.409 Y99.480 E2.70791
G1 X111.511 Y99.589 E2.71206
G1 X111.606 Y99.748 E2.71727
G1 X110.926 Y100.428 E2.74419
G1 X110.994 Y100.551 E2.74813
G1 X111.138 Y100.912 E2.75901
G1 X111.775 Y100.275 E2.78422
G1 X111.855 Y100.610 E2.79386
G1 X111.885 Y100.861 E2.80092
G1 X111.253 Y101.493 E2.82596
G1 X111.253 Y101.860 E2.83622
G1 X111.226 Y102.216 E2.84621
G1 X111.901 Y101.541 E2.87293
G1 X111.827 Y101.997 E2.88588
G1 X111.736 Y102.256 E2.89355
G1 X111.579 Y102.539 E2.90260
G1 X111.100 Y103.038 E2.92198
G1 X110.148 Y103.294 F7800.000
G1 F1200
G1 X110.617 Y102.825 E2.94052
G1 X110.327 Y102.793 E2.94869
G1 X110.053 Y102.693 E2.95685
G1 X109.650 Y103.096 E2.97280
G1 X109.550 Y103.003 E2.97663
G1 X109.672 Y103.074 E2.98058
G1 E0.98058 F2400.00000
G92 E0
G1 X104.962 Y96.130 F7800.000
G1 E2.00000 F2400.00000

G1 F3600
G1 X104.951 Y96.154 E2.00110
G1 X104.972 Y96.133 E2.00234
G1 X104.414 Y95.963 E2.02644
G1 X104.556 Y95.658 E2.04034
G1 X104.739 Y95.372 E2.05439
G1 X105.448 Y95.588 E2.08500
G1 X105.828 Y95.013 E2.11347
G1 X105.149 Y94.807 E2.14282
G1 X105.350 Y94.555 E2.15613
G1 X105.359 Y94.466 E2.15983
G1 X105.567 Y94.244 E2.17242
G1 X106.115 Y94.411 E2.19609

G1 E0.19609 F2400.00000
G92 E0
G1 X102.169 Y98.799 F7800.000
G1 E2.00000 F2400.00000

G1 F3600
G1 X101.621 Y98.632 E2.02367
G1 X100.677 Y98.233 E2.06607
G1 X99.594 Y97.825 E2.11390
G1 X99.085 Y97.670 E2.13589
G1 X98.242 Y97.457 E2.17183
G1 X97.637 Y96.822 E2.20811
G1 X103.155 Y98.501 E2.44657
G1 X104.122 Y98.198 E2.48849
G1 X96.860 Y95.988 E2.80233
G1 X96.869 Y95.522 E2.82158
G1 X97.019 Y95.506 E2.82781
G1 X97.122 Y95.470 E2.83235
G1 X105.081 Y97.892 E3.17628
G1 X106.039 Y97.587 E3.21789
G1 X98.481 Y95.286 E3.54456
G1 X98.685 Y95.040 E3.55779
G1 X98.841 Y94.939 E3.56548
G1 X98.843 Y94.849 E3.56923
G1 X98.876 Y94.809 E3.57136
G1 X99.691 Y95.057 E3.60656
G1 X99.572 Y94.878 E3.61542
G1 X99.611 Y94.435 E3.63381
G1 X98.951 Y94.234 E3.66233
G1 X98.931 Y94.006 E3.67181
G1 X98.925 Y93.629 E3.68740
G1 X99.637 Y93.846 E3.71818
G1 X99.623 Y93.244 E3.74307
G1 X98.942 Y93.037 E3.77248
G1 X99.009 Y92.460 E3.79650
G1 X99.557 Y92.626 E3.82017

G1 E1.82017 F2400.00000
G92 E0
G1 X98.981 Y95.438 F7800.000
G1 E2.00000 F2400.00000

G1 F3600
G1 X98.142 Y95.183 E2.03624
G1 X97.439 Y95.361 E2.06623
G1 X97.122 Y95.470 E2.08008

G1 X92.456 Y95.930 F7800.000
G1 F1200
G1 X92.838 Y95.548 E2.09531
G1 X93.695 Y95.396 E2.11987
G1 X92.286 Y96.805 E2.17610
G1 X92.116 Y97.680 E2.20124
G1 X94.512 Y95.284 E2.29681
G1 X95.288 Y95.213 E2.31881
G1 X91.946 Y98.555 E2.45215
G1 X91.881 Y98.937 E2.46308
G1 X91.877 Y99.329 E2.47413
G1 X96.014 Y95.192 E2.63915
G1 X96.458 Y95.224 E2.65170
G1 X96.651 Y95.260 E2.65725
G1 X91.962 Y99.949 E2.84430
G1 X92.088 Y100.528 E2.86100
G1 X96.806 Y95.810 E3.04919
G1 X96.800 Y96.103 E3.05747
G1 X97.004 Y96.317 E3.06579
G1 X92.214 Y101.106 E3.25683
G1 X92.341 Y101.685 E3.27353
G1 X97.348 Y96.678 E3.47326
G1 X97.692 Y97.039 E3.48732
G1 X92.467 Y102.263 E3.69573
G1 X92.529 Y102.546 E3.70391
G1 X92.829 Y102.606 E3.71254
G1 X98.036 Y97.399 E3.92023
G1 X98.380 Y97.760 E3.93429
G1 X93.437 Y102.703 E4.13147
G1 X94.057 Y102.789 E4.14912
G1 X95.427 Y101.418 E4.20377
G1 X95.403 Y101.305 E4.20703
G1 X95.629 Y101.216 E4.21388
G1 X98.908 Y97.937 E4.34470
G1 X99.469 Y98.081 E4.36104
G1 X96.791 Y100.759 E4.46788
G1 X97.953 Y100.301 E4.50311
G1 X100.004 Y98.251 E4.58489
G1 X100.520 Y98.440 E4.60039
G1 X98.911 Y100.049 E4.66455
G1 X99.351 Y99.925 E4.67744
G1 X99.952 Y99.712 E4.69543
G1 X101.025 Y98.640 E4.73822
G1 X101.520 Y98.850 E4.75338
G1 X101.138 Y99.232 E4.76862
G1 X95.367 Y102.888 F7800.000
G1 F1200
G1 X96.056 Y102.199 E4.79608
G1 X95.932 Y101.618 E4.81284
G1 X94.696 Y102.854 E4.86215
G1 X94.057 Y102.789 E4.88028
G1 E2.88028 F2400.00000
G92 E0
G1 X97.664 Y105.123 F7800.000
G1 E2.00000 F2400.00000

G1 F3600
G1 X98.208 Y104.944 E2.01905
G1 X98.368 Y104.658 E2.02995
G1 X98.565 Y104.198 E2.04659
G1 X97.833 Y104.438 E2.07219
G1 X97.937 Y104.121 E2.08331
G1 X98.096 Y103.724 E2.09755
G1 X98.810 Y103.489 E2.12253
G1 X98.899 Y103.208 E2.13233
G1 X99.027 Y103.019 E2.13994
G1 X99.115 Y102.808 E2.14755
G1 X99.316 Y102.840 E2.15434
G1 X99.638 Y102.854 E2.16506
G1 X99.959 Y102.824 E2.17579
G1 X100.446 Y102.726 E2.19229
G1 X100.795 Y102.625 E2.20440
G1 X101.243 Y102.458 E2.22028
G1 X102.788 Y101.809 E2.27605
G1 X103.880 Y101.416 E2.31466
G1 X105.332 Y100.812 E2.36696
G1 X106.093 Y100.542 E2.39384
G1 X106.187 Y100.438 E2.39850
G1 X98.147 Y103.078 E2.68002
G1 X98.145 Y102.899 E2.68598
G1 X97.845 Y102.825 E2.69627
G1 X97.818 Y102.834 E2.69721
G1 X97.374 Y102.704 E2.71259
G1 X105.865 Y99.915 E3.00990
G1 X105.343 Y99.458 E3.03299
G1 X96.126 Y102.485 E3.35571
G1 X96.001 Y101.898 E3.37569
G1 X104.820 Y99.001 E3.68449
G1 X104.304 Y98.550 E3.70730
G1 X102.134 Y99.254 E3.78318
G1 X102.162 Y99.245 E3.78417

G1 X92.087 Y96.195 F7800.000

G1 F3600
G1 X92.080 Y95.622 E3.80603
G1 X91.756 Y95.702 E3.81879
G1 X91.446 Y95.811 E3.83131
G1 X91.526 Y102.306 E4.07919
G1 X90.887 Y102.065 E4.10526
G1 X90.813 Y96.045 E4.33501
G1 X90.181 Y96.370 E4.36214
G1 X90.247 Y101.747 E4.56735
G1 X89.931 Y101.549 E4.58157
G1 X89.605 Y101.272 E4.59792
G1 X89.551 Y96.856 E4.76644
G1 X89.355 Y97.104 E4.77850
G1 X89.263 Y97.251 E4.78511
G1 X89.151 Y97.487 E4.79510
G1 X89.064 Y97.738 E4.80522
G1 X89.000 Y98.011 E4.81593
G1 X88.942 Y98.539 E4.83619
G1 X88.947 Y99.492 E4.87259

G1 E2.87259 F2400.00000
G92 E0
G1 X95.709 Y92.252 F7800.000
G1 E2.00000 F2400.00000
G1 F1200
G1 X95.299 Y92.394 E2.01449
G1 X95.572 Y92.390 E2.02361
G1 X96.091 Y91.870 E2.04808
G1 X96.503 Y91.758 E2.06232
G1 X96.883 Y91.693 E2.07517
G1 X96.879 Y91.915 E2.08258
G1 X96.497 Y92.297 E2.10058
G1 E0.10058 F2400.00000
G92 E0
G1 X104.445 Y103.002 F7800.000
G1 E2.00000 F2400.00000

G1 F3600
G1 X103.880 Y103.187 E2.02456
G1 X103.879 Y103.404 E2.03351
G1 X103.928 Y103.866 E2.05274
G1 X104.623 Y103.638 E2.08298
G1 X104.681 Y103.904 E2.09423
G1 X104.731 Y104.292 E2.11040
G1 X104.052 Y104.520 E2.14001

M106 S244.8
G1 Z1.600 F7800.000
G1 E0.14001 F2400.00000
G92 E0
G1 X99.753 Y102.980 F7800.000
G1 E2.00000 F2400.00000
M106 S255

G1 F3600
G1 X100.682 Y102.810 E2.02881
G1 X100.967 Y102.727 E2.03786
G1 X101.379 Y102.573 E2.05129
G1 X103.060 Y101.814 E2.10754
G1 X97.720 Y102.756 E2.27296
G1 X97.366 Y102.650 E2.28420
G1 X97.237 Y102.258 E2.29680
G1 X104.791 Y100.926 E2.53079
G1 X104.554 Y100.385 E2.54880
G1 X97.055 Y101.707 E2.78111
G1 X96.928 Y101.323 E2.79344
G1 X97.956 Y100.965 E2.82666
G1 X104.318 Y99.844 E3.02371
G1 X104.082 Y99.303 E3.04173
G1 X100.822 Y99.877 E3.14269
G1 X103.281 Y98.861 E3.22384
G1 X103.845 Y98.761 E3.24132
M106 S244.8

G1 X102.012 Y98.690 F7800.000
M106 S255

G1 F3600
G1 X102.577 Y98.790 E3.26262
G1 X103.659 Y98.343 E3.30614
G1 X99.231 Y97.562 E3.47324
G1 X96.906 Y96.762 E3.56465
G1 X96.983 Y96.527 E3.57382
G1 X104.477 Y97.849 E3.85667
G1 X104.735 Y97.256 E3.88068
G1 X97.182 Y95.924 E4.16575
G1 X97.342 Y95.437 E4.18481
G1 X97.605 Y95.361 E4.19498
G1 X103.246 Y96.356 E4.40787
M106 S244.8

G1 X100.561 Y95.244 F7800.000
M106 S255

G1 F3600
G1 X99.997 Y95.145 E4.42915
M106 S244.8

G1 X97.161 Y96.000 F7800.000
G1 F1200
G1 X96.321 Y95.159 E4.46360
G1 X95.799 Y95.102 E4.47883
G1 X95.547 Y95.110 E4.48614
G1 X96.981 Y96.545 E4.54496
G1 X96.802 Y97.090 E4.56160
G1 X94.855 Y95.143 E4.64145
G1 X94.207 Y95.220 E4.66036
G1 X99.255 Y100.268 E4.86738
G1 X98.718 Y100.455 E4.88388
G1 X93.570 Y95.307 E5.09500
G1 X92.950 Y95.412 E5.11322
G1 X98.180 Y100.642 E5.32771
G1 X97.643 Y100.829 E5.34421
G1 X93.147 Y96.334 E5.52856
G1 X92.875 Y96.787 E5.54388
G1 X97.105 Y101.016 E5.71733
G1 X96.746 Y101.141 E5.72835
G1 X96.865 Y101.501 E5.73933
G1 X92.604 Y97.240 E5.91406
G1 X92.332 Y97.693 E5.92938
G1 X97.222 Y102.583 E6.12993
G1 X97.273 Y102.737 E6.13463
G1 X96.814 Y102.899 E6.14876
G1 X92.060 Y98.146 E6.34369
G1 X91.788 Y98.599 E6.35901
G1 X96.169 Y102.979 E6.53865
G1 X95.419 Y102.954 E6.56041
G1 X92.028 Y99.563 E6.69948
G1 X92.893 Y101.152 E6.75195
G1 X94.609 Y102.869 E6.82235
G1 X93.762 Y102.746 E6.84718
G1 X92.950 Y101.934 E6.88047
G1 X92.495 Y102.204 E6.89581
G1 X92.877 Y102.586 E6.91146
G1 X96.823 Y97.112 F7800.000
G1 F1200
G1 X99.793 Y100.081 E7.03323
G1 X100.311 Y99.874 E7.04940
G1 X97.928 Y97.491 E7.14710
G1 X99.033 Y97.871 E7.18097
G1 X100.817 Y99.656 E7.25416
G1 X101.328 Y99.442 E7.27021
G1 X100.220 Y98.334 E7.31562
G1 X101.458 Y98.848 E7.35449
G1 X101.840 Y99.230 E7.37015
G1 X92.843 Y96.679 F7800.000
M106 S255

G1 F3600
G1 X92.775 Y96.110 E7.39127
M106 S244.8

G1 X92.316 Y97.557 F7800.000
M106 S255

G1 F3600
G1 X92.093 Y95.675 E7.46119
G1 X91.959 Y95.589 E7.46707
G1 X91.468 Y95.723 E7.48584
G1 X91.790 Y98.434 E7.58658
G1 X91.451 Y98.999 E7.61088
G1 X91.427 Y99.208 E7.61863
G1 X91.429 Y99.486 E7.62891
G1 X91.453 Y99.658 E7.63530
G1 X92.069 Y100.790 E7.68283
G1 X92.254 Y102.350 E7.74081
G1 X92.012 Y102.493 E7.75119
G1 X91.629 Y102.394 E7.76580
G1 X90.862 Y95.925 E8.00613
G1 X90.263 Y96.200 E8.03042
G1 X90.972 Y102.173 E8.25236
G1 X90.652 Y102.043 E8.26509
G1 X90.305 Y101.867 E8.27946
G1 X89.678 Y96.579 E8.47593
G1 X89.393 Y96.842 E8.49022
G1 X89.124 Y97.226 E8.50752
G1 X89.619 Y101.400 E8.66261
G1 X89.371 Y101.131 E8.67611
G1 X89.174 Y100.835 E8.68921
G1 X89.047 Y100.583 E8.69961
G1 X88.906 Y100.208 E8.71440
G1 X88.836 Y99.949 E8.72429
G1 X88.779 Y99.636 E8.73603
G1 X88.711 Y99.064 E8.75731
M106 S244.8

G1 E6.75731 F2400.00000
G92 E0
G1 X105.218 Y101.053 F7800.000
G1 E2.00000 F2400.00000
G1 F1200
G1 X104.836 Y100.672 E2.01510
G1 X104.295 Y99.431 E2.05296
G1 X105.706 Y100.842 E2.10876
G1 X106.198 Y100.635 E2.12369
G1 X104.148 Y98.585 E2.20476
G1 X104.359 Y98.098 E2.21961
G1 X106.536 Y100.274 E2.30568
G1 X106.883 Y99.922 E2.31950
G1 X104.571 Y97.611 E2.41090
G1 X104.783 Y97.124 E2.42576
G1 X107.331 Y99.672 E2.52653
G1 X107.359 Y99.665 E2.52734
G1 X107.354 Y99.642 E2.52799
G1 X107.937 Y99.579 E2.54437
G1 X106.529 Y98.171 E2.60003
G1 X106.671 Y98.288 E2.60518
G1 X106.897 Y98.398 E2.61221
G1 X106.984 Y98.418 E2.61470
G1 X106.978 Y98.444 E2.61544
G1 X107.560 Y98.504 E2.63180
G1 X108.468 Y99.411 E2.66768
G1 X109.134 Y99.379 E2.68633
G1 X108.546 Y98.791 E2.70958
G1 X109.450 Y98.995 E2.73548
G1 X109.831 Y99.377 E2.75058
G1 E0.75058 F2400.00000
G92 E0
G1 X106.705 Y98.347 F7800.000
G1 E2.00000 F2400.00000
G1 F1200
G1 X105.799 Y97.441 E2.03583
G1 X105.925 Y97.489 E2.03960
G1 X106.323 Y97.965 E2.05696
G1 Z2.000 F7800.000
G1 X106.387 Y98.428 F7800.000
G1 F1200
G1 X106.769 Y98.046 E2.07238
G1 X107.030 Y98.289 E2.08257
G1 X107.160 Y98.368 E2.08691
G1 X106.121 Y99.407 E2.12887
G1 X106.350 Y99.891 E2.14416
G1 X107.513 Y98.728 E2.19113
G1 X107.776 Y98.982 E2.20156
G1 X108.033 Y98.782 E2.21086
G1 X108.060 Y98.844 E2.21278
G1 X108.043 Y98.907 E2.21466
G1 X107.643 Y99.312 E2.23091
G1 X106.336 Y100.153 F7800.000
M106 S255

G1 F3600
G1 X105.867 Y100.481 E2.25152
M106 S244.8

G1 X102.113 Y102.354 F7800.000
M106 S255

G1 F3600
G1 X106.184 Y99.503 E2.43043
G1 X105.915 Y98.936 E2.45304
G1 X99.946 Y103.116 E2.71537
G1 X99.366 Y103.122 E2.73624
G1 X98.935 Y103.067 E2.75189
G1 X105.645 Y98.369 E3.04681
G1 X105.423 Y97.901 E3.06545
G1 X104.889 Y98.142 E3.08655
G1 X98.654 Y102.508 E3.36059
G1 X98.398 Y101.932 E3.38330
G1 X101.735 Y99.595 E3.52998
G1 X100.649 Y100.095 E3.57301
G1 X100.680 Y100.280 E3.57977
G1 X100.377 Y100.219 E3.59091
G1 X98.611 Y101.027 E3.66082
G1 X98.142 Y101.355 E3.68143
M106 S244.8

G1 X98.329 Y102.988 F7800.000
G1 F1200
G1 X98.711 Y102.606 E3.69695
G1 X98.490 Y102.109 E3.71258
G1 X97.758 Y102.841 E3.74233
G1 X97.471 Y102.765 E3.75085
G1 X97.471 Y102.738 E3.75162
G1 X97.164 Y102.716 E3.76046
G1 X98.269 Y101.611 E3.80535
G1 X98.048 Y101.114 E3.82098
G1 X96.101 Y103.061 E3.90009
G1 X95.803 Y103.086 E3.90867
G1 X95.377 Y103.067 E3.92092
G1 X100.354 Y98.090 E4.12315
G1 X99.861 Y97.865 E4.13873
G1 X94.718 Y103.008 E4.34773
G1 X94.084 Y102.924 E4.36609
G1 X99.368 Y97.640 E4.58080
G1 X98.875 Y97.415 E4.59637
G1 X93.457 Y102.825 E4.81638
G1 X94.102 Y101.470 E4.85950
G1 X98.382 Y97.190 E5.03342
G1 X97.889 Y96.965 E5.04899
G1 X94.291 Y100.563 E5.19519
G1 X93.812 Y100.324 E5.21057
G1 X98.441 Y95.695 E5.39867
G1 X98.706 Y95.097 E5.41745
G1 X98.191 Y95.226 E5.43270
G1 X93.333 Y100.085 E5.63013
G1 X92.854 Y99.846 E5.64551
G1 X97.372 Y95.327 E5.82912
G1 X97.097 Y95.173 E5.83817
G1 X96.886 Y95.095 E5.84465
G1 X94.379 Y97.603 E5.94655
G1 X94.150 Y97.113 E5.96208
G1 X96.262 Y95.001 E6.04790
G1 X95.788 Y95.005 E6.06152
G1 X95.512 Y95.033 E6.06950
G1 X93.922 Y96.623 E6.13411
G1 X93.694 Y96.133 E6.14964
G1 X94.701 Y95.126 E6.19059
G1 X93.847 Y95.262 E6.21545
G1 X93.466 Y95.644 E6.23096
G1 X92.428 Y98.835 F7800.000
G1 F1200
G1 X91.625 Y99.232 E6.25671
G1 X91.896 Y99.368 E6.26542
G1 X92.810 Y98.453 E6.30256
G1 X94.230 Y97.752 E6.34807
G1 X92.375 Y99.607 E6.42344
G1 X100.354 Y98.090 F7800.000
G1 F1200
G1 X100.847 Y98.315 E6.43901
G1 X98.494 Y100.669 E6.53465
G1 X99.816 Y100.064 E6.57644
G1 X101.338 Y98.542 E6.63828
G1 X101.826 Y98.772 E6.65378
G1 X101.147 Y99.451 E6.68137
G1 X93.973 Y101.371 F7800.000
M106 S255

G1 F3600
G1 X92.335 Y99.786 E6.75740
G1 X93.783 Y100.508 E6.81137
G1 X93.562 Y100.973 E6.82853
M106 S244.8

G1 X89.569 Y101.269 F7800.000
M106 S255

G1 F3600
G1 X89.158 Y100.871 E6.84762
G1 X88.924 Y100.565 E6.86044
G1 X88.674 Y100.126 E6.87731
G1 X88.438 Y99.557 E6.89783
G1 X88.350 Y99.258 E6.90824
G1 X91.486 Y102.292 E7.05372
G1 X92.133 Y102.463 E7.07606
G1 X92.633 Y102.570 E7.09311
G1 X88.349 Y98.424 E7.29192
G1 X88.427 Y98.157 E7.30120
G1 X88.563 Y97.800 E7.31395
G1 X93.431 Y102.510 E7.53979
G1 X93.702 Y101.940 E7.56083
G1 X88.849 Y97.245 E7.78602
G1 X89.074 Y96.910 E7.79947
G1 X89.209 Y96.761 E7.80617
G1 X91.477 Y98.955 E7.91140
G1 X91.648 Y98.849 E7.91814
G1 X91.672 Y98.760 E7.92120
G1 X91.818 Y98.760 E7.92606
G1 X92.028 Y98.657 E7.93385
G1 X89.681 Y96.386 E8.04275
G1 X90.035 Y96.181 E8.05640
G1 X90.236 Y96.091 E8.06374
G1 X92.597 Y98.375 E8.17328
G1 X93.166 Y98.094 E8.19445
G1 X90.856 Y95.860 E8.30161
G1 X91.521 Y95.671 E8.32466
G1 X93.735 Y97.813 E8.42738
G1 X94.190 Y97.588 E8.44432
G1 X94.049 Y97.285 E8.45546
G1 X92.222 Y95.517 E8.54024
G1 X92.931 Y95.372 E8.56437
G1 X93.343 Y95.770 E8.58347
M106 S244.8

G1 X98.138 Y96.727 F7800.000
M106 S255

G1 F3600
G1 X98.608 Y97.056 E8.60227
G1 X100.380 Y97.865 E8.66617
G1 X100.668 Y97.817 E8.67574
G1 X100.644 Y97.985 E8.68131
G1 X101.632 Y98.440 E8.71700
G1 X98.387 Y96.167 E8.84695
G1 X98.636 Y95.607 E8.86705
G1 X103.050 Y98.698 E9.04380
G1 X103.687 Y98.410 E9.06674
G1 X98.884 Y95.047 E9.25906
G1 X98.895 Y95.024 E9.25989
G1 X99.219 Y94.974 E9.27066
G1 X99.634 Y94.952 E9.28429
G1 X99.812 Y94.962 E9.29012
G1 X104.325 Y98.122 E9.47084
G1 X104.962 Y97.834 E9.49378
G1 X101.668 Y95.528 E9.62567
G1 X103.122 Y96.199 E9.67817
G1 X105.130 Y97.218 E9.75204
G1 X105.600 Y97.546 E9.77084
M106 S244.8

G1 X105.877 Y97.597 F7800.000
M106 S255

G1 F3600
G1 X106.345 Y97.925 E9.78962
M106 S244.8

G1 X106.175 Y98.530 F7800.000
M106 S255

G1 F3600
G1 X105.706 Y98.202 E9.80840
M106 S244.8

G1 Z2.400 F7800.000
G1 X106.278 Y97.530 F7800.000
M106 S255

G1 F3600
G1 X105.725 Y97.678 E9.82940
G1 X103.153 Y99.013 E9.93560
G1 X106.698 Y98.063 E10.07010
G1 X106.959 Y98.358 E10.08453
G1 X107.211 Y98.572 E10.09664
G1 X101.122 Y100.204 E10.32766
G1 X101.122 Y100.272 E10.33016
G1 X100.976 Y100.243 E10.33562
G1 X100.084 Y100.482 E10.36945
G1 X98.491 Y101.205 E10.43358
G1 X98.627 Y101.519 E10.44613
G1 X107.478 Y99.147 E10.78195
G1 X106.984 Y99.557 E10.80546
G1 X106.529 Y100.048 E10.82999
G1 X98.877 Y102.098 E11.12030
G1 X99.128 Y102.677 E11.14343
G1 X105.029 Y101.096 E11.36730
G1 X104.574 Y101.340 E11.38622
G1 X103.093 Y102.043 E11.44628
G1 X102.425 Y102.327 E11.47290
G1 X101.610 Y102.636 E11.50482
G1 X101.206 Y102.767 E11.52040
G1 X100.649 Y102.916 E11.54153
M106 S244.8

G1 X102.728 Y98.759 F7800.000
M106 S255

G1 F3600
G1 X102.888 Y98.839 E11.54892
G1 X102.906 Y98.830 E11.54976
G1 X102.196 Y98.548 E11.58134
G1 X100.642 Y97.822 E11.65227
G1 X100.734 Y97.575 E11.66316
G1 X100.318 Y97.680 E11.68093
G1 X98.505 Y96.883 E11.76277
G1 X98.691 Y96.449 E11.78228
G1 X103.690 Y98.430 E12.00459
G1 X104.472 Y98.030 E12.04092
G1 X98.950 Y95.842 E12.28650
G1 X99.209 Y95.235 E12.31380
G1 X105.245 Y97.626 E12.58221
M106 S244.8

G1 X102.810 Y95.952 F7800.000
M106 S255

G1 F3600
G1 X101.224 Y95.324 E12.65273
G1 X102.278 Y95.741 E12.69959
M106 S244.8

G1 X99.122 Y95.482 F7800.000
G1 F1200
G1 X98.740 Y95.100 E12.71501
G1 X98.165 Y95.239 E12.73190
G1 X98.908 Y95.982 E12.76192
G1 X98.694 Y96.482 E12.77745
G1 X97.595 Y95.382 E12.82188
G1 X97.221 Y95.457 E12.83275
G1 X97.073 Y95.379 E12.83753
G1 X96.837 Y95.194 E12.84610
G1 X96.541 Y95.043 E12.85559
G1 X98.481 Y96.982 E12.93393
G1 X98.281 Y97.449 E12.94843
G1 X99.470 Y97.971 E12.98552
G1 X101.222 Y99.723 E13.05627
G1 X100.731 Y99.946 E13.07167
G1 X95.693 Y94.908 E13.27516
G1 X95.024 Y94.952 E13.29431
G1 X100.240 Y100.169 E13.50499
G1 X99.749 Y100.391 E13.52039
G1 X94.400 Y95.042 E13.73642
G1 X93.784 Y95.140 E13.75423
G1 X99.258 Y100.614 E13.97530
G1 X98.767 Y100.837 E13.99070
G1 X93.314 Y95.383 E14.21095
G1 X93.933 Y96.716 E14.25293
G1 X98.279 Y101.062 E14.42845
G1 X98.823 Y102.320 E14.46760
G1 X94.049 Y97.546 E14.66041
G1 X93.569 Y97.780 E14.67566
G1 X98.665 Y102.876 E14.88148
G1 X97.893 Y102.677 E14.90427
G1 X97.889 Y102.443 E14.91095
G1 X97.668 Y102.592 E14.91858
G1 X93.089 Y98.014 E15.10350
G1 X92.609 Y98.247 E15.11875
G1 X97.238 Y102.876 E15.30570
G1 X96.965 Y103.027 E15.31461
G1 X96.749 Y103.101 E15.32113
G1 X94.175 Y100.527 E15.42507
G1 X93.947 Y101.013 E15.44039
G1 X96.111 Y103.177 E15.52777
G1 X95.759 Y103.166 E15.53782
G1 X95.334 Y103.114 E15.55005
G1 X93.719 Y101.499 E15.61527
G1 X93.491 Y101.985 E15.63060
G1 X94.507 Y103.000 E15.67161
G1 X93.645 Y102.852 E15.69657
G1 X93.263 Y102.470 E15.71200
G1 X93.996 Y100.348 F7800.000
G1 F1200
G1 X92.129 Y98.481 E15.78743
G1 X91.649 Y98.714 E15.80268
G1 X92.576 Y99.642 E15.84013
G1 X91.752 Y99.232 E15.86641
G1 X92.030 Y99.096 E15.87526
G1 X101.222 Y99.723 F7800.000
G1 F1200
G1 X101.711 Y99.498 E15.89062
G1 X100.362 Y98.149 E15.94511
G1 X101.677 Y98.751 E15.98644
G1 X102.193 Y99.266 E16.00725
G1 X93.553 Y97.570 F7800.000
M106 S255

G1 F3600
G1 X93.992 Y97.202 E16.02456
G1 X93.742 Y96.665 E16.04245
G1 X91.858 Y98.246 E16.11678
G1 X92.492 Y96.968 E16.15989
G1 X93.493 Y96.129 E16.19937
G1 X93.243 Y95.592 E16.21725
G1 X92.558 Y96.167 E16.24430
G1 X92.003 Y95.887 E16.26309
G1 X92.442 Y95.518 E16.28039
M106 S244.8

G1 X92.350 Y96.645 F7800.000
M106 S255

G1 F3600
G1 X92.264 Y96.079 E16.29910
G1 X91.616 Y95.751 E16.32284
G1 X91.891 Y97.570 E16.38295
G1 X91.432 Y98.495 E16.41668
G1 X91.010 Y95.707 E16.50880
G1 X90.439 Y95.889 E16.52839
G1 X90.748 Y97.938 E16.59606
G1 X89.963 Y96.703 E16.64384
G1 X89.877 Y96.137 E16.66255
M106 S244.8

G1 X89.912 Y97.282 F7800.000
M106 S255

G1 F3600
G1 X89.481 Y96.905 E16.67901
G1 X88.984 Y97.212 E16.69581
G1 X90.977 Y98.954 E16.77188
G1 X91.381 Y99.590 E16.79355
G1 X91.538 Y99.692 E16.79891
G1 X92.194 Y100.018 E16.81998
G1 X93.775 Y101.400 E16.88032
G1 X93.528 Y101.926 E16.89702
G1 X88.544 Y97.570 E17.08727
G1 X88.302 Y98.100 E17.10403
G1 X93.281 Y102.452 E17.29407
G1 X93.156 Y102.718 E17.30253
G1 X92.616 Y102.612 E17.31836
G1 X88.110 Y98.674 E17.49032
G1 X88.093 Y98.911 E17.49715
G1 X88.129 Y99.151 E17.50411
G1 X88.214 Y99.418 E17.51216
G1 X88.282 Y99.567 E17.51688
G1 X91.448 Y102.333 E17.63769
G1 X91.006 Y102.209 E17.65087
G1 X90.530 Y102.040 E17.66540
G1 X90.141 Y101.861 E17.67771
G1 X89.856 Y101.684 E17.68736
G1 X89.153 Y101.069 E17.71419
M106 S244.8

M106 S242.25
G1 Z2.800 F7800.000
G1 X89.167 Y101.225 F7800.000
M106 S255

G1 F3600
G1 X89.585 Y101.619 E17.73117
G1 X89.828 Y101.808 E17.74027
G1 X90.094 Y101.951 E17.74918
G1 X90.506 Y102.117 E17.76234
G1 X91.141 Y102.311 E17.78194
G1 X88.208 Y99.539 E17.90121
G1 X88.080 Y99.253 E17.91049
G1 X88.014 Y99.018 E17.91772
G1 X87.999 Y98.801 E17.92413
G1 X88.034 Y98.596 E17.93027
G1 X92.246 Y102.578 E18.10159
G1 X92.527 Y102.639 E18.11008
G1 X92.774 Y102.298 E18.12253
G1 X88.372 Y98.137 E18.30156
G1 X88.787 Y97.751 E18.31832
G1 X93.109 Y101.836 E18.49409
M106 S242.25

G1 X93.444 Y101.374 F7800.000
M106 S255

G1 F3600
G1 X93.028 Y100.981 E18.51101
M106 S242.25

G1 X93.058 Y97.126 F7800.000
M106 S255

G1 F3600
G1 X93.490 Y96.748 E18.52717
G1 X93.163 Y96.299 E18.54283
G1 X91.159 Y98.048 E18.61776
G1 X91.138 Y98.027 E18.61859
G1 X91.138 Y98.066 E18.61969
G1 X90.522 Y98.604 E18.64275
G1 X90.120 Y98.220 E18.65841
G1 X92.836 Y95.850 E18.75996
G1 X92.545 Y95.450 E18.77388
G1 X92.419 Y95.479 E18.77750
G1 X89.719 Y97.836 E18.87849
G1 X89.317 Y97.451 E18.89415
G1 X91.266 Y95.751 E18.96702
G1 X90.795 Y95.881 E18.98078
G1 X90.247 Y96.075 E18.99717
G1 X89.807 Y96.303 E19.01112
G1 X89.128 Y96.882 E19.03625
M106 S242.25

G1 X91.193 Y99.267 F7800.000
G1 F1200
G1 X91.904 Y98.556 E19.06435
G1 X94.189 Y96.856 E19.14393
G1 X93.943 Y96.517 E19.15565
G1 X93.060 Y95.305 F7800.000
G1 F1200
G1 X92.678 Y95.687 E19.17074
G1 X92.972 Y96.091 E19.18470
G1 X93.921 Y95.142 E19.22217
G1 X94.780 Y94.981 E19.24661
G1 X93.266 Y96.495 E19.30641
G1 X93.561 Y96.899 E19.32037
G1 X95.588 Y94.871 E19.40047
G1 X96.087 Y94.855 E19.41442
G1 X96.282 Y94.876 E19.41989
G1 X91.579 Y99.579 E19.60570
G1 X91.973 Y99.883 E19.61960
G1 X96.836 Y95.019 E19.81177
G1 X97.089 Y95.159 E19.81984
G1 X97.257 Y95.297 E19.82591
G1 X92.367 Y100.187 E20.01913
G1 X92.761 Y100.491 E20.03304
G1 X97.718 Y95.534 E20.22890
G1 X97.846 Y95.548 E20.23249
G1 X98.587 Y95.363 E20.25384
G1 X93.155 Y100.796 E20.46849
G1 X93.549 Y101.100 E20.48240
G1 X99.492 Y95.156 E20.71724
G1 X99.739 Y95.103 E20.72430
G1 X99.372 Y95.975 E20.75073
G1 X92.921 Y102.425 E21.00560
G1 X92.667 Y102.777 E21.01771
G1 X93.171 Y102.874 E21.03206
G1 X98.871 Y97.174 E21.25726
G1 X99.353 Y97.391 E21.27202
G1 X93.756 Y102.987 E21.49316
G1 X94.352 Y103.090 E21.51005
G1 X99.835 Y97.607 E21.72668
G1 X100.317 Y97.823 E21.74144
G1 X94.956 Y103.184 E21.95324
G1 X95.609 Y103.229 E21.97153
G1 X100.799 Y98.039 E22.17658
G1 X101.281 Y98.255 E22.19134
G1 X98.739 Y100.797 E22.29175
G1 X100.006 Y100.228 E22.33055
G1 X101.763 Y98.472 E22.39995
G1 X102.243 Y98.689 E22.41468
G1 X101.273 Y99.659 E22.45300
G1 X98.906 Y100.630 F7800.000
G1 F1200
G1 X96.497 Y103.039 E22.54818
G1 X96.659 Y102.954 E22.55327
G1 X96.831 Y102.831 E22.55919
G1 X97.134 Y102.558 E22.57057
G1 X97.492 Y102.542 E22.58058
G1 X97.651 Y102.584 E22.58518
G1 X99.114 Y101.121 E22.64298
G1 X99.321 Y101.612 E22.65787
G1 X98.215 Y102.717 E22.70154
G1 X98.784 Y102.846 E22.71784
G1 X99.528 Y102.103 E22.74722
G1 X99.735 Y102.594 E22.76211
G1 X99.353 Y102.975 E22.77720
G1 E20.77720 F2400.00000
G92 E0
G1 X101.922 Y102.572 F7800.000
G1 E2.00000 F2400.00000
M106 S255

G1 F3600
G1 X103.179 Y102.099 E2.05116
G1 X104.498 Y101.514 E2.10614
G1 X105.206 Y101.158 E2.13637
G1 X105.873 Y100.783 E2.16552
G1 X106.247 Y100.322 E2.18815
G1 X99.757 Y102.684 E2.45137
G1 X99.509 Y102.098 E2.47563
G1 X107.052 Y99.352 E2.78155
G1 X107.154 Y99.190 E2.78884
G1 X107.210 Y98.981 E2.79711
G1 X107.211 Y98.907 E2.79993
G1 X107.164 Y98.721 E2.80721
G1 X107.122 Y98.651 E2.81036
G1 X99.262 Y101.511 E3.12913
G1 X99.082 Y101.085 E3.14675
G1 X101.259 Y100.108 E3.23770
G1 X106.710 Y98.124 E3.45876
G1 X106.301 Y97.596 E3.48420
G1 X105.763 Y97.792 E3.50601
M106 S242.25

G1 X105.596 Y97.550 F7800.000
M106 S255

G1 F3600
G1 X99.749 Y95.422 E3.76329
G1 X99.492 Y96.031 E3.79061
G1 X104.824 Y97.972 E4.02521
G1 X104.054 Y98.394 E4.06152
G1 X99.236 Y96.640 E4.27352
G1 X99.084 Y96.999 E4.28963
G1 X100.908 Y97.817 E4.37225
G1 X101.124 Y97.817 E4.38119
G1 X101.124 Y97.914 E4.38520
G1 X102.364 Y98.481 E4.44157
G1 X103.264 Y98.808 E4.48117
G1 X103.219 Y98.831 E4.48327
G1 X102.902 Y98.677 E4.49785
M106 S242.25

G1 X102.606 Y95.759 F7800.000
M106 S255

G1 F3600
G1 X102.055 Y95.559 E4.52210
G1 X102.068 Y95.564 E4.52267
M106 S242.25

M106 S229.5
G1 Z3.200 F7800.000
G1 E2.52267 F2400.00000
G92 E0
G1 X105.732 Y97.314 F7800.000
G1 E2.00000 F2400.00000
G1 F1200
G1 X105.349 Y96.931 E2.01535
G1 X105.030 Y96.660 E2.02718
G1 X104.607 Y96.411 E2.04112
G1 X103.694 Y95.983 E2.06966
G1 X106.660 Y98.949 E2.18846
G1 X106.728 Y99.114 E2.19350
G1 X106.744 Y99.284 E2.19833
G1 X106.715 Y99.386 E2.20135
G1 X106.608 Y99.605 E2.20824
G1 X102.529 Y95.526 E2.37162
G1 X101.507 Y95.212 E2.40188
G1 X106.375 Y100.080 E2.59684
G1 X106.131 Y100.544 E2.61168
G1 X100.640 Y95.052 E2.83161
G1 X100.165 Y95.096 E2.84511
G1 X100.013 Y95.133 E2.84955
G1 X105.862 Y100.983 E3.08383
G1 X105.689 Y101.195 E3.09160
G1 X105.510 Y101.338 E3.09809
G1 X99.444 Y95.272 E3.34105
G1 X98.858 Y95.394 E3.35800
G1 X105.083 Y101.619 E3.60732
G1 X104.615 Y101.859 E3.62222
G1 X98.273 Y95.516 E3.87625
G1 X97.699 Y95.651 E3.89293
G1 X104.127 Y102.078 E4.15038
G1 X103.627 Y102.286 E4.16572
G1 X96.559 Y95.218 E4.44880
G1 X96.262 Y95.046 E4.45852
G1 X95.891 Y94.919 E4.46963
G1 X95.497 Y94.864 E4.48090
G1 X103.111 Y102.478 E4.78587
G1 X102.583 Y102.658 E4.80167
G1 X94.820 Y94.895 E5.11259
G1 X94.212 Y94.995 E5.13003
G1 X102.047 Y102.829 E5.44380
G1 X101.481 Y102.972 E5.46031
G1 X93.619 Y95.110 E5.77520
G1 X93.030 Y95.228 E5.79222
G1 X100.822 Y103.020 E6.10430
G1 X100.592 Y102.995 E6.11085
G1 X99.927 Y102.833 E6.13022
G1 X92.441 Y95.347 E6.43006
G1 X91.858 Y95.472 E6.44693
G1 X99.029 Y102.643 E6.73413
G1 X98.116 Y102.437 E6.76066
G1 X91.282 Y95.604 E7.03434
G1 X90.961 Y95.677 E7.04368
G1 X90.715 Y95.744 E7.05089
G1 X97.427 Y102.456 E7.31970
G1 X97.050 Y102.787 E7.33390
G1 X90.164 Y95.901 E7.60972
G1 X89.804 Y96.026 E7.62050
G1 X89.655 Y96.100 E7.62521
G1 X96.604 Y103.049 E7.90353
G1 X96.447 Y103.112 E7.90831
G1 X96.049 Y103.202 E7.91988
G1 X89.221 Y96.374 E8.19333
G1 X89.092 Y96.548 E8.19946
G1 X88.950 Y96.810 E8.20792
G1 X95.345 Y103.205 E8.46403
G1 X94.504 Y103.072 E8.48813
G1 X88.712 Y97.280 E8.72012
G1 X88.474 Y97.750 E8.73504
G1 X93.624 Y102.899 E8.94129
G1 X92.723 Y102.707 E8.96737
G1 X88.237 Y98.220 E9.14706
G1 X88.076 Y98.665 E9.16045
G1 X88.069 Y98.760 E9.16316
G1 X91.817 Y102.508 E9.31327
G1 X90.879 Y102.279 E9.34059
G1 X88.375 Y99.774 E9.44089
G1 X89.093 Y101.153 E9.48491
G1 X89.180 Y101.287 E9.48942
G1 X89.562 Y101.669 E9.50471
M106 S232.05
G1 Z3.600 F7800.000
G1 X89.800 Y96.270 F7800.000
G1 F1200
G1 X89.354 Y96.723 E9.52277
G1 X89.040 Y97.324 E9.54205
G1 X88.669 Y98.112 E9.56681
G1 X90.991 Y95.790 E9.66012
G1 X91.918 Y95.574 E9.68718
G1 X88.281 Y99.210 E9.83334
G1 X88.282 Y99.287 E9.83554
G1 X88.358 Y99.646 E9.84594
G1 X88.414 Y99.787 E9.85028
G1 X92.824 Y95.377 E10.02754
G1 X93.722 Y95.189 E10.05360
G1 X88.635 Y100.277 E10.25807
G1 X88.865 Y100.757 E10.27320
G1 X94.620 Y95.002 E10.50451
G1 X95.169 Y94.911 E10.52031
G1 X95.423 Y94.909 E10.52754
G1 X89.095 Y101.237 E10.78188
G1 X89.336 Y101.707 E10.79688
G1 X96.038 Y95.005 E11.06624
G1 X96.275 Y95.072 E11.07324
G1 X96.553 Y95.200 E11.08194
G1 X89.744 Y102.008 E11.35557
G1 X90.086 Y102.145 E11.36602
G1 X90.266 Y102.197 E11.37135
G1 X96.982 Y95.481 E11.64128
G1 X97.356 Y95.817 E11.65557
G1 X90.831 Y102.342 E11.91779
G1 X91.409 Y102.474 E11.93464
G1 X98.018 Y95.865 E12.20025
G1 X98.934 Y95.660 E12.22691
G1 X91.987 Y102.606 E12.50609
G1 X92.570 Y102.734 E12.52304
G1 X99.787 Y95.517 E12.81311
G1 X100.108 Y95.463 E12.82235
G1 X100.725 Y95.289 E12.84057
G1 X93.158 Y102.856 E13.14470
G1 X93.745 Y102.979 E13.16175
G1 X101.486 Y95.238 E13.47287
G1 X102.076 Y95.359 E13.48998
G1 X94.338 Y103.097 E13.80098
G1 X94.784 Y103.171 E13.81384
G1 X94.967 Y103.177 E13.81905
G1 X102.631 Y95.514 E14.12704
G1 X103.157 Y95.698 E14.14289
G1 X95.823 Y103.032 E14.43766
G1 X96.181 Y102.881 E14.44871
G1 X96.408 Y102.750 E14.45617
G1 X96.725 Y102.509 E14.46748
G1 X97.031 Y102.200 E14.47985
G1 X97.313 Y102.144 E14.48802
G1 X97.401 Y102.164 E14.49059
G1 X103.658 Y95.907 E14.74204
G1 X104.133 Y96.142 E14.75711
G1 X97.982 Y102.294 E15.00434
G1 X98.562 Y102.424 E15.02124
G1 X104.577 Y96.408 E15.26299
G1 X104.713 Y96.500 E15.26765
G1 X104.969 Y96.726 E15.27737
G1 X99.170 Y102.526 E15.51046
G1 X99.774 Y102.632 E15.52790
G1 X105.311 Y97.095 E15.75043
G1 X105.602 Y97.514 E15.76492
G1 X100.331 Y102.786 E15.97680
G1 X100.527 Y102.840 E15.98258
G1 X100.849 Y102.870 E15.99177
G1 X100.966 Y102.860 E15.99511
G1 X105.868 Y97.959 E16.19212
G1 X106.120 Y98.417 E16.20699
G1 X101.850 Y102.686 E16.37859
G1 X102.405 Y102.518 E16.39506
G1 X102.919 Y102.328 E16.41063
G1 X106.324 Y98.923 E16.54750
G1 X105.754 Y99.948 E16.58085
G1 X105.466 Y100.406 E16.59622
G1 X105.106 Y100.851 E16.61249
G1 X104.722 Y101.235 E16.62791
M106 S234.6
G1 Z4.000 F7800.000
G1 E14.62791 F2400.00000
G92 E0
G1 X104.702 Y97.476 F7800.000
G1 E2.00000 F2400.00000
G1 F1200
G1 X104.318 Y97.092 E2.01539
G1 X103.884 Y96.706 E2.03182
G1 X103.474 Y96.410 E2.04614
G1 X102.893 Y96.079 E2.06505
G1 X102.364 Y95.846 E2.08143
G1 X105.899 Y99.380 E2.22294
G1 X105.623 Y99.813 E2.23744
G1 X101.355 Y95.544 E2.40835
G1 X101.149 Y95.507 E2.41425
G1 X100.903 Y95.498 E2.42124
G1 X100.635 Y95.532 E2.42887
G1 X105.332 Y100.229 E2.61691
G1 X105.027 Y100.631 E2.63121
G1 X100.075 Y95.679 E2.82948
G1 X99.451 Y95.763 E2.84730
G1 X104.686 Y100.998 E3.05690
G1 X104.311 Y101.330 E3.07109
G1 X98.844 Y95.863 E3.28998
G1 X98.256 Y95.982 E3.30697
G1 X103.901 Y101.628 E3.53301
G1 X103.464 Y101.898 E3.54757
G1 X97.674 Y96.108 E3.77939
G1 X97.538 Y96.137 E3.78333
G1 X97.537 Y96.479 E3.79299
G1 X97.372 Y96.514 E3.79778
G1 X102.991 Y102.132 E4.02273
G1 X102.478 Y102.327 E4.03826
G1 X95.184 Y95.033 E4.33029
G1 X94.817 Y94.967 E4.34085
G1 X94.604 Y94.966 E4.34687
G1 X94.435 Y94.991 E4.35173
G1 X101.933 Y102.489 E4.65193
G1 X101.634 Y102.560 E4.66061
G1 X101.315 Y102.580 E4.66966
G1 X93.855 Y95.119 E4.96834
G1 X93.278 Y95.250 E4.98509
G1 X100.424 Y102.396 E5.27118
G1 X99.600 Y102.279 E5.29475
G1 X92.694 Y95.373 E5.57122
G1 X92.319 Y95.451 E5.58208
G1 X92.058 Y95.444 E5.58947
G1 X98.729 Y102.116 E5.85658
G1 X97.834 Y101.928 E5.88250
G1 X91.476 Y95.570 E6.13705
G1 X91.120 Y95.700 E6.14776
G1 X90.940 Y95.742 E6.15300
G1 X97.263 Y102.064 E6.40613
G1 X97.043 Y102.286 E6.41497
G1 X96.896 Y102.405 E6.42033
G1 X90.365 Y95.874 E6.68180
G1 X90.039 Y95.977 E6.69147
G1 X89.850 Y96.067 E6.69741
G1 X96.478 Y102.695 E6.96278
G1 X96.221 Y102.827 E6.97098
G1 X95.992 Y102.917 E6.97792
G1 X89.476 Y96.400 E7.23883
G1 X89.245 Y96.877 E7.25383
G1 X95.446 Y103.077 E7.50207
G1 X95.269 Y103.110 E7.50717
G1 X95.057 Y103.118 E7.51316
G1 X94.739 Y103.078 E7.52223
G1 X89.037 Y97.377 E7.75051
G1 X88.830 Y97.876 E7.76583
G1 X93.821 Y102.868 E7.96567
G1 X92.923 Y102.677 E7.99167
G1 X88.644 Y98.398 E8.16300
G1 X88.576 Y98.694 E8.17159
G1 X88.582 Y99.043 E8.18149
G1 X92.154 Y102.616 E8.32452
G1 X92.076 Y102.602 E8.32675
G1 X91.479 Y102.376 E8.34482
G1 X91.129 Y102.299 E8.35497
G1 X88.944 Y100.113 E8.44247
G1 X89.211 Y100.748 E8.46197
G1 X89.531 Y101.405 E8.48265
G1 X90.024 Y101.901 E8.50246
G1 E6.50246 F2400.00000
G92 E0
G1 X95.184 Y95.033 F7800.000
G1 E2.00000 F2400.00000
G1 F1200
G1 X95.434 Y95.101 E2.00732
G1 X95.972 Y95.320 E2.02378
G1 X96.266 Y95.490 E2.03337
G1 X96.513 Y95.670 E2.04202
G1 X97.413 Y96.554 E2.07776
M106 S244.8
G1 Z4.400 F7800.000
G1 X96.466 Y95.632 F7800.000
G1 F1200
G1 X95.658 Y96.441 E2.10994
G1 X95.612 Y97.191 E2.13110
G1 X96.871 Y95.931 E2.18125
G1 X97.226 Y96.281 E2.19526
G1 X95.565 Y97.941 E2.26137
G1 X90.775 Y99.213 F7800.000
G1 F1200
G1 X91.157 Y98.831 E2.27658
G1 X92.060 Y98.631 E2.30263
G1 X91.334 Y99.358 E2.33155
G1 X91.893 Y99.502 E2.34781
G1 X92.927 Y98.468 E2.38896
G1 X93.814 Y98.285 E2.41447
G1 X92.485 Y99.614 E2.46740
G1 X92.813 Y99.682 E2.47684
G1 X93.103 Y99.699 E2.48502
G1 X94.700 Y98.102 E2.54860
G1 X95.586 Y97.920 E2.57407
G1 X93.766 Y99.740 E2.64655
G1 X94.429 Y99.781 E2.66525
G1 X97.682 Y96.528 E2.79476
G1 X98.566 Y96.347 E2.82019
G1 X95.092 Y99.822 E2.95854
G1 X95.303 Y99.835 E2.96450
G1 X95.359 Y100.258 E2.97652
G1 X99.452 Y96.165 E3.13947
G1 X99.885 Y96.076 E3.15192
G1 X100.291 Y96.029 E3.16344
G1 X95.442 Y100.878 E3.35653
G1 X95.525 Y101.499 E3.37416
G1 X101.115 Y95.909 E3.59675
G1 X101.261 Y95.885 E3.60090
G1 X101.528 Y95.887 E3.60843
G1 X101.800 Y95.928 E3.61616
G1 X95.608 Y102.120 E3.86271
G1 X95.680 Y102.665 E3.87818
G1 X95.837 Y102.595 E3.88300
G1 X96.824 Y101.607 E3.92233
G1 X96.797 Y101.580 E3.92342
G1 X97.041 Y101.251 E3.93494
G1 X97.138 Y101.294 E3.93792
G1 X102.342 Y96.090 E4.14513
G1 X102.837 Y96.298 E4.16026
G1 X97.535 Y101.600 E4.37138
G1 X98.116 Y101.723 E4.38809
G1 X103.296 Y96.543 E4.59434
G1 X103.509 Y96.664 E4.60123
G1 X103.724 Y96.818 E4.60869
G1 X98.697 Y101.846 E4.80887
G1 X99.286 Y101.960 E4.82577
G1 X104.128 Y97.118 E5.01859
G1 X104.506 Y97.443 E5.03264
G1 X99.892 Y102.057 E5.21636
G1 X100.514 Y102.139 E5.23403
G1 X104.859 Y97.794 E5.40701
G1 X105.188 Y98.169 E5.42105
G1 X101.173 Y102.184 E5.58090
G1 X101.286 Y102.179 E5.58407
G1 X101.551 Y102.124 E5.59169
G1 X101.832 Y102.040 E5.59996
G1 X102.145 Y101.916 E5.60943
G1 X105.495 Y98.566 E5.74281
G1 X105.675 Y98.847 E5.75222
G1 X105.643 Y98.923 E5.75455
G1 X105.446 Y99.217 E5.76448
G1 X104.979 Y99.780 E5.78510
G1 X104.119 Y100.645 E5.81944
G1 E3.81944 F2400.00000
G92 E0
G1 X94.959 Y97.675 F7800.000
G1 E2.00000 F2400.00000
M106 S255

G1 F3600
G1 X95.522 Y97.548 E2.01666
G1 X95.558 Y96.966 E2.03347
G1 X89.279 Y98.385 E2.21916
G1 X89.064 Y97.964 E2.23279
G1 X89.104 Y97.851 E2.23626
G1 X95.594 Y96.384 E2.42818
G1 X95.630 Y95.802 E2.44499
G1 X89.325 Y97.227 E2.63143
G1 X89.615 Y96.588 E2.65167
G1 X95.365 Y95.289 E2.82170
G1 X95.184 Y95.237 E2.82714
G1 X94.930 Y95.197 E2.83456
G1 X94.822 Y95.206 E2.83768
G1 X94.107 Y95.387 E2.85896
G1 X93.198 Y95.582 E2.88577
G1 X92.781 Y95.453 E2.89838
G1 X92.420 Y95.405 E2.90887
G1 X92.180 Y95.435 E2.91586
G1 X91.621 Y95.561 E2.93237
M106 S244.8

G1 X89.303 Y98.402 F7800.000
G1 F1200
G1 X88.917 Y98.788 E2.95056
G1 X89.285 Y99.252 F7800.000
G1 F1200
G1 X88.904 Y99.634 E2.96856
G1 X90.049 Y99.297 F7800.000
M106 S255

G1 F3600
G1 X89.483 Y99.204 E2.98704
G1 X89.217 Y99.756 E3.00680
G1 X95.396 Y100.774 E3.20857
G1 X95.477 Y101.384 E3.22840
G1 X89.134 Y100.339 E3.43551
G1 X89.361 Y100.973 E3.45719
G1 X95.558 Y101.994 E3.65956
G1 X95.640 Y102.604 E3.67939
G1 X89.682 Y101.622 E3.87392
G1 X89.780 Y101.710 E3.87815
G1 X89.946 Y101.802 E3.88426
G1 X90.150 Y101.881 E3.89134
G1 X90.730 Y102.032 E3.91065
G1 X90.946 Y102.113 E3.91809
G1 X91.112 Y102.276 E3.92558
G1 X91.258 Y102.385 E3.93143
G1 X91.498 Y102.503 E3.94005
G1 X92.334 Y102.655 E3.96743
G1 X92.183 Y102.631 E3.97234
M106 S244.8

M106 S239.7
G1 Z4.800 F7800.000
G1 X90.306 Y101.896 F7800.000
G1 F1200
G1 X89.924 Y101.514 E3.98778
G1 X89.872 Y101.437 E3.99044
G1 X89.739 Y101.181 E3.99871
G1 X89.617 Y100.882 E4.00794
G1 X89.445 Y100.321 E4.02470
G1 X91.962 Y102.838 E4.12649
G1 X92.322 Y102.902 E4.13695
G1 X92.572 Y102.884 E4.14411
G1 X92.691 Y102.852 E4.14762
G1 X89.225 Y99.387 E4.28776
G1 X89.177 Y99.089 E4.29638
G1 X89.165 Y98.819 E4.30412
G1 X89.179 Y98.626 E4.30963
G1 X93.216 Y102.663 E4.47287
G1 X93.405 Y102.657 E4.47827
G1 X94.065 Y102.797 E4.49756
G1 X89.286 Y98.018 E4.69082
G1 X89.432 Y97.450 E4.70758
G1 X94.860 Y102.878 E4.92705
G1 X95.401 Y102.704 E4.94330
G1 X89.594 Y96.897 E5.17813
G1 X89.805 Y96.393 E5.19374
G1 X95.920 Y102.509 E5.44104
G1 X96.382 Y102.256 E5.45609
G1 X90.154 Y96.029 E5.70792
G1 X90.250 Y95.979 E5.71099
G1 X90.682 Y95.842 E5.72397
G1 X96.787 Y101.947 E5.97083
G1 X96.910 Y101.849 E5.97531
G1 X97.150 Y101.595 E5.98530
G1 X91.094 Y95.539 E6.23018
G1 X91.346 Y95.349 E6.23920
G1 X91.533 Y95.264 E6.24510
G1 X97.472 Y101.203 E6.48524
G1 X97.638 Y101.077 E6.49118
G1 X97.661 Y101.040 E6.49243
G1 X97.881 Y100.910 E6.49973
G1 X97.900 Y100.916 E6.50029
G1 X92.184 Y95.200 E6.73142
G1 X92.441 Y95.268 E6.73903
G1 X92.717 Y95.411 E6.74793
G1 X92.867 Y95.444 E6.75231
G1 X93.107 Y95.409 E6.75925
G1 X98.903 Y101.204 E6.99360
G1 X99.938 Y101.525 E7.02460
G1 X93.695 Y95.282 E7.27704
G1 X94.198 Y95.154 E7.29187
G1 X94.284 Y95.156 E7.29432
G1 X100.843 Y101.716 E7.55956
G1 X101.277 Y101.757 E7.57202
G1 X101.580 Y101.738 E7.58071
G1 X95.328 Y95.485 E7.83356
G1 X95.700 Y95.650 E7.84522
G1 X95.981 Y95.810 E7.85443
G1 X96.321 Y96.055 E7.86642
G1 X96.623 Y96.327 E7.87805
G1 X96.899 Y96.639 E7.88995
G1 X97.126 Y96.961 E7.90124
G1 X97.232 Y97.022 E7.90472
G1 X97.381 Y97.198 E7.91131
G1 X97.676 Y97.119 E7.92006
G1 X102.161 Y101.604 E8.10139
G1 X102.680 Y101.408 E8.11725
G1 X98.233 Y96.962 E8.29704
G1 X98.785 Y96.798 E8.31348
G1 X103.153 Y101.166 E8.49011
G1 X103.600 Y100.899 E8.50500
G1 X99.329 Y96.628 E8.67771
G1 X99.877 Y96.462 E8.69409
G1 X104.017 Y100.602 E8.86147
G1 X104.414 Y100.284 E8.87601
G1 X100.490 Y96.360 E9.03468
G1 X100.833 Y96.327 E9.04454
G1 X101.190 Y96.346 E9.05477
G1 X104.787 Y99.943 E9.20021
G1 X105.133 Y99.574 E9.21466
G1 X102.188 Y96.629 E9.33373
G1 X102.393 Y96.715 E9.34008
G1 X102.946 Y97.006 E9.35794
G1 X103.415 Y97.312 E9.37394
G1 X103.994 Y97.760 E9.39490
G1 X104.912 Y98.639 E9.43122
M106 S244.8
G1 Z5.200 F7800.000
G1 X104.369 Y99.583 F7800.000
G1 F1200
G1 X104.780 Y99.168 E9.44804
G1 X104.543 Y99.010 E9.45626
G1 X104.636 Y98.855 E9.46146
G1 X104.649 Y98.671 E9.46676
G1 X104.918 Y98.682 E9.47450
G1 X104.737 Y98.495 E9.48197
G1 X102.326 Y100.907 E9.58014
G1 X101.934 Y101.060 E9.59225
G1 X101.414 Y101.202 E9.60776
G1 X101.294 Y101.219 E9.61123
G1 X104.347 Y98.166 E9.73549
G1 X103.936 Y97.858 E9.75029
G1 X100.549 Y101.245 E9.88812
G1 X100.396 Y101.229 E9.89256
G1 X100.223 Y101.171 E9.89781
G1 X100.014 Y101.061 E9.90461
G1 X103.499 Y97.576 E10.04647
G1 X103.029 Y97.326 E10.06177
G1 X99.570 Y100.786 E10.20260
G1 X99.193 Y100.516 E10.21594
G1 X99.154 Y100.482 E10.21741
G1 X102.528 Y97.108 E10.35476
G1 X102.355 Y97.036 E10.36016
G1 X101.984 Y96.933 E10.37124
G1 X98.765 Y100.152 E10.50225
G1 X98.388 Y99.810 E10.51691
G1 X101.375 Y96.823 E10.63848
G1 X100.958 Y96.827 E10.65046
G1 X100.739 Y96.861 E10.65685
G1 X100.530 Y96.948 E10.66336
G1 X98.015 Y99.463 E10.76573
G1 X97.969 Y99.422 E10.76751
G1 X97.510 Y99.743 E10.78363
G1 X97.427 Y100.051 E10.79283
G1 X94.970 Y102.509 E10.89284
G1 X94.135 Y102.789 E10.91820
G1 X93.976 Y102.783 E10.92275
G1 X98.176 Y98.583 E11.09371
G1 X97.994 Y98.345 E11.10234
G1 X97.866 Y98.225 E11.10738
G1 X97.855 Y98.185 E11.10857
G1 X93.381 Y102.658 E11.29065
G1 X93.017 Y102.592 E11.30132
G1 X92.972 Y102.465 E11.30520
G1 X92.676 Y102.645 E11.31517
G1 X97.681 Y97.640 E11.51888
G1 X97.440 Y97.161 E11.53430
G1 X91.770 Y102.831 E11.76509
G1 X91.595 Y102.801 E11.77019
G1 X91.461 Y102.748 E11.77436
G1 X91.257 Y102.625 E11.78121
G1 X97.137 Y96.745 E12.02054
G1 X96.786 Y96.376 E12.03519
G1 X90.895 Y102.268 E12.27497
G1 X90.714 Y102.073 E12.28262
G1 X90.646 Y102.169 E12.28602
G1 X90.378 Y102.065 E12.29429
G1 X96.380 Y96.063 E12.53859
G1 X96.171 Y95.929 E12.54575
G1 X95.916 Y95.808 E12.55387
G1 X90.009 Y101.715 E12.79428
G1 X89.838 Y101.305 E12.80706
G1 X89.811 Y101.194 E12.81036
G1 X95.407 Y95.598 E13.03814
G1 X94.871 Y95.414 E13.05443
G1 X89.691 Y100.594 E13.26527
G1 X89.593 Y99.973 E13.28337
G1 X94.242 Y95.325 E13.47259
G1 X93.407 Y95.489 E13.49707
G1 X93.374 Y95.596 E13.50031
G1 X93.292 Y95.555 E13.50295
G1 X89.521 Y99.326 E13.65646
G1 X89.525 Y99.044 E13.66457
G1 X89.582 Y98.546 E13.67899
G1 X92.814 Y95.314 E13.81056
G1 X92.703 Y95.270 E13.81398
G1 X92.382 Y95.223 E13.82331
G1 X92.173 Y95.236 E13.82936
G1 X89.729 Y97.680 E13.92883
G1 X89.786 Y97.354 E13.93836
G1 X89.924 Y96.924 E13.95136
G1 X90.145 Y96.544 E13.96399
G1 X90.528 Y96.161 E13.97958
M106 S247.35
G1 Z5.600 F7800.000
G1 E11.97958 F2400.00000
G92 E0
G1 X90.794 Y101.936 F7800.000
G1 E2.00000 F2400.00000
G1 F1200
G1 X90.412 Y101.555 E2.01576
G1 X90.241 Y101.318 E2.02428
G1 X90.138 Y101.063 E2.03233
G1 X90.084 Y100.758 E2.04138
G1 X90.075 Y100.487 E2.04927
G1 X92.285 Y102.698 E2.14053
G1 X92.560 Y102.684 E2.14857
G1 X92.773 Y102.622 E2.15502
G1 X92.883 Y102.567 E2.15864
G1 X90.043 Y99.726 E2.27592
G1 X89.983 Y98.937 E2.29901
G1 X93.594 Y102.547 E2.44806
G1 X94.240 Y102.654 E2.46719
G1 X94.310 Y102.645 E2.46923
G1 X94.384 Y102.609 E2.47166
G1 X90.025 Y98.249 E2.65164
G1 X90.063 Y97.558 E2.67184
G1 X94.922 Y102.417 E2.87241
G1 X95.471 Y102.236 E2.88927
G1 X90.104 Y96.869 E3.11082
G1 X90.143 Y96.619 E3.11822
G1 X90.282 Y96.318 E3.12789
G1 X95.989 Y102.025 E3.36347
G1 X96.448 Y101.755 E3.37902
G1 X90.770 Y96.076 E3.61345
G1 X91.133 Y95.901 E3.62522
G1 X91.092 Y95.811 E3.62810
G1 X91.171 Y95.747 E3.63107
G1 X96.845 Y101.422 E3.86533
G1 X97.187 Y101.034 E3.88042
G1 X91.603 Y95.450 E4.11094
G1 X91.813 Y95.392 E4.11730
G1 X92.038 Y95.381 E4.12388
G1 X92.315 Y95.433 E4.13211
G1 X97.464 Y100.582 E4.34466
G1 X97.546 Y100.405 E4.35035
G1 X97.660 Y100.048 E4.36128
G1 X93.154 Y95.542 E4.54730
G1 X93.785 Y95.444 E4.56594
G1 X97.754 Y99.413 E4.72978
G1 X97.761 Y99.157 E4.73724
G1 X97.706 Y98.635 E4.75255
G1 X94.835 Y95.765 E4.87105
G1 X95.316 Y95.925 E4.88583
G1 X95.832 Y96.176 E4.90261
G1 X96.235 Y96.457 E4.91693
G1 X97.014 Y97.214 E4.94863
G1 E2.94863 F2400.00000
G92 E0
G1 X98.286 Y98.851 F7800.000
G1 E2.00000 F2400.00000
G1 F1200
G1 X98.771 Y99.324 E2.01995
G1 X99.202 Y99.655 E2.03591
G1 X100.347 Y100.468 E2.07726
G1 X100.624 Y100.623 E2.08660
G1 X100.866 Y100.695 E2.09401
G1 X98.696 Y98.526 E2.18431
G1 X99.115 Y98.209 E2.19976
G1 X101.582 Y100.676 E2.30243
G1 X101.945 Y100.609 E2.31331
G1 X102.181 Y100.540 E2.32053
G1 X99.546 Y97.905 E2.43020
G1 X99.983 Y97.606 E2.44577
G1 X102.728 Y100.352 E2.56003
G1 X103.236 Y100.124 E2.57641
G1 X100.498 Y97.386 E2.69034
G1 X100.736 Y97.366 E2.69734
G1 X101.132 Y97.394 E2.70904
G1 X101.268 Y97.421 E2.71313
G1 X103.716 Y99.869 E2.81499
G1 X104.164 Y99.582 E2.83066
G1 X102.286 Y97.703 E2.90883
G1 X102.839 Y97.944 E2.92660
G1 X103.557 Y98.342 E2.95075
G1 X103.922 Y98.604 E2.96395
G1 X104.304 Y98.986 E2.97986
M106 S252.45
G1 Z6.000 F7800.000
G1 E0.97986 F2400.00000
G92 E0
G1 X96.525 Y101.148 F7800.000
G1 E2.00000 F2400.00000
G1 F1200
G1 X96.909 Y100.764 E2.01514
G1 X97.121 Y100.509 E2.02439
G1 X97.325 Y100.152 E2.03584
G1 X97.416 Y99.900 E2.04332
G1 X97.504 Y99.473 E2.05547
G1 X94.914 Y102.062 E2.15755
G1 X93.897 Y102.383 E2.18727
G1 X97.535 Y98.745 E2.33066
G1 X97.532 Y98.505 E2.33736
G1 X97.483 Y98.100 E2.34872
G1 X93.147 Y102.436 E2.51963
G1 X92.531 Y102.356 E2.53697
G1 X97.329 Y97.558 E2.72610
G1 X97.146 Y97.224 E2.73671
G1 X97.068 Y97.122 E2.74029
G1 X91.837 Y102.353 E2.94648
G1 X91.656 Y102.296 E2.95176
G1 X91.697 Y102.178 E2.95523
G1 X91.404 Y102.090 E2.96377
G1 X96.728 Y96.765 E3.17366
G1 X96.479 Y96.563 E3.18260
G1 X96.327 Y96.470 E3.18758
G1 X90.785 Y102.012 E3.40604
G1 X90.741 Y101.990 E3.40742
G1 X90.688 Y101.935 E3.40953
G1 X90.563 Y101.716 E3.41658
G1 X90.526 Y101.574 E3.42066
G1 X95.870 Y96.230 E3.63132
G1 X95.368 Y96.036 E3.64634
G1 X90.586 Y100.817 E3.83482
G1 X90.631 Y100.532 E3.84288
G1 X90.630 Y100.077 E3.85555
G1 X94.831 Y95.876 E4.02116
G1 X94.301 Y95.709 E4.03664
G1 X90.569 Y99.441 E4.18375
G1 X90.549 Y99.174 E4.19122
G1 X90.594 Y98.720 E4.20396
G1 X93.684 Y95.629 E4.32577
G1 X92.887 Y95.730 E4.34817
G1 X90.634 Y97.983 E4.43699
G1 X90.537 Y97.383 E4.45392
G1 X92.186 Y95.735 E4.51890
G1 X92.098 Y95.750 E4.52137
G1 X91.915 Y95.837 E4.52704
G1 X91.920 Y95.859 E4.52767
G1 X91.361 Y95.993 E4.54369
G1 X91.141 Y96.083 E4.55034
G1 X90.732 Y96.492 E4.56644
G1 X90.759 Y96.465 E4.56750
G1 E2.56750 F2400.00000
G92 E0
G1 X98.705 Y99.232 F7800.000
G1 E2.00000 F2400.00000
G1 F1200
G1 X99.087 Y98.850 E2.01739
G1 X99.763 Y98.427 E2.04308
G1 X100.266 Y98.157 E2.06147
G1 X100.485 Y98.065 E2.06912
G1 X100.739 Y98.003 E2.07754
G1 X99.199 Y99.543 E2.14766
G1 X99.715 Y99.832 E2.16670
G1 X101.531 Y98.016 E2.24944
G1 X102.189 Y98.162 E2.27116
G1 X100.285 Y100.066 E2.35788
G1 X100.733 Y100.109 E2.37238
G1 X101.082 Y100.075 E2.38366
G1 X102.798 Y98.359 E2.46180
G1 X103.016 Y98.447 E2.46940
G1 X102.794 Y98.784 E2.48239
G1 X103.020 Y98.941 E2.49128
G1 X102.142 Y99.820 E2.53129
G1 X102.986 Y98.976 F7800.000
G1 F1200
G1 X102.955 Y98.963 E2.53235
G1 X102.975 Y98.986 E2.53333
G1 X103.367 Y98.594 E2.55118
G1 X103.841 Y98.832 E2.56824
G1 X103.916 Y98.850 E2.57074
G1 X103.534 Y99.232 E2.58813
G1 Z6.400 F7800.000
G1 E0.58813 F2400.00000
G92 E0
G1 X96.620 Y97.257 F7800.000
G1 E2.00000 F2400.00000
G1 F900
G1 X96.234 Y96.871 E2.01531
G1 X95.953 Y96.654 E2.02528
G1 X95.708 Y96.518 E2.03315
G1 X95.418 Y96.393 E2.04200
G1 X94.894 Y96.233 E2.05738
G1 X97.213 Y98.551 E2.14939
G1 X97.249 Y99.046 E2.16330
G1 X97.246 Y99.285 E2.17003
G1 X93.955 Y95.995 E2.30062
G1 X93.391 Y95.834 E2.31706
G1 X93.076 Y95.817 E2.32593
G1 X97.206 Y99.948 E2.48984
G1 X97.104 Y100.424 E2.50352
G1 X97.069 Y100.512 E2.50616
G1 X92.426 Y95.868 E2.69043
G1 X91.792 Y95.936 E2.70832
G1 X96.822 Y100.966 E2.90794
G1 X96.628 Y101.197 E2.91641
G1 X96.481 Y101.326 E2.92190
G1 X91.215 Y96.060 E3.13086
G1 X91.079 Y96.151 E3.13544
G1 X91.003 Y96.242 E3.13878
G1 X90.972 Y96.315 E3.14099
G1 X90.977 Y96.524 E3.14687
G1 X96.039 Y101.585 E3.34773
G1 X95.530 Y101.778 E3.36300
G1 X91.264 Y97.512 E3.53230
G1 X91.285 Y97.766 E3.53946
G1 X91.242 Y98.190 E3.55143
G1 X94.977 Y101.926 E3.69967
G1 X94.417 Y102.067 E3.71588
G1 X91.154 Y98.805 E3.84537
G1 X91.169 Y99.084 E3.85322
G1 X91.256 Y99.608 E3.86812
G1 X93.870 Y102.221 E3.97183
G1 X93.638 Y102.265 E3.97844
G1 X93.203 Y102.256 E3.99064
G1 X91.246 Y100.298 E4.06834
G1 X91.076 Y100.830 E4.08400
G1 X92.423 Y102.177 E4.13744
G1 X91.919 Y102.112 E4.15169
G1 X91.662 Y102.053 E4.15910
G1 X91.527 Y101.981 E4.16338
G1 X91.010 Y101.466 E4.18385
G1 E2.18385 F2400.00000
G92 E0
G1 X100.114 Y99.121 F7800.000
G1 E2.00000 F2400.00000
G1 F900
G1 X99.755 Y99.229 E2.01230
G1 X100.417 Y99.424 E2.03496
G1 X99.732 Y98.739 E2.06679
G1 X99.874 Y98.696 E2.07168
G1 X100.274 Y98.625 E2.08501
G1 X100.446 Y98.620 E2.09069
G1 X100.828 Y99.002 E2.10844
G1 X101.604 Y98.979 F7800.000
G1 F900
G1 X101.986 Y99.361 E2.12620
G1 X102.271 Y98.825 F7800.000
G1 F900
G1 X102.653 Y99.207 E2.14395
M106 S255
G1 Z6.800 F7800.000
G1 E0.14395 F2400.00000
G92 E0
G1 X96.072 Y100.778 F7800.000
G1 E2.00000 F2400.00000
G1 F689.522
G1 X96.574 Y100.273 E2.02024
G1 X96.691 Y100.097 E2.02623
G1 X96.836 Y99.714 E2.03787
G1 X96.878 Y99.491 E2.04432
G1 X96.894 Y99.247 E2.05127
G1 X94.746 Y101.395 E2.13757
G1 X94.252 Y101.616 E2.15293
G1 X93.635 Y101.796 E2.17118
G1 X96.896 Y98.534 E2.30218
G1 X96.881 Y98.239 E2.31059
G1 X96.809 Y97.912 E2.32009
G1 X92.730 Y101.991 E2.48394
G1 X92.521 Y102.002 E2.48989
G1 X92.049 Y101.962 E2.50333
G1 X96.577 Y97.434 E2.68521
G1 X96.476 Y97.323 E2.68946
G1 X96.181 Y97.120 E2.69964
G1 X91.611 Y101.690 E2.88319
G1 X91.595 Y101.657 E2.88424
G1 X91.602 Y101.609 E2.88561
G1 X91.639 Y101.498 E2.88895
G1 X91.958 Y100.883 E2.90861
G1 X92.010 Y100.690 E2.91429
G1 X92.019 Y100.572 E2.91765
G1 X95.670 Y96.921 E3.06430
G1 X95.169 Y96.712 E3.07971
G1 X91.929 Y99.953 E3.20988
G1 X91.797 Y99.375 E3.22672
G1 X94.684 Y96.487 E3.34270
G1 X94.143 Y96.319 E3.35880
G1 X91.924 Y98.538 E3.44795
G1 X92.007 Y98.141 E3.45947
G1 X92.023 Y97.968 E3.46440
G1 X92.004 Y97.748 E3.47069
G1 X93.577 Y96.175 E3.53387
G1 X93.391 Y96.128 E3.53931
G1 X92.961 Y96.081 E3.55161
G1 X91.792 Y97.250 E3.59857
G1 X91.650 Y96.991 E3.60697
G1 X91.593 Y96.807 E3.61244
G1 X91.661 Y96.672 E3.61674
G1 X92.043 Y96.289 E3.63209
G1 Z7.200 F7800.000
G1 E1.63209 F2400.00000
G92 E0
G1 X92.860 Y99.755 F7800.000
G1 E2.00000 F2400.00000
G1 F600
G1 X93.330 Y100.205 E2.02101
G1 X93.526 Y100.283 E2.02782
G1 X93.690 Y100.311 E2.03317
G1 X94.218 Y100.305 E2.05022
G1 X92.492 Y98.579 E2.12902
G1 X92.684 Y98.166 E2.14375
G1 X92.768 Y98.049 E2.14840
G1 X94.986 Y100.266 E2.24966
G1 X95.776 Y100.250 E2.27520
G1 X93.300 Y97.773 E2.38829
G1 X93.521 Y97.764 E2.39544
G1 X94.126 Y97.793 E2.41500
G1 X96.361 Y100.028 E2.51706
G1 X96.456 Y99.826 E2.52426
G1 X96.507 Y99.572 E2.53263
G1 X96.515 Y99.375 E2.53898
G1 X94.971 Y97.831 E2.60949
G1 X95.500 Y97.827 E2.62654
G1 X95.739 Y97.865 E2.63438
G1 X95.899 Y97.952 E2.64025
G1 X96.282 Y98.334 E2.65772
G1 Z7.600 F7800.000
G1 X95.547 Y99.591 F7800.000
G1 F600
G1 X95.956 Y99.171 E2.67493
G1 X96.019 Y98.967 E2.68122
G1 X96.026 Y98.800 E2.68613
G1 X95.975 Y98.568 E2.69311
G1 X95.920 Y98.485 E2.69605
G1 X94.633 Y99.772 E2.74954
G1 X93.883 Y99.806 E2.77161
G1 X93.867 Y99.804 E2.77208
G1 X95.341 Y98.329 E2.83336
G1 X94.651 Y98.285 E2.85369
G1 X93.343 Y99.593 E2.90803
G1 X93.244 Y99.479 E2.91246
G1 X93.201 Y99.396 E2.91522
G1 X93.172 Y99.295 E2.91830
G1 X93.179 Y99.149 E2.92258
G1 X93.238 Y98.995 E2.92743
G1 X93.326 Y98.875 E2.93181
G1 X93.709 Y98.492 E2.94773
G1 Z8.000 F7800.000
G1 E0.94773 F2400.00000
G92 E0
M107
; Filament-specific end gcode 
;END gcode for filament

M104 S0 ; turn off temperature
G28 X0  ; home X axis
M84     ; disable motors

M140 S0 ; set bed temperature
; filament used = 111.6mm (0.8cm3)
; total filament cost = 0.0

; avoid_crossing_perimeters = 0
; bed_shape = 0x0,200x0,200x200,0x200
; bed_temperature = 0
; before_layer_gcode = 
; between_objects_gcode = 
; bridge_acceleration = 0
; bridge_fan_speed = 100
; brim_connections_width = 0
; brim_width = 0
; complete_objects = 0
; cooling = 1
; default_acceleration = 0
; disable_fan_first_layers = 3
; duplicate_distance = 6
; end_filament_gcode = "; Filament-specific end gcode \n;END gcode for filament\n"
; end_gcode = M104 S0 ; turn off temperature\nG28 X0  ; home X axis\nM84     ; disable motors\n
; extruder_clearance_height = 20
; extruder_clearance_radius = 20
; extruder_offset = 0x0
; extrusion_axis = E
; extrusion_multiplier = 1
; fan_always_on = 0
; fan_below_layer_time = 60
; filament_colour = #FFFFFF
; filament_cost = 0
; filament_density = 0
; filament_diameter = 3
; filament_max_volumetric_speed = 0
; filament_notes = ""
; first_layer_acceleration = 0
; first_layer_bed_temperature = 0
; first_layer_extrusion_width = 200%
; first_layer_speed = 30
; first_layer_temperature = 205
; gcode_arcs = 0
; gcode_comments = 0
; gcode_flavor = reprap
; has_heatbed = 1
; infill_acceleration = 0
; infill_first = 0
; interior_brim_width = 0
; layer_gcode = 
; max_fan_speed = 100
; max_layer_height = 0.3
; max_print_speed = 80
; max_volumetric_speed = 0
; min_fan_speed = 35
; min_layer_height = 0.15
; min_print_speed = 10
; min_skirt_length = 0
; notes = 
; nozzle_diameter = 0.5
; only_retract_when_crossing_perimeters = 1
; ooze_prevention = 0
; output_filename_format = [input_filename_base].gcode
; perimeter_acceleration = 0
; post_process = 
; pressure_advance = 0
; printer_notes = 
; resolution = 0
; retract_before_travel = 2
; retract_layer_change = 0
; retract_length = 2
; retract_length_toolchange = 10
; retract_lift = 0
; retract_lift_above = 0
; retract_lift_below = 0
; retract_restart_extra = 0
; retract_restart_extra_toolchange = 0
; retract_speed = 40
; skirt_distance = 6
; skirt_height = 1
; skirts = 0
; slowdown_below_layer_time = 5
; spiral_vase = 0
; standby_temperature_delta = -5
; start_filament_gcode = "; Filament gcode\n"
; start_gcode = G28 ; home all axes\nG1 Z5 F5000 ; lift nozzle\n
; temperature = 200
; threads = 8
; toolchange_gcode = 
; travel_speed = 130
; use_firmware_retraction = 0
; use_relative_e_distances = 0
; use_set_and_wait_bed = 0
; use_set_and_wait_extruder = 0
; use_volumetric_e = 0
; vibration_limit = 0
; wipe = 0
; z_offset = 0
; z_steps_per_mm = 0
; adaptive_slicing = 0
; adaptive_slicing_quality = 75%
; dont_support_bridges = 1
; extrusion_width = 0
; first_layer_height = 0.4
; infill_only_where_needed = 0
; interface_shells = 0
; layer_height = 0.4
; match_horizontal_surfaces = 0
; raft_layers = 0
; regions_overlap = 0
; seam_position = aligned
; sequential_print_priority = 0
; support_material = 0
; support_material_angle = 0
; support_material_buildplate_only = 0
; support_material_contact_distance = 0.2
; support_material_enforce_layers = 0
; support_material_extruder = 1
; support_material_extrusion_width = 0
; support_material_interface_extruder = 1
; support_material_interface_extrusion_width = 0
; support_material_interface_layers = 3
; support_material_interface_spacing = 0
; support_material_interface_speed = 100%
; support_material_max_layers = 0
; support_material_pattern = pillars
; support_material_spacing = 2.5
; support_material_speed = 60
; support_material_threshold = 60%
; xy_size_compensation = 0
; bottom_infill_pattern = rectilinear
; bottom_solid_layers = 3
; bridge_flow_ratio = 1
; bridge_speed = 60
; external_perimeter_extrusion_width = 0
; external_perimeter_speed = 50%
; external_perimeters_first = 0
; extra_perimeters = 1
; fill_angle = 45
; fill_density = 90%
; fill_gaps = 1
; fill_pattern = rectilinear
; gap_fill_speed = 20
; infill_every_layers = 1
; infill_extruder = 1
; infill_extrusion_width = 0
; infill_overlap = 55%
; infill_speed = 80
; overhangs = 1
; perimeter_extruder = 1
; perimeter_extrusion_width = 0
; perimeter_speed = 60
; perimeters = 0
; small_perimeter_speed = 15
; solid_infill_below_area = 70
; solid_infill_every_layers = 0
; solid_infill_extruder = 1
; solid_infill_extrusion_width = 0
; solid_infill_speed = 20
; thin_walls = 1
; top_infill_extrusion_width = 0
; top_infill_pattern = rectilinear
; top_solid_infill_speed = 15
; top_solid_layers = 3
