; generated by Slic3r 1.3.0 on 2020-03-03 at 16:05:53

; external perimeters extrusion width = 0.55mm (6.64mm^3/s)
; perimeters extrusion width = 0.52mm (12.53mm^3/s)
; infill extrusion width = 0.52mm (16.71mm^3/s)
; solid infill extrusion width = 0.52mm (4.18mm^3/s)
; top infill extrusion width = 0.52mm (3.13mm^3/s)

M107
M104 S205 ; set temperature
G28 ; home all axes
G1 Z5 F5000 ; lift nozzle

; Filament gcode

M109 S205 ; set temperature and wait for it to be reached
G21 ; set units to millimeters
G90 ; use absolute coordinates
M82 ; use absolute distances for extrusion
G92 E0
G1 Z0.700 F7800.000
M104 S200 ; set temperature
G1 Z1.200 F7800.000
G1 E-2.00000 F2400.00000
G92 E0
G1 X97.663 Y94.606 F7800.000
G1 E2.00000 F2400.00000

G1 F3600
G1 X98.013 Y94.205 E2.01722
G1 X98.100 Y94.172 E2.02023
G1 X98.378 Y94.182 E2.02922
G1 X98.714 Y94.297 E2.04072
G1 X97.498 Y95.695 E2.10067
G1 X97.610 Y96.465 E2.12585
G1 X99.532 Y94.255 E2.22058
G1 X99.988 Y94.629 E2.23966
G1 X98.608 Y96.215 E2.30768
G1 X98.711 Y96.250 E2.31118
G1 X98.760 Y96.170 E2.31423
G1 X99.111 Y96.111 E2.32571
G1 X99.280 Y96.341 E2.33495
G1 X100.395 Y95.059 E2.38993
G1 X100.363 Y95.147 E2.39298
G1 X100.752 Y95.380 E2.40765
G1 X100.831 Y95.292 E2.41146
G1 X100.868 Y95.414 E2.41556
G1 X100.704 Y95.602 E2.42365
G1 X100.973 Y95.748 E2.43354
G1 X100.844 Y96.059 E2.44445
G1 X100.597 Y96.235 E2.45425
G1 X100.359 Y95.999 E2.46510
G1 X99.669 Y96.793 E2.49914
G1 X99.804 Y96.903 E2.50479
G1 X100.155 Y97.132 E2.51834
G1 X101.199 Y95.932 E2.56980
G1 X101.364 Y96.117 E2.57782
G1 X101.570 Y96.404 E2.58924
G1 X100.632 Y97.482 E2.63548
G1 X101.092 Y97.852 E2.65457
G1 X101.893 Y96.931 E2.69407
G1 X102.036 Y97.333 E2.70789
G1 X102.076 Y97.564 E2.71547
G1 X102.067 Y97.629 E2.71759
G1 X101.717 Y98.031 E2.73482

G1 E0.73482 F2400.00000
G92 E0
G1 X98.301 Y96.568 F7800.000
G1 E2.00000 F2400.00000

G1 F3600
G1 X98.431 Y96.582 E2.00421
G1 X98.525 Y96.536 E2.00760
G1 X98.738 Y96.313 E2.01758
G1 X98.593 Y96.251 E2.02268
G1 X98.607 Y96.217 E2.02389
G1 X97.952 Y96.970 E2.05618

G1 Z1.700 F7800.000
G1 E0.05618 F2400.00000
G92 E0
G1 X98.013 Y99.510 F7800.000
G1 E2.00000 F2400.00000

G1 F3600
G1 X97.384 Y99.950 E2.03175

G1 X98.043 Y100.294 F7800.000

G1 F3600
G1 X98.479 Y99.989 E2.05375

G1 X97.089 Y100.006 F7800.000

G1 F3600
G1 X96.710 Y100.385 E2.07252
G1 X96.473 Y100.662 E2.08528
G1 X96.327 Y100.905 E2.09519
G1 X96.214 Y101.211 E2.10662
G1 X96.099 Y101.727 E2.12511
G1 X96.090 Y101.869 E2.13011
G1 X97.643 Y100.316 E2.20699
G1 X98.012 Y100.789 E2.22798
G1 X98.057 Y100.766 E2.22976
G1 X96.147 Y102.676 E2.32430
G1 X96.177 Y102.903 E2.33229
G1 X96.309 Y103.379 E2.34958
G1 X97.871 Y101.817 E2.42689
G1 X97.901 Y102.147 E2.43847
G1 X97.978 Y102.574 E2.45367
G1 X96.596 Y103.957 E2.52211
G1 X96.856 Y104.260 E2.53609
G1 X97.029 Y104.387 E2.54363
G1 X98.184 Y103.233 E2.60077
G1 X98.285 Y103.637 E2.61534
G1 X98.296 Y103.818 E2.62169
G1 X98.262 Y103.998 E2.62810
G1 X98.199 Y104.082 E2.63179
G1 X97.822 Y104.459 E2.65046

G1 E0.65046 F2400.00000
G92 E0
G1 X102.786 Y102.980 F7800.000
G1 E2.00000 F2400.00000

G1 F3600
G1 X102.314 Y102.685 E2.01675
G1 X102.302 Y102.028 E2.03648
G1 X103.137 Y102.526 E2.06571
G1 X103.382 Y102.008 E2.08293
G1 X102.272 Y101.346 E2.12176
G1 X102.180 Y100.627 E2.14355
G1 X103.524 Y101.429 E2.19057
G1 X103.559 Y101.244 E2.19622
G1 X103.588 Y100.803 E2.20950
G1 X101.981 Y99.845 E2.26574
G1 X101.581 Y98.942 E2.29542
G1 X103.574 Y100.132 E2.36521
G1 X103.478 Y99.410 E2.38708
G1 X100.859 Y97.847 E2.47877
G1 X100.416 Y97.323 E2.49940
G1 X99.992 Y96.934 E2.51670
G1 X100.084 Y96.784 E2.52198
G1 X99.544 Y96.423 E2.54152
G1 X99.518 Y96.435 E2.54238
G1 X99.472 Y96.395 E2.54420
G1 X99.464 Y96.352 E2.54553
G1 X103.282 Y98.629 E2.67913
G1 X103.048 Y98.059 E2.69765
G1 X102.866 Y97.717 E2.70929
G1 X97.626 Y94.591 E2.89269
G1 X97.714 Y94.490 E2.89671
G1 X97.907 Y94.392 E2.90321
G1 X98.011 Y94.369 E2.90643
G1 X98.018 Y94.500 E2.91040
G1 X98.181 Y94.471 E2.91536
G1 X98.231 Y94.636 E2.92055
G1 X98.482 Y94.438 E2.93015
G1 X102.085 Y96.587 E3.05626

G1 E1.05626 F2400.00000
G92 E0
G1 X99.307 Y96.258 F7800.000
G1 E2.00000 F2400.00000

G1 F3600
G1 X97.512 Y95.187 E2.06280
G1 X97.504 Y95.564 E2.07413
G1 X97.569 Y95.885 E2.08396
G1 X98.932 Y96.698 E2.13166
G1 X98.766 Y96.781 E2.13723
G1 X98.597 Y96.815 E2.14241
G1 X98.454 Y96.793 E2.14675
G1 X98.302 Y96.707 E2.15199
G1 X98.167 Y96.555 E2.15811
G1 X98.093 Y96.399 E2.16331
G1 X98.026 Y96.157 E2.17084

G1 E0.17084 F2400.00000
G92 E0
G1 X99.012 Y94.090 F7800.000
G1 E2.00000 F2400.00000

G1 F3600
G1 X99.469 Y94.363 E2.01600

M106 S255
G1 Z2.200 F7800.000
G1 E0.01600 F2400.00000
G92 E0
G1 X98.091 Y96.335 F7800.000
G1 E2.00000 F2400.00000
M106 S255

G1 F3600
G1 X97.952 Y96.356 E2.00422
G1 X98.006 Y96.505 E2.00899
G1 X98.147 Y96.736 E2.01709
G1 X98.018 Y95.808 E2.04519
G1 X98.392 Y95.758 E2.05648
G1 X97.975 Y94.869 E2.08594
G1 X98.108 Y94.627 E2.09421
G1 X98.251 Y94.479 E2.10039
G1 X98.396 Y94.385 E2.10557
G1 X98.761 Y97.021 E2.18536
G1 X98.913 Y97.053 E2.19001
G1 X99.341 Y97.053 E2.20284
G1 X98.962 Y94.315 E2.28572
G1 X99.107 Y94.276 E2.29025
G1 X99.223 Y94.204 E2.29435
G1 X99.337 Y93.982 E2.30183
G1 X99.422 Y94.010 E2.30450
G1 X99.504 Y94.083 E2.30779
G1 X99.873 Y96.742 E2.38830
G1 X99.888 Y96.730 E2.38888
G1 X100.152 Y96.884 E2.39805
G1 X100.252 Y97.034 E2.40345
G1 X100.441 Y97.397 E2.41573
G1 X100.549 Y97.540 E2.42111
G1 X100.152 Y94.607 E2.50988
G1 X100.180 Y94.574 E2.51117
G1 X100.584 Y94.803 E2.52510
G1 X100.713 Y94.900 E2.52994
G1 X100.775 Y94.958 E2.53249
G1 X101.096 Y97.273 E2.60260
G1 X101.171 Y97.375 E2.60639
G1 X101.120 Y97.447 E2.60902
G1 X101.204 Y98.047 E2.62720
G1 X101.395 Y98.009 E2.63305
G1 X101.453 Y98.191 E2.63878
G1 X101.637 Y98.437 E2.64800
G1 X101.432 Y98.668 E2.65728
G1 X101.653 Y99.015 E2.66960
G1 X101.802 Y99.290 E2.67900
G1 X102.007 Y99.888 E2.69794
G1 X102.032 Y99.877 E2.69878
G1 X101.422 Y95.476 E2.83201
G1 X101.974 Y95.993 E2.85467
G1 X102.087 Y96.122 E2.85981
G1 X103.127 Y103.627 E3.08702
G1 X103.429 Y103.041 E3.10679
G1 X103.568 Y102.661 E3.11892
G1 X102.797 Y97.101 E3.28723
G1 X103.107 Y97.600 E3.30483
G1 X103.497 Y98.530 E3.33508
G1 X103.571 Y98.820 E3.34405
G1 X103.715 Y99.571 E3.36699
G1 X103.788 Y100.102 E3.38304
M106 S255

G1 E1.38304 F2400.00000
G92 E0
G1 X99.806 Y100.407 F7800.000
G1 E2.00000 F2400.00000
M106 S255

G1 F3600
G1 X99.631 Y99.149 E2.03806
G1 X99.493 Y99.034 E2.04348
G1 X99.282 Y98.919 E2.05067
G1 X99.012 Y98.831 E2.05918
G1 X99.113 Y99.558 E2.08119
G1 X98.743 Y99.730 E2.09342
G1 X98.953 Y100.224 E2.10951
G1 X99.193 Y100.137 E2.11717
G1 X99.248 Y100.535 E2.12923
G1 X98.844 Y100.687 E2.14219
G1 X98.705 Y100.765 E2.14695
G1 X98.431 Y98.786 E2.20687
G1 X98.201 Y98.816 E2.21383
G1 X97.874 Y98.912 E2.22406
G1 X98.206 Y101.310 E2.29666
G1 X98.086 Y101.474 E2.30275
G1 X97.800 Y101.948 E2.31934
G1 X97.729 Y101.948 E2.32148
G1 X97.878 Y102.545 E2.33994
G1 X97.841 Y102.545 E2.34104
G1 X97.887 Y102.939 E2.35293
G1 X98.003 Y103.301 E2.36433
G1 X97.914 Y103.308 E2.36701
G1 X98.148 Y104.086 E2.39137
G1 X98.567 Y103.914 E2.40495
M106 S255

G1 E0.40495 F2400.00000
G92 E0
G1 X96.114 Y102.813 F7800.000
G1 E2.00000 F2400.00000
M106 S255

G1 F3600
G1 X96.010 Y101.907 E2.02735
G1 X95.996 Y101.390 E2.04285
G1 X96.016 Y101.127 E2.05076
G1 X96.117 Y100.643 E2.06560
G1 X96.171 Y100.503 E2.07009
G1 X96.330 Y100.219 E2.07985
G1 X96.965 Y104.802 E2.21859
G1 X97.141 Y104.970 E2.22589
G1 X97.611 Y105.317 E2.24342
G1 X96.817 Y99.583 E2.41702
G1 X97.335 Y99.176 E2.43679
G1 X98.221 Y105.570 E2.63036
G1 X98.810 Y105.672 E2.64829
G1 X98.494 Y103.387 E2.71747
G1 X98.557 Y103.361 E2.71954
G1 X98.738 Y103.498 E2.72633
G1 X99.102 Y103.624 E2.73788
G1 X99.384 Y105.660 E2.79953
G1 X99.953 Y105.619 E2.81664
G1 X99.702 Y103.809 E2.87144
G1 X100.014 Y103.828 E2.88079
G1 X100.277 Y103.809 E2.88872
G1 X100.516 Y105.532 E2.94087
G1 X100.886 Y105.427 E2.95241
G1 X101.065 Y105.348 E2.95828
G1 X100.832 Y103.665 E3.00925
G1 X101.083 Y103.561 E3.01739
G1 X101.202 Y103.482 E3.02166
G1 X101.361 Y103.331 E3.02825
G1 X101.605 Y105.091 E3.08153
G1 X101.771 Y105.006 E3.08711
G1 X102.134 Y104.764 E3.10022
G1 X101.841 Y102.645 E3.16438
G1 X102.018 Y102.418 E3.17302
G1 X102.068 Y102.255 E3.17812
G1 X102.134 Y101.675 E3.19563
G1 X102.226 Y101.275 E3.20794
G1 X102.643 Y104.286 E3.29909
M106 S255

G1 Z2.700 F7800.000
G1 E1.29909 F2400.00000
G92 E0
G1 X100.962 Y100.947 F7800.000
G1 E2.00000 F2400.00000
M106 S255

G1 F3600
G1 X100.443 Y101.065 E2.02200
M106 S255

G1 X100.434 Y100.390 F7800.000
M106 S255

G1 F3600
G1 X101.038 Y100.252 E2.04758
M106 S255

G1 X99.432 Y100.329 F7800.000
M106 S255

G1 F3600
G1 X99.955 Y100.227 E2.06964
G1 X100.306 Y100.022 E2.08645
G1 X100.297 Y99.731 E2.09849
G1 X100.847 Y99.706 E2.12125
G1 X100.737 Y99.553 E2.12906
G1 X100.603 Y99.429 E2.13660
G1 X97.419 Y100.047 E2.27071
G1 X97.252 Y99.759 E2.28446
G1 X96.325 Y100.259 E2.32799
G1 X96.151 Y100.293 E2.33531
G1 X96.297 Y100.100 E2.34532
G1 X96.556 Y99.812 E2.36132
G1 X96.948 Y99.466 E2.38293
G1 X99.757 Y98.921 E2.50126
M106 S255

G1 X99.397 Y97.191 F7800.000
M106 S255

G1 F3600
G1 X99.920 Y97.089 E2.52327
G1 X99.684 Y96.482 E2.55019
G1 X99.748 Y96.450 E2.55316
G1 X98.295 Y96.732 E2.61438
G1 X98.107 Y96.595 E2.62399
G1 X97.978 Y96.424 E2.63285
G1 X97.864 Y96.144 E2.64537
G1 X99.543 Y95.818 E2.71611
M106 S255

G1 X99.295 Y95.113 F7800.000
M106 S255

G1 F3600
G1 X98.459 Y94.682 E2.75068
G1 X98.215 Y94.940 E2.76373
G1 X98.060 Y95.180 E2.77424
M106 S255

M106 S255

G1 F3600
G1 X98.534 Y95.424 E2.79381
G1 X98.677 Y95.405 E2.79913
G1 X99.574 Y95.442 E2.83215
G1 X100.107 Y95.531 E2.85201
G1 X98.832 Y94.875 E2.90473
G1 X99.357 Y94.823 E2.92413
G1 X99.341 Y94.645 E2.93070
G1 X99.356 Y94.645 E2.93125
G1 X99.591 Y94.648 E2.93988
G1 X99.978 Y94.764 E2.95473
G1 X100.863 Y95.217 E2.99129
M106 S255

G1 X100.277 Y96.448 F7800.000
M106 S255

G1 F3600
G1 X100.343 Y97.596 E3.02676
G1 X100.738 Y97.661 E3.03908
G1 X100.915 Y97.490 E3.04666
G1 X100.839 Y96.168 E3.08750
G1 X101.401 Y95.888 E3.10686
G1 X101.537 Y98.267 E3.18035
G1 X101.674 Y98.532 E3.18955
G1 X101.791 Y98.677 E3.19529
G1 X102.022 Y99.060 E3.20907
G1 X102.104 Y99.251 E3.21549
G1 X102.186 Y99.517 E3.22408
G1 X101.979 Y95.887 E3.33621
G1 X102.597 Y96.599 E3.36530
G1 X103.031 Y104.208 E3.60030
G1 X103.338 Y103.727 E3.61792
G1 X103.554 Y103.257 E3.63388
G1 X103.235 Y97.653 E3.80694
G1 X103.618 Y98.338 E3.83115
G1 X103.793 Y98.978 E3.85160
G1 X103.933 Y99.766 E3.87629
G1 X103.964 Y100.303 E3.89287
M106 S255

G1 E1.89287 F2400.00000
G92 E0
G1 X102.488 Y104.832 F7800.000
G1 E2.00000 F2400.00000
M106 S255

G1 F3600
G1 X102.311 Y101.722 E2.09604
G1 X102.086 Y102.154 E2.11107
G1 X101.786 Y102.647 E2.12885
G1 X101.936 Y105.283 E2.21027
G1 X101.377 Y105.609 E2.23023
G1 X101.242 Y103.234 E2.30358
G1 X101.159 Y103.336 E2.30763
G1 X101.103 Y103.336 E2.30936
G1 X100.681 Y103.537 E2.32374
G1 X100.811 Y105.807 E2.39387
G1 X100.242 Y105.970 E2.41210
G1 X100.120 Y103.828 E2.47825
G1 X99.650 Y103.821 E2.49275
G1 X99.642 Y103.692 E2.49672
G1 X99.534 Y103.680 E2.50006
G1 X99.670 Y106.065 E2.57374
G1 X99.532 Y106.080 E2.57802
G1 X99.092 Y106.066 E2.59159
G1 X98.948 Y103.529 E2.66993
G1 X98.694 Y103.406 E2.67864
G1 X98.564 Y103.389 E2.68266
G1 X98.494 Y103.512 E2.68703
G1 X98.371 Y103.538 E2.69094
G1 X98.510 Y105.979 E2.76631
G1 X98.152 Y105.872 E2.77782
G1 X97.919 Y105.756 E2.78584
G1 X97.635 Y100.774 E2.93970
G1 X97.290 Y100.180 E2.96090
G1 X97.032 Y100.319 E2.96995
G1 X97.320 Y105.381 E3.12627
G1 X97.100 Y105.206 E3.13493
G1 X96.913 Y105.022 E3.14303
G1 X96.707 Y104.756 E3.15340
G1 X96.471 Y100.622 E3.28111
G1 X96.017 Y100.866 E3.29701
G1 X95.979 Y101.043 E3.30257
G1 X95.958 Y101.763 E3.32481
G1 X95.989 Y102.295 E3.34122
M106 S255

G1 Z3.200 F7800.000
G1 E1.34122 F2400.00000
G92 E0
G1 X97.944 Y99.286 F7800.000
G1 E2.00000 F2400.00000
M106 S255

G1 F3600
G1 X97.791 Y99.380 E2.00739
G1 X99.665 Y100.334 E2.09433
G1 X99.724 Y100.342 E2.09676
G1 X97.486 Y99.014 E2.20434
G1 X98.182 Y98.735 E2.23533
G1 X98.281 Y98.719 E2.23950
G1 X100.940 Y100.296 E2.36732
G1 X100.989 Y100.303 E2.36937
G1 X100.993 Y100.328 E2.37040
G1 X101.477 Y100.615 E2.39369
M106 S255

G1 X100.407 Y99.212 F7800.000
M106 S255

G1 F3600
G1 X99.949 Y98.941 E2.41570
M106 S255

G1 X100.512 Y100.839 F7800.000
M106 S255

G1 F3600
G1 X99.982 Y100.886 E2.43106
G1 X100.027 Y101.029 E2.43537
G1 X99.961 Y101.064 E2.43751
G1 X99.931 Y101.154 E2.44025
G1 X100.047 Y101.442 E2.44919
G1 X101.073 Y101.352 E2.47888
G1 X101.156 Y101.878 E2.49423
G1 X101.036 Y101.917 E2.49786
G1 X100.496 Y101.964 E2.51348
M106 S255

G1 E0.51348 F2400.00000
G92 E0
G1 X100.900 Y104.017 F7800.000
G1 E2.00000 F2400.00000
M106 S255

G1 F3600
G1 X100.876 Y103.775 E2.00700
G1 X100.633 Y103.938 E2.01543
G1 X100.295 Y104.070 E2.02588
G1 X101.430 Y103.971 E2.05872
G1 X101.436 Y104.028 E2.06037
G1 X101.117 Y104.591 E2.07904
G1 X96.797 Y104.969 E2.20407
G1 X97.171 Y105.306 E2.21860
G1 X97.384 Y105.430 E2.22569
G1 X97.554 Y105.401 E2.23066
G1 X97.626 Y105.489 E2.23394
G1 X100.764 Y105.215 E2.32476
G1 X100.462 Y105.748 E2.34244
G1 X100.183 Y105.846 E2.35096
G1 X99.389 Y105.928 E2.37397
M106 S255

G1 E0.37397 F2400.00000
G92 E0
G1 X96.405 Y104.410 F7800.000
G1 E2.00000 F2400.00000
M106 S255

G1 F3600
G1 X99.622 Y104.129 E2.09309
G1 X99.520 Y104.094 E2.09620
G1 X99.304 Y104.070 E2.10247
G1 X99.113 Y104.001 E2.10829
G1 X98.992 Y103.928 E2.11236
G1 X98.738 Y103.613 E2.12404
G1 X96.125 Y103.842 E2.19968
G1 X96.004 Y103.259 E2.21683
G1 X98.310 Y103.058 E2.28358
G1 X98.161 Y102.763 E2.29310
G1 X98.067 Y102.486 E2.30154
G1 X95.891 Y102.676 E2.36450
G1 X95.844 Y102.088 E2.38153
G1 X98.005 Y101.899 E2.44409
G1 X98.059 Y101.581 E2.45339
G1 X98.155 Y101.293 E2.46214
G1 X95.848 Y101.494 E2.52890
G1 X95.888 Y101.143 E2.53910
G1 X95.971 Y100.891 E2.54675
G1 X98.644 Y100.657 E2.62412
G1 X98.624 Y100.512 E2.62835
G1 X98.857 Y100.556 E2.63520
G1 X98.963 Y100.416 E2.64025
G1 X98.326 Y100.092 E2.66086
G1 X96.271 Y100.272 E2.72035
G1 X96.471 Y99.989 E2.73033
G1 X96.802 Y99.632 E2.74437
G1 X97.333 Y99.586 E2.75973
M106 S255

G1 E0.75973 F2400.00000
G92 E0
G1 X101.129 Y105.581 F7800.000
G1 E2.00000 F2400.00000
G1 F600
G1 X100.980 Y105.820 E2.00997
G1 X101.270 Y105.722 E2.02082
G1 X100.804 Y105.257 E2.04417
G1 X101.253 Y105.222 E2.06012
G1 X101.426 Y105.170 E2.06655
G1 X101.751 Y105.495 E2.08284
G1 X101.547 Y105.043 F7800.000
M106 S255

G1 F3600
G1 X101.089 Y104.771 E2.09900
G1 X101.371 Y104.273 E2.11638
G1 X102.291 Y104.819 E2.14887
G1 X102.857 Y104.488 E2.16875
G1 X101.469 Y103.665 E2.21772
G1 X101.416 Y103.125 E2.23420
G1 X101.544 Y103.043 E2.23880
G1 X103.275 Y104.070 E2.29992
G1 X103.340 Y104.039 E2.30212
G1 X103.407 Y103.971 E2.30501
G1 X103.611 Y103.604 E2.31775
G1 X101.850 Y102.559 E2.37991
G1 X101.883 Y102.429 E2.38400
G1 X102.104 Y102.044 E2.39746
G1 X103.860 Y103.086 E2.45943
G1 X103.925 Y102.980 E2.46321
G1 X103.962 Y102.780 E2.46938
G1 X104.073 Y102.546 E2.47723
G1 X102.278 Y101.482 E2.54056
G1 X102.389 Y100.881 E2.55909
G1 X104.181 Y101.944 E2.62234
G1 X104.237 Y101.312 E2.64162
G1 X102.361 Y100.199 E2.70783
G1 X102.278 Y99.834 E2.71919
G1 X102.127 Y99.394 E2.73330
G1 X104.235 Y100.645 E2.80770
G1 X104.230 Y100.423 E2.81444
G1 X104.156 Y99.932 E2.82951
G1 X101.529 Y98.373 E2.92222
G1 X101.325 Y98.190 E2.93055
G1 X101.277 Y98.145 E2.93255
G1 X101.372 Y98.038 E2.93689
G1 X101.187 Y97.792 E2.94623
G1 X101.129 Y97.610 E2.95203
G1 X100.866 Y97.662 E2.96018
G1 X100.979 Y97.503 E2.96610
G1 X100.820 Y97.287 E2.97423
G1 X103.945 Y99.141 E3.08452
M106 S255

G1 X103.585 Y98.262 F7800.000
M106 S255

G1 F3600
G1 X99.058 Y95.575 E3.24432
G1 X98.409 Y95.418 E3.26457
G1 X98.310 Y95.694 E3.27347
G1 X98.298 Y95.791 E3.27642
G1 X101.139 Y97.476 E3.37668
G1 X100.756 Y97.598 E3.38888
G1 X100.798 Y97.769 E3.39423
G1 X100.664 Y97.691 E3.39895
G1 X100.746 Y97.454 E3.40657
G1 X100.132 Y97.398 E3.42528
G1 X100.080 Y97.369 E3.42708
G1 X100.074 Y97.385 E3.42760
G1 X99.707 Y97.212 E3.43993
G1 X99.164 Y96.878 E3.45928
G1 X98.934 Y96.661 E3.46888
G1 X98.820 Y96.480 E3.47537
G1 X98.769 Y96.362 E3.47929
G1 X98.744 Y96.161 E3.48544
G1 X98.756 Y96.062 E3.48845
M106 S255

G1 E1.48845 F2400.00000
G92 E0
G1 X101.351 Y96.270 F7800.000
G1 E2.00000 F2400.00000
M106 S255

G1 F3600
G1 X101.808 Y96.541 E2.01616
M106 S255

G1 X101.620 Y95.925 F7800.000
M106 S255

G1 F3600
G1 X101.220 Y95.574 E2.03816
M106 S255

G1 X100.105 Y95.471 F7800.000
M106 S255

G1 F3600
G1 X99.329 Y94.787 E2.08094
M106 S255

G1 Z3.700 F7800.000
G1 X99.801 Y95.233 F7800.000
G1 F600
G1 X98.993 Y96.041 E2.12145
G1 X99.410 Y96.333 F7800.000
G1 F600
G1 X99.085 Y96.658 E2.13775
G1 E0.13775 F2400.00000
G92 E0
G1 X101.114 Y95.611 F7800.000
G1 E2.00000 F2400.00000
M106 S255

G1 F3600
G1 X100.582 Y95.638 E2.01619
G1 X99.966 Y96.245 E2.04248
G1 X101.868 Y96.145 E2.10041
G1 X102.050 Y96.303 E2.10772
G1 X102.404 Y96.691 E2.12370
G1 X99.431 Y96.846 E2.21423
G1 X99.626 Y96.989 E2.22157
G1 X100.258 Y97.377 E2.24412
G1 X101.402 Y97.317 E2.27896
G1 X101.481 Y97.085 E2.28643
G1 X101.985 Y97.231 E2.30237
G1 X101.971 Y97.288 E2.30414
G1 X102.856 Y97.242 E2.33109
G1 X103.136 Y97.644 E2.34600
G1 X103.217 Y97.797 E2.35126
G1 X101.065 Y97.909 E2.41681
G1 X101.567 Y98.351 E2.43717
G1 X101.657 Y98.452 E2.44128
G1 X103.467 Y98.358 E2.49640
G1 X103.728 Y98.918 E2.51520
G1 X102.039 Y99.006 E2.56664
G1 X102.179 Y99.282 E2.57604
G1 X102.291 Y99.567 E2.58535
G1 X103.911 Y99.482 E2.63468
G1 X104.038 Y100.050 E2.65236
G1 X102.604 Y100.124 E2.69602
G1 X103.119 Y100.672 E2.71887
G1 X104.108 Y100.620 E2.74900
G1 X104.166 Y101.191 E2.76645
G1 X103.634 Y101.219 E2.78264
M106 S255

G1 X103.271 Y100.982 F7800.000
M106 S255

G1 F3600
G1 X102.464 Y101.276 E2.81330
G1 X102.381 Y101.632 E2.82634
G1 X102.260 Y101.957 E2.83873
G1 X103.697 Y101.435 E2.89329
G1 X103.974 Y101.730 E2.90775
G1 X103.529 Y101.715 E2.92365
G1 X103.494 Y102.116 E2.93800
G1 X101.893 Y102.698 E2.99883
G1 X101.707 Y102.948 E3.00996
G1 X101.384 Y103.266 E3.02612
G1 X101.399 Y103.281 E3.02688
G1 X101.163 Y103.447 E3.03718
G1 X101.235 Y103.545 E3.04152
G1 X103.942 Y102.560 E3.14438
G1 X103.919 Y102.656 E3.14792
G1 X103.759 Y103.027 E3.16232
G1 X103.616 Y103.285 E3.17287
G1 X97.575 Y105.484 E3.40239
G1 X97.812 Y105.613 E3.41201
G1 X98.141 Y105.756 E3.42482
G1 X98.340 Y105.813 E3.43220
G1 X102.905 Y104.152 E3.60564
G1 X102.818 Y104.246 E3.61021
G1 X102.730 Y104.407 E3.61677
G1 X102.584 Y104.557 E3.62424
G1 X102.232 Y104.823 E3.64000
G1 X101.982 Y104.981 E3.65057
G1 X101.369 Y105.303 E3.67528
G1 X100.618 Y105.591 E3.70398
M106 S255

G1 X99.580 Y104.147 F7800.000
M106 S255

G1 F3600
G1 X100.125 Y103.949 E3.72470
G1 X100.509 Y103.857 E3.73880
G1 X100.773 Y103.769 E3.74870
G1 X101.145 Y103.591 E3.76344
G1 X101.280 Y103.785 E3.77189
G1 X101.735 Y103.363 E3.79402
M106 S255

G1 X100.190 Y102.841 F7800.000
M106 S255

G1 F3600
G1 X100.692 Y102.658 E3.81311
G1 X101.064 Y102.470 E3.82798
G1 X101.298 Y102.298 E3.83836
G1 X101.490 Y102.081 E3.84871
G1 X101.690 Y101.734 E3.86300
G1 X101.729 Y101.624 E3.86716
G1 X98.529 Y102.789 E3.98877
G1 X98.234 Y102.547 E4.00238
G1 X98.096 Y102.290 E4.01279
G1 X98.908 Y101.995 E4.04365
G1 X99.143 Y102.176 E4.05425
G1 X99.466 Y102.297 E4.06658
G1 X99.701 Y102.304 E4.07494
G1 X99.899 Y102.275 E4.08212
G1 X100.046 Y102.214 E4.08779
G1 X100.199 Y102.098 E4.09464
G1 X100.386 Y101.811 E4.10687
G1 X101.136 Y101.407 E4.13728
G1 X100.859 Y101.285 E4.14808
G1 X101.835 Y100.929 E4.18515
G1 X101.788 Y100.542 E4.19909
G1 X101.719 Y100.315 E4.20755
G1 X99.894 Y100.979 E4.27692
G1 X100.177 Y100.635 E4.29283
G1 X99.993 Y100.602 E4.29949
G1 X100.923 Y99.948 E4.34007
G1 X101.424 Y99.766 E4.35909
M106 S255

G1 E2.35909 F2400.00000
G92 E0
G1 X103.553 Y102.094 F7800.000
G1 E2.00000 F2400.00000
M106 S255

G1 F3600
G1 X104.082 Y101.901 E2.02010
M106 S255

G1 E0.02010 F2400.00000
G92 E0
G1 X96.948 Y100.855 F7800.000
G1 E2.00000 F2400.00000
M106 S255

G1 F3600
G1 X97.448 Y100.673 E2.01900
G1 X98.195 Y100.762 E2.04584
G1 X97.816 Y101.059 E2.06300
G1 X97.682 Y101.195 E2.06982
G1 X96.823 Y101.508 E2.10245
G1 X96.699 Y102.160 E2.12616
G1 X97.665 Y101.808 E2.16289
G1 X97.710 Y101.932 E2.16760
G1 X97.778 Y102.375 E2.18357
G1 X96.574 Y102.813 E2.22931
G1 X96.449 Y103.465 E2.25303
G1 X98.025 Y102.892 E2.31288
G1 X98.164 Y103.084 E2.32135
G1 X98.431 Y103.351 E2.33484
G1 X96.492 Y104.057 E2.40851
G1 X96.723 Y104.580 E2.42893
G1 X98.826 Y103.815 E2.50881
G1 X99.117 Y103.896 E2.51959
G1 X99.453 Y103.935 E2.53168
G1 X99.447 Y103.950 E2.53227
G1 X99.710 Y104.100 E2.54307
G1 X97.071 Y105.060 E2.64332
M106 S255

G1 E0.64332 F2400.00000
G92 E0
G1 X96.228 Y101.530 F7800.000
G1 E2.00000 F2400.00000
M106 S255

G1 F3600
G1 X96.760 Y101.503 E2.02201
G1 X96.887 Y100.835 E2.05010
G1 X96.334 Y100.864 E2.07300
G1 X96.382 Y100.728 E2.07895
G1 X96.356 Y100.863 E2.08461
M106 S255

G1 E0.08461 F2400.00000
G92 E0
G1 X99.082 Y100.482 F7800.000
G1 E2.00000 F2400.00000
M106 S255

G1 F3600
G1 X99.614 Y100.454 E2.02204
G1 X100.629 Y99.740 E2.07336
G1 X97.987 Y99.878 E2.18277
G1 X98.026 Y99.798 E2.18645
G1 X97.964 Y99.748 E2.18976
G1 X97.969 Y99.636 E2.19438
G1 X97.472 Y99.566 E2.21515
G1 X97.392 Y99.909 E2.22970
G1 X96.864 Y99.937 E2.25155
G1 X97.212 Y99.589 E2.27188
G1 X97.782 Y99.228 E2.29978
G1 X100.570 Y99.082 E2.41524
M106 S255

G1 Z4.200 F7800.000
G1 E0.41524 F2400.00000
G92 E0
G1 X103.286 Y102.511 F7800.000
G1 E2.00000 F2400.00000
M106 S255

G1 F3600
G1 X103.054 Y102.032 E2.01753
G1 X102.886 Y102.283 E2.02748
G1 X102.648 Y102.558 E2.03945
G1 X103.077 Y103.444 E2.07184
G1 X102.945 Y103.658 E2.08011
G1 X102.679 Y103.986 E2.09405
G1 X102.182 Y102.959 E2.13163
G1 X101.887 Y103.151 E2.14320
G1 X101.669 Y103.264 E2.15130
G1 X102.260 Y104.486 E2.19601
G1 X102.014 Y104.725 E2.20730
G1 X101.792 Y104.884 E2.21629
G1 X101.143 Y103.541 E2.26542
G1 X100.638 Y103.864 E2.28513
G1 X101.282 Y105.194 E2.33380
G1 X101.141 Y105.288 E2.33939
G1 X100.763 Y105.485 E2.35344
G1 X100.080 Y104.074 E2.40508
G1 X99.485 Y104.210 E2.42517
G1 X100.206 Y105.700 E2.47969
G1 X99.683 Y105.789 E2.49716
G1 X99.587 Y105.785 E2.50033
G1 X98.721 Y103.996 E2.56580
G1 X98.562 Y103.961 E2.57116
G1 X98.323 Y103.870 E2.57958
G1 X97.877 Y103.616 E2.59650
G1 X98.881 Y105.691 E2.67245
G1 X98.579 Y105.567 E2.68322
G1 X98.372 Y105.444 E2.69114
G1 X98.145 Y105.270 E2.70058
G1 X97.940 Y105.032 E2.71092
G1 X97.694 Y104.603 E2.72720
G1 X97.461 Y104.122 E2.74481
M106 S255

G1 X98.721 Y103.996 F7800.000
M106 S255

G1 F3600
G1 X99.412 Y104.059 E2.76765
G1 X99.708 Y104.671 E2.79007
M106 S255

G1 X98.898 Y103.485 F7800.000
M106 S255

G1 F3600
G1 X98.215 Y102.073 E2.84561
G1 X97.820 Y102.279 E2.86140
G1 X97.732 Y102.145 E2.86707
G1 X97.710 Y102.420 E2.87684
G1 X97.973 Y102.984 E2.89889
M106 S255

G1 X97.983 Y101.594 F7800.000
M106 S255

G1 F3600
G1 X97.870 Y101.688 E2.90408
G1 X97.868 Y102.186 E2.92174
G1 X98.223 Y102.090 E2.93476
G1 X97.751 Y101.115 E2.97314
G1 X97.933 Y100.950 E2.98184
G1 X98.040 Y100.811 E2.98803
G1 X98.100 Y100.792 E2.99026
G1 X98.151 Y100.973 E2.99693
G1 X98.344 Y100.930 E3.00396
G1 X99.683 Y103.697 E3.11284
G1 X100.107 Y103.651 E3.12795
G1 X100.312 Y103.586 E3.13557
G1 X99.723 Y102.368 E3.18351
G1 X100.009 Y102.123 E3.19684
G1 X99.986 Y101.924 E3.20394
G1 X99.942 Y101.759 E3.20999
G1 X100.045 Y101.622 E3.21603
G1 X100.884 Y103.355 E3.28424
M106 S255

G1 E1.28424 F2400.00000
G92 E0
G1 X101.644 Y100.693 F7800.000
G1 E2.00000 F2400.00000
M106 S255

G1 F3600
G1 X101.186 Y99.800 E2.03555
G1 X101.008 Y99.570 E2.04586
G1 X100.692 Y99.302 E2.06054
G1 X100.469 Y99.162 E2.06988
G1 X100.256 Y99.063 E2.07817
G1 X100.160 Y99.038 E2.08169
G1 X101.736 Y102.295 E2.20985
G1 X101.534 Y102.753 E2.22756
G1 X101.372 Y102.955 E2.23672
G1 X99.442 Y98.966 E2.39369
G1 X99.277 Y98.990 E2.39961
G1 X98.838 Y99.128 E2.41590
G1 X99.270 Y100.021 E2.45106
G1 X98.743 Y100.015 E2.46974
G1 X98.575 Y99.996 E2.47572
G1 X98.313 Y99.454 E2.49704
M106 S255

G1 E0.49704 F2400.00000
G92 E0
G1 X101.036 Y97.044 F7800.000
G1 E2.00000 F2400.00000
G1 F600
G1 X100.200 Y96.208 E2.04188
G1 X101.173 Y96.472 F7800.000
G1 F600
G1 X101.498 Y96.797 E2.05817
G1 Z4.700 F7800.000
G1 E0.05817 F2400.00000
G92 E0
G1 X100.832 Y99.743 F7800.000
G1 E2.00000 F2400.00000
M106 S255

G1 F3600
G1 X100.749 Y100.271 E2.01603
M106 S255

G1 X101.248 Y100.762 F7800.000
M106 S255

G1 F3600
G1 X101.438 Y100.686 E2.02214
G1 X101.463 Y100.725 E2.02355
G1 X101.495 Y100.720 E2.02450
G1 X101.646 Y100.799 E2.02962
G1 X101.522 Y100.462 E2.04038
G1 X101.341 Y100.172 E2.05060
G1 X101.165 Y101.287 E2.08440
M106 S255

G1 X101.597 Y102.204 F7800.000
M106 S255

G1 F3600
G1 X101.685 Y101.619 E2.10212
G1 X101.446 Y101.658 E2.10936
G1 X101.387 Y101.353 E2.11867
G1 X101.333 Y101.404 E2.12088
G1 X101.171 Y101.255 E2.12748
G1 X100.795 Y103.639 E2.19974
G1 X100.177 Y103.909 E2.21995
G1 X100.495 Y101.889 E2.28119
G1 X100.249 Y101.920 E2.28861
G1 X99.917 Y101.901 E2.29857
G1 X99.583 Y104.024 E2.36290
G1 X99.445 Y104.039 E2.36705
G1 X99.453 Y104.148 E2.37030
G1 X99.207 Y104.156 E2.37766
G1 X98.990 Y104.130 E2.38421
G1 X99.319 Y102.036 E2.44767
G1 X99.290 Y102.003 E2.44899
G1 X99.163 Y102.031 E2.45286
G1 X98.827 Y101.987 E2.46302
G1 X98.808 Y101.622 E2.47398
G1 X98.436 Y103.989 E2.54572
G1 X97.905 Y103.702 E2.56379
G1 X98.511 Y99.848 E2.68056
G1 X98.410 Y99.854 E2.68361
G1 X98.376 Y100.089 E2.69071
G1 X98.037 Y99.943 E2.70177
G1 X97.908 Y100.021 E2.70627
G1 X97.427 Y103.077 E2.79886
G1 X97.321 Y103.006 E2.80267
G1 X97.247 Y102.859 E2.80762
G1 X97.109 Y102.401 E2.82194
G1 X97.070 Y102.032 E2.83304
G1 X97.126 Y101.328 E2.85418
G1 X97.209 Y100.801 E2.87017
M106 S255

G1 E0.87017 F2400.00000
G92 E0
G1 X98.726 Y102.148 F7800.000
G1 E2.00000 F2400.00000
M106 S255

G1 F3600
G1 X98.717 Y101.971 E2.00531
G1 X98.755 Y101.962 E2.00648
G1 X99.076 Y99.924 E2.06824
G1 X99.281 Y99.979 E2.07460
G1 X99.405 Y100.061 E2.07905
G1 X99.598 Y100.263 E2.08743
G1 X99.425 Y101.362 E2.12073
M106 S255

G1 Z5.200 F7800.000
G1 X99.414 Y101.643 F7800.000
M106 S255

G1 F3600
G1 X100.306 Y101.202 E2.14874
G1 X100.521 Y100.997 E2.15709
G1 X100.494 Y100.648 E2.16694
G1 X100.652 Y100.659 E2.17140
G1 X100.651 Y100.625 E2.17235
G1 X100.562 Y100.631 E2.17486
G1 X100.542 Y100.468 E2.17949
G1 X96.862 Y102.287 E2.29500
G1 X96.803 Y101.699 E2.31163
G1 X100.340 Y99.950 E2.42265
G1 X100.013 Y99.687 E2.43447
G1 X99.796 Y99.603 E2.44104
G1 X96.933 Y101.018 E2.53089
G1 X97.072 Y100.700 E2.54066
G1 X97.096 Y100.733 E2.54181
G1 X97.624 Y100.400 E2.55938
G1 X97.505 Y100.183 E2.56633
G1 X97.552 Y100.137 E2.56819
G1 X97.773 Y99.986 E2.57573
G1 X98.253 Y99.748 E2.59081
M106 S255

G1 E0.59081 F2400.00000
G92 E0
G1 X99.025 Y101.835 F7800.000
G1 E2.00000 F2400.00000
M106 S255

G1 F3600
G1 X97.068 Y102.802 E2.06143
G1 X97.260 Y103.146 E2.07250
G1 X97.366 Y103.272 E2.07715
G1 X99.430 Y102.252 E2.14193
G1 X99.577 Y102.256 E2.14607
G1 X99.711 Y102.373 E2.15107
G1 X100.020 Y102.577 E2.16149
G1 X97.810 Y103.670 E2.23086
G1 X97.893 Y103.735 E2.23385
G1 X98.227 Y103.904 E2.24436
G1 X98.452 Y103.969 E2.25095
G1 X100.608 Y102.904 E2.31863
G1 X100.722 Y103.238 E2.32856
G1 X100.976 Y103.235 E2.33569
G1 X100.565 Y103.540 E2.35007
G1 X99.852 Y103.894 E2.37246
M106 S255

G1 X100.608 Y102.904 F7800.000
M106 S255

G1 F3600
G1 X101.524 Y102.451 E2.40121
G1 X101.619 Y101.962 E2.41521
G1 X101.615 Y101.789 E2.42009
G1 X100.900 Y102.142 E2.44251
G1 X101.110 Y101.774 E2.45444
G1 X101.138 Y102.025 E2.46155
M106 S255

G1 Z5.700 F7800.000
G1 X100.865 Y100.899 F7800.000
M106 S255

G1 F3600
G1 X100.596 Y100.370 E2.48293
G1 X100.422 Y100.611 E2.49363
G1 X99.979 Y100.300 E2.51315
G1 X100.232 Y99.923 E2.52949
G1 X100.079 Y99.804 E2.53648
G1 X99.904 Y99.724 E2.54337
G1 X99.798 Y99.677 E2.54758
G1 X99.526 Y99.605 E2.55770
G1 X100.712 Y101.977 E2.65321
G1 X100.497 Y102.206 E2.66451
G1 X100.374 Y102.266 E2.66945
G1 X100.237 Y102.227 E2.67461
G1 X100.097 Y102.133 E2.68066
G1 X98.810 Y99.558 E2.78436
G1 X98.536 Y99.625 E2.79450
G1 X98.216 Y99.755 E2.80695
G1 X99.142 Y101.608 E2.88157
G1 X98.826 Y101.692 E2.89334
G1 X98.678 Y101.773 E2.89943
G1 X98.542 Y101.793 E2.90438
G1 X97.704 Y100.116 E2.97191
G1 X97.630 Y100.182 E2.97549
G1 X97.437 Y100.428 E2.98676
G1 X97.308 Y100.708 E2.99785
G1 X98.898 Y103.888 E3.12593
G1 X98.739 Y103.849 E3.13182
G1 X98.432 Y103.704 E3.14405
G1 X98.117 Y103.459 E3.15843
G1 X97.894 Y103.215 E3.17034
G1 X97.694 Y102.866 E3.18483
G1 X97.455 Y102.387 E3.20409
M106 S255

G1 E1.20409 F2400.00000
G92 E0
G1 X98.898 Y103.888 F7800.000
G1 E2.00000 F2400.00000
M106 S255

G1 F3600
G1 X99.076 Y103.933 E2.00662
G1 X99.289 Y103.937 E2.01427
G1 X99.596 Y103.899 E2.02541
G1 X99.055 Y102.819 E2.06892
G1 X99.437 Y102.956 E2.08354
G1 X99.591 Y102.991 E2.08921
G1 X99.844 Y103.011 E2.09837
G1 X100.177 Y103.677 E2.12518
M106 S255

G1 Z6.200 F7800.000
G1 X100.522 Y102.236 F7800.000
M106 S255

G1 F3600
G1 X100.826 Y101.657 E2.14810
G1 X100.879 Y101.343 E2.15925
G1 X100.882 Y101.172 E2.16524
G1 X100.842 Y100.974 E2.17230
G1 X100.732 Y100.731 E2.18167
G1 X100.687 Y100.671 E2.18429
G1 X99.511 Y102.805 E2.26961
G1 X99.265 Y102.768 E2.27831
G1 X98.927 Y102.598 E2.29157
G1 X100.166 Y100.349 E2.38148
G1 X100.034 Y100.322 E2.38619
G1 X99.782 Y100.329 E2.39504
G1 X99.647 Y100.372 E2.40000
G1 X99.491 Y100.488 E2.40682
G1 X99.447 Y100.549 E2.40946
G1 X99.317 Y100.922 E2.42329
G1 X99.200 Y101.076 E2.43005
G1 X98.930 Y101.325 E2.44290
G1 X98.674 Y101.791 E2.46154
M106 S255

G1 Z6.700 F7800.000
G1 X98.901 Y102.019 F7800.000
M106 S255

G1 F3600
G1 X98.858 Y102.031 E2.46335
G1 X98.740 Y102.123 E2.46955
G1 X98.712 Y102.213 E2.47345
G1 X98.730 Y102.366 E2.47980
G1 X98.897 Y102.606 E2.49189
G1 X99.008 Y102.693 E2.49772
G1 X98.816 Y101.494 E2.54793
G1 X98.948 Y101.457 E2.55359
G1 X99.469 Y101.396 E2.57527
G1 X99.691 Y102.782 E2.63328
M106 S255

G1 X100.262 Y102.173 F7800.000
M106 S255

G1 F3600
G1 X100.178 Y101.647 E2.65528
M106 S255

G1 E0.65528 F2400.00000
G92 E0
M107
; Filament-specific end gcode 
;END gcode for filament

M104 S0 ; turn off temperature
G28 X0  ; home X axis
M84     ; disable motors

M140 S0 ; set bed temperature
; filament used = 21.0mm (0.1cm3)
; total filament cost = 0.0

; avoid_crossing_perimeters = 0
; bed_shape = 0x0,200x0,200x200,0x200
; bed_temperature = 0
; before_layer_gcode = 
; between_objects_gcode = 
; bridge_acceleration = 0
; bridge_fan_speed = 100
; brim_connections_width = 0
; brim_width = 0
; complete_objects = 0
; cooling = 1
; default_acceleration = 0
; disable_fan_first_layers = 3
; duplicate_distance = 6
; end_filament_gcode = "; Filament-specific end gcode \n;END gcode for filament\n"
; end_gcode = M104 S0 ; turn off temperature\nG28 X0  ; home X axis\nM84     ; disable motors\n
; extruder_clearance_height = 20
; extruder_clearance_radius = 20
; extruder_offset = 0x0
; extrusion_axis = E
; extrusion_multiplier = 1
; fan_always_on = 0
; fan_below_layer_time = 60
; filament_colour = #FFFFFF
; filament_cost = 0
; filament_density = 0
; filament_diameter = 3
; filament_max_volumetric_speed = 0
; filament_notes = ""
; first_layer_acceleration = 0
; first_layer_bed_temperature = 0
; first_layer_extrusion_width = 200%
; first_layer_speed = 30
; first_layer_temperature = 205
; gcode_arcs = 0
; gcode_comments = 0
; gcode_flavor = reprap
; has_heatbed = 1
; infill_acceleration = 0
; infill_first = 0
; interior_brim_width = 0
; layer_gcode = 
; max_fan_speed = 100
; max_layer_height = 0.3
; max_print_speed = 80
; max_volumetric_speed = 0
; min_fan_speed = 35
; min_layer_height = 0.15
; min_print_speed = 10
; min_skirt_length = 0
; notes = 
; nozzle_diameter = 0.5
; only_retract_when_crossing_perimeters = 1
; ooze_prevention = 0
; output_filename_format = [input_filename_base].gcode
; perimeter_acceleration = 0
; post_process = 
; pressure_advance = 0
; printer_notes = 
; resolution = 0
; retract_before_travel = 2
; retract_layer_change = 0
; retract_length = 2
; retract_length_toolchange = 10
; retract_lift = 0
; retract_lift_above = 0
; retract_lift_below = 0
; retract_restart_extra = 0
; retract_restart_extra_toolchange = 0
; retract_speed = 40
; skirt_distance = 6
; skirt_height = 1
; skirts = 0
; slowdown_below_layer_time = 5
; spiral_vase = 0
; standby_temperature_delta = -5
; start_filament_gcode = "; Filament gcode\n"
; start_gcode = G28 ; home all axes\nG1 Z5 F5000 ; lift nozzle\n
; temperature = 200
; threads = 8
; toolchange_gcode = 
; travel_speed = 130
; use_firmware_retraction = 0
; use_relative_e_distances = 0
; use_set_and_wait_bed = 0
; use_set_and_wait_extruder = 0
; use_volumetric_e = 0
; vibration_limit = 0
; wipe = 0
; z_offset = 0
; z_steps_per_mm = 0
; adaptive_slicing = 0
; adaptive_slicing_quality = 75%
; dont_support_bridges = 1
; extrusion_width = 0
; first_layer_height = 0.7
; infill_only_where_needed = 0
; interface_shells = 0
; layer_height = 0.7
; match_horizontal_surfaces = 0
; raft_layers = 0
; regions_overlap = 0
; seam_position = aligned
; sequential_print_priority = 0
; support_material = 0
; support_material_angle = 0
; support_material_buildplate_only = 0
; support_material_contact_distance = 0.2
; support_material_enforce_layers = 0
; support_material_extruder = 1
; support_material_extrusion_width = 0
; support_material_interface_extruder = 1
; support_material_interface_extrusion_width = 0
; support_material_interface_layers = 3
; support_material_interface_spacing = 0
; support_material_interface_speed = 100%
; support_material_max_layers = 0
; support_material_pattern = pillars
; support_material_spacing = 2.5
; support_material_speed = 60
; support_material_threshold = 60%
; xy_size_compensation = 0
; bottom_infill_pattern = rectilinear
; bottom_solid_layers = 3
; bridge_flow_ratio = 1
; bridge_speed = 60
; external_perimeter_extrusion_width = 0
; external_perimeter_speed = 50%
; external_perimeters_first = 0
; extra_perimeters = 1
; fill_angle = 45
; fill_density = 5%
; fill_gaps = 1
; fill_pattern = concentric
; gap_fill_speed = 20
; infill_every_layers = 1
; infill_extruder = 1
; infill_extrusion_width = 0
; infill_overlap = 55%
; infill_speed = 80
; overhangs = 1
; perimeter_extruder = 1
; perimeter_extrusion_width = 0
; perimeter_speed = 60
; perimeters = 0
; small_perimeter_speed = 15
; solid_infill_below_area = 70
; solid_infill_every_layers = 0
; solid_infill_extruder = 1
; solid_infill_extrusion_width = 0
; solid_infill_speed = 20
; thin_walls = 1
; top_infill_extrusion_width = 0
; top_infill_pattern = rectilinear
; top_solid_infill_speed = 15
; top_solid_layers = 3
