; generated by Slic3r 1.3.0 on 2020-03-03 at 18:50:16

; external perimeters extrusion width = 0.55mm (6.64mm^3/s)
; perimeters extrusion width = 0.52mm (12.53mm^3/s)
; infill extrusion width = 0.52mm (16.71mm^3/s)
; solid infill extrusion width = 0.52mm (4.18mm^3/s)
; top infill extrusion width = 0.52mm (3.13mm^3/s)

M107
M104 S205 ; set temperature
G28 ; home all axes
G1 Z5 F5000 ; lift nozzle

; Filament gcode

M109 S205 ; set temperature and wait for it to be reached
G21 ; set units to millimeters
G90 ; use absolute coordinates
M82 ; use absolute distances for extrusion
G92 E0
G1 Z0.500 F7800.000
G1 E-2.00000 F2400.00000
G92 E0
G1 X98.760 Y103.834 F7800.000
G1 E2.00000 F2400.00000
G1 F600
G1 X98.782 Y103.786 E2.00280
G1 F600
G1 X98.802 Y103.736 E2.00541
G1 F600
G1 X98.815 Y103.674 E2.00815
G1 F600
G1 X98.820 Y103.600 E2.01093
G1 F600
G1 X98.826 Y103.526 E2.01319
G1 F600
G1 X98.797 Y103.441 E2.01530
G1 F600
G1 X98.750 Y103.338 E2.01725
G1 F600
G1 X98.671 Y103.216 E2.01918
G1 F600
G1 X98.606 Y103.140 E2.02101
G1 F600
G1 X98.482 Y103.047 E2.02475
G1 E0.02475 F2400.00000
G92 E0
G1 X102.787 Y97.206 F7800.000
G1 E2.00000 F2400.00000
G1 F600
G1 X102.699 Y98.279 E2.06715
G1 F600
G1 X102.697 Y98.441 E2.07786
G1 X102.635 Y98.837 E2.10439
G1 F600
G1 X102.595 Y99.015 E2.11540
G1 F600
G1 X102.558 Y99.094 E2.12031
G1 F600
G1 X102.513 Y99.174 E2.12504
G1 F600
G1 X102.461 Y99.247 E2.12914
G1 F600
G1 X102.423 Y99.296 E2.13154
G1 F600
G1 X102.393 Y99.341 E2.13335
G1 F600
G1 X102.362 Y99.385 E2.13486
G1 F600
G1 X102.278 Y99.476 E2.13762
G1 F600
G1 X102.209 Y99.545 E2.13934
G1 X102.883 Y99.370 F7800.000
G1 F600
G1 X102.694 Y97.671 E2.23391
G1 F600
G1 X102.685 Y97.598 E2.23757
G1 F600
G1 X102.678 Y97.538 E2.24031
G1 F600
G1 X102.675 Y97.495 E2.24204
G1 F600
G1 X102.672 Y97.455 E2.24347
G1 F600
G1 X102.673 Y97.305 E2.24814
G1 F600
G1 X102.678 Y97.175 E2.25157
M104 S200 ; set temperature
G1 Z1.000 F7800.000
G1 E0.25157 F2400.00000
G92 E0
G1 X100.022 Y103.542 F7800.000
G1 E2.00000 F2400.00000
G1 F600
G1 X99.924 Y104.040 E2.01497
G1 X99.826 Y104.300 E2.02318
G1 X99.469 Y103.992 E2.03711
G1 X99.963 Y103.590 E2.05596
G1 E0.05596 F2400.00000
G92 E0
G1 X102.025 Y100.012 F7800.000
G1 E2.00000 F2400.00000

G1 F3600
G1 X101.897 Y99.859 E2.00553
G1 X102.014 Y99.705 E2.01088

G1 F646.75
G1 X102.124 Y99.559 E2.01631
G1 X102.288 Y99.286 E2.02571
G1 X102.419 Y98.951 E2.03633
G1 X102.496 Y98.315 E2.05527
G1 X102.407 Y97.579 E2.07716
G1 X102.298 Y97.323 E2.08538
G1 X102.202 Y97.188 E2.09027

G1 F3600
G1 X102.004 Y96.913 E2.09970
G1 X101.745 Y96.644 E2.11006
G1 X101.416 Y96.365 E2.12205
G1 X101.093 Y96.177 E2.13243
G1 X101.175 Y95.975 E2.13848
G1 X101.588 Y96.079 E2.15029
G1 X101.764 Y96.147 E2.15555
G1 X102.132 Y96.343 E2.16713
G1 X102.300 Y96.473 E2.17301
G1 X102.486 Y96.683 E2.18082
G1 X102.647 Y96.921 E2.18880

G1 F646.75
G1 X102.740 Y97.074 E2.19408
G1 X102.843 Y97.307 E2.20160
G1 X102.909 Y97.569 E2.20960
G1 X102.949 Y97.987 E2.22201
G1 X102.927 Y98.373 E2.23343
G1 X102.789 Y98.985 E2.25198
G1 X102.661 Y99.341 E2.26316
G1 X102.469 Y99.648 E2.27383
G1 X102.291 Y99.849 E2.28177

G1 F3600
G1 X102.092 Y99.978 E2.28836

G1 E0.28836 F2400.00000
G92 E0
G1 X99.449 Y103.454 F7800.000
G1 E2.00000 F2400.00000
G1 F1800
G1 X99.848 Y103.129 E2.01612
G1 X100.058 Y103.009 E2.02370
G1 X100.158 Y102.972 E2.02703
G1 X100.233 Y102.969 E2.02938
G1 X100.319 Y103.003 E2.03226
G1 X100.383 Y103.073 E2.03523
G1 X100.435 Y103.173 E2.03875
G1 X100.457 Y103.321 E2.04344
G1 X100.435 Y103.669 E2.05436
G1 X100.315 Y104.221 E2.07204

G1 F3600
G1 X100.235 Y104.434 E2.07838
G1 X100.085 Y104.716 E2.08725
G1 X99.987 Y104.794 E2.09074
G1 X99.863 Y104.821 E2.09426
G1 X99.716 Y104.772 E2.09856
G1 X99.492 Y104.580 E2.10675

G1 F1800
G1 X99.174 Y104.306 E2.11990
G1 X99.091 Y104.734 E2.13355

G1 F3600
G1 X99.088 Y104.749 E2.13397
G1 X99.077 Y104.734 E2.13448

G1 F1800
G1 X98.578 Y104.024 E2.16164
G1 X98.128 Y103.573 E2.18159
G1 X98.102 Y103.513 E2.18365
G1 X98.054 Y102.988 E2.20016
G1 X98.001 Y102.890 E2.20365

G1 F3600
G1 X97.799 Y102.511 E2.21557
G1 X97.499 Y101.875 E2.23510
G1 X97.234 Y101.018 E2.26002
G1 X97.071 Y100.225 E2.28251
G1 X97.029 Y99.513 E2.30233
G1 X97.083 Y98.761 E2.32328
G1 X97.181 Y98.236 E2.33811
G1 X97.258 Y97.995 E2.34513
G1 X97.483 Y97.447 E2.36158
G1 X97.628 Y97.196 E2.36963
G1 X97.955 Y96.716 E2.38577
G1 X98.233 Y96.396 E2.39754
G1 X98.747 Y95.984 E2.41584
G1 X99.102 Y95.783 E2.42717
G1 X99.582 Y95.600 E2.44144
G1 X100.250 Y95.464 E2.46038
G1 X100.455 Y95.452 E2.46609
G1 X100.823 Y95.474 E2.47634
G1 X101.111 Y95.515 E2.48440
G1 X101.718 Y95.669 E2.50180
G1 X101.938 Y95.753 E2.50834
G1 X102.376 Y95.988 E2.52214
G1 X102.595 Y96.157 E2.52983
G1 X102.824 Y96.417 E2.53946
G1 X103.123 Y96.874 E2.55463
G1 X103.251 Y97.166 E2.56349
G1 X103.326 Y97.464 E2.57202

G1 F1800
G1 X103.368 Y97.742 E2.58083
G1 X103.380 Y97.989 E2.58857
G1 X103.355 Y98.422 E2.60215
G1 X103.201 Y99.111 E2.62426
G1 X103.050 Y99.530 E2.63821
G1 X103.013 Y99.590 E2.64042

G1 F3600
G1 X102.816 Y99.905 E2.65075
G1 X102.604 Y100.146 E2.65965
G1 X102.506 Y100.231 E2.66325
G1 X102.076 Y100.468 E2.67688
G1 X101.857 Y100.554 E2.68342
G1 X101.486 Y100.635 E2.69399
G1 X101.169 Y100.621 E2.70279
G1 X100.958 Y100.555 E2.70892
G1 X100.723 Y100.408 E2.71665
G1 X101.274 Y99.914 E2.73721
G1 X101.498 Y99.675 E2.74630
G1 X101.767 Y99.318 E2.75873
G1 X101.880 Y99.130 E2.76482

G1 F1800
G1 X101.998 Y98.845 E2.77448
G1 X102.063 Y98.314 E2.79121
G1 X101.995 Y97.754 E2.80888

G1 F3600
G1 X101.987 Y97.692 E2.81064
G1 X101.921 Y97.535 E2.81536
G1 X101.673 Y97.189 E2.82719
G1 X101.451 Y96.958 E2.83608
G1 X101.167 Y96.717 E2.84643
G1 X100.893 Y96.558 E2.85522
G1 X100.407 Y96.421 E2.86924
G1 X99.836 Y96.416 E2.88512
G1 X99.536 Y96.492 E2.89371
G1 X98.991 Y96.772 E2.91072
G1 X98.715 Y96.962 E2.92004
G1 X98.557 Y97.116 E2.92617
G1 X98.372 Y97.568 E2.93973
G1 X98.265 Y97.729 E2.94510
G1 X98.096 Y98.095 E2.95628
G1 X97.874 Y98.934 E2.98040
G1 X97.855 Y99.283 E2.99011
G1 X97.919 Y100.419 E3.02172
G1 X98.037 Y100.906 E3.03564
G1 X98.411 Y101.797 E3.06248
G1 X98.573 Y102.096 E3.07193
G1 X98.946 Y102.662 E3.09075
G1 X99.148 Y103.184 E3.10630

G1 F1800
G1 X99.170 Y103.245 E3.10835
G1 X99.271 Y103.321 E3.11230

G1 F3600
G1 X99.349 Y103.379 E3.11498

G1 F1800
G1 X99.389 Y103.409 E3.11656
G1 X99.675 Y103.900 F7800.000
G1 X98.649 Y103.427 F7800.000
G1 F600
G1 X98.754 Y103.900 E3.13508
G1 X98.649 Y103.427 F7800.000
G1 F600
G1 X98.530 Y102.906 E3.15190
G1 F600
G1 X98.343 Y102.569 E3.16264
G1 F600
G1 X98.020 Y101.973 E3.17856
G1 X97.783 Y101.381 E3.19353
G1 F600
G1 X97.652 Y101.017 E3.20054
G1 X97.524 Y100.461 E3.21088
G1 F600
G1 X97.461 Y99.833 E3.22475
G1 X97.448 Y99.294 E3.23659
G1 X97.460 Y99.038 E3.24223
G1 X97.484 Y98.822 E3.24698
G1 X97.652 Y98.139 E3.26244
G1 F600
G1 X97.855 Y97.630 E3.27225
G1 X98.162 Y97.084 E3.28346
G1 F600
G1 X98.275 Y96.893 E3.28635
G1 F600
G1 X98.491 Y96.665 E3.29156
G1 X98.803 Y96.434 E3.29800
G1 F600
G1 X98.976 Y96.322 E3.30266
G1 X99.370 Y96.115 E3.31269
G1 X99.812 Y95.988 E3.32306
G1 F600
G1 X100.093 Y95.959 E3.33071
G1 F600
G1 X100.455 Y95.937 E3.34261
G1 X100.927 Y96.014 E3.35836
G1 Z1.500 F7800.000
G1 E1.35836 F2400.00000
G92 E0
G1 X98.950 Y103.412 F7800.000
G1 E2.00000 F2400.00000
G1 F684.835
G1 X99.671 Y103.278 E2.02168
G1 X99.803 Y103.278 E2.02559
G1 X99.946 Y103.325 E2.03002
G1 X99.963 Y103.487 E2.03484
G1 X99.947 Y103.700 E2.04115
G1 X99.898 Y103.893 E2.04703
G1 X99.779 Y104.209 E2.05702
G1 X99.237 Y103.994 E2.07423
G1 X99.076 Y104.096 E2.07987
G1 X98.854 Y103.750 E2.09204
G1 X98.358 Y103.268 E2.11244
G1 X98.312 Y103.182 E2.11533
G1 X98.184 Y102.794 E2.12740
G1 X97.833 Y102.325 E2.14471
G1 X97.552 Y101.811 E2.16202
G1 X97.358 Y101.301 E2.17815
G1 X97.142 Y100.507 E2.20244
G1 X97.061 Y99.809 E2.22320
G1 X97.109 Y98.956 E2.24847
G1 X97.288 Y98.175 E2.27213
G1 X97.599 Y97.452 E2.29539
G1 X97.855 Y97.010 E2.31046
G1 X98.320 Y96.480 E2.33131
G1 X98.563 Y96.272 E2.34076
G1 X98.878 Y96.046 E2.35221
G1 X99.421 Y95.798 E2.36984
G1 X99.725 Y95.702 E2.37928
G1 X99.906 Y95.667 E2.38472
G1 X100.645 Y95.621 E2.40659
G1 X101.327 Y95.674 E2.42682
G1 X101.603 Y95.760 E2.43534
G1 X101.904 Y95.881 E2.44494
G1 X102.258 Y96.109 E2.45736
G1 X102.623 Y96.510 E2.47338
G1 X102.833 Y96.805 E2.48410
G1 X102.912 Y96.978 E2.48971
G1 X102.973 Y97.159 E2.49537
G1 X103.033 Y97.433 E2.50365
G1 X103.060 Y97.650 E2.51010
G1 X103.064 Y97.915 E2.51795
G1 X103.013 Y98.649 E2.53968
G1 X102.944 Y99.004 E2.55037
G1 X102.796 Y99.452 E2.56431
G1 X102.587 Y99.812 E2.57660
G1 X102.173 Y100.194 E2.59326
G1 X101.741 Y100.388 E2.60724
G1 X101.421 Y100.487 E2.61714
G1 X101.038 Y100.520 E2.62850
G1 X101.049 Y100.509 E2.62896
G1 X100.710 Y100.479 E2.63900
G1 X100.715 Y100.245 E2.64590
G1 X100.935 Y100.234 E2.65243
G1 X100.997 Y100.215 E2.65434
G1 X101.307 Y100.254 E2.66358
G1 X101.656 Y99.910 E2.67806
G1 X102.012 Y99.759 E2.68949
G1 X102.201 Y99.328 E2.70339
G1 X102.465 Y99.052 E2.71467
G1 X102.668 Y98.450 E2.73344
G1 X102.657 Y98.407 E2.73474
G1 X102.726 Y97.576 E2.75940
G1 X102.565 Y96.809 E2.78254
G1 X101.898 Y96.820 E2.80224
G1 X101.820 Y96.761 E2.80513
G1 X101.550 Y96.467 E2.81692
G1 X100.868 Y96.226 E2.83828
G1 X100.658 Y96.204 E2.84454
G1 X100.403 Y96.137 E2.85232
G1 X100.113 Y96.131 E2.86087
G1 X99.576 Y96.194 E2.87687
G1 X99.347 Y96.295 E2.88426
G1 X99.081 Y96.365 E2.89239
G1 X98.816 Y96.524 E2.90152
G1 X98.706 Y96.673 E2.90699
G1 X98.533 Y96.804 E2.91340
G1 X98.372 Y97.004 E2.92100
G1 X98.144 Y97.231 E2.93049
G1 X97.850 Y97.713 E2.94717
G1 X97.635 Y98.247 E2.96418
G1 X97.567 Y98.661 E2.97658
G1 X97.517 Y99.249 E2.99400
G1 X97.560 Y100.249 E3.02359
G1 X97.812 Y101.187 E3.05230
G1 X98.067 Y101.803 E3.07196
G1 X98.292 Y102.228 E3.08620
G1 X98.436 Y102.548 E3.09656
G1 X98.497 Y102.755 E3.10292
G1 X98.907 Y103.350 E3.12429
G1 X99.145 Y102.938 F7800.000
G1 F1800
G1 X99.631 Y102.848 E3.13978
G1 X99.843 Y102.848 E3.14639
G1 X99.982 Y102.873 E3.15082
G1 X100.129 Y102.935 E3.15583
G1 X100.241 Y103.025 E3.16032
G1 X100.335 Y103.163 E3.16554
G1 X100.374 Y103.286 E3.16958
G1 X100.394 Y103.480 E3.17570
G1 X100.374 Y103.769 E3.18478
G1 X100.309 Y104.023 E3.19298
G1 X100.139 Y104.471 E3.20800
G1 X100.073 Y104.576 E3.21189
G1 X100.006 Y104.622 E3.21441
G1 X99.825 Y104.655 E3.22017
G1 X99.703 Y104.642 E3.22401
G1 X99.282 Y104.475 E3.23820
G1 X98.963 Y104.676 E3.25001
G1 X98.792 Y104.451 E3.25887
G1 X98.520 Y104.027 E3.27462
G1 X98.121 Y103.653 E3.29176
G1 X98.000 Y103.511 E3.29759
G1 X97.915 Y103.352 E3.30324
G1 X97.797 Y102.996 E3.31501
G1 X97.470 Y102.558 E3.33212
G1 X97.161 Y101.991 E3.35233
G1 X96.948 Y101.434 E3.37100
G1 X96.718 Y100.589 E3.39843
G1 X96.629 Y99.822 E3.42261
G1 X96.682 Y98.900 E3.45154
G1 X96.800 Y98.325 E3.46993
G1 X96.882 Y98.032 E3.47944
G1 X97.211 Y97.266 E3.50556
G1 X97.383 Y96.942 E3.51704
G1 X97.513 Y96.748 E3.52434
G1 X98.017 Y96.173 E3.54830
G1 X98.297 Y95.933 E3.55985
G1 X98.649 Y95.681 E3.57340
G1 X99.271 Y95.394 E3.59485
G1 X99.620 Y95.285 E3.60630
G1 X99.851 Y95.240 E3.61369
G1 X100.643 Y95.190 E3.63853
G1 X101.148 Y95.217 E3.65435
G1 X101.419 Y95.253 E3.66293
G1 X101.747 Y95.354 E3.67366
G1 X102.093 Y95.493 E3.68536
G1 X102.326 Y95.628 E3.69378
G1 X102.545 Y95.786 E3.70225
G1 X102.958 Y96.239 E3.72145
G1 X103.157 Y96.519 E3.73219
G1 X103.308 Y96.808 E3.74243
G1 X103.388 Y97.044 E3.75023
G1 X103.457 Y97.361 E3.76037
G1 X103.489 Y97.620 E3.76855
G1 X103.494 Y97.927 E3.77817
G1 X103.440 Y98.705 E3.80259
G1 X103.361 Y99.113 E3.81560
G1 X103.196 Y99.613 E3.83210
G1 X103.110 Y99.795 E3.83840
G1 X102.921 Y100.088 E3.84931
G1 X102.505 Y100.484 E3.86728
G1 X102.400 Y100.562 E3.87140
G1 X101.886 Y100.794 E3.88905
G1 X101.504 Y100.912 E3.90156
G1 X101.104 Y100.946 E3.91412
G1 X100.722 Y100.912 E3.92614
G1 X100.394 Y100.793 E3.93707

G1 F3600
G1 X100.236 Y100.721 E3.94189
G1 X100.059 Y100.596 E3.94791
G1 X99.894 Y100.434 E3.95433
G1 X99.726 Y100.192 E3.96252
G1 X99.590 Y99.889 E3.97176
G1 X99.539 Y99.586 E3.98029
G1 X99.768 Y99.666 E3.98702
G1 X100.142 Y99.753 E3.99769
G1 X100.604 Y99.805 E4.01060

G1 F1800
G1 X100.858 Y99.807 E4.01857
G1 X100.958 Y99.776 E4.02183
G1 X101.154 Y99.801 E4.02803
G1 X101.412 Y99.546 E4.03940
G1 X101.687 Y99.429 E4.04875
G1 X101.838 Y99.086 E4.06049
G1 X102.088 Y98.824 E4.07182
G1 X102.219 Y98.436 E4.08465
G1 X102.164 Y98.235 E4.09116
G1 X101.981 Y98.012 E4.10021
G1 X102.257 Y98.016 E4.10888
G1 X102.292 Y97.603 E4.12187
G1 X102.217 Y97.245 E4.13331
G1 X101.758 Y97.252 E4.14769
G1 X101.530 Y97.081 E4.15660
G1 X101.306 Y96.837 E4.16699
G1 X100.772 Y96.649 E4.18470
G1 X100.579 Y96.628 E4.19078
G1 X100.343 Y96.566 E4.19843
G1 X100.134 Y96.562 E4.20496
G1 X99.690 Y96.614 E4.21896
G1 X99.489 Y96.703 E4.22585
G1 X99.249 Y96.766 E4.23363
G1 X99.111 Y96.849 E4.23868
G1 X99.015 Y96.978 E4.24373
G1 X98.835 Y97.114 E4.25079
G1 X98.693 Y97.292 E4.25792
G1 X98.485 Y97.499 E4.26711
G1 X98.236 Y97.907 E4.28206
G1 X98.052 Y98.364 E4.29748
G1 X97.994 Y98.714 E4.30861
G1 X97.948 Y99.258 E4.32569
G1 X97.988 Y100.183 E4.35470
G1 X98.221 Y101.049 E4.38277
G1 X98.456 Y101.619 E4.40209
G1 X98.679 Y102.039 E4.41698
G1 X98.840 Y102.398 E4.42931
G1 X98.890 Y102.567 E4.43481
G1 X99.103 Y102.876 E4.44658
G1 X99.289 Y103.411 F7800.000
G1 X99.139 Y103.808 F7800.000
G1 F913.114
G1 X99.169 Y103.680 E4.44742
G1 X99.745 Y103.607 E4.45115
G1 E2.45115 F2400.00000
G92 E0
G1 X100.497 Y100.360 F7800.000
G1 E2.00000 F2400.00000
G1 F913.114
G1 X99.853 Y99.950 E2.00893
G1 E0.00893 F2400.00000
G92 E0
G1 X102.266 Y99.829 F7800.000
G1 E2.00000 F2400.00000
G1 F913.114
G1 X102.447 Y99.492 E2.00123
G1 X102.636 Y99.225 E2.00227
G1 X102.195 Y96.606 F7800.000
G1 F913.114
G1 X102.002 Y96.395 E2.00710
G1 X101.767 Y96.197 E2.01228
G1 F913.114
G1 X101.255 Y96.005 E2.01847
G1 X100.945 Y95.936 E2.02208
G1 F913.114
G1 X100.545 Y95.896 E2.02415
G1 F913.114
G1 X100.135 Y95.892 E2.02451
M106 S255
G1 Z2.000 F7800.000
G1 E0.02451 F2400.00000
G92 E0
G1 X99.476 Y102.887 F7800.000
G1 E2.00000 F2400.00000
G1 F600
G1 X99.791 Y103.207 E2.01329
G1 X99.831 Y103.299 E2.01625
G1 X99.846 Y103.410 E2.01954
G1 X99.837 Y103.505 E2.02237
G1 X99.782 Y103.647 E2.02686
G1 X99.659 Y103.825 E2.03328
G1 X99.511 Y103.970 E2.03939
G1 X99.268 Y103.888 E2.04695
G1 X98.880 Y103.877 E2.05842
G1 X98.807 Y103.761 E2.06248
G1 X98.377 Y103.315 E2.08078
G1 X98.182 Y103.034 E2.09088
G1 X99.384 Y102.823 E2.12694
G1 X99.414 Y102.844 E2.12803
G1 X97.579 Y102.125 F7800.000
G1 F600
G1 X97.262 Y101.390 E2.15168
G1 X97.152 Y101.066 E2.16180
G1 X97.057 Y100.524 E2.17806
G1 X97.273 Y100.461 E2.18468
G1 X97.504 Y101.015 E2.20242
G1 X97.554 Y101.243 E2.20933
G1 X97.617 Y101.304 E2.21191
G1 X97.670 Y101.640 E2.22196
G1 X97.753 Y101.820 E2.22781
G1 X97.791 Y102.064 E2.23512
G1 X97.651 Y102.105 E2.23943
G1 E0.23943 F2400.00000
G92 E0
G1 X100.727 Y100.628 F7800.000
G1 E2.00000 F2400.00000
G1 F600
G1 X100.946 Y100.072 E2.01766
G1 X101.299 Y99.987 E2.02840
G1 X101.652 Y99.851 E2.03958
G1 X102.016 Y99.563 E2.05330
G1 X102.284 Y99.169 E2.06736
G1 X102.473 Y98.755 E2.08082
G1 X102.532 Y98.389 E2.09177
G1 X102.525 Y97.922 E2.10556
G1 X102.430 Y97.490 E2.11865
G1 X102.340 Y97.247 E2.12628
G1 X102.037 Y96.648 E2.14613
G1 X101.763 Y96.415 E2.15677
G1 X101.455 Y96.237 E2.16727
G1 X101.023 Y96.060 E2.18107
G1 X100.421 Y95.976 E2.19901
G1 X99.892 Y96.012 E2.21468
G1 X99.363 Y96.164 E2.23096
G1 X99.101 Y96.310 E2.23980
G1 X99.004 Y96.327 E2.24272
G1 X98.697 Y96.457 E2.25257
G1 X98.408 Y96.704 E2.26380
G1 X98.305 Y96.847 E2.26903
G1 X97.852 Y97.259 E2.28711
G1 X97.682 Y97.104 E2.29391
G1 X97.793 Y96.960 E2.29928
G1 X97.846 Y96.853 E2.30282
G1 X98.076 Y96.610 E2.31270
G1 X98.238 Y96.531 E2.31801
G1 X98.385 Y96.331 E2.32533
G1 X98.559 Y96.256 E2.33094
G1 X98.715 Y96.150 E2.33651
G1 X98.850 Y96.100 E2.34078
G1 X99.107 Y95.883 E2.35072
G1 X99.396 Y95.772 E2.35984
G1 X99.655 Y95.698 E2.36781
G1 X100.250 Y95.605 E2.38560
G1 X100.789 Y95.643 E2.40157
G1 X101.132 Y95.593 E2.41182
G1 X101.308 Y95.611 E2.41704
G1 X101.582 Y95.698 E2.42554
G1 X101.764 Y95.779 E2.43141
G1 X102.158 Y96.022 E2.44511
G1 X102.312 Y96.134 E2.45073
G1 X102.507 Y96.329 E2.45887
G1 X102.742 Y96.683 E2.47142
G1 X102.896 Y97.036 E2.48281
G1 X103.003 Y97.649 E2.50118
G1 X102.940 Y98.601 E2.52938
G1 X102.852 Y99.077 E2.54367
G1 X102.706 Y99.550 E2.55830
G1 X102.592 Y99.755 E2.56525
G1 X102.375 Y100.021 E2.57536
G1 X102.070 Y100.252 E2.58670
G1 X101.654 Y100.470 E2.60056
G1 X101.318 Y100.574 E2.61096
G1 X101.129 Y100.607 E2.61661
G1 X100.802 Y100.624 E2.62629
G1 X100.517 Y99.986 F7800.000
G1 F1800
G1 X100.619 Y99.726 E2.63506
G1 X100.682 Y99.692 E2.63728
G1 X101.171 Y99.576 E2.65303
G1 X101.436 Y99.473 E2.66192
G1 X101.697 Y99.266 E2.67235
G1 X101.908 Y98.957 E2.68406
G1 X102.057 Y98.629 E2.69537
G1 X102.102 Y98.357 E2.70398
G1 X102.096 Y97.972 E2.71603
G1 X102.016 Y97.611 E2.72762
G1 X101.945 Y97.419 E2.73402
G1 X101.693 Y96.919 E2.75156
G1 X101.514 Y96.768 E2.75889
G1 X101.265 Y96.624 E2.76790
G1 X100.910 Y96.478 E2.77993
G1 X100.406 Y96.409 E2.79585
G1 X99.967 Y96.438 E2.80963
G1 X99.529 Y96.563 E2.82389
G1 X99.249 Y96.720 E2.83394
G1 X99.128 Y96.742 E2.83779
G1 X98.926 Y96.827 E2.84466
G1 X98.727 Y96.997 E2.85285
G1 X98.603 Y97.168 E2.85946
G1 X98.206 Y97.518 E2.87603
G1 X98.078 Y97.699 E2.88299
G1 X98.020 Y97.853 E2.88814
G1 X97.951 Y97.961 E2.89216
G1 X97.627 Y98.335 E2.90765
G1 X97.690 Y98.500 E2.91317
G1 X97.519 Y98.762 E2.92298
G1 X97.642 Y98.891 E2.92853
G1 X97.608 Y99.152 E2.93677
G1 X97.573 Y99.282 E2.94100
G1 X97.437 Y99.501 E2.94907
G1 X97.553 Y99.670 E2.95548
G1 X97.549 Y99.843 E2.96091
G1 X97.635 Y100.213 E2.97281
G1 X97.902 Y100.825 E2.99371
G1 X97.946 Y101.024 E3.00008
G1 X98.019 Y101.094 E3.00325
G1 X98.086 Y101.514 E3.01658
G1 X98.182 Y101.724 E3.02381
G1 X98.305 Y102.576 E3.05076
G1 X98.935 Y102.465 E3.07078
G1 X98.877 Y102.020 E3.08484
G1 X99.353 Y102.296 E3.10205
M106 S255

G1 F3600
G1 X99.442 Y102.348 E3.10494
M106 S255

G1 F1800
G1 X99.747 Y102.551 E3.11640
G1 X100.007 Y102.795 E3.12756
G1 X100.161 Y102.979 E3.13508
G1 X100.250 Y103.183 E3.14205
G1 X100.279 Y103.402 E3.14897
G1 X100.259 Y103.605 E3.15537
G1 X100.165 Y103.849 E3.16356
G1 X99.989 Y104.104 E3.17324
G1 X99.794 Y104.295 E3.18179
G1 X99.640 Y104.376 E3.18726
G1 X99.500 Y104.408 E3.19173
G1 X99.192 Y104.316 E3.20181
G1 X98.947 Y104.310 E3.20948
G1 X98.742 Y104.464 E3.21751
G1 X98.467 Y104.028 E3.23366
G1 X98.043 Y103.589 E3.25276
G1 X97.747 Y103.162 E3.26903
G1 X97.517 Y102.869 E3.28070
G1 X97.198 Y102.329 E3.30033
G1 X96.861 Y101.545 E3.32708
G1 X96.734 Y101.173 E3.33938
G1 X96.601 Y100.408 E3.36369
G1 X96.498 Y99.981 E3.37745
G1 X96.499 Y99.672 E3.38713
G1 X96.563 Y98.952 E3.40976
G1 X96.639 Y98.520 E3.42348
G1 X96.757 Y98.067 E3.43816
G1 X97.096 Y97.227 E3.46651
G1 X97.227 Y96.991 E3.47496
G1 X97.426 Y96.731 E3.48522
G1 X97.489 Y96.605 E3.48962
G1 X97.758 Y96.316 E3.50201
G1 X97.840 Y96.247 E3.50535
G1 X97.953 Y96.191 E3.50931
G1 X98.066 Y96.039 E3.51523
G1 X98.145 Y95.966 E3.51862
G1 X98.351 Y95.878 E3.52562
G1 X98.515 Y95.765 E3.53186
G1 X98.630 Y95.723 E3.53570
G1 X98.885 Y95.507 E3.54616
G1 X99.259 Y95.364 E3.55869
G1 X99.562 Y95.277 E3.56856
G1 X100.231 Y95.173 E3.58976
G1 X100.773 Y95.210 E3.60676
G1 X101.124 Y95.159 E3.61787
G1 X101.396 Y95.188 E3.62644
G1 X101.736 Y95.295 E3.63760
G1 X101.965 Y95.398 E3.64549
G1 X102.593 Y95.806 E3.66890
G1 X102.835 Y96.049 E3.67965
G1 X103.007 Y96.285 E3.68880
G1 X103.118 Y96.474 E3.69567
G1 X103.214 Y96.656 E3.70209
G1 X103.313 Y96.924 E3.71104
G1 X103.434 Y97.613 E3.73296
G1 X103.432 Y97.816 E3.73932
G1 X103.367 Y98.657 E3.76573
G1 X103.271 Y99.179 E3.78236
G1 X103.104 Y99.720 E3.80009
G1 X102.949 Y99.998 E3.81005
G1 X102.676 Y100.332 E3.82356
G1 X102.301 Y100.617 E3.83830
G1 X101.819 Y100.870 E3.85535
G1 X101.418 Y100.993 E3.86848
G1 X101.178 Y101.035 E3.87613
G1 X100.873 Y101.051 E3.88568
G1 X100.521 Y101.005 E3.89680
G1 X100.173 Y100.877 E3.90841
G1 X99.879 Y100.718 E3.91888
G1 X99.593 Y100.492 E3.93030
G1 X99.307 Y100.148 E3.94432
G1 X99.132 Y99.847 E3.95522
G1 X99.036 Y99.527 E3.96567
M106 S255

G1 F3600
G1 X98.990 Y99.150 E3.97621
G1 X99.020 Y98.829 E3.98516
G1 X99.083 Y98.613 E3.99143
G1 X99.215 Y98.381 E3.99884
G1 X99.315 Y98.270 E4.00299
G1 X99.417 Y98.190 E4.00658
G1 X99.621 Y98.099 E4.01279
G1 X99.666 Y98.354 E4.01997
G1 X99.720 Y98.934 E4.03616
G1 X99.767 Y99.099 E4.04092
M106 S255

G1 F1800
G1 X99.812 Y99.256 E4.04603
G1 X99.735 Y99.375 E4.05046
G1 X99.889 Y99.644 E4.06017
G1 X99.978 Y99.708 E4.06361
G1 X99.961 Y99.848 E4.06805
G1 X100.444 Y99.968 E4.08363
G1 X100.774 Y100.097 F7800.000
G1 X100.543 Y100.508 F7800.000
G1 F795.961
G1 X99.574 Y100.133 E4.11302
G1 X99.644 Y99.848 F7800.000
G1 F795.961
G1 X99.714 Y99.828 E4.11363
G1 F795.961
G1 X99.749 Y99.818 E4.11372
G1 X99.644 Y99.848 F7800.000
G1 F795.961
G1 X99.579 Y99.864 E4.11454
G1 X99.481 Y99.694 E4.11696
G1 X99.372 Y99.432 E4.12045
G1 X99.337 Y98.588 E4.13085
G1 E2.13085 F2400.00000
G92 E0
G1 X101.068 Y100.332 F7800.000
G1 E2.00000 F2400.00000
G1 F795.961
G1 X101.544 Y100.202 E2.00147
G1 X101.780 Y100.095 E2.00225
G1 X101.915 Y100.009 E2.00273
G1 X102.232 Y99.748 E2.00395
G1 X102.349 Y99.591 E2.00454
G1 X102.510 Y99.302 E2.00553
G1 X102.752 Y97.787 F7800.000
G1 F795.961
G1 X102.650 Y97.272 E2.00559
G1 F795.961
G1 X102.539 Y96.957 E2.00714
G1 X102.394 Y96.686 E2.00857
G1 X102.249 Y96.463 E2.00981
G1 X101.924 Y96.196 E2.01176
G1 X101.634 Y96.023 E2.01332
G1 X101.254 Y95.870 E2.01523
G1 F795.961
G1 X101.084 Y95.834 E2.01525
G1 Z2.500 F7800.000
G1 E0.01525 F2400.00000
G92 E0
G1 X99.487 Y102.999 F7800.000
G1 E2.00000 F2400.00000
G1 F600
G1 X99.558 Y103.176 E2.00563
G1 X99.555 Y103.252 E2.00789
G1 X99.451 Y103.451 E2.01454
G1 X99.218 Y103.661 E2.02379
G1 X99.137 Y103.638 E2.02628
G1 X98.722 Y103.427 E2.04002
G1 X98.313 Y103.078 E2.05591
G1 X97.853 Y102.490 E2.07798
G1 X97.547 Y101.936 E2.09668
G1 X97.236 Y101.218 E2.11979
G1 X97.107 Y100.721 E2.13498
G1 X97.012 Y99.868 E2.16032
G1 X97.243 Y99.827 E2.16724
G1 X97.396 Y100.443 E2.18600
G1 X97.536 Y100.756 E2.19613
G1 X97.685 Y101.009 E2.20482
G1 X97.997 Y101.442 E2.22057
G1 X98.588 Y102.091 E2.24652
G1 X99.010 Y102.471 E2.26329
G1 X99.446 Y102.935 E2.28211
G1 E0.28211 F2400.00000
G92 E0
G1 X102.008 Y100.049 F7800.000
G1 E2.00000 F2400.00000
G1 F600
G1 X101.632 Y100.303 E2.01342
G1 X101.467 Y100.378 E2.01879
G1 X101.139 Y100.469 E2.02883
G1 X100.647 Y100.510 E2.04341
G1 X100.272 Y100.444 E2.05467
G1 X99.966 Y100.312 E2.06453
G1 X99.644 Y100.088 E2.07612
G1 X99.507 Y99.942 E2.08202
G1 X99.327 Y99.647 E2.09224
G1 X99.250 Y99.460 E2.09822
G1 X99.168 Y99.016 E2.11157
G1 X99.324 Y98.928 E2.11686
G1 X99.647 Y99.216 E2.12966
G1 X99.935 Y99.574 E2.14324
G1 X100.253 Y99.828 E2.15525
G1 X100.743 Y100.010 E2.17070
G1 X101.237 Y100.046 E2.18532
G1 X101.551 Y99.991 E2.19474
G1 X101.885 Y99.855 E2.20540
G1 X101.968 Y99.985 E2.20997
G1 E0.20997 F2400.00000
G92 E0
G1 X101.891 Y96.358 F7800.000
G1 E2.00000 F2400.00000
G1 F600
G1 X101.260 Y96.071 E2.02049
G1 X100.983 Y95.995 E2.02898
G1 X101.036 Y95.761 E2.03607
G1 X101.316 Y95.812 E2.04445
G1 X101.572 Y95.894 E2.05240
G1 X101.742 Y95.971 E2.05793
G1 X102.008 Y96.173 E2.06780
G1 X101.931 Y96.295 E2.07204
G1 E0.07204 F2400.00000
G92 E0
G1 X99.580 Y98.270 F7800.000
G1 E2.00000 F2400.00000
G1 F1800
G1 X99.708 Y98.694 E2.01386
G1 X99.960 Y98.919 E2.02446
G1 X100.241 Y99.268 E2.03848
G1 X100.468 Y99.449 E2.04756
G1 X100.836 Y99.586 E2.05986
G1 X101.215 Y99.613 E2.07177
G1 X101.440 Y99.574 E2.07892
G1 X101.615 Y99.510 E2.08474
G1 X101.955 Y99.334 E2.09673
G1 X102.168 Y99.181 E2.10496
G1 X102.283 Y98.756 E2.11874
G1 X102.381 Y98.488 E2.12769
G1 X102.400 Y98.336 E2.13247
G1 X102.360 Y97.912 E2.14580
G1 X102.259 Y97.562 E2.15721
G1 X102.117 Y97.293 E2.16675
G1 X101.921 Y96.994 E2.17795
G1 X101.781 Y96.829 E2.18470
G1 X101.637 Y96.715 E2.19048
G1 X101.113 Y96.476 E2.20849
G1 X100.899 Y96.418 E2.21546
G1 X100.661 Y96.388 E2.22297
G1 X100.332 Y96.432 E2.23336
G1 X99.983 Y96.442 E2.24429
G1 X99.553 Y96.542 E2.25812
G1 X99.279 Y96.648 E2.26731
G1 X99.170 Y96.720 E2.27140
G1 X98.889 Y96.833 E2.28088
G1 X98.656 Y96.986 E2.28962
G1 X98.431 Y97.202 E2.29938
G1 X97.996 Y97.772 E2.32183
G1 X97.770 Y98.233 E2.33791
G1 X97.694 Y98.467 E2.34561
G1 X97.633 Y98.799 E2.35618
G1 X97.621 Y99.169 E2.36776
G1 X97.664 Y99.737 E2.38563
G1 X97.805 Y100.302 E2.40386
G1 X97.919 Y100.559 E2.41265
G1 X98.046 Y100.774 E2.42046
G1 X98.332 Y101.170 E2.43577
G1 X98.892 Y101.786 E2.46183
G1 X99.310 Y102.162 E2.47945
G1 X99.772 Y102.647 E2.50043
G1 X99.865 Y102.793 E2.50585
G1 X99.975 Y103.067 E2.51509
G1 X99.984 Y103.307 E2.52263
G1 X99.864 Y103.621 E2.53314
G1 X99.768 Y103.745 E2.53806
G1 X99.513 Y103.974 E2.54878
G1 X99.400 Y104.052 E2.55307
G1 X99.277 Y104.102 E2.55724
G1 X99.203 Y104.105 E2.55954
G1 X98.979 Y104.040 E2.56687
G1 X98.498 Y103.796 E2.58374
G1 X98.332 Y103.676 E2.59016
G1 X97.997 Y103.372 E2.60433
G1 X97.493 Y102.728 E2.62993
G1 X97.161 Y102.126 E2.65147
G1 X96.828 Y101.359 E2.67766
G1 X96.683 Y100.799 E2.69577
G1 X96.573 Y99.815 E2.72677
G1 X96.660 Y98.850 E2.75711
G1 X96.917 Y97.835 E2.78989
G1 X96.999 Y97.625 E2.79695
G1 X97.238 Y97.144 E2.81376
G1 X97.539 Y96.701 E2.83054
G1 X97.902 Y96.327 E2.84687
G1 X98.363 Y95.999 E2.86459
G1 X98.801 Y95.768 E2.88009
G1 X99.187 Y95.607 E2.89318
G1 X99.501 Y95.520 E2.90341
G1 X100.133 Y95.395 E2.92356
G1 X100.580 Y95.334 E2.93769
G1 X100.843 Y95.323 E2.94593
G1 X101.155 Y95.345 E2.95572
G1 X101.421 Y95.394 E2.96418
G1 X101.727 Y95.492 E2.97425
G1 X101.950 Y95.593 E2.98192
G1 X102.117 Y95.702 E2.98817
G1 X102.352 Y95.901 E2.99780
G1 X102.532 Y96.084 E3.00585
G1 X102.695 Y96.323 E3.01489
G1 X102.919 Y96.788 E3.03109
G1 X103.002 Y97.127 E3.04200
G1 X103.038 Y97.482 E3.05318
G1 X103.012 Y98.541 E3.08636
G1 X102.973 Y98.948 E3.09915
G1 X102.811 Y99.597 E3.12010
G1 X102.673 Y99.904 E3.13064
G1 X102.443 Y100.212 E3.14268
G1 X102.218 Y100.429 E3.15247
G1 X101.834 Y100.684 E3.16690
G1 X101.614 Y100.784 E3.17448
G1 X101.215 Y100.894 E3.18744
G1 X100.628 Y100.943 E3.20589
G1 X100.158 Y100.861 E3.22083
G1 X99.894 Y100.761 E3.22966
G1 X99.741 Y100.680 E3.23510
G1 X99.371 Y100.422 E3.24921
G1 X99.237 Y100.295 E3.25499
G1 X98.942 Y99.842 E3.27193
G1 X98.835 Y99.582 E3.28073
G1 X98.749 Y99.119 E3.29546
G1 X98.733 Y98.939 E3.30113
G1 X98.743 Y98.724 E3.30788
G1 X98.847 Y98.271 E3.32243
G1 X98.921 Y98.099 E3.32828
G1 X99.120 Y97.825 E3.33889
G1 X99.273 Y97.680 E3.34550
M106 S255

G1 F3600
G1 X99.364 Y97.595 E3.34896
G1 X99.561 Y97.479 E3.35531
G1 X99.969 Y97.324 E3.36744
G1 X100.721 Y97.238 E3.38846
G1 X100.870 Y97.258 E3.39263
G1 X101.310 Y97.511 E3.40673
G1 X101.532 Y97.950 E3.42038
G1 X101.575 Y98.136 E3.42570
G1 X101.544 Y98.501 E3.43587
M106 S255

G1 F1800
G1 X101.534 Y98.618 E3.43953
G1 X101.509 Y98.586 E3.44079
M106 S255

G1 F3600
G1 X101.160 Y98.143 E3.45647
G1 X100.914 Y97.968 E3.46484
G1 X100.676 Y97.892 E3.47178
G1 X100.447 Y97.882 E3.47815
G1 X100.284 Y97.935 E3.48293
G1 X100.146 Y98.047 E3.48787
M106 S255

G1 F1800
G1 X100.030 Y98.142 E3.49254
G1 X99.652 Y98.249 E3.50485
G1 X99.160 Y98.409 F7800.000
G1 X99.229 Y98.041 F7800.000
G1 F740.08
G1 X99.846 Y97.788 E3.51442
G1 X100.061 Y97.664 E3.51799
G1 F740.08
G1 X100.422 Y97.574 E3.52117
G1 X100.720 Y97.567 E3.52371
G1 X100.876 Y97.626 E3.52514
G1 F740.08
G1 X101.220 Y97.810 E3.52663
G1 X102.682 Y97.737 F7800.000
G1 F740.08
G1 X102.634 Y97.431 E3.53124
G1 F740.08
G1 X102.596 Y97.298 E3.53386
G1 F740.08
G1 X102.508 Y97.048 E3.54030
G1 F740.08
G1 X102.329 Y96.710 E3.55169
G1 X102.124 Y96.392 E3.56295
G1 X100.798 Y95.837 F7800.000
G1 F740.08
G1 X99.947 Y95.942 E3.59436
G1 F740.08
G1 X99.425 Y96.059 E3.61193
G1 X99.077 Y96.192 E3.62416
G1 X98.636 Y96.410 E3.64033
G1 X98.332 Y96.621 E3.65250
G1 X98.056 Y96.879 E3.66491
G1 X97.812 Y97.171 E3.67742
G1 X97.594 Y97.508 E3.69058
G1 X97.367 Y97.980 E3.70780
G1 F740.08
G1 X97.257 Y98.341 E3.71867
G1 X97.171 Y98.730 E3.73017
G1 X97.126 Y99.194 E3.74361
G1 F740.08
G1 X97.123 Y99.630 E3.75828
G1 X97.436 Y101.052 F7800.000
G1 F740.08
G1 X97.569 Y101.309 E3.75857
G1 F740.08
G1 X97.759 Y101.643 E3.76121
G1 F740.08
G1 X97.852 Y101.786 E3.76306
G1 F740.08
G1 X98.080 Y102.105 E3.76986
G1 F740.08
G1 X98.303 Y102.392 E3.77770
G1 F740.08
G1 X98.886 Y102.992 E3.80095
G1 F740.08
G1 X99.110 Y103.166 E3.80745
G1 F740.08
G1 X99.142 Y103.197 E3.80831
G1 F740.08
G1 X99.228 Y103.202 E3.80965
G1 F740.08
G1 X99.345 Y103.201 E3.81088
G1 E1.81088 F2400.00000
G92 E0
G1 X100.659 Y100.252 F7800.000
G1 E2.00000 F2400.00000
G1 F740.08
G1 X100.348 Y100.168 E2.00038
G1 X100.104 Y100.067 E2.00069
G1 X99.740 Y99.780 E2.00124
G1 X99.468 Y99.369 E2.00182
G1 X98.996 Y98.544 F7800.000
G1 F740.08
G1 X99.447 Y97.812 E2.00399
G1 E0.00399 F2400.00000
G92 E0
G1 X102.682 Y97.737 F7800.000
G1 E2.00000 F2400.00000
G1 F740.08
G1 X102.703 Y98.096 E2.00361
G1 F740.08
G1 X102.710 Y98.352 E2.00507
G1 F740.08
G1 X102.656 Y98.719 E2.00868
G1 F740.08
G1 X102.499 Y99.350 E2.01734
G1 F740.08
G1 X102.454 Y99.448 E2.01921
G1 X102.158 Y99.883 E2.02836
G1 Z3.000 F7800.000
G1 E0.02836 F2400.00000
G92 E0
G1 X97.733 Y101.783 F7800.000
G1 E2.00000 F2400.00000
G1 F600
G1 X97.908 Y101.671 E2.00614
G1 X98.657 Y102.468 E2.03843
G1 X98.896 Y102.765 E2.04970
G1 X98.959 Y102.872 E2.05338
G1 X99.002 Y103.122 E2.06088
G1 X98.757 Y103.070 E2.06831
G1 X98.644 Y103.014 E2.07203
G1 X98.332 Y102.770 E2.08373
G1 X98.055 Y102.410 E2.09715
G1 X97.861 Y102.101 E2.10792
G1 X97.761 Y101.853 E2.11582
G1 X97.034 Y100.027 F7800.000
G1 F600
G1 X97.229 Y99.979 E2.12210
G1 X97.615 Y100.654 E2.14645
G1 X98.098 Y101.245 E2.17036
G1 X98.982 Y102.185 E2.21075
G1 X99.250 Y102.519 E2.22417
G1 X99.378 Y102.769 E2.23298
G1 X99.408 Y103.015 E2.24072
G1 X99.390 Y103.170 E2.24562
G1 X99.262 Y103.363 E2.25286
G1 X99.125 Y103.466 E2.25824
G1 X98.950 Y103.518 E2.26394
G1 X98.829 Y103.525 E2.26774
G1 X98.614 Y103.479 E2.27463
G1 X98.423 Y103.385 E2.28130
G1 X98.184 Y103.217 E2.29046
G1 X98.014 Y103.062 E2.29764
G1 X97.701 Y102.656 E2.31371
G1 X97.476 Y102.297 E2.32696
G1 X97.218 Y101.654 E2.34866
G1 X97.016 Y100.849 E2.37466
G1 X97.032 Y100.102 E2.39807
G1 X97.221 Y100.099 F7800.000
G1 X97.231 Y100.543 F7800.000
G1 F600
G1 X97.668 Y101.570 E2.40726
G1 X97.704 Y101.547 F7800.000
G1 F600
G1 X97.226 Y100.655 E2.43332
G1 E0.43332 F2400.00000
G92 E0
G1 X99.102 Y98.984 F7800.000
G1 E2.00000 F2400.00000
G1 F600
G1 X99.083 Y98.678 E2.00908
G1 X99.136 Y98.279 E2.02095
G1 X99.191 Y98.129 E2.02567
G1 X99.342 Y97.836 E2.03542
G1 X99.585 Y97.525 E2.04708
G1 X99.839 Y97.337 E2.05642
G1 X100.072 Y97.234 E2.06393
G1 X100.180 Y97.386 E2.06943
G1 X99.601 Y98.134 E2.09738
G1 X99.523 Y98.493 E2.10825
G1 X99.350 Y98.790 E2.11838
G1 X99.336 Y98.985 E2.12417
G1 X99.177 Y98.985 E2.12888
G1 E0.12888 F2400.00000
G92 E0
G1 X101.555 Y98.801 F7800.000
G1 E2.00000 F2400.00000
G1 F600
G1 X101.402 Y97.652 E2.03428
G1 X101.569 Y97.574 E2.03970
G1 X101.670 Y97.684 E2.04412
G1 X101.790 Y97.875 E2.05079
G1 X101.866 Y98.075 E2.05714
G1 X101.884 Y98.249 E2.06229
G1 X101.868 Y98.371 E2.06591
G1 X101.796 Y98.420 E2.06851
G1 X101.595 Y98.738 E2.07962
G1 X100.788 Y97.520 F7800.000
G1 F794.991
G1 X100.441 Y97.752 E2.09269
G1 X100.001 Y98.321 E2.11521
G1 X99.928 Y98.651 E2.12581
G1 X99.772 Y98.920 E2.13554
G1 X99.758 Y99.123 E2.14191
G1 X99.806 Y99.278 E2.14699
G1 X99.931 Y99.475 E2.15430
G1 X100.060 Y99.620 E2.16038
G1 X100.379 Y99.872 E2.17310
G1 X101.461 Y100.303 E2.20959
G1 X100.997 Y100.511 E2.22551
G1 X100.792 Y100.580 E2.23228
G1 X100.595 Y100.611 E2.23854
G1 X100.357 Y100.618 E2.24597
G1 X100.034 Y100.580 E2.25615
G1 X99.648 Y100.449 E2.26892
G1 X99.349 Y100.259 E2.28003
G1 X99.133 Y100.047 E2.28950
G1 X98.893 Y99.715 E2.30232
G1 X98.786 Y99.484 E2.31029
G1 X98.674 Y99.036 E2.32476
G1 X98.651 Y98.662 E2.33649
G1 X98.716 Y98.175 E2.35188
G1 X98.797 Y97.956 E2.35919
G1 X98.977 Y97.605 E2.37156
G1 X99.239 Y97.262 E2.38507
G1 X99.605 Y96.975 E2.39962
G1 X99.771 Y96.882 E2.40559
G1 X100.016 Y96.799 E2.41367
G1 X100.330 Y96.733 E2.42372
G1 X100.863 Y96.752 E2.44043
G1 X101.170 Y96.825 E2.45031
G1 X101.511 Y96.971 E2.46194
G1 X101.780 Y97.168 E2.47239
G1 X102.013 Y97.421 E2.48314
G1 X102.177 Y97.682 E2.49280
G1 X102.289 Y97.976 E2.50266
G1 X102.316 Y98.254 E2.51140
G1 X102.293 Y98.447 E2.51748
G1 X102.216 Y98.654 E2.52441
G1 X102.112 Y98.725 E2.52837
G1 X101.904 Y99.055 E2.54056
G1 X101.674 Y99.103 E2.54794
G1 X101.449 Y99.219 E2.55586
G1 X101.349 Y99.192 E2.55908
G1 X101.185 Y99.086 E2.56519
M106 S255

G1 F3600
G1 X100.983 Y98.955 E2.57190
G1 X100.756 Y98.944 E2.57820
G1 X100.806 Y98.707 E2.58492
G1 X100.890 Y98.652 E2.58771
M106 S255

G1 F794.991
G1 X100.943 Y98.617 E2.58968
G1 X101.063 Y98.365 E2.59843
G1 X101.001 Y97.900 E2.61313
G1 X100.825 Y97.585 E2.62443
G1 X100.589 Y97.153 F7800.000
G1 X101.138 Y97.617 F7800.000
G1 F600
G1 X101.109 Y97.531 E2.62477
G1 X101.118 Y97.369 E2.62540
G1 F600
G1 X101.135 Y97.044 E2.62862
G1 X100.699 Y96.957 F7800.000
G1 F600
G1 X100.481 Y97.417 E2.63076
G1 X100.313 Y97.203 F7800.000
G1 F600
G1 X100.811 Y97.093 E2.63689
G1 X101.592 Y97.325 E2.64669
G1 E0.64669 F2400.00000
G92 E0
G1 X99.347 Y99.487 F7800.000
G1 E2.00000 F2400.00000
G1 F600
G1 X99.507 Y99.725 E2.00878
G1 X99.649 Y99.880 E2.01520
G1 F600
G1 X99.939 Y100.084 E2.02464
G1 F600
G1 X100.124 Y100.184 E2.02917
G1 F600
G1 X100.775 Y100.359 E2.03999
G1 Z3.500 F7800.000
G1 E0.03999 F2400.00000
G92 E0
G1 X101.887 Y97.999 F7800.000
G1 E2.00000 F2400.00000
G1 F600
G1 X101.875 Y98.010 E2.00045
G1 X101.028 Y97.442 E2.03058
G1 X100.494 Y97.238 E2.04748
G1 X100.518 Y97.043 E2.05328
G1 X100.805 Y97.024 E2.06176
G1 X101.069 Y97.064 E2.06967
G1 X101.308 Y97.146 E2.07713
G1 X101.478 Y97.231 E2.08274
G1 X101.593 Y97.314 E2.08694
G1 X101.748 Y97.462 E2.09327
G1 X101.906 Y97.671 E2.10101
G1 X101.991 Y97.822 E2.10613
G1 X102.015 Y97.782 E2.10754
G1 X102.108 Y98.272 E2.12227
G1 X102.112 Y98.449 E2.12752
G1 X102.082 Y98.723 E2.13567
G1 X102.017 Y98.915 E2.14166
G1 X101.874 Y99.213 E2.15142
G1 X101.687 Y99.390 E2.15903
G1 X101.300 Y99.454 E2.17063
G1 X101.242 Y99.448 E2.17235
G1 X101.060 Y99.402 E2.17789
G1 X100.749 Y99.255 E2.18805
G1 X100.845 Y99.039 E2.19502
G1 X101.196 Y99.171 E2.20610
G1 X101.849 Y98.064 E2.24407
G1 X101.302 Y98.144 F7800.000
G1 F1800
G1 X100.829 Y97.827 E2.26189
G1 X100.301 Y97.625 E2.27959
G1 X99.969 Y97.595 E2.29004
G1 X99.695 Y97.642 E2.29873
G1 X99.465 Y97.768 E2.30696
G1 X99.337 Y97.939 E2.31366
G1 X99.249 Y98.179 E2.32166
G1 X99.092 Y98.945 E2.34613
G1 X98.876 Y98.937 E2.35289
G1 X98.828 Y98.661 E2.36167
G1 X98.819 Y98.461 E2.36793
G1 X98.884 Y98.065 E2.38050
G1 X98.967 Y97.808 E2.38897
G1 X99.090 Y97.550 E2.39791
G1 X99.343 Y97.207 E2.41126
G1 X99.464 Y97.085 E2.41662
G1 X99.845 Y96.826 E2.43105
G1 X100.233 Y96.673 E2.44413
G1 X100.434 Y96.620 E2.45064
G1 X100.834 Y96.593 E2.46320
G1 X101.172 Y96.644 E2.47390
G1 X101.475 Y96.748 E2.48394
G1 X101.703 Y96.862 E2.49190
G1 X101.869 Y96.983 E2.49833
G1 X102.071 Y97.175 E2.50705
G1 X102.267 Y97.436 E2.51727
G1 X102.375 Y97.628 E2.52418
G1 X102.474 Y97.894 E2.53307
G1 X102.537 Y98.226 E2.54365
G1 X102.543 Y98.468 E2.55122
G1 X102.504 Y98.817 E2.56224
G1 X102.416 Y99.078 E2.57085
G1 X102.204 Y99.491 E2.58540
M106 S255

G1 F3600
G1 X102.064 Y99.636 E2.59099
M106 S255

G1 F1800
G1 X101.849 Y99.790 E2.59927
G1 X101.289 Y99.892 E2.61711
G1 X100.779 Y99.755 E2.63363
G1 X100.418 Y99.559 E2.64650
G1 X100.326 Y99.465 E2.65062
G1 X100.073 Y99.007 E2.66699
G1 X100.371 Y98.799 E2.67835
G1 X100.608 Y98.491 E2.69054
G1 X101.009 Y98.641 E2.70395
G1 X101.264 Y98.208 E2.71970
G1 X101.648 Y97.782 F7800.000
G1 X101.893 Y98.489 F7800.000
G1 F600
G1 X101.615 Y99.056 E2.72213
G1 X101.483 Y99.212 E2.72292
G1 X100.633 Y98.881 F7800.000
G1 F600
G1 X100.423 Y99.196 E2.72316
G1 E0.72316 F2400.00000
G92 E0
G1 X99.501 Y97.356 F7800.000
G1 E2.00000 F2400.00000
G1 F600
G1 X100.294 Y97.104 E2.01418
G1 X100.297 Y96.878 F7800.000
G1 F600
G1 X100.077 Y97.182 E2.02154
G1 X99.585 Y97.269 E2.03136
G1 Z4.000 F7800.000
G1 E0.03136 F2400.00000
G92 E0
G1 X102.015 Y98.408 F7800.000
G1 E2.00000 F2400.00000
G1 F600
G1 X101.949 Y98.911 E2.01498
G1 X101.875 Y99.134 E2.02192
G1 X101.642 Y99.434 E2.03314
G1 X101.445 Y99.575 E2.04031
G1 X101.198 Y99.691 E2.04836
G1 X100.858 Y99.702 E2.05842
G1 X100.702 Y99.674 E2.06310
G1 X100.442 Y99.576 E2.07132
G1 X100.229 Y99.454 E2.07856
G1 X100.097 Y99.316 E2.08422
G1 X99.968 Y99.135 E2.09078
G1 X99.934 Y99.036 E2.09385
G1 X99.917 Y98.906 E2.09773
G1 X100.095 Y98.832 E2.10344
G1 X100.353 Y99.170 E2.11599
G1 X100.993 Y99.120 E2.13498
G1 X101.251 Y99.019 E2.14317
G1 X101.491 Y98.893 E2.15117
G1 X101.960 Y98.459 E2.17005
G1 X101.420 Y98.373 F7800.000
G1 F1800
G1 X101.504 Y98.129 E2.17814
G1 X101.411 Y97.750 E2.19035
G1 X101.291 Y97.563 E2.19730
G1 X100.890 Y97.152 E2.21530
G1 X100.677 Y97.003 E2.22343
G1 X100.744 Y96.813 E2.22974
G1 X101.138 Y96.839 E2.24211
G1 X101.466 Y96.926 E2.25275
G1 X101.708 Y97.065 E2.26148
G1 X101.921 Y97.244 E2.27019
G1 X102.111 Y97.486 E2.27984
G1 X102.275 Y97.781 E2.29040
G1 X102.356 Y98.041 E2.29892
G1 X102.410 Y98.411 E2.31063
G1 X102.417 Y98.656 E2.31831
G1 X102.370 Y99.008 E2.32942
G1 X102.265 Y99.323 E2.33982
G1 X102.142 Y99.510 E2.34684
G1 X101.935 Y99.753 E2.35683
G1 X101.667 Y99.945 E2.36717
G1 X101.394 Y100.080 E2.37671
G1 X101.289 Y100.113 E2.38016
G1 X101.104 Y100.135 E2.38596
G1 X100.818 Y100.132 E2.39494
G1 X100.587 Y100.091 E2.40227
G1 X100.257 Y99.966 E2.41332
G1 X99.961 Y99.796 E2.42401
G1 X99.825 Y99.654 E2.43018
M106 S255

G1 F3600
G1 X99.573 Y99.309 E2.44205
M106 S255

G1 F1800
G1 X99.514 Y99.136 E2.44778
G1 X99.474 Y98.849 E2.45683
G1 X99.481 Y98.769 E2.45935
G1 X99.571 Y98.447 E2.46982
G1 X99.611 Y98.373 E2.47246
G1 X99.766 Y98.288 E2.47799
M106 S255

G1 F3600
G1 X100.036 Y98.123 E2.48679
M106 S255

G1 F1800
G1 X100.075 Y98.096 E2.48827
G1 X100.096 Y98.124 E2.48936
M106 S255

G1 F3600
G1 X100.162 Y98.210 E2.49237
M106 S255

G1 F1800
G1 X100.553 Y98.723 E2.51256
G1 X100.896 Y98.696 E2.52334
G1 X101.241 Y98.539 E2.53523
G1 X101.365 Y98.424 E2.54051
G1 X101.678 Y98.376 F7800.000
G1 X101.952 Y98.173 F7800.000
G1 F600
G1 X101.889 Y97.947 E2.54547
G1 X101.627 Y97.278 E2.56062
G1 X101.557 Y97.367 F7800.000
G1 F600
G1 X101.177 Y97.066 E2.56475
G1 X101.557 Y97.367 F7800.000
G1 F600
G1 X101.733 Y97.587 E2.56861
G1 X102.035 Y98.097 E2.57675
G1 X101.529 Y99.167 F7800.000
G1 F600
G1 X101.292 Y99.320 E2.57737
G1 F600
G1 X101.066 Y99.409 E2.57878
G1 X100.595 Y99.402 E2.58151
G1 Z4.500 F7800.000
G1 X100.640 Y97.991 F7800.000
G1 F600
G1 X100.548 Y98.185 E2.58785
G1 X100.538 Y98.380 E2.59361
G1 X100.250 Y98.769 E2.60792
G1 X100.394 Y99.012 E2.61627
G1 X100.244 Y99.149 E2.62226
G1 X100.023 Y98.992 E2.63027
G1 X99.957 Y98.905 E2.63352
G1 X99.881 Y98.668 E2.64085
G1 X99.876 Y98.540 E2.64465
G1 X99.902 Y98.393 E2.64906
G1 X99.965 Y98.236 E2.65405
G1 X100.072 Y98.079 E2.65966
G1 X100.190 Y97.980 E2.66421
G1 X100.320 Y97.920 E2.66846
G1 X100.567 Y97.975 E2.67594
G1 X101.002 Y99.197 F7800.000
G1 F600
G1 X101.687 Y99.021 E2.69808
G1 X101.509 Y99.320 E2.70900
G1 X101.343 Y99.488 E2.71639
G1 X101.274 Y99.536 E2.71901
G1 X101.007 Y99.639 E2.72797
G1 X100.758 Y99.684 E2.73590
G1 X100.543 Y99.688 E2.74264
G1 X100.354 Y99.651 E2.74867
G1 X100.194 Y99.593 E2.75398
G1 X99.957 Y99.473 E2.76232
G1 X99.720 Y99.305 E2.77141
G1 X99.584 Y99.124 E2.77850
G1 X99.504 Y98.944 E2.78467
G1 X99.453 Y98.726 E2.79166
G1 X99.445 Y98.512 E2.79839
G1 X99.486 Y98.274 E2.80594
G1 X99.584 Y98.032 E2.81412
G1 X99.749 Y97.789 E2.82334
G1 X99.956 Y97.614 E2.83183
G1 X100.108 Y97.544 E2.83704
M106 S255

G1 F3600
G1 X100.307 Y97.476 E2.84289
G1 X100.503 Y97.520 E2.84849
M106 S255

G1 F600
G1 X100.749 Y97.575 E2.85636
G1 X100.893 Y97.646 E2.86139
G1 X100.960 Y97.695 E2.86399
G1 X101.062 Y97.821 E2.86908
G1 X101.107 Y97.941 E2.87308
G1 X101.102 Y98.022 E2.87564
G1 X100.973 Y98.292 E2.88501
G1 X100.962 Y98.531 E2.89249
G1 X100.765 Y98.796 E2.90281
G1 X100.964 Y99.132 E2.91506
G1 X101.096 Y99.688 F7800.000
G1 X100.097 Y98.564 F7800.000
G1 F600
G1 X100.267 Y98.283 E2.91567
G1 X100.311 Y98.151 E2.91593
G1 Z5.000 F7800.000
G1 X101.184 Y98.286 F7800.000
G1 F600
G1 X101.086 Y98.306 E2.91907
G1 X100.438 Y98.234 E2.93946
G1 X100.268 Y98.165 E2.94521
G1 X100.210 Y98.086 E2.94829
G1 X100.178 Y97.951 E2.95265
G1 X100.322 Y97.723 E2.96109
G1 X100.453 Y97.661 E2.96561
G1 X100.702 Y97.635 E2.97347
G1 X100.931 Y97.684 E2.98080
G1 X101.032 Y97.736 E2.98436
G1 X101.153 Y97.847 E2.98950
G1 X101.209 Y97.931 E2.99264
G1 X101.267 Y98.133 E2.99922
G1 X101.235 Y98.232 E3.00248
G1 X101.132 Y98.268 F7800.000
G1 X101.013 Y98.028 F7800.000
G1 F600
G1 X100.672 Y97.946 E3.00418
G1 X100.515 Y97.951 E3.00495
G1 X100.419 Y97.994 E3.00546
G1 E1.00546 F2400.00000
G92 E0
M107
; Filament-specific end gcode 
;END gcode for filament

M104 S0 ; turn off temperature
G28 X0  ; home X axis
M84     ; disable motors

M140 S0 ; set bed temperature
; filament used = 12.3mm (0.1cm3)
; total filament cost = 0.0

; avoid_crossing_perimeters = 0
; bed_shape = 0x0,200x0,200x200,0x200
; bed_temperature = 0
; before_layer_gcode = 
; between_objects_gcode = 
; bridge_acceleration = 0
; bridge_fan_speed = 100
; brim_connections_width = 0
; brim_width = 0
; complete_objects = 0
; cooling = 1
; default_acceleration = 0
; disable_fan_first_layers = 3
; duplicate_distance = 6
; end_filament_gcode = "; Filament-specific end gcode \n;END gcode for filament\n"
; end_gcode = M104 S0 ; turn off temperature\nG28 X0  ; home X axis\nM84     ; disable motors\n
; extruder_clearance_height = 20
; extruder_clearance_radius = 20
; extruder_offset = 0x0
; extrusion_axis = E
; extrusion_multiplier = 1
; fan_always_on = 0
; fan_below_layer_time = 60
; filament_colour = #FFFFFF
; filament_cost = 0
; filament_density = 0
; filament_diameter = 3
; filament_max_volumetric_speed = 0
; filament_notes = ""
; first_layer_acceleration = 0
; first_layer_bed_temperature = 0
; first_layer_extrusion_width = 200%
; first_layer_speed = 30
; first_layer_temperature = 205
; gcode_arcs = 0
; gcode_comments = 0
; gcode_flavor = reprap
; has_heatbed = 1
; infill_acceleration = 0
; infill_first = 0
; interior_brim_width = 0
; layer_gcode = 
; max_fan_speed = 100
; max_layer_height = 0.3
; max_print_speed = 80
; max_volumetric_speed = 0
; min_fan_speed = 35
; min_layer_height = 0.15
; min_print_speed = 10
; min_skirt_length = 0
; notes = 
; nozzle_diameter = 0.5
; only_retract_when_crossing_perimeters = 1
; ooze_prevention = 0
; output_filename_format = [input_filename_base].gcode
; perimeter_acceleration = 0
; post_process = 
; pressure_advance = 0
; printer_notes = 
; resolution = 0
; retract_before_travel = 2
; retract_layer_change = 0
; retract_length = 2
; retract_length_toolchange = 10
; retract_lift = 0
; retract_lift_above = 0
; retract_lift_below = 0
; retract_restart_extra = 0
; retract_restart_extra_toolchange = 0
; retract_speed = 40
; skirt_distance = 6
; skirt_height = 1
; skirts = 0
; slowdown_below_layer_time = 5
; spiral_vase = 0
; standby_temperature_delta = -5
; start_filament_gcode = "; Filament gcode\n"
; start_gcode = G28 ; home all axes\nG1 Z5 F5000 ; lift nozzle\n
; temperature = 200
; threads = 8
; toolchange_gcode = 
; travel_speed = 130
; use_firmware_retraction = 0
; use_relative_e_distances = 0
; use_set_and_wait_bed = 0
; use_set_and_wait_extruder = 0
; use_volumetric_e = 0
; vibration_limit = 0
; wipe = 0
; z_offset = 0
; z_steps_per_mm = 0
; adaptive_slicing = 0
; adaptive_slicing_quality = 75%
; dont_support_bridges = 1
; extrusion_width = 0
; first_layer_height = 0.5
; infill_only_where_needed = 0
; interface_shells = 0
; layer_height = 1
; match_horizontal_surfaces = 0
; raft_layers = 0
; regions_overlap = 0
; seam_position = aligned
; sequential_print_priority = 0
; support_material = 0
; support_material_angle = 0
; support_material_buildplate_only = 0
; support_material_contact_distance = 0.2
; support_material_enforce_layers = 0
; support_material_extruder = 1
; support_material_extrusion_width = 0
; support_material_interface_extruder = 1
; support_material_interface_extrusion_width = 0
; support_material_interface_layers = 3
; support_material_interface_spacing = 0
; support_material_interface_speed = 100%
; support_material_max_layers = 0
; support_material_pattern = pillars
; support_material_spacing = 2.5
; support_material_speed = 60
; support_material_threshold = 60%
; xy_size_compensation = 0
; bottom_infill_pattern = rectilinear
; bottom_solid_layers = 0
; bridge_flow_ratio = 1
; bridge_speed = 60
; external_perimeter_extrusion_width = 0
; external_perimeter_speed = 50%
; external_perimeters_first = 0
; extra_perimeters = 1
; fill_angle = 45
; fill_density = 10%
; fill_gaps = 1
; fill_pattern = rectilinear
; gap_fill_speed = 20
; infill_every_layers = 1
; infill_extruder = 1
; infill_extrusion_width = 0
; infill_overlap = 55%
; infill_speed = 80
; overhangs = 1
; perimeter_extruder = 1
; perimeter_extrusion_width = 0
; perimeter_speed = 60
; perimeters = 3
; small_perimeter_speed = 15
; solid_infill_below_area = 70
; solid_infill_every_layers = 0
; solid_infill_extruder = 1
; solid_infill_extrusion_width = 0
; solid_infill_speed = 20
; thin_walls = 1
; top_infill_extrusion_width = 0
; top_infill_pattern = rectilinear
; top_solid_infill_speed = 15
; top_solid_layers = 0
