; generated by Slic3r 1.2.9 on 2020-03-03 at 16:37:59

; external perimeters extrusion width = 1.00mm
; perimeters extrusion width = 1.27mm
; infill extrusion width = 1.27mm
; solid infill extrusion width = 1.27mm
; top infill extrusion width = 1.27mm

M107
M104 S200 ; set temperature
G28 ; home all axes
G1 Z5 F5000 ; lift nozzle

M109 S200 ; wait for temperature to be reached
G21 ; set units to millimeters
G90 ; use absolute coordinates
M82 ; use absolute distances for extrusion
G92 E0
G1 Z0.300 F7800.000
G1 E-2.00000 F2400.00000
G92 E0
G1 X103.490 Y96.819 F7800.000
G1 E2.00000 F2400.00000
G1 X103.006 Y96.335 E2.01797 F600.000
G1 X102.814 Y97.017 E2.03658
G1 X103.748 Y97.952 E2.07127
G1 X103.598 Y98.677 E2.09069
G1 X102.835 Y97.914 E2.11901
G1 X102.908 Y98.861 E2.14396
G1 X103.202 Y99.156 E2.15488
G1 Z1.000 F7800.000
G1 X102.714 Y100.010 F7800.000
G1 X103.555 Y99.169 E2.30307 F600.000
G1 X102.497 Y98.446 E2.46278
G1 X103.825 Y97.119 E2.69682
G1 X102.827 Y96.336 E2.85492
G1 X102.138 Y97.025 E2.97648
G1 X101.225 Y96.158 E3.13349
G1 X102.579 Y94.804 E3.37226
G1 X101.170 Y94.432 E3.55395
G1 X99.795 Y95.807 E3.79637
G1 X98.599 Y95.223 E3.96233
G1 X97.560 Y96.262 E4.14554
G1 X97.440 Y98.162 E4.38288
G1 X96.647 Y98.955 E4.52274
G1 Z1.700 F7800.000
G1 X95.741 Y99.295 F7800.000
G1 X96.692 Y100.246 E4.88139 F600.000
G1 X97.202 Y100.681 F7800.000
G1 X97.721 Y101.200 E5.07724 F600.000
G1 E3.07724 F2400.00000
G92 E0
G1 X99.855 Y99.601 F7800.000
G1 E2.00000 F2400.00000
G1 X101.532 Y101.278 E2.63244 F600.000
G1 X104.055 Y99.993 E3.38756
G1 X102.355 Y98.293 E4.02889
G1 E2.02889 F2400.00000
G92 E0
G1 X103.591 Y95.721 F7800.000
G1 E2.00000 F2400.00000
G1 X102.505 Y94.635 E2.40935 F600.000
G1 X100.234 Y96.172 E3.14065
G1 X98.377 Y94.315 E3.84075
G1 X96.429 Y96.176 E4.55898
G1 X98.128 Y97.874 E5.19933
G1 E3.19933 F2400.00000
G92 E0
G1 X99.499 Y103.343 F7800.000
G1 E2.00000 F2400.00000
G1 X100.516 Y104.360 E2.38363 F600.000
G1 X98.997 Y105.590 F7800.000
G1 X98.076 Y104.669 E2.73105 F600.000
G1 X98.196 Y104.725 F7800.000
G1 X98.803 Y105.332 E2.95986 F600.000
M106 S255
G1 Z2.400 F7800.000
G1 X99.526 Y105.099 F7800.000
G1 X100.056 Y104.570 E3.05406 F600.000
G1 X99.792 Y103.195 E3.22998
G1 X97.979 Y105.008 E3.55231
G1 X97.236 Y104.114 E3.69850
G1 X98.395 Y102.955 E3.90454
G1 X97.947 Y101.765 E4.06432
G1 X96.640 Y103.072 E4.29659
G1 X96.132 Y101.942 E4.45231
G1 X97.500 Y100.574 E4.69537
G1 X97.106 Y99.330 E4.85940
G1 X95.828 Y100.608 E5.08654
G1 X95.827 Y98.972 E5.29224
G1 X97.517 Y97.282 E5.59262
G1 X96.981 Y97.818 E5.68789
G1 X96.932 Y96.229 E5.88770
G1 X97.851 Y95.310 E6.05107
G1 X99.475 Y94.875 F7800.000
G1 X100.004 Y94.346 E6.14521 F600.000
G1 X101.866 Y94.280 E6.37930
G1 X100.540 Y95.605 E6.61497
G1 X101.974 Y95.966 E6.80085
G1 X103.080 Y94.860 E6.99757
G1 X103.875 Y95.860 E7.15818
G1 X102.710 Y97.025 E7.36516
G1 X104.134 Y97.396 E7.55013
G1 X102.137 Y99.394 E7.90523
G1 X102.662 Y100.663 F7800.000
G1 X103.484 Y99.842 E8.05129 F600.000
G1 X102.434 Y99.096 E8.21311
G1 X100.514 Y101.016 E8.55446
G1 X99.275 Y100.460 E8.72519
G1 X100.134 Y99.601 E8.87791
G1 X99.704 Y98.236 E9.05782
G1 X98.734 Y99.206 E9.23016
G1 Z3.100 F7800.000
G1 X99.639 Y97.905 F7800.000
G1 X99.130 Y97.396 E9.36049 F600.000
G1 X99.209 Y100.057 E9.84197
G1 X99.782 Y100.631 E9.98871
G1 E7.98871 F2400.00000
G92 E0
G1 X102.728 Y98.676 F7800.000
G1 E2.00000 F2400.00000
G1 X103.536 Y99.484 E2.20659 F600.000
G1 E0.20659 F2400.00000
G92 E0
G1 X102.265 Y97.445 F7800.000
G1 E2.00000 F2400.00000
G1 X101.411 Y96.590 E2.21857 F600.000
G1 X102.593 Y95.858 F7800.000
G1 X101.689 Y94.954 E2.44982 F600.000
G1 E0.44982 F2400.00000
G92 E0
G1 X97.722 Y96.650 F7800.000
G1 E2.00000 F2400.00000
G1 X97.206 Y96.134 E2.11012 F600.000
G1 X96.323 Y97.405 E2.34353
G1 X97.124 Y98.206 E2.51421
G1 X95.854 Y99.090 E2.74752
G1 X96.379 Y99.615 E2.85937
G1 X97.350 Y100.521 F7800.000
G1 X96.826 Y99.997 E2.97113 F600.000
G1 X95.927 Y100.724 E3.14547
G1 X99.281 Y104.078 E3.86091
G1 X98.462 Y104.885 E4.03428
G1 X97.879 Y104.302 E4.15868
G1 X99.266 Y103.132 F7800.000
G1 X99.847 Y103.713 E4.28249 F600.000
G1 Z3.800 F7800.000
G1 X98.606 Y104.281 F7800.000
G1 X99.246 Y103.641 E4.40118 F600.000
G1 X98.727 Y102.286 E4.59158
G1 X97.335 Y103.677 E4.84973
G1 X96.645 Y102.494 E5.02953
G1 X97.817 Y101.322 E5.24699
G1 X96.891 Y100.374 E5.42088
G1 X96.387 Y100.878 E5.51443
G1 E3.51443 F2400.00000
G92 E0
G1 X100.130 Y100.557 F7800.000
G1 E2.00000 F2400.00000
G1 X100.641 Y100.046 E2.20488 F600.000
G1 X99.474 Y98.918 E2.66468
G1 X98.706 Y99.686 E2.97211
G1 X98.732 Y97.364 E3.62974
G1 X99.291 Y96.806 E3.85330
G1 X100.217 Y96.800 F7800.000
G1 X100.941 Y96.077 E4.14314 F600.000
G1 X103.013 Y98.050 E4.95370
G1 X102.201 Y98.862 E5.27899
G1 X101.999 Y99.190 F7800.000
G1 X102.754 Y98.435 E5.58156 F600.000
G1 Z4.500 F7800.000
G1 X102.635 Y97.059 F7800.000
G1 X101.833 Y96.257 E5.76474 F600.000
G1 X101.417 Y98.146 E6.07702
G1 X102.488 Y99.217 E6.32144
G1 X100.594 Y99.628 E6.63429
G1 X100.008 Y99.042 E6.76804
G1 Z5.200 F7800.000
G1 X101.525 Y99.581 F7800.000
G1 X102.277 Y98.829 E6.91697 F600.000
G1 X101.113 Y97.992 E7.11768
G1 X99.742 Y99.363 E7.38925
G1 X99.557 Y97.548 E7.64475
G1 X100.281 Y96.824 E7.78824
G1 Z5.900 F7800.000
G1 X100.902 Y96.986 F7800.000
G1 X101.512 Y97.596 E7.88405 F600.000
G1 E5.88405 F2400.00000
G92 E0
M107
M104 S0 ; turn off temperature
G28 X0  ; home X axis
M84     ; disable motors

; filament used = 26.3mm (0.2cm3)

; avoid_crossing_perimeters = 0
; bed_shape = 0x0,200x0,200x200,0x200
; bed_temperature = 0
; before_layer_gcode = 
; bridge_acceleration = 0
; bridge_fan_speed = 100
; brim_width = 0
; complete_objects = 0
; cooling = 1
; default_acceleration = 0
; disable_fan_first_layers = 3
; duplicate_distance = 6
; end_gcode = M104 S0 ; turn off temperature\nG28 X0  ; home X axis\nM84     ; disable motors\n
; extruder_clearance_height = 20
; extruder_clearance_radius = 20
; extruder_offset = 0x0
; extrusion_axis = E
; extrusion_multiplier = 1
; fan_always_on = 0
; fan_below_layer_time = 60
; filament_colour = #FFFFFF
; filament_diameter = 3
; first_layer_acceleration = 0
; first_layer_bed_temperature = 0
; first_layer_extrusion_width = 200%
; first_layer_speed = 30
; first_layer_temperature = 200
; gcode_arcs = 0
; gcode_comments = 0
; gcode_flavor = reprap
; infill_acceleration = 0
; infill_first = 0
; layer_gcode = 
; max_fan_speed = 100
; max_print_speed = 80
; max_volumetric_speed = 0
; min_fan_speed = 35
; min_print_speed = 10
; min_skirt_length = 0
; notes = 
; nozzle_diameter = 1
; only_retract_when_crossing_perimeters = 1
; ooze_prevention = 0
; output_filename_format = [input_filename_base].gcode
; perimeter_acceleration = 0
; post_process = 
; pressure_advance = 0
; resolution = 0
; retract_before_travel = 2
; retract_layer_change = 0
; retract_length = 2
; retract_length_toolchange = 10
; retract_lift = 0
; retract_restart_extra = 0
; retract_restart_extra_toolchange = 0
; retract_speed = 40
; skirt_distance = 6
; skirt_height = 1
; skirts = 0
; slowdown_below_layer_time = 5
; spiral_vase = 0
; standby_temperature_delta = -5
; start_gcode = G28 ; home all axes\nG1 Z5 F5000 ; lift nozzle\n
; temperature = 200
; threads = 2
; toolchange_gcode = 
; travel_speed = 130
; use_firmware_retraction = 0
; use_relative_e_distances = 0
; use_volumetric_e = 0
; vibration_limit = 0
; wipe = 0
; z_offset = 0
; dont_support_bridges = 1
; extrusion_width = 0
; first_layer_height = 0.3
; infill_only_where_needed = 0
; interface_shells = 0
; layer_height = 0.7
; raft_layers = 0
; seam_position = aligned
; support_material = 0
; support_material_angle = 0
; support_material_contact_distance = 0.2
; support_material_enforce_layers = 0
; support_material_extruder = 1
; support_material_extrusion_width = 0
; support_material_interface_extruder = 1
; support_material_interface_layers = 3
; support_material_interface_spacing = 0
; support_material_interface_speed = 100%
; support_material_pattern = pillars
; support_material_spacing = 2.5
; support_material_speed = 60
; support_material_threshold = 0
; xy_size_compensation = 0
; bottom_solid_layers = 0
; bridge_flow_ratio = 1
; bridge_speed = 60
; external_fill_pattern = rectilinear
; external_perimeter_extrusion_width = 0
; external_perimeter_speed = 50%
; external_perimeters_first = 0
; extra_perimeters = 1
; fill_angle = 45
; fill_density = 10%
; fill_pattern = rectilinear
; gap_fill_speed = 20
; infill_every_layers = 1
; infill_extruder = 1
; infill_extrusion_width = 0
; infill_overlap = 15%
; infill_speed = 80
; overhangs = 1
; perimeter_extruder = 1
; perimeter_extrusion_width = 0
; perimeter_speed = 60
; perimeters = 0
; small_perimeter_speed = 15
; solid_infill_below_area = 70
; solid_infill_every_layers = 0
; solid_infill_extruder = 1
; solid_infill_extrusion_width = 0
; solid_infill_speed = 20
; thin_walls = 1
; top_infill_extrusion_width = 0
; top_solid_infill_speed = 15
; top_solid_layers = 0
