; generated by Slic3r 1.3.0 on 2020-03-03 at 15:40:52

; external perimeters extrusion width = 0.55mm (6.64mm^3/s)
; perimeters extrusion width = 0.52mm (12.53mm^3/s)
; infill extrusion width = 0.52mm (16.71mm^3/s)
; solid infill extrusion width = 0.52mm (4.18mm^3/s)
; top infill extrusion width = 0.52mm (3.13mm^3/s)

M107
M104 S205 ; set temperature
G28 ; home all axes
G1 Z5 F5000 ; lift nozzle

; Filament gcode

M109 S205 ; set temperature and wait for it to be reached
G21 ; set units to millimeters
G90 ; use absolute coordinates
M82 ; use absolute distances for extrusion
G92 E0
G1 Z0.500 F7800.000
G1 E-2.00000 F2400.00000
G92 E0
G1 X99.976 Y95.320 F7800.000
G1 E2.00000 F2400.00000
G1 F600
G1 X100.848 Y94.449 E2.09344
G1 X100.495 Y96.317 F7800.000
G1 F600
G1 X99.800 Y97.011 E2.16785
M104 S200 ; set temperature
G1 Z1.000 F7800.000
G1 X99.803 Y95.433 F7800.000

G1 F3600
G1 X99.823 Y95.657 E2.17714
G1 X99.803 Y95.709 E2.17943
G1 X99.803 Y96.996 E2.23263
G1 X99.836 Y97.076 E2.23622
G1 X99.856 Y97.042 E2.23783
G1 X100.067 Y97.182 E2.24831
G1 X100.122 Y97.180 E2.25059
G1 X100.078 Y97.110 E2.25400
G1 X100.331 Y96.995 E2.26550
G1 X100.463 Y96.811 E2.27485
G1 X100.463 Y94.380 E2.37535
G1 X100.664 Y94.386 E2.38367
G1 X100.610 Y94.616 E2.39342
G1 X101.123 Y94.566 E2.41473
G1 X101.123 Y96.186 E2.48171
G1 X101.174 Y96.129 E2.48489
G1 X101.452 Y96.668 E2.50998
G1 X101.545 Y96.791 E2.51636
G1 X101.675 Y96.879 E2.52286
G1 X101.783 Y96.925 E2.52769
G1 X101.783 Y94.790 E2.61599
G1 X102.120 Y95.331 E2.64236
G1 X102.443 Y95.672 E2.66176
G1 X102.443 Y96.204 E2.68377

G1 Z1.500 F7800.000
G1 X102.154 Y97.530 F7800.000

G1 F3600
G1 X102.672 Y97.400 E2.70338
G1 X102.767 Y97.346 E2.70742
G1 X102.868 Y97.159 E2.71524
G1 X102.886 Y96.958 E2.72263
G1 X102.859 Y96.709 E2.73182
G1 X101.252 Y97.111 E2.79267
G1 X101.187 Y97.025 E2.79661
G1 X101.042 Y96.634 E2.81196
G1 X100.972 Y96.537 E2.81636
G1 X102.689 Y96.108 E2.88139
G1 X102.619 Y95.943 E2.88796
G1 X102.728 Y95.888 E2.89244
G1 X102.610 Y95.627 E2.90296
G1 X102.491 Y95.513 E2.90902
G1 X99.471 Y96.268 E3.02335
G1 X99.464 Y96.073 E3.03051
G1 X99.489 Y95.788 E3.04101
G1 X99.545 Y95.605 E3.04804
G1 X102.110 Y94.964 E3.14518
G1 X101.871 Y94.562 E3.16235
G1 X101.776 Y94.496 E3.16660
G1 X101.333 Y95.012 E3.19160
G1 X101.204 Y94.703 E3.20388
G1 X101.014 Y94.629 E3.21137
G1 X100.841 Y94.637 E3.21774
G1 X100.324 Y94.766 E3.23729

G1 X100.303 Y96.704 F7800.000

G1 F3600
G1 X100.455 Y96.708 E3.24286
G1 X100.724 Y96.599 E3.25354
G1 X99.787 Y96.833 E3.28903

M106 S255
G1 Z2.000 F7800.000
G1 E1.28903 F2400.00000
G92 E0
G1 X98.190 Y99.425 F7800.000
G1 E2.00000 F2400.00000
M106 S255

G1 F3600
G1 X97.814 Y99.049 E2.01950
G1 X97.495 Y99.152 E2.03177
G1 X97.187 Y99.305 E2.04435
G1 X98.472 Y100.590 E2.11090
G1 X98.253 Y100.863 E2.12371
G1 X98.099 Y101.099 E2.13404
G1 X96.722 Y99.722 E2.20534
G1 X96.591 Y99.895 E2.21327
G1 X96.413 Y100.296 E2.22934
G1 X97.786 Y101.669 E2.30046
G1 X97.484 Y102.249 E2.32442
G1 X96.279 Y101.044 E2.38683
G1 X96.287 Y101.597 E2.40708
G1 X96.336 Y101.882 E2.41765
G1 X96.447 Y102.096 E2.42649
G1 X96.824 Y102.472 E2.44598
M106 S255

G1 E0.44598 F2400.00000
G92 E0
G1 X102.891 Y98.279 F7800.000
G1 E2.00000 F2400.00000
M106 S255

G1 F3600
G1 X103.074 Y97.777 E2.02022
G1 X103.125 Y97.512 E2.03046
G1 X103.124 Y97.191 E2.04260
G1 X103.096 Y96.948 E2.05187
G1 X103.050 Y96.752 E2.05948
G1 X102.905 Y96.390 E2.07425
G1 X102.172 Y98.404 E2.15540
G1 X102.070 Y98.313 E2.16056
G1 X101.690 Y97.875 E2.18251
G1 X102.581 Y95.427 E2.28116
G1 X102.095 Y94.910 E2.30802
G1 X101.308 Y97.070 E2.39503
G1 X101.317 Y96.919 E2.40077
G1 X101.220 Y96.855 E2.40520
G1 X101.147 Y96.534 E2.41764
G1 X100.696 Y96.899 E2.43960
G1 X101.548 Y94.557 E2.53391
G1 X101.092 Y94.747 E2.55263
G1 X101.074 Y94.516 E2.56140
G1 X100.998 Y94.494 E2.56440
G1 X100.892 Y94.509 E2.56846
G1 X100.006 Y96.942 E2.66644
G1 X99.858 Y96.842 E2.67319
G1 X99.744 Y96.691 E2.68037
G1 X99.675 Y96.519 E2.68736
G1 X99.652 Y96.363 E2.69335
G1 X99.648 Y96.190 E2.69989
G1 X99.692 Y95.952 E2.70907
G1 X99.875 Y95.449 E2.72932
M106 S255

G1 Z2.500 F7800.000
G1 E0.72932 F2400.00000
G92 E0
G1 X99.261 Y99.092 F7800.000
G1 E2.00000 F2400.00000
M106 S255

G1 F3600
G1 X99.069 Y99.034 E2.00828
G1 X98.889 Y99.014 E2.01575
G1 X99.221 Y99.648 E2.04532
G1 X99.298 Y98.561 E2.09035
G1 X99.533 Y98.683 E2.10129
G1 X99.707 Y98.832 E2.11076
G1 X99.849 Y99.009 E2.12014
G1 X99.899 Y99.116 E2.12501
G1 X99.914 Y99.203 E2.12866
G1 X99.877 Y99.735 E2.15073
M106 S255

G1 E0.15073 F2400.00000
G92 E0
G1 X96.617 Y99.772 F7800.000
G1 E2.00000 F2400.00000
M106 S255

G1 F3600
G1 X97.251 Y99.163 E2.02624
G1 X97.407 Y99.061 E2.03178
G1 X97.888 Y99.305 E2.04787
G1 X95.940 Y101.253 E2.13005
G1 X95.906 Y101.414 E2.13495
G1 X95.867 Y101.834 E2.14753
G1 X95.880 Y102.116 E2.15596
G1 X98.421 Y99.575 E2.26316
G1 X98.955 Y99.845 E2.28099
G1 X95.986 Y102.814 E2.40621
G1 X96.115 Y103.123 E2.41621
G1 X96.270 Y103.333 E2.42400
G1 X97.973 Y101.630 E2.49583
G1 X97.779 Y102.454 E2.52107
G1 X97.663 Y102.694 E2.52904
G1 X97.512 Y102.895 E2.53652
G1 X97.133 Y103.273 E2.55249
M106 S255

G1 E0.55249 F2400.00000
G92 E0
G1 X103.414 Y98.767 F7800.000
G1 E2.00000 F2400.00000
M106 S255

G1 F3600
G1 X103.485 Y97.758 E2.03688
G1 X103.453 Y97.373 E2.05096
G1 X103.364 Y96.990 E2.06530
G1 X103.133 Y96.392 E2.08868
G1 X102.976 Y96.125 E2.09997
G1 X102.736 Y99.525 E2.22422
G1 X102.609 Y99.418 E2.23031
G1 X102.338 Y99.105 E2.24539
G1 X102.163 Y98.810 E2.25790
G1 X102.415 Y95.220 E2.38909
G1 X102.014 Y94.856 E2.40883
G1 X101.854 Y94.759 E2.41565
G1 X101.841 Y94.818 E2.41785
G1 X101.820 Y94.811 E2.41864
G1 X101.626 Y97.564 E2.51922
G1 X101.600 Y97.341 E2.52740
G1 X101.425 Y97.067 E2.53926
G1 X101.138 Y97.134 E2.55000
G1 X101.028 Y97.189 E2.55449
G1 X101.210 Y94.600 E2.64912
G1 X101.060 Y94.568 E2.65473
G1 X100.940 Y94.579 E2.65912
G1 X100.699 Y94.691 E2.66882
G1 X100.573 Y94.787 E2.67458
G1 X100.406 Y97.159 E2.76127
G1 X100.313 Y97.112 E2.76505
G1 X100.095 Y96.937 E2.77526
G1 X99.920 Y96.718 E2.78548
G1 X99.879 Y96.635 E2.78885
G1 X99.835 Y96.394 E2.79777
G1 X99.873 Y95.860 E2.81731
M106 S255

G1 Z3.000 F7800.000
G1 E0.81731 F2400.00000
G92 E0
G1 X100.110 Y100.392 F7800.000
G1 E2.00000 F2400.00000
M106 S255

G1 F3600
G1 X100.084 Y99.860 E2.01897
G1 X99.818 Y99.223 E2.04354
G1 X99.438 Y99.237 E2.05710
G1 X99.497 Y100.478 E2.10134
G1 X98.925 Y100.552 E2.12188
G1 X98.881 Y100.492 E2.12453
G1 X98.779 Y98.355 E2.20074
G1 X98.519 Y98.290 E2.21028
G1 X98.162 Y98.369 E2.22328
G1 X98.288 Y100.983 E2.31647
G1 X98.213 Y101.045 E2.31992
G1 X98.083 Y101.205 E2.32728
G1 X97.717 Y101.791 E2.35189
G1 X97.827 Y101.836 E2.35609
G1 X97.808 Y102.025 E2.36285
G1 X97.721 Y102.038 E2.36597
G1 X97.558 Y98.634 E2.48734
G1 X97.340 Y98.752 E2.49618
G1 X96.961 Y99.042 E2.51317
G1 X97.214 Y104.318 E2.70131
G1 X96.948 Y104.309 E2.71078
G1 X96.828 Y104.275 E2.71520
G1 X96.588 Y104.138 E2.72505
G1 X96.376 Y99.717 E2.88269
G1 X96.209 Y100.062 E2.89635
G1 X96.038 Y100.578 E2.91570
G1 X95.893 Y101.279 E2.94120
G1 X95.874 Y102.104 E2.97062
G1 X95.899 Y102.636 E2.98957
M106 S255

G1 E0.98957 F2400.00000
G92 E0
G1 X97.786 Y103.394 F7800.000
G1 E2.00000 F2400.00000
M106 S255

G1 F3600
G1 X97.899 Y103.086 E2.01168
G1 X97.908 Y102.864 E2.01959
G1 X97.824 Y102.507 E2.03267
G1 X97.790 Y102.190 E2.04402
G1 X97.718 Y101.978 E2.05199
G1 X97.812 Y103.926 E2.12145
M106 S255

G1 E0.12145 F2400.00000
G92 E0
G1 X102.102 Y98.534 F7800.000
G1 E2.00000 F2400.00000
M106 S255

G1 F3600
G1 X101.944 Y97.340 E2.03600
G1 X102.036 Y97.068 E2.04457
G1 X101.898 Y96.988 E2.04936
M106 S255

G1 E0.04936 F2400.00000
G92 E0
G1 X100.039 Y95.941 F7800.000
G1 E2.00000 F2400.00000
M106 S255

G1 F3600
G1 X100.131 Y96.599 E2.01987
G1 X100.338 Y96.956 E2.03222
G1 X100.289 Y96.978 E2.03383
G1 X100.406 Y97.125 E2.03947
G1 X100.489 Y96.933 E2.04570
G1 X100.764 Y97.300 E2.05941
G1 X100.791 Y97.292 E2.06024
G1 X100.501 Y95.101 E2.12632
G1 X100.787 Y94.919 E2.13644
G1 X101.038 Y94.820 E2.14451
G1 X101.404 Y97.594 E2.22817
G1 X101.648 Y97.331 E2.23890
G1 X101.967 Y97.516 E2.24993
G1 X101.619 Y94.874 E2.32958
G1 X101.934 Y95.006 E2.33981
G1 X102.237 Y95.211 E2.35072
G1 X103.043 Y101.316 E2.53485
G1 X103.176 Y101.179 E2.54057
G1 X103.311 Y100.969 E2.54803
G1 X103.518 Y100.572 E2.56142
G1 X102.901 Y95.893 E2.70252
G1 X103.003 Y96.019 E2.70738
G1 X103.234 Y96.395 E2.72056
G1 X103.449 Y96.842 E2.73540
G1 X103.548 Y97.102 E2.74371
G1 X103.666 Y97.529 E2.75697
G1 X103.745 Y97.942 E2.76951
G1 X103.815 Y98.473 E2.78552
M106 S255

G1 Z3.500 F7800.000
G1 E0.78552 F2400.00000
G92 E0
G1 X100.853 Y99.632 F7800.000
G1 E2.00000 F2400.00000
M106 S255

G1 F3600
G1 X100.618 Y99.154 E2.01679
M106 S255

G1 X99.600 Y99.727 F7800.000
M106 S255

G1 F3600
G1 X99.365 Y99.249 E2.03357
G1 X99.398 Y98.260 E2.06479
G1 X99.539 Y98.284 E2.06932
G1 X100.758 Y100.759 E2.15635
M106 S255

G1 X99.363 Y100.235 F7800.000
M106 S255

G1 F3600
G1 X99.069 Y99.791 E2.17300
G1 X97.884 Y98.481 E2.22819
G1 X97.595 Y98.619 E2.23818
G1 X98.840 Y100.496 E2.30854
G1 X98.652 Y100.533 E2.31452
G1 X98.660 Y100.579 E2.31600
G1 X98.340 Y100.792 E2.32799
G1 X97.228 Y99.115 E2.39088
G1 X96.976 Y99.516 E2.40567
G1 X96.804 Y99.526 E2.41105
G1 X97.993 Y101.319 E2.47827
G1 X97.807 Y101.715 E2.49194
G1 X97.767 Y101.918 E2.49839
G1 X97.767 Y102.029 E2.50184
G1 X96.326 Y99.855 E2.58331
G1 X96.243 Y99.993 E2.58835
G1 X96.030 Y100.458 E2.60433
G1 X97.522 Y102.708 E2.68866
G1 X97.527 Y102.963 E2.69662
G1 X97.955 Y103.439 E2.71660
G1 X97.975 Y103.392 E2.71819
G1 X98.079 Y103.548 E2.72402
G1 X98.081 Y103.589 E2.72530
G1 X98.111 Y103.597 E2.72627
G1 X98.764 Y104.583 E2.76322
G1 X98.744 Y104.617 E2.76448
G1 X98.661 Y104.691 E2.76795
G1 X98.544 Y104.756 E2.77212
G1 X98.249 Y104.855 E2.78186
G1 X95.809 Y101.175 E2.91979
G1 X95.679 Y102.029 E2.94676
G1 X97.564 Y104.872 E3.05333
G1 X97.208 Y104.812 E3.06459
G1 X97.052 Y104.743 E3.06994
G1 X96.727 Y104.495 E3.08269
G1 X96.376 Y104.124 E3.09865
G1 X95.952 Y103.491 E3.12245
M106 S255

G1 E1.12245 F2400.00000
G92 E0
G1 X102.576 Y102.874 F7800.000
G1 E2.00000 F2400.00000
M106 S255

G1 F3600
G1 X102.341 Y102.397 E2.01561
G1 X102.315 Y102.235 E2.02040
G1 X102.338 Y101.324 E2.04714
G1 X102.370 Y101.180 E2.05145
G1 X103.059 Y102.579 E2.09718
G1 X103.260 Y102.335 E2.10646
G1 X103.433 Y102.061 E2.11594
G1 X102.347 Y99.856 E2.18802
G1 X102.356 Y99.394 E2.20157
G1 X102.236 Y98.354 E2.23228
G1 X103.750 Y101.429 E2.33279
G1 X104.010 Y100.681 E2.35601
G1 X101.392 Y95.364 E2.52980
G1 X101.907 Y95.247 E2.54531
G1 X101.979 Y95.281 E2.54765
G1 X104.169 Y99.729 E2.69302
M106 S255

G1 E0.69302 F2400.00000
G92 E0
G1 X102.153 Y98.187 F7800.000
G1 E2.00000 F2400.00000
M106 S255

G1 F3600
G1 X100.972 Y95.788 E2.07842
M106 S255

G1 X103.327 Y96.742 F7800.000
M106 S255

G1 F3600
G1 X103.562 Y97.220 E2.09403
M106 S255

G1 Z4.000 F7800.000
G1 E0.09403 F2400.00000
G92 E0
G1 X101.562 Y95.842 F7800.000
G1 E2.00000 F2400.00000
M106 S255

G1 F3600
G1 X101.031 Y95.889 E2.01819
G1 X100.894 Y95.991 E2.02405
G1 X100.752 Y96.184 E2.03224
G1 X100.675 Y96.453 E2.04177
G1 X100.676 Y96.526 E2.04429
G1 X101.395 Y96.463 E2.06894
G1 X101.379 Y97.072 E2.08971
G1 X100.849 Y97.118 E2.10788
M106 S255

G1 X101.434 Y97.022 F7800.000
M106 S255

G1 F3600
G1 X101.906 Y96.776 E2.12751
G1 X103.392 Y96.624 E2.18260
G1 X103.411 Y96.649 E2.18375
G1 X101.416 Y97.688 E2.26669
G1 X101.408 Y97.997 E2.27811
G1 X101.862 Y98.055 E2.29499
G1 X101.860 Y98.113 E2.29713
G1 X103.739 Y97.135 E2.37522
G1 X103.984 Y97.604 E2.39474
G1 X104.004 Y97.653 E2.39671
G1 X101.952 Y98.722 E2.48199
G1 X102.146 Y98.944 E2.49286
G1 X102.357 Y99.130 E2.50321
G1 X102.405 Y99.142 E2.50507
G1 X104.198 Y98.209 E2.57959
G1 X104.308 Y98.808 E2.60206
G1 X102.562 Y99.718 E2.67464
G1 X102.415 Y100.234 E2.69445
G1 X102.367 Y100.476 E2.70352
G1 X104.411 Y99.411 E2.78851
G1 X104.430 Y99.591 E2.79518
G1 X104.416 Y99.845 E2.80457
G1 X104.377 Y100.085 E2.81353
G1 X102.472 Y101.077 E2.89274
G1 X102.477 Y101.343 E2.90251
G1 X102.169 Y101.398 E2.91406
G1 X102.098 Y101.751 E2.92736
G1 X102.030 Y101.964 E2.93559
G1 X104.244 Y100.811 E3.02761
G1 X103.968 Y101.612 E3.05881
G1 X101.602 Y102.844 E3.15717
M106 S255

G1 X101.049 Y104.444 F7800.000
M106 S255

G1 F3600
G1 X101.525 Y104.197 E3.17695
G1 X102.118 Y103.846 E3.20235
G1 X102.469 Y103.591 E3.21834
G1 X103.067 Y103.032 E3.24853
G1 X103.319 Y102.755 E3.26234
G1 X103.456 Y102.535 E3.27190
G1 X102.510 Y103.027 E3.31122
G1 X102.496 Y102.809 E3.31928
G1 X101.988 Y102.764 E3.33809
G1 X101.930 Y103.301 E3.35799
G1 X101.973 Y103.307 E3.35959
G1 X98.228 Y105.257 E3.51528
G1 X97.934 Y105.264 E3.52611
G1 X97.613 Y105.237 E3.53801
G1 X97.198 Y105.136 E3.55375
G1 X99.800 Y103.781 E3.66192
G1 X99.741 Y103.764 E3.66419
G1 X99.617 Y103.864 E3.67007
G1 X99.484 Y103.754 E3.67646
G1 X99.432 Y103.786 E3.67871
G1 X99.145 Y103.738 E3.68944
G1 X99.005 Y103.872 E3.69656
G1 X98.861 Y103.614 E3.70746
G1 X96.577 Y104.803 E3.80240
G1 X96.240 Y104.488 E3.81940
G1 X96.142 Y104.373 E3.82498
G1 X98.305 Y103.247 E3.91491
G1 X98.068 Y103.109 E3.92504
G1 X97.943 Y102.852 E3.93557
G1 X97.947 Y102.777 E3.93833
G1 X95.811 Y103.889 E4.02710
G1 X95.702 Y103.615 E4.03798
G1 X95.665 Y103.308 E4.04936
G1 X97.714 Y102.242 E4.13451
G1 X97.700 Y102.035 E4.14214
G1 X97.777 Y102.040 E4.14497
G1 X97.725 Y101.761 E4.15542
G1 X97.696 Y101.770 E4.15655
G1 X97.641 Y101.623 E4.16236
G1 X95.650 Y102.659 E4.24512
G1 X95.700 Y102.335 E4.25723
G1 X95.810 Y101.919 E4.27307
G1 X97.768 Y100.900 E4.35445
G1 X97.891 Y100.590 E4.36673
G1 X98.015 Y100.405 E4.37496
G1 X98.126 Y100.295 E4.38073
G1 X98.096 Y100.152 E4.38611
G1 X97.331 Y101.031 E4.42906
G1 X96.998 Y100.644 E4.44787
G1 X96.523 Y100.892 E4.46765
G1 X96.511 Y100.872 E4.46852
G1 X96.526 Y100.890 E4.46940
M106 S255

G1 E2.46940 F2400.00000
G92 E0
G1 X100.490 Y101.284 F7800.000
G1 E2.00000 F2400.00000
M106 S255

G1 F3600
G1 X101.044 Y100.994 E2.02305
G1 X101.134 Y100.912 E2.02756
G1 X101.265 Y100.736 E2.03565
G1 X101.342 Y100.571 E2.04236
G1 X101.384 Y100.412 E2.04842
G1 X101.403 Y100.102 E2.05986
G1 X99.966 Y100.850 E2.11960
G1 X99.899 Y100.658 E2.12711
G1 X99.704 Y100.516 E2.13599
G1 X99.426 Y100.459 E2.14644
G1 X99.422 Y100.428 E2.14762
G1 X101.292 Y99.454 E2.22533
G1 X101.203 Y99.262 E2.23312
G1 X101.067 Y99.040 E2.24274
G1 X100.962 Y98.920 E2.24861
G1 X99.384 Y99.742 E2.31423
G1 X99.508 Y98.971 E2.34302
G1 X99.981 Y98.725 E2.36265
M106 S255

G1 E0.36265 F2400.00000
G92 E0
G1 X97.367 Y99.685 F7800.000
G1 E2.00000 F2400.00000
M106 S255

G1 F3600
G1 X96.833 Y99.685 E2.01988
G1 X96.592 Y100.035 E2.03571
G1 X96.831 Y100.313 E2.04936
G1 X97.363 Y100.313 E2.06917
M106 S255

G1 X98.857 Y99.268 F7800.000
M106 S255

G1 F3600
G1 X99.388 Y99.222 E2.09121
G1 X99.497 Y98.550 E2.11935
G1 X98.487 Y98.638 E2.16126
G1 X98.805 Y98.565 E2.17477
G1 X98.973 Y98.555 E2.18172
G1 X98.967 Y98.596 E2.18343
M106 S255

G1 Z4.500 F7800.000
G1 E0.18343 F2400.00000
G92 E0
G1 X102.124 Y97.786 F7800.000
G1 E2.00000 F2400.00000
M106 S255

G1 F3600
G1 X102.178 Y97.907 E2.00553
G1 X102.210 Y97.817 E2.00950
G1 X101.623 Y97.604 E2.03530
G1 X101.534 Y97.405 E2.04435
G1 X101.419 Y97.053 E2.05965
G1 X101.368 Y96.810 E2.06990
G1 X103.714 Y97.660 E2.17305
M106 S255

G1 X102.523 Y96.526 F7800.000
M106 S255

G1 F3600
G1 X102.023 Y96.345 E2.19505
M106 S255

G1 X102.765 Y97.853 F7800.000
M106 S255

G1 F3600
G1 X102.232 Y97.853 E2.21176
G1 X102.028 Y98.434 E2.23107
G1 X104.163 Y98.434 E2.29801
G1 X104.204 Y98.556 E2.30203
G1 X104.301 Y99.015 E2.31677
G1 X102.324 Y99.015 E2.37878
G1 X102.553 Y99.223 E2.38848
G1 X102.292 Y99.536 E2.40126
G1 X102.306 Y99.596 E2.40321
G1 X104.431 Y99.597 E2.46988
G1 X104.453 Y99.898 E2.47936
G1 X104.441 Y100.178 E2.48814
G1 X102.403 Y100.178 E2.55206
G1 X102.444 Y100.759 E2.57034
G1 X104.355 Y100.759 E2.63029
G1 X104.372 Y100.763 E2.63081
G1 X104.332 Y101.065 E2.64036
G1 X104.257 Y101.341 E2.64931
G1 X102.437 Y101.341 E2.70638
G1 X102.350 Y101.440 E2.71053
G1 X102.108 Y101.922 E2.72745
G1 X104.070 Y101.922 E2.78901
G1 X103.986 Y102.151 E2.79667
G1 X103.807 Y102.503 E2.80906
G1 X101.753 Y102.503 E2.87349
G1 X101.599 Y102.663 E2.88044
G1 X101.234 Y102.983 E2.89565
G1 X101.308 Y103.084 E2.89959
G1 X103.471 Y103.084 E2.96741
G1 X103.149 Y103.518 E2.98434
G1 X103.014 Y103.666 E2.99061
G1 X99.965 Y103.666 E3.08626
M106 S255

G1 X99.045 Y105.410 F7800.000
M106 S255

G1 F3600
G1 X98.513 Y105.410 E3.10295
G1 X98.054 Y105.382 E3.11737
G1 X97.740 Y105.322 E3.12740
G1 X97.356 Y105.197 E3.14007
G1 X97.399 Y105.083 E3.14389
G1 X97.133 Y105.005 E3.15257
G1 X96.923 Y104.834 E3.16108
G1 X96.846 Y104.950 E3.16544
G1 X96.657 Y104.828 E3.17248
G1 X101.517 Y104.828 E3.32493
G1 X101.847 Y104.648 E3.33671
G1 X102.401 Y104.247 E3.35817
G1 X96.114 Y104.247 E3.55535
G1 X96.024 Y104.095 E3.56090
G1 X95.906 Y103.820 E3.57029
G1 X95.870 Y103.666 E3.57525
G1 X98.699 Y103.666 E3.66397
G1 X98.638 Y103.595 E3.66689
G1 X98.425 Y103.453 E3.67493
G1 X98.325 Y103.357 E3.67927
G1 X98.203 Y103.213 E3.68519
G1 X98.128 Y103.084 E3.68985
G1 X95.809 Y103.084 E3.76261
G1 X95.834 Y102.870 E3.76940
G1 X95.928 Y102.503 E3.78126
G1 X97.684 Y102.503 E3.83633
M106 S255

G1 E1.83633 F2400.00000
G92 E0
G1 X100.287 Y101.277 F7800.000
G1 E2.00000 F2400.00000
M106 S255

G1 F3600
G1 X100.796 Y101.123 E2.02202
G1 X100.846 Y101.075 E2.02487
G1 X100.968 Y100.953 E2.03200
G1 X101.175 Y100.612 E2.04850
G1 X101.291 Y100.285 E2.06286
G1 X99.884 Y100.709 E2.12361
G1 X99.837 Y100.605 E2.12835
G1 X99.647 Y100.781 E2.13905
G1 X99.612 Y100.791 E2.14056
G1 X99.456 Y100.639 E2.14958
G1 X100.305 Y99.893 E2.19630
G1 X101.451 Y99.547 E2.24578
M106 S255

G1 X100.411 Y99.525 F7800.000
M106 S255

G1 F3600
G1 X98.630 Y98.880 E2.32408
G1 X98.482 Y98.964 E2.33114
G1 X98.401 Y99.053 E2.33612
G1 X98.388 Y99.094 E2.33787
G1 X98.390 Y99.257 E2.34462
G1 X98.459 Y99.520 E2.35587
G1 X99.845 Y100.022 E2.41683
G1 X99.568 Y100.265 E2.43207
G1 X99.064 Y99.869 E2.45860
G1 X98.959 Y99.701 E2.46676
M106 S255

G1 X100.120 Y98.718 F7800.000
M106 S255

G1 F3600
G1 X100.620 Y98.899 E2.48876
M106 S255

G1 Z5.000 F7800.000
G1 E0.48876 F2400.00000
G92 E0
G1 X102.880 Y97.525 F7800.000
G1 E2.00000 F2400.00000
M106 S255

G1 F3600
G1 X102.504 Y97.912 E2.01666
G1 X102.486 Y98.132 E2.02347
G1 X102.530 Y98.711 E2.04139
G1 X103.367 Y97.852 E2.07840
G1 X103.482 Y97.960 E2.08329
G1 X103.663 Y98.177 E2.09200
G1 X103.734 Y98.302 E2.09644
G1 X102.537 Y99.530 E2.14941
G1 X102.535 Y99.902 E2.16089
G1 X102.706 Y100.184 E2.17106
G1 X103.966 Y98.891 E2.22681
G1 X104.144 Y99.316 E2.24105
G1 X104.180 Y99.499 E2.24679
G1 X103.030 Y100.678 E2.29763
G1 X103.392 Y101.133 E2.31559
G1 X104.220 Y100.284 E2.35220
G1 X104.232 Y100.564 E2.36085
G1 X104.126 Y101.207 E2.38097
G1 X103.754 Y101.588 E2.39741
M106 S255

G1 X102.999 Y100.701 F7800.000
M106 S255

G1 F3600
G1 X102.488 Y100.854 E2.41598
G1 X102.338 Y100.964 E2.42249
G1 X102.313 Y101.127 E2.42826
G1 X102.293 Y101.125 E2.42896
G1 X102.132 Y101.597 E2.44637
G1 X103.408 Y101.215 E2.49283
G1 X103.817 Y101.730 E2.51576
G1 X101.715 Y102.359 E2.59231
G1 X101.548 Y102.572 E2.60173
G1 X101.218 Y102.915 E2.61831
G1 X101.118 Y103.085 E2.62520
G1 X101.021 Y103.190 E2.63019
G1 X101.028 Y103.202 E2.63069
G1 X103.825 Y102.365 E2.73252
G1 X103.620 Y102.840 E2.75057
G1 X103.465 Y103.110 E2.76143
G1 X97.120 Y105.009 E2.99242
G1 X97.137 Y105.076 E2.99483
G1 X97.361 Y105.231 E3.00433
G1 X97.603 Y105.332 E3.01348
G1 X97.890 Y105.415 E3.02390
G1 X102.776 Y103.953 E3.20179
G1 X102.607 Y104.125 E3.21021
G1 X102.218 Y104.454 E3.22802
G1 X101.885 Y104.687 E3.24216
G1 X101.556 Y104.872 E3.25535
G1 X101.094 Y105.081 E3.27302
G1 X100.301 Y105.331 E3.30204
M106 S255

G1 X97.878 Y103.508 F7800.000
M106 S255

G1 F3600
G1 X97.740 Y103.409 E3.30794
G1 X96.781 Y103.690 E3.34282
G1 X96.816 Y103.826 E3.34772
G1 X98.388 Y103.355 E3.40495
G1 X98.640 Y103.537 E3.41578
G1 X98.746 Y103.398 E3.42190
G1 X99.129 Y103.500 E3.43573
G1 X99.753 Y103.584 E3.45769
G1 X96.968 Y104.417 E3.55910
M106 S255

G1 X96.903 Y104.314 F7800.000
M106 S255

G1 F3600
G1 X96.374 Y104.255 E3.58110
G1 X96.262 Y104.018 E3.59194
G1 X96.203 Y103.729 E3.60414
G1 X96.200 Y103.571 E3.61065
G1 X96.729 Y103.631 E3.63266
M106 S255

G1 X96.767 Y103.221 F7800.000
M106 S255

G1 F3600
G1 X96.238 Y103.162 E3.65466
G1 X96.339 Y102.827 E3.66911
G1 X96.413 Y102.677 E3.67606
G1 X96.510 Y102.551 E3.68262
G1 X96.564 Y102.535 E3.68496
G1 X97.132 Y102.598 E3.70857
M106 S255

G1 X98.343 Y102.499 F7800.000
M106 S255

G1 F3600
G1 X98.873 Y102.558 E3.72963
G1 X99.277 Y102.492 E3.74581
G1 X99.936 Y102.289 E3.77306
G1 X100.125 Y102.201 E3.78131
G1 X100.337 Y102.072 E3.79114
G1 X96.794 Y101.674 E3.93206
G1 X96.620 Y101.466 E3.94279
G1 X96.527 Y101.200 E3.95393
G1 X96.676 Y101.047 E3.96235
G1 X96.653 Y101.008 E3.96416
G1 X98.826 Y101.252 E4.05060
G1 X98.820 Y101.185 E4.05326
G1 X98.853 Y101.052 E4.05867
G1 X99.083 Y100.630 E4.07767
G1 X96.580 Y100.349 E4.17725
G1 X96.965 Y99.742 E4.20568
G1 X97.494 Y99.801 E4.22674
M106 S255

G1 E2.22674 F2400.00000
G92 E0
G1 X100.337 Y102.072 F7800.000
G1 E2.00000 F2400.00000
M106 S255

G1 F3600
G1 X101.116 Y101.508 E2.03798
G1 X99.950 Y101.378 E2.08434
G1 X99.815 Y101.251 E2.09164
G1 X99.951 Y100.850 E2.10837
G1 X99.886 Y100.815 E2.11128
G1 X99.903 Y100.722 E2.11500
G1 X101.664 Y100.920 E2.18507
M106 S255

G1 X100.913 Y99.706 F7800.000
M106 S255

G1 F3600
G1 X101.285 Y99.325 E2.20709
G1 X101.036 Y99.075 E2.22166
G1 X100.859 Y98.969 E2.23018
G1 X100.744 Y98.934 E2.23517
G1 X99.787 Y99.915 E2.29181
G1 X99.782 Y99.761 E2.29820
G1 X99.834 Y99.313 E2.31686
G1 X99.972 Y99.275 E2.32278
G1 X100.101 Y99.270 E2.32812
G1 X100.271 Y99.286 E2.33518
G1 X100.372 Y99.316 E2.33953
M106 S255

G1 E0.33953 F2400.00000
G92 E0
G1 X98.311 Y99.861 F7800.000
G1 E2.00000 F2400.00000
M106 S255

G1 F3600
G1 X98.683 Y99.480 E2.02201
G1 X98.492 Y99.078 E2.04042
G1 X98.247 Y98.981 E2.05129
G1 X97.641 Y99.603 E2.08719
G1 X97.272 Y99.461 E2.10354
G1 X97.466 Y99.378 E2.11226
G1 X97.771 Y99.299 E2.12527
G1 X97.894 Y99.308 E2.13037
G1 X97.876 Y99.362 E2.13276
M106 S255

G1 Z5.500 F7800.000
G1 E0.13276 F2400.00000
G92 E0
G1 X96.788 Y104.122 F7800.000
G1 E2.00000 F2400.00000
M106 S255

G1 F3600
G1 X98.076 Y103.803 E2.04934
G1 X98.166 Y104.055 E2.05932
G1 X98.675 Y103.888 E2.07927
G1 X98.612 Y103.670 E2.08773
G1 X99.025 Y103.567 E2.10356
G1 X99.403 Y103.559 E2.11763
G1 X99.679 Y103.492 E2.12819
G1 X99.684 Y103.604 E2.13238
G1 X99.746 Y103.602 E2.13471
G1 X99.752 Y103.644 E2.13628
G1 X100.078 Y103.591 E2.14858
G1 X100.232 Y103.586 E2.15430
G1 X100.231 Y103.566 E2.15503
G1 X100.333 Y103.549 E2.15887
G1 X100.319 Y103.389 E2.16485
G1 X100.764 Y103.249 E2.18219
G1 X101.174 Y103.053 E2.19913
G1 X101.347 Y103.261 E2.20919
G1 X101.656 Y102.915 E2.22643
M106 S255

G1 E0.22643 F2400.00000
G92 E0
G1 X103.218 Y100.585 F7800.000
G1 E2.00000 F2400.00000
M106 S255

G1 F3600
G1 X102.701 Y100.713 E2.01981
G1 X102.492 Y101.187 E2.03909
G1 X102.354 Y101.446 E2.05000
G1 X103.782 Y101.093 E2.10470
G1 X104.000 Y101.289 E2.11562
G1 X103.949 Y101.699 E2.13098
G1 X101.793 Y102.233 E2.21361
G1 X101.303 Y102.751 E2.24012
G1 X101.341 Y102.785 E2.24201
G1 X101.196 Y102.876 E2.24837
G1 X101.247 Y102.922 E2.25094
G1 X101.139 Y103.043 E2.25696
G1 X103.726 Y102.402 E2.35613
G1 X103.647 Y102.630 E2.36513
G1 X103.411 Y103.085 E2.38418
G1 X103.356 Y103.141 E2.38712
G1 X97.056 Y104.703 E2.62857
G1 X97.247 Y104.907 E2.63896
G1 X97.486 Y105.053 E2.64936
G1 X97.751 Y105.179 E2.66028
G1 X102.694 Y103.953 E2.84975
G1 X102.367 Y104.272 E2.86676
G1 X102.294 Y104.314 E2.86986
G1 X102.084 Y104.379 E2.87805
G1 X101.957 Y104.499 E2.88458
G1 X101.798 Y104.592 E2.89140
G1 X101.631 Y104.756 E2.90015
G1 X101.124 Y104.949 E2.92032
G1 X100.959 Y104.959 E2.92645
G1 X100.827 Y104.992 E2.93153
G1 X100.688 Y105.092 E2.93789
G1 X100.068 Y105.252 E2.96173
M106 S255

G1 E0.96173 F2400.00000
G92 E0
G1 X103.526 Y100.770 F7800.000
G1 E2.00000 F2400.00000
M106 S255

G1 F3600
G1 X103.952 Y100.451 E2.02201
G1 X103.902 Y100.175 E2.03360
G1 X103.826 Y99.981 E2.04225
G1 X103.715 Y99.805 E2.05086
G1 X103.026 Y100.320 E2.08641
G1 X102.978 Y100.277 E2.08910
G1 X103.061 Y100.133 E2.09596
G1 X103.126 Y100.054 E2.10019
G1 X103.172 Y100.030 E2.10232
G1 X103.289 Y100.124 E2.10851
M106 S255

G1 X101.429 Y99.849 F7800.000
M106 S255

G1 F3600
G1 X100.277 Y100.135 E2.14641
G1 X100.127 Y100.585 E2.16154
G1 X99.996 Y100.808 E2.16982
G1 X101.635 Y100.402 E2.22374
G1 X101.678 Y100.621 E2.23086
G1 X101.676 Y100.884 E2.23926
G1 X101.651 Y101.002 E2.24311
G1 X98.945 Y101.673 E2.33215
M106 S255

G1 X99.550 Y102.731 F7800.000
M106 S255

G1 F3600
G1 X100.070 Y102.602 E2.34927
G1 X100.514 Y102.417 E2.36464
G1 X100.865 Y102.221 E2.37747
G1 X101.177 Y101.963 E2.39040
G1 X101.406 Y101.684 E2.40195
G1 X101.384 Y101.672 E2.40275
G1 X97.856 Y102.547 E2.51881
G1 X97.618 Y102.374 E2.52820
G1 X97.404 Y102.659 E2.53958
G1 X97.370 Y102.667 E2.54071
G1 X97.160 Y102.574 E2.54803
G1 X96.827 Y102.362 E2.56065
G1 X96.709 Y102.227 E2.56637
G1 X99.179 Y101.615 E2.64762
G1 X99.010 Y101.489 E2.65433
G1 X98.822 Y101.494 E2.66036
G1 X98.589 Y101.425 E2.66809
G1 X98.475 Y101.186 E2.67656
G1 X96.415 Y101.697 E2.74435
G1 X96.292 Y101.123 E2.76308
G1 X99.042 Y100.441 E2.85356
G1 X96.880 Y100.373 E2.92264
G1 X96.363 Y100.502 E2.93964
M106 S255

G1 X97.284 Y99.259 F7800.000
M106 S255

G1 F3600
G1 X97.826 Y98.863 E2.96181
G1 X98.097 Y98.720 E2.97192
G1 X98.312 Y98.631 E2.97963
G1 X98.757 Y98.599 E2.99436
G1 X99.016 Y98.629 E3.00295
G1 X99.081 Y98.656 E3.00530
G1 X97.192 Y100.071 E3.08328
G1 X98.145 Y100.101 E3.11479
G1 X99.640 Y98.981 E3.17650
G1 X99.658 Y99.012 E3.17766
G1 X99.649 Y99.137 E3.18180
G1 X99.604 Y99.488 E3.19351
G1 X99.620 Y99.740 E3.20185
G1 X99.194 Y100.060 E3.21945
M106 S255

G1 Z6.000 F7800.000
G1 E1.21945 F2400.00000
G92 E0
G1 X97.915 Y104.209 F7800.000
G1 E2.00000 F2400.00000
M106 S255

G1 F3600
G1 X98.233 Y104.753 E2.01970
G1 X98.379 Y104.886 E2.02588
G1 X98.542 Y104.978 E2.03174
G1 X98.902 Y105.102 E2.04366
G1 X99.119 Y105.134 E2.05054
G1 X98.317 Y103.744 E2.10076
G1 X98.572 Y103.726 E2.10877
G1 X98.942 Y103.666 E2.12050
G1 X99.796 Y105.146 E2.17394
G1 X100.437 Y105.094 E2.19405
G1 X99.547 Y103.552 E2.24976
G1 X100.118 Y103.380 E2.26842
G1 X101.037 Y104.972 E2.32593
G1 X101.056 Y104.967 E2.32655
G1 X101.297 Y104.855 E2.33487
G1 X101.398 Y104.773 E2.33894
G1 X101.423 Y104.729 E2.34050
G1 X101.531 Y104.666 E2.34442
G1 X100.680 Y103.192 E2.39767
G1 X100.894 Y103.114 E2.40481
G1 X101.212 Y102.953 E2.41596
G1 X102.043 Y104.393 E2.46795
G1 X102.069 Y104.386 E2.46877
G1 X102.154 Y104.337 E2.47186
G1 X102.497 Y104.018 E2.48651
G1 X101.703 Y102.642 E2.53623
G1 X102.160 Y102.273 E2.55462
G1 X102.903 Y103.560 E2.60110
G1 X102.959 Y103.476 E2.60423
G1 X103.207 Y102.925 E2.62315
G1 X102.584 Y101.846 E2.66212
G1 X102.936 Y101.523 E2.67707
G1 X103.037 Y101.469 E2.68065
G1 X103.304 Y101.931 E2.69737
M106 S255

G1 E0.69737 F2400.00000
G92 E0
G1 X101.225 Y100.693 F7800.000
G1 E2.00000 F2400.00000
M106 S255

G1 F3600
G1 X100.956 Y100.227 E2.01537
G1 X100.824 Y100.109 E2.02042
G1 X100.777 Y100.108 E2.02178
G1 X100.701 Y100.167 E2.02451
G1 X100.484 Y100.525 E2.03645
G1 X101.264 Y101.876 E2.08099
G1 X101.121 Y102.198 E2.09106
G1 X100.945 Y102.436 E2.09952
G1 X100.205 Y101.155 E2.14177
G1 X100.039 Y101.366 E2.14943
G1 X99.869 Y101.458 E2.15496
G1 X99.754 Y101.488 E2.15834
G1 X100.524 Y102.822 E2.20232
G1 X100.289 Y102.980 E2.21041
G1 X100.041 Y103.099 E2.21826
G1 X99.109 Y101.485 E2.27148
G1 X98.838 Y101.459 E2.27924
G1 X98.678 Y101.413 E2.28399
G1 X98.462 Y101.272 E2.29138
G1 X98.309 Y101.212 E2.29608
G1 X99.455 Y103.198 E2.36157
G1 X99.087 Y103.153 E2.37215
G1 X99.053 Y103.292 E2.37623
G1 X98.872 Y103.301 E2.38140
G1 X96.839 Y99.781 E2.49747
G1 X96.647 Y100.248 E2.51189
G1 X96.593 Y100.468 E2.51836
G1 X98.159 Y103.181 E2.60783
G1 X97.754 Y103.088 E2.61971
G1 X97.370 Y102.789 E2.63361
G1 X97.119 Y102.493 E2.64469
G1 X96.842 Y102.014 E2.66049
M106 S255

G1 X98.575 Y101.673 F7800.000
M106 S255

G1 F3600
G1 X98.378 Y101.534 E2.66738
G1 X98.109 Y101.057 E2.68299
G1 X98.212 Y101.044 E2.68594
G1 X97.197 Y99.285 E2.74392
G1 X98.246 Y99.990 E2.78003
G1 X98.855 Y101.045 E2.81479
M106 S255

G1 X99.423 Y100.914 F7800.000
M106 S255

G1 F3600
G1 X98.950 Y100.094 E2.84181
G1 X99.117 Y100.014 E2.84711
G1 X99.381 Y99.822 E2.85644
G1 X99.212 Y100.241 E2.86936
G1 X99.337 Y100.310 E2.87343
G1 X99.157 Y100.453 E2.88001
M106 S255

G1 X99.436 Y98.943 F7800.000
M106 S255

G1 F3600
G1 X98.918 Y98.804 E2.90218
G1 X98.700 Y98.778 E2.91126
G1 X98.383 Y98.805 E2.92440
G1 X97.894 Y98.942 E2.94542
G1 X97.550 Y99.104 E2.96114
G1 X97.592 Y99.132 E2.96322
G1 X99.494 Y99.642 E3.04465
G1 X99.163 Y99.870 E3.06125
G1 X99.000 Y99.871 E3.06802
G1 X98.106 Y99.270 E3.11255
M106 S255

G1 Z6.500 F7800.000
G1 X98.344 Y99.526 F7800.000
M106 S255

G1 F3600
G1 X98.831 Y99.312 E3.12905
G1 X99.183 Y99.190 E3.14061
G1 X99.381 Y99.156 E3.14682
G1 X99.625 Y99.147 E3.15441
G1 X99.940 Y99.196 E3.16427
G1 X100.164 Y99.283 E3.17173
G1 X100.219 Y99.331 E3.17399
G1 X97.983 Y100.318 E3.24976
G1 X98.065 Y100.398 E3.25332
G1 X98.616 Y100.577 E3.27129
G1 X98.683 Y100.641 E3.27415
G1 X100.342 Y99.909 E3.33038
G1 X100.504 Y99.901 E3.33540
G1 X100.507 Y100.047 E3.33992
G1 X100.475 Y100.131 E3.34271
G1 X100.276 Y100.475 E3.35503
G1 X100.219 Y100.527 E3.35742
G1 X99.949 Y100.660 E3.36677
G1 X99.658 Y100.843 E3.37740
G1 X99.162 Y101.062 E3.39423
M106 S255

G1 X100.594 Y101.662 F7800.000
M106 S255

G1 F3600
G1 X100.607 Y101.567 E3.39718
G1 X100.581 Y101.350 E3.40396
G1 X100.047 Y101.816 E3.42594
G1 X99.763 Y102.018 E3.43674
G1 X101.081 Y101.447 E3.48127
G1 X101.062 Y101.584 E3.48557
G1 X100.958 Y101.872 E3.49506
G1 X100.695 Y102.257 E3.50952
G1 X100.552 Y102.402 E3.51583
G1 X100.064 Y102.617 E3.53234
M106 S255

G1 X99.604 Y102.955 F7800.000
M106 S255

G1 F3600
G1 X100.094 Y102.739 E3.54894
G1 X100.369 Y102.554 E3.55919
G1 X100.523 Y102.425 E3.56544
G1 X100.076 Y102.373 E3.57939
G1 X100.073 Y102.287 E3.58207
G1 X99.983 Y102.235 E3.58529
G1 X100.033 Y102.123 E3.58910
G1 X97.886 Y103.070 E3.66185
G1 X97.514 Y102.904 E3.67448
G1 X97.243 Y102.710 E3.68481
G1 X99.049 Y101.913 E3.74601
G1 X98.822 Y101.755 E3.75458
G1 X98.291 Y101.605 E3.77172
G1 X96.887 Y102.224 E3.81927
G1 X96.800 Y101.962 E3.82782
G1 X96.781 Y101.627 E3.83822
G1 X97.732 Y101.208 E3.87042
G1 X97.630 Y101.055 E3.87611
G1 X97.576 Y100.936 E3.88017
G1 X97.492 Y100.671 E3.88880
G1 X97.005 Y100.886 E3.90530
M106 S255

G1 Z7.000 F7800.000
G1 X97.991 Y102.592 F7800.000
M106 S255

G1 F3600
G1 X97.944 Y102.062 E3.92143
G1 X98.079 Y102.067 E3.92554
G1 X98.531 Y102.196 E3.93976
G1 X98.595 Y102.935 E3.96226
G1 X98.740 Y102.969 E3.96677
G1 X99.067 Y102.969 E3.97668
G1 X99.171 Y102.948 E3.97991
G1 X99.105 Y102.196 E4.00279
G1 X99.677 Y102.169 E4.02016
G1 X99.724 Y102.699 E4.03631
M106 S255

G1 X99.720 Y101.489 F7800.000
M106 S255

G1 F3600
G1 X99.553 Y99.571 E4.10326
G1 X99.306 Y99.599 E4.11188
G1 X99.111 Y99.667 E4.11908
G1 X98.956 Y99.747 E4.12513
G1 X99.120 Y101.615 E4.19033
G1 X98.850 Y101.536 E4.20010
G1 X98.496 Y101.475 E4.21260
G1 X98.367 Y100.006 E4.26386
G1 X98.009 Y100.069 E4.27651
G1 X98.085 Y100.190 E4.28149
G1 X97.812 Y100.256 E4.29128
G1 X97.789 Y100.395 E4.29618
G1 X97.836 Y100.925 E4.31469
M106 S255

G1 E2.31469 F2400.00000
G92 E0
G1 X100.262 Y100.692 F7800.000
G1 E2.00000 F2400.00000
M106 S255

G1 F3600
G1 X100.216 Y100.162 E2.01851
M106 S255

G1 Z7.500 F7800.000
G1 X99.805 Y100.643 F7800.000
M106 S255

G1 F3600
G1 X99.291 Y100.495 E2.03643
G1 X99.018 Y100.457 E2.04569
G1 X98.751 Y100.463 E2.05465
G1 X98.330 Y100.517 E2.06890
G1 X97.842 Y100.549 E2.08530
G1 X97.702 Y100.584 E2.09015
G1 X97.627 Y100.624 E2.09300
G1 X97.614 Y100.638 E2.09363
G1 X99.950 Y101.308 E2.17519
G1 X99.730 Y101.495 E2.18488
G1 X99.541 Y101.600 E2.19215
G1 X99.348 Y101.658 E2.19890
G1 X98.854 Y101.617 E2.21555
G1 X98.338 Y101.469 E2.23354
M106 S255

G1 E0.23354 F2400.00000
G92 E0
M107
; Filament-specific end gcode 
;END gcode for filament

M104 S0 ; turn off temperature
G28 X0  ; home X axis
M84     ; disable motors

M140 S0 ; set bed temperature
; filament used = 21.5mm (0.2cm3)
; total filament cost = 0.0

; avoid_crossing_perimeters = 0
; bed_shape = 0x0,200x0,200x200,0x200
; bed_temperature = 0
; before_layer_gcode = 
; between_objects_gcode = 
; bridge_acceleration = 0
; bridge_fan_speed = 100
; brim_connections_width = 0
; brim_width = 0
; complete_objects = 0
; cooling = 1
; default_acceleration = 0
; disable_fan_first_layers = 3
; duplicate_distance = 6
; end_filament_gcode = "; Filament-specific end gcode \n;END gcode for filament\n"
; end_gcode = M104 S0 ; turn off temperature\nG28 X0  ; home X axis\nM84     ; disable motors\n
; extruder_clearance_height = 20
; extruder_clearance_radius = 20
; extruder_offset = 0x0
; extrusion_axis = E
; extrusion_multiplier = 1
; fan_always_on = 0
; fan_below_layer_time = 60
; filament_colour = #FFFFFF
; filament_cost = 0
; filament_density = 0
; filament_diameter = 3
; filament_max_volumetric_speed = 0
; filament_notes = ""
; first_layer_acceleration = 0
; first_layer_bed_temperature = 0
; first_layer_extrusion_width = 200%
; first_layer_speed = 30
; first_layer_temperature = 205
; gcode_arcs = 0
; gcode_comments = 0
; gcode_flavor = reprap
; has_heatbed = 1
; infill_acceleration = 0
; infill_first = 0
; interior_brim_width = 0
; layer_gcode = 
; max_fan_speed = 100
; max_layer_height = 0.3
; max_print_speed = 80
; max_volumetric_speed = 0
; min_fan_speed = 35
; min_layer_height = 0.15
; min_print_speed = 10
; min_skirt_length = 0
; notes = 
; nozzle_diameter = 0.5
; only_retract_when_crossing_perimeters = 1
; ooze_prevention = 0
; output_filename_format = [input_filename_base].gcode
; perimeter_acceleration = 0
; post_process = 
; pressure_advance = 0
; printer_notes = 
; resolution = 0
; retract_before_travel = 2
; retract_layer_change = 0
; retract_length = 2
; retract_length_toolchange = 10
; retract_lift = 0
; retract_lift_above = 0
; retract_lift_below = 0
; retract_restart_extra = 0
; retract_restart_extra_toolchange = 0
; retract_speed = 40
; skirt_distance = 6
; skirt_height = 1
; skirts = 0
; slowdown_below_layer_time = 5
; spiral_vase = 0
; standby_temperature_delta = -5
; start_filament_gcode = "; Filament gcode\n"
; start_gcode = G28 ; home all axes\nG1 Z5 F5000 ; lift nozzle\n
; temperature = 200
; threads = 8
; toolchange_gcode = 
; travel_speed = 130
; use_firmware_retraction = 0
; use_relative_e_distances = 0
; use_set_and_wait_bed = 0
; use_set_and_wait_extruder = 0
; use_volumetric_e = 0
; vibration_limit = 0
; wipe = 0
; z_offset = 0
; z_steps_per_mm = 0
; adaptive_slicing = 0
; adaptive_slicing_quality = 75%
; dont_support_bridges = 1
; extrusion_width = 0
; first_layer_height = 0.5
; infill_only_where_needed = 0
; interface_shells = 0
; layer_height = 0.5
; match_horizontal_surfaces = 0
; raft_layers = 0
; regions_overlap = 0
; seam_position = aligned
; sequential_print_priority = 0
; support_material = 0
; support_material_angle = 0
; support_material_buildplate_only = 0
; support_material_contact_distance = 0.2
; support_material_enforce_layers = 0
; support_material_extruder = 1
; support_material_extrusion_width = 0
; support_material_interface_extruder = 1
; support_material_interface_extrusion_width = 0
; support_material_interface_layers = 3
; support_material_interface_spacing = 0
; support_material_interface_speed = 100%
; support_material_max_layers = 0
; support_material_pattern = pillars
; support_material_spacing = 2.5
; support_material_speed = 60
; support_material_threshold = 60%
; xy_size_compensation = 0
; bottom_infill_pattern = rectilinear
; bottom_solid_layers = 3
; bridge_flow_ratio = 1
; bridge_speed = 60
; external_perimeter_extrusion_width = 0
; external_perimeter_speed = 50%
; external_perimeters_first = 0
; extra_perimeters = 1
; fill_angle = 45
; fill_density = 20%
; fill_gaps = 1
; fill_pattern = rectilinear
; gap_fill_speed = 20
; infill_every_layers = 1
; infill_extruder = 1
; infill_extrusion_width = 0
; infill_overlap = 55%
; infill_speed = 80
; overhangs = 1
; perimeter_extruder = 1
; perimeter_extrusion_width = 0
; perimeter_speed = 60
; perimeters = 0
; small_perimeter_speed = 15
; solid_infill_below_area = 70
; solid_infill_every_layers = 0
; solid_infill_extruder = 1
; solid_infill_extrusion_width = 0
; solid_infill_speed = 20
; thin_walls = 1
; top_infill_extrusion_width = 0
; top_infill_pattern = rectilinear
; top_solid_infill_speed = 15
; top_solid_layers = 3
