; generated by Slic3r 1.3.0 on 2020-03-03 at 17:04:05

; external perimeters extrusion width = 0.55mm (6.64mm^3/s)
; perimeters extrusion width = 0.52mm (12.53mm^3/s)
; infill extrusion width = 0.52mm (16.71mm^3/s)
; solid infill extrusion width = 0.52mm (4.18mm^3/s)
; top infill extrusion width = 0.52mm (3.13mm^3/s)

M107
M104 S205 ; set temperature
G28 ; home all axes
G1 Z5 F5000 ; lift nozzle

; Filament gcode

M109 S205 ; set temperature and wait for it to be reached
G21 ; set units to millimeters
G90 ; use absolute coordinates
M82 ; use absolute distances for extrusion
G92 E0
G1 Z1.000 F7800.000
G1 E-2.00000 F2400.00000
G92 E0
G1 X98.499 Y105.531 F7800.000
G1 E2.00000 F2400.00000
G1 F600
G1 X97.502 Y102.142 E2.14823
G1 F600
G1 X97.481 Y102.082 E2.15004
G1 F600
G1 X97.457 Y102.012 E2.15161
G1 F600
G1 X97.362 Y101.873 E2.15332
G1 X97.359 Y101.877 F7800.000
G1 F600
G1 X98.938 Y105.641 E2.49626
G1 X98.921 Y105.642 F7800.000
G1 F600
G1 X97.287 Y102.208 E3.02038
G1 X97.334 Y102.943 F7800.000
G1 F600
G1 X98.675 Y105.047 E3.30745
G1 F600
G1 X98.806 Y105.180 E3.32636
G1 F600
G1 X98.890 Y105.213 E3.33462
G1 X99.006 Y105.223 E3.34525
G1 F600
G1 X99.248 Y105.223 E3.36545
G1 X99.367 Y105.175 E3.37610
G1 F600
G1 X99.486 Y105.126 E3.38791
G1 X99.533 Y105.085 E3.39366
G1 F600
G1 X99.627 Y105.004 E3.40648
G1 F600
G1 X99.697 Y104.894 E3.42132
G1 F600
G1 X99.748 Y104.792 E3.43543
G1 F600
G1 X100.320 Y103.194 E3.66178
G1 E1.66178 F2400.00000
G92 E0
G1 X98.297 Y104.307 F7800.000
G1 E2.00000 F2400.00000
G1 F600
G1 X98.335 Y104.375 E2.01366
G1 E0.01366 F2400.00000
G92 E0
G1 X97.497 Y97.185 F7800.000
G1 E2.00000 F2400.00000
G1 F600
G1 X97.075 Y98.556 E2.02543
G1 F600
G1 X97.002 Y98.810 E2.02715
G1 X97.082 Y98.738 F7800.000
G1 F600
G1 X97.160 Y98.182 E2.04071
G1 X97.266 Y97.755 E2.05133
G1 F600
G1 X97.408 Y97.387 E2.05735
G1 F600
G1 X97.482 Y97.252 E2.05797
G1 E0.05797 F2400.00000
G92 E0
G1 X102.937 Y95.832 F7800.000
G1 E2.00000 F2400.00000
G1 F600
G1 X103.127 Y96.804 E2.19108
G1 F600
G1 X103.222 Y97.290 E2.29191
G1 X103.248 Y97.840 E2.40384
G1 F600
G1 X103.232 Y98.134 E2.46591
G1 X103.185 Y98.471 E2.53750
G1 F600
G1 X103.106 Y98.806 E2.60696
G1 F600
G1 X103.050 Y98.975 E2.64169
G1 X102.446 Y100.289 E2.92257
M104 S200 ; set temperature
G1 Z1.500 F7800.000
G1 E0.92257 F2400.00000
G92 E0
G1 X98.367 Y104.163 F7800.000
G1 E2.00000 F2400.00000
G1 F1453.02
G1 X99.441 Y104.374 E2.03234
G1 X99.718 Y103.937 E2.04763
G1 X99.939 Y103.895 E2.05427
G1 X99.963 Y104.089 E2.06004
G1 X99.919 Y104.521 E2.07287
G1 X99.800 Y105.043 E2.08871
G1 X99.691 Y105.339 E2.09802
G1 X99.293 Y105.087 E2.11195
G1 X98.647 Y104.980 E2.13130
G1 X98.341 Y104.486 E2.14844
G1 X97.828 Y103.983 E2.16967
G1 X97.765 Y103.846 E2.17411
G1 X97.741 Y103.584 E2.18191
G1 X97.637 Y103.262 E2.19190
G1 X97.263 Y102.695 E2.21199
G1 X97.034 Y102.235 E2.22717

G1 F3600
G1 X96.730 Y101.400 E2.25185
G1 X96.566 Y100.767 E2.27002
G1 X96.514 Y100.491 E2.27781
G1 X96.449 Y99.745 E2.29862
G1 X96.462 Y99.295 E2.31111
G1 X96.500 Y98.868 E2.32303
G1 X96.700 Y97.911 E2.35018
G1 X96.854 Y97.457 E2.36349
G1 X97.196 Y96.760 E2.38508
G1 X97.350 Y96.501 E2.39343
G1 X97.558 Y96.211 E2.40336
G1 X97.800 Y95.939 E2.41347
G1 X98.085 Y95.665 E2.42446
G1 X98.431 Y95.376 E2.43696
G1 X98.726 Y95.183 E2.44676
G1 X99.024 Y95.030 E2.45606
G1 X99.384 Y94.878 E2.46691
G1 X100.017 Y94.714 E2.48507
G1 X100.371 Y94.695 E2.49494
G1 X101.200 Y94.726 E2.51797
G1 X101.712 Y94.812 E2.53240
G1 X101.937 Y94.882 E2.53894
G1 X102.399 Y95.085 E2.55295
G1 X102.597 Y95.196 E2.55925
G1 X102.794 Y95.337 E2.56598
G1 X103.054 Y95.599 E2.57625

G1 F1453.02
G1 X103.477 Y96.173 E2.59731
G1 X103.615 Y96.436 E2.60607
G1 X103.719 Y96.719 E2.61500
G1 X103.780 Y97.037 E2.62455
G1 X103.816 Y97.457 E2.63701
G1 X103.809 Y97.765 E2.64613
G1 X103.757 Y98.295 E2.66187
G1 X103.710 Y98.571 E2.67014
G1 X103.499 Y99.243 E2.69095
G1 X103.392 Y99.486 E2.69878
G1 X103.114 Y99.916 E2.71391
G1 X102.796 Y100.201 E2.72654
G1 X102.558 Y100.363 E2.73506
G1 X102.065 Y100.556 E2.75067

G1 F3600
G1 X101.558 Y100.671 E2.76512
G1 X101.228 Y100.653 E2.77432
G1 X100.857 Y100.555 E2.78495
G1 X100.501 Y100.378 E2.79600
G1 X101.205 Y100.185 E2.81627
G1 X101.398 Y100.092 E2.82221
G1 X101.748 Y99.871 E2.83371

G1 F1453.02
G1 X102.638 Y99.151 E2.86753
G1 X102.739 Y98.750 E2.87976
G1 X102.768 Y98.425 E2.88940
G1 X102.876 Y98.026 E2.90162
G1 X102.919 Y97.591 E2.91454
G1 X102.826 Y97.188 E2.92674
G1 X102.708 Y97.057 E2.93197
G1 X102.649 Y96.805 E2.93960
G1 X102.327 Y96.212 E2.95956
G1 X102.245 Y96.011 E2.96595
G1 X102.174 Y96.006 E2.96804

G1 F3600
G1 X101.815 Y95.975 E2.97805
G1 X101.637 Y95.820 E2.98462
G1 X101.535 Y95.561 E2.99235
G1 X100.565 Y95.295 E3.02030
G1 X100.484 Y95.458 E3.02535
G1 X100.292 Y95.419 E3.03079
G1 X99.763 Y95.458 E3.04551
G1 X99.478 Y95.534 E3.05371
G1 X98.959 Y95.762 E3.06947
G1 X98.710 Y95.959 E3.07830
G1 X98.643 Y95.981 E3.08024
G1 X98.118 Y96.446 E3.09972
G1 X97.936 Y96.713 E3.10870
G1 X97.776 Y97.042 E3.11886

G1 F1453.02
G1 X97.591 Y97.324 E3.12883
G1 X97.397 Y97.729 E3.14210
G1 X97.303 Y98.026 E3.15131
G1 X97.194 Y98.631 E3.16948
G1 X97.157 Y99.050 E3.18189

G1 F3600
G1 X97.167 Y99.428 E3.19240
G1 X97.207 Y99.803 E3.20288
G1 X97.195 Y100.204 E3.21401
G1 X97.245 Y100.517 E3.22283
G1 X97.428 Y101.295 E3.24503
G1 X97.543 Y101.611 E3.25436

G1 F1453.02
G1 X97.737 Y102.142 E3.27105
G1 X98.139 Y102.913 E3.29676
G1 X98.310 Y103.301 E3.30928
G1 X98.361 Y104.088 E3.33259
G1 X98.771 Y103.804 F7800.000
G1 F1800
G1 X99.235 Y103.895 E3.34740
G1 X99.385 Y103.660 E3.35614
G1 X99.455 Y103.592 E3.35919
G1 X99.580 Y103.526 E3.36363
G1 X99.880 Y103.469 E3.37317
G1 X100.047 Y103.488 E3.37844
G1 X100.173 Y103.553 E3.38289
G1 X100.298 Y103.690 E3.38871
G1 X100.365 Y103.834 E3.39368
G1 X100.396 Y104.084 E3.40157
G1 X100.345 Y104.591 E3.41752
G1 X100.213 Y105.166 E3.43601
G1 X100.102 Y105.466 E3.44602
G1 X100.029 Y105.606 E3.45096

G1 F3600
G1 X99.970 Y105.679 E3.45357
G1 X99.793 Y105.753 E3.45889
G1 X99.693 Y105.759 E3.46168

G1 F1800
G1 X99.478 Y105.714 E3.46855
G1 X99.136 Y105.497 E3.48124
G1 X98.778 Y105.437 E3.49262
G1 X98.646 Y105.795 E3.50454
G1 X98.004 Y104.759 E3.54271
G1 X97.547 Y104.318 E3.56258
G1 X97.460 Y104.213 E3.56684
G1 X97.344 Y103.959 E3.57560
G1 X97.317 Y103.670 E3.58468
G1 X97.246 Y103.450 E3.59193
G1 X97.148 Y103.301 E3.59751

G1 F3600
G1 X96.889 Y102.910 E3.61054
G1 X96.588 Y102.305 E3.62930
G1 X96.318 Y101.524 E3.65226
G1 X96.146 Y100.860 E3.67132
G1 X96.087 Y100.549 E3.68010
G1 X96.018 Y99.757 E3.70220
G1 X96.032 Y99.270 E3.71574
G1 X96.074 Y98.804 E3.72872
G1 X96.283 Y97.808 E3.75700
G1 X96.459 Y97.285 E3.77232
G1 X96.818 Y96.555 E3.79492
G1 X96.989 Y96.265 E3.80427
G1 X97.222 Y95.942 E3.81535
G1 X97.490 Y95.640 E3.82655
G1 X97.798 Y95.344 E3.83842
G1 X98.174 Y95.029 E3.85205
G1 X98.510 Y94.811 E3.86317
G1 X98.841 Y94.640 E3.87353
G1 X99.239 Y94.473 E3.88551
G1 X99.608 Y94.363 E3.89621
G1 X99.959 Y94.287 E3.90618
G1 X100.368 Y94.264 E3.91756
G1 X101.244 Y94.297 E3.94191
G1 X101.812 Y94.393 E3.95791
G1 X102.088 Y94.478 E3.96594
G1 X102.591 Y94.699 E3.98120
G1 X102.828 Y94.832 E3.98875
G1 X103.071 Y95.006 E3.99704
G1 X103.350 Y95.278 E4.00786
G1 X103.678 Y95.700 E4.02272
G1 X103.847 Y95.952 E4.03115
G1 X104.008 Y96.260 E4.04081
G1 X104.152 Y96.689 E4.05337

G1 F1800
G1 X104.206 Y96.978 E4.06257
G1 X104.247 Y97.443 E4.07720
G1 X104.238 Y97.791 E4.08811
G1 X104.184 Y98.353 E4.10576
G1 X104.130 Y98.667 E4.11577
G1 X103.901 Y99.399 E4.13978
G1 X103.772 Y99.691 E4.14976
G1 X103.676 Y99.839 E4.15527

G1 F3600
G1 X103.453 Y100.185 E4.16673
G1 X103.319 Y100.323 E4.17206
G1 X103.056 Y100.545 E4.18161
G1 X102.773 Y100.737 E4.19113
G1 X102.575 Y100.832 E4.19723
G1 X102.240 Y100.954 E4.20713
G1 X101.847 Y101.058 E4.21842
G1 X101.607 Y101.100 E4.22517
G1 X101.449 Y101.109 E4.22959
G1 X101.160 Y101.078 E4.23765
G1 X100.898 Y101.022 E4.24510
G1 X100.693 Y100.954 E4.25111
G1 X100.500 Y100.858 E4.25709
G1 X100.329 Y100.742 E4.26283
G1 X100.151 Y100.590 E4.26934
G1 X100.043 Y100.445 E4.27434
G1 X99.935 Y100.160 E4.28281
G1 X99.918 Y99.990 E4.28755
G1 X100.605 Y99.903 E4.30678
G1 X101.054 Y99.780 E4.31971
G1 X101.189 Y99.715 E4.32388
G1 X101.512 Y99.511 E4.33448
G1 X101.943 Y99.161 E4.34992

G1 F1800
G1 X102.255 Y98.908 E4.36251
G1 X102.313 Y98.678 E4.36993
G1 X102.343 Y98.349 E4.38028
G1 X102.452 Y97.948 E4.39328
G1 X102.484 Y97.619 E4.40364
G1 X102.432 Y97.394 E4.41088
G1 X102.314 Y97.263 E4.41639
G1 X102.243 Y96.960 E4.42614
G1 X102.141 Y96.771 E4.43285

G1 F3600
G1 X102.092 Y96.681 E4.43570
G1 X102.054 Y96.679 E4.43677
G1 X101.946 Y96.418 E4.44460
G1 X101.639 Y96.392 E4.45317
G1 X101.275 Y96.075 E4.46658
G1 X101.213 Y95.919 E4.47125
G1 X100.793 Y95.804 E4.48336
G1 X100.722 Y95.946 E4.48778
G1 X100.264 Y95.853 E4.50075
G1 X99.835 Y95.884 E4.51271
G1 X99.621 Y95.941 E4.51887
G1 X99.182 Y96.133 E4.53217
G1 X98.917 Y96.344 E4.54156
G1 X98.862 Y96.362 E4.54318
G1 X98.443 Y96.733 E4.55872
G1 X98.311 Y96.927 E4.56525
G1 X98.173 Y97.221 E4.57427
G1 X97.966 Y97.536 E4.58474
G1 X97.798 Y97.887 E4.59556
G1 X97.721 Y98.130 E4.60262
G1 X97.620 Y98.690 E4.61843
G1 X97.587 Y99.039 E4.62818
G1 X97.597 Y99.400 E4.63820
G1 X97.638 Y99.787 E4.64901
G1 X97.626 Y100.176 E4.65982
G1 X97.668 Y100.434 E4.66708
G1 X97.841 Y101.172 E4.68814
G1 X98.131 Y101.968 E4.71166
G1 X98.414 Y102.510 E4.72866

G1 F1800
G1 X98.753 Y103.211 E4.75303
G1 X98.737 Y103.350 E4.75741
G1 X98.766 Y103.729 E4.76933
G1 X98.715 Y104.274 F7800.000
G1 X98.127 Y103.990 F7800.000
G1 F600
G1 X98.065 Y103.835 E4.76966
G1 F600
G1 X97.995 Y103.356 E4.77270
G1 X97.863 Y103.046 E4.77482
G1 F600
G1 X97.426 Y102.270 E4.78549
G1 X97.311 Y102.002 E4.78899
G1 X97.093 Y101.387 E4.79681
G1 F600
G1 X96.870 Y100.442 E4.81214
G1 X96.843 Y100.213 E4.81577
G1 X96.813 Y99.457 E4.82772
G1 F600
G1 X96.823 Y99.006 E4.83230
G1 X96.880 Y98.593 E4.83653
G1 F600
G1 X97.005 Y97.959 E4.84047
G1 X97.118 Y97.612 E4.84270
G1 X97.331 Y97.170 E4.84570
G1 X97.670 Y96.570 E4.84991
G1 X97.896 Y96.263 E4.85224
G1 X98.013 Y96.144 E4.85326
G1 X98.476 Y95.728 E4.85706
G1 X98.811 Y95.493 E4.85956
G1 F600
G1 X99.365 Y95.234 E4.86571
G1 X99.719 Y95.127 E4.86944
G1 F600
G1 X100.065 Y95.074 E4.87424
G1 X100.280 Y95.060 E4.87719
G1 X100.296 Y95.084 E4.87758
G1 F600
G1 X100.372 Y95.213 E4.87866
G1 X100.001 Y95.231 F7800.000
G1 F600
G1 X100.374 Y94.999 E4.88225
G1 X100.473 Y94.979 E4.88307
G1 X100.818 Y95.032 E4.88593
G1 F600
G1 X101.163 Y95.085 E4.89076
G1 F600
G1 X101.623 Y95.187 E4.89910
G1 X101.801 Y95.246 E4.90243
G1 F600
G1 X101.883 Y95.312 E4.90470
G1 X102.352 Y95.298 F7800.000
G1 F600
G1 X102.920 Y96.248 E4.93885
G1 F600
G1 X103.114 Y96.585 E4.95271
G1 X103.286 Y97.027 E4.96962
G1 F600
G1 X103.360 Y97.471 E4.98369
G1 F600
G1 X103.358 Y97.738 E4.99101
G1 X103.318 Y98.127 E5.00175
G1 X103.179 Y98.806 E5.02075
G1 X103.098 Y99.088 E5.02877
G1 F600
G1 X103.016 Y99.318 E5.03458
G1 X102.948 Y99.424 E5.03755
G1 X102.714 Y99.675 E5.04571
G1 F600
G1 X102.334 Y99.974 E5.05905
G1 X102.119 Y100.103 E5.06596
G1 F600
G1 X101.979 Y100.180 E5.06932
G1 F600
G1 X101.684 Y100.309 E5.07489
G1 F600
G1 X101.552 Y100.360 E5.07636
G1 F600
G1 X101.241 Y100.442 E5.07845
G1 E3.07845 F2400.00000
G92 E0
G1 X99.671 Y104.480 F7800.000
G1 E2.00000 F2400.00000
G1 F600
G1 X99.602 Y104.646 E2.00010
G1 F600
G1 X99.543 Y104.709 E2.00061
G1 F600
G1 X99.497 Y104.752 E2.00135
G1 F600
G1 X99.480 Y104.763 E2.00167
G1 X98.658 Y104.602 E2.01489
G1 Z2.000 F7800.000
G1 X98.441 Y104.082 F7800.000
G1 F600
G1 X99.112 Y103.885 E2.03556
G1 X99.222 Y103.922 E2.03898
G1 X99.457 Y104.060 E2.04703
G1 X99.466 Y104.138 E2.04937
G1 X99.453 Y104.285 E2.05372
G1 X99.354 Y104.528 E2.06147
G1 X98.738 Y104.455 E2.07980
G1 X98.640 Y104.287 E2.08553
G1 X98.494 Y104.136 E2.09174
G1 X99.536 Y105.010 F7800.000
G1 F2330.26
G1 X99.438 Y105.058 E2.09495
G1 X99.162 Y104.926 E2.10401
G1 X98.701 Y104.871 E2.11773
G1 X98.550 Y104.958 E2.12286
G1 X98.305 Y104.542 E2.13712
G1 X97.752 Y103.954 E2.16098
G1 X97.668 Y103.814 E2.16581
G1 X97.476 Y103.392 E2.17951
G1 X97.205 Y103.035 E2.19275
G1 X96.880 Y102.452 E2.21247
G1 X96.775 Y102.221 E2.21995
G1 X96.549 Y101.598 E2.23953
G1 X96.428 Y101.177 E2.25248
G1 X96.320 Y100.731 E2.26604
G1 X96.260 Y100.176 E2.28254
G1 X96.200 Y99.891 E2.29115
G1 X96.206 Y99.436 E2.30460
G1 X96.328 Y98.478 E2.33313
G1 X96.553 Y97.658 E2.35825
G1 X97.027 Y96.643 E2.39135
G1 X97.227 Y96.334 E2.40223
G1 X97.908 Y95.580 E2.43225
G1 X98.148 Y95.383 E2.44141
G1 X98.387 Y95.253 E2.44947
G1 X98.759 Y94.993 E2.46287
G1 X99.707 Y94.665 E2.49253
G1 X100.314 Y94.591 E2.51057
G1 X100.653 Y94.588 E2.52061
G1 X100.770 Y94.770 E2.52699
G1 X101.293 Y94.615 E2.54311
G1 X101.553 Y94.614 E2.55078
G1 X101.720 Y94.648 E2.55583
G1 X102.089 Y94.774 E2.56734
G1 X102.403 Y94.916 E2.57752
G1 X102.875 Y95.224 E2.59418
G1 X102.932 Y95.281 E2.59656
G1 X103.066 Y95.510 E2.60440
G1 X103.322 Y95.710 E2.61399
G1 X103.558 Y96.078 E2.62692
G1 X103.739 Y96.484 E2.64005
G1 X103.849 Y97.046 E2.65698
G1 X103.868 Y97.250 E2.66301
G1 X103.855 Y97.593 E2.67315
G1 X103.759 Y98.475 E2.69937
G1 X103.641 Y99.002 E2.71532
G1 X103.428 Y99.587 E2.73373
G1 X103.244 Y99.893 E2.74428
G1 X103.061 Y100.095 E2.75232
G1 X102.847 Y100.286 E2.76079
G1 X102.617 Y100.446 E2.76907
G1 X102.421 Y100.547 E2.77559
G1 X102.098 Y99.731 E2.80154
G1 X102.407 Y99.500 E2.81295
G1 X102.590 Y99.008 E2.82845
G1 X102.611 Y98.885 E2.83214
G1 X102.691 Y98.758 E2.83659
G1 X102.847 Y98.406 E2.84796
G1 X102.878 Y98.088 E2.85740
G1 X102.858 Y97.847 E2.86455
G1 X102.891 Y97.650 E2.87045
G1 X102.881 Y97.353 E2.87924
G1 X102.907 Y97.297 E2.88105
G1 X102.902 Y96.959 E2.89104
G1 X102.769 Y96.620 E2.90181
G1 X102.750 Y96.498 E2.90545
G1 X102.623 Y96.082 E2.91832
G1 X102.379 Y95.785 E2.92967
G1 X101.883 Y95.469 E2.94705
G1 X101.191 Y95.466 E2.96747
G1 X101.018 Y95.431 E2.97269
G1 X100.788 Y95.298 E2.98055
G1 X100.348 Y95.372 E2.99373
G1 X100.224 Y95.427 E2.99776
G1 X99.569 Y95.537 E3.01736
G1 X99.384 Y95.518 E3.02287
G1 X99.240 Y95.593 E3.02764
G1 X98.921 Y95.646 E3.03720
G1 X98.628 Y95.829 E3.04741
G1 X98.273 Y96.228 E3.06318
G1 X98.095 Y96.353 E3.06961
G1 X97.722 Y96.726 E3.08519
G1 X97.536 Y96.999 E3.09497
G1 X97.415 Y97.260 E3.10345
G1 X97.201 Y97.848 E3.12196
G1 X97.087 Y98.495 E3.14135
G1 X97.046 Y99.023 E3.15701
G1 X97.065 Y100.117 E3.18935
G1 X97.376 Y101.334 E3.22645
G1 X97.539 Y101.714 E3.23866
G1 X97.646 Y102.028 E3.24847
G1 X97.776 Y102.281 E3.25687
G1 X97.857 Y102.519 E3.26429
G1 X98.010 Y103.128 E3.28286
G1 X98.501 Y103.629 E3.30358
G1 X99.114 Y103.449 E3.32247
G1 X99.411 Y103.549 E3.33174
G1 X99.681 Y103.707 E3.34098
G1 X99.792 Y103.805 E3.34537
G1 X99.850 Y103.899 E3.34862
G1 X99.886 Y104.134 E3.35562
G1 X99.864 Y104.371 E3.36267
G1 X99.793 Y104.584 E3.36931
G1 X99.701 Y104.769 E3.37542
G1 X99.581 Y104.951 E3.38185
G1 E1.38185 F2400.00000
G92 E0
G1 X99.770 Y100.073 F7800.000
G1 E2.00000 F2400.00000
G1 F600
G1 X99.888 Y99.934 E2.00537
G1 X100.056 Y100.002 E2.01075
G1 X100.223 Y100.042 E2.01580
G1 X100.376 Y100.200 E2.02232
G1 X101.084 Y100.506 E2.04510
G1 X101.171 Y100.416 E2.04879
G1 X102.194 Y100.426 E2.07901
G1 X102.228 Y100.634 E2.08524
G1 X101.816 Y100.777 E2.09814
G1 X101.577 Y100.827 E2.10533
G1 X101.263 Y100.852 E2.11464
G1 X100.878 Y100.829 E2.12604
G1 X100.494 Y100.699 E2.13802
G1 X100.252 Y100.577 E2.14602
G1 X100.052 Y100.424 E2.15347
G1 X99.810 Y100.137 E2.16456
G1 X101.738 Y99.991 F7800.000
G1 F1800
G1 X101.551 Y99.519 E2.18046
G1 X101.698 Y99.384 E2.18674
G1 X101.848 Y99.381 E2.19142
G1 X102.048 Y99.231 E2.19925
G1 X102.173 Y98.897 E2.21040
G1 X102.200 Y98.728 E2.21576
G1 X102.311 Y98.554 E2.22223
G1 X102.426 Y98.295 E2.23109
G1 X102.446 Y98.085 E2.23770
G1 X102.425 Y97.829 E2.24576
G1 X102.460 Y97.621 E2.25235
G1 X102.455 Y97.463 E2.25732
G1 X102.411 Y97.348 E2.26116
G1 X102.475 Y97.206 E2.26605
G1 X102.473 Y97.044 E2.27115
G1 X102.302 Y96.609 E2.28578
G1 X102.313 Y96.562 E2.28728
G1 X102.234 Y96.286 E2.29627
G1 X102.090 Y96.111 E2.30336
G1 X101.756 Y95.899 E2.31574
G1 X101.386 Y95.897 E2.32734
G1 X101.304 Y96.113 E2.33456
G1 X101.103 Y95.887 E2.34403
G1 X100.864 Y95.838 E2.35166
G1 X100.707 Y95.748 E2.35734
G1 X100.473 Y95.787 E2.36476
G1 X100.198 Y95.909 E2.37417
G1 X99.952 Y95.931 E2.38193
G1 X99.638 Y95.989 E2.39191
G1 X99.645 Y95.961 E2.39282
G1 X99.468 Y95.959 E2.39836
G1 X99.378 Y96.006 E2.40151
G1 X99.076 Y96.056 E2.41110
G1 X98.904 Y96.164 E2.41745
G1 X98.647 Y96.442 E2.42931
G1 X98.605 Y96.521 E2.43213
G1 X98.373 Y96.684 E2.44100
G1 X98.055 Y97.001 E2.45506
G1 X97.912 Y97.213 E2.46307
G1 X97.813 Y97.425 E2.47039
G1 X97.618 Y97.960 E2.48822
G1 X97.515 Y98.549 E2.50694
G1 X97.477 Y99.036 E2.52225
G1 X97.494 Y100.060 E2.55432
G1 X97.784 Y101.195 E2.59100
G1 X97.941 Y101.559 E2.60343
G1 X98.043 Y101.860 E2.61336
G1 X98.173 Y102.112 E2.62225
G1 X98.270 Y102.397 E2.63166
G1 X98.399 Y102.910 E2.64824
G1 X98.628 Y103.144 E2.65847
G1 X99.072 Y103.013 E2.67297
G1 X99.269 Y103.046 E2.67925

G1 F3600
G1 X99.319 Y103.061 E2.68069

G1 F1800
G1 X99.607 Y103.164 E2.69026
G1 X99.935 Y103.357 E2.70218
G1 X100.126 Y103.526 E2.71016
G1 X100.243 Y103.717 E2.71717
G1 X100.287 Y103.850 E2.72157
G1 X100.318 Y104.129 E2.73035
G1 X100.288 Y104.460 E2.74076
G1 X100.191 Y104.749 E2.75032
G1 X100.076 Y104.982 E2.75844
G1 X99.867 Y105.285 E2.76998
G1 X99.773 Y105.373 E2.77400
G1 X99.593 Y105.461 E2.78028
G1 X99.419 Y105.485 E2.78578
G1 X99.283 Y105.461 E2.79009
G1 X99.040 Y105.345 E2.79855
G1 X98.792 Y105.315 E2.80636
G1 X98.589 Y105.433 E2.81371
G1 X98.495 Y105.578 E2.81913
G1 X98.354 Y105.444 E2.82522
G1 X98.271 Y105.331 E2.82960
G1 X97.961 Y104.805 E2.84873
G1 X97.518 Y104.348 E2.86864
G1 X97.399 Y104.202 E2.87455
G1 X97.287 Y104.015 E2.88138
G1 X97.104 Y103.614 E2.89518
G1 X96.848 Y103.276 E2.90847
G1 X96.494 Y102.643 E2.93115
G1 X96.376 Y102.384 E2.94007
G1 X96.140 Y101.732 E2.96181
G1 X95.895 Y100.805 E2.99181
G1 X95.835 Y100.244 E3.00950
G1 X95.773 Y99.948 E3.01896
G1 X95.761 Y99.742 E3.02541
G1 X95.778 Y99.398 E3.03621
G1 X95.905 Y98.393 E3.06792
G1 X96.148 Y97.509 E3.09664
G1 X96.649 Y96.434 E3.13379
G1 X96.884 Y96.071 E3.14733
G1 X97.610 Y95.268 E3.18122
G1 X97.906 Y95.024 E3.19323
G1 X98.161 Y94.887 E3.20229
G1 X98.544 Y94.618 E3.21695
G1 X98.707 Y94.543 E3.22257
G1 X99.613 Y94.243 E3.25245
G1 X100.527 Y94.148 E3.28121
G1 X100.899 Y94.173 E3.29289
G1 X100.958 Y94.266 E3.29632
G1 X101.230 Y94.185 E3.30521
G1 X101.595 Y94.183 E3.31664
G1 X101.833 Y94.232 E3.32426
G1 X102.247 Y94.374 E3.33796
G1 X102.610 Y94.537 E3.35042
G1 X103.148 Y94.888 E3.37053
G1 X103.275 Y95.016 E3.37618
G1 X103.396 Y95.221 E3.38364
G1 X103.668 Y95.452 E3.39479
G1 X103.935 Y95.869 E3.41031
G1 X104.154 Y96.367 E3.42735
G1 X104.276 Y96.985 E3.44707
G1 X104.299 Y97.238 E3.45503
G1 X104.284 Y97.631 E3.46734
G1 X104.227 Y98.035 E3.48011
G1 X104.185 Y98.540 E3.49599
G1 X104.056 Y99.117 E3.51451
G1 X103.813 Y99.782 E3.53667
G1 X103.591 Y100.151 E3.55015
G1 X103.365 Y100.401 E3.56072
G1 X103.114 Y100.624 E3.57122
G1 X102.840 Y100.815 E3.58168
G1 X102.344 Y101.049 E3.59886
G1 X101.930 Y101.192 E3.61257
G1 X101.639 Y101.253 E3.62190
G1 X101.275 Y101.282 E3.63332
G1 X100.944 Y101.274 E3.64369
G1 X100.775 Y101.248 E3.64905
G1 X100.327 Y101.096 E3.66386
G1 X100.023 Y100.943 E3.67452
G1 X99.755 Y100.739 E3.68506
G1 X99.441 Y100.358 E3.70053

G1 F3600
G1 X99.212 Y99.989 E3.71259
G1 X99.082 Y99.645 E3.72280
G1 X99.039 Y99.289 E3.73277
G1 X99.068 Y98.954 E3.74210
G1 X99.237 Y98.583 E3.75343
G1 X99.660 Y99.274 E3.77594
G1 X99.829 Y99.447 E3.78266
G1 X99.864 Y99.461 E3.78369

G1 F1800
G1 X100.187 Y99.591 E3.79462
G1 X100.444 Y99.652 E3.80288
G1 X100.625 Y99.839 E3.81103
G1 X100.983 Y99.993 E3.82322
G1 X101.663 Y99.991 E3.84452
G1 X102.222 Y99.866 F7800.000
G1 X102.444 Y100.038 F7800.000
G1 F776.754
G1 X102.718 Y99.814 E3.85355
G1 X102.804 Y99.713 E3.85692
G1 F776.754
G1 X102.925 Y99.488 E3.86440
G1 F776.754
G1 X103.047 Y99.207 E3.87443
G1 X103.275 Y98.559 E3.89697
G1 F776.754
G1 X103.306 Y98.405 E3.90119
G1 X103.337 Y97.867 E3.91573
G1 X103.367 Y97.656 E3.92150
G1 F776.754
G1 X103.387 Y97.263 E3.93383
G1 X103.358 Y96.915 E3.94480
G1 F776.754
G1 X103.278 Y96.614 E3.95334
G1 X103.137 Y96.250 E3.96405
G1 X102.636 Y95.513 F7800.000
G1 F776.754
G1 X102.223 Y95.244 E3.97170
G1 X102.023 Y95.136 E3.97523
G1 X101.833 Y95.088 E3.97827
G1 F776.754
G1 X101.610 Y95.051 E3.98262
G1 F776.754
G1 X101.356 Y95.041 E3.98854
G1 X100.878 Y95.109 E3.99975
G1 X101.079 Y94.896 F7800.000
G1 F776.754
G1 X100.348 Y94.978 E4.01287
G1 X100.104 Y95.031 E4.01732
G1 F776.754
G1 X99.800 Y95.075 E4.02410
G1 X99.556 Y95.135 E4.02962
G1 X98.007 Y95.990 F7800.000
G1 F776.754
G1 X97.485 Y96.517 E4.03860
G1 F776.754
G1 X97.266 Y96.855 E4.04159
G1 X96.871 Y97.775 E4.04904
G1 F776.754
G1 X96.718 Y98.456 E4.05803
G1 F776.754
G1 X96.654 Y99.020 E4.06747
G1 F776.754
G1 X96.630 Y99.473 E4.07682
G1 F776.754
G1 X96.629 Y99.834 E4.08553
G1 X96.659 Y100.103 E4.09208
G1 F776.754
G1 X96.710 Y100.425 E4.09868
G1 F776.754
G1 X96.751 Y100.656 E4.10449
G1 X96.962 Y101.464 E4.12513
G1 X97.237 Y102.183 E4.14416
G1 X97.493 Y102.729 E4.15906
G1 F776.754
G1 X97.529 Y102.816 E4.16096
G1 E2.16096 F2400.00000
G92 E0
G1 X99.522 Y100.034 F7800.000
G1 E2.00000 F2400.00000
G1 F776.754
G1 X99.287 Y99.139 E2.00185
G1 X99.265 Y99.172 F7800.000
G1 F776.754
G1 X99.597 Y99.945 E2.01020
M106 S255
G1 Z2.500 F7800.000
G1 E0.01020 F2400.00000
G92 E0
G1 X98.150 Y102.283 F7800.000
G1 E2.00000 F2400.00000
G1 F900
G1 X98.446 Y102.933 E2.02236
G1 X97.851 Y103.185 E2.04259
G1 X97.572 Y102.566 E2.06384
G1 X98.083 Y102.316 E2.08162
G1 X98.532 Y101.960 F7800.000
G1 X98.298 Y103.916 F7800.000
G1 F658.569
G1 X99.027 Y103.607 E2.10502
G1 X99.163 Y103.746 E2.11074
G1 X99.285 Y103.908 E2.11675
G1 X99.312 Y103.998 E2.11955
G1 X99.302 Y104.076 E2.12185
G1 X99.190 Y104.232 E2.12751
G1 X99.095 Y104.318 E2.13131
G1 X98.834 Y104.208 E2.13969
G1 X98.563 Y104.211 E2.14771
G1 X98.348 Y103.972 E2.15721
G1 X97.620 Y103.750 F7800.000
G1 F658.569
G1 X99.125 Y103.112 E2.20551
G1 X99.479 Y103.472 E2.22042
G1 X99.670 Y103.733 E2.22997
G1 X99.728 Y103.935 E2.23618
G1 X99.711 Y104.167 E2.24306
G1 X99.646 Y104.312 E2.24775
G1 X99.504 Y104.510 E2.25496
G1 X99.262 Y104.732 E2.26468
G1 X99.148 Y104.794 E2.26850
G1 X98.752 Y104.627 E2.28120
G1 X98.378 Y104.631 E2.29224
G1 X97.745 Y103.925 E2.32026
G1 X97.663 Y103.811 E2.32441
G1 X96.827 Y102.452 F7800.000
G1 F2634.28
G1 X96.592 Y101.894 E2.34228
G1 X96.351 Y101.174 E2.36472
G1 X96.216 Y100.216 E2.39332
G1 X96.147 Y99.886 E2.40329
G1 X96.146 Y99.543 E2.41340
G1 X96.244 Y98.614 E2.44100
G1 X96.336 Y98.178 E2.45416
G1 X96.466 Y97.742 E2.46762
G1 X96.875 Y96.788 E2.49827
G1 X97.100 Y96.405 E2.51140
G1 X97.305 Y96.113 E2.52195
G1 X97.611 Y95.790 E2.53511
G1 X98.076 Y95.417 E2.55271
G1 X98.252 Y95.349 E2.55829
G1 X98.487 Y95.190 E2.56668
G1 X98.778 Y95.053 E2.57616
G1 X98.913 Y94.932 E2.58153
G1 X99.011 Y94.880 E2.58480
G1 X99.643 Y94.701 E2.60420
G1 X100.478 Y94.595 E2.62909
G1 X101.111 Y94.659 E2.64787
G1 X101.426 Y94.619 E2.65724
G1 X101.565 Y94.619 E2.66137
G1 X101.969 Y94.731 E2.67376
G1 X102.279 Y94.864 E2.68372
G1 X102.699 Y95.141 E2.69859
G1 X102.940 Y95.344 E2.70791
G1 X103.164 Y95.578 E2.71746
G1 X103.353 Y95.848 E2.72721
G1 X103.555 Y96.266 E2.74092
G1 X103.645 Y96.590 E2.75086
G1 X103.720 Y97.110 E2.76638
G1 X103.728 Y97.339 E2.77313
G1 X103.642 Y98.290 E2.80136
G1 X103.589 Y98.631 E2.81156
G1 X103.430 Y99.246 E2.83033
G1 X103.322 Y99.550 E2.83984
G1 X103.236 Y99.722 E2.84553
G1 X103.026 Y100.008 E2.85600
G1 X102.910 Y100.140 E2.86119
G1 X102.575 Y100.402 E2.87378
G1 X102.373 Y100.534 E2.88090
G1 X102.030 Y100.700 E2.89216
G1 X101.575 Y100.839 E2.90622
G1 X101.304 Y100.880 E2.91431
G1 X101.053 Y100.891 E2.92173
G1 X100.765 Y100.871 E2.93026
G1 X100.560 Y100.831 E2.93643
G1 X100.172 Y100.664 E2.94893
G1 X99.851 Y100.458 E2.96021
G1 X99.617 Y100.252 E2.96940
G1 X99.425 Y100.023 E2.97822
G1 X99.157 Y99.572 E2.99371
G1 X99.183 Y99.575 E2.99448
G1 X99.101 Y99.213 E3.00546
G1 X99.336 Y99.158 E3.01258
G1 X99.459 Y99.606 E3.02631
G1 X100.006 Y99.667 E3.04255
G1 X100.290 Y99.879 E3.05305
G1 X100.635 Y99.954 E3.06346
G1 X101.419 Y99.878 E3.08675
G1 X101.853 Y99.759 E3.10005
G1 X102.211 Y99.536 E3.11251
G1 X102.555 Y99.142 E3.12796
G1 X102.789 Y98.740 E3.14170
G1 X102.924 Y98.264 E3.15631
G1 X102.961 Y97.767 E3.17105
G1 X102.910 Y97.347 E3.18354
G1 X102.781 Y96.934 E3.19633
G1 X102.579 Y96.488 E3.21080
G1 X102.416 Y96.185 E3.22098
G1 X102.214 Y95.967 E3.22974
G1 X101.913 Y95.759 E3.24054
G1 X101.561 Y95.576 E3.25227
G1 X101.264 Y95.475 E3.26153
G1 X100.912 Y95.399 E3.27219
G1 X100.489 Y95.364 E3.28473
G1 X100.078 Y95.385 E3.29688
G1 X99.388 Y95.548 E3.31783
G1 X98.705 Y95.825 E3.33961
G1 X98.324 Y96.081 E3.35316
G1 X98.173 Y96.253 E3.35994
G1 X97.700 Y96.692 E3.37899
G1 X97.516 Y96.918 E3.38760
G1 X97.011 Y97.740 E3.41611
G1 X96.857 Y98.267 E3.43233
G1 X96.712 Y99.268 E3.46222
G1 X96.724 Y99.494 E3.46889
G1 X96.683 Y99.741 E3.47631
G1 X96.728 Y100.335 E3.49391
G1 X96.816 Y100.521 E3.49998
G1 X96.850 Y100.683 E3.50487
G1 X96.949 Y100.863 E3.51095
G1 X96.985 Y101.038 E3.51624
G1 X97.090 Y101.148 E3.52071
G1 X97.117 Y101.334 E3.52628
G1 X97.344 Y101.533 E3.53518
G1 X97.647 Y102.050 E3.55290
G1 X96.895 Y102.419 E3.57765
G1 E1.57765 F2400.00000
G92 E0
G1 X99.796 Y99.211 F7800.000
G1 E2.00000 F2400.00000
G1 F1800
G1 X100.122 Y99.247 E2.01026
G1 X100.248 Y99.311 E2.01468
G1 X100.473 Y99.479 E2.02346
G1 X100.660 Y99.519 E2.02947
G1 X101.341 Y99.454 E2.05090
G1 X101.679 Y99.361 E2.06186
G1 X101.929 Y99.205 E2.07110
G1 X102.204 Y98.890 E2.08419
G1 X102.390 Y98.570 E2.09576
G1 X102.498 Y98.189 E2.10818
G1 X102.529 Y97.777 E2.12112
G1 X102.488 Y97.438 E2.13182
G1 X102.378 Y97.087 E2.14332
G1 X102.063 Y96.437 E2.16593
G1 X101.930 Y96.295 E2.17203
G1 X101.690 Y96.128 E2.18118
G1 X101.391 Y95.972 E2.19174
G1 X101.149 Y95.890 E2.19974
G1 X100.848 Y95.825 E2.20938
G1 X100.482 Y95.795 E2.22089
G1 X100.139 Y95.813 E2.23165
G1 X99.519 Y95.959 E2.25160
G1 X98.908 Y96.207 E2.27225
G1 X98.610 Y96.407 E2.28348
G1 X98.482 Y96.554 E2.28959
G1 X98.015 Y96.987 E2.30954
G1 X97.867 Y97.168 E2.31684
G1 X97.407 Y97.916 E2.34434
G1 X97.278 Y98.358 E2.35877
G1 X97.144 Y99.288 E2.38817
G1 X97.156 Y99.518 E2.39539
G1 X97.116 Y99.760 E2.40310
G1 X97.151 Y100.223 E2.41762
G1 X97.226 Y100.382 E2.42313
G1 X97.258 Y100.531 E2.42792
G1 X97.357 Y100.713 E2.43439
G1 X97.381 Y100.830 E2.43813
G1 X97.500 Y100.978 E2.44409
G1 X97.520 Y101.116 E2.44843
G1 X97.680 Y101.256 E2.45508
G1 X97.910 Y101.648 E2.46932
G1 X98.170 Y101.832 E2.47932
G1 X98.580 Y102.190 E2.49634
G1 X98.799 Y102.351 E2.50487
M106 S255

G1 F3600
G1 X98.988 Y102.490 E2.51138
M106 S255

G1 F1800
G1 X99.458 Y102.837 E2.52969
G1 X99.805 Y103.190 E2.54518
G1 X99.999 Y103.446 E2.55523
G1 X100.067 Y103.560 E2.55940
G1 X100.154 Y103.858 E2.56912
G1 X100.165 Y104.011 E2.57392
G1 X100.131 Y104.272 E2.58217
G1 X100.012 Y104.540 E2.59137
G1 X99.828 Y104.797 E2.60127
G1 X99.513 Y105.085 E2.61462
G1 X99.335 Y105.182 E2.62096
G1 X99.116 Y105.226 E2.62796
G1 X99.019 Y105.207 E2.63104
G1 X98.667 Y105.058 E2.64302
G1 X98.403 Y105.061 E2.65128
G1 X98.218 Y105.204 E2.65861
G1 X98.027 Y104.884 E2.67028
G1 X97.408 Y104.194 E2.69930
G1 X96.843 Y103.397 E2.72992
G1 X96.527 Y102.846 E2.74980
G1 X96.190 Y102.046 E2.77698
G1 X95.931 Y101.274 E2.80250
G1 X95.792 Y100.290 E2.83362
G1 X95.717 Y99.930 E2.84512
G1 X95.716 Y99.521 E2.85793
G1 X95.819 Y98.547 E2.88859
G1 X95.918 Y98.072 E2.90379
G1 X96.061 Y97.595 E2.91939
G1 X96.490 Y96.594 E2.95350
G1 X96.738 Y96.172 E2.96882
G1 X96.971 Y95.840 E2.98151
G1 X97.324 Y95.467 E2.99759
G1 X97.622 Y95.244 E3.00925
G1 X97.850 Y95.043 E3.01876
G1 X98.052 Y94.965 E3.02555
G1 X98.274 Y94.814 E3.03396
G1 X98.538 Y94.691 E3.04309
G1 X98.665 Y94.578 E3.04841
G1 X98.840 Y94.483 E3.05465
G1 X99.155 Y94.380 E3.06503
G1 X99.563 Y94.278 E3.07820
G1 X100.473 Y94.162 E3.10691
G1 X101.105 Y94.226 E3.12681
G1 X101.399 Y94.188 E3.13608
G1 X101.600 Y94.189 E3.14239
G1 X101.748 Y94.213 E3.14707
G1 X102.118 Y94.327 E3.15920
G1 X102.484 Y94.484 E3.17166
G1 X102.958 Y94.796 E3.18942
G1 X103.235 Y95.031 E3.20082
G1 X103.497 Y95.304 E3.21268
G1 X103.722 Y95.626 E3.22497
G1 X103.960 Y96.120 E3.24214
G1 X104.067 Y96.501 E3.25455
G1 X104.149 Y97.072 E3.27260
G1 X104.159 Y97.351 E3.28134
G1 X104.069 Y98.343 E3.31253
G1 X104.010 Y98.719 E3.32444
G1 X103.841 Y99.372 E3.34558
G1 X103.719 Y99.718 E3.35708
G1 X103.604 Y99.947 E3.36507
G1 X103.362 Y100.277 E3.37791
G1 X103.207 Y100.454 E3.38527
G1 X102.825 Y100.752 E3.40044
G1 X102.585 Y100.909 E3.40942
G1 X102.188 Y101.102 E3.42325
G1 X101.670 Y101.260 E3.44019
G1 X101.346 Y101.309 E3.45047
G1 X101.048 Y101.322 E3.45982
G1 X100.709 Y101.298 E3.47044
G1 X100.433 Y101.245 E3.47925
G1 X99.969 Y101.045 E3.49507
G1 X99.591 Y100.802 E3.50916
G1 X99.309 Y100.553 E3.52092
G1 X99.080 Y100.281 E3.53208
G1 X98.851 Y99.906 E3.54581
G1 X98.745 Y99.635 E3.55494
G1 X98.652 Y99.159 E3.57013
G1 X98.648 Y98.725 E3.58372
G1 X98.691 Y98.515 E3.59042
M106 S255

G1 F3600
G1 X98.729 Y98.330 E3.59568
G1 X98.819 Y98.100 E3.60253
G1 X98.923 Y97.914 E3.60846
G1 X99.056 Y97.739 E3.61456
G1 X99.304 Y97.528 E3.62359
G1 X99.373 Y97.493 E3.62574
G1 X99.514 Y97.469 E3.62972
G1 X99.672 Y97.488 E3.63414
G1 X99.861 Y97.556 E3.63972
G1 X99.766 Y98.189 E3.65750
G1 X99.769 Y98.442 E3.66453
M106 S255

G1 F1800
G1 X99.764 Y98.580 E3.66884
G1 X99.707 Y98.705 E3.67314
G1 X99.707 Y98.886 E3.67882
G1 X99.776 Y99.138 E3.68702
G1 X99.791 Y99.538 F7800.000
G1 X99.157 Y98.979 F7800.000
G1 F878.092
G1 X99.190 Y98.658 E3.69808
G1 X99.244 Y98.454 E3.70534
G1 X99.375 Y97.746 E3.73004
G1 E1.73004 F2400.00000
G92 E0
G1 X99.579 Y99.877 F7800.000
G1 E2.00000 F2400.00000
G1 F878.092
G1 X99.871 Y100.006 E2.00406
G1 X100.169 Y100.227 E2.00877
G1 F878.092
G1 X100.362 Y100.307 E2.01237
G1 F878.092
G1 X100.693 Y100.399 E2.02026
G1 F878.092
G1 X101.060 Y100.403 E2.03094
G1 X101.467 Y100.363 E2.04284
G1 X102.006 Y100.197 E2.05924
G1 X102.305 Y100.024 E2.06929
G1 X102.533 Y99.858 E2.07750
G1 X102.666 Y99.718 E2.08312
G1 X102.899 Y99.415 E2.09423
G1 F878.092
G1 X103.038 Y99.126 E2.10222
G1 F878.092
G1 X103.128 Y98.907 E2.10715
G1 F878.092
G1 X103.278 Y98.312 E2.11711
G1 X103.324 Y97.773 E2.12587
G1 X103.322 Y97.535 E2.12972
G1 F878.092
G1 X103.295 Y97.148 E2.13773
G1 F878.092
G1 X103.205 Y96.756 E2.14790
G1 F878.092
G1 X103.092 Y96.433 E2.15792
G1 X102.931 Y96.103 E2.16867
G1 X102.791 Y95.884 E2.17629
G1 X102.544 Y95.629 E2.18668
G1 X102.050 Y95.289 E2.20423
G1 X101.726 Y95.142 E2.21467
G1 X101.528 Y95.079 E2.22074
G1 X101.393 Y95.060 E2.22474
G1 F878.092
G1 X101.136 Y95.049 E2.23095
G1 F878.092
G1 X100.483 Y94.981 E2.24276
G1 X100.040 Y95.020 E2.25076
G1 X99.380 Y95.159 E2.26289
G1 X99.161 Y95.230 E2.26703
G1 X99.059 Y95.289 E2.26915
G1 F878.092
G1 X98.654 Y95.483 E2.27556
G1 F878.092
G1 X98.256 Y95.714 E2.28036
G1 X98.093 Y95.842 E2.28253
G1 X97.575 Y96.334 E2.28999
G1 X97.267 Y96.732 E2.29525
G1 F878.092
G1 X96.906 Y97.398 E2.30032
G1 F878.092
G1 X96.780 Y97.643 E2.30054
G1 X96.599 Y98.215 E2.30104
G1 X96.519 Y98.657 E2.30142
G1 X96.445 Y99.250 E2.30192
G1 X96.419 Y99.857 E2.30242
G1 X96.487 Y100.392 E2.30287
G1 X96.585 Y100.793 E2.30321
G1 F878.092
G1 X96.709 Y101.220 E2.30573
M106 S249.9
G1 Z3.000 F7800.000
G1 X97.173 Y102.025 F7800.000
G1 F900
G1 X97.358 Y101.905 E2.31227
G1 X97.823 Y102.458 E2.33361
G1 X98.472 Y103.108 E2.36076
G1 X98.923 Y103.630 E2.38111
G1 X98.992 Y103.786 E2.38616
G1 X98.953 Y103.870 E2.38891
G1 X98.809 Y103.995 E2.39454
G1 X98.475 Y103.802 E2.40594
G1 X98.356 Y103.712 E2.41033
G1 X98.001 Y103.377 E2.42476
G1 X97.516 Y102.708 E2.44918
G1 X97.205 Y102.093 E2.46955
G1 X99.409 Y103.713 F7800.000
G1 F900
G1 X99.402 Y103.894 E2.47488
G1 X99.315 Y104.084 E2.48108
G1 X99.242 Y104.173 E2.48448
G1 X98.861 Y104.463 E2.49862
G1 X98.692 Y104.409 E2.50386
G1 X98.243 Y104.151 E2.51916
G1 X98.086 Y104.031 E2.52499
G1 X97.695 Y103.663 E2.54087
G1 X97.548 Y103.484 E2.54772
G1 X97.163 Y102.932 E2.56760
G1 X96.763 Y102.137 E2.59388
G1 X96.473 Y101.394 E2.61745
G1 X96.365 Y100.965 E2.63052
G1 X96.326 Y100.699 E2.63847
G1 X96.248 Y99.600 E2.67102
G1 X96.384 Y98.536 E2.70271
G1 X96.725 Y97.353 E2.73909
G1 X97.063 Y96.694 E2.76097
G1 X97.185 Y96.504 E2.76766
G1 X97.431 Y96.185 E2.77955
G1 X97.600 Y96.004 E2.78686
G1 X97.820 Y95.810 E2.79554
G1 X98.152 Y95.576 E2.80754
G1 X98.794 Y95.241 E2.82894
G1 X99.296 Y95.050 E2.84478
G1 X99.571 Y94.982 E2.85318
G1 X100.310 Y94.854 E2.87532
G1 X101.056 Y94.790 E2.89746
G1 X101.455 Y94.826 E2.90929
G1 X101.691 Y94.874 E2.91641
G1 X102.043 Y94.997 E2.92741
G1 X102.217 Y95.081 E2.93314
G1 X102.406 Y95.208 E2.93986
G1 X102.651 Y95.426 E2.94955
G1 X102.829 Y95.619 E2.95730
G1 X102.932 Y95.775 E2.96283
G1 X103.198 Y96.352 E2.98161
G1 X103.267 Y96.667 E2.99112
G1 X103.280 Y96.861 E2.99689
G1 X103.082 Y96.915 E3.00298
G1 X102.941 Y96.628 E3.01241
G1 X102.686 Y96.221 E3.02659
G1 X102.490 Y95.978 E3.03583
G1 X102.273 Y95.794 E3.04422
G1 X101.942 Y95.610 E3.05543
G1 X101.562 Y95.438 E3.06773
G1 X101.248 Y95.343 E3.07745
G1 X100.929 Y95.291 E3.08698
G1 X100.697 Y95.290 E3.09384
G1 X100.433 Y95.338 E3.10178
G1 X100.006 Y95.332 E3.11438
G1 X99.440 Y95.446 E3.13145
G1 X99.168 Y95.536 E3.13991
G1 X98.950 Y95.631 E3.14696
G1 X98.886 Y95.678 E3.14928
G1 X98.666 Y95.748 E3.15612
G1 X98.294 Y95.948 E3.16860
G1 X97.962 Y96.223 E3.18132
G1 X97.670 Y96.539 E3.19404
G1 X97.369 Y96.918 E3.20833
G1 X97.172 Y97.234 E3.21935
G1 X96.913 Y97.784 E3.23730
G1 X96.808 Y98.182 E3.24948
G1 X96.742 Y98.770 E3.26696
G1 X96.755 Y99.325 E3.28334
G1 X96.796 Y99.776 E3.29673
G1 X96.931 Y100.341 E3.31389
G1 X97.120 Y100.797 E3.32849
G1 X97.512 Y101.438 E3.35067
G1 X98.131 Y102.176 E3.37914
G1 X98.778 Y102.824 E3.40620
G1 X99.267 Y103.389 E3.42827
G1 X99.385 Y103.642 E3.43653
G1 E1.43653 F2400.00000
G92 E0
G1 X102.912 Y99.620 F7800.000
G1 E2.00000 F2400.00000
G1 F900
G1 X102.786 Y99.822 E2.00704
G1 X102.651 Y99.992 E2.01345
G1 X102.330 Y100.291 E2.02643
G1 X102.070 Y100.460 E2.03557
G1 X101.706 Y100.621 E2.04735
G1 X101.247 Y100.726 E2.06126
G1 X100.678 Y100.747 E2.07810
G1 X100.375 Y100.694 E2.08717
G1 X100.152 Y100.631 E2.09401
G1 X99.958 Y100.546 E2.10028
G1 X99.759 Y100.433 E2.10703
G1 X99.528 Y100.271 E2.11537
G1 X99.389 Y100.149 E2.12084
G1 X99.190 Y99.893 E2.13044
G1 X99.025 Y99.598 E2.14040
G1 X98.944 Y99.399 E2.14675
G1 X98.843 Y98.813 E2.16434
G1 X98.834 Y98.667 E2.16867
G1 X98.866 Y98.358 E2.17782
G1 X99.016 Y97.866 E2.19303
G1 X99.233 Y97.915 E2.19960
G1 X99.179 Y98.435 E2.21504
G1 X99.617 Y98.851 E2.23289
G1 X99.856 Y99.199 E2.24535
G1 X100.222 Y99.577 E2.26091
G1 X100.547 Y99.773 E2.27212
G1 X100.911 Y99.897 E2.28349
G1 X101.440 Y99.954 E2.29920
G1 X101.805 Y99.904 E2.31008
G1 X102.093 Y99.806 E2.31909
G1 X102.542 Y99.618 E2.33346
G1 X102.774 Y99.479 E2.34147
G1 X102.860 Y99.566 E2.34508
G1 E0.34508 F2400.00000
G92 E0
G1 X99.671 Y97.861 F7800.000
G1 E2.00000 F2400.00000
G1 F1800
G1 X99.629 Y98.269 E2.01282
G1 X99.946 Y98.570 E2.02652
G1 X100.190 Y98.925 E2.04001
G1 X100.492 Y99.237 E2.05361
G1 X100.730 Y99.381 E2.06232
G1 X101.005 Y99.475 E2.07140
G1 X101.433 Y99.521 E2.08490
G1 X101.705 Y99.483 E2.09351
G1 X101.941 Y99.404 E2.10129
G1 X102.347 Y99.233 E2.11509
G1 X102.591 Y99.087 E2.12398
G1 X102.674 Y98.876 E2.13109
G1 X102.713 Y98.602 E2.13976
G1 X102.847 Y98.251 E2.15152
G1 X102.871 Y98.092 E2.15655
G1 X102.869 Y97.899 E2.16259
G1 X102.814 Y97.483 E2.17575
G1 X102.722 Y97.158 E2.18631
G1 X102.564 Y96.837 E2.19751
G1 X102.335 Y96.471 E2.21104
G1 X102.181 Y96.280 E2.21874
G1 X102.028 Y96.150 E2.22503
G1 X101.748 Y95.995 E2.23503
G1 X101.411 Y95.842 E2.24664
G1 X101.150 Y95.763 E2.25516
G1 X100.893 Y95.721 E2.26331
G1 X100.735 Y95.720 E2.26828
G1 X100.469 Y95.769 E2.27673
G1 X100.046 Y95.763 E2.28999
G1 X99.550 Y95.862 E2.30582
G1 X99.322 Y95.938 E2.31334
G1 X99.166 Y96.006 E2.31868
G1 X99.084 Y96.066 E2.32187
G1 X98.834 Y96.146 E2.33008
G1 X98.535 Y96.307 E2.34071
G1 X98.259 Y96.536 E2.35195
G1 X97.997 Y96.819 E2.36402
G1 X97.722 Y97.166 E2.37790
G1 X97.551 Y97.440 E2.38802
G1 X97.319 Y97.932 E2.40505
G1 X97.232 Y98.262 E2.41573
G1 X97.173 Y98.789 E2.43235
G1 X97.185 Y99.300 E2.44835
G1 X97.221 Y99.706 E2.46111
G1 X97.342 Y100.207 E2.47726
G1 X97.505 Y100.602 E2.49061
G1 X97.862 Y101.186 E2.51206
G1 X98.449 Y101.885 E2.54064
G1 X99.094 Y102.531 E2.56922
G1 X99.621 Y103.142 E2.59450
G1 X99.742 Y103.359 E2.60228
G1 X99.847 Y103.712 E2.61380
G1 X99.840 Y103.924 E2.62047
G1 X99.808 Y104.042 E2.62428
G1 X99.682 Y104.315 E2.63369
G1 X99.550 Y104.475 E2.64018
G1 X99.370 Y104.630 E2.64764
G1 X99.090 Y104.828 E2.65839
G1 X98.926 Y104.888 E2.66386
G1 X98.779 Y104.889 E2.66845
G1 X98.517 Y104.805 E2.67705
G1 X98.005 Y104.510 E2.69556
G1 X97.808 Y104.360 E2.70331
G1 X97.380 Y103.957 E2.72173
G1 X97.205 Y103.744 E2.73037
G1 X96.799 Y103.162 E2.75257
G1 X96.679 Y102.953 E2.76013
G1 X96.368 Y102.309 E2.78250
G1 X96.062 Y101.525 E2.80886
G1 X95.943 Y101.049 E2.82424
G1 X95.898 Y100.742 E2.83397
G1 X95.873 Y100.257 E2.84916
G1 X95.819 Y99.812 E2.86319
G1 X95.817 Y99.575 E2.87063
G1 X95.961 Y98.449 E2.90617
G1 X96.319 Y97.209 E2.94658
G1 X96.691 Y96.477 E2.97229
G1 X96.833 Y96.256 E2.98053
G1 X97.103 Y95.906 E2.99436
G1 X97.300 Y95.696 E3.00338
G1 X97.553 Y95.472 E3.01397
G1 X97.918 Y95.215 E3.02794
G1 X98.135 Y95.085 E3.03586
G1 X98.623 Y94.846 E3.05288
G1 X99.167 Y94.639 E3.07111
G1 X99.483 Y94.561 E3.08130
G1 X100.248 Y94.429 E3.10560
G1 X100.665 Y94.379 E3.11876
G1 X101.065 Y94.358 E3.13129
G1 X101.518 Y94.399 E3.14554
G1 X101.806 Y94.458 E3.15475
G1 X102.208 Y94.599 E3.16808
G1 X102.432 Y94.707 E3.17587
G1 X102.671 Y94.867 E3.18487
G1 X102.953 Y95.119 E3.19674
G1 X103.168 Y95.353 E3.20668
G1 X103.309 Y95.565 E3.21464
G1 X103.602 Y96.200 E3.23654
G1 X103.695 Y96.615 E3.24988
G1 X103.726 Y97.076 E3.26435
G1 X103.645 Y98.424 E3.30661
G1 X103.577 Y98.898 E3.32161
G1 X103.378 Y99.599 E3.34444
G1 X103.247 Y99.896 E3.35461
G1 X103.139 Y100.070 E3.36103
G1 X102.974 Y100.277 E3.36929
G1 X102.588 Y100.636 E3.38582
G1 X102.287 Y100.832 E3.39706
G1 X102.097 Y100.930 E3.40376
G1 X101.839 Y101.032 E3.41245
G1 X101.452 Y101.131 E3.42494
G1 X101.287 Y101.155 E3.43018
G1 X100.648 Y101.178 E3.45019
G1 X100.280 Y101.114 E3.46189
G1 X100.007 Y101.037 E3.47078
G1 X99.764 Y100.931 E3.47907
G1 X99.529 Y100.797 E3.48755
G1 X99.261 Y100.610 E3.49778
G1 X99.075 Y100.445 E3.50559
G1 X98.830 Y100.131 E3.51803
G1 X98.636 Y99.785 E3.53045
G1 X98.528 Y99.518 E3.53947
G1 X98.415 Y98.863 E3.56030
G1 X98.403 Y98.669 E3.56638
G1 X98.445 Y98.270 E3.57895
G1 X98.600 Y97.753 E3.59586
G1 X98.667 Y97.622 E3.60048
G1 X98.923 Y97.287 E3.61366
G1 X99.061 Y97.148 E3.61982
G1 X99.230 Y97.015 E3.62653
G1 X99.336 Y96.960 E3.63028
M106 S255

G1 F3600
G1 X99.577 Y96.837 E3.63779
G1 X100.004 Y96.693 E3.65030
G1 X100.960 Y96.603 E3.67700
G1 X101.166 Y96.680 E3.68309
G1 X101.692 Y96.983 E3.69996
G1 X101.972 Y97.614 E3.71912
G1 X101.996 Y97.768 E3.72346
G1 X101.949 Y98.182 E3.73503
G1 X101.906 Y98.248 E3.73722
G1 X101.753 Y98.377 E3.74277
G1 X101.628 Y98.250 E3.74772
G1 X101.361 Y97.854 E3.76100
G1 X101.077 Y97.640 E3.77087
G1 X100.807 Y97.543 E3.77885
G1 X100.567 Y97.518 E3.78556
G1 X100.379 Y97.586 E3.79110
M106 S249.9

G1 F1800
G1 X100.094 Y97.776 E3.80181
G1 X99.744 Y97.847 E3.81300
G1 X99.262 Y97.884 F7800.000
G1 X100.178 Y97.151 F7800.000
G1 F1200
G1 X100.485 Y97.087 E3.82117
G1 X100.897 Y97.081 E3.83192
G1 X101.256 Y97.238 E3.84212
G1 F1200
G1 X101.334 Y97.284 E3.84399
G1 X101.372 Y97.249 E3.84504
G1 F1200
G1 X101.511 Y97.127 E3.84764
G1 X100.803 Y96.834 F7800.000
G1 F1200
G1 X99.890 Y97.283 E3.88202
G1 X98.952 Y97.603 E3.91547
G1 X99.043 Y98.666 F7800.000
G1 F1200
G1 X99.509 Y99.510 E3.94319
G1 F1200
G1 X99.753 Y99.807 E3.95570
G1 X99.892 Y99.934 E3.96185
G1 F1200
G1 X100.312 Y100.184 E3.97583
G1 X100.708 Y100.299 E3.98762
G1 F1200
G1 X101.026 Y100.323 E3.99491
G1 F1200
G1 X101.427 Y100.318 E4.00199
G1 F1200
G1 X101.783 Y100.238 E4.00657
G1 F1200
G1 X102.040 Y100.132 E4.00839
G1 F1200
G1 X102.266 Y100.010 E4.00861
G1 X102.969 Y99.370 F7800.000
G1 F1200
G1 X103.104 Y98.963 E4.01836
G1 X103.237 Y98.380 E4.03196
G1 F1200
G1 X103.269 Y98.105 E4.03701
G1 F1200
G1 X103.268 Y97.634 E4.04782
G1 F1200
G1 X103.225 Y97.099 E4.06249
G1 X102.633 Y95.773 F7800.000
G1 F1200
G1 X102.324 Y95.505 E4.06251
G1 F1200
G1 X102.069 Y95.340 E4.06369
G1 X101.659 Y95.167 E4.06541
G1 X101.312 Y95.082 E4.06680
G1 X101.051 Y95.049 E4.06782
G1 E2.06782 F2400.00000
G92 E0
G1 X96.519 Y99.345 F7800.000
G1 E2.00000 F2400.00000
G1 F1200
G1 X96.528 Y99.825 E2.00063
G1 F1200
G1 X96.631 Y100.447 E2.00556
G1 F1200
G1 X96.680 Y100.664 E2.00848
G1 F1200
G1 X96.776 Y100.988 E2.01472
G1 F1200
G1 X96.891 Y101.261 E2.02205
G1 F1200
G1 X97.153 Y101.789 E2.03908
M106 S255
G1 Z3.500 F7800.000
G1 X96.674 Y100.980 F7800.000
G1 F600
G1 X96.862 Y100.898 E2.04518
G1 X97.295 Y101.521 E2.06760
G1 X98.391 Y102.772 E2.11672
G1 X98.681 Y103.134 E2.13045
G1 X98.775 Y103.282 E2.13562
G1 X98.840 Y103.551 E2.14380
G1 X98.839 Y103.670 E2.14729
G1 X98.717 Y103.813 E2.15285
G1 X98.530 Y103.862 E2.15854
G1 X98.414 Y103.849 E2.16199
G1 X98.243 Y103.782 E2.16743
G1 X97.969 Y103.597 E2.17720
G1 X97.694 Y103.326 E2.18862
G1 X97.236 Y102.661 E2.21246
G1 X97.127 Y102.444 E2.21965
G1 X96.900 Y101.860 E2.23816
G1 X96.785 Y101.480 E2.24989
G1 X96.690 Y101.054 E2.26279
G1 X96.373 Y99.111 F7800.000
G1 F900
G1 X96.591 Y99.104 E2.26961
G1 X96.676 Y99.476 E2.28155
G1 X96.783 Y99.774 E2.29147
G1 X97.123 Y100.518 E2.31707
G1 X97.635 Y101.256 E2.34521
G1 X98.721 Y102.495 E2.39681
G1 X99.032 Y102.884 E2.41240
G1 X99.162 Y103.089 E2.42000
G1 X99.252 Y103.385 E2.42970
G1 X99.270 Y103.526 E2.43414
G1 X99.269 Y103.692 E2.43935
G1 X99.246 Y103.802 E2.44287
G1 X99.193 Y103.914 E2.44674
G1 X99.068 Y104.075 E2.45312
G1 X98.969 Y104.164 E2.45728
G1 X98.827 Y104.245 E2.46241
G1 X98.546 Y104.296 E2.47135
G1 X98.312 Y104.271 E2.47874
G1 X98.042 Y104.166 E2.48780
G1 X97.709 Y103.941 E2.50040
G1 X97.364 Y103.604 E2.51550
G1 X96.862 Y102.874 E2.54322
G1 X96.734 Y102.618 E2.55219
G1 X96.493 Y102.000 E2.57296
G1 X96.368 Y101.589 E2.58642
G1 X96.271 Y101.153 E2.60040
G1 X96.225 Y100.845 E2.61015
G1 X96.255 Y99.802 E2.64283
G1 X96.360 Y99.185 E2.66244
G1 X96.560 Y99.222 F7800.000
G1 X96.448 Y98.833 F7800.000
G1 F1800
G1 X96.687 Y97.671 E2.68831
G1 E0.68831 F2400.00000
G92 E0
G1 X97.060 Y101.615 F7800.000
G1 E2.00000 F2400.00000
G1 F721.491
G1 X97.142 Y101.750 E2.00064
G1 F721.491
G1 X97.306 Y102.021 E2.00381
G1 F721.491
G1 X97.471 Y102.291 E2.00886
G1 F721.491
G1 X97.585 Y102.462 E2.01290
G1 F721.491
G1 X98.201 Y103.227 E2.03806
G1 F721.491
G1 X98.618 Y103.614 E2.05043
G1 E0.05043 F2400.00000
G92 E0
G1 X100.303 Y96.852 F7800.000
G1 E2.00000 F2400.00000
G1 F600
G1 X100.033 Y97.205 E2.01314
G1 X99.911 Y97.464 E2.02159
G1 X99.853 Y97.534 E2.02428
G1 X99.674 Y97.852 E2.03506
G1 X99.580 Y98.270 E2.04773
G1 X99.468 Y98.601 E2.05804
G1 X99.455 Y98.943 E2.06816
G1 X99.571 Y99.268 E2.07835
G1 X99.818 Y99.603 E2.09063
G1 X100.253 Y100.003 E2.10812
G1 X100.449 Y100.119 E2.11483
G1 X100.722 Y100.234 E2.12359
G1 X100.677 Y100.437 E2.12974
G1 X100.331 Y100.426 E2.13998
G1 X100.132 Y100.388 E2.14598
G1 X99.913 Y100.321 E2.15274
G1 X99.643 Y100.197 E2.16150
G1 X99.371 Y99.995 E2.17152
G1 X99.210 Y99.821 E2.17854
G1 X98.967 Y99.459 E2.19142
G1 X98.855 Y99.184 E2.20019
G1 X98.780 Y98.859 E2.21004
G1 X98.747 Y98.496 E2.22081
G1 X98.757 Y98.313 E2.22622
G1 X98.834 Y97.895 E2.23879
G1 X98.932 Y97.639 E2.24689
G1 X99.026 Y97.457 E2.25293
G1 X99.119 Y97.315 E2.25795
G1 X99.401 Y96.973 E2.27104
G1 X99.621 Y96.812 E2.27910
G1 X99.932 Y96.635 E2.28966
G1 X100.239 Y96.562 E2.29899
G1 X100.613 Y96.529 E2.31009
G1 X101.027 Y96.571 E2.32237
G1 X101.026 Y96.597 E2.32313
G1 X101.034 Y96.583 E2.32359
G1 X101.212 Y96.622 E2.32898
G1 X101.490 Y96.727 E2.33777
G1 X101.691 Y96.843 E2.34462
G1 X101.921 Y97.048 E2.35373
G1 X102.143 Y97.334 E2.36443
G1 X102.282 Y97.605 E2.37343
G1 X102.313 Y97.767 E2.37829
G1 X102.170 Y98.126 E2.38973
G1 X101.943 Y98.494 E2.40251
G1 X101.678 Y98.588 E2.41081
G1 X101.517 Y98.489 E2.41638
G1 X101.655 Y98.219 E2.42532
G1 X101.621 Y97.839 E2.43660
G1 X101.427 Y97.227 E2.45557
G1 X100.999 Y96.803 E2.47339
G1 X100.378 Y96.846 E2.49177
G1 X100.527 Y97.267 F7800.000
G1 F1800
G1 X100.403 Y97.430 E2.49819
G1 X100.277 Y97.697 E2.50744
G1 X100.209 Y97.779 E2.51077
G1 X100.080 Y98.008 E2.51900
G1 X99.994 Y98.387 E2.53116
G1 X99.896 Y98.680 E2.54083
G1 X99.888 Y98.877 E2.54700
G1 X99.955 Y99.063 E2.55322
G1 X100.140 Y99.314 E2.56297
G1 X100.511 Y99.656 E2.57877
G1 X100.643 Y99.733 E2.58356
G1 X101.531 Y100.109 E2.61376
G1 X101.763 Y100.141 E2.62111
G1 X101.936 Y100.125 E2.62654
G1 X102.039 Y100.088 E2.62997
G1 X102.149 Y100.285 E2.63702
G1 X101.938 Y100.453 E2.64547
G1 X101.675 Y100.606 E2.65499
G1 X101.037 Y100.821 E2.67607
G1 X100.723 Y100.869 E2.68603
G1 X100.284 Y100.855 E2.69980
G1 X100.027 Y100.806 E2.70797
G1 X99.759 Y100.723 E2.71675
G1 X99.435 Y100.575 E2.72791
G1 X99.240 Y100.448 E2.73520
G1 X99.073 Y100.306 E2.74207
G1 X98.877 Y100.094 E2.75110
G1 X98.593 Y99.672 E2.76705
G1 X98.519 Y99.527 E2.77215
G1 X98.441 Y99.303 E2.77956
G1 X98.354 Y98.928 E2.79164
G1 X98.315 Y98.504 E2.80496
G1 X98.328 Y98.262 E2.81254
G1 X98.418 Y97.777 E2.82799
G1 X98.539 Y97.463 E2.83855
G1 X98.772 Y97.060 E2.85311
G1 X99.104 Y96.658 E2.86943
G1 X99.387 Y96.451 E2.88041
G1 X99.772 Y96.230 E2.89432
G1 X100.170 Y96.136 E2.90713
G1 X100.616 Y96.097 E2.92113
G1 X101.010 Y96.137 E2.93355
G1 X101.335 Y96.209 E2.94395
G1 X101.675 Y96.337 E2.95534
G1 X101.944 Y96.493 E2.96508
G1 X102.237 Y96.753 E2.97734
G1 X102.503 Y97.096 E2.99094
G1 X102.625 Y97.314 E2.99875
G1 X102.695 Y97.478 E3.00434
G1 X102.746 Y97.736 E3.01256
G1 X102.735 Y97.872 E3.01686
G1 X102.556 Y98.321 E3.03198
G1 X102.244 Y98.825 E3.05055
G1 X102.153 Y98.881 E3.05388
G1 X101.918 Y98.950 E3.06156
G1 X101.693 Y99.059 E3.06941
G1 X101.570 Y99.027 E3.07338
G1 X101.504 Y98.986 E3.07582
M106 S255

G1 F3600
G1 X101.187 Y98.791 E3.08615
G1 X100.951 Y98.728 E3.09295
G1 X101.016 Y98.437 E3.10121
G1 X101.082 Y98.384 E3.10357
M106 S255

G1 F1800
G1 X101.215 Y98.134 E3.11243
G1 X101.197 Y97.924 E3.11904
G1 X101.049 Y97.458 E3.13433
G1 X100.834 Y97.246 E3.14380
G1 X100.602 Y97.262 E3.15110
G1 X100.353 Y97.160 F7800.000
G1 X99.825 Y96.936 F7800.000
G1 F721.491
G1 X99.421 Y97.538 E3.16034
G1 F721.491
G1 X99.288 Y97.798 E3.16517
G1 F721.491
G1 X99.117 Y98.489 E3.17947
G1 F721.491
G1 X99.118 Y98.804 E3.18422
G1 F721.491
G1 X99.142 Y99.012 E3.18657
G1 X99.293 Y99.400 E3.19124
G1 F721.491
G1 X99.592 Y99.794 E3.19432
G1 X99.902 Y100.031 E3.19675
G1 X100.910 Y100.381 F7800.000
G1 F721.491
G1 X101.629 Y100.376 E3.19880
G1 E1.19880 F2400.00000
G92 E0
G1 X101.917 Y98.138 F7800.000
G1 E2.00000 F2400.00000
G1 F721.491
G1 X101.952 Y97.734 E2.00442
G1 X101.792 Y97.376 E2.00868
G1 F721.491
G1 X101.643 Y97.092 E2.01095
G1 X102.650 Y95.905 F7800.000
G1 F1800
G1 X101.953 Y95.408 E2.04853
G1 X101.652 Y95.260 E2.06328
G1 X101.380 Y95.197 E2.07554
G1 F1800
G1 X101.225 Y95.160 E2.08172
G1 F1800
G1 X100.599 Y95.103 E2.10367
G1 Z4.000 F7800.000
G1 E0.10367 F2400.00000
G92 E0
G1 X97.198 Y101.848 F7800.000
G1 E2.00000 F2400.00000
G1 F900
G1 X97.692 Y102.250 E2.01996
G1 X98.023 Y102.602 E2.03509
G1 X98.189 Y102.839 E2.04414
G1 X98.258 Y103.028 E2.05047
G1 X98.271 Y103.303 E2.05907
G1 X98.068 Y103.364 E2.06572
G1 X97.995 Y103.336 E2.06816
G1 X97.661 Y103.069 E2.08156
G1 X97.457 Y102.765 E2.09302
G1 X97.351 Y102.563 E2.10015
G1 X97.276 Y102.365 E2.10678
G1 X97.209 Y101.922 E2.12083
G1 X97.505 Y102.242 F7800.000
G1 X97.589 Y102.494 F7800.000
G1 F600
G1 X97.875 Y102.882 E2.12173
G1 X98.028 Y103.053 E2.12216
G1 E0.12216 F2400.00000
G92 E0
G1 X102.457 Y98.010 F7800.000
G1 E2.00000 F2400.00000
G1 F600
G1 X101.434 Y97.248 E2.03769
G1 X101.187 Y97.192 E2.04518
G1 X100.765 Y97.055 E2.05829
G1 X100.570 Y97.055 E2.06405
G1 X100.166 Y96.900 E2.07682
G1 X99.514 Y96.844 E2.09617
G1 X99.834 Y96.601 E2.10803
G1 X100.082 Y96.460 E2.11647
G1 X100.340 Y96.371 E2.12451
G1 X100.609 Y96.311 E2.13267
G1 X100.911 Y96.296 E2.14159
G1 X101.199 Y96.315 E2.15014
G1 X101.328 Y96.341 E2.15402
G1 X101.628 Y96.451 E2.16346
G1 X101.815 Y96.548 E2.16970
G1 X102.119 Y96.798 E2.18131
G1 X102.384 Y97.126 E2.19378
G1 X102.560 Y97.489 E2.20569
G1 X102.629 Y97.718 E2.21277
G1 X102.649 Y97.891 E2.21790
G1 X102.664 Y97.881 E2.21842
G1 X102.665 Y98.164 E2.22678
G1 X102.647 Y98.151 E2.22743
G1 X102.636 Y98.313 E2.23224
G1 X102.563 Y98.615 E2.24141
G1 X102.339 Y99.093 E2.25701
G1 X102.252 Y99.226 E2.26169
G1 X102.123 Y99.306 E2.26617
G1 X101.740 Y99.249 E2.27761
G1 X101.053 Y99.068 E2.29860
G1 X100.877 Y98.979 E2.30444
G1 X101.060 Y98.734 E2.31349
G1 X101.202 Y98.787 E2.31798
G1 X102.393 Y98.049 E2.35938
G1 X101.693 Y97.977 F7800.000
G1 F1800
G1 X101.250 Y97.647 E2.37668
G1 X100.934 Y97.576 E2.38682
G1 X100.919 Y97.554 E2.38765
G1 X100.699 Y97.485 E2.39487
G1 X100.490 Y97.485 E2.40141
G1 X100.069 Y97.323 E2.41553
G1 X99.865 Y97.305 E2.42195
G1 X99.685 Y97.337 E2.42768
G1 X99.444 Y97.499 E2.43674
G1 X99.297 Y97.851 E2.44869
G1 X99.227 Y98.379 E2.46539
G1 X99.141 Y98.745 E2.47716
G1 X99.124 Y98.970 E2.48422
G1 X99.147 Y99.195 E2.49129
G1 X99.223 Y99.476 E2.50042
G1 X99.362 Y99.746 E2.50992
G1 X99.216 Y99.883 E2.51617
G1 X99.093 Y99.810 E2.52068
G1 X98.820 Y99.536 E2.53279
G1 X98.718 Y99.382 E2.53856
G1 X98.570 Y99.085 E2.54897
G1 X98.471 Y98.691 E2.56166
G1 X98.439 Y98.221 E2.57642
G1 X98.448 Y98.044 E2.58199
G1 X98.484 Y97.849 E2.58818
G1 X98.593 Y97.503 E2.59954
G1 X98.728 Y97.190 E2.61021
G1 X98.958 Y96.829 E2.62363
G1 X99.252 Y96.503 E2.63737
G1 X99.597 Y96.241 E2.65093
G1 X99.904 Y96.066 E2.66200
G1 X100.222 Y95.956 E2.67254
G1 X100.551 Y95.883 E2.68309
G1 X100.914 Y95.865 E2.69447
G1 X101.257 Y95.887 E2.70523
G1 X101.446 Y95.926 E2.71128
G1 X101.802 Y96.057 E2.72315
G1 X102.040 Y96.180 E2.73155
G1 X102.221 Y96.309 E2.73852
G1 X102.433 Y96.502 E2.74749
G1 X102.743 Y96.885 E2.76292
G1 X102.877 Y97.130 E2.77166
G1 X102.966 Y97.345 E2.77894
G1 X103.049 Y97.621 E2.78799
G1 X103.087 Y98.012 E2.80029
G1 X103.064 Y98.366 E2.81138
G1 X103.032 Y98.544 E2.81705
M106 S255

G1 F3600
G1 X102.965 Y98.771 E2.82363
G1 X102.715 Y99.303 E2.83995
G1 X102.652 Y99.400 E2.84317
M106 S255

G1 F1800
G1 X102.555 Y99.532 E2.84831
G1 X102.482 Y99.589 E2.85119
G1 X102.264 Y99.725 E2.85924
G1 X102.170 Y99.748 E2.86227
G1 X101.654 Y99.671 E2.87861
G1 X100.900 Y99.473 E2.90301
G1 X100.628 Y99.336 E2.91255
G1 X100.434 Y99.177 E2.92040
G1 X100.283 Y98.964 E2.92856
G1 X100.244 Y98.842 E2.93259
G1 X100.636 Y98.582 E2.94734
G1 X100.737 Y98.448 E2.95258
G1 X100.821 Y98.184 E2.96128
G1 X101.156 Y98.310 E2.97250
G1 X101.629 Y98.017 E2.98994
G1 X102.076 Y97.656 F7800.000
G1 X102.368 Y97.575 F7800.000
G1 F600
G1 X101.836 Y97.064 E3.00059
G1 F600
G1 X101.609 Y96.887 E3.00604
G1 X101.346 Y96.796 E3.01131
G1 F600
G1 X101.143 Y96.733 E3.01617
G1 X100.908 Y96.688 E3.02166
G1 F600
G1 X100.659 Y96.682 E3.02622
G1 X100.288 Y96.723 E3.03307
G1 X99.339 Y97.044 F7800.000
G1 F600
G1 X99.117 Y97.292 E3.03878
G1 X98.928 Y97.727 E3.04692
G1 X98.854 Y98.091 E3.05328
G1 X98.812 Y98.637 E3.06269
G1 F600
G1 X98.825 Y98.836 E3.06482
G1 F600
G1 X98.839 Y98.985 E3.06566
G1 X98.873 Y99.104 E3.06634
G1 Z4.500 F7800.000
G1 E1.06634 F2400.00000
G92 E0
G1 X101.694 Y99.019 F7800.000
G1 E2.00000 F2400.00000
G1 F600
G1 X101.747 Y99.217 E2.00608
G1 X101.588 Y99.295 E2.01129
G1 X101.393 Y99.344 E2.01724
G1 X101.256 Y99.354 E2.02130
G1 X101.080 Y99.343 E2.02651
G1 X100.876 Y99.274 E2.03287
G1 X100.903 Y99.070 E2.03895
G1 X101.619 Y99.024 E2.06016
G1 X101.982 Y97.968 F7800.000
G1 F600
G1 X101.801 Y97.419 E2.07723
G1 X101.579 Y97.157 E2.08739
G1 X101.410 Y97.065 E2.09306
G1 X101.173 Y96.662 E2.10689
G1 X101.097 Y96.575 E2.11030
G1 X101.188 Y96.419 E2.11564
G1 X101.590 Y96.516 E2.12784
G1 X101.933 Y96.695 E2.13930
G1 X102.140 Y96.866 E2.14721
G1 X102.319 Y97.080 E2.15546
G1 X102.489 Y97.355 E2.16500
G1 X102.583 Y97.610 E2.17305
G1 X102.665 Y98.094 E2.18755
G1 X102.670 Y98.300 E2.19362
G1 X102.597 Y98.700 E2.20563
G1 X102.484 Y99.020 E2.21568
G1 X102.417 Y99.142 E2.21980
G1 X102.181 Y99.406 E2.23024
G1 X102.014 Y99.551 E2.23679
G1 X101.732 Y99.690 E2.24607
G1 X101.458 Y99.758 E2.25441
G1 X101.259 Y99.772 E2.26032
G1 X100.999 Y99.757 E2.26800
G1 X100.656 Y99.641 E2.27872
G1 X100.325 Y99.482 E2.28954
G1 X100.197 Y99.191 E2.29894
G1 X99.987 Y98.885 E2.30991
G1 X100.044 Y98.668 E2.31656
G1 X100.277 Y98.536 E2.32446
G1 X100.606 Y98.561 E2.33419
G1 X100.966 Y98.648 E2.34516
G1 X101.532 Y98.611 E2.36191
G1 X101.939 Y98.029 E2.38288
G1 X101.506 Y97.898 F7800.000
G1 F1800
G1 X101.419 Y97.634 E2.39159
G1 X101.303 Y97.497 E2.39722
G1 X101.114 Y97.394 E2.40396
G1 X100.820 Y96.912 E2.42163
G1 X100.703 Y96.779 E2.42717
G1 X100.454 Y96.611 E2.43659
G1 X100.275 Y96.584 E2.44226
G1 X100.097 Y96.588 E2.44783
G1 X99.844 Y96.672 E2.45619
G1 X99.514 Y96.848 E2.46788
G1 X99.378 Y96.663 E2.47506
G1 X99.591 Y96.451 E2.48448
G1 X99.940 Y96.218 E2.49761
G1 X100.265 Y96.077 E2.50872
G1 X100.615 Y95.991 E2.51999
G1 X100.901 Y95.967 E2.52900
G1 X101.282 Y95.999 E2.54096
G1 X101.755 Y96.117 E2.55621
G1 X102.172 Y96.335 E2.57097
G1 X102.445 Y96.559 E2.58202
G1 X102.669 Y96.828 E2.59297
G1 X102.878 Y97.165 E2.60541
G1 X103.000 Y97.499 E2.61655
G1 X103.094 Y98.053 E2.63412
G1 X103.101 Y98.333 E2.64291
G1 X103.015 Y98.811 E2.65810
G1 X102.878 Y99.197 E2.67093
G1 X102.770 Y99.392 E2.67792
G1 X102.484 Y99.713 E2.69136
G1 X102.254 Y99.913 E2.70091
G1 X101.881 Y100.097 E2.71395
G1 X101.533 Y100.182 E2.72515
M106 S255

G1 F3600
G1 X101.262 Y100.203 E2.73272
G1 X100.916 Y100.183 E2.74232
G1 X100.493 Y100.040 E2.75474
G1 X100.095 Y99.849 E2.76699
G1 X99.968 Y99.738 E2.77169
G1 X99.820 Y99.402 E2.78190
G1 X99.694 Y99.219 E2.78807
M106 S255

G1 F1800
G1 X99.610 Y99.097 E2.79269
G1 X99.570 Y98.995 E2.79614
G1 X99.555 Y98.855 E2.80054
G1 X99.592 Y98.639 E2.80740
G1 X99.692 Y98.392 E2.81574
G1 X99.762 Y98.334 E2.81859
M106 S255

G1 F3600
G1 X100.143 Y98.118 E2.83076
G1 X100.223 Y98.098 E2.83306
G1 X100.291 Y98.105 E2.83495
M106 S255

G1 F1800
G1 X100.555 Y98.133 E2.84327
G1 X100.731 Y98.101 E2.84886
G1 X100.801 Y98.165 E2.85182
G1 X101.004 Y98.214 E2.85835
G1 X101.298 Y98.195 E2.86760
G1 X101.463 Y97.959 E2.87661
G1 X101.763 Y97.790 F7800.000
G1 X102.189 Y98.037 F7800.000
G1 F600
G1 X102.042 Y99.248 E2.90537
G1 X102.307 Y98.129 F7800.000
G1 F600
G1 X102.319 Y97.967 E2.90756
G1 X102.252 Y97.698 E2.91132
G1 X102.133 Y97.393 E2.91577
G1 F600
G1 X102.069 Y97.260 E2.91703
G1 X101.774 Y96.940 E2.92076
G1 F600
G1 X101.607 Y96.847 E2.92149
G1 X101.427 Y96.687 E2.92242
G1 X100.980 Y96.348 F7800.000
G1 F600
G1 X100.449 Y96.324 E2.92596
G1 F600
G1 X100.294 Y96.336 E2.92628
G1 Z5.000 F7800.000
G1 E0.92628 F2400.00000
G92 E0
G1 X100.586 Y98.730 F7800.000
G1 E2.00000 F2400.00000
G1 F600
G1 X100.913 Y98.855 E2.01032
G1 X101.372 Y98.915 E2.02402
G1 X101.709 Y98.888 E2.03399
G1 X102.050 Y98.750 E2.04486
G1 X102.101 Y98.692 E2.04715
G1 X102.276 Y98.783 E2.05298
G1 X102.228 Y98.975 E2.05884
G1 X102.145 Y99.129 E2.06398
G1 X101.969 Y99.356 E2.07249
G1 X101.865 Y99.448 E2.07658
G1 X101.660 Y99.579 E2.08377
G1 X101.283 Y99.725 E2.09570
G1 X101.013 Y99.734 E2.10369
G1 X100.725 Y99.698 E2.11227
G1 X100.491 Y99.611 E2.11965
G1 X100.195 Y99.452 E2.12957
G1 X100.083 Y99.368 E2.13371
G1 X99.831 Y99.100 E2.14459
G1 X99.764 Y98.987 E2.14846
G1 X99.682 Y98.789 E2.15479
G1 X99.618 Y98.537 E2.16248
G1 X99.696 Y98.094 E2.17576
G1 X99.779 Y97.965 E2.18029
G1 X100.014 Y97.803 E2.18871
G1 X100.137 Y97.939 E2.19415
G1 X100.139 Y98.123 E2.19958
G1 X100.290 Y98.480 E2.21102
G1 X100.529 Y98.682 E2.22028
G1 X101.609 Y98.465 F7800.000
G1 F1800
G1 X101.793 Y98.390 E2.22652
G1 X101.988 Y98.167 E2.23577
G1 X102.082 Y97.913 E2.24428
G1 X102.111 Y97.636 E2.25300
G1 X102.076 Y97.349 E2.26204
G1 X101.996 Y97.148 E2.26883
G1 X101.870 Y96.944 E2.27633
G1 X101.697 Y96.755 E2.28434
G1 X101.843 Y96.577 E2.29156
G1 X102.143 Y96.774 E2.30278
G1 X102.319 Y96.980 E2.31128
G1 X102.491 Y97.231 E2.32079
G1 X102.618 Y97.528 E2.33091
G1 X102.712 Y97.975 E2.34523
G1 X102.744 Y98.385 E2.35811
G1 X102.705 Y98.839 E2.37238
G1 X102.632 Y99.132 E2.38185
G1 X102.506 Y99.364 E2.39010
G1 X102.284 Y99.652 E2.40149
G1 X102.128 Y99.789 E2.40797
G1 X101.864 Y99.959 E2.41783
G1 X101.645 Y100.060 E2.42538
G1 X101.358 Y100.153 E2.43482
G1 X100.993 Y100.165 E2.44626
G1 X100.622 Y100.119 E2.45796
G1 X100.313 Y100.004 E2.46828
G1 X99.963 Y99.816 E2.48073
G1 X99.795 Y99.690 E2.48731
G1 X99.496 Y99.371 E2.50101
G1 X99.377 Y99.175 E2.50820
G1 X99.273 Y98.925 E2.51667
G1 X99.179 Y98.553 E2.52869
G1 X99.262 Y98.082 E2.54367
M106 S255

G1 F3600
G1 X99.285 Y97.952 E2.54733
G1 X99.370 Y97.793 E2.55233
G1 X99.478 Y97.651 E2.55731
G1 X99.687 Y97.506 E2.56436
G1 X99.901 Y97.316 E2.57231
G1 X100.103 Y97.263 E2.57811
G1 X100.190 Y97.304 E2.58076
G1 X100.250 Y97.362 E2.58310
G1 X100.404 Y97.588 E2.59069
M106 S255

G1 F1800
G1 X100.566 Y97.771 E2.59834
G1 X100.568 Y98.034 E2.60656
G1 X100.646 Y98.217 E2.61280
G1 X100.808 Y98.354 E2.61945
G1 X101.019 Y98.435 E2.62652
G1 X101.384 Y98.482 E2.63804
G1 X101.534 Y98.471 E2.64276
G1 X101.746 Y98.609 F7800.000
G1 X102.348 Y98.578 F7800.000
G1 F600
G1 X102.391 Y97.998 E2.64744
G1 X102.386 Y97.861 E2.64855
G1 F600
G1 X102.374 Y97.638 E2.64941
G1 X101.659 Y99.334 F7800.000
G1 F600
G1 X100.828 Y99.277 E2.66913
G1 X100.407 Y99.100 E2.67994
G1 X100.137 Y98.859 E2.68849
G1 F600
G1 X99.838 Y98.495 E2.69686
G1 X99.874 Y98.289 F7800.000
G1 F600
G1 X100.007 Y98.681 E2.70186
G1 X100.422 Y99.337 E2.71122
G1 Z5.500 F7800.000
G1 X101.093 Y97.688 F7800.000
G1 F600
G1 X100.979 Y97.970 E2.72020
G1 X100.737 Y98.094 E2.72824
G1 X100.458 Y98.376 E2.73996
G1 X100.336 Y98.885 E2.75542
G1 X100.037 Y98.743 E2.76521
G1 X99.926 Y98.610 E2.77033
G1 X99.866 Y98.500 E2.77401
G1 X99.803 Y98.241 E2.78190
G1 X99.854 Y97.906 E2.79190
G1 X100.013 Y97.613 E2.80176
G1 X100.256 Y97.428 E2.81077
G1 X100.379 Y97.380 E2.81469
G1 X100.500 Y97.370 E2.81825
G1 X100.832 Y97.418 E2.82819
G1 X101.035 Y97.513 E2.83480
G1 X101.083 Y97.575 E2.83711
M106 S255

G1 F3600
G1 X101.112 Y97.620 E2.83861
M106 S255

G1 X100.991 Y99.296 F7800.000
G1 F1800
G1 X100.648 Y99.357 E2.84952
G1 X100.427 Y99.338 E2.85648
G1 X100.155 Y99.275 E2.86522
G1 X99.900 Y99.168 E2.87388
G1 X99.747 Y99.066 E2.87963
G1 X99.568 Y98.853 E2.88835
G1 X99.465 Y98.664 E2.89510
G1 X99.390 Y98.397 E2.90379
G1 X99.371 Y98.257 E2.90820
G1 X99.383 Y98.054 E2.91458
G1 X99.443 Y97.771 E2.92363
G1 X99.679 Y97.333 E2.93920
G1 X99.914 Y97.133 E2.94889
G1 X100.064 Y97.041 E2.95440
G1 X100.282 Y96.957 E2.96171
G1 X100.571 Y96.944 E2.97076
M106 S255

G1 F3600
G1 X100.960 Y97.005 E2.98171
G1 X101.194 Y97.107 E2.98881
G1 X101.302 Y97.172 E2.99229
G1 X101.392 Y97.262 E2.99584
G1 X101.482 Y97.400 E3.00041
G1 X101.538 Y97.529 E3.00432
G1 X101.550 Y97.607 E3.00650
G1 X101.531 Y97.761 E3.01083
G1 X101.448 Y97.948 E3.01650
M106 S255

G1 F1800
G1 X101.345 Y98.266 E3.02696
G1 X100.994 Y98.445 E3.03932
G1 X100.848 Y98.593 E3.04581
G1 X100.777 Y98.892 E3.05545
G1 X100.956 Y99.230 E3.06743
G1 X100.663 Y99.180 F7800.000
G1 X100.129 Y98.527 F7800.000
G1 F600
G1 X100.144 Y98.228 E3.07152
G1 X100.421 Y97.588 E3.08107
G1 X100.415 Y97.822 F7800.000
G1 F600
G1 X100.254 Y98.006 E3.08664
G1 X100.034 Y98.325 E3.09549
G1 X100.028 Y98.089 F7800.000
G1 F600
G1 X100.856 Y97.656 E3.10489
G1 X100.867 Y97.682 F7800.000
G1 F600
G1 X100.499 Y97.770 E3.11216
G1 X100.415 Y97.822 E3.11406
G1 Z6.000 F7800.000
G1 X101.469 Y97.991 F7800.000
G1 F600
G1 X101.395 Y98.011 E3.11647
G1 X101.213 Y98.007 E3.12218
G1 X100.562 Y97.876 E3.14299
G1 X100.424 Y97.821 E3.14763
G1 X100.341 Y97.749 E3.15106
G1 X100.298 Y97.677 E3.15371
G1 X100.255 Y97.533 E3.15843
G1 X100.394 Y97.283 E3.16739
G1 X100.460 Y97.228 E3.17007
G1 X100.589 Y97.172 E3.17449
G1 X100.847 Y97.143 E3.18260
G1 X101.155 Y97.214 E3.19251
G1 X101.266 Y97.271 E3.19640
G1 X101.386 Y97.367 E3.20122
G1 X101.488 Y97.506 E3.20661
G1 X101.572 Y97.798 E3.21614
G1 X101.519 Y97.935 E3.22071
G1 X101.402 Y97.954 F7800.000
G1 X101.319 Y97.681 F7800.000
G1 F600
G1 X101.023 Y97.577 E3.22580
G1 X100.777 Y97.527 E3.22986
G1 X100.668 Y97.530 E3.23165
G1 X100.505 Y97.605 E3.23454
G1 E1.23454 F2400.00000
G92 E0
M107
; Filament-specific end gcode 
;END gcode for filament

M104 S0 ; turn off temperature
G28 X0  ; home X axis
M84     ; disable motors

M140 S0 ; set bed temperature
; filament used = 21.8mm (0.2cm3)
; total filament cost = 0.0

; avoid_crossing_perimeters = 0
; bed_shape = 0x0,200x0,200x200,0x200
; bed_temperature = 0
; before_layer_gcode = 
; between_objects_gcode = 
; bridge_acceleration = 0
; bridge_fan_speed = 100
; brim_connections_width = 0
; brim_width = 0
; complete_objects = 0
; cooling = 1
; default_acceleration = 0
; disable_fan_first_layers = 3
; duplicate_distance = 6
; end_filament_gcode = "; Filament-specific end gcode \n;END gcode for filament\n"
; end_gcode = M104 S0 ; turn off temperature\nG28 X0  ; home X axis\nM84     ; disable motors\n
; extruder_clearance_height = 20
; extruder_clearance_radius = 20
; extruder_offset = 0x0
; extrusion_axis = E
; extrusion_multiplier = 1
; fan_always_on = 0
; fan_below_layer_time = 60
; filament_colour = #FFFFFF
; filament_cost = 0
; filament_density = 0
; filament_diameter = 3
; filament_max_volumetric_speed = 0
; filament_notes = ""
; first_layer_acceleration = 0
; first_layer_bed_temperature = 0
; first_layer_extrusion_width = 200%
; first_layer_speed = 30
; first_layer_temperature = 205
; gcode_arcs = 0
; gcode_comments = 0
; gcode_flavor = reprap
; has_heatbed = 1
; infill_acceleration = 0
; infill_first = 0
; interior_brim_width = 0
; layer_gcode = 
; max_fan_speed = 100
; max_layer_height = 0.3
; max_print_speed = 80
; max_volumetric_speed = 0
; min_fan_speed = 35
; min_layer_height = 0.15
; min_print_speed = 10
; min_skirt_length = 0
; notes = 
; nozzle_diameter = 0.5
; only_retract_when_crossing_perimeters = 1
; ooze_prevention = 0
; output_filename_format = [input_filename_base].gcode
; perimeter_acceleration = 0
; post_process = 
; pressure_advance = 0
; printer_notes = 
; resolution = 0
; retract_before_travel = 2
; retract_layer_change = 0
; retract_length = 2
; retract_length_toolchange = 10
; retract_lift = 0
; retract_lift_above = 0
; retract_lift_below = 0
; retract_restart_extra = 0
; retract_restart_extra_toolchange = 0
; retract_speed = 40
; skirt_distance = 6
; skirt_height = 1
; skirts = 0
; slowdown_below_layer_time = 5
; spiral_vase = 0
; standby_temperature_delta = -5
; start_filament_gcode = "; Filament gcode\n"
; start_gcode = G28 ; home all axes\nG1 Z5 F5000 ; lift nozzle\n
; temperature = 200
; threads = 8
; toolchange_gcode = 
; travel_speed = 130
; use_firmware_retraction = 0
; use_relative_e_distances = 0
; use_set_and_wait_bed = 0
; use_set_and_wait_extruder = 0
; use_volumetric_e = 0
; vibration_limit = 0
; wipe = 0
; z_offset = 0
; z_steps_per_mm = 0
; adaptive_slicing = 0
; adaptive_slicing_quality = 75%
; dont_support_bridges = 1
; extrusion_width = 0
; first_layer_height = 1
; infill_only_where_needed = 0
; interface_shells = 0
; layer_height = 1
; match_horizontal_surfaces = 0
; raft_layers = 0
; regions_overlap = 0
; seam_position = aligned
; sequential_print_priority = 0
; support_material = 0
; support_material_angle = 0
; support_material_buildplate_only = 0
; support_material_contact_distance = 0.2
; support_material_enforce_layers = 0
; support_material_extruder = 1
; support_material_extrusion_width = 0
; support_material_interface_extruder = 1
; support_material_interface_extrusion_width = 0
; support_material_interface_layers = 3
; support_material_interface_spacing = 0
; support_material_interface_speed = 100%
; support_material_max_layers = 0
; support_material_pattern = pillars
; support_material_spacing = 2.5
; support_material_speed = 60
; support_material_threshold = 60%
; xy_size_compensation = 0
; bottom_infill_pattern = rectilinear
; bottom_solid_layers = 0
; bridge_flow_ratio = 1
; bridge_speed = 60
; external_perimeter_extrusion_width = 0
; external_perimeter_speed = 50%
; external_perimeters_first = 0
; extra_perimeters = 1
; fill_angle = 45
; fill_density = 10%
; fill_gaps = 1
; fill_pattern = rectilinear
; gap_fill_speed = 20
; infill_every_layers = 1
; infill_extruder = 1
; infill_extrusion_width = 0
; infill_overlap = 55%
; infill_speed = 80
; overhangs = 1
; perimeter_extruder = 1
; perimeter_extrusion_width = 0
; perimeter_speed = 60
; perimeters = 3
; small_perimeter_speed = 15
; solid_infill_below_area = 70
; solid_infill_every_layers = 0
; solid_infill_extruder = 1
; solid_infill_extrusion_width = 0
; solid_infill_speed = 20
; thin_walls = 1
; top_infill_extrusion_width = 0
; top_infill_pattern = rectilinear
; top_solid_infill_speed = 15
; top_solid_layers = 0
