%
(Header)
(Generated by gcodetools from Inkscape.)
(Using default header. To add your own header create file "header" in the output dir.)
M3
(Header end.)
G21 (All units in mm)

(Start cutting path id: path27180)
(Change tool to Cone cutter)

G00 Z0.000000
G00 X40.690897 Y18.854666

G01 Z-1.000000 F100.0(Penetrate)
G02 X40.576403 Y18.700157 Z-1.000000 I-0.554115 J0.290932 F400.000000
G02 X40.285251 Y18.454321 Z-1.000000 I-1.726092 J1.748944
G02 X39.321621 Y17.895284 Z-1.000000 I-3.327642 J4.625925
G02 X37.787132 Y17.315337 Z-1.000000 I-5.125764 J11.242285
G03 X37.123432 Y17.107997 Z-1.000000 I12.824716 J-42.218069
G03 X36.369831 Y16.860282 Z-1.000000 I17.552276 J-54.667937
G02 X35.612129 Y16.631551 Z-1.000000 I-4.030016 J11.980607
G02 X35.201111 Y16.547046 Z-1.000000 I-0.919741 J3.431648
G03 X34.489381 Y16.396154 Z-1.000000 I0.799223 J-5.523784
G03 X33.242947 Y15.996372 Z-1.000000 I4.890589 J-17.390751
G02 X31.132864 Y15.352317 Z-1.000000 I-7.443409 J20.607835
G02 X29.268587 Y14.998977 Z-1.000000 I-3.945085 J15.720118
G02 X28.296459 Y14.992097 Z-1.000000 I-0.514198 J3.971998
G02 X27.188189 Y15.238405 Z-1.000000 I0.624569 J5.426771
G02 X25.484606 Y16.014429 Z-1.000000 I2.842856 J8.498762
G02 X24.357881 Y16.904629 Z-1.000000 I2.675103 J4.544023
G02 X23.214557 Y18.343270 Z-1.000000 I7.055577 J6.780877
G02 X22.865703 Y19.194725 Z-1.000000 I2.055671 J1.339433
G02 X22.701901 Y20.497818 Z-1.000000 I8.567430 J1.738788
G02 X22.785013 Y20.811338 Z-1.000000 I0.532633 J0.026579
G03 X22.802074 Y20.860506 Z-1.000000 I-0.094548 J0.060352
G03 X22.819313 Y21.153700 Z-1.000000 I-3.551893 J0.355942
G02 X22.831060 Y21.450092 Z-1.000000 I6.786737 J-0.120562
G02 X22.853453 Y21.707754 Z-1.000000 I5.117730 J-0.314962
G01 X22.882373 Y21.964993 Z-1.000000
G01 X22.894143 Y21.648390 Z-1.000000
G02 X22.901450 Y21.331755 Z-1.000000 I-11.114868 J-0.414901
G02 X22.899543 Y21.043365 Z-1.000000 I-9.334791 J-0.082474
G03 X22.938292 Y19.997571 Z-1.000000 I8.847588 J-0.195789
G03 X23.074112 Y19.234299 Z-1.000000 I4.833922 J0.466447
G03 X23.433748 Y18.432067 Z-1.000000 I2.582223 J0.675867
G03 X24.437393 Y17.184364 Z-1.000000 I7.373151 J4.903407
G03 X25.522917 Y16.291202 Z-1.000000 I4.430970 J4.279036
G03 X26.864771 Y15.614303 Z-1.000000 I3.824003 J5.912069
G03 X28.264325 Y15.224583 Z-1.000000 I2.891054 J7.674412
G03 X29.048413 Y15.210428 Z-1.000000 I0.434591 J2.349718
G03 X30.408879 Y15.428272 Z-1.000000 I-8.401794 J56.827338
G03 X30.908451 Y15.531190 Z-1.000000 I-1.337911 J7.758294
G03 X31.773163 Y15.758898 Z-1.000000 I-4.760440 J19.833260
G03 X32.511249 Y15.991059 Z-1.000000 I-4.211694 J14.679174
G02 X34.236693 Y16.549901 Z-1.000000 I17.434539 J-50.886635
G02 X34.832605 Y16.699895 Z-1.000000 I1.803311 J-5.905636
G02 X35.340892 Y16.801186 Z-1.000000 I469.213322 J-2352.858741
G02 X35.627535 Y16.858222 Z-1.000000 I160.507677 J-805.978720
G03 X35.909806 Y16.928746 Z-1.000000 I-0.584630 J2.940118
G03 X36.102438 Y17.001695 Z-1.000000 I-0.434350 J1.437776
G02 X36.292634 Y17.081355 Z-1.000000 I1.264486 J-2.752205
G02 X36.350051 Y17.095625 Z-1.000000 I0.088392 J-0.233003
G03 X36.408310 Y17.108008 Z-1.000000 I-0.043954 J0.350025
G03 X36.844741 Y17.245382 Z-1.000000 I-6.030771 J19.921473
G02 X37.280591 Y17.386061 Z-1.000000 I19.043885 J-58.255992
G02 X37.869999 Y17.572077 Z-1.000000 I33.844602 J-106.212833
G03 X39.041964 Y17.996816 Z-1.000000 I-4.155593 J13.295599
G03 X39.699246 Y18.329246 Z-1.000000 I-1.860070 J4.493747
G03 X40.480491 Y18.963214 Z-1.000000 I-1.897485 J3.136643
G03 X40.535630 Y19.224465 Z-1.000000 I-0.188662 J0.176263
G03 X40.432220 Y19.334949 Z-1.000000 I-0.176445 J-0.061511
G03 X39.570231 Y19.634404 Z-1.000000 I-2.655654 J-6.254013
G03 X37.922331 Y20.012785 Z-1.000000 I-5.385316 J-19.676151
G03 X35.123217 Y20.463162 Z-1.000000 I-10.508501 J-56.387369
G02 X34.114196 Y20.601076 Z-1.000000 I67.437304 J497.152420
G02 X33.975534 Y20.621225 Z-1.000000 I1.283517 J9.320099
G03 X33.836805 Y20.640957 Z-1.000000 I-1.013844 J-6.630453
G03 X33.065303 Y20.741003 Z-1.000000 I-26.943065 J-204.745960
G02 X32.294115 Y20.843324 Z-1.000000 I10.204739 J79.869821
G02 X31.897832 Y20.901650 Z-1.000000 I2.906587 J21.123604
G02 X30.176719 Y21.185957 Z-1.000000 I16.511535 J105.307832
G02 X29.839919 Y21.258915 Z-1.000000 I0.711526 J4.098525
G03 X29.601158 Y21.314852 Z-1.000000 I-1.254785 J-4.818360
G03 X29.087989 Y21.415655 Z-1.000000 I-4.623824 J-22.182447
G02 X28.867013 Y21.473303 Z-1.000000 I0.284883 J1.544353
G01 X28.870324 Y21.489715 Z-1.000000
G02 X29.165798 Y21.458027 Z-1.000000 I-0.283903 J-4.040705
G02 X29.820131 Y21.352459 Z-1.000000 I-2.884416 J-19.958790
G03 X30.474483 Y21.244847 Z-1.000000 I4.340211 J24.348165
G03 X31.403141 Y21.113879 Z-1.000000 I7.368986 J48.893427
G02 X32.332881 Y20.989868 Z-1.000000 I-30.671874 J-233.502025
G02 X32.432099 Y20.974560 Z-1.000000 I-0.364284 J-2.690237
G03 X32.531343 Y20.959601 Z-1.000000 I0.397898 J2.303154
G03 X33.184029 Y20.877740 Z-1.000000 I12.511907 J97.115580
G02 X33.837013 Y20.798005 Z-1.000000 I-416.406753 J-3412.605419
G02 X34.311924 Y20.739913 Z-1.000000 I-255.964763 J-2094.650147
G02 X37.600592 Y20.265052 Z-1.000000 I-9.367800 J-76.502350
G02 X39.293017 Y19.910700 Z-1.000000 I-3.427421 J-20.588541
G02 X40.500722 Y19.528920 Z-1.000000 I-2.663760 J-10.527500
G02 X40.692031 Y19.376857 Z-1.000000 I-0.144122 J-0.377692
G02 X40.762653 Y19.144393 Z-1.000000 I-0.344208 J-0.231528
G02 X40.690831 Y18.854669 Z-1.000000 I-0.625973 J0.001413
G01 X40.690897 Y18.854666 Z-1.000000
G00 Z0.000000

(End cutting path id: path27180)


(Start cutting path id: path27180)
(Change tool to Cone cutter)

G00 Z0.000000
G00 X40.690897 Y18.854666

G01 Z-1.000000 F100.0(Penetrate)
G02 X40.576403 Y18.700157 Z-1.000000 I-0.554115 J0.290932 F400.000000
G02 X40.285251 Y18.454321 Z-1.000000 I-1.726092 J1.748944
G02 X39.321621 Y17.895284 Z-1.000000 I-3.327642 J4.625925
G02 X37.787132 Y17.315337 Z-1.000000 I-5.125764 J11.242285
G03 X37.123432 Y17.107997 Z-1.000000 I12.824716 J-42.218069
G03 X36.369831 Y16.860282 Z-1.000000 I17.552276 J-54.667937
G02 X35.612129 Y16.631551 Z-1.000000 I-4.030016 J11.980607
G02 X35.201111 Y16.547046 Z-1.000000 I-0.919741 J3.431648
G03 X34.489381 Y16.396154 Z-1.000000 I0.799223 J-5.523784
G03 X33.242947 Y15.996372 Z-1.000000 I4.890589 J-17.390751
G02 X31.132864 Y15.352317 Z-1.000000 I-7.443409 J20.607835
G02 X29.268587 Y14.998977 Z-1.000000 I-3.945085 J15.720118
G02 X28.296459 Y14.992097 Z-1.000000 I-0.514198 J3.971998
G02 X27.188189 Y15.238405 Z-1.000000 I0.624569 J5.426771
G02 X25.484606 Y16.014429 Z-1.000000 I2.842856 J8.498762
G02 X24.357881 Y16.904629 Z-1.000000 I2.675103 J4.544023
G02 X23.214557 Y18.343270 Z-1.000000 I7.055577 J6.780877
G02 X22.865703 Y19.194725 Z-1.000000 I2.055671 J1.339433
G02 X22.701901 Y20.497818 Z-1.000000 I8.567430 J1.738788
G02 X22.785013 Y20.811338 Z-1.000000 I0.532633 J0.026579
G03 X22.802074 Y20.860506 Z-1.000000 I-0.094548 J0.060352
G03 X22.819313 Y21.153700 Z-1.000000 I-3.551893 J0.355942
G02 X22.831060 Y21.450092 Z-1.000000 I6.786737 J-0.120562
G02 X22.853453 Y21.707754 Z-1.000000 I5.117730 J-0.314962
G01 X22.882373 Y21.964993 Z-1.000000
G01 X22.894143 Y21.648390 Z-1.000000
G02 X22.901450 Y21.331755 Z-1.000000 I-11.114868 J-0.414901
G02 X22.899543 Y21.043365 Z-1.000000 I-9.334791 J-0.082474
G03 X22.938292 Y19.997571 Z-1.000000 I8.847588 J-0.195789
G03 X23.074112 Y19.234299 Z-1.000000 I4.833922 J0.466447
G03 X23.433748 Y18.432067 Z-1.000000 I2.582223 J0.675867
G03 X24.437393 Y17.184364 Z-1.000000 I7.373151 J4.903407
G03 X25.522917 Y16.291202 Z-1.000000 I4.430970 J4.279036
G03 X26.864771 Y15.614303 Z-1.000000 I3.824003 J5.912069
G03 X28.264325 Y15.224583 Z-1.000000 I2.891054 J7.674412
G03 X29.048413 Y15.210428 Z-1.000000 I0.434591 J2.349718
G03 X30.408879 Y15.428272 Z-1.000000 I-8.401794 J56.827338
G03 X30.908451 Y15.531190 Z-1.000000 I-1.337911 J7.758294
G03 X31.773163 Y15.758898 Z-1.000000 I-4.760440 J19.833260
G03 X32.511249 Y15.991059 Z-1.000000 I-4.211694 J14.679174
G02 X34.236693 Y16.549901 Z-1.000000 I17.434539 J-50.886635
G02 X34.832605 Y16.699895 Z-1.000000 I1.803311 J-5.905636
G02 X35.340892 Y16.801186 Z-1.000000 I469.213322 J-2352.858741
G02 X35.627535 Y16.858222 Z-1.000000 I160.507677 J-805.978720
G03 X35.909806 Y16.928746 Z-1.000000 I-0.584630 J2.940118
G03 X36.102438 Y17.001695 Z-1.000000 I-0.434350 J1.437776
G02 X36.292634 Y17.081355 Z-1.000000 I1.264486 J-2.752205
G02 X36.350051 Y17.095625 Z-1.000000 I0.088392 J-0.233003
G03 X36.408310 Y17.108008 Z-1.000000 I-0.043954 J0.350025
G03 X36.844741 Y17.245382 Z-1.000000 I-6.030771 J19.921473
G02 X37.280591 Y17.386061 Z-1.000000 I19.043885 J-58.255992
G02 X37.869999 Y17.572077 Z-1.000000 I33.844602 J-106.212833
G03 X39.041964 Y17.996816 Z-1.000000 I-4.155593 J13.295599
G03 X39.699246 Y18.329246 Z-1.000000 I-1.860070 J4.493747
G03 X40.480491 Y18.963214 Z-1.000000 I-1.897485 J3.136643
G03 X40.535630 Y19.224465 Z-1.000000 I-0.188662 J0.176263
G03 X40.432220 Y19.334949 Z-1.000000 I-0.176445 J-0.061511
G03 X39.570231 Y19.634404 Z-1.000000 I-2.655654 J-6.254013
G03 X37.922331 Y20.012785 Z-1.000000 I-5.385316 J-19.676151
G03 X35.123217 Y20.463162 Z-1.000000 I-10.508501 J-56.387369
G02 X34.114196 Y20.601076 Z-1.000000 I67.437304 J497.152420
G02 X33.975534 Y20.621225 Z-1.000000 I1.283517 J9.320099
G03 X33.836805 Y20.640957 Z-1.000000 I-1.013844 J-6.630453
G03 X33.065303 Y20.741003 Z-1.000000 I-26.943065 J-204.745960
G02 X32.294115 Y20.843324 Z-1.000000 I10.204739 J79.869821
G02 X31.897832 Y20.901650 Z-1.000000 I2.906587 J21.123604
G02 X30.176719 Y21.185957 Z-1.000000 I16.511535 J105.307832
G02 X29.839919 Y21.258915 Z-1.000000 I0.711526 J4.098525
G03 X29.601158 Y21.314852 Z-1.000000 I-1.254785 J-4.818360
G03 X29.087989 Y21.415655 Z-1.000000 I-4.623824 J-22.182447
G02 X28.867013 Y21.473303 Z-1.000000 I0.284883 J1.544353
G01 X28.870324 Y21.489715 Z-1.000000
G02 X29.165798 Y21.458027 Z-1.000000 I-0.283903 J-4.040705
G02 X29.820131 Y21.352459 Z-1.000000 I-2.884416 J-19.958790
G03 X30.474483 Y21.244847 Z-1.000000 I4.340211 J24.348165
G03 X31.403141 Y21.113879 Z-1.000000 I7.368986 J48.893427
G02 X32.332881 Y20.989868 Z-1.000000 I-30.671874 J-233.502025
G02 X32.432099 Y20.974560 Z-1.000000 I-0.364284 J-2.690237
G03 X32.531343 Y20.959601 Z-1.000000 I0.397898 J2.303154
G03 X33.184029 Y20.877740 Z-1.000000 I12.511907 J97.115580
G02 X33.837013 Y20.798005 Z-1.000000 I-416.406753 J-3412.605419
G02 X34.311924 Y20.739913 Z-1.000000 I-255.964763 J-2094.650147
G02 X37.600592 Y20.265052 Z-1.000000 I-9.367800 J-76.502350
G02 X39.293017 Y19.910700 Z-1.000000 I-3.427421 J-20.588541
G02 X40.500722 Y19.528920 Z-1.000000 I-2.663760 J-10.527500
G02 X40.692031 Y19.376857 Z-1.000000 I-0.144122 J-0.377692
G02 X40.762653 Y19.144393 Z-1.000000 I-0.344208 J-0.231528
G02 X40.690831 Y18.854669 Z-1.000000 I-0.625973 J0.001413
G01 X40.690897 Y18.854666 Z-1.000000
G00 Z0.000000

(End cutting path id: path27180)


(Start cutting path id: path27180)
(Change tool to Cone cutter)

G00 Z0.000000
G00 X36.564287 Y18.437488

G01 Z-1.000000 F100.0(Penetrate)
G03 X36.226558 Y19.186960 Z-1.000000 I-2.161485 J-0.523182 F400.000000
G03 X35.776521 Y19.566385 Z-1.000000 I-0.935127 J-0.652551
G03 X35.251576 Y19.765590 Z-1.000000 I-1.558410 J-3.315450
G03 X33.949152 Y20.103708 Z-1.000000 I-5.935032 J-20.184124
G03 X33.226121 Y20.218886 Z-1.000000 I-1.259484 J-5.579411
G03 X30.987595 Y20.382699 Z-1.000000 I-5.041779 J-53.519828
G02 X29.986425 Y20.453621 Z-1.000000 I1.410914 J27.019078
G02 X29.028620 Y20.558044 Z-1.000000 I2.222682 J24.832134
G02 X28.731930 Y20.597159 Z-1.000000 I5.949618 J46.272947
G02 X27.544547 Y20.758534 Z-1.000000 I101.412254 J750.631710
G03 X25.318105 Y21.044028 Z-1.000000 I-18.233614 J-133.371538
G03 X24.556613 Y21.116377 Z-1.000000 I-1.858740 J-15.520149
G02 X23.944001 Y21.166261 Z-1.000000 I1.961180 J27.871056
G02 X23.765108 Y21.189607 Z-1.000000 I0.221540 J2.394712
G01 X23.767900 Y21.218271 Z-1.000000
G02 X25.249181 Y21.149577 Z-1.000000 I-1.032879 J-38.277640
G02 X25.984498 Y21.085506 Z-1.000000 I-1.144255 J-17.383671
G02 X27.722635 Y20.881154 Z-1.000000 I-10.569233 J-97.391812
G03 X30.101523 Y20.618170 Z-1.000000 I9.475701 J74.823862
G03 X31.521861 Y20.522071 Z-1.000000 I2.510781 J26.564970
G02 X33.644320 Y20.310831 Z-1.000000 I-0.747678 J-18.280864
G02 X35.127913 Y19.949297 Z-1.000000 I-1.471081 J-9.261537
G02 X35.953867 Y19.552574 Z-1.000000 I-1.137517 J-3.426400
G02 X36.335950 Y19.166393 Z-1.000000 I-0.690176 J-1.064956
G02 X36.568121 Y18.685800 Z-1.000000 I-1.976537 J-1.251228
G02 X36.622939 Y18.343860 Z-1.000000 I-0.929854 J-0.324433
G01 X36.605721 Y18.339076 Z-1.000000
G02 X36.564279 Y18.437490 Z-1.000000 I0.281847 J0.176618
G01 X36.564287 Y18.437488 Z-1.000000
G00 Z0.000000

(End cutting path id: path27180)


(Start cutting path id: path27180)
(Change tool to Cone cutter)

G00 Z0.000000
G00 X36.564287 Y18.437488

G01 Z-1.000000 F100.0(Penetrate)
G03 X36.226558 Y19.186960 Z-1.000000 I-2.161485 J-0.523182 F400.000000
G03 X35.776521 Y19.566385 Z-1.000000 I-0.935127 J-0.652551
G03 X35.251576 Y19.765590 Z-1.000000 I-1.558410 J-3.315450
G03 X33.949152 Y20.103708 Z-1.000000 I-5.935032 J-20.184124
G03 X33.226121 Y20.218886 Z-1.000000 I-1.259484 J-5.579411
G03 X30.987595 Y20.382699 Z-1.000000 I-5.041779 J-53.519828
G02 X29.986425 Y20.453621 Z-1.000000 I1.410914 J27.019078
G02 X29.028620 Y20.558044 Z-1.000000 I2.222682 J24.832134
G02 X28.731930 Y20.597159 Z-1.000000 I5.949618 J46.272947
G02 X27.544547 Y20.758534 Z-1.000000 I101.412254 J750.631710
G03 X25.318105 Y21.044028 Z-1.000000 I-18.233614 J-133.371538
G03 X24.556613 Y21.116377 Z-1.000000 I-1.858740 J-15.520149
G02 X23.944001 Y21.166261 Z-1.000000 I1.961180 J27.871056
G02 X23.765108 Y21.189607 Z-1.000000 I0.221540 J2.394712
G01 X23.767900 Y21.218271 Z-1.000000
G02 X25.249181 Y21.149577 Z-1.000000 I-1.032879 J-38.277640
G02 X25.984498 Y21.085506 Z-1.000000 I-1.144255 J-17.383671
G02 X27.722635 Y20.881154 Z-1.000000 I-10.569233 J-97.391812
G03 X30.101523 Y20.618170 Z-1.000000 I9.475701 J74.823862
G03 X31.521861 Y20.522071 Z-1.000000 I2.510781 J26.564970
G02 X33.644320 Y20.310831 Z-1.000000 I-0.747678 J-18.280864
G02 X35.127913 Y19.949297 Z-1.000000 I-1.471081 J-9.261537
G02 X35.953867 Y19.552574 Z-1.000000 I-1.137517 J-3.426400
G02 X36.335950 Y19.166393 Z-1.000000 I-0.690176 J-1.064956
G02 X36.568121 Y18.685800 Z-1.000000 I-1.976537 J-1.251228
G02 X36.622939 Y18.343860 Z-1.000000 I-0.929854 J-0.324433
G01 X36.605721 Y18.339076 Z-1.000000
G02 X36.564279 Y18.437490 Z-1.000000 I0.281847 J0.176618
G01 X36.564287 Y18.437488 Z-1.000000
G00 Z0.000000

(End cutting path id: path27180)


(Start cutting path id: path27180)
(Change tool to Cone cutter)

G00 Z0.000000
G00 X31.836443 Y16.800422

G01 Z-1.000000 F100.0(Penetrate)
G02 X31.717388 Y16.225128 Z-1.000000 I-8.246725 J1.406661 F400.000000
G01 X31.694595 Y16.218743 Z-1.000000
G01 X31.687707 Y16.238217 Z-1.000000
G02 X31.738635 Y16.636158 Z-1.000000 I9.137726 J-0.967210
G03 X31.782540 Y17.304740 Z-1.000000 I-3.971909 J0.596566
G03 X31.718765 Y17.744151 Z-1.000000 I-1.763558 J-0.031626
G03 X31.019978 Y19.240517 Z-1.000000 I-4.799722 J-1.330072
G03 X30.340123 Y19.744451 Z-1.000000 I-1.076807 J-0.742155
G03 X29.961639 Y19.843899 Z-1.000000 I-1.155046 J-3.625962
G03 X27.663276 Y20.302437 Z-1.000000 I-27.848988 J-133.600230
G01 X26.100052 Y20.600322 Z-1.000000
G03 X24.862359 Y20.828965 Z-1.000000 I-21.117463 J-110.848919
G03 X23.769411 Y21.017441 Z-1.000000 I-15.435227 J-86.243827
G02 X23.584742 Y21.069650 Z-1.000000 I0.141663 J0.853772
G01 X23.590151 Y21.090421 Z-1.000000
G02 X25.460832 Y20.836379 Z-1.000000 I-9.554238 J-77.368938
G02 X27.030071 Y20.580777 Z-1.000000 I-8.101879 J-54.685335
G02 X29.887315 Y20.041413 Z-1.000000 I-23.707233 J-133.425275
G02 X30.419274 Y19.903261 Z-1.000000 I-0.949096 J-4.747747
G02 X30.994194 Y19.491209 Z-1.000000 I-0.353574 J-1.100436
G02 X31.725971 Y18.140786 Z-1.000000 I-4.378104 J-3.245921
G02 X31.819082 Y17.803775 Z-1.000000 I-1.916327 J-0.710822
G02 X31.861198 Y17.413841 Z-1.000000 I-2.528073 J-0.470291
G02 X31.859425 Y17.019070 Z-1.000000 I-5.523963 J-0.172574
G02 X31.836448 Y16.800426 Z-1.000000 I-1.704393 J0.068580
G01 X31.836443 Y16.800422 Z-1.000000
G00 Z0.000000

(End cutting path id: path27180)


(Start cutting path id: path27180)
(Change tool to Cone cutter)

G00 Z0.000000
G00 X31.836443 Y16.800422

G01 Z-1.000000 F100.0(Penetrate)
G02 X31.717388 Y16.225128 Z-1.000000 I-8.246725 J1.406661 F400.000000
G01 X31.694595 Y16.218743 Z-1.000000
G01 X31.687707 Y16.238217 Z-1.000000
G02 X31.738635 Y16.636158 Z-1.000000 I9.137726 J-0.967210
G03 X31.782540 Y17.304740 Z-1.000000 I-3.971909 J0.596566
G03 X31.718765 Y17.744151 Z-1.000000 I-1.763558 J-0.031626
G03 X31.019978 Y19.240517 Z-1.000000 I-4.799722 J-1.330072
G03 X30.340123 Y19.744451 Z-1.000000 I-1.076807 J-0.742155
G03 X29.961639 Y19.843899 Z-1.000000 I-1.155046 J-3.625962
G03 X27.663276 Y20.302437 Z-1.000000 I-27.848988 J-133.600230
G01 X26.100052 Y20.600322 Z-1.000000
G03 X24.862359 Y20.828965 Z-1.000000 I-21.117463 J-110.848919
G03 X23.769411 Y21.017441 Z-1.000000 I-15.435227 J-86.243827
G02 X23.584742 Y21.069650 Z-1.000000 I0.141663 J0.853772
G01 X23.590151 Y21.090421 Z-1.000000
G02 X25.460832 Y20.836379 Z-1.000000 I-9.554238 J-77.368938
G02 X27.030071 Y20.580777 Z-1.000000 I-8.101879 J-54.685335
G02 X29.887315 Y20.041413 Z-1.000000 I-23.707233 J-133.425275
G02 X30.419274 Y19.903261 Z-1.000000 I-0.949096 J-4.747747
G02 X30.994194 Y19.491209 Z-1.000000 I-0.353574 J-1.100436
G02 X31.725971 Y18.140786 Z-1.000000 I-4.378104 J-3.245921
G02 X31.819082 Y17.803775 Z-1.000000 I-1.916327 J-0.710822
G02 X31.861198 Y17.413841 Z-1.000000 I-2.528073 J-0.470291
G02 X31.859425 Y17.019070 Z-1.000000 I-5.523963 J-0.172574
G02 X31.836448 Y16.800426 Z-1.000000 I-1.704393 J0.068580
G01 X31.836443 Y16.800422 Z-1.000000
G00 Z0.000000

(End cutting path id: path27180)


(Start cutting path id: path27180)
(Change tool to Cone cutter)

G00 Z0.000000
G00 X27.783780 Y16.187005

G01 Z-1.000000 F100.0(Penetrate)
G02 X27.773794 Y16.228140 Z-1.000000 I0.120980 J0.051150 F400.000000
G02 X27.724800 Y16.958722 Z-1.000000 I38.997498 J2.982157
G03 X27.519818 Y18.539791 Z-1.000000 I-11.164820 J-0.643674
G03 X27.255187 Y19.272214 Z-1.000000 I-2.615107 J-0.530842
G03 X26.884125 Y19.788983 Z-1.000000 I-2.168464 J-1.165444
G03 X26.437265 Y20.146141 Z-1.000000 I-1.453247 J-1.360115
G03 X26.143295 Y20.275948 Z-1.000000 I-0.712471 J-1.215740
G03 X24.774281 Y20.663374 Z-1.000000 I-8.203624 J-26.375918
G02 X24.557030 Y20.767194 Z-1.000000 I0.153142 J0.599681
G01 X24.576404 Y20.811182 Z-1.000000
G02 X26.027793 Y20.490838 Z-1.000000 I-4.789751 J-25.149124
G02 X26.394842 Y20.354087 Z-1.000000 I-0.433453 J-1.724384
G02 X26.970175 Y19.931900 Z-1.000000 I-0.971928 J-1.927597
G02 X27.425000 Y19.295289 Z-1.000000 I-1.859856 J-1.809550
G02 X27.650506 Y18.603656 Z-1.000000 I-2.117316 J-1.072927
G02 X27.785955 Y17.077448 Z-1.000000 I-10.393246 J-1.691501
G02 X27.791799 Y16.188625 Z-1.000000 I-49.025999 J-0.766765
G01 X27.783755 Y16.187005 Z-1.000000
G01 X27.783780 Y16.187005 Z-1.000000
G00 Z0.000000

(End cutting path id: path27180)


(Start cutting path id: path27180)
(Change tool to Cone cutter)

G00 Z0.000000
G00 X27.783780 Y16.187005

G01 Z-1.000000 F100.0(Penetrate)
G02 X27.773794 Y16.228140 Z-1.000000 I0.120980 J0.051150 F400.000000
G02 X27.724800 Y16.958722 Z-1.000000 I38.997498 J2.982157
G03 X27.519818 Y18.539791 Z-1.000000 I-11.164820 J-0.643674
G03 X27.255187 Y19.272214 Z-1.000000 I-2.615107 J-0.530842
G03 X26.884125 Y19.788983 Z-1.000000 I-2.168464 J-1.165444
G03 X26.437265 Y20.146141 Z-1.000000 I-1.453247 J-1.360115
G03 X26.143295 Y20.275948 Z-1.000000 I-0.712471 J-1.215740
G03 X24.774281 Y20.663374 Z-1.000000 I-8.203624 J-26.375918
G02 X24.557030 Y20.767194 Z-1.000000 I0.153142 J0.599681
G01 X24.576404 Y20.811182 Z-1.000000
G02 X26.027793 Y20.490838 Z-1.000000 I-4.789751 J-25.149124
G02 X26.394842 Y20.354087 Z-1.000000 I-0.433453 J-1.724384
G02 X26.970175 Y19.931900 Z-1.000000 I-0.971928 J-1.927597
G02 X27.425000 Y19.295289 Z-1.000000 I-1.859856 J-1.809550
G02 X27.650506 Y18.603656 Z-1.000000 I-2.117316 J-1.072927
G02 X27.785955 Y17.077448 Z-1.000000 I-10.393246 J-1.691501
G02 X27.791799 Y16.188625 Z-1.000000 I-49.025999 J-0.766765
G01 X27.783755 Y16.187005 Z-1.000000
G01 X27.783780 Y16.187005 Z-1.000000
G00 Z0.000000

(End cutting path id: path27180)


(Start cutting path id: path27180)
(Change tool to Cone cutter)

G00 Z0.000000
G00 X22.873597 Y18.136927

G01 Z-1.000000 F100.0(Penetrate)
G02 X22.346295 Y16.742161 Z-1.000000 I-4.451457 J0.885847 F400.000000
G02 X21.727204 Y16.164374 Z-1.000000 I-1.265651 J0.735562
G02 X21.227865 Y16.025155 Z-1.000000 I-0.620468 J1.260340
G02 X20.955265 Y16.097564 Z-1.000000 I-0.035860 J0.414335
G02 X20.068942 Y16.774862 Z-1.000000 I6.769145 J9.776786
G02 X19.801341 Y17.068369 Z-1.000000 I0.970585 J1.153663
G03 X19.679607 Y17.216576 Z-1.000000 I-0.978882 J-0.679932
G01 X19.655215 Y17.219629 Z-1.000000
G01 X19.637909 Y17.224497 Z-1.000000
G02 X19.619175 Y17.290409 Z-1.000000 I0.157896 J0.080498
G03 X19.599294 Y17.375579 Z-1.000000 I-0.296854 J-0.024387
G03 X19.436421 Y17.752565 Z-1.000000 I-6.130200 J-2.424820
G02 X19.113888 Y18.549708 Z-1.000000 I7.145373 J3.354918
G02 X18.874706 Y19.392600 Z-1.000000 I7.752696 J2.655316
G01 X18.802906 Y19.709202 Z-1.000000
G01 X18.751316 Y19.353024 Z-1.000000
G02 X18.591348 Y18.582305 Z-1.000000 I-6.408532 J0.928172
G02 X18.423934 Y18.148884 Z-1.000000 I-2.177386 J0.591998
G02 X17.656912 Y17.045127 Z-1.000000 I-4.429501 J2.259757
G02 X16.426013 Y15.973374 Z-1.000000 I-5.400271 J4.959451
G02 X15.291007 Y15.342662 Z-1.000000 I-3.786316 J5.477098
G02 X13.662333 Y14.773703 Z-1.000000 I-4.680204 J10.781766
G02 X12.915499 Y14.701332 Z-1.000000 I-0.589354 J2.192195
G02 X10.962515 Y14.961439 Z-1.000000 I1.085903 J15.615336
G02 X9.865906 Y15.226411 Z-1.000000 I2.627019 J13.273825
G02 X8.587994 Y15.641116 Z-1.000000 I5.281013 J18.449729
G03 X7.113509 Y16.121889 Z-1.000000 I-7.885543 J-21.682785
G03 X6.292628 Y16.305076 Z-1.000000 I-1.885536 J-6.518454
G02 X5.902041 Y16.388952 Z-1.000000 I0.580786 J3.655916
G02 X5.204308 Y16.601032 Z-1.000000 I3.236803 J11.902724
G03 X4.510237 Y16.829450 Z-1.000000 I-17.370269 J-51.612704
G03 X3.733414 Y17.074188 Z-1.000000 I-20.720605 J-64.413928
G02 X2.341271 Y17.588632 Z-1.000000 I3.994605 J12.950717
G02 X1.527273 Y18.029773 Z-1.000000 I2.096295 J4.839672
G02 X0.864292 Y18.676578 Z-1.000000 I1.363563 J2.060851
G02 X0.816781 Y19.048017 Z-1.000000 I0.331240 J0.231126
G02 X0.988752 Y19.229431 Z-1.000000 I0.298218 J-0.110479
G02 X2.157013 Y19.627682 Z-1.000000 I3.077979 J-7.116520
G02 X3.971938 Y20.007428 Z-1.000000 I5.361839 J-21.099019
G02 X7.677763 Y20.539356 Z-1.000000 I14.459483 J-87.561141
G03 X10.526934 Y20.899930 Z-1.000000 I-39.412624 J322.865981
G03 X10.982297 Y20.972387 Z-1.000000 I-1.089583 J8.314756
G02 X12.195164 Y21.179103 Z-1.000000 I6.870483 J-36.649753
G02 X12.782971 Y21.248819 Z-1.000000 I1.310866 J-8.539622
G01 X13.020423 Y21.268759 Z-1.000000
G01 X12.723609 Y21.210429 Z-1.000000
G03 X12.427051 Y21.150827 Z-1.000000 I6.780807 J-34.506232
G03 X11.773802 Y21.015285 Z-1.000000 I34.486743 J-167.852326
G02 X10.789923 Y20.827819 Z-1.000000 I-5.625703 J26.849865
G02 X9.702415 Y20.659664 Z-1.000000 I-5.603643 J32.639660
G03 X9.511185 Y20.631335 Z-1.000000 I1.290932 J-9.373893
G03 X9.425389 Y20.615724 Z-1.000000 I0.300872 J-1.897103
G02 X9.339427 Y20.600993 Z-1.000000 I-0.261003 J1.264922
G02 X8.291179 Y20.460523 Z-1.000000 I-26.219803 J191.681434
G03 X5.828990 Y20.124479 Z-1.000000 I31.318689 J-238.660114
G03 X4.670042 Y19.947252 Z-1.000000 I7.520194 J-53.054964
G03 X1.957908 Y19.410552 Z-1.000000 I6.853307 J-41.753214
G03 X1.207519 Y19.143676 Z-1.000000 I0.793771 J-3.420280
G03 X1.027154 Y18.969481 Z-1.000000 I0.179296 J-0.366119
G03 X1.015105 Y18.783090 Z-1.000000 I0.199550 J-0.106485
G03 X1.453532 Y18.267836 Z-1.000000 I0.938489 J0.354401
G03 X3.417176 Y17.401872 Z-1.000000 I5.032016 J8.751159
G03 X5.216352 Y16.836125 Z-1.000000 I68.514128 J214.743256
G03 X5.290051 Y16.821549 Z-1.000000 I0.105853 J0.341620
G02 X5.352422 Y16.806631 Z-1.000000 I-0.019265 J-0.218393
G02 X5.408777 Y16.774039 Z-1.000000 I-0.085169 J-0.212281
G03 X5.582863 Y16.684573 Z-1.000000 I0.316795 J0.402327
G03 X6.143185 Y16.560930 Z-1.000000 I1.226444 J4.226511
G02 X7.026631 Y16.366735 Z-1.000000 I-1.063237 J-6.943562
G02 X9.102473 Y15.707399 Z-1.000000 I-11.286888 J-39.132895
G03 X10.534829 Y15.305311 Z-1.000000 I4.028924 J11.599949
G03 X12.565307 Y14.958235 Z-1.000000 I4.978097 J23.010103
G01 X13.099574 Y14.890815 Z-1.000000
G01 X13.575613 Y15.011134 Z-1.000000
G03 X15.044377 Y15.496777 Z-1.000000 I-2.643287 J10.458145
G03 X16.116241 Y16.058732 Z-1.000000 I-2.516782 J6.103674
G03 X16.649902 Y16.469142 Z-1.000000 I-2.263677 J3.495652
G03 X17.399138 Y17.221913 Z-1.000000 I-6.962163 J7.678716
G03 X18.160292 Y18.246772 Z-1.000000 I-5.114609 J4.593656
G03 X18.481916 Y19.004628 Z-1.000000 I-2.443723 J1.484259
G03 X18.617186 Y19.763184 Z-1.000000 I-4.639498 J1.218678
G03 X18.656357 Y20.814880 Z-1.000000 I-8.906995 J0.858327
G02 X18.654453 Y21.094313 Z-1.000000 I9.533354 J0.204682
G02 X18.661057 Y21.410940 Z-1.000000 I12.166382 J-0.095377
G01 X18.671887 Y21.727543 Z-1.000000
G01 X18.700807 Y21.470303 Z-1.000000
G02 X18.723749 Y21.212674 Z-1.000000 I-5.565085 J-0.625419
G02 X18.734347 Y20.960521 Z-1.000000 I-5.309140 J-0.349434
G03 X18.772633 Y20.716708 Z-1.000000 I0.902072 J0.016740
G03 X18.904003 Y20.398250 Z-1.000000 I1.680460 J0.506896
G03 X19.346639 Y19.747687 Z-1.000000 I3.224751 J1.718221
G03 X19.928646 Y19.194816 Z-1.000000 I2.895525 J2.465344
G03 X20.490771 Y18.859344 Z-1.000000 I1.721433 J2.245782
G03 X20.850200 Y18.780922 Z-1.000000 I0.366139 J0.815227
G01 X21.081602 Y18.779222 Z-1.000000
G01 X21.058432 Y19.481683 Z-1.000000
G03 X21.033262 Y20.184065 Z-1.000000 I-124.087688 J-4.095007
G03 X21.011162 Y20.703563 Z-1.000000 I-67.195165 J-2.598378
G01 X20.987082 Y21.222983 Z-1.000000
G01 X20.868925 Y21.164033 Z-1.000000
G02 X20.671116 Y21.133722 Z-1.000000 I-0.146108 J0.292894
G02 X20.098173 Y21.287326 Z-1.000000 I0.454246 J2.839678
G02 X18.956478 Y21.765211 Z-1.000000 I7.094901 J18.552860
G01 X18.948126 Y21.811392 Z-1.000000
G01 X18.962786 Y21.815037 Z-1.000000
G02 X19.677296 Y21.587481 Z-1.000000 I-10.691486 J-34.806091
G03 X20.683389 Y21.318094 Z-1.000000 I2.863397 J8.680631
G03 X20.816135 Y21.351151 Z-1.000000 I0.032041 J0.154398
G03 X20.908146 Y21.554252 Z-1.000000 I-0.162753 J0.196125
G03 X20.777115 Y22.776318 Z-1.000000 I-7.741467 J-0.211991
G02 X20.777284 Y22.991581 Z-1.000000 I0.568817 J0.107184
G01 X20.818485 Y22.993982 Z-1.000000
G02 X21.029715 Y22.178129 Z-1.000000 I-7.901543 J-2.481037
G02 X21.073345 Y21.752308 Z-1.000000 I-2.092975 J-0.429593
G01 X21.073930 Y21.420866 Z-1.000000
G01 X21.202549 Y21.445796 Z-1.000000
G03 X21.342478 Y21.502085 Z-1.000000 I-0.075622 J0.390061
G03 X21.950133 Y21.928589 Z-1.000000 I-5.221990 J8.086062
G02 X22.164612 Y22.086612 Z-1.000000 I5.182098 J-6.808923
G02 X22.280976 Y22.164486 Z-1.000000 I1.371434 J-1.923398
G01 X22.399702 Y22.238946 Z-1.000000
G01 X22.322002 Y22.141566 Z-1.000000
G02 X21.962463 Y21.742018 Z-1.000000 I-3.544678 J2.828190
G02 X21.674354 Y21.502464 Z-1.000000 I-1.547858 J1.568560
G02 X21.493192 Y21.410194 Z-1.000000 I-0.424105 J0.608706
G02 X21.268708 Y21.361871 Z-1.000000 I-0.309967 J0.894365
G03 X21.054077 Y21.322604 Z-1.000000 I0.109061 J-1.202333
G01 X21.034365 Y21.296651 Z-1.000000
G03 X21.037888 Y21.252979 Z-1.000000 I0.273317 J0.000068
G03 X21.118485 Y20.777775 Z-1.000000 I32.664359 J5.295631
G02 X21.224325 Y19.833159 Z-1.000000 I-7.350133 J-1.301785
G02 X21.193775 Y19.205908 Z-1.000000 I-3.254078 J-0.155882
G02 X21.142256 Y18.891578 Z-1.000000 I-9.123299 J1.333935
G02 X21.126325 Y18.834700 Z-1.000000 I-0.311701 J0.056633
G01 X21.162677 Y18.789186 Z-1.000000
G03 X21.409621 Y18.875660 Z-1.000000 I-0.097473 J0.674192
G03 X21.569479 Y19.017032 Z-1.000000 I-0.279825 J0.477484
G03 X22.046846 Y19.709243 Z-1.000000 I-6.826193 J5.218225
G02 X22.646730 Y20.620010 Z-1.000000 I16.760938 J-10.386789
G01 X22.685938 Y20.623456 Z-1.000000
G01 X22.688460 Y20.606963 Z-1.000000
G02 X22.567009 Y20.396238 Z-1.000000 I-2.637456 J1.379726
G03 X22.437444 Y20.181524 Z-1.000000 I5.115732 J-3.233431
G03 X22.262739 Y19.867543 Z-1.000000 I10.770224 J-6.198363
G02 X21.574626 Y18.816584 Z-1.000000 I-6.410444 J3.446473
G02 X21.285645 Y18.624331 Z-1.000000 I-0.436868 J0.343354
G02 X21.154171 Y18.606090 Z-1.000000 I-0.134664 J0.487675
G02 X20.775151 Y18.621131 Z-1.000000 I-0.026026 J4.127167
G02 X20.407586 Y18.691217 Z-1.000000 I0.155439 J1.814086
G02 X20.170515 Y18.802465 Z-1.000000 I0.256092 J0.853961
G02 X19.958055 Y18.965225 Z-1.000000 I1.096563 J1.651453
G02 X19.570315 Y19.330234 Z-1.000000 I5.180718 J5.891799
G02 X19.223586 Y19.730856 Z-1.000000 I2.757998 J2.737338
G02 X18.987176 Y20.105035 Z-1.000000 I2.166599 J1.630651
G01 X18.780249 Y20.500788 Z-1.000000
G01 X18.779406 Y20.216166 Z-1.000000
G03 X18.911764 Y19.408733 Z-1.000000 I2.484548 J-0.007287
G03 X19.631205 Y17.712197 Z-1.000000 I11.929483 J4.058060
G03 X20.058252 Y17.032015 Z-1.000000 I4.141028 J2.125763
G03 X20.364514 Y16.741579 Z-1.000000 I1.025793 J0.774995
G02 X20.537970 Y16.620902 Z-1.000000 I-4.274610 J-6.329130
G02 X20.820213 Y16.415083 Z-1.000000 I-12.125679 J-16.924593
G03 X21.109145 Y16.232230 Z-1.000000 I1.373879 J1.851206
G03 X21.210566 Y16.206872 Z-1.000000 I0.101421 J0.190144
G03 X21.275229 Y16.246260 Z-1.000000 I0.000000 J0.072772
G03 X21.297396 Y16.375067 Z-1.000000 I-0.192664 J0.099468
G02 X21.280957 Y16.543821 Z-1.000000 I2.177075 J0.297259
G02 X21.249296 Y17.196253 Z-1.000000 I32.513988 J1.904797
G03 X21.213391 Y17.847923 Z-1.000000 I-19.702041 J-0.758687
G03 X21.191096 Y18.007546 Z-1.000000 I-1.197305 J-0.085865
G02 X21.193317 Y18.087196 Z-1.000000 I0.168299 J0.035164
G01 X21.213456 Y18.091026 Z-1.000000
G02 X21.333523 Y17.793828 Z-1.000000 I-0.513231 J-0.380197
G02 X21.381018 Y16.812476 Z-1.000000 I-5.949980 J-0.779788
G03 X21.401921 Y16.257833 Z-1.000000 I3.895321 J-0.130914
G01 X21.444808 Y16.229186 Z-1.000000
G03 X21.991081 Y16.522707 Z-1.000000 I-0.418813 J1.434548
G03 X22.426275 Y17.059322 Z-1.000000 I-1.197870 J1.416250
G03 X22.674138 Y17.636789 Z-1.000000 I-3.125041 J1.683275
G03 X22.872732 Y18.421089 Z-1.000000 I-5.590804 J1.832947
G02 X22.912786 Y18.564188 Z-1.000000 I0.780991 J-0.141447
G01 X22.926692 Y18.561602 Z-1.000000
G02 X22.916802 Y18.404259 Z-1.000000 I-1.275000 J0.001157
G02 X22.873532 Y18.137008 Z-1.000000 I-3.744257 J0.469100
G01 X22.873597 Y18.136927 Z-1.000000
G00 Z0.000000

(End cutting path id: path27180)


(Start cutting path id: path27180)
(Change tool to Cone cutter)

G00 Z0.000000
G00 X22.873597 Y18.136927

G01 Z-1.000000 F100.0(Penetrate)
G02 X22.346295 Y16.742161 Z-1.000000 I-4.451457 J0.885847 F400.000000
G02 X21.727204 Y16.164374 Z-1.000000 I-1.265651 J0.735562
G02 X21.227865 Y16.025155 Z-1.000000 I-0.620468 J1.260340
G02 X20.955265 Y16.097564 Z-1.000000 I-0.035860 J0.414335
G02 X20.068942 Y16.774862 Z-1.000000 I6.769145 J9.776786
G02 X19.801341 Y17.068369 Z-1.000000 I0.970585 J1.153663
G03 X19.679607 Y17.216576 Z-1.000000 I-0.978882 J-0.679932
G01 X19.655215 Y17.219629 Z-1.000000
G01 X19.637909 Y17.224497 Z-1.000000
G02 X19.619175 Y17.290409 Z-1.000000 I0.157896 J0.080498
G03 X19.599294 Y17.375579 Z-1.000000 I-0.296854 J-0.024387
G03 X19.436421 Y17.752565 Z-1.000000 I-6.130200 J-2.424820
G02 X19.113888 Y18.549708 Z-1.000000 I7.145373 J3.354918
G02 X18.874706 Y19.392600 Z-1.000000 I7.752696 J2.655316
G01 X18.802906 Y19.709202 Z-1.000000
G01 X18.751316 Y19.353024 Z-1.000000
G02 X18.591348 Y18.582305 Z-1.000000 I-6.408532 J0.928172
G02 X18.423934 Y18.148884 Z-1.000000 I-2.177386 J0.591998
G02 X17.656912 Y17.045127 Z-1.000000 I-4.429501 J2.259757
G02 X16.426013 Y15.973374 Z-1.000000 I-5.400271 J4.959451
G02 X15.291007 Y15.342662 Z-1.000000 I-3.786316 J5.477098
G02 X13.662333 Y14.773703 Z-1.000000 I-4.680204 J10.781766
G02 X12.915499 Y14.701332 Z-1.000000 I-0.589354 J2.192195
G02 X10.962515 Y14.961439 Z-1.000000 I1.085903 J15.615336
G02 X9.865906 Y15.226411 Z-1.000000 I2.627019 J13.273825
G02 X8.587994 Y15.641116 Z-1.000000 I5.281013 J18.449729
G03 X7.113509 Y16.121889 Z-1.000000 I-7.885543 J-21.682785
G03 X6.292628 Y16.305076 Z-1.000000 I-1.885536 J-6.518454
G02 X5.902041 Y16.388952 Z-1.000000 I0.580786 J3.655916
G02 X5.204308 Y16.601032 Z-1.000000 I3.236803 J11.902724
G03 X4.510237 Y16.829450 Z-1.000000 I-17.370269 J-51.612704
G03 X3.733414 Y17.074188 Z-1.000000 I-20.720605 J-64.413928
G02 X2.341271 Y17.588632 Z-1.000000 I3.994605 J12.950717
G02 X1.527273 Y18.029773 Z-1.000000 I2.096295 J4.839672
G02 X0.864292 Y18.676578 Z-1.000000 I1.363563 J2.060851
G02 X0.816781 Y19.048017 Z-1.000000 I0.331240 J0.231126
G02 X0.988752 Y19.229431 Z-1.000000 I0.298218 J-0.110479
G02 X2.157013 Y19.627682 Z-1.000000 I3.077979 J-7.116520
G02 X3.971938 Y20.007428 Z-1.000000 I5.361839 J-21.099019
G02 X7.677763 Y20.539356 Z-1.000000 I14.459483 J-87.561141
G03 X10.526934 Y20.899930 Z-1.000000 I-39.412624 J322.865981
G03 X10.982297 Y20.972387 Z-1.000000 I-1.089583 J8.314756
G02 X12.195164 Y21.179103 Z-1.000000 I6.870483 J-36.649753
G02 X12.782971 Y21.248819 Z-1.000000 I1.310866 J-8.539622
G01 X13.020423 Y21.268759 Z-1.000000
G01 X12.723609 Y21.210429 Z-1.000000
G03 X12.427051 Y21.150827 Z-1.000000 I6.780807 J-34.506232
G03 X11.773802 Y21.015285 Z-1.000000 I34.486743 J-167.852326
G02 X10.789923 Y20.827819 Z-1.000000 I-5.625703 J26.849865
G02 X9.702415 Y20.659664 Z-1.000000 I-5.603643 J32.639660
G03 X9.511185 Y20.631335 Z-1.000000 I1.290932 J-9.373893
G03 X9.425389 Y20.615724 Z-1.000000 I0.300872 J-1.897103
G02 X9.339427 Y20.600993 Z-1.000000 I-0.261003 J1.264922
G02 X8.291179 Y20.460523 Z-1.000000 I-26.219803 J191.681434
G03 X5.828990 Y20.124479 Z-1.000000 I31.318689 J-238.660114
G03 X4.670042 Y19.947252 Z-1.000000 I7.520194 J-53.054964
G03 X1.957908 Y19.410552 Z-1.000000 I6.853307 J-41.753214
G03 X1.207519 Y19.143676 Z-1.000000 I0.793771 J-3.420280
G03 X1.027154 Y18.969481 Z-1.000000 I0.179296 J-0.366119
G03 X1.015105 Y18.783090 Z-1.000000 I0.199550 J-0.106485
G03 X1.453532 Y18.267836 Z-1.000000 I0.938489 J0.354401
G03 X3.417176 Y17.401872 Z-1.000000 I5.032016 J8.751159
G03 X5.216352 Y16.836125 Z-1.000000 I68.514128 J214.743256
G03 X5.290051 Y16.821549 Z-1.000000 I0.105853 J0.341620
G02 X5.352422 Y16.806631 Z-1.000000 I-0.019265 J-0.218393
G02 X5.408777 Y16.774039 Z-1.000000 I-0.085169 J-0.212281
G03 X5.582863 Y16.684573 Z-1.000000 I0.316795 J0.402327
G03 X6.143185 Y16.560930 Z-1.000000 I1.226444 J4.226511
G02 X7.026631 Y16.366735 Z-1.000000 I-1.063237 J-6.943562
G02 X9.102473 Y15.707399 Z-1.000000 I-11.286888 J-39.132895
G03 X10.534829 Y15.305311 Z-1.000000 I4.028924 J11.599949
G03 X12.565307 Y14.958235 Z-1.000000 I4.978097 J23.010103
G01 X13.099574 Y14.890815 Z-1.000000
G01 X13.575613 Y15.011134 Z-1.000000
G03 X15.044377 Y15.496777 Z-1.000000 I-2.643287 J10.458145
G03 X16.116241 Y16.058732 Z-1.000000 I-2.516782 J6.103674
G03 X16.649902 Y16.469142 Z-1.000000 I-2.263677 J3.495652
G03 X17.399138 Y17.221913 Z-1.000000 I-6.962163 J7.678716
G03 X18.160292 Y18.246772 Z-1.000000 I-5.114609 J4.593656
G03 X18.481916 Y19.004628 Z-1.000000 I-2.443723 J1.484259
G03 X18.617186 Y19.763184 Z-1.000000 I-4.639498 J1.218678
G03 X18.656357 Y20.814880 Z-1.000000 I-8.906995 J0.858327
G02 X18.654453 Y21.094313 Z-1.000000 I9.533354 J0.204682
G02 X18.661057 Y21.410940 Z-1.000000 I12.166382 J-0.095377
G01 X18.671887 Y21.727543 Z-1.000000
G01 X18.700807 Y21.470303 Z-1.000000
G02 X18.723749 Y21.212674 Z-1.000000 I-5.565085 J-0.625419
G02 X18.734347 Y20.960521 Z-1.000000 I-5.309140 J-0.349434
G03 X18.772633 Y20.716708 Z-1.000000 I0.902072 J0.016740
G03 X18.904003 Y20.398250 Z-1.000000 I1.680460 J0.506896
G03 X19.346639 Y19.747687 Z-1.000000 I3.224751 J1.718221
G03 X19.928646 Y19.194816 Z-1.000000 I2.895525 J2.465344
G03 X20.490771 Y18.859344 Z-1.000000 I1.721433 J2.245782
G03 X20.850200 Y18.780922 Z-1.000000 I0.366139 J0.815227
G01 X21.081602 Y18.779222 Z-1.000000
G01 X21.058432 Y19.481683 Z-1.000000
G03 X21.033262 Y20.184065 Z-1.000000 I-124.087688 J-4.095007
G03 X21.011162 Y20.703563 Z-1.000000 I-67.195165 J-2.598378
G01 X20.987082 Y21.222983 Z-1.000000
G01 X20.868925 Y21.164033 Z-1.000000
G02 X20.671116 Y21.133722 Z-1.000000 I-0.146108 J0.292894
G02 X20.098173 Y21.287326 Z-1.000000 I0.454246 J2.839678
G02 X18.956478 Y21.765211 Z-1.000000 I7.094901 J18.552860
G01 X18.948126 Y21.811392 Z-1.000000
G01 X18.962786 Y21.815037 Z-1.000000
G02 X19.677296 Y21.587481 Z-1.000000 I-10.691486 J-34.806091
G03 X20.683389 Y21.318094 Z-1.000000 I2.863397 J8.680631
G03 X20.816135 Y21.351151 Z-1.000000 I0.032041 J0.154398
G03 X20.908146 Y21.554252 Z-1.000000 I-0.162753 J0.196125
G03 X20.777115 Y22.776318 Z-1.000000 I-7.741467 J-0.211991
G02 X20.777284 Y22.991581 Z-1.000000 I0.568817 J0.107184
G01 X20.818485 Y22.993982 Z-1.000000
G02 X21.029715 Y22.178129 Z-1.000000 I-7.901543 J-2.481037
G02 X21.073345 Y21.752308 Z-1.000000 I-2.092975 J-0.429593
G01 X21.073930 Y21.420866 Z-1.000000
G01 X21.202549 Y21.445796 Z-1.000000
G03 X21.342478 Y21.502085 Z-1.000000 I-0.075622 J0.390061
G03 X21.950133 Y21.928589 Z-1.000000 I-5.221990 J8.086062
G02 X22.164612 Y22.086612 Z-1.000000 I5.182098 J-6.808923
G02 X22.280976 Y22.164486 Z-1.000000 I1.371434 J-1.923398
G01 X22.399702 Y22.238946 Z-1.000000
G01 X22.322002 Y22.141566 Z-1.000000
G02 X21.962463 Y21.742018 Z-1.000000 I-3.544678 J2.828190
G02 X21.674354 Y21.502464 Z-1.000000 I-1.547858 J1.568560
G02 X21.493192 Y21.410194 Z-1.000000 I-0.424105 J0.608706
G02 X21.268708 Y21.361871 Z-1.000000 I-0.309967 J0.894365
G03 X21.054077 Y21.322604 Z-1.000000 I0.109061 J-1.202333
G01 X21.034365 Y21.296651 Z-1.000000
G03 X21.037888 Y21.252979 Z-1.000000 I0.273317 J0.000068
G03 X21.118485 Y20.777775 Z-1.000000 I32.664359 J5.295631
G02 X21.224325 Y19.833159 Z-1.000000 I-7.350133 J-1.301785
G02 X21.193775 Y19.205908 Z-1.000000 I-3.254078 J-0.155882
G02 X21.142256 Y18.891578 Z-1.000000 I-9.123299 J1.333935
G02 X21.126325 Y18.834700 Z-1.000000 I-0.311701 J0.056633
G01 X21.162677 Y18.789186 Z-1.000000
G03 X21.409621 Y18.875660 Z-1.000000 I-0.097473 J0.674192
G03 X21.569479 Y19.017032 Z-1.000000 I-0.279825 J0.477484
G03 X22.046846 Y19.709243 Z-1.000000 I-6.826193 J5.218225
G02 X22.646730 Y20.620010 Z-1.000000 I16.760938 J-10.386789
G01 X22.685938 Y20.623456 Z-1.000000
G01 X22.688460 Y20.606963 Z-1.000000
G02 X22.567009 Y20.396238 Z-1.000000 I-2.637456 J1.379726
G03 X22.437444 Y20.181524 Z-1.000000 I5.115732 J-3.233431
G03 X22.262739 Y19.867543 Z-1.000000 I10.770224 J-6.198363
G02 X21.574626 Y18.816584 Z-1.000000 I-6.410444 J3.446473
G02 X21.285645 Y18.624331 Z-1.000000 I-0.436868 J0.343354
G02 X21.154171 Y18.606090 Z-1.000000 I-0.134664 J0.487675
G02 X20.775151 Y18.621131 Z-1.000000 I-0.026026 J4.127167
G02 X20.407586 Y18.691217 Z-1.000000 I0.155439 J1.814086
G02 X20.170515 Y18.802465 Z-1.000000 I0.256092 J0.853961
G02 X19.958055 Y18.965225 Z-1.000000 I1.096563 J1.651453
G02 X19.570315 Y19.330234 Z-1.000000 I5.180718 J5.891799
G02 X19.223586 Y19.730856 Z-1.000000 I2.757998 J2.737338
G02 X18.987176 Y20.105035 Z-1.000000 I2.166599 J1.630651
G01 X18.780249 Y20.500788 Z-1.000000
G01 X18.779406 Y20.216166 Z-1.000000
G03 X18.911764 Y19.408733 Z-1.000000 I2.484548 J-0.007287
G03 X19.631205 Y17.712197 Z-1.000000 I11.929483 J4.058060
G03 X20.058252 Y17.032015 Z-1.000000 I4.141028 J2.125763
G03 X20.364514 Y16.741579 Z-1.000000 I1.025793 J0.774995
G02 X20.537970 Y16.620902 Z-1.000000 I-4.274610 J-6.329130
G02 X20.820213 Y16.415083 Z-1.000000 I-12.125679 J-16.924593
G03 X21.109145 Y16.232230 Z-1.000000 I1.373879 J1.851206
G03 X21.210566 Y16.206872 Z-1.000000 I0.101421 J0.190144
G03 X21.275229 Y16.246260 Z-1.000000 I0.000000 J0.072772
G03 X21.297396 Y16.375067 Z-1.000000 I-0.192664 J0.099468
G02 X21.280957 Y16.543821 Z-1.000000 I2.177075 J0.297259
G02 X21.249296 Y17.196253 Z-1.000000 I32.513988 J1.904797
G03 X21.213391 Y17.847923 Z-1.000000 I-19.702041 J-0.758687
G03 X21.191096 Y18.007546 Z-1.000000 I-1.197305 J-0.085865
G02 X21.193317 Y18.087196 Z-1.000000 I0.168299 J0.035164
G01 X21.213456 Y18.091026 Z-1.000000
G02 X21.333523 Y17.793828 Z-1.000000 I-0.513231 J-0.380197
G02 X21.381018 Y16.812476 Z-1.000000 I-5.949980 J-0.779788
G03 X21.401921 Y16.257833 Z-1.000000 I3.895321 J-0.130914
G01 X21.444808 Y16.229186 Z-1.000000
G03 X21.991081 Y16.522707 Z-1.000000 I-0.418813 J1.434548
G03 X22.426275 Y17.059322 Z-1.000000 I-1.197870 J1.416250
G03 X22.674138 Y17.636789 Z-1.000000 I-3.125041 J1.683275
G03 X22.872732 Y18.421089 Z-1.000000 I-5.590804 J1.832947
G02 X22.912786 Y18.564188 Z-1.000000 I0.780991 J-0.141447
G01 X22.926692 Y18.561602 Z-1.000000
G02 X22.916802 Y18.404259 Z-1.000000 I-1.275000 J0.001157
G02 X22.873532 Y18.137008 Z-1.000000 I-3.744257 J0.469100
G01 X22.873597 Y18.136927 Z-1.000000
G00 Z0.000000

(End cutting path id: path27180)


(Start cutting path id: path27180)
(Change tool to Cone cutter)

G00 Z0.000000
G00 X23.527650 Y20.962072

G01 Z-1.000000 F100.0(Penetrate)
G02 X23.478176 Y20.971681 Z-1.000000 I0.000000 J0.132171 F400.000000
G01 X23.478180 Y20.982032 Z-1.000000
G02 X23.527650 Y20.991637 Z-1.000000 I0.049470 J-0.122594
G02 X23.577120 Y20.982032 Z-1.000000 I0.000000 J-0.132199
G01 X23.577121 Y20.971681 Z-1.000000
G02 X23.527650 Y20.962072 Z-1.000000 I-0.049471 J0.122538
G01 X23.527650 Y20.962072 Z-1.000000
G00 Z0.000000

(End cutting path id: path27180)


(Start cutting path id: path27180)
(Change tool to Cone cutter)

G00 Z0.000000
G00 X23.527650 Y20.962072

G01 Z-1.000000 F100.0(Penetrate)
G02 X23.478176 Y20.971681 Z-1.000000 I0.000000 J0.132171 F400.000000
G01 X23.478180 Y20.982032 Z-1.000000
G02 X23.527650 Y20.991637 Z-1.000000 I0.049470 J-0.122594
G02 X23.577120 Y20.982032 Z-1.000000 I0.000000 J-0.132199
G01 X23.577121 Y20.971681 Z-1.000000
G02 X23.527650 Y20.962072 Z-1.000000 I-0.049471 J0.122538
G01 X23.527650 Y20.962072 Z-1.000000
G00 Z0.000000

(End cutting path id: path27180)


(Start cutting path id: path27180)
(Change tool to Cone cutter)

G00 Z0.000000
G00 X23.187971 Y21.275551

G01 Z-1.000000 F100.0(Penetrate)
G01 X23.161533 Y21.287145 Z-1.000000 F400.000000
G01 X23.164061 Y21.299461 Z-1.000000
G02 X23.213480 Y21.307939 Z-1.000000 I0.044535 J-0.111317
G01 X23.239911 Y21.296361 Z-1.000000
G01 X23.237382 Y21.284040 Z-1.000000
G02 X23.187971 Y21.275571 Z-1.000000 I-0.044500 J0.111256
G01 X23.187971 Y21.275551 Z-1.000000
G00 Z0.000000

(End cutting path id: path27180)


(Start cutting path id: path27180)
(Change tool to Cone cutter)

G00 Z0.000000
G00 X23.187971 Y21.275551

G01 Z-1.000000 F100.0(Penetrate)
G01 X23.161533 Y21.287145 Z-1.000000 F400.000000
G01 X23.164061 Y21.299461 Z-1.000000
G02 X23.213480 Y21.307939 Z-1.000000 I0.044535 J-0.111317
G01 X23.239911 Y21.296361 Z-1.000000
G01 X23.237382 Y21.284040 Z-1.000000
G02 X23.187971 Y21.275571 Z-1.000000 I-0.044500 J0.111256
G01 X23.187971 Y21.275551 Z-1.000000
G00 Z0.000000

(End cutting path id: path27180)


(Start cutting path id: path27180)
(Change tool to Cone cutter)

G00 Z0.000000
G00 X22.827138 Y23.602591

G01 Z-1.000000 F100.0(Penetrate)
G03 X22.481617 Y24.143474 Z-1.000000 I-2.724972 J-1.359938 F400.000000
G03 X22.223372 Y24.358388 Z-1.000000 I-0.652021 J-0.520866
G03 X22.157873 Y24.364186 Z-1.000000 I-0.039548 J-0.073906
G03 X21.985680 Y24.281108 Z-1.000000 I0.220273 J-0.676541
G02 X21.808250 Y24.183052 Z-1.000000 I-0.701001 J1.058885
G02 X21.636640 Y24.123152 Z-1.000000 I-0.420876 J0.930014
G03 X21.468129 Y24.058944 Z-1.000000 I0.188135 J-0.746977
G03 X21.295877 Y23.945153 Z-1.000000 I0.467408 J-0.894814
G02 X21.127484 Y23.820570 Z-1.000000 I-1.346218 J1.643518
G02 X20.876115 Y23.665523 Z-1.000000 I-2.342334 J3.516214
G01 X20.618876 Y23.519009 Z-1.000000
G01 X20.084609 Y23.541149 Z-1.000000
G02 X19.553783 Y23.584689 Z-1.000000 I0.272791 J6.583446
G02 X19.281696 Y23.639799 Z-1.000000 I0.218441 J1.777689
G01 X19.013049 Y23.716309 Z-1.000000
G01 X18.957039 Y23.607992 Z-1.000000
G02 X18.893136 Y23.504869 Z-1.000000 I-0.696370 J0.360167
G02 X18.681527 Y23.231888 Z-1.000000 I-5.121576 J3.751616
G03 X18.471354 Y22.960769 Z-1.000000 I4.879517 J-3.999666
G01 X18.462027 Y22.932256 Z-1.000000
G01 X18.474175 Y22.906615 Z-1.000000
G03 X18.791911 Y22.662263 Z-1.000000 I4.189973 J5.119546
G02 X19.149262 Y22.365469 Z-1.000000 I-2.006511 J-2.779443
G01 X19.131574 Y22.338851 Z-1.000000
G03 X18.897591 Y22.423280 Z-1.000000 I-0.757648 J-1.733270
G03 X17.116469 Y22.919387 Z-1.000000 I-28.930665 J-100.421509
G03 X13.504150 Y23.799257 Z-1.000000 I-20.224099 J-75.175144
G03 X11.704056 Y24.101554 Z-1.000000 I-4.003840 J-18.331092
G03 X11.085723 Y24.097670 Z-1.000000 I-0.293587 J-2.482200
G03 X10.481958 Y23.941417 Z-1.000000 I0.330351 J-2.521092
G03 X9.682445 Y23.495184 Z-1.000000 I1.269421 J-3.213769
G03 X9.376059 Y23.114677 Z-1.000000 I0.588981 J-0.787857
G02 X9.293873 Y22.960305 Z-1.000000 I-1.278901 J0.581805
G01 X9.282849 Y22.963146 Z-1.000000
G02 X9.331092 Y23.189310 Z-1.000000 I0.454842 J0.021205
G02 X9.591367 Y23.574930 Z-1.000000 I1.642443 J-0.827925
G02 X9.968600 Y23.869522 Z-1.000000 I0.966029 J-0.848203
G02 X10.877642 Y24.237645 Z-1.000000 I2.472028 J-4.797959
G02 X11.300090 Y24.303975 Z-1.000000 I0.449948 J-1.487230
G02 X11.959211 Y24.256785 Z-1.000000 I0.065663 J-3.709526
G02 X15.557239 Y23.500317 Z-1.000000 I-6.315639 J-38.974379
G02 X18.956720 Y22.441642 Z-1.000000 I-9.297067 J-35.840871
G01 X18.968989 Y22.464815 Z-1.000000
G03 X18.442243 Y22.811921 Z-1.000000 I-4.474624 J-6.217159
G03 X17.573548 Y23.277907 Z-1.000000 I-5.176520 J-8.607405
G03 X16.226025 Y23.864121 Z-1.000000 I-9.571673 J-20.160413
G02 X15.013200 Y24.394134 Z-1.000000 I7.051922 J17.789519
G02 X13.889525 Y24.982957 Z-1.000000 I7.592681 J15.856012
G03 X11.220610 Y26.376599 Z-1.000000 I-19.890966 J-34.840100
G03 X9.127090 Y27.246561 Z-1.000000 I-9.764034 J-20.542704
G02 X7.898059 Y27.770037 Z-1.000000 I3.841313 J10.723250
G02 X5.421972 Y29.088389 Z-1.000000 I22.357752 J44.976044
G03 X4.419388 Y29.619772 Z-1.000000 I-9.409399 J-16.541645
G03 X2.856675 Y30.351551 Z-1.000000 I-19.442201 J-39.484305
G02 X2.296718 Y30.603634 Z-1.000000 I26.726902 J60.117005
G02 X1.852142 Y30.809424 Z-1.000000 I17.367976 J38.103782
G03 X1.407918 Y30.994792 Z-1.000000 I-2.324632 J-4.945886
G03 X1.347557 Y30.994334 Z-1.000000 I-0.029570 J-0.080690
G03 X1.275244 Y30.847583 Z-1.000000 I0.043157 J-0.112458
G03 X1.744015 Y29.659379 Z-1.000000 I7.039040 J2.090471
G03 X2.620487 Y28.173993 Z-1.000000 I10.997309 J5.487838
G03 X3.405247 Y27.248291 Z-1.000000 I5.011008 J3.452568
G02 X3.834462 Y26.831443 Z-1.000000 I-68.184808 J-70.637067
G02 X5.005063 Y25.685067 Z-1.000000 I-514.243297 J-526.281278
G03 X6.190505 Y24.556676 Z-1.000000 I37.444509 J38.150801
G03 X6.490749 Y24.313614 Z-1.000000 I2.020024 J2.188278
G03 X8.808351 Y22.798743 Z-1.000000 I21.783877 J30.796883
G03 X9.173910 Y22.697135 Z-1.000000 I0.365559 J0.606785
G02 X9.226314 Y22.685408 Z-1.000000 I-0.000000 J-0.122956
G01 X9.247580 Y22.662435 Z-1.000000
G03 X9.316290 Y22.587194 Z-1.000000 I0.129399 J0.049174
G03 X10.234498 Y22.181017 Z-1.000000 I5.893211 J12.081313
G03 X11.026053 Y21.930896 Z-1.000000 I2.104330 J5.281966
G03 X12.407005 Y21.665476 Z-1.000000 I3.767157 J15.874957
G03 X13.800222 Y21.522266 Z-1.000000 I2.310289 J15.627103
G03 X15.573025 Y21.481366 Z-1.000000 I1.470127 J25.280826
G03 X17.094165 Y21.524881 Z-1.000000 I-0.546276 J45.704904
G03 X17.452850 Y21.566476 Z-1.000000 I-0.116417 J2.571204
G03 X18.238004 Y21.737415 Z-1.000000 I-2.585598 J13.764755
G03 X18.530180 Y21.833622 Z-1.000000 I-0.493783 J1.991365
G02 X18.640508 Y21.878008 Z-1.000000 I2.152448 J-5.190946
G02 X18.659895 Y21.884212 Z-1.000000 I0.059508 J-0.152559
G03 X18.920201 Y21.989366 Z-1.000000 I-0.253341 J1.001910
G03 X19.091861 Y22.131628 Z-1.000000 I-0.323983 J0.565628
G02 X19.195633 Y22.224913 Z-1.000000 I0.404051 J-0.345111
G01 X19.213950 Y22.215258 Z-1.000000
G02 X19.130585 Y22.029995 Z-1.000000 I-0.247539 J-0.000000
G02 X18.739047 Y21.794415 Z-1.000000 I-0.830573 J0.937264
G02 X17.274181 Y21.430140 Z-1.000000 I-2.316867 J6.189368
G02 X14.801307 Y21.282493 Z-1.000000 I-2.294742 J17.651302
G02 X13.300274 Y21.331571 Z-1.000000 I0.331030 J33.103234
G02 X12.624669 Y21.403127 Z-1.000000 I0.375004 J6.765830
G02 X10.184975 Y22.073487 Z-1.000000 I1.747436 J11.134248
G02 X7.361160 Y23.509322 Z-1.000000 I6.564136 J16.404169
G02 X6.222114 Y24.362009 Z-1.000000 I4.590797 J7.319664
G02 X3.185848 Y27.208715 Z-1.000000 I49.027400 J55.334671
G02 X2.529872 Y28.001910 Z-1.000000 I3.686753 J3.716804
G02 X1.825806 Y29.228920 Z-1.000000 I8.203209 J5.522559
G02 X1.252654 Y30.704138 Z-1.000000 I9.057180 J4.367846
G02 X1.292777 Y31.003515 Z-1.000000 I0.350786 J0.105364
G02 X1.351848 Y31.043764 Z-1.000000 I0.075281 J-0.047013
G02 X1.480760 Y31.038435 Z-1.000000 I0.052812 J-0.284304
G02 X1.618876 Y30.992172 Z-1.000000 I-0.336765 J-1.234695
G02 X1.666343 Y30.964275 Z-1.000000 I-0.067825 J-0.169738
G03 X1.714084 Y30.936007 Z-1.000000 I0.118896 J0.146349
G03 X2.528612 Y30.612923 Z-1.000000 I17.721039 J43.488321
G02 X4.338373 Y29.837308 Z-1.000000 I-9.683922 J-25.094899
G02 X6.253053 Y28.852693 Z-1.000000 I-13.742928 J-29.078422
G03 X7.851064 Y28.014509 Z-1.000000 I17.303016 J31.046080
G03 X8.766082 Y27.614868 Z-1.000000 I4.808507 J9.762220
G03 X9.181661 Y27.455750 Z-1.000000 I329.777146 J860.676277
G03 X9.933552 Y27.168182 Z-1.000000 I1127.956418 J2948.103086
G02 X11.659155 Y26.411093 Z-1.000000 I-6.971056 J-18.233943
G02 X14.187893 Y25.051178 Z-1.000000 I-20.190283 J-40.574505
G03 X15.013250 Y24.610670 Z-1.000000 I6.731931 J11.619788
G03 X16.178552 Y24.076245 Z-1.000000 I11.091317 J22.646726
G02 X17.379768 Y23.526172 Z-1.000000 I-10.461304 J-24.431357
G02 X18.023118 Y23.175446 Z-1.000000 I-3.587547 J-7.346201
G03 X18.356826 Y22.977373 Z-1.000000 I12.115612 J20.031925
G01 X18.368735 Y22.974158 Z-1.000000
G01 X18.378154 Y22.979579 Z-1.000000
G03 X18.477881 Y23.162140 Z-1.000000 I-3.407802 J1.980089
G02 X18.589909 Y23.338551 Z-1.000000 I1.010434 J-0.517888
G02 X18.773585 Y23.544761 Z-1.000000 I1.568186 J-1.211915
G03 X18.906245 Y23.750616 Z-1.000000 I-0.383520 J0.392827
G01 X18.867935 Y23.805239 Z-1.000000
G02 X18.806049 Y23.815815 Z-1.000000 I-0.000000 J0.186349
G02 X18.632012 Y23.888309 Z-1.000000 I0.557739 J1.584126
G02 X18.266948 Y24.178126 Z-1.000000 I0.465033 J0.960605
G02 X17.954971 Y24.726151 Z-1.000000 I1.519256 J1.227687
G02 X17.702041 Y25.967227 Z-1.000000 I3.862006 J1.433385
G02 X17.858741 Y26.785122 Z-1.000000 I1.778915 J0.083136
G02 X18.005305 Y27.008920 Z-1.000000 I0.791667 J-0.358567
G02 X19.105914 Y28.166662 Z-1.000000 I23.004222 J-20.766977
G02 X19.549823 Y28.486557 Z-1.000000 I1.210094 J-1.211262
G02 X19.906517 Y28.567281 Z-1.000000 I0.342283 J-0.684025
G02 X20.864798 Y28.385796 Z-1.000000 I-0.054744 J-2.909779
G02 X21.588466 Y27.942797 Z-1.000000 I-0.766835 J-2.065251
G03 X21.697137 Y27.872921 Z-1.000000 I0.255976 J0.278653
G03 X21.852232 Y27.831333 Z-1.000000 I0.227385 J0.538001
G02 X22.202486 Y27.681766 Z-1.000000 I-0.085468 J-0.685041
G02 X22.517353 Y27.290109 Z-1.000000 I-0.758579 J-0.932244
G02 X22.698307 Y26.735733 Z-1.000000 I-1.731126 J-0.871777
G02 X22.703861 Y26.166552 Z-1.000000 I-1.821677 J-0.302394
G02 X22.500156 Y25.173661 Z-1.000000 I-8.745359 J1.276883
G02 X22.305545 Y24.667596 Z-1.000000 I-2.444305 J0.649526
G01 X22.189476 Y24.441635 Z-1.000000
G01 X22.361406 Y24.340883 Z-1.000000
G02 X22.684061 Y24.056727 Z-1.000000 I-0.569747 J-0.972201
G02 X22.898221 Y23.644629 Z-1.000000 I-1.041282 J-0.802833
G01 X22.876435 Y23.588041 Z-1.000000
G01 X22.827131 Y23.602589 Z-1.000000
G01 X22.827138 Y23.602591 Z-1.000000
G00 Z0.000000

(End cutting path id: path27180)


(Start cutting path id: path27180)
(Change tool to Cone cutter)

G00 Z0.000000
G00 X22.827138 Y23.602591

G01 Z-1.000000 F100.0(Penetrate)
G03 X22.481617 Y24.143474 Z-1.000000 I-2.724972 J-1.359938 F400.000000
G03 X22.223372 Y24.358388 Z-1.000000 I-0.652021 J-0.520866
G03 X22.157873 Y24.364186 Z-1.000000 I-0.039548 J-0.073906
G03 X21.985680 Y24.281108 Z-1.000000 I0.220273 J-0.676541
G02 X21.808250 Y24.183052 Z-1.000000 I-0.701001 J1.058885
G02 X21.636640 Y24.123152 Z-1.000000 I-0.420876 J0.930014
G03 X21.468129 Y24.058944 Z-1.000000 I0.188135 J-0.746977
G03 X21.295877 Y23.945153 Z-1.000000 I0.467408 J-0.894814
G02 X21.127484 Y23.820570 Z-1.000000 I-1.346218 J1.643518
G02 X20.876115 Y23.665523 Z-1.000000 I-2.342334 J3.516214
G01 X20.618876 Y23.519009 Z-1.000000
G01 X20.084609 Y23.541149 Z-1.000000
G02 X19.553783 Y23.584689 Z-1.000000 I0.272791 J6.583446
G02 X19.281696 Y23.639799 Z-1.000000 I0.218441 J1.777689
G01 X19.013049 Y23.716309 Z-1.000000
G01 X18.957039 Y23.607992 Z-1.000000
G02 X18.893136 Y23.504869 Z-1.000000 I-0.696370 J0.360167
G02 X18.681527 Y23.231888 Z-1.000000 I-5.121576 J3.751616
G03 X18.471354 Y22.960769 Z-1.000000 I4.879517 J-3.999666
G01 X18.462027 Y22.932256 Z-1.000000
G01 X18.474175 Y22.906615 Z-1.000000
G03 X18.791911 Y22.662263 Z-1.000000 I4.189973 J5.119546
G02 X19.149262 Y22.365469 Z-1.000000 I-2.006511 J-2.779443
G01 X19.131574 Y22.338851 Z-1.000000
G03 X18.897591 Y22.423280 Z-1.000000 I-0.757648 J-1.733270
G03 X17.116469 Y22.919387 Z-1.000000 I-28.930665 J-100.421509
G03 X13.504150 Y23.799257 Z-1.000000 I-20.224099 J-75.175144
G03 X11.704056 Y24.101554 Z-1.000000 I-4.003840 J-18.331092
G03 X11.085723 Y24.097670 Z-1.000000 I-0.293587 J-2.482200
G03 X10.481958 Y23.941417 Z-1.000000 I0.330351 J-2.521092
G03 X9.682445 Y23.495184 Z-1.000000 I1.269421 J-3.213769
G03 X9.376059 Y23.114677 Z-1.000000 I0.588981 J-0.787857
G02 X9.293873 Y22.960305 Z-1.000000 I-1.278901 J0.581805
G01 X9.282849 Y22.963146 Z-1.000000
G02 X9.331092 Y23.189310 Z-1.000000 I0.454842 J0.021205
G02 X9.591367 Y23.574930 Z-1.000000 I1.642443 J-0.827925
G02 X9.968600 Y23.869522 Z-1.000000 I0.966029 J-0.848203
G02 X10.877642 Y24.237645 Z-1.000000 I2.472028 J-4.797959
G02 X11.300090 Y24.303975 Z-1.000000 I0.449948 J-1.487230
G02 X11.959211 Y24.256785 Z-1.000000 I0.065663 J-3.709526
G02 X15.557239 Y23.500317 Z-1.000000 I-6.315639 J-38.974379
G02 X18.956720 Y22.441642 Z-1.000000 I-9.297067 J-35.840871
G01 X18.968989 Y22.464815 Z-1.000000
G03 X18.442243 Y22.811921 Z-1.000000 I-4.474624 J-6.217159
G03 X17.573548 Y23.277907 Z-1.000000 I-5.176520 J-8.607405
G03 X16.226025 Y23.864121 Z-1.000000 I-9.571673 J-20.160413
G02 X15.013200 Y24.394134 Z-1.000000 I7.051922 J17.789519
G02 X13.889525 Y24.982957 Z-1.000000 I7.592681 J15.856012
G03 X11.220610 Y26.376599 Z-1.000000 I-19.890966 J-34.840100
G03 X9.127090 Y27.246561 Z-1.000000 I-9.764034 J-20.542704
G02 X7.898059 Y27.770037 Z-1.000000 I3.841313 J10.723250
G02 X5.421972 Y29.088389 Z-1.000000 I22.357752 J44.976044
G03 X4.419388 Y29.619772 Z-1.000000 I-9.409399 J-16.541645
G03 X2.856675 Y30.351551 Z-1.000000 I-19.442201 J-39.484305
G02 X2.296718 Y30.603634 Z-1.000000 I26.726902 J60.117005
G02 X1.852142 Y30.809424 Z-1.000000 I17.367976 J38.103782
G03 X1.407918 Y30.994792 Z-1.000000 I-2.324632 J-4.945886
G03 X1.347557 Y30.994334 Z-1.000000 I-0.029570 J-0.080690
G03 X1.275244 Y30.847583 Z-1.000000 I0.043157 J-0.112458
G03 X1.744015 Y29.659379 Z-1.000000 I7.039040 J2.090471
G03 X2.620487 Y28.173993 Z-1.000000 I10.997309 J5.487838
G03 X3.405247 Y27.248291 Z-1.000000 I5.011008 J3.452568
G02 X3.834462 Y26.831443 Z-1.000000 I-68.184808 J-70.637067
G02 X5.005063 Y25.685067 Z-1.000000 I-514.243297 J-526.281278
G03 X6.190505 Y24.556676 Z-1.000000 I37.444509 J38.150801
G03 X6.490749 Y24.313614 Z-1.000000 I2.020024 J2.188278
G03 X8.808351 Y22.798743 Z-1.000000 I21.783877 J30.796883
G03 X9.173910 Y22.697135 Z-1.000000 I0.365559 J0.606785
G02 X9.226314 Y22.685408 Z-1.000000 I-0.000000 J-0.122956
G01 X9.247580 Y22.662435 Z-1.000000
G03 X9.316290 Y22.587194 Z-1.000000 I0.129399 J0.049174
G03 X10.234498 Y22.181017 Z-1.000000 I5.893211 J12.081313
G03 X11.026053 Y21.930896 Z-1.000000 I2.104330 J5.281966
G03 X12.407005 Y21.665476 Z-1.000000 I3.767157 J15.874957
G03 X13.800222 Y21.522266 Z-1.000000 I2.310289 J15.627103
G03 X15.573025 Y21.481366 Z-1.000000 I1.470127 J25.280826
G03 X17.094165 Y21.524881 Z-1.000000 I-0.546276 J45.704904
G03 X17.452850 Y21.566476 Z-1.000000 I-0.116417 J2.571204
G03 X18.238004 Y21.737415 Z-1.000000 I-2.585598 J13.764755
G03 X18.530180 Y21.833622 Z-1.000000 I-0.493783 J1.991365
G02 X18.640508 Y21.878008 Z-1.000000 I2.152448 J-5.190946
G02 X18.659895 Y21.884212 Z-1.000000 I0.059508 J-0.152559
G03 X18.920201 Y21.989366 Z-1.000000 I-0.253341 J1.001910
G03 X19.091861 Y22.131628 Z-1.000000 I-0.323983 J0.565628
G02 X19.195633 Y22.224913 Z-1.000000 I0.404051 J-0.345111
G01 X19.213950 Y22.215258 Z-1.000000
G02 X19.130585 Y22.029995 Z-1.000000 I-0.247539 J-0.000000
G02 X18.739047 Y21.794415 Z-1.000000 I-0.830573 J0.937264
G02 X17.274181 Y21.430140 Z-1.000000 I-2.316867 J6.189368
G02 X14.801307 Y21.282493 Z-1.000000 I-2.294742 J17.651302
G02 X13.300274 Y21.331571 Z-1.000000 I0.331030 J33.103234
G02 X12.624669 Y21.403127 Z-1.000000 I0.375004 J6.765830
G02 X10.184975 Y22.073487 Z-1.000000 I1.747436 J11.134248
G02 X7.361160 Y23.509322 Z-1.000000 I6.564136 J16.404169
G02 X6.222114 Y24.362009 Z-1.000000 I4.590797 J7.319664
G02 X3.185848 Y27.208715 Z-1.000000 I49.027400 J55.334671
G02 X2.529872 Y28.001910 Z-1.000000 I3.686753 J3.716804
G02 X1.825806 Y29.228920 Z-1.000000 I8.203209 J5.522559
G02 X1.252654 Y30.704138 Z-1.000000 I9.057180 J4.367846
G02 X1.292777 Y31.003515 Z-1.000000 I0.350786 J0.105364
G02 X1.351848 Y31.043764 Z-1.000000 I0.075281 J-0.047013
G02 X1.480760 Y31.038435 Z-1.000000 I0.052812 J-0.284304
G02 X1.618876 Y30.992172 Z-1.000000 I-0.336765 J-1.234695
G02 X1.666343 Y30.964275 Z-1.000000 I-0.067825 J-0.169738
G03 X1.714084 Y30.936007 Z-1.000000 I0.118896 J0.146349
G03 X2.528612 Y30.612923 Z-1.000000 I17.721039 J43.488321
G02 X4.338373 Y29.837308 Z-1.000000 I-9.683922 J-25.094899
G02 X6.253053 Y28.852693 Z-1.000000 I-13.742928 J-29.078422
G03 X7.851064 Y28.014509 Z-1.000000 I17.303016 J31.046080
G03 X8.766082 Y27.614868 Z-1.000000 I4.808507 J9.762220
G03 X9.181661 Y27.455750 Z-1.000000 I329.777146 J860.676277
G03 X9.933552 Y27.168182 Z-1.000000 I1127.956418 J2948.103086
G02 X11.659155 Y26.411093 Z-1.000000 I-6.971056 J-18.233943
G02 X14.187893 Y25.051178 Z-1.000000 I-20.190283 J-40.574505
G03 X15.013250 Y24.610670 Z-1.000000 I6.731931 J11.619788
G03 X16.178552 Y24.076245 Z-1.000000 I11.091317 J22.646726
G02 X17.379768 Y23.526172 Z-1.000000 I-10.461304 J-24.431357
G02 X18.023118 Y23.175446 Z-1.000000 I-3.587547 J-7.346201
G03 X18.356826 Y22.977373 Z-1.000000 I12.115612 J20.031925
G01 X18.368735 Y22.974158 Z-1.000000
G01 X18.378154 Y22.979579 Z-1.000000
G03 X18.477881 Y23.162140 Z-1.000000 I-3.407802 J1.980089
G02 X18.589909 Y23.338551 Z-1.000000 I1.010434 J-0.517888
G02 X18.773585 Y23.544761 Z-1.000000 I1.568186 J-1.211915
G03 X18.906245 Y23.750616 Z-1.000000 I-0.383520 J0.392827
G01 X18.867935 Y23.805239 Z-1.000000
G02 X18.806049 Y23.815815 Z-1.000000 I-0.000000 J0.186349
G02 X18.632012 Y23.888309 Z-1.000000 I0.557739 J1.584126
G02 X18.266948 Y24.178126 Z-1.000000 I0.465033 J0.960605
G02 X17.954971 Y24.726151 Z-1.000000 I1.519256 J1.227687
G02 X17.702041 Y25.967227 Z-1.000000 I3.862006 J1.433385
G02 X17.858741 Y26.785122 Z-1.000000 I1.778915 J0.083136
G02 X18.005305 Y27.008920 Z-1.000000 I0.791667 J-0.358567
G02 X19.105914 Y28.166662 Z-1.000000 I23.004222 J-20.766977
G02 X19.549823 Y28.486557 Z-1.000000 I1.210094 J-1.211262
G02 X19.906517 Y28.567281 Z-1.000000 I0.342283 J-0.684025
G02 X20.864798 Y28.385796 Z-1.000000 I-0.054744 J-2.909779
G02 X21.588466 Y27.942797 Z-1.000000 I-0.766835 J-2.065251
G03 X21.697137 Y27.872921 Z-1.000000 I0.255976 J0.278653
G03 X21.852232 Y27.831333 Z-1.000000 I0.227385 J0.538001
G02 X22.202486 Y27.681766 Z-1.000000 I-0.085468 J-0.685041
G02 X22.517353 Y27.290109 Z-1.000000 I-0.758579 J-0.932244
G02 X22.698307 Y26.735733 Z-1.000000 I-1.731126 J-0.871777
G02 X22.703861 Y26.166552 Z-1.000000 I-1.821677 J-0.302394
G02 X22.500156 Y25.173661 Z-1.000000 I-8.745359 J1.276883
G02 X22.305545 Y24.667596 Z-1.000000 I-2.444305 J0.649526
G01 X22.189476 Y24.441635 Z-1.000000
G01 X22.361406 Y24.340883 Z-1.000000
G02 X22.684061 Y24.056727 Z-1.000000 I-0.569747 J-0.972201
G02 X22.898221 Y23.644629 Z-1.000000 I-1.041282 J-0.802833
G01 X22.876435 Y23.588041 Z-1.000000
G01 X22.827131 Y23.602589 Z-1.000000
G01 X22.827138 Y23.602591 Z-1.000000
G00 Z0.000000

(End cutting path id: path27180)


(Start cutting path id: path27180)
(Change tool to Cone cutter)

G00 Z0.000000
G00 X22.495384 Y26.716650

G01 Z-1.000000 F100.0(Penetrate)
G03 X22.300484 Y27.285558 Z-1.000000 I-1.987347 J-0.362997 F400.000000
G03 X22.061618 Y27.550963 Z-1.000000 I-0.631918 J-0.328538
G03 X21.713451 Y27.665556 Z-1.000000 I-0.383848 J-0.580031
G03 X21.338117 Y27.588133 Z-1.000000 I-0.039007 J-0.759390
G03 X21.067247 Y27.372375 Z-1.000000 I0.359922 J-0.729767
G03 X20.646440 Y26.739308 Z-1.000000 I3.039571 J-2.476829
G03 X20.523620 Y26.416822 Z-1.000000 I1.214932 J-0.647343
G03 X20.480591 Y26.056345 Z-1.000000 I1.480549 J-0.359534
G03 X20.550265 Y25.386314 Z-1.000000 I3.275108 J0.001926
G03 X20.734169 Y24.846587 Z-1.000000 I2.297348 J0.481595
G03 X20.935729 Y24.505592 Z-1.000000 I2.133537 J1.031054
G03 X21.065537 Y24.379989 Z-1.000000 I0.401731 J0.285301
G03 X21.384253 Y24.271066 Z-1.000000 I0.368031 J0.556132
G03 X21.720426 Y24.331429 Z-1.000000 I0.050710 J0.683872
G03 X22.032640 Y24.632223 Z-1.000000 I-0.272549 J0.595327
G03 X22.394376 Y25.669482 Z-1.000000 I-3.754475 J1.891050
G03 X22.507958 Y26.419267 Z-1.000000 I-6.855862 J1.422063
G03 X22.495388 Y26.716662 Z-1.000000 I-1.073780 J0.103578
G01 X22.495384 Y26.716650 Z-1.000000
G00 Z0.000000

(End cutting path id: path27180)


(Start cutting path id: path27180)
(Change tool to Cone cutter)

G00 Z0.000000
G00 X22.495384 Y26.716650

G01 Z-1.000000 F100.0(Penetrate)
G03 X22.300484 Y27.285558 Z-1.000000 I-1.987347 J-0.362997 F400.000000
G03 X22.061618 Y27.550963 Z-1.000000 I-0.631918 J-0.328538
G03 X21.713451 Y27.665556 Z-1.000000 I-0.383848 J-0.580031
G03 X21.338117 Y27.588133 Z-1.000000 I-0.039007 J-0.759390
G03 X21.067247 Y27.372375 Z-1.000000 I0.359922 J-0.729767
G03 X20.646440 Y26.739308 Z-1.000000 I3.039571 J-2.476829
G03 X20.523620 Y26.416822 Z-1.000000 I1.214932 J-0.647343
G03 X20.480591 Y26.056345 Z-1.000000 I1.480549 J-0.359534
G03 X20.550265 Y25.386314 Z-1.000000 I3.275108 J0.001926
G03 X20.734169 Y24.846587 Z-1.000000 I2.297348 J0.481595
G03 X20.935729 Y24.505592 Z-1.000000 I2.133537 J1.031054
G03 X21.065537 Y24.379989 Z-1.000000 I0.401731 J0.285301
G03 X21.384253 Y24.271066 Z-1.000000 I0.368031 J0.556132
G03 X21.720426 Y24.331429 Z-1.000000 I0.050710 J0.683872
G03 X22.032640 Y24.632223 Z-1.000000 I-0.272549 J0.595327
G03 X22.394376 Y25.669482 Z-1.000000 I-3.754475 J1.891050
G03 X22.507958 Y26.419267 Z-1.000000 I-6.855862 J1.422063
G03 X22.495388 Y26.716662 Z-1.000000 I-1.073780 J0.103578
G01 X22.495384 Y26.716650 Z-1.000000
G00 Z0.000000

(End cutting path id: path27180)


(Start cutting path id: path27180)
(Change tool to Cone cutter)

G00 Z0.000000
G00 X21.211905 Y28.051650

G01 Z-1.000000 F100.0(Penetrate)
G03 X20.484694 Y28.289246 Z-1.000000 I-1.711789 J-4.007589 F400.000000
G03 X19.897934 Y28.356398 Z-1.000000 I-0.586760 J-2.529922
G03 X19.636373 Y28.311623 Z-1.000000 I-0.000000 J-0.786371
G03 X19.348779 Y28.162715 Z-1.000000 I0.389609 J-1.104648
G03 X18.691738 Y27.633825 Z-1.000000 I3.980557 J-5.617624
G01 X18.719262 Y27.589006 Z-1.000000
G02 X19.055530 Y27.644070 Z-1.000000 I0.303890 J-0.801508
G02 X19.385511 Y27.563816 Z-1.000000 I-0.032158 J-0.850744
G02 X19.787401 Y27.257286 Z-1.000000 I-0.510501 J-1.086037
G02 X20.041165 Y26.796390 Z-1.000000 I-0.988608 J-0.844624
G02 X20.201204 Y25.615376 Z-1.000000 I-3.468818 J-1.071408
G02 X19.977255 Y24.680470 Z-1.000000 I-2.361143 J0.071315
G02 X19.653816 Y24.213093 Z-1.000000 I-1.562307 J0.735561
G02 X19.195256 Y23.875117 Z-1.000000 I-1.244408 J1.208318
G03 X19.069741 Y23.782307 Z-1.000000 I0.213364 J-0.419827
G01 X19.077430 Y23.753017 Z-1.000000
G03 X19.893345 Y23.608190 Z-1.000000 I1.040055 J3.488650
G03 X20.506856 Y23.664887 Z-1.000000 I0.123844 J2.007612
G03 X21.365927 Y24.002131 Z-1.000000 I-0.878555 J3.500756
G03 X21.336583 Y24.120620 Z-1.000000 I-0.030402 J0.055349
G02 X21.266198 Y24.134832 Z-1.000000 I0.003314 J0.197815
G02 X21.062417 Y24.230687 Z-1.000000 I0.724078 J1.803872
G02 X20.892901 Y24.368381 Z-1.000000 I0.283988 J0.522812
G02 X20.734750 Y24.616546 Z-1.000000 I0.823294 J0.699146
G02 X20.613332 Y24.895901 Z-1.000000 I6.682317 J3.070449
G02 X20.546190 Y25.076210 Z-1.000000 I2.711547 J1.112357
G02 X20.393058 Y25.799431 Z-1.000000 I3.054380 J1.024546
G02 X20.420777 Y26.411148 Z-1.000000 I2.200867 J0.206757
G02 X20.557146 Y26.808715 Z-1.000000 I1.418143 J-0.264265
G02 X20.944986 Y27.426390 Z-1.000000 I3.859713 J-1.992924
G02 X21.113427 Y27.600389 Z-1.000000 I0.779708 J-0.586273
G02 X21.338761 Y27.742992 Z-1.000000 I0.741213 J-0.921893
G03 X21.554269 Y27.866662 Z-1.000000 I-0.777229 J1.604016
G01 X21.556426 Y27.888946 Z-1.000000
G03 X21.525426 Y27.910721 Z-1.000000 I-0.078524 J-0.078839
G03 X21.211903 Y28.051660 Z-1.000000 I-3.902626 J-8.262293
G01 X21.211905 Y28.051650 Z-1.000000
G00 Z0.000000

(End cutting path id: path27180)


(Start cutting path id: path27180)
(Change tool to Cone cutter)

G00 Z0.000000
G00 X21.211905 Y28.051650

G01 Z-1.000000 F100.0(Penetrate)
G03 X20.484694 Y28.289246 Z-1.000000 I-1.711789 J-4.007589 F400.000000
G03 X19.897934 Y28.356398 Z-1.000000 I-0.586760 J-2.529922
G03 X19.636373 Y28.311623 Z-1.000000 I-0.000000 J-0.786371
G03 X19.348779 Y28.162715 Z-1.000000 I0.389609 J-1.104648
G03 X18.691738 Y27.633825 Z-1.000000 I3.980557 J-5.617624
G01 X18.719262 Y27.589006 Z-1.000000
G02 X19.055530 Y27.644070 Z-1.000000 I0.303890 J-0.801508
G02 X19.385511 Y27.563816 Z-1.000000 I-0.032158 J-0.850744
G02 X19.787401 Y27.257286 Z-1.000000 I-0.510501 J-1.086037
G02 X20.041165 Y26.796390 Z-1.000000 I-0.988608 J-0.844624
G02 X20.201204 Y25.615376 Z-1.000000 I-3.468818 J-1.071408
G02 X19.977255 Y24.680470 Z-1.000000 I-2.361143 J0.071315
G02 X19.653816 Y24.213093 Z-1.000000 I-1.562307 J0.735561
G02 X19.195256 Y23.875117 Z-1.000000 I-1.244408 J1.208318
G03 X19.069741 Y23.782307 Z-1.000000 I0.213364 J-0.419827
G01 X19.077430 Y23.753017 Z-1.000000
G03 X19.893345 Y23.608190 Z-1.000000 I1.040055 J3.488650
G03 X20.506856 Y23.664887 Z-1.000000 I0.123844 J2.007612
G03 X21.365927 Y24.002131 Z-1.000000 I-0.878555 J3.500756
G03 X21.336583 Y24.120620 Z-1.000000 I-0.030402 J0.055349
G02 X21.266198 Y24.134832 Z-1.000000 I0.003314 J0.197815
G02 X21.062417 Y24.230687 Z-1.000000 I0.724078 J1.803872
G02 X20.892901 Y24.368381 Z-1.000000 I0.283988 J0.522812
G02 X20.734750 Y24.616546 Z-1.000000 I0.823294 J0.699146
G02 X20.613332 Y24.895901 Z-1.000000 I6.682317 J3.070449
G02 X20.546190 Y25.076210 Z-1.000000 I2.711547 J1.112357
G02 X20.393058 Y25.799431 Z-1.000000 I3.054380 J1.024546
G02 X20.420777 Y26.411148 Z-1.000000 I2.200867 J0.206757
G02 X20.557146 Y26.808715 Z-1.000000 I1.418143 J-0.264265
G02 X20.944986 Y27.426390 Z-1.000000 I3.859713 J-1.992924
G02 X21.113427 Y27.600389 Z-1.000000 I0.779708 J-0.586273
G02 X21.338761 Y27.742992 Z-1.000000 I0.741213 J-0.921893
G03 X21.554269 Y27.866662 Z-1.000000 I-0.777229 J1.604016
G01 X21.556426 Y27.888946 Z-1.000000
G03 X21.525426 Y27.910721 Z-1.000000 I-0.078524 J-0.078839
G03 X21.211903 Y28.051660 Z-1.000000 I-3.902626 J-8.262293
G01 X21.211905 Y28.051650 Z-1.000000
G00 Z0.000000

(End cutting path id: path27180)


(Start cutting path id: path27180)
(Change tool to Cone cutter)

G00 Z0.000000
G00 X19.925838 Y26.349765

G01 Z-1.000000 F100.0(Penetrate)
G03 X19.766538 Y26.873560 Z-1.000000 I-2.209177 J-0.385750 F400.000000
G03 X19.554695 Y27.186212 Z-1.000000 I-0.975352 J-0.432770
G03 X19.332531 Y27.366332 Z-1.000000 I-0.883178 J-0.862258
G03 X19.158802 Y27.437266 Z-1.000000 I-0.284570 J-0.448748
G03 X18.753606 Y27.396981 Z-1.000000 I-0.139555 J-0.654257
G03 X18.188603 Y27.017501 Z-1.000000 I0.742163 J-1.715347
G03 X17.951410 Y26.671791 Z-1.000000 I0.756908 J-0.773543
G03 X17.806547 Y26.129769 Z-1.000000 I1.780229 J-0.766159
G03 X17.807630 Y25.669996 Z-1.000000 I1.935616 J-0.225330
G03 X17.937185 Y25.051864 Z-1.000000 I3.649659 J0.442295
G03 X18.578504 Y24.076615 Z-1.000000 I1.960113 J0.590472
G03 X19.143048 Y24.036176 Z-1.000000 I0.310091 J0.368152
G03 X19.527494 Y24.362523 Z-1.000000 I-0.910928 J1.462719
G03 X19.788618 Y24.772077 Z-1.000000 I-1.201722 J1.054215
G03 X19.964280 Y25.457389 Z-1.000000 I-1.980659 J0.872859
G03 X19.925838 Y26.349765 Z-1.000000 I-3.437179 J0.298949
G01 X19.925838 Y26.349765 Z-1.000000
G00 Z0.000000

(End cutting path id: path27180)


(Start cutting path id: path27180)
(Change tool to Cone cutter)

G00 Z0.000000
G00 X19.925838 Y26.349765

G01 Z-1.000000 F100.0(Penetrate)
G03 X19.766538 Y26.873560 Z-1.000000 I-2.209177 J-0.385750 F400.000000
G03 X19.554695 Y27.186212 Z-1.000000 I-0.975352 J-0.432770
G03 X19.332531 Y27.366332 Z-1.000000 I-0.883178 J-0.862258
G03 X19.158802 Y27.437266 Z-1.000000 I-0.284570 J-0.448748
G03 X18.753606 Y27.396981 Z-1.000000 I-0.139555 J-0.654257
G03 X18.188603 Y27.017501 Z-1.000000 I0.742163 J-1.715347
G03 X17.951410 Y26.671791 Z-1.000000 I0.756908 J-0.773543
G03 X17.806547 Y26.129769 Z-1.000000 I1.780229 J-0.766159
G03 X17.807630 Y25.669996 Z-1.000000 I1.935616 J-0.225330
G03 X17.937185 Y25.051864 Z-1.000000 I3.649659 J0.442295
G03 X18.578504 Y24.076615 Z-1.000000 I1.960113 J0.590472
G03 X19.143048 Y24.036176 Z-1.000000 I0.310091 J0.368152
G03 X19.527494 Y24.362523 Z-1.000000 I-0.910928 J1.462719
G03 X19.788618 Y24.772077 Z-1.000000 I-1.201722 J1.054215
G03 X19.964280 Y25.457389 Z-1.000000 I-1.980659 J0.872859
G03 X19.925838 Y26.349765 Z-1.000000 I-3.437179 J0.298949
G01 X19.925838 Y26.349765 Z-1.000000
G00 Z0.000000

(End cutting path id: path27180)


(Start cutting path id: path27180)
(Change tool to Cone cutter)

G00 Z0.000000
G00 X18.492097 Y22.697135

G01 Z-1.000000 F100.0(Penetrate)
G02 X18.470331 Y22.701456 Z-1.000000 I-0.000000 J0.056984 F400.000000
G02 X18.204346 Y22.816058 Z-1.000000 I3.713673 J8.985181
G03 X16.443777 Y23.521526 Z-1.000000 I-9.556687 J-21.300132
G03 X13.348233 Y24.536473 Z-1.000000 I-22.998837 J-64.917339
G02 X12.248265 Y24.926806 Z-1.000000 I3.528227 J11.687669
G02 X10.811086 Y25.575869 Z-1.000000 I8.448512 J20.622659
G03 X8.418383 Y26.639333 Z-1.000000 I-14.047694 J-28.382683
G03 X6.747744 Y27.184168 Z-1.000000 I-5.249303 J-13.262279
G03 X5.789751 Y27.392233 Z-1.000000 I-3.095253 J-11.941989
G03 X5.029669 Y27.486386 Z-1.000000 I-1.304495 J-7.415890
G03 X4.113881 Y27.501385 Z-1.000000 I-0.591716 J-8.163359
G03 X3.520191 Y27.426576 Z-1.000000 I0.138334 J-3.491021
G02 X3.466329 Y27.427560 Z-1.000000 I-0.024826 J0.115802
G01 X3.464156 Y27.440746 Z-1.000000
G02 X3.647308 Y27.510216 Z-1.000000 I0.253254 J-0.391517
G02 X4.689829 Y27.627129 Z-1.000000 I2.010378 J-13.220083
G02 X5.695312 Y27.586329 Z-1.000000 I0.322986 J-4.450340
G02 X7.411711 Y27.205852 Z-1.000000 I-2.083235 J-13.459564
G02 X8.701602 Y26.750610 Z-1.000000 I-3.375774 J-11.619997
G02 X10.899839 Y25.748189 Z-1.000000 I-14.555132 J-34.829866
G03 X12.407762 Y25.060351 Z-1.000000 I11.533939 J23.288653
G03 X13.367973 Y24.716113 Z-1.000000 I3.797731 J9.081997
G02 X14.664021 Y24.294155 Z-1.000000 I-8.787743 J-29.193053
G02 X16.301152 Y23.688082 Z-1.000000 I-16.541265 J-47.195572
G02 X18.505696 Y22.760205 Z-1.000000 I-16.485057 J-42.249683
G01 X18.492095 Y22.697132 Z-1.000000
G01 X18.492097 Y22.697135 Z-1.000000
G00 Z0.000000

(End cutting path id: path27180)


(Start cutting path id: path27180)
(Change tool to Cone cutter)

G00 Z0.000000
G00 X18.492097 Y22.697135

G01 Z-1.000000 F100.0(Penetrate)
G02 X18.470331 Y22.701456 Z-1.000000 I-0.000000 J0.056984 F400.000000
G02 X18.204346 Y22.816058 Z-1.000000 I3.713673 J8.985181
G03 X16.443777 Y23.521526 Z-1.000000 I-9.556687 J-21.300132
G03 X13.348233 Y24.536473 Z-1.000000 I-22.998837 J-64.917339
G02 X12.248265 Y24.926806 Z-1.000000 I3.528227 J11.687669
G02 X10.811086 Y25.575869 Z-1.000000 I8.448512 J20.622659
G03 X8.418383 Y26.639333 Z-1.000000 I-14.047694 J-28.382683
G03 X6.747744 Y27.184168 Z-1.000000 I-5.249303 J-13.262279
G03 X5.789751 Y27.392233 Z-1.000000 I-3.095253 J-11.941989
G03 X5.029669 Y27.486386 Z-1.000000 I-1.304495 J-7.415890
G03 X4.113881 Y27.501385 Z-1.000000 I-0.591716 J-8.163359
G03 X3.520191 Y27.426576 Z-1.000000 I0.138334 J-3.491021
G02 X3.466329 Y27.427560 Z-1.000000 I-0.024826 J0.115802
G01 X3.464156 Y27.440746 Z-1.000000
G02 X3.647308 Y27.510216 Z-1.000000 I0.253254 J-0.391517
G02 X4.689829 Y27.627129 Z-1.000000 I2.010378 J-13.220083
G02 X5.695312 Y27.586329 Z-1.000000 I0.322986 J-4.450340
G02 X7.411711 Y27.205852 Z-1.000000 I-2.083235 J-13.459564
G02 X8.701602 Y26.750610 Z-1.000000 I-3.375774 J-11.619997
G02 X10.899839 Y25.748189 Z-1.000000 I-14.555132 J-34.829866
G03 X12.407762 Y25.060351 Z-1.000000 I11.533939 J23.288653
G03 X13.367973 Y24.716113 Z-1.000000 I3.797731 J9.081997
G02 X14.664021 Y24.294155 Z-1.000000 I-8.787743 J-29.193053
G02 X16.301152 Y23.688082 Z-1.000000 I-16.541265 J-47.195572
G02 X18.505696 Y22.760205 Z-1.000000 I-16.485057 J-42.249683
G01 X18.492095 Y22.697132 Z-1.000000
G01 X18.492097 Y22.697135 Z-1.000000
G00 Z0.000000

(End cutting path id: path27180)


(Start cutting path id: path27180)
(Change tool to Cone cutter)

G00 Z0.000000
G00 X18.715964 Y22.262109

G01 Z-1.000000 F100.0(Penetrate)
G02 X18.679849 Y22.264582 Z-1.000000 I0.002390 J0.299850 F400.000000
G02 X18.105845 Y22.341099 Z-1.000000 I9.895653 J76.424942
G03 X16.904193 Y22.490244 Z-1.000000 I-6.430968 J-46.898366
G03 X15.454302 Y22.635811 Z-1.000000 I-7.570113 J-68.107370
G02 X14.761904 Y22.699658 Z-1.000000 I12.234953 J136.469340
G02 X14.346195 Y22.740805 Z-1.000000 I4.727062 J49.878526
G03 X13.933088 Y22.750885 Z-1.000000 I-0.270647 J-2.621664
G03 X13.607412 Y22.700825 Z-1.000000 I0.090609 J-1.673885
G03 X12.962295 Y22.439155 Z-1.000000 I0.645299 J-2.516974
G03 X12.330620 Y21.970284 Z-1.000000 I1.647755 J-2.879837
G01 X12.115720 Y21.767108 Z-1.000000
G01 X12.284455 Y21.974424 Z-1.000000
G02 X12.824661 Y22.478401 Z-1.000000 I2.099062 J-1.708447
G02 X13.455751 Y22.799709 Z-1.000000 I1.432326 J-2.032845
G02 X14.039487 Y22.883088 Z-1.000000 I0.513203 J-1.507868
G02 X16.692344 Y22.656244 Z-1.000000 I-1.438086 J-32.443349
G02 X18.722795 Y22.329954 Z-1.000000 I-3.923273 J-30.894645
G01 X18.715964 Y22.262101 Z-1.000000
G01 X18.715964 Y22.262109 Z-1.000000
G00 Z0.000000

(End cutting path id: path27180)


(Start cutting path id: path27180)
(Change tool to Cone cutter)

G00 Z0.000000
G00 X18.715964 Y22.262109

G01 Z-1.000000 F100.0(Penetrate)
G02 X18.679849 Y22.264582 Z-1.000000 I0.002390 J0.299850 F400.000000
G02 X18.105845 Y22.341099 Z-1.000000 I9.895653 J76.424942
G03 X16.904193 Y22.490244 Z-1.000000 I-6.430968 J-46.898366
G03 X15.454302 Y22.635811 Z-1.000000 I-7.570113 J-68.107370
G02 X14.761904 Y22.699658 Z-1.000000 I12.234953 J136.469340
G02 X14.346195 Y22.740805 Z-1.000000 I4.727062 J49.878526
G03 X13.933088 Y22.750885 Z-1.000000 I-0.270647 J-2.621664
G03 X13.607412 Y22.700825 Z-1.000000 I0.090609 J-1.673885
G03 X12.962295 Y22.439155 Z-1.000000 I0.645299 J-2.516974
G03 X12.330620 Y21.970284 Z-1.000000 I1.647755 J-2.879837
G01 X12.115720 Y21.767108 Z-1.000000
G01 X12.284455 Y21.974424 Z-1.000000
G02 X12.824661 Y22.478401 Z-1.000000 I2.099062 J-1.708447
G02 X13.455751 Y22.799709 Z-1.000000 I1.432326 J-2.032845
G02 X14.039487 Y22.883088 Z-1.000000 I0.513203 J-1.507868
G02 X16.692344 Y22.656244 Z-1.000000 I-1.438086 J-32.443349
G02 X18.722795 Y22.329954 Z-1.000000 I-3.923273 J-30.894645
G01 X18.715964 Y22.262101 Z-1.000000
G01 X18.715964 Y22.262109 Z-1.000000
G00 Z0.000000

(End cutting path id: path27180)


(Start cutting path id: path27180)
(Change tool to Cone cutter)

G00 Z0.000000
G00 X18.438937 Y20.761072

G01 Z-1.000000 F100.0(Penetrate)
G01 X18.412499 Y20.772666 Z-1.000000 F400.000000
G01 X18.415027 Y20.784982 Z-1.000000
G02 X18.464446 Y20.793460 Z-1.000000 I0.044535 J-0.111317
G01 X18.490877 Y20.781882 Z-1.000000
G01 X18.488348 Y20.769559 Z-1.000000
G02 X18.438937 Y20.761092 Z-1.000000 I-0.044477 J0.111148
G01 X18.438937 Y20.761072 Z-1.000000
G00 Z0.000000

(End cutting path id: path27180)


(Start cutting path id: path27180)
(Change tool to Cone cutter)

G00 Z0.000000
G00 X18.438937 Y20.761072

G01 Z-1.000000 F100.0(Penetrate)
G01 X18.412499 Y20.772666 Z-1.000000 F400.000000
G01 X18.415027 Y20.784982 Z-1.000000
G02 X18.464446 Y20.793460 Z-1.000000 I0.044535 J-0.111317
G01 X18.490877 Y20.781882 Z-1.000000
G01 X18.488348 Y20.769559 Z-1.000000
G02 X18.438937 Y20.761092 Z-1.000000 I-0.044477 J0.111148
G01 X18.438937 Y20.761072 Z-1.000000
G00 Z0.000000

(End cutting path id: path27180)


(Start cutting path id: path27180)
(Change tool to Cone cutter)

G00 Z0.000000
G00 X17.947546 Y20.787076

G01 Z-1.000000 F100.0(Penetrate)
G03 X15.911075 Y20.464810 Z-1.000000 I4.466357 J-34.819454 F400.000000
G03 X11.717073 Y19.612632 Z-1.000000 I28.026555 J-148.679522
G03 X11.061472 Y19.366963 Z-1.000000 I0.519767 J-2.384678
G03 X10.660011 Y19.031785 Z-1.000000 I0.655861 J-1.193578
G03 X9.937290 Y17.853110 Z-1.000000 I4.081108 J-3.313300
G03 X9.755466 Y16.996169 Z-1.000000 I1.928488 J-0.856941
G03 X9.766131 Y16.775580 Z-1.000000 I2.286579 J0.000000
G03 X9.816426 Y16.367068 Z-1.000000 I7.916035 J0.767249
G02 X9.868569 Y15.962252 Z-1.000000 I-9.932496 J-1.485140
G01 X9.862196 Y15.944155 Z-1.000000
G01 X9.799176 Y15.964057 Z-1.000000
G02 X9.687716 Y16.938934 Z-1.000000 I8.088508 J1.418583
G02 X9.739434 Y17.531532 Z-1.000000 I2.111779 J0.114254
G02 X9.994296 Y18.259238 Z-1.000000 I3.460900 J-0.803617
G02 X10.600587 Y19.265359 Z-1.000000 I5.487261 J-2.620899
G02 X10.984300 Y19.591513 Z-1.000000 I0.897107 J-0.666635
G02 X11.249336 Y19.686074 Z-1.000000 I0.481765 J-0.931589
G02 X14.168107 Y20.263957 Z-1.000000 I24.234331 J-114.742747
G02 X17.616700 Y20.830868 Z-1.000000 I16.007278 J-86.601821
G02 X18.082699 Y20.827945 Z-1.000000 I0.223289 J-1.549826
G01 X18.083517 Y20.816154 Z-1.000000
G02 X17.947544 Y20.787075 Z-1.000000 I-0.242599 J0.801956
G01 X17.947546 Y20.787076 Z-1.000000
G00 Z0.000000

(End cutting path id: path27180)


(Start cutting path id: path27180)
(Change tool to Cone cutter)

G00 Z0.000000
G00 X17.947546 Y20.787076

G01 Z-1.000000 F100.0(Penetrate)
G03 X15.911075 Y20.464810 Z-1.000000 I4.466357 J-34.819454 F400.000000
G03 X11.717073 Y19.612632 Z-1.000000 I28.026555 J-148.679522
G03 X11.061472 Y19.366963 Z-1.000000 I0.519767 J-2.384678
G03 X10.660011 Y19.031785 Z-1.000000 I0.655861 J-1.193578
G03 X9.937290 Y17.853110 Z-1.000000 I4.081108 J-3.313300
G03 X9.755466 Y16.996169 Z-1.000000 I1.928488 J-0.856941
G03 X9.766131 Y16.775580 Z-1.000000 I2.286579 J0.000000
G03 X9.816426 Y16.367068 Z-1.000000 I7.916035 J0.767249
G02 X9.868569 Y15.962252 Z-1.000000 I-9.932496 J-1.485140
G01 X9.862196 Y15.944155 Z-1.000000
G01 X9.799176 Y15.964057 Z-1.000000
G02 X9.687716 Y16.938934 Z-1.000000 I8.088508 J1.418583
G02 X9.739434 Y17.531532 Z-1.000000 I2.111779 J0.114254
G02 X9.994296 Y18.259238 Z-1.000000 I3.460900 J-0.803617
G02 X10.600587 Y19.265359 Z-1.000000 I5.487261 J-2.620899
G02 X10.984300 Y19.591513 Z-1.000000 I0.897107 J-0.666635
G02 X11.249336 Y19.686074 Z-1.000000 I0.481765 J-0.931589
G02 X14.168107 Y20.263957 Z-1.000000 I24.234331 J-114.742747
G02 X17.616700 Y20.830868 Z-1.000000 I16.007278 J-86.601821
G02 X18.082699 Y20.827945 Z-1.000000 I0.223289 J-1.549826
G01 X18.083517 Y20.816154 Z-1.000000
G02 X17.947544 Y20.787075 Z-1.000000 I-0.242599 J0.801956
G01 X17.947546 Y20.787076 Z-1.000000
G00 Z0.000000

(End cutting path id: path27180)


(Start cutting path id: path27180)
(Change tool to Cone cutter)

G00 Z0.000000
G00 X17.817277 Y20.941641

G01 Z-1.000000 F100.0(Penetrate)
G02 X17.721755 Y20.925033 Z-1.000000 I-0.160109 J0.637856 F400.000000
G02 X17.152548 Y20.876041 Z-1.000000 I-2.242581 J22.724210
G03 X15.538281 Y20.726664 Z-1.000000 I3.137492 J-42.702848
G03 X14.860676 Y20.620117 Z-1.000000 I0.850648 J-7.617816
G02 X14.761221 Y20.603119 Z-1.000000 I-0.318446 J1.563779
G02 X13.851506 Y20.480283 Z-1.000000 I-18.294474 J132.057465
G03 X12.941526 Y20.358792 Z-1.000000 I30.228911 J-229.886206
G03 X12.684036 Y20.322074 Z-1.000000 I2.516536 J-18.568777
G02 X11.741665 Y20.211758 Z-1.000000 I-2.191558 J14.641074
G02 X9.814828 Y20.079104 Z-1.000000 I-5.175894 J61.121062
G03 X8.005268 Y19.898462 Z-1.000000 I1.036070 J-19.532526
G03 X6.773518 Y19.631887 Z-1.000000 I1.366588 J-9.293568
G03 X5.789408 Y19.274795 Z-1.000000 I2.136574 J-7.422793
G03 X5.481337 Y19.061174 Z-1.000000 I0.400174 J-0.906054
G03 X5.161985 Y18.633284 Z-1.000000 I1.439992 J-1.407847
G03 X4.990187 Y18.179397 Z-1.000000 I1.453545 J-0.809626
G02 X4.948673 Y18.070598 Z-1.000000 I-0.383038 J0.083837
G01 X4.931257 Y18.074920 Z-1.000000
G02 X5.105925 Y18.799635 Z-1.000000 I1.429979 J0.038758
G02 X5.639639 Y19.371269 Z-1.000000 I1.381573 J-0.754951
G02 X6.503216 Y19.771116 Z-1.000000 I1.902887 J-2.977307
G02 X8.142180 Y20.141420 Z-1.000000 I3.240048 J-10.528277
G02 X8.549867 Y20.185645 Z-1.000000 I0.788690 J-5.369254
G02 X9.597164 Y20.243835 Z-1.000000 I2.494721 J-35.446155
G03 X11.467997 Y20.363489 Z-1.000000 I-1.648389 J40.458398
G03 X13.495329 Y20.583914 Z-1.000000 I-4.164795 J47.738565
G02 X15.622824 Y20.831113 Z-1.000000 I9.950645 J-76.360651
G02 X16.898802 Y20.931473 Z-1.000000 I2.793574 J-27.355949
G02 X17.886249 Y20.980596 Z-1.000000 I4.946872 J-89.490858
G01 X17.899920 Y20.975753 Z-1.000000
G01 X17.898722 Y20.968524 Z-1.000000
G02 X17.817280 Y20.941653 Z-1.000000 I-0.225036 J0.545188
G01 X17.817277 Y20.941641 Z-1.000000
G00 Z0.000000

(End cutting path id: path27180)


(Start cutting path id: path27180)
(Change tool to Cone cutter)

G00 Z0.000000
G00 X17.817277 Y20.941641

G01 Z-1.000000 F100.0(Penetrate)
G02 X17.721755 Y20.925033 Z-1.000000 I-0.160109 J0.637856 F400.000000
G02 X17.152548 Y20.876041 Z-1.000000 I-2.242581 J22.724210
G03 X15.538281 Y20.726664 Z-1.000000 I3.137492 J-42.702848
G03 X14.860676 Y20.620117 Z-1.000000 I0.850648 J-7.617816
G02 X14.761221 Y20.603119 Z-1.000000 I-0.318446 J1.563779
G02 X13.851506 Y20.480283 Z-1.000000 I-18.294474 J132.057465
G03 X12.941526 Y20.358792 Z-1.000000 I30.228911 J-229.886206
G03 X12.684036 Y20.322074 Z-1.000000 I2.516536 J-18.568777
G02 X11.741665 Y20.211758 Z-1.000000 I-2.191558 J14.641074
G02 X9.814828 Y20.079104 Z-1.000000 I-5.175894 J61.121062
G03 X8.005268 Y19.898462 Z-1.000000 I1.036070 J-19.532526
G03 X6.773518 Y19.631887 Z-1.000000 I1.366588 J-9.293568
G03 X5.789408 Y19.274795 Z-1.000000 I2.136574 J-7.422793
G03 X5.481337 Y19.061174 Z-1.000000 I0.400174 J-0.906054
G03 X5.161985 Y18.633284 Z-1.000000 I1.439992 J-1.407847
G03 X4.990187 Y18.179397 Z-1.000000 I1.453545 J-0.809626
G02 X4.948673 Y18.070598 Z-1.000000 I-0.383038 J0.083837
G01 X4.931257 Y18.074920 Z-1.000000
G02 X5.105925 Y18.799635 Z-1.000000 I1.429979 J0.038758
G02 X5.639639 Y19.371269 Z-1.000000 I1.381573 J-0.754951
G02 X6.503216 Y19.771116 Z-1.000000 I1.902887 J-2.977307
G02 X8.142180 Y20.141420 Z-1.000000 I3.240048 J-10.528277
G02 X8.549867 Y20.185645 Z-1.000000 I0.788690 J-5.369254
G02 X9.597164 Y20.243835 Z-1.000000 I2.494721 J-35.446155
G03 X11.467997 Y20.363489 Z-1.000000 I-1.648389 J40.458398
G03 X13.495329 Y20.583914 Z-1.000000 I-4.164795 J47.738565
G02 X15.622824 Y20.831113 Z-1.000000 I9.950645 J-76.360651
G02 X16.898802 Y20.931473 Z-1.000000 I2.793574 J-27.355949
G02 X17.886249 Y20.980596 Z-1.000000 I4.946872 J-89.490858
G01 X17.899920 Y20.975753 Z-1.000000
G01 X17.898722 Y20.968524 Z-1.000000
G02 X17.817280 Y20.941653 Z-1.000000 I-0.225036 J0.545188
G01 X17.817277 Y20.941641 Z-1.000000
G00 Z0.000000

(End cutting path id: path27180)


(Start cutting path id: path27180)
(Change tool to Cone cutter)

G00 Z0.000000
G00 X17.501746 Y20.586629

G01 Z-1.000000 F100.0(Penetrate)
G03 X15.713943 Y20.132056 Z-1.000000 I9.543857 J-41.278291 F400.000000
G03 X15.259821 Y19.964324 Z-1.000000 I0.780394 J-2.811465
G03 X14.738980 Y19.597746 Z-1.000000 I0.767679 J-1.644033
G03 X14.300651 Y18.996849 Z-1.000000 I1.757245 J-1.742156
G03 X14.032595 Y18.242045 Z-1.000000 I2.581063 J-1.341623
G03 X13.830366 Y16.713517 Z-1.000000 I10.556854 J-2.174343
G02 X13.781441 Y15.990235 Z-1.000000 I-47.617969 J2.857695
G02 X13.772856 Y15.949553 Z-1.000000 I-0.156502 J0.011781
G01 X13.765669 Y15.950710 Z-1.000000
G02 X13.755696 Y16.630199 Z-1.000000 I32.868948 J0.822253
G02 X13.899123 Y18.338913 Z-1.000000 I9.739558 J0.042851
G02 X14.197313 Y19.174716 Z-1.000000 I2.571852 J-0.446467
G02 X14.629504 Y19.735986 Z-1.000000 I2.169494 J-1.223525
G02 X15.137706 Y20.090086 Z-1.000000 I1.328240 J-1.364550
G02 X15.593862 Y20.253377 Z-1.000000 I1.030265 J-2.159275
G02 X17.205990 Y20.601340 Z-1.000000 I6.652361 J-26.912183
G02 X17.498704 Y20.620854 Z-1.000000 I0.229900 J-1.243407
G01 X17.501750 Y20.586630 Z-1.000000
G01 X17.501746 Y20.586629 Z-1.000000
G00 Z0.000000

(End cutting path id: path27180)


(Start cutting path id: path27180)
(Change tool to Cone cutter)

G00 Z0.000000
G00 X17.501746 Y20.586629

G01 Z-1.000000 F100.0(Penetrate)
G03 X15.713943 Y20.132056 Z-1.000000 I9.543857 J-41.278291 F400.000000
G03 X15.259821 Y19.964324 Z-1.000000 I0.780394 J-2.811465
G03 X14.738980 Y19.597746 Z-1.000000 I0.767679 J-1.644033
G03 X14.300651 Y18.996849 Z-1.000000 I1.757245 J-1.742156
G03 X14.032595 Y18.242045 Z-1.000000 I2.581063 J-1.341623
G03 X13.830366 Y16.713517 Z-1.000000 I10.556854 J-2.174343
G02 X13.781441 Y15.990235 Z-1.000000 I-47.617969 J2.857695
G02 X13.772856 Y15.949553 Z-1.000000 I-0.156502 J0.011781
G01 X13.765669 Y15.950710 Z-1.000000
G02 X13.755696 Y16.630199 Z-1.000000 I32.868948 J0.822253
G02 X13.899123 Y18.338913 Z-1.000000 I9.739558 J0.042851
G02 X14.197313 Y19.174716 Z-1.000000 I2.571852 J-0.446467
G02 X14.629504 Y19.735986 Z-1.000000 I2.169494 J-1.223525
G02 X15.137706 Y20.090086 Z-1.000000 I1.328240 J-1.364550
G02 X15.593862 Y20.253377 Z-1.000000 I1.030265 J-2.159275
G02 X17.205990 Y20.601340 Z-1.000000 I6.652361 J-26.912183
G02 X17.498704 Y20.620854 Z-1.000000 I0.229900 J-1.243407
G01 X17.501750 Y20.586630 Z-1.000000
G01 X17.501746 Y20.586629 Z-1.000000
G00 Z0.000000

(End cutting path id: path27180)


(Start cutting path id: path27180)
(Change tool to Cone cutter)

G00 Z0.000000
G00 X22.338382 Y15.187556

G01 Z-1.000000 F100.0(Penetrate)
G02 X22.200227 Y15.044204 Z-1.000000 I-0.605620 J0.445416 F400.000000
G02 X21.992098 Y14.912627 Z-1.000000 I-0.714837 J0.900332
G02 X21.757326 Y14.841578 Z-1.000000 I-0.333917 J0.679977
G02 X21.153133 Y14.801870 Z-1.000000 I-0.604193 J4.576773
G02 X20.410109 Y14.912767 Z-1.000000 I0.000000 J2.544623
G02 X20.090093 Y15.126412 Z-1.000000 I0.194930 J0.638478
G01 X19.966046 Y15.276774 Z-1.000000
G01 X19.985146 Y15.118472 Z-1.000000
G03 X20.141988 Y13.939514 Z-1.000000 I48.432636 J5.843299
G03 X20.198145 Y13.654188 Z-1.000000 I2.885562 J0.419737
G03 X20.641019 Y13.290128 Z-1.000000 I0.466664 J0.116285
G03 X21.943203 Y13.567758 Z-1.000000 I0.128315 J2.590827
G03 X22.099421 Y13.680464 Z-1.000000 I-0.281555 J0.554870
G03 X22.289488 Y13.910596 Z-1.000000 I-1.051211 J1.061755
G01 X22.459119 Y14.163788 Z-1.000000
G01 X22.459119 Y14.757760 Z-1.000000
G01 X22.459119 Y15.351730 Z-1.000000
G01 X22.338382 Y15.187556 Z-1.000000
G00 Z0.000000

(End cutting path id: path27180)


(Start cutting path id: path27180)
(Change tool to Cone cutter)

G00 Z0.000000
G00 X22.338382 Y15.187556

G01 Z-1.000000 F100.0(Penetrate)
G02 X22.200227 Y15.044204 Z-1.000000 I-0.605620 J0.445416 F400.000000
G02 X21.992098 Y14.912627 Z-1.000000 I-0.714837 J0.900332
G02 X21.757326 Y14.841578 Z-1.000000 I-0.333917 J0.679977
G02 X21.153133 Y14.801870 Z-1.000000 I-0.604193 J4.576773
G02 X20.410109 Y14.912767 Z-1.000000 I0.000000 J2.544623
G02 X20.090093 Y15.126412 Z-1.000000 I0.194930 J0.638478
G01 X19.966046 Y15.276774 Z-1.000000
G01 X19.985146 Y15.118472 Z-1.000000
G03 X20.141988 Y13.939514 Z-1.000000 I48.432636 J5.843299
G03 X20.198145 Y13.654188 Z-1.000000 I2.885562 J0.419737
G03 X20.641019 Y13.290128 Z-1.000000 I0.466664 J0.116285
G03 X21.943203 Y13.567758 Z-1.000000 I0.128315 J2.590827
G03 X22.099421 Y13.680464 Z-1.000000 I-0.281555 J0.554870
G03 X22.289488 Y13.910596 Z-1.000000 I-1.051211 J1.061755
G01 X22.459119 Y14.163788 Z-1.000000
G01 X22.459119 Y14.757760 Z-1.000000
G01 X22.459119 Y15.351730 Z-1.000000
G01 X22.338382 Y15.187556 Z-1.000000
G00 Z0.000000

(End cutting path id: path27180)


(Start cutting path id: path27180)
(Change tool to Cone cutter)

G00 Z0.000000
G00 X22.472701 Y13.611551

G01 Z-1.000000 F100.0(Penetrate)
G01 X22.446711 Y14.036343 Z-1.000000 F400.000000
G01 X22.308263 Y13.774080 Z-1.000000
G02 X22.041394 Y13.467005 Z-1.000000 I-0.789926 J0.416998
G02 X21.591074 Y13.255997 Z-1.000000 I-0.781547 J1.081905
G02 X20.980185 Y13.203727 Z-1.000000 I-0.461969 J1.803206
G02 X20.486725 Y13.344617 Z-1.000000 I0.104343 J1.300061
G03 X20.252477 Y13.454659 Z-1.000000 I-1.604365 J-3.110905
G01 X20.242903 Y13.448327 Z-1.000000
G03 X20.324609 Y12.753033 Z-1.000000 I2.999246 J-0.000000
G03 X20.556961 Y12.130537 Z-1.000000 I2.627836 J0.626253
G03 X20.646233 Y12.067579 Z-1.000000 I0.105682 J0.055082
G03 X21.394575 Y12.014092 Z-1.000000 I0.774042 J5.567888
G03 X22.005989 Y12.078460 Z-1.000000 I0.013013 J2.812406
G03 X22.330498 Y12.217866 Z-1.000000 I-0.197571 J0.907304
G01 X22.498694 Y12.332216 Z-1.000000
G01 X22.498694 Y12.759486 Z-1.000000
G03 X22.492180 Y13.186558 Z-1.000000 I-14.003340 J-0.000000
G03 X22.472704 Y13.611548 Z-1.000000 I-13.903990 J-0.424239
G01 X22.472701 Y13.611551 Z-1.000000
G00 Z0.000000

(End cutting path id: path27180)


(Start cutting path id: path27180)
(Change tool to Cone cutter)

G00 Z0.000000
G00 X22.472701 Y13.611551

G01 Z-1.000000 F100.0(Penetrate)
G01 X22.446711 Y14.036343 Z-1.000000 F400.000000
G01 X22.308263 Y13.774080 Z-1.000000
G02 X22.041394 Y13.467005 Z-1.000000 I-0.789926 J0.416998
G02 X21.591074 Y13.255997 Z-1.000000 I-0.781547 J1.081905
G02 X20.980185 Y13.203727 Z-1.000000 I-0.461969 J1.803206
G02 X20.486725 Y13.344617 Z-1.000000 I0.104343 J1.300061
G03 X20.252477 Y13.454659 Z-1.000000 I-1.604365 J-3.110905
G01 X20.242903 Y13.448327 Z-1.000000
G03 X20.324609 Y12.753033 Z-1.000000 I2.999246 J-0.000000
G03 X20.556961 Y12.130537 Z-1.000000 I2.627836 J0.626253
G03 X20.646233 Y12.067579 Z-1.000000 I0.105682 J0.055082
G03 X21.394575 Y12.014092 Z-1.000000 I0.774042 J5.567888
G03 X22.005989 Y12.078460 Z-1.000000 I0.013013 J2.812406
G03 X22.330498 Y12.217866 Z-1.000000 I-0.197571 J0.907304
G01 X22.498694 Y12.332216 Z-1.000000
G01 X22.498694 Y12.759486 Z-1.000000
G03 X22.492180 Y13.186558 Z-1.000000 I-14.003340 J-0.000000
G03 X22.472704 Y13.611548 Z-1.000000 I-13.903990 J-0.424239
G01 X22.472701 Y13.611551 Z-1.000000
G00 Z0.000000

(End cutting path id: path27180)


(Start cutting path id: path27180)
(Change tool to Cone cutter)

G00 Z0.000000
G00 X22.558191 Y11.635849

G01 Z-1.000000 F100.0(Penetrate)
G03 X22.531324 Y11.952015 Z-1.000000 I-13.094987 J-0.953555 F400.000000
G03 X22.514711 Y12.083239 Z-1.000000 I-2.264492 J-0.220022
G01 X22.494291 Y12.214026 Z-1.000000
G01 X22.350671 Y12.087927 Z-1.000000
G02 X22.014331 Y11.887076 Z-1.000000 I-0.713244 J0.812338
G02 X21.616473 Y11.814807 Z-1.000000 I-0.401583 J1.079531
G02 X20.989960 Y11.867754 Z-1.000000 I-0.011605 J3.595890
G02 X20.663304 Y11.980226 Z-1.000000 I0.185689 J1.069895
G01 X20.624763 Y11.967601 Z-1.000000
G03 X20.609564 Y11.867912 Z-1.000000 I0.156444 J-0.074855
G03 X20.819997 Y10.633246 Z-1.000000 I24.575374 J3.553298
G03 X20.869941 Y10.542896 Z-1.000000 I0.165545 J0.032531
G03 X21.055898 Y10.446244 Z-1.000000 I0.263889 J0.280503
G03 X21.613598 Y10.389228 Z-1.000000 I0.557700 J2.699042
G01 X21.941231 Y10.389228 Z-1.000000
G01 X22.282438 Y10.695265 Z-1.000000
G03 X22.569183 Y11.021401 Z-1.000000 I-1.226628 J1.367598
G03 X22.602445 Y11.160274 Z-1.000000 I-0.163644 J0.112615
G02 X22.584420 Y11.319568 Z-1.000000 I3.991714 J0.532350
G02 X22.558185 Y11.635849 Z-1.000000 I15.782227 J1.468342
G01 X22.558191 Y11.635849 Z-1.000000
G00 Z0.000000

(End cutting path id: path27180)


(Start cutting path id: path27180)
(Change tool to Cone cutter)

G00 Z0.000000
G00 X22.558191 Y11.635849

G01 Z-1.000000 F100.0(Penetrate)
G03 X22.531324 Y11.952015 Z-1.000000 I-13.094987 J-0.953555 F400.000000
G03 X22.514711 Y12.083239 Z-1.000000 I-2.264492 J-0.220022
G01 X22.494291 Y12.214026 Z-1.000000
G01 X22.350671 Y12.087927 Z-1.000000
G02 X22.014331 Y11.887076 Z-1.000000 I-0.713244 J0.812338
G02 X21.616473 Y11.814807 Z-1.000000 I-0.401583 J1.079531
G02 X20.989960 Y11.867754 Z-1.000000 I-0.011605 J3.595890
G02 X20.663304 Y11.980226 Z-1.000000 I0.185689 J1.069895
G01 X20.624763 Y11.967601 Z-1.000000
G03 X20.609564 Y11.867912 Z-1.000000 I0.156444 J-0.074855
G03 X20.819997 Y10.633246 Z-1.000000 I24.575374 J3.553298
G03 X20.869941 Y10.542896 Z-1.000000 I0.165545 J0.032531
G03 X21.055898 Y10.446244 Z-1.000000 I0.263889 J0.280503
G03 X21.613598 Y10.389228 Z-1.000000 I0.557700 J2.699042
G01 X21.941231 Y10.389228 Z-1.000000
G01 X22.282438 Y10.695265 Z-1.000000
G03 X22.569183 Y11.021401 Z-1.000000 I-1.226628 J1.367598
G03 X22.602445 Y11.160274 Z-1.000000 I-0.163644 J0.112615
G02 X22.584420 Y11.319568 Z-1.000000 I3.991714 J0.532350
G02 X22.558185 Y11.635849 Z-1.000000 I15.782227 J1.468342
G01 X22.558191 Y11.635849 Z-1.000000
G00 Z0.000000

(End cutting path id: path27180)


(Start cutting path id: path27180)
(Change tool to Cone cutter)

G00 Z0.000000
G00 X22.898536 Y9.162395

G01 Z-1.000000 F100.0(Penetrate)
G03 X22.646538 Y10.795645 Z-1.000000 I-328.253483 J-49.811012 F400.000000
G03 X22.632601 Y10.857962 Z-1.000000 I-0.489778 J-0.076818
G01 X22.607704 Y10.864504 Z-1.000000
G03 X22.359202 Y10.591797 Z-1.000000 I2.155343 J-2.213607
G02 X22.091360 Y10.284514 Z-1.000000 I-4.207475 J3.397058
G02 X22.015926 Y10.226718 Z-1.000000 I-0.214103 J0.201316
G02 X21.691378 Y10.167195 Z-1.000000 I-0.255174 J0.476772
G02 X21.113475 Y10.343449 Z-1.000000 I0.232618 J1.798248
G03 X20.903945 Y10.417808 Z-1.000000 I-0.407038 J-0.814563
G01 X20.877139 Y10.395959 Z-1.000000
G03 X20.882785 Y10.330280 Z-1.000000 I0.469884 J0.007314
G03 X20.989962 Y9.678350 Z-1.000000 I46.714720 J7.345066
G01 X21.101757 Y9.026839 Z-1.000000
G01 X21.236279 Y8.991529 Z-1.000000
G03 X21.857138 Y8.980878 Z-1.000000 I0.332237 J1.265856
G03 X22.605979 Y9.301244 Z-1.000000 I-0.496508 J2.195938
G02 X22.805807 Y9.422530 Z-1.000000 I1.591956 J-2.397618
G01 X22.815298 Y9.416931 Z-1.000000
G01 X22.807468 Y9.396995 Z-1.000000
G02 X22.627315 Y9.214542 Z-1.000000 I-3.075826 J2.856878
G02 X21.978760 Y8.847868 Z-1.000000 I-1.052517 J1.104736
G02 X21.347152 Y8.863085 Z-1.000000 I-0.290494 J1.058110
G03 X21.146619 Y8.920160 Z-1.000000 I-0.835283 J-2.553924
G01 X21.130705 Y8.915695 Z-1.000000
G03 X21.083154 Y8.770470 Z-1.000000 I0.119537 J-0.119537
G03 X21.294760 Y7.848603 Z-1.000000 I6.401097 J0.984092
G03 X21.432613 Y7.709864 Z-1.000000 I0.201062 J0.061922
G03 X22.023811 Y7.618951 Z-1.000000 I0.591198 J1.876796
G03 X22.419081 Y7.678003 Z-1.000000 I0.000000 J1.352414
G03 X22.889613 Y7.883551 Z-1.000000 I-0.652465 J2.134931
G01 X23.062866 Y7.984390 Z-1.000000
G01 X23.039246 Y8.187528 Z-1.000000
G03 X23.012830 Y8.390291 Z-1.000000 I-7.357879 J-0.855475
G03 X22.898528 Y9.162382 Z-1.000000 I-106.612993 J-15.388740
G01 X22.898536 Y9.162395 Z-1.000000
G00 Z0.000000

(End cutting path id: path27180)


(Start cutting path id: path27180)
(Change tool to Cone cutter)

G00 Z0.000000
G00 X22.898536 Y9.162395

G01 Z-1.000000 F100.0(Penetrate)
G03 X22.646538 Y10.795645 Z-1.000000 I-328.253483 J-49.811012 F400.000000
G03 X22.632601 Y10.857962 Z-1.000000 I-0.489778 J-0.076818
G01 X22.607704 Y10.864504 Z-1.000000
G03 X22.359202 Y10.591797 Z-1.000000 I2.155343 J-2.213607
G02 X22.091360 Y10.284514 Z-1.000000 I-4.207475 J3.397058
G02 X22.015926 Y10.226718 Z-1.000000 I-0.214103 J0.201316
G02 X21.691378 Y10.167195 Z-1.000000 I-0.255174 J0.476772
G02 X21.113475 Y10.343449 Z-1.000000 I0.232618 J1.798248
G03 X20.903945 Y10.417808 Z-1.000000 I-0.407038 J-0.814563
G01 X20.877139 Y10.395959 Z-1.000000
G03 X20.882785 Y10.330280 Z-1.000000 I0.469884 J0.007314
G03 X20.989962 Y9.678350 Z-1.000000 I46.714720 J7.345066
G01 X21.101757 Y9.026839 Z-1.000000
G01 X21.236279 Y8.991529 Z-1.000000
G03 X21.857138 Y8.980878 Z-1.000000 I0.332237 J1.265856
G03 X22.605979 Y9.301244 Z-1.000000 I-0.496508 J2.195938
G02 X22.805807 Y9.422530 Z-1.000000 I1.591956 J-2.397618
G01 X22.815298 Y9.416931 Z-1.000000
G01 X22.807468 Y9.396995 Z-1.000000
G02 X22.627315 Y9.214542 Z-1.000000 I-3.075826 J2.856878
G02 X21.978760 Y8.847868 Z-1.000000 I-1.052517 J1.104736
G02 X21.347152 Y8.863085 Z-1.000000 I-0.290494 J1.058110
G03 X21.146619 Y8.920160 Z-1.000000 I-0.835283 J-2.553924
G01 X21.130705 Y8.915695 Z-1.000000
G03 X21.083154 Y8.770470 Z-1.000000 I0.119537 J-0.119537
G03 X21.294760 Y7.848603 Z-1.000000 I6.401097 J0.984092
G03 X21.432613 Y7.709864 Z-1.000000 I0.201062 J0.061922
G03 X22.023811 Y7.618951 Z-1.000000 I0.591198 J1.876796
G03 X22.419081 Y7.678003 Z-1.000000 I0.000000 J1.352414
G03 X22.889613 Y7.883551 Z-1.000000 I-0.652465 J2.134931
G01 X23.062866 Y7.984390 Z-1.000000
G01 X23.039246 Y8.187528 Z-1.000000
G03 X23.012830 Y8.390291 Z-1.000000 I-7.357879 J-0.855475
G03 X22.898528 Y9.162382 Z-1.000000 I-106.612993 J-15.388740
G01 X22.898536 Y9.162395 Z-1.000000
G00 Z0.000000

(End cutting path id: path27180)


(Start cutting path id: path27180)
(Change tool to Cone cutter)

G00 Z0.000000
G00 X23.150738 Y7.280385

G01 Z-1.000000 F100.0(Penetrate)
G03 X23.083240 Y7.828961 Z-1.000000 I-21.145356 J-2.323329 F400.000000
G01 X23.073248 Y7.849105 Z-1.000000
G01 X23.055487 Y7.851170 Z-1.000000
G03 X22.899672 Y7.741821 Z-1.000000 I0.864212 J-1.397133
G02 X22.735980 Y7.629062 Z-1.000000 I-0.926627 J1.169990
G02 X22.517203 Y7.514344 Z-1.000000 I-1.178192 J1.980934
G02 X22.065657 Y7.430701 Z-1.000000 I-0.392215 J0.856713
G02 X21.565363 Y7.574404 Z-1.000000 I0.076223 J1.208087
G03 X21.338946 Y7.690125 Z-1.000000 I-2.535803 J-4.682139
G01 X21.329201 Y7.688070 Z-1.000000
G03 X21.247216 Y7.398938 Z-1.000000 I0.273229 J-0.233666
G03 X21.565923 Y6.169249 Z-1.000000 I6.368499 J0.994424
G03 X21.595010 Y6.138604 Z-1.000000 I0.050244 J0.018564
G03 X21.781005 Y6.076809 Z-1.000000 I0.454442 J1.056997
G03 X22.444312 Y6.067129 Z-1.000000 I0.353210 J1.472343
G03 X23.080807 Y6.348764 Z-1.000000 I-0.341398 J1.631618
G03 X23.197944 Y6.478366 Z-1.000000 I-0.247032 J0.341007
G03 X23.223647 Y6.594824 Z-1.000000 I-0.169719 J0.098524
G03 X23.210375 Y6.728423 Z-1.000000 I-9.827144 J-0.908807
G03 X23.150737 Y7.280391 Z-1.000000 I-152.727651 J-16.222360
G01 X23.150738 Y7.280385 Z-1.000000
G00 Z0.000000

(End cutting path id: path27180)


(Start cutting path id: path27180)
(Change tool to Cone cutter)

G00 Z0.000000
G00 X23.150738 Y7.280385

G01 Z-1.000000 F100.0(Penetrate)
G03 X23.083240 Y7.828961 Z-1.000000 I-21.145356 J-2.323329 F400.000000
G01 X23.073248 Y7.849105 Z-1.000000
G01 X23.055487 Y7.851170 Z-1.000000
G03 X22.899672 Y7.741821 Z-1.000000 I0.864212 J-1.397133
G02 X22.735980 Y7.629062 Z-1.000000 I-0.926627 J1.169990
G02 X22.517203 Y7.514344 Z-1.000000 I-1.178192 J1.980934
G02 X22.065657 Y7.430701 Z-1.000000 I-0.392215 J0.856713
G02 X21.565363 Y7.574404 Z-1.000000 I0.076223 J1.208087
G03 X21.338946 Y7.690125 Z-1.000000 I-2.535803 J-4.682139
G01 X21.329201 Y7.688070 Z-1.000000
G03 X21.247216 Y7.398938 Z-1.000000 I0.273229 J-0.233666
G03 X21.565923 Y6.169249 Z-1.000000 I6.368499 J0.994424
G03 X21.595010 Y6.138604 Z-1.000000 I0.050244 J0.018564
G03 X21.781005 Y6.076809 Z-1.000000 I0.454442 J1.056997
G03 X22.444312 Y6.067129 Z-1.000000 I0.353210 J1.472343
G03 X23.080807 Y6.348764 Z-1.000000 I-0.341398 J1.631618
G03 X23.197944 Y6.478366 Z-1.000000 I-0.247032 J0.341007
G03 X23.223647 Y6.594824 Z-1.000000 I-0.169719 J0.098524
G03 X23.210375 Y6.728423 Z-1.000000 I-9.827144 J-0.908807
G03 X23.150737 Y7.280391 Z-1.000000 I-152.727651 J-16.222360
G01 X23.150738 Y7.280385 Z-1.000000
G00 Z0.000000

(End cutting path id: path27180)


(Start cutting path id: path27180)
