; generated by Slic3r 1.3.0 on 2019-12-12 at 10:53:48

; external perimeters extrusion width = 0.55mm (4.37mm^3/s)
; perimeters extrusion width = 0.70mm (11.44mm^3/s)
; infill extrusion width = 0.63mm (13.45mm^3/s)
; solid infill extrusion width = 0.70mm (3.81mm^3/s)
; top infill extrusion width = 0.70mm (2.86mm^3/s)

M107
M104 S205 ; set temperature
G28 ; home all axes
G1 Z5 F5000 ; lift nozzle

; Filament gcode

M109 S205 ; set temperature and wait for it to be reached
G21 ; set units to millimeters
G90 ; use absolute coordinates
M82 ; use absolute distances for extrusion
G92 E0
G1 Z0.300 F7800.000
G1 E-2.00000 F2400.00000
G92 E0
G1 X77.991 Y93.819 F7800.000
G1 E2.00000 F2400.00000
G1 F1800
G1 X77.644 Y93.920 E2.00821
G1 X77.260 Y94.095 E2.01780
G1 X77.155 Y94.194 E2.02109
G1 X77.089 Y94.197 E2.02260
G1 X76.989 Y94.297 E2.02580
G1 X76.959 Y94.297 E2.02650
G1 X76.854 Y94.365 E2.02935
G1 X76.527 Y94.691 E2.03984
G1 X76.458 Y94.794 E2.04265
G1 X76.458 Y94.825 E2.04335
G1 X76.358 Y94.928 E2.04662
G1 X76.185 Y95.274 E2.05541
G1 X76.183 Y95.401 E2.05829
G1 X76.151 Y95.435 E2.05936
G1 X76.151 Y95.543 E2.06180
G1 X76.117 Y95.576 E2.06289
G1 X76.103 Y95.707 E2.06589
G1 X78.417 Y93.393 E2.14030
G1 X78.511 Y93.390 E2.14242
G1 X78.540 Y93.361 E2.14335
G1 X78.606 Y93.360 E2.14486
G1 X78.674 Y93.328 E2.14657
G1 X78.869 Y93.324 E2.15101
G1 X78.903 Y93.295 E2.15204
G1 X79.215 Y93.293 E2.15911
G1 X79.281 Y93.262 E2.16078
G1 X79.428 Y93.263 E2.16411
G1 X76.163 Y96.529 E2.26909
G1 X76.349 Y97.223 E2.28543
G1 X80.209 Y93.363 E2.40952
G1 X80.249 Y93.391 E2.41063
G1 X80.381 Y93.397 E2.41363
G1 X80.416 Y93.430 E2.41473
G1 X80.512 Y93.430 E2.41690
G1 X80.892 Y93.561 E2.42604
G1 X76.615 Y97.838 E2.56354
G1 X76.629 Y97.919 E2.56542
G1 X76.842 Y98.307 E2.57548
G1 X76.891 Y98.361 E2.57714
G1 X76.906 Y98.428 E2.57870
G1 X81.514 Y93.820 E2.72685
G1 X81.655 Y93.928 E2.73087
G1 X81.725 Y93.936 E2.73248
G1 X81.902 Y94.042 E2.73717
G1 X82.054 Y94.161 E2.74156
G1 X77.257 Y98.958 E2.89576
G1 X77.580 Y99.379 E2.90781
G1 X77.648 Y99.448 E2.91002
G1 X82.544 Y94.552 E3.06742
G1 X82.848 Y94.856 E3.07719
G1 X82.960 Y95.017 E3.08164
G1 X78.089 Y99.888 E3.23826
G1 X78.252 Y100.052 E3.24351
G1 X78.296 Y100.065 E3.24455
G1 X78.563 Y100.295 E3.25256
G1 X83.351 Y95.507 E3.40648
G1 X83.719 Y96.020 E3.42083
G1 X79.101 Y100.637 E3.56928
G1 X79.157 Y100.688 E3.57099
G1 X79.265 Y100.727 E3.57361
G1 X79.376 Y100.799 E3.57662
G1 X79.471 Y100.806 E3.57877
G1 X79.644 Y100.898 E3.58323
G1 X79.718 Y100.902 E3.58491
G1 X84.077 Y96.543 E3.72504
G1 X84.441 Y97.059 E3.73941
G1 X80.468 Y101.033 E3.86715
G1 X80.721 Y101.034 E3.87289
G1 X80.786 Y101.064 E3.87453
G1 X81.317 Y101.065 E3.88659
G1 X84.830 Y97.552 E3.99953
G1 X84.858 Y97.581 E4.00046
G1 X84.872 Y97.640 E4.00183
G1 X85.247 Y98.015 E4.01391
G1 X82.164 Y101.098 E4.11303
G1 X82.408 Y101.101 E4.11857
G1 X82.444 Y101.130 E4.11963
G1 X82.974 Y101.169 E4.13170
G1 X85.742 Y98.401 E4.22069
G1 X85.785 Y98.434 E4.22193
G1 X86.040 Y98.493 E4.22787
G1 X86.204 Y98.587 E4.23215
G1 X86.333 Y98.598 E4.23510
G1 X86.394 Y98.630 E4.23667
G1 X83.720 Y101.304 E4.32265
G1 X83.810 Y101.308 E4.32471
G1 X83.844 Y101.336 E4.32570
G1 X83.971 Y101.342 E4.32860
G1 X83.999 Y101.370 E4.32951
G1 X84.047 Y101.370 E4.33059
G1 X84.121 Y101.404 E4.33244
G1 X84.252 Y101.414 E4.33544
G1 X84.284 Y101.439 E4.33637
G1 X84.431 Y101.474 E4.33981
G1 X87.107 Y98.798 E4.42583
G1 X87.220 Y98.830 E4.42848
G1 X87.334 Y98.836 E4.43110
G1 X87.358 Y98.860 E4.43185
G1 X87.878 Y98.908 E4.44372
G1 X85.053 Y101.734 E4.53455
G1 X85.461 Y101.959 E4.54516
G1 X85.498 Y101.964 E4.54601
G1 X85.606 Y102.061 E4.54931
G1 X92.244 Y95.423 E4.76271
G1 X92.244 Y95.577 E4.76621
G1 X92.227 Y95.597 E4.76680
G1 X92.215 Y95.735 E4.76994
G1 X92.165 Y95.797 E4.77176
G1 X92.084 Y96.064 E4.77812
G1 X91.923 Y96.375 E4.78607
G1 X91.914 Y96.437 E4.78749
G1 X91.684 Y96.864 E4.79852
G1 X86.147 Y102.401 E4.97651
G1 X86.712 Y102.717 E4.99122
G1 X90.679 Y98.750 E5.11874
G1 X91.230 Y98.809 E5.13135
G1 X91.279 Y98.777 E5.13268
G1 X91.478 Y98.771 E5.13721
G1 X91.569 Y98.740 E5.13940
G1 X87.370 Y102.940 E5.27441
G1 X87.430 Y102.943 E5.27579
G1 X87.460 Y102.973 E5.27674
G1 X87.518 Y102.977 E5.27807
G1 X87.652 Y103.038 E5.28141
G1 X87.756 Y103.045 E5.28378
G1 X87.795 Y103.079 E5.28497
G1 X87.877 Y103.089 E5.28684
G1 X87.990 Y103.201 E5.29045
G1 X92.599 Y98.591 E5.43864
G1 X92.747 Y98.583 E5.44201
G1 X92.755 Y98.560 E5.44256
G1 X92.852 Y98.555 E5.44476
G1 X92.878 Y98.529 E5.44560
G1 X93.030 Y98.522 E5.44906
G1 X93.066 Y98.494 E5.45009
G1 X93.134 Y98.494 E5.45164
G1 X93.535 Y98.395 E5.46103
G1 X93.685 Y98.386 E5.46446
G1 X88.329 Y103.743 E5.63666
G1 X88.378 Y103.794 E5.63826
G1 X88.418 Y103.899 E5.64083
G1 X88.502 Y103.992 E5.64368
G1 X88.507 Y104.025 E5.64444
G1 X88.586 Y104.110 E5.64708
G1 X88.586 Y104.137 E5.64769
G1 X88.684 Y104.268 E5.65142
G1 X94.808 Y98.145 E5.84827
G1 X94.850 Y98.117 E5.84942
G1 X94.938 Y98.111 E5.85144
G1 X94.967 Y98.087 E5.85229
G1 X95.105 Y98.052 E5.85551
G1 X95.203 Y98.048 E5.85775
G1 X95.241 Y98.017 E5.85887
G1 X95.315 Y98.015 E5.86056
G1 X95.381 Y97.985 E5.86220
G1 X95.543 Y97.951 E5.86596
G1 X95.737 Y97.942 E5.87038
G1 X95.764 Y97.915 E5.87123
G1 X95.919 Y97.910 E5.87476
G1 X95.946 Y97.888 E5.87554
G1 X89.190 Y104.644 E6.09272
G1 X89.367 Y104.750 E6.09743
G1 X89.465 Y104.837 E6.10039
G1 X89.582 Y104.890 E6.10332
G1 X89.682 Y104.984 E6.10644
G1 X89.721 Y104.993 E6.10736
G1 X96.969 Y97.745 E6.34038
G1 X97.161 Y97.740 E6.34475
G1 X97.189 Y97.713 E6.34563
G1 X97.419 Y97.710 E6.35087
G1 X97.486 Y97.679 E6.35253
G1 X97.875 Y97.672 E6.36137
G1 X97.902 Y97.646 E6.36223
G1 X97.950 Y97.645 E6.36334
G1 X91.620 Y103.975 E6.56684
G1 X91.840 Y104.011 E6.57192
G1 X91.864 Y104.033 E6.57265
G1 X92.062 Y104.081 E6.57729
G1 X92.161 Y104.084 E6.57954
G1 X92.349 Y104.127 E6.58392
G1 X98.867 Y97.609 E6.79348
G1 X99.040 Y97.607 E6.79739
G1 X99.075 Y97.578 E6.79844
G1 X99.781 Y97.577 E6.81447
G1 X93.097 Y104.261 E7.02935
G1 X93.269 Y104.267 E7.03329
G1 X93.298 Y104.295 E7.03419
G1 X93.467 Y104.298 E7.03803
G1 X93.534 Y104.330 E7.03973
G1 X93.737 Y104.331 E7.04435
G1 X93.874 Y104.364 E7.04754
G1 X100.692 Y97.546 E7.26673
G1 X100.716 Y97.571 E7.26751
G1 X101.540 Y97.579 E7.28623
G1 X94.719 Y104.400 E7.50551
G1 X94.783 Y104.400 E7.50696
G1 X94.818 Y104.432 E7.50805
G1 X95.567 Y104.433 E7.52507
G1 X104.158 Y95.842 E7.80125
G1 X104.493 Y96.017 E7.80983
G1 X104.558 Y96.071 E7.81175
G1 X104.609 Y96.080 E7.81294
G1 X104.670 Y96.148 E7.81501
G1 X104.718 Y96.163 E7.81616
G1 X96.515 Y104.366 E8.07985
G1 X96.560 Y104.333 E8.08111
G1 X96.835 Y104.331 E8.08736
G1 X97.072 Y104.297 E8.09281
G1 X97.173 Y104.264 E8.09521
G1 X97.274 Y104.264 E8.09750
G1 X97.342 Y104.231 E8.09922
G1 X97.411 Y104.230 E8.10079
G1 X97.442 Y104.199 E8.10178
G1 X97.565 Y104.197 E8.10459
G1 X104.963 Y96.799 E8.34243
G1 X104.943 Y96.893 E8.34461
G1 X104.786 Y97.120 E8.35088
G1 X104.790 Y97.540 E8.36043
G1 X105.062 Y97.581 E8.36667
G1 X98.786 Y103.857 E8.56842
G1 X98.845 Y103.823 E8.56996
G1 X98.910 Y103.822 E8.57144
G1 X98.941 Y103.793 E8.57242
G1 X99.283 Y103.719 E8.58036
G1 X99.684 Y103.584 E8.58999
G1 X99.785 Y103.519 E8.59271
G1 X99.923 Y103.487 E8.59593
G1 X99.955 Y103.457 E8.59693
G1 X100.053 Y103.449 E8.59917
G1 X100.101 Y103.423 E8.60040
G1 X105.787 Y97.736 E8.78322
G1 X106.024 Y97.754 E8.78861
G1 X106.086 Y97.770 E8.79006
G1 X106.143 Y97.814 E8.79170
G1 X106.199 Y97.817 E8.79299
G1 X106.199 Y97.868 E8.79416
G1 X106.464 Y97.882 E8.80018
G1 X106.495 Y97.910 E8.80112
G1 X101.473 Y102.932 E8.96257
G1 X101.737 Y102.857 E8.96881
G1 X102.178 Y102.868 E8.97883
G1 X102.178 Y103.108 E8.98428
G1 X107.296 Y97.990 E9.14881
G1 X107.323 Y98.009 E9.14957
G1 X107.601 Y98.055 E9.15598
G1 X107.704 Y98.057 E9.15832
G1 X107.738 Y98.083 E9.15929
G1 X107.821 Y98.087 E9.16117
G1 X107.831 Y98.112 E9.16179
G1 X108.044 Y98.122 E9.16663
G1 X100.443 Y105.724 E9.41099
G1 X100.606 Y105.854 E9.41575
G1 X100.783 Y105.951 E9.42033
G1 X100.870 Y105.963 E9.42233
G1 X101.026 Y106.022 E9.42611
G1 X104.356 Y102.692 E9.53316
G1 X104.364 Y102.285 E9.54241
G1 X104.391 Y102.251 E9.54341
G1 X104.395 Y102.107 E9.54667
G1 X104.425 Y102.039 E9.54835
G1 X104.450 Y101.776 E9.55437
G1 X104.684 Y101.634 E9.56058
G1 X104.824 Y101.498 E9.56502
G1 X104.905 Y101.482 E9.56690
G1 X104.955 Y101.452 E9.56822
G1 X105.017 Y101.375 E9.57048
G1 X105.151 Y101.333 E9.57367
G1 X105.246 Y101.248 E9.57658
G1 X105.453 Y101.135 E9.58193
G1 X105.557 Y101.022 E9.58542
G1 X105.720 Y100.971 E9.58931
G1 X105.964 Y100.805 E9.59602
G1 X106.554 Y100.493 E9.61118
G1 X108.787 Y98.260 E9.68296
G1 X108.821 Y98.285 E9.68391
G1 X108.924 Y98.293 E9.68626
G1 X109.006 Y98.330 E9.68831
G1 X109.501 Y98.428 E9.69977
G1 X107.890 Y100.039 E9.75156
G1 X108.136 Y100.005 E9.75721
G1 X108.797 Y100.013 E9.77223
G1 X110.211 Y98.598 E9.81771
G1 X110.332 Y98.639 E9.82060
G1 X110.402 Y98.639 E9.82220
G1 X110.927 Y98.763 E9.83447
G1 X109.554 Y100.136 E9.87863
G1 X109.721 Y100.177 E9.88254
G1 X109.909 Y100.195 E9.88683
G1 X109.925 Y100.234 E9.88778
G1 X110.084 Y100.277 E9.89152
G1 X110.276 Y100.295 E9.89592
G1 X111.725 Y98.846 E9.94249
G1 X112.140 Y98.842 E9.95193
G1 X112.677 Y98.775 E9.96422
G1 X110.963 Y100.489 E10.01932
G1 X111.451 Y100.539 E10.03047
G1 X111.832 Y100.501 E10.03917
G1 X113.940 Y98.393 E10.10695
G1 X113.990 Y98.375 E10.10814
G1 X113.985 Y98.362 E10.10847
G1 X114.413 Y98.181 E10.11904
G1 X114.870 Y97.947 E10.13070
G1 X115.193 Y97.889 E10.13815
G1 X115.163 Y97.807 E10.14015
G1 X115.460 Y97.754 E10.14701
G1 X113.301 Y99.913 E10.21643
G1 E8.21643 F2400.00000
G92 E0
G1 X115.253 Y97.961 F7800.000
G1 E2.00000 F2400.00000
G1 F1800
G1 X115.008 Y98.097 E2.00635
G1 X115.037 Y98.177 E2.00829
G1 X115.679 Y97.535 E2.02892
G1 X116.024 Y97.376 E2.03755
G1 X116.111 Y97.363 E2.03955
G1 X116.192 Y97.308 E2.04178
G1 X116.281 Y97.295 E2.04381
G1 X116.358 Y97.241 E2.04596
G1 X116.448 Y97.229 E2.04801
G1 X116.852 Y97.071 E2.05788
G1 X117.094 Y97.001 E2.06360
G1 X115.341 Y98.753 E2.11993
G1 X115.847 Y98.560 E2.13223
G1 X116.650 Y98.326 E2.15125
G1 X118.177 Y96.799 E2.20033
G1 X118.471 Y96.791 E2.20703
G1 X118.505 Y96.765 E2.20800
G1 X119.092 Y96.764 E2.22135
G1 X117.650 Y98.207 E2.26772
G1 X118.294 Y98.207 E2.28236
G1 X118.501 Y98.237 E2.28712
G1 X119.813 Y96.924 E2.32931
G1 X119.844 Y96.928 E2.33002
G1 X120.005 Y97.018 E2.33420
G1 X120.082 Y97.030 E2.33597
G1 X120.420 Y97.199 E2.34456
G1 X119.292 Y98.327 E2.38082
G1 X119.413 Y98.354 E2.38363
G1 X119.508 Y98.410 E2.38615
G1 X119.729 Y98.435 E2.39119
G1 X119.748 Y98.484 E2.39237
G1 X119.924 Y98.576 E2.39689
G1 X120.981 Y97.519 E2.43086
G1 X121.033 Y97.542 E2.43216
G1 X121.130 Y97.630 E2.43515
G1 X121.309 Y97.716 E2.43965
G1 X121.525 Y97.855 E2.44550
G1 X120.498 Y98.882 E2.47851
G1 X121.026 Y99.235 E2.49294
G1 X122.055 Y98.206 E2.52604
G1 X122.555 Y98.587 E2.54033
G1 X121.576 Y99.566 E2.57180
G1 X121.936 Y99.739 E2.58087
G1 X122.077 Y99.761 E2.58412
G1 X122.096 Y99.807 E2.58523
G1 X122.181 Y99.842 E2.58732
G1 X123.038 Y98.985 E2.61487
G1 X123.052 Y99.024 E2.61582
G1 X123.146 Y99.052 E2.61803
G1 X123.512 Y99.392 E2.62939
G1 X122.858 Y100.046 E2.65044
G1 E0.65044 F2400.00000
G92 E0
G1 X107.306 Y103.265 F7800.000
G1 E2.00000 F2400.00000
G1 F1800
G1 X107.254 Y103.175 E2.00237
G1 X107.103 Y103.152 E2.00585
G1 X106.975 Y103.182 E2.00884
G1 X106.886 Y103.245 E2.01131
G1 X106.844 Y103.290 E2.01272
G1 X106.818 Y103.375 E2.01474
G1 X106.772 Y103.392 E2.01586
G1 X106.724 Y103.540 E2.01939
G1 X106.646 Y103.549 E2.02116
G1 X106.331 Y104.184 E2.03726
G1 X106.331 Y104.226 E2.03822
G1 X106.241 Y104.330 E2.04134
G1 X107.732 Y102.839 E2.08927
G1 X107.742 Y102.912 E2.09095
G1 X107.719 Y102.966 E2.09228
G1 X107.671 Y102.985 E2.09346
G1 X107.656 Y103.055 E2.09509
G1 X107.507 Y103.233 E2.10036
G1 X107.531 Y103.249 E2.10102
G1 X106.720 Y103.906 E2.12476
G1 X106.532 Y104.095 E2.13081
G1 X106.452 Y104.210 E2.13401
G1 X106.243 Y104.618 E2.14440
G1 X106.258 Y104.962 E2.15225
G1 X106.367 Y105.085 E2.15598
G1 X104.763 Y106.689 E2.20754
G1 X104.765 Y106.772 E2.20943
G1 X104.953 Y106.602 E2.21519
G1 X105.192 Y106.471 E2.22138
G1 X105.626 Y106.471 E2.23125
G1 X105.777 Y106.555 E2.23519
G1 X106.249 Y106.084 E2.25034
G1 X106.333 Y106.204 E2.25366
G1 X106.468 Y106.339 E2.25800
G1 X106.475 Y106.375 E2.25884
G1 X106.656 Y106.558 E2.26469
G1 X106.187 Y107.027 E2.27979
G1 X106.235 Y107.077 E2.28137
G1 X106.240 Y107.114 E2.28222
G1 X106.488 Y107.367 E2.29027
G1 X106.488 Y107.398 E2.29098
G1 X106.592 Y107.503 E2.29433
G1 X107.183 Y106.912 E2.31334
G1 X107.461 Y107.079 E2.32072
G1 X107.517 Y107.079 E2.32200
G1 X107.622 Y107.147 E2.32483
G1 X107.769 Y107.207 E2.32844
G1 X106.997 Y107.979 E2.35324
G1 X107.892 Y106.203 F7800.000
G1 F1800
G1 X108.695 Y105.400 E2.37906
G1 X108.533 Y105.404 E2.38276
G1 X108.508 Y105.423 E2.38346
G1 X108.169 Y105.425 E2.39116
G1 X107.946 Y105.419 E2.39624
G1 X107.912 Y105.393 E2.39721
G1 X107.821 Y105.393 E2.39926
G1 X107.215 Y105.999 E2.41874
G1 X107.189 Y105.996 E2.41935
G1 X107.155 Y105.968 E2.42035
G1 X106.984 Y105.927 E2.42436
G1 X106.940 Y105.890 E2.42566
G1 X106.876 Y105.887 E2.42711
G1 X106.848 Y105.864 E2.42795
G1 X106.602 Y105.818 E2.43365
G1 X106.543 Y105.790 E2.43512
G1 X106.977 Y105.356 E2.44908
G1 X106.891 Y105.352 E2.45103
G1 X106.856 Y105.325 E2.45204
G1 X106.700 Y105.286 E2.45568
G1 X106.539 Y105.286 E2.45934
G1 X106.525 Y105.251 E2.46021
G1 X106.448 Y105.235 E2.46200
G1 X106.448 Y105.166 E2.46357
G1 X106.367 Y105.085 E2.46618
G1 E0.46618 F2400.00000
G92 E0
G1 X104.446 Y106.125 F7800.000
G1 E2.00000 F2400.00000
G1 F1800
G1 X106.269 Y104.302 E2.05859
G1 X106.174 Y104.378 E2.06135
G1 X106.046 Y104.431 E2.06450
G1 X105.746 Y104.488 E2.07143
G1 X105.625 Y104.536 E2.07438
G1 X105.225 Y104.540 E2.08350
G1 X105.173 Y104.518 E2.08479
G1 X103.879 Y105.811 E2.12638
G1 X103.604 Y105.721 E2.13296
G1 X103.132 Y105.677 E2.14373
G1 X104.491 Y104.318 E2.18742
G1 X104.284 Y104.292 E2.19217
G1 X104.208 Y104.183 E2.19520
G1 X104.042 Y104.093 E2.19947
G1 X104.041 Y103.888 E2.20415
G1 X102.041 Y105.887 E2.26844
G1 X101.799 Y105.983 E2.27435
G1 X101.458 Y106.064 E2.28231
G1 X101.241 Y106.066 E2.28726
G1 X101.026 Y106.022 E2.29225
G1 E0.29225 F2400.00000
G92 E0
G1 X104.697 Y107.636 F7800.000
G1 E2.00000 F2400.00000
G1 F1800
G1 X104.694 Y107.516 E2.00273
G1 X104.663 Y107.417 E2.00508
G1 X104.524 Y107.703 E2.01232
G1 X104.507 Y107.826 E2.01514
G1 X105.123 Y107.210 E2.03497
G1 X105.134 Y107.499 E2.04154
G1 X105.161 Y107.533 E2.04254
G1 X105.164 Y107.610 E2.04430
G1 X105.195 Y107.677 E2.04598
G1 X105.197 Y107.933 E2.05179
G1 X105.168 Y107.967 E2.05279
G1 X105.167 Y108.027 E2.05416
G1 X105.135 Y108.079 E2.05554
G1 X104.234 Y108.980 E2.08453
G1 E0.08453 F2400.00000
G92 E0
G1 X94.481 Y109.924 F7800.000
G1 E2.00000 F2400.00000
G1 F1800
G1 X95.151 Y109.253 E2.02156
G1 X95.145 Y109.177 E2.02330
G1 X95.053 Y109.001 E2.02783
G1 X94.953 Y108.917 E2.03079
G1 X94.854 Y108.906 E2.03306
G1 X94.823 Y108.881 E2.03395
G1 X94.679 Y108.845 E2.03734
G1 X94.122 Y109.402 E2.05524
G1 X93.985 Y109.225 E2.06032
G1 X94.120 Y109.236 E2.06341
G1 X94.134 Y109.263 E2.06410
G1 X94.252 Y109.271 E2.06680
G1 X92.760 Y109.002 F7800.000
G1 F1800
G1 X93.615 Y108.147 E2.09430
G1 X93.614 Y107.782 E2.10260
G1 X93.722 Y107.600 E2.10740
G1 X93.839 Y107.480 E2.11122
G1 X94.101 Y107.311 E2.11831
G1 X94.206 Y107.267 E2.12090
G1 X94.306 Y107.255 E2.12319
G1 X94.629 Y107.069 E2.13165
G1 X94.736 Y106.963 E2.13508
G1 X94.769 Y106.898 E2.13673
G1 X94.770 Y106.780 E2.13943
G1 X94.559 Y106.870 E2.14467
G1 X94.420 Y107.021 E2.14932
G1 X94.358 Y107.036 E2.15076
G1 X94.143 Y107.249 E2.15766
G1 X93.981 Y107.364 E2.16217
G1 X93.847 Y107.425 E2.16551
G1 X93.661 Y107.422 E2.16973
G1 X93.535 Y107.346 E2.17309
G1 E0.17309 F2400.00000
G92 E0
G1 X91.998 Y110.645 F7800.000
G1 E2.00000 F2400.00000
G1 F1800
G1 X92.698 Y109.944 E2.02251
G1 X92.720 Y109.707 E2.02792
G1 X92.821 Y109.101 E2.04189
G1 X92.904 Y108.858 E2.04773
G1 X92.359 Y109.403 E2.06525
G1 X92.403 Y109.264 E2.06856
G1 X92.398 Y109.000 E2.07457
G1 X92.289 Y108.775 E2.08026
G1 X92.215 Y108.666 E2.08325
G1 X93.535 Y107.346 E2.12568
G1 X93.482 Y107.318 E2.12704
G1 X93.295 Y107.133 E2.13302
G1 X93.124 Y106.876 E2.14004
G1 X91.900 Y108.100 E2.17938
G1 X91.915 Y108.074 E2.18008
G1 X91.920 Y107.757 E2.18729
G1 X91.802 Y107.519 E2.19333
G1 X91.706 Y107.413 E2.19658
G1 X92.793 Y106.327 E2.23152
G1 X92.601 Y105.984 E2.24043
G1 X92.519 Y105.719 E2.24674
G1 X91.315 Y106.923 E2.28544
G1 X90.904 Y106.453 E2.29963
G1 X92.207 Y105.151 E2.34152
G1 X92.126 Y105.117 E2.34350
G1 X92.060 Y104.959 E2.34739
G1 X91.801 Y104.675 E2.35612
G1 X90.519 Y105.957 E2.39735
G1 X90.298 Y105.605 E2.40680
G1 X90.240 Y105.564 E2.40842
G1 X90.156 Y105.439 E2.41184
G1 X91.442 Y104.153 E2.45319
G1 E0.45319 F2400.00000
G92 E0
G1 X89.449 Y97.337 F7800.000
G1 E2.00000 F2400.00000
G1 F1800
G1 X92.065 Y94.721 E2.08409
G1 X91.875 Y94.204 E2.09662
G1 X91.875 Y94.030 E2.10057
G1 X90.286 Y95.619 E2.15166
G1 X90.242 Y95.443 E2.15579
G1 X90.140 Y95.288 E2.16000
G1 X89.936 Y95.089 E2.16650
G1 X91.870 Y93.154 E2.22870
G1 X91.620 Y92.927 E2.23638
G1 X91.612 Y92.889 E2.23726
G1 X91.576 Y92.853 E2.23842
G1 X91.543 Y92.600 E2.24422
G1 X89.945 Y94.198 E2.29560
G1 X89.958 Y94.033 E2.29938
G1 X89.944 Y93.715 E2.30661
G1 X89.873 Y93.685 E2.30835
G1 X89.770 Y93.493 E2.31332
G1 X90.424 Y92.839 E2.33434
G1 X90.215 Y92.577 E2.34195
G1 X90.097 Y92.313 E2.34854
G1 X90.054 Y92.327 E2.34956
G1 X89.354 Y93.027 E2.37205
G1 X89.067 Y92.689 E2.38214
G1 X88.986 Y92.515 E2.38650
G1 X89.668 Y91.833 E2.40844
G1 X91.116 Y92.146 F7800.000
G1 F1800
G1 X91.765 Y91.497 E2.42931
G1 X91.870 Y93.154 F7800.000
G1 F1800
G1 X92.206 Y93.173 E2.43695
G1 X92.514 Y93.032 E2.44466
G1 X92.886 Y92.732 E2.45553
G1 X93.074 Y92.684 E2.45993
G1 X93.224 Y92.681 E2.46333
G1 X92.210 Y93.695 E2.49593
G1 E0.49593 F2400.00000
G92 E0
G1 X89.101 Y95.042 F7800.000
G1 E2.00000 F2400.00000
G1 F1800
G1 X89.941 Y94.202 E2.02701
G1 X89.417 Y94.253 E2.03898
G1 X89.098 Y94.258 E2.04622
G1 X89.098 Y94.323 E2.04770
G1 X88.922 Y94.340 E2.05172
G1 X88.301 Y94.961 E2.07170
G1 X88.212 Y94.868 E2.07462
G1 X88.248 Y94.865 E2.07544
G1 X88.407 Y94.775 E2.07958
G1 X88.496 Y94.766 E2.08162
G1 E0.08162 F2400.00000
G92 E0
G1 X99.181 Y95.533 F7800.000
G1 E2.00000 F2400.00000
G1 F1800
G1 X100.872 Y93.843 E2.05435
G1 X101.197 Y93.730 E2.06218
G1 X101.295 Y93.673 E2.06475
G1 X101.367 Y93.662 E2.06641
G1 X101.449 Y93.608 E2.06864
G1 X101.640 Y93.582 E2.07303
G1 X101.669 Y93.512 E2.07475
G1 X102.299 Y93.186 E2.09087
G1 X102.564 Y92.988 E2.09837
G1 X102.769 Y92.768 E2.10522
G1 X102.768 Y92.482 E2.11173
G1 X102.632 Y92.329 E2.11639
G1 X102.471 Y92.243 E2.12052
G1 X102.659 Y92.056 E2.12655
G1 X102.475 Y92.042 E2.13074
G1 X102.351 Y92.000 E2.13371
G1 X102.058 Y91.776 E2.14211
G1 X101.274 Y92.559 E2.16730
G1 X101.169 Y92.490 E2.17017
G1 X101.039 Y92.362 E2.17431
G1 X100.990 Y92.260 E2.17689
G1 X100.986 Y92.198 E2.17830
G1 X101.064 Y92.197 E2.18007
G1 X101.107 Y92.165 E2.18129
G1 X101.289 Y92.109 E2.18561
G1 X101.511 Y92.110 E2.19067
G1 X101.595 Y92.145 E2.19275
G1 X101.632 Y92.202 E2.19428
G1 E0.19428 F2400.00000
G92 E0
G1 X102.875 Y90.078 F7800.000
G1 E2.00000 F2400.00000
G1 F1800
G1 X102.651 Y89.996 E2.00542
G1 X102.487 Y89.972 E2.00920
G1 X102.468 Y89.949 E2.00986
G1 X102.516 Y90.437 E2.02100
G1 X103.301 Y89.651 E2.04626
G1 X103.340 Y89.680 E2.04736
G1 X103.378 Y89.733 E2.04885
G1 X103.434 Y89.934 E2.05359
G1 X103.480 Y90.353 E2.06317
G1 X102.688 Y91.145 E2.08863
G1 X102.714 Y91.166 E2.08938
G1 X102.731 Y91.352 E2.09363
G1 X102.825 Y91.617 E2.10001
G1 X102.865 Y91.849 E2.10538
G1 X103.641 Y91.073 E2.13031
G1 X103.744 Y91.392 E2.13792
G1 X103.772 Y91.423 E2.13887
G1 X103.858 Y91.654 E2.14447
G1 X103.938 Y91.657 E2.14629
G1 X99.554 Y96.042 E2.28723
G1 X99.695 Y96.183 E2.29177
G1 X100.029 Y96.447 E2.30145
G1 X106.281 Y90.195 E2.50245
G1 X106.341 Y90.326 E2.50571
G1 X106.355 Y90.455 E2.50866
G1 X106.340 Y90.573 E2.51136
G1 X106.166 Y90.832 E2.51845
G1 X106.035 Y90.944 E2.52237
G1 X105.938 Y90.969 E2.52466
G1 X105.910 Y91.042 E2.52643
G1 X105.873 Y91.070 E2.52749
G1 X105.792 Y91.087 E2.52936
G1 X105.695 Y91.183 E2.53248
G1 X105.516 Y91.280 E2.53709
G1 X105.459 Y91.341 E2.53899
G1 X105.179 Y91.476 E2.54606
G1 X105.141 Y91.530 E2.54757
G1 X104.990 Y91.626 E2.55162
G1 X104.885 Y91.719 E2.55482
G1 X104.816 Y91.788 E2.55704
G1 X104.693 Y91.974 E2.56210
G1 X104.625 Y92.004 E2.56379
G1 X104.618 Y92.557 E2.57637
G1 X104.678 Y92.679 E2.57946
G1 X102.423 Y94.934 E2.65195
G1 X102.513 Y94.907 E2.65407
G1 X102.675 Y94.799 E2.65851
G1 X103.387 Y94.611 E2.67525
G1 X103.910 Y94.329 E2.68875
G1 X105.037 Y93.201 E2.72499
G1 X105.093 Y93.289 E2.72737
G1 X105.462 Y93.657 E2.73921
G1 X104.811 Y94.308 E2.76014
G1 X104.824 Y94.358 E2.76130
G1 X105.048 Y94.622 E2.76916
G1 X105.156 Y94.844 E2.77478
G1 X105.904 Y94.096 E2.79882
G1 X106.267 Y94.417 E2.80984
G1 X106.287 Y94.417 E2.81030
G1 X106.355 Y94.511 E2.81293
G1 X105.515 Y95.366 E2.84017
G1 E0.84017 F2400.00000
G92 E0
G1 X102.777 Y94.580 F7800.000
G1 E2.00000 F2400.00000
G1 F1800
G1 X100.594 Y96.763 E2.07017
G1 X100.986 Y96.963 E2.08018
G1 X101.090 Y96.980 E2.08256
G1 X101.172 Y97.066 E2.08526
G1 X102.882 Y95.356 E2.14022
G1 X102.940 Y95.415 E2.14209
G1 X103.171 Y95.555 E2.14824
G1 X103.473 Y95.646 E2.15541
G1 X101.735 Y97.384 E2.21127
M104 S200 ; set temperature
G1 Z0.600 F7800.000
G1 E0.21127 F2400.00000
G92 E0
G1 X104.797 Y91.183 F7800.000
G1 E2.00000 F2400.00000
G1 F1200
G1 X105.291 Y91.678 E2.01941
G1 X105.863 Y91.324 E2.03808
G1 X105.256 Y90.718 E2.06190
G1 X105.458 Y90.418 E2.07192
G1 X105.592 Y90.128 E2.08079
G1 X106.087 Y90.623 E2.10022
G1 E0.10022 F2400.00000
G92 E0
G1 X116.450 Y98.333 F7800.000
G1 E2.00000 F2400.00000
G1 F1200
G1 X115.956 Y97.839 E2.01941
G1 X115.844 Y97.463 E2.03031
G1 X115.828 Y97.466 E2.03076
G1 X116.382 Y97.254 E2.04724
G1 X117.260 Y98.132 E2.08171
G1 X118.182 Y98.042 E2.10744
G1 X117.182 Y97.042 E2.14672
G1 X117.440 Y96.994 E2.15401
G1 X118.078 Y96.926 E2.17184
G1 X119.238 Y98.085 E2.21736
G1 X119.414 Y98.097 E2.22225
G1 X119.850 Y98.192 E2.23466
G1 X120.172 Y98.296 E2.24406
G1 X120.704 Y98.540 E2.26031
G1 X119.182 Y97.018 E2.32009
G1 X119.783 Y97.286 E2.33836
G1 X120.676 Y97.809 E2.36710
G1 X121.329 Y98.242 E2.38886
G1 X121.666 Y98.490 E2.40049
G1 X122.161 Y98.985 E2.41992
G1 E0.41992 F2400.00000
G92 E0
G1 X114.109 Y99.015 F7800.000
G1 E2.00000 F2400.00000
G1 F1200
G1 X113.614 Y98.520 E2.02264
G1 X113.203 Y98.693 E2.03707
G1 X112.830 Y98.815 E2.04978
G1 X113.730 Y99.714 E2.09098
G1 X113.435 Y99.879 E2.10189
G1 X113.281 Y99.321 E2.12064
G1 X113.324 Y99.309 E2.12208
G1 X112.951 Y99.737 F7800.000
G1 F4800
G1 X112.464 Y99.250 E2.13845
G1 X112.143 Y99.304 E2.14620
G1 X111.676 Y99.343 E2.15735
G1 X112.288 Y99.955 E2.17794
G1 X111.849 Y100.015 E2.18848
G1 X111.509 Y99.974 E2.19662
G1 X111.401 Y99.949 E2.19927
G1 X110.769 Y99.317 E2.22053
G1 X110.393 Y99.267 E2.22955
G1 X109.670 Y99.099 E2.24721
G1 X110.237 Y99.666 E2.26626
G1 X109.651 Y99.544 E2.28050
G1 X109.195 Y99.505 E2.29139
G1 X108.538 Y98.848 E2.31348
G1 X107.755 Y98.676 E2.33256
G1 X107.433 Y98.624 E2.34033
G1 X108.329 Y99.520 E2.37048
G1 X107.709 Y99.640 E2.38550
G1 X107.606 Y99.677 E2.38812
G1 X106.378 Y98.449 E2.42945
G1 X105.797 Y98.358 E2.44342
G1 X105.288 Y98.240 E2.45588
G1 X106.974 Y99.927 E2.51263
G1 X106.391 Y100.224 E2.52821
G1 X104.184 Y98.018 E2.60246
G1 X104.649 Y98.483 F7800.000
G1 F4800
G1 X104.493 Y98.468 E2.60620
G1 X104.249 Y98.313 E2.61307
G1 X104.246 Y98.169 E2.61651
G1 X104.138 Y98.017 E2.62093
G1 X104.156 Y97.989 E2.62172
G1 X100.336 Y94.170 E2.75024
G1 X100.992 Y93.945 E2.76674
G1 X102.419 Y95.371 E2.81474
G1 X102.416 Y95.225 E2.81822
G1 X102.455 Y95.014 E2.82332
G1 X102.655 Y94.727 E2.83166
G1 X101.623 Y93.694 E2.86641
G1 X101.793 Y93.616 E2.87087
G1 X102.174 Y93.365 E2.88174
G1 X103.235 Y94.426 E2.91744
G1 X103.693 Y94.329 E2.92856
G1 X103.923 Y94.233 E2.93450
G1 X102.579 Y92.889 E2.97971
G1 X102.628 Y92.774 E2.98267
G1 X102.629 Y92.678 E2.98495
G1 X102.717 Y92.415 E2.99156
G1 X102.719 Y92.354 E2.99300
G1 X102.828 Y92.256 E2.99648
G1 X104.439 Y93.868 E3.05072
G1 X104.296 Y92.844 F7800.000
G1 F4800
G1 X103.427 Y91.975 E3.07994
G1 X103.749 Y92.078 E3.08798
G1 X103.831 Y92.378 E3.09537
G1 E1.09537 F2400.00000
G92 E0
G1 X104.008 Y96.961 F7800.000
G1 E2.00000 F2400.00000
G1 F4800
G1 X104.136 Y96.676 E2.00744
G1 X104.116 Y96.525 E2.01106
G1 X103.965 Y96.360 E2.01639
G1 X103.560 Y96.107 E2.02774
G1 X103.337 Y96.027 E2.03337
G1 X102.992 Y95.944 E2.04183
G1 X104.473 Y97.426 E2.09170
G1 X102.553 Y97.267 F7800.000
G1 F4800
G1 X99.720 Y94.434 E2.18704
G1 X99.591 Y94.545 E2.19109
G1 X99.516 Y94.674 E2.19464
G1 X99.479 Y94.816 E2.19812
G1 X99.475 Y94.930 E2.20085
G1 X99.515 Y95.064 E2.20417
G1 X99.589 Y95.184 E2.20752
G1 X100.657 Y96.252 E2.24345
G1 X100.259 Y95.893 E2.25620
G1 X100.054 Y95.649 E2.26378
G1 E0.26378 F2400.00000
G92 E0
G1 X102.285 Y102.285 F7800.000
G1 E2.00000 F2400.00000
G1 F4800
G1 X98.139 Y98.139 E2.13951
G1 X97.315 Y98.196 E2.15917
G1 X101.614 Y102.495 E2.30382
G1 X100.930 Y102.692 E2.32076
G1 X96.509 Y98.271 E2.46952
G1 X95.737 Y98.379 E2.48808
G1 X100.302 Y102.945 E2.64170
G1 X99.650 Y103.173 E2.65815
G1 X94.997 Y98.521 E2.81471
G1 X94.274 Y98.679 E2.83231
G1 X98.982 Y103.387 E2.99072
G1 X98.293 Y103.579 E3.00774
G1 X93.557 Y98.843 E3.16711
G1 X92.822 Y98.988 E3.18494
G1 X97.573 Y103.739 E3.34481
G1 X96.798 Y103.845 E3.36343
G1 X92.074 Y99.121 E3.52237
G1 X91.309 Y99.237 E3.54078
G1 X95.963 Y103.891 E3.69737
G1 X95.068 Y103.877 E3.71866
G1 X90.519 Y99.328 E3.87173
G1 X90.984 Y99.794 F7800.000
G1 F4800
G1 X90.474 Y99.759 E3.88391
G1 X90.286 Y99.378 E3.89402
G1 X90.331 Y99.141 E3.89977
G1 X89.275 Y98.085 E3.93531
G1 X89.437 Y97.786 E3.94340
G1 X89.558 Y97.486 E3.95108
G1 X90.591 Y98.519 E3.98584
G1 X90.635 Y98.401 E3.98885
G1 X90.909 Y97.956 E4.00127
G1 X89.859 Y96.907 E4.03659
G1 X90.055 Y96.655 E4.04419
G1 X90.218 Y96.385 E4.05169
G1 X91.241 Y97.408 E4.08611
G1 X91.557 Y96.842 E4.10152
G1 X90.535 Y95.821 E4.13589
G1 X90.597 Y95.631 E4.14064
G1 X90.629 Y95.445 E4.14512
G1 X90.620 Y95.086 E4.15368
G1 X90.596 Y95.000 E4.15578
G1 X91.825 Y96.230 E4.19715
G1 X91.901 Y96.052 E4.20174
G1 X91.922 Y95.885 E4.20574
G1 X91.905 Y95.740 E4.20921
G1 X91.743 Y95.267 E4.22112
G1 X90.292 Y93.816 E4.26994
G1 X90.387 Y93.503 E4.27772
G1 X90.494 Y93.444 E4.28062
G1 X90.735 Y93.378 E4.28656
G1 X91.586 Y94.229 E4.31520
G1 E2.31520 F2400.00000
G92 E0
G1 X94.105 Y103.795 F7800.000
G1 E2.00000 F2400.00000
G1 F4800
G1 X88.934 Y98.625 E2.17397
G1 X88.702 Y98.871 E2.18204
G1 X88.466 Y99.037 E2.18890
G1 X93.081 Y103.652 E2.34416
G1 X91.983 Y103.435 E2.37078
G1 X87.958 Y99.410 E2.50623
G1 X87.889 Y99.454 E2.50818
G1 X87.317 Y99.418 E2.52181
G1 X87.040 Y99.373 E2.52849
G1 X90.962 Y103.295 E2.66049
G1 X90.799 Y103.464 E2.66608
G1 X90.731 Y103.727 E2.67253
G1 X90.833 Y104.047 E2.68054
G1 X85.929 Y99.143 E2.84557
G1 X85.443 Y99.011 E2.85755
G1 X84.996 Y98.797 E2.86934
G1 X84.580 Y98.499 E2.88152
G1 X84.097 Y98.040 E2.89737
G1 X83.650 Y97.478 E2.91445
G1 X82.580 Y95.951 E2.95882
G1 X82.050 Y95.274 E2.97927
G1 X81.669 Y94.884 E2.99225
G1 X81.382 Y94.644 E3.00115
G1 X80.848 Y94.304 E3.01622
G1 X80.453 Y94.113 E3.02665
G1 X79.805 Y93.900 E3.04289
G1 X92.120 Y106.215 E3.45728
G1 X92.277 Y106.759 E3.47075
G1 X92.342 Y106.921 E3.47491
G1 X91.839 Y106.432 E3.49161
G1 X91.629 Y106.203 E3.49899
G1 X91.421 Y105.947 E3.50686
G1 X91.153 Y105.555 E3.51815
G1 X91.107 Y105.451 E3.52086
G1 X90.694 Y104.997 E3.53546
G1 X90.431 Y104.785 E3.54350
G1 X89.403 Y104.156 E3.57217
G1 X89.241 Y103.956 E3.57830
G1 X88.673 Y103.049 E3.60375
G1 X88.510 Y102.739 E3.61210
G1 X88.462 Y102.706 E3.61346
G1 X88.421 Y102.630 E3.61553
G1 X88.291 Y102.557 E3.61907
G1 X87.448 Y102.272 E3.64024
G1 X87.108 Y102.084 E3.64949
G1 X78.804 Y93.780 E3.92890
G1 X78.626 Y93.787 E3.93314
G1 X78.336 Y93.831 E3.94013
G1 X78.042 Y93.899 E3.94730
G1 X85.167 Y101.023 E4.18703
G1 X84.807 Y100.918 E4.19595
G1 X84.014 Y100.752 E4.21521
G1 X77.440 Y94.177 E4.43644
G1 X77.149 Y94.388 E4.44499
G1 X76.959 Y94.577 E4.45137
G1 X82.986 Y100.605 E4.65419
G1 X82.048 Y100.547 E4.67657
G1 X76.653 Y95.153 E4.85809
G1 X76.624 Y95.453 E4.86526
G1 X76.659 Y95.833 E4.87435
G1 X76.714 Y96.094 E4.88070
G1 X81.136 Y100.517 E5.02951
G1 X80.706 Y100.494 E5.03978
G1 X80.286 Y100.396 E5.05004
G1 X80.037 Y100.298 E5.05641
G1 X77.189 Y97.451 E5.15222
G1 E3.15222 F2400.00000
G92 E0
G1 X100.940 Y104.464 F7800.000
G1 E2.00000 F2400.00000
G1 F4800
G1 X102.144 Y105.668 E2.04051
G1 X102.732 Y105.481 E2.05519
G1 X102.834 Y105.477 E2.05762
G1 X101.416 Y104.059 E2.10534
G1 X101.914 Y103.676 E2.12029
G1 X103.592 Y105.354 E2.17675
G1 X103.792 Y105.317 E2.18158
G1 X104.294 Y105.379 E2.19363
G1 X104.623 Y105.504 E2.20200
G1 X104.187 Y105.068 E2.21669
G1 X104.028 Y105.012 E2.22070
G1 X103.823 Y104.704 E2.22948
G1 X102.328 Y103.209 E2.27979
G1 X102.526 Y102.846 E2.28964
G1 X102.602 Y102.602 E2.29571
G1 X103.897 Y103.897 E2.33928
G1 X104.236 Y103.355 E2.35449
G1 X98.983 Y98.102 E2.53125
G1 X99.848 Y98.086 E2.55183
G1 X104.490 Y102.728 E2.70803
G1 X104.554 Y101.912 E2.72752
G1 X100.733 Y98.090 E2.85610
G1 X101.575 Y98.051 E2.87614
G1 X104.775 Y101.251 E2.98382
G1 X104.865 Y101.175 E2.98663
G1 X105.302 Y100.897 E2.99894
G1 X102.345 Y97.940 E3.09844
G1 X102.760 Y97.757 E3.10925
G1 X102.586 Y97.300 E3.12087
G1 X105.843 Y100.557 E3.23045
G1 E1.23045 F2400.00000
G92 E0
G1 X103.722 Y104.602 F7800.000
G1 E2.00000 F2400.00000
G1 F4800
G1 X104.484 Y104.854 E2.01910
G1 X104.593 Y104.879 E2.02177
G1 X104.874 Y104.874 E2.02846
G1 X105.908 Y105.908 E2.06325
G1 E0.06325 F2400.00000
G92 E0
G1 X105.051 Y108.038 F7800.000
G1 E2.00000 F2400.00000
G1 F1200
G1 X104.556 Y107.543 E2.02264
G1 X104.442 Y107.755 E2.03044
G1 X104.260 Y108.325 E2.04981
G1 X104.798 Y108.864 E2.07446
G1 X104.770 Y108.883 E2.07556
G1 X104.754 Y108.820 E2.07766
G1 Z0.900 F7800.000
G1 E0.07766 F2400.00000
G92 E0
G1 X104.990 Y100.296 F7800.000
G1 E2.00000 F2400.00000
G1 F4800
G1 X106.466 Y98.819 E2.04968
G1 X105.733 Y98.672 E2.06749
G1 X102.983 Y101.421 E2.16000
G1 X101.627 Y101.897 E2.19419
G1 X105.011 Y98.513 E2.30804
G1 X104.222 Y98.421 E2.32695
G1 X100.371 Y102.272 E2.45653
G1 X99.557 Y102.597 E2.47736
G1 X98.969 Y102.793 E2.49213
G1 X103.367 Y98.395 E2.64011
G1 X102.963 Y98.397 E2.64973
G1 X102.435 Y98.446 E2.66233
G1 X97.717 Y103.164 E2.82107
G1 X97.225 Y103.283 E2.83312
G1 X96.622 Y103.378 E2.84766
G1 X101.482 Y98.518 E3.01121
G1 X100.604 Y98.515 E3.03210
G1 X95.664 Y103.455 E3.19833
G1 X94.783 Y103.459 E3.21930
G1 X99.716 Y98.522 E3.38536
G1 X98.799 Y98.559 E3.40721
G1 X93.960 Y103.397 E3.57003
G1 X93.170 Y103.306 E3.58894
G1 X97.856 Y98.620 E3.74660
G1 X96.883 Y98.712 E3.76984
G1 X92.414 Y103.181 E3.92023
G1 X91.684 Y103.030 E3.93797
G1 X95.834 Y98.881 E4.07761
G1 X94.709 Y99.125 E4.10501
G1 X90.958 Y102.876 E4.23122
G1 X90.237 Y102.715 E4.24878
G1 X93.588 Y99.365 E4.36151
G1 X92.512 Y99.560 E4.38754
G1 X88.855 Y103.216 E4.51057
G1 X88.549 Y102.747 E4.52392
G1 X88.520 Y102.670 E4.52585
G1 X91.484 Y99.707 E4.62558
G1 X90.495 Y99.814 E4.64924
G1 X88.117 Y102.193 E4.72928
G1 X87.449 Y101.980 E4.74596
G1 X89.735 Y99.694 E4.82288
G1 X89.487 Y99.321 E4.83353
G1 X89.396 Y99.321 E4.83569
G1 X89.219 Y99.383 E4.84016
G1 X89.045 Y99.503 E4.84516
G1 X88.440 Y100.108 E4.86553
G1 X88.507 Y100.017 E4.86821
G1 X88.580 Y99.968 E4.87031
G1 E2.87031 F2400.00000
G92 E0
G1 X86.843 Y101.705 F7800.000
G1 E2.00000 F2400.00000
G1 F4800
G1 X88.815 Y99.733 E2.06635
G1 X88.449 Y99.869 E2.07563
G1 X87.818 Y99.849 E2.09066
G1 X86.298 Y101.369 E2.14180
G1 X85.752 Y101.034 E2.15704
G1 X87.044 Y99.742 E2.20052
G1 X86.337 Y99.568 E2.21785
G1 X85.169 Y100.736 E2.25714
G1 X85.075 Y100.690 E2.25963
G1 X84.503 Y100.522 E2.27383
G1 X85.663 Y99.361 E2.31289
G1 X85.259 Y99.168 E2.32355
G1 X85.096 Y99.048 E2.32838
G1 X83.784 Y100.359 E2.37251
G1 X83.027 Y100.235 E2.39076
G1 X84.601 Y98.661 E2.44373
G1 X84.256 Y98.337 E2.45500
G1 X84.163 Y98.219 E2.45858
G1 X82.227 Y100.155 E2.52373
G1 X81.390 Y100.110 E2.54366
G1 X83.771 Y97.730 E2.62376
G1 X83.410 Y97.209 E2.63882
G1 X80.544 Y100.075 E2.73526
G1 X80.257 Y100.064 E2.74209
G1 X79.802 Y99.936 E2.75334
G1 X83.045 Y96.694 E2.86245
G1 X82.679 Y96.179 E2.87748
G1 X79.242 Y99.616 E2.99312
G1 X78.757 Y99.220 E3.00802
G1 X82.295 Y95.681 E3.12709
G1 X82.138 Y95.493 E3.13293
G1 X81.868 Y95.228 E3.14194
G1 X78.215 Y98.881 E3.26484
G1 X77.948 Y98.715 E3.27232
G1 X77.732 Y98.483 E3.27986
G1 X81.375 Y94.840 E3.40243
G1 X81.257 Y94.760 E3.40581
G1 X80.809 Y94.525 E3.41785
G1 X77.408 Y97.926 E3.53230
G1 X77.284 Y97.557 E3.54156
G1 X77.244 Y97.306 E3.54761
G1 X77.254 Y97.199 E3.55018
G1 X80.290 Y94.163 E3.65231
G1 X79.987 Y94.029 E3.66019
G1 X79.620 Y93.952 E3.66911
G1 X77.123 Y96.449 E3.75315
G1 X77.092 Y96.313 E3.75647
G1 X77.051 Y95.918 E3.76592
G1 X77.076 Y95.683 E3.77155
G1 X77.122 Y95.569 E3.77447
G1 X78.207 Y94.484 E3.81099
G1 E1.81099 F2400.00000
G92 E0
G1 X89.215 Y103.737 F7800.000
G1 E2.00000 F2400.00000
G1 F4800
G1 X89.980 Y102.972 E2.02574
G1 X90.089 Y103.205 E2.03184
G1 X90.111 Y103.418 E2.03694
G1 X90.084 Y103.458 E2.03809
G1 X89.999 Y103.454 E2.04011
G1 X89.752 Y103.360 E2.04640
G1 X89.681 Y103.272 E2.04910
G1 X90.218 Y103.761 F7800.000
G1 F1200
G1 X90.712 Y103.266 E2.06845
G1 X90.935 Y103.952 E2.08842
G1 X90.054 Y104.834 E2.12291
G1 X90.258 Y105.002 E2.13023
G1 X90.519 Y105.278 E2.14073
G1 X91.236 Y104.561 E2.16880
G1 X91.631 Y105.074 E2.18674
G1 X90.890 Y105.816 E2.21577
G1 X90.969 Y105.935 E2.21975
G1 X91.294 Y106.320 E2.23368
G1 X92.024 Y105.590 E2.26224
G1 X92.048 Y105.634 E2.26361
G1 X92.155 Y105.912 E2.27185
G1 X92.251 Y106.272 E2.28217
G1 X91.757 Y106.766 E2.30152
G1 X92.311 Y107.700 F7800.000
G1 F1200
G1 X92.806 Y107.205 E2.32087
G1 X93.128 Y107.951 F7800.000
G1 F1200
G1 X92.633 Y108.445 E2.34022
G1 E0.34022 F2400.00000
G92 E0
G1 X89.916 Y99.701 F7800.000
G1 E2.00000 F2400.00000
G1 F1200
G1 X90.410 Y99.206 E2.01935
G1 X90.261 Y98.904 E2.02868
G1 X90.303 Y98.666 E2.03535
G1 X90.420 Y98.316 E2.04557
G1 X90.569 Y98.005 E2.05511
G1 X89.329 Y99.245 E2.10364
G1 X89.172 Y99.203 E2.10816
G1 X88.888 Y99.203 E2.11601
G1 X89.136 Y98.871 E2.12750
G1 X89.456 Y98.282 E2.14604
G1 X89.594 Y97.940 E2.15625
G1 X91.810 Y95.723 E2.24301
G1 X91.857 Y95.630 E2.24588
G1 X91.899 Y95.409 E2.25212
G1 X91.876 Y95.249 E2.25660
G1 X91.706 Y94.786 E2.27024
G1 X90.649 Y95.843 E2.31161
G1 X90.643 Y95.560 E2.31943
G1 X90.598 Y95.399 E2.32405
G1 X90.406 Y95.044 E2.33523
G1 X91.544 Y93.906 E2.37978
G1 X91.590 Y93.532 E2.39022
G1 X91.553 Y93.481 E2.39195
G1 X91.401 Y93.388 E2.39689
G1 X91.220 Y93.401 E2.40191
G1 X90.986 Y93.465 E2.40862
G1 X90.901 Y93.508 E2.41125
G1 X90.407 Y94.002 E2.43060
G1 E0.43060 F2400.00000
G92 E0
G1 X100.156 Y94.494 F7800.000
G1 E2.00000 F2400.00000
G1 F1200
G1 X99.661 Y94.990 E2.01941
G1 X99.543 Y95.152 E2.02496
G1 X99.505 Y95.292 E2.02897
G1 X99.503 Y95.418 E2.03247
G1 X99.538 Y95.533 E2.03579
G1 X99.633 Y95.686 E2.04077
G1 X99.753 Y95.819 E2.04574
G1 X101.674 Y93.898 E2.12092
G1 X101.904 Y93.816 E2.12767
G1 X102.289 Y93.635 E2.13943
G1 X102.545 Y93.482 E2.14771
G1 X102.741 Y93.331 E2.15456
G1 X103.036 Y93.022 E2.16636
G1 X103.145 Y92.767 E2.17404
G1 X103.146 Y92.670 E2.17672
G1 X103.236 Y92.359 E2.18569
G1 X103.690 Y91.947 E2.20265
G1 X103.750 Y91.945 E2.20431
G1 X104.198 Y92.090 E2.21734
G1 X104.244 Y92.251 E2.22197
G1 X100.236 Y96.259 E2.37884
G1 X100.342 Y96.336 E2.38247
G1 X100.845 Y96.571 E2.39786
G1 X102.402 Y95.015 E2.45878
G1 X102.459 Y95.272 E2.46606
G1 X102.663 Y95.588 E2.47649
G1 X102.712 Y95.627 E2.47822
G1 X101.474 Y96.865 E2.52666
G1 X101.786 Y97.035 E2.53650
G1 X102.046 Y97.215 E2.54524
G1 X103.325 Y95.936 E2.59532
G1 X103.801 Y96.047 E2.60885
G1 X104.045 Y96.139 E2.61605
G1 X102.532 Y97.652 E2.67527
G1 X102.592 Y97.727 E2.67796
G1 X102.779 Y98.263 E2.69365
G1 X102.745 Y98.278 E2.69468
G1 X102.828 Y98.277 E2.69699
G1 X104.565 Y96.540 E2.76498
G1 X104.572 Y96.663 E2.76837
G1 X104.435 Y96.972 E2.77772
G1 X104.114 Y97.547 E2.79596
G1 X104.223 Y97.701 E2.80120
G1 X104.225 Y97.803 E2.80400
G1 X103.731 Y98.297 E2.82336
G1 E0.82336 F2400.00000
G92 E0
G1 X103.090 Y94.326 F7800.000
G1 E2.00000 F2400.00000
G1 F1200
G1 X104.459 Y92.958 E2.05355
G1 X104.366 Y92.707 E2.06097
G1 X104.244 Y92.251 E2.07403
G1 E0.07403 F2400.00000
G92 E0
G1 X108.147 Y98.685 F7800.000
G1 E2.00000 F2400.00000
G1 F1200
G1 X107.652 Y99.179 E2.01935
G1 X107.916 Y99.491 E2.03066
G1 X108.149 Y99.465 E2.03715
G1 X108.394 Y99.467 E2.04392
G1 X108.992 Y98.869 E2.06732
G1 X109.832 Y99.058 E2.09116
G1 X109.338 Y99.552 E2.11051
G1 X110.661 Y99.242 F7800.000
G1 F1200
G1 X110.156 Y99.747 E2.13026
G1 X110.570 Y99.859 E2.14214
G1 X111.037 Y99.945 E2.15526
G1 X111.603 Y99.379 E2.17740
G1 X111.925 Y99.384 E2.18632
G1 X112.752 Y99.309 E2.20930
G1 X112.257 Y99.803 E2.22865
G1 E0.22865 F2400.00000
G92 E0
G1 X105.297 Y106.042 F7800.000
G1 E2.00000 F2400.00000
G1 F1200
G1 X105.792 Y105.547 E2.01938
G1 X105.899 Y105.396 E2.02448
G1 X105.952 Y105.228 E2.02937
G1 X105.948 Y105.142 E2.03176
G1 X105.864 Y104.963 E2.03721
G1 X105.726 Y104.901 E2.04141
G1 X105.498 Y104.903 E2.04771
G1 X104.596 Y105.805 E2.08304
G1 X104.352 Y105.590 E2.09203
G1 X104.031 Y105.431 E2.10194
G1 X104.671 Y104.791 E2.12696
G1 X104.029 Y104.567 E2.14579
G1 X103.999 Y104.525 E2.14721
G1 X103.212 Y105.312 E2.17802
G1 X102.228 Y105.464 E2.20559
G1 X102.073 Y105.513 E2.21007
G1 X103.750 Y103.836 E2.27569
G1 X103.764 Y103.623 E2.28159
G1 X103.952 Y103.266 E2.29276
G1 X104.272 Y102.765 E2.30924
G1 X104.400 Y102.491 E2.31759
G1 X104.473 Y102.175 E2.32658
G1 X101.000 Y105.648 E2.46250
G1 X100.950 Y105.632 E2.46394
G1 X100.787 Y105.495 E2.46983
G1 X100.739 Y105.423 E2.47223
G1 X100.733 Y105.350 E2.47425
G1 X100.775 Y105.220 E2.47802
G1 X100.944 Y104.979 E2.48619
G1 X101.253 Y104.689 E2.49791
G1 X101.888 Y104.215 E2.51983
G1 X102.197 Y103.900 E2.53206
G1 X102.333 Y103.731 E2.53805
G1 X102.423 Y103.574 E2.54306
G1 X102.542 Y103.348 E2.55013
G1 X102.633 Y103.076 E2.55807
G1 X104.547 Y101.162 E2.63297
G1 X104.545 Y101.100 E2.63469
G1 X104.230 Y101.275 E2.64467
G1 X104.194 Y101.373 E2.64756
G1 X103.946 Y101.418 E2.65453
G1 X103.417 Y101.580 E2.66985
G1 X103.049 Y101.722 E2.68077
G1 X102.554 Y102.217 E2.70012
M106 S255
G1 Z1.200 F7800.000
G1 E0.70012 F2400.00000
G92 E0
G1 X103.170 Y104.153 F7800.000
G1 E2.00000 F2400.00000
G1 F644.878
G1 X102.676 Y103.659 E2.02053
G1 X102.363 Y103.852 E2.03132
G1 X102.115 Y104.076 E2.04114
G1 X103.043 Y105.004 E2.07967
G1 X102.970 Y105.027 E2.08192
G1 X102.558 Y105.074 E2.09410
G1 X102.475 Y105.047 E2.09666
G1 X102.437 Y105.065 E2.09788
G1 X102.296 Y105.056 E2.10204
G1 X102.149 Y105.088 E2.10645
G1 X101.654 Y104.594 E2.12698
G1 E0.12698 F2400.00000
G92 E0
G1 X100.333 Y95.404 F7800.000
G1 E2.00000 F2400.00000
G1 F644.878
G1 X100.873 Y95.944 E2.02472
G1 X101.292 Y96.180 E2.04030
G1 X101.725 Y96.319 E2.05502
G1 X102.193 Y96.384 E2.07030
G1 X102.190 Y96.251 E2.07463
G1 X102.166 Y96.159 E2.07770
G1 X100.501 Y94.494 E2.15392
G1 X100.804 Y94.376 E2.16444
G1 X101.393 Y94.307 E2.18363
G1 X101.888 Y94.802 E2.20628
G1 X103.497 Y93.793 F7800.000
G1 F644.878
G1 X103.003 Y93.299 E2.22588
G1 X102.996 Y93.216 E2.22820
G1 X103.080 Y92.916 E2.23692
G1 X103.212 Y92.687 E2.24433
G1 X103.260 Y92.667 E2.24579
G1 X103.329 Y92.691 E2.24783
G1 X103.823 Y93.186 E2.26744
G1 E0.26744 F2400.00000
G92 E0
G1 X105.771 Y99.604 F7800.000
G1 E2.00000 F2400.00000
G1 F2579.51
G1 X105.278 Y99.111 E2.01660
G1 X104.755 Y98.992 E2.02934
G1 X104.197 Y98.911 E2.04277
G1 X105.218 Y99.933 E2.07714
G1 X104.676 Y100.272 E2.09235
G1 X103.234 Y98.829 E2.14089
G1 X102.365 Y98.842 E2.16156
G1 X104.141 Y100.617 E2.22131
G1 X103.536 Y100.893 E2.23714
G1 X101.556 Y98.913 E2.30375
G1 X101.018 Y98.949 E2.31657
G1 X100.706 Y98.945 E2.32399
G1 X102.910 Y101.148 E2.39814
G1 X102.266 Y101.385 E2.41446
G1 X99.824 Y98.943 E2.49665
G1 X98.960 Y98.960 E2.51721
G1 X101.601 Y101.601 E2.60609
G1 X100.921 Y101.802 E2.62296
G1 X98.118 Y98.999 E2.71727
G1 X97.297 Y99.059 E2.73687
G1 X100.273 Y102.035 E2.83703
G1 X99.632 Y102.275 E2.85332
G1 X96.492 Y99.135 E2.95897
G1 X95.725 Y99.249 E2.97743
G1 X98.972 Y102.496 E3.08668
G1 X98.287 Y102.692 E3.10363
G1 X94.992 Y99.397 E3.21450
G1 X94.272 Y99.557 E3.23206
G1 X97.579 Y102.864 E3.34334
G1 X96.817 Y102.984 E3.36168
G1 X93.550 Y99.716 E3.47164
G1 X92.814 Y99.862 E3.48948
G1 X95.980 Y103.027 E3.59599
G1 X95.091 Y103.020 E3.61714
G1 X92.063 Y99.991 E3.71904
G1 X91.294 Y100.103 E3.73753
G1 X94.124 Y102.934 E3.83278
G1 X93.096 Y102.786 E3.85750
G1 X90.507 Y100.197 E3.94461
G1 X89.699 Y100.270 E3.96391
G1 X91.986 Y102.557 E4.04087
G1 X90.846 Y102.298 E4.06868
G1 X88.848 Y100.300 E4.13592
G1 X87.977 Y100.310 E4.15665
G1 X89.697 Y102.030 E4.21453
G1 X88.502 Y101.716 E4.24392
G1 X87.032 Y100.246 E4.29338
G1 X86.579 Y100.179 E4.30428
G1 X85.931 Y100.026 E4.32012
G1 X86.780 Y100.875 E4.34868
G1 X86.325 Y100.607 E4.36124
G1 X85.692 Y100.296 E4.37805
G1 X86.397 Y100.491 E4.39545
G1 X85.159 Y100.135 F7800.000
G1 F2579.51
G1 X84.496 Y99.472 E4.41775
G1 X84.591 Y99.539 E4.42052
G1 X85.138 Y99.799 E4.43494
G1 X84.694 Y99.669 E4.44597
G1 X83.327 Y98.303 F7800.000
G1 F2579.51
G1 X78.966 Y93.941 E4.59273
G1 X78.551 Y94.003 E4.60270
G1 X78.439 Y94.057 E4.60568
G1 X78.326 Y94.182 E4.60969
G1 X84.033 Y99.890 E4.80175
G1 X83.577 Y99.814 E4.81276
G1 X83.012 Y99.750 E4.82628
G1 X78.029 Y94.767 E4.99395
G1 X77.649 Y95.090 E5.00583
G1 X77.579 Y95.198 E5.00888
G1 X82.073 Y99.692 E5.16010
G1 X81.153 Y99.653 E5.18202
G1 X77.569 Y96.068 E5.30263
G1 X77.621 Y96.332 E5.30904
G1 X77.416 Y96.645 E5.31795
G1 X77.377 Y96.757 E5.32077
G1 X79.633 Y99.013 E5.39669
G1 X79.201 Y98.665 E5.40990
G1 X78.983 Y98.680 E5.41508
G1 X78.819 Y98.741 E5.41926
G1 X78.719 Y98.751 E5.42164
G1 X78.627 Y98.723 E5.42393
G1 X78.312 Y98.553 E5.43246
G1 X78.304 Y98.566 E5.43281
G1 X77.665 Y97.926 E5.45434
G1 E3.45434 F2400.00000
G92 E0
G1 X88.919 Y100.187 F7800.000
G1 E2.00000 F2400.00000
G1 F644.878
G1 X88.425 Y99.692 E2.01910
G1 X88.515 Y99.570 E2.02326
G1 X88.755 Y99.403 E2.03123
G1 X88.923 Y99.344 E2.03609
G1 X88.987 Y99.344 E2.03784
G1 X89.482 Y99.839 E2.05695
G1 E0.05695 F2400.00000
G92 E0
G1 X89.497 Y102.241 F7800.000
G1 E2.00000 F2400.00000
G1 F644.878
G1 X89.991 Y102.735 E2.01910
G1 X90.071 Y103.894 F7800.000
G1 F644.878
G1 X88.812 Y102.635 E2.06771
M106 S247.35
G1 Z1.500 F7800.000
G1 E0.06771 F2400.00000
G92 E0
G1 X86.087 Y99.961 F7800.000
G1 E2.00000 F2400.00000
G1 F1200
G1 X85.593 Y100.455 E2.02042
G1 X85.928 Y100.623 E2.03136
G1 X86.200 Y100.787 E2.04063
G1 X86.836 Y100.151 E2.06690
G1 X87.052 Y100.202 E2.07338
G1 X87.638 Y100.288 E2.09066
G1 X86.785 Y101.141 E2.12589
G1 X87.156 Y101.371 E2.13864
G1 X87.383 Y101.481 E2.14602
G1 X88.533 Y100.332 E2.19349
G1 X89.485 Y100.319 E2.22128
G1 X88.092 Y101.711 E2.27878
G1 X88.834 Y101.908 E2.30119
G1 X90.474 Y100.269 E2.36890
G1 X91.526 Y100.155 E2.39980
G1 X89.578 Y102.103 E2.48023
G1 X90.350 Y102.270 E2.50329
G1 X92.618 Y100.002 E2.59695
G1 X93.767 Y99.792 E2.63105
G1 X91.118 Y102.441 E2.74043
G1 X91.888 Y102.609 E2.76346
G1 X94.957 Y99.540 E2.89018
G1 X96.157 Y99.280 E2.92603
G1 X92.668 Y102.768 E3.07007
G1 X93.482 Y102.893 E3.09411
G1 X97.239 Y99.136 E3.24924
G1 X98.273 Y99.041 E3.27955
G1 X94.339 Y102.975 E3.44196
G1 X94.797 Y103.008 E3.45535
G1 X95.227 Y103.012 E3.46792
G1 X99.264 Y98.988 E3.63435
G1 X100.222 Y98.970 E3.66230
G1 X96.227 Y102.965 E3.82727
G1 X96.358 Y102.959 E3.83111
G1 X97.144 Y102.832 E3.85437
G1 X97.347 Y102.783 E3.86046
G1 X101.162 Y98.969 E4.01798
G1 X101.500 Y98.972 E4.02787
G1 X102.141 Y98.928 E4.04662
G1 X98.652 Y102.417 E4.19068
G1 X99.410 Y102.164 E4.21402
G1 X100.136 Y101.872 E4.23686
G1 X103.158 Y98.850 E4.36166
G1 X103.629 Y98.847 E4.37539
G1 X104.078 Y98.869 E4.38854
G1 X101.486 Y101.461 E4.49557
G1 X102.342 Y101.158 E4.52209
G1 X102.991 Y100.895 E4.54253
G1 X104.925 Y98.961 E4.62237
G1 X105.334 Y99.037 E4.63451
G1 X105.695 Y99.130 E4.64540
G1 X105.200 Y99.624 E4.66583
G1 E2.66583 F2400.00000
G92 E0
G1 X84.687 Y100.112 F7800.000
G1 E2.00000 F2400.00000
G1 F1200
G1 X85.181 Y99.618 E2.02042
G1 X85.046 Y99.554 E2.02479
G1 X84.587 Y99.240 E2.04103
G1 X83.901 Y99.925 E2.06934
G1 X83.066 Y99.787 E2.09405
G1 X84.077 Y98.776 E2.13578
G1 X83.939 Y98.646 E2.14134
G1 X83.622 Y98.258 E2.15595
G1 X82.178 Y99.702 E2.21560
G1 X81.254 Y99.654 E2.24262
G1 X83.207 Y97.701 E2.32325
G1 X82.804 Y97.131 E2.34363
G1 X80.320 Y99.615 E2.44620
G1 X79.991 Y99.531 E2.45610
G1 X79.633 Y99.329 E2.46811
G1 X82.401 Y96.561 E2.58240
G1 X81.980 Y96.009 E2.60268
G1 X79.074 Y98.915 E2.72268
G1 X78.733 Y98.642 E2.73544
G1 X78.492 Y98.658 E2.74247
G1 X78.292 Y98.724 E2.74863
G1 X81.509 Y95.507 E2.88145
G1 X81.337 Y95.351 E2.88822
G1 X80.943 Y95.099 E2.90186
G1 X77.746 Y98.297 E3.03389
G1 X77.687 Y98.217 E3.03680
G1 X77.517 Y97.884 E3.04771
G1 X77.436 Y97.634 E3.05537
G1 X80.484 Y94.585 E3.18127
G1 X80.402 Y94.433 E3.18633
G1 X80.273 Y94.307 E3.19160
G1 X80.093 Y94.198 E3.19774
G1 X79.953 Y94.143 E3.20211
G1 X77.590 Y96.507 E3.29970
G1 X77.511 Y96.036 E3.31365
G1 X77.529 Y95.787 E3.32093
G1 X77.660 Y95.599 E3.32763
G1 X78.039 Y95.280 E3.34209
G1 X78.103 Y95.157 E3.34614
G1 X78.170 Y95.196 E3.34839
G1 X78.308 Y94.895 E3.35804
G1 X78.504 Y94.650 E3.36721
G1 X78.487 Y94.637 E3.36784
G1 X78.981 Y94.143 E3.38826
M106 S255
G1 Z1.800 F7800.000
G1 E1.38826 F2400.00000
G92 E0
G1 X88.126 Y100.774 F7800.000
G1 E2.00000 F2400.00000
G1 F1053.37
G1 X88.621 Y101.268 E2.01896
G1 X89.847 Y101.591 E2.05337
G1 X89.016 Y100.760 E2.08526
G1 X89.866 Y100.707 E2.10837
G1 X91.028 Y101.868 E2.15291
G1 X92.197 Y102.133 E2.18542
G1 X90.694 Y100.631 E2.24304
G1 X91.496 Y100.529 E2.26496
G1 X93.331 Y102.364 E2.33533
G1 X93.839 Y102.447 E2.34928
G1 X94.365 Y102.494 E2.36360
G1 X92.280 Y100.409 E2.44356
G1 X93.047 Y100.273 E2.46468
G1 X95.354 Y102.580 E2.55316
G1 X96.244 Y102.566 E2.57730
G1 X93.801 Y100.123 E2.67100
G1 X94.542 Y99.960 E2.69158
G1 X97.071 Y102.489 E2.78856
G1 X97.573 Y102.406 E2.80235
G1 X97.824 Y102.339 E2.80941
G1 X95.282 Y99.797 E2.90690
G1 X96.042 Y99.654 E2.92788
G1 X98.538 Y102.149 E3.02357
G1 X99.230 Y101.937 E3.04320
G1 X96.848 Y99.556 E3.13453
G1 X97.682 Y99.486 E3.15721
G1 X99.901 Y101.705 E3.24233
G1 X100.546 Y101.446 E3.26117
G1 X98.537 Y99.437 E3.33821
G1 X99.408 Y99.405 E3.36185
G1 X101.240 Y101.237 E3.43210
G1 X101.934 Y101.027 E3.45176
G1 X100.315 Y99.408 E3.51386
G1 X101.201 Y99.391 E3.53791
G1 X102.594 Y100.783 E3.59132
G1 X103.234 Y100.520 E3.61009
G1 X102.039 Y99.325 E3.65591
G1 X102.541 Y99.281 E3.66956
G1 X102.896 Y99.278 E3.67920
G1 X103.390 Y99.773 E3.69817
G1 E1.69817 F2400.00000
G92 E0
G1 X83.309 Y99.044 F7800.000
G1 E2.00000 F2400.00000
G1 F1053.37
G1 X78.525 Y94.260 E2.21120
G1 X78.361 Y94.345 E2.21696
G1 X78.291 Y94.440 E2.22063
G1 X78.277 Y94.512 E2.22292
G1 X78.331 Y94.966 E2.23722
G1 X78.284 Y95.059 E2.24046
G1 X82.488 Y99.264 E2.42609
G1 X81.395 Y99.210 E2.46026
G1 X77.996 Y95.812 E2.61030
G1 X78.080 Y96.174 E2.62192
G1 X78.085 Y96.302 E2.62591
G1 X78.048 Y96.594 E2.63509
G1 X77.817 Y96.672 E2.64269
G1 X79.337 Y98.193 E2.70980
G1 X79.202 Y98.129 E2.71445
G1 X78.904 Y98.340 E2.72586
G1 X78.718 Y98.571 E2.73511
G1 X78.586 Y98.482 E2.74007
G1 X78.087 Y97.983 E2.76211
G1 E0.76211 F2400.00000
G92 E0
G1 X80.275 Y94.970 F7800.000
G1 E2.00000 F2400.00000
G1 F1053.37
G1 X79.764 Y94.459 E2.02256
G1 X79.781 Y94.475 E2.02329
G1 Z2.100 F7800.000
G1 E0.02329 F2400.00000
G92 E0
G1 X92.317 Y101.331 F7800.000
G1 E2.00000 F2400.00000
G1 F600
G1 X92.811 Y100.836 E2.02061
G1 X94.016 Y100.614 E2.05671
G1 X92.719 Y101.911 E2.11079
G1 X93.217 Y101.997 E2.12569
G1 X93.575 Y102.037 E2.13632
G1 X95.260 Y100.352 E2.20656
G1 X96.194 Y100.141 E2.23479
G1 X96.502 Y100.093 E2.24396
G1 X94.472 Y102.123 E2.32857
G1 X94.845 Y102.152 E2.33959
G1 X95.435 Y102.142 E2.35700
G1 X97.613 Y99.963 E2.44780
G1 X98.681 Y99.878 E2.47937
G1 X96.490 Y102.069 E2.57072
G1 X97.016 Y101.979 E2.58645
G1 X97.760 Y101.781 E2.60913
G1 X99.706 Y99.835 E2.69026
G1 X100.691 Y99.832 E2.71930
G1 X99.192 Y101.331 E2.78179
G1 X100.702 Y100.803 F7800.000
G1 F600
G1 X101.197 Y100.309 E2.80240
G1 E0.80240 F2400.00000
G92 E0
G1 X82.105 Y98.838 F7800.000
G1 E2.00000 F2400.00000
G1 F600
G1 X82.599 Y98.343 E2.01954
G1 X82.221 Y97.790 E2.03827
G1 X81.216 Y98.795 E2.07798
G1 X80.503 Y98.771 E2.09792
G1 X80.346 Y98.734 E2.10245
G1 X81.834 Y97.245 E2.16129
G1 X81.443 Y96.706 E2.17992
G1 X79.777 Y98.372 E2.24576
G1 X79.651 Y98.273 E2.25023
G1 X79.303 Y97.915 E2.26420
G1 X81.009 Y96.208 E2.33164
G1 X80.894 Y96.096 E2.33613
G1 X80.464 Y95.822 E2.35037
G1 X78.893 Y97.394 E2.41249
G1 X78.574 Y96.781 E2.43179
G1 X79.362 Y95.993 E2.46291
G1 X79.549 Y95.996 E2.46813
G1 X79.589 Y95.766 E2.47468
G1 X79.922 Y95.433 E2.48782
G1 X79.859 Y95.332 E2.49114
G1 X80.001 Y94.989 E2.50153
G1 X80.075 Y94.909 E2.50457
G1 X80.161 Y94.762 E2.50934
G1 X80.180 Y94.654 E2.51239
G1 X80.071 Y94.553 E2.51652
G1 X79.935 Y94.488 E2.52074
G1 X78.719 Y95.705 E2.56881
G1 X78.687 Y95.481 E2.57512
G1 X78.509 Y95.244 E2.58342
G1 X78.426 Y95.074 E2.58872
G1 X78.926 Y94.566 E2.60863
G1 Z2.400 F7800.000
G1 E0.60863 F2400.00000
G92 E0
G1 X93.827 Y101.582 F7800.000
G1 E2.00000 F2400.00000
G1 F600
G1 X93.333 Y101.088 E2.02263
G1 X94.189 Y100.914 E2.05093
G1 X94.509 Y101.196 E2.06472
G1 X95.004 Y101.691 E2.08740
G1 X95.679 Y101.500 F7800.000
G1 F600
G1 X95.719 Y101.614 E2.09131
G1 X95.542 Y101.721 E2.09800
G1 X95.889 Y101.710 E2.10924
G1 X95.185 Y101.005 E2.14149
G1 X95.085 Y100.720 E2.15127
G1 X95.815 Y100.557 E2.17548
G1 X96.908 Y101.650 E2.22554
G1 X97.447 Y101.552 E2.24327
G1 X97.796 Y101.460 E2.25497
G1 X96.763 Y100.426 E2.30227
G1 X97.752 Y100.336 E2.33441
G1 X98.246 Y100.831 E2.35705
G1 X99.147 Y101.010 F7800.000
G1 F600
G1 X99.019 Y101.103 E2.36217
G1 X99.185 Y101.048 E2.36782
G1 X98.652 Y100.516 E2.39220
G1 X98.991 Y100.267 E2.40580
G1 X99.474 Y100.259 E2.42143
G1 X99.968 Y100.753 E2.44407
G1 E0.44407 F2400.00000
G92 E0
G1 X80.629 Y96.933 F7800.000
G1 E2.00000 F2400.00000
G1 F600
G1 X80.132 Y96.436 E2.02273
G1 X80.050 Y96.384 E2.02589
G1 X79.893 Y96.708 E2.03754
G1 X79.469 Y96.562 E2.05206
G1 X79.244 Y96.597 E2.05942
G1 X79.286 Y96.669 E2.06211
G1 X80.903 Y98.286 E2.13612
G1 X80.781 Y98.227 E2.14048
G1 X80.416 Y97.936 E2.15560
G1 X79.980 Y97.466 E2.17635
G1 X79.781 Y97.163 E2.18808
G1 Z2.700 F7800.000
G1 E0.18808 F2400.00000
G92 E0
M107
; Filament-specific end gcode 
;END gcode for filament

M104 S0 ; turn off temperature
G28 X0  ; home X axis
M84     ; disable motors

M140 S0 ; set bed temperature
; filament used = 40.7mm (0.3cm3)
; total filament cost = 0.0

; avoid_crossing_perimeters = 0
; bed_shape = 0x0,200x0,200x200,0x200
; bed_temperature = 0
; before_layer_gcode = 
; between_objects_gcode = 
; bridge_acceleration = 0
; bridge_fan_speed = 100
; brim_connections_width = 0
; brim_width = 0
; complete_objects = 0
; cooling = 1
; default_acceleration = 0
; disable_fan_first_layers = 3
; duplicate_distance = 6
; end_filament_gcode = "; Filament-specific end gcode \n;END gcode for filament\n"
; end_gcode = M104 S0 ; turn off temperature\nG28 X0  ; home X axis\nM84     ; disable motors\n
; extruder_clearance_height = 20
; extruder_clearance_radius = 20
; extruder_offset = 0x0
; extrusion_axis = E
; extrusion_multiplier = 1
; fan_always_on = 0
; fan_below_layer_time = 60
; filament_colour = #FFFFFF
; filament_cost = 0
; filament_density = 0
; filament_diameter = 3
; filament_max_volumetric_speed = 0
; filament_notes = ""
; first_layer_acceleration = 0
; first_layer_bed_temperature = 0
; first_layer_extrusion_width = 200%
; first_layer_speed = 30
; first_layer_temperature = 205
; gcode_arcs = 0
; gcode_comments = 0
; gcode_flavor = reprap
; has_heatbed = 1
; infill_acceleration = 0
; infill_first = 0
; interior_brim_width = 0
; layer_gcode = 
; max_fan_speed = 100
; max_layer_height = 0.3
; max_print_speed = 80
; max_volumetric_speed = 0
; min_fan_speed = 35
; min_layer_height = 0.15
; min_print_speed = 10
; min_skirt_length = 0
; notes = 
; nozzle_diameter = 0.5
; only_retract_when_crossing_perimeters = 1
; ooze_prevention = 0
; output_filename_format = [input_filename_base].gcode
; perimeter_acceleration = 0
; post_process = 
; pressure_advance = 0
; printer_notes = 
; resolution = 0
; retract_before_travel = 2
; retract_layer_change = 0
; retract_length = 2
; retract_length_toolchange = 10
; retract_lift = 0
; retract_lift_above = 0
; retract_lift_below = 0
; retract_restart_extra = 0
; retract_restart_extra_toolchange = 0
; retract_speed = 40
; skirt_distance = 6
; skirt_height = 1
; skirts = 0
; slowdown_below_layer_time = 5
; spiral_vase = 0
; standby_temperature_delta = -5
; start_filament_gcode = "; Filament gcode\n"
; start_gcode = G28 ; home all axes\nG1 Z5 F5000 ; lift nozzle\n
; temperature = 200
; threads = 8
; toolchange_gcode = 
; travel_speed = 130
; use_firmware_retraction = 0
; use_relative_e_distances = 0
; use_set_and_wait_bed = 0
; use_set_and_wait_extruder = 0
; use_volumetric_e = 0
; vibration_limit = 0
; wipe = 0
; z_offset = 0
; z_steps_per_mm = 0
; adaptive_slicing = 0
; adaptive_slicing_quality = 75%
; dont_support_bridges = 1
; extrusion_width = 0
; first_layer_height = 0.3
; infill_only_where_needed = 0
; interface_shells = 0
; layer_height = 0.3
; match_horizontal_surfaces = 0
; raft_layers = 0
; regions_overlap = 0
; seam_position = aligned
; sequential_print_priority = 0
; support_material = 0
; support_material_angle = 0
; support_material_buildplate_only = 0
; support_material_contact_distance = 0.2
; support_material_enforce_layers = 0
; support_material_extruder = 1
; support_material_extrusion_width = 0
; support_material_interface_extruder = 1
; support_material_interface_extrusion_width = 0
; support_material_interface_layers = 3
; support_material_interface_spacing = 0
; support_material_interface_speed = 100%
; support_material_max_layers = 0
; support_material_pattern = pillars
; support_material_spacing = 2.5
; support_material_speed = 60
; support_material_threshold = 60%
; xy_size_compensation = 0
; bottom_infill_pattern = rectilinear
; bottom_solid_layers = 0
; bridge_flow_ratio = 1
; bridge_speed = 60
; external_perimeter_extrusion_width = 0
; external_perimeter_speed = 50%
; external_perimeters_first = 0
; extra_perimeters = 1
; fill_angle = 45
; fill_density = 90%
; fill_gaps = 1
; fill_pattern = rectilinear
; gap_fill_speed = 20
; infill_every_layers = 1
; infill_extruder = 1
; infill_extrusion_width = 0
; infill_overlap = 55%
; infill_speed = 80
; overhangs = 1
; perimeter_extruder = 1
; perimeter_extrusion_width = 0
; perimeter_speed = 60
; perimeters = 0
; small_perimeter_speed = 15
; solid_infill_below_area = 70
; solid_infill_every_layers = 0
; solid_infill_extruder = 1
; solid_infill_extrusion_width = 0
; solid_infill_speed = 20
; thin_walls = 1
; top_infill_extrusion_width = 0
; top_infill_pattern = rectilinear
; top_solid_infill_speed = 15
; top_solid_layers = 0
