; generated by Slic3r 1.3.0 on 2020-10-05 at 14:59:11

; external perimeters extrusion width = 0.55mm (4.37mm^3/s)
; perimeters extrusion width = 0.70mm (11.44mm^3/s)
; infill extrusion width = 0.63mm (13.45mm^3/s)
; solid infill extrusion width = 0.70mm (3.81mm^3/s)
; top infill extrusion width = 0.70mm (2.86mm^3/s)

M107
M104 S205 ; set temperature
G28 ; home all axes
G1 Z5 F5000 ; lift nozzle

; Filament gcode

M109 S205 ; set temperature and wait for it to be reached
G21 ; set units to millimeters
G90 ; use absolute coordinates
M82 ; use absolute distances for extrusion
G92 E0
G1 Z0.300 F7800.000
G1 E-2.00000 F2400.00000
G92 E0
G1 X84.692 Y96.536 F7800.000
G1 E2.00000 F2400.00000
G1 F1800
G1 X84.580 Y96.648 E2.00360
G1 X85.206 Y96.022 E2.02372
G1 X85.268 Y96.001 E2.02521
G1 X85.338 Y95.933 E2.02742
G1 X85.379 Y95.933 E2.02836
G1 X85.471 Y95.846 E2.03124
G1 X85.734 Y95.731 E2.03777
G1 X85.828 Y95.728 E2.03991
G1 X85.877 Y95.688 E2.04133
G1 X85.993 Y95.684 E2.04398
G1 X86.060 Y95.651 E2.04568
G1 X86.245 Y95.623 E2.04994
G1 X86.409 Y95.621 E2.05366
G1 X84.355 Y97.675 E2.11969
G1 X84.380 Y97.867 E2.12409
G1 X84.419 Y97.937 E2.12591
G1 X84.423 Y98.011 E2.12759
G1 X84.521 Y98.310 E2.13476
G1 X87.143 Y95.689 E2.21903
G1 X87.251 Y95.712 E2.22154
G1 X87.452 Y95.794 E2.22648
G1 X87.519 Y95.799 E2.22801
G1 X87.562 Y95.837 E2.22930
G1 X87.630 Y95.843 E2.23085
G1 X87.673 Y95.881 E2.23216
G1 X87.745 Y95.888 E2.23380
G1 X84.769 Y98.864 E2.32945
G1 X84.840 Y98.955 E2.33208
G1 X84.895 Y99.091 E2.33541
G1 X84.973 Y99.175 E2.33802
G1 X85.081 Y99.354 E2.34277
G1 X88.242 Y96.193 E2.44439
G1 X88.491 Y96.390 E2.45162
G1 X88.668 Y96.568 E2.45733
G1 X85.454 Y99.782 E2.56066
G1 X85.702 Y100.030 E2.56862
G1 X85.877 Y100.161 E2.57359
G1 X89.022 Y97.016 E2.67471
G1 X89.355 Y97.485 E2.68778
G1 X86.374 Y100.466 E2.78361
G1 X86.417 Y100.498 E2.78484
G1 X86.532 Y100.516 E2.78747
G1 X86.584 Y100.563 E2.78907
G1 X86.720 Y100.606 E2.79230
G1 X86.995 Y100.646 E2.79862
G1 X89.685 Y97.956 E2.88511
G1 X90.031 Y98.412 E2.89811
G1 X87.774 Y100.668 E2.97066
G1 X88.528 Y100.717 E2.98783
G1 X90.440 Y98.804 E3.04930
G1 X90.713 Y98.984 E3.05673
G1 X90.961 Y99.085 E3.06282
G1 X89.225 Y100.821 E3.11863
G1 X89.614 Y100.900 E3.12767
G1 X89.866 Y100.982 E3.13367
G1 X91.599 Y99.248 E3.18939
G1 X92.300 Y99.349 E3.20550
G1 X90.397 Y101.252 E3.26668
G1 E1.26668 F2400.00000
G92 E0
G1 X94.830 Y105.637 F7800.000
G1 E2.00000 F2400.00000
G1 F1800
G1 X95.681 Y104.786 E2.02735
G1 X95.550 Y104.650 E2.03164
G1 X95.344 Y104.321 E2.04046
G1 X94.661 Y105.004 E2.06241
G1 X94.309 Y104.554 E2.07539
G1 X95.071 Y103.792 E2.09987
G1 X94.952 Y103.510 E2.10684
G1 X94.775 Y103.287 E2.11332
G1 X93.937 Y104.125 E2.14024
G1 X93.606 Y103.655 E2.15332
G1 X94.426 Y102.834 E2.17970
G1 X94.278 Y102.566 E2.18667
G1 X94.265 Y102.500 E2.18820
G1 X94.282 Y102.177 E2.19555
G1 X93.205 Y103.253 E2.23017
G1 X92.846 Y103.008 E2.24006
G1 X92.800 Y102.995 E2.24115
G1 X92.775 Y102.919 E2.24295
G1 X92.744 Y102.913 E2.24368
G1 X96.907 Y98.750 E2.37752
G1 X96.830 Y98.767 E2.37931
G1 X96.820 Y98.802 E2.38013
G1 X96.604 Y98.816 E2.38505
G1 X95.876 Y98.980 E2.40203
G1 X92.361 Y102.494 E2.51500
G1 X92.145 Y102.144 E2.52437
G1 X92.026 Y102.028 E2.52814
G1 X94.891 Y99.163 E2.62024
G1 X94.329 Y99.247 E2.63315
G1 X94.043 Y99.209 E2.63971
G1 X91.431 Y101.821 E2.72368
G1 X91.317 Y101.807 E2.72629
G1 X91.078 Y101.680 E2.73245
G1 X91.014 Y101.622 E2.73441
G1 X90.970 Y101.616 E2.73543
G1 X90.886 Y101.565 E2.73766
G1 X94.308 Y98.143 E2.84767
G1 X94.645 Y97.565 E2.86289
G1 X94.859 Y97.056 E2.87543
G1 X94.851 Y96.798 E2.88130
G1 X92.951 Y98.698 E2.94237
G1 X93.083 Y98.409 E2.94960
G1 X93.428 Y97.895 E2.96366
G1 X93.593 Y97.606 E2.97123
G1 X93.657 Y97.411 E2.97589
G1 X93.660 Y97.188 E2.98098
G1 X94.644 Y96.203 E3.01263
G1 X94.627 Y95.997 E3.01733
G1 X94.659 Y95.897 E3.01973
G1 X94.747 Y95.729 E3.02403
G1 X94.887 Y95.563 E3.02896
G1 X94.777 Y95.555 E3.03147
G1 X94.660 Y95.512 E3.03429
G1 X94.586 Y95.459 E3.03635
G1 X93.333 Y96.713 E3.07664
G1 X93.125 Y96.622 E3.08179
G1 X93.229 Y96.560 E3.08455
G1 X93.324 Y96.472 E3.08749
G1 X93.410 Y96.327 E3.09132
G1 X93.442 Y96.222 E3.09382
G1 X93.446 Y96.109 E3.09638
G1 X93.429 Y95.984 E3.09925
G1 X93.382 Y95.863 E3.10222
G1 X93.832 Y95.413 E3.11669
G1 E1.11669 F2400.00000
G92 E0
G1 X96.907 Y98.750 F7800.000
G1 E2.00000 F2400.00000
G1 F1800
G1 X97.171 Y98.683 E2.00620
G1 X97.423 Y98.671 E2.01193
G1 X97.445 Y98.641 E2.01277
G1 X97.888 Y98.571 E2.02297
G1 X93.879 Y102.579 E2.15183
G1 X94.175 Y102.529 E2.15866
G1 X94.252 Y102.532 E2.16040
G1 X94.643 Y102.617 E2.16949
G1 X98.769 Y98.491 E2.30214
G1 X99.624 Y98.438 E2.32161
G1 X95.311 Y102.751 E2.46027
G1 X95.357 Y102.770 E2.46141
G1 X95.546 Y102.776 E2.46570
G1 X95.694 Y102.817 E2.46918
G1 X96.023 Y102.840 E2.47669
G1 X100.431 Y98.433 E2.61838
G1 X101.228 Y98.437 E2.63652
G1 X96.781 Y102.884 E2.77949
G1 E0.77949 F2400.00000
G92 E0
G1 X100.573 Y103.902 F7800.000
G1 E2.00000 F2400.00000
G1 F1800
G1 X100.722 Y103.938 E2.00350
G1 X100.893 Y103.935 E2.00738
G1 X101.532 Y103.744 E2.02254
G1 X102.627 Y102.649 E2.05774
G1 X102.627 Y102.679 E2.05843
G1 X102.813 Y102.793 E2.06337
G1 X102.943 Y102.855 E2.06665
G1 X103.156 Y102.922 E2.07172
G1 X102.343 Y103.734 E2.09785
G1 X102.638 Y103.832 E2.10489
G1 X102.892 Y103.988 E2.11167
G1 X103.895 Y102.984 E2.14393
G1 X104.077 Y102.941 E2.14818
G1 X104.068 Y103.099 E2.15176
G1 X104.085 Y103.226 E2.15469
G1 X104.225 Y103.391 E2.15960
G1 X104.043 Y103.574 E2.16545
G1 X104.036 Y103.645 E2.16708
G1 X103.468 Y104.213 E2.18536
G1 E0.18536 F2400.00000
G92 E0
G1 X103.559 Y96.908 F7800.000
G1 E2.00000 F2400.00000
G1 F1800
G1 X104.132 Y96.335 E2.01842
G1 X103.707 Y95.958 E2.03132
G1 X103.261 Y96.405 E2.04567
G1 X103.087 Y96.214 E2.05154
G1 X102.959 Y96.120 E2.05515
G1 X102.901 Y96.120 E2.05646
G1 X102.796 Y96.067 E2.05913
G1 X103.312 Y95.552 E2.07570
G1 X103.099 Y95.264 E2.08383
G1 X103.009 Y95.053 E2.08905
G1 X100.262 Y97.800 E2.17737
G1 X100.092 Y97.711 E2.18173
G1 X99.790 Y97.470 E2.19051
G1 X102.710 Y94.550 E2.28440
G1 X102.544 Y94.542 E2.28819
G1 X102.353 Y94.106 E2.29901
G1 X101.901 Y94.558 E2.31353
G1 X101.727 Y93.930 E2.32833
G1 X102.220 Y93.437 E2.34419
G1 X102.327 Y94.131 F7800.000
G1 F1800
G1 X102.354 Y94.256 E2.34710
G1 X102.353 Y94.416 E2.35074
G1 X102.339 Y94.493 E2.35252
G1 X102.239 Y94.678 E2.35729
G1 X102.084 Y94.789 E2.36163
G1 X101.893 Y94.833 E2.36607
G1 X101.994 Y94.950 E2.36957
G1 X101.995 Y95.219 E2.37569
G1 X101.860 Y95.376 E2.38040
G1 X101.638 Y95.549 E2.38680
G1 X101.259 Y95.754 E2.39659
G1 X100.768 Y95.956 E2.40865
G1 X100.358 Y96.100 E2.41853
G1 X99.461 Y96.997 E2.44737
G1 E0.44737 F2400.00000
G92 E0
G1 X101.899 Y96.965 F7800.000
G1 E2.00000 F2400.00000
G1 F1800
G1 X100.792 Y98.072 E2.03559
G1 X101.056 Y98.215 E2.04242
G1 X101.255 Y98.410 E2.04876
G1 X102.458 Y97.207 E2.08741
G1 X102.756 Y97.299 E2.09451
G1 X103.021 Y97.446 E2.10138
G1 X97.647 Y102.819 E2.27414
G1 X97.866 Y102.818 E2.27911
G1 X98.118 Y102.774 E2.28493
G1 X98.207 Y102.730 E2.28719
G1 X98.358 Y102.729 E2.29060
G1 X98.606 Y102.662 E2.29645
G1 X103.116 Y98.152 E2.44145
G1 X103.119 Y98.378 E2.44658
G1 X103.583 Y98.487 E2.45742
G1 X99.804 Y102.266 E2.57890
G1 X100.013 Y102.211 E2.58382
G1 X100.371 Y102.044 E2.59280
G1 X101.029 Y101.842 E2.60844
G1 X104.242 Y98.630 E2.71172
G1 X104.929 Y98.744 E2.72756
G1 X101.461 Y102.212 E2.83905
G1 X101.385 Y102.416 E2.84401
G1 X101.182 Y102.677 E2.85152
G1 X100.530 Y103.171 E2.87012
G1 X100.297 Y103.432 E2.87808
G1 X100.260 Y103.547 E2.88082
G1 X100.229 Y103.583 E2.88190
G1 X100.226 Y103.646 E2.88334
G1 X100.264 Y103.723 E2.88529
G1 X100.383 Y103.819 E2.88876
G1 X100.540 Y103.893 E2.89271
G1 X100.573 Y103.902 E2.89349
G1 X102.680 Y101.794 E2.96124
G1 X102.713 Y101.442 E2.96928
G1 X102.759 Y101.195 E2.97499
G1 X102.932 Y101.053 E2.98007
G1 X103.418 Y100.732 E2.99332
G1 X104.193 Y100.282 E3.01370
G1 X105.619 Y98.856 E3.05953
G1 X106.271 Y99.005 E3.07474
G1 X105.321 Y99.956 E3.10530
G1 X105.671 Y99.959 E3.11327
G1 X106.064 Y100.014 E3.12228
G1 X106.921 Y99.157 E3.14985
G1 X107.271 Y99.234 E3.15801
G1 X107.601 Y99.279 E3.16556
G1 X106.714 Y100.165 E3.19407
G1 X107.139 Y100.271 E3.20403
G1 X107.383 Y100.298 E3.20960
G1 X108.442 Y99.239 E3.24364
G1 X108.988 Y99.093 E3.25650
G1 X109.697 Y98.786 E3.27406
G1 X108.539 Y99.944 E3.31128
G1 X109.700 Y99.273 E3.34177
G1 X110.249 Y99.036 E3.35535
G1 X111.150 Y98.134 E3.38433
G1 X111.330 Y98.069 E3.38869
G1 X111.702 Y97.982 E3.39737
G1 X112.162 Y97.924 E3.40791
G1 X111.288 Y98.798 E3.43602
G1 X111.676 Y98.775 E3.44486
G1 X112.093 Y98.794 E3.45435
G1 X112.931 Y97.957 E3.48128
G1 X113.483 Y98.206 E3.49505
G1 X112.779 Y98.910 E3.51768
G1 X113.022 Y99.004 E3.52361
G1 X113.328 Y99.163 E3.53144
G1 X113.982 Y98.508 E3.55248
G1 X114.465 Y98.828 E3.56563
G1 X113.818 Y99.474 E3.58640
G1 X114.028 Y99.604 E3.59200
G1 X114.339 Y99.755 E3.59987
G1 X114.924 Y99.170 E3.61869
G1 X115.353 Y99.542 E3.63161
G1 X114.927 Y99.969 E3.64532
M104 S200 ; set temperature
G1 Z0.600 F7800.000
G1 E1.64532 F2400.00000
G92 E0
G1 X108.350 Y99.966 F7800.000
G1 E2.00000 F2400.00000
G1 F1970.84
G1 X107.885 Y99.500 E2.01565
G1 X107.419 Y99.986 F7800.000
G1 F1970.84
G1 X106.932 Y99.499 E2.03203
G1 X106.247 Y99.726 F7800.000
G1 F1970.84
G1 X105.782 Y99.261 E2.04769
G1 X105.336 Y99.766 F7800.000
G1 F1970.84
G1 X104.786 Y99.216 E2.06619
G1 X104.672 Y99.478 F7800.000
G1 F1970.84
G1 X104.139 Y98.944 E2.08415
G1 X103.737 Y98.879 E2.09383
G1 X103.130 Y98.749 E2.10859
G1 E0.10859 F2400.00000
G92 E0
G1 X102.900 Y96.079 F7800.000
G1 E2.00000 F2400.00000
G1 F1970.84
G1 X101.747 Y94.927 E2.03878
G1 X101.717 Y95.033 E2.04140
G1 X101.712 Y95.160 E2.04443
G1 X101.671 Y95.267 E2.04717
G1 X101.607 Y95.379 E2.05022
G1 X101.501 Y95.493 E2.05394
G1 X102.339 Y96.331 E2.08214
G1 X102.155 Y96.368 E2.08660
G1 X101.955 Y96.446 E2.09171
G1 X101.774 Y96.579 E2.09706
G1 X101.019 Y95.824 E2.12246
G1 X100.892 Y95.888 E2.12585
G1 X100.437 Y96.055 E2.13737
G1 X101.640 Y97.258 E2.17785
G1 X101.649 Y97.301 E2.17891
G1 X101.783 Y97.505 E2.18471
G1 X101.919 Y97.631 E2.18912
G1 X102.108 Y97.726 E2.19415
G1 X102.902 Y98.520 E2.22087
G1 X102.789 Y98.763 E2.22723
G1 X103.021 Y99.090 E2.23679
G1 X103.596 Y99.214 E2.25077
G1 X104.468 Y100.086 E2.28013
G1 X103.953 Y100.384 E2.29429
G1 X99.842 Y96.273 E2.43261
G1 X99.709 Y96.352 E2.43630
G1 X99.628 Y96.513 E2.44058
G1 X99.647 Y96.642 E2.44369
G1 X99.768 Y96.815 E2.44871
G1 X100.126 Y97.129 E2.46004
G1 X101.133 Y97.636 E2.48686
G1 X101.341 Y97.795 E2.49310
G1 X101.553 Y97.997 E2.50006
G1 X101.712 Y98.402 E2.51040
G1 X101.370 Y98.613 E2.51997
G1 X103.452 Y100.696 E2.59006
G1 X103.160 Y100.911 E2.59869
G1 X103.051 Y101.108 E2.60405
G1 X100.638 Y98.695 E2.68526
G1 X99.832 Y98.701 E2.70444
G1 X102.974 Y101.843 E2.81017
G1 X102.932 Y102.023 E2.81456
G1 X102.846 Y102.205 E2.81935
G1 X102.718 Y102.400 E2.82491
G1 X101.714 Y101.396 E2.85868
G1 X101.703 Y101.541 E2.86214
G1 X101.667 Y101.676 E2.86545
G1 X101.620 Y101.823 E2.86913
G1 X101.521 Y102.017 E2.87430
G1 X102.494 Y102.989 E2.90701
G1 X102.490 Y103.027 E2.90793
G1 X102.566 Y103.215 E2.91274
G1 X102.719 Y103.402 E2.91849
G1 X103.011 Y103.506 E2.92586
G1 X103.205 Y103.701 E2.93242
G1 X102.963 Y103.601 E2.93866
G1 X102.776 Y103.561 E2.94321
G1 X102.543 Y103.541 E2.94876
G1 X102.256 Y103.564 E2.95563
G1 X101.140 Y102.448 E2.99318
G1 X100.678 Y102.799 E3.00698
G1 X101.589 Y103.709 E3.03762
G1 X101.409 Y103.767 E3.04212
G1 X101.250 Y103.790 E3.04593
G1 X101.071 Y103.761 E3.05025
G1 X100.980 Y103.722 E3.05259
G1 X100.896 Y103.657 E3.05514
G1 X100.889 Y103.572 E3.05715
G1 X100.980 Y103.422 E3.06134
G1 X101.143 Y103.264 E3.06674
G1 X101.820 Y101.502 F7800.000
G1 F1970.84
G1 X99.037 Y98.720 E3.16037
G1 X98.267 Y98.763 E3.17871
G1 X101.171 Y101.666 E3.27642
G1 X100.557 Y101.865 E3.29178
G1 X97.523 Y98.831 E3.39386
G1 X96.826 Y98.947 E3.41068
G1 X99.966 Y102.087 E3.51634
G1 X99.349 Y102.283 E3.53173
G1 X96.159 Y99.093 E3.63908
G1 X95.488 Y99.235 E3.65540
G1 X98.709 Y102.456 E3.76378
G1 X98.051 Y102.565 E3.77965
G1 X98.009 Y102.568 E3.78067
G1 X94.803 Y99.363 E3.88852
G1 X94.097 Y99.469 E3.90552
G1 X97.230 Y102.602 E4.01093
G1 X96.941 Y102.599 E4.01780
G1 X96.369 Y102.554 E4.03145
G1 X92.766 Y98.951 E4.15269
G1 X92.671 Y99.090 E4.15669
G1 X92.529 Y99.232 E4.16148
G1 X92.357 Y99.355 E4.16650
G1 X95.421 Y102.419 E4.26961
G1 X94.422 Y102.233 E4.29379
G1 X91.775 Y99.585 E4.38288
G1 X91.499 Y99.566 E4.38946
G1 X91.071 Y99.494 E4.39978
G1 X90.804 Y99.428 E4.40632
G1 X93.368 Y101.992 E4.49260
G1 X92.809 Y102.183 E4.50666
G1 X92.945 Y102.382 E4.51238
G1 X92.347 Y101.784 E4.53251
G1 X92.094 Y101.378 E4.54387
G1 X91.913 Y101.240 E4.54930
G1 X91.772 Y101.208 E4.55274
G1 X86.480 Y95.916 E4.73080
G1 X86.453 Y95.911 E4.73145
G1 X86.348 Y96.103 E4.73665
G1 X86.046 Y96.019 E4.74411
G1 X85.859 Y96.108 E4.74904
G1 X90.527 Y100.776 E4.90610
G1 X90.112 Y100.651 E4.91640
G1 X89.455 Y100.518 E4.93234
G1 X85.086 Y96.148 E5.07936
G1 X84.833 Y96.346 E5.08700
G1 X84.680 Y96.555 E5.09317
G1 X88.544 Y100.419 E5.22319
G1 X87.695 Y100.383 E5.24340
G1 X84.655 Y97.342 E5.34570
G1 X84.696 Y97.526 E5.35017
G1 X84.841 Y97.938 E5.36059
G1 X84.974 Y98.244 E5.36851
G1 X85.199 Y98.621 E5.37896
G1 X85.484 Y98.985 E5.38997
G1 X85.950 Y99.450 E5.40562
G1 E3.40562 F2400.00000
G92 E0
G1 X92.766 Y98.951 F7800.000
G1 E2.00000 F2400.00000
G1 F1970.84
G1 X93.049 Y98.421 E2.01429
G1 X93.806 Y99.178 E2.03976
G1 X93.851 Y99.058 E2.04281
G1 X94.093 Y98.652 E2.05405
G1 X93.328 Y97.888 E2.07977
G1 X93.653 Y97.400 E2.09372
G1 X94.397 Y98.143 E2.11873
G1 X94.664 Y97.598 E2.13318
G1 X93.810 Y96.744 E2.16193
G1 X93.766 Y96.535 E2.16699
G1 X93.658 Y96.337 E2.17238
G1 X93.488 Y96.128 E2.17879
G1 X93.525 Y96.060 E2.18063
G1 X93.621 Y95.742 E2.18854
G1 X94.483 Y96.604 E2.21754
G1 E0.21754 F2400.00000
G92 E0
G1 X92.812 Y102.249 F7800.000
G1 E2.00000 F2400.00000
G1 F1970.84
G1 X93.078 Y102.674 E2.01193
G1 X93.156 Y102.765 E2.01478
G1 X93.627 Y103.063 E2.02804
G1 X92.858 Y102.294 E2.05392
G1 X93.164 Y102.189 E2.06163
G1 X93.139 Y101.763 E2.07179
G1 X93.994 Y102.618 E2.10057
G1 X93.161 Y102.598 F7800.000
G1 F1970.84
G1 X93.337 Y102.712 E2.10555
G1 X93.619 Y102.957 E2.11443
G1 X93.896 Y103.333 E2.12555
G1 X94.930 Y104.366 E2.16034
G1 E0.16034 F2400.00000
G92 E0
G1 X102.829 Y95.196 F7800.000
G1 E2.00000 F2400.00000
G1 F1970.84
G1 X102.364 Y94.731 E2.01565
G1 Z0.900 F7800.000
G1 E0.01565 F2400.00000
G92 E0
G1 X100.696 Y96.564 F7800.000
G1 E2.00000 F2400.00000
G1 F1049.71
G1 X100.230 Y97.030 E2.01569
G1 X100.756 Y97.420 F7800.000
G1 F1049.71
G1 X101.221 Y96.955 E2.03135
G1 E0.03135 F2400.00000
G92 E0
G1 X103.147 Y100.093 F7800.000
G1 E2.00000 F2400.00000
G1 F1049.71
G1 X103.612 Y99.627 E2.01566
G1 X103.423 Y99.716 E2.02063
G1 X103.169 Y99.255 E2.03314
G1 X101.462 Y100.963 E2.09058
G1 X101.048 Y101.117 E2.10110
G1 X100.254 Y101.356 E2.12083
G1 X102.554 Y99.057 E2.19821
G1 X102.034 Y99.049 E2.21057
G1 X101.717 Y99.079 E2.21815
G1 X98.986 Y101.809 E2.31004
G1 X98.064 Y102.057 E2.33274
G1 X97.897 Y102.083 E2.33678
G1 X100.851 Y99.129 E2.43618
G1 X100.036 Y99.130 E2.45557
G1 X96.999 Y102.167 E2.55778
G1 X96.499 Y102.171 E2.56966
G1 X96.201 Y102.150 E2.57677
G1 X99.191 Y99.160 E2.67737
G1 X98.301 Y99.236 E2.69862
G1 X95.465 Y102.071 E2.79403
G1 X94.770 Y101.951 E2.81080
G1 X97.352 Y99.369 E2.89768
G1 X96.307 Y99.600 E2.92316
G1 X94.100 Y101.806 E2.99741
G1 X93.435 Y101.657 E3.01364
G1 X95.300 Y99.791 E3.07641
G1 X94.352 Y99.925 E3.09919
G1 X92.666 Y101.611 E3.15594
G1 X92.601 Y101.615 E3.15748
G1 X92.571 Y101.535 E3.15950
G1 X92.369 Y101.413 E3.16512
G1 X92.129 Y101.333 E3.17114
G1 X93.465 Y99.997 E3.21608
G1 X93.383 Y99.973 E3.21811
G1 X93.256 Y99.973 E3.22115
G1 X93.013 Y99.832 E3.22783
G1 X92.913 Y99.870 E3.23037
G1 X92.854 Y99.922 E3.23224
G1 X92.642 Y100.005 E3.23767
G1 X91.518 Y101.129 E3.27548
G1 X91.179 Y100.924 E3.28493
G1 X91.234 Y100.874 E3.28669
G1 X91.366 Y100.869 E3.28984
G1 X91.373 Y100.750 E3.29268
G1 X91.467 Y100.666 E3.29568
G1 X91.383 Y100.557 E3.29893
G1 X91.389 Y100.443 E3.30165
G1 X91.855 Y99.978 E3.31731
G1 X90.660 Y100.610 F7800.000
G1 F1049.71
G1 X91.125 Y100.144 E3.33297
G1 X90.994 Y100.018 E3.33731
G1 X91.359 Y99.889 E3.34654
G1 X90.678 Y99.708 E3.36332
G1 X90.058 Y100.328 E3.38418
G1 X89.544 Y100.188 E3.39686
G1 X89.705 Y100.149 E3.40080
G1 X89.642 Y99.860 E3.40784
G1 X90.107 Y99.395 E3.42350
G1 X89.143 Y100.111 F7800.000
G1 F1049.71
G1 X89.609 Y99.646 E3.43916
G1 X89.469 Y99.367 E3.44657
G1 X89.814 Y99.152 E3.45625
G1 X89.524 Y98.855 E3.46612
G1 X88.372 Y100.007 E3.50488
G1 X87.539 Y99.964 E3.52471
G1 X89.143 Y98.360 E3.57869
G1 X88.780 Y97.848 E3.59363
G1 X86.745 Y99.882 E3.66208
G1 X86.585 Y99.811 E3.66625
G1 X86.360 Y99.664 E3.67266
G1 X86.212 Y99.540 E3.67724
G1 X88.416 Y97.336 E3.75139
G1 X88.196 Y97.068 E3.75966
G1 X87.998 Y96.879 E3.76616
G1 X85.654 Y99.223 E3.84504
G1 X85.469 Y99.110 E3.85019
G1 X85.295 Y98.896 E3.85676
G1 X85.230 Y98.771 E3.86010
G1 X87.474 Y96.528 E3.93559
G1 X87.393 Y96.483 E3.93778
G1 X87.204 Y96.299 E3.94406
G1 X87.194 Y96.326 E3.94475
G1 X86.901 Y96.225 E3.95212
G1 X85.128 Y97.998 E4.01177
G1 X85.047 Y97.641 E4.02047
G1 X85.022 Y97.400 E4.02623
G1 X85.036 Y97.280 E4.02912
G1 X85.068 Y97.207 E4.03101
G1 X85.153 Y97.097 E4.03432
G1 X85.620 Y96.631 E4.05001
M106 S255
G1 Z1.200 F7800.000
G1 E2.05001 F2400.00000
G92 E0
G1 X93.215 Y100.914 F7800.000
G1 E2.00000 F2400.00000
G1 F600.917
G1 X92.760 Y100.924 E2.01084
G1 X93.393 Y101.092 E2.02643
G1 X92.750 Y100.449 E2.04808
G1 X93.636 Y100.384 E2.06923
G1 X94.102 Y100.849 E2.08489
G1 X94.364 Y101.318 F7800.000
G1 F600.917
G1 X93.899 Y100.853 E2.10054
G1 X94.244 Y100.656 E2.11000
G1 X94.135 Y100.325 E2.11827
G1 X94.169 Y100.321 E2.11907
G1 X95.385 Y101.538 E2.16001
G1 X95.872 Y101.634 E2.17180
G1 X96.336 Y101.687 E2.18293
G1 X94.869 Y100.220 E2.23233
G1 X95.546 Y100.095 E2.24871
G1 X97.194 Y101.744 E2.30418
G1 X97.964 Y101.712 E2.32251
G1 X96.207 Y99.955 E2.38165
G1 X96.864 Y99.810 E2.39765
G1 X98.638 Y101.585 E2.45736
G1 X99.271 Y101.416 E2.47294
G1 X97.546 Y99.691 E2.53099
G1 X98.280 Y99.623 E2.54852
G1 X99.873 Y101.216 E2.60214
G1 X100.449 Y100.991 E2.61685
G1 X99.035 Y99.576 E2.66444
G1 X99.820 Y99.560 E2.68313
G1 X101.065 Y100.805 E2.72502
G1 X101.663 Y100.601 E2.74004
G1 X100.619 Y99.558 E2.77515
G1 X101.363 Y99.500 E2.79291
G1 X101.828 Y99.965 E2.80857
G1 X101.945 Y99.831 F7800.000
G1 F600.917
G1 X102.410 Y100.296 E2.82422
G1 X102.968 Y99.987 F7800.000
G1 F600.917
G1 X102.503 Y99.522 E2.83988
G1 E0.83988 F2400.00000
G92 E0
G1 X89.057 Y99.601 F7800.000
G1 E2.00000 F2400.00000
G1 F600.917
G1 X85.732 Y96.276 E2.11188
G1 X85.717 Y96.304 E2.11263
G1 X85.725 Y96.616 E2.12006
G1 X85.652 Y96.764 E2.12399
G1 X85.527 Y96.877 E2.12800
G1 X88.193 Y99.543 E2.21771
G1 X87.524 Y99.518 E2.23366
G1 X87.351 Y99.474 E2.23789
G1 X87.279 Y99.435 E2.23985
G1 X85.522 Y97.678 E2.29897
G1 X85.214 Y97.828 E2.30713
G1 X85.240 Y98.034 E2.31207
G1 X85.386 Y98.348 E2.32030
G1 X85.851 Y98.813 E2.33596
G1 E0.33596 F2400.00000
G92 E0
G1 X87.066 Y96.805 F7800.000
G1 E2.00000 F2400.00000
G1 F600.917
G1 X86.601 Y96.339 E2.01565
G1 Z1.500 F7800.000
G1 E0.01565 F2400.00000
G92 E0
G1 X95.421 Y100.639 F7800.000
G1 E2.00000 F2400.00000
G1 F600
G1 X94.956 Y101.104 E2.01566
G1 X95.560 Y101.224 E2.03033
G1 X95.730 Y101.240 E2.03439
G1 X96.548 Y100.422 E2.06191
G1 X97.708 Y100.172 E2.09014
G1 X96.566 Y101.314 E2.12856
G1 X97.469 Y101.285 E2.15005
G1 X97.514 Y101.277 E2.15114
G1 X98.736 Y100.055 E2.19227
G1 X99.011 Y100.029 E2.19884
G1 X99.171 Y100.530 E2.21134
G1 X98.706 Y100.996 E2.22700
G1 X99.289 Y100.482 F7800.000
G1 F600
G1 X99.777 Y99.994 E2.24341
G1 X100.262 Y100.460 F7800.000
G1 F600
G1 X100.728 Y99.995 E2.25906
G1 E0.25906 F2400.00000
G92 E0
G1 X87.838 Y99.120 F7800.000
G1 E2.00000 F2400.00000
G1 F600
G1 X88.303 Y98.655 E2.01566
G1 X87.953 Y98.158 E2.03014
G1 X87.042 Y99.068 E2.06078
G1 X86.932 Y99.013 E2.06371
G1 X86.668 Y98.805 E2.07171
G1 X86.565 Y98.697 E2.07525
G1 X87.586 Y97.676 E2.10961
G1 X87.410 Y97.499 E2.11555
G1 X87.108 Y97.306 E2.12408
G1 X86.192 Y98.222 E2.15489
G1 X86.099 Y98.062 E2.15929
G1 X85.975 Y97.784 E2.16652
G1 X85.934 Y97.632 E2.17028
G1 X86.399 Y97.166 E2.18594
G1 Z1.800 F7800.000
G1 E0.18594 F2400.00000
G92 E0
M107
; Filament-specific end gcode 
;END gcode for filament

M104 S0 ; turn off temperature
G28 X0  ; home X axis
M84     ; disable motors

M140 S0 ; set bed temperature
; filament used = 13.1mm (0.1cm3)
; total filament cost = 0.0

; avoid_crossing_perimeters = 0
; bed_shape = 0x0,200x0,200x200,0x200
; bed_temperature = 0
; before_layer_gcode = 
; between_objects_gcode = 
; bridge_acceleration = 0
; bridge_fan_speed = 100
; brim_connections_width = 0
; brim_width = 0
; complete_objects = 0
; cooling = 1
; default_acceleration = 0
; disable_fan_first_layers = 3
; duplicate_distance = 6
; end_filament_gcode = "; Filament-specific end gcode \n;END gcode for filament\n"
; end_gcode = M104 S0 ; turn off temperature\nG28 X0  ; home X axis\nM84     ; disable motors\n
; extruder_clearance_height = 20
; extruder_clearance_radius = 20
; extruder_offset = 0x0
; extrusion_axis = E
; extrusion_multiplier = 1
; fan_always_on = 0
; fan_below_layer_time = 60
; filament_colour = #FFFFFF
; filament_cost = 0
; filament_density = 0
; filament_diameter = 3
; filament_max_volumetric_speed = 0
; filament_notes = ""
; first_layer_acceleration = 0
; first_layer_bed_temperature = 0
; first_layer_extrusion_width = 200%
; first_layer_speed = 30
; first_layer_temperature = 205
; gcode_arcs = 0
; gcode_comments = 0
; gcode_flavor = reprap
; has_heatbed = 1
; infill_acceleration = 0
; infill_first = 0
; interior_brim_width = 0
; layer_gcode = 
; max_fan_speed = 100
; max_layer_height = 0.3
; max_print_speed = 80
; max_volumetric_speed = 0
; min_fan_speed = 35
; min_layer_height = 0.15
; min_print_speed = 10
; min_skirt_length = 0
; notes = 
; nozzle_diameter = 0.5
; only_retract_when_crossing_perimeters = 1
; ooze_prevention = 0
; output_filename_format = [input_filename_base].gcode
; perimeter_acceleration = 0
; post_process = 
; pressure_advance = 0
; printer_notes = 
; resolution = 0
; retract_before_travel = 2
; retract_layer_change = 0
; retract_length = 2
; retract_length_toolchange = 10
; retract_lift = 0
; retract_lift_above = 0
; retract_lift_below = 0
; retract_restart_extra = 0
; retract_restart_extra_toolchange = 0
; retract_speed = 40
; skirt_distance = 6
; skirt_height = 1
; skirts = 0
; slowdown_below_layer_time = 5
; spiral_vase = 0
; standby_temperature_delta = -5
; start_filament_gcode = "; Filament gcode\n"
; start_gcode = G28 ; home all axes\nG1 Z5 F5000 ; lift nozzle\n
; temperature = 200
; threads = 8
; toolchange_gcode = 
; travel_speed = 130
; use_firmware_retraction = 0
; use_relative_e_distances = 0
; use_set_and_wait_bed = 0
; use_set_and_wait_extruder = 0
; use_volumetric_e = 0
; vibration_limit = 0
; wipe = 0
; z_offset = 0
; z_steps_per_mm = 0
; adaptive_slicing = 0
; adaptive_slicing_quality = 75%
; dont_support_bridges = 1
; extrusion_width = 0
; first_layer_height = 0.3
; infill_only_where_needed = 0
; interface_shells = 0
; layer_height = 0.3
; match_horizontal_surfaces = 0
; raft_layers = 0
; regions_overlap = 0
; seam_position = aligned
; sequential_print_priority = 0
; support_material = 0
; support_material_angle = 0
; support_material_buildplate_only = 0
; support_material_contact_distance = 0.2
; support_material_enforce_layers = 0
; support_material_extruder = 1
; support_material_extrusion_width = 0
; support_material_interface_extruder = 1
; support_material_interface_extrusion_width = 0
; support_material_interface_layers = 3
; support_material_interface_spacing = 0
; support_material_interface_speed = 100%
; support_material_max_layers = 0
; support_material_pattern = pillars
; support_material_spacing = 2.5
; support_material_speed = 60
; support_material_threshold = 60%
; xy_size_compensation = 0
; bottom_infill_pattern = rectilinear
; bottom_solid_layers = 0
; bridge_flow_ratio = 1
; bridge_speed = 60
; external_perimeter_extrusion_width = 0
; external_perimeter_speed = 50%
; external_perimeters_first = 0
; extra_perimeters = 1
; fill_angle = 45
; fill_density = 100%
; fill_gaps = 1
; fill_pattern = rectilinear
; gap_fill_speed = 20
; infill_every_layers = 1
; infill_extruder = 1
; infill_extrusion_width = 0
; infill_overlap = 55%
; infill_speed = 80
; overhangs = 1
; perimeter_extruder = 1
; perimeter_extrusion_width = 0
; perimeter_speed = 60
; perimeters = 0
; small_perimeter_speed = 15
; solid_infill_below_area = 70
; solid_infill_every_layers = 0
; solid_infill_extruder = 1
; solid_infill_extrusion_width = 0
; solid_infill_speed = 20
; thin_walls = 1
; top_infill_extrusion_width = 0
; top_infill_pattern = rectilinear
; top_solid_infill_speed = 15
; top_solid_layers = 0
