; generated by Slic3r 1.3.0 on 2020-03-10 at 16:14:29

; external perimeters extrusion width = 0.55mm (6.64mm^3/s)
; perimeters extrusion width = 0.52mm (12.53mm^3/s)
; infill extrusion width = 0.52mm (16.71mm^3/s)
; solid infill extrusion width = 0.52mm (4.18mm^3/s)
; top infill extrusion width = 0.52mm (3.13mm^3/s)

M107
M104 S205 ; set temperature
G28 ; home all axes
G1 Z5 F5000 ; lift nozzle

; Filament gcode

M109 S205 ; set temperature and wait for it to be reached
G21 ; set units to millimeters
G90 ; use absolute coordinates
M82 ; use absolute distances for extrusion
G92 E0
G1 Z0.300 F7800.000
G1 E-2.00000 F2400.00000
G92 E0
G1 X82.184 Y93.150 F7800.000
G1 E2.00000 F2400.00000
G1 F1800
G1 X80.533 Y94.801 E2.05307
G1 X80.444 Y95.040 E2.05887
G1 X80.444 Y95.164 E2.06169
G1 X80.420 Y95.195 E2.06258
G1 X80.389 Y95.341 E2.06598
G1 X80.389 Y95.463 E2.06875
G1 X80.362 Y95.535 E2.07050
G1 X80.366 Y95.849 E2.07762
G1 X83.236 Y92.979 E2.16987
G1 X83.404 Y92.980 E2.17370
G1 X83.430 Y93.013 E2.17466
G1 X83.599 Y93.015 E2.17849
G1 X83.625 Y93.049 E2.17946
G1 X83.738 Y93.050 E2.18202
G1 X83.759 Y93.077 E2.18279
G1 X83.875 Y93.084 E2.18545
G1 X83.896 Y93.110 E2.18621
G1 X83.979 Y93.117 E2.18811
G1 X80.473 Y96.623 E2.30082
G1 X80.500 Y96.671 E2.30207
G1 X80.501 Y96.778 E2.30452
G1 X80.525 Y96.809 E2.30542
G1 X80.529 Y96.894 E2.30734
G1 X80.614 Y97.226 E2.31514
G1 X80.658 Y97.319 E2.31747
G1 X84.583 Y93.393 E2.44367
G1 X84.627 Y93.399 E2.44468
G1 X84.790 Y93.502 E2.44906
G1 X84.944 Y93.657 E2.45402
G1 X84.995 Y93.657 E2.45517
G1 X85.114 Y93.744 E2.45853
G1 X80.871 Y97.986 E2.59491
G1 X80.921 Y98.057 E2.59686
G1 X80.991 Y98.256 E2.60166
G1 X81.033 Y98.315 E2.60331
G1 X81.045 Y98.393 E2.60511
G1 X81.146 Y98.593 E2.61019
G1 X85.565 Y94.173 E2.75227
G1 X85.939 Y94.680 E2.76659
G1 X81.459 Y99.161 E2.91062
G1 X81.573 Y99.313 E2.91496
G1 X81.603 Y99.385 E2.91673
G1 X81.829 Y99.672 E2.92502
G1 X86.277 Y95.223 E3.06805
G1 X86.598 Y95.783 E3.08272
G1 X82.232 Y100.150 E3.22310
G1 X82.385 Y100.310 E3.22815
G1 X82.408 Y100.310 E3.22867
G1 X82.467 Y100.382 E3.23078
G1 X82.496 Y100.382 E3.23142
G1 X82.617 Y100.534 E3.23586
G1 X82.681 Y100.581 E3.23767
G1 X86.912 Y96.350 E3.37368
G1 X87.223 Y96.920 E3.38844
G1 X83.230 Y100.914 E3.51684
G1 X83.274 Y100.951 E3.51816
G1 X83.393 Y100.953 E3.52086
G1 X83.466 Y101.021 E3.52312
G1 X83.616 Y101.024 E3.52655
G1 X83.643 Y101.058 E3.52754
G1 X83.787 Y101.063 E3.53081
G1 X83.809 Y101.091 E3.53163
G1 X83.933 Y101.092 E3.53443
G1 X87.558 Y97.466 E3.65097
G1 X87.937 Y97.968 E3.66527
G1 X84.779 Y101.126 E3.76678
G1 X85.021 Y101.127 E3.77227
G1 X85.079 Y101.160 E3.77379
G1 X85.570 Y101.163 E3.78496
G1 X85.593 Y101.193 E3.78581
G1 X88.418 Y98.369 E3.87661
G1 X88.432 Y98.388 E3.87716
G1 X88.532 Y98.405 E3.87944
G1 X88.664 Y98.505 E3.88322
G1 X88.755 Y98.515 E3.88529
G1 X88.784 Y98.552 E3.88637
G1 X88.870 Y98.555 E3.88833
G1 X88.893 Y98.585 E3.88919
G1 X89.059 Y98.608 E3.89299
G1 X86.352 Y101.315 E3.98002
G1 X86.393 Y101.339 E3.98111
G1 X86.577 Y101.344 E3.98530
G1 X86.602 Y101.376 E3.98621
G1 X86.717 Y101.379 E3.98881
G1 X86.742 Y101.411 E3.98973
G1 X86.841 Y101.446 E3.99211
G1 X87.055 Y101.493 E3.99711
G1 X89.743 Y98.805 E4.08352
G1 X89.820 Y98.807 E4.08526
G1 X89.839 Y98.832 E4.08599
G1 X90.120 Y98.844 E4.09237
G1 X90.156 Y98.877 E4.09347
G1 X90.554 Y98.875 E4.10253
G1 X87.648 Y101.781 E4.19595
G1 E2.19595 F2400.00000
G92 E0
G1 X91.381 Y105.095 F7800.000
G1 E2.00000 F2400.00000
G1 F1800
G1 X91.422 Y105.097 E2.00093
G1 X91.507 Y105.202 E2.00401
G1 X91.535 Y105.202 E2.00464
G1 X91.809 Y105.548 E2.01468
G1 X92.983 Y104.374 E2.05241
G1 X93.227 Y104.807 E2.06369
G1 X93.246 Y104.893 E2.06570
G1 X93.302 Y104.936 E2.06732
G1 X92.147 Y106.091 E2.10443
G1 X92.319 Y106.443 E2.11334
G1 X92.460 Y106.659 E2.11920
G1 X93.633 Y105.486 E2.15692
G1 X93.690 Y105.522 E2.15845
G1 X93.759 Y105.664 E2.16204
G1 X93.775 Y105.763 E2.16432
G1 X93.821 Y105.857 E2.16670
G1 X93.892 Y106.108 E2.17263
G1 X92.820 Y107.180 E2.20709
G1 X93.167 Y107.714 E2.22156
G1 X94.145 Y106.736 E2.25300
G1 X94.281 Y107.062 E2.26102
G1 X94.430 Y107.332 E2.26803
G1 X93.367 Y108.395 E2.30220
G1 X93.295 Y108.568 E2.30648
G1 X93.143 Y108.763 E2.31208
G1 X93.023 Y108.875 E2.31583
G1 X93.405 Y108.861 E2.32454
G1 X93.460 Y108.928 E2.32650
G1 X93.488 Y108.928 E2.32715
G1 X93.588 Y109.055 E2.33081
G1 X94.895 Y107.748 E2.37282
G1 X95.017 Y107.748 E2.37560
G1 X95.150 Y107.672 E2.37908
G1 X95.274 Y107.552 E2.38300
G1 X95.424 Y107.363 E2.38848
G1 X95.447 Y107.363 E2.38901
G1 X95.604 Y107.168 E2.39471
G1 X95.698 Y107.106 E2.39726
G1 X95.697 Y107.232 E2.40011
G1 X95.656 Y107.333 E2.40259
G1 X95.599 Y107.405 E2.40468
G1 X95.576 Y107.405 E2.40522
G1 X95.477 Y107.525 E2.40874
G1 X95.317 Y107.625 E2.41303
G1 X95.235 Y107.637 E2.41491
G1 X95.150 Y107.684 E2.41713
G1 X95.026 Y107.775 E2.42062
G1 X94.934 Y107.859 E2.42345
G1 X94.823 Y108.001 E2.42757
G1 X94.746 Y108.175 E2.43188
G1 X94.745 Y108.443 E2.43797
G1 X94.752 Y108.534 E2.44004
G1 X94.832 Y108.691 E2.44407
G1 X94.204 Y109.320 E2.46428
G1 X93.926 Y110.478 F7800.000
G1 F1800
G1 X93.855 Y110.619 E2.46787
G1 X93.854 Y110.806 E2.47211
G1 X93.903 Y110.892 E2.47438
G1 X93.981 Y110.911 E2.47621
G1 X93.990 Y110.438 E2.48695
G1 X94.013 Y110.392 E2.48813
G1 X93.500 Y110.905 E2.50461
G1 X95.260 Y110.025 F7800.000
G1 F1800
G1 X95.907 Y109.378 E2.52541
G1 X96.005 Y109.592 E2.53076
G1 X96.032 Y109.732 E2.53400
G1 X96.032 Y109.824 E2.53609
G1 X96.005 Y109.929 E2.53855
G1 X95.953 Y110.012 E2.54077
G1 X95.824 Y109.866 E2.54519
G1 X95.817 Y109.823 E2.54619
G1 X95.686 Y109.599 E2.55208
G1 E0.55208 F2400.00000
G92 E0
G1 X103.466 Y108.867 F7800.000
G1 E2.00000 F2400.00000
G1 F1800
G1 X104.263 Y108.070 E2.02561
G1 X104.263 Y108.315 E2.03118
G1 X104.237 Y108.420 E2.03363
G1 X104.209 Y108.456 E2.03467
G1 X104.209 Y108.544 E2.03668
G1 X104.069 Y108.831 E2.04394
G1 X103.914 Y108.973 E2.04871
G1 X103.838 Y108.798 E2.05305
G1 X103.838 Y108.687 E2.05557
G1 X103.862 Y108.657 E2.05645
G1 X103.865 Y108.538 E2.05915
G1 X103.891 Y108.498 E2.06021
G1 X103.892 Y108.441 E2.06153
G1 X105.516 Y107.698 F7800.000
G1 F1800
G1 X105.463 Y107.638 E2.06334
G1 X105.413 Y107.638 E2.06450
G1 X105.385 Y107.602 E2.06552
G1 X105.302 Y107.567 E2.06757
G1 X105.246 Y107.497 E2.06961
G1 X105.218 Y107.497 E2.07024
G1 X105.076 Y107.316 E2.07547
G1 X105.142 Y107.430 E2.07847
G1 X105.142 Y107.464 E2.07925
G1 X105.335 Y107.714 E2.08643
G1 X105.335 Y107.748 E2.08720
G1 X105.393 Y107.821 E2.08932
G1 X105.942 Y107.272 E2.10698
G1 X106.034 Y107.318 E2.10933
G1 X106.062 Y107.353 E2.11036
G1 X106.090 Y107.353 E2.11099
G1 X106.118 Y107.389 E2.11202
G1 X106.146 Y107.389 E2.11265
G1 X106.174 Y107.425 E2.11368
G1 X106.226 Y107.425 E2.11486
G1 X106.288 Y107.463 E2.11651
G1 X106.341 Y107.532 E2.11850
G1 X106.426 Y107.568 E2.12059
G1 X106.471 Y107.624 E2.12222
G1 X105.749 Y108.346 E2.14542
G1 X104.650 Y106.802 F7800.000
G1 F1800
G1 X105.118 Y106.334 E2.16047
G1 X105.180 Y106.447 E2.16339
G1 X105.077 Y106.376 E2.16624
G1 X106.663 Y106.551 F7800.000
G1 F1800
G1 X107.323 Y105.891 E2.18746
G1 X107.322 Y105.727 E2.19120
G1 X107.289 Y105.656 E2.19298
G1 X107.161 Y105.643 E2.19590
G1 X107.141 Y105.623 E2.19654
G1 X107.117 Y105.623 E2.19709
G1 X107.093 Y105.654 E2.19796
G1 X106.678 Y105.655 E2.20741
G1 X106.000 Y106.333 E2.22920
G1 X105.896 Y106.256 E2.23213
G1 X105.750 Y106.212 E2.23561
G1 X105.716 Y106.169 E2.23683
G1 X105.660 Y106.168 E2.23812
G1 X105.644 Y106.148 E2.23869
G1 X105.583 Y106.141 E2.24009
G1 X105.558 Y106.109 E2.24102
G1 X105.440 Y106.099 E2.24372
G1 X105.418 Y106.071 E2.24452
G1 X105.383 Y106.069 E2.24531
G1 X105.838 Y105.614 E2.25993
G1 X105.808 Y105.586 E2.26088
G1 X105.636 Y105.580 E2.26478
G1 X105.536 Y105.510 E2.26757
G1 X105.430 Y105.495 E2.26999
G1 X105.400 Y105.457 E2.27109
G1 X105.313 Y105.413 E2.27331
G1 X105.245 Y105.326 E2.27583
G1 X103.836 Y106.735 E2.32114
G1 X103.769 Y106.566 E2.32528
G1 X103.611 Y106.365 E2.33109
G1 X103.465 Y106.225 E2.33569
G1 X105.118 Y104.572 E2.38883
G1 X105.079 Y104.579 E2.38974
G1 X105.046 Y104.611 E2.39079
G1 X104.957 Y104.622 E2.39282
G1 X104.929 Y104.649 E2.39371
G1 X104.819 Y104.661 E2.39623
G1 X104.727 Y104.724 E2.39877
G1 X104.297 Y104.732 E2.40854
G1 X104.233 Y104.697 E2.41019
G1 X104.118 Y104.691 E2.41282
G1 X102.824 Y105.986 E2.45442
G1 X102.734 Y105.983 E2.45645
G1 X102.704 Y105.955 E2.45739
G1 X102.340 Y105.954 E2.46565
G1 X102.309 Y105.982 E2.46660
G1 X102.088 Y105.989 E2.47162
G1 X102.053 Y106.021 E2.47270
G1 X101.944 Y106.027 E2.47518
G1 X101.908 Y106.061 E2.47631
G1 X101.862 Y106.066 E2.47736
G1 X103.504 Y104.424 E2.53016
G1 X103.427 Y104.326 E2.53301
G1 X103.314 Y104.229 E2.53637
G1 X103.314 Y103.988 E2.54185
G1 X103.547 Y103.501 E2.55414
G1 X100.760 Y106.287 E2.64372
G1 X100.721 Y106.256 E2.64485
G1 X100.639 Y106.242 E2.64675
G1 X100.506 Y106.141 E2.65055
G1 X100.343 Y105.969 E2.65594
G1 X100.309 Y105.858 E2.65857
G1 X103.926 Y102.241 E2.77487
G1 E0.77487 F2400.00000
G92 E0
G1 X101.509 Y97.610 F7800.000
G1 E2.00000 F2400.00000
G1 F1800
G1 X103.463 Y95.657 E2.06279
G1 X103.405 Y95.652 E2.06411
G1 X103.325 Y95.569 E2.06671
G1 X103.031 Y95.491 E2.07362
G1 X103.008 Y95.470 E2.07433
G1 X102.907 Y95.470 E2.07664
G1 X102.819 Y95.419 E2.07895
G1 X101.161 Y97.077 E2.13223
G1 X100.951 Y96.948 E2.13783
G1 X100.854 Y96.829 E2.14133
G1 X100.791 Y96.829 E2.14276
G1 X100.630 Y96.727 E2.14709
G1 X102.304 Y95.054 E2.20088
G1 E0.20088 F2400.00000
G92 E0
G1 X104.305 Y94.814 F7800.000
G1 E2.00000 F2400.00000
G1 F1800
G1 X105.064 Y94.055 E2.02442
G1 X104.992 Y93.965 E2.02705
G1 X104.933 Y93.924 E2.02868
G1 X104.660 Y93.578 E2.03869
G1 X104.035 Y94.203 E2.05877
G1 X103.815 Y93.922 E2.06688
G1 X103.788 Y93.922 E2.06750
G1 X103.761 Y93.888 E2.06847
G1 X103.705 Y93.888 E2.06975
G1 X103.601 Y93.756 E2.07356
G1 X104.272 Y93.085 E2.09512
G1 X104.148 Y92.924 E2.09973
G1 X103.928 Y92.548 E2.10964
G1 X100.110 Y96.366 E2.23237
G1 X99.922 Y96.206 E2.23799
G1 X99.672 Y95.923 E2.24657
G1 X103.789 Y91.806 E2.37893
G1 X103.791 Y91.762 E2.37992
G1 X103.895 Y91.528 E2.38575
G1 X104.037 Y91.359 E2.39077
G1 X104.060 Y91.282 E2.39260
G1 X104.137 Y91.256 E2.39445
G1 X104.365 Y91.036 E2.40164
G1 X104.422 Y91.036 E2.40295
G1 X104.552 Y90.931 E2.40676
G1 X104.811 Y90.681 E2.41493
G1 X104.849 Y90.681 E2.41578
G1 X104.871 Y90.607 E2.41755
G1 X104.944 Y90.582 E2.41929
G1 X105.029 Y90.474 E2.42243
G1 X105.048 Y90.474 E2.42286
G1 X105.142 Y90.328 E2.42679
G1 X105.231 Y90.035 E2.43376
G1 X105.211 Y89.999 E2.43469
G1 X105.206 Y89.885 E2.43729
G1 X105.109 Y89.606 E2.44401
G1 X104.396 Y90.318 E2.46692
G1 X104.500 Y90.039 E2.47368
G1 X104.510 Y89.784 E2.47949
G1 X104.532 Y89.776 E2.48003
G1 X104.633 Y89.907 E2.48379
G1 X104.682 Y90.032 E2.48685
G1 E0.48685 F2400.00000
G92 E0
G1 X102.352 Y89.719 F7800.000
G1 E2.00000 F2400.00000
G1 F1800
G1 X102.349 Y89.641 E2.00179
G1 X102.310 Y89.586 E2.00333
G1 X102.241 Y89.545 E2.00515
G1 X102.143 Y89.545 E2.00738
G1 X102.104 Y89.507 E2.00861
G1 X102.024 Y89.489 E2.01047
G1 X102.058 Y90.013 E2.02241
G1 X102.779 Y89.293 E2.04558
G1 X102.803 Y89.334 E2.04666
G1 X102.829 Y89.484 E2.05014
G1 X102.862 Y90.029 E2.06253
G1 X102.882 Y90.071 E2.06359
G1 X102.202 Y90.751 E2.08545
G1 X102.238 Y90.872 E2.08833
G1 X102.248 Y91.027 E2.09186
G1 X102.329 Y91.261 E2.09748
G1 X102.355 Y91.478 E2.10246
G1 X103.027 Y90.806 E2.12407
G1 X103.058 Y90.865 E2.12558
G1 X103.058 Y90.968 E2.12791
G1 X103.092 Y91.014 E2.12922
G1 X103.200 Y91.514 E2.14084
G1 X102.358 Y92.356 E2.16792
G1 X102.358 Y92.427 E2.16952
G1 X102.208 Y92.626 E2.17519
G1 X102.082 Y92.753 E2.17926
G1 X101.897 Y92.919 E2.18491
G1 X101.868 Y92.919 E2.18557
G1 X101.636 Y93.078 E2.19195
G1 X99.338 Y95.377 E2.26585
G1 E0.26585 F2400.00000
G92 E0
G1 X101.514 Y92.320 F7800.000
G1 E2.00000 F2400.00000
G1 F1800
G1 X102.161 Y91.673 E2.02080
G1 X102.001 Y91.659 E2.02444
G1 X101.972 Y91.622 E2.02551
G1 X101.815 Y91.523 E2.02973
G1 X101.650 Y91.302 E2.03599
G1 X100.885 Y92.068 E2.06061
G1 X100.818 Y91.923 E2.06423
G1 X100.817 Y91.812 E2.06677
G1 X100.973 Y91.736 E2.07071
G1 X101.079 Y91.714 E2.07319
G1 X101.224 Y91.729 E2.07649
G1 E0.07649 F2400.00000
G92 E0
G1 X93.101 Y91.042 F7800.000
G1 E2.00000 F2400.00000
G1 F1800
G1 X93.127 Y91.167 E2.00290
G1 X93.132 Y91.670 E2.01433
G1 X93.205 Y91.342 E2.02197
G1 X93.261 Y90.882 E2.03251
G1 X92.675 Y91.469 E2.05137
G1 X91.712 Y91.550 F7800.000
G1 F1800
G1 X90.990 Y92.272 E2.07457
G1 X91.035 Y92.390 E2.07744
G1 X91.109 Y92.491 E2.08029
G1 X91.171 Y92.627 E2.08368
G1 X91.326 Y92.817 E2.08926
G1 X91.946 Y92.197 E2.10919
G1 X92.022 Y92.343 E2.11293
G1 X92.206 Y92.578 E2.11970
G1 X92.343 Y92.681 E2.12362
G1 X92.086 Y92.938 E2.13189
G1 X92.174 Y93.152 E2.13715
G1 X92.175 Y93.519 E2.14549
G1 X91.987 Y93.775 E2.15272
G1 X91.837 Y93.893 E2.15705
G1 X91.764 Y93.905 E2.15873
G1 X91.693 Y93.946 E2.16059
G1 X91.410 Y93.950 E2.16703
G1 X91.379 Y93.978 E2.16799
G1 X91.109 Y93.982 E2.17411
G1 X91.043 Y94.014 E2.17579
G1 X91.005 Y94.063 E2.17720
G1 X90.955 Y94.069 E2.17833
G1 X90.345 Y94.679 E2.19794
G1 X90.418 Y94.774 E2.20066
G1 X90.447 Y94.774 E2.20133
G1 X90.515 Y94.857 E2.20376
G1 X90.692 Y94.950 E2.20832
G1 X90.829 Y94.963 E2.21144
G1 X90.960 Y94.846 E2.21545
G1 X91.176 Y94.698 E2.22138
G1 X91.207 Y94.698 E2.22210
G1 X93.201 Y92.704 E2.28620
G1 X93.298 Y92.820 E2.28964
G1 X93.469 Y92.845 E2.29358
G1 X93.673 Y92.846 E2.29822
G1 X93.936 Y92.684 E2.30524
G1 X94.232 Y92.352 E2.31534
G1 X94.463 Y92.323 E2.32064
G1 X91.813 Y94.974 E2.40586
G1 X91.926 Y95.119 E2.41005
G1 X92.002 Y95.266 E2.41383
G1 X92.002 Y95.343 E2.41556
G1 X92.031 Y95.430 E2.41764
G1 X92.031 Y95.636 E2.42234
G1 X93.410 Y94.257 E2.46669
G1 X93.459 Y94.361 E2.46932
G1 X93.466 Y94.458 E2.47152
G1 X93.517 Y94.590 E2.47475
G1 X93.526 Y94.682 E2.47685
G1 X93.600 Y94.940 E2.48296
G1 X91.303 Y97.245 E2.55693
G1 X91.273 Y97.371 E2.55987
G1 X91.166 Y97.628 E2.56619
G1 X91.162 Y97.689 E2.56759
G1 X91.026 Y98.019 E2.57569
G1 X91.022 Y98.079 E2.57707
G1 X90.846 Y98.543 E2.58836
G1 X90.786 Y98.643 E2.59101
G1 X93.473 Y95.956 E2.67740
G1 X93.225 Y96.620 E2.69351
G1 X92.814 Y97.496 E2.71550
G1 X88.158 Y102.152 E2.86517
G1 X88.168 Y102.165 E2.86555
G1 X88.262 Y102.226 E2.86809
G1 X88.299 Y102.226 E2.86894
G1 X88.394 Y102.344 E2.87239
G1 X88.468 Y102.404 E2.87455
G1 X88.516 Y102.404 E2.87563
G1 X88.649 Y102.542 E2.87999
G1 X92.488 Y98.703 E3.00340
G1 X93.110 Y98.699 E3.01754
G1 X93.147 Y98.665 E3.01868
G1 X93.341 Y98.657 E3.02312
G1 X93.363 Y98.629 E3.02391
G1 X93.445 Y98.626 E3.02578
G1 X89.165 Y102.906 E3.16338
G1 X89.226 Y102.944 E3.16500
G1 X89.321 Y102.955 E3.16717
G1 X89.390 Y103.014 E3.16924
G1 X89.485 Y103.022 E3.17141
G1 X89.509 Y103.052 E3.17228
G1 X89.569 Y103.057 E3.17365
G1 X89.591 Y103.085 E3.17447
G1 X89.680 Y103.093 E3.17650
G1 X89.704 Y103.123 E3.17738
G1 X89.801 Y103.151 E3.17968
G1 X94.581 Y98.372 E3.33333
G1 X94.784 Y98.305 E3.33819
G1 X94.933 Y98.295 E3.34160
G1 X94.953 Y98.270 E3.34231
G1 X95.064 Y98.270 E3.34485
G1 X95.093 Y98.234 E3.34589
G1 X95.246 Y98.197 E3.34947
G1 X95.303 Y98.164 E3.35098
G1 X95.385 Y98.162 E3.35284
G1 X95.441 Y98.129 E3.35432
G1 X95.491 Y98.128 E3.35546
G1 X95.702 Y98.054 E3.36054
G1 X95.786 Y98.047 E3.36245
G1 X90.267 Y103.566 E3.53987
G1 X90.421 Y103.931 E3.54886
G1 X90.468 Y103.991 E3.55060
G1 X90.504 Y104.107 E3.55336
G1 X90.547 Y104.167 E3.55504
G1 X96.983 Y97.732 E3.76192
G1 X97.057 Y97.702 E3.76374
G1 X97.274 Y97.694 E3.76867
G1 X97.295 Y97.667 E3.76947
G1 X97.420 Y97.665 E3.77232
G1 X97.478 Y97.632 E3.77382
G1 X97.744 Y97.629 E3.77986
G1 X97.769 Y97.596 E3.78082
G1 X97.950 Y97.594 E3.78492
G1 X98.035 Y97.560 E3.78700
G1 X90.902 Y104.693 E4.01631
G1 X90.951 Y104.709 E4.01749
G1 X91.044 Y104.828 E4.02091
G1 X91.247 Y104.956 E4.02637
G1 X91.381 Y105.095 E4.03076
G1 X92.210 Y104.266 E4.05743
G1 X92.087 Y104.109 E4.06197
G1 X92.369 Y104.107 E4.06838
G1 X98.987 Y97.489 E4.28115
G1 X99.306 Y97.487 E4.28839
G1 X99.331 Y97.455 E4.28932
G1 X99.903 Y97.454 E4.30233
G1 X93.172 Y104.185 E4.51872
G1 X93.479 Y104.282 E4.52604
G1 X93.563 Y104.286 E4.52794
G1 X93.620 Y104.319 E4.52943
G1 X93.703 Y104.322 E4.53132
G1 X93.760 Y104.355 E4.53282
G1 X93.878 Y104.360 E4.53551
G1 X100.784 Y97.454 E4.75753
G1 X101.543 Y97.450 E4.77478
G1 X101.565 Y97.422 E4.77560
G1 X101.713 Y97.406 E4.77898
G1 X94.617 Y104.502 E5.00711
G1 X94.693 Y104.503 E5.00884
G1 X94.720 Y104.537 E5.00982
G1 X94.847 Y104.538 E5.01272
G1 X94.931 Y104.572 E5.01479
G1 X95.278 Y104.574 E5.02267
G1 X95.305 Y104.608 E5.02367
G1 X95.392 Y104.608 E5.02563
G1 X103.970 Y96.030 E5.30141
G1 X104.091 Y96.164 E5.30550
G1 X104.128 Y96.364 E5.31013
G1 X104.118 Y96.541 E5.31416
G1 X104.095 Y96.580 E5.31519
G1 X104.051 Y96.793 E5.32013
G1 X104.008 Y96.873 E5.32221
G1 X96.237 Y104.644 E5.57202
G1 X96.372 Y104.644 E5.57508
G1 X96.399 Y104.609 E5.57608
G1 X96.857 Y104.608 E5.58648
G1 X96.941 Y104.574 E5.58855
G1 X97.069 Y104.573 E5.59147
G1 X97.096 Y104.539 E5.59246
G1 X97.223 Y104.538 E5.59535
G1 X104.279 Y97.483 E5.82217
G1 X104.405 Y97.495 E5.82505
G1 X104.500 Y97.528 E5.82734
G1 X104.519 Y97.551 E5.82803
G1 X104.633 Y97.560 E5.83063
G1 X104.653 Y97.586 E5.83136
G1 X104.773 Y97.595 E5.83409
G1 X104.988 Y97.655 E5.83916
G1 X98.420 Y104.223 E6.05031
G1 X98.462 Y104.221 E6.05127
G1 X98.493 Y104.182 E6.05240
G1 X98.581 Y104.182 E6.05440
G1 X98.699 Y104.147 E6.05721
G1 X98.808 Y104.101 E6.05990
G1 X98.854 Y104.042 E6.06160
G1 X98.938 Y104.041 E6.06351
G1 X98.966 Y104.006 E6.06453
G1 X99.022 Y104.006 E6.06581
G1 X99.045 Y103.977 E6.06663
G1 X99.341 Y103.898 E6.07362
G1 X99.533 Y103.817 E6.07835
G1 X99.580 Y103.758 E6.08006
G1 X99.636 Y103.757 E6.08133
G1 X99.664 Y103.720 E6.08239
G1 X99.713 Y103.720 E6.08351
G1 X99.793 Y103.663 E6.08575
G1 X99.853 Y103.658 E6.08710
G1 X99.896 Y103.628 E6.08830
G1 X105.682 Y97.841 E6.27432
G1 X105.780 Y97.847 E6.27655
G1 X105.805 Y97.877 E6.27744
G1 X105.976 Y97.882 E6.28133
G1 X105.996 Y97.907 E6.28206
G1 X106.187 Y97.918 E6.28642
G1 X106.244 Y97.951 E6.28792
G1 X106.310 Y97.953 E6.28941
G1 X106.330 Y97.978 E6.29015
G1 X106.421 Y97.984 E6.29222
G1 X101.402 Y103.002 E6.45355
G1 X101.793 Y103.013 E6.46245
G1 X101.793 Y103.453 E6.47245
G1 X101.735 Y103.550 E6.47503
G1 X107.124 Y98.162 E6.64827
G1 X107.202 Y98.165 E6.65004
G1 X107.218 Y98.186 E6.65062
G1 X107.309 Y98.195 E6.65272
G1 X107.331 Y98.223 E6.65351
G1 X107.450 Y98.234 E6.65625
G1 X107.469 Y98.257 E6.65692
G1 X107.606 Y98.271 E6.66005
G1 X107.745 Y98.330 E6.66349
G1 X107.827 Y98.339 E6.66536
G1 X105.994 Y100.172 E6.72429
G1 X106.032 Y100.144 E6.72537
G1 X106.100 Y100.136 E6.72692
G1 X106.123 Y100.107 E6.72775
G1 X106.264 Y100.094 E6.73099
G1 X106.295 Y100.066 E6.73194
G1 X106.520 Y100.054 E6.73705
G1 X106.580 Y100.021 E6.73861
G1 X107.028 Y100.020 E6.74880
G1 X108.501 Y98.547 E6.79615
G1 X108.701 Y98.595 E6.80083
G1 X108.723 Y98.616 E6.80152
G1 X108.835 Y98.629 E6.80409
G1 X108.895 Y98.662 E6.80565
G1 X108.952 Y98.666 E6.80695
G1 X108.980 Y98.691 E6.80781
G1 X109.197 Y98.731 E6.81283
G1 X107.775 Y100.153 E6.85855
G1 X107.928 Y100.170 E6.86204
G1 X107.963 Y100.204 E6.86315
G1 X108.075 Y100.217 E6.86573
G1 X108.131 Y100.271 E6.86749
G1 X108.244 Y100.284 E6.87006
G1 X108.269 Y100.308 E6.87084
G1 X108.448 Y100.361 E6.87509
G1 X110.036 Y98.773 E6.92615
G1 X110.136 Y98.742 E6.92852
G1 X110.422 Y98.728 E6.93503
G1 X110.442 Y98.702 E6.93577
G1 X110.556 Y98.696 E6.93837
G1 X110.589 Y98.665 E6.93940
G1 X110.702 Y98.655 E6.94198
G1 X110.807 Y98.600 E6.94467
G1 X110.943 Y98.569 E6.94785
G1 X111.104 Y98.483 E6.95199
G1 X111.190 Y98.470 E6.95397
G1 X111.268 Y98.422 E6.95606
G1 X109.137 Y100.553 E7.02456
G1 X109.392 Y100.586 E7.03041
G1 X109.434 Y100.585 E7.03135
G1 X109.461 Y100.557 E7.03224
G1 X109.674 Y100.549 E7.03706
G1 X110.026 Y100.429 E7.04552
G1 X110.052 Y100.396 E7.04648
G1 X110.156 Y100.380 E7.04887
G1 X110.245 Y100.326 E7.05125
G1 X113.414 Y97.157 E7.15312
G1 X113.457 Y97.149 E7.15411
G1 X113.508 Y97.095 E7.15581
G1 X113.593 Y97.081 E7.15776
G1 X113.758 Y96.989 E7.16205
G1 X113.860 Y96.974 E7.16440
G1 X113.925 Y96.917 E7.16636
G1 X114.027 Y96.904 E7.16870
G1 X114.086 Y96.850 E7.17051
G1 X114.221 Y96.835 E7.17359
G1 X114.304 Y96.782 E7.17584
G1 X114.468 Y96.767 E7.17958
G1 X114.582 Y96.711 E7.18247
G1 X114.751 Y96.701 E7.18633
G1 X112.942 Y98.510 E7.24448
G1 X113.008 Y98.501 E7.24600
G1 X113.277 Y98.379 E7.25271
G1 X113.412 Y98.349 E7.25584
G1 X113.523 Y98.289 E7.25872
G1 X113.610 Y98.284 E7.26071
G1 X113.636 Y98.252 E7.26164
G1 X113.801 Y98.245 E7.26540
G1 X113.857 Y98.214 E7.26686
G1 X113.966 Y98.210 E7.26934
G1 X113.997 Y98.179 E7.27033
G1 X114.157 Y98.176 E7.27397
G1 X115.729 Y96.604 E7.32450
G1 X115.829 Y96.604 E7.32677
G1 X115.845 Y96.625 E7.32736
G1 X115.973 Y96.634 E7.33028
G1 X116.037 Y96.673 E7.33199
G1 X116.089 Y96.673 E7.33315
G1 X116.384 Y96.830 E7.34076
G1 X115.070 Y98.144 E7.38300
G1 X115.152 Y98.148 E7.38488
G1 X115.180 Y98.174 E7.38575
G1 X115.546 Y98.186 E7.39406
G1 X115.566 Y98.212 E7.39482
G1 X115.658 Y98.215 E7.39690
G1 X115.716 Y98.247 E7.39842
G1 X115.836 Y98.259 E7.40116
G1 X116.905 Y97.190 E7.43552
G1 X116.919 Y97.208 E7.43604
G1 X116.977 Y97.208 E7.43735
G1 X117.074 Y97.266 E7.43992
G1 X117.171 Y97.386 E7.44343
G1 X117.234 Y97.386 E7.44487
G1 X117.269 Y97.409 E7.44583
G1 X117.374 Y97.529 E7.44945
G1 X117.423 Y97.553 E7.45068
G1 X116.437 Y98.539 E7.48237
G1 X116.533 Y98.634 E7.48544
G1 X116.585 Y98.634 E7.48664
G1 X116.687 Y98.753 E7.49020
G1 X116.806 Y98.810 E7.49319
G1 X116.919 Y98.938 E7.49707
G1 X117.915 Y97.942 E7.52909
G1 X118.065 Y98.100 E7.53405
G1 X118.130 Y98.117 E7.53559
G1 X118.219 Y98.227 E7.53879
G1 X118.378 Y98.360 E7.54350
G1 X117.411 Y99.327 E7.57458
G1 X117.457 Y99.340 E7.57566
G1 X117.551 Y99.460 E7.57913
G1 X117.920 Y99.699 E7.58912
G1 X118.828 Y98.791 E7.61830
G1 X118.908 Y98.877 E7.62097
G1 X118.929 Y98.951 E7.62272
G1 X118.998 Y98.977 E7.62440
G1 X119.110 Y99.085 E7.62792
G1 X119.244 Y99.256 E7.63286
G1 X118.511 Y99.989 E7.65643
M104 S200 ; set temperature
G1 Z0.800 F7800.000
G1 X118.432 Y99.397 F7800.000
G1 F4800
G1 X116.694 Y97.659 E7.72905
G1 X115.915 Y97.145 E7.75663
G1 X115.609 Y96.997 E7.76667
G1 X115.450 Y96.961 E7.77148
G1 X115.340 Y96.962 E7.77475
G1 X116.325 Y97.948 E7.81594
G1 X115.809 Y97.828 E7.83160
G1 X115.535 Y97.814 E7.83970
G1 X114.708 Y96.986 E7.87429
G1 X114.154 Y97.089 E7.89092
G1 X114.862 Y97.797 E7.92052
G1 X114.284 Y97.875 E7.93776
G1 X113.648 Y97.239 E7.96432
G1 X113.200 Y97.448 E7.97891
G1 X113.747 Y97.995 E8.00175
G1 X113.275 Y98.179 E8.01672
G1 X112.769 Y97.673 E8.03785
G1 X112.367 Y97.928 E8.05190
G1 X112.832 Y98.392 E8.07132
G1 X112.422 Y98.638 E8.08546
G1 X111.968 Y98.185 E8.10441
G1 X111.562 Y98.435 E8.11850
G1 X112.037 Y98.910 E8.13838
G1 X111.672 Y99.202 E8.15218
G1 X111.130 Y98.660 E8.17482
G1 X110.901 Y98.786 E8.18255
G1 X110.680 Y98.865 E8.18951
G1 X111.292 Y99.478 E8.21510
G1 X110.913 Y99.755 E8.22898
G1 X110.194 Y99.036 E8.25901
G1 X109.617 Y99.115 E8.27623
G1 X110.504 Y100.003 E8.31330
G1 X110.317 Y100.092 E8.31942
G1 X110.022 Y100.176 E8.32851
G1 X108.924 Y99.078 E8.37438
G1 X108.598 Y99.038 E8.38408
G1 X108.063 Y98.874 E8.40061
G1 X109.349 Y100.160 E8.45435
G1 X109.093 Y100.105 E8.46209
G1 X108.407 Y99.875 E8.48346
G1 X107.153 Y98.621 E8.53585
G1 X106.248 Y98.372 E8.56359
G1 X107.560 Y99.684 E8.61840
G1 X107.037 Y99.666 E8.63387
G1 X106.910 Y99.690 E8.63770
G1 X105.413 Y98.194 E8.70023
G1 X104.845 Y98.087 E8.71731
G1 X104.569 Y98.005 E8.72583
G1 X106.377 Y99.813 E8.80138
G1 X105.933 Y100.025 E8.81593
G1 X103.658 Y97.751 E8.91096
G1 X103.889 Y96.670 F7800.000
G1 F4800
G1 X103.210 Y95.990 E8.93937
G1 X103.443 Y96.173 E8.94812
G1 X103.528 Y96.272 E8.95198
G1 X103.565 Y96.345 E8.95440
G1 X101.326 Y96.732 F7800.000
G1 F4800
G1 X99.476 Y94.882 E9.03169
G1 X103.636 Y92.478 F7800.000
G1 F4800
G1 X102.551 Y91.393 E9.07704
G1 X102.396 Y91.674 E9.08652
G1 X102.287 Y91.785 E9.09113
G1 X103.977 Y93.476 E9.16178
G1 X104.017 Y93.585 E9.16522
G1 X103.993 Y93.600 E9.16603
G1 X103.933 Y93.592 E9.16783
G1 X103.765 Y93.668 E9.17329
G1 X103.630 Y93.784 E9.17855
G1 X102.085 Y92.240 E9.24308
G1 X102.084 Y92.400 E9.24779
G1 X102.059 Y92.504 E9.25097
G1 X102.008 Y92.650 E9.25553
G1 X101.941 Y92.752 E9.25915
G1 X103.253 Y94.064 E9.31397
G1 X102.979 Y94.205 E9.32307
G1 X102.791 Y94.259 E9.32885
G1 X101.620 Y93.087 E9.37780
G1 X101.229 Y93.353 E9.39176
G1 X102.335 Y94.458 E9.43796
G1 X102.207 Y94.588 E9.44333
G1 X102.106 Y94.772 E9.44953
G1 X102.085 Y94.865 E9.45236
G1 X100.798 Y93.578 E9.50616
G1 X100.351 Y93.788 E9.52074
G1 X103.808 Y97.244 E9.66517
G1 X103.710 Y97.493 E9.67307
G1 X103.672 Y97.743 E9.68053
G1 X103.695 Y97.787 E9.68201
G1 X99.889 Y93.982 E9.84102
G1 X99.718 Y94.094 E9.84705
G1 X99.563 Y94.312 E9.85496
G1 X105.516 Y100.266 E10.10373
G1 X105.132 Y100.537 E10.11764
G1 X101.867 Y97.273 E10.25406
G1 X101.928 Y97.438 E10.25926
G1 X101.754 Y97.613 E10.26657
G1 X101.664 Y97.692 E10.27009
G1 X101.635 Y97.697 E10.27096
G1 X104.765 Y100.826 E10.40174
G1 X104.401 Y101.119 E10.41553
G1 X101.055 Y97.773 E10.55534
G1 X100.763 Y97.796 E10.56401
G1 X100.415 Y97.790 E10.57427
G1 X104.046 Y101.421 E10.72597
G1 X104.003 Y101.456 E10.72762
G1 X103.915 Y101.613 E10.73293
G1 X103.848 Y101.879 E10.74103
G1 X99.759 Y97.790 E10.91186
G1 X99.121 Y97.809 E10.93072
G1 X103.789 Y102.477 E11.12578
G1 X103.774 Y102.786 E11.13492
G1 X103.724 Y103.068 E11.14339
G1 X98.500 Y97.844 E11.36168
G1 X97.895 Y97.895 E11.37962
G1 X103.543 Y103.543 E11.61563
G1 X103.323 Y103.980 E11.63007
G1 X102.016 Y102.672 E11.68472
G1 X101.995 Y102.754 E11.68722
G1 X102.002 Y102.839 E11.68975
G1 X101.901 Y103.214 E11.70120
G1 X103.183 Y104.496 E11.75478
G1 X103.177 Y104.549 E11.75637
G1 X103.226 Y104.724 E11.76174
G1 X103.384 Y104.915 E11.76906
G1 X103.805 Y105.117 E11.78285
G1 X104.937 Y106.249 E11.83016
G1 X104.898 Y106.398 E11.83470
G1 X104.866 Y106.471 E11.83706
G1 X104.788 Y106.532 E11.83999
G1 X104.604 Y106.573 E11.84556
G1 X101.655 Y103.624 E11.96876
G1 X101.528 Y103.788 E11.97488
G1 X101.345 Y103.970 E11.98252
G1 X103.102 Y105.728 E12.05596
G1 X102.893 Y105.731 E12.06215
G1 X102.498 Y105.779 E12.07392
G1 X100.994 Y104.276 E12.13674
G1 X100.685 Y104.623 E12.15048
G1 X102.001 Y105.939 E12.20545
G1 X101.668 Y106.071 E12.21603
G1 X101.515 Y106.109 E12.22069
G1 X100.459 Y105.053 E12.26481
G1 E10.26481 F2400.00000
G92 E0
G1 X101.917 Y102.573 F7800.000
G1 E2.00000 F2400.00000
G1 F4800
G1 X97.305 Y97.961 E2.19271
G1 X96.738 Y98.051 E2.20965
G1 X101.452 Y102.764 E2.40661
G1 X100.973 Y102.942 E2.42169
G1 X96.198 Y98.167 E2.62120
G1 X95.678 Y98.304 E2.63709
G1 X100.521 Y103.147 E2.83946
G1 X100.085 Y103.367 E2.85389
G1 X95.169 Y98.450 E3.05933
G1 X94.658 Y98.597 E3.07501
G1 X99.624 Y103.562 E3.28251
G1 X99.156 Y103.750 E3.29742
G1 X94.134 Y98.729 E3.50725
G1 X93.600 Y98.851 E3.52344
G1 X98.674 Y103.925 E3.73545
G1 X98.172 Y104.079 E3.75097
G1 X93.056 Y98.963 E3.96475
G1 X92.494 Y99.058 E3.98158
G1 X97.624 Y104.187 E4.19593
G1 X97.040 Y104.259 E4.21332
G1 X91.005 Y98.225 E4.46548
G1 X90.839 Y98.549 E4.47624
G1 X90.762 Y98.639 E4.47972
G1 X96.402 Y104.278 E4.71535
G1 X95.715 Y104.247 E4.73566
G1 X90.434 Y98.967 E4.95632
G1 X90.244 Y99.117 E4.96348
G1 X90.154 Y99.146 E4.96627
G1 X90.054 Y99.223 E4.96999
G1 X90.032 Y99.221 E4.97065
G1 X94.968 Y104.157 E5.17691
G1 X94.154 Y103.999 E5.20142
G1 X89.275 Y99.120 E5.40530
G1 X88.978 Y99.054 E5.41428
G1 X88.344 Y98.845 E5.43400
G1 X93.275 Y103.777 E5.64006
G1 X93.028 Y103.712 E5.64760
G1 X92.803 Y103.713 E5.65425
G1 X92.688 Y103.846 E5.65944
G1 X82.205 Y93.363 E6.09747
G1 X82.068 Y93.394 E6.10161
G1 X81.722 Y93.536 E6.11268
G1 X92.705 Y104.519 E6.57163
G1 X92.734 Y104.642 E6.57536
G1 X92.864 Y104.942 E6.58500
G1 X93.504 Y105.975 E6.62090
G1 X81.337 Y93.807 E7.12931
G1 X81.181 Y93.950 E7.13555
G1 X81.014 Y94.141 E7.14304
G1 X89.012 Y102.139 E7.47722
G1 X88.472 Y101.700 E7.49778
G1 X87.953 Y101.349 E7.51628
G1 X87.348 Y101.131 E7.53529
G1 X80.779 Y94.562 E7.80978
G1 X80.700 Y94.789 E7.81689
G1 X80.655 Y95.094 E7.82600
G1 X86.480 Y100.920 E8.06940
G1 X85.721 Y100.817 E8.09204
G1 X80.676 Y95.772 E8.30282
G1 X80.776 Y96.348 E8.32008
G1 X80.840 Y96.592 E8.32754
G1 X85.019 Y100.771 E8.50216
G1 X84.336 Y100.745 E8.52235
G1 X81.147 Y97.556 E8.65563
G1 X81.424 Y98.159 E8.67525
G1 X81.874 Y98.894 E8.70070
G1 X82.098 Y99.163 E8.71107
G1 X83.333 Y100.398 E8.76266
G1 X82.931 Y100.058 E8.77822
G1 X82.555 Y99.667 E8.79423
G1 X82.423 Y99.488 E8.80081
G1 X86.237 Y96.082 F7800.000
G1 F4800
G1 X83.647 Y93.492 E8.90903
G1 X83.425 Y93.409 E8.91605
G1 X83.108 Y93.339 E8.92564
G1 X82.806 Y93.308 E8.93461
G1 X87.036 Y97.538 E9.11137
G1 X87.407 Y98.137 E9.13218
G1 X87.780 Y98.589 E9.14949
G1 X88.097 Y98.884 E9.16230
G1 X88.438 Y99.091 E9.17408
G1 X88.669 Y99.170 E9.18128
G1 X88.687 Y101.814 F7800.000
G1 F4800
G1 X89.258 Y102.233 E9.20221
G1 X89.930 Y102.519 E9.22378
G1 X90.128 Y102.667 E9.23110
G1 X90.719 Y103.846 E9.27007
G1 X91.719 Y104.846 E9.31183
G1 X93.846 Y106.973 F7800.000
G1 F4800
G1 X92.036 Y105.163 E9.38744
G1 X92.193 Y105.397 E9.39575
G1 X92.577 Y106.109 E9.41965
G1 X93.145 Y106.928 E9.44909
G1 X94.584 Y108.368 E9.50924
G1 X94.536 Y108.976 E9.52727
G1 X93.543 Y107.983 E9.56875
G1 E7.56875 F2400.00000
G92 E0
G1 X92.819 Y99.382 F7800.000
G1 E2.00000 F2400.00000
G1 F4800
G1 X92.407 Y99.390 E2.01216
G1 X92.297 Y99.255 E2.01731
G1 X92.218 Y99.076 E2.02308
G1 X92.267 Y98.831 E2.03049
G1 X91.195 Y97.759 E2.07528
G1 X91.369 Y97.276 E2.09043
G1 X92.410 Y98.317 E2.13395
G1 X92.624 Y97.874 E2.14847
G1 X91.559 Y96.810 E2.19294
G1 X91.789 Y96.384 E2.20725
G1 X92.838 Y97.432 E2.25105
G1 X93.036 Y97.003 E2.26502
G1 X93.045 Y96.983 E2.26567
G1 X92.010 Y95.948 E2.30889
G1 X92.161 Y95.588 E2.32044
G1 X92.185 Y95.466 E2.32409
G1 X93.233 Y96.515 E2.36790
G1 X93.402 Y96.027 E2.38315
G1 X92.139 Y94.765 E2.43589
G1 X92.056 Y94.588 E2.44168
G1 X91.920 Y94.369 E2.44928
G1 X91.735 Y94.176 E2.45716
G1 X91.698 Y94.112 E2.45937
G1 X91.839 Y93.808 E2.46928
G1 X93.450 Y95.419 E2.53659
G1 X93.189 Y94.501 E2.56477
G1 X91.964 Y93.277 E2.61593
G1 X91.962 Y93.112 E2.62080
G1 X91.984 Y92.998 E2.62424
G1 X92.301 Y92.958 E2.63369
G1 X93.214 Y93.870 E2.67180
G1 E0.67180 F2400.00000
G92 E0
G1 X103.325 Y91.510 F7800.000
G1 E2.00000 F2400.00000
G1 F4800
G1 X103.340 Y91.481 E2.00099
G1 X103.310 Y91.496 E2.00199
G1 X103.650 Y91.835 E2.01617
G1 E0.01617 F2400.00000
G92 E0
G1 X103.480 Y104.792 F7800.000
G1 E2.00000 F2400.00000
G1 F4800
G1 X103.740 Y104.906 E2.00840
G1 X103.909 Y104.940 E2.01348
G1 X104.278 Y104.935 E2.02440
G1 X105.023 Y105.679 E2.05552
G1 X105.407 Y105.656 F7800.000
G1 F1200
G1 X105.791 Y106.040 E2.07477
G1 X106.437 Y106.327 E2.09985
G1 X106.763 Y106.450 E2.11220
G1 X106.951 Y106.491 E2.11901
G1 X106.154 Y105.694 E2.15896
G1 X106.357 Y105.718 E2.16621
G1 X106.693 Y105.697 E2.17813
G1 X106.880 Y105.725 E2.18485
G1 X107.250 Y106.082 E2.20306
G1 E0.20306 F2400.00000
G92 E0
G1 X106.396 Y107.896 F7800.000
G1 E2.00000 F2400.00000
G1 F1200
G1 X106.069 Y107.569 E2.01641
G1 X105.869 Y107.427 E2.02509
G1 X105.870 Y107.606 E2.03142
G1 X105.895 Y107.718 E2.03550
G1 X105.870 Y107.727 E2.03643
G1 X105.870 Y107.746 E2.03713
G1 X105.628 Y107.808 E2.04597
G1 X105.716 Y107.925 E2.05115
G1 X106.426 Y108.635 E2.08673
G1 X106.385 Y108.654 E2.08834
G1 X106.359 Y108.627 E2.08968
G1 X106.350 Y108.572 E2.09163
G1 X106.232 Y108.556 E2.09585
G1 X106.126 Y108.422 E2.10190
G1 X106.123 Y108.389 E2.10309
G1 X106.044 Y108.284 E2.10773
G1 X106.041 Y108.250 E2.10895
G1 X104.157 Y107.830 F7800.000
G1 F1200
G1 X103.832 Y107.505 E2.12525
G1 X103.655 Y107.958 E2.14248
G1 X104.249 Y108.552 E2.17228
G1 X104.238 Y108.808 E2.18139
G1 X104.148 Y109.080 E2.19154
G1 X103.504 Y108.437 E2.22381
G1 X103.455 Y108.618 E2.23048
G1 X103.431 Y108.787 E2.23654
G1 X103.445 Y108.938 E2.24192
G1 X103.508 Y109.071 E2.24712
G1 X103.833 Y109.396 E2.26341
G1 E0.26341 F2400.00000
G92 E0
G1 X105.257 Y104.010 F7800.000
G1 E2.00000 F2400.00000
G1 F1200
G1 X105.582 Y104.335 E2.01629
G1 X105.927 Y104.006 E2.03320
G1 X105.443 Y103.522 E2.05747
G1 X105.522 Y103.316 E2.06531
G1 X105.665 Y103.069 E2.07540
G1 X105.990 Y103.394 E2.09169
G1 E0.09169 F2400.00000
G92 E0
G1 X104.596 Y94.629 F7800.000
G1 E2.00000 F2400.00000
G1 F1200
G1 X104.721 Y94.951 E2.01224
G1 X104.787 Y95.056 E2.01663
G1 X104.916 Y95.195 E2.02337
G1 X105.003 Y95.252 E2.02704
G1 X105.128 Y95.230 E2.03156
G1 X105.161 Y95.194 E2.03327
G1 X104.271 Y94.304 E2.07788
G1 X104.125 Y93.965 E2.09099
G1 X103.977 Y93.743 E2.10043
G1 X104.268 Y93.634 E2.11144
G1 X104.253 Y93.577 E2.11353
G1 X104.578 Y93.903 E2.12984
G1 E0.12984 F2400.00000
G92 E0
G1 X104.570 Y91.214 F7800.000
G1 E2.00000 F2400.00000
G1 F1200
G1 X104.245 Y90.889 E2.01629
G1 X104.023 Y90.606 E2.02904
G1 X104.251 Y90.303 E2.04250
G1 X104.889 Y90.941 E2.07453
G1 X105.033 Y90.778 E2.08226
G1 X105.129 Y90.589 E2.08976
G1 X104.457 Y89.917 E2.12348
G1 X104.552 Y89.625 E2.13435
G1 X104.580 Y89.451 E2.14062
G1 X104.960 Y89.828 E2.15961
G1 E0.15961 F2400.00000
G92 E0
G1 X102.652 Y89.574 F7800.000
G1 E2.00000 F2400.00000
G1 F1200
G1 X102.326 Y89.248 E2.01632
G1 X102.108 Y89.139 E2.02498
G1 X102.122 Y89.598 E2.04127
G1 X102.151 Y89.782 E2.04789
G1 X102.784 Y90.415 E2.07962
G1 X102.547 Y90.500 E2.08855
G1 X102.476 Y90.107 E2.10269
G1 X101.724 Y91.745 F7800.000
G1 F1200
G1 X102.049 Y92.070 E2.11898
G1 X101.478 Y92.207 F7800.000
G1 F1200
G1 X100.910 Y91.639 E2.14750
G1 E0.14750 F2400.00000
G92 E0
G1 X94.655 Y92.793 F7800.000
G1 E2.00000 F2400.00000
G1 F1200
G1 X94.330 Y92.468 E2.01629
G1 X94.403 Y93.250 F7800.000
G1 F1200
G1 X93.750 Y92.597 E2.04901
G1 X93.613 Y92.739 E2.05599
G1 X93.414 Y92.884 E2.06472
G1 X93.348 Y92.904 E2.06717
G1 X93.732 Y93.288 E2.08641
G1 X93.658 Y93.234 E2.08967
G1 X93.673 Y93.229 E2.09024
G1 X93.818 Y93.373 F7800.000
G1 F1200
G1 X93.407 Y92.963 E2.11082
G1 X93.081 Y91.609 F7800.000
G1 F1200
G1 X93.101 Y91.840 E2.11902
G1 X93.140 Y91.669 E2.12526
G1 X92.756 Y91.285 E2.14451
G1 X92.715 Y90.845 E2.16017
G1 X92.743 Y90.562 E2.17023
G1 X93.068 Y90.888 E2.18653
G1 X91.637 Y91.895 F7800.000
G1 F1200
G1 X91.312 Y91.570 E2.20282
G1 X91.154 Y92.120 F7800.000
G1 F1200
G1 X91.994 Y92.960 E2.24492
G1 X91.579 Y94.356 F7800.000
G1 F1200
G1 X91.254 Y94.031 E2.26122
G1 X90.733 Y94.055 E2.27968
G1 X90.629 Y94.085 E2.28353
G1 X90.954 Y94.410 E2.29982
G1 E0.29982 F2400.00000
G92 E0
G1 X95.675 Y107.462 F7800.000
G1 E2.00000 F2400.00000
G1 F1200
G1 X95.349 Y107.137 E2.01630
G1 X95.200 Y107.259 E2.02315
G1 X95.004 Y107.501 E2.03417
G1 X95.401 Y107.898 E2.05405
G1 X95.170 Y108.007 E2.06311
G1 X95.329 Y107.826 E2.07166
G1 E0.07166 F2400.00000
G92 E0
G1 X93.091 Y108.993 F7800.000
G1 E2.00000 F2400.00000
G1 F1200
G1 X92.766 Y108.668 E2.01629
G1 X92.441 Y108.690 E2.02785
G1 X92.207 Y108.803 E2.03707
G1 X92.762 Y109.358 E2.06492
G1 X92.587 Y109.651 E2.07701
G1 X92.526 Y109.681 E2.07941
G1 X92.432 Y109.681 E2.08275
G1 X92.327 Y109.617 E2.08711
G1 X92.001 Y109.291 E2.10345
G1 E0.10345 F2400.00000
G92 E0
G1 X93.950 Y110.569 F7800.000
G1 E2.00000 F2400.00000
G1 F1200
G1 X93.626 Y110.244 E2.01629
G1 X93.491 Y110.719 E2.03380
G1 X93.494 Y110.822 E2.03743
G1 X93.912 Y111.240 E2.05839
G1 X93.911 Y111.261 E2.05915
G1 X93.848 Y111.223 E2.06178
G1 X93.819 Y111.146 E2.06467
G1 Z1.300 F7800.000
G1 E0.06467 F2400.00000
G92 E0
G1 X94.177 Y109.048 F7800.000
G1 E2.00000 F2400.00000
G1 F1200
G1 X94.535 Y108.685 E2.01766
G1 X94.591 Y107.995 E2.04165
G1 X93.722 Y108.864 E2.08423
G1 X93.549 Y108.683 E2.09290
G1 X93.520 Y108.636 E2.09482
G1 X93.515 Y108.573 E2.09702
G1 X93.532 Y108.415 E2.10251
G1 X94.336 Y107.611 E2.14190
G1 X94.101 Y107.208 E2.15808
G1 X93.479 Y107.830 E2.18856
G1 X93.258 Y107.412 E2.20493
G1 X93.902 Y106.768 E2.23651
G1 X93.807 Y106.556 E2.24455
G1 X93.731 Y106.300 E2.25380
G1 X92.999 Y107.032 E2.28966
G1 X92.737 Y106.655 E2.30556
G1 X93.576 Y105.817 E2.34664
G1 X93.530 Y105.698 E2.35105
G1 X93.349 Y105.405 E2.36298
G1 X92.483 Y106.271 E2.40541
G1 X92.262 Y105.854 E2.42178
G1 X93.098 Y105.017 E2.46276
G1 X92.863 Y104.614 E2.47894
G1 X92.444 Y105.033 E2.49947
G1 X92.429 Y104.991 E2.50100
G1 X92.435 Y104.782 E2.50825
G1 X92.409 Y104.637 E2.51338
G1 X92.538 Y104.939 E2.52477
G1 X92.018 Y105.459 F7800.000
G1 F1200
G1 X92.513 Y104.964 E2.54903
G1 X92.425 Y104.901 E2.55278
G1 X92.269 Y104.855 E2.55839
G1 X92.225 Y104.821 E2.56033
G1 X92.047 Y104.791 E2.56658
G1 X91.722 Y105.116 E2.58250
G1 E0.58250 F2400.00000
G92 E0
G1 X92.509 Y103.239 F7800.000
G1 E2.00000 F2400.00000
G1 F1200
G1 X92.184 Y103.564 E2.01592
G1 X92.286 Y103.922 E2.02882
G1 X92.482 Y103.725 E2.03844
G1 X92.650 Y103.717 E2.04427
G1 X93.001 Y103.366 E2.06149
G1 X93.491 Y103.495 E2.07903
G1 X93.160 Y103.826 E2.09525
G1 X93.655 Y103.950 E2.11293
G1 X93.982 Y103.623 E2.12896
G1 X94.489 Y103.735 E2.14696
G1 X94.155 Y104.069 E2.16335
G1 X94.690 Y104.153 E2.18210
G1 X95.020 Y103.823 E2.19829
G1 X95.569 Y103.893 E2.21745
G1 X95.229 Y104.233 E2.23410
G1 X95.714 Y104.274 E2.25098
G1 X95.806 Y104.275 E2.25415
G1 X96.147 Y103.934 E2.27087
G1 X96.769 Y103.931 E2.29243
G1 X96.428 Y104.272 E2.30914
G1 X97.097 Y104.222 E2.33239
G1 X97.439 Y103.880 E2.34914
G1 X98.205 Y103.733 E2.37615
G1 X97.864 Y104.074 E2.39286
G1 X98.489 Y103.880 E2.41554
G1 X98.792 Y103.765 E2.42676
G1 X99.127 Y103.430 E2.44320
G1 X100.178 Y102.998 E2.48255
G1 X99.853 Y103.323 E2.49847
G1 X100.481 Y103.003 F7800.000
G1 F1200
G1 X100.806 Y102.678 E2.51439
G1 X101.787 Y102.301 E2.55079
G1 X101.462 Y102.626 E2.56671
G1 E0.56671 F2400.00000
G92 E0
G1 X103.085 Y104.929 F7800.000
G1 E2.00000 F2400.00000
G1 F1200
G1 X103.410 Y104.604 E2.01592
G1 X103.816 Y104.798 E2.03150
G1 X102.869 Y105.744 E2.07787
G1 X103.072 Y105.787 E2.08504
G1 X103.327 Y105.886 E2.09452
G1 X104.176 Y105.037 E2.13609
G1 X104.246 Y105.386 E2.14839
G1 X104.446 Y105.366 E2.15537
G1 X103.672 Y106.141 E2.19330
G1 X103.829 Y106.303 E2.20112
G1 X103.940 Y106.472 E2.20813
G1 X105.030 Y105.382 E2.26151
G1 X105.079 Y105.563 E2.26799
G1 X104.864 Y106.147 E2.28958
G1 X104.539 Y106.473 E2.30551
G1 X104.303 Y105.509 F7800.000
G1 F1200
G1 X104.887 Y104.926 E2.33409
G1 X104.269 Y104.944 E2.35550
G1 X103.883 Y105.330 E2.37440
G1 X103.847 Y105.341 E2.37573
G1 X103.851 Y105.362 E2.37647
G1 E0.37647 F2400.00000
G92 E0
G1 X108.201 Y99.909 F7800.000
G1 E2.00000 F2400.00000
G1 F1200
G1 X108.728 Y99.382 E2.02581
G1 X108.661 Y100.065 F7800.000
G1 F1200
G1 X109.059 Y99.668 E2.04529
G1 X109.465 Y99.787 E2.05994
G1 X109.466 Y99.260 E2.07820
G1 X109.873 Y99.469 F7800.000
G1 F1200
G1 X109.147 Y100.195 E2.11375
G1 X109.807 Y100.152 F7800.000
G1 F1200
G1 X110.277 Y99.682 E2.13681
G1 X110.541 Y99.584 E2.14655
G1 X110.472 Y99.487 E2.15068
G1 E0.15068 F2400.00000
G92 E0
G1 X107.123 Y98.523 F7800.000
G1 E2.00000 F2400.00000
G1 F1200
G1 X106.799 Y98.848 E2.01592
G1 X107.109 Y98.954 E2.02729
G1 X107.129 Y98.988 E2.02864
G1 X107.239 Y99.023 E2.03266
G1 X107.604 Y98.658 E2.05052
G1 X108.082 Y98.797 E2.06775
G1 X108.040 Y98.838 E2.06978
G1 X108.371 Y98.931 E2.08170
G1 X108.039 Y99.078 E2.09428
G1 X108.030 Y99.296 E2.10182
G1 X107.570 Y99.308 E2.11775
G1 X107.198 Y99.680 E2.13597
G1 X107.554 Y99.721 E2.14838
G1 X107.728 Y99.767 E2.15460
G1 X108.566 Y98.929 E2.19566
G1 X108.921 Y99.037 E2.20854
G1 X109.054 Y99.056 E2.21318
G1 X108.634 Y99.477 E2.23377
G1 X109.142 Y99.585 E2.25176
G1 X109.596 Y99.130 E2.27404
G1 X109.860 Y99.124 E2.28316
G1 X110.272 Y99.071 E2.29756
G1 X109.804 Y99.538 E2.32046
G1 X109.961 Y99.549 E2.32590
G1 X110.147 Y99.812 E2.33706
G1 X111.143 Y98.816 E2.38585
G1 X111.692 Y98.552 E2.40696
G1 X112.563 Y98.012 E2.44247
G1 X111.527 Y99.047 E2.49321
G1 X111.874 Y98.791 E2.50817
G1 X112.350 Y98.480 E2.52785
G1 X112.884 Y98.203 E2.54868
G1 X113.053 Y98.138 E2.55498
G1 X113.929 Y97.262 E2.59785
G1 X114.470 Y97.090 E2.61753
G1 X114.784 Y97.023 E2.62866
G1 X113.926 Y97.881 E2.67072
G1 X114.634 Y97.789 E2.69548
G1 X115.449 Y96.974 E2.73540
G1 X115.781 Y96.963 E2.74692
G1 X115.936 Y96.999 E2.75243
G1 X116.005 Y97.034 E2.75510
G1 X115.224 Y97.815 E2.79335
G1 X115.478 Y97.828 E2.80216
G1 X115.762 Y97.893 E2.81226
G1 X116.409 Y97.246 E2.84398
G1 X116.775 Y97.496 E2.85933
G1 X116.229 Y98.043 E2.88611
G1 X116.622 Y98.265 E2.90177
G1 X117.135 Y97.752 E2.92692
G1 X117.477 Y98.026 E2.94211
G1 X116.977 Y98.526 E2.96660
G1 X117.309 Y98.811 E2.98173
G1 X117.813 Y98.306 E3.00644
G1 X118.143 Y98.593 E3.02156
G1 X117.653 Y99.082 E3.04553
G1 X118.016 Y99.335 E3.06085
G1 X118.451 Y98.901 E3.08216
G1 X118.681 Y99.125 E3.09329
G1 X118.748 Y99.219 E3.09730
G1 X118.423 Y99.544 E3.11322
G1 E1.11322 F2400.00000
G92 E0
G1 X106.738 Y98.831 F7800.000
G1 E2.00000 F2400.00000
G1 F1200
G1 X107.063 Y98.506 E2.01592
G1 X106.567 Y98.371 E2.03372
G1 X106.234 Y98.705 E2.05005
G1 X105.717 Y98.591 E2.06839
G1 X106.043 Y98.264 E2.08438
G1 X105.519 Y98.158 E2.10291
G1 X105.187 Y98.490 E2.11921
G1 X104.677 Y98.369 E2.13734
G1 X105.006 Y98.040 E2.15344
G1 X104.514 Y97.902 E2.17115
G1 X104.188 Y98.227 E2.18710
G1 X103.689 Y98.096 E2.20498
G1 X104.022 Y97.763 E2.22128
G1 X103.818 Y97.706 E2.22860
G1 X103.694 Y97.461 E2.23813
G1 X103.369 Y97.786 E2.25405
G1 X102.496 Y97.669 F7800.000
G1 F1200
G1 X102.171 Y97.994 E2.26997
G1 X101.882 Y97.638 F7800.000
G1 F1200
G1 X102.213 Y97.306 E2.28620
G1 X101.441 Y98.079 F7800.000
G1 F1200
G1 X101.794 Y97.725 E2.30353
G1 X101.598 Y97.759 E2.31042
G1 X101.078 Y97.796 E2.32849
G1 X100.738 Y98.136 E2.34516
G1 X100.100 Y98.128 E2.36725
G1 X100.434 Y97.795 E2.38358
G1 X99.788 Y97.795 E2.40594
G1 X99.446 Y98.137 E2.42271
G1 X98.769 Y98.168 E2.44619
G1 X99.106 Y97.831 E2.46269
G1 X98.414 Y97.878 E2.48673
G1 X98.074 Y98.218 E2.50339
G1 X97.350 Y98.296 E2.52859
G1 X97.683 Y97.963 E2.54492
G1 X97.254 Y98.013 E2.55990
G1 X96.922 Y98.079 E2.57163
G1 X96.579 Y98.422 E2.58841
G1 X95.730 Y98.625 E2.61866
G1 X96.055 Y98.300 E2.63458
G1 X95.604 Y98.660 F7800.000
G1 F1200
G1 X95.929 Y98.335 E2.65049
G1 X95.019 Y98.587 E2.68319
G1 X94.679 Y98.927 E2.69984
G1 X93.905 Y99.122 E2.72749
G1 X93.805 Y99.144 E2.73105
G1 X94.146 Y98.803 E2.74776
G1 X93.318 Y98.974 E2.77705
G1 X92.976 Y99.316 E2.79381
G1 X92.196 Y99.438 E2.82116
G1 X92.571 Y99.063 E2.83955
G1 X92.407 Y99.065 E2.84524
G1 X92.297 Y98.930 E2.85127
G1 X92.220 Y98.757 E2.85784
G1 X91.895 Y99.081 E2.87376
G1 E0.87376 F2400.00000
G92 E0
G1 X89.332 Y99.464 F7800.000
G1 E2.00000 F2400.00000
G1 F1200
G1 X89.657 Y99.139 E2.01592
G1 X89.098 Y98.989 E2.03597
G1 X88.768 Y99.320 E2.05217
G1 X88.240 Y99.138 E2.07149
G1 X88.568 Y98.811 E2.08754
G1 E0.08754 F2400.00000
G92 E0
G1 X87.558 Y101.322 F7800.000
G1 E2.00000 F2400.00000
G1 F1200
G1 X87.883 Y100.998 E2.01592
G1 X87.442 Y100.828 E2.03228
G1 X87.112 Y101.158 E2.04844
G1 X86.634 Y101.025 E2.06561
G1 X86.969 Y100.690 E2.08201
G1 X86.468 Y100.581 E2.09978
G1 X86.133 Y100.916 E2.11620
G1 X85.605 Y100.834 E2.13471
G1 X85.941 Y100.497 E2.15120
G1 X85.866 Y100.487 E2.15385
G1 X85.375 Y100.453 E2.17088
G1 X85.036 Y100.792 E2.18749
G1 X84.453 Y100.765 E2.20772
G1 X84.799 Y100.419 E2.22469
G1 X84.215 Y100.393 E2.24496
G1 X83.876 Y100.732 E2.26158
G1 X83.793 Y100.727 E2.26445
G1 X83.396 Y100.601 E2.27887
G1 X83.721 Y100.276 E2.29479
G1 E0.29479 F2400.00000
G92 E0
G1 X89.459 Y102.643 F7800.000
G1 E2.00000 F2400.00000
G1 F1200
G1 X89.784 Y102.319 E2.01592
G1 X90.256 Y102.521 F7800.000
G1 F1200
G1 X89.931 Y102.846 E2.03183
G1 E0.03183 F2400.00000
G92 E0
G1 X92.924 Y93.768 F7800.000
G1 E2.00000 F2400.00000
G1 F1200
G1 X93.249 Y93.443 E2.01592
G1 X93.328 Y93.186 E2.02526
G1 X93.051 Y92.949 E2.03790
G1 X92.619 Y93.381 E2.05905
G1 X92.331 Y93.304 E2.06938
G1 X92.119 Y93.421 E2.07777
G1 X91.962 Y93.619 E2.08656
G1 X91.962 Y93.437 E2.09288
G1 X91.984 Y93.323 E2.09690
G1 X92.309 Y92.998 E2.11283
G1 X92.776 Y93.441 F7800.000
G1 F4800
G1 X92.238 Y93.978 E2.13529
G1 X92.173 Y94.349 E2.14641
G1 X92.262 Y94.611 E2.15457
G1 X92.858 Y94.015 E2.17946
G1 X92.961 Y94.569 E2.19610
G1 X92.469 Y95.061 E2.21666
G1 X92.535 Y95.184 E2.22080
G1 X92.506 Y95.490 E2.22989
G1 X92.509 Y95.677 E2.23539
G1 X93.108 Y95.078 E2.26041
G1 X93.141 Y95.345 E2.26835
G1 X92.979 Y95.863 E2.28438
G1 X92.213 Y96.629 E2.31640
G1 X92.174 Y96.730 E2.31960
G1 X92.031 Y96.944 E2.32721
G1 X91.782 Y97.396 E2.34244
G1 X91.650 Y97.731 E2.35310
G1 X91.633 Y97.866 E2.35710
G1 X92.545 Y96.954 E2.39520
G1 X92.162 Y97.748 E2.42126
G1 X91.991 Y98.164 E2.43453
G1 X88.597 Y101.558 E2.57634
G1 X88.967 Y101.844 E2.59016
G1 X91.733 Y99.078 E2.70575
G1 X91.760 Y99.258 E2.71112
G1 X91.941 Y99.526 E2.72069
G1 X89.344 Y102.123 E2.82919
G1 X89.448 Y102.188 E2.83279
G1 X89.795 Y102.329 E2.84386
G1 X92.600 Y99.524 E2.96108
G1 X93.379 Y99.401 E2.98438
G1 X90.233 Y102.548 E3.11584
G1 X90.280 Y102.581 E3.11755
G1 X90.373 Y102.797 E3.12450
G1 X90.429 Y103.008 E3.13093
G1 X94.206 Y99.230 E3.28877
G1 X95.078 Y99.015 E3.31531
G1 X90.653 Y103.439 E3.50020
G1 X90.867 Y103.882 E3.51472
G1 X95.999 Y98.750 E3.72915
G1 X96.878 Y98.528 E3.75594
G1 X92.254 Y103.152 E3.94914
G1 X92.362 Y103.164 E3.95234
G1 X92.777 Y103.285 E3.96513
G1 X97.669 Y98.393 E4.16954
G1 X98.406 Y98.312 E4.19144
G1 X93.296 Y103.422 E4.40496
G1 X93.818 Y103.556 E4.42089
G1 X99.114 Y98.261 E4.64217
G1 X99.802 Y98.229 E4.66252
G1 X94.361 Y103.670 E4.88988
G1 X94.929 Y103.758 E4.90687
G1 X100.465 Y98.222 E5.13819
G1 X101.114 Y98.230 E5.15736
G1 X95.521 Y103.822 E5.39105
G1 X96.156 Y103.844 E5.40981
G1 X101.834 Y98.166 E5.64706
G1 X102.578 Y98.079 E5.66920
G1 X96.845 Y103.811 E5.90873
G1 E3.90873 F2400.00000
G92 E0
G1 X92.097 Y103.308 F7800.000
G1 E2.00000 F2400.00000
G1 F4800
G1 X91.132 Y104.274 E2.04035
G1 X91.406 Y104.466 E2.05024
G1 X91.538 Y104.524 E2.05450
G1 X92.240 Y103.822 E2.08385
G1 X92.324 Y104.222 E2.09594
G1 X92.323 Y104.395 E2.10105
G1 X91.982 Y104.736 E2.11530
G1 E0.11530 F2400.00000
G92 E0
G1 X88.232 Y101.266 F7800.000
G1 E2.00000 F2400.00000
G1 F4800
G1 X89.891 Y99.608 E2.06930
G1 X89.338 Y99.504 E2.08592
G1 X87.837 Y101.005 E2.14862
G1 X87.728 Y100.936 E2.15245
G1 X87.380 Y100.805 E2.16341
G1 X88.835 Y99.351 E2.22420
G1 X88.349 Y99.181 E2.23942
G1 X86.883 Y100.646 E2.30065
G1 X86.350 Y100.523 E2.31682
G1 X87.937 Y98.936 E2.38315
G1 X87.592 Y98.625 E2.39688
G1 X85.792 Y100.425 E2.47211
G1 X85.191 Y100.369 E2.48992
G1 X87.293 Y98.268 E2.57773
G1 X87.163 Y98.113 E2.58369
G1 X87.021 Y97.883 E2.59167
G1 X84.574 Y100.330 E2.69392
G1 X83.945 Y100.302 E2.71251
G1 X86.768 Y97.479 E2.83047
G1 X86.537 Y97.054 E2.84476
G1 X83.424 Y100.167 E2.97481
G1 X83.155 Y100.011 E2.98400
G1 X83.031 Y99.904 E2.98885
G1 X86.304 Y96.631 E3.12563
G1 X86.069 Y96.210 E3.13988
G1 X82.690 Y99.589 E3.28107
G1 X82.372 Y99.250 E3.29479
G1 X85.832 Y95.790 E3.43936
G1 X85.584 Y95.382 E3.45347
G1 X82.063 Y98.902 E3.60056
G1 X81.804 Y98.619 E3.61190
G1 X81.758 Y98.552 E3.61433
G1 X85.308 Y95.002 E3.76268
G1 X85.011 Y94.642 E3.77645
G1 X81.525 Y98.128 E3.92213
G1 X81.415 Y97.860 E3.93070
G1 X81.354 Y97.642 E3.93737
G1 X84.661 Y94.336 E4.07552
G1 X84.266 Y94.074 E4.08951
G1 X81.226 Y97.114 E4.21652
G1 X81.107 Y96.577 E4.23276
G1 X83.854 Y93.830 E4.34757
G1 X83.692 Y93.746 E4.35297
G1 X83.388 Y93.639 E4.36247
G1 X81.011 Y96.017 E4.46183
G1 X80.984 Y95.653 E4.47261
G1 X81.004 Y95.367 E4.48109
G1 X82.694 Y93.677 E4.55171
G1 E2.55171 F2400.00000
G92 E0
G1 X99.911 Y95.494 F7800.000
G1 E2.00000 F2400.00000
G1 F4800
G1 X101.782 Y93.623 E2.07817
G1 X100.912 Y93.929 E2.10542
G1 X100.722 Y94.028 E2.11176
G1 X99.777 Y94.972 E2.15122
G1 X99.788 Y94.880 E2.15396
G1 X99.846 Y94.746 E2.15829
G1 X99.972 Y94.616 E2.16363
G1 X100.234 Y94.433 E2.17309
G1 X100.397 Y94.353 E2.17843
G1 X101.955 Y94.107 F7800.000
G1 F4800
G1 X100.188 Y95.874 E2.25225
G1 X100.324 Y96.024 E2.25824
G1 X100.546 Y96.172 E2.26612
G1 X101.867 Y94.851 E2.32132
G1 X101.912 Y95.171 E2.33086
G1 X102.004 Y95.371 E2.33736
G1 X100.975 Y96.400 E2.38033
G1 X101.402 Y96.629 E2.39466
G1 X102.296 Y95.735 E2.43198
G1 X102.398 Y95.826 E2.43601
G1 X102.489 Y95.876 E2.43910
G1 X102.752 Y95.936 E2.44704
G1 X101.783 Y96.905 E2.48752
G1 X102.102 Y97.242 E2.50124
G1 X103.239 Y96.105 E2.54875
G1 X103.269 Y96.126 E2.54985
G1 X103.341 Y96.185 E2.55260
G1 X103.518 Y96.442 E2.56180
G1 X103.524 Y96.476 E2.56283
G1 X102.391 Y97.609 E2.61017
G1 X102.462 Y97.693 E2.61344
G1 X102.702 Y97.868 E2.62221
G1 X102.694 Y97.963 E2.62501
G1 X103.079 Y97.578 E2.64109
G1 X103.104 Y97.958 E2.65235
G1 X103.282 Y98.030 E2.65802
G1 X97.625 Y103.687 E2.89440
G1 X98.575 Y103.394 E2.92377
G1 X103.806 Y98.163 E3.14234
G1 X104.338 Y98.288 E3.15849
G1 X99.685 Y102.941 E3.35291
G1 X100.357 Y102.597 E3.37523
G1 X100.872 Y102.410 E3.39139
G1 X104.848 Y98.434 E3.55753
G1 X105.375 Y98.563 E3.57356
G1 X101.992 Y101.946 E3.71490
G1 X102.301 Y101.867 E3.72432
G1 X102.529 Y102.066 E3.73324
G1 X103.585 Y101.010 E3.77736
G1 X103.573 Y101.114 E3.78045
G1 X103.519 Y101.223 E3.78405
G1 X103.555 Y101.477 E3.79163
G1 X103.548 Y101.703 E3.79830
G1 X102.414 Y102.837 E3.84569
G1 X102.407 Y102.914 E3.84796
G1 X102.236 Y103.453 E3.86467
G1 X102.008 Y103.899 E3.87947
G1 X103.520 Y102.387 E3.94265
G1 X103.477 Y102.684 E3.95151
G1 X103.392 Y102.911 E3.95869
G1 X103.156 Y103.387 E3.97439
G1 X103.120 Y103.443 E3.97633
G1 X100.902 Y105.661 E4.06902
G1 X101.027 Y105.767 E4.07384
G1 X101.124 Y105.788 E4.07677
G1 X101.547 Y105.673 E4.08973
G1 X102.938 Y104.282 E4.14786
G1 X102.989 Y104.631 E4.15829
G1 X102.997 Y104.879 E4.16563
G1 X102.645 Y105.232 E4.18035
G1 X102.777 Y105.099 F7800.000
G1 F4800
G1 X102.863 Y105.060 E4.18314
G1 X102.934 Y104.942 E4.18722
G1 X102.452 Y105.424 E4.20737
G1 X103.260 Y101.335 F7800.000
G1 F4800
G1 X103.265 Y101.291 E4.20867
G1 X103.367 Y101.182 E4.21309
G1 X103.631 Y100.963 E4.22323
G1 X105.925 Y98.669 E4.31908
G1 X106.464 Y98.787 E4.33538
G1 X105.765 Y99.486 E4.36460
G1 E2.36460 F2400.00000
G92 E0
G1 X102.051 Y94.011 F7800.000
G1 E2.00000 F2400.00000
G1 F4800
G1 X103.482 Y92.580 E2.05979
G1 X103.324 Y92.082 E2.07523
G1 X102.184 Y93.221 E2.12284
G1 X102.287 Y92.959 E2.13116
G1 X102.409 Y92.506 E2.14502
G1 X102.495 Y92.347 E2.15036
G1 X102.689 Y92.191 E2.15772
G1 X102.829 Y92.195 E2.16185
G1 X102.883 Y92.230 E2.16376
G1 X102.999 Y92.407 E2.17000
G1 E0.17000 F2400.00000
G92 E0
G1 X104.793 Y94.167 F7800.000
G1 E2.00000 F2400.00000
G1 F1200
G1 X104.468 Y94.491 E2.01599
G1 X104.692 Y94.963 F7800.000
G1 F1200
G1 X105.017 Y94.638 E2.03198
M106 S242.25
G1 Z1.800 F7800.000
G1 E0.03198 F2400.00000
G92 E0
G1 X105.330 Y99.423 F7800.000
G1 E2.00000 F2400.00000
G1 F4800
G1 X104.862 Y98.955 E2.01955
G1 X104.590 Y98.896 E2.02777
G1 X103.966 Y98.715 E2.04697
G1 X104.938 Y99.688 E2.08759
G1 X104.563 Y99.968 E2.10144
G1 X103.167 Y98.573 E2.15975
G1 X102.472 Y98.534 E2.18034
G1 X104.192 Y100.254 E2.25222
G1 X103.829 Y100.548 E2.26601
G1 X101.846 Y98.564 E2.34888
G1 X101.256 Y98.630 E2.36643
G1 X103.471 Y100.846 E2.45900
G1 X103.058 Y101.089 E2.47317
G1 X100.629 Y98.660 E2.57465
G1 X99.969 Y98.657 E2.59415
G1 X102.630 Y101.317 E2.70533
G1 X102.191 Y101.535 E2.71980
G1 X99.325 Y98.669 E2.83955
G1 X98.702 Y98.702 E2.85800
G1 X101.740 Y101.740 E2.98495
G1 X101.270 Y101.927 E2.99988
G1 X98.092 Y98.748 E3.13270
G1 X97.500 Y98.813 E3.15029
G1 X100.792 Y102.105 E3.28785
G1 X100.577 Y102.184 E3.29462
G1 X100.338 Y102.307 E3.30257
G1 X96.924 Y98.893 E3.44519
G1 X96.379 Y99.005 E3.46163
G1 X99.902 Y102.528 E3.60884
G1 X99.441 Y102.723 E3.62364
G1 X95.861 Y99.142 E3.77325
G1 X95.350 Y99.288 E3.78895
G1 X98.974 Y102.913 E3.94042
G1 X98.490 Y103.084 E3.95561
G1 X94.840 Y99.435 E4.10811
G1 X94.316 Y99.567 E4.12408
G1 X97.985 Y103.236 E4.27737
G1 X97.438 Y103.345 E4.29386
G1 X93.784 Y99.691 E4.44652
G1 X93.242 Y99.805 E4.46290
G1 X96.834 Y103.398 E4.61301
G1 X96.187 Y103.407 E4.63214
G1 X92.680 Y99.900 E4.77868
G1 X92.108 Y99.984 E4.79578
G1 X95.474 Y103.350 E4.93642
G1 X94.704 Y103.236 E4.95941
G1 X91.514 Y100.047 E5.09269
G1 X91.310 Y100.056 E5.09872
G1 X91.276 Y100.040 E5.09983
G1 X91.039 Y100.030 E5.10684
G1 X90.918 Y99.941 E5.11128
G1 X90.782 Y99.913 E5.11540
G1 X90.735 Y99.924 E5.11682
G1 X93.848 Y103.037 E5.24692
G1 X92.950 Y102.796 E5.27440
G1 X90.232 Y100.078 E5.38796
G1 X89.546 Y100.047 E5.40827
G1 X92.030 Y102.532 E5.51208
G1 X91.708 Y102.435 E5.52203
G1 X91.562 Y102.446 E5.52635
G1 X91.380 Y102.388 E5.53200
G1 X91.270 Y102.428 E5.53545
G1 X90.910 Y102.068 E5.55050
G1 X90.901 Y102.039 E5.55138
G1 X90.814 Y101.972 E5.55462
G1 X88.697 Y99.855 E5.64311
G1 X87.899 Y99.583 E5.66799
G1 X87.568 Y99.382 E5.67943
G1 X90.031 Y101.845 E5.78234
G1 X89.834 Y101.744 E5.78888
G1 X88.729 Y100.892 E5.83010
G1 X88.152 Y100.523 E5.85035
G1 X87.992 Y100.463 E5.85538
G1 X81.893 Y94.364 E6.11025
G1 X81.558 Y94.685 E6.12396
G1 X87.035 Y100.162 E6.35281
G1 X86.221 Y100.004 E6.37732
G1 X81.342 Y95.126 E6.58117
G1 X81.324 Y95.330 E6.58723
G1 X81.367 Y95.807 E6.60138
G1 X85.494 Y99.933 E6.77379
G1 X84.794 Y99.890 E6.79450
G1 X81.401 Y96.497 E6.93628
G1 X81.372 Y96.847 E6.94666
G1 X81.419 Y97.171 E6.95634
G1 X84.074 Y99.827 E7.06728
G1 X83.866 Y99.759 E7.07374
G1 X83.604 Y99.593 E7.08291
G1 X83.381 Y99.408 E7.09146
G1 X82.807 Y98.809 E7.11598
G1 X82.735 Y98.815 E7.11812
G1 X82.688 Y98.784 E7.11979
G1 X82.488 Y98.773 E7.12572
G1 X82.318 Y98.659 E7.13174
G1 X82.035 Y98.394 E7.14321
G1 X82.011 Y98.417 E7.14420
G1 X81.869 Y98.174 E7.15252
G1 X81.716 Y97.784 E7.16490
G1 X81.680 Y97.644 E7.16917
G1 X81.768 Y97.621 E7.17187
G1 X81.744 Y97.496 E7.17560
G1 X85.993 Y97.151 F7800.000
G1 F4800
G1 X82.505 Y93.663 E7.32134
G1 X82.403 Y93.787 E7.32608
G1 X82.322 Y93.813 E7.32860
G1 X82.153 Y93.967 E7.33536
G1 X86.910 Y98.724 E7.53414
G1 X87.371 Y99.282 E7.55552
G1 X87.775 Y99.636 E7.57138
G1 X87.893 Y99.707 E7.57546
G1 X88.389 Y99.519 F7800.000
G1 F1200
G1 X88.064 Y99.194 E7.58919
G1 X88.957 Y99.490 E7.61731
G1 X89.291 Y99.824 E7.63144
G1 X89.960 Y99.964 E7.65187
G1 X90.032 Y99.968 E7.65401
G1 X89.682 Y99.618 E7.66880
G1 X90.128 Y99.643 E7.68216
G1 X90.227 Y99.565 E7.68591
G1 X90.629 Y99.967 E7.70291
G1 X90.907 Y99.856 E7.71186
G1 X91.075 Y99.816 E7.71704
G1 X90.529 Y99.269 E7.74016
G1 X90.836 Y98.979 E7.75279
G1 X91.812 Y99.955 E7.79404
G1 X92.028 Y99.937 E7.80053
G1 X92.352 Y99.898 E7.81029
G1 X92.007 Y99.553 E7.82488
G1 X92.538 Y99.486 E7.84087
G1 X92.874 Y99.822 E7.85507
G1 X93.388 Y99.739 E7.87065
G1 X93.051 Y99.402 E7.88490
G1 X93.549 Y99.302 E7.90007
G1 X93.885 Y99.638 E7.91425
G1 X94.373 Y99.529 E7.92921
G1 X94.039 Y99.195 E7.94333
G1 X94.517 Y99.074 E7.95804
G1 X94.850 Y99.408 E7.97215
G1 X95.321 Y99.281 E7.98671
G1 X94.990 Y98.950 E8.00069
G1 X95.457 Y98.820 E8.01518
G1 X95.785 Y99.148 E8.02905
G1 X96.251 Y99.016 E8.04352
G1 X95.924 Y98.689 E8.05733
G1 X96.377 Y98.563 E8.07139
G1 X96.729 Y98.896 E8.08587
G1 X97.227 Y98.797 E8.10104
G1 X96.890 Y98.460 E8.11526
G1 X96.967 Y98.445 E8.11761
G1 X97.419 Y98.392 E8.13121
G1 X97.753 Y98.726 E8.14531
G1 X98.291 Y98.666 E8.16149
G1 X97.954 Y98.329 E8.17573
G1 X98.502 Y98.280 E8.19217
G1 X98.842 Y98.620 E8.20656
G1 X99.406 Y98.586 E8.22343
G1 X99.066 Y98.246 E8.23781
G1 X99.644 Y98.226 E8.25510
G1 X99.985 Y98.567 E8.26951
G1 X100.587 Y98.573 E8.28752
G1 X100.243 Y98.228 E8.30207
G1 X100.840 Y98.227 E8.31990
G1 X101.181 Y98.569 E8.33435
G1 X101.731 Y98.521 E8.35083
G1 X101.390 Y98.180 E8.36522
G1 X101.929 Y98.121 E8.38140
G1 X102.265 Y98.458 E8.39564
G1 X102.846 Y98.440 E8.41299
G1 X102.453 Y98.048 E8.42958
G1 X102.675 Y98.009 E8.43632
G1 X102.690 Y97.688 E8.44593
G1 X103.091 Y98.089 E8.46286
G1 X103.120 Y98.118 F7800.000
G1 F1200
G1 X103.475 Y98.472 E8.47785
G1 X104.182 Y98.582 E8.49923
G1 X103.843 Y98.243 E8.51354
G1 X104.694 Y98.491 E8.54001
G1 X105.098 Y98.579 E8.55238
G1 X105.481 Y98.710 E8.56447
G1 X105.661 Y99.017 E8.57511
G1 X105.553 Y99.182 E8.58101
G1 X105.463 Y99.266 E8.58468
G1 X105.815 Y99.617 E8.59953
G1 X106.220 Y99.425 E8.61294
G1 X105.432 Y98.637 E8.64623
G1 X106.199 Y98.807 E8.66970
G1 X106.689 Y99.297 E8.69042
G1 E6.69042 F2400.00000
G92 E0
G1 X103.634 Y101.244 F7800.000
G1 E2.00000 F2400.00000
G1 F1200
G1 X103.309 Y100.919 E2.01373
G1 X102.913 Y101.142 E2.02733
G1 X103.552 Y101.782 E2.05436
G1 X103.536 Y102.385 E2.07240
G1 X102.508 Y101.358 E2.11583
G1 X102.094 Y101.564 E2.12965
G1 X102.444 Y101.913 E2.14443
G1 X102.293 Y101.952 E2.14908
G1 X101.998 Y102.087 E2.15879
G1 X101.670 Y101.759 E2.17265
G1 X101.229 Y101.939 E2.18687
G1 X101.554 Y102.264 E2.20060
G1 E0.20060 F2400.00000
G92 E0
G1 X103.487 Y102.957 F7800.000
G1 E2.00000 F2400.00000
G1 F1200
G1 X102.525 Y101.995 E2.04066
G1 X102.419 Y102.508 E2.05634
G1 X103.309 Y103.399 E2.09398
G1 X103.102 Y103.811 E2.10778
G1 X102.279 Y102.988 E2.14256
G1 X102.233 Y103.134 E2.14712
G1 X102.093 Y103.423 E2.15671
G1 X102.942 Y104.271 E2.19258
G1 X102.939 Y104.605 E2.20254
G1 X102.985 Y104.934 E2.21249
G1 X101.847 Y103.796 E2.26060
G1 X101.555 Y104.124 E2.27372
G1 X102.833 Y105.402 E2.32772
G1 X102.356 Y105.545 E2.34260
G1 X101.249 Y104.438 E2.38939
G1 X101.098 Y104.585 E2.39568
G1 X100.971 Y104.780 E2.40265
G1 X101.866 Y105.675 E2.44044
G1 X101.464 Y105.784 E2.45287
G1 X101.340 Y105.755 E2.45668
G1 X100.877 Y105.306 E2.47597
G1 E0.47597 F2400.00000
G92 E0
G1 X99.031 Y103.338 F7800.000
G1 E2.00000 F2400.00000
G1 F1200
G1 X98.706 Y103.013 E2.01373
G1 X98.255 Y103.169 E2.02801
G1 X98.586 Y103.500 E2.04199
G1 X98.123 Y103.646 E2.05648
G1 X97.788 Y103.310 E2.07067
G1 X97.283 Y103.413 E2.08608
G1 X97.618 Y103.748 E2.10024
G1 X97.422 Y103.786 E2.10621
G1 X97.072 Y103.810 E2.11668
G1 X96.741 Y103.480 E2.13066
G1 X96.156 Y103.503 E2.14815
G1 X96.498 Y103.845 E2.16259
G1 X95.869 Y103.823 E2.18142
G1 X95.527 Y103.481 E2.19586
G1 X94.843 Y103.405 E2.21643
G1 X95.186 Y103.749 E2.23095
G1 X94.456 Y103.627 E2.25307
G1 X94.116 Y103.287 E2.26745
G1 X93.309 Y103.088 E2.29229
G1 X93.649 Y103.428 E2.30667
G1 X92.812 Y103.198 E2.33263
G1 X92.475 Y102.862 E2.34686
G1 X91.622 Y102.616 E2.37340
G1 X92.191 Y103.186 E2.39746
G1 X92.069 Y103.470 E2.40671
G1 X92.111 Y103.714 E2.41411
G1 X90.946 Y102.549 E2.46335
G1 X90.867 Y102.536 E2.46576
G1 X90.567 Y102.385 E2.47577
G1 X90.541 Y102.297 E2.47853
G1 X90.463 Y102.255 E2.48118
G1 X89.951 Y102.069 E2.49746
G1 X90.126 Y102.146 E2.50317
G1 X90.280 Y102.256 E2.50882
G1 X90.373 Y102.473 E2.51586
G1 X90.412 Y102.623 E2.52050
G1 X92.319 Y104.530 E2.60111
G1 X92.311 Y104.655 E2.60486
G1 X92.327 Y104.740 E2.60745
G1 X92.123 Y104.702 E2.61366
G1 X91.931 Y104.555 E2.62090
G1 X91.731 Y104.466 E2.62743
G1 X91.529 Y104.332 E2.63468
G1 X91.032 Y103.851 E2.65533
G1 E0.65533 F2400.00000
G92 E0
G1 X87.982 Y100.909 F7800.000
G1 E2.00000 F2400.00000
G1 F1200
G1 X87.641 Y100.574 E2.01429
G1 X87.110 Y100.376 E2.03122
G1 X86.730 Y100.270 E2.04301
G1 X86.617 Y100.244 E2.04648
G1 X86.957 Y100.585 E2.06087
G1 X86.486 Y100.483 E2.07529
G1 X86.094 Y100.422 E2.08714
G1 X85.754 Y100.081 E2.10153
G1 X84.986 Y100.014 E2.12455
G1 X85.328 Y100.356 E2.13899
G1 X84.586 Y100.314 E2.16119
G1 X84.244 Y99.972 E2.17566
G1 X83.773 Y99.949 E2.18976
G1 X83.400 Y99.828 E2.20148
G1 X83.725 Y100.152 E2.21521
G1 E0.21521 F2400.00000
G92 E0
G1 X90.836 Y98.979 F7800.000
G1 E2.00000 F2400.00000
G1 F1200
G1 X90.975 Y98.852 E2.00562
G1 X91.110 Y98.655 E2.01275
G1 X91.744 Y99.290 E2.03956
G1 X91.786 Y99.065 E2.04639
G1 X91.866 Y98.814 E2.05426
G1 X91.331 Y98.279 E2.07689
G1 X91.513 Y97.863 E2.09045
G1 X92.034 Y98.384 E2.11246
G1 X92.212 Y97.965 E2.12607
G1 X91.651 Y97.404 E2.14979
G1 X91.828 Y96.983 E2.16343
G1 X92.407 Y97.562 E2.18790
G1 X92.598 Y97.156 E2.20132
G1 X92.051 Y96.609 E2.22444
G1 X92.175 Y96.401 E2.23166
G1 X92.252 Y96.212 E2.23777
G1 X92.759 Y96.719 E2.25921
G1 X92.938 Y96.301 E2.27281
G1 X92.423 Y95.786 E2.29456
G1 X92.453 Y95.696 E2.29741
G1 X92.512 Y95.278 E2.31003
G1 X93.084 Y95.849 E2.33420
G1 X93.138 Y95.669 E2.33982
G1 X93.120 Y95.454 E2.34629
G1 X93.052 Y95.220 E2.35358
G1 X92.359 Y94.527 E2.38286
G1 X92.175 Y94.017 E2.39906
G1 X92.219 Y93.789 E2.40600
G1 X92.874 Y94.444 E2.43369
G1 E0.43369 F2400.00000
G92 E0
G1 X100.098 Y95.095 F7800.000
G1 E2.00000 F2400.00000
G1 F1200
G1 X100.096 Y95.149 E2.00161
G1 X100.206 Y95.451 E2.01122
G1 X100.467 Y95.822 E2.02477
G1 X100.645 Y96.019 E2.03271
G1 X100.809 Y96.136 E2.03873
G1 X101.501 Y96.498 E2.06206
G1 X99.773 Y94.770 E2.13509
G1 X99.779 Y94.599 E2.14021
G1 X99.854 Y94.413 E2.14619
G1 X99.933 Y94.333 E2.14957
G1 X103.273 Y97.673 E2.29075
G1 X103.471 Y97.274 E2.30407
G1 X100.282 Y94.084 E2.43888
G1 X100.688 Y93.893 E2.45229
G1 X100.918 Y94.123 E2.46201
G1 X100.961 Y93.977 E2.46654
G1 X101.248 Y94.044 E2.47536
G1 X101.389 Y94.304 E2.48419
G1 X101.210 Y94.415 E2.49048
G1 X101.859 Y95.064 E2.51791
G1 X101.872 Y94.703 E2.52870
G1 X101.924 Y94.531 E2.53407
G1 X101.128 Y93.735 E2.56769
G1 X101.333 Y93.680 E2.57404
G1 X101.566 Y93.576 E2.58167
G1 X102.155 Y94.164 E2.60654
G1 X102.291 Y94.027 E2.61231
G1 X102.558 Y93.970 E2.62047
G1 X101.904 Y93.316 E2.64810
G1 X102.116 Y93.045 E2.65838
G1 X102.152 Y92.966 E2.66097
G1 X103.028 Y93.843 E2.69799
G1 X103.210 Y93.766 E2.70391
G1 X103.382 Y93.599 E2.71106
G1 X102.318 Y92.535 E2.75606
G1 X102.409 Y92.183 E2.76693
G1 X102.462 Y92.081 E2.77034
G1 X103.522 Y93.142 E2.81517
G1 X103.208 Y92.230 F7800.000
G1 F1200
G1 X102.883 Y91.905 E2.82890
G1 E0.82890 F2400.00000
G92 E0
G1 X103.096 Y96.301 F7800.000
G1 E2.00000 F2400.00000
G1 F1200
G1 X103.016 Y96.185 E2.00421
G1 X102.878 Y96.083 E2.00934
G1 X103.421 Y96.626 E2.03230
M106 S237.15
G1 Z2.300 F7800.000
G1 E0.03230 F2400.00000
G92 E0
G1 X100.978 Y95.761 F7800.000
G1 E2.00000 F2400.00000
G1 F1200
G1 X101.440 Y95.288 E2.02274
G1 X101.474 Y94.934 E2.03498
G1 X101.431 Y94.621 E2.04585
G1 X100.498 Y95.554 E2.09125
G1 X100.430 Y95.459 E2.09524
G1 X100.359 Y95.174 E2.10537
G1 X100.447 Y94.929 E2.11431
G1 X100.898 Y94.466 E2.13655
G1 E0.13655 F2400.00000
G92 E0
G1 X105.100 Y99.347 F7800.000
G1 E2.00000 F2400.00000
G1 F1200
G1 X105.426 Y99.021 E2.01372
G1 X104.948 Y98.903 E2.02839
G1 X104.376 Y99.475 E2.05249
G1 X104.209 Y99.385 E2.05815
G1 X104.012 Y99.708 E2.06941
G1 X104.082 Y99.769 E2.07218
G1 X102.809 Y101.043 E2.12586
G1 X102.027 Y101.459 E2.15225
G1 X101.598 Y101.657 E2.16634
G1 X104.478 Y98.777 E2.28774
G1 X104.010 Y98.649 E2.30220
G1 X100.613 Y102.047 E2.44539
G1 X100.252 Y102.185 E2.45692
G1 X99.506 Y102.558 E2.48178
G1 X103.491 Y98.573 E2.64975
G1 X102.935 Y98.532 E2.66636
G1 X98.508 Y102.960 E2.85297
G1 X98.149 Y103.090 E2.86435
G1 X97.638 Y103.234 E2.88018
G1 X102.326 Y98.546 E3.07776
G1 X101.652 Y98.624 E3.09795
G1 X96.913 Y103.363 E3.29771
G1 X96.277 Y103.403 E3.31669
G1 X101.017 Y98.663 E3.51645
G1 X100.423 Y98.661 E3.53415
G1 X95.685 Y103.399 E3.73385
G1 X95.140 Y103.349 E3.75017
G1 X99.820 Y98.668 E3.94743
G1 X99.196 Y98.697 E3.96606
G1 X94.615 Y103.278 E4.15913
G1 X94.120 Y103.177 E4.17419
G1 X98.557 Y98.740 E4.36120
G1 X97.895 Y98.806 E4.38101
G1 X93.634 Y103.067 E4.56059
G1 X93.169 Y102.937 E4.57500
G1 X97.202 Y98.903 E4.74502
G1 X96.739 Y98.996 E4.75911
G1 X96.426 Y99.083 E4.76878
G1 X92.703 Y102.807 E4.92572
G1 X92.237 Y102.677 E4.94013
G1 X95.599 Y99.315 E5.08183
G1 X94.787 Y99.530 E5.10686
G1 X91.771 Y102.547 E5.23399
G1 X91.374 Y102.436 E5.24626
G1 X91.279 Y102.443 E5.24911
G1 X94.009 Y99.713 E5.36416
G1 X93.268 Y99.858 E5.38665
G1 X90.822 Y102.303 E5.48973
G1 X90.628 Y102.195 E5.49637
G1 X90.413 Y102.117 E5.50318
G1 X92.563 Y99.967 E5.59378
G1 X91.892 Y100.042 E5.61390
G1 X89.978 Y101.956 E5.69457
G1 X89.564 Y101.775 E5.70805
G1 X91.332 Y100.006 E5.78258
G1 X91.243 Y99.941 E5.78587
G1 X91.107 Y99.913 E5.79002
G1 X90.667 Y100.075 E5.80398
G1 X89.221 Y101.521 E5.86493
G1 X88.885 Y101.262 E5.87759
G1 X90.083 Y100.064 E5.92808
G1 X89.911 Y100.055 E5.93321
G1 X89.561 Y99.989 E5.94381
G1 X88.548 Y101.003 E5.98652
G1 X88.199 Y100.756 E5.99926
G1 X89.082 Y99.873 E6.03647
G1 X88.632 Y99.727 E6.05056
G1 X88.173 Y100.186 E6.06993
G1 X88.162 Y100.044 E6.07418
G1 X87.721 Y100.077 E6.08734
G1 X87.721 Y100.380 E6.09638
G1 X87.874 Y100.486 E6.10190
G1 X87.833 Y100.527 E6.10362
G1 X87.400 Y100.364 E6.11741
G1 X88.197 Y99.567 E6.15100
G1 X87.826 Y99.342 E6.16393
G1 X86.946 Y100.221 E6.20099
G1 X86.462 Y100.109 E6.21579
G1 X87.501 Y99.070 E6.25957
G1 X87.371 Y98.957 E6.26472
G1 X87.211 Y98.765 E6.27217
G1 X85.962 Y100.014 E6.32483
G1 X85.428 Y99.952 E6.34084
G1 X86.940 Y98.439 E6.40457
G1 X86.706 Y98.078 E6.41741
G1 X84.872 Y99.912 E6.49468
G1 X84.306 Y99.882 E6.51157
G1 X86.479 Y97.709 E6.60314
G1 X86.265 Y97.327 E6.61619
G1 X83.762 Y99.831 E6.72171
G1 X83.541 Y99.759 E6.72862
G1 X83.351 Y99.645 E6.73522
G1 X86.052 Y96.945 E6.84906
G1 X85.838 Y96.562 E6.86211
G1 X83.025 Y99.375 E6.98067
G1 X82.736 Y99.069 E6.99323
G1 X85.625 Y96.180 E7.11498
G1 X85.411 Y95.798 E7.12802
G1 X82.401 Y98.808 E7.25491
G1 X82.304 Y98.783 E7.25789
G1 X82.322 Y98.659 E7.26162
G1 X82.006 Y98.607 E7.27118
G1 X85.175 Y95.438 E7.40474
G1 X84.910 Y95.107 E7.41738
G1 X81.723 Y98.294 E7.55170
G1 X81.653 Y98.180 E7.55569
G1 X81.534 Y97.887 E7.56511
G1 X84.610 Y94.811 E7.69476
G1 X84.270 Y94.556 E7.70744
G1 X81.403 Y97.422 E7.82826
G1 X81.379 Y97.283 E7.83246
G1 X81.373 Y97.047 E7.83950
G1 X81.400 Y96.830 E7.84604
G1 X83.997 Y94.232 E7.95550
G1 X83.871 Y94.067 E7.96169
G1 X83.712 Y93.922 E7.96812
G1 X81.388 Y96.245 E8.06605
G1 X81.328 Y95.709 E8.08212
G1 X83.305 Y93.733 E8.16541
G1 X83.053 Y93.707 E8.17296
G1 X82.835 Y93.859 E8.18089
G1 X82.797 Y93.751 E8.18430
G1 X82.777 Y93.755 E8.18493
G1 X82.655 Y93.813 E8.18894
G1 X82.554 Y93.888 E8.19270
G1 X82.229 Y94.213 E8.20640
M106 S247.35
G1 Z2.800 F7800.000
G1 X83.407 Y94.057 F7800.000
G1 F1200
G1 X83.732 Y94.382 E8.22053
G1 E6.22053 F2400.00000
G92 E0
G1 X85.153 Y96.418 F7800.000
G1 E2.00000 F2400.00000
G1 F1200
G1 X82.565 Y93.831 E2.11255
G1 X82.393 Y93.886 E2.11811
G1 X82.199 Y94.036 E2.12566
G1 X82.182 Y94.062 E2.12662
G1 X85.947 Y97.827 E2.29038
G1 X86.279 Y98.424 E2.31140
G1 X86.676 Y99.042 E2.33397
G1 X87.303 Y99.774 E2.36360
G1 X87.271 Y99.766 E2.36461
G1 X82.081 Y94.576 E2.59035
G1 X82.032 Y94.729 E2.59527
G1 X81.840 Y94.950 E2.60428
G1 X86.500 Y99.610 E2.80700
G1 X85.796 Y99.521 E2.82884
G1 X81.682 Y95.406 E3.00779
G1 X81.678 Y95.529 E3.01157
G1 X81.771 Y96.111 E3.02968
G1 X85.133 Y99.473 E3.17593
G1 X84.485 Y99.440 E3.19590
G1 X81.545 Y96.500 E3.32377
G1 X81.487 Y96.602 E3.32739
G1 X81.458 Y96.760 E3.33234
G1 X81.458 Y96.889 E3.33628
G1 X81.488 Y97.058 E3.34157
G1 X82.838 Y98.408 E3.40028
G1 X82.507 Y98.625 E3.41244
G1 X82.471 Y98.630 E3.41359
G1 X82.427 Y98.607 E3.41510
G1 X81.925 Y98.109 E3.43687
G1 E1.43687 F2400.00000
G92 E0
G1 X89.074 Y100.648 F7800.000
G1 E2.00000 F2400.00000
G1 F1200
G1 X88.749 Y100.323 E2.01401
G1 X89.522 Y100.486 E2.03812
G1 X90.018 Y100.982 E2.05951
G1 X90.616 Y100.970 E2.07774
G1 X90.172 Y100.527 E2.09688
G1 X90.776 Y100.521 E2.11530
G1 X92.450 Y102.195 E2.18752
G1 X93.312 Y102.447 E2.21488
G1 X91.364 Y100.500 E2.29886
G1 X91.916 Y100.441 E2.31578
G1 X94.148 Y102.674 E2.41205
G1 X94.663 Y102.791 E2.42815
G1 X94.913 Y102.828 E2.43587
G1 X92.458 Y100.373 E2.54177
G1 X92.983 Y100.289 E2.55800
G1 X95.620 Y102.926 E2.67173
G1 X96.098 Y102.971 E2.68636
G1 X96.271 Y102.967 E2.69166
G1 X93.497 Y100.193 E2.81133
G1 X93.999 Y100.085 E2.82699
G1 X96.866 Y102.952 E2.95066
G1 X97.091 Y102.947 E2.95753
G1 X97.429 Y102.906 E2.96792
G1 X94.489 Y99.966 E3.09474
G1 X94.975 Y99.842 E3.11004
G1 X97.934 Y102.801 E3.23766
G1 X98.400 Y102.657 E3.25253
G1 X95.451 Y99.709 E3.37972
G1 X95.928 Y99.575 E3.39480
G1 X98.854 Y102.501 E3.52103
G1 X99.286 Y102.324 E3.53527
G1 X96.404 Y99.441 E3.65959
G1 X96.916 Y99.344 E3.67549
G1 X99.718 Y102.146 E3.79634
G1 X100.129 Y101.947 E3.81027
G1 X97.440 Y99.258 E3.92623
G1 X97.989 Y99.197 E3.94308
G1 X100.538 Y101.747 E4.05303
G1 X100.979 Y101.578 E4.06743
G1 X98.549 Y99.148 E4.17223
G1 X99.124 Y99.113 E4.18980
G1 X101.420 Y101.409 E4.28882
G1 X101.848 Y101.227 E4.30300
G1 X99.719 Y99.098 E4.39480
G1 X100.334 Y99.104 E4.41355
G1 X102.264 Y101.033 E4.49677
G1 X102.667 Y100.826 E4.51058
G1 X100.935 Y99.094 E4.58529
G1 X101.494 Y99.044 E4.60242
G1 X103.058 Y100.608 E4.66987
G1 X103.237 Y100.507 E4.67614
G1 X103.426 Y100.366 E4.68333
G1 X102.041 Y98.981 E4.74310
G1 X102.641 Y98.971 E4.76140
G1 X103.758 Y100.088 E4.80958
G1 X104.094 Y99.814 E4.82280
G1 X103.319 Y99.039 E4.85623
G1 X103.678 Y99.093 E4.86731
G1 X103.909 Y99.145 E4.87453
G1 X104.105 Y99.216 E4.88089
G1 X104.430 Y99.541 E4.89491
G1 E2.89491 F2400.00000
G92 E0
G1 X91.583 Y101.938 F7800.000
G1 E2.00000 F2400.00000
G1 F1200
G1 X90.344 Y100.699 E2.05345
G1 X90.391 Y101.004 E2.06286
G1 X90.121 Y101.085 E2.07147
G1 X90.675 Y101.639 E2.09538
G1 X90.161 Y101.450 E2.11210
G1 X89.961 Y101.336 E2.11912
G1 X89.074 Y100.648 E2.15334
M106 S252.45
G1 Z3.300 F7800.000
G1 X90.729 Y101.302 F7800.000
G1 F1200
G1 X91.054 Y100.978 E2.16725
G1 X91.699 Y100.938 E2.18680
G1 X91.181 Y101.455 E2.20895
G1 X91.644 Y101.598 E2.22360
G1 X92.383 Y100.859 E2.25523
G1 X93.083 Y100.764 E2.27661
G1 X92.108 Y101.738 E2.31833
G1 X92.568 Y101.883 E2.33292
G1 X93.821 Y100.630 E2.38655
G1 X94.593 Y100.463 E2.41045
G1 X93.043 Y102.014 E2.47679
G1 X93.520 Y102.142 E2.49173
G1 X95.405 Y100.257 E2.57239
G1 X96.247 Y100.020 E2.59887
G1 X93.997 Y102.270 E2.69516
G1 X94.496 Y102.376 E2.71060
G1 X97.056 Y99.815 E2.82017
G1 X97.782 Y99.694 E2.84245
G1 X95.026 Y102.451 E2.96041
G1 X95.570 Y102.512 E2.97696
G1 X98.464 Y99.618 E3.10083
G1 X99.120 Y99.567 E3.12072
G1 X96.157 Y102.530 E3.24752
G1 X96.788 Y102.503 E3.26666
G1 X99.752 Y99.539 E3.39350
G1 X100.371 Y99.526 E3.41223
G1 X97.520 Y102.377 E3.53426
G1 X98.416 Y102.086 E3.56277
G1 X100.964 Y99.538 E3.67182
G1 X101.606 Y99.500 E3.69129
G1 X99.440 Y101.667 E3.78401
G1 X100.042 Y101.359 E3.80448
G1 X100.545 Y101.166 E3.82080
G1 X102.283 Y99.428 E3.89517
G1 X102.462 Y99.409 E3.90062
G1 X102.913 Y99.404 E3.91425
G1 X102.788 Y99.529 E3.91960
G1 X102.671 Y99.961 E3.93313
G1 X102.403 Y99.913 E3.94136
G1 X101.601 Y100.715 E3.97568
G1 X102.951 Y99.971 F7800.000
G1 F1200
G1 X103.276 Y99.646 E3.98958
G1 E1.98958 F2400.00000
G92 E0
G1 X85.931 Y99.106 F7800.000
G1 E2.00000 F2400.00000
G1 F1200
G1 X86.256 Y98.781 E2.01362
G1 X86.036 Y98.408 E2.02644
G1 X85.572 Y98.872 E2.04588
G1 X85.459 Y98.575 E2.05527
G1 X85.253 Y98.599 E2.06143
G1 X85.822 Y98.030 E2.08526
G1 X85.608 Y97.651 E2.09815
G1 X84.248 Y99.011 E2.15515
G1 X83.979 Y99.000 E2.16313
G1 X83.749 Y98.918 E2.17037
G1 X85.395 Y97.272 E2.23935
G1 X85.181 Y96.893 E2.25224
G1 X83.420 Y98.654 E2.32603
G1 X83.124 Y98.358 E2.33844
G1 X84.968 Y96.514 E2.41571
G1 X84.747 Y96.143 E2.42852
G1 X82.868 Y98.021 E2.50726
G1 X82.603 Y97.757 E2.51834
G1 X82.480 Y97.817 E2.52241
G1 X84.494 Y95.804 E2.60680
G1 X84.385 Y95.675 E2.61179
G1 X84.191 Y95.514 E2.61926
G1 X81.802 Y97.903 E2.71935
G1 X81.641 Y97.471 E2.73300
G1 X82.457 Y96.655 E2.76720
G1 X82.511 Y96.644 E2.76882
G1 X82.513 Y96.599 E2.77016
G1 X83.866 Y95.246 E2.82685
G1 X83.763 Y95.161 E2.83080
G1 X83.740 Y94.964 E2.83668
G1 X83.788 Y94.732 E2.84369
G1 X82.136 Y96.384 E2.91292
G1 X82.034 Y95.893 E2.92777
G1 X82.466 Y95.461 E2.94588
G1 X82.672 Y95.636 E2.95388
G1 X82.937 Y95.369 E2.96503
G1 X82.785 Y95.143 E2.97313
G1 X83.707 Y94.221 E3.01176
G1 X83.507 Y94.074 E3.01909
G1 X83.324 Y94.011 E3.02483
G1 X82.272 Y95.063 E3.06894
G1 X82.202 Y94.832 E3.07609
G1 X82.188 Y94.710 E3.07974
G1 X82.201 Y94.586 E3.08344
G1 X82.295 Y94.448 E3.08839
G1 X82.621 Y94.121 E3.10207
G1 E1.10207 F2400.00000
G92 E0
G1 X82.347 Y97.950 F7800.000
G1 E2.00000 F2400.00000
G1 F1200
G1 X82.474 Y98.091 E2.00562
G1 X82.529 Y97.992 E2.00899
G1 X82.599 Y97.698 E2.01794
G1 X82.022 Y98.275 E2.04214
G1 E0.04214 F2400.00000
G92 E0
G1 X84.248 Y99.011 F7800.000
G1 E2.00000 F2400.00000
G1 F1200
G1 X84.813 Y99.039 E2.01676
G1 X85.417 Y98.434 E2.04208
G1 X85.432 Y98.689 E2.04962
G1 X85.712 Y98.686 E2.05789
G1 X85.870 Y98.574 E2.06367
G1 X85.365 Y99.079 E2.08484
M106 S255
G1 Z3.800 F7800.000
G1 E0.08484 F2400.00000
G92 E0
G1 X83.394 Y97.746 F7800.000
G1 E2.00000 F2400.00000
G1 F621.984
G1 X84.068 Y98.421 E2.03043
G1 X84.233 Y98.526 E2.03664
G1 X84.417 Y98.573 E2.04271
G1 X84.877 Y98.592 E2.05739
G1 X82.580 Y96.295 E2.16098
G1 X82.505 Y96.083 E2.16817
G1 X82.871 Y96.052 E2.17988
G1 X82.862 Y95.940 E2.18348
G1 X85.485 Y98.563 E2.30179
G1 X85.321 Y98.202 E2.31442
G1 X84.762 Y97.202 E2.35098
G1 X83.415 Y95.855 E2.41172
G1 X83.385 Y95.843 E2.41275
G1 X83.317 Y95.757 E2.41626
G1 X83.143 Y95.663 E2.42255
G1 X83.176 Y95.616 E2.42438
G1 X82.784 Y95.224 E2.44204
G1 X82.820 Y95.171 E2.44407
G1 X82.668 Y95.000 E2.45138
G1 X82.644 Y94.928 E2.45380
G1 X82.532 Y94.833 E2.45849
G1 X82.391 Y94.634 E2.46626
G1 X82.348 Y94.533 E2.46977
G1 X82.342 Y94.448 E2.47248
G1 X82.381 Y94.391 E2.47469
G1 X82.502 Y94.304 E2.47945
G1 X83.442 Y95.244 E2.52187
G1 X83.547 Y94.712 F7800.000
G1 F621.984
G1 X83.222 Y94.387 E2.53652
G1 X82.453 Y95.530 F7800.000
G1 F621.984
G1 X82.887 Y95.964 E2.55612
G1 E0.55612 F2400.00000
G92 E0
G1 X92.941 Y101.200 F7800.000
G1 E2.00000 F2400.00000
G1 F621.984
G1 X93.266 Y101.525 E2.01436
G1 X94.148 Y101.782 E2.04305
G1 X93.444 Y101.079 E2.07414
G1 X93.963 Y100.973 E2.09069
G1 X94.955 Y101.965 E2.13451
G1 X95.662 Y102.047 E2.15676
G1 X94.470 Y100.855 E2.20946
G1 X94.968 Y100.728 E2.22552
G1 X96.334 Y102.095 E2.28589
G1 X96.934 Y102.070 E2.30464
G1 X95.460 Y100.595 E2.36979
G1 X95.948 Y100.459 E2.38562
G1 X97.499 Y102.010 E2.45415
G1 X98.001 Y101.887 E2.47030
G1 X96.433 Y100.319 E2.53960
G1 X96.946 Y100.208 E2.55603
G1 X98.470 Y101.732 E2.62335
G1 X98.925 Y101.563 E2.63853
G1 X97.493 Y100.130 E2.70182
G1 X98.053 Y100.065 E2.71942
G1 X99.366 Y101.378 E2.77743
G1 X99.796 Y101.184 E2.79219
G1 X98.626 Y100.014 E2.84387
G1 X99.215 Y99.978 E2.86231
G1 X100.210 Y100.973 E2.90625
G1 X100.656 Y100.795 E2.92128
G1 X99.825 Y99.964 E2.95801
G1 X100.466 Y99.980 E2.97805
G1 X101.108 Y100.622 E3.00640
G1 X101.542 Y100.431 E3.02121
G1 X101.068 Y99.958 E3.04213
G1 X101.646 Y99.911 E3.06024
G1 X101.971 Y100.236 E3.07460
G1 Z4.300 F7800.000
G1 E1.07460 F2400.00000
G92 E0
G1 X99.379 Y100.744 F7800.000
G1 E2.00000 F2400.00000
G1 F600
G1 X99.704 Y100.419 E2.01436
G1 X99.054 Y100.444 E2.03469
G1 X98.256 Y101.242 E2.06994
G1 X97.519 Y101.490 E2.09424
G1 X97.343 Y101.531 E2.09988
G1 X98.371 Y100.502 E2.14530
G1 X97.665 Y100.584 E2.16751
G1 X96.609 Y101.640 E2.21417
G1 X95.962 Y101.663 E2.23441
G1 X96.902 Y100.723 E2.27596
G1 X96.022 Y100.978 E2.30457
G1 X95.378 Y101.622 E2.33303
G1 X94.828 Y101.547 E2.35038
G1 X95.153 Y101.222 E2.36473
G1 E0.36473 F2400.00000
G92 E0
G1 X84.497 Y98.131 F7800.000
G1 E2.00000 F2400.00000
G1 F600
G1 X84.822 Y97.806 E2.01599
G1 X84.705 Y97.519 E2.02680
G1 X84.597 Y97.335 E2.03421
G1 X84.169 Y97.763 E2.05526
G1 X84.104 Y97.423 E2.06730
G1 X83.870 Y97.366 E2.07566
G1 X84.340 Y96.897 E2.09875
G1 X84.056 Y96.485 E2.11616
G1 X83.282 Y97.259 E2.15427
G1 X83.181 Y97.109 E2.16056
G1 X83.041 Y96.804 E2.17224
G1 X83.693 Y96.152 E2.20431
G1 X83.647 Y96.115 E2.20635
G1 X83.336 Y95.984 E2.21810
G1 X83.189 Y95.961 E2.22330
G1 X82.864 Y96.285 E2.23929
G1 X83.282 Y97.259 F7800.000
G1 F600
G1 X83.564 Y97.672 E2.25670
G1 X83.906 Y97.331 E2.27352
G1 X83.989 Y97.435 E2.27818
G1 X84.126 Y97.463 E2.28301
G1 X84.349 Y97.583 E2.29184
G1 X83.905 Y98.028 E2.31370
G1 Z4.800 F7800.000
G1 E0.31370 F2400.00000
G92 E0
M107
; Filament-specific end gcode 
;END gcode for filament

M104 S0 ; turn off temperature
G28 X0  ; home X axis
M84     ; disable motors

M140 S0 ; set bed temperature
; filament used = 63.6mm (0.4cm3)
; total filament cost = 0.0

; avoid_crossing_perimeters = 0
; bed_shape = 0x0,200x0,200x200,0x200
; bed_temperature = 0
; before_layer_gcode = 
; between_objects_gcode = 
; bridge_acceleration = 0
; bridge_fan_speed = 100
; brim_connections_width = 0
; brim_width = 0
; complete_objects = 0
; cooling = 1
; default_acceleration = 0
; disable_fan_first_layers = 3
; duplicate_distance = 6
; end_filament_gcode = "; Filament-specific end gcode \n;END gcode for filament\n"
; end_gcode = M104 S0 ; turn off temperature\nG28 X0  ; home X axis\nM84     ; disable motors\n
; extruder_clearance_height = 20
; extruder_clearance_radius = 20
; extruder_offset = 0x0
; extrusion_axis = E
; extrusion_multiplier = 1
; fan_always_on = 0
; fan_below_layer_time = 60
; filament_colour = #FFFFFF
; filament_cost = 0
; filament_density = 0
; filament_diameter = 3
; filament_max_volumetric_speed = 0
; filament_notes = ""
; first_layer_acceleration = 0
; first_layer_bed_temperature = 0
; first_layer_extrusion_width = 200%
; first_layer_speed = 30
; first_layer_temperature = 205
; gcode_arcs = 0
; gcode_comments = 0
; gcode_flavor = reprap
; has_heatbed = 1
; infill_acceleration = 0
; infill_first = 0
; interior_brim_width = 0
; layer_gcode = 
; max_fan_speed = 100
; max_layer_height = 0.3
; max_print_speed = 80
; max_volumetric_speed = 0
; min_fan_speed = 35
; min_layer_height = 0.15
; min_print_speed = 10
; min_skirt_length = 0
; notes = 
; nozzle_diameter = 0.5
; only_retract_when_crossing_perimeters = 1
; ooze_prevention = 0
; output_filename_format = [input_filename_base].gcode
; perimeter_acceleration = 0
; post_process = 
; pressure_advance = 0
; printer_notes = 
; resolution = 0
; retract_before_travel = 2
; retract_layer_change = 0
; retract_length = 2
; retract_length_toolchange = 10
; retract_lift = 0
; retract_lift_above = 0
; retract_lift_below = 0
; retract_restart_extra = 0
; retract_restart_extra_toolchange = 0
; retract_speed = 40
; skirt_distance = 6
; skirt_height = 1
; skirts = 0
; slowdown_below_layer_time = 5
; spiral_vase = 0
; standby_temperature_delta = -5
; start_filament_gcode = "; Filament gcode\n"
; start_gcode = G28 ; home all axes\nG1 Z5 F5000 ; lift nozzle\n
; temperature = 200
; threads = 8
; toolchange_gcode = 
; travel_speed = 130
; use_firmware_retraction = 0
; use_relative_e_distances = 0
; use_set_and_wait_bed = 0
; use_set_and_wait_extruder = 0
; use_volumetric_e = 0
; vibration_limit = 0
; wipe = 0
; z_offset = 0
; z_steps_per_mm = 0
; adaptive_slicing = 0
; adaptive_slicing_quality = 75%
; dont_support_bridges = 1
; extrusion_width = 0
; first_layer_height = 0.3
; infill_only_where_needed = 0
; interface_shells = 0
; layer_height = 0.5
; match_horizontal_surfaces = 0
; raft_layers = 0
; regions_overlap = 0
; seam_position = aligned
; sequential_print_priority = 0
; support_material = 0
; support_material_angle = 0
; support_material_buildplate_only = 0
; support_material_contact_distance = 0.2
; support_material_enforce_layers = 0
; support_material_extruder = 1
; support_material_extrusion_width = 0
; support_material_interface_extruder = 1
; support_material_interface_extrusion_width = 0
; support_material_interface_layers = 3
; support_material_interface_spacing = 0
; support_material_interface_speed = 100%
; support_material_max_layers = 0
; support_material_pattern = pillars
; support_material_spacing = 2.5
; support_material_speed = 60
; support_material_threshold = 60%
; xy_size_compensation = 0
; bottom_infill_pattern = rectilinear
; bottom_solid_layers = 0
; bridge_flow_ratio = 1
; bridge_speed = 60
; external_perimeter_extrusion_width = 0
; external_perimeter_speed = 50%
; external_perimeters_first = 0
; extra_perimeters = 1
; fill_angle = 45
; fill_density = 90%
; fill_gaps = 1
; fill_pattern = rectilinear
; gap_fill_speed = 20
; infill_every_layers = 1
; infill_extruder = 1
; infill_extrusion_width = 0
; infill_overlap = 55%
; infill_speed = 80
; overhangs = 1
; perimeter_extruder = 1
; perimeter_extrusion_width = 0
; perimeter_speed = 60
; perimeters = 0
; small_perimeter_speed = 15
; solid_infill_below_area = 70
; solid_infill_every_layers = 0
; solid_infill_extruder = 1
; solid_infill_extrusion_width = 0
; solid_infill_speed = 20
; thin_walls = 1
; top_infill_extrusion_width = 0
; top_infill_pattern = rectilinear
; top_solid_infill_speed = 15
; top_solid_layers = 0
