; generated by Slic3r 1.3.0 on 2020-03-12 at 11:17:52

; external perimeters extrusion width = 0.55mm (6.64mm^3/s)
; perimeters extrusion width = 0.52mm (12.53mm^3/s)
; infill extrusion width = 0.52mm (16.71mm^3/s)
; solid infill extrusion width = 0.52mm (4.18mm^3/s)
; top infill extrusion width = 0.52mm (3.13mm^3/s)

M107
M104 S205 ; set temperature
G28 ; home all axes
G1 Z5 F5000 ; lift nozzle

; Filament gcode

M109 S205 ; set temperature and wait for it to be reached
G21 ; set units to millimeters
G90 ; use absolute coordinates
M82 ; use absolute distances for extrusion
G92 E0
G1 Z0.500 F7800.000
G1 E-2.00000 F2400.00000
G92 E0
G1 X99.236 Y91.297 F7800.000
G1 E2.00000 F2400.00000
G1 F600
G1 X98.542 Y91.992 E2.07163
G1 X98.451 Y92.358 E2.09915
G1 X98.108 Y93.384 E2.17804
G1 X97.979 Y94.012 E2.22482
G1 X100.694 Y91.297 E2.50484
G1 X102.152 Y91.297 E2.61116
G1 X99.470 Y93.979 E2.88773
G1 X99.811 Y93.963 E2.91261
G1 X99.882 Y93.982 E2.91798
G1 X100.928 Y93.979 E2.99426
G1 X102.804 Y92.104 E3.18766
G1 X102.900 Y92.517 E3.21863
G1 X102.990 Y93.061 E3.25887
G1 X103.015 Y93.350 E3.28000
G1 X102.321 Y94.045 E3.35162
M104 S200 ; set temperature
G1 Z1.000 F7800.000
G1 E1.35162 F2400.00000
G92 E0
G1 X103.575 Y95.698 F7800.000
G1 E2.00000 F2400.00000
G1 F3617.62
G1 X102.001 Y94.124 E2.06577
G1 X101.454 Y94.127 E2.08193
G1 X101.358 Y94.149 E2.08481
G1 X101.335 Y94.124 E2.08581
G1 X100.810 Y94.124 E2.10132
G1 X100.753 Y94.151 E2.10317
G1 X100.706 Y94.127 E2.10474
G1 X100.034 Y94.127 E2.12459
G1 X104.002 Y98.095 E2.29037
G1 X104.073 Y98.584 E2.30498
G1 X104.131 Y99.213 E2.32364
G1 X104.136 Y99.714 E2.33844
G1 X104.193 Y100.059 E2.34876
G1 X104.267 Y100.329 E2.35705
G1 X98.251 Y94.313 E2.60841
G1 X98.231 Y94.363 E2.61000
G1 X98.198 Y94.638 E2.61817
G1 X98.221 Y95.492 E2.64344
G1 X98.198 Y95.848 E2.65397
G1 X98.143 Y96.174 E2.66372
G1 X102.650 Y100.681 E2.85207
G1 X102.609 Y101.053 E2.86312
G1 X102.630 Y101.422 E2.87405
G1 X102.893 Y102.893 E2.91819
G1 X101.486 Y101.486 E2.97699
G1 X101.638 Y102.290 E3.00116
G1 X101.886 Y103.855 E3.04798
G1 X103.306 Y105.275 E3.10734
G1 X103.384 Y105.859 E3.12474
G1 X103.407 Y106.315 E3.13823
G1 X103.372 Y107.311 E3.16766
G1 X102.583 Y106.521 E3.20066
G1 E1.20066 F2400.00000
G92 E0
G1 X99.700 Y107.577 F7800.000
G1 E2.00000 F2400.00000
G1 F3617.62
G1 X99.707 Y107.772 E2.00577
G1 X99.767 Y108.117 E2.01611
G1 X99.825 Y108.264 E2.02080
G1 X99.918 Y108.373 E2.02504
G1 X99.978 Y108.400 E2.02696
G1 X100.045 Y108.380 E2.02904
G1 X100.140 Y108.285 E2.03302
G1 X100.221 Y108.097 E2.03905
G1 X99.375 Y107.252 E2.07439
G1 X99.365 Y106.961 E2.08299
G1 X99.387 Y106.081 E2.10898
G1 X99.355 Y105.262 E2.13320
G1 X100.382 Y106.289 E2.17610
G1 X100.415 Y105.796 E2.19069
G1 X100.551 Y104.489 E2.22951
G1 X99.347 Y103.285 E2.27983
G1 X99.368 Y102.125 E2.31411
G1 X99.340 Y101.309 E2.33825
G1 X100.523 Y102.492 E2.38770
G1 X100.762 Y100.762 F7800.000
G1 F3617.62
G1 X97.676 Y97.676 E2.51666
G1 X97.685 Y98.100 E2.52921
G1 X97.652 Y98.518 E2.54160
G1 X97.487 Y99.456 E2.56973
G1 X98.785 Y100.754 E2.62397
G1 X98.635 Y101.001 E2.63250
G1 X98.553 Y101.233 E2.63979
G1 X98.411 Y101.772 E2.65624
G1 X98.318 Y102.256 E2.67082
G1 X97.175 Y101.113 E2.71860
G1 X96.893 Y102.801 E2.76915
G1 X98.018 Y103.925 E2.81615
G1 X97.798 Y104.744 E2.84119
G1 X97.632 Y105.508 E2.86431
G1 X96.698 Y104.574 E2.90336
G1 E0.90336 F2400.00000
G92 E0
G1 X94.654 Y98.592 F7800.000
G1 E2.00000 F2400.00000
G1 F3617.62
G1 X94.449 Y98.937 E2.01185
G1 X94.353 Y99.146 E2.01864
G1 X94.317 Y99.278 E2.02271
G1 X94.315 Y99.402 E2.02637
G1 X94.361 Y99.501 E2.02959
G1 X94.447 Y99.586 E2.03315
G1 X94.529 Y99.633 E2.03595
G1 X94.643 Y99.667 E2.03945
G1 X94.723 Y99.669 E2.04182
G1 X94.804 Y99.653 E2.04426
G1 X95.050 Y99.520 E2.05252
G1 X95.343 Y99.281 E2.06369
G1 X94.329 Y98.267 E2.10605
G1 X94.655 Y97.769 E2.12365
G1 X95.166 Y97.135 E2.14769
G1 X95.532 Y97.501 E2.16298
G1 E0.16298 F2400.00000
G92 E0
G1 X102.326 Y100.356 F7800.000
G1 E2.00000 F2400.00000
G1 F3617.62
G1 X102.396 Y100.153 E2.00637
G1 X102.462 Y100.044 E2.01012
G1 X102.533 Y99.961 E2.01336
G1 X102.679 Y99.861 E2.01859
G1 X102.818 Y99.823 E2.02284
G1 X102.938 Y99.826 E2.02638
G1 X103.063 Y99.862 E2.03024
G1 X103.168 Y99.934 E2.03399
G1 X103.260 Y100.079 E2.03906
G1 X103.362 Y100.300 E2.04627
G1 X103.939 Y101.783 E2.09328
G1 X104.087 Y102.117 E2.10408
G1 X105.569 Y103.599 E2.16600
G1 E0.16600 F2400.00000
G92 E0
G1 X95.376 Y97.778 F7800.000
G1 E2.00000 F2400.00000
G1 F904.406
G1 X95.701 Y98.103 E2.01419
G1 X96.121 Y97.906 E2.02853
G1 X95.580 Y97.365 E2.05217
G1 X95.801 Y96.969 E2.06619
G1 X96.536 Y97.704 E2.09828
G1 X96.912 Y97.462 E2.11208
G1 X96.046 Y96.596 E2.14994
G1 X96.303 Y96.236 E2.16360
G1 X97.285 Y97.218 E2.20648
G1 X97.700 Y97.015 E2.22074
G1 X96.564 Y95.880 E2.27032
G1 X96.826 Y95.524 E2.28395
G1 X97.984 Y96.682 E2.33453
G1 X98.055 Y96.432 E2.34255
G1 X98.098 Y96.178 E2.35051
G1 X97.088 Y95.168 E2.39461
G1 X97.369 Y94.832 E2.40814
G1 X98.127 Y95.590 E2.44125
G1 X98.105 Y94.951 E2.46099
G1 X97.654 Y94.500 E2.48067
G1 X97.751 Y94.309 E2.48727
G1 X97.829 Y94.057 E2.49542
G1 X98.208 Y94.436 E2.51197
G1 X98.314 Y94.275 E2.51794
G1 X98.509 Y94.120 E2.52562
G1 X97.919 Y93.530 E2.55138
G1 X98.018 Y93.012 E2.56767
G1 X99.040 Y94.033 E2.61228
G1 X99.500 Y94.034 E2.62649
G1 X99.555 Y94.010 E2.62835
G1 X99.655 Y94.032 E2.63153
G1 X98.154 Y92.530 E2.69712
G1 X98.312 Y92.071 E2.71211
G1 X100.273 Y94.032 E2.79775
G1 X100.893 Y94.034 E2.81689
G1 X98.458 Y91.599 E2.92323
G1 X98.529 Y91.263 E2.93383
G1 X98.447 Y91.244 E2.93642
G1 X98.720 Y91.244 E2.94486
G1 X101.508 Y94.032 E3.06658
G1 X102.127 Y94.034 E3.08571
G1 X99.338 Y91.244 E3.20751
G1 X99.955 Y91.244 E3.22658
G1 X102.828 Y94.117 E3.35202
G1 X103.067 Y94.283 E3.36102
G1 X103.060 Y93.732 E3.37804
G1 X100.573 Y91.244 E3.48667
G1 X101.190 Y91.244 E3.50573
G1 X103.036 Y93.090 E3.58635
G1 X103.064 Y93.085 E3.58723
G1 X102.873 Y92.310 E3.61187
G1 X101.807 Y91.244 E3.65839
G1 X102.425 Y91.244 E3.67746
G1 X102.750 Y91.569 E3.69165
G1 Z1.500 F7800.000
G1 X98.586 Y91.569 F7800.000
G1 F3498.15
G1 X98.402 Y91.569 E3.69707
G1 X98.358 Y91.797 E3.70392
G1 X98.910 Y91.244 E3.72700
G1 X100.879 Y91.244 E3.78518
G1 X96.761 Y95.363 E3.95729
G1 X96.512 Y95.785 E3.97174
G1 X96.236 Y96.193 E3.98630
G1 X96.313 Y96.250 E3.98914
G1 X95.887 Y96.867 E4.01129
G1 X95.355 Y97.568 E4.03731
G1 X95.095 Y97.960 E4.05120
G1 X94.941 Y98.248 E4.06086
G1 X94.814 Y98.543 E4.07033
G1 X94.793 Y98.606 E4.07229
G1 X94.856 Y98.664 E4.07483
G1 X94.766 Y98.867 E4.08141
G1 X94.330 Y99.669 E4.10836
G1 X94.426 Y99.667 E4.11120
G1 X102.760 Y91.332 E4.45946
G1 X102.850 Y91.868 E4.47551
G1 X103.112 Y92.950 E4.50840
G1 X97.631 Y98.431 E4.73740
G1 X97.532 Y99.174 E4.75956
G1 X97.628 Y99.192 E4.76244
G1 X97.492 Y100.035 E4.78766
G1 X97.423 Y100.608 E4.80472
G1 X103.431 Y94.600 E5.05579
G1 X103.762 Y96.238 E5.10519
G1 X99.257 Y100.743 E5.29341
G1 X100.084 Y101.885 F7800.000
G1 F3498.15
G1 X100.129 Y101.330 E5.30989
G1 X100.180 Y101.012 E5.31940
G1 X100.268 Y100.771 E5.32698
G1 X100.384 Y100.591 E5.33331
G1 X100.456 Y100.521 E5.33626
G1 X100.587 Y100.448 E5.34071
G1 X100.688 Y100.426 E5.34376
G1 X100.790 Y100.431 E5.34679
G1 X100.930 Y100.481 E5.35116
G1 X101.013 Y100.537 E5.35413
G1 X101.210 Y100.759 E5.36290
G1 X104.061 Y97.908 E5.48202
G1 X104.117 Y98.259 E5.49253
G1 X104.187 Y98.941 E5.51278
G1 X104.094 Y98.946 E5.51552
G1 X104.127 Y99.634 E5.53587
G1 X104.172 Y99.622 E5.53725
G1 X104.195 Y99.743 E5.54089
G1 X103.427 Y100.511 E5.57298
G1 X102.565 Y101.374 F7800.000
G1 F3498.15
G1 X101.685 Y102.253 E5.60974
G1 X102.004 Y103.903 E5.65938
G1 X102.843 Y103.064 E5.69444
G1 X103.001 Y104.177 E5.72765
G1 X103.045 Y104.832 E5.74703
G1 X102.429 Y105.447 E5.77277
G1 E3.77277 F2400.00000
G92 E0
G1 X99.718 Y106.190 F7800.000
G1 E2.00000 F2400.00000
G1 F3498.15
G1 X100.050 Y105.857 E2.01388
G1 X100.114 Y105.446 E2.02620
G1 X100.324 Y104.423 E2.05704
G1 X100.369 Y103.941 E2.07134
G1 X100.382 Y103.556 E2.08271
G1 X99.519 Y104.419 E2.11874
G1 X99.502 Y102.468 E2.17639
G1 X100.408 Y101.561 E2.21429
G1 E0.21429 F2400.00000
G92 E0
G1 X97.431 Y102.569 F7800.000
G1 E2.00000 F2400.00000
G1 F3498.15
G1 X97.367 Y103.116 E2.01630
G1 X97.358 Y103.626 E2.03135
G1 X97.422 Y103.962 E2.04145
G1 X97.471 Y104.078 E2.04518
G1 X97.626 Y103.872 E2.05280
G1 X97.731 Y103.689 E2.05901
G1 X97.885 Y103.308 E2.07116
G1 X97.987 Y102.897 E2.08369
G1 X98.183 Y101.817 E2.11612
G1 X97.107 Y102.893 E2.16111
G1 X96.951 Y103.719 F7800.000
G1 F874.537
G1 X96.626 Y104.044 E2.17516
G1 X96.514 Y104.821 E2.19916
G1 X97.089 Y104.247 E2.22400
G1 X97.134 Y104.371 E2.22805
G1 X97.417 Y104.584 E2.23887
G1 X96.398 Y105.602 E2.28290
G1 X97.163 Y106.833 F7800.000
G1 F874.537
G1 X97.520 Y106.461 E2.29867
G1 X97.645 Y106.083 E2.31083
G1 X97.783 Y105.548 E2.32773
G1 X96.411 Y106.920 E2.38704
G1 X96.343 Y106.733 E2.39312
G1 X96.329 Y106.337 E2.40524
G1 X97.924 Y104.742 E2.47423
G1 X98.085 Y103.916 E2.49995
G1 X97.760 Y104.241 E2.51400
G1 E0.51400 F2400.00000
G92 E0
G1 X99.547 Y105.357 F7800.000
G1 E2.00000 F2400.00000
G1 F874.537
G1 X99.222 Y105.682 E2.01405
G1 X99.239 Y106.256 E2.03162
G1 X99.623 Y105.872 E2.04824
G1 X99.644 Y106.442 E2.06567
G1 X99.231 Y106.855 E2.08354
G1 X99.216 Y107.460 E2.10205
G1 X99.684 Y106.992 E2.12229
G1 X99.726 Y107.099 E2.12580
G1 X99.784 Y107.176 E2.12876
G1 X99.892 Y107.221 E2.13233
G1 X100.023 Y107.244 E2.13639
G1 X99.247 Y108.020 E2.16995
G1 X99.288 Y108.269 E2.17765
G1 X99.375 Y108.483 E2.18471
G1 X100.452 Y107.406 E2.23125
G1 X100.432 Y107.629 E2.23808
G1 X100.343 Y108.016 E2.25023
G1 X100.294 Y108.130 E2.25402
G1 X100.246 Y108.203 E2.25670
G1 X99.916 Y108.533 E2.27096
G1 X100.047 Y107.221 F7800.000
G1 F874.537
G1 X100.492 Y106.775 E2.29024
G1 X100.518 Y106.159 E2.30910
G1 X100.109 Y106.568 E2.32680
G1 X100.191 Y105.894 E2.34754
G1 X100.549 Y105.536 E2.36303
G1 X102.022 Y105.578 F7800.000
G1 F874.537
G1 X102.347 Y105.253 E2.37708
G1 X102.534 Y105.554 E2.38791
G1 X102.625 Y105.639 E2.39171
G1 X102.131 Y106.133 E2.41308
G1 X102.165 Y106.267 E2.41730
G1 X102.319 Y106.209 E2.42232
G1 X102.429 Y106.498 E2.43178
G1 X103.516 Y105.412 E2.47878
G1 X103.594 Y105.997 E2.49683
G1 X102.430 Y107.161 E2.54717
G1 X102.530 Y107.485 E2.55755
G1 X102.617 Y107.637 E2.56290
G1 X103.641 Y106.613 E2.60717
G1 X103.654 Y107.029 E2.61990
G1 X103.632 Y107.188 E2.62482
G1 X103.586 Y107.311 E2.62883
G1 X103.206 Y107.711 E2.64570
G1 E0.64570 F2400.00000
G92 E0
G1 X105.709 Y105.333 F7800.000
G1 E2.00000 F2400.00000
G1 F874.537
G1 X106.034 Y105.007 E2.01408
G1 X106.111 Y104.868 E2.01893
G1 X106.149 Y104.609 E2.02694
G1 X106.116 Y104.315 E2.03601
G1 X105.209 Y105.221 E2.07521
G1 X105.079 Y105.067 E2.08138
G1 X104.955 Y104.864 E2.08866
G1 X105.986 Y103.833 E2.13324
G1 X105.824 Y103.383 E2.14785
G1 X104.752 Y104.456 E2.19424
G1 X104.564 Y104.032 E2.20841
G1 X105.659 Y102.938 E2.25574
G1 X105.493 Y102.492 E2.27028
G1 X104.378 Y103.607 E2.31850
G1 X104.189 Y103.184 E2.33265
G1 X105.327 Y102.046 E2.38186
G1 X105.162 Y101.601 E2.39640
G1 X104.002 Y102.761 E2.44656
G1 X103.818 Y102.332 E2.46080
G1 X104.363 Y101.788 E2.48434
G1 X104.219 Y101.677 E2.48990
G1 X104.051 Y101.489 E2.49762
G1 X103.642 Y101.898 E2.51530
G1 X103.473 Y101.455 E2.52978
G1 X103.798 Y101.130 E2.54383
G1 X104.471 Y101.069 F7800.000
G1 F874.537
G1 X104.454 Y101.029 E2.54515
G1 X104.464 Y101.076 E2.54662
G1 X104.796 Y100.744 E2.56099
G1 X104.981 Y101.170 E2.57520
G1 X104.539 Y101.612 E2.59433
M106 S237.15
G1 Z2.000 F7800.000
G1 X104.354 Y101.051 F7800.000
G1 F1200
G1 X103.356 Y100.054 E2.63680
G1 X103.199 Y99.821 E2.64525
G1 X103.029 Y99.726 E2.65110
G1 E0.65110 F2400.00000
G92 E0
G1 X100.801 Y100.508 F7800.000
G1 E2.00000 F2400.00000
G1 F1200
G1 X97.545 Y97.252 E2.13864
G1 X97.609 Y97.347 E2.14210
G1 X97.668 Y97.536 E2.14807
G1 X97.697 Y98.006 E2.16224
G1 X100.553 Y100.862 E2.28382
G1 X100.485 Y101.109 E2.29155
G1 X100.451 Y101.361 E2.29921
G1 X97.660 Y98.571 E2.41800
G1 X97.591 Y99.103 E2.43416
G1 X98.924 Y100.437 E2.49092
G1 X98.770 Y100.563 E2.49693
G1 X98.631 Y100.746 E2.50383
G1 X97.507 Y99.622 E2.55167
G1 X97.437 Y100.154 E2.56782
G1 X98.447 Y101.164 E2.61081
G1 X98.304 Y101.622 E2.62528
G1 X97.378 Y100.696 E2.66470
G1 X97.310 Y101.230 E2.68090
G1 X98.189 Y102.109 E2.71834
G1 X98.096 Y102.618 E2.73390
G1 X97.233 Y101.755 E2.77062
G1 X97.156 Y102.280 E2.78660
G1 X97.997 Y103.121 E2.82238
G1 X97.888 Y103.614 E2.83760
G1 X97.079 Y102.805 E2.87205
G1 X97.030 Y103.358 E2.88875
G1 X97.715 Y104.043 E2.91790
G1 X97.629 Y104.192 E2.92309
G1 X97.470 Y104.400 E2.93096
G1 X97.145 Y104.075 E2.94480
G1 E0.94480 F2400.00000
G92 E0
G1 X99.971 Y105.697 F7800.000
G1 E2.00000 F2400.00000
G1 F1200
G1 X100.046 Y106.231 E2.01623
G1 X100.103 Y105.829 E2.02845
G1 X99.646 Y105.372 E2.04791
G1 X99.561 Y104.685 E2.06876
G1 X100.206 Y105.330 E2.09622
G1 X100.307 Y104.829 E2.11161
G1 X99.528 Y104.050 E2.14475
G1 X99.520 Y103.440 E2.16312
G1 X100.360 Y104.281 E2.19889
G1 X100.380 Y103.698 E2.21644
G1 X99.513 Y102.831 E2.25334
G1 X99.504 Y102.221 E2.27173
G1 X100.384 Y103.100 E2.30917
G1 X100.387 Y102.502 E2.32718
G1 X99.468 Y101.582 E2.36633
G1 X99.390 Y100.903 E2.38693
G1 X100.407 Y101.919 E2.43021
G1 E0.43021 F2400.00000
G92 E0
G1 X102.797 Y105.513 F7800.000
G1 E2.00000 F2400.00000
G1 F1200
G1 X102.858 Y105.610 E2.00345
G1 X102.941 Y105.687 E2.00685
G1 X102.953 Y105.669 E2.00750
G1 X102.472 Y105.188 E2.02797
G1 X102.404 Y105.081 E2.03178
G1 X102.248 Y104.667 E2.04510
G1 X102.152 Y104.267 E2.05749
G1 X103.043 Y105.158 E2.09542
G1 X102.999 Y104.511 E2.11493
G1 X101.990 Y103.502 E2.15790
G1 X101.849 Y102.760 E2.18066
G1 X102.902 Y103.812 E2.22548
G1 X102.787 Y103.096 E2.24733
G1 X101.702 Y102.011 E2.29353
G1 X101.517 Y101.224 E2.31785
G1 X102.672 Y102.379 E2.36702
G1 X102.560 Y101.665 E2.38879
G1 X96.505 Y95.610 E2.64659
G1 X96.727 Y95.231 E2.65983
G1 X102.496 Y100.999 E2.90544
G1 X102.517 Y100.719 E2.91388
G1 X102.574 Y100.475 E2.92144
G1 X96.942 Y94.843 E3.16123
G1 X97.143 Y94.442 E3.17473
G1 X102.813 Y100.112 E3.41614
G1 X102.946 Y100.042 E3.42068
G1 X103.054 Y100.017 E3.42402
G1 X103.217 Y100.018 E3.42893
G1 X103.354 Y100.051 E3.43317
G1 X97.328 Y94.026 E3.68971
G1 X97.504 Y93.599 E3.70360
G1 X104.189 Y100.285 E3.98825
G1 X104.103 Y99.597 E4.00913
G1 X97.679 Y93.172 E4.28266
G1 X97.858 Y92.749 E4.29649
G1 X104.066 Y98.958 E4.56081
G1 X103.999 Y98.289 E4.58106
G1 X98.051 Y92.341 E4.83429
G1 X98.242 Y91.930 E4.84794
G1 X103.890 Y97.578 E5.08841
G1 X103.740 Y96.826 E5.11150
G1 X98.395 Y91.481 E5.33907
G1 X98.440 Y91.245 E5.34630
G1 X98.761 Y91.245 E5.35597
G1 X103.589 Y96.073 E5.56154
G1 X103.439 Y95.321 E5.58463
G1 X99.364 Y91.247 E5.75811
G1 X99.968 Y91.248 E5.77627
G1 X103.295 Y94.576 E5.91795
G1 X103.165 Y93.844 E5.94033
G1 X100.571 Y91.249 E6.05080
G1 X101.174 Y91.250 E6.06896
G1 X103.014 Y93.091 E6.14733
G1 X102.827 Y92.302 E6.17175
G1 X101.777 Y91.251 E6.21646
G1 X102.380 Y91.253 E6.23462
G1 X102.705 Y91.578 E6.24846
G1 E4.24846 F2400.00000
G92 E0
G1 X97.826 Y97.533 F7800.000
G1 E2.00000 F2400.00000
G1 F1200
G1 X96.272 Y95.979 E2.06615
G1 X96.030 Y96.339 E2.07920
G1 X97.241 Y97.549 E2.13075
G1 X96.885 Y97.796 E2.14377
G1 X96.342 Y97.253 E2.16687
G1 X96.412 Y97.190 E2.16968
G1 X96.168 Y96.882 E2.18152
G1 X96.140 Y96.854 E2.18272
G1 X96.022 Y96.932 E2.18700
G1 X95.778 Y96.688 E2.19739
G1 X95.517 Y97.029 E2.21031
G1 X96.538 Y98.050 E2.25379
G1 X96.199 Y98.314 E2.26670
G1 X95.265 Y97.379 E2.30649
G1 X95.034 Y97.750 E2.31965
G1 X95.913 Y98.629 E2.35706
G1 X95.648 Y98.966 E2.36997
G1 X94.840 Y98.159 E2.40434
G1 X94.799 Y98.270 E2.40792
G1 X94.865 Y98.320 E2.41040
G1 X94.716 Y98.637 E2.42093
G1 X95.381 Y99.302 E2.44924
G1 X95.281 Y99.428 E2.45411
G1 X95.084 Y99.606 E2.46210
G1 X94.505 Y99.027 E2.48676
M106 S252.45
G1 Z2.500 F7800.000
G1 E0.48676 F2400.00000
G92 E0
G1 X98.660 Y91.569 F7800.000
G1 E2.00000 F2400.00000
G1 F1200
G1 X98.985 Y91.244 E2.01418
G1 X99.602 Y91.244 E2.03323
G1 X98.432 Y92.414 E2.08428
G1 X98.046 Y93.417 E2.11746
G1 X100.219 Y91.244 E2.21230
G1 X100.836 Y91.244 E2.23134
G1 X97.655 Y94.425 E2.37018
G1 X97.399 Y94.945 E2.38807
G1 X96.847 Y95.850 E2.42079
G1 X101.453 Y91.244 E2.62183
G1 X102.070 Y91.244 E2.64087
G1 X96.287 Y97.027 E2.89329
G1 X96.252 Y97.188 E2.89836
G1 X96.280 Y97.343 E2.90322
G1 X96.351 Y97.392 E2.90587
G1 X96.398 Y97.400 E2.90735
G1 X96.484 Y97.381 E2.91006
G1 X96.625 Y97.306 E2.91501
G1 X102.478 Y91.454 E3.17045
G1 X102.599 Y91.949 E3.18619
G1 X97.479 Y97.069 E3.40966
G1 X97.565 Y97.107 E3.41256
G1 X97.708 Y97.244 E3.41866
G1 X97.783 Y97.382 E3.42352
G1 X102.739 Y92.426 E3.63984
G1 X102.863 Y92.919 E3.65553
G1 X97.921 Y97.861 E3.87124
G1 X97.994 Y98.405 E3.88819
G1 X102.962 Y93.438 E4.10501
G1 X103.054 Y93.962 E4.12145
G1 X98.144 Y98.872 E4.33577
G1 X98.315 Y98.914 E4.34120
G1 X98.715 Y98.918 E4.35355
G1 X103.149 Y94.484 E4.54708
G1 X103.253 Y94.998 E4.56326
G1 X99.320 Y98.931 E4.73491
G1 X99.927 Y98.941 E4.75364
G1 X103.355 Y95.513 E4.90328
G1 X103.457 Y96.028 E4.91948
G1 X100.540 Y98.945 E5.04681
G1 X101.140 Y98.962 E5.06534
G1 X103.560 Y96.542 E5.17095
G1 X103.642 Y97.077 E5.18766
G1 X101.797 Y98.922 E5.26815
G1 X102.286 Y98.799 E5.28370
G1 X102.585 Y98.751 E5.29304
G1 X103.694 Y97.642 E5.34144
G1 X103.689 Y98.033 E5.35349
G1 X103.624 Y98.315 E5.36242
G1 X103.267 Y98.686 E5.37831
G1 E3.37831 F2400.00000
G92 E0
M107
; Filament-specific end gcode 
;END gcode for filament

M104 S0 ; turn off temperature
G28 X0  ; home X axis
M84     ; disable motors

M140 S0 ; set bed temperature
; filament used = 19.1mm (0.1cm3)
; total filament cost = 0.0

; avoid_crossing_perimeters = 0
; bed_shape = 0x0,200x0,200x200,0x200
; bed_temperature = 0
; before_layer_gcode = 
; between_objects_gcode = 
; bridge_acceleration = 0
; bridge_fan_speed = 100
; brim_connections_width = 0
; brim_width = 0
; complete_objects = 0
; cooling = 1
; default_acceleration = 0
; disable_fan_first_layers = 3
; duplicate_distance = 6
; end_filament_gcode = "; Filament-specific end gcode \n;END gcode for filament\n"
; end_gcode = M104 S0 ; turn off temperature\nG28 X0  ; home X axis\nM84     ; disable motors\n
; extruder_clearance_height = 20
; extruder_clearance_radius = 20
; extruder_offset = 0x0
; extrusion_axis = E
; extrusion_multiplier = 1
; fan_always_on = 0
; fan_below_layer_time = 60
; filament_colour = #FFFFFF
; filament_cost = 0
; filament_density = 0
; filament_diameter = 3
; filament_max_volumetric_speed = 0
; filament_notes = ""
; first_layer_acceleration = 0
; first_layer_bed_temperature = 0
; first_layer_extrusion_width = 200%
; first_layer_speed = 30
; first_layer_temperature = 205
; gcode_arcs = 0
; gcode_comments = 0
; gcode_flavor = reprap
; has_heatbed = 1
; infill_acceleration = 0
; infill_first = 0
; interior_brim_width = 0
; layer_gcode = 
; max_fan_speed = 100
; max_layer_height = 0.3
; max_print_speed = 80
; max_volumetric_speed = 0
; min_fan_speed = 35
; min_layer_height = 0.15
; min_print_speed = 10
; min_skirt_length = 0
; notes = 
; nozzle_diameter = 0.5
; only_retract_when_crossing_perimeters = 1
; ooze_prevention = 0
; output_filename_format = [input_filename_base].gcode
; perimeter_acceleration = 0
; post_process = 
; pressure_advance = 0
; printer_notes = 
; resolution = 0
; retract_before_travel = 2
; retract_layer_change = 0
; retract_length = 2
; retract_length_toolchange = 10
; retract_lift = 0
; retract_lift_above = 0
; retract_lift_below = 0
; retract_restart_extra = 0
; retract_restart_extra_toolchange = 0
; retract_speed = 40
; skirt_distance = 6
; skirt_height = 1
; skirts = 0
; slowdown_below_layer_time = 5
; spiral_vase = 0
; standby_temperature_delta = -5
; start_filament_gcode = "; Filament gcode\n"
; start_gcode = G28 ; home all axes\nG1 Z5 F5000 ; lift nozzle\n
; temperature = 200
; threads = 8
; toolchange_gcode = 
; travel_speed = 130
; use_firmware_retraction = 0
; use_relative_e_distances = 0
; use_set_and_wait_bed = 0
; use_set_and_wait_extruder = 0
; use_volumetric_e = 0
; vibration_limit = 0
; wipe = 0
; z_offset = 0
; z_steps_per_mm = 0
; adaptive_slicing = 0
; adaptive_slicing_quality = 75%
; dont_support_bridges = 1
; extrusion_width = 0
; first_layer_height = 0.5
; infill_only_where_needed = 0
; interface_shells = 0
; layer_height = 0.5
; match_horizontal_surfaces = 0
; raft_layers = 0
; regions_overlap = 0
; seam_position = aligned
; sequential_print_priority = 0
; support_material = 0
; support_material_angle = 0
; support_material_buildplate_only = 0
; support_material_contact_distance = 0.2
; support_material_enforce_layers = 0
; support_material_extruder = 1
; support_material_extrusion_width = 0
; support_material_interface_extruder = 1
; support_material_interface_extrusion_width = 0
; support_material_interface_layers = 3
; support_material_interface_spacing = 0
; support_material_interface_speed = 100%
; support_material_max_layers = 0
; support_material_pattern = pillars
; support_material_spacing = 2.5
; support_material_speed = 60
; support_material_threshold = 60%
; xy_size_compensation = 0
; bottom_infill_pattern = rectilinear
; bottom_solid_layers = 0
; bridge_flow_ratio = 1
; bridge_speed = 60
; external_perimeter_extrusion_width = 0
; external_perimeter_speed = 50%
; external_perimeters_first = 0
; extra_perimeters = 1
; fill_angle = 45
; fill_density = 30%
; fill_gaps = 1
; fill_pattern = rectilinear
; gap_fill_speed = 20
; infill_every_layers = 1
; infill_extruder = 1
; infill_extrusion_width = 0
; infill_overlap = 55%
; infill_speed = 80
; overhangs = 1
; perimeter_extruder = 1
; perimeter_extrusion_width = 0
; perimeter_speed = 60
; perimeters = 0
; small_perimeter_speed = 15
; solid_infill_below_area = 70
; solid_infill_every_layers = 0
; solid_infill_extruder = 1
; solid_infill_extrusion_width = 0
; solid_infill_speed = 20
; thin_walls = 1
; top_infill_extrusion_width = 0
; top_infill_pattern = rectilinear
; top_solid_infill_speed = 15
; top_solid_layers = 0
