; generated by Slic3r 1.2.9 on 2019-01-06 at 15:39:19

; external perimeters extrusion width = 0.50mm
; perimeters extrusion width = 0.52mm
; infill extrusion width = 0.52mm
; solid infill extrusion width = 0.52mm
; top infill extrusion width = 0.52mm

M107
M104 S200 ; set temperature
G28 ; home all axes
G1 Z5 F5000 ; lift nozzle

M109 S200 ; wait for temperature to be reached
G21 ; set units to millimeters
G90 ; use absolute coordinates
M82 ; use absolute distances for extrusion
G92 E0
G1 Z0.500 F7800.000
G1 E-2.00000 F2400.00000
G92 E0
G1 X100.760 Y104.769 F7800.000
G1 E2.00000 F2400.00000
G1 X99.958 Y104.769 E2.11395 F1036.573
G1 X99.830 Y104.445 E2.16332
G1 X99.505 Y103.455 E2.31148
G1 X100.956 Y103.455 E2.51760
G1 X100.849 Y104.276 E2.63511
G1 X100.773 Y104.695 E2.69566
G1 X101.467 Y105.661 F7800.000
G1 X99.350 Y105.661 E2.99640 F1036.573
G1 X98.990 Y104.749 E3.13580
G1 X98.723 Y103.936 E3.25739
G1 X98.564 Y103.545 E3.31724
G1 X97.843 Y102.409 E3.50851
G1 X98.566 Y102.363 E3.61137
G1 X98.657 Y102.442 E3.62843
G1 X98.978 Y102.562 E3.67711
G1 X101.077 Y102.563 E3.97546
G1 X101.329 Y102.590 E4.01134
G1 X101.953 Y102.707 E4.10164
G1 X101.731 Y104.413 E4.34601
G1 X101.645 Y104.892 E4.41528
G1 X101.484 Y105.588 E4.51678
G1 X101.054 Y105.379 F7800.000
G1 E2.51678 F2400.00000
G92 E0
G1 X101.721 Y102.155 F7800.000
G1 X102.343 Y101.335 F7800.000
G1 X103.173 Y99.927 F7800.000
G1 X102.912 Y99.232 F7800.000
G1 X102.733 Y99.295 F7800.000
G1 X102.728 Y99.297 F7800.000
G1 X101.743 Y100.106 F7800.000
G1 X101.751 Y100.115 F7800.000
G1 E2.00000 F2400.00000
G1 X101.064 Y100.284 E2.10051 F1036.573
G1 X100.680 Y100.342 E2.15570
G1 X100.366 Y100.331 E2.20029
G1 X99.942 Y100.240 E2.26198
G1 X99.668 Y100.309 E2.30212
G1 X99.300 Y100.352 E2.35466
G1 X98.514 Y100.287 E2.46677
G1 Z1.000 F7800.000
G1 E0.46677 F2400.00000
G92 E0
G1 X101.054 Y105.089 F7800.000
G1 E2.00000 F2400.00000
G1 X99.667 Y105.089 E2.09223 F900.000
G1 X99.396 Y104.530 E2.13345
G1 X98.908 Y103.391 E2.21585
G1 X98.569 Y102.755 E2.26379
G1 X99.179 Y102.294 E2.31462
G1 X99.349 Y101.822 E2.34799
G1 X99.396 Y101.422 E2.37314 F900.000
G1 X99.364 Y101.012 E2.39885
G1 X99.347 Y100.785 E2.41400 F900.000
G1 X99.304 Y100.578 E2.42806
G1 X99.681 Y100.604 E2.45324
G1 X99.959 Y100.359 E2.47788
G1 X100.060 Y100.471 E2.48787
G1 X101.004 Y100.581 E2.55104
G1 X101.183 Y100.434 E2.56646
G1 X101.481 Y100.776 E2.59666
G1 X101.863 Y100.826 E2.62230
G1 X101.859 Y100.866 E2.62496
G1 X101.699 Y101.896 E2.69008 F900.000
G1 X101.181 Y104.549 E2.86981 F900.000
G1 X101.071 Y105.016 E2.90166
G1 E0.90166 F2400.00000
G92 E0
G1 X100.876 Y100.145 F7800.000
G1 E2.00000 F2400.00000
G1 X101.306 Y99.792 E2.03699 F900.000
G1 X101.385 Y100.029 E2.05362
G1 X101.692 Y100.383 E2.08474
G1 X102.243 Y100.455 E2.12167
G1 X102.318 Y100.464 E2.12641 F900.000
G1 X102.262 Y101.041 E2.16259
G1 X102.110 Y101.970 E2.22149
G1 X101.589 Y104.637 E2.40210 F900.000
G1 X101.385 Y105.506 E2.46146
G1 X99.381 Y105.506 E2.59467
G1 X99.327 Y105.346 E2.60588
G1 X99.016 Y104.704 E2.65334
G1 X98.530 Y103.569 E2.73542
G1 X98.288 Y103.098 E2.77061
G1 X98.074 Y102.745 E2.79808
G1 X97.720 Y102.252 E2.83839
G1 X98.368 Y102.383 E2.88236
G1 X98.828 Y102.036 E2.92064
G1 X98.952 Y101.684 E2.94544
G1 X98.976 Y101.419 E2.96208 F900.000
G1 X98.945 Y101.009 E2.98778
G1 X98.932 Y100.844 E2.99879 F900.000
G1 X98.782 Y100.123 E3.04775
G1 X99.536 Y100.175 E3.09801
G1 X99.994 Y99.771 E3.13861
G1 X100.265 Y100.074 E3.16565
G1 X100.801 Y100.137 E3.20151
G1 X100.465 Y99.690 F7800.000
G1 X100.751 Y99.723 E3.21955 F1800.000
G1 X100.962 Y99.550 E3.23656
G1 X101.096 Y99.285 E3.25513
G1 X101.644 Y99.254 E3.28946
G1 X101.672 Y99.609 E3.31174
G1 X101.744 Y99.825 E3.32592
G1 X101.897 Y100.001 E3.34052
G1 X101.993 Y100.013 E3.34660
G1 X102.193 Y100.039 E3.35917 F3600.000
G1 X102.386 Y99.831 E3.37696
G1 X102.932 Y98.400 E3.47269
G1 X103.589 Y96.917 E3.57403
G1 X103.756 Y96.626 E3.59502
G1 X103.843 Y96.522 E3.60345
G1 X104.056 Y96.351 E3.62056
G1 X104.086 Y96.649 E3.63927
G1 X104.073 Y96.807 E3.64917
G1 X103.938 Y97.292 E3.68068
G1 X103.456 Y98.594 E3.76742
G1 X102.908 Y99.856 E3.85342
G1 X102.741 Y100.300 E3.88304
G1 X102.664 Y101.092 E3.93278
G1 X102.513 Y102.022 E3.99167
G1 X101.985 Y104.722 E4.16364 F1800.000
G1 X101.743 Y105.753 E4.22983
G1 X101.728 Y105.911 E4.23977
G1 X99.090 Y105.911 E4.40468
G1 X98.951 Y105.500 E4.43182
G1 X98.647 Y104.872 E4.47542
G1 X98.163 Y103.742 E4.55228
G1 X97.934 Y103.296 E4.58359
G1 X97.736 Y102.968 E4.60753
G1 X97.480 Y102.612 E4.63493
G1 X97.204 Y102.287 E4.66158
G1 X96.757 Y101.812 E4.70234
G1 X96.467 Y101.440 E4.73184
G1 X96.303 Y101.175 E4.75131
G1 X96.194 Y100.931 E4.76803
G1 X95.948 Y100.495 E4.79928
G1 X96.106 Y100.379 E4.81156 F3600.000
G1 X96.240 Y100.338 E4.82031
G1 X96.335 Y100.355 E4.82630
G1 X96.497 Y100.474 E4.83886
G1 X96.934 Y100.933 E4.87847 F1800.000
G1 X97.212 Y101.286 E4.90657
G1 X97.718 Y101.727 E4.94852
G1 X97.967 Y101.889 E4.96708
G1 X98.270 Y101.950 E4.98636
G1 X98.488 Y101.785 E5.00342
G1 X98.552 Y101.606 E5.01533
G1 X98.570 Y101.417 E5.02719
G1 X98.531 Y100.906 E5.05925 F3600.000
G1 X98.306 Y99.828 E5.12805 F1800.000
G1 X97.893 Y97.525 E5.27429 F3600.000
G1 X97.689 Y96.102 E5.36414
G1 X97.654 Y95.578 E5.39696
G1 X97.668 Y95.392 E5.40863
G1 X97.698 Y95.316 E5.41371
G1 X97.778 Y95.253 E5.42008
G1 X97.872 Y95.253 E5.42597
G1 X97.998 Y95.334 E5.43531
G1 X98.054 Y95.420 E5.44172
G1 X98.130 Y95.644 E5.45651
G1 X98.262 Y96.156 E5.48958
G1 X98.368 Y96.790 E5.52974
G1 X98.536 Y97.604 E5.58167
G1 X98.688 Y98.644 E5.64736
G1 X98.785 Y99.114 E5.67739
G1 X98.862 Y99.367 E5.69389
G1 X98.963 Y99.573 E5.70826
G1 X99.026 Y99.635 E5.71376
G1 X99.137 Y99.742 E5.72338 F1800.000
G1 X99.395 Y99.759 E5.73956
G1 X99.576 Y99.600 E5.75461
G1 X99.667 Y99.348 E5.77139
G1 X99.716 Y98.853 E5.80244 F3600.000
G1 X99.714 Y98.234 E5.84115
G1 X99.657 Y96.672 E5.93884
G1 X99.687 Y95.629 E6.00407
G1 X99.668 Y94.908 E6.04914
G1 X99.683 Y94.553 E6.07132
G1 X99.727 Y94.323 E6.08601
G1 X99.845 Y94.084 E6.10263
G1 X99.993 Y94.243 E6.11620
G1 X100.040 Y94.354 E6.12371
G1 X100.095 Y94.636 E6.14170
G1 X100.161 Y95.930 E6.22269
G1 X100.250 Y96.954 E6.28692
G1 X100.205 Y98.991 E6.41423
G1 X100.255 Y99.366 E6.43786
G1 X100.323 Y99.532 E6.44908
G1 X100.393 Y99.610 E6.45566
G1 X100.415 Y99.634 E6.45765 F1800.000
G1 X100.512 Y99.974 F7800.000
G1 X101.509 Y98.579 F7800.000
G1 X101.318 Y98.534 E6.46990 F900.000
G1 X101.279 Y98.524 E6.47244 F900.000
G1 X101.547 Y96.650 E6.59077
G1 X101.698 Y95.864 E6.64082
G1 X101.786 Y95.522 E6.66286
G1 X101.980 Y94.923 E6.70225
G1 X102.077 Y94.785 E6.71278
G1 X102.173 Y94.745 E6.71927
G1 X102.256 Y94.759 E6.72457
G1 X102.307 Y94.829 E6.72993
G1 X102.339 Y94.978 E6.73950
G1 X102.325 Y95.492 E6.77162
G1 X102.260 Y96.006 E6.80398
G1 X101.765 Y98.640 E6.97149
G1 X101.582 Y98.596 E6.98327
G1 X101.555 Y98.382 F7800.000
G1 X101.834 Y96.698 E7.09672 F1200.000
G1 X102.117 Y95.201 E7.19803
G1 E5.19803 F2400.00000
G92 E0
G1 X101.183 Y100.326 F7800.000
G1 X100.479 Y101.634 F7800.000
G1 X100.036 Y101.093 F7800.000
G1 X99.996 Y100.653 F7800.000
G1 X99.982 Y100.316 F7800.000
G1 X99.981 Y100.301 F7800.000
G1 X99.981 Y100.250 F7800.000
G1 X99.888 Y94.858 F7800.000
G1 E2.00000 F2400.00000
G1 X99.959 Y96.964 E2.14008 F1200.000
G1 X99.960 Y99.406 E2.30245
G1 X100.037 Y99.462 E2.30879
G1 X100.108 Y99.575 E2.31762
G1 X98.710 Y99.915 F7800.000
G1 X98.565 Y99.494 E2.34721 F1200.000
G1 X98.491 Y99.184 E2.36838
G1 X97.871 Y95.552 E2.61334
G1 E0.61334 F2400.00000
G92 E0
G1 X99.224 Y100.506 F7800.000
G1 X99.224 Y100.506 F7800.000
G1 X96.233 Y100.552 F7800.000
G1 E2.00000 F2400.00000
G1 X96.440 Y100.803 E2.02162 F1200.000
G1 X96.954 Y101.509 E2.07967
G1 X97.443 Y101.990 E2.12526
G1 X97.409 Y102.192 F7800.000
G1 X97.229 Y101.971 E2.14423 F1200.000
G1 X97.235 Y101.797 E2.15576
G1 X97.826 Y102.054 E2.19859
G1 X99.126 Y102.683 F7800.000
G1 X99.092 Y103.075 E2.24099 F3600.000
G1 E0.24099 F2400.00000
G92 E0
G1 X100.007 Y100.723 F7800.000
G1 E2.00000 F2400.00000
G1 X99.686 Y104.387 E2.39620 F3600.000
G1 X100.355 Y104.852 E2.48391
G1 X100.711 Y100.785 E2.92372
G1 X101.401 Y101.004 E3.00171
G1 X101.340 Y101.698 E3.07668
G1 X102.411 Y100.272 F7800.000
G1 X102.605 Y99.956 E3.10132 F1200.000
G1 X103.798 Y96.988 E3.31400
G1 Z1.500 F7800.000
G1 E1.31400 F2400.00000
G92 E0
G1 X101.776 Y101.066 F7800.000
G1 E2.00000 F2400.00000
G1 X101.722 Y101.483 E2.02790 F900.000
G1 X101.338 Y103.417 E2.15900
G1 X101.131 Y104.558 E2.23613
G1 X101.009 Y105.089 E2.27229
G1 X99.695 Y105.089 E2.35963
G1 X99.444 Y104.538 E2.39987
G1 X98.943 Y103.339 E2.48623
G1 X98.630 Y102.749 E2.53063
G1 X98.986 Y102.636 E2.55541
G1 X99.342 Y102.051 E2.60097
G1 X99.425 Y101.629 E2.62954
G1 X99.431 Y101.081 E2.66599
G1 X99.405 Y100.795 E2.68512
G1 X99.821 Y100.765 E2.71286
G1 X99.990 Y100.593 E2.72889
G1 X100.362 Y100.830 E2.75822
G1 X101.148 Y100.690 E2.81127
G1 X101.241 Y100.802 E2.82096
G1 X101.708 Y101.033 E2.85563
G1 X102.224 Y100.645 F7800.000
G1 X102.203 Y101.016 E2.88028 F900.000
G1 X102.135 Y101.550 E2.91609
G1 X101.748 Y103.495 E3.04791
G1 X101.540 Y104.643 E3.12545
G1 X101.342 Y105.506 E3.18437
G1 X99.427 Y105.506 E3.31168
G1 X99.062 Y104.705 E3.37022
G1 X98.565 Y103.518 E3.45575
G1 X98.311 Y103.039 E3.49180
G1 X97.997 Y102.512 E3.53260
G1 X98.710 Y102.286 E3.58238
G1 X98.947 Y101.898 E3.61257
G1 X99.007 Y101.587 E3.63365
G1 X99.013 Y101.098 E3.66614
G1 X98.938 Y100.409 E3.71221
G1 X99.633 Y100.360 E3.75854
G1 X99.928 Y100.058 E3.78656
G1 X100.449 Y100.390 E3.82761
G1 X100.997 Y100.293 E3.86458
G1 X101.202 Y100.102 E3.88323
G1 X101.505 Y100.467 E3.91475
G1 X101.834 Y100.630 E3.93914
G1 X102.149 Y100.642 E3.96007
G1 X101.762 Y100.142 F7800.000
G1 X101.937 Y100.228 E3.97223 F900.000
G1 X102.155 Y100.237 E3.98587
G1 X102.401 Y100.162 E4.00195
G1 X102.494 Y100.047 E4.01124
G1 X102.659 Y100.110 E4.02228
G1 X102.607 Y101.053 E4.08125
G1 X102.535 Y101.615 E4.11671
G1 X102.146 Y103.570 E4.24129
G1 X101.938 Y104.724 E4.31457
G1 X101.700 Y105.754 E4.38061
G1 X101.686 Y105.911 E4.39051
G1 X99.118 Y105.911 E4.55100
G1 X99.033 Y105.619 E4.57004
G1 X98.690 Y104.867 E4.62169
G1 X98.198 Y103.691 E4.70133
G1 X97.958 Y103.238 E4.73343
G1 X97.615 Y102.663 E4.77523
G1 X96.790 Y101.474 E4.86567
G1 X96.612 Y101.098 E4.89171
G1 X96.797 Y100.983 E4.90527
G1 X97.002 Y101.243 E4.92595
G1 X97.171 Y101.414 E4.94102
G1 X97.947 Y101.957 E5.00017
G1 X98.179 Y102.029 E5.01535
G1 X98.443 Y101.945 E5.03270
G1 X98.563 Y101.749 E5.04706
G1 X98.603 Y101.545 E5.06005
G1 X98.608 Y101.114 E5.08699
G1 X98.569 Y100.686 E5.11382
G1 X98.461 Y99.932 E5.16147
G1 X98.388 Y99.154 E5.21030
G1 X98.605 Y99.112 E5.22409
G1 X98.673 Y99.343 E5.23915
G1 X98.798 Y99.627 E5.25851
G1 X98.948 Y99.830 E5.27433
G1 X99.167 Y99.986 E5.29112
G1 X99.451 Y99.966 E5.30896
G1 X99.641 Y99.772 E5.32592
G1 X99.752 Y99.533 E5.34242
G1 X99.851 Y98.995 E5.37657
G1 X100.057 Y98.999 E5.38947
G1 X100.126 Y99.472 E5.41934
G1 X100.201 Y99.662 E5.43209
G1 X100.308 Y99.820 E5.44401
G1 X100.534 Y99.963 E5.46073
G1 X100.809 Y99.915 E5.47819
G1 X101.018 Y99.721 E5.49600
G1 X101.158 Y99.483 E5.51323
G1 X101.347 Y98.846 E5.55481
G1 X101.568 Y98.895 E5.56895
G1 X101.510 Y99.289 E5.59387
G1 X101.527 Y99.664 E5.61732
G1 X101.633 Y99.986 E5.63851
G1 X101.714 Y100.084 E5.64649
G1 X101.748 Y100.336 F7800.000
G1 X101.505 Y98.625 F7800.000
G1 X101.845 Y96.663 E5.77882 F1800.000
G1 X101.952 Y96.205 E5.81013
G1 E3.81013 F2400.00000
G92 E0
G1 X101.000 Y95.284 F7800.000
G1 X100.662 Y95.141 F7800.000
G1 X100.647 Y95.136 F7800.000
G1 X99.920 Y96.004 F7800.000
G1 X99.927 Y95.948 F7800.000
G1 E2.00000 F2400.00000
G1 X99.965 Y97.320 E2.09127 F1800.000
G1 X99.959 Y98.747 E2.18617
G1 X98.442 Y98.889 F7800.000
G1 X98.134 Y97.092 E2.30737 F1800.000
G1 E0.30737 F2400.00000
G92 E0
G1 X99.970 Y100.504 F7800.000
G1 X100.341 Y101.680 F7800.000
G1 X100.782 Y101.666 F7800.000
G1 X101.176 Y101.396 F7800.000
G1 X101.401 Y101.274 F7800.000
G1 X101.411 Y101.268 F7800.000
G1 X101.434 Y101.255 F7800.000
G1 X101.498 Y101.379 F7800.000
G1 E2.00000 F2400.00000
G1 X101.259 Y101.140 E2.02345 F900.000
G1 X100.537 Y101.035 E2.07401
G1 X101.380 Y101.877 E2.15660
G1 X101.113 Y102.226 F7800.000
G1 X99.886 Y100.999 E2.27692 F900.000
G1 X99.673 Y101.402 E2.30853
G1 X101.199 Y102.929 E2.45822
G1 X101.097 Y103.443 E2.49454
G1 X99.599 Y101.944 E2.64147
G1 X99.402 Y102.363 E2.67358
G1 X101.003 Y103.964 E2.83056
G1 X100.908 Y104.486 E2.86732
G1 X99.168 Y102.746 E3.03793
G1 X99.333 Y103.527 E3.09327
G1 X99.596 Y103.790 E3.11903
G1 X99.768 Y103.962 F7800.000
G1 X100.648 Y104.842 E3.20531 F900.000
G1 X100.032 Y104.842 E3.24803
G1 X99.795 Y104.605 E3.27132
G1 E1.27132 F2400.00000
G92 E0
G1 X101.302 Y102.415 F7800.000
G1 E2.00000 F2400.00000
G1 X100.936 Y102.050 E2.03581 F900.000
M106 S255
G1 Z2.000 F7800.000
G1 X101.568 Y102.715 F7800.000
G1 X101.493 Y102.991 E2.05477 F600.000
G1 X100.655 Y102.975 E2.11048
G1 X100.137 Y103.000 E2.14500
G1 X99.810 Y103.089 E2.16753
G1 X99.637 Y103.215 E2.18178
G1 X99.252 Y103.244 E2.20746
G1 X99.155 Y103.287 E2.21449
G1 X98.745 Y102.877 E2.25310
G1 X98.887 Y102.780 E2.26454
G1 X99.107 Y102.485 E2.28899
G1 X99.145 Y102.398 E2.29534
G1 X99.326 Y102.429 E2.30751
G1 X99.675 Y102.442 E2.33078
G1 X100.122 Y102.607 E2.36246
G1 X101.193 Y102.631 E2.43367
G1 X101.494 Y102.699 E2.45420
G1 X102.024 Y102.363 F7800.000
G1 X101.990 Y102.706 E2.47577 F600.000
G1 X101.846 Y103.238 E2.51021
G1 X101.768 Y103.401 E2.52149
G1 X100.661 Y103.381 E2.59069
G1 X100.200 Y103.403 E2.61954
G1 X99.988 Y103.460 E2.63326
G1 X99.825 Y103.580 E2.64592
G1 X99.742 Y103.614 E2.65152
G1 X99.352 Y103.643 E2.67595
G1 X99.078 Y103.765 E2.69472
G1 X98.683 Y103.406 E2.72808
G1 X98.298 Y102.991 E2.76347
G1 X98.077 Y102.640 E2.78941
G1 X98.458 Y102.582 E2.81349
G1 X98.603 Y102.483 E2.82449
G1 X98.754 Y102.281 E2.84024
G1 X98.924 Y101.887 E2.86705
G1 X99.139 Y101.985 E2.88183
G1 X99.368 Y102.025 E2.89634
G1 X99.755 Y102.039 E2.92056
G1 X100.199 Y102.204 E2.95017
G1 X101.243 Y102.227 E3.01540
G1 X101.711 Y102.332 E3.04542
G1 X101.949 Y102.356 E3.06037
G1 X101.823 Y102.643 F7800.000
G1 E1.06037 F2400.00000
G92 E0
G1 X99.698 Y102.707 F7800.000
G1 E2.00000 F2400.00000
G1 X99.428 Y102.977 E2.02535 F600.000
G1 E0.02535 F2400.00000
G92 E0
M107
M104 S0 ; turn off temperature
G28 X0  ; home X axis
M84     ; disable motors

; filament used = 27.0mm (0.1cm3)

; avoid_crossing_perimeters = 1
; bed_shape = 0x0,200x0,200x200,0x200
; bed_temperature = 0
; before_layer_gcode = 
; bridge_acceleration = 0
; bridge_fan_speed = 100
; brim_width = 0
; complete_objects = 0
; cooling = 1
; default_acceleration = 0
; disable_fan_first_layers = 3
; duplicate_distance = 6
; end_gcode = M104 S0 ; turn off temperature\nG28 X0  ; home X axis\nM84     ; disable motors\n
; extruder_clearance_height = 20
; extruder_clearance_radius = 20
; extruder_offset = 0x0
; extrusion_axis = E
; extrusion_multiplier = 1
; fan_always_on = 0
; fan_below_layer_time = 60
; filament_colour = #FFFFFF
; filament_diameter = 2
; first_layer_acceleration = 0
; first_layer_bed_temperature = 0
; first_layer_extrusion_width = 200%
; first_layer_speed = 30
; first_layer_temperature = 200
; gcode_arcs = 0
; gcode_comments = 0
; gcode_flavor = reprap
; infill_acceleration = 0
; infill_first = 0
; layer_gcode = 
; max_fan_speed = 100
; max_print_speed = 80
; max_volumetric_speed = 0
; min_fan_speed = 35
; min_print_speed = 10
; min_skirt_length = 0
; notes = 
; nozzle_diameter = 0.5
; only_retract_when_crossing_perimeters = 1
; ooze_prevention = 0
; output_filename_format = [input_filename_base].gcode
; perimeter_acceleration = 0
; post_process = 
; pressure_advance = 0
; resolution = 0
; retract_before_travel = 2
; retract_layer_change = 0
; retract_length = 2
; retract_length_toolchange = 10
; retract_lift = 0
; retract_restart_extra = 0
; retract_restart_extra_toolchange = 0
; retract_speed = 40
; skirt_distance = 6
; skirt_height = 1
; skirts = 1
; slowdown_below_layer_time = 5
; spiral_vase = 0
; standby_temperature_delta = -5
; start_gcode = G28 ; home all axes\nG1 Z5 F5000 ; lift nozzle\n
; temperature = 200
; threads = 2
; toolchange_gcode = 
; travel_speed = 130
; use_firmware_retraction = 0
; use_relative_e_distances = 0
; use_volumetric_e = 0
; vibration_limit = 0
; wipe = 0
; z_offset = 0
; dont_support_bridges = 1
; extrusion_width = 0
; first_layer_height = 0.5
; infill_only_where_needed = 0
; interface_shells = 0
; layer_height = 0.5
; raft_layers = 0
; seam_position = aligned
; support_material = 0
; support_material_angle = 0
; support_material_contact_distance = 0.2
; support_material_enforce_layers = 0
; support_material_extruder = 1
; support_material_extrusion_width = 0
; support_material_interface_extruder = 1
; support_material_interface_layers = 3
; support_material_interface_spacing = 0
; support_material_interface_speed = 100%
; support_material_pattern = pillars
; support_material_spacing = 2.5
; support_material_speed = 60
; support_material_threshold = 0
; xy_size_compensation = 0
; bottom_solid_layers = 2
; bridge_flow_ratio = 1
; bridge_speed = 60
; external_fill_pattern = rectilinear
; external_perimeter_extrusion_width = 0
; external_perimeter_speed = 50%
; external_perimeters_first = 0
; extra_perimeters = 1
; fill_angle = 45
; fill_density = 20%
; fill_pattern = rectilinear
; gap_fill_speed = 20
; infill_every_layers = 10
; infill_extruder = 1
; infill_extrusion_width = 0
; infill_overlap = 15%
; infill_speed = 80
; overhangs = 1
; perimeter_extruder = 1
; perimeter_extrusion_width = 0
; perimeter_speed = 60
; perimeters = 3
; small_perimeter_speed = 15
; solid_infill_below_area = 70
; solid_infill_every_layers = 0
; solid_infill_extruder = 1
; solid_infill_extrusion_width = 0
; solid_infill_speed = 20
; thin_walls = 1
; top_infill_extrusion_width = 0
; top_solid_infill_speed = 15
; top_solid_layers = 2
