; generated by Slic3r 1.3.0 on 2020-10-08 at 11:43:56

; external perimeters extrusion width = 0.55mm (5.57mm^3/s)
; perimeters extrusion width = 0.58mm (11.78mm^3/s)
; infill extrusion width = 0.58mm (15.71mm^3/s)
; solid infill extrusion width = 0.58mm (3.93mm^3/s)
; top infill extrusion width = 0.58mm (2.95mm^3/s)

M107
M104 S205 ; set temperature
G28 ; home all axes
G1 Z5 F5000 ; lift nozzle

; Filament gcode

M109 S205 ; set temperature and wait for it to be reached
G21 ; set units to millimeters
G90 ; use absolute coordinates
M82 ; use absolute distances for extrusion
G92 E0
G1 Z0.400 F7800.000
G1 E-2.00000 F2400.00000
G92 E0
G1 X93.700 Y92.416 F7800.000
G1 E2.00000 F2400.00000
G1 F1800
G1 X93.369 Y92.416 E2.01340
G1 X93.369 Y92.747 E2.02680
G1 X94.169 Y91.947 E2.07254
G1 X95.037 Y91.947 E2.10761
G1 X93.369 Y93.615 E2.20294
G1 X93.369 Y94.483 E2.23800
G1 X95.904 Y91.947 E2.38293
G1 X96.772 Y91.947 E2.41800
G1 X93.369 Y95.351 E2.61252
G1 X93.369 Y96.218 E2.64758
G1 X97.511 Y92.076 E2.88430
G1 X97.511 Y92.944 E2.91937
G1 X93.369 Y97.086 E3.15609
G1 X93.369 Y97.954 E3.19116
G1 X97.511 Y93.812 E3.42788
G1 X97.511 Y94.680 E3.46295
G1 X93.369 Y98.822 E3.69967
G1 X93.369 Y99.689 E3.73474
G1 X97.511 Y95.547 E3.97146
G1 X97.511 Y96.415 E4.00653
G1 X93.369 Y100.557 E4.24325
G1 X93.369 Y101.425 E4.27832
G1 X97.511 Y97.283 E4.51504
G1 X97.511 Y97.545 E4.52564
G1 X98.116 Y97.545 E4.55011
G1 X93.369 Y102.293 E4.82142
G1 X93.369 Y103.160 E4.85649
G1 X98.984 Y97.545 E5.17740
G1 X99.851 Y97.545 E5.21247
G1 X93.369 Y104.028 E5.58298
G1 X93.369 Y104.896 E5.61805
G1 X97.511 Y100.754 E5.85477
G1 X97.511 Y101.622 E5.88983
G1 X93.369 Y105.764 E6.12655
G1 X93.369 Y106.631 E6.16162
G1 X97.511 Y102.489 E6.39834
G1 X97.511 Y103.357 E6.43341
G1 X93.369 Y107.499 E6.67013
G1 X93.369 Y108.053 E6.69251
G1 X93.683 Y108.053 E6.70520
G1 X97.511 Y104.225 E6.92398
G1 X97.511 Y105.056 E6.95756
G1 X97.547 Y105.056 E6.95905
G1 X94.550 Y108.053 E7.13034
G1 X95.418 Y108.053 E7.16541
G1 X98.415 Y105.056 E7.33670
G1 X99.283 Y105.056 E7.37177
G1 X96.286 Y108.053 E7.54306
G1 X97.154 Y108.053 E7.57813
G1 X100.153 Y105.053 E7.74956
G1 X100.651 Y105.019 E7.76971
G1 X101.163 Y104.911 E7.79089
G1 X98.021 Y108.053 E7.97046
G1 X98.889 Y108.053 E8.00553
G1 X106.313 Y100.628 E8.42986
G1 X106.410 Y100.903 E8.44162
G1 X106.504 Y101.306 E8.45832
G1 X99.757 Y108.053 E8.84395
G1 X100.643 Y108.034 E8.87978
G1 X106.609 Y102.068 E9.22075
G1 X106.631 Y102.572 E9.24111
G1 X106.617 Y102.929 E9.25555
G1 X101.600 Y107.945 E9.54225
G1 X102.029 Y107.877 E9.55979
G1 X102.703 Y107.710 E9.58785
G1 X106.486 Y103.927 E9.80407
G1 X106.334 Y104.467 E9.82675
G1 X106.134 Y104.941 E9.84753
G1 X105.832 Y105.449 E9.87142
G1 X104.347 Y106.934 E9.95630
G1 E7.95630 F2400.00000
G92 E0
G1 X102.273 Y103.802 F7800.000
G1 E2.00000 F2400.00000
G1 F1800
G1 X106.043 Y100.031 E2.21552
G1 X105.901 Y99.781 E2.22712
G1 X105.698 Y99.508 E2.24087
G1 X102.357 Y102.850 E2.43184
G1 X102.321 Y102.502 E2.44597
G1 X102.224 Y102.115 E2.46209
G1 X105.286 Y99.053 E2.63713
G1 X105.093 Y98.872 E2.64783
G1 X104.813 Y98.658 E2.66206
G1 X101.934 Y101.537 E2.82661
G1 X101.785 Y101.352 E2.83621
G1 X101.506 Y101.097 E2.85148
G1 X104.273 Y98.330 E3.00965
G1 X103.975 Y98.177 E3.02318
G1 X103.681 Y98.054 E3.03607
G1 X100.955 Y100.780 E3.19186
G1 X100.685 Y100.686 E3.20342
G1 X100.273 Y100.595 E3.22048
G1 X103.025 Y97.843 E3.37774
G1 X102.302 Y97.698 E3.40751
G1 X99.458 Y100.542 E3.57010
G1 X98.590 Y100.542 E3.60517
G1 X101.537 Y97.595 E3.77363
G1 X100.713 Y97.551 E3.80699
G1 X97.722 Y100.542 E3.97794
G1 X97.042 Y100.542 E4.00543
G1 X97.042 Y101.223 E4.03291
M104 S200 ; set temperature
G1 Z0.800 F7800.000
G1 E2.03291 F2400.00000
G92 E0
G1 X99.631 Y100.499 F7800.000
G1 E2.00000 F2400.00000
G1 F2889.36
G1 X93.412 Y94.280 E2.24431
G1 X93.412 Y95.148 E2.26842
G1 X98.764 Y100.499 E2.47864
G1 X97.896 Y100.499 E2.50274
G1 X93.412 Y96.015 E2.67888
G1 X93.412 Y96.883 E2.70298
G1 X97.467 Y100.938 E2.86228
G1 X97.467 Y101.806 E2.88638
G1 X93.412 Y97.751 E3.04568
G1 X93.412 Y98.619 E3.06979
G1 X97.467 Y102.674 E3.22908
G1 X97.467 Y103.541 E3.25319
G1 X93.412 Y99.486 E3.41248
G1 X93.412 Y100.354 E3.43659
G1 X97.467 Y104.409 E3.59589
G1 X97.467 Y105.277 E3.61999
G1 X93.412 Y101.222 E3.77929
G1 X93.412 Y102.090 E3.80339
G1 X99.332 Y108.009 E4.03595
G1 X98.464 Y108.009 E4.06005
G1 X93.412 Y102.957 E4.25852
G1 X93.412 Y103.825 E4.28262
G1 X97.596 Y108.009 E4.44700
G1 X96.729 Y108.009 E4.47110
G1 X93.412 Y104.693 E4.60139
G1 X93.412 Y105.561 E4.62550
G1 X95.861 Y108.009 E4.72170
G1 X94.993 Y108.009 E4.74580
G1 X93.412 Y106.428 E4.80792
G1 X93.412 Y107.296 E4.83202
G1 X94.125 Y108.009 E4.86005
G1 X93.794 Y108.009 E4.86926
G1 X93.794 Y107.678 E4.87847
G1 X97.289 Y105.099 F7800.000
G1 F2889.36
G1 X100.200 Y108.009 E4.99279
G1 X101.048 Y107.990 E5.01635
G1 X98.157 Y105.099 E5.12990
G1 X99.025 Y105.099 E5.15400
G1 X101.854 Y107.928 E5.26512
G1 X102.593 Y107.800 E5.28597
G1 X99.886 Y105.092 E5.39232
G1 X100.317 Y105.048 E5.40436
G1 X100.642 Y104.980 E5.41357
G1 X103.276 Y107.615 E5.51706
G1 X103.658 Y107.493 E5.52820
G1 X103.914 Y107.385 E5.53591
G1 X101.266 Y104.737 E5.63994
G1 X101.521 Y104.573 E5.64835
G1 X101.762 Y104.365 E5.65720
G1 X104.479 Y107.082 E5.76394
G1 X104.740 Y106.919 E5.77249
G1 X104.992 Y106.727 E5.78128
G1 X102.130 Y103.865 E5.89370
G1 X102.236 Y103.633 E5.90079
G1 X102.352 Y103.220 E5.91272
G1 X105.436 Y106.304 E6.03387
G1 X105.707 Y105.991 E6.04537
G1 X105.823 Y105.823 E6.05104
G1 X102.400 Y102.400 E6.18548
G1 X102.368 Y102.095 E6.19400
G1 X102.277 Y101.717 E6.20480
G1 X102.134 Y101.367 E6.21531
G1 X101.971 Y101.103 E6.22394
G1 X106.133 Y105.265 E6.38743
G1 E4.38743 F2400.00000
G92 E0
G1 X106.279 Y101.073 F7800.000
G1 E2.00000 F2400.00000
G1 F2889.36
G1 X103.340 Y98.133 E2.11546
G1 X102.751 Y97.927 E2.13279
G1 X102.121 Y97.783 E2.15074
G1 X106.539 Y102.200 E2.32427
G1 X106.584 Y103.113 E2.34965
G1 X101.110 Y97.639 E2.56466
G1 X100.726 Y97.606 E2.57538
G1 X100.195 Y97.592 E2.59013
G1 X106.522 Y103.918 E2.83865
G1 X106.423 Y104.448 E2.85362
G1 X106.368 Y104.633 E2.85897
G1 X99.324 Y97.589 E3.13569
G1 X98.457 Y97.589 E3.15979
G1 X101.886 Y101.018 E3.29451
G1 X101.579 Y100.828 E3.30451
G1 X101.275 Y100.697 E3.31372
G1 X100.927 Y100.594 E3.32380
G1 X100.527 Y100.527 E3.33506
G1 X97.589 Y97.589 E3.45050
G1 X97.971 Y97.971 F7800.000
G1 F2889.36
G1 X97.467 Y97.971 E3.46448
G1 X97.467 Y97.467 E3.47846
G1 X93.412 Y93.412 E3.63776
G1 X93.412 Y92.544 E3.66187
G1 X97.467 Y96.599 E3.82116
G1 X97.467 Y95.732 E3.84527
G1 X93.726 Y91.991 E3.99223
G1 X94.594 Y91.991 E4.01634
G1 X97.467 Y94.864 E4.12921
G1 X97.467 Y93.996 E4.15332
G1 X95.462 Y91.991 E4.23211
G1 X96.329 Y91.991 E4.25621
G1 X97.467 Y93.128 E4.30091
G1 Z1.200 F7800.000
G1 X93.744 Y92.372 F7800.000
G1 F2906.15
G1 X93.412 Y92.372 E4.31012
G1 X93.412 Y92.704 E4.31933
G1 X94.125 Y91.991 E4.34736
G1 X94.993 Y91.991 E4.37146
G1 X93.412 Y93.572 E4.43358
G1 X93.412 Y94.439 E4.45768
G1 X95.861 Y91.991 E4.55388
G1 X96.729 Y91.991 E4.57799
G1 X93.412 Y95.307 E4.70828
G1 X93.412 Y96.175 E4.73238
G1 X97.467 Y92.120 E4.89168
G1 X97.467 Y92.988 E4.91578
G1 X93.412 Y97.043 E5.07508
G1 X93.412 Y97.910 E5.09918
G1 X97.467 Y93.855 E5.25848
G1 X97.467 Y94.723 E5.28258
G1 X93.412 Y98.778 E5.44188
G1 X93.412 Y99.646 E5.46599
G1 X97.467 Y95.591 E5.62528
G1 X97.467 Y96.459 E5.64939
G1 X93.412 Y100.514 E5.80868
G1 X93.412 Y101.381 E5.83279
G1 X97.467 Y97.326 E5.99209
G1 X97.467 Y97.588 E5.99935
G1 X98.071 Y97.590 E6.01612
G1 X93.412 Y102.249 E6.19914
G1 X93.412 Y103.117 E6.22324
G1 X98.935 Y97.594 E6.44020
G1 X99.799 Y97.598 E6.46421
G1 X93.412 Y103.985 E6.71512
G1 X93.412 Y104.852 E6.73922
G1 X97.467 Y100.797 E6.89852
G1 X97.467 Y101.665 E6.92262
G1 X93.412 Y105.720 E7.08192
G1 X93.412 Y106.588 E7.10602
G1 X97.467 Y102.533 E7.26532
G1 X97.467 Y103.401 E7.28943
G1 X93.412 Y107.456 E7.44872
G1 X93.412 Y108.009 E7.46411
G1 X93.726 Y108.009 E7.47283
G1 X97.467 Y104.268 E7.61979
G1 X97.467 Y105.099 E7.64287
G1 X97.504 Y105.099 E7.64390
G1 X94.594 Y108.009 E7.75822
G1 X95.462 Y108.009 E7.78233
G1 X98.372 Y105.099 E7.89665
G1 X99.240 Y105.099 E7.92075
G1 X96.329 Y108.009 E8.03508
G1 X97.197 Y108.009 E8.05918
G1 X100.109 Y105.098 E8.17358
G1 X100.577 Y105.066 E8.18660
G1 X101.120 Y104.955 E8.20200
G1 X98.065 Y108.009 E8.32201
G1 X98.933 Y108.009 E8.34611
G1 X106.275 Y100.667 E8.63454
G1 X106.371 Y100.961 E8.64311
G1 X106.462 Y101.348 E8.65416
G1 X99.800 Y108.009 E8.91586
G1 X100.690 Y107.987 E8.94059
G1 X106.563 Y102.115 E9.17128
G1 X106.588 Y102.617 E9.18524
G1 X106.577 Y102.969 E9.19502
G1 X101.648 Y107.898 E9.38864
G1 X102.209 Y107.807 E9.40445
G1 X102.749 Y107.664 E9.41996
G1 X106.442 Y103.971 E9.56505
G1 X106.305 Y104.468 E9.57939
G1 X106.168 Y104.819 E9.58985
G1 X105.907 Y105.315 E9.60543
G1 X105.782 Y105.499 E9.61161
G1 X104.414 Y106.866 E9.66532
G1 X102.316 Y103.759 F7800.000
G1 F2906.15
G1 X106.001 Y100.073 E9.81010
G1 X105.658 Y99.548 E9.82752
G1 X102.402 Y102.805 E9.95545
G1 X102.371 Y102.496 E9.96408
G1 X102.268 Y102.070 E9.97624
G1 X105.242 Y99.097 E10.09304
G1 X104.908 Y98.801 E10.10543
G1 X104.765 Y98.706 E10.11019
G1 X101.977 Y101.494 E10.21971
G1 X101.803 Y101.280 E10.22737
G1 X101.550 Y101.053 E10.23680
G1 X104.231 Y98.372 E10.34211
G1 X104.012 Y98.257 E10.34898
G1 X103.637 Y98.099 E10.36030
G1 X100.998 Y100.737 E10.46394
G1 X100.773 Y100.655 E10.47060
G1 X100.317 Y100.551 E10.48360
G1 X102.980 Y97.888 E10.58818
G1 X102.674 Y97.809 E10.59695
G1 X102.262 Y97.738 E10.60857
G1 X99.501 Y100.499 E10.71703
G1 X98.633 Y100.499 E10.74113
G1 X101.492 Y97.640 E10.85343
G1 X101.056 Y97.603 E10.86558
G1 X100.663 Y97.601 E10.87649
G1 X97.765 Y100.499 E10.99033
G1 X97.085 Y100.499 E11.00922
G1 X97.085 Y101.179 E11.02812
M106 S255
G1 Z1.600 F7800.000
G1 E9.02812 F2400.00000
G92 E0
G1 X99.631 Y100.499 F7800.000
G1 E2.00000 F2400.00000
G1 F2889.36
G1 X93.412 Y94.280 E2.24431
G1 X93.412 Y95.148 E2.26842
G1 X98.764 Y100.499 E2.47864
G1 X97.896 Y100.499 E2.50274
G1 X93.412 Y96.015 E2.67888
G1 X93.412 Y96.883 E2.70298
G1 X97.467 Y100.938 E2.86228
G1 X97.467 Y101.806 E2.88638
G1 X93.412 Y97.751 E3.04568
G1 X93.412 Y98.619 E3.06979
G1 X97.467 Y102.674 E3.22908
G1 X97.467 Y103.541 E3.25319
G1 X93.412 Y99.486 E3.41248
G1 X93.412 Y100.354 E3.43659
G1 X97.467 Y104.409 E3.59589
G1 X97.467 Y105.277 E3.61999
G1 X93.412 Y101.222 E3.77929
G1 X93.412 Y102.090 E3.80339
G1 X99.332 Y108.009 E4.03595
G1 X98.464 Y108.009 E4.06005
G1 X93.412 Y102.957 E4.25852
G1 X93.412 Y103.825 E4.28262
G1 X97.596 Y108.009 E4.44700
G1 X96.729 Y108.009 E4.47110
G1 X93.412 Y104.693 E4.60139
G1 X93.412 Y105.561 E4.62550
G1 X95.861 Y108.009 E4.72170
G1 X94.993 Y108.009 E4.74580
G1 X93.412 Y106.428 E4.80792
G1 X93.412 Y107.296 E4.83202
G1 X94.125 Y108.009 E4.86005
G1 X93.794 Y108.009 E4.86926
G1 X93.794 Y107.678 E4.87847
G1 X97.289 Y105.099 F7800.000
G1 F2889.36
G1 X100.200 Y108.009 E4.99279
G1 X101.048 Y107.990 E5.01635
G1 X98.157 Y105.099 E5.12990
G1 X99.025 Y105.099 E5.15400
G1 X101.854 Y107.928 E5.26512
G1 X102.593 Y107.800 E5.28597
G1 X99.886 Y105.092 E5.39232
G1 X100.317 Y105.048 E5.40436
G1 X100.642 Y104.980 E5.41357
G1 X103.276 Y107.615 E5.51706
G1 X103.658 Y107.493 E5.52820
G1 X103.914 Y107.385 E5.53591
G1 X101.266 Y104.737 E5.63994
G1 X101.521 Y104.573 E5.64835
G1 X101.762 Y104.365 E5.65720
G1 X104.479 Y107.082 E5.76394
G1 X104.740 Y106.919 E5.77249
G1 X104.992 Y106.727 E5.78128
G1 X102.130 Y103.865 E5.89370
G1 X102.236 Y103.633 E5.90079
G1 X102.352 Y103.220 E5.91272
G1 X105.436 Y106.304 E6.03387
G1 X105.707 Y105.991 E6.04537
G1 X105.823 Y105.823 E6.05104
G1 X102.400 Y102.400 E6.18548
G1 X102.368 Y102.095 E6.19400
G1 X102.277 Y101.717 E6.20480
G1 X102.134 Y101.367 E6.21531
G1 X101.971 Y101.103 E6.22394
G1 X106.133 Y105.265 E6.38743
G1 E4.38743 F2400.00000
G92 E0
G1 X106.279 Y101.073 F7800.000
G1 E2.00000 F2400.00000
G1 F2889.36
G1 X103.340 Y98.133 E2.11546
G1 X102.751 Y97.927 E2.13279
G1 X102.121 Y97.783 E2.15074
G1 X106.539 Y102.200 E2.32427
G1 X106.584 Y103.113 E2.34965
G1 X101.110 Y97.639 E2.56466
G1 X100.726 Y97.606 E2.57538
G1 X100.195 Y97.592 E2.59013
G1 X106.522 Y103.918 E2.83865
G1 X106.423 Y104.448 E2.85362
G1 X106.368 Y104.633 E2.85897
G1 X99.324 Y97.589 E3.13569
G1 X98.457 Y97.589 E3.15979
G1 X101.886 Y101.018 E3.29451
G1 X101.579 Y100.828 E3.30451
G1 X101.275 Y100.697 E3.31372
G1 X100.927 Y100.594 E3.32380
G1 X100.527 Y100.527 E3.33506
G1 X97.589 Y97.589 E3.45050
G1 X97.971 Y97.971 F7800.000
G1 F2889.36
G1 X97.467 Y97.971 E3.46448
G1 X97.467 Y97.467 E3.47846
G1 X93.412 Y93.412 E3.63776
G1 X93.412 Y92.544 E3.66187
G1 X97.467 Y96.599 E3.82116
G1 X97.467 Y95.732 E3.84527
G1 X93.726 Y91.991 E3.99223
G1 X94.594 Y91.991 E4.01634
G1 X97.467 Y94.864 E4.12921
G1 X97.467 Y93.996 E4.15332
G1 X95.462 Y91.991 E4.23211
G1 X96.329 Y91.991 E4.25621
G1 X97.467 Y93.128 E4.30091
G1 Z2.000 F7800.000
G1 E2.30091 F2400.00000
G92 E0
G1 X93.744 Y92.372 F7800.000
G1 E2.00000 F2400.00000
G1 F2907.18
G1 X93.412 Y92.372 E2.00921
G1 X93.412 Y92.704 E2.01842
G1 X94.125 Y91.991 E2.04645
G1 X94.993 Y91.991 E2.07055
G1 X93.412 Y93.572 E2.13266
G1 X93.412 Y94.439 E2.15677
G1 X95.861 Y91.991 E2.25297
G1 X96.729 Y91.991 E2.27707
G1 X93.412 Y95.307 E2.40736
G1 X93.412 Y96.175 E2.43147
G1 X97.467 Y92.120 E2.59077
G1 X97.467 Y92.988 E2.61487
G1 X93.412 Y97.043 E2.77417
G1 X93.412 Y97.910 E2.79827
G1 X97.467 Y93.855 E2.95757
G1 X97.467 Y94.723 E2.98167
G1 X93.412 Y98.778 E3.14097
G1 X93.412 Y99.646 E3.16507
G1 X97.467 Y95.591 E3.32437
G1 X97.467 Y96.459 E3.34848
G1 X93.412 Y100.514 E3.50777
G1 X93.412 Y101.381 E3.53188
G1 X97.467 Y97.326 E3.69117
G1 X97.467 Y97.589 E3.69846
G1 X98.072 Y97.589 E3.71528
G1 X93.412 Y102.249 E3.89836
G1 X93.412 Y103.117 E3.92246
G1 X98.940 Y97.589 E4.13963
G1 X99.808 Y97.589 E4.16373
G1 X93.412 Y103.985 E4.41498
G1 X93.412 Y104.852 E4.43909
G1 X97.467 Y100.797 E4.59838
G1 X97.467 Y101.665 E4.62249
G1 X93.412 Y105.720 E4.78179
G1 X93.412 Y106.588 E4.80589
G1 X97.467 Y102.533 E4.96519
G1 X97.467 Y103.401 E4.98929
G1 X93.412 Y107.456 E5.14859
G1 X93.412 Y108.009 E5.16397
G1 X93.726 Y108.009 E5.17269
G1 X97.467 Y104.268 E5.31966
G1 X97.467 Y105.099 E5.34274
G1 X97.504 Y105.099 E5.34376
G1 X94.594 Y108.009 E5.45809
G1 X95.462 Y108.009 E5.48219
G1 X98.372 Y105.099 E5.59652
G1 X99.240 Y105.099 E5.62062
G1 X96.329 Y108.009 E5.73495
G1 X97.197 Y108.009 E5.75905
G1 X100.110 Y105.097 E5.87347
G1 X100.607 Y105.062 E5.88732
G1 X101.120 Y104.954 E5.90188
G1 X98.065 Y108.009 E6.02190
G1 X98.933 Y108.009 E6.04600
G1 X106.270 Y100.672 E6.33425
G1 X106.367 Y100.946 E6.34233
G1 X106.461 Y101.349 E6.35381
G1 X99.800 Y108.009 E6.61546
G1 X100.687 Y107.991 E6.64009
G1 X106.566 Y102.112 E6.87104
G1 X106.588 Y102.615 E6.88503
G1 X106.573 Y102.972 E6.89496
G1 X101.644 Y107.902 E7.08861
G1 X102.072 Y107.834 E7.10067
G1 X102.746 Y107.667 E7.11995
G1 X106.443 Y103.970 E7.26516
G1 X106.290 Y104.510 E7.28075
G1 X106.091 Y104.984 E7.29503
G1 X105.788 Y105.492 E7.31146
G1 X104.390 Y106.891 E7.36638
G1 E5.36638 F2400.00000
G92 E0
G1 X102.316 Y103.758 F7800.000
G1 E2.00000 F2400.00000
G1 F2907.18
G1 X106.000 Y100.074 E2.14472
G1 X105.858 Y99.825 E2.15270
G1 X105.655 Y99.552 E2.16215
G1 X102.400 Y102.806 E2.29000
G1 X102.365 Y102.458 E2.29971
G1 X102.267 Y102.072 E2.31079
G1 X105.243 Y99.096 E2.42769
G1 X105.049 Y98.915 E2.43505
G1 X104.770 Y98.701 E2.44483
G1 X101.977 Y101.494 E2.55452
G1 X101.829 Y101.308 E2.56112
G1 X101.549 Y101.054 E2.57162
G1 X104.230 Y98.373 E2.67692
G1 X103.932 Y98.221 E2.68622
G1 X103.638 Y98.098 E2.69508
G1 X100.999 Y100.737 E2.79875
G1 X100.728 Y100.643 E2.80670
G1 X100.316 Y100.551 E2.81842
G1 X102.981 Y97.887 E2.92310
G1 X102.259 Y97.741 E2.94357
G1 X99.501 Y100.499 E3.05191
G1 X98.633 Y100.499 E3.07601
G1 X101.494 Y97.638 E3.18840
G1 X100.670 Y97.595 E3.21133
G1 X97.765 Y100.499 E3.32541
G1 X97.085 Y100.499 E3.34431
G1 X97.085 Y101.179 E3.36320
G1 E1.36320 F2400.00000
G92 E0
M107
; Filament-specific end gcode 
;END gcode for filament

M104 S0 ; turn off temperature
G28 X0  ; home X axis
M84     ; disable motors

M140 S0 ; set bed temperature
; filament used = 36.8mm (0.3cm3)
; total filament cost = 0.0

; avoid_crossing_perimeters = 0
; bed_shape = 0x0,200x0,200x200,0x200
; bed_temperature = 0
; before_layer_gcode = 
; between_objects_gcode = 
; bridge_acceleration = 0
; bridge_fan_speed = 100
; brim_connections_width = 0
; brim_width = 0
; complete_objects = 0
; cooling = 1
; default_acceleration = 0
; disable_fan_first_layers = 3
; duplicate_distance = 6
; end_filament_gcode = "; Filament-specific end gcode \n;END gcode for filament\n"
; end_gcode = M104 S0 ; turn off temperature\nG28 X0  ; home X axis\nM84     ; disable motors\n
; extruder_clearance_height = 20
; extruder_clearance_radius = 20
; extruder_offset = 0x0
; extrusion_axis = E
; extrusion_multiplier = 1
; fan_always_on = 0
; fan_below_layer_time = 60
; filament_colour = #FFFFFF
; filament_cost = 0
; filament_density = 0
; filament_diameter = 3
; filament_max_volumetric_speed = 0
; filament_notes = ""
; first_layer_acceleration = 0
; first_layer_bed_temperature = 0
; first_layer_extrusion_width = 200%
; first_layer_speed = 30
; first_layer_temperature = 205
; gcode_arcs = 0
; gcode_comments = 0
; gcode_flavor = reprap
; has_heatbed = 1
; infill_acceleration = 0
; infill_first = 0
; interior_brim_width = 0
; layer_gcode = 
; max_fan_speed = 100
; max_layer_height = 0.3
; max_print_speed = 80
; max_volumetric_speed = 0
; min_fan_speed = 35
; min_layer_height = 0.15
; min_print_speed = 10
; min_skirt_length = 0
; notes = 
; nozzle_diameter = 0.5
; only_retract_when_crossing_perimeters = 1
; ooze_prevention = 0
; output_filename_format = [input_filename_base].gcode
; perimeter_acceleration = 0
; post_process = 
; pressure_advance = 0
; printer_notes = 
; resolution = 0
; retract_before_travel = 2
; retract_layer_change = 0
; retract_length = 2
; retract_length_toolchange = 10
; retract_lift = 0
; retract_lift_above = 0
; retract_lift_below = 0
; retract_restart_extra = 0
; retract_restart_extra_toolchange = 0
; retract_speed = 40
; skirt_distance = 6
; skirt_height = 1
; skirts = 0
; slowdown_below_layer_time = 5
; spiral_vase = 0
; standby_temperature_delta = -5
; start_filament_gcode = "; Filament gcode\n"
; start_gcode = G28 ; home all axes\nG1 Z5 F5000 ; lift nozzle\n
; temperature = 200
; threads = 8
; toolchange_gcode = 
; travel_speed = 130
; use_firmware_retraction = 0
; use_relative_e_distances = 0
; use_set_and_wait_bed = 0
; use_set_and_wait_extruder = 0
; use_volumetric_e = 0
; vibration_limit = 0
; wipe = 0
; z_offset = 0
; z_steps_per_mm = 0
; adaptive_slicing = 0
; adaptive_slicing_quality = 75%
; dont_support_bridges = 1
; extrusion_width = 0
; first_layer_height = 0.4
; infill_only_where_needed = 0
; interface_shells = 0
; layer_height = 0.4
; match_horizontal_surfaces = 0
; raft_layers = 0
; regions_overlap = 0
; seam_position = aligned
; sequential_print_priority = 0
; support_material = 0
; support_material_angle = 0
; support_material_buildplate_only = 0
; support_material_contact_distance = 0.2
; support_material_enforce_layers = 0
; support_material_extruder = 1
; support_material_extrusion_width = 0
; support_material_interface_extruder = 1
; support_material_interface_extrusion_width = 0
; support_material_interface_layers = 3
; support_material_interface_spacing = 0
; support_material_interface_speed = 100%
; support_material_max_layers = 0
; support_material_pattern = pillars
; support_material_spacing = 2.5
; support_material_speed = 60
; support_material_threshold = 60%
; xy_size_compensation = 0
; bottom_infill_pattern = rectilinear
; bottom_solid_layers = 0
; bridge_flow_ratio = 1
; bridge_speed = 60
; external_perimeter_extrusion_width = 0
; external_perimeter_speed = 50%
; external_perimeters_first = 0
; extra_perimeters = 1
; fill_angle = 45
; fill_density = 80%
; fill_gaps = 1
; fill_pattern = rectilinear
; gap_fill_speed = 20
; infill_every_layers = 1
; infill_extruder = 1
; infill_extrusion_width = 0
; infill_overlap = 55%
; infill_speed = 80
; overhangs = 1
; perimeter_extruder = 1
; perimeter_extrusion_width = 0
; perimeter_speed = 60
; perimeters = 0
; small_perimeter_speed = 15
; solid_infill_below_area = 70
; solid_infill_every_layers = 0
; solid_infill_extruder = 1
; solid_infill_extrusion_width = 0
; solid_infill_speed = 20
; thin_walls = 1
; top_infill_extrusion_width = 0
; top_infill_pattern = rectilinear
; top_solid_infill_speed = 15
; top_solid_layers = 0
