; generated by Slic3r 1.3.0 on 2020-10-21 at 16:17:55

; external perimeters extrusion width = 0.55mm (6.64mm^3/s)
; perimeters extrusion width = 0.52mm (12.53mm^3/s)
; infill extrusion width = 0.52mm (16.71mm^3/s)
; solid infill extrusion width = 0.52mm (4.18mm^3/s)
; top infill extrusion width = 0.52mm (3.13mm^3/s)

M107
M104 S205 ; set temperature
G28 ; home all axes
G1 Z5 F5000 ; lift nozzle

; Filament gcode

M109 S205 ; set temperature and wait for it to be reached
G21 ; set units to millimeters
G90 ; use absolute coordinates
M82 ; use absolute distances for extrusion
G92 E0
G1 Z0.500 F7800.000
G1 E-2.00000 F2400.00000
G92 E0
G1 X93.454 Y92.464 F7800.000
G1 E2.00000 F2400.00000
G1 F1800
G1 X93.964 Y91.954 E2.04551
G1 X94.563 Y91.954 E2.08335
G1 X93.454 Y93.063 E2.18239
G1 X93.454 Y93.662 E2.22023
G1 X95.162 Y91.954 E2.37278
G1 X95.762 Y91.954 E2.41062
G1 X93.454 Y94.262 E2.61669
G1 X93.454 Y94.861 E2.65453
G1 X96.361 Y91.954 E2.91411
G1 X96.960 Y91.954 E2.95195
G1 X93.454 Y95.460 E3.26504
G1 X93.454 Y96.059 E3.30288
G1 X97.291 Y92.222 E3.64552
G1 X97.291 Y92.822 E3.68336
G1 X93.454 Y96.659 E4.02601
G1 X93.454 Y97.258 E4.06385
G1 X97.291 Y93.421 E4.40649
G1 X97.291 Y94.020 E4.44433
G1 X93.454 Y97.857 E4.78697
G1 X93.454 Y98.456 E4.82481
G1 X97.291 Y94.619 E5.16746
G1 X97.291 Y95.219 E5.20530
G1 X93.454 Y99.055 E5.54794
G1 X93.454 Y99.655 E5.58578
G1 X97.291 Y95.818 E5.92842
G1 X97.291 Y96.417 E5.96626
G1 X93.454 Y100.254 E6.30891
G1 X93.454 Y100.853 E6.34675
G1 X97.291 Y97.016 E6.68939
G1 X97.291 Y97.616 E6.72723
G1 X93.454 Y101.452 E7.06987
G1 X93.454 Y102.052 E7.10771
G1 X97.291 Y98.215 E7.45036
G1 X97.291 Y98.731 E7.48295
G1 X97.374 Y98.731 E7.48819
G1 X93.454 Y102.651 E7.83826
G1 X93.454 Y103.250 E7.87610
G1 X97.973 Y98.731 E8.27967
G1 X98.573 Y98.731 E8.31751
G1 X93.454 Y103.849 E8.77460
G1 X93.454 Y104.449 E8.81244
G1 X99.172 Y98.731 E9.32304
G1 X99.771 Y98.731 E9.36087
G1 X93.454 Y105.048 E9.92499
G1 X93.454 Y105.647 E9.96283
G1 X97.291 Y101.810 E10.30547
G1 X97.291 Y102.409 E10.34331
G1 X93.454 Y106.246 E10.68595
G1 X93.454 Y106.846 E10.72379
G1 X97.291 Y103.009 E11.06644
G1 X97.291 Y103.608 E11.10428
G1 X93.454 Y107.445 E11.44692
G1 X93.454 Y108.044 E11.48476
G1 X97.291 Y104.207 E11.82740
G1 X97.291 Y104.806 E11.86524
G1 X94.051 Y108.046 E12.15454
G1 X94.651 Y108.046 E12.19238
G1 X97.291 Y105.406 E12.42817
G1 X97.291 Y106.005 E12.46601
G1 X95.250 Y108.046 E12.64828
G1 X95.849 Y108.046 E12.68612
G1 X97.291 Y106.604 E12.81488
G1 X97.291 Y107.203 E12.85272
G1 X96.448 Y108.046 E12.92796
G1 E10.92796 F2400.00000
G92 E0
G1 X99.555 Y101.943 F7800.000
G1 E2.00000 F2400.00000
G1 F1800
G1 X102.767 Y98.731 E2.28684
G1 X102.168 Y98.731 E2.32468
G1 X98.956 Y101.943 E2.61152
G1 X98.357 Y101.943 E2.64936
G1 X101.569 Y98.731 E2.93620
G1 X100.969 Y98.731 E2.97404
G1 X97.757 Y101.943 E3.26089
G1 X97.158 Y101.943 E3.29873
G1 X100.370 Y98.731 E3.58557
G1 X99.771 Y98.731 E3.62341
G1 E1.62341 F2400.00000
G92 E0
G1 X103.042 Y92.464 F7800.000
G1 E2.00000 F2400.00000
G1 F1800
G1 X102.709 Y92.464 E2.02103
G1 X102.709 Y92.797 E2.04206
G1 X103.552 Y91.954 E2.11731
G1 X104.151 Y91.954 E2.15515
G1 X102.709 Y93.396 E2.28392
G1 X102.709 Y93.995 E2.32176
G1 X104.750 Y91.954 E2.50403
G1 X105.349 Y91.954 E2.54187
G1 X102.709 Y94.594 E2.77766
G1 X102.709 Y95.194 E2.81550
G1 X105.949 Y91.954 E3.10481
G1 X106.546 Y91.954 E3.14252
G1 X102.709 Y95.793 E3.48525
G1 X102.709 Y96.392 E3.52309
G1 X106.546 Y92.555 E3.86574
G1 X106.546 Y93.154 E3.90358
G1 X102.709 Y96.991 E4.24622
G1 X102.709 Y97.591 E4.28406
G1 X106.546 Y93.754 E4.62670
G1 X106.546 Y94.353 E4.66454
G1 X102.709 Y98.190 E5.00719
G1 X102.709 Y98.789 E5.04503
G1 X106.546 Y94.952 E5.38767
G1 X106.546 Y95.551 E5.42551
G1 X100.154 Y101.943 E5.99629
G1 X100.754 Y101.943 E6.03413
G1 X106.546 Y96.151 E6.55139
G1 X106.546 Y96.750 E6.58923
G1 X101.353 Y101.943 E7.05298
G1 X101.952 Y101.943 E7.09082
G1 X106.546 Y97.349 E7.50106
G1 X106.546 Y97.948 E7.53890
G1 X102.551 Y101.943 E7.89563
G1 X102.709 Y101.943 E7.90559
G1 X102.709 Y102.385 E7.93347
G1 X106.546 Y98.548 E8.27611
G1 X106.546 Y99.147 E8.31395
G1 X102.709 Y102.984 E8.65660
G1 X102.709 Y103.583 E8.69444
G1 X106.546 Y99.746 E9.03708
G1 X106.546 Y100.345 E9.07492
G1 X102.709 Y104.182 E9.41756
G1 X102.709 Y104.782 E9.45540
G1 X106.546 Y100.945 E9.79805
G1 X106.546 Y101.544 E9.83589
G1 X102.709 Y105.381 E10.17853
G1 X102.709 Y105.980 E10.21637
G1 X106.546 Y102.143 E10.55901
G1 X106.546 Y102.742 E10.59685
G1 X102.709 Y106.579 E10.93950
G1 X102.709 Y107.178 E10.97733
G1 X106.546 Y103.342 E11.31998
G1 X106.546 Y103.941 E11.35782
G1 X102.709 Y107.778 E11.70046
G1 X102.709 Y108.046 E11.71740
G1 X103.040 Y108.046 E11.73830
G1 X106.546 Y104.540 E12.05139
G1 X106.546 Y105.139 E12.08923
G1 X103.639 Y108.046 E12.34880
G1 X104.238 Y108.046 E12.38664
G1 X106.546 Y105.738 E12.59270
G1 X106.546 Y106.338 E12.63054
G1 X104.838 Y108.046 E12.78309
G1 X105.437 Y108.046 E12.82093
G1 X106.546 Y106.937 E12.91997
G1 X106.546 Y107.536 E12.95781
G1 X106.036 Y108.046 E13.00333
M104 S200 ; set temperature
G1 Z1.000 F7800.000
G1 E11.00333 F2400.00000
G92 E0
G1 X103.126 Y107.621 F7800.000
G1 E2.00000 F2400.00000
G1 F4252.76
G1 X103.126 Y107.954 E2.00984
G1 X103.459 Y107.954 E2.01968
G1 X102.801 Y107.296 E2.04717
G1 X102.801 Y106.696 E2.06488
G1 X104.059 Y107.954 E2.11741
G1 X104.658 Y107.954 E2.13511
G1 X102.801 Y106.097 E2.21268
G1 X102.801 Y105.498 E2.23039
G1 X105.257 Y107.954 E2.33300
G1 X105.856 Y107.954 E2.35070
G1 X102.801 Y104.899 E2.47835
G1 X102.801 Y104.299 E2.49605
G1 X106.454 Y107.952 E2.64866
G1 X106.454 Y107.352 E2.66637
G1 X102.801 Y103.700 E2.81897
G1 X102.801 Y103.101 E2.83668
G1 X106.454 Y106.753 E2.98928
G1 X106.454 Y106.154 E3.00699
G1 X102.801 Y102.502 E3.15959
G1 X102.801 Y101.903 E3.17730
G1 X106.454 Y105.555 E3.32991
G1 X106.454 Y104.955 E3.34761
G1 X100.321 Y98.823 E3.60384
G1 X100.921 Y98.823 E3.62155
G1 X106.454 Y104.356 E3.85274
G1 X106.454 Y103.757 E3.87044
G1 X101.520 Y98.823 E4.07660
G1 X102.119 Y98.823 E4.09430
G1 X106.454 Y103.158 E4.27541
G1 X106.454 Y102.559 E4.29312
G1 X102.718 Y98.823 E4.44919
G1 X102.801 Y98.823 E4.45165
G1 X102.801 Y98.307 E4.46690
G1 X106.454 Y101.959 E4.61951
G1 X106.454 Y101.360 E4.63721
G1 X102.801 Y97.708 E4.78982
G1 X102.801 Y97.109 E4.80752
G1 X106.454 Y100.761 E4.96013
G1 X106.454 Y100.162 E4.97783
G1 X102.801 Y96.509 E5.13044
G1 X102.801 Y95.910 E5.14814
G1 X106.454 Y99.562 E5.30075
G1 X106.454 Y98.963 E5.31846
G1 X102.801 Y95.311 E5.47106
G1 X102.801 Y94.712 E5.48877
G1 X106.454 Y98.364 E5.64137
G1 X106.454 Y97.765 E5.65908
G1 X102.801 Y94.112 E5.81168
G1 X102.801 Y93.513 E5.82939
G1 X106.454 Y97.165 E5.98200
G1 X106.454 Y96.566 E5.99970
G1 X102.801 Y92.914 E6.15231
G1 X102.801 Y92.315 E6.17001
G1 X106.454 Y95.967 E6.32262
G1 X106.454 Y95.368 E6.34032
G1 X103.132 Y92.046 E6.47910
G1 X103.732 Y92.046 E6.49681
G1 X106.454 Y94.768 E6.61054
G1 X106.454 Y94.169 E6.62825
G1 X104.331 Y92.046 E6.71695
G1 X104.930 Y92.046 E6.73465
G1 X106.454 Y93.570 E6.79831
G1 X106.454 Y92.971 E6.81602
G1 X105.529 Y92.046 E6.85464
G1 X106.129 Y92.046 E6.87234
G1 X106.454 Y92.371 E6.88592
G1 E4.88592 F2400.00000
G92 E0
G1 X97.199 Y92.704 F7800.000
G1 E2.00000 F2400.00000
G1 F4252.76
G1 X96.541 Y92.046 E2.02749
G1 X95.941 Y92.046 E2.04519
G1 X97.199 Y93.304 E2.09772
G1 X97.199 Y93.903 E2.11543
G1 X95.342 Y92.046 E2.19299
G1 X94.743 Y92.046 E2.21070
G1 X97.199 Y94.502 E2.31331
G1 X97.199 Y95.101 E2.33101
G1 X94.144 Y92.046 E2.45866
G1 X93.546 Y92.046 E2.47631
G1 X97.199 Y95.700 E2.62895
G1 X97.199 Y96.300 E2.64666
G1 X93.546 Y92.648 E2.79926
G1 X93.546 Y93.247 E2.81697
G1 X97.199 Y96.899 E2.96957
G1 X97.199 Y97.498 E2.98728
G1 X93.546 Y93.846 E3.13989
G1 X93.546 Y94.445 E3.15759
G1 X97.199 Y98.097 E3.31020
G1 X97.199 Y98.697 E3.32790
G1 X93.546 Y95.044 E3.48051
G1 X93.546 Y95.644 E3.49821
G1 X99.753 Y101.851 E3.75757
G1 X99.154 Y101.851 E3.77527
G1 X93.546 Y96.243 E4.00959
G1 X93.546 Y96.842 E4.02729
G1 X98.555 Y101.851 E4.23657
G1 X97.956 Y101.851 E4.25428
G1 X93.546 Y97.441 E4.43851
G1 X93.546 Y98.041 E4.45622
G1 X97.356 Y101.851 E4.61542
G1 X97.199 Y101.851 E4.62008
G1 X97.199 Y102.292 E4.63312
G1 X93.546 Y98.640 E4.78573
G1 X93.546 Y99.239 E4.80343
G1 X97.199 Y102.891 E4.95604
G1 X97.199 Y103.491 E4.97374
G1 X93.546 Y99.838 E5.12635
G1 X93.546 Y100.438 E5.14406
G1 X97.199 Y104.090 E5.29666
G1 X97.199 Y104.689 E5.31437
G1 X93.546 Y101.037 E5.46697
G1 X93.546 Y101.636 E5.48468
G1 X97.199 Y105.288 E5.63728
G1 X97.199 Y105.888 E5.65499
G1 X93.546 Y102.235 E5.80760
G1 X93.546 Y102.835 E5.82530
G1 X97.199 Y106.487 E5.97791
G1 X97.199 Y107.086 E5.99561
G1 X93.546 Y103.434 E6.14822
G1 X93.546 Y104.033 E6.16592
G1 X97.199 Y107.685 E6.31853
G1 X97.199 Y107.954 E6.32646
G1 X96.868 Y107.954 E6.33624
G1 X93.546 Y104.632 E6.47501
G1 X93.546 Y105.232 E6.49272
G1 X96.268 Y107.954 E6.60646
G1 X95.669 Y107.954 E6.62416
G1 X93.546 Y105.831 E6.71287
G1 X93.546 Y106.430 E6.73057
G1 X95.070 Y107.954 E6.79423
G1 X94.471 Y107.954 E6.81194
G1 X93.546 Y107.029 E6.85056
G1 X93.546 Y107.629 E6.86827
G1 X93.871 Y107.953 E6.88184
G1 X97.325 Y98.823 F7800.000
G1 F4252.76
G1 X100.353 Y101.851 E7.00834
G1 X100.952 Y101.851 E7.02604
G1 X97.924 Y98.823 E7.15254
G1 X98.524 Y98.823 E7.17024
G1 X101.551 Y101.851 E7.29674
G1 X102.150 Y101.851 E7.31445
G1 X99.123 Y98.823 E7.44094
G1 X99.722 Y98.823 E7.45865
G1 X102.750 Y101.851 E7.58514
G1 Z1.500 F7800.000
G1 X99.647 Y101.851 F7800.000
G1 F4259.95
G1 X102.675 Y98.823 E7.71164
G1 X102.076 Y98.823 E7.72935
G1 X99.048 Y101.851 E7.85584
G1 X98.449 Y101.851 E7.87355
G1 X101.476 Y98.823 E8.00004
G1 X100.877 Y98.823 E8.01775
G1 X97.850 Y101.851 E8.14424
G1 X97.251 Y101.851 E8.16195
G1 X100.278 Y98.823 E8.28845
G1 X99.679 Y98.823 E8.30615
G1 E6.30615 F2400.00000
G92 E0
G1 X103.134 Y92.371 F7800.000
G1 E2.00000 F2400.00000
G1 F4259.95
G1 X102.801 Y92.371 E2.00984
G1 X102.801 Y92.704 E2.01968
G1 X103.459 Y92.046 E2.04717
G1 X104.059 Y92.046 E2.06488
G1 X102.801 Y93.304 E2.11741
G1 X102.801 Y93.903 E2.13511
G1 X104.658 Y92.046 E2.21268
G1 X105.257 Y92.046 E2.23039
G1 X102.801 Y94.502 E2.33300
G1 X102.801 Y95.101 E2.35070
G1 X105.856 Y92.046 E2.47835
G1 X106.454 Y92.046 E2.49600
G1 X102.801 Y95.701 E2.64864
G1 X102.801 Y96.300 E2.66635
G1 X106.454 Y92.648 E2.81896
G1 X106.454 Y93.247 E2.83666
G1 X102.801 Y96.899 E2.98927
G1 X102.801 Y97.498 E3.00697
G1 X106.454 Y93.846 E3.15958
G1 X106.454 Y94.445 E3.17728
G1 X102.801 Y98.097 E3.32989
G1 X102.801 Y98.697 E3.34760
G1 X106.454 Y95.045 E3.50020
G1 X106.454 Y95.644 E3.51791
G1 X100.247 Y101.851 E3.77726
G1 X100.846 Y101.851 E3.79496
G1 X106.454 Y96.243 E4.02928
G1 X106.454 Y96.842 E4.04698
G1 X101.445 Y101.851 E4.25626
G1 X102.044 Y101.851 E4.27396
G1 X106.454 Y97.441 E4.45820
G1 X106.454 Y98.041 E4.47590
G1 X102.644 Y101.851 E4.63510
G1 X102.801 Y101.851 E4.63976
G1 X102.801 Y102.292 E4.65280
G1 X106.454 Y98.640 E4.80541
G1 X106.454 Y99.239 E4.82311
G1 X102.801 Y102.891 E4.97572
G1 X102.801 Y103.491 E4.99342
G1 X106.454 Y99.838 E5.14603
G1 X106.454 Y100.438 E5.16374
G1 X102.801 Y104.090 E5.31634
G1 X102.801 Y104.689 E5.33405
G1 X106.454 Y101.037 E5.48665
G1 X106.454 Y101.636 E5.50436
G1 X102.801 Y105.288 E5.65696
G1 X102.801 Y105.888 E5.67467
G1 X106.454 Y102.235 E5.82728
G1 X106.454 Y102.835 E5.84498
G1 X102.801 Y106.487 E5.99759
G1 X102.801 Y107.086 E6.01529
G1 X106.454 Y103.434 E6.16790
G1 X106.454 Y104.033 E6.18560
G1 X102.801 Y107.685 E6.33821
G1 X102.801 Y107.954 E6.34614
G1 X103.132 Y107.954 E6.35592
G1 X106.454 Y104.632 E6.49469
G1 X106.454 Y105.232 E6.51240
G1 X103.732 Y107.954 E6.62613
G1 X104.331 Y107.954 E6.64384
G1 X106.454 Y105.831 E6.73254
G1 X106.454 Y106.430 E6.75024
G1 X104.930 Y107.954 E6.81390
G1 X105.529 Y107.954 E6.83161
G1 X106.454 Y107.029 E6.87023
G1 X106.454 Y107.629 E6.88793
G1 X106.129 Y107.954 E6.90152
G1 E4.90152 F2400.00000
G92 E0
G1 X96.541 Y107.954 F7800.000
G1 E2.00000 F2400.00000
G1 F4259.95
G1 X97.199 Y107.296 E2.02749
G1 X97.199 Y106.696 E2.04519
G1 X95.941 Y107.954 E2.09772
G1 X95.342 Y107.954 E2.11543
G1 X97.199 Y106.097 E2.19300
G1 X97.199 Y105.498 E2.21070
G1 X94.743 Y107.954 E2.31331
G1 X94.144 Y107.954 E2.33101
G1 X97.199 Y104.899 E2.45866
G1 X97.199 Y104.300 E2.47636
G1 X93.546 Y107.952 E2.62897
G1 X93.546 Y107.352 E2.64667
G1 X97.199 Y103.700 E2.79928
G1 X97.199 Y103.101 E2.81699
G1 X93.546 Y106.753 E2.96959
G1 X93.546 Y106.154 E2.98730
G1 X97.199 Y102.502 E3.13990
G1 X97.199 Y101.903 E3.15761
G1 X93.546 Y105.555 E3.31021
G1 X93.546 Y104.956 E3.32792
G1 X99.679 Y98.823 E3.58415
G1 X99.079 Y98.823 E3.60186
G1 X93.546 Y104.356 E3.83305
G1 X93.546 Y103.757 E3.85076
G1 X98.480 Y98.823 E4.05691
G1 X97.881 Y98.823 E4.07462
G1 X93.546 Y103.158 E4.25573
G1 X93.546 Y102.559 E4.27344
G1 X97.282 Y98.823 E4.42951
G1 X97.199 Y98.823 E4.43197
G1 X97.199 Y98.307 E4.44722
G1 X93.546 Y101.959 E4.59983
G1 X93.546 Y101.360 E4.61753
G1 X97.199 Y97.708 E4.77014
G1 X97.199 Y97.109 E4.78784
G1 X93.546 Y100.761 E4.94045
G1 X93.546 Y100.162 E4.95815
G1 X97.199 Y96.509 E5.11076
G1 X97.199 Y95.910 E5.12846
G1 X93.546 Y99.562 E5.28107
G1 X93.546 Y98.963 E5.29878
G1 X97.199 Y95.311 E5.45138
G1 X97.199 Y94.712 E5.46909
G1 X93.546 Y98.364 E5.62169
G1 X93.546 Y97.765 E5.63940
G1 X97.199 Y94.112 E5.79200
G1 X97.199 Y93.513 E5.80971
G1 X93.546 Y97.165 E5.96232
G1 X93.546 Y96.566 E5.98002
G1 X97.199 Y92.914 E6.13263
G1 X97.199 Y92.315 E6.15033
G1 X93.546 Y95.967 E6.30294
G1 X93.546 Y95.368 E6.32064
G1 X96.868 Y92.046 E6.45942
G1 X96.268 Y92.046 E6.47713
G1 X93.546 Y94.768 E6.59087
G1 X93.546 Y94.169 E6.60857
G1 X95.669 Y92.046 E6.69727
G1 X95.070 Y92.046 E6.71498
G1 X93.546 Y93.570 E6.77864
G1 X93.546 Y92.971 E6.79635
G1 X94.471 Y92.046 E6.83497
G1 X93.871 Y92.046 E6.85268
G1 X93.547 Y92.371 E6.86625
M106 S255
G1 Z2.000 F7800.000
G1 E4.86625 F2400.00000
G92 E0
G1 X97.199 Y92.704 F7800.000
G1 E2.00000 F2400.00000
G1 F4252.76
G1 X96.541 Y92.046 E2.02749
G1 X95.941 Y92.046 E2.04519
G1 X97.199 Y93.304 E2.09772
G1 X97.199 Y93.903 E2.11543
G1 X95.342 Y92.046 E2.19299
G1 X94.743 Y92.046 E2.21070
G1 X97.199 Y94.502 E2.31331
G1 X97.199 Y95.101 E2.33101
G1 X94.144 Y92.046 E2.45866
G1 X93.546 Y92.046 E2.47631
G1 X97.199 Y95.700 E2.62895
G1 X97.199 Y96.300 E2.64666
G1 X93.546 Y92.648 E2.79926
G1 X93.546 Y93.247 E2.81697
G1 X97.199 Y96.899 E2.96957
G1 X97.199 Y97.498 E2.98728
G1 X93.546 Y93.846 E3.13989
G1 X93.546 Y94.445 E3.15759
G1 X97.199 Y98.097 E3.31020
G1 X97.199 Y98.697 E3.32790
G1 X93.546 Y95.044 E3.48051
G1 X93.546 Y95.644 E3.49821
G1 X99.753 Y101.851 E3.75757
G1 X99.154 Y101.851 E3.77527
G1 X93.546 Y96.243 E4.00959
G1 X93.546 Y96.842 E4.02729
G1 X98.555 Y101.851 E4.23657
G1 X97.956 Y101.851 E4.25428
G1 X93.546 Y97.441 E4.43851
G1 X93.546 Y98.041 E4.45622
G1 X97.356 Y101.851 E4.61542
G1 X97.199 Y101.851 E4.62008
G1 X97.199 Y102.292 E4.63312
G1 X93.546 Y98.640 E4.78573
G1 X93.546 Y99.239 E4.80343
G1 X97.199 Y102.891 E4.95604
G1 X97.199 Y103.491 E4.97374
G1 X93.546 Y99.838 E5.12635
G1 X93.546 Y100.438 E5.14406
G1 X97.199 Y104.090 E5.29666
G1 X97.199 Y104.689 E5.31437
G1 X93.546 Y101.037 E5.46697
G1 X93.546 Y101.636 E5.48468
G1 X97.199 Y105.288 E5.63728
G1 X97.199 Y105.888 E5.65499
G1 X93.546 Y102.235 E5.80760
G1 X93.546 Y102.835 E5.82530
G1 X97.199 Y106.487 E5.97791
G1 X97.199 Y107.086 E5.99561
G1 X93.546 Y103.434 E6.14822
G1 X93.546 Y104.033 E6.16592
G1 X97.199 Y107.685 E6.31853
G1 X97.199 Y107.954 E6.32646
G1 X96.868 Y107.954 E6.33624
G1 X93.546 Y104.632 E6.47501
G1 X93.546 Y105.232 E6.49272
G1 X96.268 Y107.954 E6.60646
G1 X95.669 Y107.954 E6.62416
G1 X93.546 Y105.831 E6.71287
G1 X93.546 Y106.430 E6.73057
G1 X95.070 Y107.954 E6.79423
G1 X94.471 Y107.954 E6.81194
G1 X93.546 Y107.029 E6.85056
G1 X93.546 Y107.629 E6.86827
G1 X93.871 Y107.953 E6.88184
G1 E4.88184 F2400.00000
G92 E0
G1 X103.126 Y107.621 F7800.000
G1 E2.00000 F2400.00000
G1 F4252.76
G1 X103.126 Y107.954 E2.00984
G1 X103.459 Y107.954 E2.01968
G1 X102.801 Y107.296 E2.04717
G1 X102.801 Y106.696 E2.06488
G1 X104.059 Y107.954 E2.11741
G1 X104.658 Y107.954 E2.13511
G1 X102.801 Y106.097 E2.21268
G1 X102.801 Y105.498 E2.23039
G1 X105.257 Y107.954 E2.33300
G1 X105.856 Y107.954 E2.35070
G1 X102.801 Y104.899 E2.47835
G1 X102.801 Y104.299 E2.49605
G1 X106.454 Y107.952 E2.64866
G1 X106.454 Y107.352 E2.66637
G1 X102.801 Y103.700 E2.81897
G1 X102.801 Y103.101 E2.83668
G1 X106.454 Y106.753 E2.98928
G1 X106.454 Y106.154 E3.00699
G1 X102.801 Y102.502 E3.15959
G1 X102.801 Y101.903 E3.17730
G1 X106.454 Y105.555 E3.32991
G1 X106.454 Y104.955 E3.34761
G1 X100.321 Y98.823 E3.60384
G1 X100.921 Y98.823 E3.62155
G1 X106.454 Y104.356 E3.85274
G1 X106.454 Y103.757 E3.87044
G1 X101.520 Y98.823 E4.07660
G1 X102.119 Y98.823 E4.09430
G1 X106.454 Y103.158 E4.27541
G1 X106.454 Y102.559 E4.29312
G1 X102.718 Y98.823 E4.44919
G1 X102.801 Y98.823 E4.45165
G1 X102.801 Y98.307 E4.46690
G1 X106.454 Y101.959 E4.61951
G1 X106.454 Y101.360 E4.63721
G1 X102.801 Y97.708 E4.78982
G1 X102.801 Y97.109 E4.80752
G1 X106.454 Y100.761 E4.96013
G1 X106.454 Y100.162 E4.97783
G1 X102.801 Y96.509 E5.13044
G1 X102.801 Y95.910 E5.14814
G1 X106.454 Y99.562 E5.30075
G1 X106.454 Y98.963 E5.31846
G1 X102.801 Y95.311 E5.47106
G1 X102.801 Y94.712 E5.48877
G1 X106.454 Y98.364 E5.64137
G1 X106.454 Y97.765 E5.65908
G1 X102.801 Y94.112 E5.81168
G1 X102.801 Y93.513 E5.82939
G1 X106.454 Y97.165 E5.98200
G1 X106.454 Y96.566 E5.99970
G1 X102.801 Y92.914 E6.15231
G1 X102.801 Y92.315 E6.17001
G1 X106.454 Y95.967 E6.32262
G1 X106.454 Y95.368 E6.34032
G1 X103.132 Y92.046 E6.47910
G1 X103.732 Y92.046 E6.49681
G1 X106.454 Y94.768 E6.61054
G1 X106.454 Y94.169 E6.62825
G1 X104.331 Y92.046 E6.71695
G1 X104.930 Y92.046 E6.73465
G1 X106.454 Y93.570 E6.79831
G1 X106.454 Y92.971 E6.81602
G1 X105.529 Y92.046 E6.85464
G1 X106.129 Y92.046 E6.87234
G1 X106.454 Y92.371 E6.88592
G1 E4.88592 F2400.00000
G92 E0
G1 X102.750 Y101.851 F7800.000
G1 E2.00000 F2400.00000
G1 F4252.76
G1 X99.722 Y98.823 E2.12650
G1 X99.123 Y98.823 E2.14420
G1 X102.150 Y101.851 E2.27070
G1 X101.551 Y101.851 E2.28840
G1 X98.524 Y98.823 E2.41490
G1 X97.924 Y98.823 E2.43260
G1 X100.952 Y101.851 E2.55910
G1 X100.353 Y101.851 E2.57681
G1 X97.325 Y98.823 E2.70330
G1 E0.70330 F2400.00000
G92 E0
M107
; Filament-specific end gcode 
;END gcode for filament

M104 S0 ; turn off temperature
G28 X0  ; home X axis
M84     ; disable motors

M140 S0 ; set bed temperature
; filament used = 55.0mm (0.4cm3)
; total filament cost = 0.0

; avoid_crossing_perimeters = 0
; bed_shape = 0x0,200x0,200x200,0x200
; bed_temperature = 0
; before_layer_gcode = 
; between_objects_gcode = 
; bridge_acceleration = 0
; bridge_fan_speed = 100
; brim_connections_width = 0
; brim_width = 0
; complete_objects = 0
; cooling = 1
; default_acceleration = 0
; disable_fan_first_layers = 3
; duplicate_distance = 6
; end_filament_gcode = "; Filament-specific end gcode \n;END gcode for filament\n"
; end_gcode = M104 S0 ; turn off temperature\nG28 X0  ; home X axis\nM84     ; disable motors\n
; extruder_clearance_height = 20
; extruder_clearance_radius = 20
; extruder_offset = 0x0
; extrusion_axis = E
; extrusion_multiplier = 1
; fan_always_on = 0
; fan_below_layer_time = 60
; filament_colour = #FFFFFF
; filament_cost = 0
; filament_density = 0
; filament_diameter = 3
; filament_max_volumetric_speed = 0
; filament_notes = ""
; first_layer_acceleration = 0
; first_layer_bed_temperature = 0
; first_layer_extrusion_width = 200%
; first_layer_speed = 30
; first_layer_temperature = 205
; gcode_arcs = 0
; gcode_comments = 0
; gcode_flavor = reprap
; has_heatbed = 1
; infill_acceleration = 0
; infill_first = 0
; interior_brim_width = 0
; layer_gcode = 
; max_fan_speed = 100
; max_layer_height = 0.3
; max_print_speed = 80
; max_volumetric_speed = 0
; min_fan_speed = 35
; min_layer_height = 0.15
; min_print_speed = 10
; min_skirt_length = 0
; notes = 
; nozzle_diameter = 0.5
; only_retract_when_crossing_perimeters = 1
; ooze_prevention = 0
; output_filename_format = [input_filename_base].gcode
; perimeter_acceleration = 0
; post_process = 
; pressure_advance = 0
; printer_notes = 
; resolution = 0
; retract_before_travel = 2
; retract_layer_change = 0
; retract_length = 2
; retract_length_toolchange = 10
; retract_lift = 0
; retract_lift_above = 0
; retract_lift_below = 0
; retract_restart_extra = 0
; retract_restart_extra_toolchange = 0
; retract_speed = 40
; skirt_distance = 6
; skirt_height = 1
; skirts = 0
; slowdown_below_layer_time = 5
; spiral_vase = 0
; standby_temperature_delta = -5
; start_filament_gcode = "; Filament gcode\n"
; start_gcode = G28 ; home all axes\nG1 Z5 F5000 ; lift nozzle\n
; temperature = 200
; threads = 8
; toolchange_gcode = 
; travel_speed = 130
; use_firmware_retraction = 0
; use_relative_e_distances = 0
; use_set_and_wait_bed = 0
; use_set_and_wait_extruder = 0
; use_volumetric_e = 0
; vibration_limit = 0
; wipe = 0
; z_offset = 0
; z_steps_per_mm = 0
; adaptive_slicing = 0
; adaptive_slicing_quality = 75%
; dont_support_bridges = 1
; extrusion_width = 0
; first_layer_height = 0.5
; infill_only_where_needed = 0
; interface_shells = 0
; layer_height = 0.5
; match_horizontal_surfaces = 0
; raft_layers = 0
; regions_overlap = 0
; seam_position = aligned
; sequential_print_priority = 0
; support_material = 0
; support_material_angle = 0
; support_material_buildplate_only = 0
; support_material_contact_distance = 0.2
; support_material_enforce_layers = 0
; support_material_extruder = 1
; support_material_extrusion_width = 0
; support_material_interface_extruder = 1
; support_material_interface_extrusion_width = 0
; support_material_interface_layers = 3
; support_material_interface_spacing = 0
; support_material_interface_speed = 100%
; support_material_max_layers = 0
; support_material_pattern = pillars
; support_material_spacing = 2.5
; support_material_speed = 60
; support_material_threshold = 60%
; xy_size_compensation = 0
; bottom_infill_pattern = rectilinear
; bottom_solid_layers = 0
; bridge_flow_ratio = 1
; bridge_speed = 60
; external_perimeter_extrusion_width = 0
; external_perimeter_speed = 50%
; external_perimeters_first = 0
; extra_perimeters = 1
; fill_angle = 45
; fill_density = 100%
; fill_gaps = 1
; fill_pattern = rectilinear
; gap_fill_speed = 20
; infill_every_layers = 1
; infill_extruder = 1
; infill_extrusion_width = 0
; infill_overlap = 55%
; infill_speed = 80
; overhangs = 1
; perimeter_extruder = 1
; perimeter_extrusion_width = 0
; perimeter_speed = 60
; perimeters = 0
; small_perimeter_speed = 15
; solid_infill_below_area = 70
; solid_infill_every_layers = 0
; solid_infill_extruder = 1
; solid_infill_extrusion_width = 0
; solid_infill_speed = 20
; thin_walls = 1
; top_infill_extrusion_width = 0
; top_infill_pattern = rectilinear
; top_solid_infill_speed = 15
; top_solid_layers = 0
