; generated by Slic3r 1.3.0 on 2020-10-09 at 12:48:51

; external perimeters extrusion width = 0.55mm (5.57mm^3/s)
; perimeters extrusion width = 0.58mm (11.78mm^3/s)
; infill extrusion width = 0.58mm (15.71mm^3/s)
; solid infill extrusion width = 0.58mm (3.93mm^3/s)
; top infill extrusion width = 0.58mm (2.95mm^3/s)

M107
M104 S205 ; set temperature
G28 ; home all axes
G1 Z5 F5000 ; lift nozzle

; Filament gcode

M109 S205 ; set temperature and wait for it to be reached
G21 ; set units to millimeters
G90 ; use absolute coordinates
M82 ; use absolute distances for extrusion
G92 E0
G1 Z0.400 F7800.000
G1 E-2.00000 F2400.00000
G92 E0
G1 X96.374 Y94.081 F7800.000
G1 E2.00000 F2400.00000
G1 F1800
G1 X96.003 Y94.365 E2.01888
G1 X95.470 Y94.866 E2.04845
G1 X95.157 Y95.217 E2.06747
G1 X94.919 Y95.536 E2.08352
G1 X96.842 Y93.612 E2.19345
G1 X97.011 Y93.483 E2.20204
G1 X97.634 Y93.103 E2.23152
G1 X98.348 Y92.766 E2.26344
G1 X98.669 Y92.654 E2.27715
G1 X93.995 Y97.327 E2.54424
G1 X93.848 Y97.775 E2.56329
G1 X93.690 Y98.501 E2.59330
G1 X99.873 Y92.318 E2.94666
G1 X100.657 Y92.195 E2.97876
G1 X100.880 Y92.178 E2.98778
G1 X93.574 Y99.484 E3.40534
G1 X93.549 Y100.376 E3.44141
G1 X101.798 Y92.128 E3.91283
G1 X102.283 Y92.125 E3.93245
G1 X102.643 Y92.150 E3.94704
G1 X98.973 Y95.820 E4.15679
G1 X99.258 Y95.622 E4.17082
G1 X99.675 Y95.392 E4.19007
G1 X100.127 Y95.210 E4.20975
G1 X100.580 Y95.082 E4.22877
G1 X103.440 Y92.222 E4.39223
G1 X104.175 Y92.354 E4.42244
G1 X101.579 Y94.950 E4.57083
G1 X102.432 Y94.965 E4.60529
G1 X104.868 Y92.529 E4.74455
G1 X105.520 Y92.745 E4.77229
G1 X103.202 Y95.062 E4.90474
G1 X103.908 Y95.224 E4.93401
G1 X106.131 Y93.001 E5.06107
G1 X106.457 Y93.156 E5.07564
G1 X106.457 Y93.543 E5.09128
G1 X104.556 Y95.444 E5.19990
G1 X105.159 Y95.709 E5.22651
G1 X106.457 Y94.411 E5.30069
G1 X106.457 Y95.279 E5.33575
G1 X105.724 Y96.012 E5.37765
G1 E3.37765 F2400.00000
G92 E0
G1 X98.623 Y96.171 F7800.000
G1 E2.00000 F2400.00000
G1 F1800
G1 X93.591 Y101.203 E2.28758
G1 X93.692 Y101.969 E2.31884
G1 X97.811 Y97.851 E2.55425
G1 X97.698 Y98.345 E2.57476
G1 X97.618 Y98.911 E2.59786
G1 X93.847 Y102.682 E2.81336
G1 X94.060 Y103.337 E2.84120
G1 X97.577 Y99.820 E3.04222
G1 X97.621 Y100.644 E3.07557
G1 X94.322 Y103.943 E3.26412
G1 X94.381 Y104.076 E3.26999
G1 X94.630 Y104.502 E3.28996
G1 X97.741 Y101.391 E3.46773
G1 X97.933 Y102.067 E3.49612
G1 X94.983 Y105.017 E3.66470
G1 X95.169 Y105.267 E3.67728
G1 X95.378 Y105.490 E3.68963
G1 X98.192 Y102.676 E3.85048
G1 X98.518 Y103.218 E3.87604
G1 X95.809 Y105.926 E4.03084
G1 X96.279 Y106.324 E4.05572
G1 X98.906 Y103.697 E4.20586
G1 X99.356 Y104.115 E4.23068
G1 X96.794 Y106.677 E4.37714
G1 X97.353 Y106.986 E4.40295
G1 X99.874 Y104.465 E4.54707
G1 X100.165 Y104.616 E4.56030
G1 X100.465 Y104.741 E4.57346
G1 X97.954 Y107.253 E4.71699
G1 X98.245 Y107.372 E4.72972
G1 X98.598 Y107.477 E4.74457
G1 X101.137 Y104.937 E4.88972
G1 X101.505 Y105.002 E4.90481
G1 X101.901 Y105.041 E4.92089
G1 X99.291 Y107.651 E5.07008
G1 X99.793 Y107.752 E5.09076
G1 X100.031 Y107.779 E5.10045
G1 X102.767 Y105.043 E5.25683
G1 X103.208 Y105.007 E5.27469
G1 X103.754 Y104.923 E5.29705
G1 X100.825 Y107.853 E5.46448
G1 X101.539 Y107.879 E5.49339
G1 X101.669 Y107.876 E5.49864
G1 X104.966 Y104.580 E5.68703
G1 X105.740 Y104.236 E5.72126
G1 X106.457 Y103.829 E5.75458
G1 X106.457 Y103.956 E5.75974
G1 X102.589 Y107.824 E5.98078
G1 X103.366 Y107.719 E6.01245
G1 X103.619 Y107.662 E6.02295
G1 X106.457 Y104.824 E6.18512
G1 X106.457 Y105.692 E6.22019
G1 X104.806 Y107.343 E6.31455
M104 S200 ; set temperature
G1 Z0.800 F7800.000
G1 X106.413 Y104.678 F7800.000
G1 F2227.24
G1 X105.767 Y104.032 E6.33992
G1 X105.202 Y104.334 E6.35773
G1 X106.413 Y105.545 E6.40533
G1 X106.413 Y106.413 E6.42943
G1 X104.600 Y104.600 E6.50066
G1 X103.951 Y104.819 E6.51968
G1 X106.085 Y106.953 E6.60349
G1 X105.473 Y107.208 E6.62192
G1 X103.246 Y104.982 E6.70938
G1 X102.474 Y105.077 E6.73099
G1 X104.822 Y107.425 E6.82322
G1 X104.129 Y107.600 E6.84306
G1 X101.622 Y105.093 E6.94156
G1 X101.199 Y105.060 E6.95335
G1 X100.623 Y104.961 E6.96958
G1 X103.394 Y107.733 E7.07847
G1 X102.606 Y107.812 E7.10049
G1 X99.020 Y104.226 E7.24135
G1 X95.350 Y104.895 F7800.000
G1 F2227.24
G1 X95.559 Y105.180 E7.25117
G1 X95.830 Y105.492 E7.26267
G1 X96.124 Y105.790 E7.27429
G1 X96.662 Y106.250 E7.29395
G1 X96.803 Y106.348 E7.29871
G1 X94.968 Y104.513 E7.37080
G1 X94.765 Y104.237 E7.38031
G1 X94.417 Y103.635 E7.39962
G1 X94.128 Y102.989 E7.41929
G1 X94.029 Y102.706 E7.42761
G1 X98.632 Y107.310 E7.60845
G1 X99.370 Y107.538 E7.62991
G1 X99.817 Y107.627 E7.64257
G1 X93.737 Y101.547 E7.88142
G1 X93.615 Y100.557 E7.90911
G1 X100.839 Y107.781 E8.19289
G1 X101.754 Y107.829 E8.21835
G1 X93.593 Y99.667 E8.53897
G1 X93.631 Y98.837 E8.56204
G1 X98.578 Y103.785 E8.75639
G1 X98.326 Y103.418 E8.76874
G1 X98.121 Y103.048 E8.78050
G1 X97.907 Y102.545 E8.79567
G1 X97.768 Y102.107 E8.80844
G1 X93.735 Y98.074 E8.96687
G1 X93.889 Y97.360 E8.98715
G1 X97.575 Y101.046 E9.13194
G1 X97.533 Y100.137 E9.15724
G1 X94.105 Y96.708 E9.29194
G1 X94.363 Y96.098 E9.31032
G1 X97.578 Y99.313 E9.43661
G1 X97.697 Y98.565 E9.45766
G1 X94.675 Y95.543 E9.57639
G1 X94.802 Y95.325 E9.58339
G1 X95.026 Y95.026 E9.59377
G1 X97.888 Y97.888 E9.70621
G1 X98.148 Y97.280 E9.72458
G1 X95.420 Y94.552 E9.83174
G1 X95.700 Y94.251 E9.84317
G1 X95.852 Y94.116 E9.84881
G1 X98.474 Y96.738 E9.95180
G1 X98.862 Y96.259 E9.96894
G1 X96.328 Y93.725 E10.06850
G1 X96.689 Y93.458 E10.08097
G1 X96.840 Y93.369 E10.08584
G1 X99.313 Y95.842 E10.18299
G1 X99.645 Y95.601 E10.19439
G1 X99.830 Y95.491 E10.20036
G1 X97.394 Y93.055 E10.29607
G1 X97.991 Y92.784 E10.31428
G1 X100.421 Y95.215 E10.40975
G1 X100.770 Y95.098 E10.41996
G1 X101.093 Y95.019 E10.42922
G1 X98.635 Y92.561 E10.52578
G1 X98.665 Y92.551 E10.52664
G1 X99.329 Y92.387 E10.54565
G1 X101.857 Y94.915 E10.64495
G1 X102.284 Y94.901 E10.65682
G1 X102.723 Y94.913 E10.66902
G1 X100.072 Y92.263 E10.77315
G1 X100.867 Y92.190 E10.79532
G1 X103.711 Y95.034 E10.90705
G1 X104.388 Y95.197 E10.92640
G1 X104.924 Y95.378 E10.94209
G1 X101.713 Y92.168 E11.06821
G1 X102.632 Y92.219 E11.09377
G1 X106.413 Y96.000 E11.24230
G1 X106.413 Y95.132 E11.26640
G1 X103.660 Y92.379 E11.37456
G1 X104.469 Y92.578 E11.39771
G1 X104.858 Y92.709 E11.40910
G1 X106.413 Y94.265 E11.47020
G1 Z1.200 F7800.000
G1 X105.768 Y95.968 F7800.000
G1 F2233.19
G1 X106.413 Y95.322 E11.49557
G1 X106.413 Y94.455 E11.51967
G1 X105.203 Y95.665 E11.56723
G1 X104.599 Y95.401 E11.58553
G1 X106.413 Y93.587 E11.65680
G1 X106.413 Y93.201 E11.66753
G1 X106.085 Y93.047 E11.67759
G1 X103.950 Y95.182 E11.76147
G1 X103.245 Y95.019 E11.78157
G1 X105.476 Y92.789 E11.86920
G1 X104.820 Y92.576 E11.88833
G1 X102.473 Y94.923 E11.98053
G1 X101.622 Y94.907 E12.00419
G1 X104.130 Y92.399 E12.10272
G1 X103.714 Y92.311 E12.11453
G1 X103.392 Y92.270 E12.12356
G1 X100.622 Y95.039 E12.23235
G1 X100.216 Y95.151 E12.24405
G1 X99.722 Y95.348 E12.25882
G1 X99.413 Y95.511 E12.26854
G1 X99.012 Y95.781 E12.28196
G1 X102.604 Y92.189 E12.42307
G1 X102.119 Y92.166 E12.43657
G1 X101.750 Y92.176 E12.44683
G1 X93.592 Y100.333 E12.76727
G1 X93.614 Y99.444 E12.79198
G1 X100.836 Y92.222 E13.07569
G1 X100.310 Y92.278 E13.09038
G1 X99.822 Y92.369 E13.10418
G1 X93.744 Y98.446 E13.34292
G1 X93.822 Y98.006 E13.35532
G1 X93.973 Y97.451 E13.37131
G1 X94.036 Y97.287 E13.37620
G1 X98.629 Y92.694 E13.55662
G1 X98.161 Y92.870 E13.57050
G1 X97.532 Y93.178 E13.58998
G1 X96.944 Y93.543 E13.60917
G1 X96.803 Y93.652 E13.61413
G1 X94.959 Y95.496 E13.68657
G1 X95.069 Y95.336 E13.69196
G1 X95.515 Y94.820 E13.71090
G1 X96.017 Y94.345 E13.73010
G1 X96.421 Y94.034 E13.74427
G1 X98.583 Y96.211 F7800.000
G1 F2233.19
G1 X93.633 Y101.160 E13.93871
G1 X93.735 Y101.927 E13.96018
G1 X97.770 Y97.892 E14.11870
G1 X97.655 Y98.388 E14.13284
G1 X97.576 Y98.953 E14.14870
G1 X93.892 Y102.637 E14.29341
G1 X94.103 Y103.294 E14.31258
G1 X97.533 Y99.863 E14.44733
G1 X97.578 Y100.687 E14.47025
G1 X94.362 Y103.902 E14.59655
G1 X94.513 Y104.200 E14.60583
G1 X94.674 Y104.458 E14.61428
G1 X97.698 Y101.435 E14.73306
G1 X97.889 Y102.111 E14.75260
G1 X95.025 Y104.975 E14.86507
G1 X95.281 Y105.305 E14.87668
G1 X95.419 Y105.449 E14.88221
G1 X98.149 Y102.719 E14.98946
G1 X98.474 Y103.261 E15.00703
G1 X95.852 Y105.884 E15.11005
G1 X96.323 Y106.280 E15.12716
G1 X98.863 Y103.740 E15.22693
G1 X99.314 Y104.157 E15.24399
G1 X96.835 Y106.636 E15.34137
G1 X97.397 Y106.941 E15.35914
G1 X99.832 Y104.507 E15.45477
G1 X100.198 Y104.695 E15.46621
G1 X100.422 Y104.785 E15.47290
G1 X97.999 Y107.207 E15.56806
G1 X98.393 Y107.364 E15.57983
G1 X98.642 Y107.432 E15.58701
G1 X101.094 Y104.980 E15.68332
G1 X101.328 Y105.026 E15.68994
G1 X101.858 Y105.084 E15.70476
G1 X99.329 Y107.613 E15.80412
G1 X100.074 Y107.736 E15.82509
G1 X102.722 Y105.087 E15.92915
G1 X103.145 Y105.052 E15.94092
G1 X103.714 Y104.964 E15.95692
G1 X100.863 Y107.815 E16.06893
G1 X101.581 Y107.836 E16.08889
G1 X101.714 Y107.831 E16.09260
G1 X104.924 Y104.621 E16.21871
G1 X105.387 Y104.429 E16.23261
G1 X105.738 Y104.258 E16.24347
G1 X106.413 Y103.873 E16.26506
G1 X106.413 Y104.000 E16.26860
G1 X102.630 Y107.783 E16.41722
G1 X103.658 Y107.622 E16.44613
G1 X106.413 Y104.868 E16.55435
G1 X106.413 Y105.735 E16.57846
G1 X104.856 Y107.292 E16.63962
M106 S255
G1 Z1.600 F7800.000
G1 X106.413 Y104.678 F7800.000
G1 F2227.05
G1 X105.767 Y104.032 E16.66498
G1 X105.202 Y104.334 E16.68280
G1 X106.413 Y105.545 E16.73040
G1 X106.413 Y106.413 E16.75450
G1 X104.600 Y104.600 E16.82572
G1 X103.951 Y104.819 E16.84474
G1 X106.089 Y106.957 E16.92873
G1 X105.474 Y107.210 E16.94720
G1 X103.246 Y104.982 E17.03473
G1 X102.474 Y105.077 E17.05634
G1 X104.822 Y107.426 E17.14859
G1 X104.134 Y107.605 E17.16834
G1 X101.622 Y105.093 E17.26703
G1 X101.199 Y105.060 E17.27883
G1 X100.623 Y104.961 E17.29506
G1 X103.397 Y107.736 E17.40404
G1 X102.608 Y107.814 E17.42608
G1 X99.020 Y104.226 E17.56702
G1 X95.327 Y104.873 F7800.000
G1 F2227.05
G1 X95.832 Y105.494 E17.58925
G1 X96.126 Y105.791 E17.60087
G1 X96.439 Y106.071 E17.61252
G1 X96.794 Y106.339 E17.62489
G1 X94.946 Y104.491 E17.69750
G1 X94.617 Y104.000 E17.71391
G1 X94.292 Y103.378 E17.73338
G1 X94.029 Y102.706 E17.75344
G1 X98.622 Y107.299 E17.93387
G1 X99.044 Y107.448 E17.94631
G1 X99.824 Y107.634 E17.96860
G1 X93.741 Y101.551 E18.20758
G1 X93.666 Y101.110 E18.21999
G1 X93.620 Y100.562 E18.23528
G1 X100.835 Y107.777 E18.51873
G1 X101.756 Y107.830 E18.54434
G1 X93.595 Y99.669 E18.86493
G1 X93.593 Y99.429 E18.87159
G1 X93.638 Y98.845 E18.88786
G1 X98.578 Y103.785 E19.08190
G1 X98.326 Y103.418 E19.09426
G1 X98.121 Y103.048 E19.10601
G1 X97.907 Y102.545 E19.12119
G1 X97.768 Y102.107 E19.13395
G1 X93.741 Y98.079 E19.29218
G1 X93.813 Y97.666 E19.30382
G1 X93.895 Y97.366 E19.31248
G1 X97.575 Y101.046 E19.45708
G1 X97.533 Y100.137 E19.48237
G1 X94.108 Y96.711 E19.61693
G1 X94.272 Y96.282 E19.62971
G1 X94.365 Y96.100 E19.63537
G1 X97.578 Y99.313 E19.76158
G1 X97.697 Y98.565 E19.78263
G1 X94.674 Y95.542 E19.90139
G1 X95.023 Y95.023 E19.91876
G1 X97.888 Y97.888 E20.03133
G1 X98.148 Y97.280 E20.04970
G1 X95.414 Y94.547 E20.15708
G1 X95.851 Y94.116 E20.17413
G1 X98.474 Y96.738 E20.27715
G1 X98.862 Y96.259 E20.29429
G1 X96.327 Y93.724 E20.39389
G1 X96.463 Y93.615 E20.39872
G1 X96.842 Y93.371 E20.41125
G1 X99.313 Y95.842 E20.50833
G1 X99.645 Y95.601 E20.51973
G1 X99.830 Y95.491 E20.52570
G1 X97.398 Y93.059 E20.62125
G1 X97.691 Y92.910 E20.63039
G1 X97.997 Y92.790 E20.63951
G1 X100.421 Y95.215 E20.73475
G1 X100.770 Y95.098 E20.74496
G1 X101.093 Y95.019 E20.75421
G1 X98.641 Y92.567 E20.85054
G1 X99.107 Y92.434 E20.86402
G1 X99.332 Y92.390 E20.87038
G1 X101.857 Y94.915 E20.96956
G1 X102.284 Y94.901 E20.98142
G1 X102.723 Y94.913 E20.99363
G1 X100.073 Y92.264 E21.09772
G1 X100.867 Y92.190 E21.11986
G1 X103.711 Y95.034 E21.23159
G1 X104.388 Y95.197 E21.25094
G1 X104.924 Y95.378 E21.26663
G1 X101.712 Y92.167 E21.39279
G1 X102.632 Y92.219 E21.41838
G1 X106.413 Y96.000 E21.56691
G1 X106.413 Y95.132 E21.59102
G1 X103.660 Y92.379 E21.69918
G1 X104.469 Y92.578 E21.72232
G1 X104.858 Y92.709 E21.73371
G1 X106.413 Y94.265 E21.79482
G1 Z2.000 F7800.000
G1 X105.767 Y95.968 F7800.000
G1 F2233.1
G1 X106.413 Y95.322 E21.82020
G1 X106.413 Y94.455 E21.84431
G1 X105.202 Y95.666 E21.89188
G1 X104.600 Y95.400 E21.91017
G1 X106.413 Y93.587 E21.98142
G1 X106.413 Y93.200 E21.99217
G1 X106.088 Y93.044 E22.00218
G1 X103.951 Y95.181 E22.08611
G1 X103.246 Y95.019 E22.10622
G1 X105.476 Y92.788 E22.19385
G1 X104.825 Y92.572 E22.21292
G1 X102.475 Y94.922 E22.30523
G1 X101.622 Y94.907 E22.32891
G1 X104.132 Y92.397 E22.42750
G1 X103.396 Y92.265 E22.44826
G1 X100.623 Y95.038 E22.55720
G1 X100.170 Y95.167 E22.57027
G1 X99.720 Y95.350 E22.58378
G1 X99.301 Y95.579 E22.59703
G1 X99.017 Y95.777 E22.60667
G1 X102.608 Y92.185 E22.74776
G1 X101.753 Y92.173 E22.77152
G1 X93.593 Y100.333 E23.09208
G1 X93.617 Y99.441 E23.11687
G1 X100.836 Y92.222 E23.40046
G1 X100.224 Y92.291 E23.41755
G1 X99.818 Y92.372 E23.42907
G1 X93.733 Y98.457 E23.66810
G1 X93.892 Y97.732 E23.68873
G1 X94.039 Y97.284 E23.70182
G1 X98.640 Y92.682 E23.88258
G1 X97.941 Y92.969 E23.90357
G1 X97.293 Y93.317 E23.92398
G1 X96.806 Y93.649 E23.94037
G1 X94.966 Y95.489 E24.01266
G1 X95.227 Y95.140 E24.02477
G1 X95.722 Y94.612 E24.04488
G1 X96.311 Y94.108 E24.06641
G1 X96.424 Y94.031 E24.07021
G1 E22.07021 F2400.00000
G92 E0
G1 X98.579 Y96.214 F7800.000
G1 E2.00000 F2400.00000
G1 F2233.1
G1 X93.634 Y101.159 E2.19426
G1 X93.735 Y101.926 E2.21574
G1 X97.767 Y97.894 E2.37414
G1 X97.654 Y98.389 E2.38824
G1 X97.574 Y98.955 E2.40412
G1 X93.891 Y102.638 E2.54882
G1 X94.103 Y103.294 E2.56796
G1 X97.533 Y99.863 E2.70272
G1 X97.577 Y100.687 E2.72564
G1 X94.365 Y103.899 E2.85183
G1 X94.424 Y104.032 E2.85587
G1 X94.674 Y104.458 E2.86959
G1 X97.697 Y101.435 E2.98837
G1 X97.889 Y102.111 E3.00788
G1 X95.028 Y104.972 E3.12030
G1 X95.242 Y105.258 E3.13023
G1 X95.420 Y105.448 E3.13745
G1 X98.149 Y102.719 E3.24464
G1 X98.474 Y103.261 E3.26221
G1 X95.852 Y105.883 E3.36520
G1 X96.323 Y106.281 E3.38231
G1 X98.863 Y103.740 E3.48209
G1 X99.313 Y104.158 E3.49915
G1 X96.837 Y106.634 E3.59641
G1 X97.396 Y106.943 E3.61415
G1 X99.831 Y104.508 E3.70980
G1 X100.121 Y104.659 E3.71889
G1 X100.422 Y104.785 E3.72794
G1 X97.997 Y107.209 E3.82318
G1 X98.289 Y107.328 E3.83193
G1 X98.641 Y107.433 E3.84214
G1 X101.094 Y104.980 E3.93850
G1 X101.461 Y105.045 E3.94887
G1 X101.858 Y105.084 E3.95992
G1 X99.334 Y107.608 E4.05905
G1 X99.836 Y107.708 E4.07327
G1 X100.074 Y107.736 E4.07993
G1 X102.724 Y105.086 E4.18400
G1 X103.164 Y105.050 E4.19628
G1 X103.711 Y104.967 E4.21165
G1 X100.868 Y107.809 E4.32332
G1 X101.582 Y107.836 E4.34318
G1 X101.713 Y107.832 E4.34682
G1 X104.922 Y104.623 E4.47287
G1 X105.696 Y104.279 E4.49640
G1 X106.413 Y103.872 E4.51930
G1 X106.413 Y104.000 E4.52285
G1 X102.632 Y107.781 E4.67139
G1 X103.411 Y107.675 E4.69324
G1 X103.657 Y107.624 E4.70022
G1 X106.413 Y104.868 E4.80849
G1 X106.413 Y105.735 E4.83260
G1 X104.854 Y107.294 E4.89383
G1 E2.89383 F2400.00000
G92 E0
M107
; Filament-specific end gcode 
;END gcode for filament

M104 S0 ; turn off temperature
G28 X0  ; home X axis
M84     ; disable motors

M140 S0 ; set bed temperature
; filament used = 28.3mm (0.2cm3)
; total filament cost = 0.0

; avoid_crossing_perimeters = 0
; bed_shape = 0x0,200x0,200x200,0x200
; bed_temperature = 0
; before_layer_gcode = 
; between_objects_gcode = 
; bridge_acceleration = 0
; bridge_fan_speed = 100
; brim_connections_width = 0
; brim_width = 0
; complete_objects = 0
; cooling = 1
; default_acceleration = 0
; disable_fan_first_layers = 3
; duplicate_distance = 6
; end_filament_gcode = "; Filament-specific end gcode \n;END gcode for filament\n"
; end_gcode = M104 S0 ; turn off temperature\nG28 X0  ; home X axis\nM84     ; disable motors\n
; extruder_clearance_height = 20
; extruder_clearance_radius = 20
; extruder_offset = 0x0
; extrusion_axis = E
; extrusion_multiplier = 1
; fan_always_on = 0
; fan_below_layer_time = 60
; filament_colour = #FFFFFF
; filament_cost = 0
; filament_density = 0
; filament_diameter = 3
; filament_max_volumetric_speed = 0
; filament_notes = ""
; first_layer_acceleration = 0
; first_layer_bed_temperature = 0
; first_layer_extrusion_width = 200%
; first_layer_speed = 30
; first_layer_temperature = 205
; gcode_arcs = 0
; gcode_comments = 0
; gcode_flavor = reprap
; has_heatbed = 1
; infill_acceleration = 0
; infill_first = 0
; interior_brim_width = 0
; layer_gcode = 
; max_fan_speed = 100
; max_layer_height = 0.3
; max_print_speed = 80
; max_volumetric_speed = 0
; min_fan_speed = 35
; min_layer_height = 0.15
; min_print_speed = 10
; min_skirt_length = 0
; notes = 
; nozzle_diameter = 0.5
; only_retract_when_crossing_perimeters = 1
; ooze_prevention = 0
; output_filename_format = [input_filename_base].gcode
; perimeter_acceleration = 0
; post_process = 
; pressure_advance = 0
; printer_notes = 
; resolution = 0
; retract_before_travel = 2
; retract_layer_change = 0
; retract_length = 2
; retract_length_toolchange = 10
; retract_lift = 0
; retract_lift_above = 0
; retract_lift_below = 0
; retract_restart_extra = 0
; retract_restart_extra_toolchange = 0
; retract_speed = 40
; skirt_distance = 6
; skirt_height = 1
; skirts = 0
; slowdown_below_layer_time = 5
; spiral_vase = 0
; standby_temperature_delta = -5
; start_filament_gcode = "; Filament gcode\n"
; start_gcode = G28 ; home all axes\nG1 Z5 F5000 ; lift nozzle\n
; temperature = 200
; threads = 8
; toolchange_gcode = 
; travel_speed = 130
; use_firmware_retraction = 0
; use_relative_e_distances = 0
; use_set_and_wait_bed = 0
; use_set_and_wait_extruder = 0
; use_volumetric_e = 0
; vibration_limit = 0
; wipe = 0
; z_offset = 0
; z_steps_per_mm = 0
; adaptive_slicing = 0
; adaptive_slicing_quality = 75%
; dont_support_bridges = 1
; extrusion_width = 0
; first_layer_height = 0.4
; infill_only_where_needed = 0
; interface_shells = 0
; layer_height = 0.4
; match_horizontal_surfaces = 0
; raft_layers = 0
; regions_overlap = 0
; seam_position = aligned
; sequential_print_priority = 0
; support_material = 0
; support_material_angle = 0
; support_material_buildplate_only = 0
; support_material_contact_distance = 0.2
; support_material_enforce_layers = 0
; support_material_extruder = 1
; support_material_extrusion_width = 0
; support_material_interface_extruder = 1
; support_material_interface_extrusion_width = 0
; support_material_interface_layers = 3
; support_material_interface_spacing = 0
; support_material_interface_speed = 100%
; support_material_max_layers = 0
; support_material_pattern = pillars
; support_material_spacing = 2.5
; support_material_speed = 60
; support_material_threshold = 60%
; xy_size_compensation = 0
; bottom_infill_pattern = rectilinear
; bottom_solid_layers = 0
; bridge_flow_ratio = 1
; bridge_speed = 60
; external_perimeter_extrusion_width = 0
; external_perimeter_speed = 50%
; external_perimeters_first = 0
; extra_perimeters = 1
; fill_angle = 45
; fill_density = 80%
; fill_gaps = 1
; fill_pattern = rectilinear
; gap_fill_speed = 20
; infill_every_layers = 1
; infill_extruder = 1
; infill_extrusion_width = 0
; infill_overlap = 55%
; infill_speed = 80
; overhangs = 1
; perimeter_extruder = 1
; perimeter_extrusion_width = 0
; perimeter_speed = 60
; perimeters = 0
; small_perimeter_speed = 15
; solid_infill_below_area = 70
; solid_infill_every_layers = 0
; solid_infill_extruder = 1
; solid_infill_extrusion_width = 0
; solid_infill_speed = 20
; thin_walls = 1
; top_infill_extrusion_width = 0
; top_infill_pattern = rectilinear
; top_solid_infill_speed = 15
; top_solid_layers = 0
