; generated by Slic3r 1.3.0 on 2020-10-05 at 16:28:51

; external perimeters extrusion width = 0.55mm (4.37mm^3/s)
; perimeters extrusion width = 0.70mm (11.44mm^3/s)
; infill extrusion width = 0.63mm (13.45mm^3/s)
; solid infill extrusion width = 0.70mm (3.81mm^3/s)
; top infill extrusion width = 0.70mm (2.86mm^3/s)

M107
M104 S205 ; set temperature
G28 ; home all axes
G1 Z5 F5000 ; lift nozzle

; Filament gcode

M109 S205 ; set temperature and wait for it to be reached
G21 ; set units to millimeters
G90 ; use absolute coordinates
M82 ; use absolute distances for extrusion
G92 E0
G1 Z0.300 F7800.000
G1 E-2.00000 F2400.00000
G92 E0
G1 X95.564 Y94.567 F7800.000
G1 E2.00000 F2400.00000
G1 F1735.53
G1 X95.138 Y94.994 E2.01371
G1 X95.138 Y95.816 E2.03241
G1 X96.387 Y94.567 E2.07256
G1 X97.209 Y94.567 E2.09125
G1 X95.138 Y96.638 E2.15784
G1 X95.138 Y97.461 E2.17653
G1 X97.844 Y94.755 E2.26352
G1 X97.844 Y95.577 E2.28222
G1 X95.138 Y98.283 E2.36921
G1 X95.138 Y99.106 E2.38790
G1 X97.844 Y96.400 E2.47489
G1 X97.844 Y97.222 E2.49358
G1 X95.138 Y99.928 E2.58057
G1 X95.138 Y100.750 E2.59927
G1 X97.844 Y98.045 E2.68625
G1 X97.844 Y98.867 E2.70495
G1 X95.138 Y101.573 E2.79194
G1 X95.138 Y102.395 E2.81063
G1 X98.307 Y99.226 E2.91251
G1 X99.129 Y99.226 E2.93120
G1 X95.138 Y103.218 E3.05951
G1 X95.138 Y104.040 E3.07821
G1 X97.417 Y101.760 E3.15149
G1 X97.417 Y101.237 E3.16339
G1 X97.941 Y101.237 E3.17528
G1 X99.951 Y99.226 E3.23993
G1 X100.774 Y99.226 E3.25862
G1 X98.763 Y101.237 E3.32327
G1 X99.585 Y101.237 E3.34196
G1 X101.596 Y99.226 E3.40661
G1 X102.419 Y99.226 E3.42530
G1 X100.408 Y101.237 E3.48995
G1 X101.230 Y101.237 E3.50864
G1 X104.862 Y97.605 E3.62541
G1 X104.862 Y98.427 E3.64411
G1 X102.052 Y101.237 E3.73444
G1 X102.156 Y101.237 E3.73680
G1 X102.156 Y101.956 E3.75313
G1 X104.862 Y99.250 E3.84012
G1 X104.862 Y100.072 E3.85882
G1 X102.156 Y102.778 E3.94580
G1 X102.156 Y103.600 E3.96450
G1 X104.862 Y100.894 E4.05149
G1 X104.862 Y101.717 E4.07018
G1 X102.156 Y104.423 E4.15717
G1 X102.156 Y105.245 E4.17587
G1 X104.862 Y102.539 E4.26285
G1 X104.862 Y103.362 E4.28155
G1 X102.791 Y105.433 E4.34814
G1 X103.613 Y105.433 E4.36683
G1 X104.862 Y104.184 E4.40698
G1 X104.862 Y105.006 E4.42567
G1 X104.436 Y105.433 E4.43939
G1 E2.43939 F2400.00000
G92 E0
G1 X102.156 Y99.488 F7800.000
G1 E2.00000 F2400.00000
G1 F1735.53
G1 X104.862 Y96.783 E2.08699
G1 X104.862 Y95.960 E2.10568
G1 X102.156 Y98.666 E2.19267
G1 X102.156 Y97.844 E2.21137
G1 X104.862 Y95.138 E2.29835
G1 X104.862 Y94.567 E2.31133
G1 X104.610 Y94.567 E2.31705
G1 X102.156 Y97.021 E2.39594
G1 X102.156 Y96.199 E2.41464
G1 X103.788 Y94.567 E2.46709
G1 X102.966 Y94.567 E2.48579
G1 X102.156 Y95.376 E2.51181
G1 X102.156 Y94.993 E2.52051
G1 X102.539 Y94.993 E2.52922
G1 E0.52922 F2400.00000
G92 E0
G1 X95.138 Y104.040 F7800.000
G1 E2.00000 F2400.00000
G1 F1735.53
G1 X95.138 Y104.862 E2.01869
G1 X97.844 Y102.156 E2.10568
G1 X97.844 Y102.979 E2.12438
G1 X95.390 Y105.433 E2.20327
G1 X96.212 Y105.433 E2.22197
G1 X97.844 Y103.801 E2.27442
G1 X97.844 Y104.624 E2.29312
G1 X97.034 Y105.433 E2.31913
M104 S200 ; set temperature
G1 Z0.600 F7800.000
G1 X95.584 Y105.452 F7800.000
G1 F1738.85
G1 X95.118 Y104.987 E2.33479
G1 X95.118 Y104.165 E2.35435
G1 X96.406 Y105.452 E2.39769
G1 X97.228 Y105.452 E2.41725
G1 X95.118 Y103.342 E2.48826
G1 X95.118 Y102.520 E2.50783
G1 X97.863 Y105.264 E2.60018
G1 X97.863 Y104.442 E2.61975
G1 X95.118 Y101.697 E2.71211
G1 X95.118 Y100.875 E2.73167
G1 X97.863 Y103.620 E2.82403
G1 X97.863 Y102.797 E2.84360
G1 X95.118 Y100.053 E2.93596
G1 X95.118 Y99.230 E2.95552
G1 X97.863 Y101.975 E3.04788
G1 X97.863 Y101.257 E3.06497
G1 X97.967 Y101.257 E3.06745
G1 X95.118 Y98.408 E3.16330
G1 X95.118 Y97.585 E3.18287
G1 X98.789 Y101.257 E3.30640
G1 X98.027 Y99.672 F7800.000
G1 F1738.85
G1 X97.863 Y99.672 E3.31031
G1 X97.863 Y99.508 E3.31422
G1 X95.118 Y96.763 E3.40658
G1 X95.118 Y95.941 E3.42614
G1 X97.863 Y98.685 E3.51850
G1 X97.863 Y97.863 E3.53807
G1 X95.118 Y95.118 E3.63042
G1 X95.118 Y94.548 E3.64400
G1 X95.370 Y94.548 E3.64999
G1 X97.863 Y97.041 E3.73388
G1 X97.863 Y96.218 E3.75344
G1 X96.192 Y94.548 E3.80965
G1 X97.015 Y94.548 E3.82922
G1 X97.863 Y95.396 E3.85776
G1 X97.562 Y99.207 F7800.000
G1 F1738.85
G1 X99.612 Y101.257 E3.92673
G1 X100.434 Y101.257 E3.94630
G1 X98.384 Y99.207 E4.01527
G1 X99.207 Y99.207 E4.03484
G1 X101.257 Y101.257 E4.10381
G1 X102.079 Y101.257 E4.12338
G1 X100.029 Y99.207 E4.19235
G1 X100.852 Y99.207 E4.21191
G1 X104.882 Y103.237 E4.34752
G1 X104.882 Y102.415 E4.36709
G1 X101.674 Y99.207 E4.47503
G1 X102.137 Y99.207 E4.48604
G1 X102.137 Y98.847 E4.49460
G1 X104.882 Y101.592 E4.58695
G1 X104.882 Y100.770 E4.60652
G1 X102.137 Y98.025 E4.69888
G1 X102.137 Y97.203 E4.71844
G1 X104.882 Y99.947 E4.81080
G1 X104.882 Y99.125 E4.83037
G1 X102.137 Y96.380 E4.92273
G1 X102.137 Y95.558 E4.94229
G1 X104.882 Y98.303 E5.03465
G1 X104.882 Y97.480 E5.05422
G1 X102.137 Y94.735 E5.14658
G1 X102.137 Y94.548 E5.15104
G1 X102.772 Y94.548 E5.16614
G1 X104.882 Y96.658 E5.23715
G1 X104.882 Y95.835 E5.25671
G1 X103.594 Y94.548 E5.30005
G1 X104.416 Y94.548 E5.31961
G1 X104.882 Y95.013 E5.33527
G1 X104.882 Y104.059 F7800.000
G1 F1738.85
G1 X102.137 Y101.315 E5.42763
G1 X102.137 Y102.137 E5.44720
G1 X104.882 Y104.882 E5.53955
G1 X104.882 Y105.452 E5.55313
G1 X104.630 Y105.452 E5.55912
G1 X102.137 Y102.959 E5.64301
G1 X102.137 Y103.782 E5.66257
G1 X103.808 Y105.452 E5.71879
G1 X102.985 Y105.452 E5.73835
G1 X102.137 Y104.604 E5.76689
G1 Z0.900 F7800.000
G1 X104.416 Y105.452 F7800.000
G1 F1758.63
G1 X104.882 Y104.987 E5.78255
G1 X104.882 Y104.165 E5.80212
G1 X103.594 Y105.452 E5.84545
G1 X102.772 Y105.452 E5.86502
G1 X104.882 Y103.342 E5.93602
G1 X104.882 Y102.520 E5.95559
G1 X102.137 Y105.265 E6.04795
G1 X102.137 Y104.442 E6.06752
G1 X104.882 Y101.697 E6.15987
G1 X104.882 Y100.875 E6.17944
G1 X102.137 Y103.620 E6.27180
G1 X102.137 Y102.797 E6.29136
G1 X104.882 Y100.053 E6.38372
G1 X104.882 Y99.230 E6.40329
G1 X102.137 Y101.975 E6.49565
G1 X102.137 Y101.257 E6.51274
G1 X102.033 Y101.257 E6.51521
G1 X104.882 Y98.408 E6.61107
G1 X104.882 Y97.585 E6.63064
G1 X101.211 Y101.257 E6.75416
G1 X100.388 Y101.257 E6.77373
G1 X102.438 Y99.207 E6.84270
G1 X101.616 Y99.207 E6.86227
G1 X99.566 Y101.257 E6.93124
G1 X98.743 Y101.257 E6.95081
G1 X100.793 Y99.207 E7.01978
G1 X99.971 Y99.207 E7.03935
G1 X97.921 Y101.257 E7.10832
G1 X97.398 Y101.257 E7.12077
G1 X97.398 Y101.780 E7.13322
G1 X95.118 Y104.059 E7.20992
G1 X95.118 Y103.237 E7.22949
G1 X99.148 Y99.207 E7.36510
G1 X98.326 Y99.207 E7.38467
G1 X95.118 Y102.415 E7.49261
G1 X95.118 Y101.592 E7.51217
G1 X97.863 Y98.847 E7.60453
G1 X97.863 Y98.025 E7.62410
G1 X95.118 Y100.770 E7.71646
G1 X95.118 Y99.947 E7.73602
G1 X97.863 Y97.203 E7.82838
G1 X97.863 Y96.380 E7.84795
G1 X95.118 Y99.125 E7.94030
G1 X95.118 Y98.303 E7.95987
G1 X97.863 Y95.558 E8.05223
G1 X97.863 Y94.736 E8.07180
G1 X95.118 Y97.480 E8.16415
G1 X95.118 Y96.658 E8.18372
G1 X97.228 Y94.548 E8.25473
G1 X96.406 Y94.548 E8.27429
G1 X95.118 Y95.835 E8.31763
G1 X95.118 Y95.013 E8.33719
G1 X95.584 Y94.548 E8.35285
G1 E6.35285 F2400.00000
G92 E0
G1 X102.520 Y95.013 F7800.000
G1 E2.00000 F2400.00000
G1 F1758.63
G1 X102.137 Y95.013 E2.00911
G1 X102.137 Y95.396 E2.01822
G1 X102.985 Y94.548 E2.04676
G1 X103.808 Y94.548 E2.06633
G1 X102.137 Y96.218 E2.12254
G1 X102.137 Y97.041 E2.14211
G1 X104.630 Y94.548 E2.22600
G1 X104.882 Y94.548 E2.23199
G1 X104.882 Y95.118 E2.24556
G1 X102.137 Y97.863 E2.33792
G1 X102.137 Y98.685 E2.35749
G1 X104.882 Y95.941 E2.44984
G1 X104.882 Y96.763 E2.46941
G1 X102.137 Y99.508 E2.56177
G1 E0.56177 F2400.00000
G92 E0
G1 X97.015 Y105.452 F7800.000
G1 E2.00000 F2400.00000
G1 F1758.63
G1 X97.863 Y104.604 E2.02854
G1 X97.863 Y103.782 E2.04811
G1 X96.192 Y105.452 E2.10432
G1 X95.370 Y105.452 E2.12389
G1 X97.863 Y102.959 E2.20777
G1 X97.863 Y102.137 E2.22734
G1 X95.118 Y104.882 E2.31969
G1 X95.118 Y104.059 E2.33926
M106 S255
G1 Z1.200 F7800.000
G1 X95.584 Y105.452 F7800.000
G1 F1738.85
G1 X95.118 Y104.987 E2.35492
G1 X95.118 Y104.165 E2.37448
G1 X96.406 Y105.452 E2.41782
G1 X97.228 Y105.452 E2.43738
G1 X95.118 Y103.342 E2.50839
G1 X95.118 Y102.520 E2.52796
G1 X97.863 Y105.264 E2.62031
G1 X97.863 Y104.442 E2.63988
G1 X95.118 Y101.697 E2.73224
G1 X95.118 Y100.875 E2.75180
G1 X97.863 Y103.620 E2.84416
G1 X97.863 Y102.797 E2.86373
G1 X95.118 Y100.053 E2.95609
G1 X95.118 Y99.230 E2.97565
G1 X97.863 Y101.975 E3.06801
G1 X97.863 Y101.257 E3.08510
G1 X97.967 Y101.257 E3.08758
G1 X95.118 Y98.408 E3.18343
G1 X95.118 Y97.585 E3.20300
G1 X98.789 Y101.257 E3.32653
G1 X98.027 Y99.672 F7800.000
G1 F1738.85
G1 X97.863 Y99.672 E3.33044
G1 X97.863 Y99.508 E3.33435
G1 X95.118 Y96.763 E3.42671
G1 X95.118 Y95.941 E3.44627
G1 X97.863 Y98.685 E3.53863
G1 X97.863 Y97.863 E3.55820
G1 X95.118 Y95.118 E3.65055
G1 X95.118 Y94.548 E3.66413
G1 X95.370 Y94.548 E3.67012
G1 X97.863 Y97.041 E3.75401
G1 X97.863 Y96.218 E3.77357
G1 X96.192 Y94.548 E3.82978
G1 X97.015 Y94.548 E3.84935
G1 X97.863 Y95.396 E3.87789
G1 X97.562 Y99.207 F7800.000
G1 F1738.85
G1 X99.612 Y101.257 E3.94686
G1 X100.434 Y101.257 E3.96643
G1 X98.384 Y99.207 E4.03540
G1 X99.207 Y99.207 E4.05497
G1 X101.257 Y101.257 E4.12394
G1 X102.079 Y101.257 E4.14351
G1 X100.029 Y99.207 E4.21248
G1 X100.852 Y99.207 E4.23204
G1 X104.882 Y103.237 E4.36765
G1 X104.882 Y102.415 E4.38722
G1 X101.674 Y99.207 E4.49516
G1 X102.137 Y99.207 E4.50617
G1 X102.137 Y98.847 E4.51473
G1 X104.882 Y101.592 E4.60708
G1 X104.882 Y100.770 E4.62665
G1 X102.137 Y98.025 E4.71901
G1 X102.137 Y97.203 E4.73857
G1 X104.882 Y99.947 E4.83093
G1 X104.882 Y99.125 E4.85050
G1 X102.137 Y96.380 E4.94286
G1 X102.137 Y95.558 E4.96242
G1 X104.882 Y98.303 E5.05478
G1 X104.882 Y97.480 E5.07435
G1 X102.137 Y94.735 E5.16671
G1 X102.137 Y94.548 E5.17117
G1 X102.772 Y94.548 E5.18627
G1 X104.882 Y96.658 E5.25728
G1 X104.882 Y95.835 E5.27684
G1 X103.594 Y94.548 E5.32018
G1 X104.416 Y94.548 E5.33974
G1 X104.882 Y95.013 E5.35540
G1 X104.882 Y104.059 F7800.000
G1 F1738.85
G1 X102.137 Y101.315 E5.44776
G1 X102.137 Y102.137 E5.46733
G1 X104.882 Y104.882 E5.55968
G1 X104.882 Y105.452 E5.57326
G1 X104.630 Y105.452 E5.57925
G1 X102.137 Y102.959 E5.66314
G1 X102.137 Y103.782 E5.68270
G1 X103.808 Y105.452 E5.73892
G1 X102.985 Y105.452 E5.75848
G1 X102.137 Y104.604 E5.78702
G1 Z1.500 F7800.000
G1 X104.416 Y105.452 F7800.000
G1 F1758.63
G1 X104.882 Y104.987 E5.80268
G1 X104.882 Y104.165 E5.82225
G1 X103.594 Y105.452 E5.86558
G1 X102.772 Y105.452 E5.88515
G1 X104.882 Y103.342 E5.95615
G1 X104.882 Y102.520 E5.97572
G1 X102.137 Y105.265 E6.06808
G1 X102.137 Y104.442 E6.08765
G1 X104.882 Y101.697 E6.18000
G1 X104.882 Y100.875 E6.19957
G1 X102.137 Y103.620 E6.29193
G1 X102.137 Y102.797 E6.31149
G1 X104.882 Y100.053 E6.40385
G1 X104.882 Y99.230 E6.42342
G1 X102.137 Y101.975 E6.51578
G1 X102.137 Y101.257 E6.53287
G1 X102.033 Y101.257 E6.53534
G1 X104.882 Y98.408 E6.63120
G1 X104.882 Y97.585 E6.65077
G1 X101.211 Y101.257 E6.77429
G1 X100.388 Y101.257 E6.79386
G1 X102.438 Y99.207 E6.86283
G1 X101.616 Y99.207 E6.88240
G1 X99.566 Y101.257 E6.95137
G1 X98.743 Y101.257 E6.97094
G1 X100.793 Y99.207 E7.03991
G1 X99.971 Y99.207 E7.05948
G1 X97.921 Y101.257 E7.12845
G1 X97.398 Y101.257 E7.14090
G1 X97.398 Y101.780 E7.15335
G1 X95.118 Y104.059 E7.23005
G1 X95.118 Y103.237 E7.24962
G1 X99.148 Y99.207 E7.38523
G1 X98.326 Y99.207 E7.40480
G1 X95.118 Y102.415 E7.51274
G1 X95.118 Y101.592 E7.53230
G1 X97.863 Y98.847 E7.62466
G1 X97.863 Y98.025 E7.64423
G1 X95.118 Y100.770 E7.73658
G1 X95.118 Y99.947 E7.75615
G1 X97.863 Y97.203 E7.84851
G1 X97.863 Y96.380 E7.86808
G1 X95.118 Y99.125 E7.96043
G1 X95.118 Y98.303 E7.98000
G1 X97.863 Y95.558 E8.07236
G1 X97.863 Y94.736 E8.09193
G1 X95.118 Y97.480 E8.18428
G1 X95.118 Y96.658 E8.20385
G1 X97.228 Y94.548 E8.27486
G1 X96.406 Y94.548 E8.29442
G1 X95.118 Y95.835 E8.33776
G1 X95.118 Y95.013 E8.35732
G1 X95.584 Y94.548 E8.37298
G1 E6.37298 F2400.00000
G92 E0
G1 X102.520 Y95.013 F7800.000
G1 E2.00000 F2400.00000
G1 F1758.63
G1 X102.137 Y95.013 E2.00911
G1 X102.137 Y95.396 E2.01822
G1 X102.985 Y94.548 E2.04676
G1 X103.808 Y94.548 E2.06633
G1 X102.137 Y96.218 E2.12254
G1 X102.137 Y97.041 E2.14211
G1 X104.630 Y94.548 E2.22600
G1 X104.882 Y94.548 E2.23199
G1 X104.882 Y95.118 E2.24556
G1 X102.137 Y97.863 E2.33792
G1 X102.137 Y98.685 E2.35749
G1 X104.882 Y95.941 E2.44984
G1 X104.882 Y96.763 E2.46941
G1 X102.137 Y99.508 E2.56177
G1 E0.56177 F2400.00000
G92 E0
G1 X97.015 Y105.452 F7800.000
G1 E2.00000 F2400.00000
G1 F1758.63
G1 X97.863 Y104.604 E2.02854
G1 X97.863 Y103.782 E2.04811
G1 X96.192 Y105.452 E2.10432
G1 X95.370 Y105.452 E2.12389
G1 X97.863 Y102.959 E2.20777
G1 X97.863 Y102.137 E2.22734
G1 X95.118 Y104.882 E2.31969
G1 X95.118 Y104.059 E2.33926
G1 Z1.800 F7800.000
G1 X95.584 Y105.452 F7800.000
G1 F1738.85
G1 X95.118 Y104.987 E2.35492
G1 X95.118 Y104.165 E2.37448
G1 X96.406 Y105.452 E2.41782
G1 X97.228 Y105.452 E2.43738
G1 X95.118 Y103.342 E2.50839
G1 X95.118 Y102.520 E2.52796
G1 X97.863 Y105.264 E2.62031
G1 X97.863 Y104.442 E2.63988
G1 X95.118 Y101.697 E2.73224
G1 X95.118 Y100.875 E2.75180
G1 X97.863 Y103.620 E2.84416
G1 X97.863 Y102.797 E2.86373
G1 X95.118 Y100.053 E2.95609
G1 X95.118 Y99.230 E2.97565
G1 X97.863 Y101.975 E3.06801
G1 X97.863 Y101.257 E3.08510
G1 X97.967 Y101.257 E3.08758
G1 X95.118 Y98.408 E3.18343
G1 X95.118 Y97.585 E3.20300
G1 X98.789 Y101.257 E3.32653
G1 X98.027 Y99.672 F7800.000
G1 F1738.85
G1 X97.863 Y99.672 E3.33044
G1 X97.863 Y99.508 E3.33435
G1 X95.118 Y96.763 E3.42671
G1 X95.118 Y95.941 E3.44627
G1 X97.863 Y98.685 E3.53863
G1 X97.863 Y97.863 E3.55820
G1 X95.118 Y95.118 E3.65055
G1 X95.118 Y94.548 E3.66413
G1 X95.370 Y94.548 E3.67012
G1 X97.863 Y97.041 E3.75401
G1 X97.863 Y96.218 E3.77357
G1 X96.192 Y94.548 E3.82978
G1 X97.015 Y94.548 E3.84935
G1 X97.863 Y95.396 E3.87789
G1 X97.562 Y99.207 F7800.000
G1 F1738.85
G1 X99.612 Y101.257 E3.94686
G1 X100.434 Y101.257 E3.96643
G1 X98.384 Y99.207 E4.03540
G1 X99.207 Y99.207 E4.05497
G1 X101.257 Y101.257 E4.12394
G1 X102.079 Y101.257 E4.14351
G1 X100.029 Y99.207 E4.21248
G1 X100.852 Y99.207 E4.23204
G1 X104.882 Y103.237 E4.36765
G1 X104.882 Y102.415 E4.38722
G1 X101.674 Y99.207 E4.49516
G1 X102.137 Y99.207 E4.50617
G1 X102.137 Y98.847 E4.51473
G1 X104.882 Y101.592 E4.60708
G1 X104.882 Y100.770 E4.62665
G1 X102.137 Y98.025 E4.71901
G1 X102.137 Y97.203 E4.73857
G1 X104.882 Y99.947 E4.83093
G1 X104.882 Y99.125 E4.85050
G1 X102.137 Y96.380 E4.94286
G1 X102.137 Y95.558 E4.96242
G1 X104.882 Y98.303 E5.05478
G1 X104.882 Y97.480 E5.07435
G1 X102.137 Y94.735 E5.16671
G1 X102.137 Y94.548 E5.17117
G1 X102.772 Y94.548 E5.18627
G1 X104.882 Y96.658 E5.25728
G1 X104.882 Y95.835 E5.27684
G1 X103.594 Y94.548 E5.32018
G1 X104.416 Y94.548 E5.33974
G1 X104.882 Y95.013 E5.35540
G1 X104.882 Y104.059 F7800.000
G1 F1738.85
G1 X102.137 Y101.315 E5.44776
G1 X102.137 Y102.137 E5.46733
G1 X104.882 Y104.882 E5.55968
G1 X104.882 Y105.452 E5.57326
G1 X104.630 Y105.452 E5.57925
G1 X102.137 Y102.959 E5.66314
G1 X102.137 Y103.782 E5.68270
G1 X103.808 Y105.452 E5.73892
G1 X102.985 Y105.452 E5.75848
G1 X102.137 Y104.604 E5.78702
G1 Z2.100 F7800.000
G1 X104.416 Y105.452 F7800.000
G1 F1758.63
G1 X104.882 Y104.987 E5.80268
G1 X104.882 Y104.165 E5.82225
G1 X103.594 Y105.452 E5.86558
G1 X102.772 Y105.452 E5.88515
G1 X104.882 Y103.342 E5.95615
G1 X104.882 Y102.520 E5.97572
G1 X102.137 Y105.265 E6.06808
G1 X102.137 Y104.442 E6.08765
G1 X104.882 Y101.697 E6.18000
G1 X104.882 Y100.875 E6.19957
G1 X102.137 Y103.620 E6.29193
G1 X102.137 Y102.797 E6.31149
G1 X104.882 Y100.053 E6.40385
G1 X104.882 Y99.230 E6.42342
G1 X102.137 Y101.975 E6.51578
G1 X102.137 Y101.257 E6.53287
G1 X102.033 Y101.257 E6.53534
G1 X104.882 Y98.408 E6.63120
G1 X104.882 Y97.585 E6.65077
G1 X101.211 Y101.257 E6.77429
G1 X100.388 Y101.257 E6.79386
G1 X102.438 Y99.207 E6.86283
G1 X101.616 Y99.207 E6.88240
G1 X99.566 Y101.257 E6.95137
G1 X98.743 Y101.257 E6.97094
G1 X100.793 Y99.207 E7.03991
G1 X99.971 Y99.207 E7.05948
G1 X97.921 Y101.257 E7.12845
G1 X97.398 Y101.257 E7.14090
G1 X97.398 Y101.780 E7.15335
G1 X95.118 Y104.059 E7.23005
G1 X95.118 Y103.237 E7.24962
G1 X99.148 Y99.207 E7.38523
G1 X98.326 Y99.207 E7.40480
G1 X95.118 Y102.415 E7.51274
G1 X95.118 Y101.592 E7.53230
G1 X97.863 Y98.847 E7.62466
G1 X97.863 Y98.025 E7.64423
G1 X95.118 Y100.770 E7.73658
G1 X95.118 Y99.947 E7.75615
G1 X97.863 Y97.203 E7.84851
G1 X97.863 Y96.380 E7.86808
G1 X95.118 Y99.125 E7.96043
G1 X95.118 Y98.303 E7.98000
G1 X97.863 Y95.558 E8.07236
G1 X97.863 Y94.736 E8.09193
G1 X95.118 Y97.480 E8.18428
G1 X95.118 Y96.658 E8.20385
G1 X97.228 Y94.548 E8.27486
G1 X96.406 Y94.548 E8.29442
G1 X95.118 Y95.835 E8.33776
G1 X95.118 Y95.013 E8.35732
G1 X95.584 Y94.548 E8.37298
G1 E6.37298 F2400.00000
G92 E0
G1 X102.520 Y95.013 F7800.000
G1 E2.00000 F2400.00000
G1 F1758.63
G1 X102.137 Y95.013 E2.00911
G1 X102.137 Y95.396 E2.01822
G1 X102.985 Y94.548 E2.04676
G1 X103.808 Y94.548 E2.06633
G1 X102.137 Y96.218 E2.12254
G1 X102.137 Y97.041 E2.14211
G1 X104.630 Y94.548 E2.22600
G1 X104.882 Y94.548 E2.23199
G1 X104.882 Y95.118 E2.24556
G1 X102.137 Y97.863 E2.33792
G1 X102.137 Y98.685 E2.35749
G1 X104.882 Y95.941 E2.44984
G1 X104.882 Y96.763 E2.46941
G1 X102.137 Y99.508 E2.56177
G1 E0.56177 F2400.00000
G92 E0
G1 X97.015 Y105.452 F7800.000
G1 E2.00000 F2400.00000
G1 F1758.63
G1 X97.863 Y104.604 E2.02854
G1 X97.863 Y103.782 E2.04811
G1 X96.192 Y105.452 E2.10432
G1 X95.370 Y105.452 E2.12389
G1 X97.863 Y102.959 E2.20777
G1 X97.863 Y102.137 E2.22734
G1 X95.118 Y104.882 E2.31969
G1 X95.118 Y104.059 E2.33926
G1 Z2.400 F7800.000
G1 X95.584 Y105.452 F7800.000
G1 F1738.85
G1 X95.118 Y104.987 E2.35492
G1 X95.118 Y104.165 E2.37448
G1 X96.406 Y105.452 E2.41782
G1 X97.228 Y105.452 E2.43738
G1 X95.118 Y103.342 E2.50839
G1 X95.118 Y102.520 E2.52796
G1 X97.863 Y105.264 E2.62031
G1 X97.863 Y104.442 E2.63988
G1 X95.118 Y101.697 E2.73224
G1 X95.118 Y100.875 E2.75180
G1 X97.863 Y103.620 E2.84416
G1 X97.863 Y102.797 E2.86373
G1 X95.118 Y100.053 E2.95609
G1 X95.118 Y99.230 E2.97565
G1 X97.863 Y101.975 E3.06801
G1 X97.863 Y101.257 E3.08510
G1 X97.967 Y101.257 E3.08758
G1 X95.118 Y98.408 E3.18343
G1 X95.118 Y97.585 E3.20300
G1 X98.789 Y101.257 E3.32653
G1 X98.027 Y99.672 F7800.000
G1 F1738.85
G1 X97.863 Y99.672 E3.33044
G1 X97.863 Y99.508 E3.33435
G1 X95.118 Y96.763 E3.42671
G1 X95.118 Y95.941 E3.44627
G1 X97.863 Y98.685 E3.53863
G1 X97.863 Y97.863 E3.55820
G1 X95.118 Y95.118 E3.65055
G1 X95.118 Y94.548 E3.66413
G1 X95.370 Y94.548 E3.67012
G1 X97.863 Y97.041 E3.75401
G1 X97.863 Y96.218 E3.77357
G1 X96.192 Y94.548 E3.82978
G1 X97.015 Y94.548 E3.84935
G1 X97.863 Y95.396 E3.87789
G1 X97.562 Y99.207 F7800.000
G1 F1738.85
G1 X99.612 Y101.257 E3.94686
G1 X100.434 Y101.257 E3.96643
G1 X98.384 Y99.207 E4.03540
G1 X99.207 Y99.207 E4.05497
G1 X101.257 Y101.257 E4.12394
G1 X102.079 Y101.257 E4.14351
G1 X100.029 Y99.207 E4.21248
G1 X100.852 Y99.207 E4.23204
G1 X104.882 Y103.237 E4.36765
G1 X104.882 Y102.415 E4.38722
G1 X101.674 Y99.207 E4.49516
G1 X102.137 Y99.207 E4.50617
G1 X102.137 Y98.847 E4.51473
G1 X104.882 Y101.592 E4.60708
G1 X104.882 Y100.770 E4.62665
G1 X102.137 Y98.025 E4.71901
G1 X102.137 Y97.203 E4.73857
G1 X104.882 Y99.947 E4.83093
G1 X104.882 Y99.125 E4.85050
G1 X102.137 Y96.380 E4.94286
G1 X102.137 Y95.558 E4.96242
G1 X104.882 Y98.303 E5.05478
G1 X104.882 Y97.480 E5.07435
G1 X102.137 Y94.735 E5.16671
G1 X102.137 Y94.548 E5.17117
G1 X102.772 Y94.548 E5.18627
G1 X104.882 Y96.658 E5.25728
G1 X104.882 Y95.835 E5.27684
G1 X103.594 Y94.548 E5.32018
G1 X104.416 Y94.548 E5.33974
G1 X104.882 Y95.013 E5.35540
G1 X104.882 Y104.059 F7800.000
G1 F1738.85
G1 X102.137 Y101.315 E5.44776
G1 X102.137 Y102.137 E5.46733
G1 X104.882 Y104.882 E5.55968
G1 X104.882 Y105.452 E5.57326
G1 X104.630 Y105.452 E5.57925
G1 X102.137 Y102.959 E5.66314
G1 X102.137 Y103.782 E5.68270
G1 X103.808 Y105.452 E5.73892
G1 X102.985 Y105.452 E5.75848
G1 X102.137 Y104.604 E5.78702
G1 Z2.700 F7800.000
G1 X104.416 Y105.452 F7800.000
G1 F1758.63
G1 X104.882 Y104.987 E5.80268
G1 X104.882 Y104.165 E5.82225
G1 X103.594 Y105.452 E5.86558
G1 X102.772 Y105.452 E5.88515
G1 X104.882 Y103.342 E5.95615
G1 X104.882 Y102.520 E5.97572
G1 X102.137 Y105.265 E6.06808
G1 X102.137 Y104.442 E6.08765
G1 X104.882 Y101.697 E6.18000
G1 X104.882 Y100.875 E6.19957
G1 X102.137 Y103.620 E6.29193
G1 X102.137 Y102.797 E6.31149
G1 X104.882 Y100.053 E6.40385
G1 X104.882 Y99.230 E6.42342
G1 X102.137 Y101.975 E6.51578
G1 X102.137 Y101.257 E6.53287
G1 X102.033 Y101.257 E6.53534
G1 X104.882 Y98.408 E6.63120
G1 X104.882 Y97.585 E6.65077
G1 X101.211 Y101.257 E6.77429
G1 X100.388 Y101.257 E6.79386
G1 X102.438 Y99.207 E6.86283
G1 X101.616 Y99.207 E6.88240
G1 X99.566 Y101.257 E6.95137
G1 X98.743 Y101.257 E6.97094
G1 X100.793 Y99.207 E7.03991
G1 X99.971 Y99.207 E7.05948
G1 X97.921 Y101.257 E7.12845
G1 X97.398 Y101.257 E7.14090
G1 X97.398 Y101.780 E7.15335
G1 X95.118 Y104.059 E7.23005
G1 X95.118 Y103.237 E7.24962
G1 X99.148 Y99.207 E7.38523
G1 X98.326 Y99.207 E7.40480
G1 X95.118 Y102.415 E7.51274
G1 X95.118 Y101.592 E7.53230
G1 X97.863 Y98.847 E7.62466
G1 X97.863 Y98.025 E7.64423
G1 X95.118 Y100.770 E7.73658
G1 X95.118 Y99.947 E7.75615
G1 X97.863 Y97.203 E7.84851
G1 X97.863 Y96.380 E7.86808
G1 X95.118 Y99.125 E7.96043
G1 X95.118 Y98.303 E7.98000
G1 X97.863 Y95.558 E8.07236
G1 X97.863 Y94.736 E8.09193
G1 X95.118 Y97.480 E8.18428
G1 X95.118 Y96.658 E8.20385
G1 X97.228 Y94.548 E8.27486
G1 X96.406 Y94.548 E8.29442
G1 X95.118 Y95.835 E8.33776
G1 X95.118 Y95.013 E8.35732
G1 X95.584 Y94.548 E8.37298
G1 E6.37298 F2400.00000
G92 E0
G1 X102.520 Y95.013 F7800.000
G1 E2.00000 F2400.00000
G1 F1758.63
G1 X102.137 Y95.013 E2.00911
G1 X102.137 Y95.396 E2.01822
G1 X102.985 Y94.548 E2.04676
G1 X103.808 Y94.548 E2.06633
G1 X102.137 Y96.218 E2.12254
G1 X102.137 Y97.041 E2.14211
G1 X104.630 Y94.548 E2.22600
G1 X104.882 Y94.548 E2.23199
G1 X104.882 Y95.118 E2.24556
G1 X102.137 Y97.863 E2.33792
G1 X102.137 Y98.685 E2.35749
G1 X104.882 Y95.941 E2.44984
G1 X104.882 Y96.763 E2.46941
G1 X102.137 Y99.508 E2.56177
G1 E0.56177 F2400.00000
G92 E0
G1 X97.015 Y105.452 F7800.000
G1 E2.00000 F2400.00000
G1 F1758.63
G1 X97.863 Y104.604 E2.02854
G1 X97.863 Y103.782 E2.04811
G1 X96.192 Y105.452 E2.10432
G1 X95.370 Y105.452 E2.12389
G1 X97.863 Y102.959 E2.20777
G1 X97.863 Y102.137 E2.22734
G1 X95.118 Y104.882 E2.31969
G1 X95.118 Y104.059 E2.33926
G1 Z3.000 F7800.000
G1 X95.584 Y105.452 F7800.000
G1 F1738.85
G1 X95.118 Y104.987 E2.35492
G1 X95.118 Y104.165 E2.37448
G1 X96.406 Y105.452 E2.41782
G1 X97.228 Y105.452 E2.43738
G1 X95.118 Y103.342 E2.50839
G1 X95.118 Y102.520 E2.52796
G1 X97.863 Y105.264 E2.62031
G1 X97.863 Y104.442 E2.63988
G1 X95.118 Y101.697 E2.73224
G1 X95.118 Y100.875 E2.75180
G1 X97.863 Y103.620 E2.84416
G1 X97.863 Y102.797 E2.86373
G1 X95.118 Y100.053 E2.95609
G1 X95.118 Y99.230 E2.97565
G1 X97.863 Y101.975 E3.06801
G1 X97.863 Y101.257 E3.08510
G1 X97.967 Y101.257 E3.08758
G1 X95.118 Y98.408 E3.18343
G1 X95.118 Y97.585 E3.20300
G1 X98.789 Y101.257 E3.32653
G1 X98.027 Y99.672 F7800.000
G1 F1738.85
G1 X97.863 Y99.672 E3.33044
G1 X97.863 Y99.508 E3.33435
G1 X95.118 Y96.763 E3.42671
G1 X95.118 Y95.941 E3.44627
G1 X97.863 Y98.685 E3.53863
G1 X97.863 Y97.863 E3.55820
G1 X95.118 Y95.118 E3.65055
G1 X95.118 Y94.548 E3.66413
G1 X95.370 Y94.548 E3.67012
G1 X97.863 Y97.041 E3.75401
G1 X97.863 Y96.218 E3.77357
G1 X96.192 Y94.548 E3.82978
G1 X97.015 Y94.548 E3.84935
G1 X97.863 Y95.396 E3.87789
G1 E1.87789 F2400.00000
G92 E0
G1 X97.562 Y99.207 F7800.000
G1 E2.00000 F2400.00000
G1 F1738.85
G1 X99.612 Y101.257 E2.06897
G1 X100.434 Y101.257 E2.08854
G1 X98.384 Y99.207 E2.15751
G1 X99.207 Y99.207 E2.17708
G1 X101.257 Y101.257 E2.24605
G1 X102.079 Y101.257 E2.26561
G1 X100.029 Y99.207 E2.33459
G1 X100.852 Y99.207 E2.35415
G1 X104.882 Y103.237 E2.48976
G1 X104.882 Y102.415 E2.50933
G1 X101.674 Y99.207 E2.61727
G1 X102.137 Y99.207 E2.62828
G1 X102.137 Y98.847 E2.63683
G1 X104.882 Y101.592 E2.72919
G1 X104.882 Y100.770 E2.74876
G1 X102.137 Y98.025 E2.84112
G1 X102.137 Y97.203 E2.86068
G1 X104.882 Y99.947 E2.95304
G1 X104.882 Y99.125 E2.97261
G1 X102.137 Y96.380 E3.06497
G1 X102.137 Y95.558 E3.08453
G1 X104.882 Y98.303 E3.17689
G1 X104.882 Y97.480 E3.19646
G1 X102.137 Y94.735 E3.28881
G1 X102.137 Y94.548 E3.29328
G1 X102.772 Y94.548 E3.30838
G1 X104.882 Y96.658 E3.37939
G1 X104.882 Y95.835 E3.39895
G1 X103.594 Y94.548 E3.44228
G1 X104.416 Y94.548 E3.46185
G1 X104.882 Y95.013 E3.47751
G1 E1.47751 F2400.00000
G92 E0
G1 X104.882 Y104.059 F7800.000
G1 E2.00000 F2400.00000
G1 F1738.85
G1 X102.137 Y101.315 E2.09236
G1 X102.137 Y102.137 E2.11192
G1 X104.882 Y104.882 E2.20428
G1 X104.882 Y105.452 E2.21786
G1 X104.630 Y105.452 E2.22385
G1 X102.137 Y102.959 E2.30773
G1 X102.137 Y103.782 E2.32730
G1 X103.808 Y105.452 E2.38351
G1 X102.985 Y105.452 E2.40308
G1 X102.137 Y104.604 E2.43162
G1 E0.43162 F2400.00000
G92 E0
M107
; Filament-specific end gcode 
;END gcode for filament

M104 S0 ; turn off temperature
G28 X0  ; home X axis
M84     ; disable motors

M140 S0 ; set bed temperature
; filament used = 34.5mm (0.2cm3)
; total filament cost = 0.0

; avoid_crossing_perimeters = 0
; bed_shape = 0x0,200x0,200x200,0x200
; bed_temperature = 0
; before_layer_gcode = 
; between_objects_gcode = 
; bridge_acceleration = 0
; bridge_fan_speed = 100
; brim_connections_width = 0
; brim_width = 0
; complete_objects = 0
; cooling = 1
; default_acceleration = 0
; disable_fan_first_layers = 3
; duplicate_distance = 6
; end_filament_gcode = "; Filament-specific end gcode \n;END gcode for filament\n"
; end_gcode = M104 S0 ; turn off temperature\nG28 X0  ; home X axis\nM84     ; disable motors\n
; extruder_clearance_height = 20
; extruder_clearance_radius = 20
; extruder_offset = 0x0
; extrusion_axis = E
; extrusion_multiplier = 1
; fan_always_on = 0
; fan_below_layer_time = 60
; filament_colour = #FFFFFF
; filament_cost = 0
; filament_density = 0
; filament_diameter = 3
; filament_max_volumetric_speed = 0
; filament_notes = ""
; first_layer_acceleration = 0
; first_layer_bed_temperature = 0
; first_layer_extrusion_width = 200%
; first_layer_speed = 30
; first_layer_temperature = 205
; gcode_arcs = 0
; gcode_comments = 0
; gcode_flavor = reprap
; has_heatbed = 1
; infill_acceleration = 0
; infill_first = 0
; interior_brim_width = 0
; layer_gcode = 
; max_fan_speed = 100
; max_layer_height = 0.3
; max_print_speed = 80
; max_volumetric_speed = 0
; min_fan_speed = 35
; min_layer_height = 0.15
; min_print_speed = 10
; min_skirt_length = 0
; notes = 
; nozzle_diameter = 0.5
; only_retract_when_crossing_perimeters = 1
; ooze_prevention = 0
; output_filename_format = [input_filename_base].gcode
; perimeter_acceleration = 0
; post_process = 
; pressure_advance = 0
; printer_notes = 
; resolution = 0
; retract_before_travel = 2
; retract_layer_change = 0
; retract_length = 2
; retract_length_toolchange = 10
; retract_lift = 0
; retract_lift_above = 0
; retract_lift_below = 0
; retract_restart_extra = 0
; retract_restart_extra_toolchange = 0
; retract_speed = 40
; skirt_distance = 6
; skirt_height = 1
; skirts = 0
; slowdown_below_layer_time = 5
; spiral_vase = 0
; standby_temperature_delta = -5
; start_filament_gcode = "; Filament gcode\n"
; start_gcode = G28 ; home all axes\nG1 Z5 F5000 ; lift nozzle\n
; temperature = 200
; threads = 8
; toolchange_gcode = 
; travel_speed = 130
; use_firmware_retraction = 0
; use_relative_e_distances = 0
; use_set_and_wait_bed = 0
; use_set_and_wait_extruder = 0
; use_volumetric_e = 0
; vibration_limit = 0
; wipe = 0
; z_offset = 0
; z_steps_per_mm = 0
; adaptive_slicing = 0
; adaptive_slicing_quality = 75%
; dont_support_bridges = 1
; extrusion_width = 0
; first_layer_height = 0.3
; infill_only_where_needed = 0
; interface_shells = 0
; layer_height = 0.3
; match_horizontal_surfaces = 0
; raft_layers = 0
; regions_overlap = 0
; seam_position = aligned
; sequential_print_priority = 0
; support_material = 0
; support_material_angle = 0
; support_material_buildplate_only = 0
; support_material_contact_distance = 0.2
; support_material_enforce_layers = 0
; support_material_extruder = 1
; support_material_extrusion_width = 0
; support_material_interface_extruder = 1
; support_material_interface_extrusion_width = 0
; support_material_interface_layers = 3
; support_material_interface_spacing = 0
; support_material_interface_speed = 100%
; support_material_max_layers = 0
; support_material_pattern = pillars
; support_material_spacing = 2.5
; support_material_speed = 60
; support_material_threshold = 60%
; xy_size_compensation = 0
; bottom_infill_pattern = rectilinear
; bottom_solid_layers = 0
; bridge_flow_ratio = 1
; bridge_speed = 60
; external_perimeter_extrusion_width = 0
; external_perimeter_speed = 50%
; external_perimeters_first = 0
; extra_perimeters = 1
; fill_angle = 45
; fill_density = 100%
; fill_gaps = 1
; fill_pattern = rectilinear
; gap_fill_speed = 20
; infill_every_layers = 1
; infill_extruder = 1
; infill_extrusion_width = 0
; infill_overlap = 55%
; infill_speed = 80
; overhangs = 1
; perimeter_extruder = 1
; perimeter_extrusion_width = 0
; perimeter_speed = 60
; perimeters = 0
; small_perimeter_speed = 15
; solid_infill_below_area = 70
; solid_infill_every_layers = 0
; solid_infill_extruder = 1
; solid_infill_extrusion_width = 0
; solid_infill_speed = 20
; thin_walls = 1
; top_infill_extrusion_width = 0
; top_infill_pattern = rectilinear
; top_solid_infill_speed = 15
; top_solid_layers = 0
