; generated by Slic3r 1.3.0 on 2020-10-15 at 14:48:18

; external perimeters extrusion width = 0.55mm (4.37mm^3/s)
; perimeters extrusion width = 0.70mm (11.44mm^3/s)
; infill extrusion width = 0.63mm (13.45mm^3/s)
; solid infill extrusion width = 0.70mm (3.81mm^3/s)
; top infill extrusion width = 0.70mm (2.86mm^3/s)

M107
M104 S205 ; set temperature
G28 ; home all axes
G1 Z5 F5000 ; lift nozzle

; Filament gcode

M109 S205 ; set temperature and wait for it to be reached
G21 ; set units to millimeters
G90 ; use absolute coordinates
M82 ; use absolute distances for extrusion
G92 E0
G1 Z0.300 F7800.000
G1 E-2.00000 F2400.00000
G92 E0
G1 X93.567 Y92.493 F7800.000
G1 E2.00000 F2400.00000
G1 F1800
G1 X93.994 Y92.067 E2.01371
G1 X94.803 Y92.067 E2.03211
G1 X93.567 Y93.303 E2.07185
G1 X93.567 Y94.113 E2.09025
G1 X95.613 Y92.067 E2.15602
G1 X96.422 Y92.067 E2.17442
G1 X93.567 Y94.922 E2.26621
G1 X93.567 Y95.732 E2.28461
G1 X97.232 Y92.067 E2.40243
G1 X97.508 Y92.067 E2.40870
G1 X97.508 Y92.601 E2.42084
G1 X93.567 Y96.542 E2.54752
G1 X93.567 Y97.351 E2.56592
G1 X97.508 Y93.411 E2.69260
G1 X97.508 Y94.220 E2.71101
G1 X93.567 Y98.161 E2.83769
G1 X93.567 Y98.970 E2.85609
G1 X97.508 Y95.030 E2.98278
G1 X97.508 Y95.839 E3.00118
G1 X93.567 Y99.780 E3.12786
G1 X93.567 Y100.589 E3.14627
G1 X97.508 Y96.649 E3.27295
G1 X97.508 Y97.458 E3.29135
G1 X93.567 Y101.399 E3.41804
G1 X93.567 Y102.209 E3.43644
G1 X98.155 Y97.621 E3.58392
G1 X98.964 Y97.621 E3.60233
G1 X93.567 Y103.018 E3.77584
G1 X93.567 Y103.828 E3.79424
G1 X99.774 Y97.621 E3.99378
G1 X100.580 Y97.624 E4.01211
G1 X97.722 Y100.482 E4.10399
G1 X98.532 Y100.482 E4.12239
G1 X101.356 Y97.658 E4.21319
G1 X101.868 Y97.705 E4.22487
G1 X102.079 Y97.744 E4.22975
G1 X99.342 Y100.482 E4.31777
G1 X99.914 Y100.491 E4.33078
G1 X100.122 Y100.512 E4.33552
G1 X102.763 Y97.871 E4.42043
G1 X103.387 Y98.056 E4.43523
G1 X100.788 Y100.655 E4.51879
G1 X101.008 Y100.738 E4.52413
G1 X101.337 Y100.915 E4.53263
G1 X103.956 Y98.296 E4.61683
G1 X104.304 Y98.477 E4.62575
G1 X104.473 Y98.589 E4.63036
G1 X101.779 Y101.283 E4.71698
G1 X101.956 Y101.504 E4.72342
G1 X102.107 Y101.765 E4.73027
G1 X104.938 Y98.934 E4.82127
G1 X105.102 Y99.071 E4.82614
G1 X105.348 Y99.333 E4.83431
G1 X102.310 Y102.372 E4.93200
G1 X102.358 Y102.706 E4.93968
G1 X102.364 Y103.126 E4.94923
G1 X105.697 Y99.793 E5.05637
G1 X105.842 Y100.018 E5.06244
G1 X105.986 Y100.314 E5.06994
G1 X102.135 Y104.166 E5.19375
G1 E3.19375 F2400.00000
G92 E0
G1 X104.680 Y106.478 F7800.000
G1 E2.00000 F2400.00000
G1 F1800
G1 X105.433 Y105.704 E2.02454
G1 X105.583 Y105.513 E2.03005
G1 X105.840 Y105.114 E2.04085
G1 X106.050 Y104.685 E2.05172
G1 X106.245 Y104.103 E2.06566
G1 X102.798 Y107.550 E2.17648
G1 X102.353 Y107.681 E2.18703
G1 X101.746 Y107.792 E2.20105
G1 X106.404 Y103.135 E2.35078
G1 X106.427 Y102.863 E2.35697
G1 X106.426 Y102.303 E2.36972
G1 X100.832 Y107.897 E2.54959
G1 X99.987 Y107.933 E2.56881
G1 X106.354 Y101.566 E2.77351
G1 X106.283 Y101.176 E2.78252
G1 X106.205 Y100.905 E2.78893
G1 X99.177 Y107.933 E3.01486
G1 X98.367 Y107.933 E3.03327
G1 X101.527 Y104.773 E3.13485
G1 X101.183 Y104.912 E3.14329
G1 X100.931 Y104.980 E3.14922
G1 X100.437 Y105.053 E3.16057
G1 X97.558 Y107.933 E3.25314
G1 X96.748 Y107.933 E3.27154
G1 X99.609 Y105.072 E3.36352
G1 X98.800 Y105.072 E3.38192
G1 X95.939 Y107.933 E3.47390
G1 X95.129 Y107.933 E3.49231
G1 X97.990 Y105.072 E3.58429
G1 X97.508 Y105.072 E3.59525
G1 X97.508 Y104.745 E3.60269
G1 X94.319 Y107.933 E3.70518
G1 X93.567 Y107.933 E3.72229
G1 X93.567 Y107.876 E3.72359
G1 X97.508 Y103.935 E3.85027
G1 X97.508 Y103.126 E3.86867
G1 X93.567 Y107.066 E3.99536
G1 X93.567 Y106.256 E4.01376
G1 X97.508 Y102.316 E4.14044
G1 X97.508 Y101.506 E4.15885
G1 X93.567 Y105.447 E4.28553
G1 X93.567 Y104.637 E4.30393
G1 X97.508 Y100.697 E4.43062
M104 S200 ; set temperature
G1 Z0.600 F7800.000
G1 E2.43062 F2400.00000
G92 E0
G1 X99.591 Y100.501 F7800.000
G1 E2.00000 F2400.00000
G1 F2987.71
G1 X100.419 Y100.516 E2.01972
G1 X97.505 Y97.602 E2.11779
G1 X98.319 Y97.602 E2.13717
G1 X101.495 Y100.778 E2.24404
G1 X105.126 Y99.523 F7800.000
G1 F2987.71
G1 X104.647 Y99.044 E2.26017
G1 X104.289 Y98.744 E2.27127
G1 X104.045 Y98.573 E2.27836
G1 X103.639 Y98.336 E2.28955
G1 X103.164 Y98.119 E2.30198
G1 X102.771 Y97.982 E2.31188
G1 X106.259 Y101.470 E2.42925
G1 X106.394 Y102.125 E2.44517
G1 X106.423 Y102.448 E2.45289
G1 X101.707 Y97.732 E2.61158
G1 X101.454 Y97.690 E2.61768
G1 X100.788 Y97.628 E2.63359
G1 X106.446 Y103.286 E2.82399
G1 X106.371 Y104.025 E2.84167
G1 X99.948 Y97.602 E3.05783
G1 X99.133 Y97.602 E3.07720
G1 X106.225 Y104.693 E3.31581
G1 X106.066 Y105.137 E3.32704
G1 X105.997 Y105.279 E3.33080
G1 X102.131 Y101.413 E3.46089
G1 X102.249 Y101.740 E3.46916
G1 X102.301 Y101.970 E3.47477
G1 X102.346 Y102.443 E3.48606
G1 X105.704 Y105.801 E3.59906
G1 X105.612 Y105.945 E3.60314
G1 X105.349 Y106.260 E3.61290
G1 X102.286 Y103.196 E3.71600
G1 X102.170 Y103.600 E3.72599
G1 X102.077 Y103.803 E3.73129
G1 X104.933 Y106.658 E3.82738
G1 X104.740 Y106.821 E3.83338
G1 X104.466 Y107.006 E3.84125
G1 X101.739 Y104.279 E3.93300
G1 X101.586 Y104.427 E3.93808
G1 X101.288 Y104.642 E3.94682
G1 X103.942 Y107.295 E4.03611
G1 X103.364 Y107.532 E4.05096
G1 X100.728 Y104.896 E4.13967
G1 X100.439 Y104.971 E4.14678
G1 X100.046 Y105.029 E4.15621
G1 X102.732 Y107.715 E4.24660
G1 X102.038 Y107.835 E4.26336
G1 X99.256 Y105.052 E4.35698
G1 X98.442 Y105.052 E4.37636
G1 X101.312 Y107.923 E4.47294
G1 X100.526 Y107.951 E4.49164
G1 X97.627 Y105.052 E4.58918
G1 X98.093 Y105.518 F7800.000
G1 F2987.71
G1 X97.527 Y105.518 E4.60264
G1 X97.527 Y104.952 E4.61609
G1 X93.548 Y100.973 E4.74999
G1 X93.548 Y100.158 E4.76937
G1 X97.527 Y104.138 E4.90327
G1 X97.527 Y103.324 E4.92264
G1 X93.548 Y99.344 E5.05655
G1 X93.548 Y98.530 E5.07592
G1 X97.527 Y102.509 E5.20983
G1 X97.527 Y101.695 E5.22920
G1 X93.548 Y97.716 E5.36311
G1 X93.548 Y96.901 E5.38248
G1 X97.527 Y100.881 E5.51638
G1 X97.527 Y100.501 E5.52541
G1 X97.962 Y100.501 E5.53576
G1 X93.548 Y96.087 E5.68429
G1 X93.548 Y95.273 E5.70367
G1 X98.776 Y100.501 E5.87961
G1 X99.591 Y100.501 E5.89898
G1 X93.548 Y94.459 E6.10231
G1 X93.548 Y93.644 E6.12169
G1 X97.527 Y97.624 E6.25559
G1 X97.527 Y96.810 E6.27497
G1 X93.548 Y92.830 E6.40887
G1 X93.548 Y92.048 E6.42749
G1 X93.580 Y92.048 E6.42825
G1 X97.527 Y95.995 E6.56108
G1 X97.527 Y95.181 E6.58045
G1 X94.394 Y92.048 E6.68588
G1 X95.208 Y92.048 E6.70526
G1 X97.527 Y94.367 E6.78329
G1 X97.527 Y93.552 E6.80266
G1 X96.022 Y92.048 E6.85330
G1 X96.837 Y92.048 E6.87267
G1 X97.527 Y92.738 E6.89591
G1 E4.89591 F2400.00000
G92 E0
G1 X99.713 Y107.952 F7800.000
G1 E2.00000 F2400.00000
G1 F2987.71
G1 X93.548 Y101.787 E2.20746
G1 X93.548 Y102.601 E2.22683
G1 X98.899 Y107.952 E2.40689
G1 X98.084 Y107.952 E2.42626
G1 X93.548 Y103.416 E2.57892
G1 X93.548 Y104.230 E2.59829
G1 X97.270 Y107.952 E2.72355
G1 X96.456 Y107.952 E2.74292
G1 X93.548 Y105.044 E2.84078
G1 X93.548 Y105.858 E2.86015
G1 X95.642 Y107.952 E2.93061
G1 X94.827 Y107.952 E2.94999
G1 X93.548 Y106.673 E2.99305
G1 X93.548 Y107.487 E3.01242
G1 X94.013 Y107.952 E3.02808
G1 Z0.900 F7800.000
G1 X97.527 Y100.678 F7800.000
G1 F2997.17
G1 X93.548 Y104.657 E3.16198
G1 X93.548 Y105.467 E3.18124
G1 X97.527 Y101.487 E3.31515
G1 X97.527 Y102.297 E3.33441
G1 X93.548 Y106.276 E3.46831
G1 X93.548 Y107.086 E3.48758
G1 X97.527 Y103.106 E3.62148
G1 X97.527 Y103.916 E3.64074
G1 X93.548 Y107.895 E3.77465
G1 X93.548 Y107.952 E3.77600
G1 X94.300 Y107.952 E3.79391
G1 X97.527 Y104.726 E3.90249
G1 X97.527 Y105.052 E3.91026
G1 X98.010 Y105.052 E3.92175
G1 X95.110 Y107.952 E4.01933
G1 X95.920 Y107.952 E4.03859
G1 X98.820 Y105.052 E4.13617
G1 X99.629 Y105.052 E4.15544
G1 X96.729 Y107.952 E4.25302
G1 X97.539 Y107.952 E4.27228
G1 X100.457 Y105.034 E4.37047
G1 X100.985 Y104.952 E4.38319
G1 X101.218 Y104.888 E4.38893
G1 X101.546 Y104.754 E4.39737
G1 X98.348 Y107.952 E4.50497
G1 X99.158 Y107.952 E4.52424
G1 X106.225 Y100.885 E4.76203
G1 X106.306 Y101.170 E4.76907
G1 X106.374 Y101.546 E4.77816
G1 X99.968 Y107.952 E4.99374
G1 X100.805 Y107.925 E5.01366
G1 X106.445 Y102.284 E5.20348
G1 X106.447 Y102.829 E5.21645
G1 X106.423 Y103.116 E5.22331
G1 X101.727 Y107.812 E5.38130
G1 X102.051 Y107.764 E5.38911
G1 X102.781 Y107.567 E5.40709
G1 X106.262 Y104.087 E5.52421
G1 X106.064 Y104.678 E5.53906
G1 X105.864 Y105.086 E5.54986
G1 X105.622 Y105.466 E5.56058
G1 X105.442 Y105.697 E5.56754
G1 X104.677 Y106.481 E5.59362
G1 X102.116 Y104.185 F7800.000
G1 F2997.17
G1 X106.006 Y100.295 E5.72451
G1 X105.873 Y100.021 E5.73175
G1 X105.716 Y99.775 E5.73870
G1 X102.345 Y103.146 E5.85213
G1 X102.341 Y102.760 E5.86131
G1 X102.291 Y102.391 E5.87017
G1 X105.369 Y99.313 E5.97375
G1 X105.105 Y99.037 E5.98284
G1 X104.958 Y98.914 E5.98739
G1 X102.088 Y101.784 E6.08397
G1 X101.936 Y101.522 E6.09117
G1 X101.760 Y101.303 E6.09787
G1 X104.497 Y98.566 E6.18997
G1 X103.975 Y98.277 E6.20414
G1 X101.318 Y100.935 E6.29356
G1 X101.012 Y100.769 E6.30184
G1 X100.769 Y100.674 E6.30805
G1 X103.407 Y98.036 E6.39681
G1 X102.783 Y97.851 E6.41230
G1 X100.103 Y100.531 E6.50248
G1 X99.322 Y100.501 E6.52106
G1 X102.104 Y97.720 E6.61465
G1 X101.375 Y97.640 E6.63210
G1 X98.513 Y100.501 E6.72840
G1 X97.703 Y100.501 E6.74766
G1 X100.600 Y97.605 E6.84513
G1 X99.794 Y97.602 E6.86432
G1 X93.548 Y103.847 E7.07449
G1 X93.548 Y103.038 E7.09376
G1 X98.984 Y97.602 E7.27668
G1 X98.174 Y97.602 E7.29595
G1 X93.548 Y102.228 E7.45163
G1 X93.548 Y101.419 E7.47089
G1 X97.527 Y97.439 E7.60480
G1 X97.527 Y96.630 E7.62406
G1 X93.548 Y100.609 E7.75797
G1 X93.548 Y99.799 E7.77723
G1 X97.527 Y95.820 E7.91113
G1 X97.527 Y95.010 E7.93040
G1 X93.548 Y98.990 E8.06430
G1 X93.548 Y98.180 E8.08356
G1 X97.527 Y94.201 E8.21747
G1 X97.527 Y93.391 E8.23673
G1 X93.548 Y97.371 E8.37063
G1 X93.548 Y96.561 E8.38990
G1 X97.527 Y92.582 E8.52380
G1 X97.527 Y92.048 E8.53650
G1 X97.251 Y92.048 E8.54306
G1 X93.548 Y95.751 E8.66769
G1 X93.548 Y94.942 E8.68696
G1 X96.442 Y92.048 E8.78434
G1 X95.632 Y92.048 E8.80360
G1 X93.548 Y94.132 E8.87375
G1 X93.548 Y93.323 E8.89301
G1 X94.823 Y92.048 E8.93591
G1 X94.013 Y92.048 E8.95518
G1 X93.548 Y92.513 E8.97083
M106 S255
G1 Z1.200 F7800.000
G1 X97.527 Y92.739 F7800.000
G1 F2987.03
G1 X96.835 Y92.048 E8.99411
G1 X96.021 Y92.048 E9.01348
G1 X97.527 Y93.554 E9.06416
G1 X97.527 Y94.368 E9.08353
G1 X95.207 Y92.048 E9.16160
G1 X94.393 Y92.048 E9.18098
G1 X97.527 Y95.182 E9.28645
G1 X97.527 Y95.996 E9.30582
G1 X93.578 Y92.048 E9.43869
G1 X93.548 Y92.048 E9.43942
G1 X93.548 Y92.831 E9.45806
G1 X97.527 Y96.811 E9.59196
G1 X97.527 Y97.625 E9.61134
G1 X93.548 Y93.645 E9.74524
G1 X93.548 Y94.460 E9.76461
G1 X99.590 Y100.501 E9.96792
G1 X98.775 Y100.501 E9.98729
G1 X93.548 Y95.274 E10.16320
G1 X93.548 Y96.088 E10.18257
G1 X97.961 Y100.501 E10.33108
G1 X97.527 Y100.501 E10.34141
G1 X97.527 Y100.882 E10.35045
G1 X93.548 Y96.902 E10.48436
G1 X93.548 Y97.716 E10.50373
G1 X97.527 Y101.696 E10.63764
G1 X97.527 Y102.510 E10.65701
G1 X93.548 Y98.531 E10.79091
G1 X93.548 Y99.345 E10.81029
G1 X97.527 Y103.324 E10.94419
G1 X97.527 Y104.138 E10.96356
G1 X93.548 Y100.159 E11.09747
G1 X93.548 Y100.973 E11.11684
G1 X97.527 Y104.953 E11.25074
G1 X97.527 Y105.518 E11.26419
G1 X98.092 Y105.518 E11.27763
G1 X97.627 Y105.052 F7800.000
G1 F2987.03
G1 X100.526 Y107.951 E11.37517
G1 X101.310 Y107.921 E11.39384
G1 X98.441 Y105.052 E11.49038
G1 X99.255 Y105.052 E11.50975
G1 X102.038 Y107.835 E11.60339
G1 X102.524 Y107.762 E11.61508
G1 X102.725 Y107.708 E11.62004
G1 X100.046 Y105.029 E11.71018
G1 X100.413 Y104.976 E11.71899
G1 X100.727 Y104.896 E11.72671
G1 X103.363 Y107.532 E11.81542
G1 X103.940 Y107.294 E11.83025
G1 X101.288 Y104.642 E11.91949
G1 X101.567 Y104.443 E11.92766
G1 X101.739 Y104.280 E11.93330
G1 X104.466 Y107.007 E12.02506
G1 X104.739 Y106.822 E12.03289
G1 X104.932 Y106.658 E12.03892
G1 X102.077 Y103.803 E12.13499
G1 X102.175 Y103.587 E12.14064
G1 X102.286 Y103.198 E12.15027
G1 X105.350 Y106.261 E12.25337
G1 X105.705 Y105.802 E12.26718
G1 X102.347 Y102.444 E12.38017
G1 X102.298 Y101.954 E12.39188
G1 X102.249 Y101.740 E12.39711
G1 X102.133 Y101.416 E12.40531
G1 X105.997 Y105.280 E12.53534
G1 X106.061 Y105.150 E12.53879
G1 X106.224 Y104.693 E12.55034
G1 X99.132 Y97.602 E12.78896
G1 X99.947 Y97.602 E12.80833
G1 X106.372 Y104.027 E13.02453
G1 X106.447 Y103.288 E13.04220
G1 X100.788 Y97.629 E13.23261
G1 X101.508 Y97.698 E13.24982
G1 X101.710 Y97.737 E13.25472
G1 X106.422 Y102.449 E13.41328
G1 X106.390 Y102.094 E13.42177
G1 X106.260 Y101.472 E13.43688
G1 X102.768 Y97.981 E13.55435
G1 X103.193 Y98.131 E13.56507
G1 X103.649 Y98.341 E13.57701
G1 X104.001 Y98.546 E13.58670
G1 X104.306 Y98.757 E13.59553
G1 X104.630 Y99.028 E13.60559
G1 X105.104 Y99.502 E13.62152
G1 X101.492 Y100.775 F7800.000
G1 F2987.03
G1 X98.318 Y97.602 E13.72832
G1 X97.504 Y97.602 E13.74769
G1 X100.418 Y100.516 E13.84575
G1 X99.590 Y100.501 E13.86546
G1 E11.86546 F2400.00000
G92 E0
G1 X99.713 Y107.952 F7800.000
G1 E2.00000 F2400.00000
G1 F2987.03
G1 X93.548 Y101.787 E2.20744
G1 X93.548 Y102.602 E2.22682
G1 X98.898 Y107.952 E2.40686
G1 X98.084 Y107.952 E2.42623
G1 X93.548 Y103.416 E2.57888
G1 X93.548 Y104.230 E2.59825
G1 X97.270 Y107.952 E2.72350
G1 X96.456 Y107.952 E2.74288
G1 X93.548 Y105.044 E2.84073
G1 X93.548 Y105.858 E2.86010
G1 X95.642 Y107.952 E2.93056
G1 X94.827 Y107.952 E2.94993
G1 X93.548 Y106.673 E2.99299
G1 X93.548 Y107.487 E3.01236
G1 X94.013 Y107.952 E3.02801
G1 Z1.500 F7800.000
G1 X97.527 Y100.678 F7800.000
G1 F2996.66
G1 X93.548 Y104.657 E3.16192
G1 X93.548 Y105.467 E3.18118
G1 X97.527 Y101.487 E3.31509
G1 X97.527 Y102.297 E3.33435
G1 X93.548 Y106.277 E3.46825
G1 X93.548 Y107.086 E3.48752
G1 X97.527 Y103.107 E3.62142
G1 X97.527 Y103.916 E3.64068
G1 X93.548 Y107.896 E3.77459
G1 X93.548 Y107.952 E3.77593
G1 X94.301 Y107.952 E3.79385
G1 X97.527 Y104.726 E3.90242
G1 X97.527 Y105.052 E3.91018
G1 X98.010 Y105.052 E3.92168
G1 X95.110 Y107.952 E4.01926
G1 X95.920 Y107.952 E4.03852
G1 X98.820 Y105.052 E4.13610
G1 X99.630 Y105.052 E4.15537
G1 X96.730 Y107.952 E4.25295
G1 X97.539 Y107.952 E4.27221
G1 X100.457 Y105.035 E4.37039
G1 X101.019 Y104.943 E4.38394
G1 X101.233 Y104.883 E4.38923
G1 X101.546 Y104.755 E4.39727
G1 X98.349 Y107.952 E4.50485
G1 X99.158 Y107.952 E4.52411
G1 X106.226 Y100.885 E4.76192
G1 X106.309 Y101.183 E4.76928
G1 X106.375 Y101.545 E4.77805
G1 X99.968 Y107.952 E4.99364
G1 X100.807 Y107.923 E5.01361
G1 X106.445 Y102.285 E5.20334
G1 X106.447 Y102.815 E5.21594
G1 X106.422 Y103.117 E5.22317
G1 X101.727 Y107.812 E5.38115
G1 X102.066 Y107.761 E5.38929
G1 X102.781 Y107.568 E5.40691
G1 X106.260 Y104.089 E5.52398
G1 X106.058 Y104.691 E5.53908
G1 X105.869 Y105.077 E5.54931
G1 X105.642 Y105.437 E5.55943
G1 X105.432 Y105.709 E5.56760
G1 X104.694 Y106.465 E5.59275
G1 X102.117 Y104.184 F7800.000
G1 F2996.66
G1 X106.007 Y100.294 E5.72364
G1 X105.885 Y100.043 E5.73028
G1 X105.716 Y99.775 E5.73782
G1 X102.346 Y103.146 E5.85123
G1 X102.343 Y102.784 E5.85985
G1 X102.291 Y102.391 E5.86927
G1 X105.370 Y99.312 E5.97288
G1 X104.959 Y98.913 E5.98650
G1 X102.088 Y101.784 E6.08310
G1 X101.936 Y101.522 E6.09031
G1 X101.760 Y101.303 E6.09700
G1 X104.495 Y98.567 E6.18904
G1 X103.976 Y98.277 E6.20319
G1 X101.319 Y100.934 E6.29260
G1 X101.036 Y100.780 E6.30027
G1 X100.769 Y100.674 E6.30710
G1 X103.407 Y98.037 E6.39585
G1 X102.781 Y97.853 E6.41137
G1 X100.104 Y100.530 E6.50146
G1 X99.323 Y100.501 E6.52005
G1 X102.102 Y97.722 E6.61358
G1 X101.373 Y97.641 E6.63104
G1 X98.513 Y100.501 E6.72728
G1 X97.704 Y100.501 E6.74654
G1 X100.600 Y97.605 E6.84402
G1 X99.794 Y97.602 E6.86322
G1 X93.548 Y103.848 E7.07339
G1 X93.548 Y103.038 E7.09266
G1 X98.984 Y97.602 E7.27559
G1 X98.175 Y97.602 E7.29485
G1 X93.548 Y102.228 E7.45055
G1 X93.548 Y101.419 E7.46981
G1 X97.527 Y97.439 E7.60371
G1 X97.527 Y96.630 E7.62298
G1 X93.548 Y100.609 E7.75688
G1 X93.548 Y99.800 E7.77614
G1 X97.527 Y95.820 E7.91005
G1 X97.527 Y95.011 E7.92931
G1 X93.548 Y98.990 E8.06322
G1 X93.548 Y98.180 E8.08248
G1 X97.527 Y94.201 E8.21638
G1 X97.527 Y93.391 E8.23565
G1 X93.548 Y97.371 E8.36955
G1 X93.548 Y96.561 E8.38881
G1 X97.527 Y92.582 E8.52272
G1 X97.527 Y92.048 E8.53542
G1 X97.252 Y92.048 E8.54198
G1 X93.548 Y95.752 E8.66661
G1 X93.548 Y94.942 E8.68588
G1 X96.442 Y92.048 E8.78326
G1 X95.632 Y92.048 E8.80253
G1 X93.548 Y94.132 E8.87267
G1 X93.548 Y93.323 E8.89194
G1 X94.823 Y92.048 E8.93484
G1 X94.013 Y92.048 E8.95410
G1 X93.548 Y92.513 E8.96976
G1 Z1.800 F7800.000
G1 X97.527 Y92.741 F7800.000
G1 F2986.68
G1 X96.834 Y92.048 E8.99308
G1 X96.020 Y92.048 E9.01245
G1 X97.527 Y93.555 E9.06317
G1 X97.527 Y94.369 E9.08254
G1 X95.206 Y92.048 E9.16065
G1 X94.392 Y92.048 E9.18002
G1 X97.527 Y95.183 E9.28553
G1 X97.527 Y95.997 E9.30490
G1 X93.577 Y92.048 E9.43780
G1 X93.548 Y92.048 E9.43851
G1 X93.548 Y92.832 E9.45718
G1 X97.527 Y96.812 E9.59108
G1 X97.527 Y97.626 E9.61045
G1 X93.548 Y93.646 E9.74435
G1 X93.548 Y94.460 E9.76373
G1 X99.589 Y100.501 E9.96700
G1 X98.775 Y100.501 E9.98637
G1 X93.548 Y95.275 E10.16225
G1 X93.548 Y96.089 E10.18162
G1 X97.960 Y100.501 E10.33011
G1 X97.527 Y100.501 E10.34042
G1 X97.527 Y100.882 E10.34948
G1 X93.548 Y96.903 E10.48338
G1 X93.548 Y97.717 E10.50276
G1 X97.527 Y101.696 E10.63666
G1 X97.527 Y102.511 E10.65603
G1 X93.548 Y98.531 E10.78993
G1 X93.548 Y99.345 E10.80931
G1 X97.527 Y103.325 E10.94321
G1 X97.527 Y104.139 E10.96258
G1 X93.548 Y100.160 E11.09649
G1 X93.548 Y100.974 E11.11586
G1 X97.527 Y104.953 E11.24976
G1 X97.527 Y105.518 E11.26319
G1 X98.092 Y105.518 E11.27662
G1 X97.626 Y105.052 F7800.000
G1 F2986.68
G1 X100.525 Y107.951 E11.37417
G1 X101.308 Y107.920 E11.39281
G1 X98.441 Y105.052 E11.48930
G1 X99.255 Y105.052 E11.50867
G1 X102.039 Y107.836 E11.60234
G1 X102.538 Y107.759 E11.61436
G1 X102.725 Y107.709 E11.61898
G1 X100.046 Y105.029 E11.70914
G1 X100.386 Y104.981 E11.71732
G1 X100.726 Y104.896 E11.72566
G1 X103.363 Y107.532 E11.81437
G1 X103.938 Y107.293 E11.82919
G1 X101.288 Y104.643 E11.91837
G1 X101.548 Y104.458 E11.92597
G1 X101.739 Y104.280 E11.93218
G1 X104.466 Y107.007 E12.02394
G1 X104.737 Y106.824 E12.03172
G1 X104.931 Y106.658 E12.03779
G1 X102.077 Y103.803 E12.13385
G1 X102.179 Y103.575 E12.13981
G1 X102.286 Y103.199 E12.14911
G1 X105.350 Y106.263 E12.25221
G1 X105.705 Y105.804 E12.26602
G1 X102.347 Y102.446 E12.37900
G1 X102.294 Y101.937 E12.39117
G1 X102.223 Y101.657 E12.39805
G1 X102.134 Y101.419 E12.40410
G1 X105.997 Y105.282 E12.53409
G1 X106.222 Y104.692 E12.54910
G1 X99.131 Y97.602 E12.78769
G1 X99.945 Y97.602 E12.80707
G1 X106.372 Y104.028 E13.02330
G1 X106.446 Y103.288 E13.04099
G1 X100.788 Y97.630 E13.23138
G1 X101.706 Y97.734 E13.25336
G1 X106.422 Y102.450 E13.41204
G1 X106.385 Y102.062 E13.42130
G1 X106.261 Y101.474 E13.43560
G1 X102.766 Y97.980 E13.55319
G1 X103.223 Y98.143 E13.56473
G1 X103.659 Y98.346 E13.57617
G1 X103.957 Y98.518 E13.58435
G1 X104.323 Y98.770 E13.59493
G1 X104.614 Y99.013 E13.60395
G1 X105.085 Y99.485 E13.61982
G1 X101.491 Y100.775 F7800.000
G1 F2986.68
G1 X98.317 Y97.602 E13.72661
G1 X97.503 Y97.602 E13.74598
G1 X100.417 Y100.516 E13.84404
G1 X99.589 Y100.501 E13.86376
G1 E11.86376 F2400.00000
G92 E0
G1 X99.712 Y107.952 F7800.000
G1 E2.00000 F2400.00000
G1 F2986.68
G1 X93.548 Y101.788 E2.20743
G1 X93.548 Y102.602 E2.22680
G1 X98.898 Y107.952 E2.40683
G1 X98.084 Y107.952 E2.42621
G1 X93.548 Y103.416 E2.57884
G1 X93.548 Y104.230 E2.59821
G1 X97.270 Y107.952 E2.72346
G1 X96.456 Y107.952 E2.74283
G1 X93.548 Y105.044 E2.84068
G1 X93.548 Y105.859 E2.86005
G1 X95.641 Y107.952 E2.93050
G1 X94.827 Y107.952 E2.94987
G1 X93.548 Y106.673 E2.99292
G1 X93.548 Y107.487 E3.01230
G1 X94.013 Y107.952 E3.02795
G1 Z2.100 F7800.000
G1 X97.527 Y100.678 F7800.000
G1 F2996.27
G1 X93.548 Y104.658 E3.16185
G1 X93.548 Y105.467 E3.18112
G1 X97.527 Y101.488 E3.31502
G1 X97.527 Y102.297 E3.33429
G1 X93.548 Y106.277 E3.46819
G1 X93.548 Y107.086 E3.48745
G1 X97.527 Y103.107 E3.62136
G1 X97.527 Y103.917 E3.64062
G1 X93.548 Y107.896 E3.77453
G1 X93.548 Y107.952 E3.77586
G1 X94.301 Y107.952 E3.79379
G1 X97.527 Y104.726 E3.90234
G1 X97.527 Y105.052 E3.91010
G1 X98.011 Y105.052 E3.92161
G1 X95.111 Y107.952 E4.01919
G1 X95.920 Y107.952 E4.03845
G1 X98.820 Y105.052 E4.13603
G1 X99.630 Y105.052 E4.15530
G1 X96.730 Y107.952 E4.25288
G1 X97.540 Y107.952 E4.27214
G1 X100.457 Y105.035 E4.37030
G1 X100.949 Y104.961 E4.38215
G1 X101.248 Y104.878 E4.38954
G1 X101.545 Y104.756 E4.39718
G1 X98.349 Y107.952 E4.50473
G1 X99.159 Y107.952 E4.52399
G1 X106.227 Y100.884 E4.76184
G1 X106.312 Y101.196 E4.76953
G1 X106.376 Y101.545 E4.77797
G1 X99.969 Y107.952 E4.99358
G1 X100.809 Y107.922 E5.01359
G1 X106.445 Y102.286 E5.20324
G1 X106.448 Y102.800 E5.21547
G1 X106.422 Y103.118 E5.22307
G1 X101.727 Y107.813 E5.38104
G1 X102.080 Y107.758 E5.38952
G1 X102.780 Y107.570 E5.40678
G1 X106.257 Y104.092 E5.52379
G1 X106.198 Y104.314 E5.52925
G1 X106.053 Y104.704 E5.53916
G1 X105.874 Y105.069 E5.54882
G1 X105.662 Y105.409 E5.55836
G1 X105.422 Y105.721 E5.56772
G1 X104.710 Y106.449 E5.59195
G1 X102.118 Y104.184 F7800.000
G1 F2996.27
G1 X106.008 Y100.294 E5.72284
G1 X105.898 Y100.066 E5.72887
G1 X105.716 Y99.776 E5.73701
G1 X102.346 Y103.146 E5.85041
G1 X102.335 Y102.695 E5.86114
G1 X102.292 Y102.391 E5.86845
G1 X105.370 Y99.313 E5.97203
G1 X105.075 Y99.010 E5.98209
G1 X104.956 Y98.916 E5.98567
G1 X102.089 Y101.784 E6.08216
G1 X101.935 Y101.522 E6.08939
G1 X101.761 Y101.302 E6.09606
G1 X104.495 Y98.568 E6.18809
G1 X103.977 Y98.276 E6.20223
G1 X101.319 Y100.934 E6.29167
G1 X101.060 Y100.791 E6.29872
G1 X100.769 Y100.674 E6.30617
G1 X103.406 Y98.038 E6.39490
G1 X102.781 Y97.854 E6.41042
G1 X100.104 Y100.530 E6.50047
G1 X99.323 Y100.501 E6.51907
G1 X102.105 Y97.720 E6.61268
G1 X101.372 Y97.643 E6.63021
G1 X98.513 Y100.501 E6.72640
G1 X97.704 Y100.501 E6.74567
G1 X100.601 Y97.604 E6.84315
G1 X99.794 Y97.602 E6.86235
G1 X93.548 Y103.848 E7.07253
G1 X93.548 Y103.038 E7.09180
G1 X98.984 Y97.602 E7.27474
G1 X98.175 Y97.602 E7.29400
G1 X93.548 Y102.229 E7.44970
G1 X93.548 Y101.419 E7.46896
G1 X97.527 Y97.440 E7.60287
G1 X97.527 Y96.630 E7.62213
G1 X93.548 Y100.609 E7.75604
G1 X93.548 Y99.800 E7.77530
G1 X97.527 Y95.820 E7.90920
G1 X97.527 Y95.011 E7.92847
G1 X93.548 Y98.990 E8.06237
G1 X93.548 Y98.180 E8.08164
G1 X97.527 Y94.201 E8.21554
G1 X97.527 Y93.391 E8.23480
G1 X93.548 Y97.371 E8.36871
G1 X93.548 Y96.561 E8.38797
G1 X97.527 Y92.582 E8.52188
G1 X97.527 Y92.048 E8.53458
G1 X97.252 Y92.048 E8.54114
G1 X93.548 Y95.752 E8.66577
G1 X93.548 Y94.942 E8.68504
G1 X96.442 Y92.048 E8.78243
G1 X95.632 Y92.048 E8.80169
G1 X93.548 Y94.132 E8.87184
G1 X93.548 Y93.323 E8.89110
G1 X94.823 Y92.048 E8.93400
G1 X94.013 Y92.048 E8.95327
G1 X93.548 Y92.513 E8.96892
G1 Z2.400 F7800.000
G1 X97.527 Y92.742 F7800.000
G1 F2986.59
G1 X96.833 Y92.048 E8.99229
G1 X96.019 Y92.048 E9.01166
G1 X97.527 Y93.556 E9.06242
G1 X97.527 Y94.370 E9.08179
G1 X95.205 Y92.048 E9.15994
G1 X94.390 Y92.048 E9.17931
G1 X97.527 Y95.184 E9.28486
G1 X97.527 Y95.998 E9.30423
G1 X93.576 Y92.048 E9.43717
G1 X93.548 Y92.048 E9.43785
G1 X93.548 Y92.833 E9.45654
G1 X97.527 Y96.813 E9.59045
G1 X97.527 Y97.627 E9.60982
G1 X93.548 Y93.647 E9.74372
G1 X93.548 Y94.461 E9.76309
G1 X99.588 Y100.501 E9.96633
G1 X98.774 Y100.501 E9.98570
G1 X93.548 Y95.275 E10.16155
G1 X93.548 Y96.090 E10.18092
G1 X97.960 Y100.501 E10.32938
G1 X97.527 Y100.501 E10.33967
G1 X97.527 Y100.883 E10.34875
G1 X93.548 Y96.904 E10.48265
G1 X93.548 Y97.718 E10.50202
G1 X97.527 Y101.697 E10.63593
G1 X97.527 Y102.511 E10.65530
G1 X93.548 Y98.532 E10.78920
G1 X93.548 Y99.346 E10.80857
G1 X97.527 Y103.325 E10.94248
G1 X97.527 Y104.139 E10.96185
G1 X93.548 Y100.160 E11.09575
G1 X93.548 Y100.974 E11.11512
G1 X97.527 Y104.954 E11.24902
G1 X97.527 Y105.518 E11.26244
G1 X98.091 Y105.518 E11.27586
G1 X97.626 Y105.052 F7800.000
G1 F2986.59
G1 X100.525 Y107.952 E11.37342
G1 X101.306 Y107.918 E11.39202
G1 X98.440 Y105.052 E11.48846
G1 X99.254 Y105.052 E11.50783
G1 X102.039 Y107.837 E11.60155
G1 X102.552 Y107.756 E11.61389
G1 X102.725 Y107.710 E11.61817
G1 X100.046 Y105.030 E11.70835
G1 X100.360 Y104.986 E11.71591
G1 X100.726 Y104.896 E11.72486
G1 X103.362 Y107.532 E11.81357
G1 X103.665 Y107.419 E11.82126
G1 X103.936 Y107.292 E11.82839
G1 X101.287 Y104.643 E11.91751
G1 X101.530 Y104.474 E11.92454
G1 X101.739 Y104.281 E11.93132
G1 X104.466 Y107.008 E12.02308
G1 X104.735 Y106.825 E12.03083
G1 X104.930 Y106.658 E12.03693
G1 X102.076 Y103.804 E12.13298
G1 X102.182 Y103.567 E12.13915
G1 X102.286 Y103.200 E12.14823
G1 X105.350 Y106.264 E12.25132
G1 X105.706 Y105.805 E12.26513
G1 X102.347 Y102.447 E12.37813
G1 X102.336 Y102.224 E12.38345
G1 X102.290 Y101.918 E12.39080
G1 X102.215 Y101.630 E12.39788
G1 X102.136 Y101.421 E12.40319
G1 X105.997 Y105.283 E12.53313
G1 X106.220 Y104.692 E12.54816
G1 X99.130 Y97.602 E12.78674
G1 X99.944 Y97.602 E12.80611
G1 X106.372 Y104.029 E13.02240
G1 X106.445 Y103.289 E13.04010
G1 X100.784 Y97.627 E13.23060
G1 X101.145 Y97.654 E13.23921
G1 X101.701 Y97.730 E13.25257
G1 X106.422 Y102.451 E13.41141
G1 X106.381 Y102.031 E13.42145
G1 X106.263 Y101.478 E13.43491
G1 X102.764 Y97.979 E13.55265
G1 X103.317 Y98.183 E13.56666
G1 X103.666 Y98.350 E13.57587
G1 X104.105 Y98.612 E13.58805
G1 X104.601 Y99.002 E13.60305
G1 X105.071 Y99.472 E13.61888
G1 X101.489 Y100.775 F7800.000
G1 F2986.59
G1 X98.316 Y97.602 E13.72566
G1 X97.502 Y97.602 E13.74503
G1 X100.416 Y100.516 E13.84310
G1 X99.588 Y100.501 E13.86282
G1 E11.86282 F2400.00000
G92 E0
G1 X99.712 Y107.952 F7800.000
G1 E2.00000 F2400.00000
G1 F2986.59
G1 X93.548 Y101.788 E2.20741
G1 X93.548 Y102.602 E2.22678
G1 X98.898 Y107.952 E2.40681
G1 X98.084 Y107.952 E2.42618
G1 X93.548 Y103.416 E2.57880
G1 X93.548 Y104.231 E2.59817
G1 X97.269 Y107.952 E2.72341
G1 X96.455 Y107.952 E2.74278
G1 X93.548 Y105.045 E2.84062
G1 X93.548 Y105.859 E2.85999
G1 X95.641 Y107.952 E2.93043
G1 X94.827 Y107.952 E2.94980
G1 X93.548 Y106.673 E2.99286
G1 X93.548 Y107.487 E3.01223
G1 X94.013 Y107.952 E3.02788
G1 Z2.700 F7800.000
G1 X97.527 Y100.678 F7800.000
G1 F2995.53
G1 X93.548 Y104.658 E3.16179
G1 X93.548 Y105.467 E3.18105
G1 X97.527 Y101.488 E3.31495
G1 X97.527 Y102.298 E3.33422
G1 X93.548 Y106.277 E3.46812
G1 X93.548 Y107.087 E3.48739
G1 X97.527 Y103.107 E3.62129
G1 X97.527 Y103.917 E3.64056
G1 X93.548 Y107.896 E3.77446
G1 X93.548 Y107.952 E3.77579
G1 X94.301 Y107.952 E3.79372
G1 X97.527 Y104.727 E3.90227
G1 X97.527 Y105.052 E3.91002
G1 X98.011 Y105.052 E3.92153
G1 X95.111 Y107.952 E4.01911
G1 X95.921 Y107.952 E4.03837
G1 X98.821 Y105.052 E4.13595
G1 X99.630 Y105.052 E4.15522
G1 X96.730 Y107.952 E4.25280
G1 X97.540 Y107.952 E4.27206
G1 X100.457 Y105.035 E4.37022
G1 X100.954 Y104.960 E4.38218
G1 X101.262 Y104.873 E4.38980
G1 X101.545 Y104.757 E4.39708
G1 X98.350 Y107.952 E4.50461
G1 X99.159 Y107.952 E4.52387
G1 X106.229 Y100.882 E4.76177
G1 X106.377 Y101.544 E4.77790
G1 X99.969 Y107.952 E4.99354
G1 X100.811 Y107.920 E5.01359
G1 X106.445 Y102.286 E5.20315
G1 X106.448 Y102.785 E5.21502
G1 X106.421 Y103.119 E5.22300
G1 X101.727 Y107.814 E5.38096
G1 X102.094 Y107.755 E5.38979
G1 X102.779 Y107.571 E5.40669
G1 X106.255 Y104.095 E5.52365
G1 X106.186 Y104.353 E5.52999
G1 X106.047 Y104.717 E5.53927
G1 X105.879 Y105.060 E5.54836
G1 X105.682 Y105.381 E5.55731
G1 X105.412 Y105.733 E5.56787
G1 X104.727 Y106.433 E5.59118
G1 X102.119 Y104.183 F7800.000
G1 F2995.53
G1 X106.008 Y100.293 E5.72207
G1 X105.910 Y100.088 E5.72749
G1 X105.716 Y99.776 E5.73623
G1 X102.346 Y103.146 E5.84962
G1 X102.336 Y102.684 E5.86063
G1 X102.292 Y102.391 E5.86768
G1 X105.368 Y99.314 E5.97121
G1 X105.059 Y98.995 E5.98180
G1 X104.957 Y98.916 E5.98485
G1 X102.089 Y101.784 E6.08137
G1 X101.935 Y101.521 E6.08862
G1 X101.761 Y101.303 E6.09527
G1 X104.495 Y98.568 E6.18729
G1 X103.977 Y98.277 E6.20143
G1 X101.320 Y100.934 E6.29086
G1 X101.084 Y100.802 E6.29729
G1 X100.770 Y100.675 E6.30536
G1 X103.407 Y98.038 E6.39409
G1 X102.780 Y97.854 E6.40961
G1 X100.105 Y100.530 E6.49965
G1 X99.849 Y100.508 E6.50575
G1 X99.323 Y100.501 E6.51826
G1 X102.108 Y97.717 E6.61195
G1 X101.378 Y97.637 E6.62941
G1 X98.514 Y100.501 E6.72579
G1 X97.704 Y100.501 E6.74506
G1 X100.591 Y97.614 E6.84221
G1 X99.785 Y97.611 E6.86139
G1 X93.548 Y103.848 E7.07128
G1 X93.548 Y103.039 E7.09054
G1 X98.979 Y97.607 E7.27331
G1 X98.173 Y97.603 E7.29249
G1 X93.548 Y102.229 E7.44814
G1 X93.548 Y101.419 E7.46740
G1 X97.527 Y97.440 E7.60131
G1 X97.527 Y96.630 E7.62057
G1 X93.548 Y100.610 E7.75447
G1 X93.548 Y99.800 E7.77374
G1 X97.527 Y95.820 E7.90764
G1 X97.527 Y95.011 E7.92691
G1 X93.548 Y98.990 E8.06081
G1 X93.548 Y98.181 E8.08007
G1 X97.527 Y94.201 E8.21398
G1 X97.527 Y93.392 E8.23324
G1 X93.548 Y97.371 E8.36715
G1 X93.548 Y96.561 E8.38641
G1 X97.527 Y92.582 E8.52031
G1 X97.527 Y92.048 E8.53303
G1 X97.252 Y92.048 E8.53958
G1 X93.548 Y95.752 E8.66421
G1 X93.548 Y94.942 E8.68348
G1 X96.442 Y92.048 E8.78087
G1 X95.632 Y92.048 E8.80013
G1 X93.548 Y94.132 E8.87028
G1 X93.548 Y93.323 E8.88955
G1 X94.823 Y92.048 E8.93245
G1 X94.013 Y92.048 E8.95171
G1 X93.548 Y92.513 E8.96737
G1 Z3.000 F7800.000
G1 X97.527 Y92.743 F7800.000
G1 F2985.98
G1 X96.831 Y92.048 E8.99078
G1 X96.017 Y92.048 E9.01015
G1 X97.527 Y93.557 E9.06095
G1 X97.527 Y94.371 E9.08032
G1 X95.203 Y92.048 E9.15851
G1 X94.389 Y92.048 E9.17788
G1 X97.527 Y95.186 E9.28346
G1 X97.527 Y96.000 E9.30283
G1 X93.575 Y92.048 E9.43581
G1 X93.548 Y92.048 E9.43646
G1 X93.548 Y92.834 E9.45518
G1 X97.527 Y96.814 E9.58908
G1 X97.527 Y97.628 E9.60845
G1 X93.548 Y93.648 E9.74235
G1 X93.548 Y94.462 E9.76172
G1 X99.587 Y100.501 E9.96494
G1 X98.773 Y100.501 E9.98430
G1 X93.548 Y95.276 E10.16013
G1 X93.548 Y96.090 E10.17949
G1 X97.959 Y100.501 E10.32792
G1 X97.527 Y100.501 E10.33820
G1 X97.527 Y100.884 E10.34729
G1 X93.548 Y96.904 E10.48120
G1 X93.548 Y97.718 E10.50057
G1 X97.527 Y101.698 E10.63447
G1 X97.527 Y102.512 E10.65384
G1 X93.548 Y98.532 E10.78774
G1 X93.548 Y99.347 E10.80711
G1 X97.527 Y103.326 E10.94102
G1 X97.527 Y104.140 E10.96039
G1 X93.548 Y100.161 E11.09429
G1 X93.548 Y100.975 E11.11366
G1 X97.527 Y104.954 E11.24756
G1 X97.527 Y105.518 E11.26097
G1 X98.091 Y105.518 E11.27438
G1 X97.625 Y105.052 F7800.000
G1 F2985.98
G1 X100.525 Y107.952 E11.37194
G1 X101.304 Y107.917 E11.39050
G1 X98.440 Y105.052 E11.48690
G1 X99.254 Y105.052 E11.50627
G1 X102.040 Y107.839 E11.60003
G1 X102.566 Y107.753 E11.61271
G1 X102.726 Y107.710 E11.61665
G1 X100.045 Y105.030 E11.70684
G1 X100.328 Y104.996 E11.71361
G1 X100.725 Y104.896 E11.72336
G1 X103.362 Y107.532 E11.81208
G1 X103.612 Y107.441 E11.81843
G1 X103.934 Y107.291 E11.82688
G1 X101.287 Y104.644 E11.91595
G1 X101.511 Y104.490 E11.92241
G1 X101.739 Y104.282 E11.92976
G1 X104.458 Y107.001 E12.02127
G1 X104.737 Y106.823 E12.02915
G1 X104.929 Y106.658 E12.03516
G1 X102.075 Y103.804 E12.13119
G1 X102.110 Y103.761 E12.13251
G1 X102.185 Y103.559 E12.13764
G1 X102.286 Y103.201 E12.14649
G1 X105.350 Y106.265 E12.24958
G1 X105.707 Y105.807 E12.26338
G1 X102.347 Y102.448 E12.37642
G1 X102.287 Y101.899 E12.38955
G1 X102.248 Y101.730 E12.39369
G1 X102.138 Y101.424 E12.40142
G1 X105.998 Y105.284 E12.53131
G1 X106.179 Y104.837 E12.54279
G1 X106.219 Y104.691 E12.54638
G1 X99.137 Y97.609 E12.78468
G1 X99.955 Y97.613 E12.80414
G1 X106.372 Y104.031 E13.02008
G1 X106.445 Y103.289 E13.03781
G1 X100.784 Y97.628 E13.22830
G1 X101.162 Y97.656 E13.23734
G1 X101.696 Y97.726 E13.25015
G1 X106.422 Y102.452 E13.40918
G1 X106.376 Y102.000 E13.42000
G1 X106.265 Y101.482 E13.43261
G1 X102.762 Y97.978 E13.55050
G1 X103.295 Y98.173 E13.56402
G1 X103.675 Y98.355 E13.57405
G1 X104.114 Y98.618 E13.58622
G1 X104.585 Y98.987 E13.60044
G1 X105.055 Y99.457 E13.61626
G1 X101.488 Y100.774 F7800.000
G1 F2985.98
G1 X98.319 Y97.606 E13.72289
G1 X97.502 Y97.602 E13.74234
G1 X100.416 Y100.516 E13.84039
G1 X99.587 Y100.501 E13.86011
G1 E11.86011 F2400.00000
G92 E0
G1 X99.711 Y107.952 F7800.000
G1 E2.00000 F2400.00000
G1 F2985.98
G1 X93.548 Y101.789 E2.20740
G1 X93.548 Y102.603 E2.22677
G1 X98.897 Y107.952 E2.40678
G1 X98.083 Y107.952 E2.42615
G1 X93.548 Y103.417 E2.57877
G1 X93.548 Y104.231 E2.59814
G1 X97.269 Y107.952 E2.72336
G1 X96.455 Y107.952 E2.74273
G1 X93.548 Y105.045 E2.84057
G1 X93.548 Y105.859 E2.85993
G1 X95.641 Y107.952 E2.93038
G1 X94.827 Y107.952 E2.94975
G1 X93.548 Y106.673 E2.99280
G1 X93.548 Y107.487 E3.01217
G1 X94.013 Y107.952 E3.02782
G1 Z3.300 F7800.000
G1 X97.527 Y100.678 F7800.000
G1 F2995.31
G1 X93.548 Y104.658 E3.16172
G1 X93.548 Y105.468 E3.18099
G1 X97.527 Y101.488 E3.31489
G1 X97.527 Y102.298 E3.33416
G1 X93.548 Y106.277 E3.46806
G1 X93.548 Y107.087 E3.48733
G1 X97.527 Y103.107 E3.62123
G1 X97.527 Y103.917 E3.64050
G1 X93.548 Y107.897 E3.77440
G1 X93.548 Y107.952 E3.77573
G1 X94.302 Y107.952 E3.79366
G1 X97.527 Y104.727 E3.90220
G1 X97.527 Y105.052 E3.90995
G1 X98.011 Y105.052 E3.92146
G1 X95.111 Y107.952 E4.01904
G1 X95.921 Y107.952 E4.03831
G1 X98.821 Y105.052 E4.13589
G1 X99.631 Y105.052 E4.15515
G1 X96.731 Y107.952 E4.25273
G1 X97.540 Y107.952 E4.27200
G1 X100.457 Y105.036 E4.37015
G1 X100.956 Y104.960 E4.38216
G1 X101.271 Y104.870 E4.38995
G1 X101.546 Y104.756 E4.39702
G1 X98.350 Y107.952 E4.50456
G1 X99.160 Y107.952 E4.52382
G1 X106.229 Y100.883 E4.76169
G1 X106.316 Y101.215 E4.76985
G1 X106.377 Y101.544 E4.77782
G1 X99.969 Y107.952 E4.99345
G1 X100.812 Y107.919 E5.01351
G1 X106.444 Y102.287 E5.20304
G1 X106.449 Y102.778 E5.21473
G1 X106.421 Y103.120 E5.22289
G1 X101.727 Y107.814 E5.38085
G1 X102.101 Y107.753 E5.38986
G1 X102.779 Y107.571 E5.40658
G1 X106.254 Y104.096 E5.52351
G1 X106.179 Y104.372 E5.53030
G1 X106.044 Y104.723 E5.53926
G1 X105.881 Y105.056 E5.54807
G1 X105.692 Y105.366 E5.55673
G1 X105.407 Y105.739 E5.56789
G1 X104.735 Y106.425 E5.59073
G1 X102.121 Y104.181 F7800.000
G1 F2995.31
G1 X106.009 Y100.293 E5.72155
G1 X105.916 Y100.099 E5.72667
G1 X105.716 Y99.776 E5.73571
G1 X102.346 Y103.146 E5.84910
G1 X102.334 Y102.679 E5.86022
G1 X102.292 Y102.391 E5.86715
G1 X105.368 Y99.315 E5.97066
G1 X105.050 Y98.987 E5.98152
G1 X104.958 Y98.915 E5.98430
G1 X102.089 Y101.784 E6.08084
G1 X101.935 Y101.521 E6.08810
G1 X101.761 Y101.303 E6.09473
G1 X104.495 Y98.568 E6.18676
G1 X103.977 Y98.277 E6.20090
G1 X101.320 Y100.934 E6.29032
G1 X101.096 Y100.807 E6.29644
G1 X100.770 Y100.675 E6.30482
G1 X103.407 Y98.038 E6.39355
G1 X102.780 Y97.854 E6.40908
G1 X100.105 Y100.530 E6.49912
G1 X99.843 Y100.508 E6.50536
G1 X99.323 Y100.501 E6.51773
G1 X102.107 Y97.718 E6.61140
G1 X101.378 Y97.637 E6.62886
G1 X98.514 Y100.501 E6.72524
G1 X97.704 Y100.501 E6.74450
G1 X100.592 Y97.614 E6.84167
G1 X99.786 Y97.610 E6.86085
G1 X93.548 Y103.848 E7.07076
G1 X93.548 Y103.039 E7.09002
G1 X98.980 Y97.607 E7.27280
G1 X98.174 Y97.603 E7.29198
G1 X93.548 Y102.229 E7.44764
G1 X93.548 Y101.419 E7.46690
G1 X97.527 Y97.440 E7.60081
G1 X97.527 Y96.630 E7.62007
G1 X93.548 Y100.610 E7.75398
G1 X93.548 Y99.800 E7.77324
G1 X97.527 Y95.821 E7.90714
G1 X97.527 Y95.011 E7.92641
G1 X93.548 Y98.990 E8.06031
G1 X93.548 Y98.181 E8.07958
G1 X97.527 Y94.201 E8.21348
G1 X97.527 Y93.392 E8.23275
G1 X93.548 Y97.371 E8.36665
G1 X93.548 Y96.561 E8.38591
G1 X97.527 Y92.582 E8.51982
G1 X97.527 Y92.048 E8.53253
G1 X97.252 Y92.048 E8.53908
G1 X93.548 Y95.752 E8.66372
G1 X93.548 Y94.942 E8.68298
G1 X96.442 Y92.048 E8.78038
G1 X95.632 Y92.048 E8.79964
G1 X93.548 Y94.132 E8.86979
G1 X93.548 Y93.323 E8.88905
G1 X94.823 Y92.048 E8.93196
G1 X94.013 Y92.048 E8.95122
G1 X93.548 Y92.513 E8.96688
G1 Z3.600 F7800.000
G1 X97.527 Y92.743 F7800.000
G1 F2986.03
G1 X96.832 Y92.048 E8.99026
G1 X96.018 Y92.048 E9.00963
G1 X97.527 Y93.557 E9.06041
G1 X97.527 Y94.371 E9.07978
G1 X95.204 Y92.048 E9.15796
G1 X94.390 Y92.048 E9.17733
G1 X97.527 Y95.185 E9.28289
G1 X97.527 Y95.999 E9.30226
G1 X93.576 Y92.048 E9.43522
G1 X93.548 Y92.048 E9.43589
G1 X93.548 Y92.834 E9.45459
G1 X97.527 Y96.813 E9.58849
G1 X97.527 Y97.627 E9.60786
G1 X93.548 Y93.648 E9.74177
G1 X93.548 Y94.462 E9.76114
G1 X99.587 Y100.501 E9.96436
G1 X98.773 Y100.501 E9.98373
G1 X93.548 Y95.276 E10.15957
G1 X93.548 Y96.090 E10.17894
G1 X97.959 Y100.501 E10.32738
G1 X97.527 Y100.501 E10.33766
G1 X97.527 Y100.883 E10.34675
G1 X93.548 Y96.904 E10.48066
G1 X93.548 Y97.718 E10.50003
G1 X97.527 Y101.698 E10.63393
G1 X97.527 Y102.512 E10.65330
G1 X93.548 Y98.532 E10.78720
G1 X93.548 Y99.346 E10.80657
G1 X97.527 Y103.326 E10.94048
G1 X97.527 Y104.140 E10.95985
G1 X93.548 Y100.160 E11.09375
G1 X93.548 Y100.974 E11.11312
G1 X97.527 Y104.954 E11.24702
G1 X97.527 Y105.518 E11.26044
G1 X98.091 Y105.518 E11.27385
G1 X97.626 Y105.052 F7800.000
G1 F2986.03
G1 X100.525 Y107.952 E11.37141
G1 X101.305 Y107.918 E11.38999
G1 X98.440 Y105.052 E11.48641
G1 X99.254 Y105.052 E11.50578
G1 X102.040 Y107.838 E11.59952
G1 X102.559 Y107.755 E11.61203
G1 X102.726 Y107.710 E11.61614
G1 X100.045 Y105.030 E11.70633
G1 X100.347 Y104.989 E11.71358
G1 X100.725 Y104.896 E11.72283
G1 X103.362 Y107.532 E11.81155
G1 X103.638 Y107.430 E11.81857
G1 X103.935 Y107.291 E11.82636
G1 X101.287 Y104.644 E11.91546
G1 X101.520 Y104.482 E11.92220
G1 X101.739 Y104.282 E11.92927
G1 X104.458 Y107.001 E12.02076
G1 X104.739 Y106.822 E12.02867
G1 X104.930 Y106.658 E12.03466
G1 X102.076 Y103.804 E12.13069
G1 X102.184 Y103.563 E12.13698
G1 X102.286 Y103.200 E12.14594
G1 X105.350 Y106.264 E12.24903
G1 X105.706 Y105.806 E12.26284
G1 X102.347 Y102.448 E12.37585
G1 X102.336 Y102.219 E12.38130
G1 X102.289 Y101.909 E12.38877
G1 X102.211 Y101.617 E12.39595
G1 X102.137 Y101.423 E12.40089
G1 X105.998 Y105.283 E12.53080
G1 X106.220 Y104.692 E12.54585
G1 X99.138 Y97.610 E12.78414
G1 X99.956 Y97.613 E12.80360
G1 X106.372 Y104.030 E13.01951
G1 X106.445 Y103.289 E13.03722
G1 X100.784 Y97.628 E13.22772
G1 X101.154 Y97.655 E13.23654
G1 X101.699 Y97.728 E13.24963
G1 X106.422 Y102.452 E13.40856
G1 X106.379 Y102.016 E13.41899
G1 X106.264 Y101.480 E13.43203
G1 X102.763 Y97.978 E13.54984
G1 X103.306 Y98.178 E13.56361
G1 X103.670 Y98.352 E13.57322
G1 X104.109 Y98.615 E13.58540
G1 X104.593 Y98.994 E13.60001
G1 X105.063 Y99.465 E13.61584
G1 X101.489 Y100.775 F7800.000
G1 F2986.03
G1 X98.320 Y97.606 E13.72246
G1 X97.502 Y97.602 E13.74192
G1 X100.416 Y100.516 E13.83996
G1 X99.587 Y100.501 E13.85968
G1 E11.85968 F2400.00000
G92 E0
G1 X99.712 Y107.952 F7800.000
G1 E2.00000 F2400.00000
G1 F2986.03
G1 X93.548 Y101.788 E2.20741
G1 X93.548 Y102.603 E2.22678
G1 X98.897 Y107.952 E2.40679
G1 X98.083 Y107.952 E2.42616
G1 X93.548 Y103.417 E2.57879
G1 X93.548 Y104.231 E2.59816
G1 X97.269 Y107.952 E2.72339
G1 X96.455 Y107.952 E2.74276
G1 X93.548 Y105.045 E2.84059
G1 X93.548 Y105.859 E2.85996
G1 X95.641 Y107.952 E2.93041
G1 X94.827 Y107.952 E2.94978
G1 X93.548 Y106.673 E2.99283
G1 X93.548 Y107.487 E3.01220
G1 X94.013 Y107.952 E3.02785
G1 Z3.900 F7800.000
G1 X97.527 Y100.678 F7800.000
G1 F2996.09
G1 X93.548 Y104.658 E3.16176
G1 X93.548 Y105.467 E3.18102
G1 X97.527 Y101.488 E3.31493
G1 X97.527 Y102.298 E3.33419
G1 X93.548 Y106.277 E3.46809
G1 X93.548 Y107.087 E3.48736
G1 X97.527 Y103.107 E3.62126
G1 X97.527 Y103.917 E3.64053
G1 X93.548 Y107.896 E3.77443
G1 X93.548 Y107.952 E3.77577
G1 X94.301 Y107.952 E3.79369
G1 X97.527 Y104.726 E3.90224
G1 X97.527 Y105.052 E3.91000
G1 X98.011 Y105.052 E3.92151
G1 X95.111 Y107.952 E4.01909
G1 X95.921 Y107.952 E4.03835
G1 X98.820 Y105.052 E4.13593
G1 X99.630 Y105.052 E4.15520
G1 X96.730 Y107.952 E4.25278
G1 X97.540 Y107.952 E4.27204
G1 X100.457 Y105.035 E4.37020
G1 X100.952 Y104.961 E4.38210
G1 X101.256 Y104.875 E4.38962
G1 X101.545 Y104.757 E4.39706
G1 X98.349 Y107.952 E4.50460
G1 X99.159 Y107.952 E4.52386
G1 X106.228 Y100.883 E4.76174
G1 X106.313 Y101.202 E4.76959
G1 X106.377 Y101.544 E4.77787
G1 X99.969 Y107.952 E4.99350
G1 X100.810 Y107.921 E5.01352
G1 X106.445 Y102.286 E5.20313
G1 X106.448 Y102.793 E5.21518
G1 X106.421 Y103.119 E5.22297
G1 X101.727 Y107.813 E5.38093
G1 X102.087 Y107.756 E5.38959
G1 X102.780 Y107.570 E5.40667
G1 X106.256 Y104.094 E5.52365
G1 X106.192 Y104.333 E5.52955
G1 X106.050 Y104.711 E5.53915
G1 X105.877 Y105.064 E5.54852
G1 X105.672 Y105.395 E5.55777
G1 X105.417 Y105.727 E5.56773
G1 X104.719 Y106.441 E5.59150
G1 X102.118 Y104.184 F7800.000
G1 F2996.09
G1 X106.008 Y100.294 E5.72239
G1 X105.904 Y100.077 E5.72811
G1 X105.716 Y99.776 E5.73655
G1 X102.346 Y103.146 E5.84995
G1 X102.336 Y102.689 E5.86082
G1 X102.292 Y102.391 E5.86800
G1 X105.369 Y99.313 E5.97155
G1 X105.067 Y99.002 E5.98187
G1 X104.957 Y98.916 E5.98519
G1 X102.092 Y101.781 E6.08158
G1 X101.935 Y101.521 E6.08880
G1 X101.761 Y101.303 E6.09545
G1 X104.495 Y98.568 E6.18748
G1 X103.977 Y98.276 E6.20162
G1 X101.320 Y100.934 E6.29105
G1 X101.072 Y100.796 E6.29779
G1 X100.769 Y100.674 E6.30555
G1 X103.406 Y98.038 E6.39428
G1 X102.780 Y97.854 E6.40980
G1 X100.105 Y100.530 E6.49984
G1 X99.323 Y100.501 E6.51845
G1 X102.106 Y97.718 E6.61210
G1 X101.378 Y97.637 E6.62953
G1 X98.514 Y100.501 E6.72592
G1 X97.704 Y100.501 E6.74518
G1 X100.601 Y97.604 E6.84267
G1 X99.794 Y97.602 E6.86187
G1 X93.548 Y103.848 E7.07205
G1 X93.548 Y103.038 E7.09132
G1 X98.985 Y97.602 E7.27426
G1 X98.175 Y97.602 E7.29353
G1 X93.548 Y102.229 E7.44923
G1 X93.548 Y101.419 E7.46849
G1 X97.527 Y97.440 E7.60240
G1 X97.527 Y96.630 E7.62166
G1 X93.548 Y100.609 E7.75557
G1 X93.548 Y99.800 E7.77483
G1 X97.527 Y95.820 E7.90874
G1 X97.527 Y95.011 E7.92800
G1 X93.548 Y98.990 E8.06190
G1 X93.548 Y98.181 E8.08117
G1 X97.527 Y94.201 E8.21507
G1 X97.527 Y93.391 E8.23434
G1 X93.548 Y97.371 E8.36824
G1 X93.548 Y96.561 E8.38750
G1 X97.527 Y92.582 E8.52141
G1 X97.527 Y92.048 E8.53412
G1 X97.252 Y92.048 E8.54067
G1 X93.548 Y95.752 E8.66531
G1 X93.548 Y94.942 E8.68457
G1 X96.442 Y92.048 E8.78196
G1 X95.632 Y92.048 E8.80122
G1 X93.548 Y94.132 E8.87137
G1 X93.548 Y93.323 E8.89064
G1 X94.823 Y92.048 E8.93354
G1 X94.013 Y92.048 E8.95280
G1 X93.548 Y92.513 E8.96846
G1 Z4.200 F7800.000
G1 X97.527 Y92.741 F7800.000
G1 F2986.59
G1 X96.833 Y92.048 E8.99180
G1 X96.019 Y92.048 E9.01117
G1 X97.527 Y93.556 E9.06191
G1 X97.527 Y94.370 E9.08128
G1 X95.205 Y92.048 E9.15942
G1 X94.391 Y92.048 E9.17879
G1 X97.527 Y95.184 E9.28432
G1 X97.527 Y95.998 E9.30369
G1 X93.577 Y92.048 E9.43661
G1 X93.548 Y92.048 E9.43730
G1 X93.548 Y92.833 E9.45598
G1 X97.527 Y96.812 E9.58989
G1 X97.527 Y97.626 E9.60926
G1 X93.548 Y93.647 E9.74316
G1 X93.548 Y94.461 E9.76253
G1 X99.588 Y100.501 E9.96579
G1 X98.774 Y100.501 E9.98516
G1 X93.548 Y95.275 E10.16102
G1 X93.548 Y96.089 E10.18040
G1 X97.960 Y100.501 E10.32886
G1 X97.527 Y100.501 E10.33916
G1 X97.527 Y100.883 E10.34824
G1 X93.548 Y96.903 E10.48214
G1 X93.548 Y97.717 E10.50151
G1 X97.527 Y101.697 E10.63541
G1 X97.527 Y102.511 E10.65479
G1 X93.548 Y98.532 E10.78869
G1 X93.548 Y99.346 E10.80806
G1 X97.527 Y103.325 E10.94196
G1 X97.527 Y104.139 E10.96134
G1 X93.548 Y100.160 E11.09524
G1 X93.548 Y100.974 E11.11461
G1 X97.527 Y104.953 E11.24851
G1 X97.527 Y105.518 E11.26194
G1 X98.091 Y105.518 E11.27536
G1 X97.626 Y105.052 F7800.000
G1 F2986.59
G1 X100.525 Y107.951 E11.37292
G1 X101.307 Y107.919 E11.39153
G1 X98.440 Y105.052 E11.48800
G1 X99.254 Y105.052 E11.50737
G1 X102.039 Y107.837 E11.60107
G1 X102.545 Y107.758 E11.61325
G1 X102.725 Y107.709 E11.61770
G1 X100.046 Y105.030 E11.70786
G1 X100.367 Y104.988 E11.71557
G1 X100.726 Y104.896 E11.72439
G1 X103.362 Y107.532 E11.81310
G1 X103.937 Y107.292 E11.82791
G1 X101.287 Y104.643 E11.91706
G1 X101.539 Y104.466 E11.92438
G1 X101.739 Y104.281 E11.93087
G1 X104.466 Y107.008 E12.02263
G1 X104.736 Y106.824 E12.03040
G1 X104.931 Y106.658 E12.03648
G1 X102.076 Y103.804 E12.13253
G1 X102.181 Y103.571 E12.13860
G1 X102.286 Y103.199 E12.14779
G1 X105.350 Y106.263 E12.25089
G1 X105.705 Y105.804 E12.26469
G1 X102.347 Y102.447 E12.37768
G1 X102.335 Y102.229 E12.38286
G1 X102.274 Y101.837 E12.39232
G1 X102.135 Y101.420 E12.40277
G1 X105.997 Y105.282 E12.53272
G1 X106.221 Y104.692 E12.54774
G1 X99.131 Y97.602 E12.78633
G1 X99.945 Y97.602 E12.80570
G1 X106.372 Y104.029 E13.02197
G1 X106.446 Y103.288 E13.03966
G1 X100.788 Y97.631 E13.23003
G1 X101.704 Y97.732 E13.25195
G1 X106.422 Y102.450 E13.41071
G1 X106.383 Y102.047 E13.42036
G1 X106.262 Y101.476 E13.43424
G1 X102.765 Y97.979 E13.55191
G1 X103.327 Y98.187 E13.56617
G1 X103.661 Y98.347 E13.57497
G1 X104.100 Y98.609 E13.58714
G1 X104.609 Y99.009 E13.60254
G1 X105.080 Y99.480 E13.61839
G1 X101.490 Y100.775 F7800.000
G1 F2986.59
G1 X98.317 Y97.602 E13.72516
G1 X97.502 Y97.602 E13.74454
G1 X100.417 Y100.516 E13.84260
G1 X99.588 Y100.501 E13.86232
G1 E11.86232 F2400.00000
G92 E0
G1 X99.712 Y107.952 F7800.000
G1 E2.00000 F2400.00000
G1 F2986.59
G1 X93.548 Y101.788 E2.20742
G1 X93.548 Y102.602 E2.22679
G1 X98.898 Y107.952 E2.40682
G1 X98.084 Y107.952 E2.42619
G1 X93.548 Y103.416 E2.57882
G1 X93.548 Y104.230 E2.59819
G1 X97.270 Y107.952 E2.72343
G1 X96.455 Y107.952 E2.74280
G1 X93.548 Y105.045 E2.84065
G1 X93.548 Y105.859 E2.86002
G1 X95.641 Y107.952 E2.93047
G1 X94.827 Y107.952 E2.94984
G1 X93.548 Y106.673 E2.99289
G1 X93.548 Y107.487 E3.01226
G1 X94.013 Y107.952 E3.02792
G1 Z4.500 F7800.000
G1 X97.527 Y100.678 F7800.000
G1 F2996.49
G1 X93.548 Y104.657 E3.16182
G1 X93.548 Y105.467 E3.18108
G1 X97.527 Y101.488 E3.31499
G1 X97.527 Y102.297 E3.33425
G1 X93.548 Y106.277 E3.46816
G1 X93.548 Y107.086 E3.48742
G1 X97.527 Y103.107 E3.62132
G1 X97.527 Y103.916 E3.64059
G1 X93.548 Y107.896 E3.77449
G1 X93.548 Y107.952 E3.77583
G1 X94.301 Y107.952 E3.79376
G1 X97.527 Y104.726 E3.90231
G1 X97.527 Y105.052 E3.91008
G1 X98.010 Y105.052 E3.92158
G1 X95.111 Y107.952 E4.01916
G1 X95.920 Y107.952 E4.03842
G1 X98.820 Y105.052 E4.13600
G1 X99.630 Y105.052 E4.15527
G1 X96.730 Y107.952 E4.25285
G1 X97.539 Y107.952 E4.27211
G1 X100.457 Y105.035 E4.37028
G1 X100.852 Y104.981 E4.37976
G1 X101.160 Y104.907 E4.38730
G1 X101.546 Y104.756 E4.39716
G1 X98.349 Y107.952 E4.50473
G1 X99.159 Y107.952 E4.52399
G1 X106.227 Y100.884 E4.76182
G1 X106.310 Y101.189 E4.76934
G1 X106.376 Y101.545 E4.77795
G1 X99.968 Y107.952 E4.99355
G1 X100.808 Y107.922 E5.01354
G1 X106.445 Y102.285 E5.20322
G1 X106.447 Y102.807 E5.21565
G1 X106.422 Y103.118 E5.22306
G1 X101.727 Y107.813 E5.38103
G1 X102.073 Y107.759 E5.38934
G1 X102.781 Y107.569 E5.40678
G1 X106.259 Y104.091 E5.52382
G1 X106.204 Y104.294 E5.52883
G1 X106.055 Y104.698 E5.53906
G1 X105.872 Y105.073 E5.54900
G1 X105.652 Y105.423 E5.55884
G1 X105.427 Y105.715 E5.56760
G1 X104.702 Y106.457 E5.59229
G1 X102.117 Y104.184 F7800.000
G1 F2996.49
G1 X106.007 Y100.294 E5.72319
G1 X105.891 Y100.054 E5.72952
G1 X105.716 Y99.776 E5.73736
G1 X102.346 Y103.146 E5.85076
G1 X102.336 Y102.700 E5.86137
G1 X102.291 Y102.391 E5.86880
G1 X105.370 Y99.312 E5.97240
G1 X104.959 Y98.913 E5.98603
G1 X102.089 Y101.784 E6.08263
G1 X101.935 Y101.522 E6.08985
G1 X101.760 Y101.302 E6.09653
G1 X104.495 Y98.568 E6.18854
G1 X103.976 Y98.277 E6.20269
G1 X101.319 Y100.934 E6.29209
G1 X101.048 Y100.785 E6.29945
G1 X100.769 Y100.674 E6.30659
G1 X103.407 Y98.037 E6.39534
G1 X102.781 Y97.853 E6.41086
G1 X100.104 Y100.530 E6.50093
G1 X99.323 Y100.501 E6.51953
G1 X102.104 Y97.721 E6.61310
G1 X101.373 Y97.642 E6.63059
G1 X98.513 Y100.501 E6.72681
G1 X97.704 Y100.501 E6.74607
G1 X100.601 Y97.604 E6.84355
G1 X99.794 Y97.602 E6.86275
G1 X93.548 Y103.848 E7.07293
G1 X93.548 Y103.038 E7.09219
G1 X98.984 Y97.602 E7.27513
G1 X98.175 Y97.602 E7.29439
G1 X93.548 Y102.229 E7.45009
G1 X93.548 Y101.419 E7.46935
G1 X97.527 Y97.439 E7.60326
G1 X97.527 Y96.630 E7.62252
G1 X93.548 Y100.609 E7.75642
G1 X93.548 Y99.800 E7.77569
G1 X97.527 Y95.820 E7.90959
G1 X97.527 Y95.011 E7.92886
G1 X93.548 Y98.990 E8.06276
G1 X93.548 Y98.180 E8.08202
G1 X97.527 Y94.201 E8.21593
G1 X97.527 Y93.391 E8.23519
G1 X93.548 Y97.371 E8.36910
G1 X93.548 Y96.561 E8.38836
G1 X97.527 Y92.582 E8.52226
G1 X97.527 Y92.048 E8.53497
G1 X97.252 Y92.048 E8.54153
G1 X93.548 Y95.752 E8.66616
G1 X93.548 Y94.942 E8.68542
G1 X96.442 Y92.048 E8.78281
G1 X95.632 Y92.048 E8.80207
G1 X93.548 Y94.132 E8.87222
G1 X93.548 Y93.323 E8.89148
G1 X94.823 Y92.048 E8.93439
G1 X94.013 Y92.048 E8.95365
G1 X93.548 Y92.513 E8.96931
G1 Z4.800 F7800.000
G1 X97.527 Y92.740 F7800.000
G1 F2986.85
G1 X96.835 Y92.048 E8.99261
G1 X96.021 Y92.048 E9.01198
G1 X97.527 Y93.554 E9.06267
G1 X97.527 Y94.368 E9.08205
G1 X95.206 Y92.048 E9.16014
G1 X94.392 Y92.048 E9.17951
G1 X97.527 Y95.183 E9.28500
G1 X97.527 Y95.997 E9.30437
G1 X93.578 Y92.048 E9.43726
G1 X93.548 Y92.048 E9.43798
G1 X93.548 Y92.832 E9.45663
G1 X97.527 Y96.811 E9.59053
G1 X97.527 Y97.625 E9.60991
G1 X93.548 Y93.646 E9.74381
G1 X93.548 Y94.460 E9.76318
G1 X99.589 Y100.501 E9.96647
G1 X98.775 Y100.501 E9.98584
G1 X93.548 Y95.274 E10.16174
G1 X93.548 Y96.088 E10.18111
G1 X97.961 Y100.501 E10.32961
G1 X97.527 Y100.501 E10.33992
G1 X97.527 Y100.882 E10.34898
G1 X93.548 Y96.903 E10.48288
G1 X93.548 Y97.717 E10.50225
G1 X97.527 Y101.696 E10.63616
G1 X97.527 Y102.510 E10.65553
G1 X93.548 Y98.531 E10.78944
G1 X93.548 Y99.345 E10.80881
G1 X97.527 Y103.325 E10.94271
G1 X97.527 Y104.139 E10.96208
G1 X93.548 Y100.159 E11.09599
G1 X93.548 Y100.973 E11.11536
G1 X97.527 Y104.953 E11.24926
G1 X97.527 Y105.518 E11.26270
G1 X98.092 Y105.518 E11.27614
G1 X97.627 Y105.052 F7800.000
G1 F2986.85
G1 X100.526 Y107.951 E11.37368
G1 X101.309 Y107.921 E11.39234
G1 X98.441 Y105.052 E11.48885
G1 X99.255 Y105.052 E11.50822
G1 X102.038 Y107.836 E11.60188
G1 X102.531 Y107.761 E11.61373
G1 X102.725 Y107.708 E11.61852
G1 X100.046 Y105.029 E11.70867
G1 X100.399 Y104.978 E11.71717
G1 X100.727 Y104.896 E11.72519
G1 X103.363 Y107.532 E11.81390
G1 X103.939 Y107.294 E11.82873
G1 X101.288 Y104.642 E11.91794
G1 X101.558 Y104.451 E11.92582
G1 X101.739 Y104.280 E11.93175
G1 X104.466 Y107.007 E12.02351
G1 X104.738 Y106.823 E12.03132
G1 X104.932 Y106.658 E12.03737
G1 X102.077 Y103.803 E12.13343
G1 X102.178 Y103.579 E12.13928
G1 X102.286 Y103.198 E12.14870
G1 X105.350 Y106.262 E12.25180
G1 X105.705 Y105.803 E12.26561
G1 X102.347 Y102.445 E12.37860
G1 X102.296 Y101.947 E12.39051
G1 X102.249 Y101.740 E12.39556
G1 X102.133 Y101.417 E12.40371
G1 X105.997 Y105.281 E12.53372
G1 X106.223 Y104.693 E12.54872
G1 X99.132 Y97.602 E12.78733
G1 X99.946 Y97.602 E12.80670
G1 X106.372 Y104.027 E13.02292
G1 X106.447 Y103.288 E13.04060
G1 X100.788 Y97.630 E13.23100
G1 X101.536 Y97.702 E13.24888
G1 X101.708 Y97.735 E13.25305
G1 X106.422 Y102.449 E13.41167
G1 X106.388 Y102.078 E13.42054
G1 X106.260 Y101.473 E13.43525
G1 X102.767 Y97.980 E13.55278
G1 X103.208 Y98.137 E13.56391
G1 X103.654 Y98.344 E13.57559
G1 X103.979 Y98.532 E13.58453
G1 X104.315 Y98.763 E13.59424
G1 X104.622 Y99.021 E13.60377
G1 X105.094 Y99.493 E13.61967
G1 X101.491 Y100.775 F7800.000
G1 F2986.85
G1 X98.318 Y97.602 E13.72646
G1 X97.503 Y97.602 E13.74583
G1 X100.418 Y100.516 E13.84389
G1 X99.589 Y100.501 E13.86360
G1 E11.86360 F2400.00000
G92 E0
G1 X99.712 Y107.952 F7800.000
G1 E2.00000 F2400.00000
G1 F2986.85
G1 X93.548 Y101.788 E2.20744
G1 X93.548 Y102.602 E2.22681
G1 X98.898 Y107.952 E2.40685
G1 X98.084 Y107.952 E2.42622
G1 X93.548 Y103.416 E2.57886
G1 X93.548 Y104.230 E2.59823
G1 X97.270 Y107.952 E2.72348
G1 X96.456 Y107.952 E2.74285
G1 X93.548 Y105.044 E2.84070
G1 X93.548 Y105.859 E2.86007
G1 X95.641 Y107.952 E2.93052
G1 X94.827 Y107.952 E2.94990
G1 X93.548 Y106.673 E2.99295
G1 X93.548 Y107.487 E3.01232
G1 X94.013 Y107.952 E3.02798
G1 Z5.100 F7800.000
G1 X97.527 Y100.678 F7800.000
G1 F2996.87
G1 X93.548 Y104.657 E3.16188
G1 X93.548 Y105.467 E3.18115
G1 X97.527 Y101.487 E3.31505
G1 X97.527 Y102.297 E3.33431
G1 X93.548 Y106.276 E3.46822
G1 X93.548 Y107.086 E3.48748
G1 X97.527 Y103.107 E3.62139
G1 X97.527 Y103.916 E3.64065
G1 X93.548 Y107.896 E3.77455
G1 X93.548 Y107.952 E3.77590
G1 X94.301 Y107.952 E3.79382
G1 X97.527 Y104.726 E3.90239
G1 X97.527 Y105.052 E3.91016
G1 X98.010 Y105.052 E3.92165
G1 X95.110 Y107.952 E4.01923
G1 X95.920 Y107.952 E4.03849
G1 X98.820 Y105.052 E4.13607
G1 X99.629 Y105.052 E4.15534
G1 X96.729 Y107.952 E4.25292
G1 X97.539 Y107.952 E4.27218
G1 X100.457 Y105.035 E4.37036
G1 X101.002 Y104.947 E4.38350
G1 X101.225 Y104.885 E4.38902
G1 X101.546 Y104.755 E4.39725
G1 X98.349 Y107.952 E4.50484
G1 X99.158 Y107.952 E4.52411
G1 X106.225 Y100.885 E4.76191
G1 X106.307 Y101.176 E4.76911
G1 X106.375 Y101.545 E4.77804
G1 X99.968 Y107.952 E4.99362
G1 X100.806 Y107.924 E5.01357
G1 X106.445 Y102.284 E5.20334
G1 X106.447 Y102.822 E5.21613
G1 X106.422 Y103.117 E5.22317
G1 X101.727 Y107.812 E5.38116
G1 X102.059 Y107.762 E5.38913
G1 X102.781 Y107.568 E5.40693
G1 X106.261 Y104.088 E5.52402
G1 X106.061 Y104.685 E5.53900
G1 X105.867 Y105.082 E5.54951
G1 X105.632 Y105.452 E5.55993
G1 X105.437 Y105.703 E5.56750
G1 X104.685 Y106.473 E5.59311
G1 X102.116 Y104.184 F7800.000
G1 F2996.87
G1 X106.006 Y100.294 E5.72401
G1 X105.879 Y100.032 E5.73095
G1 X105.716 Y99.775 E5.73819
G1 X102.346 Y103.146 E5.85161
G1 X102.337 Y102.710 E5.86198
G1 X102.291 Y102.391 E5.86965
G1 X105.369 Y99.312 E5.97324
G1 X105.096 Y99.029 E5.98260
G1 X104.959 Y98.914 E5.98688
G1 X102.088 Y101.784 E6.08347
G1 X101.936 Y101.522 E6.09067
G1 X101.760 Y101.303 E6.09737
G1 X104.496 Y98.566 E6.18943
G1 X103.976 Y98.277 E6.20360
G1 X101.318 Y100.935 E6.29301
G1 X101.173 Y100.843 E6.29711
G1 X100.769 Y100.674 E6.30752
G1 X103.407 Y98.037 E6.39627
G1 X102.781 Y97.853 E6.41179
G1 X100.103 Y100.531 E6.50190
G1 X99.323 Y100.501 E6.52049
G1 X102.101 Y97.723 E6.61399
G1 X101.374 Y97.640 E6.63141
G1 X98.513 Y100.501 E6.72768
G1 X97.703 Y100.501 E6.74694
G1 X100.600 Y97.605 E6.84442
G1 X99.794 Y97.602 E6.86361
G1 X93.548 Y103.848 E7.07378
G1 X93.548 Y103.038 E7.09304
G1 X98.984 Y97.602 E7.27598
G1 X98.175 Y97.602 E7.29524
G1 X93.548 Y102.228 E7.45093
G1 X93.548 Y101.419 E7.47019
G1 X97.527 Y97.439 E7.60409
G1 X97.527 Y96.630 E7.62336
G1 X93.548 Y100.609 E7.75726
G1 X93.548 Y99.800 E7.77652
G1 X97.527 Y95.820 E7.91043
G1 X97.527 Y95.010 E7.92969
G1 X93.548 Y98.990 E8.06360
G1 X93.548 Y98.180 E8.08286
G1 X97.527 Y94.201 E8.21676
G1 X97.527 Y93.391 E8.23603
G1 X93.548 Y97.371 E8.36993
G1 X93.548 Y96.561 E8.38919
G1 X97.527 Y92.582 E8.52310
G1 X97.527 Y92.048 E8.53580
G1 X97.251 Y92.048 E8.54236
G1 X93.548 Y95.751 E8.66699
G1 X93.548 Y94.942 E8.68625
G1 X96.442 Y92.048 E8.78364
G1 X95.632 Y92.048 E8.80290
G1 X93.548 Y94.132 E8.87305
G1 X93.548 Y93.323 E8.89231
G1 X94.823 Y92.048 E8.93521
G1 X94.013 Y92.048 E8.95448
G1 X93.548 Y92.513 E8.97013
G1 Z5.400 F7800.000
G1 X97.527 Y92.739 F7800.000
G1 F2987.26
G1 X96.836 Y92.048 E8.99339
G1 X96.022 Y92.048 E9.01276
G1 X97.527 Y93.553 E9.06342
G1 X97.527 Y94.367 E9.08279
G1 X95.207 Y92.048 E9.16084
G1 X94.393 Y92.048 E9.18022
G1 X97.527 Y95.182 E9.28567
G1 X97.527 Y95.996 E9.30504
G1 X93.579 Y92.048 E9.43789
G1 X93.548 Y92.048 E9.43864
G1 X93.548 Y92.831 E9.45727
G1 X97.527 Y96.810 E9.59117
G1 X97.527 Y97.624 E9.61054
G1 X93.548 Y93.645 E9.74445
G1 X93.548 Y94.459 E9.76382
G1 X99.590 Y100.501 E9.96714
G1 X98.776 Y100.501 E9.98651
G1 X93.548 Y95.273 E10.16244
G1 X93.548 Y96.088 E10.18181
G1 X97.962 Y100.501 E10.33033
G1 X97.527 Y100.501 E10.34067
G1 X97.527 Y100.881 E10.34971
G1 X93.548 Y96.902 E10.48361
G1 X93.548 Y97.716 E10.50298
G1 X97.527 Y101.695 E10.63689
G1 X97.527 Y102.510 E10.65626
G1 X93.548 Y98.530 E10.79017
G1 X93.548 Y99.345 E10.80954
G1 X97.527 Y103.324 E10.94344
G1 X97.527 Y104.138 E10.96282
G1 X93.548 Y100.159 E11.09672
G1 X93.548 Y100.973 E11.11609
G1 X97.527 Y104.952 E11.25000
G1 X97.527 Y105.518 E11.26345
G1 X98.092 Y105.518 E11.27689
G1 X97.627 Y105.052 F7800.000
G1 F2987.26
G1 X100.526 Y107.951 E11.37444
G1 X101.311 Y107.922 E11.39312
G1 X98.441 Y105.052 E11.48968
G1 X99.256 Y105.052 E11.50905
G1 X102.038 Y107.835 E11.60269
G1 X102.517 Y107.764 E11.61420
G1 X102.725 Y107.708 E11.61933
G1 X100.046 Y105.029 E11.70946
G1 X100.426 Y104.973 E11.71858
G1 X100.727 Y104.896 E11.72600
G1 X103.364 Y107.532 E11.81471
G1 X103.941 Y107.295 E11.82955
G1 X101.288 Y104.642 E11.91882
G1 X101.577 Y104.435 E11.92727
G1 X101.739 Y104.279 E11.93263
G1 X104.466 Y107.006 E12.02439
G1 X104.740 Y106.822 E12.03224
G1 X104.933 Y106.658 E12.03825
G1 X102.077 Y103.803 E12.13433
G1 X102.175 Y103.587 E12.13997
G1 X102.286 Y103.197 E12.14962
G1 X105.350 Y106.261 E12.25271
G1 X105.622 Y105.931 E12.26289
G1 X105.705 Y105.802 E12.26655
G1 X102.346 Y102.444 E12.37954
G1 X102.299 Y101.966 E12.39096
G1 X102.249 Y101.740 E12.39646
G1 X102.132 Y101.415 E12.40470
G1 X105.997 Y105.280 E12.53476
G1 X106.064 Y105.144 E12.53836
G1 X106.224 Y104.693 E12.54975
G1 X99.133 Y97.602 E12.78837
G1 X99.947 Y97.602 E12.80775
G1 X106.371 Y104.026 E13.02392
G1 X106.447 Y103.287 E13.04160
G1 X100.788 Y97.628 E13.23201
G1 X101.705 Y97.731 E13.25397
G1 X106.423 Y102.448 E13.41270
G1 X106.392 Y102.109 E13.42080
G1 X106.259 Y101.471 E13.43632
G1 X102.770 Y97.981 E13.55374
G1 X103.178 Y98.125 E13.56405
G1 X103.644 Y98.339 E13.57623
G1 X104.023 Y98.560 E13.58667
G1 X104.298 Y98.750 E13.59463
G1 X104.639 Y99.036 E13.60521
G1 X105.114 Y99.511 E13.62121
G1 X101.494 Y100.776 F7800.000
G1 F2987.26
G1 X98.319 Y97.602 E13.72804
G1 X97.504 Y97.602 E13.74741
G1 X100.419 Y100.516 E13.84547
G1 X99.590 Y100.501 E13.86519
G1 E11.86519 F2400.00000
G92 E0
G1 X99.713 Y107.952 F7800.000
G1 E2.00000 F2400.00000
G1 F2987.26
G1 X93.548 Y101.787 E2.20745
G1 X93.548 Y102.601 E2.22682
G1 X98.899 Y107.952 E2.40687
G1 X98.084 Y107.952 E2.42625
G1 X93.548 Y103.416 E2.57890
G1 X93.548 Y104.230 E2.59827
G1 X97.270 Y107.952 E2.72352
G1 X96.456 Y107.952 E2.74290
G1 X93.548 Y105.044 E2.84075
G1 X93.548 Y105.858 E2.86013
G1 X95.642 Y107.952 E2.93058
G1 X94.827 Y107.952 E2.94996
G1 X93.548 Y106.673 E2.99302
G1 X93.548 Y107.487 E3.01239
G1 X94.013 Y107.952 E3.02804
G1 Z5.700 F7800.000
G1 X97.527 Y100.677 F7800.000
G1 F2997.39
G1 X93.548 Y104.657 E3.16195
G1 X93.548 Y105.466 E3.18121
G1 X97.527 Y101.487 E3.31511
G1 X97.527 Y102.297 E3.33438
G1 X93.548 Y106.276 E3.46828
G1 X93.548 Y107.086 E3.48754
G1 X97.527 Y103.106 E3.62145
G1 X97.527 Y103.916 E3.64071
G1 X93.548 Y107.895 E3.77462
G1 X93.548 Y107.952 E3.77597
G1 X94.300 Y107.952 E3.79388
G1 X97.527 Y104.725 E3.90246
G1 X97.527 Y105.052 E3.91024
G1 X98.010 Y105.052 E3.92172
G1 X95.110 Y107.952 E4.01930
G1 X95.919 Y107.952 E4.03857
G1 X98.819 Y105.052 E4.13615
G1 X99.629 Y105.052 E4.15541
G1 X96.729 Y107.952 E4.25299
G1 X97.539 Y107.952 E4.27225
G1 X100.457 Y105.034 E4.37045
G1 X100.682 Y105.014 E4.37582
G1 X100.968 Y104.956 E4.38276
G1 X101.190 Y104.897 E4.38824
G1 X101.546 Y104.754 E4.39737
G1 X98.348 Y107.952 E4.50499
G1 X99.158 Y107.952 E4.52426
G1 X106.225 Y100.885 E4.76205
G1 X106.304 Y101.163 E4.76892
G1 X106.374 Y101.546 E4.77818
G1 X99.967 Y107.952 E4.99375
G1 X100.803 Y107.926 E5.01365
G1 X106.446 Y102.284 E5.20351
G1 X106.446 Y102.837 E5.21667
G1 X106.423 Y103.116 E5.22334
G1 X101.727 Y107.812 E5.38135
G1 X102.347 Y107.696 E5.39636
G1 X102.778 Y107.570 E5.40705
G1 X106.263 Y104.085 E5.52431
G1 X106.066 Y104.672 E5.53904
G1 X105.862 Y105.091 E5.55013
G1 X105.612 Y105.480 E5.56113
G1 X105.447 Y105.691 E5.56750
G1 X104.669 Y106.489 E5.59403
G1 X102.116 Y104.185 F7800.000
G1 F2997.39
G1 X106.006 Y100.295 E5.72493
G1 X105.867 Y100.010 E5.73248
G1 X105.717 Y99.774 E5.73912
G1 X102.345 Y103.146 E5.85256
G1 X102.338 Y102.720 E5.86268
G1 X102.290 Y102.391 E5.87060
G1 X105.368 Y99.313 E5.97417
G1 X105.113 Y99.044 E5.98299
G1 X104.958 Y98.914 E5.98781
G1 X102.088 Y101.784 E6.08438
G1 X101.936 Y101.523 E6.09156
G1 X101.759 Y101.303 E6.09828
G1 X104.497 Y98.565 E6.19039
G1 X103.975 Y98.277 E6.20456
G1 X101.318 Y100.935 E6.29399
G1 X101.000 Y100.763 E6.30258
G1 X100.769 Y100.674 E6.30848
G1 X103.407 Y98.036 E6.39724
G1 X102.783 Y97.850 E6.41273
G1 X100.102 Y100.531 E6.50292
G1 X99.322 Y100.501 E6.52150
G1 X102.103 Y97.721 E6.61507
G1 X101.375 Y97.639 E6.63250
G1 X98.513 Y100.501 E6.72882
G1 X97.703 Y100.501 E6.74808
G1 X100.600 Y97.605 E6.84556
G1 X99.793 Y97.602 E6.86474
G1 X93.548 Y103.847 E7.07491
G1 X93.548 Y103.038 E7.09417
G1 X98.984 Y97.602 E7.27709
G1 X98.174 Y97.602 E7.29636
G1 X93.548 Y102.228 E7.45204
G1 X93.548 Y101.419 E7.47130
G1 X97.527 Y97.439 E7.60521
G1 X97.527 Y96.630 E7.62447
G1 X93.548 Y100.609 E7.75837
G1 X93.548 Y99.799 E7.77764
G1 X97.527 Y95.820 E7.91154
G1 X97.527 Y95.010 E7.93080
G1 X93.548 Y98.990 E8.06471
G1 X93.548 Y98.180 E8.08397
G1 X97.527 Y94.201 E8.21787
G1 X97.527 Y93.391 E8.23714
G1 X93.548 Y97.371 E8.37104
G1 X93.548 Y96.561 E8.39030
G1 X97.527 Y92.582 E8.52421
G1 X97.527 Y92.048 E8.53691
G1 X97.251 Y92.048 E8.54347
G1 X93.548 Y95.751 E8.66810
G1 X93.548 Y94.942 E8.68736
G1 X96.442 Y92.048 E8.78475
G1 X95.632 Y92.048 E8.80401
G1 X93.548 Y94.132 E8.87415
G1 X93.548 Y93.323 E8.89341
G1 X94.823 Y92.048 E8.93632
G1 X94.013 Y92.048 E8.95558
G1 X93.548 Y92.513 E8.97123
G1 Z6.000 F7800.000
G1 E6.97123 F2400.00000
G92 E0
G1 X97.527 Y92.738 F7800.000
G1 E2.00000 F2400.00000
G1 F2987.94
G1 X96.837 Y92.048 E2.02321
G1 X96.023 Y92.048 E2.04259
G1 X97.527 Y93.552 E2.09320
G1 X97.527 Y94.366 E2.11257
G1 X95.209 Y92.048 E2.19059
G1 X94.394 Y92.048 E2.20996
G1 X97.527 Y95.180 E2.31537
G1 X97.527 Y95.995 E2.33475
G1 X93.580 Y92.048 E2.46756
G1 X93.548 Y92.048 E2.46833
G1 X93.548 Y92.830 E2.48694
G1 X97.527 Y96.809 E2.62084
G1 X97.527 Y97.623 E2.64022
G1 X93.548 Y93.644 E2.77412
G1 X93.548 Y94.458 E2.79350
G1 X99.591 Y100.501 E2.99685
G1 X98.777 Y100.501 E3.01622
G1 X93.548 Y95.272 E3.19217
G1 X93.548 Y96.087 E3.21155
G1 X97.962 Y100.501 E3.36010
G1 X97.527 Y100.501 E3.37045
G1 X97.527 Y100.880 E3.37947
G1 X93.548 Y96.901 E3.51338
G1 X93.548 Y97.715 E3.53275
G1 X97.527 Y101.695 E3.66665
G1 X97.527 Y102.509 E3.68603
G1 X93.548 Y98.530 E3.81993
G1 X93.548 Y99.344 E3.83931
G1 X97.527 Y103.323 E3.97321
G1 X97.527 Y104.138 E3.99259
G1 X93.548 Y100.158 E4.12649
G1 X93.548 Y100.973 E4.14587
G1 X97.527 Y104.952 E4.27977
G1 X97.527 Y105.518 E4.29323
G1 X98.093 Y105.518 E4.30669
G1 X97.627 Y105.052 F7800.000
G1 F2987.94
G1 X100.526 Y107.950 E4.40420
G1 X101.305 Y107.916 E4.42277
G1 X98.442 Y105.052 E4.51912
G1 X99.256 Y105.052 E4.53849
G1 X102.038 Y107.834 E4.63210
G1 X102.733 Y107.715 E4.64888
G1 X100.047 Y105.029 E4.73927
G1 X100.452 Y104.968 E4.74902
G1 X100.728 Y104.896 E4.75581
G1 X103.365 Y107.532 E4.84454
G1 X103.943 Y107.296 E4.85939
G1 X101.288 Y104.641 E4.94872
G1 X101.595 Y104.419 E4.95775
G1 X101.739 Y104.278 E4.96254
G1 X104.466 Y107.005 E5.05429
G1 X104.741 Y106.820 E5.06218
G1 X104.934 Y106.659 E5.06816
G1 X102.077 Y103.802 E5.16428
G1 X102.171 Y103.595 E5.16969
G1 X102.285 Y103.196 E5.17957
G1 X105.349 Y106.260 E5.28267
G1 X105.602 Y105.959 E5.29201
G1 X105.704 Y105.801 E5.29650
G1 X102.346 Y102.442 E5.40951
G1 X102.303 Y101.985 E5.42044
G1 X102.249 Y101.741 E5.42639
G1 X102.130 Y101.412 E5.43471
G1 X105.997 Y105.279 E5.56482
G1 X106.069 Y105.131 E5.56874
G1 X106.224 Y104.692 E5.57982
G1 X99.134 Y97.602 E5.81839
G1 X99.948 Y97.602 E5.83777
G1 X106.371 Y104.025 E6.05390
G1 X106.446 Y103.285 E6.07159
G1 X100.788 Y97.627 E6.26198
G1 X101.422 Y97.686 E6.27714
G1 X101.715 Y97.740 E6.28423
G1 X106.423 Y102.448 E6.44264
G1 X106.397 Y102.140 E6.44997
G1 X106.259 Y101.469 E6.46629
G1 X102.771 Y97.982 E6.58362
G1 X103.395 Y98.217 E6.59949
G1 X103.858 Y98.457 E6.61190
G1 X104.284 Y98.739 E6.62404
G1 X104.655 Y99.051 E6.63558
G1 X105.150 Y99.546 E6.65224
G1 E4.65224 F2400.00000
G92 E0
G1 X101.497 Y100.779 F7800.000
G1 E2.00000 F2400.00000
G1 F2987.94
G1 X98.320 Y97.602 E2.10691
G1 X97.505 Y97.602 E2.12629
G1 X100.420 Y100.516 E2.22437
G1 X99.591 Y100.501 E2.24410
G1 E0.24410 F2400.00000
G92 E0
G1 X99.713 Y107.952 F7800.000
G1 E2.00000 F2400.00000
G1 F2987.94
G1 X93.548 Y101.787 E2.20746
G1 X93.548 Y102.601 E2.22684
G1 X98.899 Y107.952 E2.40690
G1 X98.085 Y107.952 E2.42627
G1 X93.548 Y103.415 E2.57893
G1 X93.548 Y104.230 E2.59831
G1 X97.270 Y107.952 E2.72357
G1 X96.456 Y107.952 E2.74294
G1 X93.548 Y105.044 E2.84080
G1 X93.548 Y105.858 E2.86018
G1 X95.642 Y107.952 E2.93064
G1 X94.827 Y107.952 E2.95001
G1 X93.548 Y106.673 E2.99307
G1 X93.548 Y107.487 E3.01245
G1 X94.013 Y107.952 E3.02810
G1 E1.02810 F2400.00000
G92 E0
M107
; Filament-specific end gcode 
;END gcode for filament

M104 S0 ; turn off temperature
G28 X0  ; home X axis
M84     ; disable motors

M140 S0 ; set bed temperature
; filament used = 118.3mm (0.8cm3)
; total filament cost = 0.0

; avoid_crossing_perimeters = 0
; bed_shape = 0x0,200x0,200x200,0x200
; bed_temperature = 0
; before_layer_gcode = 
; between_objects_gcode = 
; bridge_acceleration = 0
; bridge_fan_speed = 100
; brim_connections_width = 0
; brim_width = 0
; complete_objects = 0
; cooling = 1
; default_acceleration = 0
; disable_fan_first_layers = 3
; duplicate_distance = 6
; end_filament_gcode = "; Filament-specific end gcode \n;END gcode for filament\n"
; end_gcode = M104 S0 ; turn off temperature\nG28 X0  ; home X axis\nM84     ; disable motors\n
; extruder_clearance_height = 20
; extruder_clearance_radius = 20
; extruder_offset = 0x0
; extrusion_axis = E
; extrusion_multiplier = 1
; fan_always_on = 0
; fan_below_layer_time = 60
; filament_colour = #FFFFFF
; filament_cost = 0
; filament_density = 0
; filament_diameter = 3
; filament_max_volumetric_speed = 0
; filament_notes = ""
; first_layer_acceleration = 0
; first_layer_bed_temperature = 0
; first_layer_extrusion_width = 200%
; first_layer_speed = 30
; first_layer_temperature = 205
; gcode_arcs = 0
; gcode_comments = 0
; gcode_flavor = reprap
; has_heatbed = 1
; infill_acceleration = 0
; infill_first = 0
; interior_brim_width = 0
; layer_gcode = 
; max_fan_speed = 100
; max_layer_height = 0.3
; max_print_speed = 80
; max_volumetric_speed = 0
; min_fan_speed = 35
; min_layer_height = 0.15
; min_print_speed = 10
; min_skirt_length = 0
; notes = 
; nozzle_diameter = 0.5
; only_retract_when_crossing_perimeters = 1
; ooze_prevention = 0
; output_filename_format = [input_filename_base].gcode
; perimeter_acceleration = 0
; post_process = 
; pressure_advance = 0
; printer_notes = 
; resolution = 0
; retract_before_travel = 2
; retract_layer_change = 0
; retract_length = 2
; retract_length_toolchange = 10
; retract_lift = 0
; retract_lift_above = 0
; retract_lift_below = 0
; retract_restart_extra = 0
; retract_restart_extra_toolchange = 0
; retract_speed = 40
; skirt_distance = 6
; skirt_height = 1
; skirts = 0
; slowdown_below_layer_time = 5
; spiral_vase = 0
; standby_temperature_delta = -5
; start_filament_gcode = "; Filament gcode\n"
; start_gcode = G28 ; home all axes\nG1 Z5 F5000 ; lift nozzle\n
; temperature = 200
; threads = 8
; toolchange_gcode = 
; travel_speed = 130
; use_firmware_retraction = 0
; use_relative_e_distances = 0
; use_set_and_wait_bed = 0
; use_set_and_wait_extruder = 0
; use_volumetric_e = 0
; vibration_limit = 0
; wipe = 0
; z_offset = 0
; z_steps_per_mm = 0
; adaptive_slicing = 0
; adaptive_slicing_quality = 75%
; dont_support_bridges = 1
; extrusion_width = 0
; first_layer_height = 0.3
; infill_only_where_needed = 0
; interface_shells = 0
; layer_height = 0.3
; match_horizontal_surfaces = 0
; raft_layers = 0
; regions_overlap = 0
; seam_position = aligned
; sequential_print_priority = 0
; support_material = 0
; support_material_angle = 0
; support_material_buildplate_only = 0
; support_material_contact_distance = 0.2
; support_material_enforce_layers = 0
; support_material_extruder = 1
; support_material_extrusion_width = 0
; support_material_interface_extruder = 1
; support_material_interface_extrusion_width = 0
; support_material_interface_layers = 3
; support_material_interface_spacing = 0
; support_material_interface_speed = 100%
; support_material_max_layers = 0
; support_material_pattern = pillars
; support_material_spacing = 2.5
; support_material_speed = 60
; support_material_threshold = 60%
; xy_size_compensation = 0
; bottom_infill_pattern = rectilinear
; bottom_solid_layers = 0
; bridge_flow_ratio = 1
; bridge_speed = 60
; external_perimeter_extrusion_width = 0
; external_perimeter_speed = 50%
; external_perimeters_first = 0
; extra_perimeters = 1
; fill_angle = 45
; fill_density = 100%
; fill_gaps = 1
; fill_pattern = rectilinear
; gap_fill_speed = 20
; infill_every_layers = 1
; infill_extruder = 1
; infill_extrusion_width = 0
; infill_overlap = 55%
; infill_speed = 80
; overhangs = 1
; perimeter_extruder = 1
; perimeter_extrusion_width = 0
; perimeter_speed = 60
; perimeters = 0
; small_perimeter_speed = 15
; solid_infill_below_area = 70
; solid_infill_every_layers = 0
; solid_infill_extruder = 1
; solid_infill_extrusion_width = 0
; solid_infill_speed = 20
; thin_walls = 1
; top_infill_extrusion_width = 0
; top_infill_pattern = rectilinear
; top_solid_infill_speed = 15
; top_solid_layers = 0
