; generated by Slic3r 1.2.9 on 2019-08-13 at 15:19:59

; external perimeters extrusion width = 0.50mm
; perimeters extrusion width = 0.58mm
; infill extrusion width = 0.58mm
; solid infill extrusion width = 0.58mm
; top infill extrusion width = 0.58mm

M107
M104 S200 ; set temperature
G28 ; home all axes
G1 Z5 F5000 ; lift nozzle

M109 S200 ; wait for temperature to be reached
G21 ; set units to millimeters
G90 ; use absolute coordinates
M82 ; use absolute distances for extrusion
G92 E0
G1 Z0.400 F7800.000
G1 Z0.800 F7800.000
G1 E-2.00000 F2400.00000
G92 E0
G1 X96.235 Y97.048 F7800.000
G1 E2.00000 F2400.00000
G1 X97.074 Y96.209 E2.30238 F600.000
G1 X98.352 Y95.638 F7800.000
G1 X98.628 Y95.362 E2.40176 F600.000
G1 X99.278 Y95.420 E2.56795
G1 X99.536 Y95.161 E2.66109
G1 X100.024 Y95.381 E2.79742
G1 X100.278 Y95.127 E2.88865
G1 X100.669 Y95.443 E3.01682
G1 X100.915 Y95.197 E3.10523
G1 X101.244 Y95.576 E3.23296
G1 X101.487 Y95.332 E3.32060
G1 X101.763 Y95.764 E3.45108
G1 X102.006 Y95.521 E3.53850
G1 X102.478 Y95.757 E3.67285
G1 X102.235 Y95.999 E3.76012
G1 X102.666 Y96.276 E3.89050
G1 X102.907 Y96.035 E3.97741
G1 X103.289 Y96.360 E4.10527
G1 X103.057 Y96.592 E4.18905
G1 X103.410 Y96.946 E4.31648
G1 X103.643 Y96.714 E4.40030
G1 X103.966 Y97.099 E4.52823
G1 X103.726 Y97.338 E4.61440
G1 X104.003 Y97.768 E4.74481
G1 X104.243 Y97.528 E4.83131
G1 X104.480 Y97.999 E4.96554
G1 X104.238 Y98.241 E5.05268
G1 X104.671 Y98.516 E5.18325
G1 X104.426 Y98.761 E5.27155
G1 X104.809 Y99.085 E5.39941
G1 X104.558 Y99.335 E5.48962
G1 X104.870 Y99.731 E5.61794
G1 X104.619 Y99.982 E5.70818
G1 X104.841 Y100.468 E5.84427
G1 X104.580 Y100.729 E5.93826
G1 X104.643 Y101.373 E6.10304
G1 X104.358 Y101.658 E6.20578
G1 X103.765 Y102.959 F7800.000
G1 X102.994 Y103.729 E6.48329 F600.000
G1 X101.658 Y104.358 F7800.000
G1 X101.378 Y104.638 E6.58420 F600.000
G1 X100.729 Y104.580 E6.75020
G1 X100.471 Y104.838 E6.84329
G1 X99.982 Y104.619 E6.97967
G1 X99.728 Y104.873 E7.07129
G1 X99.336 Y104.558 E7.19946
G1 X99.088 Y104.806 E7.28866
G1 X98.761 Y104.426 E7.41644
G1 X98.513 Y104.674 E7.50572
G1 X98.241 Y104.238 E7.63650
G1 X97.997 Y104.482 E7.72421
G1 X97.527 Y104.245 E7.85840
G1 X97.768 Y104.003 E7.94533
G1 X97.337 Y103.727 E8.07574
G1 X97.097 Y103.967 E8.16224
G1 X96.714 Y103.643 E8.29013
G1 X96.946 Y103.411 E8.37385
G1 X96.592 Y103.057 E8.50127
G1 X96.360 Y103.289 E8.58499
G1 X96.035 Y102.907 E8.71284
G1 X96.276 Y102.666 E8.79973
G1 X95.999 Y102.235 E8.93011
G1 X95.759 Y102.476 E9.01677
G1 X95.522 Y102.005 E9.15101
G1 X95.764 Y101.763 E9.23809
G1 X95.331 Y101.489 E9.36868
G1 X95.575 Y101.244 E9.45679
G1 X95.192 Y100.920 E9.58466
G1 X95.443 Y100.669 E9.67511
G1 X95.130 Y100.275 E9.80339
G1 X95.381 Y100.024 E9.89373
G1 X95.159 Y99.538 E10.02972
G1 X95.420 Y99.277 E10.12372
G1 X95.355 Y98.636 E10.28810
G1 X95.639 Y98.352 E10.39042
G1 Z1.200 F7800.000
G1 E8.39042 F2400.00000
G92 E0
G1 X95.641 Y101.654 F7800.000
G1 E2.00000 F2400.00000
G1 X95.364 Y101.377 E2.09982 F600.000
G1 X95.421 Y100.727 E2.26622
G1 X95.163 Y100.469 E2.35920
G1 X95.381 Y99.980 E2.49568
G1 X95.125 Y99.724 E2.58787
G1 X95.443 Y99.334 E2.71601
G1 X95.196 Y99.087 E2.80483
G1 X95.575 Y98.758 E2.93261
G1 X95.330 Y98.514 E3.02063
G1 X95.763 Y98.239 E3.15121
G1 X95.518 Y97.994 E3.23949
G1 X95.754 Y97.523 E3.37382
G1 X95.998 Y97.767 E3.46172
G1 X96.275 Y97.336 E3.59216
G1 X96.032 Y97.094 E3.67955
G1 X96.360 Y96.714 E3.80735
G1 X96.591 Y96.944 E3.89037
G1 X96.944 Y96.591 E4.01784
G1 X96.714 Y96.360 E4.10080
G1 X97.097 Y96.036 E4.22871
G1 X97.336 Y96.275 E4.31475
G1 X97.766 Y95.998 E4.44518
G1 X97.527 Y95.758 E4.53148
G1 X97.998 Y95.522 E4.66579
G1 X98.239 Y95.762 E4.75249
G1 X98.515 Y95.332 E4.88295
G1 X98.759 Y95.575 E4.97060
G1 X99.085 Y95.194 E5.09844
G1 X99.334 Y95.442 E5.18788
G1 X99.726 Y95.127 E5.31610
G1 X99.980 Y95.381 E5.40749
G1 X100.462 Y95.156 E5.54311
G1 X100.727 Y95.420 E5.63845
G1 X101.373 Y95.359 E5.80379
G1 X101.655 Y95.641 E5.90545
G1 X102.954 Y96.232 F7800.000
G1 X103.785 Y97.064 E6.20507 F600.000
G1 X104.359 Y98.346 F7800.000
G1 X104.636 Y98.622 E6.30484 F600.000
G1 X104.580 Y99.274 E6.47135
G1 X104.837 Y99.531 E6.56416
G1 X104.619 Y100.021 E6.70069
G1 X104.875 Y100.276 E6.79276
G1 X104.558 Y100.666 E6.92090
G1 X104.805 Y100.914 E7.01003
G1 X104.425 Y101.241 E7.13785
G1 X104.671 Y101.487 E7.22629
G1 X104.237 Y101.761 E7.35695
G1 X104.482 Y102.006 E7.44519
G1 X104.246 Y102.477 E7.57955
G1 X104.002 Y102.233 E7.66745
G1 X103.725 Y102.664 E7.79789
G1 X103.966 Y102.904 E7.88446
G1 X103.643 Y103.289 E8.01241
G1 X103.409 Y103.055 E8.09654
G1 X103.055 Y103.409 E8.22401
G1 X103.289 Y103.643 E8.30815
G1 X102.903 Y103.964 E8.43614
G1 X102.664 Y103.725 E8.52228
G1 X102.233 Y104.002 E8.65271
G1 X102.476 Y104.245 E8.74022
G1 X102.005 Y104.481 E8.87457
G1 X101.761 Y104.237 E8.96238
G1 X101.489 Y104.673 E9.09322
G1 X101.242 Y104.425 E9.18240
G1 X100.914 Y104.805 E9.31021
G1 X100.666 Y104.558 E9.39944
G1 X100.270 Y104.869 E9.52781
G1 X100.021 Y104.619 E9.61779
G1 X99.538 Y104.844 E9.75346
G1 X99.273 Y104.580 E9.84881
G1 X98.625 Y104.639 E10.01460
G1 X98.346 Y104.360 E10.11525
G1 X97.045 Y103.766 F7800.000
G1 X96.266 Y102.987 E10.39576 F600.000
M106 S255
G1 Z1.600 F7800.000
G1 E8.39576 F2400.00000
G92 E0
G1 X95.639 Y98.351 F7800.000
G1 E2.00000 F2400.00000
G1 X95.353 Y98.637 E2.10280 F600.000
G1 X95.420 Y99.277 E2.26670
G1 X95.159 Y99.538 E2.36066
G1 X95.381 Y100.023 E2.49653
G1 X95.130 Y100.274 E2.58683
G1 X95.443 Y100.668 E2.71500
G1 X95.192 Y100.919 E2.80539
G1 X95.575 Y101.243 E2.93315
G1 X95.330 Y101.488 E3.02146
G1 X95.763 Y101.762 E3.15199
G1 X95.521 Y102.004 E3.23913
G1 X95.758 Y102.474 E3.37322
G1 X95.998 Y102.234 E3.45977
G1 X96.275 Y102.664 E3.59005
G1 X96.035 Y102.904 E3.67642
G1 X96.358 Y103.288 E3.80421
G1 X96.591 Y103.056 E3.88788
G1 X96.944 Y103.409 E4.01519
G1 X96.712 Y103.642 E4.09881
G1 X97.095 Y103.965 E4.22658
G1 X97.336 Y103.725 E4.31306
G1 X97.766 Y104.002 E4.44334
G1 X97.524 Y104.243 E4.53024
G1 X97.996 Y104.479 E4.66441
G1 X98.238 Y104.237 E4.75165
G1 X98.513 Y104.669 E4.88207
G1 X98.757 Y104.425 E4.97006
G1 X99.083 Y104.806 E5.09776
G1 X99.332 Y104.557 E5.18730
G1 X99.724 Y104.872 E5.31538
G1 X99.977 Y104.619 E5.40643
G1 X100.465 Y104.839 E5.54260
G1 X100.723 Y104.580 E5.63567
G1 X101.369 Y104.641 E5.80096
G1 X101.649 Y104.361 E5.90168
G1 X102.960 Y103.757 F7800.000
G1 X103.768 Y102.949 E6.19260 F600.000
G1 X104.361 Y101.649 F7800.000
G1 X104.639 Y101.371 E6.29260 F600.000
G1 X104.580 Y100.723 E6.45832
G1 X104.841 Y100.462 E6.55216
G1 X104.619 Y99.977 E6.68809
G1 X104.870 Y99.726 E6.77823
G1 X104.557 Y99.332 E6.90640
G1 X104.808 Y99.081 E6.99671
G1 X104.425 Y98.757 E7.12447
G1 X104.670 Y98.512 E7.21262
G1 X104.237 Y98.238 E7.34309
G1 X104.478 Y97.996 E7.43009
G1 X104.242 Y97.526 E7.56418
G1 X104.002 Y97.766 E7.65056
G1 X103.725 Y97.336 E7.78083
G1 X103.964 Y97.097 E7.86689
G1 X103.286 Y96.361 F7800.000
G1 X103.056 Y96.591 E7.94982 F600.000
G1 X102.664 Y96.275 E8.07786
G1 X102.906 Y96.033 E8.16491
G1 X102.476 Y95.756 E8.29517
G1 X102.234 Y95.998 E8.38233
G1 X101.762 Y95.763 E8.51661
G1 X102.004 Y95.521 E8.60392
G1 X101.486 Y95.332 E8.74438
G1 X101.243 Y95.575 E8.83191
G1 X100.914 Y95.197 E8.95952
G1 X100.668 Y95.443 E9.04793
G1 X100.279 Y95.125 E9.17592
G1 X100.023 Y95.381 E9.26786
G1 X99.535 Y95.161 E9.40404
G1 X99.277 Y95.420 E9.49712
G1 X98.627 Y95.362 E9.66318
G1 X98.352 Y95.638 E9.76251
G1 X97.074 Y96.209 F7800.000
G1 X96.235 Y97.048 E10.06476 F600.000
G1 Z2.000 F7800.000
G1 E8.06476 F2400.00000
G92 E0
G1 X95.641 Y101.654 F7800.000
G1 E2.00000 F2400.00000
G1 X95.364 Y101.377 E2.09979 F600.000
G1 X95.421 Y100.727 E2.26619
G1 X95.163 Y100.469 E2.35917
G1 X95.381 Y99.980 E2.49565
G1 X95.125 Y99.724 E2.58785
G1 X95.443 Y99.334 E2.71598
G1 X95.196 Y99.087 E2.80480
G1 X95.575 Y98.758 E2.93258
G1 X95.331 Y98.515 E3.02023
G1 X95.763 Y98.239 E3.15073
G1 X95.518 Y97.994 E3.23904
G1 X95.754 Y97.523 E3.37335
G1 X95.998 Y97.767 E3.46123
G1 X96.275 Y97.336 E3.59167
G1 X96.032 Y97.094 E3.67903
G1 X96.360 Y96.714 E3.80684
G1 X96.591 Y96.944 E3.88983
G1 X96.944 Y96.591 E4.01730
G1 X96.714 Y96.360 E4.10025
G1 X97.097 Y96.036 E4.22815
G1 X97.336 Y96.275 E4.31422
G1 X97.766 Y95.998 E4.44466
G1 X97.527 Y95.758 E4.53099
G1 X97.998 Y95.522 E4.66530
G1 X98.239 Y95.763 E4.75203
G1 X98.515 Y95.332 E4.88251
G1 X98.758 Y95.575 E4.97011
G1 X99.085 Y95.194 E5.09794
G1 X99.334 Y95.443 E5.18743
G1 X99.726 Y95.128 E5.31567
G1 X99.980 Y95.381 E5.40687
G1 X100.462 Y95.156 E5.54248
G1 X100.727 Y95.420 E5.63794
G1 X101.372 Y95.359 E5.80322
G1 X101.654 Y95.640 E5.90476
G1 X102.951 Y96.230 F7800.000
G1 X103.734 Y97.013 E6.18692 F600.000
G1 X104.360 Y98.346 F7800.000
G1 X104.636 Y98.623 E6.28659 F600.000
G1 X104.580 Y99.273 E6.45303
G1 X104.837 Y99.531 E6.54594
G1 X104.619 Y100.021 E6.68245
G1 X104.875 Y100.276 E6.77457
G1 X104.558 Y100.666 E6.90270
G1 X104.804 Y100.913 E6.99147
G1 X104.425 Y101.242 E7.11925
G1 X104.668 Y101.484 E7.20663
G1 X104.237 Y101.761 E7.33706
G1 X104.479 Y102.003 E7.42419
G1 X104.246 Y102.477 E7.55886
G1 X104.002 Y102.234 E7.64670
G1 X103.725 Y102.664 E7.77714
G1 X103.968 Y102.906 E7.86445
G1 X103.640 Y103.286 E7.99225
G1 X103.409 Y103.056 E8.07524
G1 X103.056 Y103.409 E8.20270
G1 X103.286 Y103.640 E8.28571
G1 X102.903 Y103.964 E8.41361
G1 X102.664 Y103.725 E8.49969
G1 X102.234 Y104.002 E8.63013
G1 X102.473 Y104.242 E8.71645
G1 X102.002 Y104.478 E8.85077
G1 X101.761 Y104.237 E8.93753
G1 X101.485 Y104.668 E9.06801
G1 X101.242 Y104.426 E9.15555
G1 X100.915 Y104.806 E9.28338
G1 X100.666 Y104.557 E9.37286
G1 X100.273 Y104.872 E9.50111
G1 X100.020 Y104.619 E9.59220
G1 X99.538 Y104.845 E9.72780
G1 X99.273 Y104.580 E9.82330
G1 X98.628 Y104.641 E9.98858
G1 X98.346 Y104.360 E10.09009
G1 X97.045 Y103.766 F7800.000
G1 X96.266 Y102.987 E10.37061 F600.000
G1 Z2.400 F7800.000
G1 E8.37061 F2400.00000
G92 E0
G1 X95.639 Y98.351 F7800.000
G1 E2.00000 F2400.00000
G1 X95.353 Y98.637 E2.10277 F600.000
G1 X95.420 Y99.277 E2.26666
G1 X95.159 Y99.538 E2.36064
G1 X95.381 Y100.023 E2.49651
G1 X95.130 Y100.274 E2.58681
G1 X95.443 Y100.668 E2.71497
G1 X95.192 Y100.919 E2.80537
G1 X95.575 Y101.243 E2.93313
G1 X95.330 Y101.488 E3.02124
G1 X95.763 Y101.762 E3.15171
G1 X95.521 Y102.004 E3.23872
G1 X95.756 Y102.476 E3.37304
G1 X95.998 Y102.234 E3.46018
G1 X96.275 Y102.664 E3.59046
G1 X96.035 Y102.904 E3.67687
G1 X96.358 Y103.288 E3.80465
G1 X96.591 Y103.056 E3.88830
G1 X96.944 Y103.409 E4.01561
G1 X96.712 Y103.642 E4.09924
G1 X97.093 Y103.967 E4.22696
G1 X97.336 Y103.725 E4.31416
G1 X97.766 Y104.002 E4.44444
G1 X97.524 Y104.244 E4.53160
G1 X97.996 Y104.479 E4.66583
G1 X98.238 Y104.237 E4.75310
G1 X98.514 Y104.668 E4.88345
G1 X98.757 Y104.425 E4.97100
G1 X99.086 Y104.803 E5.09861
G1 X99.332 Y104.557 E5.18709
G1 X99.724 Y104.872 E5.31516
G1 X99.977 Y104.619 E5.40624
G1 X100.465 Y104.839 E5.54240
G1 X100.723 Y104.580 E5.63555
G1 X101.373 Y104.638 E5.80156
G1 X101.649 Y104.362 E5.90097
G1 X102.960 Y103.757 F7800.000
G1 X103.765 Y102.952 E6.19091 F600.000
G1 X104.362 Y101.649 F7800.000
G1 X104.639 Y101.371 E6.29088 F600.000
G1 X104.580 Y100.723 E6.45654
G1 X104.841 Y100.462 E6.55048
G1 X104.619 Y99.977 E6.68636
G1 X104.870 Y99.726 E6.77663
G1 X104.557 Y99.332 E6.90479
G1 X104.808 Y99.081 E6.99517
G1 X104.425 Y98.757 E7.12293
G1 X104.670 Y98.512 E7.21102
G1 X104.237 Y98.238 E7.34149
G1 X104.478 Y97.996 E7.42848
G1 X104.242 Y97.526 E7.56257
G1 X104.002 Y97.766 E7.64899
G1 X103.725 Y97.336 E7.77927
G1 X103.964 Y97.097 E7.86536
G1 X103.642 Y96.712 E7.99316
G1 X103.409 Y96.944 E8.07683
G1 X103.056 Y96.591 E8.20414
G1 X103.288 Y96.358 E8.28783
G1 X102.906 Y96.033 E8.41556
G1 X102.664 Y96.275 E8.50258
G1 X102.234 Y95.998 E8.63286
G1 X102.476 Y95.756 E8.72001
G1 X102.004 Y95.521 E8.85425
G1 X101.762 Y95.763 E8.94151
G1 X101.486 Y95.332 E9.07186
G1 X101.243 Y95.575 E9.15939
G1 X100.914 Y95.197 E9.28700
G1 X100.668 Y95.443 E9.37548
G1 X100.277 Y95.127 E9.50352
G1 X100.023 Y95.381 E9.59483
G1 X99.535 Y95.161 E9.73099
G1 X99.277 Y95.420 E9.82414
G1 X98.627 Y95.362 E9.99016
G1 X98.351 Y95.639 E10.08958
G1 X97.074 Y96.209 F7800.000
G1 X96.235 Y97.048 E10.39182 F600.000
G1 Z2.800 F7800.000
G1 E8.39182 F2400.00000
G92 E0
G1 X95.641 Y101.654 F7800.000
G1 E2.00000 F2400.00000
G1 X95.364 Y101.377 E2.09979 F600.000
G1 X95.421 Y100.727 E2.26618
G1 X95.163 Y100.469 E2.35918
G1 X95.381 Y99.980 E2.49566
G1 X95.125 Y99.724 E2.58785
G1 X95.443 Y99.334 E2.71598
G1 X95.196 Y99.087 E2.80481
G1 X95.575 Y98.758 E2.93259
G1 X95.332 Y98.516 E3.01999
G1 X95.763 Y98.239 E3.15043
G1 X95.518 Y97.994 E3.23870
G1 X95.754 Y97.523 E3.37302
G1 X95.998 Y97.767 E3.46091
G1 X96.275 Y97.336 E3.59135
G1 X96.032 Y97.094 E3.67871
G1 X96.360 Y96.714 E3.80651
G1 X96.591 Y96.944 E3.88948
G1 X96.944 Y96.591 E4.01695
G1 X96.714 Y96.360 E4.09992
G1 X97.094 Y96.032 E4.22772
G1 X97.336 Y96.275 E4.31508
G1 X97.767 Y95.998 E4.44552
G1 X97.527 Y95.758 E4.53191
G1 X97.998 Y95.522 E4.66623
G1 X98.239 Y95.763 E4.75299
G1 X98.515 Y95.332 E4.88348
G1 X98.758 Y95.575 E4.97106
G1 X99.085 Y95.194 E5.09889
G1 X99.334 Y95.443 E5.18842
G1 X99.725 Y95.127 E5.31661
G1 X99.980 Y95.381 E5.40825
G1 X100.462 Y95.156 E5.54388
G1 X100.727 Y95.421 E5.63932
G1 X101.373 Y95.359 E5.80457
G1 X101.654 Y95.641 E5.90615
G1 X102.955 Y96.234 F7800.000
G1 X103.785 Y97.064 E6.20510 F600.000
G1 X104.359 Y98.346 F7800.000
G1 X104.636 Y98.622 E6.30488 F600.000
G1 X104.579 Y99.273 E6.47128
G1 X104.837 Y99.531 E6.56427
G1 X104.619 Y100.020 E6.70075
G1 X104.875 Y100.276 E6.79294
G1 X104.557 Y100.666 E6.92107
G1 X104.804 Y100.913 E7.00990
G1 X104.425 Y101.242 E7.13768
G1 X104.668 Y101.484 E7.22506
G1 X104.237 Y101.761 E7.35550
G1 X104.478 Y102.002 E7.44234
G1 X104.246 Y102.477 E7.57712
G1 X104.002 Y102.233 E7.66500
G1 X103.725 Y102.664 E7.79544
G1 X103.968 Y102.906 E7.88280
G1 X103.640 Y103.286 E8.01060
G1 X103.409 Y103.056 E8.09358
G1 X103.056 Y103.409 E8.22104
G1 X103.286 Y103.640 E8.30402
G1 X102.903 Y103.964 E8.43192
G1 X102.664 Y103.725 E8.51801
G1 X102.233 Y104.002 E8.64845
G1 X102.473 Y104.242 E8.73481
G1 X102.002 Y104.478 E8.86912
G1 X101.761 Y104.237 E8.95588
G1 X101.489 Y104.673 E9.08672
G1 X101.242 Y104.425 E9.17596
G1 X100.914 Y104.805 E9.30378
G1 X100.666 Y104.557 E9.39311
G1 X100.270 Y104.869 E9.52147
G1 X100.020 Y104.619 E9.61156
G1 X99.532 Y104.838 E9.74793
G1 X99.273 Y104.579 E9.84123
G1 X98.625 Y104.639 E10.00698
G1 X98.346 Y104.359 E10.10778
G1 X97.045 Y103.766 F7800.000
G1 X96.266 Y102.987 E10.38829 F600.000
G1 Z3.200 F7800.000
G1 E8.38829 F2400.00000
G92 E0
G1 X95.639 Y98.351 F7800.000
G1 E2.00000 F2400.00000
G1 X95.353 Y98.637 E2.10278 F600.000
G1 X95.420 Y99.277 E2.26667
G1 X95.159 Y99.538 E2.36065
G1 X95.381 Y100.023 E2.49652
G1 X95.130 Y100.274 E2.58682
G1 X95.443 Y100.668 E2.71498
G1 X95.192 Y100.919 E2.80538
G1 X95.575 Y101.243 E2.93314
G1 X95.330 Y101.488 E3.02124
G1 X95.763 Y101.762 E3.15172
G1 X95.521 Y102.004 E3.23873
G1 X95.756 Y102.476 E3.37309
G1 X95.998 Y102.234 E3.46038
G1 X96.275 Y102.664 E3.59066
G1 X96.035 Y102.904 E3.67702
G1 X96.358 Y103.288 E3.80480
G1 X96.591 Y103.056 E3.88845
G1 X96.944 Y103.409 E4.01577
G1 X96.712 Y103.642 E4.09939
G1 X97.095 Y103.965 E4.22716
G1 X97.336 Y103.725 E4.31367
G1 X97.766 Y104.002 E4.44395
G1 X97.524 Y104.243 E4.53088
G1 X97.994 Y104.480 E4.66492
G1 X98.238 Y104.237 E4.75259
G1 X98.509 Y104.672 E4.88328
G1 X98.757 Y104.425 E4.97238
G1 X99.086 Y104.803 E5.09999
G1 X99.332 Y104.557 E5.18845
G1 X99.724 Y104.872 E5.31654
G1 X99.977 Y104.619 E5.40744
G1 X100.464 Y104.839 E5.54351
G1 X100.723 Y104.580 E5.63691
G1 X101.373 Y104.638 E5.80294
G1 X101.649 Y104.362 E5.90236
G1 X102.926 Y103.792 F7800.000
G1 X103.765 Y102.952 E6.20470 F600.000
G1 X104.362 Y101.649 F7800.000
G1 X104.647 Y101.363 E6.30739 F600.000
G1 X104.580 Y100.723 E6.47131
G1 X104.842 Y100.462 E6.56549
G1 X104.619 Y99.977 E6.70129
G1 X104.870 Y99.726 E6.79154
G1 X104.557 Y99.332 E6.91970
G1 X104.808 Y99.081 E7.01006
G1 X104.425 Y98.757 E7.13782
G1 X104.670 Y98.512 E7.22592
G1 X104.237 Y98.238 E7.35638
G1 X104.478 Y97.996 E7.44336
G1 X104.242 Y97.526 E7.57745
G1 X104.002 Y97.766 E7.66386
G1 X103.725 Y97.336 E7.79414
G1 X103.964 Y97.096 E7.88034
G1 X103.642 Y96.712 E8.00814
G1 X103.409 Y96.944 E8.09178
G1 X103.056 Y96.591 E8.21910
G1 X103.288 Y96.358 E8.30277
G1 X102.905 Y96.034 E8.43052
G1 X102.664 Y96.275 E8.51726
G1 X102.234 Y95.998 E8.64754
G1 X102.476 Y95.756 E8.73467
G1 X102.004 Y95.521 E8.86891
G1 X101.762 Y95.763 E8.95618
G1 X101.486 Y95.332 E9.08653
G1 X101.243 Y95.575 E9.17404
G1 X100.914 Y95.197 E9.30166
G1 X100.668 Y95.443 E9.39011
G1 X100.276 Y95.127 E9.51817
G1 X100.023 Y95.381 E9.60941
G1 X99.535 Y95.161 E9.74558
G1 X99.277 Y95.420 E9.83871
G1 X98.627 Y95.362 E10.00474
G1 X98.351 Y95.638 E10.10414
G1 X97.074 Y96.209 F7800.000
G1 X96.235 Y97.048 E10.40639 F600.000
G1 Z3.600 F7800.000
G1 E8.40639 F2400.00000
G92 E0
G1 X95.641 Y101.654 F7800.000
G1 E2.00000 F2400.00000
G1 X95.364 Y101.377 E2.09980 F600.000
G1 X95.421 Y100.727 E2.26619
G1 X95.163 Y100.469 E2.35918
G1 X95.381 Y99.980 E2.49566
G1 X95.125 Y99.724 E2.58796
G1 X95.443 Y99.334 E2.71608
G1 X95.196 Y99.088 E2.80478
G1 X95.575 Y98.758 E2.93256
G1 X95.330 Y98.513 E3.02078
G1 X95.763 Y98.239 E3.15141
G1 X95.518 Y97.994 E3.23963
G1 X95.754 Y97.523 E3.37397
G1 X95.998 Y97.767 E3.46186
G1 X96.275 Y97.336 E3.59230
G1 X96.032 Y97.094 E3.67967
G1 X96.360 Y96.714 E3.80747
G1 X96.591 Y96.944 E3.89047
G1 X96.944 Y96.591 E4.01793
G1 X96.714 Y96.360 E4.10088
G1 X97.094 Y96.032 E4.22868
G1 X97.336 Y96.275 E4.31602
G1 X97.766 Y95.998 E4.44646
G1 X97.527 Y95.758 E4.53278
G1 X97.998 Y95.522 E4.66709
G1 X98.239 Y95.763 E4.75382
G1 X98.515 Y95.332 E4.88429
G1 X98.758 Y95.575 E4.97190
G1 X99.085 Y95.194 E5.09974
G1 X99.334 Y95.442 E5.18922
G1 X99.726 Y95.127 E5.31743
G1 X99.980 Y95.381 E5.40880
G1 X100.462 Y95.156 E5.54444
G1 X100.727 Y95.420 E5.63983
G1 X101.373 Y95.359 E5.80513
G1 X101.654 Y95.641 E5.90670
G1 X102.954 Y96.233 F7800.000
G1 X103.785 Y97.064 E6.20624 F600.000
G1 X104.360 Y98.346 F7800.000
G1 X104.636 Y98.622 E6.30591 F600.000
G1 X104.580 Y99.273 E6.47237
G1 X104.837 Y99.531 E6.56525
G1 X104.619 Y100.021 E6.70177
G1 X104.875 Y100.276 E6.79387
G1 X104.558 Y100.666 E6.92202
G1 X104.805 Y100.914 E7.01124
G1 X104.425 Y101.242 E7.13906
G1 X104.671 Y101.487 E7.22743
G1 X104.237 Y101.761 E7.35808
G1 X104.482 Y102.006 E7.44627
G1 X104.246 Y102.477 E7.58062
G1 X104.002 Y102.234 E7.66850
G1 X103.725 Y102.664 E7.79894
G1 X103.965 Y102.904 E7.88542
G1 X103.643 Y103.289 E8.01337
G1 X103.409 Y103.056 E8.09746
G1 X103.056 Y103.409 E8.22492
G1 X103.289 Y103.643 E8.30902
G1 X102.903 Y103.964 E8.43702
G1 X102.664 Y103.725 E8.52311
G1 X102.233 Y104.002 E8.65355
G1 X102.476 Y104.245 E8.74101
G1 X102.005 Y104.481 E8.87536
G1 X101.761 Y104.237 E8.96313
G1 X101.489 Y104.673 E9.09396
G1 X101.242 Y104.426 E9.18310
G1 X100.914 Y104.805 E9.31091
G1 X100.666 Y104.558 E9.40018
G1 X100.270 Y104.869 E9.52855
G1 X100.020 Y104.619 E9.61857
G1 X99.538 Y104.844 E9.75422
G1 X99.273 Y104.580 E9.84958
G1 X98.628 Y104.641 E10.01488
G1 X98.346 Y104.360 E10.11636
G1 X97.045 Y103.766 F7800.000
G1 X96.266 Y102.987 E10.39688 F600.000
G1 Z4.000 F7800.000
G1 E8.39688 F2400.00000
G92 E0
G1 X95.639 Y98.351 F7800.000
G1 E2.00000 F2400.00000
G1 X95.353 Y98.637 E2.10281 F600.000
G1 X95.420 Y99.277 E2.26670
G1 X95.159 Y99.538 E2.36067
G1 X95.381 Y100.023 E2.49654
G1 X95.130 Y100.274 E2.58684
G1 X95.443 Y100.668 E2.71500
G1 X95.192 Y100.919 E2.80539
G1 X95.575 Y101.243 E2.93315
G1 X95.330 Y101.488 E3.02124
G1 X95.763 Y101.762 E3.15172
G1 X95.522 Y102.004 E3.23874
G1 X95.756 Y102.476 E3.37311
G1 X95.998 Y102.234 E3.46041
G1 X96.275 Y102.664 E3.59069
G1 X96.035 Y102.904 E3.67707
G1 X96.358 Y103.288 E3.80485
G1 X96.591 Y103.056 E3.88853
G1 X96.944 Y103.409 E4.01584
G1 X96.712 Y103.642 E4.09946
G1 X97.095 Y103.965 E4.22723
G1 X97.336 Y103.725 E4.31371
G1 X97.766 Y104.002 E4.44398
G1 X97.524 Y104.243 E4.53088
G1 X97.996 Y104.479 E4.66505
G1 X98.238 Y104.237 E4.75227
G1 X98.514 Y104.668 E4.88261
G1 X98.757 Y104.425 E4.97021
G1 X99.085 Y104.804 E5.09787
G1 X99.332 Y104.557 E5.18688
G1 X99.724 Y104.872 E5.31496
G1 X99.977 Y104.619 E5.40603
G1 X100.465 Y104.839 E5.54219
G1 X100.723 Y104.580 E5.63524
G1 X101.373 Y104.638 E5.80132
G1 X101.649 Y104.361 E5.90085
G1 X102.960 Y103.757 F7800.000
G1 X103.765 Y102.952 E6.19079 F600.000
G1 X104.361 Y101.649 F7800.000
G1 X104.639 Y101.371 E6.29082 F600.000
G1 X104.580 Y100.723 E6.45656
G1 X104.841 Y100.462 E6.55037
G1 X104.619 Y99.977 E6.68629
G1 X104.870 Y99.726 E6.77646
G1 X104.557 Y99.332 E6.90463
G1 X104.808 Y99.081 E6.99491
G1 X104.425 Y98.757 E7.12268
G1 X104.670 Y98.512 E7.21084
G1 X104.237 Y98.238 E7.34131
G1 X104.478 Y97.996 E7.42833
G1 X104.243 Y97.525 E7.56254
G1 X104.002 Y97.766 E7.64928
G1 X103.725 Y97.336 E7.77956
G1 X103.965 Y97.095 E7.86614
G1 X103.642 Y96.712 E7.99390
G1 X103.409 Y96.944 E8.07760
G1 X103.056 Y96.591 E8.20491
G1 X103.288 Y96.358 E8.28863
G1 X102.907 Y96.033 E8.41633
G1 X102.664 Y96.275 E8.50361
G1 X102.234 Y95.998 E8.63389
G1 X102.476 Y95.756 E8.72106
G1 X102.004 Y95.521 E8.85529
G1 X101.762 Y95.763 E8.94262
G1 X101.486 Y95.332 E9.07298
G1 X101.243 Y95.575 E9.16053
G1 X100.914 Y95.197 E9.28814
G1 X100.668 Y95.443 E9.37654
G1 X100.278 Y95.126 E9.50453
G1 X100.023 Y95.381 E9.59637
G1 X99.535 Y95.161 E9.73256
G1 X99.277 Y95.420 E9.82562
G1 X98.627 Y95.362 E9.99169
G1 X98.352 Y95.638 E10.09100
G1 X97.040 Y96.243 F7800.000
G1 X96.235 Y97.048 E10.38085 F600.000
G1 Z4.400 F7800.000
G1 E8.38085 F2400.00000
G92 E0
G1 X95.641 Y101.654 F7800.000
G1 E2.00000 F2400.00000
G1 X95.364 Y101.377 E2.09983 F600.000
G1 X95.421 Y100.727 E2.26623
G1 X95.163 Y100.469 E2.35921
G1 X95.381 Y99.980 E2.49569
G1 X95.125 Y99.724 E2.58798
G1 X95.443 Y99.334 E2.71610
G1 X95.196 Y99.088 E2.80481
G1 X95.575 Y98.758 E2.93258
G1 X95.330 Y98.513 E3.02079
G1 X95.763 Y98.239 E3.15142
G1 X95.518 Y97.994 E3.23966
G1 X95.754 Y97.523 E3.37400
G1 X95.998 Y97.767 E3.46191
G1 X96.275 Y97.336 E3.59235
G1 X96.032 Y97.094 E3.67974
G1 X96.360 Y96.714 E3.80754
G1 X96.591 Y96.945 E3.89057
G1 X96.944 Y96.591 E4.01804
G1 X96.714 Y96.360 E4.10101
G1 X97.097 Y96.036 E4.22891
G1 X97.336 Y96.275 E4.31495
G1 X97.766 Y95.998 E4.44538
G1 X97.527 Y95.758 E4.53167
G1 X97.998 Y95.522 E4.66598
G1 X98.239 Y95.762 E4.75269
G1 X98.515 Y95.332 E4.88316
G1 X98.759 Y95.575 E4.97082
G1 X99.085 Y95.194 E5.09865
G1 X99.334 Y95.442 E5.18808
G1 X99.726 Y95.128 E5.31632
G1 X99.980 Y95.381 E5.40758
G1 X100.462 Y95.156 E5.54319
G1 X100.727 Y95.420 E5.63854
G1 X101.373 Y95.359 E5.80389
G1 X101.655 Y95.641 E5.90558
G1 X102.952 Y96.230 F7800.000
G1 X103.785 Y97.064 E6.20591 F600.000
G1 X104.359 Y98.345 F7800.000
G1 X104.636 Y98.622 E6.30571 F600.000
G1 X104.580 Y99.274 E6.47224
G1 X104.837 Y99.531 E6.56502
G1 X104.619 Y100.021 E6.70154
G1 X104.875 Y100.276 E6.79363
G1 X104.558 Y100.666 E6.92178
G1 X104.804 Y100.913 E7.01045
G1 X104.425 Y101.241 E7.13823
G1 X104.668 Y101.484 E7.22571
G1 X104.237 Y101.761 E7.35615
G1 X104.478 Y102.002 E7.44305
G1 X104.246 Y102.477 E7.57782
G1 X104.002 Y102.233 E7.66569
G1 X103.725 Y102.664 E7.79613
G1 X103.968 Y102.906 E7.88349
G1 X103.640 Y103.286 E8.01130
G1 X103.409 Y103.055 E8.09436
G1 X103.055 Y103.409 E8.22183
G1 X103.286 Y103.640 E8.30490
G1 X102.903 Y103.964 E8.43281
G1 X102.664 Y103.725 E8.51896
G1 X102.233 Y104.002 E8.64939
G1 X102.473 Y104.242 E8.73579
G1 X102.002 Y104.478 E8.87010
G1 X101.761 Y104.237 E8.95694
G1 X101.485 Y104.668 E9.08744
G1 X101.242 Y104.425 E9.17504
G1 X100.915 Y104.806 E9.30287
G1 X100.666 Y104.558 E9.39228
G1 X100.273 Y104.872 E9.52054
G1 X100.021 Y104.619 E9.61154
G1 X99.538 Y104.845 E9.74717
G1 X99.273 Y104.580 E9.84267
G1 X98.628 Y104.641 E10.00796
G1 X98.346 Y104.360 E10.10935
G1 X97.052 Y103.773 F7800.000
G1 X96.266 Y102.987 E10.39244 F600.000
G1 Z4.800 F7800.000
G1 E8.39244 F2400.00000
G92 E0
G1 X95.639 Y98.351 F7800.000
G1 E2.00000 F2400.00000
G1 X95.353 Y98.637 E2.10284 F600.000
G1 X95.420 Y99.277 E2.26673
G1 X95.159 Y99.538 E2.36070
G1 X95.381 Y100.023 E2.49657
G1 X95.130 Y100.274 E2.58687
G1 X95.443 Y100.668 E2.71503
G1 X95.192 Y100.919 E2.80543
G1 X95.575 Y101.243 E2.93318
G1 X95.329 Y101.489 E3.02164
G1 X95.763 Y101.762 E3.15220
G1 X95.522 Y102.003 E3.23914
G1 X95.758 Y102.474 E3.37330
G1 X95.998 Y102.234 E3.45988
G1 X96.275 Y102.664 E3.59015
G1 X96.035 Y102.904 E3.67656
G1 X96.358 Y103.288 E3.80434
G1 X96.591 Y103.056 E3.88804
G1 X96.944 Y103.409 E4.01536
G1 X96.712 Y103.642 E4.09901
G1 X97.095 Y103.965 E4.22677
G1 X97.335 Y103.725 E4.31322
G1 X97.766 Y104.002 E4.44349
G1 X97.524 Y104.243 E4.53036
G1 X97.996 Y104.479 E4.66453
G1 X98.238 Y104.237 E4.75176
G1 X98.514 Y104.668 E4.88210
G1 X98.757 Y104.425 E4.96975
G1 X99.086 Y104.803 E5.09737
G1 X99.332 Y104.557 E5.18578
G1 X99.724 Y104.872 E5.31386
G1 X99.977 Y104.619 E5.40500
G1 X100.465 Y104.839 E5.54114
G1 X100.723 Y104.580 E5.63411
G1 X101.373 Y104.638 E5.80024
G1 X101.649 Y104.361 E5.89989
G1 X102.926 Y103.792 F7800.000
G1 X103.765 Y102.952 E6.20222 F600.000
G1 X104.361 Y101.649 F7800.000
G1 X104.639 Y101.371 E6.30240 F600.000
G1 X104.580 Y100.723 E6.46818
G1 X104.841 Y100.462 E6.56192
G1 X104.619 Y99.977 E6.69781
G1 X104.870 Y99.726 E6.78806
G1 X104.558 Y99.331 E6.91624
G1 X104.808 Y99.081 E7.00645
G1 X104.425 Y98.757 E7.13422
G1 X104.670 Y98.512 E7.22245
G1 X104.237 Y98.238 E7.35294
G1 X104.478 Y97.996 E7.44002
G1 X104.242 Y97.526 E7.57412
G1 X104.002 Y97.766 E7.66057
G1 X103.725 Y97.336 E7.79084
G1 X103.964 Y97.097 E7.87698
G1 X103.642 Y96.712 E8.00479
G1 X103.409 Y96.945 E8.08855
G1 X103.055 Y96.591 E8.21587
G1 X103.288 Y96.358 E8.29965
G1 X102.907 Y96.033 E8.42736
G1 X102.664 Y96.275 E8.51471
G1 X102.234 Y95.998 E8.64499
G1 X102.476 Y95.756 E8.73222
G1 X102.004 Y95.521 E8.86645
G1 X101.762 Y95.763 E8.95384
G1 X101.486 Y95.332 E9.08421
G1 X101.243 Y95.575 E9.17181
G1 X100.914 Y95.197 E9.29943
G1 X100.668 Y95.443 E9.38782
G1 X100.277 Y95.127 E9.51587
G1 X100.023 Y95.381 E9.60710
G1 X99.535 Y95.161 E9.74332
G1 X99.277 Y95.420 E9.83644
G1 X98.627 Y95.362 E10.00247
G1 X98.351 Y95.638 E10.10184
G1 X97.040 Y96.243 F7800.000
G1 X96.235 Y97.048 E10.39169 F600.000
G1 Z5.200 F7800.000
G1 E8.39169 F2400.00000
G92 E0
G1 X95.639 Y101.649 F7800.000
G1 E2.00000 F2400.00000
G1 X95.361 Y101.371 E2.10010 F600.000
G1 X95.420 Y100.723 E2.26573
G1 X95.159 Y100.462 E2.35970
G1 X95.381 Y99.977 E2.49557
G1 X95.130 Y99.726 E2.58588
G1 X95.443 Y99.332 E2.71403
G1 X95.196 Y99.085 E2.80279
G1 X95.575 Y98.757 E2.93042
G1 X95.333 Y98.514 E3.01772
G1 X95.763 Y98.238 E3.14803
G1 X95.522 Y97.997 E3.23488
G1 X95.758 Y97.526 E3.36907
G1 X95.998 Y97.766 E3.45566
G1 X96.275 Y97.336 E3.58593
G1 X96.033 Y97.093 E3.67329
G1 X96.360 Y96.714 E3.80094
G1 X96.591 Y96.944 E3.88393
G1 X96.944 Y96.591 E4.01125
G1 X96.714 Y96.360 E4.09419
G1 X97.093 Y96.033 E4.22184
G1 X97.335 Y96.275 E4.30908
G1 X97.765 Y95.998 E4.43934
G1 X97.526 Y95.759 E4.52550
G1 X97.997 Y95.522 E4.65965
G1 X98.238 Y95.763 E4.74633
G1 X98.514 Y95.332 E4.87667
G1 X98.757 Y95.575 E4.96431
G1 X99.084 Y95.195 E5.09200
G1 X99.332 Y95.443 E5.18140
G1 X99.724 Y95.128 E5.30948
G1 X99.977 Y95.381 E5.40064
G1 X100.458 Y95.155 E5.53598
G1 X100.723 Y95.420 E5.63127
G1 X101.367 Y95.357 E5.79619
G1 X101.649 Y95.639 E5.89775
G1 X102.960 Y96.243 F7800.000
G1 X103.765 Y97.048 E6.18768 F600.000
G1 X104.361 Y98.351 F7800.000
G1 X104.647 Y98.637 E6.29068 F600.000
G1 X104.580 Y99.277 E6.45467
G1 X104.841 Y99.538 E6.54847
G1 X104.619 Y100.023 E6.68434
G1 X104.870 Y100.274 E6.77463
G1 X104.558 Y100.669 E6.90282
G1 X104.804 Y100.915 E6.99135
G1 X104.425 Y101.243 E7.11900
G1 X104.667 Y101.486 E7.20648
G1 X104.237 Y101.762 E7.33681
G1 X104.478 Y102.003 E7.42371
G1 X104.246 Y102.478 E7.55831
G1 X104.002 Y102.234 E7.64618
G1 X103.725 Y102.664 E7.77645
G1 X103.967 Y102.907 E7.86382
G1 X103.640 Y103.286 E7.99147
G1 X103.409 Y103.055 E8.07453
G1 X103.055 Y103.409 E8.20185
G1 X103.286 Y103.640 E8.28493
G1 X102.903 Y103.964 E8.41268
G1 X102.664 Y103.725 E8.49883
G1 X102.234 Y104.002 E8.62911
G1 X102.474 Y104.241 E8.71551
G1 X102.003 Y104.478 E8.84965
G1 X101.762 Y104.237 E8.93649
G1 X101.486 Y104.668 E9.06686
G1 X101.243 Y104.425 E9.15446
G1 X100.916 Y104.805 E9.28215
G1 X100.668 Y104.557 E9.37153
G1 X100.276 Y104.872 E9.49961
G1 X100.024 Y104.620 E9.59051
G1 X99.542 Y104.845 E9.72594
G1 X99.277 Y104.580 E9.82138
G1 X98.633 Y104.643 E9.98620
G1 X98.351 Y104.362 E10.08746
G1 X97.040 Y103.757 F7800.000
G1 X96.215 Y102.933 E10.38427 F600.000
G1 E8.38427 F2400.00000
G92 E0
M107
M104 S0 ; turn off temperature
G28 X0  ; home X axis
M84     ; disable motors

; filament used = 100.4mm (0.1cm3)

; avoid_crossing_perimeters = 0
; bed_shape = 0x0,200x0,200x200,0x200
; bed_temperature = 0
; before_layer_gcode = 
; bridge_acceleration = 0
; bridge_fan_speed = 100
; brim_width = 0
; complete_objects = 0
; cooling = 1
; default_acceleration = 0
; disable_fan_first_layers = 3
; duplicate_distance = 6
; end_gcode = M104 S0 ; turn off temperature\nG28 X0  ; home X axis\nM84     ; disable motors\n
; extruder_clearance_height = 20
; extruder_clearance_radius = 20
; extruder_offset = 0x0
; extrusion_axis = E
; extrusion_multiplier = 1
; fan_always_on = 0
; fan_below_layer_time = 60
; filament_colour = #FFFFFF
; filament_diameter = 1
; first_layer_acceleration = 0
; first_layer_bed_temperature = 0
; first_layer_extrusion_width = 200%
; first_layer_speed = 30
; first_layer_temperature = 200
; gcode_arcs = 0
; gcode_comments = 0
; gcode_flavor = reprap
; infill_acceleration = 0
; infill_first = 0
; layer_gcode = 
; max_fan_speed = 100
; max_print_speed = 80
; max_volumetric_speed = 0
; min_fan_speed = 35
; min_print_speed = 10
; min_skirt_length = 0
; notes = 
; nozzle_diameter = 0.5
; only_retract_when_crossing_perimeters = 1
; ooze_prevention = 0
; output_filename_format = [input_filename_base].gcode
; perimeter_acceleration = 0
; post_process = 
; pressure_advance = 0
; resolution = 0
; retract_before_travel = 2
; retract_layer_change = 0
; retract_length = 2
; retract_length_toolchange = 10
; retract_lift = 0
; retract_restart_extra = 0
; retract_restart_extra_toolchange = 0
; retract_speed = 40
; skirt_distance = 6
; skirt_height = 1
; skirts = 0
; slowdown_below_layer_time = 5
; spiral_vase = 0
; standby_temperature_delta = -5
; start_gcode = G28 ; home all axes\nG1 Z5 F5000 ; lift nozzle\n
; temperature = 200
; threads = 2
; toolchange_gcode = 
; travel_speed = 130
; use_firmware_retraction = 0
; use_relative_e_distances = 0
; use_volumetric_e = 0
; vibration_limit = 0
; wipe = 0
; z_offset = 0
; dont_support_bridges = 1
; extrusion_width = 0
; first_layer_height = 0.4
; infill_only_where_needed = 0
; interface_shells = 0
; layer_height = 0.4
; raft_layers = 0
; seam_position = aligned
; support_material = 0
; support_material_angle = 0
; support_material_contact_distance = 0.2
; support_material_enforce_layers = 0
; support_material_extruder = 1
; support_material_extrusion_width = 0
; support_material_interface_extruder = 1
; support_material_interface_layers = 3
; support_material_interface_spacing = 0
; support_material_interface_speed = 100%
; support_material_pattern = pillars
; support_material_spacing = 2.5
; support_material_speed = 60
; support_material_threshold = 0
; xy_size_compensation = 0
; bottom_solid_layers = 0
; bridge_flow_ratio = 1
; bridge_speed = 60
; external_fill_pattern = rectilinear
; external_perimeter_extrusion_width = 0
; external_perimeter_speed = 50%
; external_perimeters_first = 0
; extra_perimeters = 1
; fill_angle = 45
; fill_density = 60%
; fill_pattern = rectilinear
; gap_fill_speed = 20
; infill_every_layers = 1
; infill_extruder = 1
; infill_extrusion_width = 0
; infill_overlap = 15%
; infill_speed = 80
; overhangs = 1
; perimeter_extruder = 1
; perimeter_extrusion_width = 0
; perimeter_speed = 60
; perimeters = 0
; small_perimeter_speed = 15
; solid_infill_below_area = 70
; solid_infill_every_layers = 0
; solid_infill_extruder = 1
; solid_infill_extrusion_width = 0
; solid_infill_speed = 20
; thin_walls = 1
; top_infill_extrusion_width = 0
; top_solid_infill_speed = 15
; top_solid_layers = 0
