; generated by Slic3r 1.2.9 on 2019-05-01 at 17:31:58

; external perimeters extrusion width = 0.50mm
; perimeters extrusion width = 0.72mm
; infill extrusion width = 0.72mm
; solid infill extrusion width = 0.72mm
; top infill extrusion width = 0.72mm

M107
M104 S200 ; set temperature
G28 ; home all axes
G1 Z5 F5000 ; lift nozzle

M109 S200 ; wait for temperature to be reached
G21 ; set units to millimeters
G90 ; use absolute coordinates
M82 ; use absolute distances for extrusion
G92 E0
G1 Z0.300 F7800.000
G1 E-2.00000 F2400.00000
G92 E0
G1 X97.359 Y91.739 F7800.000
G1 E2.00000 F2400.00000
G1 X97.433 Y91.527 E2.04582 F600.000
G1 X97.701 Y91.572 E2.10128
G1 X97.730 Y92.502 E2.29164
G1 X97.458 Y92.546 E2.34796
G1 X97.396 Y92.356 E2.38881
G1 X97.351 Y92.073 E2.44738
G1 X97.357 Y91.814 E2.50056
G1 X97.574 Y91.674 F7800.000
G1 X97.703 Y92.811 F7800.000
G1 X98.042 Y93.718 E2.69879 F600.000
G1 X98.417 Y94.919 E2.95614
G1 Z0.600 F7800.000
G1 E0.95614 F2400.00000
G92 E0
G1 X102.506 Y108.941 F7800.000
G1 E2.00000 F2400.00000
G1 X102.538 Y109.274 E2.08375 F900.000
G1 X102.505 Y109.396 E2.11517
G1 X102.409 Y109.575 E2.16600
G1 X102.235 Y109.696 E2.21902
G1 X102.016 Y109.748 E2.27533
G1 X101.724 Y109.573 E2.36041
G1 X101.599 Y109.269 E2.44271
G1 X101.746 Y109.213 E2.48195
G1 X101.934 Y109.017 E2.54972
G1 X101.995 Y108.978 E2.56780
G1 X102.107 Y108.973 E2.59595
G1 X102.274 Y108.876 E2.64410
G1 X102.434 Y108.921 E2.68574
G1 E0.68574 F2400.00000
G92 E0
G1 X97.847 Y90.443 F7800.000
G1 E2.00000 F2400.00000
G1 X97.870 Y90.646 E2.03406 F600.000
G1 X97.793 Y91.077 E2.10676
G1 X97.837 Y91.297 E2.14422
G1 X98.075 Y91.605 E2.20895
G1 X98.148 Y91.668 E2.22495
G1 X98.251 Y91.830 E2.25694
G1 X98.279 Y91.873 E2.26963 F900.000
G1 X98.496 Y92.031 E2.33683
G1 X98.566 Y92.148 E2.37103
G1 X98.858 Y92.325 E2.45623
G1 X99.035 Y92.546 E2.52718
G1 X99.106 Y92.670 E2.56288
G1 X99.239 Y93.235 E2.70787
G1 X99.324 Y94.407 E3.00170
G1 X99.333 Y97.424 E3.75601
G1 X99.060 Y97.470 E3.82542
G1 X98.751 Y96.492 E4.08175
G1 X98.508 Y95.377 E4.36699
G1 X98.475 Y95.205 E4.39631 F600.000
G1 X98.318 Y94.681 E4.48734
G1 X98.223 Y94.255 E4.55990
G1 X97.624 Y92.599 E4.85292
G1 X97.468 Y92.417 E4.89279
G1 X97.071 Y91.699 E5.02928
G1 X96.987 Y91.442 E5.07436
G1 X96.969 Y91.215 E5.11225
G1 X96.999 Y90.986 E5.16986 F900.000
G1 X97.209 Y90.656 E5.26757
G1 X97.434 Y90.483 E5.33859
G1 X97.772 Y90.450 E5.39515 F600.000
G1 X97.764 Y90.630 F7800.000
G1 E3.39515 F2400.00000
G92 E0
G1 X99.245 Y97.693 F7800.000
G1 E2.00000 F2400.00000
G1 X99.305 Y98.325 E2.15891 F600.000
G1 X99.413 Y98.911 E2.30785
G1 X99.039 Y96.442 F7800.000
G1 X98.869 Y94.926 E2.68918 F600.000
G1 X98.869 Y94.926 F7800.000
G1 X98.748 Y94.084 E3.13572 F600.000
G1 X98.588 Y93.335 E3.53743
G1 X98.467 Y92.926 E3.76102
G1 X98.413 Y92.831 E3.81815
G1 X98.218 Y92.593 E3.97987
G1 X98.093 Y92.376 E4.11097
G1 X97.811 Y92.105 E4.31650
G1 X97.833 Y92.080 F7800.000
G1 X97.468 Y91.526 E4.48245 F600.000
G1 X97.411 Y91.357 E4.52703
G1 X97.387 Y91.180 E4.57175
G1 X97.394 Y91.104 E4.59085
G1 X97.528 Y90.748 E4.68600
G1 Z0.900 F7800.000
G1 E2.68600 F2400.00000
G92 E0
G1 X102.751 Y108.593 F7800.000
G1 E2.00000 F2400.00000
G1 X102.822 Y108.730 E2.02567 F600.000
G1 X102.908 Y108.989 E2.07103
G1 X102.923 Y109.155 E2.09882
G1 X102.878 Y109.459 E2.14990
G1 X102.748 Y109.749 E2.20287
G1 X102.675 Y109.849 E2.22346
G1 X102.403 Y110.054 E2.28019
G1 X102.237 Y110.115 E2.30951
G1 X102.051 Y110.144 E2.34087
G1 X101.902 Y110.130 E2.36574
G1 X101.551 Y110.020 E2.42695
G1 X101.292 Y109.830 E2.48041
G1 X101.058 Y109.745 E2.54272 F900.000
G1 X100.880 Y109.646 E2.59353
G1 X100.951 Y109.222 E2.70116
G1 X100.927 Y108.966 E2.76525
G1 X101.201 Y108.932 E2.83435
G1 X101.516 Y108.812 E2.89052 F600.000
G1 X101.712 Y108.784 E2.92330
G1 X102.168 Y108.561 E3.00779
G1 X102.396 Y108.542 E3.04592
G1 X102.678 Y108.579 E3.09320
G1 X102.713 Y108.742 F7800.000
G1 X102.545 Y109.196 F7800.000
G1 X102.261 Y108.913 E3.32617 F3600.000
G1 X101.516 Y109.317 E3.81870
G1 X101.902 Y109.703 E4.13579
G1 E2.13579 F2400.00000
G92 E0
G1 X97.977 Y91.222 F7800.000
G1 E2.00000 F2400.00000
G1 X98.134 Y91.490 E2.05166 F600.000
G1 X98.370 Y91.686 E2.10272
G1 X98.587 Y91.788 E2.14265
G1 X98.992 Y91.822 E2.21030
G1 X99.167 Y91.747 E2.25785 F900.000
G1 X99.293 Y91.651 E2.29751
G1 X99.532 Y91.409 E2.38252
G1 X99.751 Y91.537 E2.44599
G1 X99.647 Y91.902 E2.54077
G1 X99.566 Y92.468 E2.68372
G1 X99.503 Y93.496 E2.85512 F600.000
G1 X99.543 Y94.488 E3.02039
G1 X99.593 Y95.189 E3.13735
G1 X99.633 Y96.406 E3.33987
G1 X99.632 Y97.742 E3.56215
G1 X99.702 Y99.192 E3.80385
G1 X99.786 Y100.390 E4.10410 F900.000
G1 X99.474 Y100.426 E4.18251
G1 X99.299 Y99.355 E4.45385
G1 X99.200 Y98.859 E4.53795 F600.000
G1 X99.142 Y98.363 E4.62115
G1 X98.960 Y97.458 E4.77472
G1 X98.948 Y97.151 E4.82581
G1 X98.835 Y96.431 E4.94713
G1 X98.624 Y94.543 E5.26323
G1 X98.450 Y93.781 E5.39330
G1 X97.974 Y92.393 E5.63733
G1 X97.755 Y91.980 E5.71515
G1 X97.428 Y91.680 E5.78902
G1 X97.281 Y91.591 E5.81763
G1 X96.795 Y91.152 E5.92655
G1 X96.763 Y91.109 E5.93550
G1 X96.738 Y91.004 E5.95348
G1 X96.781 Y90.706 E6.00356
G1 X96.858 Y90.505 E6.03932
G1 X97.031 Y90.348 E6.07825
G1 X97.267 Y90.189 E6.12548
G1 X97.375 Y90.171 E6.14379
G1 X97.520 Y90.194 E6.16814
G1 X97.669 Y90.142 E6.19445
G1 X97.783 Y90.035 E6.22055
G1 X98.335 Y90.374 E6.32825
G1 X98.352 Y90.384 E6.33334 F900.000
G1 X98.344 Y90.401 E6.33799
G1 X98.259 Y90.576 E6.37039 F600.000
G1 X98.200 Y90.634 E6.38411
G1 X97.975 Y90.993 E6.45465
G1 X97.976 Y91.147 E6.48016
G1 X97.779 Y91.461 F7800.000
G1 E4.48016 F2400.00000
G92 E0
G1 X99.673 Y100.655 F7800.000
G1 E2.00000 F2400.00000
G1 X99.723 Y101.618 E2.24106 F931.668
G1 X99.865 Y102.435 E2.44839
G1 X99.960 Y102.815 E2.54621
G1 E0.54621 F2400.00000
G92 E0
G1 X99.876 Y91.320 F7800.000
G1 E2.00000 F2400.00000
G1 X99.881 Y90.865 E2.11380 F931.668
G1 X99.532 Y90.522 E2.23600
G1 X98.932 Y89.995 E2.43571
G1 E0.43571 F2400.00000
G92 E0
G1 X97.110 Y90.838 F7800.000
G1 E2.00000 F2400.00000
G1 X97.642 Y91.379 E2.18981 F621.112
G1 X97.892 Y91.687 E2.28885
G1 X98.009 Y91.792 E2.32834
G1 X98.222 Y92.041 E2.41005
G1 X98.597 Y92.082 E2.50453
G1 X98.747 Y92.081 F7800.000
G1 X99.070 Y94.392 E3.72889 F621.112
G1 X99.072 Y94.392 F7800.000
G1 X99.289 Y97.114 E4.41149 F621.112
G1 X99.295 Y97.418 E4.48755
G1 X99.347 Y97.897 E4.60791
M106 S255
G1 Z1.200 F7800.000
G1 E2.60791 F2400.00000
G92 E0
G1 X101.577 Y108.297 F7800.000
G1 E2.00000 F2400.00000
G1 X101.791 Y108.488 E2.07179 F735.294
G1 X102.200 Y108.709 E2.18815
G1 X102.504 Y108.836 E2.27035
G1 X102.562 Y109.050 E2.32580
G1 X102.568 Y109.161 E2.35362
G1 X102.544 Y109.309 E2.39097
G1 X102.479 Y109.492 E2.43952
G1 X102.420 Y109.593 E2.46883
G1 X102.315 Y109.704 E2.50705
G1 X102.170 Y109.785 E2.54857
G1 X102.038 Y109.822 E2.58286
G1 X101.739 Y109.759 E2.65919
G1 X101.598 Y109.610 E2.71045
G1 X101.137 Y109.369 E2.84054
G1 X101.298 Y108.663 E3.02155
G1 X101.417 Y108.321 E3.11208
M106 S255
G1 X101.462 Y108.194 E3.14588 F900.000
G1 X101.521 Y108.247 E3.16582
M106 S255
G1 X103.029 Y108.692 F7800.000
G1 X103.104 Y108.964 E3.21272 F735.294
G1 X103.115 Y109.192 E3.25078
G1 X103.074 Y109.445 E3.29342
G1 X102.975 Y109.722 E3.34228
G1 X102.859 Y109.922 E3.38070
G1 X102.654 Y110.139 E3.43058
G1 X102.379 Y110.293 E3.48291
G1 X102.063 Y110.368 E3.53696
G1 X101.566 Y110.280 E3.62095
G1 X101.425 Y110.221 E3.64649
G1 X101.265 Y110.051 E3.68530
G1 X101.068 Y109.948 E3.72212
G1 X100.799 Y109.896 E3.76774
G1 X100.650 Y109.822 E3.79550
G1 X100.618 Y109.720 E3.81326
G1 X100.624 Y109.597 E3.83379
G1 X100.567 Y109.415 E3.86541
G1 X100.772 Y108.521 E4.01802
M106 S255
G1 X100.865 Y108.249 E4.08998 F900.000
G1 X100.924 Y107.657 E4.23871
G1 X101.003 Y107.506 E4.28142
G1 X101.020 Y107.094 E4.38434
G1 X101.262 Y107.038 E4.44658
G1 X101.476 Y107.431 E4.55846
G1 X101.742 Y107.767 E4.66565
G1 X101.938 Y107.889 E4.72335
G1 X102.151 Y108.063 E4.79207
M106 S255
G1 X102.436 Y108.217 E4.84596 F735.294
G1 X102.923 Y108.421 E4.93387
G1 X103.002 Y108.622 E4.96986
G1 X102.838 Y108.899 F7800.000
G1 E2.96986 F2400.00000
G92 E0
G1 X100.981 Y106.847 F7800.000
G1 E2.00000 F2400.00000
G1 X100.855 Y106.262 E2.14943 F1470.587
G1 X100.669 Y105.751 E2.28558
G1 X100.571 Y105.402 E2.37601
G1 X100.486 Y104.988 E2.48167
G1 E0.48167 F2400.00000
G92 E0
G1 X98.865 Y92.143 F7800.000
G1 E2.00000 F2400.00000
G1 X98.595 Y91.561 E2.16043 F735.294
G1 X98.473 Y91.390 E2.21292
G1 X98.353 Y91.150 E2.28000
G1 X98.016 Y90.872 E2.38924
G1 X98.138 Y90.599 E2.46385
G1 X98.523 Y90.657 E2.56118
G1 X98.969 Y90.555 E2.67568
G1 X99.067 Y90.491 E2.70499
G1 X99.802 Y90.871 E2.91187
G1 X99.545 Y91.165 E3.00939
G1 X99.312 Y91.580 E3.12825
G1 X98.912 Y92.085 E3.28937
G1 E1.28937 F2400.00000
G92 E0
G1 X96.858 Y90.734 F7800.000
G1 E2.00000 F2400.00000
G1 X96.878 Y90.526 E2.03470 F735.294
G1 X97.016 Y90.173 E2.09784
G1 X97.082 Y90.057 E2.11995
G1 X97.665 Y90.123 E2.21759
G1 X98.000 Y89.993 E2.27738
G1 X98.199 Y90.057 E2.31213
G1 X98.502 Y90.103 E2.36314
G1 X98.751 Y90.046 E2.40566
G1 X99.006 Y89.877 E2.45654
G1 X99.261 Y89.635 E2.51510
G1 X99.344 Y89.917 E2.56408
G1 X99.462 Y90.081 E2.59765
G1 X99.716 Y90.213 E2.64525
G1 X99.917 Y90.224 E2.67887
M106 S255
G1 X100.401 Y90.273 E2.80029 F900.000
G1 X100.523 Y90.258 E2.83119
G1 X100.630 Y90.548 E2.90842
G1 X100.582 Y90.716 E2.95223
G1 X100.483 Y90.896 E3.00345
M106 S255
G1 X100.447 Y90.961 E3.01592 F735.294
G1 X99.993 Y91.481 E3.13081
G1 X99.766 Y91.885 E3.20779
G1 X99.418 Y92.323 E3.30082
G1 X99.323 Y92.550 E3.34195
G1 X99.249 Y92.851 E3.39339
G1 X99.218 Y93.468 E3.49620
G1 X99.309 Y94.605 E3.68607
G1 X99.632 Y95.875 E3.90404
G1 X99.683 Y96.341 E3.98202
G1 X99.748 Y96.635 E4.03224
G1 X99.843 Y97.703 E4.21054
G1 X99.920 Y99.476 E4.50591
G1 X100.136 Y101.672 E4.87297
G1 X100.298 Y102.775 E5.05853
M106 S255
G1 X100.372 Y103.282 E5.18663 F900.000
G1 X100.462 Y104.252 E5.43008
G1 X100.544 Y104.714 E5.54737
G1 X100.266 Y104.789 E5.61943
G1 X100.148 Y104.505 E5.69641
G1 X99.835 Y103.522 E5.95443
G1 X99.684 Y102.980 E6.09488
M106 S255
G1 X99.553 Y102.509 E6.17622 F735.294
G1 X99.375 Y101.649 E6.32237
G1 X99.278 Y100.768 E6.46995
G1 X99.246 Y100.133 E6.57570
G1 X99.214 Y99.818 E6.62840
G1 X99.161 Y99.554 E6.67322
G1 X99.098 Y98.913 E6.78040
G1 X99.086 Y98.268 E6.88775
G1 X99.022 Y97.925 E6.94576
G1 X98.946 Y96.133 E7.24414
G1 X98.807 Y94.510 E7.51531
G1 X98.599 Y93.269 E7.72463
G1 X98.346 Y92.320 E7.88802
G1 X98.122 Y91.836 E7.97676
G1 X98.005 Y91.673 E8.01020
G1 X97.917 Y91.497 E8.04282
G1 X97.660 Y91.285 E8.09830
G1 X97.253 Y91.184 E8.16819
G1 X97.074 Y91.194 E8.19790
G1 X96.900 Y91.028 E8.23798
G1 X96.868 Y90.958 E8.25082
G1 X96.862 Y90.809 E8.27562
G1 X97.044 Y90.639 F7800.000
G1 E6.27562 F2400.00000
G92 E0
G1 X98.911 Y90.912 F7800.000
G1 E2.00000 F2400.00000
M106 S255
G1 X99.142 Y91.206 E2.09344 F3600.000
M106 S255
G1 E0.09344 F2400.00000
G92 E0
G1 X99.160 Y95.204 F7800.000
G1 E2.00000 F2400.00000
G1 X99.284 Y95.938 E2.18596 F980.392
G1 X99.357 Y96.696 E2.37635
G1 X99.476 Y98.237 E2.76291
G1 X99.539 Y99.498 E3.07834
G1 X99.579 Y99.767 E3.14653
G1 X99.749 Y101.590 E3.60420
G1 X99.893 Y102.427 E3.81651
G1 X100.081 Y103.316 E4.04352
G1 Z1.500 F7800.000
G1 X101.109 Y107.735 F7800.000
G1 X101.395 Y107.658 E4.11746 F721.059
G1 X101.642 Y108.069 E4.23741
G1 X102.018 Y108.432 E4.36790
G1 X102.553 Y108.716 E4.51953
G1 X102.675 Y109.089 E4.61768
G1 X102.636 Y109.413 E4.69904
G1 X102.564 Y109.571 E4.74255
G1 X102.435 Y109.742 E4.79600
G1 X102.237 Y109.885 E4.85709
G1 X102.096 Y109.932 E4.89445
G1 X101.681 Y109.862 E4.99956
G1 X101.625 Y109.804 E5.01958
G1 X101.344 Y109.642 E5.10079
G1 X100.975 Y109.562 E5.19514
G1 X101.095 Y108.543 E5.45154
G1 X101.108 Y107.810 E5.63489
G1 X100.481 Y109.863 F7800.000
G1 X100.439 Y109.454 E5.70327 F721.059
G1 X100.550 Y108.507 E5.86203
G1 X100.566 Y107.609 E6.01133
G1 X100.513 Y107.040 E6.10644
G1 X100.257 Y105.899 E6.30112
G1 X99.849 Y104.403 E6.55906
G1 X99.385 Y102.326 E6.91322
G1 X99.165 Y100.661 E7.19269
G1 X99.073 Y99.304 E7.41893
G1 X99.063 Y98.731 E7.51439
G1 X99.083 Y97.876 E7.65671
G1 X99.062 Y97.480 E7.72265
G1 X99.079 Y96.663 E7.85866
G1 X99.061 Y96.251 E7.92713
G1 X99.348 Y96.205 E7.97549
G1 X99.771 Y97.679 E8.23066
G1 X99.970 Y98.970 E8.44804
G1 X100.146 Y100.899 E8.77024
G1 X100.329 Y102.174 E8.98459
G1 X100.699 Y104.143 E9.31801
G1 X100.931 Y105.138 E9.48808
G1 X101.141 Y105.853 E9.61198
G1 X101.513 Y106.798 E9.78105
G1 X102.072 Y107.727 E9.96140
G1 X102.341 Y107.986 E10.02358
G1 X102.906 Y108.286 E10.13000
G1 X102.982 Y108.351 E10.14672
G1 X103.021 Y108.409 E10.15833
G1 X103.201 Y108.899 E10.24517
G1 X103.223 Y109.073 E10.27433
G1 X103.200 Y109.404 E10.32944
G1 X103.153 Y109.593 E10.36193
G1 X103.036 Y109.851 E10.40906
G1 X102.829 Y110.125 E10.46618
G1 X102.627 Y110.286 E10.50922
G1 X102.467 Y110.383 E10.54029
G1 X102.230 Y110.462 E10.58192
G1 X102.120 Y110.478 E10.60044
G1 X101.963 Y110.472 E10.62659
G1 X101.543 Y110.390 E10.69776
G1 X101.349 Y110.302 E10.73318
G1 X101.287 Y110.238 E10.74797
G1 X101.145 Y110.156 E10.77522
G1 X100.761 Y110.073 E10.84053
G1 X100.638 Y110.029 E10.86237
G1 X100.513 Y109.931 E10.88881
G1 X100.754 Y109.556 F7800.000
G1 E8.88881 F2400.00000
G92 E0
G1 X99.183 Y95.978 F7800.000
G1 E2.00000 F2400.00000
G1 X98.978 Y94.838 E2.28972 F1442.118
G1 X98.881 Y94.030 E2.49321
G1 E0.49321 F2400.00000
G92 E0
G1 X99.357 Y97.290 F7800.000
G1 E2.00000 F2400.00000
G1 X99.439 Y97.867 E2.14566 F961.412
G1 X99.640 Y100.613 E2.83412
G1 X99.856 Y102.242 E3.24491
G1 X100.266 Y104.238 E3.75417
G1 X100.518 Y105.243 E4.01318
G1 X100.729 Y106.002 E4.21020
G1 X101.173 Y107.436 E4.58541
G1 X101.917 Y108.920 F7800.000
G1 X102.267 Y109.271 E4.70929 F961.412
G1 E2.70929 F2400.00000
G92 E0
G1 X99.267 Y91.104 F7800.000
G1 E2.00000 F2400.00000
G1 X99.152 Y90.829 E2.04951 F721.059
G1 X98.885 Y90.706 E2.09834
G1 X98.666 Y90.753 E2.13565
G1 X98.470 Y90.730 E2.16849
G1 X98.233 Y90.849 E2.21269
G1 X98.092 Y91.037 E2.25181
G1 X97.969 Y90.833 E2.29157
G1 X97.742 Y90.733 E2.33278
G1 X97.539 Y90.771 E2.36707
G1 X97.122 Y90.982 E2.44493
G1 X96.975 Y91.008 E2.46968
G1 X96.905 Y90.865 E2.49617
G1 X96.888 Y90.283 E2.59300
G1 X96.939 Y90.124 E2.62078
G1 X97.108 Y90.099 E2.64921
G1 X97.287 Y90.127 E2.67927
G1 X97.589 Y90.225 E2.73207
G1 X97.800 Y90.195 E2.76747
G1 X97.989 Y90.044 E2.80773
G1 X98.079 Y89.997 E2.82464
G1 X98.394 Y90.039 E2.87749
G1 X98.646 Y90.012 E2.91966
G1 X98.930 Y89.834 E2.97554
G1 X99.271 Y89.512 E3.05353
G1 X99.387 Y89.784 E3.10283
G1 X99.488 Y89.919 E3.13089
G1 X99.628 Y90.033 E3.16096
G1 X99.876 Y90.102 E3.20372
G1 X100.182 Y90.126 E3.25484
G1 X100.305 Y90.176 E3.27687
G1 X100.372 Y90.314 E3.30236
G1 X100.554 Y90.573 E3.35516
G1 X100.580 Y90.670 E3.37190
G1 X100.469 Y90.878 E3.41115
G1 X100.370 Y90.950 E3.43151
G1 X100.162 Y91.021 E3.46806
G1 X99.958 Y91.186 E3.51179
G1 X99.751 Y91.314 E3.55219
G1 X99.476 Y91.533 E3.61076
G1 X99.230 Y91.775 E3.66806
G1 X99.134 Y91.895 E3.69372
G1 X98.906 Y91.800 E3.73480
G1 X98.934 Y91.567 E3.77378
G1 X99.075 Y91.467 E3.80249
G1 X99.232 Y91.170 E3.85841
G1 X99.508 Y90.929 F7800.000
G1 X100.208 Y90.555 F7800.000
G1 X99.962 Y90.586 E3.92041 F961.412
G1 X99.702 Y90.652 E3.98747
G1 X99.572 Y90.537 E4.03074
G1 X99.148 Y90.282 E4.15465
G1 X98.976 Y90.293 E4.19759
G1 X98.649 Y90.381 E4.28237
G1 X98.397 Y90.383 E4.34535
G1 X98.171 Y90.422 E4.40262
G1 X98.115 Y90.458 E4.41926
G1 X97.873 Y90.476 E4.47997
G1 Z1.800 F7800.000
G1 E2.47997 F2400.00000
G92 E0
G1 X101.208 Y107.224 F7800.000
G1 E2.00000 F2400.00000
G1 X101.583 Y107.890 E2.19095 F600.000
G1 X102.019 Y108.418 E2.36221
G1 X102.632 Y108.813 E2.54439
G1 X102.687 Y108.960 E2.58355
G1 X102.719 Y109.110 E2.62184
G1 X102.720 Y109.260 E2.65932
G1 X102.677 Y109.455 E2.70944
G1 X102.616 Y109.591 E2.74658
G1 X102.466 Y109.784 E2.80768
G1 X102.357 Y109.863 E2.84134
G1 X102.192 Y109.935 E2.88624
G1 X101.971 Y109.958 E2.94192
G1 X101.758 Y109.944 E2.99518
G1 X101.422 Y109.835 E3.08354
G1 X100.893 Y109.715 E3.21914
G1 X101.128 Y109.369 E3.32357
G1 X100.958 Y108.950 E3.43646
G1 X100.957 Y107.741 E3.73886
G1 X100.900 Y107.328 E3.84303
G1 X101.137 Y107.248 E3.90551
G1 E1.90551 F2400.00000
G92 E0
G1 X99.168 Y98.443 F7800.000
G1 E2.00000 F2400.00000
G1 X99.436 Y98.427 E2.04451 F600.000
G1 X99.988 Y100.433 E2.39073
G1 X100.438 Y102.662 E2.76916
G1 X100.673 Y103.629 E2.93467
G1 X100.814 Y104.371 E3.06029
G1 X100.918 Y104.797 E3.13338
G1 X101.338 Y106.124 E3.36498
G1 X101.760 Y107.093 E3.54080
G1 X102.035 Y107.580 E3.63386
G1 X102.386 Y108.006 E3.72572
G1 X102.884 Y108.328 E3.82444
G1 X103.056 Y108.395 E3.85517
G1 X103.211 Y108.806 E3.92825
G1 X103.263 Y109.050 E3.96966
G1 X103.266 Y109.296 E4.01070
G1 X103.240 Y109.470 E4.03993
G1 X103.189 Y109.645 E4.07028
G1 X103.094 Y109.855 E4.10863
G1 X102.839 Y110.187 E4.17825
G1 X102.629 Y110.338 E4.22130
G1 X102.354 Y110.460 E4.27144
G1 X101.968 Y110.504 E4.33610
G1 X101.673 Y110.485 E4.38515
G1 X101.428 Y110.423 E4.42732
G1 X101.261 Y110.358 E4.45715
G1 X100.747 Y110.240 E4.54486
G1 X100.550 Y110.166 E4.57986
G1 X100.509 Y110.099 E4.59300
G1 X100.449 Y109.888 E4.62937
G1 X100.411 Y109.638 E4.67151
G1 X100.424 Y109.435 E4.70535
G1 X100.513 Y109.304 E4.73164
G1 X100.409 Y109.048 E4.77766
G1 X100.424 Y108.618 E4.84926
G1 X100.413 Y107.782 E4.98842
G1 X100.273 Y106.768 E5.15876
G1 X99.567 Y103.283 E5.75040
G1 X99.360 Y102.119 E5.94714
G1 X99.208 Y101.038 E6.12867
G1 X99.103 Y99.973 E6.30685
G1 X99.116 Y98.812 E6.50002
G1 X99.158 Y98.517 E6.54957
G1 X99.399 Y98.578 F7800.000
G1 X99.285 Y98.185 F7800.000
G1 X99.183 Y97.223 E6.79151 F1184.499
G1 X99.170 Y96.908 E6.87026
G1 E4.87026 F2400.00000
G92 E0
G1 X99.400 Y99.431 F7800.000
G1 E2.00000 F2400.00000
G1 X99.470 Y99.957 E2.13261 F789.666
G1 X99.954 Y102.703 E2.82966
G1 X99.953 Y102.703 F7800.000
G1 X100.426 Y104.943 E4.03089 F789.666
G1 X100.782 Y106.315 E4.77444
G1 X100.999 Y107.007 E5.15491
G1 X101.304 Y108.389 F7800.000
G1 X101.578 Y108.848 E5.43539 F789.666
G1 X101.864 Y109.204 E5.67466
G1 X102.367 Y109.346 E5.94904
G1 E3.94904 F2400.00000
G92 E0
G1 X96.883 Y90.761 F7800.000
G1 E2.00000 F2400.00000
G1 X96.845 Y90.346 E2.06937 F600.000
G1 X97.146 Y90.337 E2.11941
G1 X97.239 Y90.364 E2.13552
G1 X97.439 Y90.496 E2.17532
G1 X97.155 Y90.752 E2.23892
G1 X97.073 Y90.775 E2.25309
G1 X96.958 Y90.766 E2.27217
G1 X97.079 Y90.392 F7800.000
G1 X98.001 Y90.458 F7800.000
G1 X98.000 Y90.379 E2.28524 F600.000
G1 X98.075 Y90.109 E2.33196
G1 X98.478 Y90.221 E2.40149
G1 X98.662 Y90.101 E2.43803
G1 X98.763 Y90.073 E2.45539
G1 X99.269 Y89.550 E2.57649
G1 X99.418 Y89.923 E2.64328
G1 X99.530 Y90.062 E2.67299
G1 X99.594 Y90.258 E2.70737
G1 X99.672 Y90.651 E2.77402
G1 X99.756 Y90.757 E2.79651
G1 X99.528 Y90.963 E2.84746
G1 X99.317 Y90.758 E2.89645
G1 X98.999 Y90.602 E2.95543
G1 X98.702 Y90.566 E3.00519
G1 X98.418 Y90.601 E3.05284
G1 X98.164 Y90.685 E3.09729
G1 X98.036 Y90.524 E3.13147
G1 X98.059 Y90.405 F7800.000
G1 Z2.100 F7800.000
G1 E1.13147 F2400.00000
G92 E0
G1 X101.153 Y107.174 F7800.000
G1 E2.00000 F2400.00000
G1 X101.394 Y107.709 E2.14648 F600.000
G1 X101.671 Y108.139 E2.27435
G1 X101.952 Y108.441 E2.37767
G1 X102.244 Y108.698 E2.47486
G1 X102.540 Y108.902 E2.56461
G1 X102.656 Y108.941 E2.59534
G1 X102.711 Y109.257 E2.67561
G1 X102.640 Y109.490 E2.73643
G1 X102.516 Y109.705 E2.79834
G1 X102.421 Y109.794 E2.83103
G1 X102.298 Y109.867 E2.86680
G1 X102.144 Y109.920 E2.90753
G1 X102.036 Y109.932 E2.93463
G1 X101.616 Y109.920 E3.03966
G1 X100.997 Y109.834 E3.19588
G1 X100.952 Y109.460 E3.29025
G1 X101.064 Y109.141 E3.37474
G1 X100.914 Y108.879 E3.45006
G1 X100.924 Y108.236 E3.61087
G1 X100.831 Y107.259 E3.85609
G1 X101.081 Y107.193 E3.92062
G1 X100.514 Y110.118 F7800.000
G1 X100.445 Y109.809 E3.97322 F600.000
G1 X100.403 Y109.456 E4.03233
G1 X100.402 Y109.383 E4.04459
G1 X100.467 Y109.195 E4.07765
G1 X100.367 Y109.020 E4.11123
G1 X100.379 Y108.258 E4.23810
G1 X100.294 Y107.361 E4.38793
G1 X100.162 Y106.403 E4.54878
G1 X99.839 Y104.498 E4.87039
G1 X99.545 Y102.953 E5.13203
G1 X99.402 Y101.889 E5.31073
G1 X99.338 Y101.216 E5.42315
G1 X99.332 Y100.896 E5.47643
G1 X99.602 Y100.844 E5.52222
G1 X100.123 Y102.129 E5.75304
G1 X100.688 Y103.993 E6.07708
G1 X100.860 Y104.644 E6.18906
G1 X101.373 Y106.250 E6.46962
G1 X101.620 Y106.884 E6.58282
G1 X101.874 Y107.448 E6.68576
G1 X102.103 Y107.803 E6.75605
G1 X102.333 Y108.050 E6.81222
G1 X102.580 Y108.267 E6.86695
G1 X102.786 Y108.409 E6.90864
G1 X103.075 Y108.507 E6.95945
G1 X103.199 Y108.878 E7.02457
G1 X103.254 Y109.203 E7.07933
G1 X103.245 Y109.374 E7.10789
G1 X103.146 Y109.697 E7.16413
G1 X103.038 Y109.905 E7.20318
G1 X102.934 Y110.060 E7.23424
G1 X102.749 Y110.232 E7.27618
G1 X102.529 Y110.364 E7.31888
G1 X102.264 Y110.455 E7.36548
G1 X102.058 Y110.478 E7.40006
G1 X101.562 Y110.463 E7.48262
G1 X101.171 Y110.397 E7.54864
G1 X100.800 Y110.364 E7.61053
G1 X100.574 Y110.268 E7.65140
G1 X100.542 Y110.187 E7.66591
G1 X100.735 Y109.892 F7800.000
G1 E5.66591 F2400.00000
G92 E0
G1 X99.420 Y100.624 F7800.000
G1 E2.00000 F2400.00000
G1 X99.351 Y100.268 E2.09080 F898.502
G1 X99.264 Y99.353 E2.32057
G1 E0.32057 F2400.00000
G92 E0
G1 X99.691 Y101.851 F7800.000
G1 E2.00000 F2400.00000
G1 X100.320 Y104.469 E2.67300 F600.000
G1 X100.319 Y104.469 F7800.000
G1 X100.921 Y106.954 E4.01423 F600.000
G1 X101.248 Y108.434 F7800.000
G1 X101.656 Y108.974 E4.36911 F600.000
G1 X101.778 Y109.223 E4.51439
G1 X102.317 Y109.402 E4.81189
G1 E2.81189 F2400.00000
G92 E0
G1 X99.194 Y90.496 F7800.000
G1 E2.00000 F2400.00000
G1 X99.070 Y90.351 E2.03169 F600.000
G1 X99.013 Y90.233 E2.05343
G1 X99.019 Y90.141 E2.06882
G1 X99.153 Y89.909 E2.11346
G1 X99.392 Y89.967 E2.15432
G1 X99.410 Y90.410 E2.22810
G1 X99.264 Y90.468 E2.25434
G1 X99.180 Y90.306 F7800.000
G1 Z2.400 F7800.000
G1 E0.25434 F2400.00000
G92 E0
G1 X100.958 Y107.907 F7800.000
G1 E2.00000 F2400.00000
G1 X101.243 Y107.824 E2.07425 F600.000
G1 X101.611 Y108.412 E2.24764
G1 X101.851 Y108.590 E2.32259
G1 X101.947 Y108.700 E2.35896
G1 X102.402 Y109.094 E2.50931
G1 X102.565 Y109.448 E2.60679
G1 X102.499 Y109.566 E2.64049
G1 X102.396 Y109.693 E2.68132
G1 X102.184 Y109.817 E2.74285
G1 X102.004 Y109.856 E2.78876
G1 X101.661 Y109.836 E2.87458
G1 X101.484 Y109.850 E2.91907
G1 X101.117 Y109.814 E3.01129
G1 X101.027 Y109.477 E3.09837
G1 X101.122 Y109.288 E3.15143
G1 X100.965 Y108.936 E3.24772
G1 X100.958 Y107.982 E3.48623
G1 E1.48623 F2400.00000
G92 E0
G1 X99.771 Y103.106 F7800.000
G1 E2.00000 F2400.00000
G1 X100.027 Y103.037 E2.04419 F600.000
G1 X100.170 Y103.315 E2.09623
G1 X100.340 Y103.757 E2.17512
G1 X100.413 Y104.115 E2.23584
G1 X100.563 Y104.562 E2.31434
G1 X100.847 Y105.074 E2.41170
G1 X100.928 Y105.271 E2.44716
G1 X101.454 Y106.935 E2.73760
G1 X101.583 Y107.283 E2.79939
G1 X101.698 Y107.524 E2.84369
G1 X102.018 Y108.035 E2.94411
G1 X102.224 Y108.188 E2.98666
G1 X102.333 Y108.313 E3.01436
G1 X102.591 Y108.537 E3.07129
G1 X102.759 Y108.566 E3.09953
G1 X102.851 Y108.767 E3.13636
G1 X103.065 Y108.697 E3.17383
G1 X103.157 Y109.126 E3.24691
G1 X103.157 Y109.308 E3.27722
G1 X103.112 Y109.535 E3.31564
G1 X103.061 Y109.676 E3.34070
G1 X102.953 Y109.872 E3.37791
G1 X102.778 Y110.087 E3.42397
G1 X102.608 Y110.217 E3.45962
G1 X102.363 Y110.335 E3.50490
G1 X102.048 Y110.404 E3.55861
G1 X101.667 Y110.382 E3.62201
G1 X101.478 Y110.397 E3.65354
G1 X101.088 Y110.359 E3.71886
G1 X100.867 Y110.369 E3.75564
G1 X100.787 Y110.336 E3.76991
G1 X100.719 Y110.270 E3.78569
G1 X100.615 Y110.045 E3.82699
G1 X100.446 Y109.418 E3.93503
G1 X100.519 Y109.273 E3.96197
G1 X100.421 Y109.053 E4.00204
G1 X100.413 Y107.979 E4.18086
G1 X100.333 Y107.159 E4.31787
G1 X100.018 Y104.881 E4.70061
G1 X99.910 Y104.276 E4.80285
G1 X99.775 Y103.181 E4.98634
G1 X100.024 Y103.187 F7800.000
G1 X99.833 Y102.830 F7800.000
G1 X99.519 Y101.786 E5.25904 F650.176
G1 E3.25904 F2400.00000
G92 E0
G1 X100.262 Y104.583 F7800.000
G1 E2.00000 F2400.00000
G1 X100.479 Y105.250 E2.17551 F600.000
G1 X100.633 Y105.896 E2.34153
G1 X100.633 Y105.896 F7800.000
G1 X101.020 Y107.605 E3.26044 F600.000
G1 X101.912 Y109.147 F7800.000
G1 X101.615 Y109.443 E3.36532 F600.000
G1 Z2.700 F7800.000
G1 X101.528 Y108.753 F7800.000
G1 X102.207 Y109.235 E3.57342 F600.000
G1 X102.468 Y109.360 E3.64575
G1 X102.257 Y109.570 E3.72012
G1 X102.135 Y109.654 E3.75715
G1 X101.994 Y109.707 E3.79480
G1 X101.289 Y109.589 E3.97356
G1 X101.496 Y109.233 E4.07639
G1 X101.295 Y109.024 E4.14906
G1 X101.479 Y108.810 E4.21958
G1 X101.428 Y107.557 F7800.000
G1 X101.901 Y108.322 E4.36934 F600.000
G1 X102.020 Y108.434 E4.39644
G1 X102.484 Y108.764 E4.49123
G1 X102.603 Y108.821 E4.51316
G1 X102.679 Y108.833 E4.52597
G1 X102.799 Y108.951 E4.55394
G1 X102.963 Y108.934 E4.58138
G1 X102.994 Y109.213 E4.62805
G1 X102.962 Y109.412 E4.66161
G1 X102.883 Y109.648 E4.70306
G1 X102.790 Y109.809 E4.73395
G1 X102.606 Y109.991 E4.77703
G1 X102.389 Y110.141 E4.82090
G1 X102.123 Y110.241 E4.86818
G1 X101.927 Y110.249 E4.90086
G1 X101.518 Y110.180 E4.96993
G1 X101.147 Y110.263 E5.03307
G1 X101.001 Y110.263 E5.05743
G1 X100.931 Y110.234 E5.07010
G1 X100.805 Y110.072 E5.10415
G1 X100.648 Y109.607 E5.18588
G1 X100.818 Y109.314 E5.24226
G1 X100.630 Y109.118 E5.28748
G1 X100.673 Y108.402 E5.40677
G1 X100.738 Y108.348 E5.42079
G1 X100.781 Y107.985 E5.48169
G1 X100.916 Y107.994 E5.50420
G1 X101.197 Y107.552 E5.59130
G1 X101.353 Y107.555 E5.61726
G1 X101.348 Y108.050 F7800.000
G1 Z3.000 F7800.000
G1 X101.502 Y108.282 F7800.000
G1 X101.920 Y108.676 E5.71276 F600.000
G1 X102.067 Y108.775 E5.74231
G1 X102.161 Y108.929 E5.77235
G1 X102.222 Y108.958 E5.78360
G1 X102.401 Y109.223 E5.83688
G1 X102.548 Y109.086 E5.87045
G1 X102.743 Y109.239 E5.91167
G1 X102.703 Y109.497 E5.95501
G1 X102.633 Y109.616 E5.97802
G1 X102.500 Y109.757 E6.01034
G1 X102.233 Y109.984 E6.06869
G1 X102.083 Y109.985 E6.09359
G1 X101.969 Y109.938 E6.11410
G1 X101.688 Y109.958 E6.16103
G1 X101.575 Y109.888 E6.18308
G1 X101.466 Y109.743 E6.21321
G1 X101.420 Y109.647 E6.23103
G1 X101.418 Y109.305 E6.28789
G1 X101.453 Y109.091 E6.32398
G1 X101.400 Y108.814 E6.37083
G1 X101.407 Y108.667 E6.39545
G1 X101.484 Y108.355 E6.44891
G1 X101.725 Y108.729 F7800.000
G1 Z3.300 F7800.000
G1 X101.743 Y108.894 F7800.000
G1 X102.089 Y109.062 E6.51295 F600.000
G1 X102.153 Y109.147 E6.53067
G1 X102.259 Y109.370 E6.57172
G1 X101.891 Y109.484 E6.63580
G1 X101.536 Y109.731 E6.70781
G1 X101.531 Y109.279 E6.78304
G1 X101.557 Y109.137 E6.80703
G1 X101.697 Y108.953 E6.84552
G1 X101.937 Y109.226 F7800.000
G1 E4.84552 F2400.00000
G92 E0
M107
M104 S0 ; turn off temperature
G28 X0  ; home X axis
M84     ; disable motors

; filament used = 74.1mm (0.1cm3)

; avoid_crossing_perimeters = 0
; bed_shape = 0x0,200x0,200x200,0x200
; bed_temperature = 0
; before_layer_gcode = 
; bridge_acceleration = 0
; bridge_fan_speed = 100
; brim_width = 0
; complete_objects = 0
; cooling = 1
; default_acceleration = 0
; disable_fan_first_layers = 3
; duplicate_distance = 6
; end_gcode = M104 S0 ; turn off temperature\nG28 X0  ; home X axis\nM84     ; disable motors\n
; extruder_clearance_height = 20
; extruder_clearance_radius = 20
; extruder_offset = 0x0
; extrusion_axis = E
; extrusion_multiplier = 1
; fan_always_on = 0
; fan_below_layer_time = 60
; filament_colour = #FFFFFF
; filament_diameter = 1
; first_layer_acceleration = 0
; first_layer_bed_temperature = 0
; first_layer_extrusion_width = 200%
; first_layer_speed = 30
; first_layer_temperature = 200
; gcode_arcs = 0
; gcode_comments = 0
; gcode_flavor = reprap
; infill_acceleration = 0
; infill_first = 0
; layer_gcode = 
; max_fan_speed = 100
; max_print_speed = 80
; max_volumetric_speed = 0
; min_fan_speed = 35
; min_print_speed = 10
; min_skirt_length = 0
; notes = 
; nozzle_diameter = 0.5
; only_retract_when_crossing_perimeters = 1
; ooze_prevention = 0
; output_filename_format = [input_filename_base].gcode
; perimeter_acceleration = 0
; post_process = 
; pressure_advance = 0
; resolution = 0
; retract_before_travel = 2
; retract_layer_change = 0
; retract_length = 2
; retract_length_toolchange = 10
; retract_lift = 0
; retract_restart_extra = 0
; retract_restart_extra_toolchange = 0
; retract_speed = 40
; skirt_distance = 6
; skirt_height = 1
; skirts = 0
; slowdown_below_layer_time = 5
; spiral_vase = 0
; standby_temperature_delta = -5
; start_gcode = G28 ; home all axes\nG1 Z5 F5000 ; lift nozzle\n
; temperature = 200
; threads = 2
; toolchange_gcode = 
; travel_speed = 130
; use_firmware_retraction = 0
; use_relative_e_distances = 0
; use_volumetric_e = 0
; vibration_limit = 0
; wipe = 0
; z_offset = 0
; dont_support_bridges = 1
; extrusion_width = 0
; first_layer_height = 0.3
; infill_only_where_needed = 0
; interface_shells = 0
; layer_height = 0.3
; raft_layers = 0
; seam_position = aligned
; support_material = 0
; support_material_angle = 0
; support_material_contact_distance = 0.2
; support_material_enforce_layers = 0
; support_material_extruder = 1
; support_material_extrusion_width = 0
; support_material_interface_extruder = 1
; support_material_interface_layers = 3
; support_material_interface_spacing = 0
; support_material_interface_speed = 100%
; support_material_pattern = pillars
; support_material_spacing = 2.5
; support_material_speed = 60
; support_material_threshold = 0
; xy_size_compensation = 0
; bottom_solid_layers = 2
; bridge_flow_ratio = 1
; bridge_speed = 60
; external_fill_pattern = rectilinear
; external_perimeter_extrusion_width = 0
; external_perimeter_speed = 50%
; external_perimeters_first = 0
; extra_perimeters = 1
; fill_angle = 45
; fill_density = 20%
; fill_pattern = rectilinear
; gap_fill_speed = 20
; infill_every_layers = 1
; infill_extruder = 1
; infill_extrusion_width = 0
; infill_overlap = 15%
; infill_speed = 80
; overhangs = 1
; perimeter_extruder = 1
; perimeter_extrusion_width = 0
; perimeter_speed = 60
; perimeters = 3
; small_perimeter_speed = 15
; solid_infill_below_area = 70
; solid_infill_every_layers = 0
; solid_infill_extruder = 1
; solid_infill_extrusion_width = 0
; solid_infill_speed = 20
; thin_walls = 1
; top_infill_extrusion_width = 0
; top_solid_infill_speed = 15
; top_solid_layers = 2
