; generated by Slic3r 1.2.9 on 2019-07-25 at 15:58:14

; external perimeters extrusion width = 0.50mm
; perimeters extrusion width = 0.58mm
; infill extrusion width = 0.58mm
; solid infill extrusion width = 0.58mm
; top infill extrusion width = 0.58mm

M107
M104 S200 ; set temperature
G28 ; home all axes
G1 Z5 F5000 ; lift nozzle

M109 S200 ; wait for temperature to be reached
G21 ; set units to millimeters
G90 ; use absolute coordinates
M82 ; use absolute distances for extrusion
G92 E0
G1 Z0.400 F7800.000
G1 E-2.00000 F2400.00000
G92 E0
G1 X92.890 Y107.379 F7800.000
G1 E2.00000 F2400.00000
G1 X92.621 Y107.110 E2.13831 F1800.000
G1 X92.621 Y106.118 E2.49902
G1 X93.882 Y107.379 E3.14745
G1 X94.874 Y107.379 E3.50815
G1 X92.621 Y105.126 E4.66669
G1 X92.621 Y104.135 E5.02740
G1 X95.865 Y107.379 E6.69605
G1 X96.857 Y107.379 E7.05676
G1 X92.621 Y103.143 E9.23553
G1 X92.621 Y102.151 E9.59623
G1 X97.849 Y107.379 E12.28511
G1 X98.840 Y107.379 E12.64582
G1 X92.621 Y101.160 E15.84482
G1 X92.621 Y100.168 E16.20552
G1 X99.832 Y107.379 E19.91463
G1 X100.824 Y107.379 E20.27534
G1 X92.621 Y99.176 E24.49456
G1 X92.621 Y98.184 E24.85527
G1 X101.816 Y107.379 E29.58460
G1 X102.807 Y107.379 E29.94531
G1 X92.621 Y97.193 E35.18476
G1 X92.621 Y96.201 E35.54546
G1 X103.799 Y107.379 E41.29503
G1 X104.791 Y107.379 E41.65574
G1 X92.621 Y95.209 E47.91542
G1 X92.621 Y94.218 E48.27612
G1 X105.782 Y107.379 E55.04591
G1 X106.774 Y107.379 E55.40662
G1 X92.621 Y93.226 E62.68653
G1 X93.008 Y92.621 E62.94764
G1 X107.379 Y106.992 E70.33933
G1 X107.379 Y106.000 E70.70004
G1 X94.000 Y92.621 E77.58162
G1 X94.992 Y92.621 E77.94232
G1 X107.379 Y105.008 E84.31379
G1 X107.379 Y104.016 E84.67450
G1 X95.984 Y92.621 E90.53585
G1 X96.975 Y92.621 E90.89656
G1 X107.379 Y103.025 E96.24780
G1 X107.379 Y102.033 E96.60850
G1 X97.967 Y92.621 E101.44963
G1 X98.959 Y92.621 E101.81033
G1 X107.379 Y101.041 E106.14135
G1 X107.379 Y100.050 E106.50205
G1 X99.950 Y92.621 E110.32295
G1 X100.942 Y92.621 E110.68366
G1 X107.379 Y99.058 E113.99444
G1 X107.379 Y98.066 E114.35515
G1 X101.934 Y92.621 E117.15582
G1 X102.926 Y92.621 E117.51652
G1 X107.379 Y97.074 E119.80708
G1 X107.379 Y96.083 E120.16778
G1 X103.917 Y92.621 E121.94823
G1 X104.909 Y92.621 E122.30893
G1 X107.379 Y95.091 E123.57926
G1 X107.379 Y94.099 E123.93997
G1 X105.901 Y92.621 E124.70019
G1 X106.892 Y92.621 E125.06089
G1 X107.379 Y93.108 E125.31099
G1 Z0.800 F7800.000
G1 X106.892 Y107.379 F7800.000
G1 X107.379 Y106.892 E125.48290 F4068.345
G1 X107.379 Y105.901 E125.73083
G1 X105.901 Y107.379 E126.25336
G1 X104.909 Y107.379 E126.50129
G1 X107.379 Y104.909 E127.37444
G1 X107.379 Y103.917 E127.62237
G1 X103.917 Y107.379 E128.84615
G1 X102.926 Y107.379 E129.09408
G1 X107.379 Y102.926 E130.66848
G1 X107.379 Y101.934 E130.91641
G1 X101.934 Y107.379 E132.84144
G1 X100.942 Y107.379 E133.08937
G1 X107.379 Y100.942 E135.36502
G1 X107.379 Y99.950 E135.61295
G1 X99.950 Y107.379 E138.23923
G1 X98.959 Y107.379 E138.48715
G1 X107.379 Y98.959 E141.46405
G1 X107.379 Y97.967 E141.71198
G1 X97.967 Y107.379 E145.03951
G1 X96.975 Y107.379 E145.28743
G1 X107.379 Y96.975 E148.96558
G1 X107.379 Y95.984 E149.21351
G1 X95.984 Y107.379 E153.24228
G1 X94.992 Y107.379 E153.49021
G1 X107.379 Y94.992 E157.86961
G1 X107.379 Y94.000 E158.11754
G1 X94.000 Y107.379 E162.84756
G1 X93.008 Y107.379 E163.09549
G1 X107.379 Y93.008 E168.17613
G1 X106.774 Y92.621 E168.35560
G1 X92.621 Y106.774 E173.35941
G1 X92.621 Y105.782 E173.60734
G1 X105.782 Y92.621 E178.26052
G1 X104.791 Y92.621 E178.50845
G1 X92.621 Y104.791 E182.81101
G1 X92.621 Y103.799 E183.05894
G1 X103.799 Y92.621 E187.01088
G1 X102.807 Y92.621 E187.25880
G1 X92.621 Y102.807 E190.86012
G1 X92.621 Y101.816 E191.10804
G1 X101.816 Y92.621 E194.35873
G1 X100.824 Y92.621 E194.60666
G1 X92.621 Y100.824 E197.50672
G1 X92.621 Y99.832 E197.75465
G1 X99.832 Y92.621 E200.30409
G1 X98.840 Y92.621 E200.55202
G1 X92.621 Y98.840 E202.75083
G1 X92.621 Y97.849 E202.99876
G1 X97.849 Y92.621 E204.84695
G1 X96.857 Y92.621 E205.09488
G1 X92.621 Y96.857 E206.59245
G1 X92.621 Y95.865 E206.84038
G1 X95.865 Y92.621 E207.98732
G1 X94.874 Y92.621 E208.23525
G1 X92.621 Y94.874 E209.03157
G1 X92.621 Y93.882 E209.27949
G1 X93.882 Y92.621 E209.72519
G1 X92.890 Y92.621 E209.97312
G1 X92.621 Y92.890 E210.06819
G1 Z1.200 F7800.000
G1 X92.890 Y107.379 F7800.000
G1 X92.621 Y107.110 E210.16326 F4068.346
G1 X92.621 Y106.118 E210.41118
G1 X93.882 Y107.379 E210.85688
G1 X94.874 Y107.379 E211.10481
G1 X92.621 Y105.126 E211.90112
G1 X92.621 Y104.135 E212.14905
G1 X95.865 Y107.379 E213.29599
G1 X96.857 Y107.379 E213.54392
G1 X92.621 Y103.143 E215.04149
G1 X92.621 Y102.151 E215.28942
G1 X97.849 Y107.379 E217.13761
G1 X98.840 Y107.379 E217.38554
G1 X92.621 Y101.160 E219.58435
G1 X92.621 Y100.168 E219.83228
G1 X99.832 Y107.379 E222.38172
G1 X100.824 Y107.379 E222.62965
G1 X92.621 Y99.176 E225.52971
G1 X92.621 Y98.184 E225.77764
G1 X101.816 Y107.379 E229.02833
G1 X102.807 Y107.379 E229.27625
G1 X92.621 Y97.193 E232.87757
G1 X92.621 Y96.201 E233.12549
G1 X103.799 Y107.379 E237.07743
G1 X104.791 Y107.379 E237.32536
G1 X92.621 Y95.209 E241.62792
G1 X92.621 Y94.218 E241.87585
G1 X105.782 Y107.379 E246.52903
G1 X106.774 Y107.379 E246.77696
G1 X92.621 Y93.226 E251.78077
G1 X93.008 Y92.621 E251.96024
G1 X107.379 Y106.992 E257.04088
G1 X107.379 Y106.000 E257.28881
G1 X94.000 Y92.621 E262.01883
G1 X94.992 Y92.621 E262.26676
G1 X107.379 Y105.008 E266.64616
G1 X107.379 Y104.016 E266.89409
G1 X95.984 Y92.621 E270.92286
G1 X96.975 Y92.621 E271.17079
G1 X107.379 Y103.025 E274.84894
G1 X107.379 Y102.033 E275.09687
G1 X97.967 Y92.621 E278.42439
G1 X98.959 Y92.621 E278.67232
G1 X107.379 Y101.041 E281.64922
G1 X107.379 Y100.050 E281.89715
G1 X99.950 Y92.621 E284.52342
G1 X100.942 Y92.621 E284.77135
G1 X107.379 Y99.058 E287.04700
G1 X107.379 Y98.066 E287.29493
G1 X101.934 Y92.621 E289.21996
G1 X102.926 Y92.621 E289.46789
G1 X107.379 Y97.074 E291.04229
G1 X107.379 Y96.083 E291.29022
G1 X103.917 Y92.621 E292.51400
G1 X104.909 Y92.621 E292.76193
G1 X107.379 Y95.091 E293.63509
G1 X107.379 Y94.099 E293.88301
G1 X105.901 Y92.621 E294.40555
G1 X106.892 Y92.621 E294.65347
G1 X107.379 Y93.108 E294.82538
M106 S255
G1 Z1.600 F7800.000
G1 X106.892 Y107.379 F7800.000
G1 X107.379 Y106.892 E294.99729 F4068.345
G1 X107.379 Y105.901 E295.24522
G1 X105.901 Y107.379 E295.76775
G1 X104.909 Y107.379 E296.01568
G1 X107.379 Y104.909 E296.88883
G1 X107.379 Y103.917 E297.13676
G1 X103.917 Y107.379 E298.36054
G1 X102.926 Y107.379 E298.60847
G1 X107.379 Y102.926 E300.18287
G1 X107.379 Y101.934 E300.43080
G1 X101.934 Y107.379 E302.35583
G1 X100.942 Y107.379 E302.60376
G1 X107.379 Y100.942 E304.87941
G1 X107.379 Y99.950 E305.12734
G1 X99.950 Y107.379 E307.75361
G1 X98.959 Y107.379 E308.00154
G1 X107.379 Y98.959 E310.97844
G1 X107.379 Y97.967 E311.22637
G1 X97.967 Y107.379 E314.55389
G1 X96.975 Y107.379 E314.80182
G1 X107.379 Y96.975 E318.47997
G1 X107.379 Y95.984 E318.72790
G1 X95.984 Y107.379 E322.75667
G1 X94.992 Y107.379 E323.00460
G1 X107.379 Y94.992 E327.38400
G1 X107.379 Y94.000 E327.63192
G1 X94.000 Y107.379 E332.36194
G1 X93.008 Y107.379 E332.60987
G1 X107.379 Y93.008 E337.69052
G1 X106.774 Y92.621 E337.86999
G1 X92.621 Y106.774 E342.87380
G1 X92.621 Y105.782 E343.12173
G1 X105.782 Y92.621 E347.77491
G1 X104.791 Y92.621 E348.02284
G1 X92.621 Y104.791 E352.32540
G1 X92.621 Y103.799 E352.57333
G1 X103.799 Y92.621 E356.52526
G1 X102.807 Y92.621 E356.77319
G1 X92.621 Y102.807 E360.37450
G1 X92.621 Y101.816 E360.62243
G1 X101.816 Y92.621 E363.87312
G1 X100.824 Y92.621 E364.12105
G1 X92.621 Y100.824 E367.02111
G1 X92.621 Y99.832 E367.26904
G1 X99.832 Y92.621 E369.81848
G1 X98.840 Y92.621 E370.06641
G1 X92.621 Y98.840 E372.26522
G1 X92.621 Y97.849 E372.51315
G1 X97.849 Y92.621 E374.36134
G1 X96.857 Y92.621 E374.60927
G1 X92.621 Y96.857 E376.10684
G1 X92.621 Y95.865 E376.35476
G1 X95.865 Y92.621 E377.50171
G1 X94.874 Y92.621 E377.74964
G1 X92.621 Y94.874 E378.54595
G1 X92.621 Y93.882 E378.79388
G1 X93.882 Y92.621 E379.23958
G1 X92.890 Y92.621 E379.48750
G1 X92.621 Y92.890 E379.58257
G1 Z2.000 F7800.000
G1 X92.890 Y107.379 F7800.000
G1 X92.621 Y107.110 E379.67764 F4068.346
G1 X92.621 Y106.118 E379.92557
G1 X93.882 Y107.379 E380.37127
G1 X94.874 Y107.379 E380.61919
G1 X92.621 Y105.126 E381.41551
G1 X92.621 Y104.135 E381.66344
G1 X95.865 Y107.379 E382.81038
G1 X96.857 Y107.379 E383.05831
G1 X92.621 Y103.143 E384.55588
G1 X92.621 Y102.151 E384.80381
G1 X97.849 Y107.379 E386.65200
G1 X98.840 Y107.379 E386.89992
G1 X92.621 Y101.160 E389.09874
G1 X92.621 Y100.168 E389.34667
G1 X99.832 Y107.379 E391.89611
G1 X100.824 Y107.379 E392.14403
G1 X92.621 Y99.176 E395.04410
G1 X92.621 Y98.184 E395.29203
G1 X101.816 Y107.379 E398.54271
G1 X102.807 Y107.379 E398.79064
G1 X92.621 Y97.193 E402.39195
G1 X92.621 Y96.201 E402.63988
G1 X103.799 Y107.379 E406.59182
G1 X104.791 Y107.379 E406.83975
G1 X92.621 Y95.209 E411.14230
G1 X92.621 Y94.218 E411.39023
G1 X105.782 Y107.379 E416.04342
G1 X106.774 Y107.379 E416.29135
G1 X92.621 Y93.226 E421.29515
G1 X93.008 Y92.621 E421.47463
G1 X107.379 Y106.992 E426.55527
G1 X107.379 Y106.000 E426.80320
G1 X94.000 Y92.621 E431.53322
G1 X94.992 Y92.621 E431.78115
G1 X107.379 Y105.008 E436.16055
G1 X107.379 Y104.016 E436.40848
G1 X95.984 Y92.621 E440.43725
G1 X96.975 Y92.621 E440.68518
G1 X107.379 Y103.025 E444.36333
G1 X107.379 Y102.033 E444.61125
G1 X97.967 Y92.621 E447.93878
G1 X98.959 Y92.621 E448.18671
G1 X107.379 Y101.041 E451.16361
G1 X107.379 Y100.050 E451.41154
G1 X99.950 Y92.621 E454.03781
G1 X100.942 Y92.621 E454.28574
G1 X107.379 Y99.058 E456.56139
G1 X107.379 Y98.066 E456.80932
G1 X101.934 Y92.621 E458.73435
G1 X102.926 Y92.621 E458.98228
G1 X107.379 Y97.074 E460.55668
G1 X107.379 Y96.083 E460.80461
G1 X103.917 Y92.621 E462.02839
G1 X104.909 Y92.621 E462.27632
G1 X107.379 Y95.091 E463.14947
G1 X107.379 Y94.099 E463.39740
G1 X105.901 Y92.621 E463.91993
G1 X106.892 Y92.621 E464.16786
G1 X107.379 Y93.108 E464.33977
G1 Z2.400 F7800.000
G1 X106.892 Y107.379 F7800.000
G1 X107.379 Y106.892 E464.51168 F4068.345
G1 X107.379 Y105.901 E464.75960
G1 X105.901 Y107.379 E465.28214
G1 X104.909 Y107.379 E465.53006
G1 X107.379 Y104.909 E466.40322
G1 X107.379 Y103.917 E466.65115
G1 X103.917 Y107.379 E467.87493
G1 X102.926 Y107.379 E468.12286
G1 X107.379 Y102.926 E469.69726
G1 X107.379 Y101.934 E469.94519
G1 X101.934 Y107.379 E471.87022
G1 X100.942 Y107.379 E472.11814
G1 X107.379 Y100.942 E474.39380
G1 X107.379 Y99.950 E474.64172
G1 X99.950 Y107.379 E477.26800
G1 X98.959 Y107.379 E477.51593
G1 X107.379 Y98.959 E480.49283
G1 X107.379 Y97.967 E480.74076
G1 X97.967 Y107.379 E484.06828
G1 X96.975 Y107.379 E484.31621
G1 X107.379 Y96.975 E487.99436
G1 X107.379 Y95.984 E488.24229
G1 X95.984 Y107.379 E492.27106
G1 X94.992 Y107.379 E492.51899
G1 X107.379 Y94.992 E496.89838
G1 X107.379 Y94.000 E497.14631
G1 X94.000 Y107.379 E501.87633
G1 X93.008 Y107.379 E502.12426
G1 X107.379 Y93.008 E507.20491
G1 X106.774 Y92.621 E507.38438
G1 X92.621 Y106.774 E512.38819
G1 X92.621 Y105.782 E512.63611
G1 X105.782 Y92.621 E517.28930
G1 X104.791 Y92.621 E517.53723
G1 X92.621 Y104.791 E521.83979
G1 X92.621 Y103.799 E522.08772
G1 X103.799 Y92.621 E526.03965
G1 X102.807 Y92.621 E526.28758
G1 X92.621 Y102.807 E529.88889
G1 X92.621 Y101.816 E530.13682
G1 X101.816 Y92.621 E533.38751
G1 X100.824 Y92.621 E533.63544
G1 X92.621 Y100.824 E536.53550
G1 X92.621 Y99.832 E536.78343
G1 X99.832 Y92.621 E539.33287
G1 X98.840 Y92.621 E539.58079
G1 X92.621 Y98.840 E541.77961
G1 X92.621 Y97.849 E542.02754
G1 X97.849 Y92.621 E543.87573
G1 X96.857 Y92.621 E544.12366
G1 X92.621 Y96.857 E545.62122
G1 X92.621 Y95.865 E545.86915
G1 X95.865 Y92.621 E547.01609
G1 X94.874 Y92.621 E547.26402
G1 X92.621 Y94.874 E548.06034
G1 X92.621 Y93.882 E548.30827
G1 X93.882 Y92.621 E548.75396
G1 X92.890 Y92.621 E549.00189
G1 X92.621 Y92.890 E549.09696
G1 Z2.800 F7800.000
G1 X92.890 Y107.379 F7800.000
G1 X92.621 Y107.110 E549.19203 F4068.346
G1 X92.621 Y106.118 E549.43996
G1 X93.882 Y107.379 E549.88565
G1 X94.874 Y107.379 E550.13358
G1 X92.621 Y105.126 E550.92990
G1 X92.621 Y104.135 E551.17783
G1 X95.865 Y107.379 E552.32477
G1 X96.857 Y107.379 E552.57270
G1 X92.621 Y103.143 E554.07026
G1 X92.621 Y102.151 E554.31819
G1 X97.849 Y107.379 E556.16638
G1 X98.840 Y107.379 E556.41431
G1 X92.621 Y101.160 E558.61313
G1 X92.621 Y100.168 E558.86105
G1 X99.832 Y107.379 E561.41049
G1 X100.824 Y107.379 E561.65842
G1 X92.621 Y99.176 E564.55848
G1 X92.621 Y98.184 E564.80641
G1 X101.816 Y107.379 E568.05710
G1 X102.807 Y107.379 E568.30503
G1 X92.621 Y97.193 E571.90634
G1 X92.621 Y96.201 E572.15427
G1 X103.799 Y107.379 E576.10620
G1 X104.791 Y107.379 E576.35413
G1 X92.621 Y95.209 E580.65669
G1 X92.621 Y94.218 E580.90462
G1 X105.782 Y107.379 E585.55780
G1 X106.774 Y107.379 E585.80573
G1 X92.621 Y93.226 E590.80954
G1 X93.008 Y92.621 E590.98901
G1 X107.379 Y106.992 E596.06966
G1 X107.379 Y106.000 E596.31759
G1 X94.000 Y92.621 E601.04761
G1 X94.992 Y92.621 E601.29554
G1 X107.379 Y105.008 E605.67493
G1 X107.379 Y104.016 E605.92286
G1 X95.984 Y92.621 E609.95164
G1 X96.975 Y92.621 E610.19956
G1 X107.379 Y103.025 E613.87771
G1 X107.379 Y102.033 E614.12564
G1 X97.967 Y92.621 E617.45317
G1 X98.959 Y92.621 E617.70109
G1 X107.379 Y101.041 E620.67799
G1 X107.379 Y100.050 E620.92592
G1 X99.950 Y92.621 E623.55220
G1 X100.942 Y92.621 E623.80013
G1 X107.379 Y99.058 E626.07578
G1 X107.379 Y98.066 E626.32371
G1 X101.934 Y92.621 E628.24874
G1 X102.926 Y92.621 E628.49666
G1 X107.379 Y97.074 E630.07107
G1 X107.379 Y96.083 E630.31900
G1 X103.917 Y92.621 E631.54278
G1 X104.909 Y92.621 E631.79071
G1 X107.379 Y95.091 E632.66386
G1 X107.379 Y94.099 E632.91179
G1 X105.901 Y92.621 E633.43432
G1 X106.892 Y92.621 E633.68225
G1 X107.379 Y93.108 E633.85416
G1 Z3.200 F7800.000
G1 X106.892 Y107.379 F7800.000
G1 X107.379 Y106.892 E634.02606 F4068.345
G1 X107.379 Y105.901 E634.27399
G1 X105.901 Y107.379 E634.79652
G1 X104.909 Y107.379 E635.04445
G1 X107.379 Y104.909 E635.91761
G1 X107.379 Y103.917 E636.16554
G1 X103.917 Y107.379 E637.38931
G1 X102.926 Y107.379 E637.63724
G1 X107.379 Y102.926 E639.21165
G1 X107.379 Y101.934 E639.45958
G1 X101.934 Y107.379 E641.38460
G1 X100.942 Y107.379 E641.63253
G1 X107.379 Y100.942 E643.90818
G1 X107.379 Y99.950 E644.15611
G1 X99.950 Y107.379 E646.78239
G1 X98.959 Y107.379 E647.03032
G1 X107.379 Y98.959 E650.00722
G1 X107.379 Y97.967 E650.25514
G1 X97.967 Y107.379 E653.58267
G1 X96.975 Y107.379 E653.83060
G1 X107.379 Y96.975 E657.50875
G1 X107.379 Y95.984 E657.75667
G1 X95.984 Y107.379 E661.78545
G1 X94.992 Y107.379 E662.03337
G1 X107.379 Y94.992 E666.41277
G1 X107.379 Y94.000 E666.66070
G1 X94.000 Y107.379 E671.39072
G1 X93.008 Y107.379 E671.63865
G1 X107.379 Y93.008 E676.71929
G1 X106.774 Y92.621 E676.89877
G1 X92.621 Y106.774 E681.90257
G1 X92.621 Y105.782 E682.15050
G1 X105.782 Y92.621 E686.80369
G1 X104.791 Y92.621 E687.05161
G1 X92.621 Y104.791 E691.35417
G1 X92.621 Y103.799 E691.60210
G1 X103.799 Y92.621 E695.55404
G1 X102.807 Y92.621 E695.80197
G1 X92.621 Y102.807 E699.40328
G1 X92.621 Y101.816 E699.65121
G1 X101.816 Y92.621 E702.90189
G1 X100.824 Y92.621 E703.14982
G1 X92.621 Y100.824 E706.04989
G1 X92.621 Y99.832 E706.29782
G1 X99.832 Y92.621 E708.84725
G1 X98.840 Y92.621 E709.09518
G1 X92.621 Y98.840 E711.29400
G1 X92.621 Y97.849 E711.54193
G1 X97.849 Y92.621 E713.39012
G1 X96.857 Y92.621 E713.63804
G1 X92.621 Y96.857 E715.13561
G1 X92.621 Y95.865 E715.38354
G1 X95.865 Y92.621 E716.53048
G1 X94.874 Y92.621 E716.77841
G1 X92.621 Y94.874 E717.57473
G1 X92.621 Y93.882 E717.82266
G1 X93.882 Y92.621 E718.26835
G1 X92.890 Y92.621 E718.51628
G1 X92.621 Y92.890 E718.61135
G1 Z3.600 F7800.000
G1 X92.890 Y107.379 F7800.000
G1 X92.621 Y107.110 E718.70642 F4068.346
G1 X92.621 Y106.118 E718.95435
G1 X93.882 Y107.379 E719.40004
G1 X94.874 Y107.379 E719.64797
G1 X92.621 Y105.126 E720.44429
G1 X92.621 Y104.135 E720.69222
G1 X95.865 Y107.379 E721.83916
G1 X96.857 Y107.379 E722.08709
G1 X92.621 Y103.143 E723.58465
G1 X92.621 Y102.151 E723.83258
G1 X97.849 Y107.379 E725.68077
G1 X98.840 Y107.379 E725.92870
G1 X92.621 Y101.160 E728.12751
G1 X92.621 Y100.168 E728.37544
G1 X99.832 Y107.379 E730.92488
G1 X100.824 Y107.379 E731.17281
G1 X92.621 Y99.176 E734.07287
G1 X92.621 Y98.184 E734.32080
G1 X101.816 Y107.379 E737.57149
G1 X102.807 Y107.379 E737.81942
G1 X92.621 Y97.193 E741.42073
G1 X92.621 Y96.201 E741.66866
G1 X103.799 Y107.379 E745.62059
G1 X104.791 Y107.379 E745.86852
G1 X92.621 Y95.209 E750.17108
G1 X92.621 Y94.218 E750.41901
G1 X105.782 Y107.379 E755.07219
G1 X106.774 Y107.379 E755.32012
G1 X92.621 Y93.226 E760.32393
G1 X93.008 Y92.621 E760.50340
G1 X107.379 Y106.992 E765.58405
G1 X107.379 Y106.000 E765.83197
G1 X94.000 Y92.621 E770.56200
G1 X94.992 Y92.621 E770.80992
G1 X107.379 Y105.008 E775.18932
G1 X107.379 Y104.016 E775.43725
G1 X95.984 Y92.621 E779.46602
G1 X96.975 Y92.621 E779.71395
G1 X107.379 Y103.025 E783.39210
G1 X107.379 Y102.033 E783.64003
G1 X97.967 Y92.621 E786.96755
G1 X98.959 Y92.621 E787.21548
G1 X107.379 Y101.041 E790.19238
G1 X107.379 Y100.050 E790.44031
G1 X99.950 Y92.621 E793.06659
G1 X100.942 Y92.621 E793.31452
G1 X107.379 Y99.058 E795.59017
G1 X107.379 Y98.066 E795.83810
G1 X101.934 Y92.621 E797.76312
G1 X102.926 Y92.621 E798.01105
G1 X107.379 Y97.074 E799.58546
G1 X107.379 Y96.083 E799.83338
G1 X103.917 Y92.621 E801.05716
G1 X104.909 Y92.621 E801.30509
G1 X107.379 Y95.091 E802.17825
G1 X107.379 Y94.099 E802.42618
G1 X105.901 Y92.621 E802.94871
G1 X106.892 Y92.621 E803.19664
G1 X107.379 Y93.108 E803.36854
G1 Z4.000 F7800.000
G1 X106.892 Y107.379 F7800.000
G1 X107.379 Y106.892 E803.54045 F4068.345
G1 X107.379 Y105.901 E803.78838
G1 X105.901 Y107.379 E804.31091
G1 X104.909 Y107.379 E804.55884
G1 X107.379 Y104.909 E805.43199
G1 X107.379 Y103.917 E805.67992
G1 X103.917 Y107.379 E806.90370
G1 X102.926 Y107.379 E807.15163
G1 X107.379 Y102.926 E808.72603
G1 X107.379 Y101.934 E808.97396
G1 X101.934 Y107.379 E810.89899
G1 X100.942 Y107.379 E811.14692
G1 X107.379 Y100.942 E813.42257
G1 X107.379 Y99.950 E813.67050
G1 X99.950 Y107.379 E816.29678
G1 X98.959 Y107.379 E816.54470
G1 X107.379 Y98.959 E819.52160
G1 X107.379 Y97.967 E819.76953
G1 X97.967 Y107.379 E823.09706
G1 X96.975 Y107.379 E823.34498
G1 X107.379 Y96.975 E827.02313
G1 X107.379 Y95.984 E827.27106
G1 X95.984 Y107.379 E831.29983
G1 X94.992 Y107.379 E831.54776
G1 X107.379 Y94.992 E835.92716
G1 X107.379 Y94.000 E836.17509
G1 X94.000 Y107.379 E840.90511
G1 X93.008 Y107.379 E841.15304
G1 X107.379 Y93.008 E846.23368
G1 X106.774 Y92.621 E846.41315
G1 X92.621 Y106.774 E851.41696
G1 X92.621 Y105.782 E851.66489
G1 X105.782 Y92.621 E856.31807
G1 X104.791 Y92.621 E856.56600
G1 X92.621 Y104.791 E860.86856
G1 X92.621 Y103.799 E861.11649
G1 X103.799 Y92.621 E865.06843
G1 X102.807 Y92.621 E865.31635
G1 X92.621 Y102.807 E868.91767
G1 X92.621 Y101.816 E869.16559
G1 X101.816 Y92.621 E872.41628
G1 X100.824 Y92.621 E872.66421
G1 X92.621 Y100.824 E875.56427
G1 X92.621 Y99.832 E875.81220
G1 X99.832 Y92.621 E878.36164
G1 X98.840 Y92.621 E878.60957
G1 X92.621 Y98.840 E880.80838
G1 X92.621 Y97.849 E881.05631
G1 X97.849 Y92.621 E882.90450
G1 X96.857 Y92.621 E883.15243
G1 X92.621 Y96.857 E884.65000
G1 X92.621 Y95.865 E884.89793
G1 X95.865 Y92.621 E886.04487
G1 X94.874 Y92.621 E886.29280
G1 X92.621 Y94.874 E887.08912
G1 X92.621 Y93.882 E887.33704
G1 X93.882 Y92.621 E887.78274
G1 X92.890 Y92.621 E888.03067
G1 X92.621 Y92.890 E888.12574
G1 Z4.400 F7800.000
G1 X92.890 Y107.379 F7800.000
G1 X92.621 Y107.110 E888.22081 F4068.346
G1 X92.621 Y106.118 E888.46873
G1 X93.882 Y107.379 E888.91443
G1 X94.874 Y107.379 E889.16236
G1 X92.621 Y105.126 E889.95867
G1 X92.621 Y104.135 E890.20660
G1 X95.865 Y107.379 E891.35354
G1 X96.857 Y107.379 E891.60147
G1 X92.621 Y103.143 E893.09904
G1 X92.621 Y102.151 E893.34697
G1 X97.849 Y107.379 E895.19516
G1 X98.840 Y107.379 E895.44309
G1 X92.621 Y101.160 E897.64190
G1 X92.621 Y100.168 E897.88983
G1 X99.832 Y107.379 E900.43927
G1 X100.824 Y107.379 E900.68720
G1 X92.621 Y99.176 E903.58726
G1 X92.621 Y98.184 E903.83519
G1 X101.816 Y107.379 E907.08588
G1 X102.807 Y107.379 E907.33380
G1 X92.621 Y97.193 E910.93512
G1 X92.621 Y96.201 E911.18304
G1 X103.799 Y107.379 E915.13498
G1 X104.791 Y107.379 E915.38291
G1 X92.621 Y95.209 E919.68547
G1 X92.621 Y94.218 E919.93340
G1 X105.782 Y107.379 E924.58658
G1 X106.774 Y107.379 E924.83451
G1 X92.621 Y93.226 E929.83832
G1 X93.008 Y92.621 E930.01779
G1 X107.379 Y106.992 E935.09843
G1 X107.379 Y106.000 E935.34636
G1 X94.000 Y92.621 E940.07638
G1 X94.992 Y92.621 E940.32431
G1 X107.379 Y105.008 E944.70371
G1 X107.379 Y104.016 E944.95164
G1 X95.984 Y92.621 E948.98041
G1 X96.975 Y92.621 E949.22834
G1 X107.379 Y103.025 E952.90649
G1 X107.379 Y102.033 E953.15442
G1 X97.967 Y92.621 E956.48194
G1 X98.959 Y92.621 E956.72987
G1 X107.379 Y101.041 E959.70677
G1 X107.379 Y100.050 E959.95470
G1 X99.950 Y92.621 E962.58097
G1 X100.942 Y92.621 E962.82890
G1 X107.379 Y99.058 E965.10455
G1 X107.379 Y98.066 E965.35248
G1 X101.934 Y92.621 E967.27751
G1 X102.926 Y92.621 E967.52544
G1 X107.379 Y97.074 E969.09984
G1 X107.379 Y96.083 E969.34777
G1 X103.917 Y92.621 E970.57155
G1 X104.909 Y92.621 E970.81948
G1 X107.379 Y95.091 E971.69264
G1 X107.379 Y94.099 E971.94056
G1 X105.901 Y92.621 E972.46310
G1 X106.892 Y92.621 E972.71102
G1 X107.379 Y93.108 E972.88293
G1 Z4.800 F7800.000
G1 X106.892 Y107.379 F7800.000
G1 X107.379 Y106.892 E973.05484 F4068.345
G1 X107.379 Y105.901 E973.30277
G1 X105.901 Y107.379 E973.82530
G1 X104.909 Y107.379 E974.07323
G1 X107.379 Y104.909 E974.94638
G1 X107.379 Y103.917 E975.19431
G1 X103.917 Y107.379 E976.41809
G1 X102.926 Y107.379 E976.66602
G1 X107.379 Y102.926 E978.24042
G1 X107.379 Y101.934 E978.48835
G1 X101.934 Y107.379 E980.41338
G1 X100.942 Y107.379 E980.66131
G1 X107.379 Y100.942 E982.93696
G1 X107.379 Y99.950 E983.18489
G1 X99.950 Y107.379 E985.81116
G1 X98.959 Y107.379 E986.05909
G1 X107.379 Y98.959 E989.03599
G1 X107.379 Y97.967 E989.28392
G1 X97.967 Y107.379 E992.61144
G1 X96.975 Y107.379 E992.85937
G1 X107.379 Y96.975 E996.53752
G1 X107.379 Y95.984 E996.78545
G1 X95.984 Y107.379 E1000.81422
G1 X94.992 Y107.379 E1001.06215
G1 X107.379 Y94.992 E1005.44155
G1 X107.379 Y94.000 E1005.68947
G1 X94.000 Y107.379 E1010.41949
G1 X93.008 Y107.379 E1010.66742
G1 X107.379 Y93.008 E1015.74807
G1 X106.774 Y92.621 E1015.92754
G1 X92.621 Y106.774 E1020.93135
G1 X92.621 Y105.782 E1021.17928
G1 X105.782 Y92.621 E1025.83246
G1 X104.791 Y92.621 E1026.08039
G1 X92.621 Y104.791 E1030.38295
G1 X92.621 Y103.799 E1030.63088
G1 X103.799 Y92.621 E1034.58281
G1 X102.807 Y92.621 E1034.83074
G1 X92.621 Y102.807 E1038.43205
G1 X92.621 Y101.816 E1038.67998
G1 X101.816 Y92.621 E1041.93067
G1 X100.824 Y92.621 E1042.17860
G1 X92.621 Y100.824 E1045.07866
G1 X92.621 Y99.832 E1045.32659
G1 X99.832 Y92.621 E1047.87603
G1 X98.840 Y92.621 E1048.12396
G1 X92.621 Y98.840 E1050.32277
G1 X92.621 Y97.849 E1050.57070
G1 X97.849 Y92.621 E1052.41889
G1 X96.857 Y92.621 E1052.66682
G1 X92.621 Y96.857 E1054.16439
G1 X92.621 Y95.865 E1054.41231
G1 X95.865 Y92.621 E1055.55926
G1 X94.874 Y92.621 E1055.80719
G1 X92.621 Y94.874 E1056.60350
G1 X92.621 Y93.882 E1056.85143
G1 X93.882 Y92.621 E1057.29713
G1 X92.890 Y92.621 E1057.54505
G1 X92.621 Y92.890 E1057.64012
G1 Z5.200 F7800.000
G1 X92.890 Y107.379 F7800.000
G1 X92.621 Y107.110 E1057.73519 F4068.346
G1 X92.621 Y106.118 E1057.98312
G1 X93.882 Y107.379 E1058.42881
G1 X94.874 Y107.379 E1058.67674
G1 X92.621 Y105.126 E1059.47306
G1 X92.621 Y104.135 E1059.72099
G1 X95.865 Y107.379 E1060.86793
G1 X96.857 Y107.379 E1061.11586
G1 X92.621 Y103.143 E1062.61343
G1 X92.621 Y102.151 E1062.86136
G1 X97.849 Y107.379 E1064.70955
G1 X98.840 Y107.379 E1064.95747
G1 X92.621 Y101.160 E1067.15629
G1 X92.621 Y100.168 E1067.40422
G1 X99.832 Y107.379 E1069.95366
G1 X100.824 Y107.379 E1070.20158
G1 X92.621 Y99.176 E1073.10165
G1 X92.621 Y98.184 E1073.34958
G1 X101.816 Y107.379 E1076.60026
G1 X102.807 Y107.379 E1076.84819
G1 X92.621 Y97.193 E1080.44950
G1 X92.621 Y96.201 E1080.69743
G1 X103.799 Y107.379 E1084.64937
G1 X104.791 Y107.379 E1084.89730
G1 X92.621 Y95.209 E1089.19985
G1 X92.621 Y94.218 E1089.44778
G1 X105.782 Y107.379 E1094.10097
G1 X106.774 Y107.379 E1094.34890
G1 X92.621 Y93.226 E1099.35270
G1 X93.008 Y92.621 E1099.53218
G1 X107.379 Y106.992 E1104.61282
G1 X107.379 Y106.000 E1104.86075
G1 X94.000 Y92.621 E1109.59077
G1 X94.992 Y92.621 E1109.83870
G1 X107.379 Y105.008 E1114.21810
G1 X107.379 Y104.016 E1114.46603
G1 X95.984 Y92.621 E1118.49480
G1 X96.975 Y92.621 E1118.74273
G1 X107.379 Y103.025 E1122.42087
G1 X107.379 Y102.033 E1122.66880
G1 X97.967 Y92.621 E1125.99633
G1 X98.959 Y92.621 E1126.24426
G1 X107.379 Y101.041 E1129.22116
G1 X107.379 Y100.050 E1129.46909
G1 X99.950 Y92.621 E1132.09536
G1 X100.942 Y92.621 E1132.34329
G1 X107.379 Y99.058 E1134.61894
G1 X107.379 Y98.066 E1134.86687
G1 X101.934 Y92.621 E1136.79190
G1 X102.926 Y92.621 E1137.03983
G1 X107.379 Y97.074 E1138.61423
G1 X107.379 Y96.083 E1138.86216
G1 X103.917 Y92.621 E1140.08594
G1 X104.909 Y92.621 E1140.33387
G1 X107.379 Y95.091 E1141.20702
G1 X107.379 Y94.099 E1141.45495
G1 X105.901 Y92.621 E1141.97748
G1 X106.892 Y92.621 E1142.22541
G1 X107.379 Y93.108 E1142.39732
G1 Z5.600 F7800.000
G1 X106.892 Y107.379 F7800.000
G1 X107.379 Y106.892 E1142.56923 F4068.345
G1 X107.379 Y105.901 E1142.81715
G1 X105.901 Y107.379 E1143.33969
G1 X104.909 Y107.379 E1143.58761
G1 X107.379 Y104.909 E1144.46077
G1 X107.379 Y103.917 E1144.70870
G1 X103.917 Y107.379 E1145.93248
G1 X102.926 Y107.379 E1146.18041
G1 X107.379 Y102.926 E1147.75481
G1 X107.379 Y101.934 E1148.00274
G1 X101.934 Y107.379 E1149.92777
G1 X100.942 Y107.379 E1150.17569
G1 X107.379 Y100.942 E1152.45135
G1 X107.379 Y99.950 E1152.69927
G1 X99.950 Y107.379 E1155.32555
G1 X98.959 Y107.379 E1155.57348
G1 X107.379 Y98.959 E1158.55038
G1 X107.379 Y97.967 E1158.79831
G1 X97.967 Y107.379 E1162.12583
G1 X96.975 Y107.379 E1162.37376
G1 X107.379 Y96.975 E1166.05191
G1 X107.379 Y95.984 E1166.29984
G1 X95.984 Y107.379 E1170.32861
G1 X94.992 Y107.379 E1170.57654
G1 X107.379 Y94.992 E1174.95593
G1 X107.379 Y94.000 E1175.20386
G1 X94.000 Y107.379 E1179.93388
G1 X93.008 Y107.379 E1180.18181
G1 X107.379 Y93.008 E1185.26246
G1 X106.774 Y92.621 E1185.44193
G1 X92.621 Y106.774 E1190.44574
G1 X92.621 Y105.782 E1190.69366
G1 X105.782 Y92.621 E1195.34685
G1 X104.791 Y92.621 E1195.59478
G1 X92.621 Y104.791 E1199.89734
G1 X92.621 Y103.799 E1200.14527
G1 X103.799 Y92.621 E1204.09720
G1 X102.807 Y92.621 E1204.34513
G1 X92.621 Y102.807 E1207.94644
G1 X92.621 Y101.816 E1208.19437
G1 X101.816 Y92.621 E1211.44506
G1 X100.824 Y92.621 E1211.69299
G1 X92.621 Y100.824 E1214.59305
G1 X92.621 Y99.832 E1214.84098
G1 X99.832 Y92.621 E1217.39042
G1 X98.840 Y92.621 E1217.63834
G1 X92.621 Y98.840 E1219.83716
G1 X92.621 Y97.849 E1220.08509
G1 X97.849 Y92.621 E1221.93328
G1 X96.857 Y92.621 E1222.18121
G1 X92.621 Y96.857 E1223.67877
G1 X92.621 Y95.865 E1223.92670
G1 X95.865 Y92.621 E1225.07364
G1 X94.874 Y92.621 E1225.32157
G1 X92.621 Y94.874 E1226.11789
G1 X92.621 Y93.882 E1226.36582
G1 X93.882 Y92.621 E1226.81151
G1 X92.890 Y92.621 E1227.05944
G1 X92.621 Y92.890 E1227.15451
G1 Z6.000 F7800.000
G1 X92.890 Y107.379 F7800.000
G1 X92.621 Y107.110 E1227.24958 F4068.346
G1 X92.621 Y106.118 E1227.49751
G1 X93.882 Y107.379 E1227.94320
G1 X94.874 Y107.379 E1228.19113
G1 X92.621 Y105.126 E1228.98745
G1 X92.621 Y104.135 E1229.23538
G1 X95.865 Y107.379 E1230.38232
G1 X96.857 Y107.379 E1230.63025
G1 X92.621 Y103.143 E1232.12781
G1 X92.621 Y102.151 E1232.37574
G1 X97.849 Y107.379 E1234.22393
G1 X98.840 Y107.379 E1234.47186
G1 X92.621 Y101.160 E1236.67068
G1 X92.621 Y100.168 E1236.91860
G1 X99.832 Y107.379 E1239.46804
G1 X100.824 Y107.379 E1239.71597
G1 X92.621 Y99.176 E1242.61603
G1 X92.621 Y98.184 E1242.86396
G1 X101.816 Y107.379 E1246.11465
G1 X102.807 Y107.379 E1246.36258
G1 X92.621 Y97.193 E1249.96389
G1 X92.621 Y96.201 E1250.21182
G1 X103.799 Y107.379 E1254.16375
G1 X104.791 Y107.379 E1254.41168
G1 X92.621 Y95.209 E1258.71424
G1 X92.621 Y94.218 E1258.96217
G1 X105.782 Y107.379 E1263.61535
G1 X106.774 Y107.379 E1263.86328
G1 X92.621 Y93.226 E1268.86709
G1 X93.008 Y92.621 E1269.04656
G1 X107.379 Y106.992 E1274.12721
G1 X107.379 Y106.000 E1274.37514
G1 X94.000 Y92.621 E1279.10516
G1 X94.992 Y92.621 E1279.35309
G1 X107.379 Y105.008 E1283.73248
G1 X107.379 Y104.016 E1283.98041
G1 X95.984 Y92.621 E1288.00919
G1 X96.975 Y92.621 E1288.25711
G1 X107.379 Y103.025 E1291.93526
G1 X107.379 Y102.033 E1292.18319
G1 X97.967 Y92.621 E1295.51072
G1 X98.959 Y92.621 E1295.75864
G1 X107.379 Y101.041 E1298.73554
G1 X107.379 Y100.050 E1298.98347
G1 X99.950 Y92.621 E1301.60975
G1 X100.942 Y92.621 E1301.85768
G1 X107.379 Y99.058 E1304.13333
G1 X107.379 Y98.066 E1304.38126
G1 X101.934 Y92.621 E1306.30629
G1 X102.926 Y92.621 E1306.55421
G1 X107.379 Y97.074 E1308.12862
G1 X107.379 Y96.083 E1308.37655
G1 X103.917 Y92.621 E1309.60033
G1 X104.909 Y92.621 E1309.84826
G1 X107.379 Y95.091 E1310.72141
G1 X107.379 Y94.099 E1310.96934
G1 X105.901 Y92.621 E1311.49187
G1 X106.892 Y92.621 E1311.73980
G1 X107.379 Y93.108 E1311.91171
G1 Z6.400 F7800.000
G1 X106.892 Y107.379 F7800.000
G1 X107.379 Y106.892 E1312.08361 F4068.345
G1 X107.379 Y105.901 E1312.33154
G1 X105.901 Y107.379 E1312.85407
G1 X104.909 Y107.379 E1313.10200
G1 X107.379 Y104.909 E1313.97516
G1 X107.379 Y103.917 E1314.22309
G1 X103.917 Y107.379 E1315.44686
G1 X102.926 Y107.379 E1315.69479
G1 X107.379 Y102.926 E1317.26920
G1 X107.379 Y101.934 E1317.51713
G1 X101.934 Y107.379 E1319.44215
G1 X100.942 Y107.379 E1319.69008
G1 X107.379 Y100.942 E1321.96573
G1 X107.379 Y99.950 E1322.21366
G1 X99.950 Y107.379 E1324.83994
G1 X98.959 Y107.379 E1325.08787
G1 X107.379 Y98.959 E1328.06477
G1 X107.379 Y97.967 E1328.31269
G1 X97.967 Y107.379 E1331.64022
G1 X96.975 Y107.379 E1331.88815
G1 X107.379 Y96.975 E1335.56630
G1 X107.379 Y95.984 E1335.81422
G1 X95.984 Y107.379 E1339.84300
G1 X94.992 Y107.379 E1340.09092
G1 X107.379 Y94.992 E1344.47032
G1 X107.379 Y94.000 E1344.71825
G1 X94.000 Y107.379 E1349.44827
G1 X93.008 Y107.379 E1349.69620
G1 X107.379 Y93.008 E1354.77684
G1 X106.774 Y92.621 E1354.95631
G1 X92.621 Y106.774 E1359.96012
G1 X92.621 Y105.782 E1360.20805
G1 X105.782 Y92.621 E1364.86124
G1 X104.791 Y92.621 E1365.10916
G1 X92.621 Y104.791 E1369.41172
G1 X92.621 Y103.799 E1369.65965
G1 X103.799 Y92.621 E1373.61159
G1 X102.807 Y92.621 E1373.85952
G1 X92.621 Y102.807 E1377.46083
G1 X92.621 Y101.816 E1377.70876
G1 X101.816 Y92.621 E1380.95944
G1 X100.824 Y92.621 E1381.20737
G1 X92.621 Y100.824 E1384.10744
G1 X92.621 Y99.832 E1384.35536
G1 X99.832 Y92.621 E1386.90480
G1 X98.840 Y92.621 E1387.15273
G1 X92.621 Y98.840 E1389.35155
G1 X92.621 Y97.849 E1389.59948
G1 X97.849 Y92.621 E1391.44767
G1 X96.857 Y92.621 E1391.69559
G1 X92.621 Y96.857 E1393.19316
G1 X92.621 Y95.865 E1393.44109
G1 X95.865 Y92.621 E1394.58803
G1 X94.874 Y92.621 E1394.83596
G1 X92.621 Y94.874 E1395.63228
G1 X92.621 Y93.882 E1395.88021
G1 X93.882 Y92.621 E1396.32590
G1 X92.890 Y92.621 E1396.57383
G1 X92.621 Y92.890 E1396.66890
G1 Z6.800 F7800.000
G1 X92.890 Y107.379 F7800.000
G1 X92.621 Y107.110 E1396.76397 F4068.346
G1 X92.621 Y106.118 E1397.01190
G1 X93.882 Y107.379 E1397.45759
G1 X94.874 Y107.379 E1397.70552
G1 X92.621 Y105.126 E1398.50184
G1 X92.621 Y104.135 E1398.74976
G1 X95.865 Y107.379 E1399.89671
G1 X96.857 Y107.379 E1400.14464
G1 X92.621 Y103.143 E1401.64220
G1 X92.621 Y102.151 E1401.89013
G1 X97.849 Y107.379 E1403.73832
G1 X98.840 Y107.379 E1403.98625
G1 X92.621 Y101.160 E1406.18506
G1 X92.621 Y100.168 E1406.43299
G1 X99.832 Y107.379 E1408.98243
G1 X100.824 Y107.379 E1409.23036
G1 X92.621 Y99.176 E1412.13042
G1 X92.621 Y98.184 E1412.37835
G1 X101.816 Y107.379 E1415.62904
G1 X102.807 Y107.379 E1415.87697
G1 X92.621 Y97.193 E1419.47828
G1 X92.621 Y96.201 E1419.72621
G1 X103.799 Y107.379 E1423.67814
G1 X104.791 Y107.379 E1423.92607
G1 X92.621 Y95.209 E1428.22863
G1 X92.621 Y94.218 E1428.47656
G1 X105.782 Y107.379 E1433.12974
G1 X106.774 Y107.379 E1433.37767
G1 X92.621 Y93.226 E1438.38148
G1 X93.008 Y92.621 E1438.56095
G1 X107.379 Y106.992 E1443.64160
G1 X107.379 Y106.000 E1443.88952
G1 X94.000 Y92.621 E1448.61955
G1 X94.992 Y92.621 E1448.86747
G1 X107.379 Y105.008 E1453.24687
G1 X107.379 Y104.016 E1453.49480
G1 X95.984 Y92.621 E1457.52357
G1 X96.975 Y92.621 E1457.77150
G1 X107.379 Y103.025 E1461.44965
G1 X107.379 Y102.033 E1461.69758
G1 X97.967 Y92.621 E1465.02510
G1 X98.959 Y92.621 E1465.27303
G1 X107.379 Y101.041 E1468.24993
G1 X107.379 Y100.050 E1468.49786
G1 X99.950 Y92.621 E1471.12414
G1 X100.942 Y92.621 E1471.37207
G1 X107.379 Y99.058 E1473.64772
G1 X107.379 Y98.066 E1473.89565
G1 X101.934 Y92.621 E1475.82067
G1 X102.926 Y92.621 E1476.06860
G1 X107.379 Y97.074 E1477.64301
G1 X107.379 Y96.083 E1477.89093
G1 X103.917 Y92.621 E1479.11471
G1 X104.909 Y92.621 E1479.36264
G1 X107.379 Y95.091 E1480.23580
G1 X107.379 Y94.099 E1480.48373
G1 X105.901 Y92.621 E1481.00626
G1 X106.892 Y92.621 E1481.25419
G1 X107.379 Y93.108 E1481.42609
G1 Z7.200 F7800.000
G1 X106.892 Y107.379 F7800.000
G1 X107.379 Y106.892 E1481.59800 F4068.345
G1 X107.379 Y105.901 E1481.84593
G1 X105.901 Y107.379 E1482.36846
G1 X104.909 Y107.379 E1482.61639
G1 X107.379 Y104.909 E1483.48954
G1 X107.379 Y103.917 E1483.73747
G1 X103.917 Y107.379 E1484.96125
G1 X102.926 Y107.379 E1485.20918
G1 X107.379 Y102.926 E1486.78358
G1 X107.379 Y101.934 E1487.03151
G1 X101.934 Y107.379 E1488.95654
G1 X100.942 Y107.379 E1489.20447
G1 X107.379 Y100.942 E1491.48012
G1 X107.379 Y99.950 E1491.72805
G1 X99.950 Y107.379 E1494.35432
G1 X98.959 Y107.379 E1494.60225
G1 X107.379 Y98.959 E1497.57915
G1 X107.379 Y97.967 E1497.82708
G1 X97.967 Y107.379 E1501.15461
G1 X96.975 Y107.379 E1501.40253
G1 X107.379 Y96.975 E1505.08068
G1 X107.379 Y95.984 E1505.32861
G1 X95.984 Y107.379 E1509.35738
G1 X94.992 Y107.379 E1509.60531
G1 X107.379 Y94.992 E1513.98471
G1 X107.379 Y94.000 E1514.23264
G1 X94.000 Y107.379 E1518.96266
G1 X93.008 Y107.379 E1519.21059
G1 X107.379 Y93.008 E1524.29123
G1 X106.774 Y92.621 E1524.47070
G1 X92.621 Y106.774 E1529.47451
G1 X92.621 Y105.782 E1529.72244
G1 X105.782 Y92.621 E1534.37562
G1 X104.791 Y92.621 E1534.62355
G1 X92.621 Y104.791 E1538.92611
G1 X92.621 Y103.799 E1539.17404
G1 X103.799 Y92.621 E1543.12598
G1 X102.807 Y92.621 E1543.37390
G1 X92.621 Y102.807 E1546.97522
G1 X92.621 Y101.816 E1547.22314
G1 X101.816 Y92.621 E1550.47383
G1 X100.824 Y92.621 E1550.72176
G1 X92.621 Y100.824 E1553.62182
G1 X92.621 Y99.832 E1553.86975
G1 X99.832 Y92.621 E1556.41919
G1 X98.840 Y92.621 E1556.66712
G1 X92.621 Y98.840 E1558.86593
G1 X92.621 Y97.849 E1559.11386
G1 X97.849 Y92.621 E1560.96205
G1 X96.857 Y92.621 E1561.20998
G1 X92.621 Y96.857 E1562.70755
G1 X92.621 Y95.865 E1562.95548
G1 X95.865 Y92.621 E1564.10242
G1 X94.874 Y92.621 E1564.35035
G1 X92.621 Y94.874 E1565.14667
G1 X92.621 Y93.882 E1565.39459
G1 X93.882 Y92.621 E1565.84029
G1 X92.890 Y92.621 E1566.08822
G1 X92.621 Y92.890 E1566.18329
G1 Z7.600 F7800.000
G1 X92.890 Y107.379 F7800.000
G1 X92.621 Y107.110 E1566.27836 F4068.346
G1 X92.621 Y106.118 E1566.52628
G1 X93.882 Y107.379 E1566.97198
G1 X94.874 Y107.379 E1567.21991
G1 X92.621 Y105.126 E1568.01622
G1 X92.621 Y104.135 E1568.26415
G1 X95.865 Y107.379 E1569.41109
G1 X96.857 Y107.379 E1569.65902
G1 X92.621 Y103.143 E1571.15659
G1 X92.621 Y102.151 E1571.40452
G1 X97.849 Y107.379 E1573.25271
G1 X98.840 Y107.379 E1573.50064
G1 X92.621 Y101.160 E1575.69945
G1 X92.621 Y100.168 E1575.94738
G1 X99.832 Y107.379 E1578.49682
G1 X100.824 Y107.379 E1578.74475
G1 X92.621 Y99.176 E1581.64481
G1 X92.621 Y98.184 E1581.89274
G1 X101.816 Y107.379 E1585.14343
G1 X102.807 Y107.379 E1585.39135
G1 X92.621 Y97.193 E1588.99267
G1 X92.621 Y96.201 E1589.24059
G1 X103.799 Y107.379 E1593.19253
G1 X104.791 Y107.379 E1593.44046
G1 X92.621 Y95.209 E1597.74302
G1 X92.621 Y94.218 E1597.99095
G1 X105.782 Y107.379 E1602.64413
G1 X106.774 Y107.379 E1602.89206
G1 X92.621 Y93.226 E1607.89587
G1 X93.008 Y92.621 E1608.07534
G1 X107.379 Y106.992 E1613.15598
G1 X107.379 Y106.000 E1613.40391
G1 X94.000 Y92.621 E1618.13393
G1 X94.992 Y92.621 E1618.38186
G1 X107.379 Y105.008 E1622.76126
G1 X107.379 Y104.016 E1623.00919
G1 X95.984 Y92.621 E1627.03796
G1 X96.975 Y92.621 E1627.28589
G1 X107.379 Y103.025 E1630.96404
G1 X107.379 Y102.033 E1631.21197
G1 X97.967 Y92.621 E1634.53949
G1 X98.959 Y92.621 E1634.78742
G1 X107.379 Y101.041 E1637.76432
G1 X107.379 Y100.050 E1638.01225
G1 X99.950 Y92.621 E1640.63852
G1 X100.942 Y92.621 E1640.88645
G1 X107.379 Y99.058 E1643.16210
G1 X107.379 Y98.066 E1643.41003
G1 X101.934 Y92.621 E1645.33506
G1 X102.926 Y92.621 E1645.58299
G1 X107.379 Y97.074 E1647.15739
G1 X107.379 Y96.083 E1647.40532
G1 X103.917 Y92.621 E1648.62910
G1 X104.909 Y92.621 E1648.87703
G1 X107.379 Y95.091 E1649.75019
G1 X107.379 Y94.099 E1649.99811
G1 X105.901 Y92.621 E1650.52065
G1 X106.892 Y92.621 E1650.76857
G1 X107.379 Y93.108 E1650.94048
G1 Z8.000 F7800.000
G1 X106.892 Y107.379 F7800.000
G1 X107.379 Y106.892 E1651.11239 F4068.345
G1 X107.379 Y105.901 E1651.36032
G1 X105.901 Y107.379 E1651.88285
G1 X104.909 Y107.379 E1652.13078
G1 X107.379 Y104.909 E1653.00393
G1 X107.379 Y103.917 E1653.25186
G1 X103.917 Y107.379 E1654.47564
G1 X102.926 Y107.379 E1654.72357
G1 X107.379 Y102.926 E1656.29797
G1 X107.379 Y101.934 E1656.54590
G1 X101.934 Y107.379 E1658.47093
G1 X100.942 Y107.379 E1658.71886
G1 X107.379 Y100.942 E1660.99451
G1 X107.379 Y99.950 E1661.24244
G1 X99.950 Y107.379 E1663.86871
G1 X98.959 Y107.379 E1664.11664
G1 X107.379 Y98.959 E1667.09354
G1 X107.379 Y97.967 E1667.34147
G1 X97.967 Y107.379 E1670.66899
G1 X96.975 Y107.379 E1670.91692
G1 X107.379 Y96.975 E1674.59507
G1 X107.379 Y95.984 E1674.84300
G1 X95.984 Y107.379 E1678.87177
G1 X94.992 Y107.379 E1679.11970
G1 X107.379 Y94.992 E1683.49910
G1 X107.379 Y94.000 E1683.74702
G1 X94.000 Y107.379 E1688.47704
G1 X93.008 Y107.379 E1688.72497
G1 X107.379 Y93.008 E1693.80562
G1 X106.774 Y92.621 E1693.98509
G1 X92.621 Y106.774 E1698.98890
G1 X92.621 Y105.782 E1699.23683
G1 X105.782 Y92.621 E1703.89001
G1 X104.791 Y92.621 E1704.13794
G1 X92.621 Y104.791 E1708.44050
G1 X92.621 Y103.799 E1708.68843
G1 X103.799 Y92.621 E1712.64036
G1 X102.807 Y92.621 E1712.88829
G1 X92.621 Y102.807 E1716.48960
G1 X92.621 Y101.816 E1716.73753
G1 X101.816 Y92.621 E1719.98822
G1 X100.824 Y92.621 E1720.23615
G1 X92.621 Y100.824 E1723.13621
G1 X92.621 Y99.832 E1723.38414
G1 X99.832 Y92.621 E1725.93358
G1 X98.840 Y92.621 E1726.18151
G1 X92.621 Y98.840 E1728.38032
G1 X92.621 Y97.849 E1728.62825
G1 X97.849 Y92.621 E1730.47644
G1 X96.857 Y92.621 E1730.72437
G1 X92.621 Y96.857 E1732.22194
G1 X92.621 Y95.865 E1732.46986
G1 X95.865 Y92.621 E1733.61681
G1 X94.874 Y92.621 E1733.86474
G1 X92.621 Y94.874 E1734.66105
G1 X92.621 Y93.882 E1734.90898
G1 X93.882 Y92.621 E1735.35468
G1 X92.890 Y92.621 E1735.60260
G1 X92.621 Y92.890 E1735.69767
G1 Z8.400 F7800.000
G1 X92.890 Y107.379 F7800.000
G1 X92.621 Y107.110 E1735.79274 F4068.346
G1 X92.621 Y106.118 E1736.04067
G1 X93.882 Y107.379 E1736.48636
G1 X94.874 Y107.379 E1736.73429
G1 X92.621 Y105.126 E1737.53061
G1 X92.621 Y104.135 E1737.77854
G1 X95.865 Y107.379 E1738.92548
G1 X96.857 Y107.379 E1739.17341
G1 X92.621 Y103.143 E1740.67098
G1 X92.621 Y102.151 E1740.91891
G1 X97.849 Y107.379 E1742.76710
G1 X98.840 Y107.379 E1743.01502
G1 X92.621 Y101.160 E1745.21384
G1 X92.621 Y100.168 E1745.46177
G1 X99.832 Y107.379 E1748.01121
G1 X100.824 Y107.379 E1748.25913
G1 X92.621 Y99.176 E1751.15920
G1 X92.621 Y98.184 E1751.40713
G1 X101.816 Y107.379 E1754.65781
G1 X102.807 Y107.379 E1754.90574
G1 X92.621 Y97.193 E1758.50705
G1 X92.621 Y96.201 E1758.75498
G1 X103.799 Y107.379 E1762.70692
G1 X104.791 Y107.379 E1762.95485
G1 X92.621 Y95.209 E1767.25740
G1 X92.621 Y94.218 E1767.50533
G1 X105.782 Y107.379 E1772.15852
G1 X106.774 Y107.379 E1772.40645
G1 X92.621 Y93.226 E1777.41025
G1 X93.008 Y92.621 E1777.58973
G1 X107.379 Y106.992 E1782.67037
G1 X107.379 Y106.000 E1782.91830
G1 X94.000 Y92.621 E1787.64832
G1 X94.992 Y92.621 E1787.89625
G1 X107.379 Y105.008 E1792.27565
G1 X107.379 Y104.016 E1792.52358
G1 X95.984 Y92.621 E1796.55235
G1 X96.975 Y92.621 E1796.80028
G1 X107.379 Y103.025 E1800.47842
G1 X107.379 Y102.033 E1800.72635
G1 X97.967 Y92.621 E1804.05388
G1 X98.959 Y92.621 E1804.30181
G1 X107.379 Y101.041 E1807.27871
G1 X107.379 Y100.050 E1807.52664
G1 X99.950 Y92.621 E1810.15291
G1 X100.942 Y92.621 E1810.40084
G1 X107.379 Y99.058 E1812.67649
G1 X107.379 Y98.066 E1812.92442
G1 X101.934 Y92.621 E1814.84945
G1 X102.926 Y92.621 E1815.09738
G1 X107.379 Y97.074 E1816.67178
G1 X107.379 Y96.083 E1816.91971
G1 X103.917 Y92.621 E1818.14349
G1 X104.909 Y92.621 E1818.39142
G1 X107.379 Y95.091 E1819.26457
G1 X107.379 Y94.099 E1819.51250
G1 X105.901 Y92.621 E1820.03503
G1 X106.892 Y92.621 E1820.28296
G1 X107.379 Y93.108 E1820.45487
G1 Z8.800 F7800.000
G1 X106.892 Y107.379 F7800.000
G1 X107.379 Y106.892 E1820.62678 F4068.345
G1 X107.379 Y105.901 E1820.87470
G1 X105.901 Y107.379 E1821.39724
G1 X104.909 Y107.379 E1821.64516
G1 X107.379 Y104.909 E1822.51832
G1 X107.379 Y103.917 E1822.76625
G1 X103.917 Y107.379 E1823.99003
G1 X102.926 Y107.379 E1824.23796
G1 X107.379 Y102.926 E1825.81236
G1 X107.379 Y101.934 E1826.06029
G1 X101.934 Y107.379 E1827.98532
G1 X100.942 Y107.379 E1828.23324
G1 X107.379 Y100.942 E1830.50890
G1 X107.379 Y99.950 E1830.75682
G1 X99.950 Y107.379 E1833.38310
G1 X98.959 Y107.379 E1833.63103
G1 X107.379 Y98.959 E1836.60793
G1 X107.379 Y97.967 E1836.85586
G1 X97.967 Y107.379 E1840.18338
G1 X96.975 Y107.379 E1840.43131
G1 X107.379 Y96.975 E1844.10946
G1 X107.379 Y95.984 E1844.35739
G1 X95.984 Y107.379 E1848.38616
G1 X94.992 Y107.379 E1848.63409
G1 X107.379 Y94.992 E1853.01348
G1 X107.379 Y94.000 E1853.26141
G1 X94.000 Y107.379 E1857.99143
G1 X93.008 Y107.379 E1858.23936
G1 X107.379 Y93.008 E1863.32001
G1 X106.774 Y92.621 E1863.49948
G1 X92.621 Y106.774 E1868.50329
G1 X92.621 Y105.782 E1868.75121
G1 X105.782 Y92.621 E1873.40440
G1 X104.791 Y92.621 E1873.65233
G1 X92.621 Y104.791 E1877.95489
G1 X92.621 Y103.799 E1878.20282
G1 X103.799 Y92.621 E1882.15475
G1 X102.807 Y92.621 E1882.40268
G1 X92.621 Y102.807 E1886.00399
G1 X92.621 Y101.816 E1886.25192
G1 X101.816 Y92.621 E1889.50261
G1 X100.824 Y92.621 E1889.75054
G1 X92.621 Y100.824 E1892.65060
G1 X92.621 Y99.832 E1892.89853
G1 X99.832 Y92.621 E1895.44797
G1 X98.840 Y92.621 E1895.69589
G1 X92.621 Y98.840 E1897.89471
G1 X92.621 Y97.849 E1898.14264
G1 X97.849 Y92.621 E1899.99083
G1 X96.857 Y92.621 E1900.23876
G1 X92.621 Y96.857 E1901.73632
G1 X92.621 Y95.865 E1901.98425
G1 X95.865 Y92.621 E1903.13119
G1 X94.874 Y92.621 E1903.37912
G1 X92.621 Y94.874 E1904.17544
G1 X92.621 Y93.882 E1904.42337
G1 X93.882 Y92.621 E1904.86906
G1 X92.890 Y92.621 E1905.11699
G1 X92.621 Y92.890 E1905.21206
G1 Z9.200 F7800.000
G1 X92.890 Y107.379 F7800.000
G1 X92.621 Y107.110 E1905.30713 F4068.346
G1 X92.621 Y106.118 E1905.55506
G1 X93.882 Y107.379 E1906.00075
G1 X94.874 Y107.379 E1906.24868
G1 X92.621 Y105.126 E1907.04500
G1 X92.621 Y104.135 E1907.29293
G1 X95.865 Y107.379 E1908.43987
G1 X96.857 Y107.379 E1908.68780
G1 X92.621 Y103.143 E1910.18536
G1 X92.621 Y102.151 E1910.43329
G1 X97.849 Y107.379 E1912.28148
G1 X98.840 Y107.379 E1912.52941
G1 X92.621 Y101.160 E1914.72823
G1 X92.621 Y100.168 E1914.97615
G1 X99.832 Y107.379 E1917.52559
G1 X100.824 Y107.379 E1917.77352
G1 X92.621 Y99.176 E1920.67358
G1 X92.621 Y98.184 E1920.92151
G1 X101.816 Y107.379 E1924.17220
G1 X102.807 Y107.379 E1924.42013
G1 X92.621 Y97.193 E1928.02144
G1 X92.621 Y96.201 E1928.26937
G1 X103.799 Y107.379 E1932.22130
G1 X104.791 Y107.379 E1932.46923
G1 X92.621 Y95.209 E1936.77179
G1 X92.621 Y94.218 E1937.01972
G1 X105.782 Y107.379 E1941.67290
G1 X106.774 Y107.379 E1941.92083
G1 X92.621 Y93.226 E1946.92464
G1 X93.008 Y92.621 E1947.10411
G1 X107.379 Y106.992 E1952.18476
G1 X107.379 Y106.000 E1952.43269
G1 X94.000 Y92.621 E1957.16271
G1 X94.992 Y92.621 E1957.41064
G1 X107.379 Y105.008 E1961.79003
G1 X107.379 Y104.016 E1962.03796
G1 X95.984 Y92.621 E1966.06674
G1 X96.975 Y92.621 E1966.31466
G1 X107.379 Y103.025 E1969.99281
G1 X107.379 Y102.033 E1970.24074
G1 X97.967 Y92.621 E1973.56827
G1 X98.959 Y92.621 E1973.81619
G1 X107.379 Y101.041 E1976.79309
G1 X107.379 Y100.050 E1977.04102
G1 X99.950 Y92.621 E1979.66730
G1 X100.942 Y92.621 E1979.91523
G1 X107.379 Y99.058 E1982.19088
G1 X107.379 Y98.066 E1982.43881
G1 X101.934 Y92.621 E1984.36384
G1 X102.926 Y92.621 E1984.61176
G1 X107.379 Y97.074 E1986.18617
G1 X107.379 Y96.083 E1986.43410
G1 X103.917 Y92.621 E1987.65788
G1 X104.909 Y92.621 E1987.90581
G1 X107.379 Y95.091 E1988.77896
G1 X107.379 Y94.099 E1989.02689
G1 X105.901 Y92.621 E1989.54942
G1 X106.892 Y92.621 E1989.79735
G1 X107.379 Y93.108 E1989.96926
G1 Z9.600 F7800.000
G1 X106.892 Y107.379 F7800.000
G1 X107.379 Y106.892 E1990.14116 F4068.345
G1 X107.379 Y105.901 E1990.38909
G1 X105.901 Y107.379 E1990.91162
G1 X104.909 Y107.379 E1991.15955
G1 X107.379 Y104.909 E1992.03271
G1 X107.379 Y103.917 E1992.28064
G1 X103.917 Y107.379 E1993.50441
G1 X102.926 Y107.379 E1993.75234
G1 X107.379 Y102.926 E1995.32675
G1 X107.379 Y101.934 E1995.57468
G1 X101.934 Y107.379 E1997.49970
G1 X100.942 Y107.379 E1997.74763
G1 X107.379 Y100.942 E2000.02328
G1 X107.379 Y99.950 E2000.27121
G1 X99.950 Y107.379 E2002.89749
G1 X98.959 Y107.379 E2003.14542
G1 X107.379 Y98.959 E2006.12232
G1 X107.379 Y97.967 E2006.37024
G1 X97.967 Y107.379 E2009.69777
G1 X96.975 Y107.379 E2009.94570
G1 X107.379 Y96.975 E2013.62385
G1 X107.379 Y95.984 E2013.87177
G1 X95.984 Y107.379 E2017.90055
G1 X94.992 Y107.379 E2018.14847
G1 X107.379 Y94.992 E2022.52787
G1 X107.379 Y94.000 E2022.77580
G1 X94.000 Y107.379 E2027.50582
G1 X93.008 Y107.379 E2027.75375
G1 X107.379 Y93.008 E2032.83439
G1 X106.774 Y92.621 E2033.01386
G1 X92.621 Y106.774 E2038.01767
G1 X92.621 Y105.782 E2038.26560
G1 X105.782 Y92.621 E2042.91879
G1 X104.791 Y92.621 E2043.16671
G1 X92.621 Y104.791 E2047.46927
G1 X92.621 Y103.799 E2047.71720
G1 X103.799 Y92.621 E2051.66914
G1 X102.807 Y92.621 E2051.91707
G1 X92.621 Y102.807 E2055.51838
G1 X92.621 Y101.816 E2055.76631
G1 X101.816 Y92.621 E2059.01699
G1 X100.824 Y92.621 E2059.26492
G1 X92.621 Y100.824 E2062.16499
G1 X92.621 Y99.832 E2062.41291
G1 X99.832 Y92.621 E2064.96235
G1 X98.840 Y92.621 E2065.21028
G1 X92.621 Y98.840 E2067.40910
G1 X92.621 Y97.849 E2067.65703
G1 X97.849 Y92.621 E2069.50522
G1 X96.857 Y92.621 E2069.75314
G1 X92.621 Y96.857 E2071.25071
G1 X92.621 Y95.865 E2071.49864
G1 X95.865 Y92.621 E2072.64558
G1 X94.874 Y92.621 E2072.89351
G1 X92.621 Y94.874 E2073.68983
G1 X92.621 Y93.882 E2073.93776
G1 X93.882 Y92.621 E2074.38345
G1 X92.890 Y92.621 E2074.63138
G1 X92.621 Y92.890 E2074.72645
G1 Z10.000 F7800.000
G1 E2072.72645 F2400.00000
G92 E0
G1 X92.890 Y107.379 F7800.000
G1 E2.00000 F2400.00000
G1 X92.621 Y107.110 E2.09507 F4068.346
G1 X92.621 Y106.118 E2.34300
G1 X93.882 Y107.379 E2.78869
G1 X94.874 Y107.379 E3.03662
G1 X92.621 Y105.126 E3.83294
G1 X92.621 Y104.135 E4.08087
G1 X95.865 Y107.379 E5.22781
G1 X96.857 Y107.379 E5.47574
G1 X92.621 Y103.143 E6.97330
G1 X92.621 Y102.151 E7.22123
G1 X97.849 Y107.379 E9.06942
G1 X98.840 Y107.379 E9.31735
G1 X92.621 Y101.160 E11.51617
G1 X92.621 Y100.168 E11.76409
G1 X99.832 Y107.379 E14.31353
G1 X100.824 Y107.379 E14.56146
G1 X92.621 Y99.176 E17.46152
G1 X92.621 Y98.184 E17.70945
G1 X101.816 Y107.379 E20.96014
G1 X102.807 Y107.379 E21.20807
G1 X92.621 Y97.193 E24.80938
G1 X92.621 Y96.201 E25.05731
G1 X103.799 Y107.379 E29.00924
G1 X104.791 Y107.379 E29.25717
G1 X92.621 Y95.209 E33.55973
G1 X92.621 Y94.218 E33.80766
G1 X105.782 Y107.379 E38.46084
G1 X106.774 Y107.379 E38.70877
G1 X92.621 Y93.226 E43.71258
G1 X93.008 Y92.621 E43.89205
G1 X107.379 Y106.992 E48.97270
G1 X107.379 Y106.000 E49.22063
G1 X94.000 Y92.621 E53.95065
G1 X94.992 Y92.621 E54.19858
G1 X107.379 Y105.008 E58.57797
G1 X107.379 Y104.016 E58.82590
G1 X95.984 Y92.621 E62.85467
G1 X96.975 Y92.621 E63.10260
G1 X107.379 Y103.025 E66.78075
G1 X107.379 Y102.033 E67.02868
G1 X97.967 Y92.621 E70.35620
G1 X98.959 Y92.621 E70.60413
G1 X107.379 Y101.041 E73.58103
G1 X107.379 Y100.050 E73.82896
G1 X99.950 Y92.621 E76.45524
G1 X100.942 Y92.621 E76.70317
G1 X107.379 Y99.058 E78.97882
G1 X107.379 Y98.066 E79.22675
G1 X101.934 Y92.621 E81.15177
G1 X102.926 Y92.621 E81.39970
G1 X107.379 Y97.074 E82.97411
G1 X107.379 Y96.083 E83.22204
G1 X103.917 Y92.621 E84.44582
G1 X104.909 Y92.621 E84.69374
G1 X107.379 Y95.091 E85.56690
G1 X107.379 Y94.099 E85.81483
G1 X105.901 Y92.621 E86.33736
G1 X106.892 Y92.621 E86.58529
G1 X107.379 Y93.108 E86.75719
G1 E84.75719 F2400.00000
G92 E0
M107
M104 S0 ; turn off temperature
G28 X0  ; home X axis
M84     ; disable motors

; filament used = 2157.5mm (1.7cm3)

; avoid_crossing_perimeters = 0
; bed_shape = 0x0,200x0,200x200,0x200
; bed_temperature = 0
; before_layer_gcode = 
; bridge_acceleration = 0
; bridge_fan_speed = 100
; brim_width = 0
; complete_objects = 0
; cooling = 1
; default_acceleration = 0
; disable_fan_first_layers = 3
; duplicate_distance = 6
; end_gcode = M104 S0 ; turn off temperature\nG28 X0  ; home X axis\nM84     ; disable motors\n
; extruder_clearance_height = 20
; extruder_clearance_radius = 20
; extruder_offset = 0x0
; extrusion_axis = E
; extrusion_multiplier = 1
; fan_always_on = 0
; fan_below_layer_time = 60
; filament_colour = #FFFFFF
; filament_diameter = 1
; first_layer_acceleration = 0
; first_layer_bed_temperature = 0
; first_layer_extrusion_width = 200%
; first_layer_speed = 30
; first_layer_temperature = 200
; gcode_arcs = 0
; gcode_comments = 0
; gcode_flavor = reprap
; infill_acceleration = 0
; infill_first = 0
; layer_gcode = 
; max_fan_speed = 100
; max_print_speed = 80
; max_volumetric_speed = 0
; min_fan_speed = 35
; min_print_speed = 10
; min_skirt_length = 0
; notes = 
; nozzle_diameter = 0.5
; only_retract_when_crossing_perimeters = 1
; ooze_prevention = 0
; output_filename_format = [input_filename_base].gcode
; perimeter_acceleration = 0
; post_process = 
; pressure_advance = 0
; resolution = 0
; retract_before_travel = 2
; retract_layer_change = 0
; retract_length = 2
; retract_length_toolchange = 10
; retract_lift = 0
; retract_restart_extra = 0
; retract_restart_extra_toolchange = 0
; retract_speed = 40
; skirt_distance = 6
; skirt_height = 1
; skirts = 0
; slowdown_below_layer_time = 5
; spiral_vase = 0
; standby_temperature_delta = -5
; start_gcode = G28 ; home all axes\nG1 Z5 F5000 ; lift nozzle\n
; temperature = 200
; threads = 2
; toolchange_gcode = 
; travel_speed = 130
; use_firmware_retraction = 0
; use_relative_e_distances = 0
; use_volumetric_e = 0
; vibration_limit = 0
; wipe = 0
; z_offset = 0
; dont_support_bridges = 1
; extrusion_width = 0
; first_layer_height = 0.4
; infill_only_where_needed = 0
; interface_shells = 0
; layer_height = 0.4
; raft_layers = 0
; seam_position = aligned
; support_material = 0
; support_material_angle = 0
; support_material_contact_distance = 0.2
; support_material_enforce_layers = 0
; support_material_extruder = 1
; support_material_extrusion_width = 0
; support_material_interface_extruder = 1
; support_material_interface_layers = 3
; support_material_interface_spacing = 0
; support_material_interface_speed = 100%
; support_material_pattern = pillars
; support_material_spacing = 2.5
; support_material_speed = 60
; support_material_threshold = 0
; xy_size_compensation = 0
; bottom_solid_layers = 0
; bridge_flow_ratio = 1
; bridge_speed = 60
; external_fill_pattern = rectilinear
; external_perimeter_extrusion_width = 0
; external_perimeter_speed = 50%
; external_perimeters_first = 0
; extra_perimeters = 1
; fill_angle = 45
; fill_density = 70%
; fill_pattern = rectilinear
; gap_fill_speed = 20
; infill_every_layers = 1
; infill_extruder = 1
; infill_extrusion_width = 0
; infill_overlap = 15%
; infill_speed = 80
; overhangs = 1
; perimeter_extruder = 1
; perimeter_extrusion_width = 0
; perimeter_speed = 60
; perimeters = 0
; small_perimeter_speed = 15
; solid_infill_below_area = 70
; solid_infill_every_layers = 0
; solid_infill_extruder = 1
; solid_infill_extrusion_width = 0
; solid_infill_speed = 20
; thin_walls = 1
; top_infill_extrusion_width = 0
; top_solid_infill_speed = 15
; top_solid_layers = 0
