; generated by Slic3r 1.2.9 on 2019-10-02 at 17:49:50

; external perimeters extrusion width = 0.50mm
; perimeters extrusion width = 0.72mm
; infill extrusion width = 0.72mm
; solid infill extrusion width = 0.72mm
; top infill extrusion width = 0.72mm

M107
M104 S200 ; set temperature
G28 ; home all axes
G1 Z5 F5000 ; lift nozzle

M109 S200 ; wait for temperature to be reached
G21 ; set units to millimeters
G90 ; use absolute coordinates
M82 ; use absolute distances for extrusion
G92 E0
G1 Z0.300 F7800.000
G1 E-2.00000 F2400.00000
G92 E0
G1 X92.486 Y107.832 F7800.000
G1 E2.00000 F2400.00000
G1 X92.168 Y107.514 E2.09191 F1800.000
G1 X92.168 Y106.584 E2.28219
G1 X93.416 Y107.832 E2.64319
G1 X94.346 Y107.832 E2.83347
G1 X92.168 Y105.654 E3.46356
G1 X92.168 Y104.724 E3.65384
G1 X95.276 Y107.832 E4.55303
G1 X96.206 Y107.832 E4.74330
G1 X92.168 Y103.794 E5.91158
G1 X92.168 Y102.864 E6.10186
G1 X97.136 Y107.832 E7.53923
G1 X98.066 Y107.832 E7.72951
G1 X92.168 Y101.934 E9.43597
G1 X92.168 Y101.004 E9.62625
G1 X98.996 Y107.832 E11.60181
G1 X99.926 Y107.832 E11.79208
G1 X92.168 Y100.074 E14.03673
G1 X92.168 Y99.144 E14.22701
G1 X100.856 Y107.832 E16.74075
G1 X101.786 Y107.832 E16.93103
G1 X92.168 Y98.214 E19.71386
G1 X92.168 Y97.284 E19.90414
G1 X102.716 Y107.832 E22.95606
G1 X103.646 Y107.832 E23.14634
G1 X92.168 Y96.354 E26.46736
G1 X92.168 Y95.424 E26.65763
G1 X104.576 Y107.832 E30.24774
G1 X105.507 Y107.832 E30.43802
G1 X92.168 Y94.493 E34.29722
G1 X92.168 Y93.563 E34.48750
G1 X106.437 Y107.832 E38.61580
G1 X107.367 Y107.832 E38.80607
G1 X92.168 Y92.633 E43.20346
G1 X92.633 Y92.168 E43.33801
G1 X107.832 Y107.367 E47.73540
G1 X107.832 Y106.437 E47.92568
G1 X93.563 Y92.168 E52.05398
G1 X94.493 Y92.168 E52.24426
G1 X107.832 Y105.507 E56.10346
G1 X107.832 Y104.577 E56.29374
G1 X95.423 Y92.168 E59.88386
G1 X96.354 Y92.168 E60.07413
G1 X107.832 Y103.646 E63.39516
G1 X107.832 Y102.716 E63.58544
G1 X97.284 Y92.168 E66.63737
G1 X98.214 Y92.168 E66.82764
G1 X107.832 Y101.786 E69.61048
G1 X107.832 Y100.856 E69.80076
G1 X99.144 Y92.168 E72.31451
G1 X100.074 Y92.168 E72.50478
G1 X107.832 Y99.926 E74.74944
G1 X107.832 Y98.996 E74.93972
G1 X101.004 Y92.168 E76.91528
G1 X101.934 Y92.168 E77.10556
G1 X107.832 Y98.066 E78.81203
G1 X107.832 Y97.136 E79.00230
G1 X102.864 Y92.168 E80.43968
G1 X103.794 Y92.168 E80.62996
G1 X107.832 Y96.206 E81.79825
G1 X107.832 Y95.276 E81.98852
G1 X104.724 Y92.168 E82.88772
G1 X105.654 Y92.168 E83.07799
G1 X107.832 Y94.346 E83.70809
G1 X107.832 Y93.416 E83.89837
G1 X106.584 Y92.168 E84.25938
G1 X107.514 Y92.168 E84.44966
G1 X107.832 Y92.486 E84.54157
G1 Z0.600 F7800.000
G1 X107.514 Y107.832 F7800.000
G1 X107.832 Y107.514 E84.65389 F4800.000
G1 X107.832 Y106.584 E84.88640
G1 X106.584 Y107.832 E85.32753
G1 X105.654 Y107.832 E85.56004
G1 X107.832 Y105.654 E86.32999
G1 X107.832 Y104.724 E86.56250
G1 X104.724 Y107.832 E87.66127
G1 X103.794 Y107.832 E87.89378
G1 X107.832 Y103.794 E89.32136
G1 X107.832 Y102.864 E89.55387
G1 X102.864 Y107.832 E91.31027
G1 X101.934 Y107.832 E91.54277
G1 X107.832 Y101.934 E93.62799
G1 X107.832 Y101.004 E93.86050
G1 X101.004 Y107.832 E96.27453
G1 X100.074 Y107.832 E96.50704
G1 X107.832 Y100.074 E99.24989
G1 X107.832 Y99.144 E99.48240
G1 X99.144 Y107.832 E102.55406
G1 X98.214 Y107.832 E102.78657
G1 X107.832 Y98.214 E106.18705
G1 X107.832 Y97.284 E106.41956
G1 X97.284 Y107.832 E110.14886
G1 X96.354 Y107.832 E110.38137
G1 X107.832 Y96.354 E114.43948
G1 X107.832 Y95.423 E114.67199
G1 X95.423 Y107.832 E119.05892
G1 X94.493 Y107.832 E119.29143
G1 X107.832 Y94.493 E124.00718
G1 X107.832 Y93.563 E124.23969
G1 X93.563 Y107.832 E129.28425
G1 X92.633 Y107.832 E129.51676
G1 X107.832 Y92.633 E134.89014
G1 X107.367 Y92.168 E135.05455
G1 X92.168 Y107.367 E140.42792
G1 X92.168 Y106.437 E140.66043
G1 X106.437 Y92.168 E145.70498
G1 X105.507 Y92.168 E145.93749
G1 X92.168 Y105.507 E150.65323
G1 X92.168 Y104.576 E150.88574
G1 X104.576 Y92.168 E155.27266
G1 X103.646 Y92.168 E155.50517
G1 X92.168 Y103.646 E159.56328
G1 X92.168 Y102.716 E159.79579
G1 X102.716 Y92.168 E163.52508
G1 X101.786 Y92.168 E163.75759
G1 X92.168 Y101.786 E167.15806
G1 X92.168 Y100.856 E167.39057
G1 X100.856 Y92.168 E170.46222
G1 X99.926 Y92.168 E170.69473
G1 X92.168 Y99.926 E173.43757
G1 X92.168 Y98.996 E173.67008
G1 X98.996 Y92.168 E176.08411
G1 X98.066 Y92.168 E176.31661
G1 X92.168 Y98.066 E178.40182
G1 X92.168 Y97.136 E178.63433
G1 X97.136 Y92.168 E180.39072
G1 X96.206 Y92.168 E180.62323
G1 X92.168 Y96.206 E182.05081
G1 X92.168 Y95.276 E182.28332
G1 X95.276 Y92.168 E183.38207
G1 X94.346 Y92.168 E183.61458
G1 X92.168 Y94.346 E184.38452
G1 X92.168 Y93.416 E184.61703
G1 X93.416 Y92.168 E185.05816
G1 X92.486 Y92.168 E185.29067
G1 X92.168 Y92.486 E185.40298
G1 Z0.900 F7800.000
G1 X92.486 Y107.832 F7800.000
G1 X92.168 Y107.514 E185.51529 F4800.000
G1 X92.168 Y106.584 E185.74779
G1 X93.416 Y107.832 E186.18892
G1 X94.346 Y107.832 E186.42143
G1 X92.168 Y105.654 E187.19137
G1 X92.168 Y104.724 E187.42388
G1 X95.276 Y107.832 E188.52264
G1 X96.206 Y107.832 E188.75515
G1 X92.168 Y103.794 E190.18272
G1 X92.168 Y102.864 E190.41523
G1 X97.136 Y107.832 E192.17162
G1 X98.066 Y107.832 E192.40413
G1 X92.168 Y101.934 E194.48934
G1 X92.168 Y101.004 E194.72185
G1 X98.996 Y107.832 E197.13587
G1 X99.926 Y107.832 E197.36838
G1 X92.168 Y100.074 E200.11122
G1 X92.168 Y99.144 E200.34373
G1 X100.856 Y107.832 E203.41539
G1 X101.786 Y107.832 E203.64789
G1 X92.168 Y98.214 E207.04837
G1 X92.168 Y97.284 E207.28088
G1 X102.716 Y107.832 E211.01017
G1 X103.646 Y107.832 E211.24268
G1 X92.168 Y96.354 E215.30078
G1 X92.168 Y95.424 E215.53329
G1 X104.576 Y107.832 E219.92021
G1 X105.507 Y107.832 E220.15272
G1 X92.168 Y94.493 E224.86846
G1 X92.168 Y93.563 E225.10097
G1 X106.437 Y107.832 E230.14553
G1 X107.367 Y107.832 E230.37804
G1 X92.168 Y92.633 E235.75141
G1 X92.633 Y92.168 E235.91582
G1 X107.832 Y107.367 E241.28920
G1 X107.832 Y106.437 E241.52171
G1 X93.563 Y92.168 E246.56627
G1 X94.493 Y92.168 E246.79878
G1 X107.832 Y105.507 E251.51453
G1 X107.832 Y104.577 E251.74703
G1 X95.423 Y92.168 E256.13397
G1 X96.354 Y92.168 E256.36647
G1 X107.832 Y103.646 E260.42459
G1 X107.832 Y102.716 E260.65710
G1 X97.284 Y92.168 E264.38639
G1 X98.214 Y92.168 E264.61890
G1 X107.832 Y101.786 E268.01938
G1 X107.832 Y100.856 E268.25189
G1 X99.144 Y92.168 E271.32356
G1 X100.074 Y92.168 E271.55607
G1 X107.832 Y99.926 E274.29891
G1 X107.832 Y98.996 E274.53142
G1 X101.004 Y92.168 E276.94546
G1 X101.934 Y92.168 E277.17796
G1 X107.832 Y98.066 E279.26318
G1 X107.832 Y97.136 E279.49569
G1 X102.864 Y92.168 E281.25209
G1 X103.794 Y92.168 E281.48460
G1 X107.832 Y96.206 E282.91218
G1 X107.832 Y95.276 E283.14469
G1 X104.724 Y92.168 E284.24346
G1 X105.654 Y92.168 E284.47596
G1 X107.832 Y94.346 E285.24591
G1 X107.832 Y93.416 E285.47842
G1 X106.584 Y92.168 E285.91956
G1 X107.514 Y92.168 E286.15206
G1 X107.832 Y92.486 E286.26438
M106 S252.45
G1 Z1.200 F7800.000
G1 X107.514 Y107.832 F7800.000
G1 X107.832 Y107.514 E286.37670 F4800.000
G1 X107.832 Y106.584 E286.60921
G1 X106.584 Y107.832 E287.05034
G1 X105.654 Y107.832 E287.28285
G1 X107.832 Y105.654 E288.05280
G1 X107.832 Y104.724 E288.28531
G1 X104.724 Y107.832 E289.38407
G1 X103.794 Y107.832 E289.61658
G1 X107.832 Y103.794 E291.04417
G1 X107.832 Y102.864 E291.27667
G1 X102.864 Y107.832 E293.03307
G1 X101.934 Y107.832 E293.26558
G1 X107.832 Y101.934 E295.35080
G1 X107.832 Y101.004 E295.58331
G1 X101.004 Y107.832 E297.99734
G1 X100.074 Y107.832 E298.22985
G1 X107.832 Y100.074 E300.97270
G1 X107.832 Y99.144 E301.20520
G1 X99.144 Y107.832 E304.27687
G1 X98.214 Y107.832 E304.50938
G1 X107.832 Y98.214 E307.90986
G1 X107.832 Y97.284 E308.14237
G1 X97.284 Y107.832 E311.87167
G1 X96.354 Y107.832 E312.10417
G1 X107.832 Y96.354 E316.16229
G1 X107.832 Y95.423 E316.39480
G1 X95.423 Y107.832 E320.78173
G1 X94.493 Y107.832 E321.01424
G1 X107.832 Y94.493 E325.72998
G1 X107.832 Y93.563 E325.96249
G1 X93.563 Y107.832 E331.00706
G1 X92.633 Y107.832 E331.23956
G1 X107.832 Y92.633 E336.61295
G1 X107.367 Y92.168 E336.77735
G1 X92.168 Y107.367 E342.15073
G1 X92.168 Y106.437 E342.38323
G1 X106.437 Y92.168 E347.42779
G1 X105.507 Y92.168 E347.66030
G1 X92.168 Y105.507 E352.37604
G1 X92.168 Y104.576 E352.60855
G1 X104.576 Y92.168 E356.99547
G1 X103.646 Y92.168 E357.22798
G1 X92.168 Y103.646 E361.28609
G1 X92.168 Y102.716 E361.51859
G1 X102.716 Y92.168 E365.24788
G1 X101.786 Y92.168 E365.48039
G1 X92.168 Y101.786 E368.88087
G1 X92.168 Y100.856 E369.11337
G1 X100.856 Y92.168 E372.18503
G1 X99.926 Y92.168 E372.41754
G1 X92.168 Y99.926 E375.16038
G1 X92.168 Y98.996 E375.39289
G1 X98.996 Y92.168 E377.80691
G1 X98.066 Y92.168 E378.03942
G1 X92.168 Y98.066 E380.12463
G1 X92.168 Y97.136 E380.35714
G1 X97.136 Y92.168 E382.11353
G1 X96.206 Y92.168 E382.34604
G1 X92.168 Y96.206 E383.77361
G1 X92.168 Y95.276 E384.00612
G1 X95.276 Y92.168 E385.10488
G1 X94.346 Y92.168 E385.33739
G1 X92.168 Y94.346 E386.10733
G1 X92.168 Y93.416 E386.33984
G1 X93.416 Y92.168 E386.78097
G1 X92.486 Y92.168 E387.01347
G1 X92.168 Y92.486 E387.12578
G1 Z1.500 F7800.000
G1 X92.486 Y107.832 F7800.000
G1 X92.168 Y107.514 E387.23809 F4800.000
G1 X92.168 Y106.584 E387.47060
G1 X93.416 Y107.832 E387.91173
G1 X94.346 Y107.832 E388.14424
G1 X92.168 Y105.654 E388.91418
G1 X92.168 Y104.724 E389.14669
G1 X95.276 Y107.832 E390.24545
G1 X96.206 Y107.832 E390.47795
G1 X92.168 Y103.794 E391.90553
G1 X92.168 Y102.864 E392.13804
G1 X97.136 Y107.832 E393.89443
G1 X98.066 Y107.832 E394.12694
G1 X92.168 Y101.934 E396.21215
G1 X92.168 Y101.004 E396.44465
G1 X98.996 Y107.832 E398.85868
G1 X99.926 Y107.832 E399.09119
G1 X92.168 Y100.074 E401.83403
G1 X92.168 Y99.144 E402.06654
G1 X100.856 Y107.832 E405.13819
G1 X101.786 Y107.832 E405.37070
G1 X92.168 Y98.214 E408.77118
G1 X92.168 Y97.284 E409.00368
G1 X102.716 Y107.832 E412.73297
G1 X103.646 Y107.832 E412.96548
G1 X92.168 Y96.354 E417.02359
G1 X92.168 Y95.424 E417.25610
G1 X104.576 Y107.832 E421.64302
G1 X105.507 Y107.832 E421.87553
G1 X92.168 Y94.493 E426.59127
G1 X92.168 Y93.563 E426.82378
G1 X106.437 Y107.832 E431.86834
G1 X107.367 Y107.832 E432.10084
G1 X92.168 Y92.633 E437.47422
G1 X92.633 Y92.168 E437.63862
G1 X107.832 Y107.367 E443.01201
G1 X107.832 Y106.437 E443.24451
G1 X93.563 Y92.168 E448.28908
G1 X94.493 Y92.168 E448.52159
G1 X107.832 Y105.507 E453.23733
G1 X107.832 Y104.577 E453.46984
G1 X95.423 Y92.168 E457.85677
G1 X96.354 Y92.168 E458.08928
G1 X107.832 Y103.646 E462.14740
G1 X107.832 Y102.716 E462.37990
G1 X97.284 Y92.168 E466.10920
G1 X98.214 Y92.168 E466.34171
G1 X107.832 Y101.786 E469.74219
G1 X107.832 Y100.856 E469.97470
G1 X99.144 Y92.168 E473.04636
G1 X100.074 Y92.168 E473.27887
G1 X107.832 Y99.926 E476.02172
G1 X107.832 Y98.996 E476.25423
G1 X101.004 Y92.168 E478.66826
G1 X101.934 Y92.168 E478.90077
G1 X107.832 Y98.066 E480.98599
G1 X107.832 Y97.136 E481.21850
G1 X102.864 Y92.168 E482.97490
G1 X103.794 Y92.168 E483.20740
G1 X107.832 Y96.206 E484.63499
G1 X107.832 Y95.276 E484.86750
G1 X104.724 Y92.168 E485.96626
G1 X105.654 Y92.168 E486.19877
G1 X107.832 Y94.346 E486.96872
G1 X107.832 Y93.416 E487.20123
G1 X106.584 Y92.168 E487.64236
G1 X107.514 Y92.168 E487.87487
G1 X107.832 Y92.486 E487.98719
G1 Z1.800 F7800.000
G1 X107.514 Y107.832 F7800.000
G1 X107.832 Y107.514 E488.09951 F4800.000
G1 X107.832 Y106.584 E488.33201
G1 X106.584 Y107.832 E488.77315
G1 X105.654 Y107.832 E489.00566
G1 X107.832 Y105.654 E489.77561
G1 X107.832 Y104.724 E490.00812
G1 X104.724 Y107.832 E491.10688
G1 X103.794 Y107.832 E491.33939
G1 X107.832 Y103.794 E492.76697
G1 X107.832 Y102.864 E492.99948
G1 X102.864 Y107.832 E494.75588
G1 X101.934 Y107.832 E494.98839
G1 X107.832 Y101.934 E497.07361
G1 X107.832 Y101.004 E497.30611
G1 X101.004 Y107.832 E499.72015
G1 X100.074 Y107.832 E499.95266
G1 X107.832 Y100.074 E502.69550
G1 X107.832 Y99.144 E502.92801
G1 X99.144 Y107.832 E505.99968
G1 X98.214 Y107.832 E506.23219
G1 X107.832 Y98.214 E509.63267
G1 X107.832 Y97.284 E509.86518
G1 X97.284 Y107.832 E513.59447
G1 X96.354 Y107.832 E513.82698
G1 X107.832 Y96.354 E517.88510
G1 X107.832 Y95.423 E518.11760
G1 X95.423 Y107.832 E522.50454
G1 X94.493 Y107.832 E522.73704
G1 X107.832 Y94.493 E527.45279
G1 X107.832 Y93.563 E527.68530
G1 X93.563 Y107.832 E532.72986
G1 X92.633 Y107.832 E532.96237
G1 X107.832 Y92.633 E538.33575
G1 X107.367 Y92.168 E538.50016
G1 X92.168 Y107.367 E543.87353
G1 X92.168 Y106.437 E544.10604
G1 X106.437 Y92.168 E549.15060
G1 X105.507 Y92.168 E549.38311
G1 X92.168 Y105.507 E554.09885
G1 X92.168 Y104.576 E554.33135
G1 X104.576 Y92.168 E558.71828
G1 X103.646 Y92.168 E558.95079
G1 X92.168 Y103.646 E563.00889
G1 X92.168 Y102.716 E563.24140
G1 X102.716 Y92.168 E566.97069
G1 X101.786 Y92.168 E567.20320
G1 X92.168 Y101.786 E570.60367
G1 X92.168 Y100.856 E570.83618
G1 X100.856 Y92.168 E573.90784
G1 X99.926 Y92.168 E574.14035
G1 X92.168 Y99.926 E576.88319
G1 X92.168 Y98.996 E577.11570
G1 X98.996 Y92.168 E579.52972
G1 X98.066 Y92.168 E579.76223
G1 X92.168 Y98.066 E581.84744
G1 X92.168 Y97.136 E582.07995
G1 X97.136 Y92.168 E583.83634
G1 X96.206 Y92.168 E584.06885
G1 X92.168 Y96.206 E585.49642
G1 X92.168 Y95.276 E585.72893
G1 X95.276 Y92.168 E586.82769
G1 X94.346 Y92.168 E587.06020
G1 X92.168 Y94.346 E587.83014
G1 X92.168 Y93.416 E588.06265
G1 X93.416 Y92.168 E588.50377
G1 X92.486 Y92.168 E588.73628
G1 X92.168 Y92.486 E588.84859
G1 Z2.100 F7800.000
G1 X92.486 Y107.832 F7800.000
G1 X92.168 Y107.514 E588.96090 F4800.000
G1 X92.168 Y106.584 E589.19341
G1 X93.416 Y107.832 E589.63453
G1 X94.346 Y107.832 E589.86704
G1 X92.168 Y105.654 E590.63699
G1 X92.168 Y104.724 E590.86949
G1 X95.276 Y107.832 E591.96825
G1 X96.206 Y107.832 E592.20076
G1 X92.168 Y103.794 E593.62834
G1 X92.168 Y102.864 E593.86084
G1 X97.136 Y107.832 E595.61724
G1 X98.066 Y107.832 E595.84974
G1 X92.168 Y101.934 E597.93495
G1 X92.168 Y101.004 E598.16746
G1 X98.996 Y107.832 E600.58149
G1 X99.926 Y107.832 E600.81399
G1 X92.168 Y100.074 E603.55683
G1 X92.168 Y99.144 E603.78934
G1 X100.856 Y107.832 E606.86100
G1 X101.786 Y107.832 E607.09351
G1 X92.168 Y98.214 E610.49398
G1 X92.168 Y97.284 E610.72649
G1 X102.716 Y107.832 E614.45578
G1 X103.646 Y107.832 E614.68829
G1 X92.168 Y96.354 E618.74640
G1 X92.168 Y95.424 E618.97891
G1 X104.576 Y107.832 E623.36583
G1 X105.507 Y107.832 E623.59834
G1 X92.168 Y94.493 E628.31408
G1 X92.168 Y93.563 E628.54659
G1 X106.437 Y107.832 E633.59114
G1 X107.367 Y107.832 E633.82365
G1 X92.168 Y92.633 E639.19702
G1 X92.633 Y92.168 E639.36143
G1 X107.832 Y107.367 E644.73481
G1 X107.832 Y106.437 E644.96732
G1 X93.563 Y92.168 E650.01189
G1 X94.493 Y92.168 E650.24439
G1 X107.832 Y105.507 E654.96014
G1 X107.832 Y104.577 E655.19265
G1 X95.423 Y92.168 E659.57958
G1 X96.354 Y92.168 E659.81209
G1 X107.832 Y103.646 E663.87020
G1 X107.832 Y102.716 E664.10271
G1 X97.284 Y92.168 E667.83201
G1 X98.214 Y92.168 E668.06452
G1 X107.832 Y101.786 E671.46500
G1 X107.832 Y100.856 E671.69751
G1 X99.144 Y92.168 E674.76917
G1 X100.074 Y92.168 E675.00168
G1 X107.832 Y99.926 E677.74453
G1 X107.832 Y98.996 E677.97704
G1 X101.004 Y92.168 E680.39107
G1 X101.934 Y92.168 E680.62358
G1 X107.832 Y98.066 E682.70880
G1 X107.832 Y97.136 E682.94130
G1 X102.864 Y92.168 E684.69770
G1 X103.794 Y92.168 E684.93021
G1 X107.832 Y96.206 E686.35779
G1 X107.832 Y95.276 E686.59030
G1 X104.724 Y92.168 E687.68907
G1 X105.654 Y92.168 E687.92158
G1 X107.832 Y94.346 E688.69153
G1 X107.832 Y93.416 E688.92404
G1 X106.584 Y92.168 E689.36517
G1 X107.514 Y92.168 E689.59768
G1 X107.832 Y92.486 E689.71000
G1 Z2.400 F7800.000
G1 X107.514 Y107.832 F7800.000
G1 X107.832 Y107.514 E689.82231 F4800.000
G1 X107.832 Y106.584 E690.05482
G1 X106.584 Y107.832 E690.49596
G1 X105.654 Y107.832 E690.72846
G1 X107.832 Y105.654 E691.49841
G1 X107.832 Y104.724 E691.73092
G1 X104.724 Y107.832 E692.82969
G1 X103.794 Y107.832 E693.06220
G1 X107.832 Y103.794 E694.48978
G1 X107.832 Y102.864 E694.72229
G1 X102.864 Y107.832 E696.47869
G1 X101.934 Y107.832 E696.71120
G1 X107.832 Y101.934 E698.79641
G1 X107.832 Y101.004 E699.02892
G1 X101.004 Y107.832 E701.44295
G1 X100.074 Y107.832 E701.67546
G1 X107.832 Y100.074 E704.41831
G1 X107.832 Y99.144 E704.65082
G1 X99.144 Y107.832 E707.72248
G1 X98.214 Y107.832 E707.95499
G1 X107.832 Y98.214 E711.35547
G1 X107.832 Y97.284 E711.58798
G1 X97.284 Y107.832 E715.31728
G1 X96.354 Y107.832 E715.54979
G1 X107.832 Y96.354 E719.60790
G1 X107.832 Y95.423 E719.84041
G1 X95.423 Y107.832 E724.22734
G1 X94.493 Y107.832 E724.45985
G1 X107.832 Y94.493 E729.17560
G1 X107.832 Y93.563 E729.40811
G1 X93.563 Y107.832 E734.45267
G1 X92.633 Y107.832 E734.68518
G1 X107.832 Y92.633 E740.05856
G1 X107.367 Y92.168 E740.22297
G1 X92.168 Y107.367 E745.59634
G1 X92.168 Y106.437 E745.82885
G1 X106.437 Y92.168 E750.87341
G1 X105.507 Y92.168 E751.10591
G1 X92.168 Y105.507 E755.82165
G1 X92.168 Y104.576 E756.05416
G1 X104.576 Y92.168 E760.44109
G1 X103.646 Y92.168 E760.67359
G1 X92.168 Y103.646 E764.73170
G1 X92.168 Y102.716 E764.96421
G1 X102.716 Y92.168 E768.69350
G1 X101.786 Y92.168 E768.92601
G1 X92.168 Y101.786 E772.32648
G1 X92.168 Y100.856 E772.55899
G1 X100.856 Y92.168 E775.63065
G1 X99.926 Y92.168 E775.86316
G1 X92.168 Y99.926 E778.60600
G1 X92.168 Y98.996 E778.83850
G1 X98.996 Y92.168 E781.25253
G1 X98.066 Y92.168 E781.48504
G1 X92.168 Y98.066 E783.57025
G1 X92.168 Y97.136 E783.80275
G1 X97.136 Y92.168 E785.55915
G1 X96.206 Y92.168 E785.79165
G1 X92.168 Y96.206 E787.21923
G1 X92.168 Y95.276 E787.45174
G1 X95.276 Y92.168 E788.55050
G1 X94.346 Y92.168 E788.78300
G1 X92.168 Y94.346 E789.55295
G1 X92.168 Y93.416 E789.78546
G1 X93.416 Y92.168 E790.22658
G1 X92.486 Y92.168 E790.45909
G1 X92.168 Y92.486 E790.57140
G1 Z2.700 F7800.000
G1 X92.486 Y107.832 F7800.000
G1 X92.168 Y107.514 E790.68371 F4800.000
G1 X92.168 Y106.584 E790.91622
G1 X93.416 Y107.832 E791.35734
G1 X94.346 Y107.832 E791.58985
G1 X92.168 Y105.654 E792.35979
G1 X92.168 Y104.724 E792.59230
G1 X95.276 Y107.832 E793.69106
G1 X96.206 Y107.832 E793.92357
G1 X92.168 Y103.794 E795.35114
G1 X92.168 Y102.864 E795.58365
G1 X97.136 Y107.832 E797.34004
G1 X98.066 Y107.832 E797.57255
G1 X92.168 Y101.934 E799.65776
G1 X92.168 Y101.004 E799.89027
G1 X98.996 Y107.832 E802.30429
G1 X99.926 Y107.832 E802.53680
G1 X92.168 Y100.074 E805.27964
G1 X92.168 Y99.144 E805.51215
G1 X100.856 Y107.832 E808.58381
G1 X101.786 Y107.832 E808.81632
G1 X92.168 Y98.214 E812.21679
G1 X92.168 Y97.284 E812.44930
G1 X102.716 Y107.832 E816.17859
G1 X103.646 Y107.832 E816.41110
G1 X92.168 Y96.354 E820.46920
G1 X92.168 Y95.424 E820.70171
G1 X104.576 Y107.832 E825.08864
G1 X105.507 Y107.832 E825.32114
G1 X92.168 Y94.493 E830.03688
G1 X92.168 Y93.563 E830.26939
G1 X106.437 Y107.832 E835.31395
G1 X107.367 Y107.832 E835.54646
G1 X92.168 Y92.633 E840.91983
G1 X92.633 Y92.168 E841.08424
G1 X107.832 Y107.367 E846.45762
G1 X107.832 Y106.437 E846.69013
G1 X93.563 Y92.168 E851.73469
G1 X94.493 Y92.168 E851.96720
G1 X107.832 Y105.507 E856.68295
G1 X107.832 Y104.577 E856.91546
G1 X95.423 Y92.168 E861.30239
G1 X96.354 Y92.168 E861.53490
G1 X107.832 Y103.646 E865.59301
G1 X107.832 Y102.716 E865.82552
G1 X97.284 Y92.168 E869.55482
G1 X98.214 Y92.168 E869.78733
G1 X107.832 Y101.786 E873.18781
G1 X107.832 Y100.856 E873.42031
G1 X99.144 Y92.168 E876.49198
G1 X100.074 Y92.168 E876.72449
G1 X107.832 Y99.926 E879.46734
G1 X107.832 Y98.996 E879.69985
G1 X101.004 Y92.168 E882.11388
G1 X101.934 Y92.168 E882.34639
G1 X107.832 Y98.066 E884.43160
G1 X107.832 Y97.136 E884.66411
G1 X102.864 Y92.168 E886.42051
G1 X103.794 Y92.168 E886.65302
G1 X107.832 Y96.206 E888.08060
G1 X107.832 Y95.276 E888.31311
G1 X104.724 Y92.168 E889.41188
G1 X105.654 Y92.168 E889.64439
G1 X107.832 Y94.346 E890.41434
G1 X107.832 Y93.416 E890.64684
G1 X106.584 Y92.168 E891.08798
G1 X107.514 Y92.168 E891.32049
G1 X107.832 Y92.486 E891.43280
G1 Z3.000 F7800.000
G1 X107.514 Y107.832 F7800.000
G1 X107.832 Y107.514 E891.54512 F4800.000
G1 X107.832 Y106.584 E891.77763
G1 X106.584 Y107.832 E892.21876
G1 X105.654 Y107.832 E892.45127
G1 X107.832 Y105.654 E893.22122
G1 X107.832 Y104.724 E893.45373
G1 X104.724 Y107.832 E894.55250
G1 X103.794 Y107.832 E894.78501
G1 X107.832 Y103.794 E896.21259
G1 X107.832 Y102.864 E896.44510
G1 X102.864 Y107.832 E898.20150
G1 X101.934 Y107.832 E898.43400
G1 X107.832 Y101.934 E900.51922
G1 X107.832 Y101.004 E900.75173
G1 X101.004 Y107.832 E903.16576
G1 X100.074 Y107.832 E903.39827
G1 X107.832 Y100.074 E906.14112
G1 X107.832 Y99.144 E906.37363
G1 X99.144 Y107.832 E909.44529
G1 X98.214 Y107.832 E909.67780
G1 X107.832 Y98.214 E913.07828
G1 X107.832 Y97.284 E913.31079
G1 X97.284 Y107.832 E917.04009
G1 X96.354 Y107.832 E917.27260
G1 X107.832 Y96.354 E921.33071
G1 X107.832 Y95.423 E921.56322
G1 X95.423 Y107.832 E925.95015
G1 X94.493 Y107.832 E926.18266
G1 X107.832 Y94.493 E930.89841
G1 X107.832 Y93.563 E931.13091
G1 X93.563 Y107.832 E936.17548
G1 X92.633 Y107.832 E936.40799
G1 X107.832 Y92.633 E941.78137
G1 X107.367 Y92.168 E941.94578
G1 X92.168 Y107.367 E947.31915
G1 X92.168 Y106.437 E947.55166
G1 X106.437 Y92.168 E952.59621
G1 X105.507 Y92.168 E952.82872
G1 X92.168 Y105.507 E957.54446
G1 X92.168 Y104.576 E957.77697
G1 X104.576 Y92.168 E962.16389
G1 X103.646 Y92.168 E962.39640
G1 X92.168 Y103.646 E966.45451
G1 X92.168 Y102.716 E966.68702
G1 X102.716 Y92.168 E970.41631
G1 X101.786 Y92.168 E970.64881
G1 X92.168 Y101.786 E974.04929
G1 X92.168 Y100.856 E974.28180
G1 X100.856 Y92.168 E977.35345
G1 X99.926 Y92.168 E977.58596
G1 X92.168 Y99.926 E980.32880
G1 X92.168 Y98.996 E980.56131
G1 X98.996 Y92.168 E982.97534
G1 X98.066 Y92.168 E983.20784
G1 X92.168 Y98.066 E985.29305
G1 X92.168 Y97.136 E985.52556
G1 X97.136 Y92.168 E987.28195
G1 X96.206 Y92.168 E987.51446
G1 X92.168 Y96.206 E988.94204
G1 X92.168 Y95.276 E989.17454
G1 X95.276 Y92.168 E990.27330
G1 X94.346 Y92.168 E990.50581
G1 X92.168 Y94.346 E991.27575
G1 X92.168 Y93.416 E991.50826
G1 X93.416 Y92.168 E991.94939
G1 X92.486 Y92.168 E992.18190
G1 X92.168 Y92.486 E992.29421
G1 Z3.300 F7800.000
G1 X92.486 Y107.832 F7800.000
G1 X92.168 Y107.514 E992.40652 F4800.000
G1 X92.168 Y106.584 E992.63902
G1 X93.416 Y107.832 E993.08015
G1 X94.346 Y107.832 E993.31266
G1 X92.168 Y105.654 E994.08260
G1 X92.168 Y104.724 E994.31511
G1 X95.276 Y107.832 E995.41387
G1 X96.206 Y107.832 E995.64638
G1 X92.168 Y103.794 E997.07395
G1 X92.168 Y102.864 E997.30646
G1 X97.136 Y107.832 E999.06285
G1 X98.066 Y107.832 E999.29536
G1 X92.168 Y101.934 E1001.38057
G1 X92.168 Y101.004 E1001.61308
G1 X98.996 Y107.832 E1004.02710
G1 X99.926 Y107.832 E1004.25961
G1 X92.168 Y100.074 E1007.00245
G1 X92.168 Y99.144 E1007.23496
G1 X100.856 Y107.832 E1010.30662
G1 X101.786 Y107.832 E1010.53912
G1 X92.168 Y98.214 E1013.93960
G1 X92.168 Y97.284 E1014.17211
G1 X102.716 Y107.832 E1017.90140
G1 X103.646 Y107.832 E1018.13391
G1 X92.168 Y96.354 E1022.19201
G1 X92.168 Y95.424 E1022.42452
G1 X104.576 Y107.832 E1026.81144
G1 X105.507 Y107.832 E1027.04395
G1 X92.168 Y94.493 E1031.75969
G1 X92.168 Y93.563 E1031.99220
G1 X106.437 Y107.832 E1037.03676
G1 X107.367 Y107.832 E1037.26927
G1 X92.168 Y92.633 E1042.64264
G1 X92.633 Y92.168 E1042.80705
G1 X107.832 Y107.367 E1048.18043
G1 X107.832 Y106.437 E1048.41294
G1 X93.563 Y92.168 E1053.45750
G1 X94.493 Y92.168 E1053.69001
G1 X107.832 Y105.507 E1058.40576
G1 X107.832 Y104.577 E1058.63826
G1 X95.423 Y92.168 E1063.02519
G1 X96.354 Y92.168 E1063.25770
G1 X107.832 Y103.646 E1067.31582
G1 X107.832 Y102.716 E1067.54833
G1 X97.284 Y92.168 E1071.27762
G1 X98.214 Y92.168 E1071.51013
G1 X107.832 Y101.786 E1074.91061
G1 X107.832 Y100.856 E1075.14312
G1 X99.144 Y92.168 E1078.21479
G1 X100.074 Y92.168 E1078.44729
G1 X107.832 Y99.926 E1081.19014
G1 X107.832 Y98.996 E1081.42265
G1 X101.004 Y92.168 E1083.83669
G1 X101.934 Y92.168 E1084.06919
G1 X107.832 Y98.066 E1086.15441
G1 X107.832 Y97.136 E1086.38692
G1 X102.864 Y92.168 E1088.14332
G1 X103.794 Y92.168 E1088.37583
G1 X107.832 Y96.206 E1089.80341
G1 X107.832 Y95.276 E1090.03592
G1 X104.724 Y92.168 E1091.13468
G1 X105.654 Y92.168 E1091.36719
G1 X107.832 Y94.346 E1092.13714
G1 X107.832 Y93.416 E1092.36965
G1 X106.584 Y92.168 E1092.81079
G1 X107.514 Y92.168 E1093.04329
G1 X107.832 Y92.486 E1093.15561
G1 Z3.600 F7800.000
G1 X107.514 Y107.832 F7800.000
G1 X107.832 Y107.514 E1093.26793 F4800.000
G1 X107.832 Y106.584 E1093.50044
G1 X106.584 Y107.832 E1093.94157
G1 X105.654 Y107.832 E1094.17408
G1 X107.832 Y105.654 E1094.94403
G1 X107.832 Y104.724 E1095.17654
G1 X104.724 Y107.832 E1096.27530
G1 X103.794 Y107.832 E1096.50781
G1 X107.832 Y103.794 E1097.93540
G1 X107.832 Y102.864 E1098.16790
G1 X102.864 Y107.832 E1099.92430
G1 X101.934 Y107.832 E1100.15681
G1 X107.832 Y101.934 E1102.24203
G1 X107.832 Y101.004 E1102.47454
G1 X101.004 Y107.832 E1104.88857
G1 X100.074 Y107.832 E1105.12108
G1 X107.832 Y100.074 E1107.86393
G1 X107.832 Y99.144 E1108.09643
G1 X99.144 Y107.832 E1111.16810
G1 X98.214 Y107.832 E1111.40061
G1 X107.832 Y98.214 E1114.80109
G1 X107.832 Y97.284 E1115.03360
G1 X97.284 Y107.832 E1118.76290
G1 X96.354 Y107.832 E1118.99540
G1 X107.832 Y96.354 E1123.05352
G1 X107.832 Y95.423 E1123.28603
G1 X95.423 Y107.832 E1127.67296
G1 X94.493 Y107.832 E1127.90547
G1 X107.832 Y94.493 E1132.62121
G1 X107.832 Y93.563 E1132.85372
G1 X93.563 Y107.832 E1137.89829
G1 X92.633 Y107.832 E1138.13079
G1 X107.832 Y92.633 E1143.50417
G1 X107.367 Y92.168 E1143.66858
G1 X92.168 Y107.367 E1149.04196
G1 X92.168 Y106.437 E1149.27446
G1 X106.437 Y92.168 E1154.31902
G1 X105.507 Y92.168 E1154.55153
G1 X92.168 Y105.507 E1159.26727
G1 X92.168 Y104.576 E1159.49978
G1 X104.576 Y92.168 E1163.88670
G1 X103.646 Y92.168 E1164.11921
G1 X92.168 Y103.646 E1168.17732
G1 X92.168 Y102.716 E1168.40982
G1 X102.716 Y92.168 E1172.13911
G1 X101.786 Y92.168 E1172.37162
G1 X92.168 Y101.786 E1175.77210
G1 X92.168 Y100.856 E1176.00460
G1 X100.856 Y92.168 E1179.07626
G1 X99.926 Y92.168 E1179.30877
G1 X92.168 Y99.926 E1182.05161
G1 X92.168 Y98.996 E1182.28412
G1 X98.996 Y92.168 E1184.69814
G1 X98.066 Y92.168 E1184.93065
G1 X92.168 Y98.066 E1187.01586
G1 X92.168 Y97.136 E1187.24837
G1 X97.136 Y92.168 E1189.00476
G1 X96.206 Y92.168 E1189.23727
G1 X92.168 Y96.206 E1190.66484
G1 X92.168 Y95.276 E1190.89735
G1 X95.276 Y92.168 E1191.99611
G1 X94.346 Y92.168 E1192.22862
G1 X92.168 Y94.346 E1192.99856
G1 X92.168 Y93.416 E1193.23107
G1 X93.416 Y92.168 E1193.67220
G1 X92.486 Y92.168 E1193.90470
G1 X92.168 Y92.486 E1194.01701
G1 Z3.900 F7800.000
G1 X92.486 Y107.832 F7800.000
G1 X92.168 Y107.514 E1194.12932 F4800.000
G1 X92.168 Y106.584 E1194.36183
G1 X93.416 Y107.832 E1194.80296
G1 X94.346 Y107.832 E1195.03547
G1 X92.168 Y105.654 E1195.80541
G1 X92.168 Y104.724 E1196.03792
G1 X95.276 Y107.832 E1197.13667
G1 X96.206 Y107.832 E1197.36918
G1 X92.168 Y103.794 E1198.79676
G1 X92.168 Y102.864 E1199.02927
G1 X97.136 Y107.832 E1200.78566
G1 X98.066 Y107.832 E1201.01817
G1 X92.168 Y101.934 E1203.10338
G1 X92.168 Y101.004 E1203.33588
G1 X98.996 Y107.832 E1205.74991
G1 X99.926 Y107.832 E1205.98242
G1 X92.168 Y100.074 E1208.72526
G1 X92.168 Y99.144 E1208.95777
G1 X100.856 Y107.832 E1212.02942
G1 X101.786 Y107.832 E1212.26193
G1 X92.168 Y98.214 E1215.66241
G1 X92.168 Y97.284 E1215.89491
G1 X102.716 Y107.832 E1219.62420
G1 X103.646 Y107.832 E1219.85671
G1 X92.168 Y96.354 E1223.91482
G1 X92.168 Y95.424 E1224.14733
G1 X104.576 Y107.832 E1228.53425
G1 X105.507 Y107.832 E1228.76676
G1 X92.168 Y94.493 E1233.48250
G1 X92.168 Y93.563 E1233.71501
G1 X106.437 Y107.832 E1238.75956
G1 X107.367 Y107.832 E1238.99207
G1 X92.168 Y92.633 E1244.36545
G1 X92.633 Y92.168 E1244.52985
G1 X107.832 Y107.367 E1249.90323
G1 X107.832 Y106.437 E1250.13574
G1 X93.563 Y92.168 E1255.18031
G1 X94.493 Y92.168 E1255.41282
G1 X107.832 Y105.507 E1260.12856
G1 X107.832 Y104.577 E1260.36107
G1 X95.423 Y92.168 E1264.74800
G1 X96.354 Y92.168 E1264.98051
G1 X107.832 Y103.646 E1269.03863
G1 X107.832 Y102.716 E1269.27113
G1 X97.284 Y92.168 E1273.00043
G1 X98.214 Y92.168 E1273.23294
G1 X107.832 Y101.786 E1276.63342
G1 X107.832 Y100.856 E1276.86593
G1 X99.144 Y92.168 E1279.93759
G1 X100.074 Y92.168 E1280.17010
G1 X107.832 Y99.926 E1282.91295
G1 X107.832 Y98.996 E1283.14546
G1 X101.004 Y92.168 E1285.55949
G1 X101.934 Y92.168 E1285.79200
G1 X107.832 Y98.066 E1287.87722
G1 X107.832 Y97.136 E1288.10973
G1 X102.864 Y92.168 E1289.86613
G1 X103.794 Y92.168 E1290.09863
G1 X107.832 Y96.206 E1291.52622
G1 X107.832 Y95.276 E1291.75873
G1 X104.724 Y92.168 E1292.85749
G1 X105.654 Y92.168 E1293.09000
G1 X107.832 Y94.346 E1293.85995
G1 X107.832 Y93.416 E1294.09246
G1 X106.584 Y92.168 E1294.53359
G1 X107.514 Y92.168 E1294.76610
G1 X107.832 Y92.486 E1294.87842
G1 Z4.200 F7800.000
G1 X107.514 Y107.832 F7800.000
G1 X107.832 Y107.514 E1294.99074 F4800.000
G1 X107.832 Y106.584 E1295.22324
G1 X106.584 Y107.832 E1295.66438
G1 X105.654 Y107.832 E1295.89689
G1 X107.832 Y105.654 E1296.66684
G1 X107.832 Y104.724 E1296.89934
G1 X104.724 Y107.832 E1297.99811
G1 X103.794 Y107.832 E1298.23062
G1 X107.832 Y103.794 E1299.65820
G1 X107.832 Y102.864 E1299.89071
G1 X102.864 Y107.832 E1301.64711
G1 X101.934 Y107.832 E1301.87962
G1 X107.832 Y101.934 E1303.96484
G1 X107.832 Y101.004 E1304.19734
G1 X101.004 Y107.832 E1306.61138
G1 X100.074 Y107.832 E1306.84389
G1 X107.832 Y100.074 E1309.58673
G1 X107.832 Y99.144 E1309.81924
G1 X99.144 Y107.832 E1312.89091
G1 X98.214 Y107.832 E1313.12342
G1 X107.832 Y98.214 E1316.52390
G1 X107.832 Y97.284 E1316.75641
G1 X97.284 Y107.832 E1320.48570
G1 X96.354 Y107.832 E1320.71821
G1 X107.832 Y96.354 E1324.77633
G1 X107.832 Y95.423 E1325.00883
G1 X95.423 Y107.832 E1329.39577
G1 X94.493 Y107.832 E1329.62827
G1 X107.832 Y94.493 E1334.34402
G1 X107.832 Y93.563 E1334.57653
G1 X93.563 Y107.832 E1339.62109
G1 X92.633 Y107.832 E1339.85360
G1 X107.832 Y92.633 E1345.22698
G1 X107.367 Y92.168 E1345.39139
G1 X92.168 Y107.367 E1350.76476
G1 X92.168 Y106.437 E1350.99727
G1 X106.437 Y92.168 E1356.04183
G1 X105.507 Y92.168 E1356.27434
G1 X92.168 Y105.507 E1360.99008
G1 X92.168 Y104.576 E1361.22258
G1 X104.576 Y92.168 E1365.60951
G1 X103.646 Y92.168 E1365.84202
G1 X92.168 Y103.646 E1369.90012
G1 X92.168 Y102.716 E1370.13263
G1 X102.716 Y92.168 E1373.86192
G1 X101.786 Y92.168 E1374.09443
G1 X92.168 Y101.786 E1377.49490
G1 X92.168 Y100.856 E1377.72741
G1 X100.856 Y92.168 E1380.79907
G1 X99.926 Y92.168 E1381.03158
G1 X92.168 Y99.926 E1383.77442
G1 X92.168 Y98.996 E1384.00693
G1 X98.996 Y92.168 E1386.42095
G1 X98.066 Y92.168 E1386.65346
G1 X92.168 Y98.066 E1388.73867
G1 X92.168 Y97.136 E1388.97118
G1 X97.136 Y92.168 E1390.72757
G1 X96.206 Y92.168 E1390.96008
G1 X92.168 Y96.206 E1392.38765
G1 X92.168 Y95.276 E1392.62016
G1 X95.276 Y92.168 E1393.71892
G1 X94.346 Y92.168 E1393.95143
G1 X92.168 Y94.346 E1394.72137
G1 X92.168 Y93.416 E1394.95388
G1 X93.416 Y92.168 E1395.39500
G1 X92.486 Y92.168 E1395.62751
G1 X92.168 Y92.486 E1395.73982
G1 Z4.500 F7800.000
G1 X92.486 Y107.832 F7800.000
G1 X92.168 Y107.514 E1395.85213 F4800.000
G1 X92.168 Y106.584 E1396.08464
G1 X93.416 Y107.832 E1396.52576
G1 X94.346 Y107.832 E1396.75827
G1 X92.168 Y105.654 E1397.52822
G1 X92.168 Y104.724 E1397.76072
G1 X95.276 Y107.832 E1398.85948
G1 X96.206 Y107.832 E1399.09199
G1 X92.168 Y103.794 E1400.51957
G1 X92.168 Y102.864 E1400.75207
G1 X97.136 Y107.832 E1402.50847
G1 X98.066 Y107.832 E1402.74097
G1 X92.168 Y101.934 E1404.82618
G1 X92.168 Y101.004 E1405.05869
G1 X98.996 Y107.832 E1407.47272
G1 X99.926 Y107.832 E1407.70522
G1 X92.168 Y100.074 E1410.44806
G1 X92.168 Y99.144 E1410.68057
G1 X100.856 Y107.832 E1413.75223
G1 X101.786 Y107.832 E1413.98474
G1 X92.168 Y98.214 E1417.38521
G1 X92.168 Y97.284 E1417.61772
G1 X102.716 Y107.832 E1421.34701
G1 X103.646 Y107.832 E1421.57952
G1 X92.168 Y96.354 E1425.63763
G1 X92.168 Y95.424 E1425.87014
G1 X104.576 Y107.832 E1430.25706
G1 X105.507 Y107.832 E1430.48957
G1 X92.168 Y94.493 E1435.20531
G1 X92.168 Y93.563 E1435.43782
G1 X106.437 Y107.832 E1440.48237
G1 X107.367 Y107.832 E1440.71488
G1 X92.168 Y92.633 E1446.08825
G1 X92.633 Y92.168 E1446.25266
G1 X107.832 Y107.367 E1451.62604
G1 X107.832 Y106.437 E1451.85855
G1 X93.563 Y92.168 E1456.90311
G1 X94.493 Y92.168 E1457.13562
G1 X107.832 Y105.507 E1461.85137
G1 X107.832 Y104.577 E1462.08388
G1 X95.423 Y92.168 E1466.47081
G1 X96.354 Y92.168 E1466.70332
G1 X107.832 Y103.646 E1470.76143
G1 X107.832 Y102.716 E1470.99394
G1 X97.284 Y92.168 E1474.72324
G1 X98.214 Y92.168 E1474.95575
G1 X107.832 Y101.786 E1478.35623
G1 X107.832 Y100.856 E1478.58874
G1 X99.144 Y92.168 E1481.66040
G1 X100.074 Y92.168 E1481.89291
G1 X107.832 Y99.926 E1484.63576
G1 X107.832 Y98.996 E1484.86827
G1 X101.004 Y92.168 E1487.28230
G1 X101.934 Y92.168 E1487.51481
G1 X107.832 Y98.066 E1489.60002
G1 X107.832 Y97.136 E1489.83253
G1 X102.864 Y92.168 E1491.58893
G1 X103.794 Y92.168 E1491.82144
G1 X107.832 Y96.206 E1493.24902
G1 X107.832 Y95.276 E1493.48153
G1 X104.724 Y92.168 E1494.58030
G1 X105.654 Y92.168 E1494.81281
G1 X107.832 Y94.346 E1495.58276
G1 X107.832 Y93.416 E1495.81527
G1 X106.584 Y92.168 E1496.25640
G1 X107.514 Y92.168 E1496.48891
G1 X107.832 Y92.486 E1496.60123
G1 Z4.800 F7800.000
G1 X107.514 Y107.832 F7800.000
G1 X107.832 Y107.514 E1496.71354 F4800.000
G1 X107.832 Y106.584 E1496.94605
G1 X106.584 Y107.832 E1497.38719
G1 X105.654 Y107.832 E1497.61969
G1 X107.832 Y105.654 E1498.38964
G1 X107.832 Y104.724 E1498.62215
G1 X104.724 Y107.832 E1499.72092
G1 X103.794 Y107.832 E1499.95343
G1 X107.832 Y103.794 E1501.38101
G1 X107.832 Y102.864 E1501.61352
G1 X102.864 Y107.832 E1503.36992
G1 X101.934 Y107.832 E1503.60243
G1 X107.832 Y101.934 E1505.68764
G1 X107.832 Y101.004 E1505.92015
G1 X101.004 Y107.832 E1508.33418
G1 X100.074 Y107.832 E1508.56669
G1 X107.832 Y100.074 E1511.30954
G1 X107.832 Y99.144 E1511.54205
G1 X99.144 Y107.832 E1514.61371
G1 X98.214 Y107.832 E1514.84622
G1 X107.832 Y98.214 E1518.24670
G1 X107.832 Y97.284 E1518.47921
G1 X97.284 Y107.832 E1522.20851
G1 X96.354 Y107.832 E1522.44102
G1 X107.832 Y96.354 E1526.49913
G1 X107.832 Y95.423 E1526.73164
G1 X95.423 Y107.832 E1531.11857
G1 X94.493 Y107.832 E1531.35108
G1 X107.832 Y94.493 E1536.06683
G1 X107.832 Y93.563 E1536.29934
G1 X93.563 Y107.832 E1541.34390
G1 X92.633 Y107.832 E1541.57641
G1 X107.832 Y92.633 E1546.94979
G1 X107.367 Y92.168 E1547.11420
G1 X92.168 Y107.367 E1552.48757
G1 X92.168 Y106.437 E1552.72008
G1 X106.437 Y92.168 E1557.76464
G1 X105.507 Y92.168 E1557.99714
G1 X92.168 Y105.507 E1562.71288
G1 X92.168 Y104.576 E1562.94539
G1 X104.576 Y92.168 E1567.33232
G1 X103.646 Y92.168 E1567.56482
G1 X92.168 Y103.646 E1571.62293
G1 X92.168 Y102.716 E1571.85544
G1 X102.716 Y92.168 E1575.58473
G1 X101.786 Y92.168 E1575.81724
G1 X92.168 Y101.786 E1579.21771
G1 X92.168 Y100.856 E1579.45022
G1 X100.856 Y92.168 E1582.52188
G1 X99.926 Y92.168 E1582.75439
G1 X92.168 Y99.926 E1585.49723
G1 X92.168 Y98.996 E1585.72973
G1 X98.996 Y92.168 E1588.14376
G1 X98.066 Y92.168 E1588.37627
G1 X92.168 Y98.066 E1590.46147
G1 X92.168 Y97.136 E1590.69398
G1 X97.136 Y92.168 E1592.45037
G1 X96.206 Y92.168 E1592.68288
G1 X92.168 Y96.206 E1594.11046
G1 X92.168 Y95.276 E1594.34297
G1 X95.276 Y92.168 E1595.44173
G1 X94.346 Y92.168 E1595.67423
G1 X92.168 Y94.346 E1596.44418
G1 X92.168 Y93.416 E1596.67668
G1 X93.416 Y92.168 E1597.11781
G1 X92.486 Y92.168 E1597.35032
G1 X92.168 Y92.486 E1597.46263
G1 Z5.100 F7800.000
G1 E1595.46263 F2400.00000
G92 E0
G1 X92.486 Y107.832 F7800.000
G1 E2.00000 F2400.00000
G1 X92.168 Y107.514 E2.11231 F4800.000
G1 X92.168 Y106.584 E2.34482
G1 X93.416 Y107.832 E2.78594
G1 X94.346 Y107.832 E3.01845
G1 X92.168 Y105.654 E3.78839
G1 X92.168 Y104.724 E4.02090
G1 X95.276 Y107.832 E5.11966
G1 X96.206 Y107.832 E5.35217
G1 X92.168 Y103.794 E6.77975
G1 X92.168 Y102.864 E7.01225
G1 X97.136 Y107.832 E8.76864
G1 X98.066 Y107.832 E9.00115
G1 X92.168 Y101.934 E11.08636
G1 X92.168 Y101.004 E11.31887
G1 X98.996 Y107.832 E13.73289
G1 X99.926 Y107.832 E13.96540
G1 X92.168 Y100.074 E16.70824
G1 X92.168 Y99.144 E16.94075
G1 X100.856 Y107.832 E20.01241
G1 X101.786 Y107.832 E20.24492
G1 X92.168 Y98.214 E23.64539
G1 X92.168 Y97.284 E23.87790
G1 X102.716 Y107.832 E27.60719
G1 X103.646 Y107.832 E27.83970
G1 X92.168 Y96.354 E31.89781
G1 X92.168 Y95.424 E32.13031
G1 X104.576 Y107.832 E36.51724
G1 X105.507 Y107.832 E36.74975
G1 X92.168 Y94.493 E41.46549
G1 X92.168 Y93.563 E41.69799
G1 X106.437 Y107.832 E46.74255
G1 X107.367 Y107.832 E46.97506
G1 X92.168 Y92.633 E52.34843
G1 X92.633 Y92.168 E52.51284
G1 X107.832 Y107.367 E57.88622
G1 X107.832 Y106.437 E58.11873
G1 X93.563 Y92.168 E63.16329
G1 X94.493 Y92.168 E63.39580
G1 X107.832 Y105.507 E68.11155
G1 X107.832 Y104.577 E68.34406
G1 X95.423 Y92.168 E72.73099
G1 X96.354 Y92.168 E72.96350
G1 X107.832 Y103.646 E77.02161
G1 X107.832 Y102.716 E77.25412
G1 X97.284 Y92.168 E80.98342
G1 X98.214 Y92.168 E81.21593
G1 X107.832 Y101.786 E84.61641
G1 X107.832 Y100.856 E84.84892
G1 X99.144 Y92.168 E87.92058
G1 X100.074 Y92.168 E88.15309
G1 X107.832 Y99.926 E90.89594
G1 X107.832 Y98.996 E91.12845
G1 X101.004 Y92.168 E93.54248
G1 X101.934 Y92.168 E93.77499
G1 X107.832 Y98.066 E95.86020
G1 X107.832 Y97.136 E96.09271
G1 X102.864 Y92.168 E97.84911
G1 X103.794 Y92.168 E98.08162
G1 X107.832 Y96.206 E99.50920
G1 X107.832 Y95.276 E99.74171
G1 X104.724 Y92.168 E100.84048
G1 X105.654 Y92.168 E101.07299
G1 X107.832 Y94.346 E101.84294
G1 X107.832 Y93.416 E102.07545
G1 X106.584 Y92.168 E102.51658
G1 X107.514 Y92.168 E102.74909
G1 X107.832 Y92.486 E102.86140
G1 E100.86140 F2400.00000
G92 E0
M107
M104 S0 ; turn off temperature
G28 X0  ; home X axis
M84     ; disable motors

; filament used = 1696.3mm (1.3cm3)

; avoid_crossing_perimeters = 0
; bed_shape = 0x0,200x0,200x200,0x200
; bed_temperature = 0
; before_layer_gcode = 
; bridge_acceleration = 0
; bridge_fan_speed = 100
; brim_width = 0
; complete_objects = 0
; cooling = 1
; default_acceleration = 0
; disable_fan_first_layers = 3
; duplicate_distance = 6
; end_gcode = M104 S0 ; turn off temperature\nG28 X0  ; home X axis\nM84     ; disable motors\n
; extruder_clearance_height = 20
; extruder_clearance_radius = 20
; extruder_offset = 0x0
; extrusion_axis = E
; extrusion_multiplier = 1
; fan_always_on = 0
; fan_below_layer_time = 60
; filament_colour = #FFFFFF
; filament_diameter = 1
; first_layer_acceleration = 0
; first_layer_bed_temperature = 0
; first_layer_extrusion_width = 200%
; first_layer_speed = 30
; first_layer_temperature = 200
; gcode_arcs = 0
; gcode_comments = 0
; gcode_flavor = reprap
; infill_acceleration = 0
; infill_first = 0
; layer_gcode = 
; max_fan_speed = 100
; max_print_speed = 80
; max_volumetric_speed = 0
; min_fan_speed = 35
; min_print_speed = 10
; min_skirt_length = 0
; notes = 
; nozzle_diameter = 0.5
; only_retract_when_crossing_perimeters = 1
; ooze_prevention = 0
; output_filename_format = [input_filename_base].gcode
; perimeter_acceleration = 0
; post_process = 
; pressure_advance = 0
; resolution = 0
; retract_before_travel = 2
; retract_layer_change = 0
; retract_length = 2
; retract_length_toolchange = 10
; retract_lift = 0
; retract_restart_extra = 0
; retract_restart_extra_toolchange = 0
; retract_speed = 40
; skirt_distance = 6
; skirt_height = 1
; skirts = 0
; slowdown_below_layer_time = 5
; spiral_vase = 0
; standby_temperature_delta = -5
; start_gcode = G28 ; home all axes\nG1 Z5 F5000 ; lift nozzle\n
; temperature = 200
; threads = 2
; toolchange_gcode = 
; travel_speed = 130
; use_firmware_retraction = 0
; use_relative_e_distances = 0
; use_volumetric_e = 0
; vibration_limit = 0
; wipe = 0
; z_offset = 0
; dont_support_bridges = 1
; extrusion_width = 0
; first_layer_height = 0.3
; infill_only_where_needed = 0
; interface_shells = 0
; layer_height = 0.3
; raft_layers = 0
; seam_position = aligned
; support_material = 0
; support_material_angle = 0
; support_material_contact_distance = 0.2
; support_material_enforce_layers = 0
; support_material_extruder = 1
; support_material_extrusion_width = 0
; support_material_interface_extruder = 1
; support_material_interface_layers = 3
; support_material_interface_spacing = 0
; support_material_interface_speed = 100%
; support_material_pattern = pillars
; support_material_spacing = 2.5
; support_material_speed = 60
; support_material_threshold = 0
; xy_size_compensation = 0
; bottom_solid_layers = 0
; bridge_flow_ratio = 1
; bridge_speed = 60
; external_fill_pattern = rectilinear
; external_perimeter_extrusion_width = 0
; external_perimeter_speed = 50%
; external_perimeters_first = 0
; extra_perimeters = 1
; fill_angle = 45
; fill_density = 100%
; fill_pattern = rectilinear
; gap_fill_speed = 20
; infill_every_layers = 1
; infill_extruder = 1
; infill_extrusion_width = 0
; infill_overlap = 15%
; infill_speed = 80
; overhangs = 1
; perimeter_extruder = 1
; perimeter_extrusion_width = 0
; perimeter_speed = 60
; perimeters = 0
; small_perimeter_speed = 15
; solid_infill_below_area = 70
; solid_infill_every_layers = 0
; solid_infill_extruder = 1
; solid_infill_extrusion_width = 0
; solid_infill_speed = 20
; thin_walls = 1
; top_infill_extrusion_width = 0
; top_solid_infill_speed = 15
; top_solid_layers = 0
