; generated by Slic3r 1.2.9 on 2019-06-15 at 17:36:06

; external perimeters extrusion width = 0.50mm
; perimeters extrusion width = 0.52mm
; infill extrusion width = 0.52mm
; solid infill extrusion width = 0.52mm
; top infill extrusion width = 0.52mm

M107
M104 S200 ; set temperature
G28 ; home all axes
G1 Z5 F5000 ; lift nozzle

M109 S200 ; wait for temperature to be reached
G21 ; set units to millimeters
G90 ; use absolute coordinates
M82 ; use absolute distances for extrusion
G92 E0
G1 Z0.500 F7800.000
G1 E-2.00000 F2400.00000
G92 E0
G1 X92.068 Y107.900 F7800.000
G1 E2.00000 F2400.00000
G1 X91.600 Y107.432 E2.37602 F1800.000
G1 X91.600 Y105.955 E3.21530
G1 X93.545 Y107.900 E4.77824
G1 X95.022 Y107.900 E5.61751
G1 X91.600 Y104.478 E8.36736
G1 X91.600 Y103.002 E9.20663
G1 X96.498 Y107.900 E13.14340
G1 X97.975 Y107.900 E13.98267
G1 X91.600 Y101.525 E19.10635
G1 X91.600 Y100.048 E19.94562
G1 X99.452 Y107.900 E26.25621
G1 X100.929 Y107.900 E27.09548
G1 X91.600 Y98.571 E34.59298
G1 X91.600 Y97.094 E35.43226
G1 X102.406 Y107.900 E44.11667
G1 X103.882 Y107.900 E44.95595
G1 X91.600 Y95.618 E54.82727
G1 X91.600 Y94.141 E55.66655
G1 X105.359 Y107.900 E66.72479
G1 X106.836 Y107.900 E67.56406
G1 X91.600 Y92.664 E79.80921
G1 X92.513 Y92.100 E80.41904
G1 X108.313 Y107.900 E93.11731
G1 X108.400 Y106.510 E93.90869
G1 X93.990 Y92.100 E105.48996
G1 X95.467 Y92.100 E106.32924
G1 X108.400 Y105.033 E116.72360
G1 X108.400 Y103.556 E117.56287
G1 X96.944 Y92.100 E126.77032
G1 X98.420 Y92.100 E127.60959
G1 X108.400 Y102.080 E135.63013
G1 X108.400 Y100.603 E136.46940
G1 X99.897 Y92.100 E143.30303
G1 X101.374 Y92.100 E144.14230
G1 X108.400 Y99.126 E149.78901
G1 X108.400 Y97.649 E150.62829
G1 X102.851 Y92.100 E155.08809
G1 X104.328 Y92.100 E155.92736
G1 X108.400 Y96.172 E159.20025
G1 X108.400 Y94.696 E160.03952
G1 X105.804 Y92.100 E162.12549
G1 X107.281 Y92.100 E162.96477
G1 X108.400 Y93.219 E163.86383
G1 Z1.000 F7800.000
G1 X107.281 Y107.900 F7800.000
G1 X108.400 Y106.781 E164.28450 F3423.650
G1 X108.400 Y105.304 E164.67720
G1 X105.804 Y107.900 E165.65324
G1 X104.328 Y107.900 E166.04594
G1 X108.400 Y103.828 E167.57735
G1 X108.400 Y102.351 E167.97005
G1 X102.851 Y107.900 E170.05681
G1 X101.374 Y107.900 E170.44951
G1 X108.400 Y100.874 E173.09164
G1 X108.400 Y99.397 E173.48434
G1 X99.897 Y107.900 E176.68183
G1 X98.420 Y107.900 E177.07454
G1 X108.400 Y97.920 E180.82739
G1 X108.400 Y96.444 E181.22009
G1 X96.944 Y107.900 E185.52831
G1 X95.467 Y107.900 E185.92101
G1 X108.400 Y94.967 E190.78459
G1 X108.400 Y93.490 E191.17729
G1 X93.990 Y107.900 E196.59624
G1 X92.513 Y107.900 E196.98894
G1 X108.313 Y92.100 E202.93053
G1 X106.836 Y92.100 E203.32323
G1 X91.600 Y107.336 E209.05281
G1 X91.600 Y105.859 E209.44551
G1 X105.359 Y92.100 E214.61973
G1 X103.882 Y92.100 E215.01243
G1 X91.600 Y104.382 E219.63128
G1 X91.600 Y102.906 E220.02398
G1 X102.406 Y92.100 E224.08747
G1 X100.929 Y92.100 E224.48017
G1 X91.600 Y101.429 E227.98829
G1 X91.600 Y99.952 E228.38099
G1 X99.452 Y92.100 E231.33375
G1 X97.975 Y92.100 E231.72646
G1 X91.600 Y98.475 E234.12385
G1 X91.600 Y96.998 E234.51655
G1 X96.498 Y92.100 E236.35859
G1 X95.022 Y92.100 E236.75129
G1 X91.600 Y95.522 E238.03796
G1 X91.600 Y94.045 E238.43066
G1 X93.545 Y92.100 E239.16197
G1 X92.068 Y92.100 E239.55467
G1 X91.600 Y92.568 E239.73062
G1 Z1.500 F7800.000
G1 X92.068 Y107.900 F7800.000
G1 X91.600 Y107.432 E239.90656 F3417.794
G1 X91.600 Y105.955 E240.29926
G1 X93.545 Y107.900 E241.03057
G1 X95.022 Y107.900 E241.42327
G1 X91.600 Y104.478 E242.70994
G1 X91.600 Y103.002 E243.10264
G1 X96.498 Y107.900 E244.94468
G1 X97.975 Y107.900 E245.33738
G1 X91.600 Y101.525 E247.73478
G1 X91.600 Y100.048 E248.12748
G1 X99.452 Y107.900 E251.08024
G1 X100.929 Y107.900 E251.47294
G1 X91.600 Y98.571 E254.98106
G1 X91.600 Y97.094 E255.37376
G1 X102.406 Y107.900 E259.43725
G1 X103.882 Y107.900 E259.82995
G1 X91.600 Y95.618 E264.44880
G1 X91.600 Y94.141 E264.84150
G1 X105.359 Y107.900 E270.01572
G1 X106.836 Y107.900 E270.40842
G1 X91.600 Y92.664 E276.13800
G1 X92.513 Y92.100 E276.42334
G1 X108.313 Y107.900 E282.36493
G1 X108.400 Y106.510 E282.73522
G1 X93.990 Y92.100 E288.15417
G1 X95.467 Y92.100 E288.54687
G1 X108.400 Y105.033 E293.41045
G1 X108.400 Y103.556 E293.80315
G1 X96.944 Y92.100 E298.11137
G1 X98.420 Y92.100 E298.50407
G1 X108.400 Y102.080 E302.25693
G1 X108.400 Y100.603 E302.64963
G1 X99.897 Y92.100 E305.84712
G1 X101.374 Y92.100 E306.23982
G1 X108.400 Y99.126 E308.88195
G1 X108.400 Y97.649 E309.27465
G1 X102.851 Y92.100 E311.36142
G1 X104.328 Y92.100 E311.75412
G1 X108.400 Y96.172 E313.28552
G1 X108.400 Y94.696 E313.67822
G1 X105.804 Y92.100 E314.65426
G1 X107.281 Y92.100 E315.04696
G1 X108.400 Y93.219 E315.46764
M106 S255
G1 Z2.000 F7800.000
G1 X107.281 Y107.900 F7800.000
G1 X108.400 Y106.781 E315.88831 F3423.650
G1 X108.400 Y105.304 E316.28101
G1 X105.804 Y107.900 E317.25705
G1 X104.328 Y107.900 E317.64975
G1 X108.400 Y103.828 E319.18116
G1 X108.400 Y102.351 E319.57386
G1 X102.851 Y107.900 E321.66062
G1 X101.374 Y107.900 E322.05332
G1 X108.400 Y100.874 E324.69545
G1 X108.400 Y99.397 E325.08815
G1 X99.897 Y107.900 E328.28564
G1 X98.420 Y107.900 E328.67835
G1 X108.400 Y97.920 E332.43120
G1 X108.400 Y96.444 E332.82390
G1 X96.944 Y107.900 E337.13212
G1 X95.467 Y107.900 E337.52482
G1 X108.400 Y94.967 E342.38840
G1 X108.400 Y93.490 E342.78110
G1 X93.990 Y107.900 E348.20005
G1 X92.513 Y107.900 E348.59275
G1 X108.313 Y92.100 E354.53434
G1 X106.836 Y92.100 E354.92704
G1 X91.600 Y107.336 E360.65662
G1 X91.600 Y105.859 E361.04932
G1 X105.359 Y92.100 E366.22354
G1 X103.882 Y92.100 E366.61624
G1 X91.600 Y104.382 E371.23509
G1 X91.600 Y102.906 E371.62779
G1 X102.406 Y92.100 E375.69128
G1 X100.929 Y92.100 E376.08398
G1 X91.600 Y101.429 E379.59210
G1 X91.600 Y99.952 E379.98480
G1 X99.452 Y92.100 E382.93756
G1 X97.975 Y92.100 E383.33027
G1 X91.600 Y98.475 E385.72766
G1 X91.600 Y96.998 E386.12036
G1 X96.498 Y92.100 E387.96240
G1 X95.022 Y92.100 E388.35510
G1 X91.600 Y95.522 E389.64177
G1 X91.600 Y94.045 E390.03447
G1 X93.545 Y92.100 E390.76578
G1 X92.068 Y92.100 E391.15848
G1 X91.600 Y92.568 E391.33443
G1 Z2.500 F7800.000
G1 X92.068 Y107.900 F7800.000
G1 X91.600 Y107.432 E391.51037 F3417.794
G1 X91.600 Y105.955 E391.90307
G1 X93.545 Y107.900 E392.63438
G1 X95.022 Y107.900 E393.02708
G1 X91.600 Y104.478 E394.31375
G1 X91.600 Y103.002 E394.70645
G1 X96.498 Y107.900 E396.54849
G1 X97.975 Y107.900 E396.94119
G1 X91.600 Y101.525 E399.33859
G1 X91.600 Y100.048 E399.73129
G1 X99.452 Y107.900 E402.68405
G1 X100.929 Y107.900 E403.07675
G1 X91.600 Y98.571 E406.58487
G1 X91.600 Y97.094 E406.97757
G1 X102.406 Y107.900 E411.04106
G1 X103.882 Y107.900 E411.43376
G1 X91.600 Y95.618 E416.05261
G1 X91.600 Y94.141 E416.44531
G1 X105.359 Y107.900 E421.61953
G1 X106.836 Y107.900 E422.01223
G1 X91.600 Y92.664 E427.74181
G1 X92.513 Y92.100 E428.02715
G1 X108.313 Y107.900 E433.96874
G1 X108.400 Y106.510 E434.33903
G1 X93.990 Y92.100 E439.75798
G1 X95.467 Y92.100 E440.15068
G1 X108.400 Y105.033 E445.01426
G1 X108.400 Y103.556 E445.40696
G1 X96.944 Y92.100 E449.71518
G1 X98.420 Y92.100 E450.10788
G1 X108.400 Y102.080 E453.86074
G1 X108.400 Y100.603 E454.25344
G1 X99.897 Y92.100 E457.45093
G1 X101.374 Y92.100 E457.84363
G1 X108.400 Y99.126 E460.48576
G1 X108.400 Y97.649 E460.87846
G1 X102.851 Y92.100 E462.96523
G1 X104.328 Y92.100 E463.35793
G1 X108.400 Y96.172 E464.88933
G1 X108.400 Y94.696 E465.28203
G1 X105.804 Y92.100 E466.25807
G1 X107.281 Y92.100 E466.65077
G1 X108.400 Y93.219 E467.07145
G1 Z3.000 F7800.000
G1 X107.281 Y107.900 F7800.000
G1 X108.400 Y106.781 E467.49212 F3423.650
G1 X108.400 Y105.304 E467.88482
G1 X105.804 Y107.900 E468.86086
G1 X104.328 Y107.900 E469.25356
G1 X108.400 Y103.828 E470.78497
G1 X108.400 Y102.351 E471.17767
G1 X102.851 Y107.900 E473.26443
G1 X101.374 Y107.900 E473.65713
G1 X108.400 Y100.874 E476.29926
G1 X108.400 Y99.397 E476.69196
G1 X99.897 Y107.900 E479.88945
G1 X98.420 Y107.900 E480.28216
G1 X108.400 Y97.920 E484.03501
G1 X108.400 Y96.444 E484.42771
G1 X96.944 Y107.900 E488.73593
G1 X95.467 Y107.900 E489.12863
G1 X108.400 Y94.967 E493.99221
G1 X108.400 Y93.490 E494.38491
G1 X93.990 Y107.900 E499.80386
G1 X92.513 Y107.900 E500.19656
G1 X108.313 Y92.100 E506.13815
G1 X106.836 Y92.100 E506.53085
G1 X91.600 Y107.336 E512.26043
G1 X91.600 Y105.859 E512.65313
G1 X105.359 Y92.100 E517.82735
G1 X103.882 Y92.100 E518.22005
G1 X91.600 Y104.382 E522.83890
G1 X91.600 Y102.906 E523.23160
G1 X102.406 Y92.100 E527.29509
G1 X100.929 Y92.100 E527.68779
G1 X91.600 Y101.429 E531.19591
G1 X91.600 Y99.952 E531.58861
G1 X99.452 Y92.100 E534.54137
G1 X97.975 Y92.100 E534.93408
G1 X91.600 Y98.475 E537.33147
G1 X91.600 Y96.998 E537.72417
G1 X96.498 Y92.100 E539.56621
G1 X95.022 Y92.100 E539.95891
G1 X91.600 Y95.522 E541.24558
G1 X91.600 Y94.045 E541.63828
G1 X93.545 Y92.100 E542.36959
G1 X92.068 Y92.100 E542.76229
G1 X91.600 Y92.568 E542.93824
G1 Z3.500 F7800.000
G1 X92.068 Y107.900 F7800.000
G1 X91.600 Y107.432 E543.11418 F3417.794
G1 X91.600 Y105.955 E543.50688
G1 X93.545 Y107.900 E544.23819
G1 X95.022 Y107.900 E544.63089
G1 X91.600 Y104.478 E545.91756
G1 X91.600 Y103.002 E546.31026
G1 X96.498 Y107.900 E548.15230
G1 X97.975 Y107.900 E548.54500
G1 X91.600 Y101.525 E550.94240
G1 X91.600 Y100.048 E551.33510
G1 X99.452 Y107.900 E554.28786
G1 X100.929 Y107.900 E554.68056
G1 X91.600 Y98.571 E558.18868
G1 X91.600 Y97.094 E558.58138
G1 X102.406 Y107.900 E562.64487
G1 X103.882 Y107.900 E563.03757
G1 X91.600 Y95.618 E567.65642
G1 X91.600 Y94.141 E568.04912
G1 X105.359 Y107.900 E573.22334
G1 X106.836 Y107.900 E573.61604
G1 X91.600 Y92.664 E579.34562
G1 X92.513 Y92.100 E579.63096
G1 X108.313 Y107.900 E585.57255
G1 X108.400 Y106.510 E585.94284
G1 X93.990 Y92.100 E591.36179
G1 X95.467 Y92.100 E591.75449
G1 X108.400 Y105.033 E596.61807
G1 X108.400 Y103.556 E597.01077
G1 X96.944 Y92.100 E601.31899
G1 X98.420 Y92.100 E601.71169
G1 X108.400 Y102.080 E605.46455
G1 X108.400 Y100.603 E605.85725
G1 X99.897 Y92.100 E609.05474
G1 X101.374 Y92.100 E609.44744
G1 X108.400 Y99.126 E612.08957
G1 X108.400 Y97.649 E612.48227
G1 X102.851 Y92.100 E614.56904
G1 X104.328 Y92.100 E614.96174
G1 X108.400 Y96.172 E616.49314
G1 X108.400 Y94.696 E616.88584
G1 X105.804 Y92.100 E617.86188
G1 X107.281 Y92.100 E618.25458
G1 X108.400 Y93.219 E618.67526
G1 Z4.000 F7800.000
G1 X107.281 Y107.900 F7800.000
G1 X108.400 Y106.781 E619.09593 F3423.650
G1 X108.400 Y105.304 E619.48863
G1 X105.804 Y107.900 E620.46467
G1 X104.328 Y107.900 E620.85737
G1 X108.400 Y103.828 E622.38878
G1 X108.400 Y102.351 E622.78148
G1 X102.851 Y107.900 E624.86824
G1 X101.374 Y107.900 E625.26094
G1 X108.400 Y100.874 E627.90307
G1 X108.400 Y99.397 E628.29577
G1 X99.897 Y107.900 E631.49326
G1 X98.420 Y107.900 E631.88597
G1 X108.400 Y97.920 E635.63882
G1 X108.400 Y96.444 E636.03152
G1 X96.944 Y107.900 E640.33974
G1 X95.467 Y107.900 E640.73244
G1 X108.400 Y94.967 E645.59602
G1 X108.400 Y93.490 E645.98872
G1 X93.990 Y107.900 E651.40767
G1 X92.513 Y107.900 E651.80037
G1 X108.313 Y92.100 E657.74196
G1 X106.836 Y92.100 E658.13466
G1 X91.600 Y107.336 E663.86424
G1 X91.600 Y105.859 E664.25694
G1 X105.359 Y92.100 E669.43116
G1 X103.882 Y92.100 E669.82386
G1 X91.600 Y104.382 E674.44271
G1 X91.600 Y102.906 E674.83541
G1 X102.406 Y92.100 E678.89890
G1 X100.929 Y92.100 E679.29160
G1 X91.600 Y101.429 E682.79972
G1 X91.600 Y99.952 E683.19242
G1 X99.452 Y92.100 E686.14518
G1 X97.975 Y92.100 E686.53789
G1 X91.600 Y98.475 E688.93528
G1 X91.600 Y96.998 E689.32798
G1 X96.498 Y92.100 E691.17002
G1 X95.022 Y92.100 E691.56272
G1 X91.600 Y95.522 E692.84939
G1 X91.600 Y94.045 E693.24209
G1 X93.545 Y92.100 E693.97340
G1 X92.068 Y92.100 E694.36610
G1 X91.600 Y92.568 E694.54205
G1 Z4.500 F7800.000
G1 X92.068 Y107.900 F7800.000
G1 X91.600 Y107.432 E694.71799 F3417.794
G1 X91.600 Y105.955 E695.11069
G1 X93.545 Y107.900 E695.84200
G1 X95.022 Y107.900 E696.23470
G1 X91.600 Y104.478 E697.52137
G1 X91.600 Y103.002 E697.91407
G1 X96.498 Y107.900 E699.75611
G1 X97.975 Y107.900 E700.14881
G1 X91.600 Y101.525 E702.54621
G1 X91.600 Y100.048 E702.93891
G1 X99.452 Y107.900 E705.89167
G1 X100.929 Y107.900 E706.28437
G1 X91.600 Y98.571 E709.79249
G1 X91.600 Y97.094 E710.18519
G1 X102.406 Y107.900 E714.24868
G1 X103.882 Y107.900 E714.64138
G1 X91.600 Y95.618 E719.26023
G1 X91.600 Y94.141 E719.65293
G1 X105.359 Y107.900 E724.82715
G1 X106.836 Y107.900 E725.21985
G1 X91.600 Y92.664 E730.94943
G1 X92.513 Y92.100 E731.23477
G1 X108.313 Y107.900 E737.17636
G1 X108.400 Y106.510 E737.54665
G1 X93.990 Y92.100 E742.96560
G1 X95.467 Y92.100 E743.35830
G1 X108.400 Y105.033 E748.22188
G1 X108.400 Y103.556 E748.61458
G1 X96.944 Y92.100 E752.92280
G1 X98.420 Y92.100 E753.31550
G1 X108.400 Y102.080 E757.06836
G1 X108.400 Y100.603 E757.46106
G1 X99.897 Y92.100 E760.65855
G1 X101.374 Y92.100 E761.05125
G1 X108.400 Y99.126 E763.69338
G1 X108.400 Y97.649 E764.08608
G1 X102.851 Y92.100 E766.17285
G1 X104.328 Y92.100 E766.56555
G1 X108.400 Y96.172 E768.09695
G1 X108.400 Y94.696 E768.48965
G1 X105.804 Y92.100 E769.46569
G1 X107.281 Y92.100 E769.85839
G1 X108.400 Y93.219 E770.27907
G1 Z5.000 F7800.000
G1 X107.281 Y107.900 F7800.000
G1 X108.400 Y106.781 E770.69974 F3423.650
G1 X108.400 Y105.304 E771.09244
G1 X105.804 Y107.900 E772.06848
G1 X104.328 Y107.900 E772.46118
G1 X108.400 Y103.828 E773.99259
G1 X108.400 Y102.351 E774.38529
G1 X102.851 Y107.900 E776.47205
G1 X101.374 Y107.900 E776.86475
G1 X108.400 Y100.874 E779.50688
G1 X108.400 Y99.397 E779.89958
G1 X99.897 Y107.900 E783.09707
G1 X98.420 Y107.900 E783.48978
G1 X108.400 Y97.920 E787.24263
G1 X108.400 Y96.444 E787.63533
G1 X96.944 Y107.900 E791.94355
G1 X95.467 Y107.900 E792.33625
G1 X108.400 Y94.967 E797.19983
G1 X108.400 Y93.490 E797.59253
G1 X93.990 Y107.900 E803.01148
G1 X92.513 Y107.900 E803.40418
G1 X108.313 Y92.100 E809.34577
G1 X106.836 Y92.100 E809.73847
G1 X91.600 Y107.336 E815.46805
G1 X91.600 Y105.859 E815.86075
G1 X105.359 Y92.100 E821.03497
G1 X103.882 Y92.100 E821.42767
G1 X91.600 Y104.382 E826.04652
G1 X91.600 Y102.906 E826.43922
G1 X102.406 Y92.100 E830.50271
G1 X100.929 Y92.100 E830.89541
G1 X91.600 Y101.429 E834.40353
G1 X91.600 Y99.952 E834.79623
G1 X99.452 Y92.100 E837.74899
G1 X97.975 Y92.100 E838.14170
G1 X91.600 Y98.475 E840.53909
G1 X91.600 Y96.998 E840.93179
G1 X96.498 Y92.100 E842.77383
G1 X95.022 Y92.100 E843.16653
G1 X91.600 Y95.522 E844.45320
G1 X91.600 Y94.045 E844.84590
G1 X93.545 Y92.100 E845.57721
G1 X92.068 Y92.100 E845.96991
G1 X91.600 Y92.568 E846.14586
G1 Z5.500 F7800.000
G1 X92.068 Y107.900 F7800.000
G1 X91.600 Y107.432 E846.32180 F3417.794
G1 X91.600 Y105.955 E846.71450
G1 X93.545 Y107.900 E847.44581
G1 X95.022 Y107.900 E847.83851
G1 X91.600 Y104.478 E849.12518
G1 X91.600 Y103.002 E849.51788
G1 X96.498 Y107.900 E851.35992
G1 X97.975 Y107.900 E851.75262
G1 X91.600 Y101.525 E854.15002
G1 X91.600 Y100.048 E854.54272
G1 X99.452 Y107.900 E857.49548
G1 X100.929 Y107.900 E857.88818
G1 X91.600 Y98.571 E861.39630
G1 X91.600 Y97.094 E861.78900
G1 X102.406 Y107.900 E865.85249
G1 X103.882 Y107.900 E866.24519
G1 X91.600 Y95.618 E870.86404
G1 X91.600 Y94.141 E871.25674
G1 X105.359 Y107.900 E876.43096
G1 X106.836 Y107.900 E876.82366
G1 X91.600 Y92.664 E882.55324
G1 X92.513 Y92.100 E882.83858
G1 X108.313 Y107.900 E888.78017
G1 X108.400 Y106.510 E889.15046
G1 X93.990 Y92.100 E894.56941
G1 X95.467 Y92.100 E894.96211
G1 X108.400 Y105.033 E899.82569
G1 X108.400 Y103.556 E900.21839
G1 X96.944 Y92.100 E904.52661
G1 X98.420 Y92.100 E904.91931
G1 X108.400 Y102.080 E908.67217
G1 X108.400 Y100.603 E909.06487
G1 X99.897 Y92.100 E912.26236
G1 X101.374 Y92.100 E912.65506
G1 X108.400 Y99.126 E915.29719
G1 X108.400 Y97.649 E915.68989
G1 X102.851 Y92.100 E917.77666
G1 X104.328 Y92.100 E918.16936
G1 X108.400 Y96.172 E919.70076
G1 X108.400 Y94.696 E920.09346
G1 X105.804 Y92.100 E921.06950
G1 X107.281 Y92.100 E921.46220
G1 X108.400 Y93.219 E921.88288
G1 Z6.000 F7800.000
G1 E919.88288 F2400.00000
G92 E0
G1 X107.281 Y107.900 F7800.000
G1 E2.00000 F2400.00000
G1 X108.400 Y106.781 E2.42068 F3423.650
G1 X108.400 Y105.304 E2.81338
G1 X105.804 Y107.900 E3.78942
G1 X104.328 Y107.900 E4.18212
G1 X108.400 Y103.828 E5.71352
G1 X108.400 Y102.351 E6.10622
G1 X102.851 Y107.900 E8.19299
G1 X101.374 Y107.900 E8.58569
G1 X108.400 Y100.874 E11.22781
G1 X108.400 Y99.397 E11.62052
G1 X99.897 Y107.900 E14.81801
G1 X98.420 Y107.900 E15.21071
G1 X108.400 Y97.920 E18.96356
G1 X108.400 Y96.444 E19.35626
G1 X96.944 Y107.900 E23.66448
G1 X95.467 Y107.900 E24.05718
G1 X108.400 Y94.967 E28.92077
G1 X108.400 Y93.490 E29.31347
G1 X93.990 Y107.900 E34.73241
G1 X92.513 Y107.900 E35.12511
G1 X108.313 Y92.100 E41.06671
G1 X106.836 Y92.100 E41.45941
G1 X91.600 Y107.336 E47.18898
G1 X91.600 Y105.859 E47.58169
G1 X105.359 Y92.100 E52.75590
G1 X103.882 Y92.100 E53.14860
G1 X91.600 Y104.382 E57.76745
G1 X91.600 Y102.906 E58.16015
G1 X102.406 Y92.100 E62.22364
G1 X100.929 Y92.100 E62.61634
G1 X91.600 Y101.429 E66.12447
G1 X91.600 Y99.952 E66.51717
G1 X99.452 Y92.100 E69.46993
G1 X97.975 Y92.100 E69.86263
G1 X91.600 Y98.475 E72.26003
G1 X91.600 Y96.998 E72.65273
G1 X96.498 Y92.100 E74.49476
G1 X95.022 Y92.100 E74.88746
G1 X91.600 Y95.522 E76.17413
G1 X91.600 Y94.045 E76.56684
G1 X93.545 Y92.100 E77.29814
G1 X92.068 Y92.100 E77.69085
G1 X91.600 Y92.568 E77.86679
G1 E75.86679 F2400.00000
G92 E0
M107
M104 S0 ; turn off temperature
G28 X0  ; home X axis
M84     ; disable motors

; filament used = 995.7mm (0.8cm3)

; avoid_crossing_perimeters = 0
; bed_shape = 0x0,200x0,200x200,0x200
; bed_temperature = 0
; before_layer_gcode = 
; bridge_acceleration = 0
; bridge_fan_speed = 100
; brim_width = 0
; complete_objects = 0
; cooling = 1
; default_acceleration = 0
; disable_fan_first_layers = 3
; duplicate_distance = 6
; end_gcode = M104 S0 ; turn off temperature\nG28 X0  ; home X axis\nM84     ; disable motors\n
; extruder_clearance_height = 20
; extruder_clearance_radius = 20
; extruder_offset = 0x0
; extrusion_axis = E
; extrusion_multiplier = 1
; fan_always_on = 0
; fan_below_layer_time = 60
; filament_colour = #FFFFFF
; filament_diameter = 1
; first_layer_acceleration = 0
; first_layer_bed_temperature = 0
; first_layer_extrusion_width = 200%
; first_layer_speed = 30
; first_layer_temperature = 200
; gcode_arcs = 0
; gcode_comments = 0
; gcode_flavor = reprap
; infill_acceleration = 0
; infill_first = 0
; layer_gcode = 
; max_fan_speed = 100
; max_print_speed = 80
; max_volumetric_speed = 0
; min_fan_speed = 35
; min_print_speed = 10
; min_skirt_length = 0
; notes = 
; nozzle_diameter = 0.5
; only_retract_when_crossing_perimeters = 1
; ooze_prevention = 0
; output_filename_format = [input_filename_base].gcode
; perimeter_acceleration = 0
; post_process = 
; pressure_advance = 0
; resolution = 0
; retract_before_travel = 2
; retract_layer_change = 0
; retract_length = 2
; retract_length_toolchange = 10
; retract_lift = 0
; retract_restart_extra = 0
; retract_restart_extra_toolchange = 0
; retract_speed = 40
; skirt_distance = 6
; skirt_height = 1
; skirts = 0
; slowdown_below_layer_time = 5
; spiral_vase = 0
; standby_temperature_delta = -5
; start_gcode = G28 ; home all axes\nG1 Z5 F5000 ; lift nozzle\n
; temperature = 200
; threads = 2
; toolchange_gcode = 
; travel_speed = 130
; use_firmware_retraction = 0
; use_relative_e_distances = 0
; use_volumetric_e = 0
; vibration_limit = 0
; wipe = 0
; z_offset = 0
; dont_support_bridges = 1
; extrusion_width = 0
; first_layer_height = 0.5
; infill_only_where_needed = 0
; interface_shells = 0
; layer_height = 0.5
; raft_layers = 0
; seam_position = aligned
; support_material = 0
; support_material_angle = 0
; support_material_contact_distance = 0.2
; support_material_enforce_layers = 0
; support_material_extruder = 1
; support_material_extrusion_width = 0
; support_material_interface_extruder = 1
; support_material_interface_layers = 3
; support_material_interface_spacing = 0
; support_material_interface_speed = 100%
; support_material_pattern = pillars
; support_material_spacing = 2.5
; support_material_speed = 60
; support_material_threshold = 0
; xy_size_compensation = 0
; bottom_solid_layers = 0
; bridge_flow_ratio = 1
; bridge_speed = 60
; external_fill_pattern = rectilinear
; external_perimeter_extrusion_width = 0
; external_perimeter_speed = 50%
; external_perimeters_first = 0
; extra_perimeters = 1
; fill_angle = 45
; fill_density = 40%
; fill_pattern = rectilinear
; gap_fill_speed = 20
; infill_every_layers = 1
; infill_extruder = 1
; infill_extrusion_width = 0
; infill_overlap = 15%
; infill_speed = 80
; overhangs = 1
; perimeter_extruder = 1
; perimeter_extrusion_width = 0
; perimeter_speed = 60
; perimeters = 0
; small_perimeter_speed = 15
; solid_infill_below_area = 70
; solid_infill_every_layers = 0
; solid_infill_extruder = 1
; solid_infill_extrusion_width = 0
; solid_infill_speed = 20
; thin_walls = 1
; top_infill_extrusion_width = 0
; top_solid_infill_speed = 15
; top_solid_layers = 0
