; generated by Slic3r 1.2.9 on 2019-08-21 at 09:33:26

; external perimeters extrusion width = 0.50mm
; perimeters extrusion width = 0.58mm
; infill extrusion width = 0.58mm
; solid infill extrusion width = 0.58mm
; top infill extrusion width = 0.58mm

M107
M104 S200 ; set temperature
G28 ; home all axes
G1 Z5 F5000 ; lift nozzle

M109 S200 ; wait for temperature to be reached
G21 ; set units to millimeters
G90 ; use absolute coordinates
M82 ; use absolute distances for extrusion
G92 E0
G1 Z0.400 F7800.000
G1 E-2.00000 F2400.00000
G92 E0
G1 X109.629 Y90.729 F7800.000
G1 E2.00000 F2400.00000
G1 X109.271 Y90.371 E2.18403 F1800.000
G1 X107.535 Y90.371 E2.81526
G1 X109.629 Y92.465 E3.89199
G1 X109.629 Y94.200 E4.52322
G1 X105.800 Y90.371 E6.49264
G1 X104.064 Y90.371 E7.12388
G1 X109.629 Y95.936 E9.98600
G1 X109.629 Y97.671 E10.61723
G1 X102.329 Y90.371 E14.37206
G1 X100.593 Y90.371 E15.00329
G1 X109.629 Y99.407 E19.65081
G1 X109.629 Y101.142 E20.28205
G1 X98.858 Y90.371 E25.82227
G1 X97.122 Y90.371 E26.45350
G1 X109.629 Y102.878 E32.88642
G1 X109.629 Y104.613 E33.51765
G1 X95.387 Y90.371 E40.84327
G1 X93.651 Y90.371 E41.47451
G1 X109.629 Y106.349 E49.69282
G1 X109.629 Y108.084 E50.32406
G1 X91.916 Y90.371 E59.43508
G1 X90.371 Y90.562 E60.00117
G1 X109.438 Y109.629 E69.80854
G1 X107.702 Y109.629 E70.43978
G1 X90.371 Y92.298 E79.35446
G1 X90.371 Y94.033 E79.98569
G1 X105.967 Y109.629 E88.00767
G1 X104.231 Y109.629 E88.63891
G1 X90.371 Y95.769 E95.76819
G1 X90.371 Y97.504 E96.39942
G1 X102.496 Y109.629 E102.63601
G1 X100.760 Y109.629 E103.26724
G1 X90.371 Y99.240 E108.61112
G1 X90.371 Y100.975 E109.24236
G1 X99.025 Y109.629 E113.69354
G1 X97.289 Y109.629 E114.32477
G1 X90.371 Y102.711 E117.88326
G1 X90.371 Y104.446 E118.51449
G1 X95.554 Y109.629 E121.18028
G1 X93.818 Y109.629 E121.81151
G1 X90.371 Y106.182 E123.58460
G1 X90.371 Y107.917 E124.21583
G1 X92.083 Y109.629 E125.09622
G1 Z0.800 F7800.000
G1 X109.271 Y109.629 F7800.000
G1 X109.629 Y109.271 E125.22271 F4061.260
G1 X109.629 Y107.535 E125.65658
G1 X107.535 Y109.629 E126.39667
G1 X105.800 Y109.629 E126.83054
G1 X109.629 Y105.800 E128.18421
G1 X109.629 Y104.064 E128.61809
G1 X104.064 Y109.629 E130.58535
G1 X102.329 Y109.629 E131.01923
G1 X109.629 Y102.329 E133.60009
G1 X109.629 Y100.593 E134.03396
G1 X100.593 Y109.629 E137.22841
G1 X98.858 Y109.629 E137.66229
G1 X109.629 Y98.858 E141.47033
G1 X109.629 Y97.122 E141.90421
G1 X97.122 Y109.629 E146.32584
G1 X95.387 Y109.629 E146.75972
G1 X109.629 Y95.387 E151.79494
G1 X109.629 Y93.651 E152.22882
G1 X93.651 Y109.629 E157.87764
G1 X91.916 Y109.629 E158.31151
G1 X109.629 Y91.916 E164.57393
G1 X109.438 Y90.371 E164.96302
G1 X90.371 Y109.438 E171.70408
G1 X90.371 Y107.702 E172.13795
G1 X107.702 Y90.371 E178.26542
G1 X105.967 Y90.371 E178.69929
G1 X90.371 Y105.967 E184.21316
G1 X90.371 Y104.231 E184.64703
G1 X104.231 Y90.371 E189.54731
G1 X102.496 Y90.371 E189.98119
G1 X90.371 Y102.496 E194.26787
G1 X90.371 Y100.760 E194.70175
G1 X100.760 Y90.371 E198.37484
G1 X99.025 Y90.371 E198.80871
G1 X90.371 Y99.025 E201.86821
G1 X90.371 Y97.289 E202.30209
G1 X97.289 Y90.371 E204.74800
G1 X95.554 Y90.371 E205.18187
G1 X90.371 Y95.554 E207.01419
G1 X90.371 Y93.818 E207.44806
G1 X93.818 Y90.371 E208.66679
G1 X92.083 Y90.371 E209.10066
G1 X90.371 Y92.083 E209.70579
G1 Z1.200 F7800.000
G1 X92.083 Y109.629 F7800.000
G1 X90.371 Y107.917 E210.31092 F4061.260
G1 X90.371 Y106.182 E210.74480
G1 X93.818 Y109.629 E211.96352
G1 X95.554 Y109.629 E212.39739
G1 X90.371 Y104.446 E214.22971
G1 X90.371 Y102.711 E214.66358
G1 X97.289 Y109.629 E217.10949
G1 X99.025 Y109.629 E217.54337
G1 X90.371 Y100.975 E220.60286
G1 X90.371 Y99.240 E221.03674
G1 X100.760 Y109.629 E224.70983
G1 X102.496 Y109.629 E225.14371
G1 X90.371 Y97.504 E229.43039
G1 X90.371 Y95.769 E229.86427
G1 X104.231 Y109.629 E234.76454
G1 X105.967 Y109.629 E235.19842
G1 X90.371 Y94.033 E240.71229
G1 X90.371 Y92.298 E241.14616
G1 X107.702 Y109.629 E247.27362
G1 X109.438 Y109.629 E247.70750
G1 X90.371 Y90.562 E254.44855
G1 X91.916 Y90.371 E254.83765
G1 X109.629 Y108.084 E261.10006
G1 X109.629 Y106.349 E261.53394
G1 X93.651 Y90.371 E267.18276
G1 X95.387 Y90.371 E267.61663
G1 X109.629 Y104.613 E272.65186
G1 X109.629 Y102.878 E273.08574
G1 X97.122 Y90.371 E277.50737
G1 X98.858 Y90.371 E277.94125
G1 X109.629 Y101.142 E281.74929
G1 X109.629 Y99.407 E282.18316
G1 X100.593 Y90.371 E285.37762
G1 X102.329 Y90.371 E285.81149
G1 X109.629 Y97.671 E288.39235
G1 X109.629 Y95.936 E288.82623
G1 X104.064 Y90.371 E290.79349
G1 X105.800 Y90.371 E291.22737
G1 X109.629 Y94.200 E292.58104
G1 X109.629 Y92.465 E293.01492
G1 X107.535 Y90.371 E293.75500
G1 X109.271 Y90.371 E294.18887
G1 X109.629 Y90.729 E294.31536
M106 S255
G1 Z1.600 F7800.000
G1 X109.271 Y109.629 F7800.000
G1 X109.629 Y109.271 E294.44185 F4061.260
G1 X109.629 Y107.535 E294.87573
G1 X107.535 Y109.629 E295.61581
G1 X105.800 Y109.629 E296.04968
G1 X109.629 Y105.800 E297.40336
G1 X109.629 Y104.064 E297.83723
G1 X104.064 Y109.629 E299.80450
G1 X102.329 Y109.629 E300.23837
G1 X109.629 Y102.329 E302.81923
G1 X109.629 Y100.593 E303.25311
G1 X100.593 Y109.629 E306.44756
G1 X98.858 Y109.629 E306.88143
G1 X109.629 Y98.858 E310.68947
G1 X109.629 Y97.122 E311.12335
G1 X97.122 Y109.629 E315.54498
G1 X95.387 Y109.629 E315.97886
G1 X109.629 Y95.387 E321.01409
G1 X109.629 Y93.651 E321.44796
G1 X93.651 Y109.629 E327.09678
G1 X91.916 Y109.629 E327.53066
G1 X109.629 Y91.916 E333.79307
G1 X109.438 Y90.371 E334.18217
G1 X90.371 Y109.438 E340.92322
G1 X90.371 Y107.702 E341.35710
G1 X107.702 Y90.371 E347.48456
G1 X105.967 Y90.371 E347.91843
G1 X90.371 Y105.967 E353.43230
G1 X90.371 Y104.231 E353.86618
G1 X104.231 Y90.371 E358.76645
G1 X102.496 Y90.371 E359.20033
G1 X90.371 Y102.496 E363.48701
G1 X90.371 Y100.760 E363.92089
G1 X100.760 Y90.371 E367.59398
G1 X99.025 Y90.371 E368.02786
G1 X90.371 Y99.025 E371.08736
G1 X90.371 Y97.289 E371.52123
G1 X97.289 Y90.371 E373.96714
G1 X95.554 Y90.371 E374.40101
G1 X90.371 Y95.554 E376.23333
G1 X90.371 Y93.818 E376.66720
G1 X93.818 Y90.371 E377.88593
G1 X92.083 Y90.371 E378.31980
G1 X90.371 Y92.083 E378.92493
G1 Z2.000 F7800.000
G1 X92.083 Y109.629 F7800.000
G1 X90.371 Y107.917 E379.53006 F4061.260
G1 X90.371 Y106.182 E379.96394
G1 X93.818 Y109.629 E381.18266
G1 X95.554 Y109.629 E381.61654
G1 X90.371 Y104.446 E383.44885
G1 X90.371 Y102.711 E383.88273
G1 X97.289 Y109.629 E386.32863
G1 X99.025 Y109.629 E386.76251
G1 X90.371 Y100.975 E389.82201
G1 X90.371 Y99.240 E390.25588
G1 X100.760 Y109.629 E393.92897
G1 X102.496 Y109.629 E394.36285
G1 X90.371 Y97.504 E398.64953
G1 X90.371 Y95.769 E399.08341
G1 X104.231 Y109.629 E403.98369
G1 X105.967 Y109.629 E404.41756
G1 X90.371 Y94.033 E409.93143
G1 X90.371 Y92.298 E410.36530
G1 X107.702 Y109.629 E416.49276
G1 X109.438 Y109.629 E416.92664
G1 X90.371 Y90.562 E423.66769
G1 X91.916 Y90.371 E424.05679
G1 X109.629 Y108.084 E430.31920
G1 X109.629 Y106.349 E430.75308
G1 X93.651 Y90.371 E436.40190
G1 X95.387 Y90.371 E436.83578
G1 X109.629 Y104.613 E441.87100
G1 X109.629 Y102.878 E442.30488
G1 X97.122 Y90.371 E446.72651
G1 X98.858 Y90.371 E447.16039
G1 X109.629 Y101.142 E450.96843
G1 X109.629 Y99.407 E451.40231
G1 X100.593 Y90.371 E454.59676
G1 X102.329 Y90.371 E455.03063
G1 X109.629 Y97.671 E457.61149
G1 X109.629 Y95.936 E458.04537
G1 X104.064 Y90.371 E460.01263
G1 X105.800 Y90.371 E460.44651
G1 X109.629 Y94.200 E461.80018
G1 X109.629 Y92.465 E462.23406
G1 X107.535 Y90.371 E462.97414
G1 X109.271 Y90.371 E463.40801
G1 X109.629 Y90.729 E463.53450
G1 Z2.400 F7800.000
G1 X109.271 Y109.629 F7800.000
G1 X109.629 Y109.271 E463.66099 F4061.260
G1 X109.629 Y107.535 E464.09487
G1 X107.535 Y109.629 E464.83495
G1 X105.800 Y109.629 E465.26882
G1 X109.629 Y105.800 E466.62250
G1 X109.629 Y104.064 E467.05637
G1 X104.064 Y109.629 E469.02364
G1 X102.329 Y109.629 E469.45751
G1 X109.629 Y102.329 E472.03837
G1 X109.629 Y100.593 E472.47225
G1 X100.593 Y109.629 E475.66670
G1 X98.858 Y109.629 E476.10057
G1 X109.629 Y98.858 E479.90862
G1 X109.629 Y97.122 E480.34249
G1 X97.122 Y109.629 E484.76413
G1 X95.387 Y109.629 E485.19800
G1 X109.629 Y95.387 E490.23323
G1 X109.629 Y93.651 E490.66710
G1 X93.651 Y109.629 E496.31592
G1 X91.916 Y109.629 E496.74980
G1 X109.629 Y91.916 E503.01221
G1 X109.438 Y90.371 E503.40131
G1 X90.371 Y109.438 E510.14236
G1 X90.371 Y107.702 E510.57624
G1 X107.702 Y90.371 E516.70370
G1 X105.967 Y90.371 E517.13758
G1 X90.371 Y105.967 E522.65144
G1 X90.371 Y104.231 E523.08532
G1 X104.231 Y90.371 E527.98560
G1 X102.496 Y90.371 E528.41947
G1 X90.371 Y102.496 E532.70616
G1 X90.371 Y100.760 E533.14003
G1 X100.760 Y90.371 E536.81312
G1 X99.025 Y90.371 E537.24700
G1 X90.371 Y99.025 E540.30650
G1 X90.371 Y97.289 E540.74037
G1 X97.289 Y90.371 E543.18628
G1 X95.554 Y90.371 E543.62016
G1 X90.371 Y95.554 E545.45247
G1 X90.371 Y93.818 E545.88635
G1 X93.818 Y90.371 E547.10507
G1 X92.083 Y90.371 E547.53894
G1 X90.371 Y92.083 E548.14408
G1 Z2.800 F7800.000
G1 X92.083 Y109.629 F7800.000
G1 X90.371 Y107.917 E548.74921 F4061.260
G1 X90.371 Y106.182 E549.18308
G1 X93.818 Y109.629 E550.40180
G1 X95.554 Y109.629 E550.83568
G1 X90.371 Y104.446 E552.66799
G1 X90.371 Y102.711 E553.10187
G1 X97.289 Y109.629 E555.54777
G1 X99.025 Y109.629 E555.98165
G1 X90.371 Y100.975 E559.04115
G1 X90.371 Y99.240 E559.47502
G1 X100.760 Y109.629 E563.14812
G1 X102.496 Y109.629 E563.58199
G1 X90.371 Y97.504 E567.86868
G1 X90.371 Y95.769 E568.30255
G1 X104.231 Y109.629 E573.20283
G1 X105.967 Y109.629 E573.63670
G1 X90.371 Y94.033 E579.15057
G1 X90.371 Y92.298 E579.58445
G1 X107.702 Y109.629 E585.71191
G1 X109.438 Y109.629 E586.14578
G1 X90.371 Y90.562 E592.88684
G1 X91.916 Y90.371 E593.27593
G1 X109.629 Y108.084 E599.53835
G1 X109.629 Y106.349 E599.97222
G1 X93.651 Y90.371 E605.62104
G1 X95.387 Y90.371 E606.05492
G1 X109.629 Y104.613 E611.09014
G1 X109.629 Y102.878 E611.52402
G1 X97.122 Y90.371 E615.94566
G1 X98.858 Y90.371 E616.37953
G1 X109.629 Y101.142 E620.18757
G1 X109.629 Y99.407 E620.62145
G1 X100.593 Y90.371 E623.81590
G1 X102.329 Y90.371 E624.24978
G1 X109.629 Y97.671 E626.83063
G1 X109.629 Y95.936 E627.26451
G1 X104.064 Y90.371 E629.23178
G1 X105.800 Y90.371 E629.66565
G1 X109.629 Y94.200 E631.01932
G1 X109.629 Y92.465 E631.45320
G1 X107.535 Y90.371 E632.19328
G1 X109.271 Y90.371 E632.62716
G1 X109.629 Y90.729 E632.75365
G1 Z3.200 F7800.000
G1 X109.271 Y109.629 F7800.000
G1 X109.629 Y109.271 E632.88014 F4061.260
G1 X109.629 Y107.535 E633.31401
G1 X107.535 Y109.629 E634.05409
G1 X105.800 Y109.629 E634.48797
G1 X109.629 Y105.800 E635.84164
G1 X109.629 Y104.064 E636.27552
G1 X104.064 Y109.629 E638.24278
G1 X102.329 Y109.629 E638.67666
G1 X109.629 Y102.329 E641.25751
G1 X109.629 Y100.593 E641.69139
G1 X100.593 Y109.629 E644.88584
G1 X98.858 Y109.629 E645.31972
G1 X109.629 Y98.858 E649.12776
G1 X109.629 Y97.122 E649.56163
G1 X97.122 Y109.629 E653.98327
G1 X95.387 Y109.629 E654.41714
G1 X109.629 Y95.387 E659.45237
G1 X109.629 Y93.651 E659.88625
G1 X93.651 Y109.629 E665.53507
G1 X91.916 Y109.629 E665.96894
G1 X109.629 Y91.916 E672.23135
G1 X109.438 Y90.371 E672.62045
G1 X90.371 Y109.438 E679.36151
G1 X90.371 Y107.702 E679.79538
G1 X107.702 Y90.371 E685.92284
G1 X105.967 Y90.371 E686.35672
G1 X90.371 Y105.967 E691.87059
G1 X90.371 Y104.231 E692.30446
G1 X104.231 Y90.371 E697.20474
G1 X102.496 Y90.371 E697.63861
G1 X90.371 Y102.496 E701.92530
G1 X90.371 Y100.760 E702.35917
G1 X100.760 Y90.371 E706.03227
G1 X99.025 Y90.371 E706.46614
G1 X90.371 Y99.025 E709.52564
G1 X90.371 Y97.289 E709.95952
G1 X97.289 Y90.371 E712.40542
G1 X95.554 Y90.371 E712.83930
G1 X90.371 Y95.554 E714.67161
G1 X90.371 Y93.818 E715.10549
G1 X93.818 Y90.371 E716.32421
G1 X92.083 Y90.371 E716.75809
G1 X90.371 Y92.083 E717.36322
G1 Z3.600 F7800.000
G1 X92.083 Y109.629 F7800.000
G1 X90.371 Y107.917 E717.96835 F4061.260
G1 X90.371 Y106.182 E718.40222
G1 X93.818 Y109.629 E719.62094
G1 X95.554 Y109.629 E720.05482
G1 X90.371 Y104.446 E721.88714
G1 X90.371 Y102.711 E722.32101
G1 X97.289 Y109.629 E724.76692
G1 X99.025 Y109.629 E725.20079
G1 X90.371 Y100.975 E728.26029
G1 X90.371 Y99.240 E728.69417
G1 X100.760 Y109.629 E732.36726
G1 X102.496 Y109.629 E732.80113
G1 X90.371 Y97.504 E737.08782
G1 X90.371 Y95.769 E737.52169
G1 X104.231 Y109.629 E742.42197
G1 X105.967 Y109.629 E742.85584
G1 X90.371 Y94.033 E748.36971
G1 X90.371 Y92.298 E748.80359
G1 X107.702 Y109.629 E754.93105
G1 X109.438 Y109.629 E755.36492
G1 X90.371 Y90.562 E762.10598
G1 X91.916 Y90.371 E762.49508
G1 X109.629 Y108.084 E768.75749
G1 X109.629 Y106.349 E769.19136
G1 X93.651 Y90.371 E774.84018
G1 X95.387 Y90.371 E775.27406
G1 X109.629 Y104.613 E780.30929
G1 X109.629 Y102.878 E780.74316
G1 X97.122 Y90.371 E785.16480
G1 X98.858 Y90.371 E785.59867
G1 X109.629 Y101.142 E789.40672
G1 X109.629 Y99.407 E789.84059
G1 X100.593 Y90.371 E793.03504
G1 X102.329 Y90.371 E793.46892
G1 X109.629 Y97.671 E796.04978
G1 X109.629 Y95.936 E796.48365
G1 X104.064 Y90.371 E798.45092
G1 X105.800 Y90.371 E798.88479
G1 X109.629 Y94.200 E800.23847
G1 X109.629 Y92.465 E800.67234
G1 X107.535 Y90.371 E801.41242
G1 X109.271 Y90.371 E801.84630
G1 X109.629 Y90.729 E801.97279
G1 Z4.000 F7800.000
G1 X109.271 Y109.629 F7800.000
G1 X109.629 Y109.271 E802.09928 F4061.260
G1 X109.629 Y107.535 E802.53315
G1 X107.535 Y109.629 E803.27323
G1 X105.800 Y109.629 E803.70711
G1 X109.629 Y105.800 E805.06078
G1 X109.629 Y104.064 E805.49466
G1 X104.064 Y109.629 E807.46192
G1 X102.329 Y109.629 E807.89580
G1 X109.629 Y102.329 E810.47666
G1 X109.629 Y100.593 E810.91053
G1 X100.593 Y109.629 E814.10498
G1 X98.858 Y109.629 E814.53886
G1 X109.629 Y98.858 E818.34690
G1 X109.629 Y97.122 E818.78078
G1 X97.122 Y109.629 E823.20241
G1 X95.387 Y109.629 E823.63629
G1 X109.629 Y95.387 E828.67151
G1 X109.629 Y93.651 E829.10539
G1 X93.651 Y109.629 E834.75421
G1 X91.916 Y109.629 E835.18808
G1 X109.629 Y91.916 E841.45049
G1 X109.438 Y90.371 E841.83959
G1 X90.371 Y109.438 E848.58065
G1 X90.371 Y107.702 E849.01452
G1 X107.702 Y90.371 E855.14198
G1 X105.967 Y90.371 E855.57586
G1 X90.371 Y105.967 E861.08973
G1 X90.371 Y104.231 E861.52360
G1 X104.231 Y90.371 E866.42388
G1 X102.496 Y90.371 E866.85776
G1 X90.371 Y102.496 E871.14444
G1 X90.371 Y100.760 E871.57832
G1 X100.760 Y90.371 E875.25141
G1 X99.025 Y90.371 E875.68528
G1 X90.371 Y99.025 E878.74478
G1 X90.371 Y97.289 E879.17866
G1 X97.289 Y90.371 E881.62457
G1 X95.554 Y90.371 E882.05844
G1 X90.371 Y95.554 E883.89076
G1 X90.371 Y93.818 E884.32463
G1 X93.818 Y90.371 E885.54335
G1 X92.083 Y90.371 E885.97723
G1 X90.371 Y92.083 E886.58236
G1 Z4.400 F7800.000
G1 X92.083 Y109.629 F7800.000
G1 X90.371 Y107.917 E887.18749 F4061.260
G1 X90.371 Y106.182 E887.62136
G1 X93.818 Y109.629 E888.84009
G1 X95.554 Y109.629 E889.27396
G1 X90.371 Y104.446 E891.10628
G1 X90.371 Y102.711 E891.54015
G1 X97.289 Y109.629 E893.98606
G1 X99.025 Y109.629 E894.41993
G1 X90.371 Y100.975 E897.47943
G1 X90.371 Y99.240 E897.91331
G1 X100.760 Y109.629 E901.58640
G1 X102.496 Y109.629 E902.02028
G1 X90.371 Y97.504 E906.30696
G1 X90.371 Y95.769 E906.74084
G1 X104.231 Y109.629 E911.64111
G1 X105.967 Y109.629 E912.07499
G1 X90.371 Y94.033 E917.58885
G1 X90.371 Y92.298 E918.02273
G1 X107.702 Y109.629 E924.15019
G1 X109.438 Y109.629 E924.58407
G1 X90.371 Y90.562 E931.32512
G1 X91.916 Y90.371 E931.71422
G1 X109.629 Y108.084 E937.97663
G1 X109.629 Y106.349 E938.41051
G1 X93.651 Y90.371 E944.05933
G1 X95.387 Y90.371 E944.49320
G1 X109.629 Y104.613 E949.52843
G1 X109.629 Y102.878 E949.96230
G1 X97.122 Y90.371 E954.38394
G1 X98.858 Y90.371 E954.81781
G1 X109.629 Y101.142 E958.62586
G1 X109.629 Y99.407 E959.05973
G1 X100.593 Y90.371 E962.25418
G1 X102.329 Y90.371 E962.68806
G1 X109.629 Y97.671 E965.26892
G1 X109.629 Y95.936 E965.70279
G1 X104.064 Y90.371 E967.67006
G1 X105.800 Y90.371 E968.10393
G1 X109.629 Y94.200 E969.45761
G1 X109.629 Y92.465 E969.89148
G1 X107.535 Y90.371 E970.63157
G1 X109.271 Y90.371 E971.06544
G1 X109.629 Y90.729 E971.19193
G1 Z4.800 F7800.000
G1 X109.271 Y109.629 F7800.000
G1 X109.629 Y109.271 E971.31842 F4061.260
G1 X109.629 Y107.535 E971.75229
G1 X107.535 Y109.629 E972.49238
G1 X105.800 Y109.629 E972.92625
G1 X109.629 Y105.800 E974.27993
G1 X109.629 Y104.064 E974.71380
G1 X104.064 Y109.629 E976.68107
G1 X102.329 Y109.629 E977.11494
G1 X109.629 Y102.329 E979.69580
G1 X109.629 Y100.593 E980.12967
G1 X100.593 Y109.629 E983.32413
G1 X98.858 Y109.629 E983.75800
G1 X109.629 Y98.858 E987.56604
G1 X109.629 Y97.122 E987.99992
G1 X97.122 Y109.629 E992.42155
G1 X95.387 Y109.629 E992.85543
G1 X109.629 Y95.387 E997.89065
G1 X109.629 Y93.651 E998.32453
G1 X93.651 Y109.629 E1003.97335
G1 X91.916 Y109.629 E1004.40722
G1 X109.629 Y91.916 E1010.66964
G1 X109.438 Y90.371 E1011.05874
G1 X90.371 Y109.438 E1017.79979
G1 X90.371 Y107.702 E1018.23366
G1 X107.702 Y90.371 E1024.36113
G1 X105.967 Y90.371 E1024.79500
G1 X90.371 Y105.967 E1030.30887
G1 X90.371 Y104.231 E1030.74275
G1 X104.231 Y90.371 E1035.64302
G1 X102.496 Y90.371 E1036.07690
G1 X90.371 Y102.496 E1040.36358
G1 X90.371 Y100.760 E1040.79746
G1 X100.760 Y90.371 E1044.47055
G1 X99.025 Y90.371 E1044.90442
G1 X90.371 Y99.025 E1047.96392
G1 X90.371 Y97.289 E1048.39780
G1 X97.289 Y90.371 E1050.84371
G1 X95.554 Y90.371 E1051.27758
G1 X90.371 Y95.554 E1053.10990
G1 X90.371 Y93.818 E1053.54377
G1 X93.818 Y90.371 E1054.76250
G1 X92.083 Y90.371 E1055.19637
G1 X90.371 Y92.083 E1055.80150
G1 Z5.200 F7800.000
G1 X92.083 Y109.629 F7800.000
G1 X90.371 Y107.917 E1056.40663 F4061.260
G1 X90.371 Y106.182 E1056.84051
G1 X93.818 Y109.629 E1058.05923
G1 X95.554 Y109.629 E1058.49310
G1 X90.371 Y104.446 E1060.32542
G1 X90.371 Y102.711 E1060.75929
G1 X97.289 Y109.629 E1063.20520
G1 X99.025 Y109.629 E1063.63908
G1 X90.371 Y100.975 E1066.69858
G1 X90.371 Y99.240 E1067.13245
G1 X100.760 Y109.629 E1070.80554
G1 X102.496 Y109.629 E1071.23942
G1 X90.371 Y97.504 E1075.52610
G1 X90.371 Y95.769 E1075.95998
G1 X104.231 Y109.629 E1080.86025
G1 X105.967 Y109.629 E1081.29413
G1 X90.371 Y94.033 E1086.80800
G1 X90.371 Y92.298 E1087.24187
G1 X107.702 Y109.629 E1093.36933
G1 X109.438 Y109.629 E1093.80321
G1 X90.371 Y90.562 E1100.54426
G1 X91.916 Y90.371 E1100.93336
G1 X109.629 Y108.084 E1107.19577
G1 X109.629 Y106.349 E1107.62965
G1 X93.651 Y90.371 E1113.27847
G1 X95.387 Y90.371 E1113.71234
G1 X109.629 Y104.613 E1118.74757
G1 X109.629 Y102.878 E1119.18145
G1 X97.122 Y90.371 E1123.60308
G1 X98.858 Y90.371 E1124.03696
G1 X109.629 Y101.142 E1127.84500
G1 X109.629 Y99.407 E1128.27887
G1 X100.593 Y90.371 E1131.47333
G1 X102.329 Y90.371 E1131.90720
G1 X109.629 Y97.671 E1134.48806
G1 X109.629 Y95.936 E1134.92194
G1 X104.064 Y90.371 E1136.88920
G1 X105.800 Y90.371 E1137.32308
G1 X109.629 Y94.200 E1138.67675
G1 X109.629 Y92.465 E1139.11063
G1 X107.535 Y90.371 E1139.85071
G1 X109.271 Y90.371 E1140.28458
G1 X109.629 Y90.729 E1140.41107
G1 Z5.600 F7800.000
G1 X109.271 Y109.629 F7800.000
G1 X109.629 Y109.271 E1140.53756 F4061.260
G1 X109.629 Y107.535 E1140.97144
G1 X107.535 Y109.629 E1141.71152
G1 X105.800 Y109.629 E1142.14539
G1 X109.629 Y105.800 E1143.49907
G1 X109.629 Y104.064 E1143.93294
G1 X104.064 Y109.629 E1145.90021
G1 X102.329 Y109.629 E1146.33408
G1 X109.629 Y102.329 E1148.91494
G1 X109.629 Y100.593 E1149.34882
G1 X100.593 Y109.629 E1152.54327
G1 X98.858 Y109.629 E1152.97714
G1 X109.629 Y98.858 E1156.78518
G1 X109.629 Y97.122 E1157.21906
G1 X97.122 Y109.629 E1161.64069
G1 X95.387 Y109.629 E1162.07457
G1 X109.629 Y95.387 E1167.10980
G1 X109.629 Y93.651 E1167.54367
G1 X93.651 Y109.629 E1173.19249
G1 X91.916 Y109.629 E1173.62637
G1 X109.629 Y91.916 E1179.88878
G1 X109.438 Y90.371 E1180.27788
G1 X90.371 Y109.438 E1187.01893
G1 X90.371 Y107.702 E1187.45281
G1 X107.702 Y90.371 E1193.58027
G1 X105.967 Y90.371 E1194.01414
G1 X90.371 Y105.967 E1199.52801
G1 X90.371 Y104.231 E1199.96189
G1 X104.231 Y90.371 E1204.86216
G1 X102.496 Y90.371 E1205.29604
G1 X90.371 Y102.496 E1209.58272
G1 X90.371 Y100.760 E1210.01660
G1 X100.760 Y90.371 E1213.68969
G1 X99.025 Y90.371 E1214.12357
G1 X90.371 Y99.025 E1217.18307
G1 X90.371 Y97.289 E1217.61694
G1 X97.289 Y90.371 E1220.06285
G1 X95.554 Y90.371 E1220.49672
G1 X90.371 Y95.554 E1222.32904
G1 X90.371 Y93.818 E1222.76292
G1 X93.818 Y90.371 E1223.98164
G1 X92.083 Y90.371 E1224.41551
G1 X90.371 Y92.083 E1225.02064
G1 Z6.000 F7800.000
G1 X92.083 Y109.629 F7800.000
G1 X90.371 Y107.917 E1225.62577 F4061.260
G1 X90.371 Y106.182 E1226.05965
G1 X93.818 Y109.629 E1227.27837
G1 X95.554 Y109.629 E1227.71225
G1 X90.371 Y104.446 E1229.54456
G1 X90.371 Y102.711 E1229.97844
G1 X97.289 Y109.629 E1232.42434
G1 X99.025 Y109.629 E1232.85822
G1 X90.371 Y100.975 E1235.91772
G1 X90.371 Y99.240 E1236.35159
G1 X100.760 Y109.629 E1240.02469
G1 X102.496 Y109.629 E1240.45856
G1 X90.371 Y97.504 E1244.74524
G1 X90.371 Y95.769 E1245.17912
G1 X104.231 Y109.629 E1250.07940
G1 X105.967 Y109.629 E1250.51327
G1 X90.371 Y94.033 E1256.02714
G1 X90.371 Y92.298 E1256.46101
G1 X107.702 Y109.629 E1262.58848
G1 X109.438 Y109.629 E1263.02235
G1 X90.371 Y90.562 E1269.76340
G1 X91.916 Y90.371 E1270.15250
G1 X109.629 Y108.084 E1276.41492
G1 X109.629 Y106.349 E1276.84879
G1 X93.651 Y90.371 E1282.49761
G1 X95.387 Y90.371 E1282.93149
G1 X109.629 Y104.613 E1287.96671
G1 X109.629 Y102.878 E1288.40059
G1 X97.122 Y90.371 E1292.82222
G1 X98.858 Y90.371 E1293.25610
G1 X109.629 Y101.142 E1297.06414
G1 X109.629 Y99.407 E1297.49802
G1 X100.593 Y90.371 E1300.69247
G1 X102.329 Y90.371 E1301.12634
G1 X109.629 Y97.671 E1303.70720
G1 X109.629 Y95.936 E1304.14108
G1 X104.064 Y90.371 E1306.10834
G1 X105.800 Y90.371 E1306.54222
G1 X109.629 Y94.200 E1307.89589
G1 X109.629 Y92.465 E1308.32977
G1 X107.535 Y90.371 E1309.06985
G1 X109.271 Y90.371 E1309.50373
G1 X109.629 Y90.729 E1309.63022
G1 Z6.400 F7800.000
G1 X109.271 Y109.629 F7800.000
G1 X109.629 Y109.271 E1309.75670 F4061.260
G1 X109.629 Y107.535 E1310.19058
G1 X107.535 Y109.629 E1310.93066
G1 X105.800 Y109.629 E1311.36454
G1 X109.629 Y105.800 E1312.71821
G1 X109.629 Y104.064 E1313.15208
G1 X104.064 Y109.629 E1315.11935
G1 X102.329 Y109.629 E1315.55323
G1 X109.629 Y102.329 E1318.13408
G1 X109.629 Y100.593 E1318.56796
G1 X100.593 Y109.629 E1321.76241
G1 X98.858 Y109.629 E1322.19628
G1 X109.629 Y98.858 E1326.00433
G1 X109.629 Y97.122 E1326.43820
G1 X97.122 Y109.629 E1330.85984
G1 X95.387 Y109.629 E1331.29371
G1 X109.629 Y95.387 E1336.32894
G1 X109.629 Y93.651 E1336.76281
G1 X93.651 Y109.629 E1342.41163
G1 X91.916 Y109.629 E1342.84551
G1 X109.629 Y91.916 E1349.10792
G1 X109.438 Y90.371 E1349.49702
G1 X90.371 Y109.438 E1356.23807
G1 X90.371 Y107.702 E1356.67195
G1 X107.702 Y90.371 E1362.79941
G1 X105.967 Y90.371 E1363.23329
G1 X90.371 Y105.967 E1368.74715
G1 X90.371 Y104.231 E1369.18103
G1 X104.231 Y90.371 E1374.08131
G1 X102.496 Y90.371 E1374.51518
G1 X90.371 Y102.496 E1378.80187
G1 X90.371 Y100.760 E1379.23574
G1 X100.760 Y90.371 E1382.90883
G1 X99.025 Y90.371 E1383.34271
G1 X90.371 Y99.025 E1386.40221
G1 X90.371 Y97.289 E1386.83608
G1 X97.289 Y90.371 E1389.28199
G1 X95.554 Y90.371 E1389.71587
G1 X90.371 Y95.554 E1391.54818
G1 X90.371 Y93.818 E1391.98206
G1 X93.818 Y90.371 E1393.20078
G1 X92.083 Y90.371 E1393.63466
G1 X90.371 Y92.083 E1394.23979
G1 Z6.800 F7800.000
G1 X92.083 Y109.629 F7800.000
G1 X90.371 Y107.917 E1394.84492 F4061.260
G1 X90.371 Y106.182 E1395.27879
G1 X93.818 Y109.629 E1396.49751
G1 X95.554 Y109.629 E1396.93139
G1 X90.371 Y104.446 E1398.76370
G1 X90.371 Y102.711 E1399.19758
G1 X97.289 Y109.629 E1401.64349
G1 X99.025 Y109.629 E1402.07736
G1 X90.371 Y100.975 E1405.13686
G1 X90.371 Y99.240 E1405.57074
G1 X100.760 Y109.629 E1409.24383
G1 X102.496 Y109.629 E1409.67770
G1 X90.371 Y97.504 E1413.96439
G1 X90.371 Y95.769 E1414.39826
G1 X104.231 Y109.629 E1419.29854
G1 X105.967 Y109.629 E1419.73241
G1 X90.371 Y94.033 E1425.24628
G1 X90.371 Y92.298 E1425.68016
G1 X107.702 Y109.629 E1431.80762
G1 X109.438 Y109.629 E1432.24149
G1 X90.371 Y90.562 E1438.98255
G1 X91.916 Y90.371 E1439.37165
G1 X109.629 Y108.084 E1445.63406
G1 X109.629 Y106.349 E1446.06793
G1 X93.651 Y90.371 E1451.71675
G1 X95.387 Y90.371 E1452.15063
G1 X109.629 Y104.613 E1457.18586
G1 X109.629 Y102.878 E1457.61973
G1 X97.122 Y90.371 E1462.04137
G1 X98.858 Y90.371 E1462.47524
G1 X109.629 Y101.142 E1466.28328
G1 X109.629 Y99.407 E1466.71716
G1 X100.593 Y90.371 E1469.91161
G1 X102.329 Y90.371 E1470.34549
G1 X109.629 Y97.671 E1472.92634
G1 X109.629 Y95.936 E1473.36022
G1 X104.064 Y90.371 E1475.32749
G1 X105.800 Y90.371 E1475.76136
G1 X109.629 Y94.200 E1477.11504
G1 X109.629 Y92.465 E1477.54891
G1 X107.535 Y90.371 E1478.28899
G1 X109.271 Y90.371 E1478.72287
G1 X109.629 Y90.729 E1478.84936
G1 Z7.200 F7800.000
G1 X109.271 Y109.629 F7800.000
G1 X109.629 Y109.271 E1478.97585 F4061.260
G1 X109.629 Y107.535 E1479.40972
G1 X107.535 Y109.629 E1480.14980
G1 X105.800 Y109.629 E1480.58368
G1 X109.629 Y105.800 E1481.93735
G1 X109.629 Y104.064 E1482.37123
G1 X104.064 Y109.629 E1484.33849
G1 X102.329 Y109.629 E1484.77237
G1 X109.629 Y102.329 E1487.35323
G1 X109.629 Y100.593 E1487.78710
G1 X100.593 Y109.629 E1490.98155
G1 X98.858 Y109.629 E1491.41543
G1 X109.629 Y98.858 E1495.22347
G1 X109.629 Y97.122 E1495.65734
G1 X97.122 Y109.629 E1500.07898
G1 X95.387 Y109.629 E1500.51285
G1 X109.629 Y95.387 E1505.54808
G1 X109.629 Y93.651 E1505.98196
G1 X93.651 Y109.629 E1511.63078
G1 X91.916 Y109.629 E1512.06465
G1 X109.629 Y91.916 E1518.32706
G1 X109.438 Y90.371 E1518.71616
G1 X90.371 Y109.438 E1525.45722
G1 X90.371 Y107.702 E1525.89109
G1 X107.702 Y90.371 E1532.01855
G1 X105.967 Y90.371 E1532.45243
G1 X90.371 Y105.967 E1537.96630
G1 X90.371 Y104.231 E1538.40017
G1 X104.231 Y90.371 E1543.30045
G1 X102.496 Y90.371 E1543.73432
G1 X90.371 Y102.496 E1548.02101
G1 X90.371 Y100.760 E1548.45488
G1 X100.760 Y90.371 E1552.12798
G1 X99.025 Y90.371 E1552.56185
G1 X90.371 Y99.025 E1555.62135
G1 X90.371 Y97.289 E1556.05523
G1 X97.289 Y90.371 E1558.50113
G1 X95.554 Y90.371 E1558.93501
G1 X90.371 Y95.554 E1560.76732
G1 X90.371 Y93.818 E1561.20120
G1 X93.818 Y90.371 E1562.41992
G1 X92.083 Y90.371 E1562.85380
G1 X90.371 Y92.083 E1563.45893
G1 Z7.600 F7800.000
G1 X92.083 Y109.629 F7800.000
G1 X90.371 Y107.917 E1564.06406 F4061.260
G1 X90.371 Y106.182 E1564.49793
G1 X93.818 Y109.629 E1565.71666
G1 X95.554 Y109.629 E1566.15053
G1 X90.371 Y104.446 E1567.98285
G1 X90.371 Y102.711 E1568.41672
G1 X97.289 Y109.629 E1570.86263
G1 X99.025 Y109.629 E1571.29650
G1 X90.371 Y100.975 E1574.35600
G1 X90.371 Y99.240 E1574.78988
G1 X100.760 Y109.629 E1578.46297
G1 X102.496 Y109.629 E1578.89684
G1 X90.371 Y97.504 E1583.18353
G1 X90.371 Y95.769 E1583.61740
G1 X104.231 Y109.629 E1588.51768
G1 X105.967 Y109.629 E1588.95156
G1 X90.371 Y94.033 E1594.46542
G1 X90.371 Y92.298 E1594.89930
G1 X107.702 Y109.629 E1601.02676
G1 X109.438 Y109.629 E1601.46064
G1 X90.371 Y90.562 E1608.20169
G1 X91.916 Y90.371 E1608.59079
G1 X109.629 Y108.084 E1614.85320
G1 X109.629 Y106.349 E1615.28708
G1 X93.651 Y90.371 E1620.93589
G1 X95.387 Y90.371 E1621.36977
G1 X109.629 Y104.613 E1626.40500
G1 X109.629 Y102.878 E1626.83887
G1 X97.122 Y90.371 E1631.26051
G1 X98.858 Y90.371 E1631.69438
G1 X109.629 Y101.142 E1635.50243
G1 X109.629 Y99.407 E1635.93630
G1 X100.593 Y90.371 E1639.13075
G1 X102.329 Y90.371 E1639.56463
G1 X109.629 Y97.671 E1642.14549
G1 X109.629 Y95.936 E1642.57936
G1 X104.064 Y90.371 E1644.54663
G1 X105.800 Y90.371 E1644.98050
G1 X109.629 Y94.200 E1646.33418
G1 X109.629 Y92.465 E1646.76805
G1 X107.535 Y90.371 E1647.50813
G1 X109.271 Y90.371 E1647.94201
G1 X109.629 Y90.729 E1648.06850
G1 Z8.000 F7800.000
G1 X109.271 Y109.629 F7800.000
G1 X109.629 Y109.271 E1648.19499 F4061.260
G1 X109.629 Y107.535 E1648.62886
G1 X107.535 Y109.629 E1649.36894
G1 X105.800 Y109.629 E1649.80282
G1 X109.629 Y105.800 E1651.15649
G1 X109.629 Y104.064 E1651.59037
G1 X104.064 Y109.629 E1653.55763
G1 X102.329 Y109.629 E1653.99151
G1 X109.629 Y102.329 E1656.57237
G1 X109.629 Y100.593 E1657.00624
G1 X100.593 Y109.629 E1660.20069
G1 X98.858 Y109.629 E1660.63457
G1 X109.629 Y98.858 E1664.44261
G1 X109.629 Y97.122 E1664.87649
G1 X97.122 Y109.629 E1669.29812
G1 X95.387 Y109.629 E1669.73200
G1 X109.629 Y95.387 E1674.76722
G1 X109.629 Y93.651 E1675.20110
G1 X93.651 Y109.629 E1680.84992
G1 X91.916 Y109.629 E1681.28379
G1 X109.629 Y91.916 E1687.54621
G1 X109.438 Y90.371 E1687.93530
G1 X90.371 Y109.438 E1694.67636
G1 X90.371 Y107.702 E1695.11023
G1 X107.702 Y90.371 E1701.23769
G1 X105.967 Y90.371 E1701.67157
G1 X90.371 Y105.967 E1707.18544
G1 X90.371 Y104.231 E1707.61931
G1 X104.231 Y90.371 E1712.51959
G1 X102.496 Y90.371 E1712.95347
G1 X90.371 Y102.496 E1717.24015
G1 X90.371 Y100.760 E1717.67403
G1 X100.760 Y90.371 E1721.34712
G1 X99.025 Y90.371 E1721.78099
G1 X90.371 Y99.025 E1724.84049
G1 X90.371 Y97.289 E1725.27437
G1 X97.289 Y90.371 E1727.72028
G1 X95.554 Y90.371 E1728.15415
G1 X90.371 Y95.554 E1729.98647
G1 X90.371 Y93.818 E1730.42034
G1 X93.818 Y90.371 E1731.63906
G1 X92.083 Y90.371 E1732.07294
G1 X90.371 Y92.083 E1732.67807
G1 Z8.400 F7800.000
G1 X92.083 Y109.629 F7800.000
G1 X90.371 Y107.917 E1733.28320 F4061.260
G1 X90.371 Y106.182 E1733.71708
G1 X93.818 Y109.629 E1734.93580
G1 X95.554 Y109.629 E1735.36967
G1 X90.371 Y104.446 E1737.20199
G1 X90.371 Y102.711 E1737.63586
G1 X97.289 Y109.629 E1740.08177
G1 X99.025 Y109.629 E1740.51565
G1 X90.371 Y100.975 E1743.57514
G1 X90.371 Y99.240 E1744.00902
G1 X100.760 Y109.629 E1747.68211
G1 X102.496 Y109.629 E1748.11599
G1 X90.371 Y97.504 E1752.40267
G1 X90.371 Y95.769 E1752.83655
G1 X104.231 Y109.629 E1757.73682
G1 X105.967 Y109.629 E1758.17070
G1 X90.371 Y94.033 E1763.68457
G1 X90.371 Y92.298 E1764.11844
G1 X107.702 Y109.629 E1770.24590
G1 X109.438 Y109.629 E1770.67978
G1 X90.371 Y90.562 E1777.42083
G1 X91.916 Y90.371 E1777.80993
G1 X109.629 Y108.084 E1784.07234
G1 X109.629 Y106.349 E1784.50622
G1 X93.651 Y90.371 E1790.15504
G1 X95.387 Y90.371 E1790.58891
G1 X109.629 Y104.613 E1795.62414
G1 X109.629 Y102.878 E1796.05801
G1 X97.122 Y90.371 E1800.47965
G1 X98.858 Y90.371 E1800.91353
G1 X109.629 Y101.142 E1804.72157
G1 X109.629 Y99.407 E1805.15544
G1 X100.593 Y90.371 E1808.34989
G1 X102.329 Y90.371 E1808.78377
G1 X109.629 Y97.671 E1811.36463
G1 X109.629 Y95.936 E1811.79850
G1 X104.064 Y90.371 E1813.76577
G1 X105.800 Y90.371 E1814.19965
G1 X109.629 Y94.200 E1815.55332
G1 X109.629 Y92.465 E1815.98720
G1 X107.535 Y90.371 E1816.72728
G1 X109.271 Y90.371 E1817.16115
G1 X109.629 Y90.729 E1817.28764
G1 Z8.800 F7800.000
G1 X109.271 Y109.629 F7800.000
G1 X109.629 Y109.271 E1817.41413 F4061.260
G1 X109.629 Y107.535 E1817.84801
G1 X107.535 Y109.629 E1818.58809
G1 X105.800 Y109.629 E1819.02196
G1 X109.629 Y105.800 E1820.37564
G1 X109.629 Y104.064 E1820.80951
G1 X104.064 Y109.629 E1822.77678
G1 X102.329 Y109.629 E1823.21065
G1 X109.629 Y102.329 E1825.79151
G1 X109.629 Y100.593 E1826.22539
G1 X100.593 Y109.629 E1829.41984
G1 X98.858 Y109.629 E1829.85371
G1 X109.629 Y98.858 E1833.66175
G1 X109.629 Y97.122 E1834.09563
G1 X97.122 Y109.629 E1838.51726
G1 X95.387 Y109.629 E1838.95114
G1 X109.629 Y95.387 E1843.98637
G1 X109.629 Y93.651 E1844.42024
G1 X93.651 Y109.629 E1850.06906
G1 X91.916 Y109.629 E1850.50294
G1 X109.629 Y91.916 E1856.76535
G1 X109.438 Y90.371 E1857.15445
G1 X90.371 Y109.438 E1863.89550
G1 X90.371 Y107.702 E1864.32938
G1 X107.702 Y90.371 E1870.45684
G1 X105.967 Y90.371 E1870.89071
G1 X90.371 Y105.967 E1876.40458
G1 X90.371 Y104.231 E1876.83846
G1 X104.231 Y90.371 E1881.73873
G1 X102.496 Y90.371 E1882.17261
G1 X90.371 Y102.496 E1886.45929
G1 X90.371 Y100.760 E1886.89317
G1 X100.760 Y90.371 E1890.56626
G1 X99.025 Y90.371 E1891.00014
G1 X90.371 Y99.025 E1894.05964
G1 X90.371 Y97.289 E1894.49351
G1 X97.289 Y90.371 E1896.93942
G1 X95.554 Y90.371 E1897.37329
G1 X90.371 Y95.554 E1899.20561
G1 X90.371 Y93.818 E1899.63948
G1 X93.818 Y90.371 E1900.85821
G1 X92.083 Y90.371 E1901.29208
G1 X90.371 Y92.083 E1901.89721
G1 Z9.200 F7800.000
G1 X92.083 Y109.629 F7800.000
G1 X90.371 Y107.917 E1902.50234 F4061.260
G1 X90.371 Y106.182 E1902.93622
G1 X93.818 Y109.629 E1904.15494
G1 X95.554 Y109.629 E1904.58882
G1 X90.371 Y104.446 E1906.42113
G1 X90.371 Y102.711 E1906.85501
G1 X97.289 Y109.629 E1909.30091
G1 X99.025 Y109.629 E1909.73479
G1 X90.371 Y100.975 E1912.79429
G1 X90.371 Y99.240 E1913.22816
G1 X100.760 Y109.629 E1916.90125
G1 X102.496 Y109.629 E1917.33513
G1 X90.371 Y97.504 E1921.62181
G1 X90.371 Y95.769 E1922.05569
G1 X104.231 Y109.629 E1926.95596
G1 X105.967 Y109.629 E1927.38984
G1 X90.371 Y94.033 E1932.90371
G1 X90.371 Y92.298 E1933.33758
G1 X107.702 Y109.629 E1939.46504
G1 X109.438 Y109.629 E1939.89892
G1 X90.371 Y90.562 E1946.63997
G1 X91.916 Y90.371 E1947.02907
G1 X109.629 Y108.084 E1953.29148
G1 X109.629 Y106.349 E1953.72536
G1 X93.651 Y90.371 E1959.37418
G1 X95.387 Y90.371 E1959.80805
G1 X109.629 Y104.613 E1964.84328
G1 X109.629 Y102.878 E1965.27716
G1 X97.122 Y90.371 E1969.69879
G1 X98.858 Y90.371 E1970.13267
G1 X109.629 Y101.142 E1973.94071
G1 X109.629 Y99.407 E1974.37459
G1 X100.593 Y90.371 E1977.56904
G1 X102.329 Y90.371 E1978.00291
G1 X109.629 Y97.671 E1980.58377
G1 X109.629 Y95.936 E1981.01765
G1 X104.064 Y90.371 E1982.98491
G1 X105.800 Y90.371 E1983.41879
G1 X109.629 Y94.200 E1984.77246
G1 X109.629 Y92.465 E1985.20634
G1 X107.535 Y90.371 E1985.94642
G1 X109.271 Y90.371 E1986.38029
G1 X109.629 Y90.729 E1986.50678
G1 Z9.600 F7800.000
G1 X109.271 Y109.629 F7800.000
G1 X109.629 Y109.271 E1986.63327 F4061.260
G1 X109.629 Y107.535 E1987.06715
G1 X107.535 Y109.629 E1987.80723
G1 X105.800 Y109.629 E1988.24110
G1 X109.629 Y105.800 E1989.59478
G1 X109.629 Y104.064 E1990.02865
G1 X104.064 Y109.629 E1991.99592
G1 X102.329 Y109.629 E1992.42979
G1 X109.629 Y102.329 E1995.01065
G1 X109.629 Y100.593 E1995.44453
G1 X100.593 Y109.629 E1998.63898
G1 X98.858 Y109.629 E1999.07285
G1 X109.629 Y98.858 E2002.88090
G1 X109.629 Y97.122 E2003.31477
G1 X97.122 Y109.629 E2007.73641
G1 X95.387 Y109.629 E2008.17028
G1 X109.629 Y95.387 E2013.20551
G1 X109.629 Y93.651 E2013.63938
G1 X93.651 Y109.629 E2019.28820
G1 X91.916 Y109.629 E2019.72208
G1 X109.629 Y91.916 E2025.98449
G1 X109.438 Y90.371 E2026.37359
G1 X90.371 Y109.438 E2033.11464
G1 X90.371 Y107.702 E2033.54852
G1 X107.702 Y90.371 E2039.67598
G1 X105.967 Y90.371 E2040.10985
G1 X90.371 Y105.967 E2045.62372
G1 X90.371 Y104.231 E2046.05760
G1 X104.231 Y90.371 E2050.95788
G1 X102.496 Y90.371 E2051.39175
G1 X90.371 Y102.496 E2055.67844
G1 X90.371 Y100.760 E2056.11231
G1 X100.760 Y90.371 E2059.78540
G1 X99.025 Y90.371 E2060.21928
G1 X90.371 Y99.025 E2063.27878
G1 X90.371 Y97.289 E2063.71265
G1 X97.289 Y90.371 E2066.15856
G1 X95.554 Y90.371 E2066.59244
G1 X90.371 Y95.554 E2068.42475
G1 X90.371 Y93.818 E2068.85863
G1 X93.818 Y90.371 E2070.07735
G1 X92.083 Y90.371 E2070.51122
G1 X90.371 Y92.083 E2071.11635
G1 Z10.000 F7800.000
G1 X92.083 Y109.629 F7800.000
G1 X90.371 Y107.917 E2071.72148 F4061.260
G1 X90.371 Y106.182 E2072.15536
G1 X93.818 Y109.629 E2073.37408
G1 X95.554 Y109.629 E2073.80796
G1 X90.371 Y104.446 E2075.64027
G1 X90.371 Y102.711 E2076.07415
G1 X97.289 Y109.629 E2078.52005
G1 X99.025 Y109.629 E2078.95393
G1 X90.371 Y100.975 E2082.01343
G1 X90.371 Y99.240 E2082.44730
G1 X100.760 Y109.629 E2086.12040
G1 X102.496 Y109.629 E2086.55427
G1 X90.371 Y97.504 E2090.84095
G1 X90.371 Y95.769 E2091.27483
G1 X104.231 Y109.629 E2096.17511
G1 X105.967 Y109.629 E2096.60898
G1 X90.371 Y94.033 E2102.12285
G1 X90.371 Y92.298 E2102.55673
G1 X107.702 Y109.629 E2108.68419
G1 X109.438 Y109.629 E2109.11806
G1 X90.371 Y90.562 E2115.85912
G1 X91.916 Y90.371 E2116.24821
G1 X109.629 Y108.084 E2122.51063
G1 X109.629 Y106.349 E2122.94450
G1 X93.651 Y90.371 E2128.59332
G1 X95.387 Y90.371 E2129.02720
G1 X109.629 Y104.613 E2134.06242
G1 X109.629 Y102.878 E2134.49630
G1 X97.122 Y90.371 E2138.91793
G1 X98.858 Y90.371 E2139.35181
G1 X109.629 Y101.142 E2143.15985
G1 X109.629 Y99.407 E2143.59373
G1 X100.593 Y90.371 E2146.78818
G1 X102.329 Y90.371 E2147.22205
G1 X109.629 Y97.671 E2149.80291
G1 X109.629 Y95.936 E2150.23679
G1 X104.064 Y90.371 E2152.20406
G1 X105.800 Y90.371 E2152.63793
G1 X109.629 Y94.200 E2153.99160
G1 X109.629 Y92.465 E2154.42548
G1 X107.535 Y90.371 E2155.16556
G1 X109.271 Y90.371 E2155.59944
G1 X109.629 Y90.729 E2155.72593
G1 Z10.400 F7800.000
G1 E2153.72593 F2400.00000
G92 E0
G1 X109.271 Y109.629 F7800.000
G1 E2.00000 F2400.00000
G1 X109.629 Y109.271 E2.12649 F4061.260
G1 X109.629 Y107.535 E2.56036
G1 X107.535 Y109.629 E3.30045
G1 X105.800 Y109.629 E3.73432
G1 X109.629 Y105.800 E5.08799
G1 X109.629 Y104.064 E5.52187
G1 X104.064 Y109.629 E7.48913
G1 X102.329 Y109.629 E7.92301
G1 X109.629 Y102.329 E10.50387
G1 X109.629 Y100.593 E10.93774
G1 X100.593 Y109.629 E14.13219
G1 X98.858 Y109.629 E14.56607
G1 X109.629 Y98.858 E18.37411
G1 X109.629 Y97.122 E18.80799
G1 X97.122 Y109.629 E23.22962
G1 X95.387 Y109.629 E23.66350
G1 X109.629 Y95.387 E28.69872
G1 X109.629 Y93.651 E29.13260
G1 X93.651 Y109.629 E34.78142
G1 X91.916 Y109.629 E35.21529
G1 X109.629 Y91.916 E41.47771
G1 X109.438 Y90.371 E41.86680
G1 X90.371 Y109.438 E48.60786
G1 X90.371 Y107.702 E49.04173
G1 X107.702 Y90.371 E55.16920
G1 X105.967 Y90.371 E55.60307
G1 X90.371 Y105.967 E61.11694
G1 X90.371 Y104.231 E61.55081
G1 X104.231 Y90.371 E66.45109
G1 X102.496 Y90.371 E66.88497
G1 X90.371 Y102.496 E71.17165
G1 X90.371 Y100.760 E71.60553
G1 X100.760 Y90.371 E75.27862
G1 X99.025 Y90.371 E75.71249
G1 X90.371 Y99.025 E78.77199
G1 X90.371 Y97.289 E79.20587
G1 X97.289 Y90.371 E81.65178
G1 X95.554 Y90.371 E82.08565
G1 X90.371 Y95.554 E83.91797
G1 X90.371 Y93.818 E84.35184
G1 X93.818 Y90.371 E85.57057
G1 X92.083 Y90.371 E86.00444
G1 X90.371 Y92.083 E86.60957
G1 E84.60957 F2400.00000
G92 E0
M107
M104 S0 ; turn off temperature
G28 X0  ; home X axis
M84     ; disable motors

; filament used = 2238.3mm (1.8cm3)

; avoid_crossing_perimeters = 0
; bed_shape = 0x0,200x0,200x200,0x200
; bed_temperature = 0
; before_layer_gcode = 
; bridge_acceleration = 0
; bridge_fan_speed = 100
; brim_width = 0
; complete_objects = 0
; cooling = 1
; default_acceleration = 0
; disable_fan_first_layers = 3
; duplicate_distance = 6
; end_gcode = M104 S0 ; turn off temperature\nG28 X0  ; home X axis\nM84     ; disable motors\n
; extruder_clearance_height = 20
; extruder_clearance_radius = 20
; extruder_offset = 0x0
; extrusion_axis = E
; extrusion_multiplier = 1
; fan_always_on = 0
; fan_below_layer_time = 60
; filament_colour = #FFFFFF
; filament_diameter = 1
; first_layer_acceleration = 0
; first_layer_bed_temperature = 0
; first_layer_extrusion_width = 200%
; first_layer_speed = 30
; first_layer_temperature = 200
; gcode_arcs = 0
; gcode_comments = 0
; gcode_flavor = reprap
; infill_acceleration = 0
; infill_first = 0
; layer_gcode = 
; max_fan_speed = 100
; max_print_speed = 80
; max_volumetric_speed = 0
; min_fan_speed = 35
; min_print_speed = 10
; min_skirt_length = 0
; notes = 
; nozzle_diameter = 0.5
; only_retract_when_crossing_perimeters = 1
; ooze_prevention = 0
; output_filename_format = [input_filename_base].gcode
; perimeter_acceleration = 0
; post_process = 
; pressure_advance = 0
; resolution = 0
; retract_before_travel = 2
; retract_layer_change = 0
; retract_length = 2
; retract_length_toolchange = 10
; retract_lift = 0
; retract_restart_extra = 0
; retract_restart_extra_toolchange = 0
; retract_speed = 40
; skirt_distance = 6
; skirt_height = 1
; skirts = 0
; slowdown_below_layer_time = 5
; spiral_vase = 0
; standby_temperature_delta = -5
; start_gcode = G28 ; home all axes\nG1 Z5 F5000 ; lift nozzle\n
; temperature = 200
; threads = 2
; toolchange_gcode = 
; travel_speed = 130
; use_firmware_retraction = 0
; use_relative_e_distances = 0
; use_volumetric_e = 0
; vibration_limit = 0
; wipe = 0
; z_offset = 0
; dont_support_bridges = 1
; extrusion_width = 0
; first_layer_height = 0.4
; infill_only_where_needed = 0
; interface_shells = 0
; layer_height = 0.4
; raft_layers = 0
; seam_position = aligned
; support_material = 0
; support_material_angle = 0
; support_material_contact_distance = 0.2
; support_material_enforce_layers = 0
; support_material_extruder = 1
; support_material_extrusion_width = 0
; support_material_interface_extruder = 1
; support_material_interface_layers = 3
; support_material_interface_spacing = 0
; support_material_interface_speed = 100%
; support_material_pattern = pillars
; support_material_spacing = 2.5
; support_material_speed = 60
; support_material_threshold = 0
; xy_size_compensation = 0
; bottom_solid_layers = 0
; bridge_flow_ratio = 1
; bridge_speed = 60
; external_fill_pattern = rectilinear
; external_perimeter_extrusion_width = 0
; external_perimeter_speed = 50%
; external_perimeters_first = 0
; extra_perimeters = 1
; fill_angle = 45
; fill_density = 40%
; fill_pattern = rectilinear
; gap_fill_speed = 20
; infill_every_layers = 1
; infill_extruder = 1
; infill_extrusion_width = 0
; infill_overlap = 15%
; infill_speed = 80
; overhangs = 1
; perimeter_extruder = 1
; perimeter_extrusion_width = 0
; perimeter_speed = 60
; perimeters = 0
; small_perimeter_speed = 15
; solid_infill_below_area = 70
; solid_infill_every_layers = 0
; solid_infill_extruder = 1
; solid_infill_extrusion_width = 0
; solid_infill_speed = 20
; thin_walls = 1
; top_infill_extrusion_width = 0
; top_solid_infill_speed = 15
; top_solid_layers = 0
