; generated by Slic3r 1.3.0 on 2021-02-17 at 13:12:49

; external perimeters extrusion width = 0.55mm (5.57mm^3/s)
; perimeters extrusion width = 0.58mm (11.78mm^3/s)
; infill extrusion width = 0.58mm (15.71mm^3/s)
; solid infill extrusion width = 0.58mm (3.93mm^3/s)
; top infill extrusion width = 0.58mm (2.95mm^3/s)

M107
M104 S205 ; set temperature
G28 ; home all axes
G1 Z5 F5000 ; lift nozzle

; Filament gcode

M109 S205 ; set temperature and wait for it to be reached
G21 ; set units to millimeters
G90 ; use absolute coordinates
M82 ; use absolute distances for extrusion
G92 E0
G1 Z0.400 F7800.000
G1 E-2.00000 F2400.00000
G92 E0
G1 X90.875 Y90.261 F7800.000
G1 E2.00000 F2400.00000
G1 F1800
G1 X90.261 Y90.875 E2.03507
G1 X90.261 Y91.629 E2.06557
G1 X91.629 Y90.261 E2.14377
G1 X92.384 Y90.261 E2.17426
G1 X90.261 Y92.384 E2.29559
G1 X90.261 Y93.138 E2.32608
G1 X93.138 Y90.261 E2.49054
G1 X93.893 Y90.261 E2.52103
G1 X90.261 Y93.893 E2.72861
G1 X90.261 Y94.648 E2.75910
G1 X94.648 Y90.261 E3.00980
G1 X95.402 Y90.261 E3.04030
G1 X90.261 Y95.402 E3.33412
G1 X90.261 Y96.157 E3.36462
G1 X96.157 Y90.261 E3.70157
G1 X96.911 Y90.261 E3.73207
G1 X90.261 Y96.911 E4.11214
G1 X90.261 Y97.666 E4.14264
G1 X97.666 Y90.261 E4.56584
G1 X98.420 Y90.261 E4.59634
G1 X90.261 Y98.420 E5.06267
G1 X90.261 Y99.175 E5.09316
G1 X99.175 Y90.261 E5.60262
G1 X99.930 Y90.261 E5.63311
G1 X90.261 Y99.930 E6.18569
G1 X90.261 Y100.684 E6.21618
G1 X100.684 Y90.261 E6.81189
G1 X101.439 Y90.261 E6.84238
G1 X90.261 Y101.439 E7.48122
G1 X90.261 Y102.193 E7.51171
G1 X102.193 Y90.261 E8.19367
G1 X102.948 Y90.261 E8.22416
G1 X90.261 Y102.948 E8.94924
G1 X90.261 Y103.702 E8.97974
G1 X103.702 Y90.261 E9.74794
G1 X104.457 Y90.261 E9.77844
G1 X90.261 Y104.457 E10.58977
G1 X90.261 Y105.212 E10.62027
G1 X105.212 Y90.261 E11.47472
G1 X105.966 Y90.261 E11.50522
G1 X90.261 Y105.966 E12.40280
G1 X90.261 Y106.721 E12.43330
G1 X106.721 Y90.261 E13.37401
G1 X107.475 Y90.261 E13.40450
G1 X90.261 Y107.475 E14.38834
G1 X90.261 Y108.230 E14.41883
G1 X108.230 Y90.261 E15.44579
G1 X108.984 Y90.261 E15.47628
G1 X90.261 Y108.984 E16.54637
G1 X90.261 Y109.739 E16.57686
G1 X109.739 Y90.261 E17.69007
G1 X109.739 Y91.016 E17.72057
G1 X91.016 Y109.739 E18.79065
G1 X91.770 Y109.739 E18.82115
G1 X109.739 Y91.770 E19.84811
G1 X109.739 Y92.525 E19.87860
G1 X92.525 Y109.739 E20.86244
G1 X93.279 Y109.739 E20.89293
G1 X109.739 Y93.279 E21.83364
G1 X109.739 Y94.034 E21.86414
G1 X94.034 Y109.739 E22.76172
G1 X94.788 Y109.739 E22.79221
G1 X109.739 Y94.788 E23.64667
G1 X109.739 Y95.543 E23.67717
G1 X95.543 Y109.739 E24.48850
G1 X96.298 Y109.739 E24.51899
G1 X109.739 Y96.298 E25.28720
G1 X109.739 Y97.052 E25.31770
G1 X97.052 Y109.739 E26.04278
G1 X97.807 Y109.739 E26.07327
G1 X109.739 Y97.807 E26.75523
G1 X109.739 Y98.561 E26.78572
G1 X98.561 Y109.739 E27.42455
G1 X99.316 Y109.739 E27.45505
G1 X109.739 Y99.316 E28.05075
G1 X109.739 Y100.070 E28.08125
G1 X100.070 Y109.739 E28.63383
G1 X100.825 Y109.739 E28.66432
G1 X109.739 Y100.825 E29.17378
G1 X109.739 Y101.580 E29.20427
G1 X101.580 Y109.739 E29.67060
G1 X102.334 Y109.739 E29.70110
G1 X109.739 Y102.334 E30.12430
G1 X109.739 Y103.089 E30.15479
G1 X103.089 Y109.739 E30.53487
G1 X103.843 Y109.739 E30.56537
G1 X109.739 Y103.843 E30.90232
G1 X109.739 Y104.598 E30.93282
G1 X104.598 Y109.739 E31.22664
G1 X105.352 Y109.739 E31.25714
G1 X109.739 Y105.352 E31.50784
G1 X109.739 Y106.107 E31.53833
G1 X106.107 Y109.739 E31.74591
G1 X106.862 Y109.739 E31.77640
G1 X109.739 Y106.862 E31.94086
G1 X109.739 Y107.616 E31.97135
G1 X107.616 Y109.739 E32.09268
G1 X108.371 Y109.739 E32.12317
G1 X109.739 Y108.371 E32.20137
G1 X109.739 Y109.125 E32.23187
G1 X109.125 Y109.739 E32.26694
M104 S200 ; set temperature
G1 Z0.800 F7800.000
G1 X90.305 Y109.169 F7800.000
G1 F4800
G1 X90.831 Y109.695 E32.28764
G1 X91.586 Y109.695 E32.30860
G1 X90.305 Y108.414 E32.35894
G1 X90.305 Y107.659 E32.37990
G1 X92.341 Y109.695 E32.45988
G1 X93.095 Y109.695 E32.48084
G1 X90.305 Y106.905 E32.59046
G1 X90.305 Y106.150 E32.61142
G1 X93.850 Y109.695 E32.75069
G1 X94.604 Y109.695 E32.77165
G1 X90.305 Y105.396 E32.94056
G1 X90.305 Y104.641 E32.96152
G1 X95.359 Y109.695 E33.16007
G1 X96.113 Y109.695 E33.18103
G1 X90.305 Y103.887 E33.40922
G1 X90.305 Y103.132 E33.43018
G1 X96.868 Y109.695 E33.68801
G1 X97.622 Y109.695 E33.70897
G1 X90.305 Y102.378 E33.99645
G1 X90.305 Y101.623 E34.01741
G1 X98.377 Y109.695 E34.33452
G1 X99.132 Y109.695 E34.35549
G1 X90.305 Y100.868 E34.70224
G1 X90.305 Y100.114 E34.72321
G1 X99.886 Y109.695 E35.09961
G1 X100.641 Y109.695 E35.12057
G1 X90.305 Y99.359 E35.52661
G1 X90.305 Y98.605 E35.54757
G1 X101.395 Y109.695 E35.98326
G1 X102.150 Y109.695 E36.00422
G1 X90.305 Y97.850 E36.46955
G1 X90.305 Y97.096 E36.49051
G1 X102.904 Y109.695 E36.98548
G1 X103.659 Y109.695 E37.00644
G1 X90.305 Y96.341 E37.53105
G1 X90.305 Y95.586 E37.55201
G1 X104.414 Y109.695 E38.10626
G1 X105.168 Y109.695 E38.12722
G1 X90.305 Y94.832 E38.71112
G1 X90.305 Y94.077 E38.73208
G1 X105.923 Y109.695 E39.34562
G1 X106.677 Y109.695 E39.36658
G1 X90.305 Y93.323 E40.00976
G1 X90.305 Y92.568 E40.03072
G1 X107.432 Y109.695 E40.70354
G1 X108.186 Y109.695 E40.72450
G1 X90.305 Y91.814 E41.42697
G1 X90.305 Y91.059 E41.44793
G1 X108.941 Y109.695 E42.18003
G1 X109.695 Y109.695 E42.20099
G1 X90.305 Y90.305 E42.96274
G1 X91.059 Y90.305 E42.98370
G1 X109.695 Y108.941 E43.71581
G1 X109.695 Y108.186 E43.73677
G1 X91.814 Y90.305 E44.43923
G1 X92.568 Y90.305 E44.46019
G1 X109.695 Y107.432 E45.13302
G1 X109.695 Y106.677 E45.15398
G1 X93.323 Y90.305 E45.79716
G1 X94.077 Y90.305 E45.81812
G1 X109.695 Y105.923 E46.43166
G1 X109.695 Y105.168 E46.45262
G1 X94.832 Y90.305 E47.03651
G1 X95.586 Y90.305 E47.05747
G1 X109.695 Y104.414 E47.61173
G1 X109.695 Y103.659 E47.63269
G1 X96.341 Y90.305 E48.15730
G1 X97.096 Y90.305 E48.17826
G1 X109.695 Y102.904 E48.67323
G1 X109.695 Y102.150 E48.69419
G1 X97.850 Y90.305 E49.15952
G1 X98.605 Y90.305 E49.18048
G1 X109.695 Y101.395 E49.61616
G1 X109.695 Y100.641 E49.63712
G1 X99.359 Y90.305 E50.04317
G1 X100.114 Y90.305 E50.06413
G1 X109.695 Y99.886 E50.44053
G1 X109.695 Y99.132 E50.46149
G1 X100.868 Y90.305 E50.80825
G1 X101.623 Y90.305 E50.82921
G1 X109.695 Y98.377 E51.14633
G1 X109.695 Y97.622 E51.16729
G1 X102.378 Y90.305 E51.45476
G1 X103.132 Y90.305 E51.47572
G1 X109.695 Y96.868 E51.73356
G1 X109.695 Y96.113 E51.75452
G1 X103.887 Y90.305 E51.98271
G1 X104.641 Y90.305 E52.00367
G1 X109.695 Y95.359 E52.20222
G1 X109.695 Y94.604 E52.22318
G1 X105.396 Y90.305 E52.39209
G1 X106.150 Y90.305 E52.41305
G1 X109.695 Y93.850 E52.55231
G1 X109.695 Y93.095 E52.57327
G1 X106.905 Y90.305 E52.68290
G1 X107.659 Y90.305 E52.70386
G1 X109.695 Y92.341 E52.78384
G1 X109.695 Y91.586 E52.80480
G1 X108.414 Y90.305 E52.85514
G1 X109.169 Y90.305 E52.87610
G1 X109.695 Y90.831 E52.89680
G1 Z1.200 F7800.000
G1 X90.831 Y90.305 F7800.000
G1 F4800
G1 X90.305 Y90.831 E52.91749
G1 X90.305 Y91.586 E52.93845
G1 X91.586 Y90.305 E52.98879
G1 X92.341 Y90.305 E53.00975
G1 X90.305 Y92.341 E53.08973
G1 X90.305 Y93.095 E53.11069
G1 X93.095 Y90.305 E53.22032
G1 X93.850 Y90.305 E53.24128
G1 X90.305 Y93.850 E53.38054
G1 X90.305 Y94.604 E53.40150
G1 X94.604 Y90.305 E53.57041
G1 X95.359 Y90.305 E53.59137
G1 X90.305 Y95.359 E53.78992
G1 X90.305 Y96.113 E53.81088
G1 X96.113 Y90.305 E54.03907
G1 X96.868 Y90.305 E54.06003
G1 X90.305 Y96.868 E54.31787
G1 X90.305 Y97.622 E54.33883
G1 X97.622 Y90.305 E54.62630
G1 X98.377 Y90.305 E54.64726
G1 X90.305 Y98.377 E54.96438
G1 X90.305 Y99.132 E54.98534
G1 X99.132 Y90.305 E55.33210
G1 X99.886 Y90.305 E55.35306
G1 X90.305 Y99.886 E55.72946
G1 X90.305 Y100.641 E55.75042
G1 X100.641 Y90.305 E56.15647
G1 X101.395 Y90.305 E56.17743
G1 X90.305 Y101.395 E56.61311
G1 X90.305 Y102.150 E56.63407
G1 X102.150 Y90.305 E57.09940
G1 X102.904 Y90.305 E57.12036
G1 X90.305 Y102.904 E57.61533
G1 X90.305 Y103.659 E57.63629
G1 X103.659 Y90.305 E58.16090
G1 X104.414 Y90.305 E58.18186
G1 X90.305 Y104.414 E58.73612
G1 X90.305 Y105.168 E58.75708
G1 X105.168 Y90.305 E59.34097
G1 X105.923 Y90.305 E59.36193
G1 X90.305 Y105.923 E59.97547
G1 X90.305 Y106.677 E59.99643
G1 X106.677 Y90.305 E60.63961
G1 X107.432 Y90.305 E60.66057
G1 X90.305 Y107.432 E61.33339
G1 X90.305 Y108.186 E61.35436
G1 X108.186 Y90.305 E62.05682
G1 X108.941 Y90.305 E62.07778
G1 X90.305 Y108.941 E62.80989
G1 X90.305 Y109.695 E62.83085
G1 X109.695 Y90.305 E63.59260
G1 X109.695 Y91.059 E63.61356
G1 X91.059 Y109.695 E64.34566
G1 X91.814 Y109.695 E64.36662
G1 X109.695 Y91.814 E65.06909
G1 X109.695 Y92.568 E65.09005
G1 X92.568 Y109.695 E65.76287
G1 X93.323 Y109.695 E65.78383
G1 X109.695 Y93.323 E66.42701
G1 X109.695 Y94.077 E66.44797
G1 X94.077 Y109.695 E67.06151
G1 X94.832 Y109.695 E67.08247
G1 X109.695 Y94.832 E67.66636
G1 X109.695 Y95.586 E67.68732
G1 X95.586 Y109.695 E68.24158
G1 X96.341 Y109.695 E68.26254
G1 X109.695 Y96.341 E68.78715
G1 X109.695 Y97.096 E68.80811
G1 X97.096 Y109.695 E69.30308
G1 X97.850 Y109.695 E69.32404
G1 X109.695 Y97.850 E69.78937
G1 X109.695 Y98.605 E69.81033
G1 X98.605 Y109.695 E70.24602
G1 X99.359 Y109.695 E70.26698
G1 X109.695 Y99.359 E70.67302
G1 X109.695 Y100.114 E70.69398
G1 X100.114 Y109.695 E71.07038
G1 X100.868 Y109.695 E71.09134
G1 X109.695 Y100.868 E71.43810
G1 X109.695 Y101.623 E71.45906
G1 X101.623 Y109.695 E71.77618
G1 X102.378 Y109.695 E71.79714
G1 X109.695 Y102.378 E72.08462
G1 X109.695 Y103.132 E72.10558
G1 X103.132 Y109.695 E72.36341
G1 X103.887 Y109.695 E72.38437
G1 X109.695 Y103.887 E72.61256
G1 X109.695 Y104.641 E72.63352
G1 X104.641 Y109.695 E72.83207
G1 X105.396 Y109.695 E72.85303
G1 X109.695 Y105.396 E73.02194
G1 X109.695 Y106.150 E73.04290
G1 X106.150 Y109.695 E73.18217
G1 X106.905 Y109.695 E73.20313
G1 X109.695 Y106.905 E73.31275
G1 X109.695 Y107.659 E73.33371
G1 X107.659 Y109.695 E73.41369
G1 X108.414 Y109.695 E73.43465
G1 X109.695 Y108.414 E73.48499
G1 X109.695 Y109.169 E73.50595
G1 X109.169 Y109.695 E73.52665
M106 S239.7
G1 Z1.600 F7800.000
G1 X109.695 Y90.831 F7800.000
G1 F4800
G1 X109.169 Y90.305 E73.54735
G1 X108.414 Y90.305 E73.56831
G1 X109.695 Y91.586 E73.61864
G1 X109.695 Y92.341 E73.63960
G1 X107.659 Y90.305 E73.71959
G1 X106.905 Y90.305 E73.74055
G1 X109.695 Y93.095 E73.85017
G1 X109.695 Y93.850 E73.87113
G1 X106.150 Y90.305 E74.01040
G1 X105.396 Y90.305 E74.03136
G1 X109.695 Y94.604 E74.20026
G1 X109.695 Y95.359 E74.22122
G1 X104.641 Y90.305 E74.41977
G1 X103.887 Y90.305 E74.44073
G1 X109.695 Y96.113 E74.66892
G1 X109.695 Y96.868 E74.68989
G1 X103.132 Y90.305 E74.94772
G1 X102.378 Y90.305 E74.96868
G1 X109.695 Y97.622 E75.25615
G1 X109.695 Y98.377 E75.27711
G1 X101.623 Y90.305 E75.59423
G1 X100.868 Y90.305 E75.61519
G1 X109.695 Y99.132 E75.96195
G1 X109.695 Y99.886 E75.98291
G1 X100.114 Y90.305 E76.35932
G1 X99.359 Y90.305 E76.38028
G1 X109.695 Y100.641 E76.78632
G1 X109.695 Y101.395 E76.80728
G1 X98.605 Y90.305 E77.24297
G1 X97.850 Y90.305 E77.26393
G1 X109.695 Y102.150 E77.72925
G1 X109.695 Y102.904 E77.75021
G1 X97.096 Y90.305 E78.24518
G1 X96.341 Y90.305 E78.26614
G1 X109.695 Y103.659 E78.79076
G1 X109.695 Y104.414 E78.81172
G1 X95.586 Y90.305 E79.36597
G1 X94.832 Y90.305 E79.38693
G1 X109.695 Y105.168 E79.97083
G1 X109.695 Y105.923 E79.99179
G1 X94.077 Y90.305 E80.60533
G1 X93.323 Y90.305 E80.62629
G1 X109.695 Y106.677 E81.26947
G1 X109.695 Y107.432 E81.29043
G1 X92.568 Y90.305 E81.96325
G1 X91.814 Y90.305 E81.98421
G1 X109.695 Y108.186 E82.68667
G1 X109.695 Y108.941 E82.70763
G1 X91.059 Y90.305 E83.43974
G1 X90.305 Y90.305 E83.46070
G1 X109.695 Y109.695 E84.22245
G1 X108.941 Y109.695 E84.24341
G1 X90.305 Y91.059 E84.97552
G1 X90.305 Y91.814 E84.99648
G1 X108.186 Y109.695 E85.69894
G1 X107.432 Y109.695 E85.71990
G1 X90.305 Y92.568 E86.39272
G1 X90.305 Y93.323 E86.41368
G1 X106.677 Y109.695 E87.05686
G1 X105.923 Y109.695 E87.07783
G1 X90.305 Y94.077 E87.69136
G1 X90.305 Y94.832 E87.71232
G1 X105.168 Y109.695 E88.29622
G1 X104.414 Y109.695 E88.31718
G1 X90.305 Y95.586 E88.87143
G1 X90.305 Y96.341 E88.89239
G1 X103.659 Y109.695 E89.41701
G1 X102.904 Y109.695 E89.43797
G1 X90.305 Y97.096 E89.93294
G1 X90.305 Y97.850 E89.95390
G1 X102.150 Y109.695 E90.41923
G1 X101.395 Y109.695 E90.44019
G1 X90.305 Y98.605 E90.87587
G1 X90.305 Y99.359 E90.89683
G1 X100.641 Y109.695 E91.30288
G1 X99.886 Y109.695 E91.32384
G1 X90.305 Y100.114 E91.70024
G1 X90.305 Y100.868 E91.72120
G1 X99.132 Y109.695 E92.06796
G1 X98.377 Y109.695 E92.08892
G1 X90.305 Y101.623 E92.40604
G1 X90.305 Y102.378 E92.42700
G1 X97.622 Y109.695 E92.71447
G1 X96.868 Y109.695 E92.73543
G1 X90.305 Y103.132 E92.99327
G1 X90.305 Y103.887 E93.01423
G1 X96.113 Y109.695 E93.24242
G1 X95.359 Y109.695 E93.26338
G1 X90.305 Y104.641 E93.46193
G1 X90.305 Y105.396 E93.48289
G1 X94.604 Y109.695 E93.65179
G1 X93.850 Y109.695 E93.67276
G1 X90.305 Y106.150 E93.81202
G1 X90.305 Y106.905 E93.83298
G1 X93.095 Y109.695 E93.94260
G1 X92.341 Y109.695 E93.96356
G1 X90.305 Y107.659 E94.04355
G1 X90.305 Y108.414 E94.06451
G1 X91.586 Y109.695 E94.11485
G1 X90.831 Y109.695 E94.13581
G1 X90.305 Y109.169 E94.15650
G1 Z2.000 F7800.000
G1 X90.831 Y90.305 F7800.000
G1 F4800
G1 X90.305 Y90.831 E94.17720
G1 X90.305 Y91.586 E94.19816
G1 X91.586 Y90.305 E94.24850
G1 X92.341 Y90.305 E94.26946
G1 X90.305 Y92.341 E94.34944
G1 X90.305 Y93.095 E94.37040
G1 X93.095 Y90.305 E94.48002
G1 X93.850 Y90.305 E94.50098
G1 X90.305 Y93.850 E94.64025
G1 X90.305 Y94.604 E94.66121
G1 X94.604 Y90.305 E94.83012
G1 X95.359 Y90.305 E94.85108
G1 X90.305 Y95.359 E95.04963
G1 X90.305 Y96.113 E95.07059
G1 X96.113 Y90.305 E95.29878
G1 X96.868 Y90.305 E95.31974
G1 X90.305 Y96.868 E95.57757
G1 X90.305 Y97.622 E95.59853
G1 X97.622 Y90.305 E95.88601
G1 X98.377 Y90.305 E95.90697
G1 X90.305 Y98.377 E96.22409
G1 X90.305 Y99.132 E96.24505
G1 X99.132 Y90.305 E96.59181
G1 X99.886 Y90.305 E96.61277
G1 X90.305 Y99.886 E96.98917
G1 X90.305 Y100.641 E97.01013
G1 X100.641 Y90.305 E97.41617
G1 X101.395 Y90.305 E97.43713
G1 X90.305 Y101.395 E97.87282
G1 X90.305 Y102.150 E97.89378
G1 X102.150 Y90.305 E98.35911
G1 X102.904 Y90.305 E98.38007
G1 X90.305 Y102.904 E98.87504
G1 X90.305 Y103.659 E98.89600
G1 X103.659 Y90.305 E99.42061
G1 X104.414 Y90.305 E99.44157
G1 X90.305 Y104.414 E99.99582
G1 X90.305 Y105.168 E100.01678
G1 X105.168 Y90.305 E100.60068
G1 X105.923 Y90.305 E100.62164
G1 X90.305 Y105.923 E101.23518
G1 X90.305 Y106.677 E101.25614
G1 X106.677 Y90.305 E101.89932
G1 X107.432 Y90.305 E101.92028
G1 X90.305 Y107.432 E102.59310
G1 X90.305 Y108.186 E102.61406
G1 X108.186 Y90.305 E103.31653
G1 X108.941 Y90.305 E103.33749
G1 X90.305 Y108.941 E104.06959
G1 X90.305 Y109.695 E104.09055
G1 X109.695 Y90.305 E104.85230
G1 X109.695 Y91.059 E104.87326
G1 X91.059 Y109.695 E105.60537
G1 X91.814 Y109.695 E105.62633
G1 X109.695 Y91.814 E106.32879
G1 X109.695 Y92.568 E106.34975
G1 X92.568 Y109.695 E107.02258
G1 X93.323 Y109.695 E107.04354
G1 X109.695 Y93.323 E107.68672
G1 X109.695 Y94.077 E107.70768
G1 X94.077 Y109.695 E108.32122
G1 X94.832 Y109.695 E108.34218
G1 X109.695 Y94.832 E108.92607
G1 X109.695 Y95.586 E108.94703
G1 X95.586 Y109.695 E109.50129
G1 X96.341 Y109.695 E109.52225
G1 X109.695 Y96.341 E110.04686
G1 X109.695 Y97.096 E110.06782
G1 X97.096 Y109.695 E110.56279
G1 X97.850 Y109.695 E110.58375
G1 X109.695 Y97.850 E111.04908
G1 X109.695 Y98.605 E111.07004
G1 X98.605 Y109.695 E111.50572
G1 X99.359 Y109.695 E111.52668
G1 X109.695 Y99.359 E111.93273
G1 X109.695 Y100.114 E111.95369
G1 X100.114 Y109.695 E112.33009
G1 X100.868 Y109.695 E112.35105
G1 X109.695 Y100.868 E112.69781
G1 X109.695 Y101.623 E112.71877
G1 X101.623 Y109.695 E113.03589
G1 X102.378 Y109.695 E113.05685
G1 X109.695 Y102.378 E113.34432
G1 X109.695 Y103.132 E113.36528
G1 X103.132 Y109.695 E113.62312
G1 X103.887 Y109.695 E113.64408
G1 X109.695 Y103.887 E113.87227
G1 X109.695 Y104.641 E113.89323
G1 X104.641 Y109.695 E114.09178
G1 X105.396 Y109.695 E114.11274
G1 X109.695 Y105.396 E114.28165
G1 X109.695 Y106.150 E114.30261
G1 X106.150 Y109.695 E114.44187
G1 X106.905 Y109.695 E114.46283
G1 X109.695 Y106.905 E114.57246
G1 X109.695 Y107.659 E114.59342
G1 X107.659 Y109.695 E114.67340
G1 X108.414 Y109.695 E114.69436
G1 X109.695 Y108.414 E114.74470
G1 X109.695 Y109.169 E114.76566
G1 X109.169 Y109.695 E114.78636
G1 Z2.400 F7800.000
G1 X109.695 Y90.831 F7800.000
G1 F4800
G1 X109.169 Y90.305 E114.80705
G1 X108.414 Y90.305 E114.82801
G1 X109.695 Y91.586 E114.87835
G1 X109.695 Y92.341 E114.89931
G1 X107.659 Y90.305 E114.97929
G1 X106.905 Y90.305 E115.00025
G1 X109.695 Y93.095 E115.10988
G1 X109.695 Y93.850 E115.13084
G1 X106.150 Y90.305 E115.27010
G1 X105.396 Y90.305 E115.29106
G1 X109.695 Y94.604 E115.45997
G1 X109.695 Y95.359 E115.48093
G1 X104.641 Y90.305 E115.67948
G1 X103.887 Y90.305 E115.70044
G1 X109.695 Y96.113 E115.92863
G1 X109.695 Y96.868 E115.94959
G1 X103.132 Y90.305 E116.20743
G1 X102.378 Y90.305 E116.22839
G1 X109.695 Y97.622 E116.51586
G1 X109.695 Y98.377 E116.53682
G1 X101.623 Y90.305 E116.85394
G1 X100.868 Y90.305 E116.87490
G1 X109.695 Y99.132 E117.22166
G1 X109.695 Y99.886 E117.24262
G1 X100.114 Y90.305 E117.61902
G1 X99.359 Y90.305 E117.63998
G1 X109.695 Y100.641 E118.04603
G1 X109.695 Y101.395 E118.06699
G1 X98.605 Y90.305 E118.50267
G1 X97.850 Y90.305 E118.52363
G1 X109.695 Y102.150 E118.98896
G1 X109.695 Y102.904 E119.00992
G1 X97.096 Y90.305 E119.50489
G1 X96.341 Y90.305 E119.52585
G1 X109.695 Y103.659 E120.05046
G1 X109.695 Y104.414 E120.07142
G1 X95.586 Y90.305 E120.62568
G1 X94.832 Y90.305 E120.64664
G1 X109.695 Y105.168 E121.23054
G1 X109.695 Y105.923 E121.25150
G1 X94.077 Y90.305 E121.86503
G1 X93.323 Y90.305 E121.88599
G1 X109.695 Y106.677 E122.52917
G1 X109.695 Y107.432 E122.55013
G1 X92.568 Y90.305 E123.22296
G1 X91.814 Y90.305 E123.24392
G1 X109.695 Y108.186 E123.94638
G1 X109.695 Y108.941 E123.96734
G1 X91.059 Y90.305 E124.69945
G1 X90.305 Y90.305 E124.72041
G1 X109.695 Y109.695 E125.48216
G1 X108.941 Y109.695 E125.50312
G1 X90.305 Y91.059 E126.23522
G1 X90.305 Y91.814 E126.25618
G1 X108.186 Y109.695 E126.95865
G1 X107.432 Y109.695 E126.97961
G1 X90.305 Y92.568 E127.65243
G1 X90.305 Y93.323 E127.67339
G1 X106.677 Y109.695 E128.31657
G1 X105.923 Y109.695 E128.33753
G1 X90.305 Y94.077 E128.95107
G1 X90.305 Y94.832 E128.97203
G1 X105.168 Y109.695 E129.55593
G1 X104.414 Y109.695 E129.57689
G1 X90.305 Y95.586 E130.13114
G1 X90.305 Y96.341 E130.15210
G1 X103.659 Y109.695 E130.67671
G1 X102.904 Y109.695 E130.69767
G1 X90.305 Y97.096 E131.19264
G1 X90.305 Y97.850 E131.21360
G1 X102.150 Y109.695 E131.67893
G1 X101.395 Y109.695 E131.69989
G1 X90.305 Y98.605 E132.13558
G1 X90.305 Y99.359 E132.15654
G1 X100.641 Y109.695 E132.56258
G1 X99.886 Y109.695 E132.58354
G1 X90.305 Y100.114 E132.95995
G1 X90.305 Y100.868 E132.98091
G1 X99.132 Y109.695 E133.32767
G1 X98.377 Y109.695 E133.34863
G1 X90.305 Y101.623 E133.66574
G1 X90.305 Y102.378 E133.68670
G1 X97.622 Y109.695 E133.97418
G1 X96.868 Y109.695 E133.99514
G1 X90.305 Y103.132 E134.25297
G1 X90.305 Y103.887 E134.27393
G1 X96.113 Y109.695 E134.50212
G1 X95.359 Y109.695 E134.52309
G1 X90.305 Y104.641 E134.72163
G1 X90.305 Y105.396 E134.74259
G1 X94.604 Y109.695 E134.91150
G1 X93.850 Y109.695 E134.93246
G1 X90.305 Y106.150 E135.07173
G1 X90.305 Y106.905 E135.09269
G1 X93.095 Y109.695 E135.20231
G1 X92.341 Y109.695 E135.22327
G1 X90.305 Y107.659 E135.30325
G1 X90.305 Y108.414 E135.32421
G1 X91.586 Y109.695 E135.37455
G1 X90.831 Y109.695 E135.39551
G1 X90.305 Y109.169 E135.41621
G1 Z2.800 F7800.000
G1 X90.831 Y90.305 F7800.000
G1 F4800
G1 X90.305 Y90.831 E135.43691
G1 X90.305 Y91.586 E135.45787
G1 X91.586 Y90.305 E135.50821
G1 X92.341 Y90.305 E135.52917
G1 X90.305 Y92.341 E135.60915
G1 X90.305 Y93.095 E135.63011
G1 X93.095 Y90.305 E135.73973
G1 X93.850 Y90.305 E135.76069
G1 X90.305 Y93.850 E135.89996
G1 X90.305 Y94.604 E135.92092
G1 X94.604 Y90.305 E136.08983
G1 X95.359 Y90.305 E136.11079
G1 X90.305 Y95.359 E136.30933
G1 X90.305 Y96.113 E136.33030
G1 X96.113 Y90.305 E136.55849
G1 X96.868 Y90.305 E136.57945
G1 X90.305 Y96.868 E136.83728
G1 X90.305 Y97.622 E136.85824
G1 X97.622 Y90.305 E137.14572
G1 X98.377 Y90.305 E137.16668
G1 X90.305 Y98.377 E137.48379
G1 X90.305 Y99.132 E137.50475
G1 X99.132 Y90.305 E137.85151
G1 X99.886 Y90.305 E137.87247
G1 X90.305 Y99.886 E138.24888
G1 X90.305 Y100.641 E138.26984
G1 X100.641 Y90.305 E138.67588
G1 X101.395 Y90.305 E138.69684
G1 X90.305 Y101.395 E139.13253
G1 X90.305 Y102.150 E139.15349
G1 X102.150 Y90.305 E139.61882
G1 X102.904 Y90.305 E139.63978
G1 X90.305 Y102.904 E140.13475
G1 X90.305 Y103.659 E140.15571
G1 X103.659 Y90.305 E140.68032
G1 X104.414 Y90.305 E140.70128
G1 X90.305 Y104.414 E141.25553
G1 X90.305 Y105.168 E141.27649
G1 X105.168 Y90.305 E141.86039
G1 X105.923 Y90.305 E141.88135
G1 X90.305 Y105.923 E142.49489
G1 X90.305 Y106.677 E142.51585
G1 X106.677 Y90.305 E143.15903
G1 X107.432 Y90.305 E143.17999
G1 X90.305 Y107.432 E143.85281
G1 X90.305 Y108.186 E143.87377
G1 X108.186 Y90.305 E144.57623
G1 X108.941 Y90.305 E144.59719
G1 X90.305 Y108.941 E145.32930
G1 X90.305 Y109.695 E145.35026
G1 X109.695 Y90.305 E146.11201
G1 X109.695 Y91.059 E146.13297
G1 X91.059 Y109.695 E146.86508
G1 X91.814 Y109.695 E146.88604
G1 X109.695 Y91.814 E147.58850
G1 X109.695 Y92.568 E147.60946
G1 X92.568 Y109.695 E148.28228
G1 X93.323 Y109.695 E148.30324
G1 X109.695 Y93.323 E148.94642
G1 X109.695 Y94.077 E148.96738
G1 X94.077 Y109.695 E149.58092
G1 X94.832 Y109.695 E149.60188
G1 X109.695 Y94.832 E150.18578
G1 X109.695 Y95.586 E150.20674
G1 X95.586 Y109.695 E150.76099
G1 X96.341 Y109.695 E150.78195
G1 X109.695 Y96.341 E151.30657
G1 X109.695 Y97.096 E151.32753
G1 X97.096 Y109.695 E151.82250
G1 X97.850 Y109.695 E151.84346
G1 X109.695 Y97.850 E152.30879
G1 X109.695 Y98.605 E152.32975
G1 X98.605 Y109.695 E152.76543
G1 X99.359 Y109.695 E152.78639
G1 X109.695 Y99.359 E153.19244
G1 X109.695 Y100.114 E153.21340
G1 X100.114 Y109.695 E153.58980
G1 X100.868 Y109.695 E153.61076
G1 X109.695 Y100.868 E153.95752
G1 X109.695 Y101.623 E153.97848
G1 X101.623 Y109.695 E154.29560
G1 X102.378 Y109.695 E154.31656
G1 X109.695 Y102.378 E154.60403
G1 X109.695 Y103.132 E154.62499
G1 X103.132 Y109.695 E154.88283
G1 X103.887 Y109.695 E154.90379
G1 X109.695 Y103.887 E155.13198
G1 X109.695 Y104.641 E155.15294
G1 X104.641 Y109.695 E155.35149
G1 X105.396 Y109.695 E155.37245
G1 X109.695 Y105.396 E155.54135
G1 X109.695 Y106.150 E155.56231
G1 X106.150 Y109.695 E155.70158
G1 X106.905 Y109.695 E155.72254
G1 X109.695 Y106.905 E155.83216
G1 X109.695 Y107.659 E155.85312
G1 X107.659 Y109.695 E155.93311
G1 X108.414 Y109.695 E155.95407
G1 X109.695 Y108.414 E156.00441
G1 X109.695 Y109.169 E156.02537
G1 X109.169 Y109.695 E156.04606
G1 Z3.200 F7800.000
G1 X109.695 Y90.831 F7800.000
G1 F4800
G1 X109.169 Y90.305 E156.06676
G1 X108.414 Y90.305 E156.08772
G1 X109.695 Y91.586 E156.13806
G1 X109.695 Y92.341 E156.15902
G1 X107.659 Y90.305 E156.23900
G1 X106.905 Y90.305 E156.25996
G1 X109.695 Y93.095 E156.36958
G1 X109.695 Y93.850 E156.39054
G1 X106.150 Y90.305 E156.52981
G1 X105.396 Y90.305 E156.55077
G1 X109.695 Y94.604 E156.71968
G1 X109.695 Y95.359 E156.74064
G1 X104.641 Y90.305 E156.93919
G1 X103.887 Y90.305 E156.96015
G1 X109.695 Y96.113 E157.18834
G1 X109.695 Y96.868 E157.20930
G1 X103.132 Y90.305 E157.46713
G1 X102.378 Y90.305 E157.48809
G1 X109.695 Y97.622 E157.77557
G1 X109.695 Y98.377 E157.79653
G1 X101.623 Y90.305 E158.11365
G1 X100.868 Y90.305 E158.13461
G1 X109.695 Y99.132 E158.48137
G1 X109.695 Y99.886 E158.50233
G1 X100.114 Y90.305 E158.87873
G1 X99.359 Y90.305 E158.89969
G1 X109.695 Y100.641 E159.30573
G1 X109.695 Y101.395 E159.32669
G1 X98.605 Y90.305 E159.76238
G1 X97.850 Y90.305 E159.78334
G1 X109.695 Y102.150 E160.24867
G1 X109.695 Y102.904 E160.26963
G1 X97.096 Y90.305 E160.76460
G1 X96.341 Y90.305 E160.78556
G1 X109.695 Y103.659 E161.31017
G1 X109.695 Y104.414 E161.33113
G1 X95.586 Y90.305 E161.88539
G1 X94.832 Y90.305 E161.90635
G1 X109.695 Y105.168 E162.49024
G1 X109.695 Y105.923 E162.51120
G1 X94.077 Y90.305 E163.12474
G1 X93.323 Y90.305 E163.14570
G1 X109.695 Y106.677 E163.78888
G1 X109.695 Y107.432 E163.80984
G1 X92.568 Y90.305 E164.48266
G1 X91.814 Y90.305 E164.50362
G1 X109.695 Y108.186 E165.20609
G1 X109.695 Y108.941 E165.22705
G1 X91.059 Y90.305 E165.95916
G1 X90.305 Y90.305 E165.98012
G1 X109.695 Y109.695 E166.74187
G1 X108.941 Y109.695 E166.76283
G1 X90.305 Y91.059 E167.49493
G1 X90.305 Y91.814 E167.51589
G1 X108.186 Y109.695 E168.21836
G1 X107.432 Y109.695 E168.23932
G1 X90.305 Y92.568 E168.91214
G1 X90.305 Y93.323 E168.93310
G1 X106.677 Y109.695 E169.57628
G1 X105.923 Y109.695 E169.59724
G1 X90.305 Y94.077 E170.21078
G1 X90.305 Y94.832 E170.23174
G1 X105.168 Y109.695 E170.81563
G1 X104.414 Y109.695 E170.83660
G1 X90.305 Y95.586 E171.39085
G1 X90.305 Y96.341 E171.41181
G1 X103.659 Y109.695 E171.93642
G1 X102.904 Y109.695 E171.95738
G1 X90.305 Y97.096 E172.45235
G1 X90.305 Y97.850 E172.47331
G1 X102.150 Y109.695 E172.93864
G1 X101.395 Y109.695 E172.95960
G1 X90.305 Y98.605 E173.39529
G1 X90.305 Y99.359 E173.41625
G1 X100.641 Y109.695 E173.82229
G1 X99.886 Y109.695 E173.84325
G1 X90.305 Y100.114 E174.21965
G1 X90.305 Y100.868 E174.24061
G1 X99.132 Y109.695 E174.58737
G1 X98.377 Y109.695 E174.60833
G1 X90.305 Y101.623 E174.92545
G1 X90.305 Y102.378 E174.94641
G1 X97.622 Y109.695 E175.23389
G1 X96.868 Y109.695 E175.25485
G1 X90.305 Y103.132 E175.51268
G1 X90.305 Y103.887 E175.53364
G1 X96.113 Y109.695 E175.76183
G1 X95.359 Y109.695 E175.78279
G1 X90.305 Y104.641 E175.98134
G1 X90.305 Y105.396 E176.00230
G1 X94.604 Y109.695 E176.17121
G1 X93.850 Y109.695 E176.19217
G1 X90.305 Y106.150 E176.33144
G1 X90.305 Y106.905 E176.35240
G1 X93.095 Y109.695 E176.46202
G1 X92.341 Y109.695 E176.48298
G1 X90.305 Y107.659 E176.56296
G1 X90.305 Y108.414 E176.58392
G1 X91.586 Y109.695 E176.63426
G1 X90.831 Y109.695 E176.65522
G1 X90.305 Y109.169 E176.67592
G1 Z3.600 F7800.000
G1 X90.831 Y90.305 F7800.000
G1 F4800
G1 X90.305 Y90.831 E176.69661
G1 X90.305 Y91.586 E176.71758
G1 X91.586 Y90.305 E176.76791
G1 X92.341 Y90.305 E176.78887
G1 X90.305 Y92.341 E176.86886
G1 X90.305 Y93.095 E176.88982
G1 X93.095 Y90.305 E176.99944
G1 X93.850 Y90.305 E177.02040
G1 X90.305 Y93.850 E177.15967
G1 X90.305 Y94.604 E177.18063
G1 X94.604 Y90.305 E177.34953
G1 X95.359 Y90.305 E177.37049
G1 X90.305 Y95.359 E177.56904
G1 X90.305 Y96.113 E177.59000
G1 X96.113 Y90.305 E177.81819
G1 X96.868 Y90.305 E177.83915
G1 X90.305 Y96.868 E178.09699
G1 X90.305 Y97.622 E178.11795
G1 X97.622 Y90.305 E178.40542
G1 X98.377 Y90.305 E178.42638
G1 X90.305 Y98.377 E178.74350
G1 X90.305 Y99.132 E178.76446
G1 X99.132 Y90.305 E179.11122
G1 X99.886 Y90.305 E179.13218
G1 X90.305 Y99.886 E179.50858
G1 X90.305 Y100.641 E179.52954
G1 X100.641 Y90.305 E179.93559
G1 X101.395 Y90.305 E179.95655
G1 X90.305 Y101.395 E180.39223
G1 X90.305 Y102.150 E180.41319
G1 X102.150 Y90.305 E180.87852
G1 X102.904 Y90.305 E180.89948
G1 X90.305 Y102.904 E181.39445
G1 X90.305 Y103.659 E181.41541
G1 X103.659 Y90.305 E181.94003
G1 X104.414 Y90.305 E181.96099
G1 X90.305 Y104.414 E182.51524
G1 X90.305 Y105.168 E182.53620
G1 X105.168 Y90.305 E183.12010
G1 X105.923 Y90.305 E183.14106
G1 X90.305 Y105.923 E183.75459
G1 X90.305 Y106.677 E183.77555
G1 X106.677 Y90.305 E184.41873
G1 X107.432 Y90.305 E184.43970
G1 X90.305 Y107.432 E185.11252
G1 X90.305 Y108.186 E185.13348
G1 X108.186 Y90.305 E185.83594
G1 X108.941 Y90.305 E185.85690
G1 X90.305 Y108.941 E186.58901
G1 X90.305 Y109.695 E186.60997
G1 X109.695 Y90.305 E187.37172
G1 X109.695 Y91.059 E187.39268
G1 X91.059 Y109.695 E188.12478
G1 X91.814 Y109.695 E188.14574
G1 X109.695 Y91.814 E188.84821
G1 X109.695 Y92.568 E188.86917
G1 X92.568 Y109.695 E189.54199
G1 X93.323 Y109.695 E189.56295
G1 X109.695 Y93.323 E190.20613
G1 X109.695 Y94.077 E190.22709
G1 X94.077 Y109.695 E190.84063
G1 X94.832 Y109.695 E190.86159
G1 X109.695 Y94.832 E191.44549
G1 X109.695 Y95.586 E191.46645
G1 X95.586 Y109.695 E192.02070
G1 X96.341 Y109.695 E192.04166
G1 X109.695 Y96.341 E192.56627
G1 X109.695 Y97.096 E192.58723
G1 X97.096 Y109.695 E193.08220
G1 X97.850 Y109.695 E193.10316
G1 X109.695 Y97.850 E193.56849
G1 X109.695 Y98.605 E193.58945
G1 X98.605 Y109.695 E194.02514
G1 X99.359 Y109.695 E194.04610
G1 X109.695 Y99.359 E194.45214
G1 X109.695 Y100.114 E194.47310
G1 X100.114 Y109.695 E194.84951
G1 X100.868 Y109.695 E194.87047
G1 X109.695 Y100.868 E195.21723
G1 X109.695 Y101.623 E195.23819
G1 X101.623 Y109.695 E195.55530
G1 X102.378 Y109.695 E195.57626
G1 X109.695 Y102.378 E195.86374
G1 X109.695 Y103.132 E195.88470
G1 X103.132 Y109.695 E196.14253
G1 X103.887 Y109.695 E196.16349
G1 X109.695 Y103.887 E196.39168
G1 X109.695 Y104.641 E196.41264
G1 X104.641 Y109.695 E196.61119
G1 X105.396 Y109.695 E196.63215
G1 X109.695 Y105.396 E196.80106
G1 X109.695 Y106.150 E196.82202
G1 X106.150 Y109.695 E196.96129
G1 X106.905 Y109.695 E196.98225
G1 X109.695 Y106.905 E197.09187
G1 X109.695 Y107.659 E197.11283
G1 X107.659 Y109.695 E197.19281
G1 X108.414 Y109.695 E197.21377
G1 X109.695 Y108.414 E197.26411
G1 X109.695 Y109.169 E197.28507
G1 X109.169 Y109.695 E197.30577
G1 Z4.000 F7800.000
G1 X109.695 Y90.831 F7800.000
G1 F4800
G1 X109.169 Y90.305 E197.32647
G1 X108.414 Y90.305 E197.34743
G1 X109.695 Y91.586 E197.39777
G1 X109.695 Y92.341 E197.41873
G1 X107.659 Y90.305 E197.49871
G1 X106.905 Y90.305 E197.51967
G1 X109.695 Y93.095 E197.62929
G1 X109.695 Y93.850 E197.65025
G1 X106.150 Y90.305 E197.78952
G1 X105.396 Y90.305 E197.81048
G1 X109.695 Y94.604 E197.97939
G1 X109.695 Y95.359 E198.00035
G1 X104.641 Y90.305 E198.19890
G1 X103.887 Y90.305 E198.21986
G1 X109.695 Y96.113 E198.44805
G1 X109.695 Y96.868 E198.46901
G1 X103.132 Y90.305 E198.72684
G1 X102.378 Y90.305 E198.74780
G1 X109.695 Y97.622 E199.03528
G1 X109.695 Y98.377 E199.05624
G1 X101.623 Y90.305 E199.37336
G1 X100.868 Y90.305 E199.39432
G1 X109.695 Y99.132 E199.74108
G1 X109.695 Y99.886 E199.76204
G1 X100.114 Y90.305 E200.13844
G1 X99.359 Y90.305 E200.15940
G1 X109.695 Y100.641 E200.56544
G1 X109.695 Y101.395 E200.58640
G1 X98.605 Y90.305 E201.02209
G1 X97.850 Y90.305 E201.04305
G1 X109.695 Y102.150 E201.50838
G1 X109.695 Y102.904 E201.52934
G1 X97.096 Y90.305 E202.02431
G1 X96.341 Y90.305 E202.04527
G1 X109.695 Y103.659 E202.56988
G1 X109.695 Y104.414 E202.59084
G1 X95.586 Y90.305 E203.14509
G1 X94.832 Y90.305 E203.16605
G1 X109.695 Y105.168 E203.74995
G1 X109.695 Y105.923 E203.77091
G1 X94.077 Y90.305 E204.38445
G1 X93.323 Y90.305 E204.40541
G1 X109.695 Y106.677 E205.04859
G1 X109.695 Y107.432 E205.06955
G1 X92.568 Y90.305 E205.74237
G1 X91.814 Y90.305 E205.76333
G1 X109.695 Y108.186 E206.46580
G1 X109.695 Y108.941 E206.48676
G1 X91.059 Y90.305 E207.21886
G1 X90.305 Y90.305 E207.23982
G1 X109.695 Y109.695 E208.00157
G1 X108.941 Y109.695 E208.02253
G1 X90.305 Y91.059 E208.75464
G1 X90.305 Y91.814 E208.77560
G1 X108.186 Y109.695 E209.47806
G1 X107.432 Y109.695 E209.49902
G1 X90.305 Y92.568 E210.17185
G1 X90.305 Y93.323 E210.19281
G1 X106.677 Y109.695 E210.83599
G1 X105.923 Y109.695 E210.85695
G1 X90.305 Y94.077 E211.47049
G1 X90.305 Y94.832 E211.49145
G1 X105.168 Y109.695 E212.07534
G1 X104.414 Y109.695 E212.09630
G1 X90.305 Y95.586 E212.65056
G1 X90.305 Y96.341 E212.67152
G1 X103.659 Y109.695 E213.19613
G1 X102.904 Y109.695 E213.21709
G1 X90.305 Y97.096 E213.71206
G1 X90.305 Y97.850 E213.73302
G1 X102.150 Y109.695 E214.19835
G1 X101.395 Y109.695 E214.21931
G1 X90.305 Y98.605 E214.65499
G1 X90.305 Y99.359 E214.67595
G1 X100.641 Y109.695 E215.08200
G1 X99.886 Y109.695 E215.10296
G1 X90.305 Y100.114 E215.47936
G1 X90.305 Y100.868 E215.50032
G1 X99.132 Y109.695 E215.84708
G1 X98.377 Y109.695 E215.86804
G1 X90.305 Y101.623 E216.18516
G1 X90.305 Y102.378 E216.20612
G1 X97.622 Y109.695 E216.49359
G1 X96.868 Y109.695 E216.51455
G1 X90.305 Y103.132 E216.77239
G1 X90.305 Y103.887 E216.79335
G1 X96.113 Y109.695 E217.02154
G1 X95.359 Y109.695 E217.04250
G1 X90.305 Y104.641 E217.24105
G1 X90.305 Y105.396 E217.26201
G1 X94.604 Y109.695 E217.43092
G1 X93.850 Y109.695 E217.45188
G1 X90.305 Y106.150 E217.59114
G1 X90.305 Y106.905 E217.61210
G1 X93.095 Y109.695 E217.72173
G1 X92.341 Y109.695 E217.74269
G1 X90.305 Y107.659 E217.82267
G1 X90.305 Y108.414 E217.84363
G1 X91.586 Y109.695 E217.89397
G1 X90.831 Y109.695 E217.91493
G1 X90.305 Y109.169 E217.93563
G1 Z4.400 F7800.000
G1 X90.831 Y90.305 F7800.000
G1 F4800
G1 X90.305 Y90.831 E217.95632
G1 X90.305 Y91.586 E217.97728
G1 X91.586 Y90.305 E218.02762
G1 X92.341 Y90.305 E218.04858
G1 X90.305 Y92.341 E218.12856
G1 X90.305 Y93.095 E218.14952
G1 X93.095 Y90.305 E218.25915
G1 X93.850 Y90.305 E218.28011
G1 X90.305 Y93.850 E218.41937
G1 X90.305 Y94.604 E218.44033
G1 X94.604 Y90.305 E218.60924
G1 X95.359 Y90.305 E218.63020
G1 X90.305 Y95.359 E218.82875
G1 X90.305 Y96.113 E218.84971
G1 X96.113 Y90.305 E219.07790
G1 X96.868 Y90.305 E219.09886
G1 X90.305 Y96.868 E219.35670
G1 X90.305 Y97.622 E219.37766
G1 X97.622 Y90.305 E219.66513
G1 X98.377 Y90.305 E219.68609
G1 X90.305 Y98.377 E220.00321
G1 X90.305 Y99.132 E220.02417
G1 X99.132 Y90.305 E220.37093
G1 X99.886 Y90.305 E220.39189
G1 X90.305 Y99.886 E220.76829
G1 X90.305 Y100.641 E220.78925
G1 X100.641 Y90.305 E221.19530
G1 X101.395 Y90.305 E221.21626
G1 X90.305 Y101.395 E221.65194
G1 X90.305 Y102.150 E221.67290
G1 X102.150 Y90.305 E222.13823
G1 X102.904 Y90.305 E222.15919
G1 X90.305 Y102.904 E222.65416
G1 X90.305 Y103.659 E222.67512
G1 X103.659 Y90.305 E223.19973
G1 X104.414 Y90.305 E223.22069
G1 X90.305 Y104.414 E223.77495
G1 X90.305 Y105.168 E223.79591
G1 X105.168 Y90.305 E224.37980
G1 X105.923 Y90.305 E224.40076
G1 X90.305 Y105.923 E225.01430
G1 X90.305 Y106.677 E225.03526
G1 X106.677 Y90.305 E225.67844
G1 X107.432 Y90.305 E225.69940
G1 X90.305 Y107.432 E226.37222
G1 X90.305 Y108.186 E226.39319
G1 X108.186 Y90.305 E227.09565
G1 X108.941 Y90.305 E227.11661
G1 X90.305 Y108.941 E227.84872
G1 X90.305 Y109.695 E227.86968
G1 X109.695 Y90.305 E228.63143
G1 X109.695 Y91.059 E228.65239
G1 X91.059 Y109.695 E229.38449
G1 X91.814 Y109.695 E229.40545
G1 X109.695 Y91.814 E230.10792
G1 X109.695 Y92.568 E230.12888
G1 X92.568 Y109.695 E230.80170
G1 X93.323 Y109.695 E230.82266
G1 X109.695 Y93.323 E231.46584
G1 X109.695 Y94.077 E231.48680
G1 X94.077 Y109.695 E232.10034
G1 X94.832 Y109.695 E232.12130
G1 X109.695 Y94.832 E232.70519
G1 X109.695 Y95.586 E232.72615
G1 X95.586 Y109.695 E233.28041
G1 X96.341 Y109.695 E233.30137
G1 X109.695 Y96.341 E233.82598
G1 X109.695 Y97.096 E233.84694
G1 X97.096 Y109.695 E234.34191
G1 X97.850 Y109.695 E234.36287
G1 X109.695 Y97.850 E234.82820
G1 X109.695 Y98.605 E234.84916
G1 X98.605 Y109.695 E235.28485
G1 X99.359 Y109.695 E235.30581
G1 X109.695 Y99.359 E235.71185
G1 X109.695 Y100.114 E235.73281
G1 X100.114 Y109.695 E236.10921
G1 X100.868 Y109.695 E236.13017
G1 X109.695 Y100.868 E236.47693
G1 X109.695 Y101.623 E236.49789
G1 X101.623 Y109.695 E236.81501
G1 X102.378 Y109.695 E236.83597
G1 X109.695 Y102.378 E237.12345
G1 X109.695 Y103.132 E237.14441
G1 X103.132 Y109.695 E237.40224
G1 X103.887 Y109.695 E237.42320
G1 X109.695 Y103.887 E237.65139
G1 X109.695 Y104.641 E237.67235
G1 X104.641 Y109.695 E237.87090
G1 X105.396 Y109.695 E237.89186
G1 X109.695 Y105.396 E238.06077
G1 X109.695 Y106.150 E238.08173
G1 X106.150 Y109.695 E238.22100
G1 X106.905 Y109.695 E238.24196
G1 X109.695 Y106.905 E238.35158
G1 X109.695 Y107.659 E238.37254
G1 X107.659 Y109.695 E238.45252
G1 X108.414 Y109.695 E238.47348
G1 X109.695 Y108.414 E238.52382
G1 X109.695 Y109.169 E238.54478
G1 X109.169 Y109.695 E238.56548
G1 Z4.800 F7800.000
G1 X109.695 Y90.831 F7800.000
G1 F4800
G1 X109.169 Y90.305 E238.58618
G1 X108.414 Y90.305 E238.60714
G1 X109.695 Y91.586 E238.65747
G1 X109.695 Y92.341 E238.67843
G1 X107.659 Y90.305 E238.75842
G1 X106.905 Y90.305 E238.77938
G1 X109.695 Y93.095 E238.88900
G1 X109.695 Y93.850 E238.90996
G1 X106.150 Y90.305 E239.04923
G1 X105.396 Y90.305 E239.07019
G1 X109.695 Y94.604 E239.23909
G1 X109.695 Y95.359 E239.26005
G1 X104.641 Y90.305 E239.45860
G1 X103.887 Y90.305 E239.47956
G1 X109.695 Y96.113 E239.70775
G1 X109.695 Y96.868 E239.72872
G1 X103.132 Y90.305 E239.98655
G1 X102.378 Y90.305 E240.00751
G1 X109.695 Y97.622 E240.29498
G1 X109.695 Y98.377 E240.31594
G1 X101.623 Y90.305 E240.63306
G1 X100.868 Y90.305 E240.65402
G1 X109.695 Y99.132 E241.00078
G1 X109.695 Y99.886 E241.02174
G1 X100.114 Y90.305 E241.39815
G1 X99.359 Y90.305 E241.41911
G1 X109.695 Y100.641 E241.82515
G1 X109.695 Y101.395 E241.84611
G1 X98.605 Y90.305 E242.28180
G1 X97.850 Y90.305 E242.30276
G1 X109.695 Y102.150 E242.76808
G1 X109.695 Y102.904 E242.78904
G1 X97.096 Y90.305 E243.28401
G1 X96.341 Y90.305 E243.30497
G1 X109.695 Y103.659 E243.82959
G1 X109.695 Y104.414 E243.85055
G1 X95.586 Y90.305 E244.40480
G1 X94.832 Y90.305 E244.42576
G1 X109.695 Y105.168 E245.00966
G1 X109.695 Y105.923 E245.03062
G1 X94.077 Y90.305 E245.64416
G1 X93.323 Y90.305 E245.66512
G1 X109.695 Y106.677 E246.30830
G1 X109.695 Y107.432 E246.32926
G1 X92.568 Y90.305 E247.00208
G1 X91.814 Y90.305 E247.02304
G1 X109.695 Y108.186 E247.72550
G1 X109.695 Y108.941 E247.74646
G1 X91.059 Y90.305 E248.47857
G1 X90.305 Y90.305 E248.49953
G1 X109.695 Y109.695 E249.26128
G1 X108.941 Y109.695 E249.28224
G1 X90.305 Y91.059 E250.01435
G1 X90.305 Y91.814 E250.03531
G1 X108.186 Y109.695 E250.73777
G1 X107.432 Y109.695 E250.75873
G1 X90.305 Y92.568 E251.43155
G1 X90.305 Y93.323 E251.45251
G1 X106.677 Y109.695 E252.09569
G1 X105.923 Y109.695 E252.11666
G1 X90.305 Y94.077 E252.73019
G1 X90.305 Y94.832 E252.75115
G1 X105.168 Y109.695 E253.33505
G1 X104.414 Y109.695 E253.35601
G1 X90.305 Y95.586 E253.91026
G1 X90.305 Y96.341 E253.93122
G1 X103.659 Y109.695 E254.45584
G1 X102.904 Y109.695 E254.47680
G1 X90.305 Y97.096 E254.97177
G1 X90.305 Y97.850 E254.99273
G1 X102.150 Y109.695 E255.45806
G1 X101.395 Y109.695 E255.47902
G1 X90.305 Y98.605 E255.91470
G1 X90.305 Y99.359 E255.93566
G1 X100.641 Y109.695 E256.34171
G1 X99.886 Y109.695 E256.36267
G1 X90.305 Y100.114 E256.73907
G1 X90.305 Y100.868 E256.76003
G1 X99.132 Y109.695 E257.10679
G1 X98.377 Y109.695 E257.12775
G1 X90.305 Y101.623 E257.44487
G1 X90.305 Y102.378 E257.46583
G1 X97.622 Y109.695 E257.75330
G1 X96.868 Y109.695 E257.77426
G1 X90.305 Y103.132 E258.03210
G1 X90.305 Y103.887 E258.05306
G1 X96.113 Y109.695 E258.28125
G1 X95.359 Y109.695 E258.30221
G1 X90.305 Y104.641 E258.50076
G1 X90.305 Y105.396 E258.52172
G1 X94.604 Y109.695 E258.69062
G1 X93.850 Y109.695 E258.71159
G1 X90.305 Y106.150 E258.85085
G1 X90.305 Y106.905 E258.87181
G1 X93.095 Y109.695 E258.98143
G1 X92.341 Y109.695 E259.00239
G1 X90.305 Y107.659 E259.08238
G1 X90.305 Y108.414 E259.10334
G1 X91.586 Y109.695 E259.15368
G1 X90.831 Y109.695 E259.17464
G1 X90.305 Y109.169 E259.19533
G1 Z5.200 F7800.000
G1 E257.19533 F2400.00000
G92 E0
G1 X90.831 Y90.305 F7800.000
G1 E2.00000 F2400.00000
G1 F4800
G1 X90.305 Y90.831 E2.02070
G1 X90.305 Y91.586 E2.04166
G1 X91.586 Y90.305 E2.09200
G1 X92.341 Y90.305 E2.11296
G1 X90.305 Y92.341 E2.19294
G1 X90.305 Y93.095 E2.21390
G1 X93.095 Y90.305 E2.32352
G1 X93.850 Y90.305 E2.34448
G1 X90.305 Y93.850 E2.48375
G1 X90.305 Y94.604 E2.50471
G1 X94.604 Y90.305 E2.67362
G1 X95.359 Y90.305 E2.69458
G1 X90.305 Y95.359 E2.89312
G1 X90.305 Y96.113 E2.91408
G1 X96.113 Y90.305 E3.14228
G1 X96.868 Y90.305 E3.16324
G1 X90.305 Y96.868 E3.42107
G1 X90.305 Y97.622 E3.44203
G1 X97.622 Y90.305 E3.72951
G1 X98.377 Y90.305 E3.75047
G1 X90.305 Y98.377 E4.06758
G1 X90.305 Y99.132 E4.08854
G1 X99.132 Y90.305 E4.43530
G1 X99.886 Y90.305 E4.45626
G1 X90.305 Y99.886 E4.83267
G1 X90.305 Y100.641 E4.85363
G1 X100.641 Y90.305 E5.25967
G1 X101.395 Y90.305 E5.28063
G1 X90.305 Y101.395 E5.71632
G1 X90.305 Y102.150 E5.73728
G1 X102.150 Y90.305 E6.20260
G1 X102.904 Y90.305 E6.22356
G1 X90.305 Y102.904 E6.71854
G1 X90.305 Y103.659 E6.73950
G1 X103.659 Y90.305 E7.26411
G1 X104.414 Y90.305 E7.28507
G1 X90.305 Y104.414 E7.83932
G1 X90.305 Y105.168 E7.86028
G1 X105.168 Y90.305 E8.44418
G1 X105.923 Y90.305 E8.46514
G1 X90.305 Y105.923 E9.07868
G1 X90.305 Y106.677 E9.09964
G1 X106.677 Y90.305 E9.74282
G1 X107.432 Y90.305 E9.76378
G1 X90.305 Y107.432 E10.43660
G1 X90.305 Y108.186 E10.45756
G1 X108.186 Y90.305 E11.16002
G1 X108.941 Y90.305 E11.18098
G1 X90.305 Y108.941 E11.91309
G1 X90.305 Y109.695 E11.93405
G1 X109.695 Y90.305 E12.69580
G1 X109.695 Y91.059 E12.71676
G1 X91.059 Y109.695 E13.44887
G1 X91.814 Y109.695 E13.46983
G1 X109.695 Y91.814 E14.17229
G1 X109.695 Y92.568 E14.19325
G1 X92.568 Y109.695 E14.86607
G1 X93.323 Y109.695 E14.88703
G1 X109.695 Y93.323 E15.53021
G1 X109.695 Y94.077 E15.55117
G1 X94.077 Y109.695 E16.16471
G1 X94.832 Y109.695 E16.18567
G1 X109.695 Y94.832 E16.76957
G1 X109.695 Y95.586 E16.79053
G1 X95.586 Y109.695 E17.34478
G1 X96.341 Y109.695 E17.36574
G1 X109.695 Y96.341 E17.89036
G1 X109.695 Y97.096 E17.91132
G1 X97.096 Y109.695 E18.40629
G1 X97.850 Y109.695 E18.42725
G1 X109.695 Y97.850 E18.89258
G1 X109.695 Y98.605 E18.91354
G1 X98.605 Y109.695 E19.34922
G1 X99.359 Y109.695 E19.37018
G1 X109.695 Y99.359 E19.77623
G1 X109.695 Y100.114 E19.79719
G1 X100.114 Y109.695 E20.17359
G1 X100.868 Y109.695 E20.19455
G1 X109.695 Y100.868 E20.54131
G1 X109.695 Y101.623 E20.56227
G1 X101.623 Y109.695 E20.87939
G1 X102.378 Y109.695 E20.90035
G1 X109.695 Y102.378 E21.18782
G1 X109.695 Y103.132 E21.20878
G1 X103.132 Y109.695 E21.46662
G1 X103.887 Y109.695 E21.48758
G1 X109.695 Y103.887 E21.71577
G1 X109.695 Y104.641 E21.73673
G1 X104.641 Y109.695 E21.93528
G1 X105.396 Y109.695 E21.95624
G1 X109.695 Y105.396 E22.12514
G1 X109.695 Y106.150 E22.14610
G1 X106.150 Y109.695 E22.28537
G1 X106.905 Y109.695 E22.30633
G1 X109.695 Y106.905 E22.41595
G1 X109.695 Y107.659 E22.43691
G1 X107.659 Y109.695 E22.51690
G1 X108.414 Y109.695 E22.53786
G1 X109.695 Y108.414 E22.58820
G1 X109.695 Y109.169 E22.60916
G1 X109.169 Y109.695 E22.62985
G1 E20.62985 F2400.00000
G92 E0
M107
; Filament-specific end gcode 
;END gcode for filament

M104 S0 ; turn off temperature
G28 X0  ; home X axis
M84     ; disable motors

M140 S0 ; set bed temperature
; filament used = 277.8mm (2.0cm3)
; total filament cost = 0.0

; avoid_crossing_perimeters = 0
; bed_shape = 0x0,200x0,200x200,0x200
; bed_temperature = 0
; before_layer_gcode = 
; between_objects_gcode = 
; bridge_acceleration = 0
; bridge_fan_speed = 100
; brim_connections_width = 0
; brim_width = 0
; complete_objects = 0
; cooling = 1
; default_acceleration = 0
; disable_fan_first_layers = 3
; duplicate_distance = 6
; end_filament_gcode = "; Filament-specific end gcode \n;END gcode for filament\n"
; end_gcode = M104 S0 ; turn off temperature\nG28 X0  ; home X axis\nM84     ; disable motors\n
; extruder_clearance_height = 20
; extruder_clearance_radius = 20
; extruder_offset = 0x0
; extrusion_axis = E
; extrusion_multiplier = 1
; fan_always_on = 0
; fan_below_layer_time = 60
; filament_colour = #FFFFFF
; filament_cost = 0
; filament_density = 0
; filament_diameter = 3
; filament_max_volumetric_speed = 0
; filament_notes = ""
; first_layer_acceleration = 0
; first_layer_bed_temperature = 0
; first_layer_extrusion_width = 200%
; first_layer_speed = 30
; first_layer_temperature = 205
; gcode_arcs = 0
; gcode_comments = 0
; gcode_flavor = reprap
; has_heatbed = 1
; infill_acceleration = 0
; infill_first = 0
; interior_brim_width = 0
; layer_gcode = 
; max_fan_speed = 100
; max_layer_height = 0.3
; max_print_speed = 80
; max_volumetric_speed = 0
; min_fan_speed = 35
; min_layer_height = 0.15
; min_print_speed = 10
; min_skirt_length = 0
; notes = 
; nozzle_diameter = 0.5
; only_retract_when_crossing_perimeters = 1
; ooze_prevention = 0
; output_filename_format = [input_filename_base].gcode
; perimeter_acceleration = 0
; post_process = 
; pressure_advance = 0
; printer_notes = 
; resolution = 0
; retract_before_travel = 2
; retract_layer_change = 0
; retract_length = 2
; retract_length_toolchange = 10
; retract_lift = 0
; retract_lift_above = 0
; retract_lift_below = 0
; retract_restart_extra = 0
; retract_restart_extra_toolchange = 0
; retract_speed = 40
; skirt_distance = 6
; skirt_height = 1
; skirts = 0
; slowdown_below_layer_time = 5
; spiral_vase = 0
; standby_temperature_delta = -5
; start_filament_gcode = "; Filament gcode\n"
; start_gcode = G28 ; home all axes\nG1 Z5 F5000 ; lift nozzle\n
; temperature = 200
; threads = 8
; toolchange_gcode = 
; travel_speed = 130
; use_firmware_retraction = 0
; use_relative_e_distances = 0
; use_set_and_wait_bed = 0
; use_set_and_wait_extruder = 0
; use_volumetric_e = 0
; vibration_limit = 0
; wipe = 0
; z_offset = 0
; z_steps_per_mm = 0
; adaptive_slicing = 0
; adaptive_slicing_quality = 75%
; dont_support_bridges = 1
; extrusion_width = 0
; first_layer_height = 0.4
; infill_only_where_needed = 0
; interface_shells = 0
; layer_height = 0.4
; match_horizontal_surfaces = 0
; raft_layers = 0
; regions_overlap = 0
; seam_position = aligned
; sequential_print_priority = 0
; support_material = 0
; support_material_angle = 0
; support_material_buildplate_only = 0
; support_material_contact_distance = 0.2
; support_material_enforce_layers = 0
; support_material_extruder = 1
; support_material_extrusion_width = 0
; support_material_interface_extruder = 1
; support_material_interface_extrusion_width = 0
; support_material_interface_layers = 3
; support_material_interface_spacing = 0
; support_material_interface_speed = 100%
; support_material_max_layers = 0
; support_material_pattern = pillars
; support_material_spacing = 2.5
; support_material_speed = 60
; support_material_threshold = 60%
; xy_size_compensation = 0
; bottom_infill_pattern = rectilinear
; bottom_solid_layers = 0
; bridge_flow_ratio = 1
; bridge_speed = 60
; external_perimeter_extrusion_width = 0
; external_perimeter_speed = 50%
; external_perimeters_first = 0
; extra_perimeters = 1
; fill_angle = 45
; fill_density = 92%
; fill_gaps = 1
; fill_pattern = rectilinear
; gap_fill_speed = 20
; infill_every_layers = 1
; infill_extruder = 1
; infill_extrusion_width = 0
; infill_overlap = 55%
; infill_speed = 80
; overhangs = 1
; perimeter_extruder = 1
; perimeter_extrusion_width = 0
; perimeter_speed = 60
; perimeters = 0
; small_perimeter_speed = 15
; solid_infill_below_area = 70
; solid_infill_every_layers = 0
; solid_infill_extruder = 1
; solid_infill_extrusion_width = 0
; solid_infill_speed = 20
; thin_walls = 1
; top_infill_extrusion_width = 0
; top_infill_pattern = rectilinear
; top_solid_infill_speed = 15
; top_solid_layers = 0
