; generated by Slic3r 1.2.9 on 2019-06-20 at 16:41:37

; external perimeters extrusion width = 0.50mm
; perimeters extrusion width = 0.58mm
; infill extrusion width = 0.58mm
; solid infill extrusion width = 0.58mm
; top infill extrusion width = 0.58mm

M107
M104 S200 ; set temperature
G28 ; home all axes
G1 Z5 F5000 ; lift nozzle

M109 S200 ; wait for temperature to be reached
G21 ; set units to millimeters
G90 ; use absolute coordinates
M82 ; use absolute distances for extrusion
G92 E0
G1 Z0.400 F7800.000
G1 E-2.00000 F2400.00000
G92 E0
G1 X90.371 Y109.074 F7800.000
G1 E2.00000 F2400.00000
G1 X90.926 Y109.629 E2.28525 F1800.000
G1 X92.083 Y109.629 E2.70608
G1 X90.371 Y107.917 E3.58646
G1 X90.371 Y106.760 E4.00728
G1 X93.240 Y109.629 E5.48280
G1 X94.397 Y109.629 E5.90363
G1 X90.371 Y105.603 E7.97428
G1 X90.371 Y104.446 E8.39510
G1 X95.554 Y109.629 E11.06088
G1 X96.711 Y109.629 E11.48171
G1 X90.371 Y103.289 E14.74262
G1 X90.371 Y102.132 E15.16345
G1 X97.868 Y109.629 E19.01950
G1 X99.025 Y109.629 E19.44032
G1 X90.371 Y100.975 E23.89150
G1 X90.371 Y99.818 E24.31232
G1 X100.182 Y109.629 E29.35864
G1 X101.339 Y109.629 E29.77946
G1 X90.371 Y98.661 E35.42091
G1 X90.371 Y97.504 E35.84173
G1 X102.496 Y109.629 E42.07831
G1 X103.653 Y109.629 E42.49914
G1 X90.371 Y96.347 E49.33085
G1 X90.371 Y95.190 E49.75167
G1 X104.810 Y109.629 E57.17852
G1 X105.967 Y109.629 E57.59934
G1 X90.371 Y94.033 E65.62132
G1 X90.371 Y92.876 E66.04214
G1 X107.124 Y109.629 E74.65926
G1 X108.281 Y109.629 E75.08008
G1 X90.371 Y91.719 E84.29232
G1 X90.371 Y90.562 E84.71315
G1 X109.438 Y109.629 E94.52053
G1 X109.629 Y108.663 E94.87872
G1 X91.337 Y90.371 E104.28731
G1 X92.494 Y90.371 E104.70813
G1 X109.629 Y107.506 E113.52158
G1 X109.629 Y106.349 E113.94240
G1 X93.651 Y90.371 E122.16072
G1 X94.808 Y90.371 E122.58155
G1 X109.629 Y105.192 E130.20473
G1 X109.629 Y104.035 E130.62555
G1 X95.965 Y90.371 E137.65361
G1 X97.122 Y90.371 E138.07443
G1 X109.629 Y102.878 E144.50735
G1 X109.629 Y101.721 E144.92817
G1 X98.279 Y90.371 E150.76596
G1 X99.436 Y90.371 E151.18679
G1 X109.629 Y100.564 E156.42944
G1 X109.629 Y99.407 E156.85026
G1 X100.593 Y90.371 E161.49779
G1 X101.750 Y90.371 E161.91861
G1 X109.629 Y98.250 E165.97100
G1 X109.629 Y97.093 E166.39182
G1 X102.907 Y90.371 E169.84908
G1 X104.064 Y90.371 E170.26990
G1 X109.629 Y95.936 E173.13203
G1 X109.629 Y94.779 E173.55285
G1 X105.221 Y90.371 E175.81984
G1 X106.378 Y90.371 E176.24066
G1 X109.629 Y93.622 E177.91252
G1 X109.629 Y92.465 E178.33335
G1 X107.535 Y90.371 E179.41007
G1 X108.692 Y90.371 E179.83090
G1 X109.629 Y91.308 E180.31249
G1 Z0.800 F7800.000
G1 X108.692 Y109.629 F7800.000
G1 X109.629 Y108.692 E180.64351 F4800.000
G1 X109.629 Y107.535 E180.93276
G1 X107.535 Y109.629 E181.67284
G1 X106.378 Y109.629 E181.96209
G1 X109.629 Y106.378 E183.11124
G1 X109.629 Y105.221 E183.40049
G1 X105.221 Y109.629 E184.95869
G1 X104.064 Y109.629 E185.24794
G1 X109.629 Y104.064 E187.21521
G1 X109.629 Y102.907 E187.50446
G1 X102.907 Y109.629 E189.88079
G1 X101.750 Y109.629 E190.17004
G1 X109.629 Y101.750 E192.95543
G1 X109.629 Y100.593 E193.24468
G1 X100.593 Y109.629 E196.43913
G1 X99.436 Y109.629 E196.72838
G1 X109.629 Y99.436 E200.33189
G1 X109.629 Y98.279 E200.62114
G1 X98.279 Y109.629 E204.63372
G1 X97.122 Y109.629 E204.92297
G1 X109.629 Y97.122 E209.34460
G1 X109.629 Y95.965 E209.63385
G1 X95.965 Y109.629 E214.46455
G1 X94.808 Y109.629 E214.75380
G1 X109.629 Y94.808 E219.99356
G1 X109.629 Y93.651 E220.28281
G1 X93.651 Y109.629 E225.93163
G1 X92.494 Y109.629 E226.22088
G1 X109.629 Y92.494 E232.27876
G1 X109.629 Y91.337 E232.56801
G1 X91.337 Y109.629 E239.03496
G1 X90.371 Y109.438 E239.28116
G1 X109.438 Y90.371 E246.02221
G1 X108.281 Y90.371 E246.31146
G1 X90.371 Y108.281 E252.64345
G1 X90.371 Y107.124 E252.93270
G1 X107.124 Y90.371 E258.85563
G1 X105.967 Y90.371 E259.14488
G1 X90.371 Y105.967 E264.65875
G1 X90.371 Y104.810 E264.94800
G1 X104.810 Y90.371 E270.05281
G1 X103.653 Y90.371 E270.34206
G1 X90.371 Y103.653 E275.03780
G1 X90.371 Y102.496 E275.32705
G1 X102.496 Y90.371 E279.61374
G1 X101.339 Y90.371 E279.90299
G1 X90.371 Y101.339 E283.78061
G1 X90.371 Y100.182 E284.06986
G1 X100.182 Y90.371 E287.53842
G1 X99.025 Y90.371 E287.82767
G1 X90.371 Y99.025 E290.88717
G1 X90.371 Y97.868 E291.17642
G1 X97.868 Y90.371 E293.82686
G1 X96.711 Y90.371 E294.11611
G1 X90.371 Y96.711 E296.35748
G1 X90.371 Y95.554 E296.64673
G1 X95.554 Y90.371 E298.47905
G1 X94.397 Y90.371 E298.76830
G1 X90.371 Y94.397 E300.19155
G1 X90.371 Y93.240 E300.48080
G1 X93.240 Y90.371 E301.49499
G1 X92.083 Y90.371 E301.78424
G1 X90.371 Y92.083 E302.38937
G1 X90.371 Y90.926 E302.67862
G1 X90.926 Y90.371 E302.87469
G1 Z1.200 F7800.000
G1 X90.371 Y109.074 F7800.000
G1 X90.926 Y109.629 E303.07076 F4800.000
G1 X92.083 Y109.629 E303.36001
G1 X90.371 Y107.917 E303.96514
G1 X90.371 Y106.760 E304.25439
G1 X93.240 Y109.629 E305.26858
G1 X94.397 Y109.629 E305.55783
G1 X90.371 Y105.603 E306.98108
G1 X90.371 Y104.446 E307.27033
G1 X95.554 Y109.629 E309.10264
G1 X96.711 Y109.629 E309.39189
G1 X90.371 Y103.289 E311.63327
G1 X90.371 Y102.132 E311.92252
G1 X97.868 Y109.629 E314.57295
G1 X99.025 Y109.629 E314.86220
G1 X90.371 Y100.975 E317.92170
G1 X90.371 Y99.818 E318.21095
G1 X100.182 Y109.629 E321.67951
G1 X101.339 Y109.629 E321.96876
G1 X90.371 Y98.661 E325.84638
G1 X90.371 Y97.504 E326.13563
G1 X102.496 Y109.629 E330.42232
G1 X103.653 Y109.629 E330.71157
G1 X90.371 Y96.347 E335.40731
G1 X90.371 Y95.190 E335.69656
G1 X104.810 Y109.629 E340.80137
G1 X105.967 Y109.629 E341.09062
G1 X90.371 Y94.033 E346.60449
G1 X90.371 Y92.876 E346.89374
G1 X107.124 Y109.629 E352.81667
G1 X108.281 Y109.629 E353.10592
G1 X90.371 Y91.719 E359.43791
G1 X90.371 Y90.562 E359.72716
G1 X109.438 Y109.629 E366.46821
G1 X109.629 Y108.663 E366.71441
G1 X91.337 Y90.371 E373.18136
G1 X92.494 Y90.371 E373.47061
G1 X109.629 Y107.506 E379.52849
G1 X109.629 Y106.349 E379.81774
G1 X93.651 Y90.371 E385.46656
G1 X94.808 Y90.371 E385.75581
G1 X109.629 Y105.192 E390.99557
G1 X109.629 Y104.035 E391.28482
G1 X95.965 Y90.371 E396.11552
G1 X97.122 Y90.371 E396.40477
G1 X109.629 Y102.878 E400.82640
G1 X109.629 Y101.721 E401.11565
G1 X98.279 Y90.371 E405.12823
G1 X99.436 Y90.371 E405.41748
G1 X109.629 Y100.564 E409.02099
G1 X109.629 Y99.407 E409.31024
G1 X100.593 Y90.371 E412.50469
G1 X101.750 Y90.371 E412.79394
G1 X109.629 Y98.250 E415.57934
G1 X109.629 Y97.093 E415.86859
G1 X102.907 Y90.371 E418.24491
G1 X104.064 Y90.371 E418.53417
G1 X109.629 Y95.936 E420.50143
G1 X109.629 Y94.779 E420.79068
G1 X105.221 Y90.371 E422.34889
G1 X106.378 Y90.371 E422.63814
G1 X109.629 Y93.622 E423.78728
G1 X109.629 Y92.465 E424.07653
G1 X107.535 Y90.371 E424.81662
G1 X108.692 Y90.371 E425.10587
G1 X109.629 Y91.308 E425.43689
M106 S249.9
G1 Z1.600 F7800.000
G1 X108.692 Y109.629 F7800.000
G1 X109.629 Y108.692 E425.76791 F4800.000
G1 X109.629 Y107.535 E426.05716
G1 X107.535 Y109.629 E426.79724
G1 X106.378 Y109.629 E427.08649
G1 X109.629 Y106.378 E428.23563
G1 X109.629 Y105.221 E428.52488
G1 X105.221 Y109.629 E430.08309
G1 X104.064 Y109.629 E430.37234
G1 X109.629 Y104.064 E432.33961
G1 X109.629 Y102.907 E432.62886
G1 X102.907 Y109.629 E435.00518
G1 X101.750 Y109.629 E435.29443
G1 X109.629 Y101.750 E438.07982
G1 X109.629 Y100.593 E438.36907
G1 X100.593 Y109.629 E441.56353
G1 X99.436 Y109.629 E441.85278
G1 X109.629 Y99.436 E445.45629
G1 X109.629 Y98.279 E445.74554
G1 X98.279 Y109.629 E449.75811
G1 X97.122 Y109.629 E450.04736
G1 X109.629 Y97.122 E454.46900
G1 X109.629 Y95.965 E454.75825
G1 X95.965 Y109.629 E459.58895
G1 X94.808 Y109.629 E459.87820
G1 X109.629 Y94.808 E465.11796
G1 X109.629 Y93.651 E465.40721
G1 X93.651 Y109.629 E471.05603
G1 X92.494 Y109.629 E471.34528
G1 X109.629 Y92.494 E477.40316
G1 X109.629 Y91.337 E477.69241
G1 X91.337 Y109.629 E484.15935
G1 X90.371 Y109.438 E484.40556
G1 X109.438 Y90.371 E491.14661
G1 X108.281 Y90.371 E491.43586
G1 X90.371 Y108.281 E497.76785
G1 X90.371 Y107.124 E498.05710
G1 X107.124 Y90.371 E503.98003
G1 X105.967 Y90.371 E504.26928
G1 X90.371 Y105.967 E509.78315
G1 X90.371 Y104.810 E510.07240
G1 X104.810 Y90.371 E515.17721
G1 X103.653 Y90.371 E515.46646
G1 X90.371 Y103.653 E520.16220
G1 X90.371 Y102.496 E520.45145
G1 X102.496 Y90.371 E524.73813
G1 X101.339 Y90.371 E525.02738
G1 X90.371 Y101.339 E528.90501
G1 X90.371 Y100.182 E529.19426
G1 X100.182 Y90.371 E532.66282
G1 X99.025 Y90.371 E532.95207
G1 X90.371 Y99.025 E536.01156
G1 X90.371 Y97.868 E536.30081
G1 X97.868 Y90.371 E538.95125
G1 X96.711 Y90.371 E539.24050
G1 X90.371 Y96.711 E541.48188
G1 X90.371 Y95.554 E541.77113
G1 X95.554 Y90.371 E543.60344
G1 X94.397 Y90.371 E543.89269
G1 X90.371 Y94.397 E545.31595
G1 X90.371 Y93.240 E545.60520
G1 X93.240 Y90.371 E546.61939
G1 X92.083 Y90.371 E546.90864
G1 X90.371 Y92.083 E547.51377
G1 X90.371 Y90.926 E547.80302
G1 X90.926 Y90.371 E547.99909
G1 Z2.000 F7800.000
G1 X90.371 Y109.074 F7800.000
G1 X90.926 Y109.629 E548.19515 F4800.000
G1 X92.083 Y109.629 E548.48440
G1 X90.371 Y107.917 E549.08953
G1 X90.371 Y106.760 E549.37878
G1 X93.240 Y109.629 E550.39297
G1 X94.397 Y109.629 E550.68222
G1 X90.371 Y105.603 E552.10547
G1 X90.371 Y104.446 E552.39473
G1 X95.554 Y109.629 E554.22704
G1 X96.711 Y109.629 E554.51629
G1 X90.371 Y103.289 E556.75766
G1 X90.371 Y102.132 E557.04691
G1 X97.868 Y109.629 E559.69735
G1 X99.025 Y109.629 E559.98660
G1 X90.371 Y100.975 E563.04610
G1 X90.371 Y99.818 E563.33535
G1 X100.182 Y109.629 E566.80391
G1 X101.339 Y109.629 E567.09316
G1 X90.371 Y98.661 E570.97078
G1 X90.371 Y97.504 E571.26003
G1 X102.496 Y109.629 E575.54671
G1 X103.653 Y109.629 E575.83596
G1 X90.371 Y96.347 E580.53171
G1 X90.371 Y95.190 E580.82096
G1 X104.810 Y109.629 E585.92576
G1 X105.967 Y109.629 E586.21501
G1 X90.371 Y94.033 E591.72888
G1 X90.371 Y92.876 E592.01813
G1 X107.124 Y109.629 E597.94106
G1 X108.281 Y109.629 E598.23031
G1 X90.371 Y91.719 E604.56230
G1 X90.371 Y90.562 E604.85155
G1 X109.438 Y109.629 E611.59261
G1 X109.629 Y108.663 E611.83881
G1 X91.337 Y90.371 E618.30575
G1 X92.494 Y90.371 E618.59500
G1 X109.629 Y107.506 E624.65289
G1 X109.629 Y106.349 E624.94214
G1 X93.651 Y90.371 E630.59096
G1 X94.808 Y90.371 E630.88021
G1 X109.629 Y105.192 E636.11997
G1 X109.629 Y104.035 E636.40922
G1 X95.965 Y90.371 E641.23991
G1 X97.122 Y90.371 E641.52916
G1 X109.629 Y102.878 E645.95080
G1 X109.629 Y101.721 E646.24005
G1 X98.279 Y90.371 E650.25263
G1 X99.436 Y90.371 E650.54188
G1 X109.629 Y100.564 E654.14539
G1 X109.629 Y99.407 E654.43464
G1 X100.593 Y90.371 E657.62909
G1 X101.750 Y90.371 E657.91834
G1 X109.629 Y98.250 E660.70373
G1 X109.629 Y97.093 E660.99298
G1 X102.907 Y90.371 E663.36931
G1 X104.064 Y90.371 E663.65856
G1 X109.629 Y95.936 E665.62583
G1 X109.629 Y94.779 E665.91508
G1 X105.221 Y90.371 E667.47328
G1 X106.378 Y90.371 E667.76253
G1 X109.629 Y93.622 E668.91168
G1 X109.629 Y92.465 E669.20093
G1 X107.535 Y90.371 E669.94101
G1 X108.692 Y90.371 E670.23026
G1 X109.629 Y91.308 E670.56128
G1 Z2.400 F7800.000
G1 X108.692 Y109.629 F7800.000
G1 X109.629 Y108.692 E670.89230 F4800.000
G1 X109.629 Y107.535 E671.18155
G1 X107.535 Y109.629 E671.92164
G1 X106.378 Y109.629 E672.21089
G1 X109.629 Y106.378 E673.36003
G1 X109.629 Y105.221 E673.64928
G1 X105.221 Y109.629 E675.20749
G1 X104.064 Y109.629 E675.49674
G1 X109.629 Y104.064 E677.46400
G1 X109.629 Y102.907 E677.75325
G1 X102.907 Y109.629 E680.12958
G1 X101.750 Y109.629 E680.41883
G1 X109.629 Y101.750 E683.20422
G1 X109.629 Y100.593 E683.49347
G1 X100.593 Y109.629 E686.68792
G1 X99.436 Y109.629 E686.97717
G1 X109.629 Y99.436 E690.58069
G1 X109.629 Y98.279 E690.86994
G1 X98.279 Y109.629 E694.88251
G1 X97.122 Y109.629 E695.17176
G1 X109.629 Y97.122 E699.59340
G1 X109.629 Y95.965 E699.88265
G1 X95.965 Y109.629 E704.71334
G1 X94.808 Y109.629 E705.00259
G1 X109.629 Y94.808 E710.24235
G1 X109.629 Y93.651 E710.53160
G1 X93.651 Y109.629 E716.18042
G1 X92.494 Y109.629 E716.46967
G1 X109.629 Y92.494 E722.52756
G1 X109.629 Y91.337 E722.81681
G1 X91.337 Y109.629 E729.28375
G1 X90.371 Y109.438 E729.52995
G1 X109.438 Y90.371 E736.27101
G1 X108.281 Y90.371 E736.56026
G1 X90.371 Y108.281 E742.89225
G1 X90.371 Y107.124 E743.18150
G1 X107.124 Y90.371 E749.10443
G1 X105.967 Y90.371 E749.39368
G1 X90.371 Y105.967 E754.90755
G1 X90.371 Y104.810 E755.19680
G1 X104.810 Y90.371 E760.30160
G1 X103.653 Y90.371 E760.59085
G1 X90.371 Y103.653 E765.28660
G1 X90.371 Y102.496 E765.57585
G1 X102.496 Y90.371 E769.86253
G1 X101.339 Y90.371 E770.15178
G1 X90.371 Y101.339 E774.02940
G1 X90.371 Y100.182 E774.31865
G1 X100.182 Y90.371 E777.78721
G1 X99.025 Y90.371 E778.07646
G1 X90.371 Y99.025 E781.13596
G1 X90.371 Y97.868 E781.42521
G1 X97.868 Y90.371 E784.07565
G1 X96.711 Y90.371 E784.36490
G1 X90.371 Y96.711 E786.60627
G1 X90.371 Y95.554 E786.89553
G1 X95.554 Y90.371 E788.72784
G1 X94.397 Y90.371 E789.01709
G1 X90.371 Y94.397 E790.44034
G1 X90.371 Y93.240 E790.72959
G1 X93.240 Y90.371 E791.74378
G1 X92.083 Y90.371 E792.03303
G1 X90.371 Y92.083 E792.63816
G1 X90.371 Y90.926 E792.92741
G1 X90.926 Y90.371 E793.12348
G1 Z2.800 F7800.000
G1 X90.371 Y109.074 F7800.000
G1 X90.926 Y109.629 E793.31955 F4800.000
G1 X92.083 Y109.629 E793.60880
G1 X90.371 Y107.917 E794.21393
G1 X90.371 Y106.760 E794.50318
G1 X93.240 Y109.629 E795.51737
G1 X94.397 Y109.629 E795.80662
G1 X90.371 Y105.603 E797.22987
G1 X90.371 Y104.446 E797.51912
G1 X95.554 Y109.629 E799.35144
G1 X96.711 Y109.629 E799.64069
G1 X90.371 Y103.289 E801.88206
G1 X90.371 Y102.132 E802.17131
G1 X97.868 Y109.629 E804.82175
G1 X99.025 Y109.629 E805.11100
G1 X90.371 Y100.975 E808.17050
G1 X90.371 Y99.818 E808.45975
G1 X100.182 Y109.629 E811.92831
G1 X101.339 Y109.629 E812.21756
G1 X90.371 Y98.661 E816.09518
G1 X90.371 Y97.504 E816.38443
G1 X102.496 Y109.629 E820.67111
G1 X103.653 Y109.629 E820.96036
G1 X90.371 Y96.347 E825.65611
G1 X90.371 Y95.190 E825.94536
G1 X104.810 Y109.629 E831.05016
G1 X105.967 Y109.629 E831.33941
G1 X90.371 Y94.033 E836.85328
G1 X90.371 Y92.876 E837.14253
G1 X107.124 Y109.629 E843.06546
G1 X108.281 Y109.629 E843.35471
G1 X90.371 Y91.719 E849.68670
G1 X90.371 Y90.562 E849.97595
G1 X109.438 Y109.629 E856.71700
G1 X109.629 Y108.663 E856.96321
G1 X91.337 Y90.371 E863.43015
G1 X92.494 Y90.371 E863.71940
G1 X109.629 Y107.506 E869.77728
G1 X109.629 Y106.349 E870.06653
G1 X93.651 Y90.371 E875.71535
G1 X94.808 Y90.371 E876.00460
G1 X109.629 Y105.192 E881.24436
G1 X109.629 Y104.035 E881.53361
G1 X95.965 Y90.371 E886.36431
G1 X97.122 Y90.371 E886.65356
G1 X109.629 Y102.878 E891.07520
G1 X109.629 Y101.721 E891.36445
G1 X98.279 Y90.371 E895.37702
G1 X99.436 Y90.371 E895.66627
G1 X109.629 Y100.564 E899.26979
G1 X109.629 Y99.407 E899.55904
G1 X100.593 Y90.371 E902.75349
G1 X101.750 Y90.371 E903.04274
G1 X109.629 Y98.250 E905.82813
G1 X109.629 Y97.093 E906.11738
G1 X102.907 Y90.371 E908.49371
G1 X104.064 Y90.371 E908.78296
G1 X109.629 Y95.936 E910.75023
G1 X109.629 Y94.779 E911.03948
G1 X105.221 Y90.371 E912.59768
G1 X106.378 Y90.371 E912.88693
G1 X109.629 Y93.622 E914.03608
G1 X109.629 Y92.465 E914.32533
G1 X107.535 Y90.371 E915.06541
G1 X108.692 Y90.371 E915.35466
G1 X109.629 Y91.308 E915.68568
G1 Z3.200 F7800.000
G1 X108.692 Y109.629 F7800.000
G1 X109.629 Y108.692 E916.01670 F4800.000
G1 X109.629 Y107.535 E916.30595
G1 X107.535 Y109.629 E917.04603
G1 X106.378 Y109.629 E917.33528
G1 X109.629 Y106.378 E918.48443
G1 X109.629 Y105.221 E918.77368
G1 X105.221 Y109.629 E920.33188
G1 X104.064 Y109.629 E920.62113
G1 X109.629 Y104.064 E922.58840
G1 X109.629 Y102.907 E922.87765
G1 X102.907 Y109.629 E925.25398
G1 X101.750 Y109.629 E925.54323
G1 X109.629 Y101.750 E928.32862
G1 X109.629 Y100.593 E928.61787
G1 X100.593 Y109.629 E931.81232
G1 X99.436 Y109.629 E932.10157
G1 X109.629 Y99.436 E935.70508
G1 X109.629 Y98.279 E935.99433
G1 X98.279 Y109.629 E940.00691
G1 X97.122 Y109.629 E940.29616
G1 X109.629 Y97.122 E944.71779
G1 X109.629 Y95.965 E945.00704
G1 X95.965 Y109.629 E949.83774
G1 X94.808 Y109.629 E950.12699
G1 X109.629 Y94.808 E955.36675
G1 X109.629 Y93.651 E955.65600
G1 X93.651 Y109.629 E961.30482
G1 X92.494 Y109.629 E961.59407
G1 X109.629 Y92.494 E967.65195
G1 X109.629 Y91.337 E967.94120
G1 X91.337 Y109.629 E974.40815
G1 X90.371 Y109.438 E974.65435
G1 X109.438 Y90.371 E981.39540
G1 X108.281 Y90.371 E981.68465
G1 X90.371 Y108.281 E988.01664
G1 X90.371 Y107.124 E988.30589
G1 X107.124 Y90.371 E994.22882
G1 X105.967 Y90.371 E994.51807
G1 X90.371 Y105.967 E1000.03194
G1 X90.371 Y104.810 E1000.32119
G1 X104.810 Y90.371 E1005.42600
G1 X103.653 Y90.371 E1005.71525
G1 X90.371 Y103.653 E1010.41099
G1 X90.371 Y102.496 E1010.70024
G1 X102.496 Y90.371 E1014.98693
G1 X101.339 Y90.371 E1015.27618
G1 X90.371 Y101.339 E1019.15380
G1 X90.371 Y100.182 E1019.44305
G1 X100.182 Y90.371 E1022.91161
G1 X99.025 Y90.371 E1023.20086
G1 X90.371 Y99.025 E1026.26036
G1 X90.371 Y97.868 E1026.54961
G1 X97.868 Y90.371 E1029.20005
G1 X96.711 Y90.371 E1029.48930
G1 X90.371 Y96.711 E1031.73067
G1 X90.371 Y95.554 E1032.01992
G1 X95.554 Y90.371 E1033.85224
G1 X94.397 Y90.371 E1034.14149
G1 X90.371 Y94.397 E1035.56474
G1 X90.371 Y93.240 E1035.85399
G1 X93.240 Y90.371 E1036.86818
G1 X92.083 Y90.371 E1037.15743
G1 X90.371 Y92.083 E1037.76256
G1 X90.371 Y90.926 E1038.05181
G1 X90.926 Y90.371 E1038.24788
G1 Z3.600 F7800.000
G1 X90.371 Y109.074 F7800.000
G1 X90.926 Y109.629 E1038.44395 F4800.000
G1 X92.083 Y109.629 E1038.73320
G1 X90.371 Y107.917 E1039.33833
G1 X90.371 Y106.760 E1039.62758
G1 X93.240 Y109.629 E1040.64177
G1 X94.397 Y109.629 E1040.93102
G1 X90.371 Y105.603 E1042.35427
G1 X90.371 Y104.446 E1042.64352
G1 X95.554 Y109.629 E1044.47583
G1 X96.711 Y109.629 E1044.76508
G1 X90.371 Y103.289 E1047.00646
G1 X90.371 Y102.132 E1047.29571
G1 X97.868 Y109.629 E1049.94614
G1 X99.025 Y109.629 E1050.23539
G1 X90.371 Y100.975 E1053.29489
G1 X90.371 Y99.818 E1053.58414
G1 X100.182 Y109.629 E1057.05270
G1 X101.339 Y109.629 E1057.34195
G1 X90.371 Y98.661 E1061.21957
G1 X90.371 Y97.504 E1061.50882
G1 X102.496 Y109.629 E1065.79551
G1 X103.653 Y109.629 E1066.08476
G1 X90.371 Y96.347 E1070.78050
G1 X90.371 Y95.190 E1071.06975
G1 X104.810 Y109.629 E1076.17456
G1 X105.967 Y109.629 E1076.46381
G1 X90.371 Y94.033 E1081.97768
G1 X90.371 Y92.876 E1082.26693
G1 X107.124 Y109.629 E1088.18986
G1 X108.281 Y109.629 E1088.47911
G1 X90.371 Y91.719 E1094.81110
G1 X90.371 Y90.562 E1095.10035
G1 X109.438 Y109.629 E1101.84140
G1 X109.629 Y108.663 E1102.08760
G1 X91.337 Y90.371 E1108.55455
G1 X92.494 Y90.371 E1108.84380
G1 X109.629 Y107.506 E1114.90168
G1 X109.629 Y106.349 E1115.19093
G1 X93.651 Y90.371 E1120.83975
G1 X94.808 Y90.371 E1121.12900
G1 X109.629 Y105.192 E1126.36876
G1 X109.629 Y104.035 E1126.65801
G1 X95.965 Y90.371 E1131.48871
G1 X97.122 Y90.371 E1131.77796
G1 X109.629 Y102.878 E1136.19959
G1 X109.629 Y101.721 E1136.48884
G1 X98.279 Y90.371 E1140.50142
G1 X99.436 Y90.371 E1140.79067
G1 X109.629 Y100.564 E1144.39418
G1 X109.629 Y99.407 E1144.68343
G1 X100.593 Y90.371 E1147.87789
G1 X101.750 Y90.371 E1148.16714
G1 X109.629 Y98.250 E1150.95253
G1 X109.629 Y97.093 E1151.24178
G1 X102.907 Y90.371 E1153.61811
G1 X104.064 Y90.371 E1153.90736
G1 X109.629 Y95.936 E1155.87462
G1 X109.629 Y94.779 E1156.16387
G1 X105.221 Y90.371 E1157.72208
G1 X106.378 Y90.371 E1158.01133
G1 X109.629 Y93.622 E1159.16047
G1 X109.629 Y92.465 E1159.44972
G1 X107.535 Y90.371 E1160.18981
G1 X108.692 Y90.371 E1160.47906
G1 X109.629 Y91.308 E1160.81008
G1 Z4.000 F7800.000
G1 X108.692 Y109.629 F7800.000
G1 X109.629 Y108.692 E1161.14110 F4800.000
G1 X109.629 Y107.535 E1161.43035
G1 X107.535 Y109.629 E1162.17043
G1 X106.378 Y109.629 E1162.45968
G1 X109.629 Y106.378 E1163.60882
G1 X109.629 Y105.221 E1163.89807
G1 X105.221 Y109.629 E1165.45628
G1 X104.064 Y109.629 E1165.74553
G1 X109.629 Y104.064 E1167.71280
G1 X109.629 Y102.907 E1168.00205
G1 X102.907 Y109.629 E1170.37837
G1 X101.750 Y109.629 E1170.66762
G1 X109.629 Y101.750 E1173.45301
G1 X109.629 Y100.593 E1173.74226
G1 X100.593 Y109.629 E1176.93672
G1 X99.436 Y109.629 E1177.22597
G1 X109.629 Y99.436 E1180.82948
G1 X109.629 Y98.279 E1181.11873
G1 X98.279 Y109.629 E1185.13130
G1 X97.122 Y109.629 E1185.42055
G1 X109.629 Y97.122 E1189.84219
G1 X109.629 Y95.965 E1190.13144
G1 X95.965 Y109.629 E1194.96214
G1 X94.808 Y109.629 E1195.25139
G1 X109.629 Y94.808 E1200.49115
G1 X109.629 Y93.651 E1200.78040
G1 X93.651 Y109.629 E1206.42922
G1 X92.494 Y109.629 E1206.71847
G1 X109.629 Y92.494 E1212.77635
G1 X109.629 Y91.337 E1213.06560
G1 X91.337 Y109.629 E1219.53254
G1 X90.371 Y109.438 E1219.77875
G1 X109.438 Y90.371 E1226.51980
G1 X108.281 Y90.371 E1226.80905
G1 X90.371 Y108.281 E1233.14104
G1 X90.371 Y107.124 E1233.43029
G1 X107.124 Y90.371 E1239.35322
G1 X105.967 Y90.371 E1239.64247
G1 X90.371 Y105.967 E1245.15634
G1 X90.371 Y104.810 E1245.44559
G1 X104.810 Y90.371 E1250.55040
G1 X103.653 Y90.371 E1250.83965
G1 X90.371 Y103.653 E1255.53539
G1 X90.371 Y102.496 E1255.82464
G1 X102.496 Y90.371 E1260.11132
G1 X101.339 Y90.371 E1260.40057
G1 X90.371 Y101.339 E1264.27820
G1 X90.371 Y100.182 E1264.56745
G1 X100.182 Y90.371 E1268.03601
G1 X99.025 Y90.371 E1268.32526
G1 X90.371 Y99.025 E1271.38476
G1 X90.371 Y97.868 E1271.67401
G1 X97.868 Y90.371 E1274.32444
G1 X96.711 Y90.371 E1274.61369
G1 X90.371 Y96.711 E1276.85507
G1 X90.371 Y95.554 E1277.14432
G1 X95.554 Y90.371 E1278.97663
G1 X94.397 Y90.371 E1279.26588
G1 X90.371 Y94.397 E1280.68914
G1 X90.371 Y93.240 E1280.97839
G1 X93.240 Y90.371 E1281.99258
G1 X92.083 Y90.371 E1282.28183
G1 X90.371 Y92.083 E1282.88696
G1 X90.371 Y90.926 E1283.17621
G1 X90.926 Y90.371 E1283.37228
G1 Z4.400 F7800.000
G1 X90.371 Y109.074 F7800.000
G1 X90.926 Y109.629 E1283.56834 F4800.000
G1 X92.083 Y109.629 E1283.85759
G1 X90.371 Y107.917 E1284.46272
G1 X90.371 Y106.760 E1284.75197
G1 X93.240 Y109.629 E1285.76616
G1 X94.397 Y109.629 E1286.05541
G1 X90.371 Y105.603 E1287.47867
G1 X90.371 Y104.446 E1287.76792
G1 X95.554 Y109.629 E1289.60023
G1 X96.711 Y109.629 E1289.88948
G1 X90.371 Y103.289 E1292.13085
G1 X90.371 Y102.132 E1292.42010
G1 X97.868 Y109.629 E1295.07054
G1 X99.025 Y109.629 E1295.35979
G1 X90.371 Y100.975 E1298.41929
G1 X90.371 Y99.818 E1298.70854
G1 X100.182 Y109.629 E1302.17710
G1 X101.339 Y109.629 E1302.46635
G1 X90.371 Y98.661 E1306.34397
G1 X90.371 Y97.504 E1306.63322
G1 X102.496 Y109.629 E1310.91990
G1 X103.653 Y109.629 E1311.20915
G1 X90.371 Y96.347 E1315.90490
G1 X90.371 Y95.190 E1316.19415
G1 X104.810 Y109.629 E1321.29895
G1 X105.967 Y109.629 E1321.58821
G1 X90.371 Y94.033 E1327.10207
G1 X90.371 Y92.876 E1327.39132
G1 X107.124 Y109.629 E1333.31425
G1 X108.281 Y109.629 E1333.60350
G1 X90.371 Y91.719 E1339.93549
G1 X90.371 Y90.562 E1340.22474
G1 X109.438 Y109.629 E1346.96580
G1 X109.629 Y108.663 E1347.21200
G1 X91.337 Y90.371 E1353.67894
G1 X92.494 Y90.371 E1353.96819
G1 X109.629 Y107.506 E1360.02608
G1 X109.629 Y106.349 E1360.31533
G1 X93.651 Y90.371 E1365.96415
G1 X94.808 Y90.371 E1366.25340
G1 X109.629 Y105.192 E1371.49316
G1 X109.629 Y104.035 E1371.78241
G1 X95.965 Y90.371 E1376.61310
G1 X97.122 Y90.371 E1376.90235
G1 X109.629 Y102.878 E1381.32399
G1 X109.629 Y101.721 E1381.61324
G1 X98.279 Y90.371 E1385.62582
G1 X99.436 Y90.371 E1385.91507
G1 X109.629 Y100.564 E1389.51858
G1 X109.629 Y99.407 E1389.80783
G1 X100.593 Y90.371 E1393.00228
G1 X101.750 Y90.371 E1393.29153
G1 X109.629 Y98.250 E1396.07692
G1 X109.629 Y97.093 E1396.36617
G1 X102.907 Y90.371 E1398.74250
G1 X104.064 Y90.371 E1399.03175
G1 X109.629 Y95.936 E1400.99902
G1 X109.629 Y94.779 E1401.28827
G1 X105.221 Y90.371 E1402.84647
G1 X106.378 Y90.371 E1403.13572
G1 X109.629 Y93.622 E1404.28487
G1 X109.629 Y92.465 E1404.57412
G1 X107.535 Y90.371 E1405.31420
G1 X108.692 Y90.371 E1405.60345
G1 X109.629 Y91.308 E1405.93447
G1 Z4.800 F7800.000
G1 X108.692 Y109.629 F7800.000
G1 X109.629 Y108.692 E1406.26549 F4800.000
G1 X109.629 Y107.535 E1406.55474
G1 X107.535 Y109.629 E1407.29483
G1 X106.378 Y109.629 E1407.58408
G1 X109.629 Y106.378 E1408.73322
G1 X109.629 Y105.221 E1409.02247
G1 X105.221 Y109.629 E1410.58068
G1 X104.064 Y109.629 E1410.86993
G1 X109.629 Y104.064 E1412.83719
G1 X109.629 Y102.907 E1413.12644
G1 X102.907 Y109.629 E1415.50277
G1 X101.750 Y109.629 E1415.79202
G1 X109.629 Y101.750 E1418.57741
G1 X109.629 Y100.593 E1418.86666
G1 X100.593 Y109.629 E1422.06111
G1 X99.436 Y109.629 E1422.35036
G1 X109.629 Y99.436 E1425.95388
G1 X109.629 Y98.279 E1426.24313
G1 X98.279 Y109.629 E1430.25570
G1 X97.122 Y109.629 E1430.54495
G1 X109.629 Y97.122 E1434.96659
G1 X109.629 Y95.965 E1435.25584
G1 X95.965 Y109.629 E1440.08653
G1 X94.808 Y109.629 E1440.37578
G1 X109.629 Y94.808 E1445.61554
G1 X109.629 Y93.651 E1445.90479
G1 X93.651 Y109.629 E1451.55361
G1 X92.494 Y109.629 E1451.84286
G1 X109.629 Y92.494 E1457.90075
G1 X109.629 Y91.337 E1458.19000
G1 X91.337 Y109.629 E1464.65694
G1 X90.371 Y109.438 E1464.90314
G1 X109.438 Y90.371 E1471.64420
G1 X108.281 Y90.371 E1471.93345
G1 X90.371 Y108.281 E1478.26544
G1 X90.371 Y107.124 E1478.55469
G1 X107.124 Y90.371 E1484.47762
G1 X105.967 Y90.371 E1484.76687
G1 X90.371 Y105.967 E1490.28074
G1 X90.371 Y104.810 E1490.56999
G1 X104.810 Y90.371 E1495.67479
G1 X103.653 Y90.371 E1495.96404
G1 X90.371 Y103.653 E1500.65979
G1 X90.371 Y102.496 E1500.94904
G1 X102.496 Y90.371 E1505.23572
G1 X101.339 Y90.371 E1505.52497
G1 X90.371 Y101.339 E1509.40259
G1 X90.371 Y100.182 E1509.69184
G1 X100.182 Y90.371 E1513.16040
G1 X99.025 Y90.371 E1513.44965
G1 X90.371 Y99.025 E1516.50915
G1 X90.371 Y97.868 E1516.79840
G1 X97.868 Y90.371 E1519.44884
G1 X96.711 Y90.371 E1519.73809
G1 X90.371 Y96.711 E1521.97947
G1 X90.371 Y95.554 E1522.26872
G1 X95.554 Y90.371 E1524.10103
G1 X94.397 Y90.371 E1524.39028
G1 X90.371 Y94.397 E1525.81353
G1 X90.371 Y93.240 E1526.10278
G1 X93.240 Y90.371 E1527.11697
G1 X92.083 Y90.371 E1527.40622
G1 X90.371 Y92.083 E1528.01135
G1 X90.371 Y90.926 E1528.30060
G1 X90.926 Y90.371 E1528.49667
G1 Z5.200 F7800.000
G1 X90.371 Y109.074 F7800.000
G1 X90.926 Y109.629 E1528.69274 F4800.000
G1 X92.083 Y109.629 E1528.98199
G1 X90.371 Y107.917 E1529.58712
G1 X90.371 Y106.760 E1529.87637
G1 X93.240 Y109.629 E1530.89056
G1 X94.397 Y109.629 E1531.17981
G1 X90.371 Y105.603 E1532.60306
G1 X90.371 Y104.446 E1532.89231
G1 X95.554 Y109.629 E1534.72463
G1 X96.711 Y109.629 E1535.01388
G1 X90.371 Y103.289 E1537.25525
G1 X90.371 Y102.132 E1537.54450
G1 X97.868 Y109.629 E1540.19494
G1 X99.025 Y109.629 E1540.48419
G1 X90.371 Y100.975 E1543.54369
G1 X90.371 Y99.818 E1543.83294
G1 X100.182 Y109.629 E1547.30150
G1 X101.339 Y109.629 E1547.59075
G1 X90.371 Y98.661 E1551.46837
G1 X90.371 Y97.504 E1551.75762
G1 X102.496 Y109.629 E1556.04430
G1 X103.653 Y109.629 E1556.33355
G1 X90.371 Y96.347 E1561.02930
G1 X90.371 Y95.190 E1561.31855
G1 X104.810 Y109.629 E1566.42335
G1 X105.967 Y109.629 E1566.71260
G1 X90.371 Y94.033 E1572.22647
G1 X90.371 Y92.876 E1572.51572
G1 X107.124 Y109.629 E1578.43865
G1 X108.281 Y109.629 E1578.72790
G1 X90.371 Y91.719 E1585.05989
G1 X90.371 Y90.562 E1585.34914
G1 X109.438 Y109.629 E1592.09019
G1 X109.629 Y108.663 E1592.33640
G1 X91.337 Y90.371 E1598.80334
G1 X92.494 Y90.371 E1599.09259
G1 X109.629 Y107.506 E1605.15047
G1 X109.629 Y106.349 E1605.43972
G1 X93.651 Y90.371 E1611.08854
G1 X94.808 Y90.371 E1611.37779
G1 X109.629 Y105.192 E1616.61755
G1 X109.629 Y104.035 E1616.90680
G1 X95.965 Y90.371 E1621.73750
G1 X97.122 Y90.371 E1622.02675
G1 X109.629 Y102.878 E1626.44839
G1 X109.629 Y101.721 E1626.73764
G1 X98.279 Y90.371 E1630.75021
G1 X99.436 Y90.371 E1631.03946
G1 X109.629 Y100.564 E1634.64298
G1 X109.629 Y99.407 E1634.93223
G1 X100.593 Y90.371 E1638.12668
G1 X101.750 Y90.371 E1638.41593
G1 X109.629 Y98.250 E1641.20132
G1 X109.629 Y97.093 E1641.49057
G1 X102.907 Y90.371 E1643.86690
G1 X104.064 Y90.371 E1644.15615
G1 X109.629 Y95.936 E1646.12342
G1 X109.629 Y94.779 E1646.41267
G1 X105.221 Y90.371 E1647.97087
G1 X106.378 Y90.371 E1648.26012
G1 X109.629 Y93.622 E1649.40927
G1 X109.629 Y92.465 E1649.69852
G1 X107.535 Y90.371 E1650.43860
G1 X108.692 Y90.371 E1650.72785
G1 X109.629 Y91.308 E1651.05887
G1 Z5.600 F7800.000
G1 X108.692 Y109.629 F7800.000
G1 X109.629 Y108.692 E1651.38989 F4800.000
G1 X109.629 Y107.535 E1651.67914
G1 X107.535 Y109.629 E1652.41922
G1 X106.378 Y109.629 E1652.70847
G1 X109.629 Y106.378 E1653.85762
G1 X109.629 Y105.221 E1654.14687
G1 X105.221 Y109.629 E1655.70507
G1 X104.064 Y109.629 E1655.99432
G1 X109.629 Y104.064 E1657.96159
G1 X109.629 Y102.907 E1658.25084
G1 X102.907 Y109.629 E1660.62717
G1 X101.750 Y109.629 E1660.91642
G1 X109.629 Y101.750 E1663.70181
G1 X109.629 Y100.593 E1663.99106
G1 X100.593 Y109.629 E1667.18551
G1 X99.436 Y109.629 E1667.47476
G1 X109.629 Y99.436 E1671.07827
G1 X109.629 Y98.279 E1671.36752
G1 X98.279 Y109.629 E1675.38010
G1 X97.122 Y109.629 E1675.66935
G1 X109.629 Y97.122 E1680.09098
G1 X109.629 Y95.965 E1680.38023
G1 X95.965 Y109.629 E1685.21093
G1 X94.808 Y109.629 E1685.50018
G1 X109.629 Y94.808 E1690.73994
G1 X109.629 Y93.651 E1691.02919
G1 X93.651 Y109.629 E1696.67801
G1 X92.494 Y109.629 E1696.96726
G1 X109.629 Y92.494 E1703.02514
G1 X109.629 Y91.337 E1703.31439
G1 X91.337 Y109.629 E1709.78134
G1 X90.371 Y109.438 E1710.02754
G1 X109.438 Y90.371 E1716.76859
G1 X108.281 Y90.371 E1717.05784
G1 X90.371 Y108.281 E1723.38983
G1 X90.371 Y107.124 E1723.67908
G1 X107.124 Y90.371 E1729.60201
G1 X105.967 Y90.371 E1729.89126
G1 X90.371 Y105.967 E1735.40513
G1 X90.371 Y104.810 E1735.69438
G1 X104.810 Y90.371 E1740.79919
G1 X103.653 Y90.371 E1741.08844
G1 X90.371 Y103.653 E1745.78418
G1 X90.371 Y102.496 E1746.07343
G1 X102.496 Y90.371 E1750.36012
G1 X101.339 Y90.371 E1750.64937
G1 X90.371 Y101.339 E1754.52699
G1 X90.371 Y100.182 E1754.81624
G1 X100.182 Y90.371 E1758.28480
G1 X99.025 Y90.371 E1758.57405
G1 X90.371 Y99.025 E1761.63355
G1 X90.371 Y97.868 E1761.92280
G1 X97.868 Y90.371 E1764.57324
G1 X96.711 Y90.371 E1764.86249
G1 X90.371 Y96.711 E1767.10386
G1 X90.371 Y95.554 E1767.39311
G1 X95.554 Y90.371 E1769.22543
G1 X94.397 Y90.371 E1769.51468
G1 X90.371 Y94.397 E1770.93793
G1 X90.371 Y93.240 E1771.22718
G1 X93.240 Y90.371 E1772.24137
G1 X92.083 Y90.371 E1772.53062
G1 X90.371 Y92.083 E1773.13575
G1 X90.371 Y90.926 E1773.42500
G1 X90.926 Y90.371 E1773.62107
G1 Z6.000 F7800.000
G1 X90.371 Y109.074 F7800.000
G1 X90.926 Y109.629 E1773.81714 F4800.000
G1 X92.083 Y109.629 E1774.10639
G1 X90.371 Y107.917 E1774.71152
G1 X90.371 Y106.760 E1775.00077
G1 X93.240 Y109.629 E1776.01496
G1 X94.397 Y109.629 E1776.30421
G1 X90.371 Y105.603 E1777.72746
G1 X90.371 Y104.446 E1778.01671
G1 X95.554 Y109.629 E1779.84902
G1 X96.711 Y109.629 E1780.13827
G1 X90.371 Y103.289 E1782.37965
G1 X90.371 Y102.132 E1782.66890
G1 X97.868 Y109.629 E1785.31933
G1 X99.025 Y109.629 E1785.60859
G1 X90.371 Y100.975 E1788.66808
G1 X90.371 Y99.818 E1788.95733
G1 X100.182 Y109.629 E1792.42589
G1 X101.339 Y109.629 E1792.71514
G1 X90.371 Y98.661 E1796.59276
G1 X90.371 Y97.504 E1796.88201
G1 X102.496 Y109.629 E1801.16870
G1 X103.653 Y109.629 E1801.45795
G1 X90.371 Y96.347 E1806.15369
G1 X90.371 Y95.190 E1806.44294
G1 X104.810 Y109.629 E1811.54775
G1 X105.967 Y109.629 E1811.83700
G1 X90.371 Y94.033 E1817.35087
G1 X90.371 Y92.876 E1817.64012
G1 X107.124 Y109.629 E1823.56305
G1 X108.281 Y109.629 E1823.85230
G1 X90.371 Y91.719 E1830.18429
G1 X90.371 Y90.562 E1830.47354
G1 X109.438 Y109.629 E1837.21459
G1 X109.629 Y108.663 E1837.46079
G1 X91.337 Y90.371 E1843.92774
G1 X92.494 Y90.371 E1844.21699
G1 X109.629 Y107.506 E1850.27487
G1 X109.629 Y106.349 E1850.56412
G1 X93.651 Y90.371 E1856.21294
G1 X94.808 Y90.371 E1856.50219
G1 X109.629 Y105.192 E1861.74195
G1 X109.629 Y104.035 E1862.03120
G1 X95.965 Y90.371 E1866.86190
G1 X97.122 Y90.371 E1867.15115
G1 X109.629 Y102.878 E1871.57278
G1 X109.629 Y101.721 E1871.86203
G1 X98.279 Y90.371 E1875.87461
G1 X99.436 Y90.371 E1876.16386
G1 X109.629 Y100.564 E1879.76737
G1 X109.629 Y99.407 E1880.05662
G1 X100.593 Y90.371 E1883.25108
G1 X101.750 Y90.371 E1883.54033
G1 X109.629 Y98.250 E1886.32572
G1 X109.629 Y97.093 E1886.61497
G1 X102.907 Y90.371 E1888.99130
G1 X104.064 Y90.371 E1889.28055
G1 X109.629 Y95.936 E1891.24781
G1 X109.629 Y94.779 E1891.53706
G1 X105.221 Y90.371 E1893.09527
G1 X106.378 Y90.371 E1893.38452
G1 X109.629 Y93.622 E1894.53366
G1 X109.629 Y92.465 E1894.82291
G1 X107.535 Y90.371 E1895.56300
G1 X108.692 Y90.371 E1895.85225
G1 X109.629 Y91.308 E1896.18327
G1 Z6.400 F7800.000
G1 X108.692 Y109.629 F7800.000
G1 X109.629 Y108.692 E1896.51429 F4800.000
G1 X109.629 Y107.535 E1896.80354
G1 X107.535 Y109.629 E1897.54362
G1 X106.378 Y109.629 E1897.83287
G1 X109.629 Y106.378 E1898.98201
G1 X109.629 Y105.221 E1899.27126
G1 X105.221 Y109.629 E1900.82947
G1 X104.064 Y109.629 E1901.11872
G1 X109.629 Y104.064 E1903.08599
G1 X109.629 Y102.907 E1903.37524
G1 X102.907 Y109.629 E1905.75156
G1 X101.750 Y109.629 E1906.04081
G1 X109.629 Y101.750 E1908.82620
G1 X109.629 Y100.593 E1909.11545
G1 X100.593 Y109.629 E1912.30991
G1 X99.436 Y109.629 E1912.59916
G1 X109.629 Y99.436 E1916.20267
G1 X109.629 Y98.279 E1916.49192
G1 X98.279 Y109.629 E1920.50449
G1 X97.122 Y109.629 E1920.79374
G1 X109.629 Y97.122 E1925.21538
G1 X109.629 Y95.965 E1925.50463
G1 X95.965 Y109.629 E1930.33533
G1 X94.808 Y109.629 E1930.62458
G1 X109.629 Y94.808 E1935.86434
G1 X109.629 Y93.651 E1936.15359
G1 X93.651 Y109.629 E1941.80241
G1 X92.494 Y109.629 E1942.09166
G1 X109.629 Y92.494 E1948.14954
G1 X109.629 Y91.337 E1948.43879
G1 X91.337 Y109.629 E1954.90573
G1 X90.371 Y109.438 E1955.15194
G1 X109.438 Y90.371 E1961.89299
G1 X108.281 Y90.371 E1962.18224
G1 X90.371 Y108.281 E1968.51423
G1 X90.371 Y107.124 E1968.80348
G1 X107.124 Y90.371 E1974.72641
G1 X105.967 Y90.371 E1975.01566
G1 X90.371 Y105.967 E1980.52953
G1 X90.371 Y104.810 E1980.81878
G1 X104.810 Y90.371 E1985.92359
G1 X103.653 Y90.371 E1986.21284
G1 X90.371 Y103.653 E1990.90858
G1 X90.371 Y102.496 E1991.19783
G1 X102.496 Y90.371 E1995.48451
G1 X101.339 Y90.371 E1995.77376
G1 X90.371 Y101.339 E1999.65139
G1 X90.371 Y100.182 E1999.94064
G1 X100.182 Y90.371 E2003.40920
G1 X99.025 Y90.371 E2003.69845
G1 X90.371 Y99.025 E2006.75795
G1 X90.371 Y97.868 E2007.04720
G1 X97.868 Y90.371 E2009.69763
G1 X96.711 Y90.371 E2009.98688
G1 X90.371 Y96.711 E2012.22826
G1 X90.371 Y95.554 E2012.51751
G1 X95.554 Y90.371 E2014.34982
G1 X94.397 Y90.371 E2014.63907
G1 X90.371 Y94.397 E2016.06233
G1 X90.371 Y93.240 E2016.35158
G1 X93.240 Y90.371 E2017.36577
G1 X92.083 Y90.371 E2017.65502
G1 X90.371 Y92.083 E2018.26015
G1 X90.371 Y90.926 E2018.54940
G1 X90.926 Y90.371 E2018.74547
G1 Z6.800 F7800.000
G1 X90.371 Y109.074 F7800.000
G1 X90.926 Y109.629 E2018.94153 F4800.000
G1 X92.083 Y109.629 E2019.23078
G1 X90.371 Y107.917 E2019.83591
G1 X90.371 Y106.760 E2020.12516
G1 X93.240 Y109.629 E2021.13935
G1 X94.397 Y109.629 E2021.42860
G1 X90.371 Y105.603 E2022.85186
G1 X90.371 Y104.446 E2023.14111
G1 X95.554 Y109.629 E2024.97342
G1 X96.711 Y109.629 E2025.26267
G1 X90.371 Y103.289 E2027.50404
G1 X90.371 Y102.132 E2027.79329
G1 X97.868 Y109.629 E2030.44373
G1 X99.025 Y109.629 E2030.73298
G1 X90.371 Y100.975 E2033.79248
G1 X90.371 Y99.818 E2034.08173
G1 X100.182 Y109.629 E2037.55029
G1 X101.339 Y109.629 E2037.83954
G1 X90.371 Y98.661 E2041.71716
G1 X90.371 Y97.504 E2042.00641
G1 X102.496 Y109.629 E2046.29309
G1 X103.653 Y109.629 E2046.58234
G1 X90.371 Y96.347 E2051.27809
G1 X90.371 Y95.190 E2051.56734
G1 X104.810 Y109.629 E2056.67214
G1 X105.967 Y109.629 E2056.96140
G1 X90.371 Y94.033 E2062.47526
G1 X90.371 Y92.876 E2062.76451
G1 X107.124 Y109.629 E2068.68744
G1 X108.281 Y109.629 E2068.97669
G1 X90.371 Y91.719 E2075.30868
G1 X90.371 Y90.562 E2075.59793
G1 X109.438 Y109.629 E2082.33899
G1 X109.629 Y108.663 E2082.58519
G1 X91.337 Y90.371 E2089.05213
G1 X92.494 Y90.371 E2089.34138
G1 X109.629 Y107.506 E2095.39927
G1 X109.629 Y106.349 E2095.68852
G1 X93.651 Y90.371 E2101.33734
G1 X94.808 Y90.371 E2101.62659
G1 X109.629 Y105.192 E2106.86635
G1 X109.629 Y104.035 E2107.15560
G1 X95.965 Y90.371 E2111.98629
G1 X97.122 Y90.371 E2112.27554
G1 X109.629 Y102.878 E2116.69718
G1 X109.629 Y101.721 E2116.98643
G1 X98.279 Y90.371 E2120.99901
G1 X99.436 Y90.371 E2121.28826
G1 X109.629 Y100.564 E2124.89177
G1 X109.629 Y99.407 E2125.18102
G1 X100.593 Y90.371 E2128.37547
G1 X101.750 Y90.371 E2128.66472
G1 X109.629 Y98.250 E2131.45011
G1 X109.629 Y97.093 E2131.73936
G1 X102.907 Y90.371 E2134.11569
G1 X104.064 Y90.371 E2134.40494
G1 X109.629 Y95.936 E2136.37221
G1 X109.629 Y94.779 E2136.66146
G1 X105.221 Y90.371 E2138.21967
G1 X106.378 Y90.371 E2138.50892
G1 X109.629 Y93.622 E2139.65806
G1 X109.629 Y92.465 E2139.94731
G1 X107.535 Y90.371 E2140.68739
G1 X108.692 Y90.371 E2140.97664
G1 X109.629 Y91.308 E2141.30766
G1 Z7.200 F7800.000
G1 E2139.30766 F2400.00000
G92 E0
G1 X108.692 Y109.629 F7800.000
G1 E2.00000 F2400.00000
G1 X109.629 Y108.692 E2.33102 F4800.000
G1 X109.629 Y107.535 E2.62027
G1 X107.535 Y109.629 E3.36035
G1 X106.378 Y109.629 E3.64960
G1 X109.629 Y106.378 E4.79875
G1 X109.629 Y105.221 E5.08800
G1 X105.221 Y109.629 E6.64620
G1 X104.064 Y109.629 E6.93545
G1 X109.629 Y104.064 E8.90272
G1 X109.629 Y102.907 E9.19197
G1 X102.907 Y109.629 E11.56830
G1 X101.750 Y109.629 E11.85755
G1 X109.629 Y101.750 E14.64294
G1 X109.629 Y100.593 E14.93219
G1 X100.593 Y109.629 E18.12664
G1 X99.436 Y109.629 E18.41589
G1 X109.629 Y99.436 E22.01940
G1 X109.629 Y98.279 E22.30865
G1 X98.279 Y109.629 E26.32123
G1 X97.122 Y109.629 E26.61048
G1 X109.629 Y97.122 E31.03211
G1 X109.629 Y95.965 E31.32136
G1 X95.965 Y109.629 E36.15206
G1 X94.808 Y109.629 E36.44131
G1 X109.629 Y94.808 E41.68107
G1 X109.629 Y93.651 E41.97032
G1 X93.651 Y109.629 E47.61914
G1 X92.494 Y109.629 E47.90839
G1 X109.629 Y92.494 E53.96627
G1 X109.629 Y91.337 E54.25552
G1 X91.337 Y109.629 E60.72247
G1 X90.371 Y109.438 E60.96867
G1 X109.438 Y90.371 E67.70972
G1 X108.281 Y90.371 E67.99897
G1 X90.371 Y108.281 E74.33096
G1 X90.371 Y107.124 E74.62021
G1 X107.124 Y90.371 E80.54314
G1 X105.967 Y90.371 E80.83239
G1 X90.371 Y105.967 E86.34626
G1 X90.371 Y104.810 E86.63551
G1 X104.810 Y90.371 E91.74032
G1 X103.653 Y90.371 E92.02957
G1 X90.371 Y103.653 E96.72531
G1 X90.371 Y102.496 E97.01456
G1 X102.496 Y90.371 E101.30125
G1 X101.339 Y90.371 E101.59050
G1 X90.371 Y101.339 E105.46812
G1 X90.371 Y100.182 E105.75737
G1 X100.182 Y90.371 E109.22593
G1 X99.025 Y90.371 E109.51518
G1 X90.371 Y99.025 E112.57468
G1 X90.371 Y97.868 E112.86393
G1 X97.868 Y90.371 E115.51437
G1 X96.711 Y90.371 E115.80362
G1 X90.371 Y96.711 E118.04499
G1 X90.371 Y95.554 E118.33424
G1 X95.554 Y90.371 E120.16656
G1 X94.397 Y90.371 E120.45581
G1 X90.371 Y94.397 E121.87906
G1 X90.371 Y93.240 E122.16831
G1 X93.240 Y90.371 E123.18250
G1 X92.083 Y90.371 E123.47175
G1 X90.371 Y92.083 E124.07688
G1 X90.371 Y90.926 E124.36613
G1 X90.926 Y90.371 E124.56220
G1 E122.56220 F2400.00000
G92 E0
M107
M104 S0 ; turn off temperature
G28 X0  ; home X axis
M84     ; disable motors

; filament used = 2261.9mm (1.8cm3)

; avoid_crossing_perimeters = 0
; bed_shape = 0x0,200x0,200x200,0x200
; bed_temperature = 0
; before_layer_gcode = 
; bridge_acceleration = 0
; bridge_fan_speed = 100
; brim_width = 0
; complete_objects = 0
; cooling = 1
; default_acceleration = 0
; disable_fan_first_layers = 3
; duplicate_distance = 6
; end_gcode = M104 S0 ; turn off temperature\nG28 X0  ; home X axis\nM84     ; disable motors\n
; extruder_clearance_height = 20
; extruder_clearance_radius = 20
; extruder_offset = 0x0
; extrusion_axis = E
; extrusion_multiplier = 1
; fan_always_on = 0
; fan_below_layer_time = 60
; filament_colour = #FFFFFF
; filament_diameter = 1
; first_layer_acceleration = 0
; first_layer_bed_temperature = 0
; first_layer_extrusion_width = 200%
; first_layer_speed = 30
; first_layer_temperature = 200
; gcode_arcs = 0
; gcode_comments = 0
; gcode_flavor = reprap
; infill_acceleration = 0
; infill_first = 0
; layer_gcode = 
; max_fan_speed = 100
; max_print_speed = 80
; max_volumetric_speed = 0
; min_fan_speed = 35
; min_print_speed = 10
; min_skirt_length = 0
; notes = 
; nozzle_diameter = 0.5
; only_retract_when_crossing_perimeters = 1
; ooze_prevention = 0
; output_filename_format = [input_filename_base].gcode
; perimeter_acceleration = 0
; post_process = 
; pressure_advance = 0
; resolution = 0
; retract_before_travel = 2
; retract_layer_change = 0
; retract_length = 2
; retract_length_toolchange = 10
; retract_lift = 0
; retract_restart_extra = 0
; retract_restart_extra_toolchange = 0
; retract_speed = 40
; skirt_distance = 6
; skirt_height = 1
; skirts = 0
; slowdown_below_layer_time = 5
; spiral_vase = 0
; standby_temperature_delta = -5
; start_gcode = G28 ; home all axes\nG1 Z5 F5000 ; lift nozzle\n
; temperature = 200
; threads = 2
; toolchange_gcode = 
; travel_speed = 130
; use_firmware_retraction = 0
; use_relative_e_distances = 0
; use_volumetric_e = 0
; vibration_limit = 0
; wipe = 0
; z_offset = 0
; dont_support_bridges = 1
; extrusion_width = 0
; first_layer_height = 0.4
; infill_only_where_needed = 0
; interface_shells = 0
; layer_height = 0.4
; raft_layers = 0
; seam_position = aligned
; support_material = 0
; support_material_angle = 0
; support_material_contact_distance = 0.2
; support_material_enforce_layers = 0
; support_material_extruder = 1
; support_material_extrusion_width = 0
; support_material_interface_extruder = 1
; support_material_interface_layers = 3
; support_material_interface_spacing = 0
; support_material_interface_speed = 100%
; support_material_pattern = pillars
; support_material_spacing = 2.5
; support_material_speed = 60
; support_material_threshold = 0
; xy_size_compensation = 0
; bottom_solid_layers = 0
; bridge_flow_ratio = 1
; bridge_speed = 60
; external_fill_pattern = rectilinear
; external_perimeter_extrusion_width = 0
; external_perimeter_speed = 50%
; external_perimeters_first = 0
; extra_perimeters = 1
; fill_angle = 45
; fill_density = 60%
; fill_pattern = rectilinear
; gap_fill_speed = 20
; infill_every_layers = 1
; infill_extruder = 1
; infill_extrusion_width = 0
; infill_overlap = 15%
; infill_speed = 80
; overhangs = 1
; perimeter_extruder = 1
; perimeter_extrusion_width = 0
; perimeter_speed = 60
; perimeters = 0
; small_perimeter_speed = 15
; solid_infill_below_area = 70
; solid_infill_every_layers = 0
; solid_infill_extruder = 1
; solid_infill_extrusion_width = 0
; solid_infill_speed = 20
; thin_walls = 1
; top_infill_extrusion_width = 0
; top_solid_infill_speed = 15
; top_solid_layers = 0
