; generated by Slic3r 1.3.0 on 2020-03-09 at 17:47:58

; external perimeters extrusion width = 0.55mm (5.57mm^3/s)
; perimeters extrusion width = 0.58mm (11.78mm^3/s)
; infill extrusion width = 0.58mm (15.71mm^3/s)
; solid infill extrusion width = 0.58mm (3.93mm^3/s)
; top infill extrusion width = 0.58mm (2.95mm^3/s)

M107
M104 S205 ; set temperature
G28 ; home all axes
G1 Z5 F5000 ; lift nozzle

; Filament gcode

M109 S205 ; set temperature and wait for it to be reached
G21 ; set units to millimeters
G90 ; use absolute coordinates
M82 ; use absolute distances for extrusion
G92 E0
G1 Z0.400 F7800.000
G1 E-2.00000 F2400.00000
G92 E0
G1 X95.855 Y90.261 F7800.000
G1 E2.00000 F2400.00000
G1 F1279.1
G1 X90.261 Y95.855 E2.31970
G1 X90.261 Y102.797 E2.60025
G1 X102.797 Y90.261 E3.31671
G1 X109.739 Y90.261 E3.59725
G1 X90.261 Y109.739 E4.71046
G1 X97.203 Y109.739 E4.99101
G1 X109.739 Y97.203 E5.70747
G1 X109.739 Y104.145 E5.98802
G1 X104.145 Y109.739 E6.30772
M104 S200 ; set temperature
G1 Z0.800 F7800.000
G1 X90.305 Y104.189 F7800.000
G1 F1271.74
G1 X95.811 Y109.695 E6.52405
G1 X102.753 Y109.695 E6.71689
G1 X90.305 Y97.247 E7.20593
G1 X90.305 Y90.305 E7.39876
G1 X109.695 Y109.695 E8.16051
G1 X109.695 Y102.753 E8.35334
G1 X97.247 Y90.305 E8.84238
G1 X104.189 Y90.305 E9.03522
G1 X109.695 Y95.811 E9.25155
G1 Z1.200 F7800.000
G1 X104.189 Y109.695 F7800.000
G1 F1271.74
G1 X109.695 Y104.189 E9.46789
G1 X109.695 Y97.247 E9.66072
G1 X97.247 Y109.695 E10.14976
G1 X90.305 Y109.695 E10.34259
G1 X109.695 Y90.305 E11.10434
G1 X102.753 Y90.305 E11.29718
G1 X90.305 Y102.753 E11.78622
G1 X90.305 Y95.811 E11.97905
G1 X95.811 Y90.305 E12.19538
M106 S255
G1 Z1.600 F7800.000
G1 X109.695 Y95.811 F7800.000
G1 F1271.74
G1 X104.189 Y90.305 E12.41172
G1 X97.247 Y90.305 E12.60455
G1 X109.695 Y102.753 E13.09359
G1 X109.695 Y109.695 E13.28643
G1 X90.305 Y90.305 E14.04818
G1 X90.305 Y97.247 E14.24101
G1 X102.753 Y109.695 E14.73005
G1 X95.811 Y109.695 E14.92288
G1 X90.305 Y104.189 E15.13922
G1 Z2.000 F7800.000
G1 X104.189 Y109.695 F7800.000
G1 F1271.74
G1 X109.695 Y104.189 E15.35555
G1 X109.695 Y97.247 E15.54839
G1 X97.247 Y109.695 E16.03743
G1 X90.305 Y109.695 E16.23026
G1 X109.695 Y90.305 E16.99201
G1 X102.753 Y90.305 E17.18484
G1 X90.305 Y102.753 E17.67388
G1 X90.305 Y95.811 E17.86672
G1 X95.811 Y90.305 E18.08305
G1 Z2.400 F7800.000
G1 X109.695 Y95.811 F7800.000
G1 F1271.74
G1 X104.189 Y90.305 E18.29938
G1 X97.247 Y90.305 E18.49222
G1 X109.695 Y102.753 E18.98126
G1 X109.695 Y109.695 E19.17409
G1 X90.305 Y90.305 E19.93584
G1 X90.305 Y97.247 E20.12867
G1 X102.753 Y109.695 E20.61772
G1 X95.811 Y109.695 E20.81055
G1 X90.305 Y104.189 E21.02688
G1 Z2.800 F7800.000
G1 X104.189 Y109.695 F7800.000
G1 F1271.74
G1 X109.695 Y104.189 E21.24322
G1 X109.695 Y97.247 E21.43605
G1 X97.247 Y109.695 E21.92509
G1 X90.305 Y109.695 E22.11793
G1 X109.695 Y90.305 E22.87967
G1 X102.753 Y90.305 E23.07251
G1 X90.305 Y102.753 E23.56155
G1 X90.305 Y95.811 E23.75438
G1 X95.811 Y90.305 E23.97072
G1 Z3.200 F7800.000
G1 X109.695 Y95.811 F7800.000
G1 F1271.74
G1 X104.189 Y90.305 E24.18705
G1 X97.247 Y90.305 E24.37988
G1 X109.695 Y102.753 E24.86893
G1 X109.695 Y109.695 E25.06176
G1 X90.305 Y90.305 E25.82351
G1 X90.305 Y97.247 E26.01634
G1 X102.753 Y109.695 E26.50538
G1 X95.811 Y109.695 E26.69821
G1 X90.305 Y104.189 E26.91455
G1 Z3.600 F7800.000
G1 X104.189 Y109.695 F7800.000
G1 F1271.74
G1 X109.695 Y104.189 E27.13088
G1 X109.695 Y97.247 E27.32372
G1 X97.247 Y109.695 E27.81276
G1 X90.305 Y109.695 E28.00559
G1 X109.695 Y90.305 E28.76734
G1 X102.753 Y90.305 E28.96017
G1 X90.305 Y102.753 E29.44921
G1 X90.305 Y95.811 E29.64205
G1 X95.811 Y90.305 E29.85838
G1 Z4.000 F7800.000
G1 X109.695 Y95.811 F7800.000
G1 F1271.74
G1 X104.189 Y90.305 E30.07472
G1 X97.247 Y90.305 E30.26755
G1 X109.695 Y102.753 E30.75659
G1 X109.695 Y109.695 E30.94942
G1 X90.305 Y90.305 E31.71117
G1 X90.305 Y97.247 E31.90401
G1 X102.753 Y109.695 E32.39305
G1 X95.811 Y109.695 E32.58588
G1 X90.305 Y104.189 E32.80221
G1 Z4.400 F7800.000
G1 X104.189 Y109.695 F7800.000
G1 F1271.74
G1 X109.695 Y104.189 E33.01855
G1 X109.695 Y97.247 E33.21138
G1 X97.247 Y109.695 E33.70042
G1 X90.305 Y109.695 E33.89326
G1 X109.695 Y90.305 E34.65501
G1 X102.753 Y90.305 E34.84784
G1 X90.305 Y102.753 E35.33688
G1 X90.305 Y95.811 E35.52971
G1 X95.811 Y90.305 E35.74605
G1 Z4.800 F7800.000
G1 X109.695 Y95.811 F7800.000
G1 F1271.74
G1 X104.189 Y90.305 E35.96238
G1 X97.247 Y90.305 E36.15521
G1 X109.695 Y102.753 E36.64426
G1 X109.695 Y109.695 E36.83709
G1 X90.305 Y90.305 E37.59884
G1 X90.305 Y97.247 E37.79167
G1 X102.753 Y109.695 E38.28071
G1 X95.811 Y109.695 E38.47355
G1 X90.305 Y104.189 E38.68988
G1 Z5.200 F7800.000
G1 X104.189 Y109.695 F7800.000
G1 F1271.74
G1 X109.695 Y104.189 E38.90621
G1 X109.695 Y97.247 E39.09905
G1 X97.247 Y109.695 E39.58809
G1 X90.305 Y109.695 E39.78092
G1 X109.695 Y90.305 E40.54267
G1 X102.753 Y90.305 E40.73550
G1 X90.305 Y102.753 E41.22455
G1 X90.305 Y95.811 E41.41738
G1 X95.811 Y90.305 E41.63371
G1 Z5.600 F7800.000
G1 X109.695 Y95.811 F7800.000
G1 F1271.74
G1 X104.189 Y90.305 E41.85005
G1 X97.247 Y90.305 E42.04288
G1 X109.695 Y102.753 E42.53192
G1 X109.695 Y109.695 E42.72476
G1 X90.305 Y90.305 E43.48650
G1 X90.305 Y97.247 E43.67934
G1 X102.753 Y109.695 E44.16838
G1 X95.811 Y109.695 E44.36121
G1 X90.305 Y104.189 E44.57755
G1 Z6.000 F7800.000
G1 X104.189 Y109.695 F7800.000
G1 F1271.74
G1 X109.695 Y104.189 E44.79388
G1 X109.695 Y97.247 E44.98671
G1 X97.247 Y109.695 E45.47576
G1 X90.305 Y109.695 E45.66859
G1 X109.695 Y90.305 E46.43034
G1 X102.753 Y90.305 E46.62317
G1 X90.305 Y102.753 E47.11221
G1 X90.305 Y95.811 E47.30504
G1 X95.811 Y90.305 E47.52138
G1 Z6.400 F7800.000
G1 X109.695 Y95.811 F7800.000
G1 F1271.74
G1 X104.189 Y90.305 E47.73771
G1 X97.247 Y90.305 E47.93055
G1 X109.695 Y102.753 E48.41959
G1 X109.695 Y109.695 E48.61242
G1 X90.305 Y90.305 E49.37417
G1 X90.305 Y97.247 E49.56700
G1 X102.753 Y109.695 E50.05604
G1 X95.811 Y109.695 E50.24888
G1 X90.305 Y104.189 E50.46521
G1 Z6.800 F7800.000
G1 X104.189 Y109.695 F7800.000
G1 F1271.74
G1 X109.695 Y104.189 E50.68155
G1 X109.695 Y97.247 E50.87438
G1 X97.247 Y109.695 E51.36342
G1 X90.305 Y109.695 E51.55625
G1 X109.695 Y90.305 E52.31800
G1 X102.753 Y90.305 E52.51084
G1 X90.305 Y102.753 E52.99988
G1 X90.305 Y95.811 E53.19271
G1 X95.811 Y90.305 E53.40904
G1 Z7.200 F7800.000
G1 X109.695 Y95.811 F7800.000
G1 F1271.74
G1 X104.189 Y90.305 E53.62538
G1 X97.247 Y90.305 E53.81821
G1 X109.695 Y102.753 E54.30725
G1 X109.695 Y109.695 E54.50009
G1 X90.305 Y90.305 E55.26184
G1 X90.305 Y97.247 E55.45467
G1 X102.753 Y109.695 E55.94371
G1 X95.811 Y109.695 E56.13654
G1 X90.305 Y104.189 E56.35288
G1 Z7.600 F7800.000
G1 X104.189 Y109.695 F7800.000
G1 F1271.74
G1 X109.695 Y104.189 E56.56921
G1 X109.695 Y97.247 E56.76204
G1 X97.247 Y109.695 E57.25109
G1 X90.305 Y109.695 E57.44392
G1 X109.695 Y90.305 E58.20567
G1 X102.753 Y90.305 E58.39850
G1 X90.305 Y102.753 E58.88754
G1 X90.305 Y95.811 E59.08038
G1 X95.811 Y90.305 E59.29671
G1 Z8.000 F7800.000
G1 X109.695 Y95.811 F7800.000
G1 F1271.74
G1 X104.189 Y90.305 E59.51304
G1 X97.247 Y90.305 E59.70588
G1 X109.695 Y102.753 E60.19492
G1 X109.695 Y109.695 E60.38775
G1 X90.305 Y90.305 E61.14950
G1 X90.305 Y97.247 E61.34233
G1 X102.753 Y109.695 E61.83138
G1 X95.811 Y109.695 E62.02421
G1 X90.305 Y104.189 E62.24054
G1 Z8.400 F7800.000
G1 X104.189 Y109.695 F7800.000
G1 F1271.74
G1 X109.695 Y104.189 E62.45688
G1 X109.695 Y97.247 E62.64971
G1 X97.247 Y109.695 E63.13875
G1 X90.305 Y109.695 E63.33159
G1 X109.695 Y90.305 E64.09333
G1 X102.753 Y90.305 E64.28617
G1 X90.305 Y102.753 E64.77521
G1 X90.305 Y95.811 E64.96804
G1 X95.811 Y90.305 E65.18438
G1 Z8.800 F7800.000
G1 X109.695 Y95.811 F7800.000
G1 F1271.74
G1 X104.189 Y90.305 E65.40071
G1 X97.247 Y90.305 E65.59354
G1 X109.695 Y102.753 E66.08258
G1 X109.695 Y109.695 E66.27542
G1 X90.305 Y90.305 E67.03717
G1 X90.305 Y97.247 E67.23000
G1 X102.753 Y109.695 E67.71904
G1 X95.811 Y109.695 E67.91187
G1 X90.305 Y104.189 E68.12821
G1 Z9.200 F7800.000
G1 X104.189 Y109.695 F7800.000
G1 F1271.74
G1 X109.695 Y104.189 E68.34454
G1 X109.695 Y97.247 E68.53738
G1 X97.247 Y109.695 E69.02642
G1 X90.305 Y109.695 E69.21925
G1 X109.695 Y90.305 E69.98100
G1 X102.753 Y90.305 E70.17383
G1 X90.305 Y102.753 E70.66287
G1 X90.305 Y95.811 E70.85571
G1 X95.811 Y90.305 E71.07204
G1 Z9.600 F7800.000
G1 X109.695 Y95.811 F7800.000
G1 F1271.74
G1 X104.189 Y90.305 E71.28838
G1 X97.247 Y90.305 E71.48121
G1 X109.695 Y102.753 E71.97025
G1 X109.695 Y109.695 E72.16308
G1 X90.305 Y90.305 E72.92483
G1 X90.305 Y97.247 E73.11767
G1 X102.753 Y109.695 E73.60671
G1 X95.811 Y109.695 E73.79954
G1 X90.305 Y104.189 E74.01587
G1 Z10.000 F7800.000
G1 X104.189 Y109.695 F7800.000
G1 F1271.74
G1 X109.695 Y104.189 E74.23221
G1 X109.695 Y97.247 E74.42504
G1 X97.247 Y109.695 E74.91408
G1 X90.305 Y109.695 E75.10692
G1 X109.695 Y90.305 E75.86867
G1 X102.753 Y90.305 E76.06150
G1 X90.305 Y102.753 E76.55054
G1 X90.305 Y95.811 E76.74337
G1 X95.811 Y90.305 E76.95971


