; generated by Slic3r 1.3.0 on 2021-02-16 at 14:15:47

; external perimeters extrusion width = 0.55mm (5.57mm^3/s)
; perimeters extrusion width = 0.58mm (11.78mm^3/s)
; infill extrusion width = 0.58mm (15.71mm^3/s)
; solid infill extrusion width = 0.58mm (3.93mm^3/s)
; top infill extrusion width = 0.58mm (2.95mm^3/s)

M107
M104 S205 ; set temperature
G28 ; home all axes
G1 Z5 F5000 ; lift nozzle

; Filament gcode

M109 S205 ; set temperature and wait for it to be reached
G21 ; set units to millimeters
G90 ; use absolute coordinates
M82 ; use absolute distances for extrusion
G92 E0
G1 Z0.400 F7800.000
G1 E-2.00000 F2400.00000
G92 E0
G1 X91.470 Y90.261 F7800.000
G1 E2.00000 F2400.00000
G1 F1800
G1 X90.261 Y91.470 E2.06912
G1 X90.261 Y93.297 E2.14295
G1 X93.297 Y90.261 E2.31648
G1 X95.124 Y90.261 E2.39031
G1 X90.261 Y95.124 E2.66824
G1 X90.261 Y96.951 E2.74207
G1 X96.951 Y90.261 E3.12442
G1 X98.778 Y90.261 E3.19825
G1 X90.261 Y98.778 E3.68501
G1 X90.261 Y100.605 E3.75883
G1 X100.605 Y90.261 E4.35000
G1 X102.432 Y90.261 E4.42383
G1 X90.261 Y102.432 E5.11940
G1 X90.261 Y104.258 E5.19323
G1 X104.258 Y90.261 E5.99321
G1 X106.085 Y90.261 E6.06704
G1 X90.261 Y106.085 E6.97144
G1 X90.261 Y107.912 E7.04526
G1 X107.912 Y90.261 E8.05407
G1 X109.739 Y90.261 E8.12789
G1 X90.261 Y109.739 E9.24111
G1 X92.088 Y109.739 E9.31493
G1 X109.739 Y92.088 E10.32374
G1 X109.739 Y93.915 E10.39756
G1 X93.915 Y109.739 E11.30196
G1 X95.742 Y109.739 E11.37579
G1 X109.739 Y95.742 E12.17577
G1 X109.739 Y97.568 E12.24960
G1 X97.568 Y109.739 E12.94517
G1 X99.395 Y109.739 E13.01900
G1 X109.739 Y99.395 E13.61017
G1 X109.739 Y101.222 E13.68399
G1 X101.222 Y109.739 E14.17075
G1 X103.049 Y109.739 E14.24458
G1 X109.739 Y103.049 E14.62693
G1 X109.739 Y104.876 E14.70076
G1 X104.876 Y109.739 E14.97869
G1 X106.703 Y109.739 E15.05252
G1 X109.739 Y106.703 E15.22605
G1 X109.739 Y108.530 E15.29988
G1 X108.530 Y109.739 E15.36900
M104 S200 ; set temperature
G1 Z0.800 F7800.000
G1 X90.305 Y108.573 F7800.000
G1 F3938.75
G1 X91.427 Y109.695 E15.41310
G1 X93.254 Y109.695 E15.46384
G1 X90.305 Y106.746 E15.57971
G1 X90.305 Y104.919 E15.63045
G1 X95.081 Y109.695 E15.81808
G1 X96.908 Y109.695 E15.86883
G1 X90.305 Y103.092 E16.12822
G1 X90.305 Y101.266 E16.17897
G1 X98.734 Y109.695 E16.51012
G1 X100.561 Y109.695 E16.56087
G1 X90.305 Y99.439 E16.96379
G1 X90.305 Y97.612 E17.01454
G1 X102.388 Y109.695 E17.48923
G1 X104.215 Y109.695 E17.53997
G1 X90.305 Y95.785 E18.08643
G1 X90.305 Y93.958 E18.13717
G1 X106.042 Y109.695 E18.75539
G1 X107.869 Y109.695 E18.80614
G1 X90.305 Y92.131 E19.49612
G1 X90.305 Y90.305 E19.54687
G1 X109.695 Y109.695 E20.30861
G1 X109.695 Y107.869 E20.35936
G1 X92.131 Y90.305 E21.04934
G1 X93.958 Y90.305 E21.10009
G1 X109.695 Y106.042 E21.71831
G1 X109.695 Y104.215 E21.76905
G1 X95.785 Y90.305 E22.31551
G1 X97.612 Y90.305 E22.36625
G1 X109.695 Y102.388 E22.84094
G1 X109.695 Y100.561 E22.89169
G1 X99.439 Y90.305 E23.29461
G1 X101.266 Y90.305 E23.34536
G1 X109.695 Y98.734 E23.67651
G1 X109.695 Y96.908 E23.72726
G1 X103.092 Y90.305 E23.98665
G1 X104.919 Y90.305 E24.03740
G1 X109.695 Y95.081 E24.22503
G1 X109.695 Y93.254 E24.27577
G1 X106.746 Y90.305 E24.39164
G1 X108.573 Y90.305 E24.44238
G1 X109.695 Y91.427 E24.48648
G1 Z1.200 F7800.000
G1 X108.573 Y109.695 F7800.000
G1 F3938.75
G1 X109.695 Y108.573 E24.53058
G1 X109.695 Y106.746 E24.58132
G1 X106.746 Y109.695 E24.69719
G1 X104.919 Y109.695 E24.74793
G1 X109.695 Y104.919 E24.93556
G1 X109.695 Y103.092 E24.98631
G1 X103.092 Y109.695 E25.24570
G1 X101.266 Y109.695 E25.29644
G1 X109.695 Y101.266 E25.62760
G1 X109.695 Y99.439 E25.67835
G1 X99.439 Y109.695 E26.08127
G1 X97.612 Y109.695 E26.13202
G1 X109.695 Y97.612 E26.60671
G1 X109.695 Y95.785 E26.65745
G1 X95.785 Y109.695 E27.20391
G1 X93.958 Y109.695 E27.25465
G1 X109.695 Y93.958 E27.87287
G1 X109.695 Y92.131 E27.92361
G1 X92.131 Y109.695 E28.61360
G1 X90.305 Y109.695 E28.66434
G1 X109.695 Y90.305 E29.42609
G1 X107.869 Y90.305 E29.47684
G1 X90.305 Y107.869 E30.16682
G1 X90.305 Y106.042 E30.21757
G1 X106.042 Y90.305 E30.83579
G1 X104.215 Y90.305 E30.88653
G1 X90.305 Y104.215 E31.43298
G1 X90.305 Y102.388 E31.48373
G1 X102.388 Y90.305 E31.95842
G1 X100.561 Y90.305 E32.00916
G1 X90.305 Y100.561 E32.41209
G1 X90.305 Y98.734 E32.46283
G1 X98.734 Y90.305 E32.79399
G1 X96.908 Y90.305 E32.84474
G1 X90.305 Y96.908 E33.10413
G1 X90.305 Y95.081 E33.15488
G1 X95.081 Y90.305 E33.34250
G1 X93.254 Y90.305 E33.39325
G1 X90.305 Y93.254 E33.50911
G1 X90.305 Y91.427 E33.55986
G1 X91.427 Y90.305 E33.60396
M106 S255
G1 Z1.600 F7800.000
G1 X90.305 Y108.573 F7800.000
G1 F3938.75
G1 X91.427 Y109.695 E33.64806
G1 X93.254 Y109.695 E33.69880
G1 X90.305 Y106.746 E33.81466
G1 X90.305 Y104.919 E33.86541
G1 X95.081 Y109.695 E34.05304
G1 X96.908 Y109.695 E34.10378
G1 X90.305 Y103.092 E34.36318
G1 X90.305 Y101.266 E34.41392
G1 X98.734 Y109.695 E34.74508
G1 X100.561 Y109.695 E34.79583
G1 X90.305 Y99.439 E35.19875
G1 X90.305 Y97.612 E35.24950
G1 X102.388 Y109.695 E35.72418
G1 X104.215 Y109.695 E35.77493
G1 X90.305 Y95.785 E36.32138
G1 X90.305 Y93.958 E36.37213
G1 X106.042 Y109.695 E36.99035
G1 X107.869 Y109.695 E37.04109
G1 X90.305 Y92.131 E37.73108
G1 X90.305 Y90.305 E37.78182
G1 X109.695 Y109.695 E38.54357
G1 X109.695 Y107.869 E38.59432
G1 X92.131 Y90.305 E39.28430
G1 X93.958 Y90.305 E39.33505
G1 X109.695 Y106.042 E39.95326
G1 X109.695 Y104.215 E40.00401
G1 X95.785 Y90.305 E40.55046
G1 X97.612 Y90.305 E40.60121
G1 X109.695 Y102.388 E41.07590
G1 X109.695 Y100.561 E41.12664
G1 X99.439 Y90.305 E41.52957
G1 X101.266 Y90.305 E41.58031
G1 X109.695 Y98.734 E41.91147
G1 X109.695 Y96.908 E41.96222
G1 X103.092 Y90.305 E42.22161
G1 X104.919 Y90.305 E42.27235
G1 X109.695 Y95.081 E42.45998
G1 X109.695 Y93.254 E42.51073
G1 X106.746 Y90.305 E42.62659
G1 X108.573 Y90.305 E42.67734
G1 X109.695 Y91.427 E42.72144
G1 Z2.000 F7800.000
G1 X108.573 Y109.695 F7800.000
G1 F3938.75
G1 X109.695 Y108.573 E42.76553
G1 X109.695 Y106.746 E42.81628
G1 X106.746 Y109.695 E42.93214
G1 X104.919 Y109.695 E42.98289
G1 X109.695 Y104.919 E43.17052
G1 X109.695 Y103.092 E43.22126
G1 X103.092 Y109.695 E43.48066
G1 X101.266 Y109.695 E43.53140
G1 X109.695 Y101.266 E43.86256
G1 X109.695 Y99.439 E43.91331
G1 X99.439 Y109.695 E44.31623
G1 X97.612 Y109.695 E44.36697
G1 X109.695 Y97.612 E44.84166
G1 X109.695 Y95.785 E44.89241
G1 X95.785 Y109.695 E45.43886
G1 X93.958 Y109.695 E45.48961
G1 X109.695 Y93.958 E46.10783
G1 X109.695 Y92.131 E46.15857
G1 X92.131 Y109.695 E46.84856
G1 X90.305 Y109.695 E46.89930
G1 X109.695 Y90.305 E47.66105
G1 X107.869 Y90.305 E47.71179
G1 X90.305 Y107.869 E48.40178
G1 X90.305 Y106.042 E48.45252
G1 X106.042 Y90.305 E49.07074
G1 X104.215 Y90.305 E49.12149
G1 X90.305 Y104.215 E49.66794
G1 X90.305 Y102.388 E49.71869
G1 X102.388 Y90.305 E50.19338
G1 X100.561 Y90.305 E50.24412
G1 X90.305 Y100.561 E50.64704
G1 X90.305 Y98.734 E50.69779
G1 X98.734 Y90.305 E51.02895
G1 X96.908 Y90.305 E51.07969
G1 X90.305 Y96.908 E51.33909
G1 X90.305 Y95.081 E51.38983
G1 X95.081 Y90.305 E51.57746
G1 X93.254 Y90.305 E51.62821
G1 X90.305 Y93.254 E51.74407
G1 X90.305 Y91.427 E51.79482
G1 X91.427 Y90.305 E51.83891
G1 Z2.400 F7800.000
G1 X90.305 Y108.573 F7800.000
G1 F3938.75
G1 X91.427 Y109.695 E51.88301
G1 X93.254 Y109.695 E51.93376
G1 X90.305 Y106.746 E52.04962
G1 X90.305 Y104.919 E52.10037
G1 X95.081 Y109.695 E52.28799
G1 X96.908 Y109.695 E52.33874
G1 X90.305 Y103.092 E52.59813
G1 X90.305 Y101.266 E52.64888
G1 X98.734 Y109.695 E52.98004
G1 X100.561 Y109.695 E53.03078
G1 X90.305 Y99.439 E53.43371
G1 X90.305 Y97.612 E53.48445
G1 X102.388 Y109.695 E53.95914
G1 X104.215 Y109.695 E54.00989
G1 X90.305 Y95.785 E54.55634
G1 X90.305 Y93.958 E54.60708
G1 X106.042 Y109.695 E55.22530
G1 X107.869 Y109.695 E55.27605
G1 X90.305 Y92.131 E55.96603
G1 X90.305 Y90.305 E56.01678
G1 X109.695 Y109.695 E56.77853
G1 X109.695 Y107.869 E56.82927
G1 X92.131 Y90.305 E57.51926
G1 X93.958 Y90.305 E57.57000
G1 X109.695 Y106.042 E58.18822
G1 X109.695 Y104.215 E58.23897
G1 X95.785 Y90.305 E58.78542
G1 X97.612 Y90.305 E58.83617
G1 X109.695 Y102.388 E59.31085
G1 X109.695 Y100.561 E59.36160
G1 X99.439 Y90.305 E59.76452
G1 X101.266 Y90.305 E59.81527
G1 X109.695 Y98.734 E60.14643
G1 X109.695 Y96.908 E60.19717
G1 X103.092 Y90.305 E60.45657
G1 X104.919 Y90.305 E60.50731
G1 X109.695 Y95.081 E60.69494
G1 X109.695 Y93.254 E60.74569
G1 X106.746 Y90.305 E60.86155
G1 X108.573 Y90.305 E60.91229
G1 X109.695 Y91.427 E60.95639
G1 Z2.800 F7800.000
G1 X108.573 Y109.695 F7800.000
G1 F3938.75
G1 X109.695 Y108.573 E61.00049
G1 X109.695 Y106.746 E61.05124
G1 X106.746 Y109.695 E61.16710
G1 X104.919 Y109.695 E61.21784
G1 X109.695 Y104.919 E61.40547
G1 X109.695 Y103.092 E61.45622
G1 X103.092 Y109.695 E61.71561
G1 X101.266 Y109.695 E61.76636
G1 X109.695 Y101.266 E62.09752
G1 X109.695 Y99.439 E62.14826
G1 X99.439 Y109.695 E62.55119
G1 X97.612 Y109.695 E62.60193
G1 X109.695 Y97.612 E63.07662
G1 X109.695 Y95.785 E63.12736
G1 X95.785 Y109.695 E63.67382
G1 X93.958 Y109.695 E63.72456
G1 X109.695 Y93.958 E64.34278
G1 X109.695 Y92.131 E64.39353
G1 X92.131 Y109.695 E65.08351
G1 X90.305 Y109.695 E65.13426
G1 X109.695 Y90.305 E65.89601
G1 X107.869 Y90.305 E65.94675
G1 X90.305 Y107.869 E66.63673
G1 X90.305 Y106.042 E66.68748
G1 X106.042 Y90.305 E67.30570
G1 X104.215 Y90.305 E67.35644
G1 X90.305 Y104.215 E67.90290
G1 X90.305 Y102.388 E67.95364
G1 X102.388 Y90.305 E68.42833
G1 X100.561 Y90.305 E68.47908
G1 X90.305 Y100.561 E68.88200
G1 X90.305 Y98.734 E68.93275
G1 X98.734 Y90.305 E69.26391
G1 X96.908 Y90.305 E69.31465
G1 X90.305 Y96.908 E69.57404
G1 X90.305 Y95.081 E69.62479
G1 X95.081 Y90.305 E69.81242
G1 X93.254 Y90.305 E69.86316
G1 X90.305 Y93.254 E69.97903
G1 X90.305 Y91.427 E70.02977
G1 X91.427 Y90.305 E70.07387
G1 Z3.200 F7800.000
G1 X90.305 Y108.573 F7800.000
G1 F3938.75
G1 X91.427 Y109.695 E70.11797
G1 X93.254 Y109.695 E70.16871
G1 X90.305 Y106.746 E70.28458
G1 X90.305 Y104.919 E70.33532
G1 X95.081 Y109.695 E70.52295
G1 X96.908 Y109.695 E70.57370
G1 X90.305 Y103.092 E70.83309
G1 X90.305 Y101.266 E70.88384
G1 X98.734 Y109.695 E71.21499
G1 X100.561 Y109.695 E71.26574
G1 X90.305 Y99.439 E71.66866
G1 X90.305 Y97.612 E71.71941
G1 X102.388 Y109.695 E72.19410
G1 X104.215 Y109.695 E72.24484
G1 X90.305 Y95.785 E72.79130
G1 X90.305 Y93.958 E72.84204
G1 X106.042 Y109.695 E73.46026
G1 X107.869 Y109.695 E73.51101
G1 X90.305 Y92.131 E74.20099
G1 X90.305 Y90.305 E74.25173
G1 X109.695 Y109.695 E75.01348
G1 X109.695 Y107.869 E75.06423
G1 X92.131 Y90.305 E75.75421
G1 X93.958 Y90.305 E75.80496
G1 X109.695 Y106.042 E76.42318
G1 X109.695 Y104.215 E76.47392
G1 X95.785 Y90.305 E77.02038
G1 X97.612 Y90.305 E77.07112
G1 X109.695 Y102.388 E77.54581
G1 X109.695 Y100.561 E77.59656
G1 X99.439 Y90.305 E77.99948
G1 X101.266 Y90.305 E78.05022
G1 X109.695 Y98.734 E78.38138
G1 X109.695 Y96.908 E78.43213
G1 X103.092 Y90.305 E78.69152
G1 X104.919 Y90.305 E78.74227
G1 X109.695 Y95.081 E78.92990
G1 X109.695 Y93.254 E78.98064
G1 X106.746 Y90.305 E79.09651
G1 X108.573 Y90.305 E79.14725
G1 X109.695 Y91.427 E79.19135
G1 Z3.600 F7800.000
G1 X108.573 Y109.695 F7800.000
G1 F3938.75
G1 X109.695 Y108.573 E79.23545
G1 X109.695 Y106.746 E79.28619
G1 X106.746 Y109.695 E79.40206
G1 X104.919 Y109.695 E79.45280
G1 X109.695 Y104.919 E79.64043
G1 X109.695 Y103.092 E79.69118
G1 X103.092 Y109.695 E79.95057
G1 X101.266 Y109.695 E80.00131
G1 X109.695 Y101.266 E80.33247
G1 X109.695 Y99.439 E80.38322
G1 X99.439 Y109.695 E80.78614
G1 X97.612 Y109.695 E80.83689
G1 X109.695 Y97.612 E81.31158
G1 X109.695 Y95.785 E81.36232
G1 X95.785 Y109.695 E81.90877
G1 X93.958 Y109.695 E81.95952
G1 X109.695 Y93.958 E82.57774
G1 X109.695 Y92.131 E82.62848
G1 X92.131 Y109.695 E83.31847
G1 X90.305 Y109.695 E83.36921
G1 X109.695 Y90.305 E84.13096
G1 X107.869 Y90.305 E84.18171
G1 X90.305 Y107.869 E84.87169
G1 X90.305 Y106.042 E84.92244
G1 X106.042 Y90.305 E85.54066
G1 X104.215 Y90.305 E85.59140
G1 X90.305 Y104.215 E86.13785
G1 X90.305 Y102.388 E86.18860
G1 X102.388 Y90.305 E86.66329
G1 X100.561 Y90.305 E86.71403
G1 X90.305 Y100.561 E87.11696
G1 X90.305 Y98.734 E87.16770
G1 X98.734 Y90.305 E87.49886
G1 X96.908 Y90.305 E87.54961
G1 X90.305 Y96.908 E87.80900
G1 X90.305 Y95.081 E87.85975
G1 X95.081 Y90.305 E88.04737
G1 X93.254 Y90.305 E88.09812
G1 X90.305 Y93.254 E88.21398
G1 X90.305 Y91.427 E88.26473
G1 X91.427 Y90.305 E88.30883
G1 Z4.000 F7800.000
G1 X90.305 Y108.573 F7800.000
G1 F3938.75
G1 X91.427 Y109.695 E88.35292
G1 X93.254 Y109.695 E88.40367
G1 X90.305 Y106.746 E88.51953
G1 X90.305 Y104.919 E88.57028
G1 X95.081 Y109.695 E88.75791
G1 X96.908 Y109.695 E88.80865
G1 X90.305 Y103.092 E89.06805
G1 X90.305 Y101.266 E89.11879
G1 X98.734 Y109.695 E89.44995
G1 X100.561 Y109.695 E89.50070
G1 X90.305 Y99.439 E89.90362
G1 X90.305 Y97.612 E89.95436
G1 X102.388 Y109.695 E90.42905
G1 X104.215 Y109.695 E90.47980
G1 X90.305 Y95.785 E91.02625
G1 X90.305 Y93.958 E91.07700
G1 X106.042 Y109.695 E91.69522
G1 X107.869 Y109.695 E91.74596
G1 X90.305 Y92.131 E92.43595
G1 X90.305 Y90.305 E92.48669
G1 X109.695 Y109.695 E93.24844
G1 X109.695 Y107.869 E93.29919
G1 X92.131 Y90.305 E93.98917
G1 X93.958 Y90.305 E94.03991
G1 X109.695 Y106.042 E94.65813
G1 X109.695 Y104.215 E94.70888
G1 X95.785 Y90.305 E95.25533
G1 X97.612 Y90.305 E95.30608
G1 X109.695 Y102.388 E95.78077
G1 X109.695 Y100.561 E95.83151
G1 X99.439 Y90.305 E96.23444
G1 X101.266 Y90.305 E96.28518
G1 X109.695 Y98.734 E96.61634
G1 X109.695 Y96.908 E96.66709
G1 X103.092 Y90.305 E96.92648
G1 X104.919 Y90.305 E96.97722
G1 X109.695 Y95.081 E97.16485
G1 X109.695 Y93.254 E97.21560
G1 X106.746 Y90.305 E97.33146
G1 X108.573 Y90.305 E97.38221
G1 X109.695 Y91.427 E97.42631
G1 Z4.400 F7800.000
G1 X108.573 Y109.695 F7800.000
G1 F3938.75
G1 X109.695 Y108.573 E97.47040
G1 X109.695 Y106.746 E97.52115
G1 X106.746 Y109.695 E97.63701
G1 X104.919 Y109.695 E97.68776
G1 X109.695 Y104.919 E97.87539
G1 X109.695 Y103.092 E97.92613
G1 X103.092 Y109.695 E98.18553
G1 X101.266 Y109.695 E98.23627
G1 X109.695 Y101.266 E98.56743
G1 X109.695 Y99.439 E98.61817
G1 X99.439 Y109.695 E99.02110
G1 X97.612 Y109.695 E99.07184
G1 X109.695 Y97.612 E99.54653
G1 X109.695 Y95.785 E99.59728
G1 X95.785 Y109.695 E100.14373
G1 X93.958 Y109.695 E100.19448
G1 X109.695 Y93.958 E100.81270
G1 X109.695 Y92.131 E100.86344
G1 X92.131 Y109.695 E101.55342
G1 X90.305 Y109.695 E101.60417
G1 X109.695 Y90.305 E102.36592
G1 X107.869 Y90.305 E102.41666
G1 X90.305 Y107.869 E103.10665
G1 X90.305 Y106.042 E103.15739
G1 X106.042 Y90.305 E103.77561
G1 X104.215 Y90.305 E103.82636
G1 X90.305 Y104.215 E104.37281
G1 X90.305 Y102.388 E104.42356
G1 X102.388 Y90.305 E104.89825
G1 X100.561 Y90.305 E104.94899
G1 X90.305 Y100.561 E105.35191
G1 X90.305 Y98.734 E105.40266
G1 X98.734 Y90.305 E105.73382
G1 X96.908 Y90.305 E105.78456
G1 X90.305 Y96.908 E106.04396
G1 X90.305 Y95.081 E106.09470
G1 X95.081 Y90.305 E106.28233
G1 X93.254 Y90.305 E106.33308
G1 X90.305 Y93.254 E106.44894
G1 X90.305 Y91.427 E106.49969
G1 X91.427 Y90.305 E106.54378
G1 Z4.800 F7800.000
G1 X90.305 Y108.573 F7800.000
G1 F3938.75
G1 X91.427 Y109.695 E106.58788
G1 X93.254 Y109.695 E106.63863
G1 X90.305 Y106.746 E106.75449
G1 X90.305 Y104.919 E106.80524
G1 X95.081 Y109.695 E106.99286
G1 X96.908 Y109.695 E107.04361
G1 X90.305 Y103.092 E107.30300
G1 X90.305 Y101.266 E107.35375
G1 X98.734 Y109.695 E107.68491
G1 X100.561 Y109.695 E107.73565
G1 X90.305 Y99.439 E108.13858
G1 X90.305 Y97.612 E108.18932
G1 X102.388 Y109.695 E108.66401
G1 X104.215 Y109.695 E108.71476
G1 X90.305 Y95.785 E109.26121
G1 X90.305 Y93.958 E109.31195
G1 X106.042 Y109.695 E109.93017
G1 X107.869 Y109.695 E109.98092
G1 X90.305 Y92.131 E110.67090
G1 X90.305 Y90.305 E110.72165
G1 X109.695 Y109.695 E111.48340
G1 X109.695 Y107.869 E111.53414
G1 X92.131 Y90.305 E112.22413
G1 X93.958 Y90.305 E112.27487
G1 X109.695 Y106.042 E112.89309
G1 X109.695 Y104.215 E112.94384
G1 X95.785 Y90.305 E113.49029
G1 X97.612 Y90.305 E113.54103
G1 X109.695 Y102.388 E114.01572
G1 X109.695 Y100.561 E114.06647
G1 X99.439 Y90.305 E114.46939
G1 X101.266 Y90.305 E114.52014
G1 X109.695 Y98.734 E114.85130
G1 X109.695 Y96.908 E114.90204
G1 X103.092 Y90.305 E115.16144
G1 X104.919 Y90.305 E115.21218
G1 X109.695 Y95.081 E115.39981
G1 X109.695 Y93.254 E115.45055
G1 X106.746 Y90.305 E115.56642
G1 X108.573 Y90.305 E115.61716
G1 X109.695 Y91.427 E115.66126
G1 Z5.200 F7800.000
G1 X108.573 Y109.695 F7800.000
G1 F3938.75
G1 X109.695 Y108.573 E115.70536
G1 X109.695 Y106.746 E115.75611
G1 X106.746 Y109.695 E115.87197
G1 X104.919 Y109.695 E115.92271
G1 X109.695 Y104.919 E116.11034
G1 X109.695 Y103.092 E116.16109
G1 X103.092 Y109.695 E116.42048
G1 X101.266 Y109.695 E116.47123
G1 X109.695 Y101.266 E116.80239
G1 X109.695 Y99.439 E116.85313
G1 X99.439 Y109.695 E117.25605
G1 X97.612 Y109.695 E117.30680
G1 X109.695 Y97.612 E117.78149
G1 X109.695 Y95.785 E117.83223
G1 X95.785 Y109.695 E118.37869
G1 X93.958 Y109.695 E118.42943
G1 X109.695 Y93.958 E119.04765
G1 X109.695 Y92.131 E119.09840
G1 X92.131 Y109.695 E119.78838
G1 X90.305 Y109.695 E119.83913
G1 X109.695 Y90.305 E120.60088
G1 X107.869 Y90.305 E120.65162
G1 X90.305 Y107.869 E121.34160
G1 X90.305 Y106.042 E121.39235
G1 X106.042 Y90.305 E122.01057
G1 X104.215 Y90.305 E122.06131
G1 X90.305 Y104.215 E122.60777
G1 X90.305 Y102.388 E122.65851
G1 X102.388 Y90.305 E123.13320
G1 X100.561 Y90.305 E123.18395
G1 X90.305 Y100.561 E123.58687
G1 X90.305 Y98.734 E123.63762
G1 X98.734 Y90.305 E123.96877
G1 X96.908 Y90.305 E124.01952
G1 X90.305 Y96.908 E124.27891
G1 X90.305 Y95.081 E124.32966
G1 X95.081 Y90.305 E124.51729
G1 X93.254 Y90.305 E124.56803
G1 X90.305 Y93.254 E124.68390
G1 X90.305 Y91.427 E124.73464
G1 X91.427 Y90.305 E124.77874
G1 Z5.600 F7800.000
G1 X90.305 Y108.573 F7800.000
G1 F3938.75
G1 X91.427 Y109.695 E124.82284
G1 X93.254 Y109.695 E124.87358
G1 X90.305 Y106.746 E124.98945
G1 X90.305 Y104.919 E125.04019
G1 X95.081 Y109.695 E125.22782
G1 X96.908 Y109.695 E125.27857
G1 X90.305 Y103.092 E125.53796
G1 X90.305 Y101.266 E125.58871
G1 X98.734 Y109.695 E125.91986
G1 X100.561 Y109.695 E125.97061
G1 X90.305 Y99.439 E126.37353
G1 X90.305 Y97.612 E126.42428
G1 X102.388 Y109.695 E126.89897
G1 X104.215 Y109.695 E126.94971
G1 X90.305 Y95.785 E127.49617
G1 X90.305 Y93.958 E127.54691
G1 X106.042 Y109.695 E128.16513
G1 X107.869 Y109.695 E128.21588
G1 X90.305 Y92.131 E128.90586
G1 X90.305 Y90.305 E128.95660
G1 X109.695 Y109.695 E129.71835
G1 X109.695 Y107.869 E129.76910
G1 X92.131 Y90.305 E130.45908
G1 X93.958 Y90.305 E130.50983
G1 X109.695 Y106.042 E131.12805
G1 X109.695 Y104.215 E131.17879
G1 X95.785 Y90.305 E131.72525
G1 X97.612 Y90.305 E131.77599
G1 X109.695 Y102.388 E132.25068
G1 X109.695 Y100.561 E132.30143
G1 X99.439 Y90.305 E132.70435
G1 X101.266 Y90.305 E132.75509
G1 X109.695 Y98.734 E133.08625
G1 X109.695 Y96.908 E133.13700
G1 X103.092 Y90.305 E133.39639
G1 X104.919 Y90.305 E133.44714
G1 X109.695 Y95.081 E133.63477
G1 X109.695 Y93.254 E133.68551
G1 X106.746 Y90.305 E133.80137
G1 X108.573 Y90.305 E133.85212
G1 X109.695 Y91.427 E133.89622
G1 Z6.000 F7800.000
G1 X108.573 Y109.695 F7800.000
G1 F3938.75
G1 X109.695 Y108.573 E133.94032
G1 X109.695 Y106.746 E133.99106
G1 X106.746 Y109.695 E134.10693
G1 X104.919 Y109.695 E134.15767
G1 X109.695 Y104.919 E134.34530
G1 X109.695 Y103.092 E134.39605
G1 X103.092 Y109.695 E134.65544
G1 X101.266 Y109.695 E134.70618
G1 X109.695 Y101.266 E135.03734
G1 X109.695 Y99.439 E135.08809
G1 X99.439 Y109.695 E135.49101
G1 X97.612 Y109.695 E135.54176
G1 X109.695 Y97.612 E136.01645
G1 X109.695 Y95.785 E136.06719
G1 X95.785 Y109.695 E136.61364
G1 X93.958 Y109.695 E136.66439
G1 X109.695 Y93.958 E137.28261
G1 X109.695 Y92.131 E137.33335
G1 X92.131 Y109.695 E138.02334
G1 X90.305 Y109.695 E138.07408
G1 X109.695 Y90.305 E138.83583
G1 X107.869 Y90.305 E138.88658
G1 X90.305 Y107.869 E139.57656
G1 X90.305 Y106.042 E139.62731
G1 X106.042 Y90.305 E140.24553
G1 X104.215 Y90.305 E140.29627
G1 X90.305 Y104.215 E140.84272
G1 X90.305 Y102.388 E140.89347
G1 X102.388 Y90.305 E141.36816
G1 X100.561 Y90.305 E141.41890
G1 X90.305 Y100.561 E141.82183
G1 X90.305 Y98.734 E141.87257
G1 X98.734 Y90.305 E142.20373
G1 X96.908 Y90.305 E142.25448
G1 X90.305 Y96.908 E142.51387
G1 X90.305 Y95.081 E142.56462
G1 X95.081 Y90.305 E142.75224
G1 X93.254 Y90.305 E142.80299
G1 X90.305 Y93.254 E142.91885
G1 X90.305 Y91.427 E142.96960
G1 X91.427 Y90.305 E143.01370
G1 Z6.400 F7800.000
G1 X90.305 Y108.573 F7800.000
G1 F3938.75
G1 X91.427 Y109.695 E143.05779
G1 X93.254 Y109.695 E143.10854
G1 X90.305 Y106.746 E143.22440
G1 X90.305 Y104.919 E143.27515
G1 X95.081 Y109.695 E143.46278
G1 X96.908 Y109.695 E143.51352
G1 X90.305 Y103.092 E143.77292
G1 X90.305 Y101.266 E143.82366
G1 X98.734 Y109.695 E144.15482
G1 X100.561 Y109.695 E144.20557
G1 X90.305 Y99.439 E144.60849
G1 X90.305 Y97.612 E144.65923
G1 X102.388 Y109.695 E145.13392
G1 X104.215 Y109.695 E145.18467
G1 X90.305 Y95.785 E145.73112
G1 X90.305 Y93.958 E145.78187
G1 X106.042 Y109.695 E146.40009
G1 X107.869 Y109.695 E146.45083
G1 X90.305 Y92.131 E147.14082
G1 X90.305 Y90.305 E147.19156
G1 X109.695 Y109.695 E147.95331
G1 X109.695 Y107.869 E148.00406
G1 X92.131 Y90.305 E148.69404
G1 X93.958 Y90.305 E148.74478
G1 X109.695 Y106.042 E149.36300
G1 X109.695 Y104.215 E149.41375
G1 X95.785 Y90.305 E149.96020
G1 X97.612 Y90.305 E150.01095
G1 X109.695 Y102.388 E150.48564
G1 X109.695 Y100.561 E150.53638
G1 X99.439 Y90.305 E150.93931
G1 X101.266 Y90.305 E150.99005
G1 X109.695 Y98.734 E151.32121
G1 X109.695 Y96.908 E151.37196
G1 X103.092 Y90.305 E151.63135
G1 X104.919 Y90.305 E151.68209
G1 X109.695 Y95.081 E151.86972
G1 X109.695 Y93.254 E151.92047
G1 X106.746 Y90.305 E152.03633
G1 X108.573 Y90.305 E152.08708
G1 X109.695 Y91.427 E152.13118
G1 Z6.800 F7800.000
G1 X108.573 Y109.695 F7800.000
G1 F3938.75
G1 X109.695 Y108.573 E152.17527
G1 X109.695 Y106.746 E152.22602
G1 X106.746 Y109.695 E152.34188
G1 X104.919 Y109.695 E152.39263
G1 X109.695 Y104.919 E152.58026
G1 X109.695 Y103.092 E152.63100
G1 X103.092 Y109.695 E152.89039
G1 X101.266 Y109.695 E152.94114
G1 X109.695 Y101.266 E153.27230
G1 X109.695 Y99.439 E153.32304
G1 X99.439 Y109.695 E153.72597
G1 X97.612 Y109.695 E153.77671
G1 X109.695 Y97.612 E154.25140
G1 X109.695 Y95.785 E154.30215
G1 X95.785 Y109.695 E154.84860
G1 X93.958 Y109.695 E154.89935
G1 X109.695 Y93.958 E155.51757
G1 X109.695 Y92.131 E155.56831
G1 X92.131 Y109.695 E156.25829
G1 X90.305 Y109.695 E156.30904
G1 X109.695 Y90.305 E157.07079
G1 X107.869 Y90.305 E157.12153
G1 X90.305 Y107.869 E157.81152
G1 X90.305 Y106.042 E157.86226
G1 X106.042 Y90.305 E158.48048
G1 X104.215 Y90.305 E158.53123
G1 X90.305 Y104.215 E159.07768
G1 X90.305 Y102.388 E159.12843
G1 X102.388 Y90.305 E159.60312
G1 X100.561 Y90.305 E159.65386
G1 X90.305 Y100.561 E160.05678
G1 X90.305 Y98.734 E160.10753
G1 X98.734 Y90.305 E160.43869
G1 X96.908 Y90.305 E160.48943
G1 X90.305 Y96.908 E160.74883
G1 X90.305 Y95.081 E160.79957
G1 X95.081 Y90.305 E160.98720
G1 X93.254 Y90.305 E161.03795
G1 X90.305 Y93.254 E161.15381
G1 X90.305 Y91.427 E161.20455
G1 X91.427 Y90.305 E161.24865
G1 Z7.200 F7800.000
G1 X90.305 Y108.573 F7800.000
G1 F3938.75
G1 X91.427 Y109.695 E161.29275
G1 X93.254 Y109.695 E161.34350
G1 X90.305 Y106.746 E161.45936
G1 X90.305 Y104.919 E161.51011
G1 X95.081 Y109.695 E161.69773
G1 X96.908 Y109.695 E161.74848
G1 X90.305 Y103.092 E162.00787
G1 X90.305 Y101.266 E162.05862
G1 X98.734 Y109.695 E162.38978
G1 X100.561 Y109.695 E162.44052
G1 X90.305 Y99.439 E162.84345
G1 X90.305 Y97.612 E162.89419
G1 X102.388 Y109.695 E163.36888
G1 X104.215 Y109.695 E163.41963
G1 X90.305 Y95.785 E163.96608
G1 X90.305 Y93.958 E164.01682
G1 X106.042 Y109.695 E164.63504
G1 X107.869 Y109.695 E164.68579
G1 X90.305 Y92.131 E165.37577
G1 X90.305 Y90.305 E165.42652
G1 X109.695 Y109.695 E166.18827
G1 X109.695 Y107.869 E166.23901
G1 X92.131 Y90.305 E166.92900
G1 X93.958 Y90.305 E166.97974
G1 X109.695 Y106.042 E167.59796
G1 X109.695 Y104.215 E167.64871
G1 X95.785 Y90.305 E168.19516
G1 X97.612 Y90.305 E168.24590
G1 X109.695 Y102.388 E168.72059
G1 X109.695 Y100.561 E168.77134
G1 X99.439 Y90.305 E169.17426
G1 X101.266 Y90.305 E169.22501
G1 X109.695 Y98.734 E169.55617
G1 X109.695 Y96.908 E169.60691
G1 X103.092 Y90.305 E169.86631
G1 X104.919 Y90.305 E169.91705
G1 X109.695 Y95.081 E170.10468
G1 X109.695 Y93.254 E170.15542
G1 X106.746 Y90.305 E170.27129
G1 X108.573 Y90.305 E170.32203
G1 X109.695 Y91.427 E170.36613
G1 Z7.600 F7800.000
G1 X108.573 Y109.695 F7800.000
G1 F3938.75
G1 X109.695 Y108.573 E170.41023
G1 X109.695 Y106.746 E170.46098
G1 X106.746 Y109.695 E170.57684
G1 X104.919 Y109.695 E170.62758
G1 X109.695 Y104.919 E170.81521
G1 X109.695 Y103.092 E170.86596
G1 X103.092 Y109.695 E171.12535
G1 X101.266 Y109.695 E171.17610
G1 X109.695 Y101.266 E171.50726
G1 X109.695 Y99.439 E171.55800
G1 X99.439 Y109.695 E171.96092
G1 X97.612 Y109.695 E172.01167
G1 X109.695 Y97.612 E172.48636
G1 X109.695 Y95.785 E172.53710
G1 X95.785 Y109.695 E173.08356
G1 X93.958 Y109.695 E173.13430
G1 X109.695 Y93.958 E173.75252
G1 X109.695 Y92.131 E173.80327
G1 X92.131 Y109.695 E174.49325
G1 X90.305 Y109.695 E174.54400
G1 X109.695 Y90.305 E175.30575
G1 X107.869 Y90.305 E175.35649
G1 X90.305 Y107.869 E176.04647
G1 X90.305 Y106.042 E176.09722
G1 X106.042 Y90.305 E176.71544
G1 X104.215 Y90.305 E176.76618
G1 X90.305 Y104.215 E177.31264
G1 X90.305 Y102.388 E177.36338
G1 X102.388 Y90.305 E177.83807
G1 X100.561 Y90.305 E177.88882
G1 X90.305 Y100.561 E178.29174
G1 X90.305 Y98.734 E178.34249
G1 X98.734 Y90.305 E178.67364
G1 X96.908 Y90.305 E178.72439
G1 X90.305 Y96.908 E178.98378
G1 X90.305 Y95.081 E179.03453
G1 X95.081 Y90.305 E179.22216
G1 X93.254 Y90.305 E179.27290
G1 X90.305 Y93.254 E179.38877
G1 X90.305 Y91.427 E179.43951
G1 X91.427 Y90.305 E179.48361
G1 Z8.000 F7800.000
G1 X90.305 Y108.573 F7800.000
G1 F3938.75
G1 X91.427 Y109.695 E179.52771
G1 X93.254 Y109.695 E179.57845
G1 X90.305 Y106.746 E179.69432
G1 X90.305 Y104.919 E179.74506
G1 X95.081 Y109.695 E179.93269
G1 X96.908 Y109.695 E179.98344
G1 X90.305 Y103.092 E180.24283
G1 X90.305 Y101.266 E180.29357
G1 X98.734 Y109.695 E180.62473
G1 X100.561 Y109.695 E180.67548
G1 X90.305 Y99.439 E181.07840
G1 X90.305 Y97.612 E181.12915
G1 X102.388 Y109.695 E181.60384
G1 X104.215 Y109.695 E181.65458
G1 X90.305 Y95.785 E182.20104
G1 X90.305 Y93.958 E182.25178
G1 X106.042 Y109.695 E182.87000
G1 X107.869 Y109.695 E182.92075
G1 X90.305 Y92.131 E183.61073
G1 X90.305 Y90.305 E183.66147
G1 X109.695 Y109.695 E184.42322
G1 X109.695 Y107.869 E184.47397
G1 X92.131 Y90.305 E185.16395
G1 X93.958 Y90.305 E185.21470
G1 X109.695 Y106.042 E185.83292
G1 X109.695 Y104.215 E185.88366
G1 X95.785 Y90.305 E186.43012
G1 X97.612 Y90.305 E186.48086
G1 X109.695 Y102.388 E186.95555
G1 X109.695 Y100.561 E187.00630
G1 X99.439 Y90.305 E187.40922
G1 X101.266 Y90.305 E187.45996
G1 X109.695 Y98.734 E187.79112
G1 X109.695 Y96.908 E187.84187
G1 X103.092 Y90.305 E188.10126
G1 X104.919 Y90.305 E188.15201
G1 X109.695 Y95.081 E188.33964
G1 X109.695 Y93.254 E188.39038
G1 X106.746 Y90.305 E188.50624
G1 X108.573 Y90.305 E188.55699
G1 X109.695 Y91.427 E188.60109
G1 Z8.400 F7800.000
G1 X108.573 Y109.695 F7800.000
G1 F3938.75
G1 X109.695 Y108.573 E188.64519
G1 X109.695 Y106.746 E188.69593
G1 X106.746 Y109.695 E188.81180
G1 X104.919 Y109.695 E188.86254
G1 X109.695 Y104.919 E189.05017
G1 X109.695 Y103.092 E189.10091
G1 X103.092 Y109.695 E189.36031
G1 X101.266 Y109.695 E189.41105
G1 X109.695 Y101.266 E189.74221
G1 X109.695 Y99.439 E189.79296
G1 X99.439 Y109.695 E190.19588
G1 X97.612 Y109.695 E190.24663
G1 X109.695 Y97.612 E190.72132
G1 X109.695 Y95.785 E190.77206
G1 X95.785 Y109.695 E191.31851
G1 X93.958 Y109.695 E191.36926
G1 X109.695 Y93.958 E191.98748
G1 X109.695 Y92.131 E192.03822
G1 X92.131 Y109.695 E192.72821
G1 X90.305 Y109.695 E192.77895
G1 X109.695 Y90.305 E193.54070
G1 X107.869 Y90.305 E193.59145
G1 X90.305 Y107.869 E194.28143
G1 X90.305 Y106.042 E194.33218
G1 X106.042 Y90.305 E194.95040
G1 X104.215 Y90.305 E195.00114
G1 X90.305 Y104.215 E195.54759
G1 X90.305 Y102.388 E195.59834
G1 X102.388 Y90.305 E196.07303
G1 X100.561 Y90.305 E196.12377
G1 X90.305 Y100.561 E196.52670
G1 X90.305 Y98.734 E196.57744
G1 X98.734 Y90.305 E196.90860
G1 X96.908 Y90.305 E196.95935
G1 X90.305 Y96.908 E197.21874
G1 X90.305 Y95.081 E197.26949
G1 X95.081 Y90.305 E197.45711
G1 X93.254 Y90.305 E197.50786
G1 X90.305 Y93.254 E197.62372
G1 X90.305 Y91.427 E197.67447
G1 X91.427 Y90.305 E197.71857
G1 Z8.800 F7800.000
G1 X90.305 Y108.573 F7800.000
G1 F3938.75
G1 X91.427 Y109.695 E197.76266
G1 X93.254 Y109.695 E197.81341
G1 X90.305 Y106.746 E197.92927
G1 X90.305 Y104.919 E197.98002
G1 X95.081 Y109.695 E198.16765
G1 X96.908 Y109.695 E198.21839
G1 X90.305 Y103.092 E198.47779
G1 X90.305 Y101.266 E198.52853
G1 X98.734 Y109.695 E198.85969
G1 X100.561 Y109.695 E198.91044
G1 X90.305 Y99.439 E199.31336
G1 X90.305 Y97.612 E199.36410
G1 X102.388 Y109.695 E199.83879
G1 X104.215 Y109.695 E199.88954
G1 X90.305 Y95.785 E200.43599
G1 X90.305 Y93.958 E200.48674
G1 X106.042 Y109.695 E201.10496
G1 X107.869 Y109.695 E201.15570
G1 X90.305 Y92.131 E201.84569
G1 X90.305 Y90.305 E201.89643
G1 X109.695 Y109.695 E202.65818
G1 X109.695 Y107.869 E202.70893
G1 X92.131 Y90.305 E203.39891
G1 X93.958 Y90.305 E203.44965
G1 X109.695 Y106.042 E204.06787
G1 X109.695 Y104.215 E204.11862
G1 X95.785 Y90.305 E204.66507
G1 X97.612 Y90.305 E204.71582
G1 X109.695 Y102.388 E205.19051
G1 X109.695 Y100.561 E205.24125
G1 X99.439 Y90.305 E205.64418
G1 X101.266 Y90.305 E205.69492
G1 X109.695 Y98.734 E206.02608
G1 X109.695 Y96.908 E206.07683
G1 X103.092 Y90.305 E206.33622
G1 X104.919 Y90.305 E206.38696
G1 X109.695 Y95.081 E206.57459
G1 X109.695 Y93.254 E206.62534
G1 X106.746 Y90.305 E206.74120
G1 X108.573 Y90.305 E206.79195
G1 X109.695 Y91.427 E206.83604
G1 Z9.200 F7800.000
G1 X108.573 Y109.695 F7800.000
G1 F3938.75
G1 X109.695 Y108.573 E206.88014
G1 X109.695 Y106.746 E206.93089
G1 X106.746 Y109.695 E207.04675
G1 X104.919 Y109.695 E207.09750
G1 X109.695 Y104.919 E207.28513
G1 X109.695 Y103.092 E207.33587
G1 X103.092 Y109.695 E207.59526
G1 X101.266 Y109.695 E207.64601
G1 X109.695 Y101.266 E207.97717
G1 X109.695 Y99.439 E208.02791
G1 X99.439 Y109.695 E208.43084
G1 X97.612 Y109.695 E208.48158
G1 X109.695 Y97.612 E208.95627
G1 X109.695 Y95.785 E209.00702
G1 X95.785 Y109.695 E209.55347
G1 X93.958 Y109.695 E209.60422
G1 X109.695 Y93.958 E210.22244
G1 X109.695 Y92.131 E210.27318
G1 X92.131 Y109.695 E210.96316
G1 X90.305 Y109.695 E211.01391
G1 X109.695 Y90.305 E211.77566
G1 X107.869 Y90.305 E211.82640
G1 X90.305 Y107.869 E212.51639
G1 X90.305 Y106.042 E212.56713
G1 X106.042 Y90.305 E213.18535
G1 X104.215 Y90.305 E213.23610
G1 X90.305 Y104.215 E213.78255
G1 X90.305 Y102.388 E213.83330
G1 X102.388 Y90.305 E214.30798
G1 X100.561 Y90.305 E214.35873
G1 X90.305 Y100.561 E214.76165
G1 X90.305 Y98.734 E214.81240
G1 X98.734 Y90.305 E215.14356
G1 X96.908 Y90.305 E215.19430
G1 X90.305 Y96.908 E215.45370
G1 X90.305 Y95.081 E215.50444
G1 X95.081 Y90.305 E215.69207
G1 X93.254 Y90.305 E215.74282
G1 X90.305 Y93.254 E215.85868
G1 X90.305 Y91.427 E215.90942
G1 X91.427 Y90.305 E215.95352
G1 Z9.600 F7800.000
G1 X90.305 Y108.573 F7800.000
G1 F3938.75
G1 X91.427 Y109.695 E215.99762
G1 X93.254 Y109.695 E216.04837
G1 X90.305 Y106.746 E216.16423
G1 X90.305 Y104.919 E216.21498
G1 X95.081 Y109.695 E216.40260
G1 X96.908 Y109.695 E216.45335
G1 X90.305 Y103.092 E216.71274
G1 X90.305 Y101.266 E216.76349
G1 X98.734 Y109.695 E217.09465
G1 X100.561 Y109.695 E217.14539
G1 X90.305 Y99.439 E217.54832
G1 X90.305 Y97.612 E217.59906
G1 X102.388 Y109.695 E218.07375
G1 X104.215 Y109.695 E218.12449
G1 X90.305 Y95.785 E218.67095
G1 X90.305 Y93.958 E218.72169
G1 X106.042 Y109.695 E219.33991
G1 X107.869 Y109.695 E219.39066
G1 X90.305 Y92.131 E220.08064
G1 X90.305 Y90.305 E220.13139
G1 X109.695 Y109.695 E220.89314
G1 X109.695 Y107.869 E220.94388
G1 X92.131 Y90.305 E221.63387
G1 X93.958 Y90.305 E221.68461
G1 X109.695 Y106.042 E222.30283
G1 X109.695 Y104.215 E222.35358
G1 X95.785 Y90.305 E222.90003
G1 X97.612 Y90.305 E222.95077
G1 X109.695 Y102.388 E223.42546
G1 X109.695 Y100.561 E223.47621
G1 X99.439 Y90.305 E223.87913
G1 X101.266 Y90.305 E223.92988
G1 X109.695 Y98.734 E224.26104
G1 X109.695 Y96.908 E224.31178
G1 X103.092 Y90.305 E224.57118
G1 X104.919 Y90.305 E224.62192
G1 X109.695 Y95.081 E224.80955
G1 X109.695 Y93.254 E224.86029
G1 X106.746 Y90.305 E224.97616
G1 X108.573 Y90.305 E225.02690
G1 X109.695 Y91.427 E225.07100
G1 Z10.000 F7800.000
G1 E223.07100 F2400.00000
G92 E0
G1 X108.573 Y109.695 F7800.000
G1 E2.00000 F2400.00000
G1 F3938.75
G1 X109.695 Y108.573 E2.04410
G1 X109.695 Y106.746 E2.09484
G1 X106.746 Y109.695 E2.21071
G1 X104.919 Y109.695 E2.26145
G1 X109.695 Y104.919 E2.44908
G1 X109.695 Y103.092 E2.49983
G1 X103.092 Y109.695 E2.75922
G1 X101.266 Y109.695 E2.80997
G1 X109.695 Y101.266 E3.14112
G1 X109.695 Y99.439 E3.19187
G1 X99.439 Y109.695 E3.59479
G1 X97.612 Y109.695 E3.64554
G1 X109.695 Y97.612 E4.12023
G1 X109.695 Y95.785 E4.17097
G1 X95.785 Y109.695 E4.71743
G1 X93.958 Y109.695 E4.76817
G1 X109.695 Y93.958 E5.38639
G1 X109.695 Y92.131 E5.43714
G1 X92.131 Y109.695 E6.12712
G1 X90.305 Y109.695 E6.17786
G1 X109.695 Y90.305 E6.93961
G1 X107.869 Y90.305 E6.99036
G1 X90.305 Y107.869 E7.68034
G1 X90.305 Y106.042 E7.73109
G1 X106.042 Y90.305 E8.34931
G1 X104.215 Y90.305 E8.40005
G1 X90.305 Y104.215 E8.94651
G1 X90.305 Y102.388 E8.99725
G1 X102.388 Y90.305 E9.47194
G1 X100.561 Y90.305 E9.52269
G1 X90.305 Y100.561 E9.92561
G1 X90.305 Y98.734 E9.97635
G1 X98.734 Y90.305 E10.30751
G1 X96.908 Y90.305 E10.35826
G1 X90.305 Y96.908 E10.61765
G1 X90.305 Y95.081 E10.66840
G1 X95.081 Y90.305 E10.85603
G1 X93.254 Y90.305 E10.90677
G1 X90.305 Y93.254 E11.02263
G1 X90.305 Y91.427 E11.07338
G1 X91.427 Y90.305 E11.11748
G1 E9.11748 F2400.00000
G92 E0
M107
; Filament-specific end gcode 
;END gcode for filament

M104 S0 ; turn off temperature
G28 X0  ; home X axis
M84     ; disable motors

M140 S0 ; set bed temperature
; filament used = 232.2mm (1.6cm3)
; total filament cost = 0.0

; avoid_crossing_perimeters = 0
; bed_shape = 0x0,200x0,200x200,0x200
; bed_temperature = 0
; before_layer_gcode = 
; between_objects_gcode = 
; bridge_acceleration = 0
; bridge_fan_speed = 100
; brim_connections_width = 0
; brim_width = 0
; complete_objects = 0
; cooling = 1
; default_acceleration = 0
; disable_fan_first_layers = 3
; duplicate_distance = 6
; end_filament_gcode = "; Filament-specific end gcode \n;END gcode for filament\n"
; end_gcode = M104 S0 ; turn off temperature\nG28 X0  ; home X axis\nM84     ; disable motors\n
; extruder_clearance_height = 20
; extruder_clearance_radius = 20
; extruder_offset = 0x0
; extrusion_axis = E
; extrusion_multiplier = 1
; fan_always_on = 0
; fan_below_layer_time = 60
; filament_colour = #FFFFFF
; filament_cost = 0
; filament_density = 0
; filament_diameter = 3
; filament_max_volumetric_speed = 0
; filament_notes = ""
; first_layer_acceleration = 0
; first_layer_bed_temperature = 0
; first_layer_extrusion_width = 200%
; first_layer_speed = 30
; first_layer_temperature = 205
; gcode_arcs = 0
; gcode_comments = 0
; gcode_flavor = reprap
; has_heatbed = 1
; infill_acceleration = 0
; infill_first = 0
; interior_brim_width = 0
; layer_gcode = 
; max_fan_speed = 100
; max_layer_height = 0.3
; max_print_speed = 80
; max_volumetric_speed = 0
; min_fan_speed = 35
; min_layer_height = 0.15
; min_print_speed = 10
; min_skirt_length = 0
; notes = 
; nozzle_diameter = 0.5
; only_retract_when_crossing_perimeters = 1
; ooze_prevention = 0
; output_filename_format = [input_filename_base].gcode
; perimeter_acceleration = 0
; post_process = 
; pressure_advance = 0
; printer_notes = 
; resolution = 0
; retract_before_travel = 2
; retract_layer_change = 0
; retract_length = 2
; retract_length_toolchange = 10
; retract_lift = 0
; retract_lift_above = 0
; retract_lift_below = 0
; retract_restart_extra = 0
; retract_restart_extra_toolchange = 0
; retract_speed = 40
; skirt_distance = 6
; skirt_height = 1
; skirts = 0
; slowdown_below_layer_time = 5
; spiral_vase = 0
; standby_temperature_delta = -5
; start_filament_gcode = "; Filament gcode\n"
; start_gcode = G28 ; home all axes\nG1 Z5 F5000 ; lift nozzle\n
; temperature = 200
; threads = 8
; toolchange_gcode = 
; travel_speed = 130
; use_firmware_retraction = 0
; use_relative_e_distances = 0
; use_set_and_wait_bed = 0
; use_set_and_wait_extruder = 0
; use_volumetric_e = 0
; vibration_limit = 0
; wipe = 0
; z_offset = 0
; z_steps_per_mm = 0
; adaptive_slicing = 0
; adaptive_slicing_quality = 75%
; dont_support_bridges = 1
; extrusion_width = 0
; first_layer_height = 0.4
; infill_only_where_needed = 0
; interface_shells = 0
; layer_height = 0.4
; match_horizontal_surfaces = 0
; raft_layers = 0
; regions_overlap = 0
; seam_position = aligned
; sequential_print_priority = 0
; support_material = 0
; support_material_angle = 0
; support_material_buildplate_only = 0
; support_material_contact_distance = 0.2
; support_material_enforce_layers = 0
; support_material_extruder = 1
; support_material_extrusion_width = 0
; support_material_interface_extruder = 1
; support_material_interface_extrusion_width = 0
; support_material_interface_layers = 3
; support_material_interface_spacing = 0
; support_material_interface_speed = 100%
; support_material_max_layers = 0
; support_material_pattern = pillars
; support_material_spacing = 2.5
; support_material_speed = 60
; support_material_threshold = 60%
; xy_size_compensation = 0
; bottom_infill_pattern = rectilinear
; bottom_solid_layers = 0
; bridge_flow_ratio = 1
; bridge_speed = 60
; external_perimeter_extrusion_width = 0
; external_perimeter_speed = 50%
; external_perimeters_first = 0
; extra_perimeters = 1
; fill_angle = 45
; fill_density = 38%
; fill_gaps = 1
; fill_pattern = rectilinear
; gap_fill_speed = 20
; infill_every_layers = 1
; infill_extruder = 1
; infill_extrusion_width = 0
; infill_overlap = 55%
; infill_speed = 80
; overhangs = 1
; perimeter_extruder = 1
; perimeter_extrusion_width = 0
; perimeter_speed = 60
; perimeters = 0
; small_perimeter_speed = 15
; solid_infill_below_area = 70
; solid_infill_every_layers = 0
; solid_infill_extruder = 1
; solid_infill_extrusion_width = 0
; solid_infill_speed = 20
; thin_walls = 1
; top_infill_extrusion_width = 0
; top_infill_pattern = rectilinear
; top_solid_infill_speed = 15
; top_solid_layers = 0
