; generated by Slic3r 1.2.9 on 2019-08-21 at 09:33:46

; external perimeters extrusion width = 0.50mm
; perimeters extrusion width = 0.58mm
; infill extrusion width = 0.58mm
; solid infill extrusion width = 0.58mm
; top infill extrusion width = 0.58mm

M107
M104 S200 ; set temperature
G28 ; home all axes
G1 Z5 F5000 ; lift nozzle

M109 S200 ; wait for temperature to be reached
G21 ; set units to millimeters
G90 ; use absolute coordinates
M82 ; use absolute distances for extrusion
G92 E0
G1 Z0.400 F7800.000
G1 E-2.00000 F2400.00000
G92 E0
G1 X90.371 Y107.917 F7800.000
G1 E2.00000 F2400.00000
G1 X92.083 Y109.629 E2.88040 F1800.000
G1 X95.554 Y109.629 E4.14286
G1 X90.371 Y104.446 E6.80866
G1 X90.371 Y100.975 E8.07113
G1 X99.025 Y109.629 E12.52232
G1 X102.496 Y109.629 E13.78479
G1 X90.371 Y97.504 E20.02138
G1 X90.371 Y94.033 E21.28384
G1 X105.967 Y109.629 E29.30583
G1 X109.438 Y109.629 E30.56830
G1 X90.371 Y90.562 E40.37569
G1 X93.651 Y90.371 E41.57076
G1 X109.629 Y106.349 E49.78909
G1 X109.629 Y102.878 E51.05155
G1 X97.122 Y90.371 E57.48449
G1 X100.593 Y90.371 E58.74695
G1 X109.629 Y99.407 E63.39449
G1 X109.629 Y95.936 E64.65695
G1 X104.064 Y90.371 E67.51909
G1 X107.535 Y90.371 E68.78156
G1 X109.629 Y92.465 E69.85829
G1 Z0.800 F7800.000
G1 X107.535 Y109.629 F7800.000
G1 X109.629 Y107.535 E70.59838 F2238.819
G1 X109.629 Y104.064 E71.46613
G1 X104.064 Y109.629 E73.43341
G1 X100.593 Y109.629 E74.30116
G1 X109.629 Y100.593 E77.49562
G1 X109.629 Y97.122 E78.36337
G1 X97.122 Y109.629 E82.78501
G1 X93.651 Y109.629 E83.65276
G1 X109.629 Y93.651 E89.30159
G1 X109.438 Y90.371 E90.12301
G1 X90.371 Y109.438 E96.86407
G1 X90.371 Y105.967 E97.73182
G1 X105.967 Y90.371 E103.24570
G1 X102.496 Y90.371 E104.11345
G1 X90.371 Y102.496 E108.40014
G1 X90.371 Y99.025 E109.26789
G1 X99.025 Y90.371 E112.32739
G1 X95.554 Y90.371 E113.19514
G1 X90.371 Y95.554 E115.02747
G1 X90.371 Y92.083 E115.89522
G1 X92.083 Y90.371 E116.50035
G1 Z1.200 F7800.000
G1 X90.371 Y107.917 F7800.000
G1 X92.083 Y109.629 E117.10549 F2238.819
G1 X95.554 Y109.629 E117.97324
G1 X90.371 Y104.446 E119.80556
G1 X90.371 Y100.975 E120.67331
G1 X99.025 Y109.629 E123.73282
G1 X102.496 Y109.629 E124.60057
G1 X90.371 Y97.504 E128.88726
G1 X90.371 Y94.033 E129.75501
G1 X105.967 Y109.629 E135.26888
G1 X109.438 Y109.629 E136.13663
G1 X90.371 Y90.562 E142.87769
G1 X93.651 Y90.371 E143.69912
G1 X109.629 Y106.349 E149.34794
G1 X109.629 Y102.878 E150.21569
G1 X97.122 Y90.371 E154.63734
G1 X100.593 Y90.371 E155.50509
G1 X109.629 Y99.407 E158.69955
G1 X109.629 Y95.936 E159.56730
G1 X104.064 Y90.371 E161.53457
G1 X107.535 Y90.371 E162.40232
G1 X109.629 Y92.465 E163.14241
M106 S255
G1 Z1.600 F7800.000
G1 X107.535 Y109.629 F7800.000
G1 X109.629 Y107.535 E163.88250 F2238.819
G1 X109.629 Y104.064 E164.75025
G1 X104.064 Y109.629 E166.71752
G1 X100.593 Y109.629 E167.58528
G1 X109.629 Y100.593 E170.77973
G1 X109.629 Y97.122 E171.64748
G1 X97.122 Y109.629 E176.06913
G1 X93.651 Y109.629 E176.93688
G1 X109.629 Y93.651 E182.58571
G1 X109.438 Y90.371 E183.40713
G1 X90.371 Y109.438 E190.14819
G1 X90.371 Y105.967 E191.01594
G1 X105.967 Y90.371 E196.52982
G1 X102.496 Y90.371 E197.39757
G1 X90.371 Y102.496 E201.68426
G1 X90.371 Y99.025 E202.55201
G1 X99.025 Y90.371 E205.61151
G1 X95.554 Y90.371 E206.47926
G1 X90.371 Y95.554 E208.31158
G1 X90.371 Y92.083 E209.17933
G1 X92.083 Y90.371 E209.78447
G1 Z2.000 F7800.000
G1 X90.371 Y107.917 F7800.000
G1 X92.083 Y109.629 E210.38961 F2238.819
G1 X95.554 Y109.629 E211.25736
G1 X90.371 Y104.446 E213.08968
G1 X90.371 Y100.975 E213.95743
G1 X99.025 Y109.629 E217.01693
G1 X102.496 Y109.629 E217.88468
G1 X90.371 Y97.504 E222.17137
G1 X90.371 Y94.033 E223.03912
G1 X105.967 Y109.629 E228.55300
G1 X109.438 Y109.629 E229.42075
G1 X90.371 Y90.562 E236.16181
G1 X93.651 Y90.371 E236.98323
G1 X109.629 Y106.349 E242.63206
G1 X109.629 Y102.878 E243.49981
G1 X97.122 Y90.371 E247.92146
G1 X100.593 Y90.371 E248.78921
G1 X109.629 Y99.407 E251.98366
G1 X109.629 Y95.936 E252.85142
G1 X104.064 Y90.371 E254.81869
G1 X107.535 Y90.371 E255.68644
G1 X109.629 Y92.465 E256.42653
G1 Z2.400 F7800.000
G1 X107.535 Y109.629 F7800.000
G1 X109.629 Y107.535 E257.16662 F2238.819
G1 X109.629 Y104.064 E258.03437
G1 X104.064 Y109.629 E260.00164
G1 X100.593 Y109.629 E260.86939
G1 X109.629 Y100.593 E264.06385
G1 X109.629 Y97.122 E264.93160
G1 X97.122 Y109.629 E269.35325
G1 X93.651 Y109.629 E270.22100
G1 X109.629 Y93.651 E275.86982
G1 X109.438 Y90.371 E276.69125
G1 X90.371 Y109.438 E283.43231
G1 X90.371 Y105.967 E284.30006
G1 X105.967 Y90.371 E289.81393
G1 X102.496 Y90.371 E290.68168
G1 X90.371 Y102.496 E294.96837
G1 X90.371 Y99.025 E295.83612
G1 X99.025 Y90.371 E298.89563
G1 X95.554 Y90.371 E299.76338
G1 X90.371 Y95.554 E301.59570
G1 X90.371 Y92.083 E302.46345
G1 X92.083 Y90.371 E303.06859
G1 Z2.800 F7800.000
G1 X90.371 Y107.917 F7800.000
G1 X92.083 Y109.629 E303.67373 F2238.819
G1 X95.554 Y109.629 E304.54148
G1 X90.371 Y104.446 E306.37380
G1 X90.371 Y100.975 E307.24155
G1 X99.025 Y109.629 E310.30105
G1 X102.496 Y109.629 E311.16880
G1 X90.371 Y97.504 E315.45549
G1 X90.371 Y94.033 E316.32324
G1 X105.967 Y109.629 E321.83712
G1 X109.438 Y109.629 E322.70487
G1 X90.371 Y90.562 E329.44593
G1 X93.651 Y90.371 E330.26735
G1 X109.629 Y106.349 E335.91618
G1 X109.629 Y102.878 E336.78393
G1 X97.122 Y90.371 E341.20557
G1 X100.593 Y90.371 E342.07332
G1 X109.629 Y99.407 E345.26778
G1 X109.629 Y95.936 E346.13553
G1 X104.064 Y90.371 E348.10281
G1 X107.535 Y90.371 E348.97056
G1 X109.629 Y92.465 E349.71065
G1 Z3.200 F7800.000
G1 X107.535 Y109.629 F7800.000
G1 X109.629 Y107.535 E350.45074 F2238.819
G1 X109.629 Y104.064 E351.31849
G1 X104.064 Y109.629 E353.28576
G1 X100.593 Y109.629 E354.15351
G1 X109.629 Y100.593 E357.34797
G1 X109.629 Y97.122 E358.21572
G1 X97.122 Y109.629 E362.63736
G1 X93.651 Y109.629 E363.50511
G1 X109.629 Y93.651 E369.15394
G1 X109.438 Y90.371 E369.97537
G1 X90.371 Y109.438 E376.71643
G1 X90.371 Y105.967 E377.58418
G1 X105.967 Y90.371 E383.09805
G1 X102.496 Y90.371 E383.96580
G1 X90.371 Y102.496 E388.25249
G1 X90.371 Y99.025 E389.12024
G1 X99.025 Y90.371 E392.17975
G1 X95.554 Y90.371 E393.04750
G1 X90.371 Y95.554 E394.87982
G1 X90.371 Y92.083 E395.74757
G1 X92.083 Y90.371 E396.35271
G1 Z3.600 F7800.000
G1 X90.371 Y107.917 F7800.000
G1 X92.083 Y109.629 E396.95784 F2238.819
G1 X95.554 Y109.629 E397.82559
G1 X90.371 Y104.446 E399.65792
G1 X90.371 Y100.975 E400.52567
G1 X99.025 Y109.629 E403.58517
G1 X102.496 Y109.629 E404.45292
G1 X90.371 Y97.504 E408.73961
G1 X90.371 Y94.033 E409.60736
G1 X105.967 Y109.629 E415.12124
G1 X109.438 Y109.629 E415.98899
G1 X90.371 Y90.562 E422.73005
G1 X93.651 Y90.371 E423.55147
G1 X109.629 Y106.349 E429.20030
G1 X109.629 Y102.878 E430.06805
G1 X97.122 Y90.371 E434.48969
G1 X100.593 Y90.371 E435.35744
G1 X109.629 Y99.407 E438.55190
G1 X109.629 Y95.936 E439.41965
G1 X104.064 Y90.371 E441.38693
G1 X107.535 Y90.371 E442.25468
G1 X109.629 Y92.465 E442.99477
G1 Z4.000 F7800.000
G1 X107.535 Y109.629 F7800.000
G1 X109.629 Y107.535 E443.73486 F2238.819
G1 X109.629 Y104.064 E444.60261
G1 X104.064 Y109.629 E446.56988
G1 X100.593 Y109.629 E447.43763
G1 X109.629 Y100.593 E450.63209
G1 X109.629 Y97.122 E451.49984
G1 X97.122 Y109.629 E455.92148
G1 X93.651 Y109.629 E456.78923
G1 X109.629 Y93.651 E462.43806
G1 X109.438 Y90.371 E463.25948
G1 X90.371 Y109.438 E470.00054
G1 X90.371 Y105.967 E470.86830
G1 X105.967 Y90.371 E476.38217
G1 X102.496 Y90.371 E477.24992
G1 X90.371 Y102.496 E481.53661
G1 X90.371 Y99.025 E482.40436
G1 X99.025 Y90.371 E485.46387
G1 X95.554 Y90.371 E486.33162
G1 X90.371 Y95.554 E488.16394
G1 X90.371 Y92.083 E489.03169
G1 X92.083 Y90.371 E489.63683
G1 Z4.400 F7800.000
G1 X90.371 Y107.917 F7800.000
G1 X92.083 Y109.629 E490.24196 F2238.819
G1 X95.554 Y109.629 E491.10971
G1 X90.371 Y104.446 E492.94203
G1 X90.371 Y100.975 E493.80978
G1 X99.025 Y109.629 E496.86929
G1 X102.496 Y109.629 E497.73704
G1 X90.371 Y97.504 E502.02373
G1 X90.371 Y94.033 E502.89148
G1 X105.967 Y109.629 E508.40535
G1 X109.438 Y109.629 E509.27310
G1 X90.371 Y90.562 E516.01416
G1 X93.651 Y90.371 E516.83559
G1 X109.629 Y106.349 E522.48442
G1 X109.629 Y102.878 E523.35217
G1 X97.122 Y90.371 E527.77381
G1 X100.593 Y90.371 E528.64156
G1 X109.629 Y99.407 E531.83602
G1 X109.629 Y95.936 E532.70377
G1 X104.064 Y90.371 E534.67104
G1 X107.535 Y90.371 E535.53880
G1 X109.629 Y92.465 E536.27888
G1 Z4.800 F7800.000
G1 X107.535 Y109.629 F7800.000
G1 X109.629 Y107.535 E537.01897 F2238.819
G1 X109.629 Y104.064 E537.88672
G1 X104.064 Y109.629 E539.85400
G1 X100.593 Y109.629 E540.72175
G1 X109.629 Y100.593 E543.91621
G1 X109.629 Y97.122 E544.78396
G1 X97.122 Y109.629 E549.20560
G1 X93.651 Y109.629 E550.07335
G1 X109.629 Y93.651 E555.72218
G1 X109.438 Y90.371 E556.54360
G1 X90.371 Y109.438 E563.28466
G1 X90.371 Y105.967 E564.15241
G1 X105.967 Y90.371 E569.66629
G1 X102.496 Y90.371 E570.53404
G1 X90.371 Y102.496 E574.82073
G1 X90.371 Y99.025 E575.68848
G1 X99.025 Y90.371 E578.74799
G1 X95.554 Y90.371 E579.61574
G1 X90.371 Y95.554 E581.44806
G1 X90.371 Y92.083 E582.31581
G1 X92.083 Y90.371 E582.92094
G1 Z5.200 F7800.000
G1 X90.371 Y107.917 F7800.000
G1 X92.083 Y109.629 E583.52608 F2238.819
G1 X95.554 Y109.629 E584.39383
G1 X90.371 Y104.446 E586.22615
G1 X90.371 Y100.975 E587.09390
G1 X99.025 Y109.629 E590.15341
G1 X102.496 Y109.629 E591.02116
G1 X90.371 Y97.504 E595.30785
G1 X90.371 Y94.033 E596.17560
G1 X105.967 Y109.629 E601.68947
G1 X109.438 Y109.629 E602.55722
G1 X90.371 Y90.562 E609.29828
G1 X93.651 Y90.371 E610.11971
G1 X109.629 Y106.349 E615.76853
G1 X109.629 Y102.878 E616.63628
G1 X97.122 Y90.371 E621.05793
G1 X100.593 Y90.371 E621.92568
G1 X109.629 Y99.407 E625.12014
G1 X109.629 Y95.936 E625.98789
G1 X104.064 Y90.371 E627.95516
G1 X107.535 Y90.371 E628.82291
G1 X109.629 Y92.465 E629.56300
G1 Z5.600 F7800.000
G1 X107.535 Y109.629 F7800.000
G1 X109.629 Y107.535 E630.30309 F2238.819
G1 X109.629 Y104.064 E631.17084
G1 X104.064 Y109.629 E633.13812
G1 X100.593 Y109.629 E634.00587
G1 X109.629 Y100.593 E637.20033
G1 X109.629 Y97.122 E638.06808
G1 X97.122 Y109.629 E642.48972
G1 X93.651 Y109.629 E643.35747
G1 X109.629 Y93.651 E649.00630
G1 X109.438 Y90.371 E649.82772
G1 X90.371 Y109.438 E656.56878
G1 X90.371 Y105.967 E657.43653
G1 X105.967 Y90.371 E662.95041
G1 X102.496 Y90.371 E663.81816
G1 X90.371 Y102.496 E668.10485
G1 X90.371 Y99.025 E668.97260
G1 X99.025 Y90.371 E672.03210
G1 X95.554 Y90.371 E672.89985
G1 X90.371 Y95.554 E674.73218
G1 X90.371 Y92.083 E675.59993
G1 X92.083 Y90.371 E676.20506
G1 Z6.000 F7800.000
G1 X90.371 Y107.917 F7800.000
G1 X92.083 Y109.629 E676.81020 F2238.819
G1 X95.554 Y109.629 E677.67795
G1 X90.371 Y104.446 E679.51027
G1 X90.371 Y100.975 E680.37802
G1 X99.025 Y109.629 E683.43753
G1 X102.496 Y109.629 E684.30528
G1 X90.371 Y97.504 E688.59197
G1 X90.371 Y94.033 E689.45972
G1 X105.967 Y109.629 E694.97359
G1 X109.438 Y109.629 E695.84134
G1 X90.371 Y90.562 E702.58240
G1 X93.651 Y90.371 E703.40382
G1 X109.629 Y106.349 E709.05265
G1 X109.629 Y102.878 E709.92040
G1 X97.122 Y90.371 E714.34205
G1 X100.593 Y90.371 E715.20980
G1 X109.629 Y99.407 E718.40426
G1 X109.629 Y95.936 E719.27201
G1 X104.064 Y90.371 E721.23928
G1 X107.535 Y90.371 E722.10703
G1 X109.629 Y92.465 E722.84712
G1 Z6.400 F7800.000
G1 X107.535 Y109.629 F7800.000
G1 X109.629 Y107.535 E723.58721 F2238.819
G1 X109.629 Y104.064 E724.45496
G1 X104.064 Y109.629 E726.42223
G1 X100.593 Y109.629 E727.28999
G1 X109.629 Y100.593 E730.48444
G1 X109.629 Y97.122 E731.35219
G1 X97.122 Y109.629 E735.77384
G1 X93.651 Y109.629 E736.64159
G1 X109.629 Y93.651 E742.29041
G1 X109.438 Y90.371 E743.11184
G1 X90.371 Y109.438 E749.85290
G1 X90.371 Y105.967 E750.72065
G1 X105.967 Y90.371 E756.23452
G1 X102.496 Y90.371 E757.10228
G1 X90.371 Y102.496 E761.38897
G1 X90.371 Y99.025 E762.25672
G1 X99.025 Y90.371 E765.31622
G1 X95.554 Y90.371 E766.18397
G1 X90.371 Y95.554 E768.01629
G1 X90.371 Y92.083 E768.88404
G1 X92.083 Y90.371 E769.48918
G1 Z6.800 F7800.000
G1 X90.371 Y107.917 F7800.000
G1 X92.083 Y109.629 E770.09432 F2238.819
G1 X95.554 Y109.629 E770.96207
G1 X90.371 Y104.446 E772.79439
G1 X90.371 Y100.975 E773.66214
G1 X99.025 Y109.629 E776.72164
G1 X102.496 Y109.629 E777.58939
G1 X90.371 Y97.504 E781.87608
G1 X90.371 Y94.033 E782.74383
G1 X105.967 Y109.629 E788.25771
G1 X109.438 Y109.629 E789.12546
G1 X90.371 Y90.562 E795.86652
G1 X93.651 Y90.371 E796.68794
G1 X109.629 Y106.349 E802.33677
G1 X109.629 Y102.878 E803.20452
G1 X97.122 Y90.371 E807.62616
G1 X100.593 Y90.371 E808.49391
G1 X109.629 Y99.407 E811.68837
G1 X109.629 Y95.936 E812.55612
G1 X104.064 Y90.371 E814.52340
G1 X107.535 Y90.371 E815.39115
G1 X109.629 Y92.465 E816.13124
G1 Z7.200 F7800.000
G1 X107.535 Y109.629 F7800.000
G1 X109.629 Y107.535 E816.87133 F2238.819
G1 X109.629 Y104.064 E817.73908
G1 X104.064 Y109.629 E819.70635
G1 X100.593 Y109.629 E820.57410
G1 X109.629 Y100.593 E823.76856
G1 X109.629 Y97.122 E824.63631
G1 X97.122 Y109.629 E829.05796
G1 X93.651 Y109.629 E829.92571
G1 X109.629 Y93.651 E835.57453
G1 X109.438 Y90.371 E836.39596
G1 X90.371 Y109.438 E843.13702
G1 X90.371 Y105.967 E844.00477
G1 X105.967 Y90.371 E849.51864
G1 X102.496 Y90.371 E850.38639
G1 X90.371 Y102.496 E854.67308
G1 X90.371 Y99.025 E855.54083
G1 X99.025 Y90.371 E858.60034
G1 X95.554 Y90.371 E859.46809
G1 X90.371 Y95.554 E861.30041
G1 X90.371 Y92.083 E862.16816
G1 X92.083 Y90.371 E862.77330
G1 Z7.600 F7800.000
G1 X90.371 Y107.917 F7800.000
G1 X92.083 Y109.629 E863.37844 F2238.819
G1 X95.554 Y109.629 E864.24619
G1 X90.371 Y104.446 E866.07851
G1 X90.371 Y100.975 E866.94626
G1 X99.025 Y109.629 E870.00576
G1 X102.496 Y109.629 E870.87351
G1 X90.371 Y97.504 E875.16020
G1 X90.371 Y94.033 E876.02795
G1 X105.967 Y109.629 E881.54183
G1 X109.438 Y109.629 E882.40958
G1 X90.371 Y90.562 E889.15064
G1 X93.651 Y90.371 E889.97206
G1 X109.629 Y106.349 E895.62089
G1 X109.629 Y102.878 E896.48864
G1 X97.122 Y90.371 E900.91028
G1 X100.593 Y90.371 E901.77803
G1 X109.629 Y99.407 E904.97249
G1 X109.629 Y95.936 E905.84024
G1 X104.064 Y90.371 E907.80752
G1 X107.535 Y90.371 E908.67527
G1 X109.629 Y92.465 E909.41536
G1 Z8.000 F7800.000
G1 X107.535 Y109.629 F7800.000
G1 X109.629 Y107.535 E910.15545 F2238.819
G1 X109.629 Y104.064 E911.02320
G1 X104.064 Y109.629 E912.99047
G1 X100.593 Y109.629 E913.85822
G1 X109.629 Y100.593 E917.05268
G1 X109.629 Y97.122 E917.92043
G1 X97.122 Y109.629 E922.34207
G1 X93.651 Y109.629 E923.20982
G1 X109.629 Y93.651 E928.85865
G1 X109.438 Y90.371 E929.68008
G1 X90.371 Y109.438 E936.42114
G1 X90.371 Y105.967 E937.28889
G1 X105.967 Y90.371 E942.80276
G1 X102.496 Y90.371 E943.67051
G1 X90.371 Y102.496 E947.95720
G1 X90.371 Y99.025 E948.82495
G1 X99.025 Y90.371 E951.88446
G1 X95.554 Y90.371 E952.75221
G1 X90.371 Y95.554 E954.58453
G1 X90.371 Y92.083 E955.45228
G1 X92.083 Y90.371 E956.05742
G1 Z8.400 F7800.000
G1 X90.371 Y107.917 F7800.000
G1 X92.083 Y109.629 E956.66255 F2238.819
G1 X95.554 Y109.629 E957.53030
G1 X90.371 Y104.446 E959.36262
G1 X90.371 Y100.975 E960.23037
G1 X99.025 Y109.629 E963.28988
G1 X102.496 Y109.629 E964.15763
G1 X90.371 Y97.504 E968.44432
G1 X90.371 Y94.033 E969.31207
G1 X105.967 Y109.629 E974.82594
G1 X109.438 Y109.629 E975.69370
G1 X90.371 Y90.562 E982.43476
G1 X93.651 Y90.371 E983.25618
G1 X109.629 Y106.349 E988.90501
G1 X109.629 Y102.878 E989.77276
G1 X97.122 Y90.371 E994.19440
G1 X100.593 Y90.371 E995.06215
G1 X109.629 Y99.407 E998.25661
G1 X109.629 Y95.936 E999.12436
G1 X104.064 Y90.371 E1001.09164
G1 X107.535 Y90.371 E1001.95939
G1 X109.629 Y92.465 E1002.69948
G1 Z8.800 F7800.000
G1 X107.535 Y109.629 F7800.000
G1 X109.629 Y107.535 E1003.43957 F2238.819
G1 X109.629 Y104.064 E1004.30732
G1 X104.064 Y109.629 E1006.27459
G1 X100.593 Y109.629 E1007.14234
G1 X109.629 Y100.593 E1010.33680
G1 X109.629 Y97.122 E1011.20455
G1 X97.122 Y109.629 E1015.62619
G1 X93.651 Y109.629 E1016.49394
G1 X109.629 Y93.651 E1022.14277
G1 X109.438 Y90.371 E1022.96419
G1 X90.371 Y109.438 E1029.70525
G1 X90.371 Y105.967 E1030.57300
G1 X105.967 Y90.371 E1036.08688
G1 X102.496 Y90.371 E1036.95463
G1 X90.371 Y102.496 E1041.24132
G1 X90.371 Y99.025 E1042.10907
G1 X99.025 Y90.371 E1045.16858
G1 X95.554 Y90.371 E1046.03633
G1 X90.371 Y95.554 E1047.86865
G1 X90.371 Y92.083 E1048.73640
G1 X92.083 Y90.371 E1049.34154
G1 Z9.200 F7800.000
G1 X90.371 Y107.917 F7800.000
G1 X92.083 Y109.629 E1049.94667 F2238.819
G1 X95.554 Y109.629 E1050.81442
G1 X90.371 Y104.446 E1052.64674
G1 X90.371 Y100.975 E1053.51449
G1 X99.025 Y109.629 E1056.57400
G1 X102.496 Y109.629 E1057.44175
G1 X90.371 Y97.504 E1061.72844
G1 X90.371 Y94.033 E1062.59619
G1 X105.967 Y109.629 E1068.11006
G1 X109.438 Y109.629 E1068.97781
G1 X90.371 Y90.562 E1075.71887
G1 X93.651 Y90.371 E1076.54030
G1 X109.629 Y106.349 E1082.18913
G1 X109.629 Y102.878 E1083.05688
G1 X97.122 Y90.371 E1087.47852
G1 X100.593 Y90.371 E1088.34627
G1 X109.629 Y99.407 E1091.54073
G1 X109.629 Y95.936 E1092.40848
G1 X104.064 Y90.371 E1094.37575
G1 X107.535 Y90.371 E1095.24350
G1 X109.629 Y92.465 E1095.98359
G1 Z9.600 F7800.000
G1 X107.535 Y109.629 F7800.000
G1 X109.629 Y107.535 E1096.72368 F2238.819
G1 X109.629 Y104.064 E1097.59143
G1 X104.064 Y109.629 E1099.55871
G1 X100.593 Y109.629 E1100.42646
G1 X109.629 Y100.593 E1103.62092
G1 X109.629 Y97.122 E1104.48867
G1 X97.122 Y109.629 E1108.91031
G1 X93.651 Y109.629 E1109.77806
G1 X109.629 Y93.651 E1115.42689
G1 X109.438 Y90.371 E1116.24831
G1 X90.371 Y109.438 E1122.98937
G1 X90.371 Y105.967 E1123.85712
G1 X105.967 Y90.371 E1129.37100
G1 X102.496 Y90.371 E1130.23875
G1 X90.371 Y102.496 E1134.52544
G1 X90.371 Y99.025 E1135.39319
G1 X99.025 Y90.371 E1138.45269
G1 X95.554 Y90.371 E1139.32044
G1 X90.371 Y95.554 E1141.15277
G1 X90.371 Y92.083 E1142.02052
G1 X92.083 Y90.371 E1142.62565
G1 Z10.000 F7800.000
G1 X90.371 Y107.917 F7800.000
G1 X92.083 Y109.629 E1143.23079 F2238.819
G1 X95.554 Y109.629 E1144.09854
G1 X90.371 Y104.446 E1145.93086
G1 X90.371 Y100.975 E1146.79861
G1 X99.025 Y109.629 E1149.85812
G1 X102.496 Y109.629 E1150.72587
G1 X90.371 Y97.504 E1155.01256
G1 X90.371 Y94.033 E1155.88031
G1 X105.967 Y109.629 E1161.39418
G1 X109.438 Y109.629 E1162.26193
G1 X90.371 Y90.562 E1169.00299
G1 X93.651 Y90.371 E1169.82442
G1 X109.629 Y106.349 E1175.47324
G1 X109.629 Y102.878 E1176.34099
G1 X97.122 Y90.371 E1180.76264
G1 X100.593 Y90.371 E1181.63039
G1 X109.629 Y99.407 E1184.82485
G1 X109.629 Y95.936 E1185.69260
G1 X104.064 Y90.371 E1187.65987
G1 X107.535 Y90.371 E1188.52762
G1 X109.629 Y92.465 E1189.26771
G1 Z10.400 F7800.000
G1 E1187.26771 F2400.00000
G92 E0
G1 X107.535 Y109.629 F7800.000
G1 E2.00000 F2400.00000
G1 X109.629 Y107.535 E2.74009 F2238.819
G1 X109.629 Y104.064 E3.60784
G1 X104.064 Y109.629 E5.57511
G1 X100.593 Y109.629 E6.44286
G1 X109.629 Y100.593 E9.63732
G1 X109.629 Y97.122 E10.50507
G1 X97.122 Y109.629 E14.92672
G1 X93.651 Y109.629 E15.79447
G1 X109.629 Y93.651 E21.44329
G1 X109.438 Y90.371 E22.26472
G1 X90.371 Y109.438 E29.00578
G1 X90.371 Y105.967 E29.87353
G1 X105.967 Y90.371 E35.38740
G1 X102.496 Y90.371 E36.25515
G1 X90.371 Y102.496 E40.54184
G1 X90.371 Y99.025 E41.40959
G1 X99.025 Y90.371 E44.46910
G1 X95.554 Y90.371 E45.33685
G1 X90.371 Y95.554 E47.16917
G1 X90.371 Y92.083 E48.03692
G1 X92.083 Y90.371 E48.64206
G1 E46.64206 F2400.00000
G92 E0
M107
M104 S0 ; turn off temperature
G28 X0  ; home X axis
M84     ; disable motors

; filament used = 1233.9mm (1.0cm3)

; avoid_crossing_perimeters = 0
; bed_shape = 0x0,200x0,200x200,0x200
; bed_temperature = 0
; before_layer_gcode = 
; bridge_acceleration = 0
; bridge_fan_speed = 100
; brim_width = 0
; complete_objects = 0
; cooling = 1
; default_acceleration = 0
; disable_fan_first_layers = 3
; duplicate_distance = 6
; end_gcode = M104 S0 ; turn off temperature\nG28 X0  ; home X axis\nM84     ; disable motors\n
; extruder_clearance_height = 20
; extruder_clearance_radius = 20
; extruder_offset = 0x0
; extrusion_axis = E
; extrusion_multiplier = 1
; fan_always_on = 0
; fan_below_layer_time = 60
; filament_colour = #FFFFFF
; filament_diameter = 1
; first_layer_acceleration = 0
; first_layer_bed_temperature = 0
; first_layer_extrusion_width = 200%
; first_layer_speed = 30
; first_layer_temperature = 200
; gcode_arcs = 0
; gcode_comments = 0
; gcode_flavor = reprap
; infill_acceleration = 0
; infill_first = 0
; layer_gcode = 
; max_fan_speed = 100
; max_print_speed = 80
; max_volumetric_speed = 0
; min_fan_speed = 35
; min_print_speed = 10
; min_skirt_length = 0
; notes = 
; nozzle_diameter = 0.5
; only_retract_when_crossing_perimeters = 1
; ooze_prevention = 0
; output_filename_format = [input_filename_base].gcode
; perimeter_acceleration = 0
; post_process = 
; pressure_advance = 0
; resolution = 0
; retract_before_travel = 2
; retract_layer_change = 0
; retract_length = 2
; retract_length_toolchange = 10
; retract_lift = 0
; retract_restart_extra = 0
; retract_restart_extra_toolchange = 0
; retract_speed = 40
; skirt_distance = 6
; skirt_height = 1
; skirts = 0
; slowdown_below_layer_time = 5
; spiral_vase = 0
; standby_temperature_delta = -5
; start_gcode = G28 ; home all axes\nG1 Z5 F5000 ; lift nozzle\n
; temperature = 200
; threads = 2
; toolchange_gcode = 
; travel_speed = 130
; use_firmware_retraction = 0
; use_relative_e_distances = 0
; use_volumetric_e = 0
; vibration_limit = 0
; wipe = 0
; z_offset = 0
; dont_support_bridges = 1
; extrusion_width = 0
; first_layer_height = 0.4
; infill_only_where_needed = 0
; interface_shells = 0
; layer_height = 0.4
; raft_layers = 0
; seam_position = aligned
; support_material = 0
; support_material_angle = 0
; support_material_contact_distance = 0.2
; support_material_enforce_layers = 0
; support_material_extruder = 1
; support_material_extrusion_width = 0
; support_material_interface_extruder = 1
; support_material_interface_layers = 3
; support_material_interface_spacing = 0
; support_material_interface_speed = 100%
; support_material_pattern = pillars
; support_material_spacing = 2.5
; support_material_speed = 60
; support_material_threshold = 0
; xy_size_compensation = 0
; bottom_solid_layers = 0
; bridge_flow_ratio = 1
; bridge_speed = 60
; external_fill_pattern = rectilinear
; external_perimeter_extrusion_width = 0
; external_perimeter_speed = 50%
; external_perimeters_first = 0
; extra_perimeters = 1
; fill_angle = 45
; fill_density = 20%
; fill_pattern = rectilinear
; gap_fill_speed = 20
; infill_every_layers = 1
; infill_extruder = 1
; infill_extrusion_width = 0
; infill_overlap = 15%
; infill_speed = 80
; overhangs = 1
; perimeter_extruder = 1
; perimeter_extrusion_width = 0
; perimeter_speed = 60
; perimeters = 0
; small_perimeter_speed = 15
; solid_infill_below_area = 70
; solid_infill_every_layers = 0
; solid_infill_extruder = 1
; solid_infill_extrusion_width = 0
; solid_infill_speed = 20
; thin_walls = 1
; top_infill_extrusion_width = 0
; top_solid_infill_speed = 15
; top_solid_layers = 0
