; generated by Slic3r 1.3.0 on 2021-02-16 at 15:04:01

; external perimeters extrusion width = 0.55mm (5.57mm^3/s)
; perimeters extrusion width = 0.58mm (11.78mm^3/s)
; infill extrusion width = 0.58mm (15.71mm^3/s)
; solid infill extrusion width = 0.58mm (3.93mm^3/s)
; top infill extrusion width = 0.58mm (2.95mm^3/s)

M107
M104 S205 ; set temperature
G28 ; home all axes
G1 Z5 F5000 ; lift nozzle

; Filament gcode

M109 S205 ; set temperature and wait for it to be reached
G21 ; set units to millimeters
G90 ; use absolute coordinates
M82 ; use absolute distances for extrusion
G92 E0
G1 Z0.400 F7800.000
G1 E-2.00000 F2400.00000
G92 E0
G1 X91.363 Y90.261 F7800.000
G1 E2.00000 F2400.00000
G1 F1800
G1 X90.261 Y91.363 E2.06298
G1 X90.261 Y93.405 E2.14549
G1 X93.405 Y90.261 E2.32516
G1 X95.447 Y90.261 E2.40768
G1 X90.261 Y95.447 E2.70404
G1 X90.261 Y97.488 E2.78656
G1 X97.488 Y90.261 E3.19961
G1 X99.530 Y90.261 E3.28213
G1 X90.261 Y99.530 E3.81187
G1 X90.261 Y101.572 E3.89439
G1 X101.572 Y90.261 E4.54083
G1 X103.614 Y90.261 E4.62334
G1 X90.261 Y103.614 E5.38648
G1 X90.261 Y105.655 E5.46899
G1 X105.655 Y90.261 E6.34882
G1 X107.697 Y90.261 E6.43133
G1 X90.261 Y107.697 E7.42785
G1 X90.261 Y109.739 E7.51036
G1 X109.739 Y90.261 E8.62357
G1 X109.739 Y92.303 E8.70609
G1 X92.303 Y109.739 E9.70261
G1 X94.345 Y109.739 E9.78512
G1 X109.739 Y94.345 E10.66495
G1 X109.739 Y96.386 E10.74746
G1 X96.386 Y109.739 E11.51059
G1 X98.428 Y109.739 E11.59311
G1 X109.739 Y98.428 E12.23955
G1 X109.739 Y100.470 E12.32206
G1 X100.470 Y109.739 E12.85181
G1 X102.512 Y109.739 E12.93433
G1 X109.739 Y102.512 E13.34738
G1 X109.739 Y104.553 E13.42990
G1 X104.553 Y109.739 E13.72626
G1 X106.595 Y109.739 E13.80877
G1 X109.739 Y106.595 E13.98845
G1 X109.739 Y108.637 E14.07096
G1 X108.637 Y109.739 E14.13394
M104 S200 ; set temperature
G1 Z0.800 F7800.000
G1 X90.305 Y108.680 F7800.000
G1 F3574.97
G1 X91.320 Y109.695 E14.17381
G1 X93.361 Y109.695 E14.23053
G1 X90.305 Y106.639 E14.35062
G1 X90.305 Y104.597 E14.40733
G1 X95.403 Y109.695 E14.60762
G1 X97.445 Y109.695 E14.66434
G1 X90.305 Y102.555 E14.94484
G1 X90.305 Y100.513 E15.00156
G1 X99.487 Y109.695 E15.36226
G1 X101.528 Y109.695 E15.41898
G1 X90.305 Y98.472 E15.85990
G1 X90.305 Y96.430 E15.91661
G1 X103.570 Y109.695 E16.43774
G1 X105.612 Y109.695 E16.49445
G1 X90.305 Y94.388 E17.09579
G1 X90.305 Y92.346 E17.15250
G1 X107.654 Y109.695 E17.83404
G1 X109.695 Y109.695 E17.89076
G1 X90.305 Y90.305 E18.65251
G1 X92.346 Y90.305 E18.70922
G1 X109.695 Y107.654 E19.39076
G1 X109.695 Y105.612 E19.44748
G1 X94.388 Y90.305 E20.04881
G1 X96.430 Y90.305 E20.10553
G1 X109.695 Y103.570 E20.62665
G1 X109.695 Y101.528 E20.68337
G1 X98.472 Y90.305 E21.12428
G1 X100.513 Y90.305 E21.18100
G1 X109.695 Y99.487 E21.54171
G1 X109.695 Y97.445 E21.59842
G1 X102.555 Y90.305 E21.87892
G1 X104.597 Y90.305 E21.93564
G1 X109.695 Y95.403 E22.13593
G1 X109.695 Y93.361 E22.19265
G1 X106.639 Y90.305 E22.31273
G1 X108.680 Y90.305 E22.36945
G1 X109.695 Y91.320 E22.40933
G1 Z1.200 F7800.000
G1 X108.680 Y109.695 F7800.000
G1 F3574.97
G1 X109.695 Y108.680 E22.44920
G1 X109.695 Y106.639 E22.50592
G1 X106.639 Y109.695 E22.62600
G1 X104.597 Y109.695 E22.68272
G1 X109.695 Y104.597 E22.88301
G1 X109.695 Y102.555 E22.93973
G1 X102.555 Y109.695 E23.22023
G1 X100.513 Y109.695 E23.27694
G1 X109.695 Y100.513 E23.63765
G1 X109.695 Y98.472 E23.69437
G1 X98.472 Y109.695 E24.13528
G1 X96.430 Y109.695 E24.19200
G1 X109.695 Y96.430 E24.71312
G1 X109.695 Y94.388 E24.76984
G1 X94.388 Y109.695 E25.37117
G1 X92.346 Y109.695 E25.42789
G1 X109.695 Y92.346 E26.10943
G1 X109.695 Y90.305 E26.16614
G1 X90.305 Y109.695 E26.92789
G1 X90.305 Y107.654 E26.98461
G1 X107.654 Y90.305 E27.66615
G1 X105.612 Y90.305 E27.72287
G1 X90.305 Y105.612 E28.32420
G1 X90.305 Y103.570 E28.38091
G1 X103.570 Y90.305 E28.90204
G1 X101.528 Y90.305 E28.95875
G1 X90.305 Y101.528 E29.39967
G1 X90.305 Y99.487 E29.45639
G1 X99.487 Y90.305 E29.81709
G1 X97.445 Y90.305 E29.87381
G1 X90.305 Y97.445 E30.15431
G1 X90.305 Y95.403 E30.21103
G1 X95.403 Y90.305 E30.41132
G1 X93.361 Y90.305 E30.46804
G1 X90.305 Y93.361 E30.58812
G1 X90.305 Y91.320 E30.64484
G1 X91.320 Y90.305 E30.68471
M106 S255
G1 Z1.600 F7800.000
G1 X90.305 Y108.680 F7800.000
G1 F3574.97
G1 X91.320 Y109.695 E30.72459
G1 X93.361 Y109.695 E30.78130
G1 X90.305 Y106.639 E30.90139
G1 X90.305 Y104.597 E30.95810
G1 X95.403 Y109.695 E31.15840
G1 X97.445 Y109.695 E31.21511
G1 X90.305 Y102.555 E31.49561
G1 X90.305 Y100.513 E31.55233
G1 X99.487 Y109.695 E31.91304
G1 X101.528 Y109.695 E31.96975
G1 X90.305 Y98.472 E32.41067
G1 X90.305 Y96.430 E32.46739
G1 X103.570 Y109.695 E32.98851
G1 X105.612 Y109.695 E33.04523
G1 X90.305 Y94.388 E33.64656
G1 X90.305 Y92.346 E33.70327
G1 X107.654 Y109.695 E34.38482
G1 X109.695 Y109.695 E34.44153
G1 X90.305 Y90.305 E35.20328
G1 X92.346 Y90.305 E35.26000
G1 X109.695 Y107.654 E35.94154
G1 X109.695 Y105.612 E35.99825
G1 X94.388 Y90.305 E36.59958
G1 X96.430 Y90.305 E36.65630
G1 X109.695 Y103.570 E37.17743
G1 X109.695 Y101.528 E37.23414
G1 X98.472 Y90.305 E37.67506
G1 X100.513 Y90.305 E37.73177
G1 X109.695 Y99.487 E38.09248
G1 X109.695 Y97.445 E38.14920
G1 X102.555 Y90.305 E38.42970
G1 X104.597 Y90.305 E38.48641
G1 X109.695 Y95.403 E38.68671
G1 X109.695 Y93.361 E38.74342
G1 X106.639 Y90.305 E38.86351
G1 X108.680 Y90.305 E38.92022
G1 X109.695 Y91.320 E38.96010
G1 Z2.000 F7800.000
G1 X108.680 Y109.695 F7800.000
G1 F3574.97
G1 X109.695 Y108.680 E38.99998
G1 X109.695 Y106.639 E39.05669
G1 X106.639 Y109.695 E39.17678
G1 X104.597 Y109.695 E39.23349
G1 X109.695 Y104.597 E39.43379
G1 X109.695 Y102.555 E39.49050
G1 X102.555 Y109.695 E39.77100
G1 X100.513 Y109.695 E39.82772
G1 X109.695 Y100.513 E40.18843
G1 X109.695 Y98.472 E40.24514
G1 X98.472 Y109.695 E40.68606
G1 X96.430 Y109.695 E40.74277
G1 X109.695 Y96.430 E41.26390
G1 X109.695 Y94.388 E41.32061
G1 X94.388 Y109.695 E41.92195
G1 X92.346 Y109.695 E41.97866
G1 X109.695 Y92.346 E42.66020
G1 X109.695 Y90.305 E42.71692
G1 X90.305 Y109.695 E43.47867
G1 X90.305 Y107.654 E43.53538
G1 X107.654 Y90.305 E44.21692
G1 X105.612 Y90.305 E44.27364
G1 X90.305 Y105.612 E44.87497
G1 X90.305 Y103.570 E44.93169
G1 X103.570 Y90.305 E45.45281
G1 X101.528 Y90.305 E45.50953
G1 X90.305 Y101.528 E45.95044
G1 X90.305 Y99.487 E46.00716
G1 X99.487 Y90.305 E46.36787
G1 X97.445 Y90.305 E46.42458
G1 X90.305 Y97.445 E46.70509
G1 X90.305 Y95.403 E46.76180
G1 X95.403 Y90.305 E46.96209
G1 X93.361 Y90.305 E47.01881
G1 X90.305 Y93.361 E47.13889
G1 X90.305 Y91.320 E47.19561
G1 X91.320 Y90.305 E47.23549
G1 Z2.400 F7800.000
G1 X90.305 Y108.680 F7800.000
G1 F3574.97
G1 X91.320 Y109.695 E47.27536
G1 X93.361 Y109.695 E47.33208
G1 X90.305 Y106.639 E47.45216
G1 X90.305 Y104.597 E47.50888
G1 X95.403 Y109.695 E47.70917
G1 X97.445 Y109.695 E47.76589
G1 X90.305 Y102.555 E48.04639
G1 X90.305 Y100.513 E48.10310
G1 X99.487 Y109.695 E48.46381
G1 X101.528 Y109.695 E48.52053
G1 X90.305 Y98.472 E48.96144
G1 X90.305 Y96.430 E49.01816
G1 X103.570 Y109.695 E49.53929
G1 X105.612 Y109.695 E49.59600
G1 X90.305 Y94.388 E50.19733
G1 X90.305 Y92.346 E50.25405
G1 X107.654 Y109.695 E50.93559
G1 X109.695 Y109.695 E50.99231
G1 X90.305 Y90.305 E51.75405
G1 X92.346 Y90.305 E51.81077
G1 X109.695 Y107.654 E52.49231
G1 X109.695 Y105.612 E52.54903
G1 X94.388 Y90.305 E53.15036
G1 X96.430 Y90.305 E53.20707
G1 X109.695 Y103.570 E53.72820
G1 X109.695 Y101.528 E53.78491
G1 X98.472 Y90.305 E54.22583
G1 X100.513 Y90.305 E54.28255
G1 X109.695 Y99.487 E54.64326
G1 X109.695 Y97.445 E54.69997
G1 X102.555 Y90.305 E54.98047
G1 X104.597 Y90.305 E55.03719
G1 X109.695 Y95.403 E55.23748
G1 X109.695 Y93.361 E55.29420
G1 X106.639 Y90.305 E55.41428
G1 X108.680 Y90.305 E55.47100
G1 X109.695 Y91.320 E55.51087
G1 Z2.800 F7800.000
G1 X108.680 Y109.695 F7800.000
G1 F3574.97
G1 X109.695 Y108.680 E55.55075
G1 X109.695 Y106.639 E55.60747
G1 X106.639 Y109.695 E55.72755
G1 X104.597 Y109.695 E55.78427
G1 X109.695 Y104.597 E55.98456
G1 X109.695 Y102.555 E56.04127
G1 X102.555 Y109.695 E56.32178
G1 X100.513 Y109.695 E56.37849
G1 X109.695 Y100.513 E56.73920
G1 X109.695 Y98.472 E56.79592
G1 X98.472 Y109.695 E57.23683
G1 X96.430 Y109.695 E57.29355
G1 X109.695 Y96.430 E57.81467
G1 X109.695 Y94.388 E57.87139
G1 X94.388 Y109.695 E58.47272
G1 X92.346 Y109.695 E58.52944
G1 X109.695 Y92.346 E59.21098
G1 X109.695 Y90.305 E59.26769
G1 X90.305 Y109.695 E60.02944
G1 X90.305 Y107.654 E60.08616
G1 X107.654 Y90.305 E60.76770
G1 X105.612 Y90.305 E60.82441
G1 X90.305 Y105.612 E61.42575
G1 X90.305 Y103.570 E61.48246
G1 X103.570 Y90.305 E62.00359
G1 X101.528 Y90.305 E62.06030
G1 X90.305 Y101.528 E62.50122
G1 X90.305 Y99.487 E62.55793
G1 X99.487 Y90.305 E62.91864
G1 X97.445 Y90.305 E62.97536
G1 X90.305 Y97.445 E63.25586
G1 X90.305 Y95.403 E63.31258
G1 X95.403 Y90.305 E63.51287
G1 X93.361 Y90.305 E63.56958
G1 X90.305 Y93.361 E63.68967
G1 X90.305 Y91.320 E63.74638
G1 X91.320 Y90.305 E63.78626
G1 Z3.200 F7800.000
G1 X90.305 Y108.680 F7800.000
G1 F3574.97
G1 X91.320 Y109.695 E63.82614
G1 X93.361 Y109.695 E63.88285
G1 X90.305 Y106.639 E64.00294
G1 X90.305 Y104.597 E64.05965
G1 X95.403 Y109.695 E64.25995
G1 X97.445 Y109.695 E64.31666
G1 X90.305 Y102.555 E64.59716
G1 X90.305 Y100.513 E64.65388
G1 X99.487 Y109.695 E65.01459
G1 X101.528 Y109.695 E65.07130
G1 X90.305 Y98.472 E65.51222
G1 X90.305 Y96.430 E65.56893
G1 X103.570 Y109.695 E66.09006
G1 X105.612 Y109.695 E66.14677
G1 X90.305 Y94.388 E66.74811
G1 X90.305 Y92.346 E66.80482
G1 X107.654 Y109.695 E67.48636
G1 X109.695 Y109.695 E67.54308
G1 X90.305 Y90.305 E68.30483
G1 X92.346 Y90.305 E68.36154
G1 X109.695 Y107.654 E69.04308
G1 X109.695 Y105.612 E69.09980
G1 X94.388 Y90.305 E69.70113
G1 X96.430 Y90.305 E69.75785
G1 X109.695 Y103.570 E70.27897
G1 X109.695 Y101.528 E70.33569
G1 X98.472 Y90.305 E70.77661
G1 X100.513 Y90.305 E70.83332
G1 X109.695 Y99.487 E71.19403
G1 X109.695 Y97.445 E71.25075
G1 X102.555 Y90.305 E71.53125
G1 X104.597 Y90.305 E71.58796
G1 X109.695 Y95.403 E71.78825
G1 X109.695 Y93.361 E71.84497
G1 X106.639 Y90.305 E71.96506
G1 X108.680 Y90.305 E72.02177
G1 X109.695 Y91.320 E72.06165
G1 Z3.600 F7800.000
G1 X108.680 Y109.695 F7800.000
G1 F3574.97
G1 X109.695 Y108.680 E72.10152
G1 X109.695 Y106.639 E72.15824
G1 X106.639 Y109.695 E72.27832
G1 X104.597 Y109.695 E72.33504
G1 X109.695 Y104.597 E72.53533
G1 X109.695 Y102.555 E72.59205
G1 X102.555 Y109.695 E72.87255
G1 X100.513 Y109.695 E72.92927
G1 X109.695 Y100.513 E73.28997
G1 X109.695 Y98.472 E73.34669
G1 X98.472 Y109.695 E73.78761
G1 X96.430 Y109.695 E73.84432
G1 X109.695 Y96.430 E74.36545
G1 X109.695 Y94.388 E74.42216
G1 X94.388 Y109.695 E75.02350
G1 X92.346 Y109.695 E75.08021
G1 X109.695 Y92.346 E75.76175
G1 X109.695 Y90.305 E75.81847
G1 X90.305 Y109.695 E76.58022
G1 X90.305 Y107.654 E76.63693
G1 X107.654 Y90.305 E77.31847
G1 X105.612 Y90.305 E77.37519
G1 X90.305 Y105.612 E77.97652
G1 X90.305 Y103.570 E78.03324
G1 X103.570 Y90.305 E78.55436
G1 X101.528 Y90.305 E78.61108
G1 X90.305 Y101.528 E79.05199
G1 X90.305 Y99.487 E79.10871
G1 X99.487 Y90.305 E79.46942
G1 X97.445 Y90.305 E79.52613
G1 X90.305 Y97.445 E79.80663
G1 X90.305 Y95.403 E79.86335
G1 X95.403 Y90.305 E80.06364
G1 X93.361 Y90.305 E80.12036
G1 X90.305 Y93.361 E80.24044
G1 X90.305 Y91.320 E80.29716
G1 X91.320 Y90.305 E80.33703
G1 Z4.000 F7800.000
G1 X90.305 Y108.680 F7800.000
G1 F3574.97
G1 X91.320 Y109.695 E80.37691
G1 X93.361 Y109.695 E80.43363
G1 X90.305 Y106.639 E80.55371
G1 X90.305 Y104.597 E80.61043
G1 X95.403 Y109.695 E80.81072
G1 X97.445 Y109.695 E80.86744
G1 X90.305 Y102.555 E81.14794
G1 X90.305 Y100.513 E81.20465
G1 X99.487 Y109.695 E81.56536
G1 X101.528 Y109.695 E81.62208
G1 X90.305 Y98.472 E82.06299
G1 X90.305 Y96.430 E82.11971
G1 X103.570 Y109.695 E82.64083
G1 X105.612 Y109.695 E82.69755
G1 X90.305 Y94.388 E83.29888
G1 X90.305 Y92.346 E83.35560
G1 X107.654 Y109.695 E84.03714
G1 X109.695 Y109.695 E84.09385
G1 X90.305 Y90.305 E84.85560
G1 X92.346 Y90.305 E84.91232
G1 X109.695 Y107.654 E85.59386
G1 X109.695 Y105.612 E85.65057
G1 X94.388 Y90.305 E86.25191
G1 X96.430 Y90.305 E86.30862
G1 X109.695 Y103.570 E86.82975
G1 X109.695 Y101.528 E86.88646
G1 X98.472 Y90.305 E87.32738
G1 X100.513 Y90.305 E87.38410
G1 X109.695 Y99.487 E87.74480
G1 X109.695 Y97.445 E87.80152
G1 X102.555 Y90.305 E88.08202
G1 X104.597 Y90.305 E88.13874
G1 X109.695 Y95.403 E88.33903
G1 X109.695 Y93.361 E88.39574
G1 X106.639 Y90.305 E88.51583
G1 X108.680 Y90.305 E88.57255
G1 X109.695 Y91.320 E88.61242
G1 Z4.400 F7800.000
G1 X108.680 Y109.695 F7800.000
G1 F3574.97
G1 X109.695 Y108.680 E88.65230
G1 X109.695 Y106.639 E88.70901
G1 X106.639 Y109.695 E88.82910
G1 X104.597 Y109.695 E88.88581
G1 X109.695 Y104.597 E89.08611
G1 X109.695 Y102.555 E89.14282
G1 X102.555 Y109.695 E89.42332
G1 X100.513 Y109.695 E89.48004
G1 X109.695 Y100.513 E89.84075
G1 X109.695 Y98.472 E89.89746
G1 X98.472 Y109.695 E90.33838
G1 X96.430 Y109.695 E90.39510
G1 X109.695 Y96.430 E90.91622
G1 X109.695 Y94.388 E90.97294
G1 X94.388 Y109.695 E91.57427
G1 X92.346 Y109.695 E91.63098
G1 X109.695 Y92.346 E92.31253
G1 X109.695 Y90.305 E92.36924
G1 X90.305 Y109.695 E93.13099
G1 X90.305 Y107.654 E93.18771
G1 X107.654 Y90.305 E93.86925
G1 X105.612 Y90.305 E93.92596
G1 X90.305 Y105.612 E94.52729
G1 X90.305 Y103.570 E94.58401
G1 X103.570 Y90.305 E95.10513
G1 X101.528 Y90.305 E95.16185
G1 X90.305 Y101.528 E95.60277
G1 X90.305 Y99.487 E95.65948
G1 X99.487 Y90.305 E96.02019
G1 X97.445 Y90.305 E96.07691
G1 X90.305 Y97.445 E96.35741
G1 X90.305 Y95.403 E96.41412
G1 X95.403 Y90.305 E96.61442
G1 X93.361 Y90.305 E96.67113
G1 X90.305 Y93.361 E96.79122
G1 X90.305 Y91.320 E96.84793
G1 X91.320 Y90.305 E96.88781
G1 Z4.800 F7800.000
G1 X90.305 Y108.680 F7800.000
G1 F3574.97
G1 X91.320 Y109.695 E96.92769
G1 X93.361 Y109.695 E96.98440
G1 X90.305 Y106.639 E97.10449
G1 X90.305 Y104.597 E97.16120
G1 X95.403 Y109.695 E97.36149
G1 X97.445 Y109.695 E97.41821
G1 X90.305 Y102.555 E97.69871
G1 X90.305 Y100.513 E97.75543
G1 X99.487 Y109.695 E98.11613
G1 X101.528 Y109.695 E98.17285
G1 X90.305 Y98.472 E98.61377
G1 X90.305 Y96.430 E98.67048
G1 X103.570 Y109.695 E99.19161
G1 X105.612 Y109.695 E99.24832
G1 X90.305 Y94.388 E99.84966
G1 X90.305 Y92.346 E99.90637
G1 X107.654 Y109.695 E100.58791
G1 X109.695 Y109.695 E100.64463
G1 X90.305 Y90.305 E101.40638
G1 X92.346 Y90.305 E101.46309
G1 X109.695 Y107.654 E102.14463
G1 X109.695 Y105.612 E102.20135
G1 X94.388 Y90.305 E102.80268
G1 X96.430 Y90.305 E102.85940
G1 X109.695 Y103.570 E103.38052
G1 X109.695 Y101.528 E103.43724
G1 X98.472 Y90.305 E103.87815
G1 X100.513 Y90.305 E103.93487
G1 X109.695 Y99.487 E104.29558
G1 X109.695 Y97.445 E104.35229
G1 X102.555 Y90.305 E104.63279
G1 X104.597 Y90.305 E104.68951
G1 X109.695 Y95.403 E104.88980
G1 X109.695 Y93.361 E104.94652
G1 X106.639 Y90.305 E105.06660
G1 X108.680 Y90.305 E105.12332
G1 X109.695 Y91.320 E105.16320
G1 Z5.200 F7800.000
G1 X108.680 Y109.695 F7800.000
G1 F3574.97
G1 X109.695 Y108.680 E105.20307
G1 X109.695 Y106.639 E105.25979
G1 X106.639 Y109.695 E105.37987
G1 X104.597 Y109.695 E105.43659
G1 X109.695 Y104.597 E105.63688
G1 X109.695 Y102.555 E105.69360
G1 X102.555 Y109.695 E105.97410
G1 X100.513 Y109.695 E106.03081
G1 X109.695 Y100.513 E106.39152
G1 X109.695 Y98.472 E106.44824
G1 X98.472 Y109.695 E106.88915
G1 X96.430 Y109.695 E106.94587
G1 X109.695 Y96.430 E107.46699
G1 X109.695 Y94.388 E107.52371
G1 X94.388 Y109.695 E108.12504
G1 X92.346 Y109.695 E108.18176
G1 X109.695 Y92.346 E108.86330
G1 X109.695 Y90.305 E108.92002
G1 X90.305 Y109.695 E109.68176
G1 X90.305 Y107.654 E109.73848
G1 X107.654 Y90.305 E110.42002
G1 X105.612 Y90.305 E110.47674
G1 X90.305 Y105.612 E111.07807
G1 X90.305 Y103.570 E111.13478
G1 X103.570 Y90.305 E111.65591
G1 X101.528 Y90.305 E111.71262
G1 X90.305 Y101.528 E112.15354
G1 X90.305 Y99.487 E112.21026
G1 X99.487 Y90.305 E112.57097
G1 X97.445 Y90.305 E112.62768
G1 X90.305 Y97.445 E112.90818
G1 X90.305 Y95.403 E112.96490
G1 X95.403 Y90.305 E113.16519
G1 X93.361 Y90.305 E113.22191
G1 X90.305 Y93.361 E113.34199
G1 X90.305 Y91.320 E113.39871
G1 X91.320 Y90.305 E113.43858
G1 Z5.600 F7800.000
G1 X90.305 Y108.680 F7800.000
G1 F3574.97
G1 X91.320 Y109.695 E113.47846
G1 X93.361 Y109.695 E113.53517
G1 X90.305 Y106.639 E113.65526
G1 X90.305 Y104.597 E113.71198
G1 X95.403 Y109.695 E113.91227
G1 X97.445 Y109.695 E113.96898
G1 X90.305 Y102.555 E114.24948
G1 X90.305 Y100.513 E114.30620
G1 X99.487 Y109.695 E114.66691
G1 X101.528 Y109.695 E114.72362
G1 X90.305 Y98.472 E115.16454
G1 X90.305 Y96.430 E115.22126
G1 X103.570 Y109.695 E115.74238
G1 X105.612 Y109.695 E115.79910
G1 X90.305 Y94.388 E116.40043
G1 X90.305 Y92.346 E116.45715
G1 X107.654 Y109.695 E117.13869
G1 X109.695 Y109.695 E117.19540
G1 X90.305 Y90.305 E117.95715
G1 X92.346 Y90.305 E118.01387
G1 X109.695 Y107.654 E118.69541
G1 X109.695 Y105.612 E118.75212
G1 X94.388 Y90.305 E119.35346
G1 X96.430 Y90.305 E119.41017
G1 X109.695 Y103.570 E119.93130
G1 X109.695 Y101.528 E119.98801
G1 X98.472 Y90.305 E120.42893
G1 X100.513 Y90.305 E120.48564
G1 X109.695 Y99.487 E120.84635
G1 X109.695 Y97.445 E120.90307
G1 X102.555 Y90.305 E121.18357
G1 X104.597 Y90.305 E121.24028
G1 X109.695 Y95.403 E121.44058
G1 X109.695 Y93.361 E121.49729
G1 X106.639 Y90.305 E121.61738
G1 X108.680 Y90.305 E121.67409
G1 X109.695 Y91.320 E121.71397
G1 Z6.000 F7800.000
G1 X108.680 Y109.695 F7800.000
G1 F3574.97
G1 X109.695 Y108.680 E121.75385
G1 X109.695 Y106.639 E121.81056
G1 X106.639 Y109.695 E121.93065
G1 X104.597 Y109.695 E121.98736
G1 X109.695 Y104.597 E122.18766
G1 X109.695 Y102.555 E122.24437
G1 X102.555 Y109.695 E122.52487
G1 X100.513 Y109.695 E122.58159
G1 X109.695 Y100.513 E122.94230
G1 X109.695 Y98.472 E122.99901
G1 X98.472 Y109.695 E123.43993
G1 X96.430 Y109.695 E123.49664
G1 X109.695 Y96.430 E124.01777
G1 X109.695 Y94.388 E124.07448
G1 X94.388 Y109.695 E124.67582
G1 X92.346 Y109.695 E124.73253
G1 X109.695 Y92.346 E125.41407
G1 X109.695 Y90.305 E125.47079
G1 X90.305 Y109.695 E126.23254
G1 X90.305 Y107.654 E126.28925
G1 X107.654 Y90.305 E126.97079
G1 X105.612 Y90.305 E127.02751
G1 X90.305 Y105.612 E127.62884
G1 X90.305 Y103.570 E127.68556
G1 X103.570 Y90.305 E128.20668
G1 X101.528 Y90.305 E128.26340
G1 X90.305 Y101.528 E128.70432
G1 X90.305 Y99.487 E128.76103
G1 X99.487 Y90.305 E129.12174
G1 X97.445 Y90.305 E129.17846
G1 X90.305 Y97.445 E129.45896
G1 X90.305 Y95.403 E129.51567
G1 X95.403 Y90.305 E129.71596
G1 X93.361 Y90.305 E129.77268
G1 X90.305 Y93.361 E129.89276
G1 X90.305 Y91.320 E129.94948
G1 X91.320 Y90.305 E129.98936
G1 Z6.400 F7800.000
G1 X90.305 Y108.680 F7800.000
G1 F3574.97
G1 X91.320 Y109.695 E130.02923
G1 X93.361 Y109.695 E130.08595
G1 X90.305 Y106.639 E130.20603
G1 X90.305 Y104.597 E130.26275
G1 X95.403 Y109.695 E130.46304
G1 X97.445 Y109.695 E130.51976
G1 X90.305 Y102.555 E130.80026
G1 X90.305 Y100.513 E130.85697
G1 X99.487 Y109.695 E131.21768
G1 X101.528 Y109.695 E131.27440
G1 X90.305 Y98.472 E131.71532
G1 X90.305 Y96.430 E131.77203
G1 X103.570 Y109.695 E132.29316
G1 X105.612 Y109.695 E132.34987
G1 X90.305 Y94.388 E132.95120
G1 X90.305 Y92.346 E133.00792
G1 X107.654 Y109.695 E133.68946
G1 X109.695 Y109.695 E133.74618
G1 X90.305 Y90.305 E134.50792
G1 X92.346 Y90.305 E134.56464
G1 X109.695 Y107.654 E135.24618
G1 X109.695 Y105.612 E135.30290
G1 X94.388 Y90.305 E135.90423
G1 X96.430 Y90.305 E135.96095
G1 X109.695 Y103.570 E136.48207
G1 X109.695 Y101.528 E136.53879
G1 X98.472 Y90.305 E136.97970
G1 X100.513 Y90.305 E137.03642
G1 X109.695 Y99.487 E137.39713
G1 X109.695 Y97.445 E137.45384
G1 X102.555 Y90.305 E137.73434
G1 X104.597 Y90.305 E137.79106
G1 X109.695 Y95.403 E137.99135
G1 X109.695 Y93.361 E138.04807
G1 X106.639 Y90.305 E138.16815
G1 X108.680 Y90.305 E138.22487
G1 X109.695 Y91.320 E138.26474
G1 Z6.800 F7800.000
G1 X108.680 Y109.695 F7800.000
G1 F3574.97
G1 X109.695 Y108.680 E138.30462
G1 X109.695 Y106.639 E138.36134
G1 X106.639 Y109.695 E138.48142
G1 X104.597 Y109.695 E138.53814
G1 X109.695 Y104.597 E138.73843
G1 X109.695 Y102.555 E138.79515
G1 X102.555 Y109.695 E139.07565
G1 X100.513 Y109.695 E139.13236
G1 X109.695 Y100.513 E139.49307
G1 X109.695 Y98.472 E139.54979
G1 X98.472 Y109.695 E139.99070
G1 X96.430 Y109.695 E140.04742
G1 X109.695 Y96.430 E140.56854
G1 X109.695 Y94.388 E140.62526
G1 X94.388 Y109.695 E141.22659
G1 X92.346 Y109.695 E141.28331
G1 X109.695 Y92.346 E141.96485
G1 X109.695 Y90.305 E142.02156
G1 X90.305 Y109.695 E142.78331
G1 X90.305 Y107.654 E142.84003
G1 X107.654 Y90.305 E143.52157
G1 X105.612 Y90.305 E143.57828
G1 X90.305 Y105.612 E144.17962
G1 X90.305 Y103.570 E144.23633
G1 X103.570 Y90.305 E144.75746
G1 X101.528 Y90.305 E144.81417
G1 X90.305 Y101.528 E145.25509
G1 X90.305 Y99.487 E145.31180
G1 X99.487 Y90.305 E145.67251
G1 X97.445 Y90.305 E145.72923
G1 X90.305 Y97.445 E146.00973
G1 X90.305 Y95.403 E146.06645
G1 X95.403 Y90.305 E146.26674
G1 X93.361 Y90.305 E146.32345
G1 X90.305 Y93.361 E146.44354
G1 X90.305 Y91.320 E146.50025
G1 X91.320 Y90.305 E146.54013
G1 Z7.200 F7800.000
G1 X90.305 Y108.680 F7800.000
G1 F3574.97
G1 X91.320 Y109.695 E146.58001
G1 X93.361 Y109.695 E146.63672
G1 X90.305 Y106.639 E146.75681
G1 X90.305 Y104.597 E146.81352
G1 X95.403 Y109.695 E147.01382
G1 X97.445 Y109.695 E147.07053
G1 X90.305 Y102.555 E147.35103
G1 X90.305 Y100.513 E147.40775
G1 X99.487 Y109.695 E147.76846
G1 X101.528 Y109.695 E147.82517
G1 X90.305 Y98.472 E148.26609
G1 X90.305 Y96.430 E148.32280
G1 X103.570 Y109.695 E148.84393
G1 X105.612 Y109.695 E148.90065
G1 X90.305 Y94.388 E149.50198
G1 X90.305 Y92.346 E149.55869
G1 X107.654 Y109.695 E150.24023
G1 X109.695 Y109.695 E150.29695
G1 X90.305 Y90.305 E151.05870
G1 X92.346 Y90.305 E151.11541
G1 X109.695 Y107.654 E151.79696
G1 X109.695 Y105.612 E151.85367
G1 X94.388 Y90.305 E152.45500
G1 X96.430 Y90.305 E152.51172
G1 X109.695 Y103.570 E153.03284
G1 X109.695 Y101.528 E153.08956
G1 X98.472 Y90.305 E153.53048
G1 X100.513 Y90.305 E153.58719
G1 X109.695 Y99.487 E153.94790
G1 X109.695 Y97.445 E154.00462
G1 X102.555 Y90.305 E154.28512
G1 X104.597 Y90.305 E154.34183
G1 X109.695 Y95.403 E154.54213
G1 X109.695 Y93.361 E154.59884
G1 X106.639 Y90.305 E154.71893
G1 X108.680 Y90.305 E154.77564
G1 X109.695 Y91.320 E154.81552
G1 Z7.600 F7800.000
G1 X108.680 Y109.695 F7800.000
G1 F3574.97
G1 X109.695 Y108.680 E154.85540
G1 X109.695 Y106.639 E154.91211
G1 X106.639 Y109.695 E155.03220
G1 X104.597 Y109.695 E155.08891
G1 X109.695 Y104.597 E155.28920
G1 X109.695 Y102.555 E155.34592
G1 X102.555 Y109.695 E155.62642
G1 X100.513 Y109.695 E155.68314
G1 X109.695 Y100.513 E156.04384
G1 X109.695 Y98.472 E156.10056
G1 X98.472 Y109.695 E156.54148
G1 X96.430 Y109.695 E156.59819
G1 X109.695 Y96.430 E157.11932
G1 X109.695 Y94.388 E157.17603
G1 X94.388 Y109.695 E157.77737
G1 X92.346 Y109.695 E157.83408
G1 X109.695 Y92.346 E158.51562
G1 X109.695 Y90.305 E158.57234
G1 X90.305 Y109.695 E159.33409
G1 X90.305 Y107.654 E159.39080
G1 X107.654 Y90.305 E160.07234
G1 X105.612 Y90.305 E160.12906
G1 X90.305 Y105.612 E160.73039
G1 X90.305 Y103.570 E160.78711
G1 X103.570 Y90.305 E161.30823
G1 X101.528 Y90.305 E161.36495
G1 X90.305 Y101.528 E161.80586
G1 X90.305 Y99.487 E161.86258
G1 X99.487 Y90.305 E162.22329
G1 X97.445 Y90.305 E162.28000
G1 X90.305 Y97.445 E162.56050
G1 X90.305 Y95.403 E162.61722
G1 X95.403 Y90.305 E162.81751
G1 X93.361 Y90.305 E162.87423
G1 X90.305 Y93.361 E162.99431
G1 X90.305 Y91.320 E163.05103
G1 X91.320 Y90.305 E163.09090
G1 Z8.000 F7800.000
G1 X90.305 Y108.680 F7800.000
G1 F3574.97
G1 X91.320 Y109.695 E163.13078
G1 X93.361 Y109.695 E163.18750
G1 X90.305 Y106.639 E163.30758
G1 X90.305 Y104.597 E163.36430
G1 X95.403 Y109.695 E163.56459
G1 X97.445 Y109.695 E163.62131
G1 X90.305 Y102.555 E163.90181
G1 X90.305 Y100.513 E163.95852
G1 X99.487 Y109.695 E164.31923
G1 X101.528 Y109.695 E164.37595
G1 X90.305 Y98.472 E164.81686
G1 X90.305 Y96.430 E164.87358
G1 X103.570 Y109.695 E165.39470
G1 X105.612 Y109.695 E165.45142
G1 X90.305 Y94.388 E166.05275
G1 X90.305 Y92.346 E166.10947
G1 X107.654 Y109.695 E166.79101
G1 X109.695 Y109.695 E166.84772
G1 X90.305 Y90.305 E167.60947
G1 X92.346 Y90.305 E167.66619
G1 X109.695 Y107.654 E168.34773
G1 X109.695 Y105.612 E168.40444
G1 X94.388 Y90.305 E169.00578
G1 X96.430 Y90.305 E169.06249
G1 X109.695 Y103.570 E169.58362
G1 X109.695 Y101.528 E169.64033
G1 X98.472 Y90.305 E170.08125
G1 X100.513 Y90.305 E170.13797
G1 X109.695 Y99.487 E170.49867
G1 X109.695 Y97.445 E170.55539
G1 X102.555 Y90.305 E170.83589
G1 X104.597 Y90.305 E170.89261
G1 X109.695 Y95.403 E171.09290
G1 X109.695 Y93.361 E171.14962
G1 X106.639 Y90.305 E171.26970
G1 X108.680 Y90.305 E171.32642
G1 X109.695 Y91.320 E171.36629
G1 Z8.400 F7800.000
G1 X108.680 Y109.695 F7800.000
G1 F3574.97
G1 X109.695 Y108.680 E171.40617
G1 X109.695 Y106.639 E171.46288
G1 X106.639 Y109.695 E171.58297
G1 X104.597 Y109.695 E171.63969
G1 X109.695 Y104.597 E171.83998
G1 X109.695 Y102.555 E171.89669
G1 X102.555 Y109.695 E172.17719
G1 X100.513 Y109.695 E172.23391
G1 X109.695 Y100.513 E172.59462
G1 X109.695 Y98.472 E172.65133
G1 X98.472 Y109.695 E173.09225
G1 X96.430 Y109.695 E173.14897
G1 X109.695 Y96.430 E173.67009
G1 X109.695 Y94.388 E173.72681
G1 X94.388 Y109.695 E174.32814
G1 X92.346 Y109.695 E174.38486
G1 X109.695 Y92.346 E175.06640
G1 X109.695 Y90.305 E175.12311
G1 X90.305 Y109.695 E175.88486
G1 X90.305 Y107.654 E175.94158
G1 X107.654 Y90.305 E176.62312
G1 X105.612 Y90.305 E176.67983
G1 X90.305 Y105.612 E177.28116
G1 X90.305 Y103.570 E177.33788
G1 X103.570 Y90.305 E177.85901
G1 X101.528 Y90.305 E177.91572
G1 X90.305 Y101.528 E178.35664
G1 X90.305 Y99.487 E178.41335
G1 X99.487 Y90.305 E178.77406
G1 X97.445 Y90.305 E178.83078
G1 X90.305 Y97.445 E179.11128
G1 X90.305 Y95.403 E179.16799
G1 X95.403 Y90.305 E179.36829
G1 X93.361 Y90.305 E179.42500
G1 X90.305 Y93.361 E179.54509
G1 X90.305 Y91.320 E179.60180
G1 X91.320 Y90.305 E179.64168
G1 Z8.800 F7800.000
G1 X90.305 Y108.680 F7800.000
G1 F3574.97
G1 X91.320 Y109.695 E179.68156
G1 X93.361 Y109.695 E179.73827
G1 X90.305 Y106.639 E179.85836
G1 X90.305 Y104.597 E179.91507
G1 X95.403 Y109.695 E180.11536
G1 X97.445 Y109.695 E180.17208
G1 X90.305 Y102.555 E180.45258
G1 X90.305 Y100.513 E180.50930
G1 X99.487 Y109.695 E180.87001
G1 X101.528 Y109.695 E180.92672
G1 X90.305 Y98.472 E181.36764
G1 X90.305 Y96.430 E181.42435
G1 X103.570 Y109.695 E181.94548
G1 X105.612 Y109.695 E182.00219
G1 X90.305 Y94.388 E182.60353
G1 X90.305 Y92.346 E182.66024
G1 X107.654 Y109.695 E183.34178
G1 X109.695 Y109.695 E183.39850
G1 X90.305 Y90.305 E184.16025
G1 X92.346 Y90.305 E184.21696
G1 X109.695 Y107.654 E184.89850
G1 X109.695 Y105.612 E184.95522
G1 X94.388 Y90.305 E185.55655
G1 X96.430 Y90.305 E185.61327
G1 X109.695 Y103.570 E186.13439
G1 X109.695 Y101.528 E186.19111
G1 X98.472 Y90.305 E186.63202
G1 X100.513 Y90.305 E186.68874
G1 X109.695 Y99.487 E187.04945
G1 X109.695 Y97.445 E187.10616
G1 X102.555 Y90.305 E187.38667
G1 X104.597 Y90.305 E187.44338
G1 X109.695 Y95.403 E187.64367
G1 X109.695 Y93.361 E187.70039
G1 X106.639 Y90.305 E187.82047
G1 X108.680 Y90.305 E187.87719
G1 X109.695 Y91.320 E187.91707
G1 Z9.200 F7800.000
G1 X108.680 Y109.695 F7800.000
G1 F3574.97
G1 X109.695 Y108.680 E187.95694
G1 X109.695 Y106.639 E188.01366
G1 X106.639 Y109.695 E188.13374
G1 X104.597 Y109.695 E188.19046
G1 X109.695 Y104.597 E188.39075
G1 X109.695 Y102.555 E188.44747
G1 X102.555 Y109.695 E188.72797
G1 X100.513 Y109.695 E188.78468
G1 X109.695 Y100.513 E189.14539
G1 X109.695 Y98.472 E189.20211
G1 X98.472 Y109.695 E189.64303
G1 X96.430 Y109.695 E189.69974
G1 X109.695 Y96.430 E190.22087
G1 X109.695 Y94.388 E190.27758
G1 X94.388 Y109.695 E190.87891
G1 X92.346 Y109.695 E190.93563
G1 X109.695 Y92.346 E191.61717
G1 X109.695 Y90.305 E191.67389
G1 X90.305 Y109.695 E192.43563
G1 X90.305 Y107.654 E192.49235
G1 X107.654 Y90.305 E193.17389
G1 X105.612 Y90.305 E193.23061
G1 X90.305 Y105.612 E193.83194
G1 X90.305 Y103.570 E193.88865
G1 X103.570 Y90.305 E194.40978
G1 X101.528 Y90.305 E194.46649
G1 X90.305 Y101.528 E194.90741
G1 X90.305 Y99.487 E194.96413
G1 X99.487 Y90.305 E195.32484
G1 X97.445 Y90.305 E195.38155
G1 X90.305 Y97.445 E195.66205
G1 X90.305 Y95.403 E195.71877
G1 X95.403 Y90.305 E195.91906
G1 X93.361 Y90.305 E195.97578
G1 X90.305 Y93.361 E196.09586
G1 X90.305 Y91.320 E196.15258
G1 X91.320 Y90.305 E196.19245
G1 Z9.600 F7800.000
G1 X90.305 Y108.680 F7800.000
G1 F3574.97
G1 X91.320 Y109.695 E196.23233
G1 X93.361 Y109.695 E196.28905
G1 X90.305 Y106.639 E196.40913
G1 X90.305 Y104.597 E196.46585
G1 X95.403 Y109.695 E196.66614
G1 X97.445 Y109.695 E196.72285
G1 X90.305 Y102.555 E197.00335
G1 X90.305 Y100.513 E197.06007
G1 X99.487 Y109.695 E197.42078
G1 X101.528 Y109.695 E197.47749
G1 X90.305 Y98.472 E197.91841
G1 X90.305 Y96.430 E197.97513
G1 X103.570 Y109.695 E198.49625
G1 X105.612 Y109.695 E198.55297
G1 X90.305 Y94.388 E199.15430
G1 X90.305 Y92.346 E199.21102
G1 X107.654 Y109.695 E199.89256
G1 X109.695 Y109.695 E199.94927
G1 X90.305 Y90.305 E200.71102
G1 X92.346 Y90.305 E200.76774
G1 X109.695 Y107.654 E201.44928
G1 X109.695 Y105.612 E201.50599
G1 X94.388 Y90.305 E202.10733
G1 X96.430 Y90.305 E202.16404
G1 X109.695 Y103.570 E202.68517
G1 X109.695 Y101.528 E202.74188
G1 X98.472 Y90.305 E203.18280
G1 X100.513 Y90.305 E203.23951
G1 X109.695 Y99.487 E203.60022
G1 X109.695 Y97.445 E203.65694
G1 X102.555 Y90.305 E203.93744
G1 X104.597 Y90.305 E203.99416
G1 X109.695 Y95.403 E204.19445
G1 X109.695 Y93.361 E204.25116
G1 X106.639 Y90.305 E204.37125
G1 X108.680 Y90.305 E204.42796
G1 X109.695 Y91.320 E204.46784
G1 Z10.000 F7800.000
G1 E202.46784 F2400.00000
G92 E0
G1 X108.680 Y109.695 F7800.000
G1 E2.00000 F2400.00000
G1 F3574.97
G1 X109.695 Y108.680 E2.03988
G1 X109.695 Y106.639 E2.09659
G1 X106.639 Y109.695 E2.21668
G1 X104.597 Y109.695 E2.27339
G1 X109.695 Y104.597 E2.47369
G1 X109.695 Y102.555 E2.53040
G1 X102.555 Y109.695 E2.81090
G1 X100.513 Y109.695 E2.86762
G1 X109.695 Y100.513 E3.22833
G1 X109.695 Y98.472 E3.28504
G1 X98.472 Y109.695 E3.72596
G1 X96.430 Y109.695 E3.78267
G1 X109.695 Y96.430 E4.30380
G1 X109.695 Y94.388 E4.36051
G1 X94.388 Y109.695 E4.96185
G1 X92.346 Y109.695 E5.01856
G1 X109.695 Y92.346 E5.70010
G1 X109.695 Y90.305 E5.75682
G1 X90.305 Y109.695 E6.51857
G1 X90.305 Y107.654 E6.57528
G1 X107.654 Y90.305 E7.25682
G1 X105.612 Y90.305 E7.31354
G1 X90.305 Y105.612 E7.91487
G1 X90.305 Y103.570 E7.97159
G1 X103.570 Y90.305 E8.49271
G1 X101.528 Y90.305 E8.54943
G1 X90.305 Y101.528 E8.99035
G1 X90.305 Y99.487 E9.04706
G1 X99.487 Y90.305 E9.40777
G1 X97.445 Y90.305 E9.46449
G1 X90.305 Y97.445 E9.74499
G1 X90.305 Y95.403 E9.80170
G1 X95.403 Y90.305 E10.00199
G1 X93.361 Y90.305 E10.05871
G1 X90.305 Y93.361 E10.17879
G1 X90.305 Y91.320 E10.23551
G1 X91.320 Y90.305 E10.27539
G1 E8.27539 F2400.00000
G92 E0
M107
; Filament-specific end gcode 
;END gcode for filament

M104 S0 ; turn off temperature
G28 X0  ; home X axis
M84     ; disable motors

M140 S0 ; set bed temperature
; filament used = 210.7mm (1.5cm3)
; total filament cost = 0.0

; avoid_crossing_perimeters = 0
; bed_shape = 0x0,200x0,200x200,0x200
; bed_temperature = 0
; before_layer_gcode = 
; between_objects_gcode = 
; bridge_acceleration = 0
; bridge_fan_speed = 100
; brim_connections_width = 0
; brim_width = 0
; complete_objects = 0
; cooling = 1
; default_acceleration = 0
; disable_fan_first_layers = 3
; duplicate_distance = 6
; end_filament_gcode = "; Filament-specific end gcode \n;END gcode for filament\n"
; end_gcode = M104 S0 ; turn off temperature\nG28 X0  ; home X axis\nM84     ; disable motors\n
; extruder_clearance_height = 20
; extruder_clearance_radius = 20
; extruder_offset = 0x0
; extrusion_axis = E
; extrusion_multiplier = 1
; fan_always_on = 0
; fan_below_layer_time = 60
; filament_colour = #FFFFFF
; filament_cost = 0
; filament_density = 0
; filament_diameter = 3
; filament_max_volumetric_speed = 0
; filament_notes = ""
; first_layer_acceleration = 0
; first_layer_bed_temperature = 0
; first_layer_extrusion_width = 200%
; first_layer_speed = 30
; first_layer_temperature = 205
; gcode_arcs = 0
; gcode_comments = 0
; gcode_flavor = reprap
; has_heatbed = 1
; infill_acceleration = 0
; infill_first = 0
; interior_brim_width = 0
; layer_gcode = 
; max_fan_speed = 100
; max_layer_height = 0.3
; max_print_speed = 80
; max_volumetric_speed = 0
; min_fan_speed = 35
; min_layer_height = 0.15
; min_print_speed = 10
; min_skirt_length = 0
; notes = 
; nozzle_diameter = 0.5
; only_retract_when_crossing_perimeters = 1
; ooze_prevention = 0
; output_filename_format = [input_filename_base].gcode
; perimeter_acceleration = 0
; post_process = 
; pressure_advance = 0
; printer_notes = 
; resolution = 0
; retract_before_travel = 2
; retract_layer_change = 0
; retract_length = 2
; retract_length_toolchange = 10
; retract_lift = 0
; retract_lift_above = 0
; retract_lift_below = 0
; retract_restart_extra = 0
; retract_restart_extra_toolchange = 0
; retract_speed = 40
; skirt_distance = 6
; skirt_height = 1
; skirts = 0
; slowdown_below_layer_time = 5
; spiral_vase = 0
; standby_temperature_delta = -5
; start_filament_gcode = "; Filament gcode\n"
; start_gcode = G28 ; home all axes\nG1 Z5 F5000 ; lift nozzle\n
; temperature = 200
; threads = 8
; toolchange_gcode = 
; travel_speed = 130
; use_firmware_retraction = 0
; use_relative_e_distances = 0
; use_set_and_wait_bed = 0
; use_set_and_wait_extruder = 0
; use_volumetric_e = 0
; vibration_limit = 0
; wipe = 0
; z_offset = 0
; z_steps_per_mm = 0
; adaptive_slicing = 0
; adaptive_slicing_quality = 75%
; dont_support_bridges = 1
; extrusion_width = 0
; first_layer_height = 0.4
; infill_only_where_needed = 0
; interface_shells = 0
; layer_height = 0.4
; match_horizontal_surfaces = 0
; raft_layers = 0
; regions_overlap = 0
; seam_position = aligned
; sequential_print_priority = 0
; support_material = 0
; support_material_angle = 0
; support_material_buildplate_only = 0
; support_material_contact_distance = 0.2
; support_material_enforce_layers = 0
; support_material_extruder = 1
; support_material_extrusion_width = 0
; support_material_interface_extruder = 1
; support_material_interface_extrusion_width = 0
; support_material_interface_layers = 3
; support_material_interface_spacing = 0
; support_material_interface_speed = 100%
; support_material_max_layers = 0
; support_material_pattern = pillars
; support_material_spacing = 2.5
; support_material_speed = 60
; support_material_threshold = 60%
; xy_size_compensation = 0
; bottom_infill_pattern = rectilinear
; bottom_solid_layers = 0
; bridge_flow_ratio = 1
; bridge_speed = 60
; external_perimeter_extrusion_width = 0
; external_perimeter_speed = 50%
; external_perimeters_first = 0
; extra_perimeters = 1
; fill_angle = 45
; fill_density = 34%
; fill_gaps = 1
; fill_pattern = rectilinear
; gap_fill_speed = 20
; infill_every_layers = 1
; infill_extruder = 1
; infill_extrusion_width = 0
; infill_overlap = 55%
; infill_speed = 80
; overhangs = 1
; perimeter_extruder = 1
; perimeter_extrusion_width = 0
; perimeter_speed = 60
; perimeters = 0
; small_perimeter_speed = 15
; solid_infill_below_area = 70
; solid_infill_every_layers = 0
; solid_infill_extruder = 1
; solid_infill_extrusion_width = 0
; solid_infill_speed = 20
; thin_walls = 1
; top_infill_extrusion_width = 0
; top_infill_pattern = rectilinear
; top_solid_infill_speed = 15
; top_solid_layers = 0
