; generated by Slic3r 1.2.9 on 2019-07-09 at 10:43:28

; external perimeters extrusion width = 0.50mm
; perimeters extrusion width = 0.58mm
; infill extrusion width = 0.58mm
; solid infill extrusion width = 0.58mm
; top infill extrusion width = 0.58mm

M107
M104 S200 ; set temperature
G28 ; home all axes
G1 Z5 F5000 ; lift nozzle

M109 S200 ; wait for temperature to be reached
G21 ; set units to millimeters
G90 ; use absolute coordinates
M82 ; use absolute distances for extrusion
G92 E0
G1 Z0.400 F7800.000
G1 E-2.00000 F2400.00000
G92 E0
G1 X90.526 Y110.129 F7800.000
G1 E2.00000 F2400.00000
G1 X89.871 Y109.474 E2.33680 F1800.000
G1 X89.871 Y108.482 E2.69751
G1 X91.518 Y110.129 E3.54442
G1 X92.509 Y110.129 E3.90513
G1 X89.871 Y107.491 E5.26216
G1 X89.871 Y106.499 E5.62286
G1 X93.501 Y110.129 E7.49000
G1 X94.493 Y110.129 E7.85071
G1 X89.871 Y105.507 E10.22796
G1 X89.871 Y104.515 E10.58867
G1 X95.485 Y110.129 E13.47604
G1 X96.476 Y110.129 E13.83674
G1 X89.871 Y103.524 E17.23423
G1 X89.871 Y102.532 E17.59493
G1 X97.468 Y110.129 E21.50253
G1 X98.460 Y110.129 E21.86324
G1 X89.871 Y101.540 E26.28095
G1 X89.871 Y100.549 E26.64165
G1 X99.451 Y110.129 E31.56948
G1 X100.443 Y110.129 E31.93018
G1 X89.871 Y99.557 E37.36812
G1 X89.871 Y98.565 E37.72883
G1 X101.435 Y110.129 E43.67688
G1 X102.427 Y110.129 E44.03759
G1 X89.871 Y97.573 E50.49575
G1 X89.871 Y96.582 E50.85646
G1 X103.418 Y110.129 E57.82474
G1 X104.410 Y110.129 E58.18544
G1 X89.871 Y95.590 E65.66384
G1 X89.871 Y94.598 E66.02454
G1 X105.402 Y110.129 E74.01305
G1 X106.394 Y110.129 E74.37376
G1 X89.871 Y93.606 E82.87238
G1 X89.871 Y92.615 E83.23309
G1 X107.385 Y110.129 E92.24182
G1 X108.377 Y110.129 E92.60253
G1 X89.871 Y91.623 E102.12138
G1 X89.871 Y90.631 E102.48208
G1 X109.369 Y110.129 E112.51105
G1 X110.129 Y109.897 E112.80005
G1 X90.103 Y89.871 E123.10082
G1 X91.095 Y89.871 E123.46152
G1 X110.129 Y108.905 E133.25218
G1 X110.129 Y107.914 E133.61288
G1 X92.086 Y89.871 E142.89342
G1 X93.078 Y89.871 E143.25413
G1 X110.129 Y106.922 E152.02455
G1 X110.129 Y105.930 E152.38526
G1 X94.070 Y89.871 E160.64557
G1 X95.062 Y89.871 E161.00628
G1 X110.129 Y104.938 E168.75647
G1 X110.129 Y103.947 E169.11718
G1 X96.053 Y89.871 E176.35726
G1 X97.045 Y89.871 E176.71797
G1 X110.129 Y102.955 E183.44794
G1 X110.129 Y101.963 E183.80865
G1 X98.037 Y89.871 E190.02850
G1 X99.028 Y89.871 E190.38921
G1 X110.129 Y100.972 E196.09895
G1 X110.129 Y99.980 E196.45966
G1 X100.020 Y89.871 E201.65929
G1 X101.012 Y89.871 E202.01999
G1 X110.129 Y98.988 E206.70951
G1 X110.129 Y97.996 E207.07021
G1 X102.004 Y89.871 E211.24962
G1 X102.995 Y89.871 E211.61032
G1 X110.129 Y97.005 E215.27961
G1 X110.129 Y96.013 E215.64031
G1 X103.987 Y89.871 E218.79949
G1 X104.979 Y89.871 E219.16019
G1 X110.129 Y95.021 E221.80925
G1 X110.129 Y94.030 E222.16996
G1 X105.970 Y89.871 E224.30891
G1 X106.962 Y89.871 E224.66961
G1 X110.129 Y93.038 E226.29845
G1 X110.129 Y92.046 E226.65915
G1 X107.954 Y89.871 E227.77787
G1 X108.946 Y89.871 E228.13858
G1 X110.129 Y91.054 E228.74718
G1 Z0.800 F7800.000
G1 X108.946 Y110.129 F7800.000
G1 X110.129 Y108.946 E229.16550 F4800.000
G1 X110.129 Y107.954 E229.41343
G1 X107.954 Y110.129 E230.18238
G1 X106.962 Y110.129 E230.43031
G1 X110.129 Y106.962 E231.54988
G1 X110.129 Y105.970 E231.79781
G1 X105.970 Y110.129 E233.26800
G1 X104.979 Y110.129 E233.51593
G1 X110.129 Y104.979 E235.33675
G1 X110.129 Y103.987 E235.58468
G1 X103.987 Y110.129 E237.75612
G1 X102.995 Y110.129 E238.00405
G1 X110.129 Y102.995 E240.52612
G1 X110.129 Y102.004 E240.77405
G1 X102.004 Y110.129 E243.64674
G1 X101.012 Y110.129 E243.89467
G1 X110.129 Y101.012 E247.11798
G1 X110.129 Y100.020 E247.36591
G1 X100.020 Y110.129 E250.93985
G1 X99.028 Y110.129 E251.18778
G1 X110.129 Y99.028 E255.11234
G1 X110.129 Y98.037 E255.36027
G1 X98.037 Y110.129 E259.63546
G1 X97.045 Y110.129 E259.88339
G1 X110.129 Y97.045 E264.50920
G1 X110.129 Y96.053 E264.75713
G1 X96.053 Y110.129 E269.73357
G1 X95.062 Y110.129 E269.98149
G1 X110.129 Y95.062 E275.30855
G1 X110.129 Y94.070 E275.55648
G1 X94.070 Y110.129 E281.23417
G1 X93.078 Y110.129 E281.48210
G1 X110.129 Y93.078 E287.51041
G1 X110.129 Y92.086 E287.75833
G1 X92.086 Y110.129 E294.13727
G1 X91.095 Y110.129 E294.38520
G1 X110.129 Y91.095 E301.11475
G1 X110.129 Y90.103 E301.36268
G1 X90.103 Y110.129 E308.44286
G1 X89.871 Y109.369 E308.64151
G1 X109.369 Y89.871 E315.53487
G1 X108.377 Y89.871 E315.78280
G1 X89.871 Y108.377 E322.32553
G1 X89.871 Y107.385 E322.57346
G1 X107.385 Y89.871 E328.76557
G1 X106.394 Y89.871 E329.01350
G1 X89.871 Y106.394 E334.85499
G1 X89.871 Y105.402 E335.10292
G1 X105.402 Y89.871 E340.59378
G1 X104.410 Y89.871 E340.84171
G1 X89.871 Y104.410 E345.98194
G1 X89.871 Y103.418 E346.22987
G1 X103.418 Y89.871 E351.01949
G1 X102.427 Y89.871 E351.26742
G1 X89.871 Y102.427 E355.70641
G1 X89.871 Y101.435 E355.95433
G1 X101.435 Y89.871 E360.04270
G1 X100.443 Y89.871 E360.29063
G1 X89.871 Y100.443 E364.02837
G1 X89.871 Y99.451 E364.27630
G1 X99.451 Y89.871 E367.66342
G1 X98.460 Y89.871 E367.91134
G1 X89.871 Y98.460 E370.94784
G1 X89.871 Y97.468 E371.19577
G1 X97.468 Y89.871 E373.88163
G1 X96.476 Y89.871 E374.12956
G1 X89.871 Y96.476 E376.46481
G1 X89.871 Y95.485 E376.71274
G1 X95.485 Y89.871 E378.69736
G1 X94.493 Y89.871 E378.94529
G1 X89.871 Y94.493 E380.57928
G1 X89.871 Y93.501 E380.82721
G1 X93.501 Y89.871 E382.11058
G1 X92.509 Y89.871 E382.35851
G1 X89.871 Y92.509 E383.29126
G1 X89.871 Y91.518 E383.53919
G1 X91.518 Y89.871 E384.12131
G1 X90.526 Y89.871 E384.36924
G1 X89.871 Y90.526 E384.60074
G1 Z1.200 F7800.000
G1 X90.526 Y110.129 F7800.000
G1 X89.871 Y109.474 E384.83224 F4800.000
G1 X89.871 Y108.482 E385.08017
G1 X91.518 Y110.129 E385.66229
G1 X92.509 Y110.129 E385.91022
G1 X89.871 Y107.491 E386.84297
G1 X89.871 Y106.499 E387.09089
G1 X93.501 Y110.129 E388.37427
G1 X94.493 Y110.129 E388.62219
G1 X89.871 Y105.507 E390.25619
G1 X89.871 Y104.515 E390.50412
G1 X95.485 Y110.129 E392.48874
G1 X96.476 Y110.129 E392.73667
G1 X89.871 Y103.524 E395.07191
G1 X89.871 Y102.532 E395.31984
G1 X97.468 Y110.129 E398.00571
G1 X98.460 Y110.129 E398.25364
G1 X89.871 Y101.540 E401.29013
G1 X89.871 Y100.549 E401.53806
G1 X99.451 Y110.129 E404.92517
G1 X100.443 Y110.129 E405.17310
G1 X89.871 Y99.557 E408.91084
G1 X89.871 Y98.565 E409.15877
G1 X101.435 Y110.129 E413.24714
G1 X102.427 Y110.129 E413.49507
G1 X89.871 Y97.573 E417.93406
G1 X89.871 Y96.582 E418.18198
G1 X103.418 Y110.129 E422.97160
G1 X104.410 Y110.129 E423.21953
G1 X89.871 Y95.590 E428.35976
G1 X89.871 Y94.598 E428.60769
G1 X105.402 Y110.129 E434.09855
G1 X106.394 Y110.129 E434.34648
G1 X89.871 Y93.606 E440.18797
G1 X89.871 Y92.615 E440.43590
G1 X107.385 Y110.129 E446.62801
G1 X108.377 Y110.129 E446.87594
G1 X89.871 Y91.623 E453.41867
G1 X89.871 Y90.631 E453.66660
G1 X109.369 Y110.129 E460.55996
G1 X110.129 Y109.897 E460.75860
G1 X90.103 Y89.871 E467.83878
G1 X91.095 Y89.871 E468.08671
G1 X110.129 Y108.905 E474.81627
G1 X110.129 Y107.914 E475.06420
G1 X92.086 Y89.871 E481.44313
G1 X93.078 Y89.871 E481.69106
G1 X110.129 Y106.922 E487.71937
G1 X110.129 Y105.930 E487.96730
G1 X94.070 Y89.871 E493.64498
G1 X95.062 Y89.871 E493.89291
G1 X110.129 Y104.938 E499.21997
G1 X110.129 Y103.947 E499.46790
G1 X96.053 Y89.871 E504.44434
G1 X97.045 Y89.871 E504.69227
G1 X110.129 Y102.955 E509.31808
G1 X110.129 Y101.963 E509.56601
G1 X98.037 Y89.871 E513.84120
G1 X99.028 Y89.871 E514.08913
G1 X110.129 Y100.972 E518.01369
G1 X110.129 Y99.980 E518.26162
G1 X100.020 Y89.871 E521.83556
G1 X101.012 Y89.871 E522.08349
G1 X110.129 Y98.988 E525.30680
G1 X110.129 Y97.996 E525.55473
G1 X102.004 Y89.871 E528.42742
G1 X102.995 Y89.871 E528.67535
G1 X110.129 Y97.005 E531.19742
G1 X110.129 Y96.013 E531.44535
G1 X103.987 Y89.871 E533.61679
G1 X104.979 Y89.871 E533.86472
G1 X110.129 Y95.021 E535.68554
G1 X110.129 Y94.030 E535.93347
G1 X105.970 Y89.871 E537.40366
G1 X106.962 Y89.871 E537.65159
G1 X110.129 Y93.038 E538.77116
G1 X110.129 Y92.046 E539.01909
G1 X107.954 Y89.871 E539.78804
G1 X108.946 Y89.871 E540.03597
G1 X110.129 Y91.054 E540.45429
M106 S244.8
G1 Z1.600 F7800.000
G1 X108.946 Y110.129 F7800.000
G1 X110.129 Y108.946 E540.87261 F4800.000
G1 X110.129 Y107.954 E541.12054
G1 X107.954 Y110.129 E541.88949
G1 X106.962 Y110.129 E542.13742
G1 X110.129 Y106.962 E543.25699
G1 X110.129 Y105.970 E543.50492
G1 X105.970 Y110.129 E544.97511
G1 X104.979 Y110.129 E545.22304
G1 X110.129 Y104.979 E547.04386
G1 X110.129 Y103.987 E547.29179
G1 X103.987 Y110.129 E549.46323
G1 X102.995 Y110.129 E549.71116
G1 X110.129 Y102.995 E552.23323
G1 X110.129 Y102.004 E552.48116
G1 X102.004 Y110.129 E555.35385
G1 X101.012 Y110.129 E555.60178
G1 X110.129 Y101.012 E558.82509
G1 X110.129 Y100.020 E559.07302
G1 X100.020 Y110.129 E562.64696
G1 X99.028 Y110.129 E562.89489
G1 X110.129 Y99.028 E566.81945
G1 X110.129 Y98.037 E567.06738
G1 X98.037 Y110.129 E571.34257
G1 X97.045 Y110.129 E571.59050
G1 X110.129 Y97.045 E576.21631
G1 X110.129 Y96.053 E576.46424
G1 X96.053 Y110.129 E581.44068
G1 X95.062 Y110.129 E581.68860
G1 X110.129 Y95.062 E587.01566
G1 X110.129 Y94.070 E587.26359
G1 X94.070 Y110.129 E592.94128
G1 X93.078 Y110.129 E593.18921
G1 X110.129 Y93.078 E599.21752
G1 X110.129 Y92.086 E599.46544
G1 X92.086 Y110.129 E605.84438
G1 X91.095 Y110.129 E606.09231
G1 X110.129 Y91.095 E612.82186
G1 X110.129 Y90.103 E613.06979
G1 X90.103 Y110.129 E620.14997
G1 X89.871 Y109.369 E620.34862
G1 X109.369 Y89.871 E627.24198
G1 X108.377 Y89.871 E627.48991
G1 X89.871 Y108.377 E634.03264
G1 X89.871 Y107.385 E634.28057
G1 X107.385 Y89.871 E640.47268
G1 X106.394 Y89.871 E640.72061
G1 X89.871 Y106.394 E646.56210
G1 X89.871 Y105.402 E646.81002
G1 X105.402 Y89.871 E652.30089
G1 X104.410 Y89.871 E652.54882
G1 X89.871 Y104.410 E657.68905
G1 X89.871 Y103.418 E657.93698
G1 X103.418 Y89.871 E662.72660
G1 X102.427 Y89.871 E662.97453
G1 X89.871 Y102.427 E667.41351
G1 X89.871 Y101.435 E667.66144
G1 X101.435 Y89.871 E671.74981
G1 X100.443 Y89.871 E671.99774
G1 X89.871 Y100.443 E675.73548
G1 X89.871 Y99.451 E675.98341
G1 X99.451 Y89.871 E679.37053
G1 X98.460 Y89.871 E679.61845
G1 X89.871 Y98.460 E682.65495
G1 X89.871 Y97.468 E682.90288
G1 X97.468 Y89.871 E685.58874
G1 X96.476 Y89.871 E685.83667
G1 X89.871 Y96.476 E688.17192
G1 X89.871 Y95.485 E688.41985
G1 X95.485 Y89.871 E690.40447
G1 X94.493 Y89.871 E690.65240
G1 X89.871 Y94.493 E692.28639
G1 X89.871 Y93.501 E692.53432
G1 X93.501 Y89.871 E693.81769
G1 X92.509 Y89.871 E694.06562
G1 X89.871 Y92.509 E694.99837
G1 X89.871 Y91.518 E695.24630
G1 X91.518 Y89.871 E695.82842
G1 X90.526 Y89.871 E696.07635
G1 X89.871 Y90.526 E696.30785
G1 Z2.000 F7800.000
G1 X90.526 Y110.129 F7800.000
G1 X89.871 Y109.474 E696.53935 F4800.000
G1 X89.871 Y108.482 E696.78728
G1 X91.518 Y110.129 E697.36940
G1 X92.509 Y110.129 E697.61733
G1 X89.871 Y107.491 E698.55007
G1 X89.871 Y106.499 E698.79800
G1 X93.501 Y110.129 E700.08137
G1 X94.493 Y110.129 E700.32930
G1 X89.871 Y105.507 E701.96330
G1 X89.871 Y104.515 E702.21123
G1 X95.485 Y110.129 E704.19585
G1 X96.476 Y110.129 E704.44378
G1 X89.871 Y103.524 E706.77902
G1 X89.871 Y102.532 E707.02695
G1 X97.468 Y110.129 E709.71282
G1 X98.460 Y110.129 E709.96075
G1 X89.871 Y101.540 E712.99724
G1 X89.871 Y100.549 E713.24517
G1 X99.451 Y110.129 E716.63228
G1 X100.443 Y110.129 E716.88021
G1 X89.871 Y99.557 E720.61795
G1 X89.871 Y98.565 E720.86588
G1 X101.435 Y110.129 E724.95425
G1 X102.427 Y110.129 E725.20218
G1 X89.871 Y97.573 E729.64117
G1 X89.871 Y96.582 E729.88909
G1 X103.418 Y110.129 E734.67871
G1 X104.410 Y110.129 E734.92664
G1 X89.871 Y95.590 E740.06687
G1 X89.871 Y94.598 E740.31480
G1 X105.402 Y110.129 E745.80566
G1 X106.394 Y110.129 E746.05359
G1 X89.871 Y93.606 E751.89508
G1 X89.871 Y92.615 E752.14301
G1 X107.385 Y110.129 E758.33512
G1 X108.377 Y110.129 E758.58305
G1 X89.871 Y91.623 E765.12578
G1 X89.871 Y90.631 E765.37371
G1 X109.369 Y110.129 E772.26707
G1 X110.129 Y109.897 E772.46571
G1 X90.103 Y89.871 E779.54589
G1 X91.095 Y89.871 E779.79382
G1 X110.129 Y108.905 E786.52338
G1 X110.129 Y107.914 E786.77131
G1 X92.086 Y89.871 E793.15024
G1 X93.078 Y89.871 E793.39817
G1 X110.129 Y106.922 E799.42648
G1 X110.129 Y105.930 E799.67441
G1 X94.070 Y89.871 E805.35209
G1 X95.062 Y89.871 E805.60002
G1 X110.129 Y104.938 E810.92708
G1 X110.129 Y103.947 E811.17501
G1 X96.053 Y89.871 E816.15145
G1 X97.045 Y89.871 E816.39938
G1 X110.129 Y102.955 E821.02519
G1 X110.129 Y101.963 E821.27312
G1 X98.037 Y89.871 E825.54831
G1 X99.028 Y89.871 E825.79624
G1 X110.129 Y100.972 E829.72080
G1 X110.129 Y99.980 E829.96873
G1 X100.020 Y89.871 E833.54267
G1 X101.012 Y89.871 E833.79060
G1 X110.129 Y98.988 E837.01391
G1 X110.129 Y97.996 E837.26184
G1 X102.004 Y89.871 E840.13453
G1 X102.995 Y89.871 E840.38246
G1 X110.129 Y97.005 E842.90453
G1 X110.129 Y96.013 E843.15246
G1 X103.987 Y89.871 E845.32390
G1 X104.979 Y89.871 E845.57183
G1 X110.129 Y95.021 E847.39265
G1 X110.129 Y94.030 E847.64058
G1 X105.970 Y89.871 E849.11077
G1 X106.962 Y89.871 E849.35870
G1 X110.129 Y93.038 E850.47827
G1 X110.129 Y92.046 E850.72620
G1 X107.954 Y89.871 E851.49515
G1 X108.946 Y89.871 E851.74308
G1 X110.129 Y91.054 E852.16140
G1 Z2.400 F7800.000
G1 X108.946 Y110.129 F7800.000
G1 X110.129 Y108.946 E852.57972 F4800.000
G1 X110.129 Y107.954 E852.82765
G1 X107.954 Y110.129 E853.59660
G1 X106.962 Y110.129 E853.84453
G1 X110.129 Y106.962 E854.96410
G1 X110.129 Y105.970 E855.21203
G1 X105.970 Y110.129 E856.68222
G1 X104.979 Y110.129 E856.93015
G1 X110.129 Y104.979 E858.75097
G1 X110.129 Y103.987 E858.99890
G1 X103.987 Y110.129 E861.17034
G1 X102.995 Y110.129 E861.41827
G1 X110.129 Y102.995 E863.94034
G1 X110.129 Y102.004 E864.18827
G1 X102.004 Y110.129 E867.06096
G1 X101.012 Y110.129 E867.30889
G1 X110.129 Y101.012 E870.53220
G1 X110.129 Y100.020 E870.78013
G1 X100.020 Y110.129 E874.35407
G1 X99.028 Y110.129 E874.60200
G1 X110.129 Y99.028 E878.52656
G1 X110.129 Y98.037 E878.77449
G1 X98.037 Y110.129 E883.04968
G1 X97.045 Y110.129 E883.29761
G1 X110.129 Y97.045 E887.92342
G1 X110.129 Y96.053 E888.17135
G1 X96.053 Y110.129 E893.14778
G1 X95.062 Y110.129 E893.39571
G1 X110.129 Y95.062 E898.72277
G1 X110.129 Y94.070 E898.97070
G1 X94.070 Y110.129 E904.64839
G1 X93.078 Y110.129 E904.89632
G1 X110.129 Y93.078 E910.92462
G1 X110.129 Y92.086 E911.17255
G1 X92.086 Y110.129 E917.55149
G1 X91.095 Y110.129 E917.79942
G1 X110.129 Y91.095 E924.52897
G1 X110.129 Y90.103 E924.77690
G1 X90.103 Y110.129 E931.85708
G1 X89.871 Y109.369 E932.05573
G1 X109.369 Y89.871 E938.94909
G1 X108.377 Y89.871 E939.19702
G1 X89.871 Y108.377 E945.73975
G1 X89.871 Y107.385 E945.98768
G1 X107.385 Y89.871 E952.17979
G1 X106.394 Y89.871 E952.42772
G1 X89.871 Y106.394 E958.26921
G1 X89.871 Y105.402 E958.51713
G1 X105.402 Y89.871 E964.00800
G1 X104.410 Y89.871 E964.25593
G1 X89.871 Y104.410 E969.39616
G1 X89.871 Y103.418 E969.64409
G1 X103.418 Y89.871 E974.43371
G1 X102.427 Y89.871 E974.68163
G1 X89.871 Y102.427 E979.12062
G1 X89.871 Y101.435 E979.36855
G1 X101.435 Y89.871 E983.45692
G1 X100.443 Y89.871 E983.70485
G1 X89.871 Y100.443 E987.44259
G1 X89.871 Y99.451 E987.69052
G1 X99.451 Y89.871 E991.07763
G1 X98.460 Y89.871 E991.32556
G1 X89.871 Y98.460 E994.36206
G1 X89.871 Y97.468 E994.60999
G1 X97.468 Y89.871 E997.29585
G1 X96.476 Y89.871 E997.54378
G1 X89.871 Y96.476 E999.87903
G1 X89.871 Y95.485 E1000.12696
G1 X95.485 Y89.871 E1002.11158
G1 X94.493 Y89.871 E1002.35951
G1 X89.871 Y94.493 E1003.99350
G1 X89.871 Y93.501 E1004.24143
G1 X93.501 Y89.871 E1005.52480
G1 X92.509 Y89.871 E1005.77273
G1 X89.871 Y92.509 E1006.70548
G1 X89.871 Y91.518 E1006.95341
G1 X91.518 Y89.871 E1007.53553
G1 X90.526 Y89.871 E1007.78346
G1 X89.871 Y90.526 E1008.01496
G1 Z2.800 F7800.000
G1 X90.526 Y110.129 F7800.000
G1 X89.871 Y109.474 E1008.24646 F4800.000
G1 X89.871 Y108.482 E1008.49438
G1 X91.518 Y110.129 E1009.07651
G1 X92.509 Y110.129 E1009.32444
G1 X89.871 Y107.491 E1010.25718
G1 X89.871 Y106.499 E1010.50511
G1 X93.501 Y110.129 E1011.78848
G1 X94.493 Y110.129 E1012.03641
G1 X89.871 Y105.507 E1013.67041
G1 X89.871 Y104.515 E1013.91834
G1 X95.485 Y110.129 E1015.90296
G1 X96.476 Y110.129 E1016.15089
G1 X89.871 Y103.524 E1018.48613
G1 X89.871 Y102.532 E1018.73406
G1 X97.468 Y110.129 E1021.41993
G1 X98.460 Y110.129 E1021.66786
G1 X89.871 Y101.540 E1024.70435
G1 X89.871 Y100.549 E1024.95228
G1 X99.451 Y110.129 E1028.33939
G1 X100.443 Y110.129 E1028.58732
G1 X89.871 Y99.557 E1032.32506
G1 X89.871 Y98.565 E1032.57299
G1 X101.435 Y110.129 E1036.66136
G1 X102.427 Y110.129 E1036.90929
G1 X89.871 Y97.573 E1041.34827
G1 X89.871 Y96.582 E1041.59620
G1 X103.418 Y110.129 E1046.38582
G1 X104.410 Y110.129 E1046.63375
G1 X89.871 Y95.590 E1051.77398
G1 X89.871 Y94.598 E1052.02191
G1 X105.402 Y110.129 E1057.51277
G1 X106.394 Y110.129 E1057.76070
G1 X89.871 Y93.606 E1063.60219
G1 X89.871 Y92.615 E1063.85012
G1 X107.385 Y110.129 E1070.04223
G1 X108.377 Y110.129 E1070.29016
G1 X89.871 Y91.623 E1076.83289
G1 X89.871 Y90.631 E1077.08082
G1 X109.369 Y110.129 E1083.97418
G1 X110.129 Y109.897 E1084.17282
G1 X90.103 Y89.871 E1091.25300
G1 X91.095 Y89.871 E1091.50093
G1 X110.129 Y108.905 E1098.23049
G1 X110.129 Y107.914 E1098.47842
G1 X92.086 Y89.871 E1104.85735
G1 X93.078 Y89.871 E1105.10528
G1 X110.129 Y106.922 E1111.13359
G1 X110.129 Y105.930 E1111.38152
G1 X94.070 Y89.871 E1117.05920
G1 X95.062 Y89.871 E1117.30713
G1 X110.129 Y104.938 E1122.63419
G1 X110.129 Y103.947 E1122.88212
G1 X96.053 Y89.871 E1127.85856
G1 X97.045 Y89.871 E1128.10649
G1 X110.129 Y102.955 E1132.73230
G1 X110.129 Y101.963 E1132.98023
G1 X98.037 Y89.871 E1137.25542
G1 X99.028 Y89.871 E1137.50334
G1 X110.129 Y100.972 E1141.42791
G1 X110.129 Y99.980 E1141.67584
G1 X100.020 Y89.871 E1145.24978
G1 X101.012 Y89.871 E1145.49771
G1 X110.129 Y98.988 E1148.72102
G1 X110.129 Y97.996 E1148.96895
G1 X102.004 Y89.871 E1151.84164
G1 X102.995 Y89.871 E1152.08957
G1 X110.129 Y97.005 E1154.61164
G1 X110.129 Y96.013 E1154.85957
G1 X103.987 Y89.871 E1157.03101
G1 X104.979 Y89.871 E1157.27894
G1 X110.129 Y95.021 E1159.09976
G1 X110.129 Y94.030 E1159.34769
G1 X105.970 Y89.871 E1160.81788
G1 X106.962 Y89.871 E1161.06581
G1 X110.129 Y93.038 E1162.18538
G1 X110.129 Y92.046 E1162.43331
G1 X107.954 Y89.871 E1163.20226
G1 X108.946 Y89.871 E1163.45019
G1 X110.129 Y91.054 E1163.86851
G1 Z3.200 F7800.000
G1 X108.946 Y110.129 F7800.000
G1 X110.129 Y108.946 E1164.28683 F4800.000
G1 X110.129 Y107.954 E1164.53476
G1 X107.954 Y110.129 E1165.30371
G1 X106.962 Y110.129 E1165.55164
G1 X110.129 Y106.962 E1166.67121
G1 X110.129 Y105.970 E1166.91914
G1 X105.970 Y110.129 E1168.38933
G1 X104.979 Y110.129 E1168.63726
G1 X110.129 Y104.979 E1170.45808
G1 X110.129 Y103.987 E1170.70601
G1 X103.987 Y110.129 E1172.87745
G1 X102.995 Y110.129 E1173.12538
G1 X110.129 Y102.995 E1175.64745
G1 X110.129 Y102.004 E1175.89538
G1 X102.004 Y110.129 E1178.76807
G1 X101.012 Y110.129 E1179.01600
G1 X110.129 Y101.012 E1182.23931
G1 X110.129 Y100.020 E1182.48724
G1 X100.020 Y110.129 E1186.06118
G1 X99.028 Y110.129 E1186.30911
G1 X110.129 Y99.028 E1190.23367
G1 X110.129 Y98.037 E1190.48160
G1 X98.037 Y110.129 E1194.75679
G1 X97.045 Y110.129 E1195.00472
G1 X110.129 Y97.045 E1199.63053
G1 X110.129 Y96.053 E1199.87846
G1 X96.053 Y110.129 E1204.85489
G1 X95.062 Y110.129 E1205.10282
G1 X110.129 Y95.062 E1210.42988
G1 X110.129 Y94.070 E1210.67781
G1 X94.070 Y110.129 E1216.35550
G1 X93.078 Y110.129 E1216.60343
G1 X110.129 Y93.078 E1222.63173
G1 X110.129 Y92.086 E1222.87966
G1 X92.086 Y110.129 E1229.25860
G1 X91.095 Y110.129 E1229.50652
G1 X110.129 Y91.095 E1236.23608
G1 X110.129 Y90.103 E1236.48401
G1 X90.103 Y110.129 E1243.56419
G1 X89.871 Y109.369 E1243.76284
G1 X109.369 Y89.871 E1250.65620
G1 X108.377 Y89.871 E1250.90412
G1 X89.871 Y108.377 E1257.44686
G1 X89.871 Y107.385 E1257.69479
G1 X107.385 Y89.871 E1263.88690
G1 X106.394 Y89.871 E1264.13483
G1 X89.871 Y106.394 E1269.97631
G1 X89.871 Y105.402 E1270.22424
G1 X105.402 Y89.871 E1275.71511
G1 X104.410 Y89.871 E1275.96303
G1 X89.871 Y104.410 E1281.10327
G1 X89.871 Y103.418 E1281.35120
G1 X103.418 Y89.871 E1286.14082
G1 X102.427 Y89.871 E1286.38874
G1 X89.871 Y102.427 E1290.82773
G1 X89.871 Y101.435 E1291.07566
G1 X101.435 Y89.871 E1295.16403
G1 X100.443 Y89.871 E1295.41196
G1 X89.871 Y100.443 E1299.14970
G1 X89.871 Y99.451 E1299.39763
G1 X99.451 Y89.871 E1302.78474
G1 X98.460 Y89.871 E1303.03267
G1 X89.871 Y98.460 E1306.06917
G1 X89.871 Y97.468 E1306.31709
G1 X97.468 Y89.871 E1309.00296
G1 X96.476 Y89.871 E1309.25089
G1 X89.871 Y96.476 E1311.58614
G1 X89.871 Y95.485 E1311.83407
G1 X95.485 Y89.871 E1313.81869
G1 X94.493 Y89.871 E1314.06661
G1 X89.871 Y94.493 E1315.70061
G1 X89.871 Y93.501 E1315.94854
G1 X93.501 Y89.871 E1317.23191
G1 X92.509 Y89.871 E1317.47984
G1 X89.871 Y92.509 E1318.41259
G1 X89.871 Y91.518 E1318.66052
G1 X91.518 Y89.871 E1319.24264
G1 X90.526 Y89.871 E1319.49057
G1 X89.871 Y90.526 E1319.72207
G1 Z3.600 F7800.000
G1 X90.526 Y110.129 F7800.000
G1 X89.871 Y109.474 E1319.95357 F4800.000
G1 X89.871 Y108.482 E1320.20149
G1 X91.518 Y110.129 E1320.78362
G1 X92.509 Y110.129 E1321.03155
G1 X89.871 Y107.491 E1321.96429
G1 X89.871 Y106.499 E1322.21222
G1 X93.501 Y110.129 E1323.49559
G1 X94.493 Y110.129 E1323.74352
G1 X89.871 Y105.507 E1325.37752
G1 X89.871 Y104.515 E1325.62545
G1 X95.485 Y110.129 E1327.61007
G1 X96.476 Y110.129 E1327.85800
G1 X89.871 Y103.524 E1330.19324
G1 X89.871 Y102.532 E1330.44117
G1 X97.468 Y110.129 E1333.12704
G1 X98.460 Y110.129 E1333.37497
G1 X89.871 Y101.540 E1336.41146
G1 X89.871 Y100.549 E1336.65939
G1 X99.451 Y110.129 E1340.04650
G1 X100.443 Y110.129 E1340.29443
G1 X89.871 Y99.557 E1344.03217
G1 X89.871 Y98.565 E1344.28010
G1 X101.435 Y110.129 E1348.36847
G1 X102.427 Y110.129 E1348.61640
G1 X89.871 Y97.573 E1353.05538
G1 X89.871 Y96.582 E1353.30331
G1 X103.418 Y110.129 E1358.09293
G1 X104.410 Y110.129 E1358.34086
G1 X89.871 Y95.590 E1363.48109
G1 X89.871 Y94.598 E1363.72902
G1 X105.402 Y110.129 E1369.21988
G1 X106.394 Y110.129 E1369.46781
G1 X89.871 Y93.606 E1375.30930
G1 X89.871 Y92.615 E1375.55723
G1 X107.385 Y110.129 E1381.74934
G1 X108.377 Y110.129 E1381.99726
G1 X89.871 Y91.623 E1388.54000
G1 X89.871 Y90.631 E1388.78793
G1 X109.369 Y110.129 E1395.68129
G1 X110.129 Y109.897 E1395.87993
G1 X90.103 Y89.871 E1402.96011
G1 X91.095 Y89.871 E1403.20804
G1 X110.129 Y108.905 E1409.93760
G1 X110.129 Y107.914 E1410.18553
G1 X92.086 Y89.871 E1416.56446
G1 X93.078 Y89.871 E1416.81239
G1 X110.129 Y106.922 E1422.84070
G1 X110.129 Y105.930 E1423.08863
G1 X94.070 Y89.871 E1428.76631
G1 X95.062 Y89.871 E1429.01424
G1 X110.129 Y104.938 E1434.34130
G1 X110.129 Y103.947 E1434.58923
G1 X96.053 Y89.871 E1439.56567
G1 X97.045 Y89.871 E1439.81360
G1 X110.129 Y102.955 E1444.43941
G1 X110.129 Y101.963 E1444.68734
G1 X98.037 Y89.871 E1448.96253
G1 X99.028 Y89.871 E1449.21045
G1 X110.129 Y100.972 E1453.13502
G1 X110.129 Y99.980 E1453.38295
G1 X100.020 Y89.871 E1456.95689
G1 X101.012 Y89.871 E1457.20482
G1 X110.129 Y98.988 E1460.42813
G1 X110.129 Y97.996 E1460.67606
G1 X102.004 Y89.871 E1463.54875
G1 X102.995 Y89.871 E1463.79668
G1 X110.129 Y97.005 E1466.31875
G1 X110.129 Y96.013 E1466.56668
G1 X103.987 Y89.871 E1468.73812
G1 X104.979 Y89.871 E1468.98605
G1 X110.129 Y95.021 E1470.80687
G1 X110.129 Y94.030 E1471.05480
G1 X105.970 Y89.871 E1472.52499
G1 X106.962 Y89.871 E1472.77292
G1 X110.129 Y93.038 E1473.89249
G1 X110.129 Y92.046 E1474.14042
G1 X107.954 Y89.871 E1474.90937
G1 X108.946 Y89.871 E1475.15730
G1 X110.129 Y91.054 E1475.57562
G1 Z4.000 F7800.000
G1 X108.946 Y110.129 F7800.000
G1 X110.129 Y108.946 E1475.99394 F4800.000
G1 X110.129 Y107.954 E1476.24187
G1 X107.954 Y110.129 E1477.01082
G1 X106.962 Y110.129 E1477.25875
G1 X110.129 Y106.962 E1478.37832
G1 X110.129 Y105.970 E1478.62625
G1 X105.970 Y110.129 E1480.09644
G1 X104.979 Y110.129 E1480.34437
G1 X110.129 Y104.979 E1482.16519
G1 X110.129 Y103.987 E1482.41312
G1 X103.987 Y110.129 E1484.58456
G1 X102.995 Y110.129 E1484.83249
G1 X110.129 Y102.995 E1487.35456
G1 X110.129 Y102.004 E1487.60248
G1 X102.004 Y110.129 E1490.47518
G1 X101.012 Y110.129 E1490.72310
G1 X110.129 Y101.012 E1493.94642
G1 X110.129 Y100.020 E1494.19435
G1 X100.020 Y110.129 E1497.76829
G1 X99.028 Y110.129 E1498.01622
G1 X110.129 Y99.028 E1501.94078
G1 X110.129 Y98.037 E1502.18871
G1 X98.037 Y110.129 E1506.46390
G1 X97.045 Y110.129 E1506.71183
G1 X110.129 Y97.045 E1511.33764
G1 X110.129 Y96.053 E1511.58557
G1 X96.053 Y110.129 E1516.56200
G1 X95.062 Y110.129 E1516.80993
G1 X110.129 Y95.062 E1522.13699
G1 X110.129 Y94.070 E1522.38492
G1 X94.070 Y110.129 E1528.06261
G1 X93.078 Y110.129 E1528.31054
G1 X110.129 Y93.078 E1534.33884
G1 X110.129 Y92.086 E1534.58677
G1 X92.086 Y110.129 E1540.96571
G1 X91.095 Y110.129 E1541.21363
G1 X110.129 Y91.095 E1547.94319
G1 X110.129 Y90.103 E1548.19112
G1 X90.103 Y110.129 E1555.27130
G1 X89.871 Y109.369 E1555.46995
G1 X109.369 Y89.871 E1562.36331
G1 X108.377 Y89.871 E1562.61123
G1 X89.871 Y108.377 E1569.15397
G1 X89.871 Y107.385 E1569.40190
G1 X107.385 Y89.871 E1575.59401
G1 X106.394 Y89.871 E1575.84194
G1 X89.871 Y106.394 E1581.68342
G1 X89.871 Y105.402 E1581.93135
G1 X105.402 Y89.871 E1587.42222
G1 X104.410 Y89.871 E1587.67014
G1 X89.871 Y104.410 E1592.81038
G1 X89.871 Y103.418 E1593.05831
G1 X103.418 Y89.871 E1597.84792
G1 X102.427 Y89.871 E1598.09585
G1 X89.871 Y102.427 E1602.53484
G1 X89.871 Y101.435 E1602.78277
G1 X101.435 Y89.871 E1606.87114
G1 X100.443 Y89.871 E1607.11907
G1 X89.871 Y100.443 E1610.85681
G1 X89.871 Y99.451 E1611.10474
G1 X99.451 Y89.871 E1614.49185
G1 X98.460 Y89.871 E1614.73978
G1 X89.871 Y98.460 E1617.77628
G1 X89.871 Y97.468 E1618.02420
G1 X97.468 Y89.871 E1620.71007
G1 X96.476 Y89.871 E1620.95800
G1 X89.871 Y96.476 E1623.29325
G1 X89.871 Y95.485 E1623.54117
G1 X95.485 Y89.871 E1625.52580
G1 X94.493 Y89.871 E1625.77372
G1 X89.871 Y94.493 E1627.40772
G1 X89.871 Y93.501 E1627.65565
G1 X93.501 Y89.871 E1628.93902
G1 X92.509 Y89.871 E1629.18695
G1 X89.871 Y92.509 E1630.11970
G1 X89.871 Y91.518 E1630.36762
G1 X91.518 Y89.871 E1630.94975
G1 X90.526 Y89.871 E1631.19768
G1 X89.871 Y90.526 E1631.42918
G1 Z4.400 F7800.000
G1 X90.526 Y110.129 F7800.000
G1 X89.871 Y109.474 E1631.66067 F4800.000
G1 X89.871 Y108.482 E1631.90860
G1 X91.518 Y110.129 E1632.49073
G1 X92.509 Y110.129 E1632.73866
G1 X89.871 Y107.491 E1633.67140
G1 X89.871 Y106.499 E1633.91933
G1 X93.501 Y110.129 E1635.20270
G1 X94.493 Y110.129 E1635.45063
G1 X89.871 Y105.507 E1637.08463
G1 X89.871 Y104.515 E1637.33256
G1 X95.485 Y110.129 E1639.31718
G1 X96.476 Y110.129 E1639.56511
G1 X89.871 Y103.524 E1641.90035
G1 X89.871 Y102.532 E1642.14828
G1 X97.468 Y110.129 E1644.83415
G1 X98.460 Y110.129 E1645.08208
G1 X89.871 Y101.540 E1648.11857
G1 X89.871 Y100.549 E1648.36650
G1 X99.451 Y110.129 E1651.75361
G1 X100.443 Y110.129 E1652.00154
G1 X89.871 Y99.557 E1655.73928
G1 X89.871 Y98.565 E1655.98721
G1 X101.435 Y110.129 E1660.07558
G1 X102.427 Y110.129 E1660.32350
G1 X89.871 Y97.573 E1664.76249
G1 X89.871 Y96.582 E1665.01042
G1 X103.418 Y110.129 E1669.80004
G1 X104.410 Y110.129 E1670.04796
G1 X89.871 Y95.590 E1675.18820
G1 X89.871 Y94.598 E1675.43613
G1 X105.402 Y110.129 E1680.92699
G1 X106.394 Y110.129 E1681.17492
G1 X89.871 Y93.606 E1687.01641
G1 X89.871 Y92.615 E1687.26434
G1 X107.385 Y110.129 E1693.45645
G1 X108.377 Y110.129 E1693.70437
G1 X89.871 Y91.623 E1700.24711
G1 X89.871 Y90.631 E1700.49504
G1 X109.369 Y110.129 E1707.38840
G1 X110.129 Y109.897 E1707.58704
G1 X90.103 Y89.871 E1714.66722
G1 X91.095 Y89.871 E1714.91515
G1 X110.129 Y108.905 E1721.64471
G1 X110.129 Y107.914 E1721.89264
G1 X92.086 Y89.871 E1728.27157
G1 X93.078 Y89.871 E1728.51950
G1 X110.129 Y106.922 E1734.54781
G1 X110.129 Y105.930 E1734.79574
G1 X94.070 Y89.871 E1740.47342
G1 X95.062 Y89.871 E1740.72135
G1 X110.129 Y104.938 E1746.04841
G1 X110.129 Y103.947 E1746.29634
G1 X96.053 Y89.871 E1751.27278
G1 X97.045 Y89.871 E1751.52071
G1 X110.129 Y102.955 E1756.14652
G1 X110.129 Y101.963 E1756.39445
G1 X98.037 Y89.871 E1760.66964
G1 X99.028 Y89.871 E1760.91756
G1 X110.129 Y100.972 E1764.84213
G1 X110.129 Y99.980 E1765.09006
G1 X100.020 Y89.871 E1768.66400
G1 X101.012 Y89.871 E1768.91193
G1 X110.129 Y98.988 E1772.13524
G1 X110.129 Y97.996 E1772.38317
G1 X102.004 Y89.871 E1775.25586
G1 X102.995 Y89.871 E1775.50379
G1 X110.129 Y97.005 E1778.02586
G1 X110.129 Y96.013 E1778.27379
G1 X103.987 Y89.871 E1780.44523
G1 X104.979 Y89.871 E1780.69316
G1 X110.129 Y95.021 E1782.51398
G1 X110.129 Y94.030 E1782.76191
G1 X105.970 Y89.871 E1784.23210
G1 X106.962 Y89.871 E1784.48003
G1 X110.129 Y93.038 E1785.59960
G1 X110.129 Y92.046 E1785.84753
G1 X107.954 Y89.871 E1786.61648
G1 X108.946 Y89.871 E1786.86441
G1 X110.129 Y91.054 E1787.28273
G1 Z4.800 F7800.000
G1 X108.946 Y110.129 F7800.000
G1 X110.129 Y108.946 E1787.70105 F4800.000
G1 X110.129 Y107.954 E1787.94898
G1 X107.954 Y110.129 E1788.71793
G1 X106.962 Y110.129 E1788.96586
G1 X110.129 Y106.962 E1790.08543
G1 X110.129 Y105.970 E1790.33336
G1 X105.970 Y110.129 E1791.80355
G1 X104.979 Y110.129 E1792.05148
G1 X110.129 Y104.979 E1793.87230
G1 X110.129 Y103.987 E1794.12023
G1 X103.987 Y110.129 E1796.29167
G1 X102.995 Y110.129 E1796.53960
G1 X110.129 Y102.995 E1799.06167
G1 X110.129 Y102.004 E1799.30959
G1 X102.004 Y110.129 E1802.18229
G1 X101.012 Y110.129 E1802.43021
G1 X110.129 Y101.012 E1805.65353
G1 X110.129 Y100.020 E1805.90146
G1 X100.020 Y110.129 E1809.47540
G1 X99.028 Y110.129 E1809.72333
G1 X110.129 Y99.028 E1813.64789
G1 X110.129 Y98.037 E1813.89582
G1 X98.037 Y110.129 E1818.17101
G1 X97.045 Y110.129 E1818.41894
G1 X110.129 Y97.045 E1823.04475
G1 X110.129 Y96.053 E1823.29268
G1 X96.053 Y110.129 E1828.26911
G1 X95.062 Y110.129 E1828.51704
G1 X110.129 Y95.062 E1833.84410
G1 X110.129 Y94.070 E1834.09203
G1 X94.070 Y110.129 E1839.76972
G1 X93.078 Y110.129 E1840.01764
G1 X110.129 Y93.078 E1846.04595
G1 X110.129 Y92.086 E1846.29388
G1 X92.086 Y110.129 E1852.67281
G1 X91.095 Y110.129 E1852.92074
G1 X110.129 Y91.095 E1859.65030
G1 X110.129 Y90.103 E1859.89823
G1 X90.103 Y110.129 E1866.97841
G1 X89.871 Y109.369 E1867.17706
G1 X109.369 Y89.871 E1874.07042
G1 X108.377 Y89.871 E1874.31834
G1 X89.871 Y108.377 E1880.86108
G1 X89.871 Y107.385 E1881.10901
G1 X107.385 Y89.871 E1887.30112
G1 X106.394 Y89.871 E1887.54905
G1 X89.871 Y106.394 E1893.39053
G1 X89.871 Y105.402 E1893.63846
G1 X105.402 Y89.871 E1899.12932
G1 X104.410 Y89.871 E1899.37725
G1 X89.871 Y104.410 E1904.51749
G1 X89.871 Y103.418 E1904.76542
G1 X103.418 Y89.871 E1909.55503
G1 X102.427 Y89.871 E1909.80296
G1 X89.871 Y102.427 E1914.24195
G1 X89.871 Y101.435 E1914.48988
G1 X101.435 Y89.871 E1918.57825
G1 X100.443 Y89.871 E1918.82618
G1 X89.871 Y100.443 E1922.56392
G1 X89.871 Y99.451 E1922.81185
G1 X99.451 Y89.871 E1926.19896
G1 X98.460 Y89.871 E1926.44689
G1 X89.871 Y98.460 E1929.48338
G1 X89.871 Y97.468 E1929.73131
G1 X97.468 Y89.871 E1932.41718
G1 X96.476 Y89.871 E1932.66511
G1 X89.871 Y96.476 E1935.00036
G1 X89.871 Y95.485 E1935.24828
G1 X95.485 Y89.871 E1937.23290
G1 X94.493 Y89.871 E1937.48083
G1 X89.871 Y94.493 E1939.11483
G1 X89.871 Y93.501 E1939.36276
G1 X93.501 Y89.871 E1940.64613
G1 X92.509 Y89.871 E1940.89406
G1 X89.871 Y92.509 E1941.82681
G1 X89.871 Y91.518 E1942.07473
G1 X91.518 Y89.871 E1942.65686
G1 X90.526 Y89.871 E1942.90479
G1 X89.871 Y90.526 E1943.13629
G1 Z5.200 F7800.000
G1 E1941.13629 F2400.00000
G92 E0
G1 X90.526 Y110.129 F7800.000
G1 E2.00000 F2400.00000
G1 X89.871 Y109.474 E2.23150 F4800.000
G1 X89.871 Y108.482 E2.47943
G1 X91.518 Y110.129 E3.06155
G1 X92.509 Y110.129 E3.30948
G1 X89.871 Y107.491 E4.24223
G1 X89.871 Y106.499 E4.49016
G1 X93.501 Y110.129 E5.77353
G1 X94.493 Y110.129 E6.02146
G1 X89.871 Y105.507 E7.65545
G1 X89.871 Y104.515 E7.90338
G1 X95.485 Y110.129 E9.88800
G1 X96.476 Y110.129 E10.13593
G1 X89.871 Y103.524 E12.47117
G1 X89.871 Y102.532 E12.71910
G1 X97.468 Y110.129 E15.40497
G1 X98.460 Y110.129 E15.65290
G1 X89.871 Y101.540 E18.68939
G1 X89.871 Y100.549 E18.93732
G1 X99.451 Y110.129 E22.32444
G1 X100.443 Y110.129 E22.57237
G1 X89.871 Y99.557 E26.31011
G1 X89.871 Y98.565 E26.55804
G1 X101.435 Y110.129 E30.64640
G1 X102.427 Y110.129 E30.89433
G1 X89.871 Y97.573 E35.33332
G1 X89.871 Y96.582 E35.58125
G1 X103.418 Y110.129 E40.37086
G1 X104.410 Y110.129 E40.61879
G1 X89.871 Y95.590 E45.75903
G1 X89.871 Y94.598 E46.00696
G1 X105.402 Y110.129 E51.49782
G1 X106.394 Y110.129 E51.74575
G1 X89.871 Y93.606 E57.58723
G1 X89.871 Y92.615 E57.83516
G1 X107.385 Y110.129 E64.02727
G1 X108.377 Y110.129 E64.27520
G1 X89.871 Y91.623 E70.81793
G1 X89.871 Y90.631 E71.06586
G1 X109.369 Y110.129 E77.95922
G1 X110.129 Y109.897 E78.15787
G1 X90.103 Y89.871 E85.23805
G1 X91.095 Y89.871 E85.48598
G1 X110.129 Y108.905 E92.21553
G1 X110.129 Y107.914 E92.46346
G1 X92.086 Y89.871 E98.84239
G1 X93.078 Y89.871 E99.09032
G1 X110.129 Y106.922 E105.11863
G1 X110.129 Y105.930 E105.36656
G1 X94.070 Y89.871 E111.04425
G1 X95.062 Y89.871 E111.29217
G1 X110.129 Y104.938 E116.61924
G1 X110.129 Y103.947 E116.86716
G1 X96.053 Y89.871 E121.84360
G1 X97.045 Y89.871 E122.09153
G1 X110.129 Y102.955 E126.71734
G1 X110.129 Y101.963 E126.96527
G1 X98.037 Y89.871 E131.24046
G1 X99.028 Y89.871 E131.48839
G1 X110.129 Y100.972 E135.41295
G1 X110.129 Y99.980 E135.66088
G1 X100.020 Y89.871 E139.23482
G1 X101.012 Y89.871 E139.48275
G1 X110.129 Y98.988 E142.70607
G1 X110.129 Y97.996 E142.95399
G1 X102.004 Y89.871 E145.82669
G1 X102.995 Y89.871 E146.07462
G1 X110.129 Y97.005 E148.59668
G1 X110.129 Y96.013 E148.84461
G1 X103.987 Y89.871 E151.01605
G1 X104.979 Y89.871 E151.26398
G1 X110.129 Y95.021 E153.08480
G1 X110.129 Y94.030 E153.33273
G1 X105.970 Y89.871 E154.80293
G1 X106.962 Y89.871 E155.05086
G1 X110.129 Y93.038 E156.17043
G1 X110.129 Y92.046 E156.41836
G1 X107.954 Y89.871 E157.18730
G1 X108.946 Y89.871 E157.43523
G1 X110.129 Y91.054 E157.85355
G1 E155.85355 F2400.00000
G92 E0
M107
M104 S0 ; turn off temperature
G28 X0  ; home X axis
M84     ; disable motors

; filament used = 2097.0mm (1.6cm3)

; avoid_crossing_perimeters = 0
; bed_shape = 0x0,200x0,200x200,0x200
; bed_temperature = 0
; before_layer_gcode = 
; bridge_acceleration = 0
; bridge_fan_speed = 100
; brim_width = 0
; complete_objects = 0
; cooling = 1
; default_acceleration = 0
; disable_fan_first_layers = 3
; duplicate_distance = 6
; end_gcode = M104 S0 ; turn off temperature\nG28 X0  ; home X axis\nM84     ; disable motors\n
; extruder_clearance_height = 20
; extruder_clearance_radius = 20
; extruder_offset = 0x0
; extrusion_axis = E
; extrusion_multiplier = 1
; fan_always_on = 0
; fan_below_layer_time = 60
; filament_colour = #FFFFFF
; filament_diameter = 1
; first_layer_acceleration = 0
; first_layer_bed_temperature = 0
; first_layer_extrusion_width = 200%
; first_layer_speed = 30
; first_layer_temperature = 200
; gcode_arcs = 0
; gcode_comments = 0
; gcode_flavor = reprap
; infill_acceleration = 0
; infill_first = 0
; layer_gcode = 
; max_fan_speed = 100
; max_print_speed = 80
; max_volumetric_speed = 0
; min_fan_speed = 35
; min_print_speed = 10
; min_skirt_length = 0
; notes = 
; nozzle_diameter = 0.5
; only_retract_when_crossing_perimeters = 1
; ooze_prevention = 0
; output_filename_format = [input_filename_base].gcode
; perimeter_acceleration = 0
; post_process = 
; pressure_advance = 0
; resolution = 0
; retract_before_travel = 2
; retract_layer_change = 0
; retract_length = 2
; retract_length_toolchange = 10
; retract_lift = 0
; retract_restart_extra = 0
; retract_restart_extra_toolchange = 0
; retract_speed = 40
; skirt_distance = 6
; skirt_height = 1
; skirts = 0
; slowdown_below_layer_time = 5
; spiral_vase = 0
; standby_temperature_delta = -5
; start_gcode = G28 ; home all axes\nG1 Z5 F5000 ; lift nozzle\n
; temperature = 200
; threads = 2
; toolchange_gcode = 
; travel_speed = 130
; use_firmware_retraction = 0
; use_relative_e_distances = 0
; use_volumetric_e = 0
; vibration_limit = 0
; wipe = 0
; z_offset = 0
; dont_support_bridges = 1
; extrusion_width = 0
; first_layer_height = 0.4
; infill_only_where_needed = 0
; interface_shells = 0
; layer_height = 0.4
; raft_layers = 0
; seam_position = aligned
; support_material = 0
; support_material_angle = 0
; support_material_contact_distance = 0.2
; support_material_enforce_layers = 0
; support_material_extruder = 1
; support_material_extrusion_width = 0
; support_material_interface_extruder = 1
; support_material_interface_layers = 3
; support_material_interface_spacing = 0
; support_material_interface_speed = 100%
; support_material_pattern = pillars
; support_material_spacing = 2.5
; support_material_speed = 60
; support_material_threshold = 0
; xy_size_compensation = 0
; bottom_solid_layers = 0
; bridge_flow_ratio = 1
; bridge_speed = 60
; external_fill_pattern = rectilinear
; external_perimeter_extrusion_width = 0
; external_perimeter_speed = 50%
; external_perimeters_first = 0
; extra_perimeters = 1
; fill_angle = 45
; fill_density = 70%
; fill_pattern = rectilinear
; gap_fill_speed = 20
; infill_every_layers = 1
; infill_extruder = 1
; infill_extrusion_width = 0
; infill_overlap = 15%
; infill_speed = 80
; overhangs = 1
; perimeter_extruder = 1
; perimeter_extrusion_width = 0
; perimeter_speed = 60
; perimeters = 0
; small_perimeter_speed = 15
; solid_infill_below_area = 70
; solid_infill_every_layers = 0
; solid_infill_extruder = 1
; solid_infill_extrusion_width = 0
; solid_infill_speed = 20
; thin_walls = 1
; top_infill_extrusion_width = 0
; top_solid_infill_speed = 15
; top_solid_layers = 0
