; generated by Slic3r 1.2.9 on 2019-07-31 at 14:54:01

; external perimeters extrusion width = 0.50mm
; perimeters extrusion width = 0.58mm
; infill extrusion width = 0.58mm
; solid infill extrusion width = 0.58mm
; top infill extrusion width = 0.58mm

M107
M104 S200 ; set temperature
G28 ; home all axes
G1 Z5 F5000 ; lift nozzle

M109 S200 ; wait for temperature to be reached
G21 ; set units to millimeters
G90 ; use absolute coordinates
M82 ; use absolute distances for extrusion
G92 E0
G1 Z0.400 F7800.000
G1 E-2.00000 F2400.00000
G92 E0
G1 X89.871 Y109.474 F7800.000
G1 E2.00000 F2400.00000
G1 X90.526 Y110.129 E2.33680 F1800.000
G1 X91.914 Y110.129 E2.84179
G1 X89.871 Y108.086 E3.89275
G1 X89.871 Y106.697 E4.39774
G1 X93.303 Y110.129 E6.16286
G1 X94.691 Y110.129 E6.66784
G1 X89.871 Y105.309 E9.14712
G1 X89.871 Y103.920 E9.65211
G1 X96.080 Y110.129 E12.84555
G1 X97.468 Y110.129 E13.35054
G1 X89.871 Y102.532 E17.25814
G1 X89.871 Y101.144 E17.76312
G1 X98.856 Y110.129 E22.38488
G1 X100.245 Y110.129 E22.88987
G1 X89.871 Y99.755 E28.22579
G1 X89.871 Y98.367 E28.73077
G1 X101.633 Y110.129 E34.78085
G1 X103.022 Y110.129 E35.28584
G1 X89.871 Y96.978 E42.05007
G1 X89.871 Y95.590 E42.55506
G1 X104.410 Y110.129 E50.03345
G1 X105.798 Y110.129 E50.53844
G1 X89.871 Y94.202 E58.73100
G1 X89.871 Y92.813 E59.23598
G1 X107.187 Y110.129 E68.14270
G1 X108.575 Y110.129 E68.64768
G1 X89.871 Y91.425 E78.26856
G1 X89.871 Y90.036 E78.77354
G1 X109.964 Y110.129 E89.10858
G1 X110.129 Y108.905 E89.55757
G1 X91.095 Y89.871 E99.34822
G1 X92.483 Y89.871 E99.85321
G1 X110.129 Y107.517 E108.92970
G1 X110.129 Y106.129 E109.43469
G1 X93.871 Y89.871 E117.79702
G1 X95.260 Y89.871 E118.30201
G1 X110.129 Y104.740 E125.95019
G1 X110.129 Y103.352 E126.45517
G1 X96.648 Y89.871 E133.38919
G1 X98.037 Y89.871 E133.89418
G1 X110.129 Y101.963 E140.11403
G1 X110.129 Y100.575 E140.61902
G1 X99.425 Y89.871 E146.12472
G1 X100.813 Y89.871 E146.62970
G1 X110.129 Y99.187 E151.42124
G1 X110.129 Y97.798 E151.92623
G1 X102.202 Y89.871 E156.00361
G1 X103.590 Y89.871 E156.50859
G1 X110.129 Y96.410 E159.87181
G1 X110.129 Y95.021 E160.37680
G1 X104.979 Y89.871 E163.02586
G1 X106.367 Y89.871 E163.53085
G1 X110.129 Y93.633 E165.46575
G1 X110.129 Y92.245 E165.97074
G1 X107.755 Y89.871 E167.19148
G1 X109.144 Y89.871 E167.69646
G1 X110.129 Y90.856 E168.20305
G1 Z0.800 F7800.000
G1 X109.144 Y110.129 F7800.000
G1 X110.129 Y109.144 E168.55124 F4800.000
G1 X110.129 Y107.755 E168.89834
G1 X107.755 Y110.129 E169.73741
G1 X106.367 Y110.129 E170.08451
G1 X110.129 Y106.367 E171.41446
G1 X110.129 Y104.979 E171.76156
G1 X104.979 Y110.129 E173.58238
G1 X103.590 Y110.129 E173.92948
G1 X110.129 Y103.590 E176.24117
G1 X110.129 Y102.202 E176.58827
G1 X102.202 Y110.129 E179.39084
G1 X100.813 Y110.129 E179.73794
G1 X110.129 Y100.813 E183.03138
G1 X110.129 Y99.425 E183.37848
G1 X99.425 Y110.129 E187.16279
G1 X98.037 Y110.129 E187.50989
G1 X110.129 Y98.037 E191.78508
G1 X110.129 Y96.648 E192.13218
G1 X96.648 Y110.129 E196.89824
G1 X95.260 Y110.129 E197.24534
G1 X110.129 Y95.260 E202.50227
G1 X110.129 Y93.871 E202.84937
G1 X93.871 Y110.129 E208.59718
G1 X92.483 Y110.129 E208.94428
G1 X110.129 Y92.483 E215.18297
G1 X110.129 Y91.095 E215.53007
G1 X91.095 Y110.129 E222.25962
G1 X89.871 Y109.964 E222.56824
G1 X109.964 Y89.871 E229.67197
G1 X108.575 Y89.871 E230.01907
G1 X89.871 Y108.575 E236.63193
G1 X89.871 Y107.187 E236.97903
G1 X107.187 Y89.871 E243.10102
G1 X105.798 Y89.871 E243.44812
G1 X89.871 Y105.798 E249.07923
G1 X89.871 Y104.410 E249.42633
G1 X104.410 Y89.871 E254.56657
G1 X103.022 Y89.871 E254.91367
G1 X89.871 Y103.022 E259.56303
G1 X89.871 Y101.633 E259.91013
G1 X101.633 Y89.871 E264.06863
G1 X100.245 Y89.871 E264.41573
G1 X89.871 Y100.245 E268.08334
G1 X89.871 Y98.856 E268.43044
G1 X98.856 Y89.871 E271.60719
G1 X97.468 Y89.871 E271.95429
G1 X89.871 Y97.468 E274.64016
G1 X89.871 Y96.080 E274.98726
G1 X96.080 Y89.871 E277.18225
G1 X94.691 Y89.871 E277.52935
G1 X89.871 Y94.691 E279.23347
G1 X89.871 Y93.303 E279.58057
G1 X93.303 Y89.871 E280.79382
G1 X91.914 Y89.871 E281.14092
G1 X89.871 Y91.914 E281.86329
G1 X89.871 Y90.526 E282.21039
G1 X90.526 Y89.871 E282.44189
G1 Z1.200 F7800.000
G1 X89.871 Y109.474 F7800.000
G1 X90.526 Y110.129 E282.67339 F4800.000
G1 X91.914 Y110.129 E283.02049
G1 X89.871 Y108.086 E283.74287
G1 X89.871 Y106.697 E284.08997
G1 X93.303 Y110.129 E285.30321
G1 X94.691 Y110.129 E285.65031
G1 X89.871 Y105.309 E287.35444
G1 X89.871 Y103.920 E287.70154
G1 X96.080 Y110.129 E289.89653
G1 X97.468 Y110.129 E290.24363
G1 X89.871 Y102.532 E292.92950
G1 X89.871 Y101.144 E293.27660
G1 X98.856 Y110.129 E296.45334
G1 X100.245 Y110.129 E296.80044
G1 X89.871 Y99.755 E300.46806
G1 X89.871 Y98.367 E300.81516
G1 X101.633 Y110.129 E304.97365
G1 X103.022 Y110.129 E305.32075
G1 X89.871 Y96.978 E309.97011
G1 X89.871 Y95.590 E310.31721
G1 X104.410 Y110.129 E315.45745
G1 X105.798 Y110.129 E315.80455
G1 X89.871 Y94.202 E321.43566
G1 X89.871 Y92.813 E321.78276
G1 X107.187 Y110.129 E327.90475
G1 X108.575 Y110.129 E328.25185
G1 X89.871 Y91.425 E334.86471
G1 X89.871 Y90.036 E335.21181
G1 X109.964 Y110.129 E342.31554
G1 X110.129 Y108.905 E342.62415
G1 X91.095 Y89.871 E349.35371
G1 X92.483 Y89.871 E349.70081
G1 X110.129 Y107.517 E355.93949
G1 X110.129 Y106.129 E356.28659
G1 X93.871 Y89.871 E362.03440
G1 X95.260 Y89.871 E362.38150
G1 X110.129 Y104.740 E367.63844
G1 X110.129 Y103.352 E367.98554
G1 X96.648 Y89.871 E372.75160
G1 X98.037 Y89.871 E373.09870
G1 X110.129 Y101.963 E377.37389
G1 X110.129 Y100.575 E377.72099
G1 X99.425 Y89.871 E381.50530
G1 X100.813 Y89.871 E381.85240
G1 X110.129 Y99.187 E385.14584
G1 X110.129 Y97.798 E385.49294
G1 X102.202 Y89.871 E388.29551
G1 X103.590 Y89.871 E388.64261
G1 X110.129 Y96.410 E390.95430
G1 X110.129 Y95.021 E391.30140
G1 X104.979 Y89.871 E393.12222
G1 X106.367 Y89.871 E393.46932
G1 X110.129 Y93.633 E394.79927
G1 X110.129 Y92.245 E395.14637
G1 X107.755 Y89.871 E395.98544
G1 X109.144 Y89.871 E396.33254
G1 X110.129 Y90.856 E396.68074
M106 S252.45
G1 Z1.600 F7800.000
G1 X109.144 Y110.129 F7800.000
G1 X110.129 Y109.144 E397.02893 F4800.000
G1 X110.129 Y107.755 E397.37603
G1 X107.755 Y110.129 E398.21510
G1 X106.367 Y110.129 E398.56220
G1 X110.129 Y106.367 E399.89215
G1 X110.129 Y104.979 E400.23925
G1 X104.979 Y110.129 E402.06007
G1 X103.590 Y110.129 E402.40717
G1 X110.129 Y103.590 E404.71886
G1 X110.129 Y102.202 E405.06596
G1 X102.202 Y110.129 E407.86853
G1 X100.813 Y110.129 E408.21563
G1 X110.129 Y100.813 E411.50907
G1 X110.129 Y99.425 E411.85617
G1 X99.425 Y110.129 E415.64048
G1 X98.037 Y110.129 E415.98758
G1 X110.129 Y98.037 E420.26277
G1 X110.129 Y96.648 E420.60987
G1 X96.648 Y110.129 E425.37593
G1 X95.260 Y110.129 E425.72303
G1 X110.129 Y95.260 E430.97996
G1 X110.129 Y93.871 E431.32706
G1 X93.871 Y110.129 E437.07487
G1 X92.483 Y110.129 E437.42197
G1 X110.129 Y92.483 E443.66066
G1 X110.129 Y91.095 E444.00776
G1 X91.095 Y110.129 E450.73731
G1 X89.871 Y109.964 E451.04593
G1 X109.964 Y89.871 E458.14966
G1 X108.575 Y89.871 E458.49676
G1 X89.871 Y108.575 E465.10962
G1 X89.871 Y107.187 E465.45672
G1 X107.187 Y89.871 E471.57871
G1 X105.798 Y89.871 E471.92581
G1 X89.871 Y105.798 E477.55692
G1 X89.871 Y104.410 E477.90402
G1 X104.410 Y89.871 E483.04426
G1 X103.022 Y89.871 E483.39136
G1 X89.871 Y103.022 E488.04072
G1 X89.871 Y101.633 E488.38782
G1 X101.633 Y89.871 E492.54631
G1 X100.245 Y89.871 E492.89342
G1 X89.871 Y100.245 E496.56103
G1 X89.871 Y98.856 E496.90813
G1 X98.856 Y89.871 E500.08488
G1 X97.468 Y89.871 E500.43198
G1 X89.871 Y97.468 E503.11784
G1 X89.871 Y96.080 E503.46495
G1 X96.080 Y89.871 E505.65994
G1 X94.691 Y89.871 E506.00704
G1 X89.871 Y94.691 E507.71116
G1 X89.871 Y93.303 E508.05826
G1 X93.303 Y89.871 E509.27151
G1 X91.914 Y89.871 E509.61861
G1 X89.871 Y91.914 E510.34098
G1 X89.871 Y90.526 E510.68808
G1 X90.526 Y89.871 E510.91958
G1 Z2.000 F7800.000
G1 X89.871 Y109.474 F7800.000
G1 X90.526 Y110.129 E511.15108 F4800.000
G1 X91.914 Y110.129 E511.49818
G1 X89.871 Y108.086 E512.22056
G1 X89.871 Y106.697 E512.56766
G1 X93.303 Y110.129 E513.78090
G1 X94.691 Y110.129 E514.12800
G1 X89.871 Y105.309 E515.83212
G1 X89.871 Y103.920 E516.17923
G1 X96.080 Y110.129 E518.37422
G1 X97.468 Y110.129 E518.72132
G1 X89.871 Y102.532 E521.40719
G1 X89.871 Y101.144 E521.75429
G1 X98.856 Y110.129 E524.93103
G1 X100.245 Y110.129 E525.27813
G1 X89.871 Y99.755 E528.94575
G1 X89.871 Y98.367 E529.29285
G1 X101.633 Y110.129 E533.45134
G1 X103.022 Y110.129 E533.79844
G1 X89.871 Y96.978 E538.44780
G1 X89.871 Y95.590 E538.79490
G1 X104.410 Y110.129 E543.93514
G1 X105.798 Y110.129 E544.28224
G1 X89.871 Y94.202 E549.91335
G1 X89.871 Y92.813 E550.26045
G1 X107.187 Y110.129 E556.38244
G1 X108.575 Y110.129 E556.72954
G1 X89.871 Y91.425 E563.34240
G1 X89.871 Y90.036 E563.68950
G1 X109.964 Y110.129 E570.79323
G1 X110.129 Y108.905 E571.10184
G1 X91.095 Y89.871 E577.83140
G1 X92.483 Y89.871 E578.17850
G1 X110.129 Y107.517 E584.41718
G1 X110.129 Y106.129 E584.76428
G1 X93.871 Y89.871 E590.51209
G1 X95.260 Y89.871 E590.85919
G1 X110.129 Y104.740 E596.11613
G1 X110.129 Y103.352 E596.46323
G1 X96.648 Y89.871 E601.22929
G1 X98.037 Y89.871 E601.57639
G1 X110.129 Y101.963 E605.85158
G1 X110.129 Y100.575 E606.19868
G1 X99.425 Y89.871 E609.98299
G1 X100.813 Y89.871 E610.33009
G1 X110.129 Y99.187 E613.62353
G1 X110.129 Y97.798 E613.97063
G1 X102.202 Y89.871 E616.77320
G1 X103.590 Y89.871 E617.12030
G1 X110.129 Y96.410 E619.43199
G1 X110.129 Y95.021 E619.77909
G1 X104.979 Y89.871 E621.59991
G1 X106.367 Y89.871 E621.94701
G1 X110.129 Y93.633 E623.27696
G1 X110.129 Y92.245 E623.62406
G1 X107.755 Y89.871 E624.46313
G1 X109.144 Y89.871 E624.81023
G1 X110.129 Y90.856 E625.15843
G1 Z2.400 F7800.000
G1 X109.144 Y110.129 F7800.000
G1 X110.129 Y109.144 E625.50662 F4800.000
G1 X110.129 Y107.755 E625.85372
G1 X107.755 Y110.129 E626.69279
G1 X106.367 Y110.129 E627.03989
G1 X110.129 Y106.367 E628.36984
G1 X110.129 Y104.979 E628.71694
G1 X104.979 Y110.129 E630.53776
G1 X103.590 Y110.129 E630.88486
G1 X110.129 Y103.590 E633.19655
G1 X110.129 Y102.202 E633.54365
G1 X102.202 Y110.129 E636.34622
G1 X100.813 Y110.129 E636.69332
G1 X110.129 Y100.813 E639.98676
G1 X110.129 Y99.425 E640.33386
G1 X99.425 Y110.129 E644.11817
G1 X98.037 Y110.129 E644.46527
G1 X110.129 Y98.037 E648.74046
G1 X110.129 Y96.648 E649.08756
G1 X96.648 Y110.129 E653.85362
G1 X95.260 Y110.129 E654.20072
G1 X110.129 Y95.260 E659.45765
G1 X110.129 Y93.871 E659.80475
G1 X93.871 Y110.129 E665.55256
G1 X92.483 Y110.129 E665.89966
G1 X110.129 Y92.483 E672.13835
G1 X110.129 Y91.095 E672.48545
G1 X91.095 Y110.129 E679.21500
G1 X89.871 Y109.964 E679.52361
G1 X109.964 Y89.871 E686.62735
G1 X108.575 Y89.871 E686.97445
G1 X89.871 Y108.575 E693.58731
G1 X89.871 Y107.187 E693.93441
G1 X107.187 Y89.871 E700.05640
G1 X105.798 Y89.871 E700.40350
G1 X89.871 Y105.798 E706.03461
G1 X89.871 Y104.410 E706.38171
G1 X104.410 Y89.871 E711.52195
G1 X103.022 Y89.871 E711.86905
G1 X89.871 Y103.022 E716.51841
G1 X89.871 Y101.633 E716.86551
G1 X101.633 Y89.871 E721.02400
G1 X100.245 Y89.871 E721.37110
G1 X89.871 Y100.245 E725.03872
G1 X89.871 Y98.856 E725.38582
G1 X98.856 Y89.871 E728.56257
G1 X97.468 Y89.871 E728.90967
G1 X89.871 Y97.468 E731.59553
G1 X89.871 Y96.080 E731.94263
G1 X96.080 Y89.871 E734.13763
G1 X94.691 Y89.871 E734.48473
G1 X89.871 Y94.691 E736.18885
G1 X89.871 Y93.303 E736.53595
G1 X93.303 Y89.871 E737.74920
G1 X91.914 Y89.871 E738.09630
G1 X89.871 Y91.914 E738.81867
G1 X89.871 Y90.526 E739.16577
G1 X90.526 Y89.871 E739.39727
G1 Z2.800 F7800.000
G1 X89.871 Y109.474 F7800.000
G1 X90.526 Y110.129 E739.62877 F4800.000
G1 X91.914 Y110.129 E739.97587
G1 X89.871 Y108.086 E740.69825
G1 X89.871 Y106.697 E741.04535
G1 X93.303 Y110.129 E742.25859
G1 X94.691 Y110.129 E742.60569
G1 X89.871 Y105.309 E744.30981
G1 X89.871 Y103.920 E744.65691
G1 X96.080 Y110.129 E746.85191
G1 X97.468 Y110.129 E747.19901
G1 X89.871 Y102.532 E749.88488
G1 X89.871 Y101.144 E750.23198
G1 X98.856 Y110.129 E753.40872
G1 X100.245 Y110.129 E753.75582
G1 X89.871 Y99.755 E757.42344
G1 X89.871 Y98.367 E757.77054
G1 X101.633 Y110.129 E761.92903
G1 X103.022 Y110.129 E762.27613
G1 X89.871 Y96.978 E766.92549
G1 X89.871 Y95.590 E767.27259
G1 X104.410 Y110.129 E772.41283
G1 X105.798 Y110.129 E772.75993
G1 X89.871 Y94.202 E778.39104
G1 X89.871 Y92.813 E778.73814
G1 X107.187 Y110.129 E784.86013
G1 X108.575 Y110.129 E785.20723
G1 X89.871 Y91.425 E791.82009
G1 X89.871 Y90.036 E792.16719
G1 X109.964 Y110.129 E799.27092
G1 X110.129 Y108.905 E799.57953
G1 X91.095 Y89.871 E806.30909
G1 X92.483 Y89.871 E806.65619
G1 X110.129 Y107.517 E812.89487
G1 X110.129 Y106.129 E813.24197
G1 X93.871 Y89.871 E818.98978
G1 X95.260 Y89.871 E819.33688
G1 X110.129 Y104.740 E824.59382
G1 X110.129 Y103.352 E824.94092
G1 X96.648 Y89.871 E829.70698
G1 X98.037 Y89.871 E830.05408
G1 X110.129 Y101.963 E834.32927
G1 X110.129 Y100.575 E834.67637
G1 X99.425 Y89.871 E838.46068
G1 X100.813 Y89.871 E838.80778
G1 X110.129 Y99.187 E842.10122
G1 X110.129 Y97.798 E842.44832
G1 X102.202 Y89.871 E845.25089
G1 X103.590 Y89.871 E845.59799
G1 X110.129 Y96.410 E847.90968
G1 X110.129 Y95.021 E848.25678
G1 X104.979 Y89.871 E850.07760
G1 X106.367 Y89.871 E850.42470
G1 X110.129 Y93.633 E851.75465
G1 X110.129 Y92.245 E852.10175
G1 X107.755 Y89.871 E852.94082
G1 X109.144 Y89.871 E853.28792
G1 X110.129 Y90.856 E853.63612
G1 Z3.200 F7800.000
G1 X109.144 Y110.129 F7800.000
G1 X110.129 Y109.144 E853.98431 F4800.000
G1 X110.129 Y107.755 E854.33141
G1 X107.755 Y110.129 E855.17048
G1 X106.367 Y110.129 E855.51758
G1 X110.129 Y106.367 E856.84753
G1 X110.129 Y104.979 E857.19463
G1 X104.979 Y110.129 E859.01545
G1 X103.590 Y110.129 E859.36255
G1 X110.129 Y103.590 E861.67424
G1 X110.129 Y102.202 E862.02134
G1 X102.202 Y110.129 E864.82391
G1 X100.813 Y110.129 E865.17101
G1 X110.129 Y100.813 E868.46445
G1 X110.129 Y99.425 E868.81155
G1 X99.425 Y110.129 E872.59586
G1 X98.037 Y110.129 E872.94296
G1 X110.129 Y98.037 E877.21815
G1 X110.129 Y96.648 E877.56525
G1 X96.648 Y110.129 E882.33131
G1 X95.260 Y110.129 E882.67841
G1 X110.129 Y95.260 E887.93534
G1 X110.129 Y93.871 E888.28244
G1 X93.871 Y110.129 E894.03025
G1 X92.483 Y110.129 E894.37735
G1 X110.129 Y92.483 E900.61604
G1 X110.129 Y91.095 E900.96314
G1 X91.095 Y110.129 E907.69269
G1 X89.871 Y109.964 E908.00130
G1 X109.964 Y89.871 E915.10504
G1 X108.575 Y89.871 E915.45214
G1 X89.871 Y108.575 E922.06500
G1 X89.871 Y107.187 E922.41210
G1 X107.187 Y89.871 E928.53409
G1 X105.798 Y89.871 E928.88119
G1 X89.871 Y105.798 E934.51230
G1 X89.871 Y104.410 E934.85940
G1 X104.410 Y89.871 E939.99964
G1 X103.022 Y89.871 E940.34674
G1 X89.871 Y103.022 E944.99610
G1 X89.871 Y101.633 E945.34320
G1 X101.633 Y89.871 E949.50169
G1 X100.245 Y89.871 E949.84879
G1 X89.871 Y100.245 E953.51641
G1 X89.871 Y98.856 E953.86351
G1 X98.856 Y89.871 E957.04025
G1 X97.468 Y89.871 E957.38735
G1 X89.871 Y97.468 E960.07322
G1 X89.871 Y96.080 E960.42032
G1 X96.080 Y89.871 E962.61532
G1 X94.691 Y89.871 E962.96242
G1 X89.871 Y94.691 E964.66654
G1 X89.871 Y93.303 E965.01364
G1 X93.303 Y89.871 E966.22689
G1 X91.914 Y89.871 E966.57399
G1 X89.871 Y91.914 E967.29636
G1 X89.871 Y90.526 E967.64346
G1 X90.526 Y89.871 E967.87496
G1 Z3.600 F7800.000
G1 X89.871 Y109.474 F7800.000
G1 X90.526 Y110.129 E968.10646 F4800.000
G1 X91.914 Y110.129 E968.45356
G1 X89.871 Y108.086 E969.17594
G1 X89.871 Y106.697 E969.52304
G1 X93.303 Y110.129 E970.73628
G1 X94.691 Y110.129 E971.08338
G1 X89.871 Y105.309 E972.78750
G1 X89.871 Y103.920 E973.13460
G1 X96.080 Y110.129 E975.32960
G1 X97.468 Y110.129 E975.67670
G1 X89.871 Y102.532 E978.36257
G1 X89.871 Y101.144 E978.70967
G1 X98.856 Y110.129 E981.88641
G1 X100.245 Y110.129 E982.23351
G1 X89.871 Y99.755 E985.90113
G1 X89.871 Y98.367 E986.24823
G1 X101.633 Y110.129 E990.40672
G1 X103.022 Y110.129 E990.75382
G1 X89.871 Y96.978 E995.40318
G1 X89.871 Y95.590 E995.75028
G1 X104.410 Y110.129 E1000.89052
G1 X105.798 Y110.129 E1001.23762
G1 X89.871 Y94.202 E1006.86873
G1 X89.871 Y92.813 E1007.21583
G1 X107.187 Y110.129 E1013.33782
G1 X108.575 Y110.129 E1013.68492
G1 X89.871 Y91.425 E1020.29778
G1 X89.871 Y90.036 E1020.64488
G1 X109.964 Y110.129 E1027.74861
G1 X110.129 Y108.905 E1028.05722
G1 X91.095 Y89.871 E1034.78678
G1 X92.483 Y89.871 E1035.13388
G1 X110.129 Y107.517 E1041.37256
G1 X110.129 Y106.129 E1041.71966
G1 X93.871 Y89.871 E1047.46747
G1 X95.260 Y89.871 E1047.81457
G1 X110.129 Y104.740 E1053.07151
G1 X110.129 Y103.352 E1053.41861
G1 X96.648 Y89.871 E1058.18467
G1 X98.037 Y89.871 E1058.53177
G1 X110.129 Y101.963 E1062.80696
G1 X110.129 Y100.575 E1063.15406
G1 X99.425 Y89.871 E1066.93837
G1 X100.813 Y89.871 E1067.28547
G1 X110.129 Y99.187 E1070.57891
G1 X110.129 Y97.798 E1070.92601
G1 X102.202 Y89.871 E1073.72858
G1 X103.590 Y89.871 E1074.07568
G1 X110.129 Y96.410 E1076.38737
G1 X110.129 Y95.021 E1076.73447
G1 X104.979 Y89.871 E1078.55529
G1 X106.367 Y89.871 E1078.90239
G1 X110.129 Y93.633 E1080.23234
G1 X110.129 Y92.245 E1080.57944
G1 X107.755 Y89.871 E1081.41851
G1 X109.144 Y89.871 E1081.76561
G1 X110.129 Y90.856 E1082.11381
G1 Z4.000 F7800.000
G1 X109.144 Y110.129 F7800.000
G1 X110.129 Y109.144 E1082.46200 F4800.000
G1 X110.129 Y107.755 E1082.80910
G1 X107.755 Y110.129 E1083.64817
G1 X106.367 Y110.129 E1083.99527
G1 X110.129 Y106.367 E1085.32522
G1 X110.129 Y104.979 E1085.67232
G1 X104.979 Y110.129 E1087.49314
G1 X103.590 Y110.129 E1087.84024
G1 X110.129 Y103.590 E1090.15193
G1 X110.129 Y102.202 E1090.49903
G1 X102.202 Y110.129 E1093.30160
G1 X100.813 Y110.129 E1093.64870
G1 X110.129 Y100.813 E1096.94214
G1 X110.129 Y99.425 E1097.28924
G1 X99.425 Y110.129 E1101.07355
G1 X98.037 Y110.129 E1101.42065
G1 X110.129 Y98.037 E1105.69584
G1 X110.129 Y96.648 E1106.04294
G1 X96.648 Y110.129 E1110.80900
G1 X95.260 Y110.129 E1111.15610
G1 X110.129 Y95.260 E1116.41303
G1 X110.129 Y93.871 E1116.76013
G1 X93.871 Y110.129 E1122.50794
G1 X92.483 Y110.129 E1122.85504
G1 X110.129 Y92.483 E1129.09372
G1 X110.129 Y91.095 E1129.44083
G1 X91.095 Y110.129 E1136.17038
G1 X89.871 Y109.964 E1136.47899
G1 X109.964 Y89.871 E1143.58273
G1 X108.575 Y89.871 E1143.92983
G1 X89.871 Y108.575 E1150.54269
G1 X89.871 Y107.187 E1150.88979
G1 X107.187 Y89.871 E1157.01178
G1 X105.798 Y89.871 E1157.35888
G1 X89.871 Y105.798 E1162.98999
G1 X89.871 Y104.410 E1163.33709
G1 X104.410 Y89.871 E1168.47733
G1 X103.022 Y89.871 E1168.82443
G1 X89.871 Y103.022 E1173.47379
G1 X89.871 Y101.633 E1173.82089
G1 X101.633 Y89.871 E1177.97938
G1 X100.245 Y89.871 E1178.32648
G1 X89.871 Y100.245 E1181.99410
G1 X89.871 Y98.856 E1182.34120
G1 X98.856 Y89.871 E1185.51794
G1 X97.468 Y89.871 E1185.86504
G1 X89.871 Y97.468 E1188.55091
G1 X89.871 Y96.080 E1188.89801
G1 X96.080 Y89.871 E1191.09301
G1 X94.691 Y89.871 E1191.44011
G1 X89.871 Y94.691 E1193.14423
G1 X89.871 Y93.303 E1193.49133
G1 X93.303 Y89.871 E1194.70458
G1 X91.914 Y89.871 E1195.05168
G1 X89.871 Y91.914 E1195.77405
G1 X89.871 Y90.526 E1196.12115
G1 X90.526 Y89.871 E1196.35265
G1 Z4.400 F7800.000
G1 X89.871 Y109.474 F7800.000
G1 X90.526 Y110.129 E1196.58415 F4800.000
G1 X91.914 Y110.129 E1196.93125
G1 X89.871 Y108.086 E1197.65363
G1 X89.871 Y106.697 E1198.00073
G1 X93.303 Y110.129 E1199.21397
G1 X94.691 Y110.129 E1199.56107
G1 X89.871 Y105.309 E1201.26519
G1 X89.871 Y103.920 E1201.61229
G1 X96.080 Y110.129 E1203.80729
G1 X97.468 Y110.129 E1204.15439
G1 X89.871 Y102.532 E1206.84026
G1 X89.871 Y101.144 E1207.18736
G1 X98.856 Y110.129 E1210.36410
G1 X100.245 Y110.129 E1210.71120
G1 X89.871 Y99.755 E1214.37882
G1 X89.871 Y98.367 E1214.72592
G1 X101.633 Y110.129 E1218.88441
G1 X103.022 Y110.129 E1219.23151
G1 X89.871 Y96.978 E1223.88087
G1 X89.871 Y95.590 E1224.22797
G1 X104.410 Y110.129 E1229.36821
G1 X105.798 Y110.129 E1229.71531
G1 X89.871 Y94.202 E1235.34642
G1 X89.871 Y92.813 E1235.69352
G1 X107.187 Y110.129 E1241.81551
G1 X108.575 Y110.129 E1242.16261
G1 X89.871 Y91.425 E1248.77547
G1 X89.871 Y90.036 E1249.12257
G1 X109.964 Y110.129 E1256.22630
G1 X110.129 Y108.905 E1256.53491
G1 X91.095 Y89.871 E1263.26447
G1 X92.483 Y89.871 E1263.61157
G1 X110.129 Y107.517 E1269.85025
G1 X110.129 Y106.129 E1270.19735
G1 X93.871 Y89.871 E1275.94516
G1 X95.260 Y89.871 E1276.29226
G1 X110.129 Y104.740 E1281.54920
G1 X110.129 Y103.352 E1281.89630
G1 X96.648 Y89.871 E1286.66236
G1 X98.037 Y89.871 E1287.00946
G1 X110.129 Y101.963 E1291.28465
G1 X110.129 Y100.575 E1291.63175
G1 X99.425 Y89.871 E1295.41606
G1 X100.813 Y89.871 E1295.76316
G1 X110.129 Y99.187 E1299.05660
G1 X110.129 Y97.798 E1299.40370
G1 X102.202 Y89.871 E1302.20627
G1 X103.590 Y89.871 E1302.55337
G1 X110.129 Y96.410 E1304.86506
G1 X110.129 Y95.021 E1305.21216
G1 X104.979 Y89.871 E1307.03298
G1 X106.367 Y89.871 E1307.38008
G1 X110.129 Y93.633 E1308.71003
G1 X110.129 Y92.245 E1309.05713
G1 X107.755 Y89.871 E1309.89620
G1 X109.144 Y89.871 E1310.24330
G1 X110.129 Y90.856 E1310.59150
G1 Z4.800 F7800.000
G1 X109.144 Y110.129 F7800.000
G1 X110.129 Y109.144 E1310.93969 F4800.000
G1 X110.129 Y107.755 E1311.28679
G1 X107.755 Y110.129 E1312.12586
G1 X106.367 Y110.129 E1312.47296
G1 X110.129 Y106.367 E1313.80291
G1 X110.129 Y104.979 E1314.15001
G1 X104.979 Y110.129 E1315.97083
G1 X103.590 Y110.129 E1316.31793
G1 X110.129 Y103.590 E1318.62962
G1 X110.129 Y102.202 E1318.97672
G1 X102.202 Y110.129 E1321.77928
G1 X100.813 Y110.129 E1322.12638
G1 X110.129 Y100.813 E1325.41982
G1 X110.129 Y99.425 E1325.76692
G1 X99.425 Y110.129 E1329.55124
G1 X98.037 Y110.129 E1329.89834
G1 X110.129 Y98.037 E1334.17353
G1 X110.129 Y96.648 E1334.52063
G1 X96.648 Y110.129 E1339.28669
G1 X95.260 Y110.129 E1339.63379
G1 X110.129 Y95.260 E1344.89072
G1 X110.129 Y93.871 E1345.23782
G1 X93.871 Y110.129 E1350.98563
G1 X92.483 Y110.129 E1351.33273
G1 X110.129 Y92.483 E1357.57141
G1 X110.129 Y91.095 E1357.91851
G1 X91.095 Y110.129 E1364.64807
G1 X89.871 Y109.964 E1364.95668
G1 X109.964 Y89.871 E1372.06042
G1 X108.575 Y89.871 E1372.40752
G1 X89.871 Y108.575 E1379.02038
G1 X89.871 Y107.187 E1379.36748
G1 X107.187 Y89.871 E1385.48947
G1 X105.798 Y89.871 E1385.83657
G1 X89.871 Y105.798 E1391.46768
G1 X89.871 Y104.410 E1391.81478
G1 X104.410 Y89.871 E1396.95502
G1 X103.022 Y89.871 E1397.30212
G1 X89.871 Y103.022 E1401.95148
G1 X89.871 Y101.633 E1402.29858
G1 X101.633 Y89.871 E1406.45707
G1 X100.245 Y89.871 E1406.80417
G1 X89.871 Y100.245 E1410.47179
G1 X89.871 Y98.856 E1410.81889
G1 X98.856 Y89.871 E1413.99563
G1 X97.468 Y89.871 E1414.34273
G1 X89.871 Y97.468 E1417.02860
G1 X89.871 Y96.080 E1417.37570
G1 X96.080 Y89.871 E1419.57070
G1 X94.691 Y89.871 E1419.91780
G1 X89.871 Y94.691 E1421.62192
G1 X89.871 Y93.303 E1421.96902
G1 X93.303 Y89.871 E1423.18227
G1 X91.914 Y89.871 E1423.52937
G1 X89.871 Y91.914 E1424.25174
G1 X89.871 Y90.526 E1424.59884
G1 X90.526 Y89.871 E1424.83034
G1 Z5.200 F7800.000
G1 E1422.83034 F2400.00000
G92 E0
G1 X89.871 Y109.474 F7800.000
G1 E2.00000 F2400.00000
G1 X90.526 Y110.129 E2.23150 F4800.000
G1 X91.914 Y110.129 E2.57860
G1 X89.871 Y108.086 E3.30097
G1 X89.871 Y106.697 E3.64807
G1 X93.303 Y110.129 E4.86132
G1 X94.691 Y110.129 E5.20842
G1 X89.871 Y105.309 E6.91254
G1 X89.871 Y103.920 E7.25964
G1 X96.080 Y110.129 E9.45464
G1 X97.468 Y110.129 E9.80174
G1 X89.871 Y102.532 E12.48761
G1 X89.871 Y101.144 E12.83471
G1 X98.856 Y110.129 E16.01145
G1 X100.245 Y110.129 E16.35855
G1 X89.871 Y99.755 E20.02617
G1 X89.871 Y98.367 E20.37327
G1 X101.633 Y110.129 E24.53176
G1 X103.022 Y110.129 E24.87886
G1 X89.871 Y96.978 E29.52822
G1 X89.871 Y95.590 E29.87532
G1 X104.410 Y110.129 E35.01556
G1 X105.798 Y110.129 E35.36266
G1 X89.871 Y94.202 E40.99377
G1 X89.871 Y92.813 E41.34087
G1 X107.187 Y110.129 E47.46286
G1 X108.575 Y110.129 E47.80996
G1 X89.871 Y91.425 E54.42282
G1 X89.871 Y90.036 E54.76992
G1 X109.964 Y110.129 E61.87365
G1 X110.129 Y108.905 E62.18226
G1 X91.095 Y89.871 E68.91182
G1 X92.483 Y89.871 E69.25892
G1 X110.129 Y107.517 E75.49760
G1 X110.129 Y106.129 E75.84470
G1 X93.871 Y89.871 E81.59251
G1 X95.260 Y89.871 E81.93961
G1 X110.129 Y104.740 E87.19655
G1 X110.129 Y103.352 E87.54365
G1 X96.648 Y89.871 E92.30971
G1 X98.037 Y89.871 E92.65681
G1 X110.129 Y101.963 E96.93200
G1 X110.129 Y100.575 E97.27910
G1 X99.425 Y89.871 E101.06341
G1 X100.813 Y89.871 E101.41051
G1 X110.129 Y99.187 E104.70395
G1 X110.129 Y97.798 E105.05105
G1 X102.202 Y89.871 E107.85362
G1 X103.590 Y89.871 E108.20072
G1 X110.129 Y96.410 E110.51241
G1 X110.129 Y95.021 E110.85951
G1 X104.979 Y89.871 E112.68033
G1 X106.367 Y89.871 E113.02743
G1 X110.129 Y93.633 E114.35737
G1 X110.129 Y92.245 E114.70447
G1 X107.755 Y89.871 E115.54355
G1 X109.144 Y89.871 E115.89065
G1 X110.129 Y90.856 E116.23884
G1 E114.23884 F2400.00000
G92 E0
M107
M104 S0 ; turn off temperature
G28 X0  ; home X axis
M84     ; disable motors

; filament used = 1537.1mm (1.2cm3)

; avoid_crossing_perimeters = 0
; bed_shape = 0x0,200x0,200x200,0x200
; bed_temperature = 0
; before_layer_gcode = 
; bridge_acceleration = 0
; bridge_fan_speed = 100
; brim_width = 0
; complete_objects = 0
; cooling = 1
; default_acceleration = 0
; disable_fan_first_layers = 3
; duplicate_distance = 6
; end_gcode = M104 S0 ; turn off temperature\nG28 X0  ; home X axis\nM84     ; disable motors\n
; extruder_clearance_height = 20
; extruder_clearance_radius = 20
; extruder_offset = 0x0
; extrusion_axis = E
; extrusion_multiplier = 1
; fan_always_on = 0
; fan_below_layer_time = 60
; filament_colour = #FFFFFF
; filament_diameter = 1
; first_layer_acceleration = 0
; first_layer_bed_temperature = 0
; first_layer_extrusion_width = 200%
; first_layer_speed = 30
; first_layer_temperature = 200
; gcode_arcs = 0
; gcode_comments = 0
; gcode_flavor = reprap
; infill_acceleration = 0
; infill_first = 0
; layer_gcode = 
; max_fan_speed = 100
; max_print_speed = 80
; max_volumetric_speed = 0
; min_fan_speed = 35
; min_print_speed = 10
; min_skirt_length = 0
; notes = 
; nozzle_diameter = 0.5
; only_retract_when_crossing_perimeters = 1
; ooze_prevention = 0
; output_filename_format = [input_filename_base].gcode
; perimeter_acceleration = 0
; post_process = 
; pressure_advance = 0
; resolution = 0
; retract_before_travel = 2
; retract_layer_change = 0
; retract_length = 2
; retract_length_toolchange = 10
; retract_lift = 0
; retract_restart_extra = 0
; retract_restart_extra_toolchange = 0
; retract_speed = 40
; skirt_distance = 6
; skirt_height = 1
; skirts = 0
; slowdown_below_layer_time = 5
; spiral_vase = 0
; standby_temperature_delta = -5
; start_gcode = G28 ; home all axes\nG1 Z5 F5000 ; lift nozzle\n
; temperature = 200
; threads = 2
; toolchange_gcode = 
; travel_speed = 130
; use_firmware_retraction = 0
; use_relative_e_distances = 0
; use_volumetric_e = 0
; vibration_limit = 0
; wipe = 0
; z_offset = 0
; dont_support_bridges = 1
; extrusion_width = 0
; first_layer_height = 0.4
; infill_only_where_needed = 0
; interface_shells = 0
; layer_height = 0.4
; raft_layers = 0
; seam_position = aligned
; support_material = 0
; support_material_angle = 0
; support_material_contact_distance = 0.2
; support_material_enforce_layers = 0
; support_material_extruder = 1
; support_material_extrusion_width = 0
; support_material_interface_extruder = 1
; support_material_interface_layers = 3
; support_material_interface_spacing = 0
; support_material_interface_speed = 100%
; support_material_pattern = pillars
; support_material_spacing = 2.5
; support_material_speed = 60
; support_material_threshold = 0
; xy_size_compensation = 0
; bottom_solid_layers = 0
; bridge_flow_ratio = 1
; bridge_speed = 60
; external_fill_pattern = rectilinear
; external_perimeter_extrusion_width = 0
; external_perimeter_speed = 50%
; external_perimeters_first = 0
; extra_perimeters = 1
; fill_angle = 45
; fill_density = 50%
; fill_pattern = rectilinear
; gap_fill_speed = 20
; infill_every_layers = 1
; infill_extruder = 1
; infill_extrusion_width = 0
; infill_overlap = 15%
; infill_speed = 80
; overhangs = 1
; perimeter_extruder = 1
; perimeter_extrusion_width = 0
; perimeter_speed = 60
; perimeters = 0
; small_perimeter_speed = 15
; solid_infill_below_area = 70
; solid_infill_every_layers = 0
; solid_infill_extruder = 1
; solid_infill_extrusion_width = 0
; solid_infill_speed = 20
; thin_walls = 1
; top_infill_extrusion_width = 0
; top_solid_infill_speed = 15
; top_solid_layers = 0
