; generated by Slic3r 1.2.9 on 2019-06-17 at 11:00:41

; external perimeters extrusion width = 0.50mm
; perimeters extrusion width = 0.52mm
; infill extrusion width = 0.52mm
; solid infill extrusion width = 0.52mm
; top infill extrusion width = 0.52mm

M107
M104 S200 ; set temperature
G28 ; home all axes
G1 Z5 F5000 ; lift nozzle

M109 S200 ; wait for temperature to be reached
G21 ; set units to millimeters
G90 ; use absolute coordinates
M82 ; use absolute distances for extrusion
G92 E0
G1 Z0.500 F7800.000
G1 E-2.00000 F2400.00000
G92 E0
G1 X90.325 Y108.458 F7800.000
G1 E2.00000 F2400.00000
G1 X90.967 Y109.100 E2.51596 F1800.000
G1 X92.444 Y109.100 E3.35523
G1 X90.325 Y106.981 E5.05810
G1 X90.325 Y105.504 E5.89737
G1 X93.921 Y109.100 E8.78716
G1 X95.398 Y109.100 E9.62643
G1 X90.325 Y104.027 E13.70312
G1 X90.325 Y102.551 E14.54240
G1 X96.874 Y109.100 E19.80600
G1 X98.351 Y109.100 E20.64528
G1 X90.325 Y101.074 E27.09580
G1 X90.325 Y99.597 E27.93507
G1 X99.828 Y109.100 E35.57250
G1 X101.305 Y109.100 E36.41178
G1 X90.325 Y98.120 E45.23612
G1 X90.325 Y96.643 E46.07539
G1 X102.782 Y109.100 E56.08665
G1 X104.258 Y109.100 E56.92593
G1 X90.325 Y95.167 E68.12410
G1 X90.325 Y93.690 E68.96337
G1 X105.735 Y109.100 E81.34845
G1 X107.212 Y109.100 E82.18772
G1 X90.325 Y92.213 E95.75972
G1 X90.489 Y90.900 E96.51165
G1 X108.689 Y109.100 E111.13884
G1 X109.675 Y108.609 E111.76481
G1 X91.966 Y90.900 E125.99764
G1 X93.443 Y90.900 E126.83692
G1 X109.675 Y107.132 E139.88284
G1 X109.675 Y105.656 E140.72211
G1 X94.919 Y90.900 E152.58112
G1 X96.396 Y90.900 E153.42040
G1 X109.675 Y104.179 E164.09249
G1 X109.675 Y102.702 E164.93177
G1 X97.873 Y90.900 E174.41695
G1 X99.350 Y90.900 E175.25623
G1 X109.675 Y101.225 E183.55450
G1 X109.675 Y99.748 E184.39377
G1 X100.827 Y90.900 E191.50513
G1 X102.303 Y90.900 E192.34441
G1 X109.675 Y98.272 E198.26885
G1 X109.675 Y96.795 E199.10813
G1 X103.780 Y90.900 E203.84566
G1 X105.257 Y90.900 E204.68493
G1 X109.675 Y95.318 E208.23556
G1 X109.675 Y93.841 E209.07483
G1 X106.734 Y90.900 E211.43854
G1 X108.211 Y90.900 E212.27781
G1 X109.675 Y92.364 E213.45461
G1 Z1.000 F7800.000
G1 X108.211 Y109.100 F7800.000
G1 X109.675 Y107.636 E214.00524 F4471.263
G1 X109.675 Y106.159 E214.39794
G1 X106.734 Y109.100 E215.50394
G1 X105.257 Y109.100 E215.89664
G1 X109.675 Y104.682 E217.55799
G1 X109.675 Y103.205 E217.95069
G1 X103.780 Y109.100 E220.16742
G1 X102.303 Y109.100 E220.56012
G1 X109.675 Y101.728 E223.33220
G1 X109.675 Y100.252 E223.72490
G1 X100.827 Y109.100 E227.05235
G1 X99.350 Y109.100 E227.44505
G1 X109.675 Y98.775 E231.32786
G1 X109.675 Y97.298 E231.72056
G1 X97.873 Y109.100 E236.15873
G1 X96.396 Y109.100 E236.55143
G1 X109.675 Y95.821 E241.54497
G1 X109.675 Y94.344 E241.93767
G1 X94.919 Y109.100 E247.48657
G1 X93.443 Y109.100 E247.87927
G1 X109.675 Y92.868 E253.98353
G1 X109.675 Y91.391 E254.37623
G1 X91.966 Y109.100 E261.03586
G1 X90.489 Y109.100 E261.42856
G1 X108.689 Y90.900 E268.27271
G1 X107.212 Y90.900 E268.66541
G1 X90.325 Y107.787 E275.01583
G1 X90.325 Y106.310 E275.40853
G1 X105.735 Y90.900 E281.20358
G1 X104.258 Y90.900 E281.59628
G1 X90.325 Y104.833 E286.83597
G1 X90.325 Y103.357 E287.22867
G1 X102.782 Y90.900 E291.91299
G1 X101.305 Y90.900 E292.30569
G1 X90.325 Y101.880 E296.43466
G1 X90.325 Y100.403 E296.82736
G1 X99.828 Y90.900 E300.40096
G1 X98.351 Y90.900 E300.79366
G1 X90.325 Y98.926 E303.81189
G1 X90.325 Y97.449 E304.20459
G1 X96.874 Y90.900 E306.66747
G1 X95.398 Y90.900 E307.06017
G1 X90.325 Y95.973 E308.96768
G1 X90.325 Y94.496 E309.36038
G1 X93.921 Y90.900 E310.71252
G1 X92.444 Y90.900 E311.10522
G1 X90.325 Y93.019 E311.90200
G1 X90.325 Y91.542 E312.29471
G1 X90.967 Y90.900 E312.53612
G1 Z1.500 F7800.000
G1 X90.325 Y108.458 F7800.000
G1 X90.967 Y109.100 E312.77754 F4464.915
G1 X92.444 Y109.100 E313.17024
G1 X90.325 Y106.981 E313.96703
G1 X90.325 Y105.504 E314.35973
G1 X93.921 Y109.100 E315.71187
G1 X95.398 Y109.100 E316.10457
G1 X90.325 Y104.027 E318.01208
G1 X90.325 Y102.551 E318.40478
G1 X96.874 Y109.100 E320.86766
G1 X98.351 Y109.100 E321.26036
G1 X90.325 Y101.074 E324.27859
G1 X90.325 Y99.597 E324.67129
G1 X99.828 Y109.100 E328.24489
G1 X101.305 Y109.100 E328.63759
G1 X90.325 Y98.120 E332.76655
G1 X90.325 Y96.643 E333.15926
G1 X102.782 Y109.100 E337.84358
G1 X104.258 Y109.100 E338.23628
G1 X90.325 Y95.167 E343.47597
G1 X90.325 Y93.690 E343.86867
G1 X105.735 Y109.100 E349.66372
G1 X107.212 Y109.100 E350.05642
G1 X90.325 Y92.213 E356.40684
G1 X90.489 Y90.900 E356.75867
G1 X108.689 Y109.100 E363.60282
G1 X109.675 Y108.609 E363.89571
G1 X91.966 Y90.900 E370.55534
G1 X93.443 Y90.900 E370.94804
G1 X109.675 Y107.132 E377.05230
G1 X109.675 Y105.656 E377.44500
G1 X94.919 Y90.900 E382.99390
G1 X96.396 Y90.900 E383.38660
G1 X109.675 Y104.179 E388.38014
G1 X109.675 Y102.702 E388.77284
G1 X97.873 Y90.900 E393.21101
G1 X99.350 Y90.900 E393.60371
G1 X109.675 Y101.225 E397.48652
G1 X109.675 Y99.748 E397.87922
G1 X100.827 Y90.900 E401.20667
G1 X102.303 Y90.900 E401.59937
G1 X109.675 Y98.272 E404.37145
G1 X109.675 Y96.795 E404.76415
G1 X103.780 Y90.900 E406.98087
G1 X105.257 Y90.900 E407.37358
G1 X109.675 Y95.318 E409.03493
G1 X109.675 Y93.841 E409.42763
G1 X106.734 Y90.900 E410.53363
G1 X108.211 Y90.900 E410.92633
G1 X109.675 Y92.364 E411.47696
M106 S255
G1 Z2.000 F7800.000
G1 X108.211 Y109.100 F7800.000
G1 X109.675 Y107.636 E412.02759 F4471.263
G1 X109.675 Y106.159 E412.42029
G1 X106.734 Y109.100 E413.52628
G1 X105.257 Y109.100 E413.91898
G1 X109.675 Y104.682 E415.58034
G1 X109.675 Y103.205 E415.97304
G1 X103.780 Y109.100 E418.18976
G1 X102.303 Y109.100 E418.58246
G1 X109.675 Y101.728 E421.35455
G1 X109.675 Y100.252 E421.74725
G1 X100.827 Y109.100 E425.07469
G1 X99.350 Y109.100 E425.46740
G1 X109.675 Y98.775 E429.35021
G1 X109.675 Y97.298 E429.74291
G1 X97.873 Y109.100 E434.18108
G1 X96.396 Y109.100 E434.57378
G1 X109.675 Y95.821 E439.56732
G1 X109.675 Y94.344 E439.96002
G1 X94.919 Y109.100 E445.50892
G1 X93.443 Y109.100 E445.90162
G1 X109.675 Y92.868 E452.00588
G1 X109.675 Y91.391 E452.39858
G1 X91.966 Y109.100 E459.05821
G1 X90.489 Y109.100 E459.45091
G1 X108.689 Y90.900 E466.29506
G1 X107.212 Y90.900 E466.68776
G1 X90.325 Y107.787 E473.03817
G1 X90.325 Y106.310 E473.43087
G1 X105.735 Y90.900 E479.22593
G1 X104.258 Y90.900 E479.61863
G1 X90.325 Y104.833 E484.85832
G1 X90.325 Y103.357 E485.25102
G1 X102.782 Y90.900 E489.93534
G1 X101.305 Y90.900 E490.32804
G1 X90.325 Y101.880 E494.45700
G1 X90.325 Y100.403 E494.84971
G1 X99.828 Y90.900 E498.42330
G1 X98.351 Y90.900 E498.81600
G1 X90.325 Y98.926 E501.83424
G1 X90.325 Y97.449 E502.22694
G1 X96.874 Y90.900 E504.68981
G1 X95.398 Y90.900 E505.08251
G1 X90.325 Y95.973 E506.99002
G1 X90.325 Y94.496 E507.38272
G1 X93.921 Y90.900 E508.73487
G1 X92.444 Y90.900 E509.12757
G1 X90.325 Y93.019 E509.92435
G1 X90.325 Y91.542 E510.31705
G1 X90.967 Y90.900 E510.55847
G1 Z2.500 F7800.000
G1 X90.325 Y108.458 F7800.000
G1 X90.967 Y109.100 E510.79989 F4464.915
G1 X92.444 Y109.100 E511.19259
G1 X90.325 Y106.981 E511.98937
G1 X90.325 Y105.504 E512.38208
G1 X93.921 Y109.100 E513.73422
G1 X95.398 Y109.100 E514.12692
G1 X90.325 Y104.027 E516.03443
G1 X90.325 Y102.551 E516.42713
G1 X96.874 Y109.100 E518.89000
G1 X98.351 Y109.100 E519.28270
G1 X90.325 Y101.074 E522.30094
G1 X90.325 Y99.597 E522.69364
G1 X99.828 Y109.100 E526.26724
G1 X101.305 Y109.100 E526.65994
G1 X90.325 Y98.120 E530.78890
G1 X90.325 Y96.643 E531.18160
G1 X102.782 Y109.100 E535.86593
G1 X104.258 Y109.100 E536.25863
G1 X90.325 Y95.167 E541.49832
G1 X90.325 Y93.690 E541.89102
G1 X105.735 Y109.100 E547.68607
G1 X107.212 Y109.100 E548.07877
G1 X90.325 Y92.213 E554.42919
G1 X90.489 Y90.900 E554.78102
G1 X108.689 Y109.100 E561.62517
G1 X109.675 Y108.609 E561.91806
G1 X91.966 Y90.900 E568.57768
G1 X93.443 Y90.900 E568.97039
G1 X109.675 Y107.132 E575.07465
G1 X109.675 Y105.656 E575.46735
G1 X94.919 Y90.900 E581.01625
G1 X96.396 Y90.900 E581.40895
G1 X109.675 Y104.179 E586.40249
G1 X109.675 Y102.702 E586.79519
G1 X97.873 Y90.900 E591.23336
G1 X99.350 Y90.900 E591.62606
G1 X109.675 Y101.225 E595.50887
G1 X109.675 Y99.748 E595.90157
G1 X100.827 Y90.900 E599.22902
G1 X102.303 Y90.900 E599.62172
G1 X109.675 Y98.272 E602.39380
G1 X109.675 Y96.795 E602.78650
G1 X103.780 Y90.900 E605.00322
G1 X105.257 Y90.900 E605.39592
G1 X109.675 Y95.318 E607.05728
G1 X109.675 Y93.841 E607.44998
G1 X106.734 Y90.900 E608.55597
G1 X108.211 Y90.900 E608.94868
G1 X109.675 Y92.364 E609.49931
G1 Z3.000 F7800.000
G1 X108.211 Y109.100 F7800.000
G1 X109.675 Y107.636 E610.04994 F4471.263
G1 X109.675 Y106.159 E610.44264
G1 X106.734 Y109.100 E611.54863
G1 X105.257 Y109.100 E611.94133
G1 X109.675 Y104.682 E613.60269
G1 X109.675 Y103.205 E613.99539
G1 X103.780 Y109.100 E616.21211
G1 X102.303 Y109.100 E616.60481
G1 X109.675 Y101.728 E619.37689
G1 X109.675 Y100.252 E619.76960
G1 X100.827 Y109.100 E623.09704
G1 X99.350 Y109.100 E623.48974
G1 X109.675 Y98.775 E627.37255
G1 X109.675 Y97.298 E627.76525
G1 X97.873 Y109.100 E632.20343
G1 X96.396 Y109.100 E632.59613
G1 X109.675 Y95.821 E637.58966
G1 X109.675 Y94.344 E637.98236
G1 X94.919 Y109.100 E643.53126
G1 X93.443 Y109.100 E643.92397
G1 X109.675 Y92.868 E650.02823
G1 X109.675 Y91.391 E650.42093
G1 X91.966 Y109.100 E657.08056
G1 X90.489 Y109.100 E657.47326
G1 X108.689 Y90.900 E664.31740
G1 X107.212 Y90.900 E664.71011
G1 X90.325 Y107.787 E671.06052
G1 X90.325 Y106.310 E671.45322
G1 X105.735 Y90.900 E677.24827
G1 X104.258 Y90.900 E677.64097
G1 X90.325 Y104.833 E682.88066
G1 X90.325 Y103.357 E683.27336
G1 X102.782 Y90.900 E687.95769
G1 X101.305 Y90.900 E688.35039
G1 X90.325 Y101.880 E692.47935
G1 X90.325 Y100.403 E692.87205
G1 X99.828 Y90.900 E696.44565
G1 X98.351 Y90.900 E696.83835
G1 X90.325 Y98.926 E699.85659
G1 X90.325 Y97.449 E700.24929
G1 X96.874 Y90.900 E702.71216
G1 X95.398 Y90.900 E703.10486
G1 X90.325 Y95.973 E705.01237
G1 X90.325 Y94.496 E705.40507
G1 X93.921 Y90.900 E706.75722
G1 X92.444 Y90.900 E707.14992
G1 X90.325 Y93.019 E707.94670
G1 X90.325 Y91.542 E708.33940
G1 X90.967 Y90.900 E708.58082
G1 Z3.500 F7800.000
G1 X90.325 Y108.458 F7800.000
G1 X90.967 Y109.100 E708.82224 F4464.915
G1 X92.444 Y109.100 E709.21494
G1 X90.325 Y106.981 E710.01172
G1 X90.325 Y105.504 E710.40442
G1 X93.921 Y109.100 E711.75657
G1 X95.398 Y109.100 E712.14927
G1 X90.325 Y104.027 E714.05678
G1 X90.325 Y102.551 E714.44948
G1 X96.874 Y109.100 E716.91235
G1 X98.351 Y109.100 E717.30505
G1 X90.325 Y101.074 E720.32329
G1 X90.325 Y99.597 E720.71599
G1 X99.828 Y109.100 E724.28959
G1 X101.305 Y109.100 E724.68229
G1 X90.325 Y98.120 E728.81125
G1 X90.325 Y96.643 E729.20395
G1 X102.782 Y109.100 E733.88828
G1 X104.258 Y109.100 E734.28098
G1 X90.325 Y95.167 E739.52067
G1 X90.325 Y93.690 E739.91337
G1 X105.735 Y109.100 E745.70842
G1 X107.212 Y109.100 E746.10112
G1 X90.325 Y92.213 E752.45153
G1 X90.489 Y90.900 E752.80337
G1 X108.689 Y109.100 E759.64751
G1 X109.675 Y108.609 E759.94041
G1 X91.966 Y90.900 E766.60003
G1 X93.443 Y90.900 E766.99273
G1 X109.675 Y107.132 E773.09700
G1 X109.675 Y105.656 E773.48970
G1 X94.919 Y90.900 E779.03860
G1 X96.396 Y90.900 E779.43130
G1 X109.675 Y104.179 E784.42483
G1 X109.675 Y102.702 E784.81753
G1 X97.873 Y90.900 E789.25571
G1 X99.350 Y90.900 E789.64841
G1 X109.675 Y101.225 E793.53122
G1 X109.675 Y99.748 E793.92392
G1 X100.827 Y90.900 E797.25136
G1 X102.303 Y90.900 E797.64407
G1 X109.675 Y98.272 E800.41615
G1 X109.675 Y96.795 E800.80885
G1 X103.780 Y90.900 E803.02557
G1 X105.257 Y90.900 E803.41827
G1 X109.675 Y95.318 E805.07963
G1 X109.675 Y93.841 E805.47233
G1 X106.734 Y90.900 E806.57832
G1 X108.211 Y90.900 E806.97102
G1 X109.675 Y92.364 E807.52165
G1 Z4.000 F7800.000
G1 X108.211 Y109.100 F7800.000
G1 X109.675 Y107.636 E808.07228 F4471.263
G1 X109.675 Y106.159 E808.46498
G1 X106.734 Y109.100 E809.57098
G1 X105.257 Y109.100 E809.96368
G1 X109.675 Y104.682 E811.62504
G1 X109.675 Y103.205 E812.01774
G1 X103.780 Y109.100 E814.23446
G1 X102.303 Y109.100 E814.62716
G1 X109.675 Y101.728 E817.39924
G1 X109.675 Y100.252 E817.79194
G1 X100.827 Y109.100 E821.11939
G1 X99.350 Y109.100 E821.51209
G1 X109.675 Y98.775 E825.39490
G1 X109.675 Y97.298 E825.78760
G1 X97.873 Y109.100 E830.22577
G1 X96.396 Y109.100 E830.61847
G1 X109.675 Y95.821 E835.61201
G1 X109.675 Y94.344 E836.00471
G1 X94.919 Y109.100 E841.55361
G1 X93.443 Y109.100 E841.94631
G1 X109.675 Y92.868 E848.05058
G1 X109.675 Y91.391 E848.44328
G1 X91.966 Y109.100 E855.10290
G1 X90.489 Y109.100 E855.49560
G1 X108.689 Y90.900 E862.33975
G1 X107.212 Y90.900 E862.73245
G1 X90.325 Y107.787 E869.08287
G1 X90.325 Y106.310 E869.47557
G1 X105.735 Y90.900 E875.27062
G1 X104.258 Y90.900 E875.66332
G1 X90.325 Y104.833 E880.90301
G1 X90.325 Y103.357 E881.29571
G1 X102.782 Y90.900 E885.98004
G1 X101.305 Y90.900 E886.37274
G1 X90.325 Y101.880 E890.50170
G1 X90.325 Y100.403 E890.89440
G1 X99.828 Y90.900 E894.46800
G1 X98.351 Y90.900 E894.86070
G1 X90.325 Y98.926 E897.87893
G1 X90.325 Y97.449 E898.27164
G1 X96.874 Y90.900 E900.73451
G1 X95.398 Y90.900 E901.12721
G1 X90.325 Y95.973 E903.03472
G1 X90.325 Y94.496 E903.42742
G1 X93.921 Y90.900 E904.77956
G1 X92.444 Y90.900 E905.17226
G1 X90.325 Y93.019 E905.96905
G1 X90.325 Y91.542 E906.36175
G1 X90.967 Y90.900 E906.60317
G1 Z4.500 F7800.000
G1 X90.325 Y108.458 F7800.000
G1 X90.967 Y109.100 E906.84459 F4464.915
G1 X92.444 Y109.100 E907.23729
G1 X90.325 Y106.981 E908.03407
G1 X90.325 Y105.504 E908.42677
G1 X93.921 Y109.100 E909.77892
G1 X95.398 Y109.100 E910.17162
G1 X90.325 Y104.027 E912.07913
G1 X90.325 Y102.551 E912.47183
G1 X96.874 Y109.100 E914.93470
G1 X98.351 Y109.100 E915.32740
G1 X90.325 Y101.074 E918.34563
G1 X90.325 Y99.597 E918.73834
G1 X99.828 Y109.100 E922.31193
G1 X101.305 Y109.100 E922.70464
G1 X90.325 Y98.120 E926.83360
G1 X90.325 Y96.643 E927.22630
G1 X102.782 Y109.100 E931.91062
G1 X104.258 Y109.100 E932.30332
G1 X90.325 Y95.167 E937.54301
G1 X90.325 Y93.690 E937.93571
G1 X105.735 Y109.100 E943.73077
G1 X107.212 Y109.100 E944.12347
G1 X90.325 Y92.213 E950.47388
G1 X90.489 Y90.900 E950.82571
G1 X108.689 Y109.100 E957.66986
G1 X109.675 Y108.609 E957.96275
G1 X91.966 Y90.900 E964.62238
G1 X93.443 Y90.900 E965.01508
G1 X109.675 Y107.132 E971.11934
G1 X109.675 Y105.656 E971.51204
G1 X94.919 Y90.900 E977.06094
G1 X96.396 Y90.900 E977.45364
G1 X109.675 Y104.179 E982.44718
G1 X109.675 Y102.702 E982.83988
G1 X97.873 Y90.900 E987.27805
G1 X99.350 Y90.900 E987.67076
G1 X109.675 Y101.225 E991.55357
G1 X109.675 Y99.748 E991.94627
G1 X100.827 Y90.900 E995.27371
G1 X102.303 Y90.900 E995.66641
G1 X109.675 Y98.272 E998.43850
G1 X109.675 Y96.795 E998.83120
G1 X103.780 Y90.900 E1001.04792
G1 X105.257 Y90.900 E1001.44062
G1 X109.675 Y95.318 E1003.10198
G1 X109.675 Y93.841 E1003.49468
G1 X106.734 Y90.900 E1004.60067
G1 X108.211 Y90.900 E1004.99337
G1 X109.675 Y92.364 E1005.54400
G1 Z5.000 F7800.000
G1 X108.211 Y109.100 F7800.000
G1 X109.675 Y107.636 E1006.09463 F4471.263
G1 X109.675 Y106.159 E1006.48733
G1 X106.734 Y109.100 E1007.59333
G1 X105.257 Y109.100 E1007.98603
G1 X109.675 Y104.682 E1009.64738
G1 X109.675 Y103.205 E1010.04008
G1 X103.780 Y109.100 E1012.25680
G1 X102.303 Y109.100 E1012.64951
G1 X109.675 Y101.728 E1015.42159
G1 X109.675 Y100.252 E1015.81429
G1 X100.827 Y109.100 E1019.14174
G1 X99.350 Y109.100 E1019.53444
G1 X109.675 Y98.775 E1023.41725
G1 X109.675 Y97.298 E1023.80995
G1 X97.873 Y109.100 E1028.24812
G1 X96.396 Y109.100 E1028.64082
G1 X109.675 Y95.821 E1033.63436
G1 X109.675 Y94.344 E1034.02706
G1 X94.919 Y109.100 E1039.57596
G1 X93.443 Y109.100 E1039.96866
G1 X109.675 Y92.868 E1046.07292
G1 X109.675 Y91.391 E1046.46562
G1 X91.966 Y109.100 E1053.12525
G1 X90.489 Y109.100 E1053.51795
G1 X108.689 Y90.900 E1060.36210
G1 X107.212 Y90.900 E1060.75480
G1 X90.325 Y107.787 E1067.10522
G1 X90.325 Y106.310 E1067.49792
G1 X105.735 Y90.900 E1073.29297
G1 X104.258 Y90.900 E1073.68567
G1 X90.325 Y104.833 E1078.92536
G1 X90.325 Y103.357 E1079.31806
G1 X102.782 Y90.900 E1084.00238
G1 X101.305 Y90.900 E1084.39508
G1 X90.325 Y101.880 E1088.52405
G1 X90.325 Y100.403 E1088.91675
G1 X99.828 Y90.900 E1092.49035
G1 X98.351 Y90.900 E1092.88305
G1 X90.325 Y98.926 E1095.90128
G1 X90.325 Y97.449 E1096.29398
G1 X96.874 Y90.900 E1098.75686
G1 X95.398 Y90.900 E1099.14956
G1 X90.325 Y95.973 E1101.05706
G1 X90.325 Y94.496 E1101.44977
G1 X93.921 Y90.900 E1102.80191
G1 X92.444 Y90.900 E1103.19461
G1 X90.325 Y93.019 E1103.99139
G1 X90.325 Y91.542 E1104.38410
G1 X90.967 Y90.900 E1104.62551
G1 Z5.500 F7800.000
G1 X90.325 Y108.458 F7800.000
G1 X90.967 Y109.100 E1104.86693 F4464.915
G1 X92.444 Y109.100 E1105.25963
G1 X90.325 Y106.981 E1106.05642
G1 X90.325 Y105.504 E1106.44912
G1 X93.921 Y109.100 E1107.80126
G1 X95.398 Y109.100 E1108.19396
G1 X90.325 Y104.027 E1110.10147
G1 X90.325 Y102.551 E1110.49417
G1 X96.874 Y109.100 E1112.95705
G1 X98.351 Y109.100 E1113.34975
G1 X90.325 Y101.074 E1116.36798
G1 X90.325 Y99.597 E1116.76068
G1 X99.828 Y109.100 E1120.33428
G1 X101.305 Y109.100 E1120.72698
G1 X90.325 Y98.120 E1124.85594
G1 X90.325 Y96.643 E1125.24865
G1 X102.782 Y109.100 E1129.93297
G1 X104.258 Y109.100 E1130.32567
G1 X90.325 Y95.167 E1135.56536
G1 X90.325 Y93.690 E1135.95806
G1 X105.735 Y109.100 E1141.75311
G1 X107.212 Y109.100 E1142.14581
G1 X90.325 Y92.213 E1148.49623
G1 X90.489 Y90.900 E1148.84806
G1 X108.689 Y109.100 E1155.69221
G1 X109.675 Y108.609 E1155.98510
G1 X91.966 Y90.900 E1162.64473
G1 X93.443 Y90.900 E1163.03743
G1 X109.675 Y107.132 E1169.14169
G1 X109.675 Y105.656 E1169.53439
G1 X94.919 Y90.900 E1175.08329
G1 X96.396 Y90.900 E1175.47599
G1 X109.675 Y104.179 E1180.46953
G1 X109.675 Y102.702 E1180.86223
G1 X97.873 Y90.900 E1185.30040
G1 X99.350 Y90.900 E1185.69310
G1 X109.675 Y101.225 E1189.57591
G1 X109.675 Y99.748 E1189.96861
G1 X100.827 Y90.900 E1193.29606
G1 X102.303 Y90.900 E1193.68876
G1 X109.675 Y98.272 E1196.46084
G1 X109.675 Y96.795 E1196.85354
G1 X103.780 Y90.900 E1199.07026
G1 X105.257 Y90.900 E1199.46297
G1 X109.675 Y95.318 E1201.12432
G1 X109.675 Y93.841 E1201.51702
G1 X106.734 Y90.900 E1202.62302
G1 X108.211 Y90.900 E1203.01572
G1 X109.675 Y92.364 E1203.56635
G1 Z6.000 F7800.000
G1 X108.211 Y109.100 F7800.000
G1 X109.675 Y107.636 E1204.11698 F4471.263
G1 X109.675 Y106.159 E1204.50968
G1 X106.734 Y109.100 E1205.61567
G1 X105.257 Y109.100 E1206.00837
G1 X109.675 Y104.682 E1207.66973
G1 X109.675 Y103.205 E1208.06243
G1 X103.780 Y109.100 E1210.27915
G1 X102.303 Y109.100 E1210.67185
G1 X109.675 Y101.728 E1213.44394
G1 X109.675 Y100.252 E1213.83664
G1 X100.827 Y109.100 E1217.16408
G1 X99.350 Y109.100 E1217.55679
G1 X109.675 Y98.775 E1221.43960
G1 X109.675 Y97.298 E1221.83230
G1 X97.873 Y109.100 E1226.27047
G1 X96.396 Y109.100 E1226.66317
G1 X109.675 Y95.821 E1231.65671
G1 X109.675 Y94.344 E1232.04941
G1 X94.919 Y109.100 E1237.59831
G1 X93.443 Y109.100 E1237.99101
G1 X109.675 Y92.868 E1244.09527
G1 X109.675 Y91.391 E1244.48797
G1 X91.966 Y109.100 E1251.14760
G1 X90.489 Y109.100 E1251.54030
G1 X108.689 Y90.900 E1258.38445
G1 X107.212 Y90.900 E1258.77715
G1 X90.325 Y107.787 E1265.12756
G1 X90.325 Y106.310 E1265.52026
G1 X105.735 Y90.900 E1271.31532
G1 X104.258 Y90.900 E1271.70802
G1 X90.325 Y104.833 E1276.94770
G1 X90.325 Y103.357 E1277.34041
G1 X102.782 Y90.900 E1282.02473
G1 X101.305 Y90.900 E1282.41743
G1 X90.325 Y101.880 E1286.54639
G1 X90.325 Y100.403 E1286.93909
G1 X99.828 Y90.900 E1290.51269
G1 X98.351 Y90.900 E1290.90539
G1 X90.325 Y98.926 E1293.92363
G1 X90.325 Y97.449 E1294.31633
G1 X96.874 Y90.900 E1296.77920
G1 X95.398 Y90.900 E1297.17190
G1 X90.325 Y95.973 E1299.07941
G1 X90.325 Y94.496 E1299.47211
G1 X93.921 Y90.900 E1300.82426
G1 X92.444 Y90.900 E1301.21696
G1 X90.325 Y93.019 E1302.01374
G1 X90.325 Y91.542 E1302.40644
G1 X90.967 Y90.900 E1302.64786
G1 Z6.500 F7800.000
G1 X90.325 Y108.458 F7800.000
G1 X90.967 Y109.100 E1302.88928 F4464.915
G1 X92.444 Y109.100 E1303.28198
G1 X90.325 Y106.981 E1304.07876
G1 X90.325 Y105.504 E1304.47147
G1 X93.921 Y109.100 E1305.82361
G1 X95.398 Y109.100 E1306.21631
G1 X90.325 Y104.027 E1308.12382
G1 X90.325 Y102.551 E1308.51652
G1 X96.874 Y109.100 E1310.97939
G1 X98.351 Y109.100 E1311.37209
G1 X90.325 Y101.074 E1314.39033
G1 X90.325 Y99.597 E1314.78303
G1 X99.828 Y109.100 E1318.35663
G1 X101.305 Y109.100 E1318.74933
G1 X90.325 Y98.120 E1322.87829
G1 X90.325 Y96.643 E1323.27099
G1 X102.782 Y109.100 E1327.95532
G1 X104.258 Y109.100 E1328.34802
G1 X90.325 Y95.167 E1333.58771
G1 X90.325 Y93.690 E1333.98041
G1 X105.735 Y109.100 E1339.77546
G1 X107.212 Y109.100 E1340.16816
G1 X90.325 Y92.213 E1346.51858
G1 X90.489 Y90.900 E1346.87041
G1 X108.689 Y109.100 E1353.71456
G1 X109.675 Y108.609 E1354.00745
G1 X91.966 Y90.900 E1360.66707
G1 X93.443 Y90.900 E1361.05978
G1 X109.675 Y107.132 E1367.16404
G1 X109.675 Y105.656 E1367.55674
G1 X94.919 Y90.900 E1373.10564
G1 X96.396 Y90.900 E1373.49834
G1 X109.675 Y104.179 E1378.49188
G1 X109.675 Y102.702 E1378.88458
G1 X97.873 Y90.900 E1383.32275
G1 X99.350 Y90.900 E1383.71545
G1 X109.675 Y101.225 E1387.59826
G1 X109.675 Y99.748 E1387.99096
G1 X100.827 Y90.900 E1391.31841
G1 X102.303 Y90.900 E1391.71111
G1 X109.675 Y98.272 E1394.48319
G1 X109.675 Y96.795 E1394.87589
G1 X103.780 Y90.900 E1397.09261
G1 X105.257 Y90.900 E1397.48531
G1 X109.675 Y95.318 E1399.14667
G1 X109.675 Y93.841 E1399.53937
G1 X106.734 Y90.900 E1400.64536
G1 X108.211 Y90.900 E1401.03807
G1 X109.675 Y92.364 E1401.58870
G1 Z7.000 F7800.000
G1 E1399.58870 F2400.00000
G92 E0
G1 X108.211 Y109.100 F7800.000
G1 E2.00000 F2400.00000
G1 X109.675 Y107.636 E2.55063 F4471.263
G1 X109.675 Y106.159 E2.94333
G1 X106.734 Y109.100 E4.04932
G1 X105.257 Y109.100 E4.44203
G1 X109.675 Y104.682 E6.10338
G1 X109.675 Y103.205 E6.49608
G1 X103.780 Y109.100 E8.71280
G1 X102.303 Y109.100 E9.10551
G1 X109.675 Y101.728 E11.87759
G1 X109.675 Y100.252 E12.27029
G1 X100.827 Y109.100 E15.59774
G1 X99.350 Y109.100 E15.99044
G1 X109.675 Y98.775 E19.87325
G1 X109.675 Y97.298 E20.26595
G1 X97.873 Y109.100 E24.70412
G1 X96.396 Y109.100 E25.09682
G1 X109.675 Y95.821 E30.09036
G1 X109.675 Y94.344 E30.48306
G1 X94.919 Y109.100 E36.03196
G1 X93.443 Y109.100 E36.42466
G1 X109.675 Y92.868 E42.52892
G1 X109.675 Y91.391 E42.92162
G1 X91.966 Y109.100 E49.58125
G1 X90.489 Y109.100 E49.97395
G1 X108.689 Y90.900 E56.81810
G1 X107.212 Y90.900 E57.21080
G1 X90.325 Y107.787 E63.56121
G1 X90.325 Y106.310 E63.95392
G1 X105.735 Y90.900 E69.74897
G1 X104.258 Y90.900 E70.14167
G1 X90.325 Y104.833 E75.38136
G1 X90.325 Y103.357 E75.77406
G1 X102.782 Y90.900 E80.45838
G1 X101.305 Y90.900 E80.85108
G1 X90.325 Y101.880 E84.98005
G1 X90.325 Y100.403 E85.37275
G1 X99.828 Y90.900 E88.94634
G1 X98.351 Y90.900 E89.33905
G1 X90.325 Y98.926 E92.35728
G1 X90.325 Y97.449 E92.74998
G1 X96.874 Y90.900 E95.21285
G1 X95.398 Y90.900 E95.60556
G1 X90.325 Y95.973 E97.51306
G1 X90.325 Y94.496 E97.90576
G1 X93.921 Y90.900 E99.25791
G1 X92.444 Y90.900 E99.65061
G1 X90.325 Y93.019 E100.44739
G1 X90.325 Y91.542 E100.84009
G1 X90.967 Y90.900 E101.08151
G1 E99.08151 F2400.00000
G92 E0
M107
M104 S0 ; turn off temperature
G28 X0  ; home X axis
M84     ; disable motors

; filament used = 1498.7mm (1.2cm3)

; avoid_crossing_perimeters = 0
; bed_shape = 0x0,200x0,200x200,0x200
; bed_temperature = 0
; before_layer_gcode = 
; bridge_acceleration = 0
; bridge_fan_speed = 100
; brim_width = 0
; complete_objects = 0
; cooling = 1
; default_acceleration = 0
; disable_fan_first_layers = 3
; duplicate_distance = 6
; end_gcode = M104 S0 ; turn off temperature\nG28 X0  ; home X axis\nM84     ; disable motors\n
; extruder_clearance_height = 20
; extruder_clearance_radius = 20
; extruder_offset = 0x0
; extrusion_axis = E
; extrusion_multiplier = 1
; fan_always_on = 0
; fan_below_layer_time = 60
; filament_colour = #FFFFFF
; filament_diameter = 1
; first_layer_acceleration = 0
; first_layer_bed_temperature = 0
; first_layer_extrusion_width = 200%
; first_layer_speed = 30
; first_layer_temperature = 200
; gcode_arcs = 0
; gcode_comments = 0
; gcode_flavor = reprap
; infill_acceleration = 0
; infill_first = 0
; layer_gcode = 
; max_fan_speed = 100
; max_print_speed = 80
; max_volumetric_speed = 0
; min_fan_speed = 35
; min_print_speed = 10
; min_skirt_length = 0
; notes = 
; nozzle_diameter = 0.5
; only_retract_when_crossing_perimeters = 1
; ooze_prevention = 0
; output_filename_format = [input_filename_base].gcode
; perimeter_acceleration = 0
; post_process = 
; pressure_advance = 0
; resolution = 0
; retract_before_travel = 2
; retract_layer_change = 0
; retract_length = 2
; retract_length_toolchange = 10
; retract_lift = 0
; retract_restart_extra = 0
; retract_restart_extra_toolchange = 0
; retract_speed = 40
; skirt_distance = 6
; skirt_height = 1
; skirts = 0
; slowdown_below_layer_time = 5
; spiral_vase = 0
; standby_temperature_delta = -5
; start_gcode = G28 ; home all axes\nG1 Z5 F5000 ; lift nozzle\n
; temperature = 200
; threads = 2
; toolchange_gcode = 
; travel_speed = 130
; use_firmware_retraction = 0
; use_relative_e_distances = 0
; use_volumetric_e = 0
; vibration_limit = 0
; wipe = 0
; z_offset = 0
; dont_support_bridges = 1
; extrusion_width = 0
; first_layer_height = 0.5
; infill_only_where_needed = 0
; interface_shells = 0
; layer_height = 0.5
; raft_layers = 0
; seam_position = aligned
; support_material = 0
; support_material_angle = 0
; support_material_contact_distance = 0.2
; support_material_enforce_layers = 0
; support_material_extruder = 1
; support_material_extrusion_width = 0
; support_material_interface_extruder = 1
; support_material_interface_layers = 3
; support_material_interface_spacing = 0
; support_material_interface_speed = 100%
; support_material_pattern = pillars
; support_material_spacing = 2.5
; support_material_speed = 60
; support_material_threshold = 0
; xy_size_compensation = 0
; bottom_solid_layers = 0
; bridge_flow_ratio = 1
; bridge_speed = 60
; external_fill_pattern = rectilinear
; external_perimeter_extrusion_width = 0
; external_perimeter_speed = 50%
; external_perimeters_first = 0
; extra_perimeters = 1
; fill_angle = 45
; fill_density = 40%
; fill_pattern = rectilinear
; gap_fill_speed = 20
; infill_every_layers = 1
; infill_extruder = 1
; infill_extrusion_width = 0
; infill_overlap = 15%
; infill_speed = 80
; overhangs = 1
; perimeter_extruder = 1
; perimeter_extrusion_width = 0
; perimeter_speed = 60
; perimeters = 0
; small_perimeter_speed = 15
; solid_infill_below_area = 70
; solid_infill_every_layers = 0
; solid_infill_extruder = 1
; solid_infill_extrusion_width = 0
; solid_infill_speed = 20
; thin_walls = 1
; top_infill_extrusion_width = 0
; top_solid_infill_speed = 15
; top_solid_layers = 0
