; generated by Slic3r 1.2.9 on 2019-08-09 at 13:47:55

; external perimeters extrusion width = 0.50mm
; perimeters extrusion width = 0.58mm
; infill extrusion width = 0.58mm
; solid infill extrusion width = 0.58mm
; top infill extrusion width = 0.58mm

M107
M104 S200 ; set temperature
G28 ; home all axes
G1 Z5 F5000 ; lift nozzle

M109 S200 ; wait for temperature to be reached
G21 ; set units to millimeters
G90 ; use absolute coordinates
M82 ; use absolute distances for extrusion
G92 E0
G1 Z0.400 F7800.000
G1 E-2.00000 F2400.00000
G92 E0
G1 X83.121 Y114.871 F7800.000
G1 E2.00000 F2400.00000
G1 X85.129 Y116.879 E3.03269 F1800.000
G1 X88.600 Y116.879 E4.29516
G1 X83.121 Y111.400 E7.11325
G1 X83.121 Y107.929 E8.37571
G1 X92.071 Y116.879 E12.97920
G1 X95.542 Y116.879 E14.24167
G1 X83.121 Y104.458 E20.63055
G1 X83.121 Y100.987 E21.89302
G1 X99.013 Y116.879 E30.06730
G1 X102.484 Y116.879 E31.32977
G1 X83.121 Y97.516 E41.28945
G1 X83.121 Y94.045 E42.55192
G1 X105.955 Y116.879 E54.29700
G1 X109.426 Y116.879 E55.55947
G1 X83.121 Y90.574 E69.08994
G1 X83.121 Y87.103 E70.35241
G1 X112.897 Y116.879 E85.66829
G1 X116.368 Y116.879 E86.93075
G1 X83.121 Y83.632 E104.03203
G1 X86.082 Y83.121 E105.12463
G1 X116.879 Y113.918 E120.96596
G1 X116.879 Y110.447 E122.22843
G1 X89.553 Y83.121 E136.28436
G1 X93.024 Y83.121 E137.54683
G1 X116.879 Y106.976 E149.81736
G1 X116.879 Y103.505 E151.07983
G1 X96.495 Y83.121 E161.56497
G1 X99.966 Y83.121 E162.82743
G1 X116.879 Y100.034 E171.52717
G1 X116.879 Y96.563 E172.78964
G1 X103.437 Y83.121 E179.70398
G1 X106.908 Y83.121 E180.96644
G1 X116.879 Y93.092 E186.09538
G1 X116.879 Y89.621 E187.35785
G1 X110.379 Y83.121 E190.70139
G1 X113.850 Y83.121 E191.96386
G1 X116.879 Y86.150 E193.52201
G1 Z0.800 F7800.000
G1 X113.850 Y116.879 F7800.000
G1 X116.879 Y113.850 E194.59299 F4800.000
G1 X116.879 Y110.379 E195.46074
G1 X110.379 Y116.879 E197.75891
G1 X106.908 Y116.879 E198.62666
G1 X116.879 Y106.908 E202.15201
G1 X116.879 Y103.437 E203.01976
G1 X103.437 Y116.879 E207.77230
G1 X99.966 Y116.879 E208.64005
G1 X116.879 Y99.966 E214.61977
G1 X116.879 Y96.495 E215.48752
G1 X96.495 Y116.879 E222.69442
G1 X93.024 Y116.879 E223.56217
G1 X116.879 Y93.024 E231.99626
G1 X116.879 Y89.553 E232.86401
G1 X89.553 Y116.879 E242.52529
G1 X86.082 Y116.879 E243.39304
G1 X116.879 Y86.082 E254.28150
G1 X116.368 Y83.121 E255.03249
G1 X83.121 Y116.368 E266.78697
G1 X83.121 Y112.897 E267.65472
G1 X112.897 Y83.121 E278.18201
G1 X109.426 Y83.121 E279.04976
G1 X83.121 Y109.426 E288.34987
G1 X83.121 Y105.955 E289.21762
G1 X105.955 Y83.121 E297.29054
G1 X102.484 Y83.121 E298.15829
G1 X83.121 Y102.484 E305.00403
G1 X83.121 Y99.013 E305.87178
G1 X99.013 Y83.121 E311.49033
G1 X95.542 Y83.121 E312.35808
G1 X83.121 Y95.542 E316.74945
G1 X83.121 Y92.071 E317.61720
G1 X92.071 Y83.121 E320.78138
G1 X88.600 Y83.121 E321.64913
G1 X83.121 Y88.600 E323.58613
G1 X83.121 Y85.129 E324.45388
G1 X85.129 Y83.121 E325.16370
G1 Z1.200 F7800.000
G1 X83.121 Y114.871 F7800.000
G1 X85.129 Y116.879 E325.87351 F4800.000
G1 X88.600 Y116.879 E326.74126
G1 X83.121 Y111.400 E328.67826
G1 X83.121 Y107.929 E329.54601
G1 X92.071 Y116.879 E332.71020
G1 X95.542 Y116.879 E333.57795
G1 X83.121 Y104.458 E337.96932
G1 X83.121 Y100.987 E338.83707
G1 X99.013 Y116.879 E344.45562
G1 X102.484 Y116.879 E345.32337
G1 X83.121 Y97.516 E352.16911
G1 X83.121 Y94.045 E353.03686
G1 X105.955 Y116.879 E361.10978
G1 X109.426 Y116.879 E361.97753
G1 X83.121 Y90.574 E371.27764
G1 X83.121 Y87.103 E372.14539
G1 X112.897 Y116.879 E382.67268
G1 X116.368 Y116.879 E383.54043
G1 X83.121 Y83.632 E395.29490
G1 X86.082 Y83.121 E396.04590
G1 X116.879 Y113.918 E406.93436
G1 X116.879 Y110.447 E407.80211
G1 X89.553 Y83.121 E417.46338
G1 X93.024 Y83.121 E418.33113
G1 X116.879 Y106.976 E426.76522
G1 X116.879 Y103.505 E427.63297
G1 X96.495 Y83.121 E434.83988
G1 X99.966 Y83.121 E435.70763
G1 X116.879 Y100.034 E441.68735
G1 X116.879 Y96.563 E442.55510
G1 X103.437 Y83.121 E447.30764
G1 X106.908 Y83.121 E448.17539
G1 X116.879 Y93.092 E451.70074
G1 X116.879 Y89.621 E452.56849
G1 X110.379 Y83.121 E454.86666
G1 X113.850 Y83.121 E455.73441
G1 X116.879 Y86.150 E456.80539
M106 S249.9
G1 Z1.600 F7800.000
G1 X113.850 Y116.879 F7800.000
G1 X116.879 Y113.850 E457.87637 F4800.000
G1 X116.879 Y110.379 E458.74412
G1 X110.379 Y116.879 E461.04229
G1 X106.908 Y116.879 E461.91004
G1 X116.879 Y106.908 E465.43539
G1 X116.879 Y103.437 E466.30314
G1 X103.437 Y116.879 E471.05568
G1 X99.966 Y116.879 E471.92343
G1 X116.879 Y99.966 E477.90315
G1 X116.879 Y96.495 E478.77090
G1 X96.495 Y116.879 E485.97781
G1 X93.024 Y116.879 E486.84556
G1 X116.879 Y93.024 E495.27965
G1 X116.879 Y89.553 E496.14740
G1 X89.553 Y116.879 E505.80867
G1 X86.082 Y116.879 E506.67642
G1 X116.879 Y86.082 E517.56488
G1 X116.368 Y83.121 E518.31588
G1 X83.121 Y116.368 E530.07035
G1 X83.121 Y112.897 E530.93810
G1 X112.897 Y83.121 E541.46539
G1 X109.426 Y83.121 E542.33314
G1 X83.121 Y109.426 E551.63325
G1 X83.121 Y105.955 E552.50100
G1 X105.955 Y83.121 E560.57392
G1 X102.484 Y83.121 E561.44167
G1 X83.121 Y102.484 E568.28741
G1 X83.121 Y99.013 E569.15516
G1 X99.013 Y83.121 E574.77372
G1 X95.542 Y83.121 E575.64147
G1 X83.121 Y95.542 E580.03283
G1 X83.121 Y92.071 E580.90059
G1 X92.071 Y83.121 E584.06477
G1 X88.600 Y83.121 E584.93252
G1 X83.121 Y88.600 E586.86952
G1 X83.121 Y85.129 E587.73727
G1 X85.129 Y83.121 E588.44708
G1 Z2.000 F7800.000
G1 X83.121 Y114.871 F7800.000
G1 X85.129 Y116.879 E589.15690 F4800.000
G1 X88.600 Y116.879 E590.02465
G1 X83.121 Y111.400 E591.96165
G1 X83.121 Y107.929 E592.82940
G1 X92.071 Y116.879 E595.99358
G1 X95.542 Y116.879 E596.86133
G1 X83.121 Y104.458 E601.25270
G1 X83.121 Y100.987 E602.12045
G1 X99.013 Y116.879 E607.73900
G1 X102.484 Y116.879 E608.60675
G1 X83.121 Y97.516 E615.45249
G1 X83.121 Y94.045 E616.32024
G1 X105.955 Y116.879 E624.39316
G1 X109.426 Y116.879 E625.26091
G1 X83.121 Y90.574 E634.56102
G1 X83.121 Y87.103 E635.42877
G1 X112.897 Y116.879 E645.95606
G1 X116.368 Y116.879 E646.82381
G1 X83.121 Y83.632 E658.57829
G1 X86.082 Y83.121 E659.32928
G1 X116.879 Y113.918 E670.21774
G1 X116.879 Y110.447 E671.08549
G1 X89.553 Y83.121 E680.74677
G1 X93.024 Y83.121 E681.61452
G1 X116.879 Y106.976 E690.04861
G1 X116.879 Y103.505 E690.91636
G1 X96.495 Y83.121 E698.12326
G1 X99.966 Y83.121 E698.99102
G1 X116.879 Y100.034 E704.97074
G1 X116.879 Y96.563 E705.83849
G1 X103.437 Y83.121 E710.59102
G1 X106.908 Y83.121 E711.45877
G1 X116.879 Y93.092 E714.98413
G1 X116.879 Y89.621 E715.85188
G1 X110.379 Y83.121 E718.15004
G1 X113.850 Y83.121 E719.01779
G1 X116.879 Y86.150 E720.08878
G1 Z2.400 F7800.000
G1 X113.850 Y116.879 F7800.000
G1 X116.879 Y113.850 E721.15976 F4800.000
G1 X116.879 Y110.379 E722.02751
G1 X110.379 Y116.879 E724.32568
G1 X106.908 Y116.879 E725.19343
G1 X116.879 Y106.908 E728.71878
G1 X116.879 Y103.437 E729.58653
G1 X103.437 Y116.879 E734.33907
G1 X99.966 Y116.879 E735.20682
G1 X116.879 Y99.966 E741.18654
G1 X116.879 Y96.495 E742.05429
G1 X96.495 Y116.879 E749.26119
G1 X93.024 Y116.879 E750.12894
G1 X116.879 Y93.024 E758.56303
G1 X116.879 Y89.553 E759.43078
G1 X89.553 Y116.879 E769.09206
G1 X86.082 Y116.879 E769.95981
G1 X116.879 Y86.082 E780.84827
G1 X116.368 Y83.121 E781.59926
G1 X83.121 Y116.368 E793.35374
G1 X83.121 Y112.897 E794.22149
G1 X112.897 Y83.121 E804.74878
G1 X109.426 Y83.121 E805.61653
G1 X83.121 Y109.426 E814.91664
G1 X83.121 Y105.955 E815.78439
G1 X105.955 Y83.121 E823.85731
G1 X102.484 Y83.121 E824.72506
G1 X83.121 Y102.484 E831.57080
G1 X83.121 Y99.013 E832.43855
G1 X99.013 Y83.121 E838.05710
G1 X95.542 Y83.121 E838.92485
G1 X83.121 Y95.542 E843.31622
G1 X83.121 Y92.071 E844.18397
G1 X92.071 Y83.121 E847.34815
G1 X88.600 Y83.121 E848.21591
G1 X83.121 Y88.600 E850.15290
G1 X83.121 Y85.129 E851.02065
G1 X85.129 Y83.121 E851.73047
G1 Z2.800 F7800.000
G1 X83.121 Y114.871 F7800.000
G1 X85.129 Y116.879 E852.44028 F4800.000
G1 X88.600 Y116.879 E853.30803
G1 X83.121 Y111.400 E855.24503
G1 X83.121 Y107.929 E856.11278
G1 X92.071 Y116.879 E859.27697
G1 X95.542 Y116.879 E860.14472
G1 X83.121 Y104.458 E864.53609
G1 X83.121 Y100.987 E865.40384
G1 X99.013 Y116.879 E871.02239
G1 X102.484 Y116.879 E871.89014
G1 X83.121 Y97.516 E878.73588
G1 X83.121 Y94.045 E879.60363
G1 X105.955 Y116.879 E887.67655
G1 X109.426 Y116.879 E888.54430
G1 X83.121 Y90.574 E897.84441
G1 X83.121 Y87.103 E898.71216
G1 X112.897 Y116.879 E909.23945
G1 X116.368 Y116.879 E910.10720
G1 X83.121 Y83.632 E921.86167
G1 X86.082 Y83.121 E922.61267
G1 X116.879 Y113.918 E933.50113
G1 X116.879 Y110.447 E934.36888
G1 X89.553 Y83.121 E944.03015
G1 X93.024 Y83.121 E944.89790
G1 X116.879 Y106.976 E953.33199
G1 X116.879 Y103.505 E954.19974
G1 X96.495 Y83.121 E961.40665
G1 X99.966 Y83.121 E962.27440
G1 X116.879 Y100.034 E968.25412
G1 X116.879 Y96.563 E969.12187
G1 X103.437 Y83.121 E973.87441
G1 X106.908 Y83.121 E974.74216
G1 X116.879 Y93.092 E978.26751
G1 X116.879 Y89.621 E979.13526
G1 X110.379 Y83.121 E981.43343
G1 X113.850 Y83.121 E982.30118
G1 X116.879 Y86.150 E983.37216
G1 Z3.200 F7800.000
G1 X113.850 Y116.879 F7800.000
G1 X116.879 Y113.850 E984.44314 F4800.000
G1 X116.879 Y110.379 E985.31090
G1 X110.379 Y116.879 E987.60906
G1 X106.908 Y116.879 E988.47681
G1 X116.879 Y106.908 E992.00217
G1 X116.879 Y103.437 E992.86992
G1 X103.437 Y116.879 E997.62245
G1 X99.966 Y116.879 E998.49020
G1 X116.879 Y99.966 E1004.46992
G1 X116.879 Y96.495 E1005.33767
G1 X96.495 Y116.879 E1012.54458
G1 X93.024 Y116.879 E1013.41233
G1 X116.879 Y93.024 E1021.84642
G1 X116.879 Y89.553 E1022.71417
G1 X89.553 Y116.879 E1032.37544
G1 X86.082 Y116.879 E1033.24319
G1 X116.879 Y86.082 E1044.13165
G1 X116.368 Y83.121 E1044.88265
G1 X83.121 Y116.368 E1056.63712
G1 X83.121 Y112.897 E1057.50487
G1 X112.897 Y83.121 E1068.03216
G1 X109.426 Y83.121 E1068.89992
G1 X83.121 Y109.426 E1078.20002
G1 X83.121 Y105.955 E1079.06777
G1 X105.955 Y83.121 E1087.14069
G1 X102.484 Y83.121 E1088.00845
G1 X83.121 Y102.484 E1094.85418
G1 X83.121 Y99.013 E1095.72193
G1 X99.013 Y83.121 E1101.34049
G1 X95.542 Y83.121 E1102.20824
G1 X83.121 Y95.542 E1106.59961
G1 X83.121 Y92.071 E1107.46736
G1 X92.071 Y83.121 E1110.63154
G1 X88.600 Y83.121 E1111.49929
G1 X83.121 Y88.600 E1113.43629
G1 X83.121 Y85.129 E1114.30404
G1 X85.129 Y83.121 E1115.01385
G1 Z3.600 F7800.000
G1 X83.121 Y114.871 F7800.000
G1 X85.129 Y116.879 E1115.72367 F4800.000
G1 X88.600 Y116.879 E1116.59142
G1 X83.121 Y111.400 E1118.52842
G1 X83.121 Y107.929 E1119.39617
G1 X92.071 Y116.879 E1122.56035
G1 X95.542 Y116.879 E1123.42810
G1 X83.121 Y104.458 E1127.81947
G1 X83.121 Y100.987 E1128.68722
G1 X99.013 Y116.879 E1134.30577
G1 X102.484 Y116.879 E1135.17353
G1 X83.121 Y97.516 E1142.01926
G1 X83.121 Y94.045 E1142.88701
G1 X105.955 Y116.879 E1150.95994
G1 X109.426 Y116.879 E1151.82769
G1 X83.121 Y90.574 E1161.12779
G1 X83.121 Y87.103 E1161.99554
G1 X112.897 Y116.879 E1172.52283
G1 X116.368 Y116.879 E1173.39058
G1 X83.121 Y83.632 E1185.14506
G1 X86.082 Y83.121 E1185.89605
G1 X116.879 Y113.918 E1196.78451
G1 X116.879 Y110.447 E1197.65226
G1 X89.553 Y83.121 E1207.31354
G1 X93.024 Y83.121 E1208.18129
G1 X116.879 Y106.976 E1216.61538
G1 X116.879 Y103.505 E1217.48313
G1 X96.495 Y83.121 E1224.69004
G1 X99.966 Y83.121 E1225.55779
G1 X116.879 Y100.034 E1231.53751
G1 X116.879 Y96.563 E1232.40526
G1 X103.437 Y83.121 E1237.15779
G1 X106.908 Y83.121 E1238.02554
G1 X116.879 Y93.092 E1241.55090
G1 X116.879 Y89.621 E1242.41865
G1 X110.379 Y83.121 E1244.71681
G1 X113.850 Y83.121 E1245.58457
G1 X116.879 Y86.150 E1246.65555
G1 Z4.000 F7800.000
G1 X113.850 Y116.879 F7800.000
G1 X116.879 Y113.850 E1247.72653 F4800.000
G1 X116.879 Y110.379 E1248.59428
G1 X110.379 Y116.879 E1250.89245
G1 X106.908 Y116.879 E1251.76020
G1 X116.879 Y106.908 E1255.28555
G1 X116.879 Y103.437 E1256.15330
G1 X103.437 Y116.879 E1260.90584
G1 X99.966 Y116.879 E1261.77359
G1 X116.879 Y99.966 E1267.75331
G1 X116.879 Y96.495 E1268.62106
G1 X96.495 Y116.879 E1275.82796
G1 X93.024 Y116.879 E1276.69572
G1 X116.879 Y93.024 E1285.12981
G1 X116.879 Y89.553 E1285.99756
G1 X89.553 Y116.879 E1295.65883
G1 X86.082 Y116.879 E1296.52658
G1 X116.879 Y86.082 E1307.41504
G1 X116.368 Y83.121 E1308.16603
G1 X83.121 Y116.368 E1319.92051
G1 X83.121 Y112.897 E1320.78826
G1 X112.897 Y83.121 E1331.31555
G1 X109.426 Y83.121 E1332.18330
G1 X83.121 Y109.426 E1341.48341
G1 X83.121 Y105.955 E1342.35116
G1 X105.955 Y83.121 E1350.42408
G1 X102.484 Y83.121 E1351.29183
G1 X83.121 Y102.484 E1358.13757
G1 X83.121 Y99.013 E1359.00532
G1 X99.013 Y83.121 E1364.62387
G1 X95.542 Y83.121 E1365.49162
G1 X83.121 Y95.542 E1369.88299
G1 X83.121 Y92.071 E1370.75074
G1 X92.071 Y83.121 E1373.91493
G1 X88.600 Y83.121 E1374.78268
G1 X83.121 Y88.600 E1376.71968
G1 X83.121 Y85.129 E1377.58743
G1 X85.129 Y83.121 E1378.29724
G1 Z4.400 F7800.000
G1 X83.121 Y114.871 F7800.000
G1 X85.129 Y116.879 E1379.00705 F4800.000
G1 X88.600 Y116.879 E1379.87481
G1 X83.121 Y111.400 E1381.81180
G1 X83.121 Y107.929 E1382.67955
G1 X92.071 Y116.879 E1385.84374
G1 X95.542 Y116.879 E1386.71149
G1 X83.121 Y104.458 E1391.10286
G1 X83.121 Y100.987 E1391.97061
G1 X99.013 Y116.879 E1397.58916
G1 X102.484 Y116.879 E1398.45691
G1 X83.121 Y97.516 E1405.30265
G1 X83.121 Y94.045 E1406.17040
G1 X105.955 Y116.879 E1414.24332
G1 X109.426 Y116.879 E1415.11107
G1 X83.121 Y90.574 E1424.41118
G1 X83.121 Y87.103 E1425.27893
G1 X112.897 Y116.879 E1435.80622
G1 X116.368 Y116.879 E1436.67397
G1 X83.121 Y83.632 E1448.42845
G1 X86.082 Y83.121 E1449.17944
G1 X116.879 Y113.918 E1460.06790
G1 X116.879 Y110.447 E1460.93565
G1 X89.553 Y83.121 E1470.59692
G1 X93.024 Y83.121 E1471.46467
G1 X116.879 Y106.976 E1479.89877
G1 X116.879 Y103.505 E1480.76652
G1 X96.495 Y83.121 E1487.97342
G1 X99.966 Y83.121 E1488.84117
G1 X116.879 Y100.034 E1494.82089
G1 X116.879 Y96.563 E1495.68864
G1 X103.437 Y83.121 E1500.44118
G1 X106.908 Y83.121 E1501.30893
G1 X116.879 Y93.092 E1504.83428
G1 X116.879 Y89.621 E1505.70203
G1 X110.379 Y83.121 E1508.00020
G1 X113.850 Y83.121 E1508.86795
G1 X116.879 Y86.150 E1509.93893
G1 Z4.800 F7800.000
G1 X113.850 Y116.879 F7800.000
G1 X116.879 Y113.850 E1511.00992 F4800.000
G1 X116.879 Y110.379 E1511.87767
G1 X110.379 Y116.879 E1514.17583
G1 X106.908 Y116.879 E1515.04358
G1 X116.879 Y106.908 E1518.56894
G1 X116.879 Y103.437 E1519.43669
G1 X103.437 Y116.879 E1524.18922
G1 X99.966 Y116.879 E1525.05697
G1 X116.879 Y99.966 E1531.03669
G1 X116.879 Y96.495 E1531.90444
G1 X96.495 Y116.879 E1539.11135
G1 X93.024 Y116.879 E1539.97910
G1 X116.879 Y93.024 E1548.41319
G1 X116.879 Y89.553 E1549.28094
G1 X89.553 Y116.879 E1558.94222
G1 X86.082 Y116.879 E1559.80997
G1 X116.879 Y86.082 E1570.69842
G1 X116.368 Y83.121 E1571.44942
G1 X83.121 Y116.368 E1583.20389
G1 X83.121 Y112.897 E1584.07164
G1 X112.897 Y83.121 E1594.59894
G1 X109.426 Y83.121 E1595.46669
G1 X83.121 Y109.426 E1604.76679
G1 X83.121 Y105.955 E1605.63454
G1 X105.955 Y83.121 E1613.70747
G1 X102.484 Y83.121 E1614.57522
G1 X83.121 Y102.484 E1621.42095
G1 X83.121 Y99.013 E1622.28870
G1 X99.013 Y83.121 E1627.90726
G1 X95.542 Y83.121 E1628.77501
G1 X83.121 Y95.542 E1633.16638
G1 X83.121 Y92.071 E1634.03413
G1 X92.071 Y83.121 E1637.19831
G1 X88.600 Y83.121 E1638.06606
G1 X83.121 Y88.600 E1640.00306
G1 X83.121 Y85.129 E1640.87081
G1 X85.129 Y83.121 E1641.58063
G1 Z5.200 F7800.000
G1 X83.121 Y114.871 F7800.000
G1 X85.129 Y116.879 E1642.29044 F4800.000
G1 X88.600 Y116.879 E1643.15819
G1 X83.121 Y111.400 E1645.09519
G1 X83.121 Y107.929 E1645.96294
G1 X92.071 Y116.879 E1649.12712
G1 X95.542 Y116.879 E1649.99487
G1 X83.121 Y104.458 E1654.38624
G1 X83.121 Y100.987 E1655.25399
G1 X99.013 Y116.879 E1660.87255
G1 X102.484 Y116.879 E1661.74030
G1 X83.121 Y97.516 E1668.58603
G1 X83.121 Y94.045 E1669.45378
G1 X105.955 Y116.879 E1677.52671
G1 X109.426 Y116.879 E1678.39446
G1 X83.121 Y90.574 E1687.69456
G1 X83.121 Y87.103 E1688.56231
G1 X112.897 Y116.879 E1699.08961
G1 X116.368 Y116.879 E1699.95736
G1 X83.121 Y83.632 E1711.71183
G1 X86.082 Y83.121 E1712.46283
G1 X116.879 Y113.918 E1723.35128
G1 X116.879 Y110.447 E1724.21903
G1 X89.553 Y83.121 E1733.88031
G1 X93.024 Y83.121 E1734.74806
G1 X116.879 Y106.976 E1743.18215
G1 X116.879 Y103.505 E1744.04990
G1 X96.495 Y83.121 E1751.25681
G1 X99.966 Y83.121 E1752.12456
G1 X116.879 Y100.034 E1758.10428
G1 X116.879 Y96.563 E1758.97203
G1 X103.437 Y83.121 E1763.72456
G1 X106.908 Y83.121 E1764.59232
G1 X116.879 Y93.092 E1768.11767
G1 X116.879 Y89.621 E1768.98542
G1 X110.379 Y83.121 E1771.28359
G1 X113.850 Y83.121 E1772.15134
G1 X116.879 Y86.150 E1773.22232
G1 Z5.600 F7800.000
G1 X113.850 Y116.879 F7800.000
G1 X116.879 Y113.850 E1774.29330 F4800.000
G1 X116.879 Y110.379 E1775.16105
G1 X110.379 Y116.879 E1777.45922
G1 X106.908 Y116.879 E1778.32697
G1 X116.879 Y106.908 E1781.85232
G1 X116.879 Y103.437 E1782.72007
G1 X103.437 Y116.879 E1787.47261
G1 X99.966 Y116.879 E1788.34036
G1 X116.879 Y99.966 E1794.32008
G1 X116.879 Y96.495 E1795.18783
G1 X96.495 Y116.879 E1802.39474
G1 X93.024 Y116.879 E1803.26249
G1 X116.879 Y93.024 E1811.69658
G1 X116.879 Y89.553 E1812.56433
G1 X89.553 Y116.879 E1822.22560
G1 X86.082 Y116.879 E1823.09335
G1 X116.879 Y86.082 E1833.98181
G1 X116.368 Y83.121 E1834.73280
G1 X83.121 Y116.368 E1846.48728
G1 X83.121 Y112.897 E1847.35503
G1 X112.897 Y83.121 E1857.88232
G1 X109.426 Y83.121 E1858.75007
G1 X83.121 Y109.426 E1868.05018
G1 X83.121 Y105.955 E1868.91793
G1 X105.955 Y83.121 E1876.99085
G1 X102.484 Y83.121 E1877.85860
G1 X83.121 Y102.484 E1884.70434
G1 X83.121 Y99.013 E1885.57209
G1 X99.013 Y83.121 E1891.19064
G1 X95.542 Y83.121 E1892.05839
G1 X83.121 Y95.542 E1896.44976
G1 X83.121 Y92.071 E1897.31751
G1 X92.071 Y83.121 E1900.48170
G1 X88.600 Y83.121 E1901.34945
G1 X83.121 Y88.600 E1903.28645
G1 X83.121 Y85.129 E1904.15420
G1 X85.129 Y83.121 E1904.86401
G1 Z6.000 F7800.000
G1 X83.121 Y114.871 F7800.000
G1 X85.129 Y116.879 E1905.57383 F4800.000
G1 X88.600 Y116.879 E1906.44158
G1 X83.121 Y111.400 E1908.37857
G1 X83.121 Y107.929 E1909.24633
G1 X92.071 Y116.879 E1912.41051
G1 X95.542 Y116.879 E1913.27826
G1 X83.121 Y104.458 E1917.66963
G1 X83.121 Y100.987 E1918.53738
G1 X99.013 Y116.879 E1924.15593
G1 X102.484 Y116.879 E1925.02368
G1 X83.121 Y97.516 E1931.86942
G1 X83.121 Y94.045 E1932.73717
G1 X105.955 Y116.879 E1940.81009
G1 X109.426 Y116.879 E1941.67784
G1 X83.121 Y90.574 E1950.97795
G1 X83.121 Y87.103 E1951.84570
G1 X112.897 Y116.879 E1962.37299
G1 X116.368 Y116.879 E1963.24074
G1 X83.121 Y83.632 E1974.99522
G1 X86.082 Y83.121 E1975.74621
G1 X116.879 Y113.918 E1986.63467
G1 X116.879 Y110.447 E1987.50242
G1 X89.553 Y83.121 E1997.16370
G1 X93.024 Y83.121 E1998.03145
G1 X116.879 Y106.976 E2006.46554
G1 X116.879 Y103.505 E2007.33329
G1 X96.495 Y83.121 E2014.54019
G1 X99.966 Y83.121 E2015.40794
G1 X116.879 Y100.034 E2021.38766
G1 X116.879 Y96.563 E2022.25541
G1 X103.437 Y83.121 E2027.00795
G1 X106.908 Y83.121 E2027.87570
G1 X116.879 Y93.092 E2031.40105
G1 X116.879 Y89.621 E2032.26880
G1 X110.379 Y83.121 E2034.56697
G1 X113.850 Y83.121 E2035.43472
G1 X116.879 Y86.150 E2036.50570
G1 Z6.400 F7800.000
G1 X113.850 Y116.879 F7800.000
G1 X116.879 Y113.850 E2037.57669 F4800.000
G1 X116.879 Y110.379 E2038.44444
G1 X110.379 Y116.879 E2040.74260
G1 X106.908 Y116.879 E2041.61036
G1 X116.879 Y106.908 E2045.13571
G1 X116.879 Y103.437 E2046.00346
G1 X103.437 Y116.879 E2050.75599
G1 X99.966 Y116.879 E2051.62374
G1 X116.879 Y99.966 E2057.60347
G1 X116.879 Y96.495 E2058.47122
G1 X96.495 Y116.879 E2065.67812
G1 X93.024 Y116.879 E2066.54587
G1 X116.879 Y93.024 E2074.97996
G1 X116.879 Y89.553 E2075.84771
G1 X89.553 Y116.879 E2085.50899
G1 X86.082 Y116.879 E2086.37674
G1 X116.879 Y86.082 E2097.26519
G1 X116.368 Y83.121 E2098.01619
G1 X83.121 Y116.368 E2109.77066
G1 X83.121 Y112.897 E2110.63842
G1 X112.897 Y83.121 E2121.16571
G1 X109.426 Y83.121 E2122.03346
G1 X83.121 Y109.426 E2131.33356
G1 X83.121 Y105.955 E2132.20131
G1 X105.955 Y83.121 E2140.27424
G1 X102.484 Y83.121 E2141.14199
G1 X83.121 Y102.484 E2147.98773
G1 X83.121 Y99.013 E2148.85548
G1 X99.013 Y83.121 E2154.47403
G1 X95.542 Y83.121 E2155.34178
G1 X83.121 Y95.542 E2159.73315
G1 X83.121 Y92.071 E2160.60090
G1 X92.071 Y83.121 E2163.76508
G1 X88.600 Y83.121 E2164.63283
G1 X83.121 Y88.600 E2166.56983
G1 X83.121 Y85.129 E2167.43758
G1 X85.129 Y83.121 E2168.14740
G1 Z6.800 F7800.000
G1 X83.121 Y114.871 F7800.000
G1 X85.129 Y116.879 E2168.85721 F4800.000
G1 X88.600 Y116.879 E2169.72496
G1 X83.121 Y111.400 E2171.66196
G1 X83.121 Y107.929 E2172.52971
G1 X92.071 Y116.879 E2175.69389
G1 X95.542 Y116.879 E2176.56165
G1 X83.121 Y104.458 E2180.95301
G1 X83.121 Y100.987 E2181.82076
G1 X99.013 Y116.879 E2187.43932
G1 X102.484 Y116.879 E2188.30707
G1 X83.121 Y97.516 E2195.15280
G1 X83.121 Y94.045 E2196.02056
G1 X105.955 Y116.879 E2204.09348
G1 X109.426 Y116.879 E2204.96123
G1 X83.121 Y90.574 E2214.26133
G1 X83.121 Y87.103 E2215.12908
G1 X112.897 Y116.879 E2225.65638
G1 X116.368 Y116.879 E2226.52413
G1 X83.121 Y83.632 E2238.27860
G1 X86.082 Y83.121 E2239.02960
G1 X116.879 Y113.918 E2249.91806
G1 X116.879 Y110.447 E2250.78581
G1 X89.553 Y83.121 E2260.44708
G1 X93.024 Y83.121 E2261.31483
G1 X116.879 Y106.976 E2269.74892
G1 X116.879 Y103.505 E2270.61667
G1 X96.495 Y83.121 E2277.82358
G1 X99.966 Y83.121 E2278.69133
G1 X116.879 Y100.034 E2284.67105
G1 X116.879 Y96.563 E2285.53880
G1 X103.437 Y83.121 E2290.29134
G1 X106.908 Y83.121 E2291.15909
G1 X116.879 Y93.092 E2294.68444
G1 X116.879 Y89.621 E2295.55219
G1 X110.379 Y83.121 E2297.85036
G1 X113.850 Y83.121 E2298.71811
G1 X116.879 Y86.150 E2299.78909
G1 Z7.200 F7800.000
G1 X113.850 Y116.879 F7800.000
G1 X116.879 Y113.850 E2300.86007 F4800.000
G1 X116.879 Y110.379 E2301.72782
G1 X110.379 Y116.879 E2304.02599
G1 X106.908 Y116.879 E2304.89374
G1 X116.879 Y106.908 E2308.41909
G1 X116.879 Y103.437 E2309.28684
G1 X103.437 Y116.879 E2314.03938
G1 X99.966 Y116.879 E2314.90713
G1 X116.879 Y99.966 E2320.88685
G1 X116.879 Y96.495 E2321.75460
G1 X96.495 Y116.879 E2328.96151
G1 X93.024 Y116.879 E2329.82926
G1 X116.879 Y93.024 E2338.26335
G1 X116.879 Y89.553 E2339.13110
G1 X89.553 Y116.879 E2348.79237
G1 X86.082 Y116.879 E2349.66012
G1 X116.879 Y86.082 E2360.54858
G1 X116.368 Y83.121 E2361.29957
G1 X83.121 Y116.368 E2373.05405
G1 X83.121 Y112.897 E2373.92180
G1 X112.897 Y83.121 E2384.44909
G1 X109.426 Y83.121 E2385.31684
G1 X83.121 Y109.426 E2394.61695
G1 X83.121 Y105.955 E2395.48470
G1 X105.955 Y83.121 E2403.55762
G1 X102.484 Y83.121 E2404.42537
G1 X83.121 Y102.484 E2411.27111
G1 X83.121 Y99.013 E2412.13886
G1 X99.013 Y83.121 E2417.75741
G1 X95.542 Y83.121 E2418.62516
G1 X83.121 Y95.542 E2423.01653
G1 X83.121 Y92.071 E2423.88428
G1 X92.071 Y83.121 E2427.04847
G1 X88.600 Y83.121 E2427.91622
G1 X83.121 Y88.600 E2429.85322
G1 X83.121 Y85.129 E2430.72097
G1 X85.129 Y83.121 E2431.43078
G1 Z7.600 F7800.000
G1 X83.121 Y114.871 F7800.000
G1 X85.129 Y116.879 E2432.14060 F4800.000
G1 X88.600 Y116.879 E2433.00835
G1 X83.121 Y111.400 E2434.94535
G1 X83.121 Y107.929 E2435.81310
G1 X92.071 Y116.879 E2438.97728
G1 X95.542 Y116.879 E2439.84503
G1 X83.121 Y104.458 E2444.23640
G1 X83.121 Y100.987 E2445.10415
G1 X99.013 Y116.879 E2450.72270
G1 X102.484 Y116.879 E2451.59045
G1 X83.121 Y97.516 E2458.43619
G1 X83.121 Y94.045 E2459.30394
G1 X105.955 Y116.879 E2467.37686
G1 X109.426 Y116.879 E2468.24461
G1 X83.121 Y90.574 E2477.54472
G1 X83.121 Y87.103 E2478.41247
G1 X112.897 Y116.879 E2488.93976
G1 X116.368 Y116.879 E2489.80751
G1 X83.121 Y83.632 E2501.56199
G1 X86.082 Y83.121 E2502.31298
G1 X116.879 Y113.918 E2513.20144
G1 X116.879 Y110.447 E2514.06919
G1 X89.553 Y83.121 E2523.73047
G1 X93.024 Y83.121 E2524.59822
G1 X116.879 Y106.976 E2533.03231
G1 X116.879 Y103.505 E2533.90006
G1 X96.495 Y83.121 E2541.10696
G1 X99.966 Y83.121 E2541.97471
G1 X116.879 Y100.034 E2547.95443
G1 X116.879 Y96.563 E2548.82219
G1 X103.437 Y83.121 E2553.57472
G1 X106.908 Y83.121 E2554.44247
G1 X116.879 Y93.092 E2557.96782
G1 X116.879 Y89.621 E2558.83558
G1 X110.379 Y83.121 E2561.13374
G1 X113.850 Y83.121 E2562.00149
G1 X116.879 Y86.150 E2563.07248
G1 Z8.000 F7800.000
G1 X113.850 Y116.879 F7800.000
G1 X116.879 Y113.850 E2564.14346 F4800.000
G1 X116.879 Y110.379 E2565.01121
G1 X110.379 Y116.879 E2567.30938
G1 X106.908 Y116.879 E2568.17713
G1 X116.879 Y106.908 E2571.70248
G1 X116.879 Y103.437 E2572.57023
G1 X103.437 Y116.879 E2577.32276
G1 X99.966 Y116.879 E2578.19052
G1 X116.879 Y99.966 E2584.17024
G1 X116.879 Y96.495 E2585.03799
G1 X96.495 Y116.879 E2592.24489
G1 X93.024 Y116.879 E2593.11264
G1 X116.879 Y93.024 E2601.54673
G1 X116.879 Y89.553 E2602.41448
G1 X89.553 Y116.879 E2612.07576
G1 X86.082 Y116.879 E2612.94351
G1 X116.879 Y86.082 E2623.83197
G1 X116.368 Y83.121 E2624.58296
G1 X83.121 Y116.368 E2636.33744
G1 X83.121 Y112.897 E2637.20519
G1 X112.897 Y83.121 E2647.73248
G1 X109.426 Y83.121 E2648.60023
G1 X83.121 Y109.426 E2657.90034
G1 X83.121 Y105.955 E2658.76809
G1 X105.955 Y83.121 E2666.84101
G1 X102.484 Y83.121 E2667.70876
G1 X83.121 Y102.484 E2674.55450
G1 X83.121 Y99.013 E2675.42225
G1 X99.013 Y83.121 E2681.04080
G1 X95.542 Y83.121 E2681.90855
G1 X83.121 Y95.542 E2686.29992
G1 X83.121 Y92.071 E2687.16767
G1 X92.071 Y83.121 E2690.33185
G1 X88.600 Y83.121 E2691.19960
G1 X83.121 Y88.600 E2693.13660
G1 X83.121 Y85.129 E2694.00435
G1 X85.129 Y83.121 E2694.71417
G1 Z8.400 F7800.000
G1 X83.121 Y114.871 F7800.000
G1 X85.129 Y116.879 E2695.42398 F4800.000
G1 X88.600 Y116.879 E2696.29173
G1 X83.121 Y111.400 E2698.22873
G1 X83.121 Y107.929 E2699.09648
G1 X92.071 Y116.879 E2702.26067
G1 X95.542 Y116.879 E2703.12842
G1 X83.121 Y104.458 E2707.51978
G1 X83.121 Y100.987 E2708.38754
G1 X99.013 Y116.879 E2714.00609
G1 X102.484 Y116.879 E2714.87384
G1 X83.121 Y97.516 E2721.71958
G1 X83.121 Y94.045 E2722.58733
G1 X105.955 Y116.879 E2730.66025
G1 X109.426 Y116.879 E2731.52800
G1 X83.121 Y90.574 E2740.82811
G1 X83.121 Y87.103 E2741.69586
G1 X112.897 Y116.879 E2752.22315
G1 X116.368 Y116.879 E2753.09090
G1 X83.121 Y83.632 E2764.84537
G1 X86.082 Y83.121 E2765.59637
G1 X116.879 Y113.918 E2776.48483
G1 X116.879 Y110.447 E2777.35258
G1 X89.553 Y83.121 E2787.01385
G1 X93.024 Y83.121 E2787.88160
G1 X116.879 Y106.976 E2796.31569
G1 X116.879 Y103.505 E2797.18344
G1 X96.495 Y83.121 E2804.39035
G1 X99.966 Y83.121 E2805.25810
G1 X116.879 Y100.034 E2811.23782
G1 X116.879 Y96.563 E2812.10557
G1 X103.437 Y83.121 E2816.85811
G1 X106.908 Y83.121 E2817.72586
G1 X116.879 Y93.092 E2821.25121
G1 X116.879 Y89.621 E2822.11896
G1 X110.379 Y83.121 E2824.41713
G1 X113.850 Y83.121 E2825.28488
G1 X116.879 Y86.150 E2826.35586
G1 Z8.800 F7800.000
G1 X113.850 Y116.879 F7800.000
G1 X116.879 Y113.850 E2827.42684 F4800.000
G1 X116.879 Y110.379 E2828.29459
G1 X110.379 Y116.879 E2830.59276
G1 X106.908 Y116.879 E2831.46051
G1 X116.879 Y106.908 E2834.98586
G1 X116.879 Y103.437 E2835.85361
G1 X103.437 Y116.879 E2840.60615
G1 X99.966 Y116.879 E2841.47390
G1 X116.879 Y99.966 E2847.45362
G1 X116.879 Y96.495 E2848.32137
G1 X96.495 Y116.879 E2855.52828
G1 X93.024 Y116.879 E2856.39603
G1 X116.879 Y93.024 E2864.83012
G1 X116.879 Y89.553 E2865.69787
G1 X89.553 Y116.879 E2875.35914
G1 X86.082 Y116.879 E2876.22689
G1 X116.879 Y86.082 E2887.11535
G1 X116.368 Y83.121 E2887.86635
G1 X83.121 Y116.368 E2899.62082
G1 X83.121 Y112.897 E2900.48857
G1 X112.897 Y83.121 E2911.01586
G1 X109.426 Y83.121 E2911.88361
G1 X83.121 Y109.426 E2921.18372
G1 X83.121 Y105.955 E2922.05147
G1 X105.955 Y83.121 E2930.12439
G1 X102.484 Y83.121 E2930.99214
G1 X83.121 Y102.484 E2937.83788
G1 X83.121 Y99.013 E2938.70563
G1 X99.013 Y83.121 E2944.32419
G1 X95.542 Y83.121 E2945.19194
G1 X83.121 Y95.542 E2949.58330
G1 X83.121 Y92.071 E2950.45106
G1 X92.071 Y83.121 E2953.61524
G1 X88.600 Y83.121 E2954.48299
G1 X83.121 Y88.600 E2956.41999
G1 X83.121 Y85.129 E2957.28774
G1 X85.129 Y83.121 E2957.99755
G1 Z9.200 F7800.000
G1 X83.121 Y114.871 F7800.000
G1 X85.129 Y116.879 E2958.70737 F4800.000
G1 X88.600 Y116.879 E2959.57512
G1 X83.121 Y111.400 E2961.51212
G1 X83.121 Y107.929 E2962.37987
G1 X92.071 Y116.879 E2965.54405
G1 X95.542 Y116.879 E2966.41180
G1 X83.121 Y104.458 E2970.80317
G1 X83.121 Y100.987 E2971.67092
G1 X99.013 Y116.879 E2977.28947
G1 X102.484 Y116.879 E2978.15722
G1 X83.121 Y97.516 E2985.00296
G1 X83.121 Y94.045 E2985.87071
G1 X105.955 Y116.879 E2993.94363
G1 X109.426 Y116.879 E2994.81138
G1 X83.121 Y90.574 E3004.11149
G1 X83.121 Y87.103 E3004.97924
G1 X112.897 Y116.879 E3015.50653
G1 X116.368 Y116.879 E3016.37428
G1 X83.121 Y83.632 E3028.12876
G1 X86.082 Y83.121 E3028.87975
G1 X116.879 Y113.918 E3039.76821
G1 X116.879 Y110.447 E3040.63596
G1 X89.553 Y83.121 E3050.29724
G1 X93.024 Y83.121 E3051.16499
G1 X116.879 Y106.976 E3059.59908
G1 X116.879 Y103.505 E3060.46683
G1 X96.495 Y83.121 E3067.67373
G1 X99.966 Y83.121 E3068.54148
G1 X116.879 Y100.034 E3074.52121
G1 X116.879 Y96.563 E3075.38896
G1 X103.437 Y83.121 E3080.14149
G1 X106.908 Y83.121 E3081.00924
G1 X116.879 Y93.092 E3084.53460
G1 X116.879 Y89.621 E3085.40235
G1 X110.379 Y83.121 E3087.70051
G1 X113.850 Y83.121 E3088.56826
G1 X116.879 Y86.150 E3089.63925
G1 Z9.600 F7800.000
G1 X113.850 Y116.879 F7800.000
G1 X116.879 Y113.850 E3090.71023 F4800.000
G1 X116.879 Y110.379 E3091.57798
G1 X110.379 Y116.879 E3093.87615
G1 X106.908 Y116.879 E3094.74390
G1 X116.879 Y106.908 E3098.26925
G1 X116.879 Y103.437 E3099.13700
G1 X103.437 Y116.879 E3103.88954
G1 X99.966 Y116.879 E3104.75729
G1 X116.879 Y99.966 E3110.73701
G1 X116.879 Y96.495 E3111.60476
G1 X96.495 Y116.879 E3118.81166
G1 X93.024 Y116.879 E3119.67941
G1 X116.879 Y93.024 E3128.11350
G1 X116.879 Y89.553 E3128.98125
G1 X89.553 Y116.879 E3138.64253
G1 X86.082 Y116.879 E3139.51028
G1 X116.879 Y86.082 E3150.39874
G1 X116.368 Y83.121 E3151.14973
G1 X83.121 Y116.368 E3162.90421
G1 X83.121 Y112.897 E3163.77196
G1 X112.897 Y83.121 E3174.29925
G1 X109.426 Y83.121 E3175.16700
G1 X83.121 Y109.426 E3184.46711
G1 X83.121 Y105.955 E3185.33486
G1 X105.955 Y83.121 E3193.40778
G1 X102.484 Y83.121 E3194.27553
G1 X83.121 Y102.484 E3201.12127
G1 X83.121 Y99.013 E3201.98902
G1 X99.013 Y83.121 E3207.60757
G1 X95.542 Y83.121 E3208.47532
G1 X83.121 Y95.542 E3212.86669
G1 X83.121 Y92.071 E3213.73444
G1 X92.071 Y83.121 E3216.89862
G1 X88.600 Y83.121 E3217.76637
G1 X83.121 Y88.600 E3219.70337
G1 X83.121 Y85.129 E3220.57112
G1 X85.129 Y83.121 E3221.28094
G1 Z10.000 F7800.000
G1 X83.121 Y114.871 F7800.000
G1 X85.129 Y116.879 E3221.99075 F4800.000
G1 X88.600 Y116.879 E3222.85850
G1 X83.121 Y111.400 E3224.79550
G1 X83.121 Y107.929 E3225.66325
G1 X92.071 Y116.879 E3228.82744
G1 X95.542 Y116.879 E3229.69519
G1 X83.121 Y104.458 E3234.08656
G1 X83.121 Y100.987 E3234.95431
G1 X99.013 Y116.879 E3240.57286
G1 X102.484 Y116.879 E3241.44061
G1 X83.121 Y97.516 E3248.28635
G1 X83.121 Y94.045 E3249.15410
G1 X105.955 Y116.879 E3257.22702
G1 X109.426 Y116.879 E3258.09477
G1 X83.121 Y90.574 E3267.39488
G1 X83.121 Y87.103 E3268.26263
G1 X112.897 Y116.879 E3278.78992
G1 X116.368 Y116.879 E3279.65767
G1 X83.121 Y83.632 E3291.41214
G1 X86.082 Y83.121 E3292.16314
G1 X116.879 Y113.918 E3303.05160
G1 X116.879 Y110.447 E3303.91935
G1 X89.553 Y83.121 E3313.58062
G1 X93.024 Y83.121 E3314.44837
G1 X116.879 Y106.976 E3322.88246
G1 X116.879 Y103.505 E3323.75021
G1 X96.495 Y83.121 E3330.95712
G1 X99.966 Y83.121 E3331.82487
G1 X116.879 Y100.034 E3337.80459
G1 X116.879 Y96.563 E3338.67234
G1 X103.437 Y83.121 E3343.42488
G1 X106.908 Y83.121 E3344.29263
G1 X116.879 Y93.092 E3347.81798
G1 X116.879 Y89.621 E3348.68573
G1 X110.379 Y83.121 E3350.98390
G1 X113.850 Y83.121 E3351.85165
G1 X116.879 Y86.150 E3352.92263
G1 Z10.400 F7800.000
G1 X113.850 Y116.879 F7800.000
G1 X116.879 Y113.850 E3353.99361 F4800.000
G1 X116.879 Y110.379 E3354.86137
G1 X110.379 Y116.879 E3357.15953
G1 X106.908 Y116.879 E3358.02728
G1 X116.879 Y106.908 E3361.55263
G1 X116.879 Y103.437 E3362.42039
G1 X103.437 Y116.879 E3367.17292
G1 X99.966 Y116.879 E3368.04067
G1 X116.879 Y99.966 E3374.02039
G1 X116.879 Y96.495 E3374.88814
G1 X96.495 Y116.879 E3382.09505
G1 X93.024 Y116.879 E3382.96280
G1 X116.879 Y93.024 E3391.39689
G1 X116.879 Y89.553 E3392.26464
G1 X89.553 Y116.879 E3401.92591
G1 X86.082 Y116.879 E3402.79366
G1 X116.879 Y86.082 E3413.68212
G1 X116.368 Y83.121 E3414.43312
G1 X83.121 Y116.368 E3426.18759
G1 X83.121 Y112.897 E3427.05534
G1 X112.897 Y83.121 E3437.58263
G1 X109.426 Y83.121 E3438.45039
G1 X83.121 Y109.426 E3447.75049
G1 X83.121 Y105.955 E3448.61824
G1 X105.955 Y83.121 E3456.69116
G1 X102.484 Y83.121 E3457.55891
G1 X83.121 Y102.484 E3464.40465
G1 X83.121 Y99.013 E3465.27240
G1 X99.013 Y83.121 E3470.89096
G1 X95.542 Y83.121 E3471.75871
G1 X83.121 Y95.542 E3476.15008
G1 X83.121 Y92.071 E3477.01783
G1 X92.071 Y83.121 E3480.18201
G1 X88.600 Y83.121 E3481.04976
G1 X83.121 Y88.600 E3482.98676
G1 X83.121 Y85.129 E3483.85451
G1 X85.129 Y83.121 E3484.56432
G1 Z10.800 F7800.000
G1 X83.121 Y114.871 F7800.000
G1 X85.129 Y116.879 E3485.27414 F4800.000
G1 X88.600 Y116.879 E3486.14189
G1 X83.121 Y111.400 E3488.07889
G1 X83.121 Y107.929 E3488.94664
G1 X92.071 Y116.879 E3492.11082
G1 X95.542 Y116.879 E3492.97857
G1 X83.121 Y104.458 E3497.36994
G1 X83.121 Y100.987 E3498.23769
G1 X99.013 Y116.879 E3503.85624
G1 X102.484 Y116.879 E3504.72400
G1 X83.121 Y97.516 E3511.56973
G1 X83.121 Y94.045 E3512.43748
G1 X105.955 Y116.879 E3520.51040
G1 X109.426 Y116.879 E3521.37816
G1 X83.121 Y90.574 E3530.67826
G1 X83.121 Y87.103 E3531.54601
G1 X112.897 Y116.879 E3542.07330
G1 X116.368 Y116.879 E3542.94105
G1 X83.121 Y83.632 E3554.69553
G1 X86.082 Y83.121 E3555.44652
G1 X116.879 Y113.918 E3566.33498
G1 X116.879 Y110.447 E3567.20273
G1 X89.553 Y83.121 E3576.86401
G1 X93.024 Y83.121 E3577.73176
G1 X116.879 Y106.976 E3586.16585
G1 X116.879 Y103.505 E3587.03360
G1 X96.495 Y83.121 E3594.24051
G1 X99.966 Y83.121 E3595.10826
G1 X116.879 Y100.034 E3601.08798
G1 X116.879 Y96.563 E3601.95573
G1 X103.437 Y83.121 E3606.70826
G1 X106.908 Y83.121 E3607.57601
G1 X116.879 Y93.092 E3611.10137
G1 X116.879 Y89.621 E3611.96912
G1 X110.379 Y83.121 E3614.26728
G1 X113.850 Y83.121 E3615.13503
G1 X116.879 Y86.150 E3616.20602
G1 Z11.200 F7800.000
G1 X113.850 Y116.879 F7800.000
G1 X116.879 Y113.850 E3617.27700 F4800.000
G1 X116.879 Y110.379 E3618.14475
G1 X110.379 Y116.879 E3620.44292
G1 X106.908 Y116.879 E3621.31067
G1 X116.879 Y106.908 E3624.83602
G1 X116.879 Y103.437 E3625.70377
G1 X103.437 Y116.879 E3630.45631
G1 X99.966 Y116.879 E3631.32406
G1 X116.879 Y99.966 E3637.30378
G1 X116.879 Y96.495 E3638.17153
G1 X96.495 Y116.879 E3645.37843
G1 X93.024 Y116.879 E3646.24618
G1 X116.879 Y93.024 E3654.68027
G1 X116.879 Y89.553 E3655.54802
G1 X89.553 Y116.879 E3665.20930
G1 X86.082 Y116.879 E3666.07705
G1 X116.879 Y86.082 E3676.96551
G1 X116.368 Y83.121 E3677.71650
G1 X83.121 Y116.368 E3689.47098
G1 X83.121 Y112.897 E3690.33873
G1 X112.897 Y83.121 E3700.86602
G1 X109.426 Y83.121 E3701.73377
G1 X83.121 Y109.426 E3711.03388
G1 X83.121 Y105.955 E3711.90163
G1 X105.955 Y83.121 E3719.97455
G1 X102.484 Y83.121 E3720.84230
G1 X83.121 Y102.484 E3727.68804
G1 X83.121 Y99.013 E3728.55579
G1 X99.013 Y83.121 E3734.17434
G1 X95.542 Y83.121 E3735.04209
G1 X83.121 Y95.542 E3739.43346
G1 X83.121 Y92.071 E3740.30121
G1 X92.071 Y83.121 E3743.46540
G1 X88.600 Y83.121 E3744.33315
G1 X83.121 Y88.600 E3746.27014
G1 X83.121 Y85.129 E3747.13790
G1 X85.129 Y83.121 E3747.84771
G1 Z11.600 F7800.000
G1 X83.121 Y114.871 F7800.000
G1 X85.129 Y116.879 E3748.55752 F4800.000
G1 X88.600 Y116.879 E3749.42527
G1 X83.121 Y111.400 E3751.36227
G1 X83.121 Y107.929 E3752.23002
G1 X92.071 Y116.879 E3755.39421
G1 X95.542 Y116.879 E3756.26196
G1 X83.121 Y104.458 E3760.65333
G1 X83.121 Y100.987 E3761.52108
G1 X99.013 Y116.879 E3767.13963
G1 X102.484 Y116.879 E3768.00738
G1 X83.121 Y97.516 E3774.85312
G1 X83.121 Y94.045 E3775.72087
G1 X105.955 Y116.879 E3783.79379
G1 X109.426 Y116.879 E3784.66154
G1 X83.121 Y90.574 E3793.96165
G1 X83.121 Y87.103 E3794.82940
G1 X112.897 Y116.879 E3805.35669
G1 X116.368 Y116.879 E3806.22444
G1 X83.121 Y83.632 E3817.97892
G1 X86.082 Y83.121 E3818.72991
G1 X116.879 Y113.918 E3829.61837
G1 X116.879 Y110.447 E3830.48612
G1 X89.553 Y83.121 E3840.14739
G1 X93.024 Y83.121 E3841.01514
G1 X116.879 Y106.976 E3849.44923
G1 X116.879 Y103.505 E3850.31699
G1 X96.495 Y83.121 E3857.52389
G1 X99.966 Y83.121 E3858.39164
G1 X116.879 Y100.034 E3864.37136
G1 X116.879 Y96.563 E3865.23911
G1 X103.437 Y83.121 E3869.99165
G1 X106.908 Y83.121 E3870.85940
G1 X116.879 Y93.092 E3874.38475
G1 X116.879 Y89.621 E3875.25250
G1 X110.379 Y83.121 E3877.55067
G1 X113.850 Y83.121 E3878.41842
G1 X116.879 Y86.150 E3879.48940
G1 Z12.000 F7800.000
G1 X113.850 Y116.879 F7800.000
G1 X116.879 Y113.850 E3880.56039 F4800.000
G1 X116.879 Y110.379 E3881.42814
G1 X110.379 Y116.879 E3883.72630
G1 X106.908 Y116.879 E3884.59405
G1 X116.879 Y106.908 E3888.11941
G1 X116.879 Y103.437 E3888.98716
G1 X103.437 Y116.879 E3893.73969
G1 X99.966 Y116.879 E3894.60744
G1 X116.879 Y99.966 E3900.58716
G1 X116.879 Y96.495 E3901.45491
G1 X96.495 Y116.879 E3908.66182
G1 X93.024 Y116.879 E3909.52957
G1 X116.879 Y93.024 E3917.96366
G1 X116.879 Y89.553 E3918.83141
G1 X89.553 Y116.879 E3928.49268
G1 X86.082 Y116.879 E3929.36043
G1 X116.879 Y86.082 E3940.24889
G1 X116.368 Y83.121 E3940.99989
G1 X83.121 Y116.368 E3952.75436
G1 X83.121 Y112.897 E3953.62211
G1 X112.897 Y83.121 E3964.14941
G1 X109.426 Y83.121 E3965.01716
G1 X83.121 Y109.426 E3974.31726
G1 X83.121 Y105.955 E3975.18501
G1 X105.955 Y83.121 E3983.25794
G1 X102.484 Y83.121 E3984.12569
G1 X83.121 Y102.484 E3990.97142
G1 X83.121 Y99.013 E3991.83917
G1 X99.013 Y83.121 E3997.45773
G1 X95.542 Y83.121 E3998.32548
G1 X83.121 Y95.542 E4002.71685
G1 X83.121 Y92.071 E4003.58460
G1 X92.071 Y83.121 E4006.74878
G1 X88.600 Y83.121 E4007.61653
G1 X83.121 Y88.600 E4009.55353
G1 X83.121 Y85.129 E4010.42128
G1 X85.129 Y83.121 E4011.13110
G1 Z12.400 F7800.000
G1 X83.121 Y114.871 F7800.000
G1 X85.129 Y116.879 E4011.84091 F4800.000
G1 X88.600 Y116.879 E4012.70866
G1 X83.121 Y111.400 E4014.64566
G1 X83.121 Y107.929 E4015.51341
G1 X92.071 Y116.879 E4018.67759
G1 X95.542 Y116.879 E4019.54534
G1 X83.121 Y104.458 E4023.93671
G1 X83.121 Y100.987 E4024.80446
G1 X99.013 Y116.879 E4030.42302
G1 X102.484 Y116.879 E4031.29077
G1 X83.121 Y97.516 E4038.13650
G1 X83.121 Y94.045 E4039.00425
G1 X105.955 Y116.879 E4047.07718
G1 X109.426 Y116.879 E4047.94493
G1 X83.121 Y90.574 E4057.24503
G1 X83.121 Y87.103 E4058.11278
G1 X112.897 Y116.879 E4068.64007
G1 X116.368 Y116.879 E4069.50783
G1 X83.121 Y83.632 E4081.26230
G1 X86.082 Y83.121 E4082.01329
G1 X116.879 Y113.918 E4092.90175
G1 X116.879 Y110.447 E4093.76950
G1 X89.553 Y83.121 E4103.43078
G1 X93.024 Y83.121 E4104.29853
G1 X116.879 Y106.976 E4112.73262
G1 X116.879 Y103.505 E4113.60037
G1 X96.495 Y83.121 E4120.80728
G1 X99.966 Y83.121 E4121.67503
G1 X116.879 Y100.034 E4127.65475
G1 X116.879 Y96.563 E4128.52250
G1 X103.437 Y83.121 E4133.27503
G1 X106.908 Y83.121 E4134.14279
G1 X116.879 Y93.092 E4137.66814
G1 X116.879 Y89.621 E4138.53589
G1 X110.379 Y83.121 E4140.83406
G1 X113.850 Y83.121 E4141.70181
G1 X116.879 Y86.150 E4142.77279
G1 Z12.800 F7800.000
G1 X113.850 Y116.879 F7800.000
G1 X116.879 Y113.850 E4143.84377 F4800.000
G1 X116.879 Y110.379 E4144.71152
G1 X110.379 Y116.879 E4147.00969
G1 X106.908 Y116.879 E4147.87744
G1 X116.879 Y106.908 E4151.40279
G1 X116.879 Y103.437 E4152.27054
G1 X103.437 Y116.879 E4157.02308
G1 X99.966 Y116.879 E4157.89083
G1 X116.879 Y99.966 E4163.87055
G1 X116.879 Y96.495 E4164.73830
G1 X96.495 Y116.879 E4171.94520
G1 X93.024 Y116.879 E4172.81296
G1 X116.879 Y93.024 E4181.24705
G1 X116.879 Y89.553 E4182.11480
G1 X89.553 Y116.879 E4191.77607
G1 X86.082 Y116.879 E4192.64382
G1 X116.879 Y86.082 E4203.53228
G1 X116.368 Y83.121 E4204.28327
G1 X83.121 Y116.368 E4216.03775
G1 X83.121 Y112.897 E4216.90550
G1 X112.897 Y83.121 E4227.43279
G1 X109.426 Y83.121 E4228.30054
G1 X83.121 Y109.426 E4237.60065
G1 X83.121 Y105.955 E4238.46840
G1 X105.955 Y83.121 E4246.54132
G1 X102.484 Y83.121 E4247.40907
G1 X83.121 Y102.484 E4254.25481
G1 X83.121 Y99.013 E4255.12256
G1 X99.013 Y83.121 E4260.74111
G1 X95.542 Y83.121 E4261.60886
G1 X83.121 Y95.542 E4266.00023
G1 X83.121 Y92.071 E4266.86798
G1 X92.071 Y83.121 E4270.03217
G1 X88.600 Y83.121 E4270.89992
G1 X83.121 Y88.600 E4272.83692
G1 X83.121 Y85.129 E4273.70467
G1 X85.129 Y83.121 E4274.41448
G1 Z13.200 F7800.000
G1 X83.121 Y114.871 F7800.000
G1 X85.129 Y116.879 E4275.12430 F4800.000
G1 X88.600 Y116.879 E4275.99205
G1 X83.121 Y111.400 E4277.92904
G1 X83.121 Y107.929 E4278.79679
G1 X92.071 Y116.879 E4281.96098
G1 X95.542 Y116.879 E4282.82873
G1 X83.121 Y104.458 E4287.22010
G1 X83.121 Y100.987 E4288.08785
G1 X99.013 Y116.879 E4293.70640
G1 X102.484 Y116.879 E4294.57415
G1 X83.121 Y97.516 E4301.41989
G1 X83.121 Y94.045 E4302.28764
G1 X105.955 Y116.879 E4310.36056
G1 X109.426 Y116.879 E4311.22831
G1 X83.121 Y90.574 E4320.52842
G1 X83.121 Y87.103 E4321.39617
G1 X112.897 Y116.879 E4331.92346
G1 X116.368 Y116.879 E4332.79121
G1 X83.121 Y83.632 E4344.54569
G1 X86.082 Y83.121 E4345.29668
G1 X116.879 Y113.918 E4356.18514
G1 X116.879 Y110.447 E4357.05289
G1 X89.553 Y83.121 E4366.71416
G1 X93.024 Y83.121 E4367.58192
G1 X116.879 Y106.976 E4376.01601
G1 X116.879 Y103.505 E4376.88376
G1 X96.495 Y83.121 E4384.09066
G1 X99.966 Y83.121 E4384.95841
G1 X116.879 Y100.034 E4390.93813
G1 X116.879 Y96.563 E4391.80588
G1 X103.437 Y83.121 E4396.55842
G1 X106.908 Y83.121 E4397.42617
G1 X116.879 Y93.092 E4400.95152
G1 X116.879 Y89.621 E4401.81927
G1 X110.379 Y83.121 E4404.11744
G1 X113.850 Y83.121 E4404.98519
G1 X116.879 Y86.150 E4406.05617
G1 Z13.600 F7800.000
G1 X113.850 Y116.879 F7800.000
G1 X116.879 Y113.850 E4407.12716 F4800.000
G1 X116.879 Y110.379 E4407.99491
G1 X110.379 Y116.879 E4410.29307
G1 X106.908 Y116.879 E4411.16082
G1 X116.879 Y106.908 E4414.68618
G1 X116.879 Y103.437 E4415.55393
G1 X103.437 Y116.879 E4420.30646
G1 X99.966 Y116.879 E4421.17421
G1 X116.879 Y99.966 E4427.15393
G1 X116.879 Y96.495 E4428.02169
G1 X96.495 Y116.879 E4435.22859
G1 X93.024 Y116.879 E4436.09634
G1 X116.879 Y93.024 E4444.53043
G1 X116.879 Y89.553 E4445.39818
G1 X89.553 Y116.879 E4455.05946
G1 X86.082 Y116.879 E4455.92721
G1 X116.879 Y86.082 E4466.81566
G1 X116.368 Y83.121 E4467.56666
G1 X83.121 Y116.368 E4479.32113
G1 X83.121 Y112.897 E4480.18888
G1 X112.897 Y83.121 E4490.71618
G1 X109.426 Y83.121 E4491.58393
G1 X83.121 Y109.426 E4500.88403
G1 X83.121 Y105.955 E4501.75178
G1 X105.955 Y83.121 E4509.82471
G1 X102.484 Y83.121 E4510.69246
G1 X83.121 Y102.484 E4517.53819
G1 X83.121 Y99.013 E4518.40595
G1 X99.013 Y83.121 E4524.02450
G1 X95.542 Y83.121 E4524.89225
G1 X83.121 Y95.542 E4529.28362
G1 X83.121 Y92.071 E4530.15137
G1 X92.071 Y83.121 E4533.31555
G1 X88.600 Y83.121 E4534.18330
G1 X83.121 Y88.600 E4536.12030
G1 X83.121 Y85.129 E4536.98805
G1 X85.129 Y83.121 E4537.69787
G1 Z14.000 F7800.000
G1 X83.121 Y114.871 F7800.000
G1 X85.129 Y116.879 E4538.40768 F4800.000
G1 X88.600 Y116.879 E4539.27543
G1 X83.121 Y111.400 E4541.21243
G1 X83.121 Y107.929 E4542.08018
G1 X92.071 Y116.879 E4545.24436
G1 X95.542 Y116.879 E4546.11211
G1 X83.121 Y104.458 E4550.50348
G1 X83.121 Y100.987 E4551.37123
G1 X99.013 Y116.879 E4556.98979
G1 X102.484 Y116.879 E4557.85754
G1 X83.121 Y97.516 E4564.70327
G1 X83.121 Y94.045 E4565.57102
G1 X105.955 Y116.879 E4573.64395
G1 X109.426 Y116.879 E4574.51170
G1 X83.121 Y90.574 E4583.81180
G1 X83.121 Y87.103 E4584.67955
G1 X112.897 Y116.879 E4595.20685
G1 X116.368 Y116.879 E4596.07460
G1 X83.121 Y83.632 E4607.82907
G1 X86.082 Y83.121 E4608.58007
G1 X116.879 Y113.918 E4619.46853
G1 X116.879 Y110.447 E4620.33628
G1 X89.553 Y83.121 E4629.99755
G1 X93.024 Y83.121 E4630.86530
G1 X116.879 Y106.976 E4639.29939
G1 X116.879 Y103.505 E4640.16714
G1 X96.495 Y83.121 E4647.37405
G1 X99.966 Y83.121 E4648.24180
G1 X116.879 Y100.034 E4654.22152
G1 X116.879 Y96.563 E4655.08927
G1 X103.437 Y83.121 E4659.84181
G1 X106.908 Y83.121 E4660.70956
G1 X116.879 Y93.092 E4664.23491
G1 X116.879 Y89.621 E4665.10266
G1 X110.379 Y83.121 E4667.40083
G1 X113.850 Y83.121 E4668.26858
G1 X116.879 Y86.150 E4669.33956
G1 Z14.400 F7800.000
G1 X113.850 Y116.879 F7800.000
G1 X116.879 Y113.850 E4670.41054 F4800.000
G1 X116.879 Y110.379 E4671.27829
G1 X110.379 Y116.879 E4673.57646
G1 X106.908 Y116.879 E4674.44421
G1 X116.879 Y106.908 E4677.96956
G1 X116.879 Y103.437 E4678.83731
G1 X103.437 Y116.879 E4683.58985
G1 X99.966 Y116.879 E4684.45760
G1 X116.879 Y99.966 E4690.43732
G1 X116.879 Y96.495 E4691.30507
G1 X96.495 Y116.879 E4698.51198
G1 X93.024 Y116.879 E4699.37973
G1 X116.879 Y93.024 E4707.81382
G1 X116.879 Y89.553 E4708.68157
G1 X89.553 Y116.879 E4718.34284
G1 X86.082 Y116.879 E4719.21059
G1 X116.879 Y86.082 E4730.09905
G1 X116.368 Y83.121 E4730.85004
G1 X83.121 Y116.368 E4742.60452
G1 X83.121 Y112.897 E4743.47227
G1 X112.897 Y83.121 E4753.99956
G1 X109.426 Y83.121 E4754.86731
G1 X83.121 Y109.426 E4764.16742
G1 X83.121 Y105.955 E4765.03517
G1 X105.955 Y83.121 E4773.10809
G1 X102.484 Y83.121 E4773.97584
G1 X83.121 Y102.484 E4780.82158
G1 X83.121 Y99.013 E4781.68933
G1 X99.013 Y83.121 E4787.30788
G1 X95.542 Y83.121 E4788.17563
G1 X83.121 Y95.542 E4792.56700
G1 X83.121 Y92.071 E4793.43475
G1 X92.071 Y83.121 E4796.59894
G1 X88.600 Y83.121 E4797.46669
G1 X83.121 Y88.600 E4799.40369
G1 X83.121 Y85.129 E4800.27144
G1 X85.129 Y83.121 E4800.98125
G1 Z14.800 F7800.000
G1 X83.121 Y114.871 F7800.000
G1 X85.129 Y116.879 E4801.69107 F4800.000
G1 X88.600 Y116.879 E4802.55882
G1 X83.121 Y111.400 E4804.49582
G1 X83.121 Y107.929 E4805.36357
G1 X92.071 Y116.879 E4808.52775
G1 X95.542 Y116.879 E4809.39550
G1 X83.121 Y104.458 E4813.78687
G1 X83.121 Y100.987 E4814.65462
G1 X99.013 Y116.879 E4820.27317
G1 X102.484 Y116.879 E4821.14092
G1 X83.121 Y97.516 E4827.98666
G1 X83.121 Y94.045 E4828.85441
G1 X105.955 Y116.879 E4836.92733
G1 X109.426 Y116.879 E4837.79508
G1 X83.121 Y90.574 E4847.09519
G1 X83.121 Y87.103 E4847.96294
G1 X112.897 Y116.879 E4858.49023
G1 X116.368 Y116.879 E4859.35798
G1 X83.121 Y83.632 E4871.11246
G1 X86.082 Y83.121 E4871.86345
G1 X116.879 Y113.918 E4882.75191
G1 X116.879 Y110.447 E4883.61966
G1 X89.553 Y83.121 E4893.28094
G1 X93.024 Y83.121 E4894.14869
G1 X116.879 Y106.976 E4902.58278
G1 X116.879 Y103.505 E4903.45053
G1 X96.495 Y83.121 E4910.65743
G1 X99.966 Y83.121 E4911.52518
G1 X116.879 Y100.034 E4917.50490
G1 X116.879 Y96.563 E4918.37265
G1 X103.437 Y83.121 E4923.12519
G1 X106.908 Y83.121 E4923.99294
G1 X116.879 Y93.092 E4927.51829
G1 X116.879 Y89.621 E4928.38604
G1 X110.379 Y83.121 E4930.68421
G1 X113.850 Y83.121 E4931.55196
G1 X116.879 Y86.150 E4932.62294
G1 Z15.200 F7800.000
G1 X113.850 Y116.879 F7800.000
G1 X116.879 Y113.850 E4933.69393 F4800.000
G1 X116.879 Y110.379 E4934.56168
G1 X110.379 Y116.879 E4936.85985
G1 X106.908 Y116.879 E4937.72760
G1 X116.879 Y106.908 E4941.25295
G1 X116.879 Y103.437 E4942.12070
G1 X103.437 Y116.879 E4946.87323
G1 X99.966 Y116.879 E4947.74098
G1 X116.879 Y99.966 E4953.72071
G1 X116.879 Y96.495 E4954.58846
G1 X96.495 Y116.879 E4961.79536
G1 X93.024 Y116.879 E4962.66311
G1 X116.879 Y93.024 E4971.09720
G1 X116.879 Y89.553 E4971.96495
G1 X89.553 Y116.879 E4981.62623
G1 X86.082 Y116.879 E4982.49398
G1 X116.879 Y86.082 E4993.38244
G1 X116.368 Y83.121 E4994.13343
G1 X83.121 Y116.368 E5005.88791
G1 X83.121 Y112.897 E5006.75566
G1 X112.897 Y83.121 E5017.28295
G1 X109.426 Y83.121 E5018.15070
G1 X83.121 Y109.426 E5027.45080
G1 X83.121 Y105.955 E5028.31856
G1 X105.955 Y83.121 E5036.39148
G1 X102.484 Y83.121 E5037.25923
G1 X83.121 Y102.484 E5044.10497
G1 X83.121 Y99.013 E5044.97272
G1 X99.013 Y83.121 E5050.59127
G1 X95.542 Y83.121 E5051.45902
G1 X83.121 Y95.542 E5055.85039
G1 X83.121 Y92.071 E5056.71814
G1 X92.071 Y83.121 E5059.88232
G1 X88.600 Y83.121 E5060.75007
G1 X83.121 Y88.600 E5062.68707
G1 X83.121 Y85.129 E5063.55482
G1 X85.129 Y83.121 E5064.26464
G1 Z15.600 F7800.000
G1 X83.121 Y114.871 F7800.000
G1 X85.129 Y116.879 E5064.97445 F4800.000
G1 X88.600 Y116.879 E5065.84220
G1 X83.121 Y111.400 E5067.77920
G1 X83.121 Y107.929 E5068.64695
G1 X92.071 Y116.879 E5071.81114
G1 X95.542 Y116.879 E5072.67889
G1 X83.121 Y104.458 E5077.07025
G1 X83.121 Y100.987 E5077.93800
G1 X99.013 Y116.879 E5083.55656
G1 X102.484 Y116.879 E5084.42431
G1 X83.121 Y97.516 E5091.27005
G1 X83.121 Y94.045 E5092.13780
G1 X105.955 Y116.879 E5100.21072
G1 X109.426 Y116.879 E5101.07847
G1 X83.121 Y90.574 E5110.37857
G1 X83.121 Y87.103 E5111.24633
G1 X112.897 Y116.879 E5121.77362
G1 X116.368 Y116.879 E5122.64137
G1 X83.121 Y83.632 E5134.39584
G1 X86.082 Y83.121 E5135.14684
G1 X116.879 Y113.918 E5146.03530
G1 X116.879 Y110.447 E5146.90305
G1 X89.553 Y83.121 E5156.56432
G1 X93.024 Y83.121 E5157.43207
G1 X116.879 Y106.976 E5165.86616
G1 X116.879 Y103.505 E5166.73391
G1 X96.495 Y83.121 E5173.94082
G1 X99.966 Y83.121 E5174.80857
G1 X116.879 Y100.034 E5180.78829
G1 X116.879 Y96.563 E5181.65604
G1 X103.437 Y83.121 E5186.40858
G1 X106.908 Y83.121 E5187.27633
G1 X116.879 Y93.092 E5190.80168
G1 X116.879 Y89.621 E5191.66943
G1 X110.379 Y83.121 E5193.96760
G1 X113.850 Y83.121 E5194.83535
G1 X116.879 Y86.150 E5195.90633
G1 Z16.000 F7800.000
G1 X113.850 Y116.879 F7800.000
G1 X116.879 Y113.850 E5196.97731 F4800.000
G1 X116.879 Y110.379 E5197.84506
G1 X110.379 Y116.879 E5200.14323
G1 X106.908 Y116.879 E5201.01098
G1 X116.879 Y106.908 E5204.53633
G1 X116.879 Y103.437 E5205.40408
G1 X103.437 Y116.879 E5210.15662
G1 X99.966 Y116.879 E5211.02437
G1 X116.879 Y99.966 E5217.00409
G1 X116.879 Y96.495 E5217.87184
G1 X96.495 Y116.879 E5225.07875
G1 X93.024 Y116.879 E5225.94650
G1 X116.879 Y93.024 E5234.38059
G1 X116.879 Y89.553 E5235.24834
G1 X89.553 Y116.879 E5244.90961
G1 X86.082 Y116.879 E5245.77736
G1 X116.879 Y86.082 E5256.66582
G1 X116.368 Y83.121 E5257.41682
G1 X83.121 Y116.368 E5269.17129
G1 X83.121 Y112.897 E5270.03904
G1 X112.897 Y83.121 E5280.56633
G1 X109.426 Y83.121 E5281.43408
G1 X83.121 Y109.426 E5290.73419
G1 X83.121 Y105.955 E5291.60194
G1 X105.955 Y83.121 E5299.67486
G1 X102.484 Y83.121 E5300.54261
G1 X83.121 Y102.484 E5307.38835
G1 X83.121 Y99.013 E5308.25610
G1 X99.013 Y83.121 E5313.87465
G1 X95.542 Y83.121 E5314.74241
G1 X83.121 Y95.542 E5319.13377
G1 X83.121 Y92.071 E5320.00152
G1 X92.071 Y83.121 E5323.16571
G1 X88.600 Y83.121 E5324.03346
G1 X83.121 Y88.600 E5325.97046
G1 X83.121 Y85.129 E5326.83821
G1 X85.129 Y83.121 E5327.54802
G1 Z16.400 F7800.000
G1 X83.121 Y114.871 F7800.000
G1 X85.129 Y116.879 E5328.25784 F4800.000
G1 X88.600 Y116.879 E5329.12559
G1 X83.121 Y111.400 E5331.06259
G1 X83.121 Y107.929 E5331.93034
G1 X92.071 Y116.879 E5335.09452
G1 X95.542 Y116.879 E5335.96227
G1 X83.121 Y104.458 E5340.35364
G1 X83.121 Y100.987 E5341.22139
G1 X99.013 Y116.879 E5346.83994
G1 X102.484 Y116.879 E5347.70769
G1 X83.121 Y97.516 E5354.55343
G1 X83.121 Y94.045 E5355.42118
G1 X105.955 Y116.879 E5363.49410
G1 X109.426 Y116.879 E5364.36185
G1 X83.121 Y90.574 E5373.66196
G1 X83.121 Y87.103 E5374.52971
G1 X112.897 Y116.879 E5385.05700
G1 X116.368 Y116.879 E5385.92475
G1 X83.121 Y83.632 E5397.67923
G1 X86.082 Y83.121 E5398.43022
G1 X116.879 Y113.918 E5409.31868
G1 X116.879 Y110.447 E5410.18643
G1 X89.553 Y83.121 E5419.84771
G1 X93.024 Y83.121 E5420.71546
G1 X116.879 Y106.976 E5429.14955
G1 X116.879 Y103.505 E5430.01730
G1 X96.495 Y83.121 E5437.22420
G1 X99.966 Y83.121 E5438.09195
G1 X116.879 Y100.034 E5444.07168
G1 X116.879 Y96.563 E5444.93943
G1 X103.437 Y83.121 E5449.69196
G1 X106.908 Y83.121 E5450.55971
G1 X116.879 Y93.092 E5454.08506
G1 X116.879 Y89.621 E5454.95282
G1 X110.379 Y83.121 E5457.25098
G1 X113.850 Y83.121 E5458.11873
G1 X116.879 Y86.150 E5459.18972
G1 Z16.800 F7800.000
G1 X113.850 Y116.879 F7800.000
G1 X116.879 Y113.850 E5460.26070 F4800.000
G1 X116.879 Y110.379 E5461.12845
G1 X110.379 Y116.879 E5463.42662
G1 X106.908 Y116.879 E5464.29437
G1 X116.879 Y106.908 E5467.81972
G1 X116.879 Y103.437 E5468.68747
G1 X103.437 Y116.879 E5473.44001
G1 X99.966 Y116.879 E5474.30776
G1 X116.879 Y99.966 E5480.28748
G1 X116.879 Y96.495 E5481.15523
G1 X96.495 Y116.879 E5488.36213
G1 X93.024 Y116.879 E5489.22988
G1 X116.879 Y93.024 E5497.66397
G1 X116.879 Y89.553 E5498.53172
G1 X89.553 Y116.879 E5508.19300
G1 X86.082 Y116.879 E5509.06075
G1 X116.879 Y86.082 E5519.94921
G1 X116.368 Y83.121 E5520.70020
G1 X83.121 Y116.368 E5532.45468
G1 X83.121 Y112.897 E5533.32243
G1 X112.897 Y83.121 E5543.84972
G1 X109.426 Y83.121 E5544.71747
G1 X83.121 Y109.426 E5554.01758
G1 X83.121 Y105.955 E5554.88533
G1 X105.955 Y83.121 E5562.95825
G1 X102.484 Y83.121 E5563.82600
G1 X83.121 Y102.484 E5570.67174
G1 X83.121 Y99.013 E5571.53949
G1 X99.013 Y83.121 E5577.15804
G1 X95.542 Y83.121 E5578.02579
G1 X83.121 Y95.542 E5582.41716
G1 X83.121 Y92.071 E5583.28491
G1 X92.071 Y83.121 E5586.44909
G1 X88.600 Y83.121 E5587.31684
G1 X83.121 Y88.600 E5589.25384
G1 X83.121 Y85.129 E5590.12159
G1 X85.129 Y83.121 E5590.83141
G1 Z17.200 F7800.000
G1 X83.121 Y114.871 F7800.000
G1 X85.129 Y116.879 E5591.54122 F4800.000
G1 X88.600 Y116.879 E5592.40897
G1 X83.121 Y111.400 E5594.34597
G1 X83.121 Y107.929 E5595.21372
G1 X92.071 Y116.879 E5598.37791
G1 X95.542 Y116.879 E5599.24566
G1 X83.121 Y104.458 E5603.63703
G1 X83.121 Y100.987 E5604.50478
G1 X99.013 Y116.879 E5610.12333
G1 X102.484 Y116.879 E5610.99108
G1 X83.121 Y97.516 E5617.83682
G1 X83.121 Y94.045 E5618.70457
G1 X105.955 Y116.879 E5626.77749
G1 X109.426 Y116.879 E5627.64524
G1 X83.121 Y90.574 E5636.94535
G1 X83.121 Y87.103 E5637.81310
G1 X112.897 Y116.879 E5648.34039
G1 X116.368 Y116.879 E5649.20814
G1 X83.121 Y83.632 E5660.96261
G1 X86.082 Y83.121 E5661.71361
G1 X116.879 Y113.918 E5672.60207
G1 X116.879 Y110.447 E5673.46982
G1 X89.553 Y83.121 E5683.13109
G1 X93.024 Y83.121 E5683.99884
G1 X116.879 Y106.976 E5692.43293
G1 X116.879 Y103.505 E5693.30068
G1 X96.495 Y83.121 E5700.50759
G1 X99.966 Y83.121 E5701.37534
G1 X116.879 Y100.034 E5707.35506
G1 X116.879 Y96.563 E5708.22281
G1 X103.437 Y83.121 E5712.97535
G1 X106.908 Y83.121 E5713.84310
G1 X116.879 Y93.092 E5717.36845
G1 X116.879 Y89.621 E5718.23620
G1 X110.379 Y83.121 E5720.53437
G1 X113.850 Y83.121 E5721.40212
G1 X116.879 Y86.150 E5722.47310
G1 Z17.600 F7800.000
G1 X113.850 Y116.879 F7800.000
G1 X116.879 Y113.850 E5723.54408 F4800.000
G1 X116.879 Y110.379 E5724.41183
G1 X110.379 Y116.879 E5726.71000
G1 X106.908 Y116.879 E5727.57775
G1 X116.879 Y106.908 E5731.10310
G1 X116.879 Y103.437 E5731.97085
G1 X103.437 Y116.879 E5736.72339
G1 X99.966 Y116.879 E5737.59114
G1 X116.879 Y99.966 E5743.57086
G1 X116.879 Y96.495 E5744.43861
G1 X96.495 Y116.879 E5751.64552
G1 X93.024 Y116.879 E5752.51327
G1 X116.879 Y93.024 E5760.94736
G1 X116.879 Y89.553 E5761.81511
G1 X89.553 Y116.879 E5771.47638
G1 X86.082 Y116.879 E5772.34413
G1 X116.879 Y86.082 E5783.23259
G1 X116.368 Y83.121 E5783.98359
G1 X83.121 Y116.368 E5795.73806
G1 X83.121 Y112.897 E5796.60581
G1 X112.897 Y83.121 E5807.13310
G1 X109.426 Y83.121 E5808.00085
G1 X83.121 Y109.426 E5817.30096
G1 X83.121 Y105.955 E5818.16871
G1 X105.955 Y83.121 E5826.24163
G1 X102.484 Y83.121 E5827.10938
G1 X83.121 Y102.484 E5833.95512
G1 X83.121 Y99.013 E5834.82287
G1 X99.013 Y83.121 E5840.44143
G1 X95.542 Y83.121 E5841.30918
G1 X83.121 Y95.542 E5845.70054
G1 X83.121 Y92.071 E5846.56830
G1 X92.071 Y83.121 E5849.73248
G1 X88.600 Y83.121 E5850.60023
G1 X83.121 Y88.600 E5852.53723
G1 X83.121 Y85.129 E5853.40498
G1 X85.129 Y83.121 E5854.11479
G1 Z18.000 F7800.000
G1 X83.121 Y114.871 F7800.000
G1 X85.129 Y116.879 E5854.82461 F4800.000
G1 X88.600 Y116.879 E5855.69236
G1 X83.121 Y111.400 E5857.62936
G1 X83.121 Y107.929 E5858.49711
G1 X92.071 Y116.879 E5861.66129
G1 X95.542 Y116.879 E5862.52904
G1 X83.121 Y104.458 E5866.92041
G1 X83.121 Y100.987 E5867.78816
G1 X99.013 Y116.879 E5873.40671
G1 X102.484 Y116.879 E5874.27446
G1 X83.121 Y97.516 E5881.12020
G1 X83.121 Y94.045 E5881.98795
G1 X105.955 Y116.879 E5890.06087
G1 X109.426 Y116.879 E5890.92862
G1 X83.121 Y90.574 E5900.22873
G1 X83.121 Y87.103 E5901.09648
G1 X112.897 Y116.879 E5911.62377
G1 X116.368 Y116.879 E5912.49152
G1 X83.121 Y83.632 E5924.24600
G1 X86.082 Y83.121 E5924.99699
G1 X116.879 Y113.918 E5935.88545
G1 X116.879 Y110.447 E5936.75320
G1 X89.553 Y83.121 E5946.41448
G1 X93.024 Y83.121 E5947.28223
G1 X116.879 Y106.976 E5955.71632
G1 X116.879 Y103.505 E5956.58407
G1 X96.495 Y83.121 E5963.79098
G1 X99.966 Y83.121 E5964.65873
G1 X116.879 Y100.034 E5970.63845
G1 X116.879 Y96.563 E5971.50620
G1 X103.437 Y83.121 E5976.25873
G1 X106.908 Y83.121 E5977.12648
G1 X116.879 Y93.092 E5980.65184
G1 X116.879 Y89.621 E5981.51959
G1 X110.379 Y83.121 E5983.81775
G1 X113.850 Y83.121 E5984.68550
G1 X116.879 Y86.150 E5985.75649
G1 Z18.400 F7800.000
G1 X113.850 Y116.879 F7800.000
G1 X116.879 Y113.850 E5986.82747 F4800.000
G1 X116.879 Y110.379 E5987.69522
G1 X110.379 Y116.879 E5989.99339
G1 X106.908 Y116.879 E5990.86114
G1 X116.879 Y106.908 E5994.38649
G1 X116.879 Y103.437 E5995.25424
G1 X103.437 Y116.879 E6000.00678
G1 X99.966 Y116.879 E6000.87453
G1 X116.879 Y99.966 E6006.85425
G1 X116.879 Y96.495 E6007.72200
G1 X96.495 Y116.879 E6014.92890
G1 X93.024 Y116.879 E6015.79665
G1 X116.879 Y93.024 E6024.23074
G1 X116.879 Y89.553 E6025.09849
G1 X89.553 Y116.879 E6034.75977
G1 X86.082 Y116.879 E6035.62752
G1 X116.879 Y86.082 E6046.51598
G1 X116.368 Y83.121 E6047.26697
G1 X83.121 Y116.368 E6059.02145
G1 X83.121 Y112.897 E6059.88920
G1 X112.897 Y83.121 E6070.41649
G1 X109.426 Y83.121 E6071.28424
G1 X83.121 Y109.426 E6080.58435
G1 X83.121 Y105.955 E6081.45210
G1 X105.955 Y83.121 E6089.52502
G1 X102.484 Y83.121 E6090.39277
G1 X83.121 Y102.484 E6097.23851
G1 X83.121 Y99.013 E6098.10626
G1 X99.013 Y83.121 E6103.72481
G1 X95.542 Y83.121 E6104.59256
G1 X83.121 Y95.542 E6108.98393
G1 X83.121 Y92.071 E6109.85168
G1 X92.071 Y83.121 E6113.01587
G1 X88.600 Y83.121 E6113.88362
G1 X83.121 Y88.600 E6115.82061
G1 X83.121 Y85.129 E6116.68836
G1 X85.129 Y83.121 E6117.39818
G1 Z18.800 F7800.000
G1 X83.121 Y114.871 F7800.000
G1 X85.129 Y116.879 E6118.10799 F4800.000
G1 X88.600 Y116.879 E6118.97574
G1 X83.121 Y111.400 E6120.91274
G1 X83.121 Y107.929 E6121.78049
G1 X92.071 Y116.879 E6124.94468
G1 X95.542 Y116.879 E6125.81243
G1 X83.121 Y104.458 E6130.20380
G1 X83.121 Y100.987 E6131.07155
G1 X99.013 Y116.879 E6136.69010
G1 X102.484 Y116.879 E6137.55785
G1 X83.121 Y97.516 E6144.40359
G1 X83.121 Y94.045 E6145.27134
G1 X105.955 Y116.879 E6153.34426
G1 X109.426 Y116.879 E6154.21201
G1 X83.121 Y90.574 E6163.51212
G1 X83.121 Y87.103 E6164.37987
G1 X112.897 Y116.879 E6174.90716
G1 X116.368 Y116.879 E6175.77491
G1 X83.121 Y83.632 E6187.52939
G1 X86.082 Y83.121 E6188.28038
G1 X116.879 Y113.918 E6199.16884
G1 X116.879 Y110.447 E6200.03659
G1 X89.553 Y83.121 E6209.69786
G1 X93.024 Y83.121 E6210.56561
G1 X116.879 Y106.976 E6218.99970
G1 X116.879 Y103.505 E6219.86746
G1 X96.495 Y83.121 E6227.07436
G1 X99.966 Y83.121 E6227.94211
G1 X116.879 Y100.034 E6233.92183
G1 X116.879 Y96.563 E6234.78958
G1 X103.437 Y83.121 E6239.54212
G1 X106.908 Y83.121 E6240.40987
G1 X116.879 Y93.092 E6243.93522
G1 X116.879 Y89.621 E6244.80297
G1 X110.379 Y83.121 E6247.10114
G1 X113.850 Y83.121 E6247.96889
G1 X116.879 Y86.150 E6249.03987
G1 Z19.200 F7800.000
G1 X113.850 Y116.879 F7800.000
G1 X116.879 Y113.850 E6250.11086 F4800.000
G1 X116.879 Y110.379 E6250.97861
G1 X110.379 Y116.879 E6253.27677
G1 X106.908 Y116.879 E6254.14452
G1 X116.879 Y106.908 E6257.66988
G1 X116.879 Y103.437 E6258.53763
G1 X103.437 Y116.879 E6263.29016
G1 X99.966 Y116.879 E6264.15791
G1 X116.879 Y99.966 E6270.13763
G1 X116.879 Y96.495 E6271.00538
G1 X96.495 Y116.879 E6278.21229
G1 X93.024 Y116.879 E6279.08004
G1 X116.879 Y93.024 E6287.51413
G1 X116.879 Y89.553 E6288.38188
G1 X89.553 Y116.879 E6298.04315
G1 X86.082 Y116.879 E6298.91090
G1 X116.879 Y86.082 E6309.79936
G1 X116.368 Y83.121 E6310.55036
G1 X83.121 Y116.368 E6322.30483
G1 X83.121 Y112.897 E6323.17258
G1 X112.897 Y83.121 E6333.69988
G1 X109.426 Y83.121 E6334.56763
G1 X83.121 Y109.426 E6343.86773
G1 X83.121 Y105.955 E6344.73548
G1 X105.955 Y83.121 E6352.80841
G1 X102.484 Y83.121 E6353.67616
G1 X83.121 Y102.484 E6360.52189
G1 X83.121 Y99.013 E6361.38964
G1 X99.013 Y83.121 E6367.00820
G1 X95.542 Y83.121 E6367.87595
G1 X83.121 Y95.542 E6372.26732
G1 X83.121 Y92.071 E6373.13507
G1 X92.071 Y83.121 E6376.29925
G1 X88.600 Y83.121 E6377.16700
G1 X83.121 Y88.600 E6379.10400
G1 X83.121 Y85.129 E6379.97175
G1 X85.129 Y83.121 E6380.68157
G1 Z19.600 F7800.000
G1 X83.121 Y114.871 F7800.000
G1 X85.129 Y116.879 E6381.39138 F4800.000
G1 X88.600 Y116.879 E6382.25913
G1 X83.121 Y111.400 E6384.19613
G1 X83.121 Y107.929 E6385.06388
G1 X92.071 Y116.879 E6388.22806
G1 X95.542 Y116.879 E6389.09581
G1 X83.121 Y104.458 E6393.48718
G1 X83.121 Y100.987 E6394.35493
G1 X99.013 Y116.879 E6399.97349
G1 X102.484 Y116.879 E6400.84124
G1 X83.121 Y97.516 E6407.68697
G1 X83.121 Y94.045 E6408.55472
G1 X105.955 Y116.879 E6416.62765
G1 X109.426 Y116.879 E6417.49540
G1 X83.121 Y90.574 E6426.79550
G1 X83.121 Y87.103 E6427.66325
G1 X112.897 Y116.879 E6438.19054
G1 X116.368 Y116.879 E6439.05829
G1 X83.121 Y83.632 E6450.81277
G1 X86.082 Y83.121 E6451.56376
G1 X116.879 Y113.918 E6462.45222
G1 X116.879 Y110.447 E6463.31997
G1 X89.553 Y83.121 E6472.98125
G1 X93.024 Y83.121 E6473.84900
G1 X116.879 Y106.976 E6482.28309
G1 X116.879 Y103.505 E6483.15084
G1 X96.495 Y83.121 E6490.35775
G1 X99.966 Y83.121 E6491.22550
G1 X116.879 Y100.034 E6497.20522
G1 X116.879 Y96.563 E6498.07297
G1 X103.437 Y83.121 E6502.82550
G1 X106.908 Y83.121 E6503.69325
G1 X116.879 Y93.092 E6507.21861
G1 X116.879 Y89.621 E6508.08636
G1 X110.379 Y83.121 E6510.38452
G1 X113.850 Y83.121 E6511.25228
G1 X116.879 Y86.150 E6512.32326
G1 Z20.000 F7800.000
G1 X113.850 Y116.879 F7800.000
G1 X116.879 Y113.850 E6513.39424 F4800.000
G1 X116.879 Y110.379 E6514.26199
G1 X110.379 Y116.879 E6516.56016
G1 X106.908 Y116.879 E6517.42791
G1 X116.879 Y106.908 E6520.95326
G1 X116.879 Y103.437 E6521.82101
G1 X103.437 Y116.879 E6526.57355
G1 X99.966 Y116.879 E6527.44130
G1 X116.879 Y99.966 E6533.42102
G1 X116.879 Y96.495 E6534.28877
G1 X96.495 Y116.879 E6541.49567
G1 X93.024 Y116.879 E6542.36343
G1 X116.879 Y93.024 E6550.79752
G1 X116.879 Y89.553 E6551.66527
G1 X89.553 Y116.879 E6561.32654
G1 X86.082 Y116.879 E6562.19429
G1 X116.879 Y86.082 E6573.08275
G1 X116.368 Y83.121 E6573.83374
G1 X83.121 Y116.368 E6585.58822
G1 X83.121 Y112.897 E6586.45597
G1 X112.897 Y83.121 E6596.98326
G1 X109.426 Y83.121 E6597.85101
G1 X83.121 Y109.426 E6607.15112
G1 X83.121 Y105.955 E6608.01887
G1 X105.955 Y83.121 E6616.09179
G1 X102.484 Y83.121 E6616.95954
G1 X83.121 Y102.484 E6623.80528
G1 X83.121 Y99.013 E6624.67303
G1 X99.013 Y83.121 E6630.29158
G1 X95.542 Y83.121 E6631.15933
G1 X83.121 Y95.542 E6635.55070
G1 X83.121 Y92.071 E6636.41845
G1 X92.071 Y83.121 E6639.58264
G1 X88.600 Y83.121 E6640.45039
G1 X83.121 Y88.600 E6642.38739
G1 X83.121 Y85.129 E6643.25514
G1 X85.129 Y83.121 E6643.96495
G1 Z20.400 F7800.000
G1 X83.121 Y114.871 F7800.000
G1 X85.129 Y116.879 E6644.67476 F4800.000
G1 X88.600 Y116.879 E6645.54252
G1 X83.121 Y111.400 E6647.47951
G1 X83.121 Y107.929 E6648.34726
G1 X92.071 Y116.879 E6651.51145
G1 X95.542 Y116.879 E6652.37920
G1 X83.121 Y104.458 E6656.77057
G1 X83.121 Y100.987 E6657.63832
G1 X99.013 Y116.879 E6663.25687
G1 X102.484 Y116.879 E6664.12462
G1 X83.121 Y97.516 E6670.97036
G1 X83.121 Y94.045 E6671.83811
G1 X105.955 Y116.879 E6679.91103
G1 X109.426 Y116.879 E6680.77878
G1 X83.121 Y90.574 E6690.07889
G1 X83.121 Y87.103 E6690.94664
G1 X112.897 Y116.879 E6701.47393
G1 X116.368 Y116.879 E6702.34168
G1 X83.121 Y83.632 E6714.09616
G1 X86.082 Y83.121 E6714.84715
G1 X116.879 Y113.918 E6725.73561
G1 X116.879 Y110.447 E6726.60336
G1 X89.553 Y83.121 E6736.26463
G1 X93.024 Y83.121 E6737.13239
G1 X116.879 Y106.976 E6745.56648
G1 X116.879 Y103.505 E6746.43423
G1 X96.495 Y83.121 E6753.64113
G1 X99.966 Y83.121 E6754.50888
G1 X116.879 Y100.034 E6760.48860
G1 X116.879 Y96.563 E6761.35635
G1 X103.437 Y83.121 E6766.10889
G1 X106.908 Y83.121 E6766.97664
G1 X116.879 Y93.092 E6770.50199
G1 X116.879 Y89.621 E6771.36974
G1 X110.379 Y83.121 E6773.66791
G1 X113.850 Y83.121 E6774.53566
G1 X116.879 Y86.150 E6775.60664
G1 Z20.800 F7800.000
G1 X113.850 Y116.879 F7800.000
G1 X116.879 Y113.850 E6776.67763 F4800.000
G1 X116.879 Y110.379 E6777.54538
G1 X110.379 Y116.879 E6779.84354
G1 X106.908 Y116.879 E6780.71129
G1 X116.879 Y106.908 E6784.23665
G1 X116.879 Y103.437 E6785.10440
G1 X103.437 Y116.879 E6789.85693
G1 X99.966 Y116.879 E6790.72468
G1 X116.879 Y99.966 E6796.70440
G1 X116.879 Y96.495 E6797.57215
G1 X96.495 Y116.879 E6804.77906
G1 X93.024 Y116.879 E6805.64681
G1 X116.879 Y93.024 E6814.08090
G1 X116.879 Y89.553 E6814.94865
G1 X89.553 Y116.879 E6824.60993
G1 X86.082 Y116.879 E6825.47768
G1 X116.879 Y86.082 E6836.36613
G1 X116.368 Y83.121 E6837.11713
G1 X83.121 Y116.368 E6848.87160
G1 X83.121 Y112.897 E6849.73935
G1 X112.897 Y83.121 E6860.26665
G1 X109.426 Y83.121 E6861.13440
G1 X83.121 Y109.426 E6870.43450
G1 X83.121 Y105.955 E6871.30225
G1 X105.955 Y83.121 E6879.37518
G1 X102.484 Y83.121 E6880.24293
G1 X83.121 Y102.484 E6887.08866
G1 X83.121 Y99.013 E6887.95641
G1 X99.013 Y83.121 E6893.57497
G1 X95.542 Y83.121 E6894.44272
G1 X83.121 Y95.542 E6898.83409
G1 X83.121 Y92.071 E6899.70184
G1 X92.071 Y83.121 E6902.86602
G1 X88.600 Y83.121 E6903.73377
G1 X83.121 Y88.600 E6905.67077
G1 X83.121 Y85.129 E6906.53852
G1 X85.129 Y83.121 E6907.24834
G1 Z21.200 F7800.000
G1 X83.121 Y114.871 F7800.000
G1 X85.129 Y116.879 E6907.95815 F4800.000
G1 X88.600 Y116.879 E6908.82590
G1 X83.121 Y111.400 E6910.76290
G1 X83.121 Y107.929 E6911.63065
G1 X92.071 Y116.879 E6914.79483
G1 X95.542 Y116.879 E6915.66258
G1 X83.121 Y104.458 E6920.05395
G1 X83.121 Y100.987 E6920.92170
G1 X99.013 Y116.879 E6926.54026
G1 X102.484 Y116.879 E6927.40801
G1 X83.121 Y97.516 E6934.25374
G1 X83.121 Y94.045 E6935.12149
G1 X105.955 Y116.879 E6943.19442
G1 X109.426 Y116.879 E6944.06217
G1 X83.121 Y90.574 E6953.36227
G1 X83.121 Y87.103 E6954.23002
G1 X112.897 Y116.879 E6964.75732
G1 X116.368 Y116.879 E6965.62507
G1 X83.121 Y83.632 E6977.37954
G1 X86.082 Y83.121 E6978.13054
G1 X116.879 Y113.918 E6989.01899
G1 X116.879 Y110.447 E6989.88675
G1 X89.553 Y83.121 E6999.54802
G1 X93.024 Y83.121 E7000.41577
G1 X116.879 Y106.976 E7008.84986
G1 X116.879 Y103.505 E7009.71761
G1 X96.495 Y83.121 E7016.92452
G1 X99.966 Y83.121 E7017.79227
G1 X116.879 Y100.034 E7023.77199
G1 X116.879 Y96.563 E7024.63974
G1 X103.437 Y83.121 E7029.39228
G1 X106.908 Y83.121 E7030.26003
G1 X116.879 Y93.092 E7033.78538
G1 X116.879 Y89.621 E7034.65313
G1 X110.379 Y83.121 E7036.95130
G1 X113.850 Y83.121 E7037.81905
G1 X116.879 Y86.150 E7038.89003
G1 Z21.600 F7800.000
G1 X113.850 Y116.879 F7800.000
G1 X116.879 Y113.850 E7039.96101 F4800.000
G1 X116.879 Y110.379 E7040.82876
G1 X110.379 Y116.879 E7043.12693
G1 X106.908 Y116.879 E7043.99468
G1 X116.879 Y106.908 E7047.52003
G1 X116.879 Y103.437 E7048.38778
G1 X103.437 Y116.879 E7053.14032
G1 X99.966 Y116.879 E7054.00807
G1 X116.879 Y99.966 E7059.98779
G1 X116.879 Y96.495 E7060.85554
G1 X96.495 Y116.879 E7068.06245
G1 X93.024 Y116.879 E7068.93020
G1 X116.879 Y93.024 E7077.36429
G1 X116.879 Y89.553 E7078.23204
G1 X89.553 Y116.879 E7087.89331
G1 X86.082 Y116.879 E7088.76106
G1 X116.879 Y86.082 E7099.64952
G1 X116.368 Y83.121 E7100.40051
G1 X83.121 Y116.368 E7112.15499
G1 X83.121 Y112.897 E7113.02274
G1 X112.897 Y83.121 E7123.55003
G1 X109.426 Y83.121 E7124.41778
G1 X83.121 Y109.426 E7133.71789
G1 X83.121 Y105.955 E7134.58564
G1 X105.955 Y83.121 E7142.65856
G1 X102.484 Y83.121 E7143.52631
G1 X83.121 Y102.484 E7150.37205
G1 X83.121 Y99.013 E7151.23980
G1 X99.013 Y83.121 E7156.85835
G1 X95.542 Y83.121 E7157.72610
G1 X83.121 Y95.542 E7162.11747
G1 X83.121 Y92.071 E7162.98522
G1 X92.071 Y83.121 E7166.14941
G1 X88.600 Y83.121 E7167.01716
G1 X83.121 Y88.600 E7168.95416
G1 X83.121 Y85.129 E7169.82191
G1 X85.129 Y83.121 E7170.53172
G1 Z22.000 F7800.000
G1 X83.121 Y114.871 F7800.000
G1 X85.129 Y116.879 E7171.24154 F4800.000
G1 X88.600 Y116.879 E7172.10929
G1 X83.121 Y111.400 E7174.04629
G1 X83.121 Y107.929 E7174.91404
G1 X92.071 Y116.879 E7178.07822
G1 X95.542 Y116.879 E7178.94597
G1 X83.121 Y104.458 E7183.33734
G1 X83.121 Y100.987 E7184.20509
G1 X99.013 Y116.879 E7189.82364
G1 X102.484 Y116.879 E7190.69139
G1 X83.121 Y97.516 E7197.53713
G1 X83.121 Y94.045 E7198.40488
G1 X105.955 Y116.879 E7206.47780
G1 X109.426 Y116.879 E7207.34555
G1 X83.121 Y90.574 E7216.64566
G1 X83.121 Y87.103 E7217.51341
G1 X112.897 Y116.879 E7228.04070
G1 X116.368 Y116.879 E7228.90845
G1 X83.121 Y83.632 E7240.66293
G1 X86.082 Y83.121 E7241.41392
G1 X116.879 Y113.918 E7252.30238
G1 X116.879 Y110.447 E7253.17013
G1 X89.553 Y83.121 E7262.83141
G1 X93.024 Y83.121 E7263.69916
G1 X116.879 Y106.976 E7272.13325
G1 X116.879 Y103.505 E7273.00100
G1 X96.495 Y83.121 E7280.20790
G1 X99.966 Y83.121 E7281.07565
G1 X116.879 Y100.034 E7287.05537
G1 X116.879 Y96.563 E7287.92312
G1 X103.437 Y83.121 E7292.67566
G1 X106.908 Y83.121 E7293.54341
G1 X116.879 Y93.092 E7297.06876
G1 X116.879 Y89.621 E7297.93651
G1 X110.379 Y83.121 E7300.23468
G1 X113.850 Y83.121 E7301.10243
G1 X116.879 Y86.150 E7302.17341
G1 Z22.400 F7800.000
G1 X113.850 Y116.879 F7800.000
G1 X116.879 Y113.850 E7303.24440 F4800.000
G1 X116.879 Y110.379 E7304.11215
G1 X110.379 Y116.879 E7306.41031
G1 X106.908 Y116.879 E7307.27807
G1 X116.879 Y106.908 E7310.80342
G1 X116.879 Y103.437 E7311.67117
G1 X103.437 Y116.879 E7316.42370
G1 X99.966 Y116.879 E7317.29145
G1 X116.879 Y99.966 E7323.27118
G1 X116.879 Y96.495 E7324.13893
G1 X96.495 Y116.879 E7331.34583
G1 X93.024 Y116.879 E7332.21358
G1 X116.879 Y93.024 E7340.64767
G1 X116.879 Y89.553 E7341.51542
G1 X89.553 Y116.879 E7351.17670
G1 X86.082 Y116.879 E7352.04445
G1 X116.879 Y86.082 E7362.93291
G1 X116.368 Y83.121 E7363.68390
G1 X83.121 Y116.368 E7375.43838
G1 X83.121 Y112.897 E7376.30613
G1 X112.897 Y83.121 E7386.83342
G1 X109.426 Y83.121 E7387.70117
G1 X83.121 Y109.426 E7397.00127
G1 X83.121 Y105.955 E7397.86902
G1 X105.955 Y83.121 E7405.94195
G1 X102.484 Y83.121 E7406.80970
G1 X83.121 Y102.484 E7413.65544
G1 X83.121 Y99.013 E7414.52319
G1 X99.013 Y83.121 E7420.14174
G1 X95.542 Y83.121 E7421.00949
G1 X83.121 Y95.542 E7425.40086
G1 X83.121 Y92.071 E7426.26861
G1 X92.071 Y83.121 E7429.43279
G1 X88.600 Y83.121 E7430.30054
G1 X83.121 Y88.600 E7432.23754
G1 X83.121 Y85.129 E7433.10529
G1 X85.129 Y83.121 E7433.81511
G1 Z22.800 F7800.000
G1 X83.121 Y114.871 F7800.000
G1 X85.129 Y116.879 E7434.52492 F4800.000
G1 X88.600 Y116.879 E7435.39267
G1 X83.121 Y111.400 E7437.32967
G1 X83.121 Y107.929 E7438.19742
G1 X92.071 Y116.879 E7441.36160
G1 X95.542 Y116.879 E7442.22936
G1 X83.121 Y104.458 E7446.62072
G1 X83.121 Y100.987 E7447.48847
G1 X99.013 Y116.879 E7453.10703
G1 X102.484 Y116.879 E7453.97478
G1 X83.121 Y97.516 E7460.82052
G1 X83.121 Y94.045 E7461.68827
G1 X105.955 Y116.879 E7469.76119
G1 X109.426 Y116.879 E7470.62894
G1 X83.121 Y90.574 E7479.92904
G1 X83.121 Y87.103 E7480.79679
G1 X112.897 Y116.879 E7491.32409
G1 X116.368 Y116.879 E7492.19184
G1 X83.121 Y83.632 E7503.94631
G1 X86.082 Y83.121 E7504.69731
G1 X116.879 Y113.918 E7515.58577
G1 X116.879 Y110.447 E7516.45352
G1 X89.553 Y83.121 E7526.11479
G1 X93.024 Y83.121 E7526.98254
G1 X116.879 Y106.976 E7535.41663
G1 X116.879 Y103.505 E7536.28438
G1 X96.495 Y83.121 E7543.49129
G1 X99.966 Y83.121 E7544.35904
G1 X116.879 Y100.034 E7550.33876
G1 X116.879 Y96.563 E7551.20651
G1 X103.437 Y83.121 E7555.95905
G1 X106.908 Y83.121 E7556.82680
G1 X116.879 Y93.092 E7560.35215
G1 X116.879 Y89.621 E7561.21990
G1 X110.379 Y83.121 E7563.51807
G1 X113.850 Y83.121 E7564.38582
G1 X116.879 Y86.150 E7565.45680
G1 Z23.200 F7800.000
G1 X113.850 Y116.879 F7800.000
G1 X116.879 Y113.850 E7566.52778 F4800.000
G1 X116.879 Y110.379 E7567.39553
G1 X110.379 Y116.879 E7569.69370
G1 X106.908 Y116.879 E7570.56145
G1 X116.879 Y106.908 E7574.08680
G1 X116.879 Y103.437 E7574.95455
G1 X103.437 Y116.879 E7579.70709
G1 X99.966 Y116.879 E7580.57484
G1 X116.879 Y99.966 E7586.55456
G1 X116.879 Y96.495 E7587.42231
G1 X96.495 Y116.879 E7594.62922
G1 X93.024 Y116.879 E7595.49697
G1 X116.879 Y93.024 E7603.93106
G1 X116.879 Y89.553 E7604.79881
G1 X89.553 Y116.879 E7614.46008
G1 X86.082 Y116.879 E7615.32783
G1 X116.879 Y86.082 E7626.21629
G1 X116.368 Y83.121 E7626.96728
G1 X83.121 Y116.368 E7638.72176
G1 X83.121 Y112.897 E7639.58951
G1 X112.897 Y83.121 E7650.11680
G1 X109.426 Y83.121 E7650.98455
G1 X83.121 Y109.426 E7660.28466
G1 X83.121 Y105.955 E7661.15241
G1 X105.955 Y83.121 E7669.22533
G1 X102.484 Y83.121 E7670.09308
G1 X83.121 Y102.484 E7676.93882
G1 X83.121 Y99.013 E7677.80657
G1 X99.013 Y83.121 E7683.42512
G1 X95.542 Y83.121 E7684.29287
G1 X83.121 Y95.542 E7688.68424
G1 X83.121 Y92.071 E7689.55199
G1 X92.071 Y83.121 E7692.71618
G1 X88.600 Y83.121 E7693.58393
G1 X83.121 Y88.600 E7695.52093
G1 X83.121 Y85.129 E7696.38868
G1 X85.129 Y83.121 E7697.09849
G1 Z23.600 F7800.000
G1 X83.121 Y114.871 F7800.000
G1 X85.129 Y116.879 E7697.80831 F4800.000
G1 X88.600 Y116.879 E7698.67606
G1 X83.121 Y111.400 E7700.61306
G1 X83.121 Y107.929 E7701.48081
G1 X92.071 Y116.879 E7704.64499
G1 X95.542 Y116.879 E7705.51274
G1 X83.121 Y104.458 E7709.90411
G1 X83.121 Y100.987 E7710.77186
G1 X99.013 Y116.879 E7716.39041
G1 X102.484 Y116.879 E7717.25816
G1 X83.121 Y97.516 E7724.10390
G1 X83.121 Y94.045 E7724.97165
G1 X105.955 Y116.879 E7733.04457
G1 X109.426 Y116.879 E7733.91232
G1 X83.121 Y90.574 E7743.21243
G1 X83.121 Y87.103 E7744.08018
G1 X112.897 Y116.879 E7754.60747
G1 X116.368 Y116.879 E7755.47522
G1 X83.121 Y83.632 E7767.22970
G1 X86.082 Y83.121 E7767.98069
G1 X116.879 Y113.918 E7778.86915
G1 X116.879 Y110.447 E7779.73690
G1 X89.553 Y83.121 E7789.39818
G1 X93.024 Y83.121 E7790.26593
G1 X116.879 Y106.976 E7798.70002
G1 X116.879 Y103.505 E7799.56777
G1 X96.495 Y83.121 E7806.77467
G1 X99.966 Y83.121 E7807.64242
G1 X116.879 Y100.034 E7813.62214
G1 X116.879 Y96.563 E7814.48990
G1 X103.437 Y83.121 E7819.24243
G1 X106.908 Y83.121 E7820.11018
G1 X116.879 Y93.092 E7823.63553
G1 X116.879 Y89.621 E7824.50329
G1 X110.379 Y83.121 E7826.80145
G1 X113.850 Y83.121 E7827.66920
G1 X116.879 Y86.150 E7828.74019
G1 Z24.000 F7800.000
G1 E7826.74019 F2400.00000
G92 E0
G1 X113.850 Y116.879 F7800.000
G1 E2.00000 F2400.00000
G1 X116.879 Y113.850 E3.07098 F4800.000
G1 X116.879 Y110.379 E3.93873
G1 X110.379 Y116.879 E6.23690
G1 X106.908 Y116.879 E7.10465
G1 X116.879 Y106.908 E10.63000
G1 X116.879 Y103.437 E11.49775
G1 X103.437 Y116.879 E16.25029
G1 X99.966 Y116.879 E17.11804
G1 X116.879 Y99.966 E23.09776
G1 X116.879 Y96.495 E23.96551
G1 X96.495 Y116.879 E31.17242
G1 X93.024 Y116.879 E32.04017
G1 X116.879 Y93.024 E40.47426
G1 X116.879 Y89.553 E41.34201
G1 X89.553 Y116.879 E51.00328
G1 X86.082 Y116.879 E51.87103
G1 X116.879 Y86.082 E62.75949
G1 X116.368 Y83.121 E63.51048
G1 X83.121 Y116.368 E75.26496
G1 X83.121 Y112.897 E76.13271
G1 X112.897 Y83.121 E86.66000
G1 X109.426 Y83.121 E87.52775
G1 X83.121 Y109.426 E96.82786
G1 X83.121 Y105.955 E97.69561
G1 X105.955 Y83.121 E105.76853
G1 X102.484 Y83.121 E106.63628
G1 X83.121 Y102.484 E113.48202
G1 X83.121 Y99.013 E114.34977
G1 X99.013 Y83.121 E119.96832
G1 X95.542 Y83.121 E120.83607
G1 X83.121 Y95.542 E125.22744
G1 X83.121 Y92.071 E126.09519
G1 X92.071 Y83.121 E129.25938
G1 X88.600 Y83.121 E130.12713
G1 X83.121 Y88.600 E132.06413
G1 X83.121 Y85.129 E132.93188
G1 X85.129 Y83.121 E133.64169
G1 E131.64169 F2400.00000
G92 E0
M107
M104 S0 ; turn off temperature
G28 X0  ; home X axis
M84     ; disable motors

; filament used = 7958.4mm (6.3cm3)

; avoid_crossing_perimeters = 0
; bed_shape = 0x0,200x0,200x200,0x200
; bed_temperature = 0
; before_layer_gcode = 
; bridge_acceleration = 0
; bridge_fan_speed = 100
; brim_width = 0
; complete_objects = 0
; cooling = 1
; default_acceleration = 0
; disable_fan_first_layers = 3
; duplicate_distance = 6
; end_gcode = M104 S0 ; turn off temperature\nG28 X0  ; home X axis\nM84     ; disable motors\n
; extruder_clearance_height = 20
; extruder_clearance_radius = 20
; extruder_offset = 0x0
; extrusion_axis = E
; extrusion_multiplier = 1
; fan_always_on = 0
; fan_below_layer_time = 60
; filament_colour = #FFFFFF
; filament_diameter = 1
; first_layer_acceleration = 0
; first_layer_bed_temperature = 0
; first_layer_extrusion_width = 200%
; first_layer_speed = 30
; first_layer_temperature = 200
; gcode_arcs = 0
; gcode_comments = 0
; gcode_flavor = reprap
; infill_acceleration = 0
; infill_first = 0
; layer_gcode = 
; max_fan_speed = 100
; max_print_speed = 80
; max_volumetric_speed = 0
; min_fan_speed = 35
; min_print_speed = 10
; min_skirt_length = 0
; notes = 
; nozzle_diameter = 0.5
; only_retract_when_crossing_perimeters = 1
; ooze_prevention = 0
; output_filename_format = [input_filename_base].gcode
; perimeter_acceleration = 0
; post_process = 
; pressure_advance = 0
; resolution = 0
; retract_before_travel = 2
; retract_layer_change = 0
; retract_length = 2
; retract_length_toolchange = 10
; retract_lift = 0
; retract_restart_extra = 0
; retract_restart_extra_toolchange = 0
; retract_speed = 40
; skirt_distance = 6
; skirt_height = 1
; skirts = 0
; slowdown_below_layer_time = 5
; spiral_vase = 0
; standby_temperature_delta = -5
; start_gcode = G28 ; home all axes\nG1 Z5 F5000 ; lift nozzle\n
; temperature = 200
; threads = 2
; toolchange_gcode = 
; travel_speed = 130
; use_firmware_retraction = 0
; use_relative_e_distances = 0
; use_volumetric_e = 0
; vibration_limit = 0
; wipe = 0
; z_offset = 0
; dont_support_bridges = 1
; extrusion_width = 0
; first_layer_height = 0.4
; infill_only_where_needed = 0
; interface_shells = 0
; layer_height = 0.4
; raft_layers = 0
; seam_position = aligned
; support_material = 0
; support_material_angle = 0
; support_material_contact_distance = 0.2
; support_material_enforce_layers = 0
; support_material_extruder = 1
; support_material_extrusion_width = 0
; support_material_interface_extruder = 1
; support_material_interface_layers = 3
; support_material_interface_spacing = 0
; support_material_interface_speed = 100%
; support_material_pattern = pillars
; support_material_spacing = 2.5
; support_material_speed = 60
; support_material_threshold = 0
; xy_size_compensation = 0
; bottom_solid_layers = 0
; bridge_flow_ratio = 1
; bridge_speed = 60
; external_fill_pattern = rectilinear
; external_perimeter_extrusion_width = 0
; external_perimeter_speed = 50%
; external_perimeters_first = 0
; extra_perimeters = 1
; fill_angle = 45
; fill_density = 20%
; fill_pattern = rectilinear
; gap_fill_speed = 20
; infill_every_layers = 1
; infill_extruder = 1
; infill_extrusion_width = 0
; infill_overlap = 15%
; infill_speed = 80
; overhangs = 1
; perimeter_extruder = 1
; perimeter_extrusion_width = 0
; perimeter_speed = 60
; perimeters = 0
; small_perimeter_speed = 15
; solid_infill_below_area = 70
; solid_infill_every_layers = 0
; solid_infill_extruder = 1
; solid_infill_extrusion_width = 0
; solid_infill_speed = 20
; thin_walls = 1
; top_infill_extrusion_width = 0
; top_solid_infill_speed = 15
; top_solid_layers = 0
