; generated by Slic3r 1.2.9 on 2019-07-02 at 13:53:22

; external perimeters extrusion width = 0.50mm
; perimeters extrusion width = 0.58mm
; infill extrusion width = 0.58mm
; solid infill extrusion width = 0.58mm
; top infill extrusion width = 0.58mm

M107
M104 S200 ; set temperature
G28 ; home all axes
G1 Z5 F5000 ; lift nozzle

M109 S200 ; wait for temperature to be reached
G21 ; set units to millimeters
G90 ; use absolute coordinates
M82 ; use absolute distances for extrusion
G92 E0
G1 Z0.400 F7800.000
G1 E-2.00000 F2400.00000
G92 E0
G1 X104.879 Y79.456 F7800.000
G1 E2.00000 F2400.00000
G1 X104.044 Y78.621 E2.42926 F1800.000
G1 X103.176 Y78.621 E2.74487
G1 X104.879 Y80.324 E3.62048
G1 X104.879 Y81.191 E3.93610
G1 X102.309 Y78.621 E5.25805
G1 X101.441 Y78.621 E5.57367
G1 X104.879 Y82.059 E7.34197
G1 X104.879 Y82.927 E7.65759
G1 X100.573 Y78.621 E9.87225
G1 X99.705 Y78.621 E10.18786
G1 X104.879 Y83.795 E12.84887
G1 X104.879 Y84.662 E13.16448
G1 X98.838 Y78.621 E16.27184
G1 X97.970 Y78.621 E16.58745
G1 X104.879 Y85.530 E20.14116
G1 X104.879 Y86.398 E20.45677
G1 X97.102 Y78.621 E24.45683
G1 X96.234 Y78.621 E24.77244
G1 X104.879 Y87.266 E29.21885
G1 X104.879 Y88.133 E29.53446
G1 X95.367 Y78.621 E34.42722
G1 X95.121 Y79.244 E34.67054
G1 X104.879 Y89.001 E39.68951
G1 X104.879 Y89.869 E40.00513
G1 X95.121 Y80.111 E45.02410
G1 X95.121 Y80.979 E45.33972
G1 X104.879 Y90.737 E50.35869
G1 X104.879 Y91.604 E50.67430
G1 X95.121 Y81.847 E55.69328
G1 X95.121 Y82.715 E56.00889
G1 X104.879 Y92.472 E61.02786
G1 X104.879 Y93.340 E61.34348
G1 X95.121 Y83.582 E66.36245
G1 X95.121 Y84.450 E66.67807
G1 X104.879 Y94.208 E71.69704
G1 X104.879 Y95.075 E72.01266
G1 X95.121 Y85.318 E77.03163
G1 X95.121 Y86.186 E77.34724
G1 X104.879 Y95.943 E82.36621
G1 X104.879 Y96.811 E82.68183
G1 X95.121 Y87.053 E87.70080
G1 X95.121 Y87.921 E88.01642
G1 X104.879 Y97.679 E93.03539
G1 X104.879 Y98.546 E93.35101
G1 X95.121 Y88.789 E98.36998
G1 X95.121 Y89.657 E98.68559
G1 X104.879 Y99.414 E103.70456
G1 X104.879 Y100.282 E104.02018
G1 X95.121 Y90.524 E109.03915
G1 X95.121 Y91.392 E109.35477
G1 X104.879 Y101.150 E114.37374
G1 X104.879 Y102.017 E114.68936
G1 X95.121 Y92.260 E119.70833
G1 X95.121 Y93.128 E120.02394
G1 X104.879 Y102.885 E125.04291
G1 X104.879 Y103.753 E125.35853
G1 X95.121 Y93.995 E130.37750
G1 X95.121 Y94.863 E130.69312
G1 X104.879 Y104.621 E135.71209
G1 X104.879 Y105.488 E136.02771
G1 X95.121 Y95.731 E141.04668
G1 X95.121 Y96.599 E141.36229
G1 X104.879 Y106.356 E146.38126
G1 X104.879 Y107.224 E146.69688
G1 X95.121 Y97.466 E151.71585
G1 X95.121 Y98.334 E152.03147
G1 X104.879 Y108.092 E157.05044
G1 X104.879 Y108.959 E157.36606
G1 X95.121 Y99.202 E162.38503
G1 X95.121 Y100.070 E162.70064
G1 X104.879 Y109.827 E167.71961
G1 X104.879 Y110.695 E168.03523
G1 X95.121 Y100.937 E173.05420
G1 X95.121 Y101.805 E173.36982
G1 X104.879 Y111.563 E178.38879
G1 X104.879 Y112.430 E178.70441
G1 X95.121 Y102.673 E183.72338
G1 X95.121 Y103.541 E184.03899
G1 X104.879 Y113.298 E189.05797
G1 X104.879 Y114.166 E189.37358
G1 X95.121 Y104.408 E194.39255
G1 X95.121 Y105.276 E194.70817
G1 X104.879 Y115.034 E199.72714
G1 X104.879 Y115.901 E200.04276
G1 X95.121 Y106.144 E205.06173
G1 X95.121 Y107.012 E205.37735
G1 X104.879 Y116.769 E210.39632
G1 X104.879 Y117.637 E210.71193
G1 X95.121 Y107.879 E215.73090
G1 X95.121 Y108.747 E216.04652
G1 X104.879 Y118.505 E221.06549
G1 X104.879 Y119.372 E221.38111
G1 X95.121 Y109.615 E226.40008
G1 X95.121 Y110.483 E226.71570
G1 X104.879 Y120.240 E231.73467
G1 X104.879 Y121.108 E232.05029
G1 X95.121 Y111.350 E237.06926
G1 X95.121 Y112.218 E237.38487
G1 X104.282 Y121.379 E242.09682
G1 X103.414 Y121.379 E242.41244
G1 X95.121 Y113.086 E246.67803
G1 X95.121 Y113.954 E246.99365
G1 X102.546 Y121.379 E250.81289
G1 X101.679 Y121.379 E251.12851
G1 X95.121 Y114.821 E254.50141
G1 X95.121 Y115.689 E254.81702
G1 X100.811 Y121.379 E257.74357
G1 X99.943 Y121.379 E258.05919
G1 X95.121 Y116.557 E260.53939
G1 X95.121 Y117.425 E260.85500
G1 X99.075 Y121.379 E262.88885
G1 X98.208 Y121.379 E263.20447
G1 X95.121 Y118.292 E264.79196
G1 X95.121 Y119.160 E265.10758
G1 X97.340 Y121.379 E266.24873
G1 X96.472 Y121.379 E266.56435
G1 X95.121 Y120.028 E267.25914
G1 X95.121 Y120.896 E267.57476
G1 X95.604 Y121.379 E267.82321
G1 Z0.800 F7800.000
G1 X104.044 Y121.379 F7800.000
G1 X104.879 Y120.544 E268.11826 F4800.000
G1 X104.879 Y119.676 E268.33520
G1 X103.176 Y121.379 E268.93704
G1 X102.309 Y121.379 E269.15398
G1 X104.879 Y118.809 E270.06262
G1 X104.879 Y117.941 E270.27955
G1 X101.441 Y121.379 E271.49499
G1 X100.573 Y121.379 E271.71193
G1 X104.879 Y117.073 E273.23416
G1 X104.879 Y116.205 E273.45110
G1 X99.705 Y121.379 E275.28013
G1 X98.838 Y121.379 E275.49706
G1 X104.879 Y115.338 E277.63289
G1 X104.879 Y114.470 E277.84982
G1 X97.970 Y121.379 E280.29244
G1 X97.102 Y121.379 E280.50938
G1 X104.879 Y113.602 E283.25880
G1 X104.879 Y112.734 E283.47574
G1 X96.234 Y121.379 E286.53195
G1 X95.367 Y121.379 E286.74888
G1 X104.879 Y111.867 E290.11189
G1 X104.879 Y110.999 E290.32883
G1 X95.121 Y120.756 E293.77859
G1 X95.121 Y119.889 E293.99553
G1 X104.879 Y110.131 E297.44530
G1 X104.879 Y109.263 E297.66223
G1 X95.121 Y119.021 E301.11200
G1 X95.121 Y118.153 E301.32894
G1 X104.879 Y108.396 E304.77870
G1 X104.879 Y107.528 E304.99564
G1 X95.121 Y117.285 E308.44540
G1 X95.121 Y116.418 E308.66234
G1 X104.879 Y106.660 E312.11211
G1 X104.879 Y105.792 E312.32904
G1 X95.121 Y115.550 E315.77881
G1 X95.121 Y114.682 E315.99575
G1 X104.879 Y104.925 E319.44551
G1 X104.879 Y104.057 E319.66245
G1 X95.121 Y113.814 E323.11221
G1 X95.121 Y112.947 E323.32915
G1 X104.879 Y103.189 E326.77891
G1 X104.879 Y102.321 E326.99585
G1 X95.121 Y112.079 E330.44562
G1 X95.121 Y111.211 E330.66255
G1 X104.879 Y101.454 E334.11232
G1 X104.879 Y100.586 E334.32926
G1 X95.121 Y110.343 E337.77902
G1 X95.121 Y109.476 E337.99596
G1 X104.879 Y99.718 E341.44572
G1 X104.879 Y98.850 E341.66266
G1 X95.121 Y108.608 E345.11243
G1 X95.121 Y107.740 E345.32936
G1 X104.879 Y97.983 E348.77913
G1 X104.879 Y97.115 E348.99607
G1 X95.121 Y106.872 E352.44583
G1 X95.121 Y106.005 E352.66277
G1 X104.879 Y96.247 E356.11253
G1 X104.879 Y95.379 E356.32947
G1 X95.121 Y105.137 E359.77923
G1 X95.121 Y104.269 E359.99617
G1 X104.879 Y94.512 E363.44593
G1 X104.879 Y93.644 E363.66287
G1 X95.121 Y103.401 E367.11264
G1 X95.121 Y102.534 E367.32957
G1 X104.879 Y92.776 E370.77934
G1 X104.879 Y91.908 E370.99628
G1 X95.121 Y101.666 E374.44604
G1 X95.121 Y100.798 E374.66298
G1 X104.879 Y91.041 E378.11274
G1 X104.879 Y90.173 E378.32968
G1 X95.121 Y99.930 E381.77944
G1 X95.121 Y99.063 E381.99638
G1 X104.879 Y89.305 E385.44615
G1 X104.879 Y88.437 E385.66308
G1 X95.121 Y98.195 E389.11285
G1 X95.121 Y97.327 E389.32979
G1 X104.879 Y87.570 E392.77955
G1 X104.879 Y86.702 E392.99649
G1 X95.121 Y96.459 E396.44625
G1 X95.121 Y95.592 E396.66319
G1 X104.879 Y85.834 E400.11295
G1 X104.879 Y84.966 E400.32989
G1 X95.121 Y94.724 E403.77966
G1 X95.121 Y93.856 E403.99659
G1 X104.879 Y84.099 E407.44636
G1 X104.879 Y83.231 E407.66329
G1 X95.121 Y92.988 E411.11306
G1 X95.121 Y92.121 E411.33000
G1 X104.879 Y82.363 E414.77976
G1 X104.879 Y81.495 E414.99670
G1 X95.121 Y91.253 E418.44646
G1 X95.121 Y90.385 E418.66340
G1 X104.879 Y80.628 E422.11317
G1 X104.879 Y79.760 E422.33010
G1 X95.121 Y89.517 E425.77987
G1 X95.121 Y88.650 E425.99681
G1 X104.879 Y78.892 E429.44657
G1 X104.282 Y78.621 E429.61044
G1 X95.121 Y87.782 E432.84917
G1 X95.121 Y86.914 E433.06611
G1 X103.414 Y78.621 E435.99804
G1 X102.546 Y78.621 E436.21498
G1 X95.121 Y86.046 E438.84012
G1 X95.121 Y85.179 E439.05706
G1 X101.679 Y78.621 E441.37540
G1 X100.811 Y78.621 E441.59234
G1 X95.121 Y84.311 E443.60389
G1 X95.121 Y83.443 E443.82082
G1 X99.943 Y78.621 E445.52557
G1 X99.075 Y78.621 E445.74251
G1 X95.121 Y82.575 E447.14047
G1 X95.121 Y81.708 E447.35740
G1 X98.208 Y78.621 E448.44856
G1 X97.340 Y78.621 E448.66550
G1 X95.121 Y80.840 E449.44986
G1 X95.121 Y79.972 E449.66680
G1 X96.472 Y78.621 E450.14437
G1 X95.604 Y78.621 E450.36131
G1 X95.121 Y79.104 E450.53208
G1 Z1.200 F7800.000
G1 X104.879 Y79.456 F7800.000
G1 X104.044 Y78.621 E450.82712 F4800.000
G1 X103.176 Y78.621 E451.04406
G1 X104.879 Y80.324 E451.64591
G1 X104.879 Y81.191 E451.86284
G1 X102.309 Y78.621 E452.77148
G1 X101.441 Y78.621 E452.98842
G1 X104.879 Y82.059 E454.20386
G1 X104.879 Y82.927 E454.42079
G1 X100.573 Y78.621 E455.94303
G1 X99.705 Y78.621 E456.15996
G1 X104.879 Y83.795 E457.98899
G1 X104.879 Y84.662 E458.20593
G1 X98.838 Y78.621 E460.34175
G1 X97.970 Y78.621 E460.55869
G1 X104.879 Y85.530 E463.00131
G1 X104.879 Y86.398 E463.21825
G1 X97.102 Y78.621 E465.96767
G1 X96.234 Y78.621 E466.18460
G1 X104.879 Y87.266 E469.24082
G1 X104.879 Y88.133 E469.45775
G1 X95.367 Y78.621 E472.82076
G1 X95.121 Y79.244 E472.98801
G1 X104.879 Y89.001 E476.43777
G1 X104.879 Y89.869 E476.65471
G1 X95.121 Y80.111 E480.10448
G1 X95.121 Y80.979 E480.32141
G1 X104.879 Y90.737 E483.77118
G1 X104.879 Y91.604 E483.98812
G1 X95.121 Y81.847 E487.43788
G1 X95.121 Y82.715 E487.65482
G1 X104.879 Y92.472 E491.10458
G1 X104.879 Y93.340 E491.32152
G1 X95.121 Y83.582 E494.77129
G1 X95.121 Y84.450 E494.98822
G1 X104.879 Y94.208 E498.43799
G1 X104.879 Y95.075 E498.65493
G1 X95.121 Y85.318 E502.10469
G1 X95.121 Y86.186 E502.32163
G1 X104.879 Y95.943 E505.77139
G1 X104.879 Y96.811 E505.98833
G1 X95.121 Y87.053 E509.43809
G1 X95.121 Y87.921 E509.65503
G1 X104.879 Y97.679 E513.10480
G1 X104.879 Y98.546 E513.32173
G1 X95.121 Y88.789 E516.77150
G1 X95.121 Y89.657 E516.98844
G1 X104.879 Y99.414 E520.43820
G1 X104.879 Y100.282 E520.65514
G1 X95.121 Y90.524 E524.10490
G1 X95.121 Y91.392 E524.32184
G1 X104.879 Y101.150 E527.77160
G1 X104.879 Y102.017 E527.98854
G1 X95.121 Y92.260 E531.43831
G1 X95.121 Y93.128 E531.65524
G1 X104.879 Y102.885 E535.10501
G1 X104.879 Y103.753 E535.32195
G1 X95.121 Y93.995 E538.77171
G1 X95.121 Y94.863 E538.98865
G1 X104.879 Y104.621 E542.43841
G1 X104.879 Y105.488 E542.65535
G1 X95.121 Y95.731 E546.10511
G1 X95.121 Y96.599 E546.32205
G1 X104.879 Y106.356 E549.77182
G1 X104.879 Y107.224 E549.98875
G1 X95.121 Y97.466 E553.43852
G1 X95.121 Y98.334 E553.65546
G1 X104.879 Y108.092 E557.10522
G1 X104.879 Y108.959 E557.32216
G1 X95.121 Y99.202 E560.77192
G1 X95.121 Y100.070 E560.98886
G1 X104.879 Y109.827 E564.43863
G1 X104.879 Y110.695 E564.65556
G1 X95.121 Y100.937 E568.10533
G1 X95.121 Y101.805 E568.32227
G1 X104.879 Y111.563 E571.77203
G1 X104.879 Y112.430 E571.98897
G1 X95.121 Y102.673 E575.43873
G1 X95.121 Y103.541 E575.65567
G1 X104.879 Y113.298 E579.10543
G1 X104.879 Y114.166 E579.32237
G1 X95.121 Y104.408 E582.77214
G1 X95.121 Y105.276 E582.98907
G1 X104.879 Y115.034 E586.43884
G1 X104.879 Y115.901 E586.65578
G1 X95.121 Y106.144 E590.10554
G1 X95.121 Y107.012 E590.32248
G1 X104.879 Y116.769 E593.77224
G1 X104.879 Y117.637 E593.98918
G1 X95.121 Y107.879 E597.43895
G1 X95.121 Y108.747 E597.65588
G1 X104.879 Y118.505 E601.10565
G1 X104.879 Y119.372 E601.32259
G1 X95.121 Y109.615 E604.77235
G1 X95.121 Y110.483 E604.98929
G1 X104.879 Y120.240 E608.43905
G1 X104.879 Y121.108 E608.65599
G1 X95.121 Y111.350 E612.10575
G1 X95.121 Y112.218 E612.32269
G1 X104.282 Y121.379 E615.56142
G1 X103.414 Y121.379 E615.77836
G1 X95.121 Y113.086 E618.71030
G1 X95.121 Y113.954 E618.92724
G1 X102.546 Y121.379 E621.55238
G1 X101.679 Y121.379 E621.76931
G1 X95.121 Y114.821 E624.08766
G1 X95.121 Y115.689 E624.30459
G1 X100.811 Y121.379 E626.31614
G1 X99.943 Y121.379 E626.53308
G1 X95.121 Y116.557 E628.23783
G1 X95.121 Y117.425 E628.45477
G1 X99.075 Y121.379 E629.85272
G1 X98.208 Y121.379 E630.06966
G1 X95.121 Y118.292 E631.16082
G1 X95.121 Y119.160 E631.37776
G1 X97.340 Y121.379 E632.16212
G1 X96.472 Y121.379 E632.37906
G1 X95.121 Y120.028 E632.85662
G1 X95.121 Y120.896 E633.07356
G1 X95.604 Y121.379 E633.24433
M106 S242.25
G1 Z1.600 F7800.000
G1 X104.044 Y121.379 F7800.000
G1 X104.879 Y120.544 E633.53938 F4800.000
G1 X104.879 Y119.676 E633.75632
G1 X103.176 Y121.379 E634.35816
G1 X102.309 Y121.379 E634.57510
G1 X104.879 Y118.809 E635.48374
G1 X104.879 Y117.941 E635.70068
G1 X101.441 Y121.379 E636.91611
G1 X100.573 Y121.379 E637.13305
G1 X104.879 Y117.073 E638.65528
G1 X104.879 Y116.205 E638.87222
G1 X99.705 Y121.379 E640.70125
G1 X98.838 Y121.379 E640.91818
G1 X104.879 Y115.338 E643.05401
G1 X104.879 Y114.470 E643.27094
G1 X97.970 Y121.379 E645.71356
G1 X97.102 Y121.379 E645.93050
G1 X104.879 Y113.602 E648.67992
G1 X104.879 Y112.734 E648.89686
G1 X96.234 Y121.379 E651.95307
G1 X95.367 Y121.379 E652.17001
G1 X104.879 Y111.867 E655.53301
G1 X104.879 Y110.999 E655.74995
G1 X95.121 Y120.756 E659.19972
G1 X95.121 Y119.889 E659.41665
G1 X104.879 Y110.131 E662.86642
G1 X104.879 Y109.263 E663.08336
G1 X95.121 Y119.021 E666.53312
G1 X95.121 Y118.153 E666.75006
G1 X104.879 Y108.396 E670.19982
G1 X104.879 Y107.528 E670.41676
G1 X95.121 Y117.285 E673.86652
G1 X95.121 Y116.418 E674.08346
G1 X104.879 Y106.660 E677.53323
G1 X104.879 Y105.792 E677.75016
G1 X95.121 Y115.550 E681.19993
G1 X95.121 Y114.682 E681.41687
G1 X104.879 Y104.925 E684.86663
G1 X104.879 Y104.057 E685.08357
G1 X95.121 Y113.814 E688.53333
G1 X95.121 Y112.947 E688.75027
G1 X104.879 Y103.189 E692.20004
G1 X104.879 Y102.321 E692.41697
G1 X95.121 Y112.079 E695.86674
G1 X95.121 Y111.211 E696.08368
G1 X104.879 Y101.454 E699.53344
G1 X104.879 Y100.586 E699.75038
G1 X95.121 Y110.343 E703.20014
G1 X95.121 Y109.476 E703.41708
G1 X104.879 Y99.718 E706.86684
G1 X104.879 Y98.850 E707.08378
G1 X95.121 Y108.608 E710.53355
G1 X95.121 Y107.740 E710.75048
G1 X104.879 Y97.983 E714.20025
G1 X104.879 Y97.115 E714.41719
G1 X95.121 Y106.872 E717.86695
G1 X95.121 Y106.005 E718.08389
G1 X104.879 Y96.247 E721.53365
G1 X104.879 Y95.379 E721.75059
G1 X95.121 Y105.137 E725.20035
G1 X95.121 Y104.269 E725.41729
G1 X104.879 Y94.512 E728.86706
G1 X104.879 Y93.644 E729.08399
G1 X95.121 Y103.401 E732.53376
G1 X95.121 Y102.534 E732.75069
G1 X104.879 Y92.776 E736.20046
G1 X104.879 Y91.908 E736.41740
G1 X95.121 Y101.666 E739.86716
G1 X95.121 Y100.798 E740.08410
G1 X104.879 Y91.041 E743.53386
G1 X104.879 Y90.173 E743.75080
G1 X95.121 Y99.930 E747.20056
G1 X95.121 Y99.063 E747.41750
G1 X104.879 Y89.305 E750.86727
G1 X104.879 Y88.437 E751.08420
G1 X95.121 Y98.195 E754.53397
G1 X95.121 Y97.327 E754.75091
G1 X104.879 Y87.570 E758.20067
G1 X104.879 Y86.702 E758.41761
G1 X95.121 Y96.459 E761.86737
G1 X95.121 Y95.592 E762.08431
G1 X104.879 Y85.834 E765.53407
G1 X104.879 Y84.966 E765.75101
G1 X95.121 Y94.724 E769.20078
G1 X95.121 Y93.856 E769.41771
G1 X104.879 Y84.099 E772.86748
G1 X104.879 Y83.231 E773.08442
G1 X95.121 Y92.988 E776.53418
G1 X95.121 Y92.121 E776.75112
G1 X104.879 Y82.363 E780.20088
G1 X104.879 Y81.495 E780.41782
G1 X95.121 Y91.253 E783.86758
G1 X95.121 Y90.385 E784.08452
G1 X104.879 Y80.628 E787.53429
G1 X104.879 Y79.760 E787.75122
G1 X95.121 Y89.517 E791.20099
G1 X95.121 Y88.650 E791.41793
G1 X104.879 Y78.892 E794.86769
G1 X104.282 Y78.621 E795.03156
G1 X95.121 Y87.782 E798.27029
G1 X95.121 Y86.914 E798.48723
G1 X103.414 Y78.621 E801.41916
G1 X102.546 Y78.621 E801.63610
G1 X95.121 Y86.046 E804.26124
G1 X95.121 Y85.179 E804.47818
G1 X101.679 Y78.621 E806.79652
G1 X100.811 Y78.621 E807.01346
G1 X95.121 Y84.311 E809.02501
G1 X95.121 Y83.443 E809.24194
G1 X99.943 Y78.621 E810.94670
G1 X99.075 Y78.621 E811.16363
G1 X95.121 Y82.575 E812.56159
G1 X95.121 Y81.708 E812.77853
G1 X98.208 Y78.621 E813.86968
G1 X97.340 Y78.621 E814.08662
G1 X95.121 Y80.840 E814.87099
G1 X95.121 Y79.972 E815.08792
G1 X96.472 Y78.621 E815.56549
G1 X95.604 Y78.621 E815.78243
G1 X95.121 Y79.104 E815.95320
G1 Z2.000 F7800.000
G1 X104.879 Y79.456 F7800.000
G1 X104.044 Y78.621 E816.24824 F4800.000
G1 X103.176 Y78.621 E816.46518
G1 X104.879 Y80.324 E817.06703
G1 X104.879 Y81.191 E817.28396
G1 X102.309 Y78.621 E818.19260
G1 X101.441 Y78.621 E818.40954
G1 X104.879 Y82.059 E819.62498
G1 X104.879 Y82.927 E819.84191
G1 X100.573 Y78.621 E821.36415
G1 X99.705 Y78.621 E821.58108
G1 X104.879 Y83.795 E823.41011
G1 X104.879 Y84.662 E823.62705
G1 X98.838 Y78.621 E825.76287
G1 X97.970 Y78.621 E825.97981
G1 X104.879 Y85.530 E828.42243
G1 X104.879 Y86.398 E828.63937
G1 X97.102 Y78.621 E831.38879
G1 X96.234 Y78.621 E831.60572
G1 X104.879 Y87.266 E834.66194
G1 X104.879 Y88.133 E834.87887
G1 X95.367 Y78.621 E838.24188
G1 X95.121 Y79.244 E838.40913
G1 X104.879 Y89.001 E841.85890
G1 X104.879 Y89.869 E842.07583
G1 X95.121 Y80.111 E845.52560
G1 X95.121 Y80.979 E845.74254
G1 X104.879 Y90.737 E849.19230
G1 X104.879 Y91.604 E849.40924
G1 X95.121 Y81.847 E852.85900
G1 X95.121 Y82.715 E853.07594
G1 X104.879 Y92.472 E856.52570
G1 X104.879 Y93.340 E856.74264
G1 X95.121 Y83.582 E860.19241
G1 X95.121 Y84.450 E860.40934
G1 X104.879 Y94.208 E863.85911
G1 X104.879 Y95.075 E864.07605
G1 X95.121 Y85.318 E867.52581
G1 X95.121 Y86.186 E867.74275
G1 X104.879 Y95.943 E871.19251
G1 X104.879 Y96.811 E871.40945
G1 X95.121 Y87.053 E874.85921
G1 X95.121 Y87.921 E875.07615
G1 X104.879 Y97.679 E878.52592
G1 X104.879 Y98.546 E878.74285
G1 X95.121 Y88.789 E882.19262
G1 X95.121 Y89.657 E882.40956
G1 X104.879 Y99.414 E885.85932
G1 X104.879 Y100.282 E886.07626
G1 X95.121 Y90.524 E889.52602
G1 X95.121 Y91.392 E889.74296
G1 X104.879 Y101.150 E893.19273
G1 X104.879 Y102.017 E893.40966
G1 X95.121 Y92.260 E896.85943
G1 X95.121 Y93.128 E897.07636
G1 X104.879 Y102.885 E900.52613
G1 X104.879 Y103.753 E900.74307
G1 X95.121 Y93.995 E904.19283
G1 X95.121 Y94.863 E904.40977
G1 X104.879 Y104.621 E907.85953
G1 X104.879 Y105.488 E908.07647
G1 X95.121 Y95.731 E911.52624
G1 X95.121 Y96.599 E911.74317
G1 X104.879 Y106.356 E915.19294
G1 X104.879 Y107.224 E915.40988
G1 X95.121 Y97.466 E918.85964
G1 X95.121 Y98.334 E919.07658
G1 X104.879 Y108.092 E922.52634
G1 X104.879 Y108.959 E922.74328
G1 X95.121 Y99.202 E926.19304
G1 X95.121 Y100.070 E926.40998
G1 X104.879 Y109.827 E929.85975
G1 X104.879 Y110.695 E930.07668
G1 X95.121 Y100.937 E933.52645
G1 X95.121 Y101.805 E933.74339
G1 X104.879 Y111.563 E937.19315
G1 X104.879 Y112.430 E937.41009
G1 X95.121 Y102.673 E940.85985
G1 X95.121 Y103.541 E941.07679
G1 X104.879 Y113.298 E944.52655
G1 X104.879 Y114.166 E944.74349
G1 X95.121 Y104.408 E948.19326
G1 X95.121 Y105.276 E948.41019
G1 X104.879 Y115.034 E951.85996
G1 X104.879 Y115.901 E952.07690
G1 X95.121 Y106.144 E955.52666
G1 X95.121 Y107.012 E955.74360
G1 X104.879 Y116.769 E959.19336
G1 X104.879 Y117.637 E959.41030
G1 X95.121 Y107.879 E962.86007
G1 X95.121 Y108.747 E963.07700
G1 X104.879 Y118.505 E966.52677
G1 X104.879 Y119.372 E966.74371
G1 X95.121 Y109.615 E970.19347
G1 X95.121 Y110.483 E970.41041
G1 X104.879 Y120.240 E973.86017
G1 X104.879 Y121.108 E974.07711
G1 X95.121 Y111.350 E977.52688
G1 X95.121 Y112.218 E977.74381
G1 X104.282 Y121.379 E980.98255
G1 X103.414 Y121.379 E981.19948
G1 X95.121 Y113.086 E984.13142
G1 X95.121 Y113.954 E984.34836
G1 X102.546 Y121.379 E986.97350
G1 X101.679 Y121.379 E987.19043
G1 X95.121 Y114.821 E989.50878
G1 X95.121 Y115.689 E989.72571
G1 X100.811 Y121.379 E991.73726
G1 X99.943 Y121.379 E991.95420
G1 X95.121 Y116.557 E993.65895
G1 X95.121 Y117.425 E993.87589
G1 X99.075 Y121.379 E995.27384
G1 X98.208 Y121.379 E995.49078
G1 X95.121 Y118.292 E996.58194
G1 X95.121 Y119.160 E996.79888
G1 X97.340 Y121.379 E997.58324
G1 X96.472 Y121.379 E997.80018
G1 X95.121 Y120.028 E998.27774
G1 X95.121 Y120.896 E998.49468
G1 X95.604 Y121.379 E998.66545
G1 Z2.400 F7800.000
G1 X104.044 Y121.379 F7800.000
G1 X104.879 Y120.544 E998.96050 F4800.000
G1 X104.879 Y119.676 E999.17744
G1 X103.176 Y121.379 E999.77928
G1 X102.309 Y121.379 E999.99622
G1 X104.879 Y118.809 E1000.90486
G1 X104.879 Y117.941 E1001.12180
G1 X101.441 Y121.379 E1002.33723
G1 X100.573 Y121.379 E1002.55417
G1 X104.879 Y117.073 E1004.07640
G1 X104.879 Y116.205 E1004.29334
G1 X99.705 Y121.379 E1006.12237
G1 X98.838 Y121.379 E1006.33930
G1 X104.879 Y115.338 E1008.47513
G1 X104.879 Y114.470 E1008.69207
G1 X97.970 Y121.379 E1011.13469
G1 X97.102 Y121.379 E1011.35162
G1 X104.879 Y113.602 E1014.10104
G1 X104.879 Y112.734 E1014.31798
G1 X96.234 Y121.379 E1017.37419
G1 X95.367 Y121.379 E1017.59113
G1 X104.879 Y111.867 E1020.95413
G1 X104.879 Y110.999 E1021.17107
G1 X95.121 Y120.756 E1024.62084
G1 X95.121 Y119.889 E1024.83777
G1 X104.879 Y110.131 E1028.28754
G1 X104.879 Y109.263 E1028.50448
G1 X95.121 Y119.021 E1031.95424
G1 X95.121 Y118.153 E1032.17118
G1 X104.879 Y108.396 E1035.62094
G1 X104.879 Y107.528 E1035.83788
G1 X95.121 Y117.285 E1039.28765
G1 X95.121 Y116.418 E1039.50458
G1 X104.879 Y106.660 E1042.95435
G1 X104.879 Y105.792 E1043.17128
G1 X95.121 Y115.550 E1046.62105
G1 X95.121 Y114.682 E1046.83799
G1 X104.879 Y104.925 E1050.28775
G1 X104.879 Y104.057 E1050.50469
G1 X95.121 Y113.814 E1053.95445
G1 X95.121 Y112.947 E1054.17139
G1 X104.879 Y103.189 E1057.62116
G1 X104.879 Y102.321 E1057.83809
G1 X95.121 Y112.079 E1061.28786
G1 X95.121 Y111.211 E1061.50480
G1 X104.879 Y101.454 E1064.95456
G1 X104.879 Y100.586 E1065.17150
G1 X95.121 Y110.343 E1068.62126
G1 X95.121 Y109.476 E1068.83820
G1 X104.879 Y99.718 E1072.28797
G1 X104.879 Y98.850 E1072.50490
G1 X95.121 Y108.608 E1075.95467
G1 X95.121 Y107.740 E1076.17160
G1 X104.879 Y97.983 E1079.62137
G1 X104.879 Y97.115 E1079.83831
G1 X95.121 Y106.872 E1083.28807
G1 X95.121 Y106.005 E1083.50501
G1 X104.879 Y96.247 E1086.95477
G1 X104.879 Y95.379 E1087.17171
G1 X95.121 Y105.137 E1090.62147
G1 X95.121 Y104.269 E1090.83841
G1 X104.879 Y94.512 E1094.28818
G1 X104.879 Y93.644 E1094.50511
G1 X95.121 Y103.401 E1097.95488
G1 X95.121 Y102.534 E1098.17182
G1 X104.879 Y92.776 E1101.62158
G1 X104.879 Y91.908 E1101.83852
G1 X95.121 Y101.666 E1105.28828
G1 X95.121 Y100.798 E1105.50522
G1 X104.879 Y91.041 E1108.95498
G1 X104.879 Y90.173 E1109.17192
G1 X95.121 Y99.930 E1112.62169
G1 X95.121 Y99.063 E1112.83862
G1 X104.879 Y89.305 E1116.28839
G1 X104.879 Y88.437 E1116.50533
G1 X95.121 Y98.195 E1119.95509
G1 X95.121 Y97.327 E1120.17203
G1 X104.879 Y87.570 E1123.62179
G1 X104.879 Y86.702 E1123.83873
G1 X95.121 Y96.459 E1127.28849
G1 X95.121 Y95.592 E1127.50543
G1 X104.879 Y85.834 E1130.95519
G1 X104.879 Y84.966 E1131.17213
G1 X95.121 Y94.724 E1134.62190
G1 X95.121 Y93.856 E1134.83883
G1 X104.879 Y84.099 E1138.28860
G1 X104.879 Y83.231 E1138.50554
G1 X95.121 Y92.988 E1141.95530
G1 X95.121 Y92.121 E1142.17224
G1 X104.879 Y82.363 E1145.62200
G1 X104.879 Y81.495 E1145.83894
G1 X95.121 Y91.253 E1149.28871
G1 X95.121 Y90.385 E1149.50564
G1 X104.879 Y80.628 E1152.95541
G1 X104.879 Y79.760 E1153.17234
G1 X95.121 Y89.517 E1156.62211
G1 X95.121 Y88.650 E1156.83905
G1 X104.879 Y78.892 E1160.28881
G1 X104.282 Y78.621 E1160.45268
G1 X95.121 Y87.782 E1163.69141
G1 X95.121 Y86.914 E1163.90835
G1 X103.414 Y78.621 E1166.84028
G1 X102.546 Y78.621 E1167.05722
G1 X95.121 Y86.046 E1169.68236
G1 X95.121 Y85.179 E1169.89930
G1 X101.679 Y78.621 E1172.21764
G1 X100.811 Y78.621 E1172.43458
G1 X95.121 Y84.311 E1174.44613
G1 X95.121 Y83.443 E1174.66306
G1 X99.943 Y78.621 E1176.36782
G1 X99.075 Y78.621 E1176.58475
G1 X95.121 Y82.575 E1177.98271
G1 X95.121 Y81.708 E1178.19965
G1 X98.208 Y78.621 E1179.29081
G1 X97.340 Y78.621 E1179.50774
G1 X95.121 Y80.840 E1180.29211
G1 X95.121 Y79.972 E1180.50904
G1 X96.472 Y78.621 E1180.98661
G1 X95.604 Y78.621 E1181.20355
G1 X95.121 Y79.104 E1181.37432
G1 Z2.800 F7800.000
G1 X104.879 Y79.456 F7800.000
G1 X104.044 Y78.621 E1181.66937 F4800.000
G1 X103.176 Y78.621 E1181.88630
G1 X104.879 Y80.324 E1182.48815
G1 X104.879 Y81.191 E1182.70508
G1 X102.309 Y78.621 E1183.61372
G1 X101.441 Y78.621 E1183.83066
G1 X104.879 Y82.059 E1185.04610
G1 X104.879 Y82.927 E1185.26304
G1 X100.573 Y78.621 E1186.78527
G1 X99.705 Y78.621 E1187.00220
G1 X104.879 Y83.795 E1188.83123
G1 X104.879 Y84.662 E1189.04817
G1 X98.838 Y78.621 E1191.18399
G1 X97.970 Y78.621 E1191.40093
G1 X104.879 Y85.530 E1193.84355
G1 X104.879 Y86.398 E1194.06049
G1 X97.102 Y78.621 E1196.80991
G1 X96.234 Y78.621 E1197.02684
G1 X104.879 Y87.266 E1200.08306
G1 X104.879 Y88.133 E1200.29999
G1 X95.367 Y78.621 E1203.66300
G1 X95.121 Y79.244 E1203.83025
G1 X104.879 Y89.001 E1207.28002
G1 X104.879 Y89.869 E1207.49695
G1 X95.121 Y80.111 E1210.94672
G1 X95.121 Y80.979 E1211.16366
G1 X104.879 Y90.737 E1214.61342
G1 X104.879 Y91.604 E1214.83036
G1 X95.121 Y81.847 E1218.28012
G1 X95.121 Y82.715 E1218.49706
G1 X104.879 Y92.472 E1221.94682
G1 X104.879 Y93.340 E1222.16376
G1 X95.121 Y83.582 E1225.61353
G1 X95.121 Y84.450 E1225.83046
G1 X104.879 Y94.208 E1229.28023
G1 X104.879 Y95.075 E1229.49717
G1 X95.121 Y85.318 E1232.94693
G1 X95.121 Y86.186 E1233.16387
G1 X104.879 Y95.943 E1236.61363
G1 X104.879 Y96.811 E1236.83057
G1 X95.121 Y87.053 E1240.28034
G1 X95.121 Y87.921 E1240.49727
G1 X104.879 Y97.679 E1243.94704
G1 X104.879 Y98.546 E1244.16398
G1 X95.121 Y88.789 E1247.61374
G1 X95.121 Y89.657 E1247.83068
G1 X104.879 Y99.414 E1251.28044
G1 X104.879 Y100.282 E1251.49738
G1 X95.121 Y90.524 E1254.94714
G1 X95.121 Y91.392 E1255.16408
G1 X104.879 Y101.150 E1258.61385
G1 X104.879 Y102.017 E1258.83078
G1 X95.121 Y92.260 E1262.28055
G1 X95.121 Y93.128 E1262.49749
G1 X104.879 Y102.885 E1265.94725
G1 X104.879 Y103.753 E1266.16419
G1 X95.121 Y93.995 E1269.61395
G1 X95.121 Y94.863 E1269.83089
G1 X104.879 Y104.621 E1273.28065
G1 X104.879 Y105.488 E1273.49759
G1 X95.121 Y95.731 E1276.94736
G1 X95.121 Y96.599 E1277.16429
G1 X104.879 Y106.356 E1280.61406
G1 X104.879 Y107.224 E1280.83100
G1 X95.121 Y97.466 E1284.28076
G1 X95.121 Y98.334 E1284.49770
G1 X104.879 Y108.092 E1287.94746
G1 X104.879 Y108.959 E1288.16440
G1 X95.121 Y99.202 E1291.61416
G1 X95.121 Y100.070 E1291.83110
G1 X104.879 Y109.827 E1295.28087
G1 X104.879 Y110.695 E1295.49780
G1 X95.121 Y100.937 E1298.94757
G1 X95.121 Y101.805 E1299.16451
G1 X104.879 Y111.563 E1302.61427
G1 X104.879 Y112.430 E1302.83121
G1 X95.121 Y102.673 E1306.28097
G1 X95.121 Y103.541 E1306.49791
G1 X104.879 Y113.298 E1309.94768
G1 X104.879 Y114.166 E1310.16461
G1 X95.121 Y104.408 E1313.61438
G1 X95.121 Y105.276 E1313.83132
G1 X104.879 Y115.034 E1317.28108
G1 X104.879 Y115.901 E1317.49802
G1 X95.121 Y106.144 E1320.94778
G1 X95.121 Y107.012 E1321.16472
G1 X104.879 Y116.769 E1324.61448
G1 X104.879 Y117.637 E1324.83142
G1 X95.121 Y107.879 E1328.28119
G1 X95.121 Y108.747 E1328.49812
G1 X104.879 Y118.505 E1331.94789
G1 X104.879 Y119.372 E1332.16483
G1 X95.121 Y109.615 E1335.61459
G1 X95.121 Y110.483 E1335.83153
G1 X104.879 Y120.240 E1339.28129
G1 X104.879 Y121.108 E1339.49823
G1 X95.121 Y111.350 E1342.94800
G1 X95.121 Y112.218 E1343.16493
G1 X104.282 Y121.379 E1346.40367
G1 X103.414 Y121.379 E1346.62060
G1 X95.121 Y113.086 E1349.55254
G1 X95.121 Y113.954 E1349.76948
G1 X102.546 Y121.379 E1352.39462
G1 X101.679 Y121.379 E1352.61155
G1 X95.121 Y114.821 E1354.92990
G1 X95.121 Y115.689 E1355.14684
G1 X100.811 Y121.379 E1357.15838
G1 X99.943 Y121.379 E1357.37532
G1 X95.121 Y116.557 E1359.08007
G1 X95.121 Y117.425 E1359.29701
G1 X99.075 Y121.379 E1360.69496
G1 X98.208 Y121.379 E1360.91190
G1 X95.121 Y118.292 E1362.00306
G1 X95.121 Y119.160 E1362.22000
G1 X97.340 Y121.379 E1363.00436
G1 X96.472 Y121.379 E1363.22130
G1 X95.121 Y120.028 E1363.69887
G1 X95.121 Y120.896 E1363.91580
G1 X95.604 Y121.379 E1364.08657
G1 Z3.200 F7800.000
G1 X104.044 Y121.379 F7800.000
G1 X104.879 Y120.544 E1364.38162 F4800.000
G1 X104.879 Y119.676 E1364.59856
G1 X103.176 Y121.379 E1365.20040
G1 X102.309 Y121.379 E1365.41734
G1 X104.879 Y118.809 E1366.32598
G1 X104.879 Y117.941 E1366.54292
G1 X101.441 Y121.379 E1367.75835
G1 X100.573 Y121.379 E1367.97529
G1 X104.879 Y117.073 E1369.49752
G1 X104.879 Y116.205 E1369.71446
G1 X99.705 Y121.379 E1371.54349
G1 X98.838 Y121.379 E1371.76043
G1 X104.879 Y115.338 E1373.89625
G1 X104.879 Y114.470 E1374.11319
G1 X97.970 Y121.379 E1376.55581
G1 X97.102 Y121.379 E1376.77274
G1 X104.879 Y113.602 E1379.52216
G1 X104.879 Y112.734 E1379.73910
G1 X96.234 Y121.379 E1382.79531
G1 X95.367 Y121.379 E1383.01225
G1 X104.879 Y111.867 E1386.37525
G1 X104.879 Y110.999 E1386.59219
G1 X95.121 Y120.756 E1390.04196
G1 X95.121 Y119.889 E1390.25889
G1 X104.879 Y110.131 E1393.70866
G1 X104.879 Y109.263 E1393.92560
G1 X95.121 Y119.021 E1397.37536
G1 X95.121 Y118.153 E1397.59230
G1 X104.879 Y108.396 E1401.04206
G1 X104.879 Y107.528 E1401.25900
G1 X95.121 Y117.285 E1404.70877
G1 X95.121 Y116.418 E1404.92570
G1 X104.879 Y106.660 E1408.37547
G1 X104.879 Y105.792 E1408.59241
G1 X95.121 Y115.550 E1412.04217
G1 X95.121 Y114.682 E1412.25911
G1 X104.879 Y104.925 E1415.70887
G1 X104.879 Y104.057 E1415.92581
G1 X95.121 Y113.814 E1419.37557
G1 X95.121 Y112.947 E1419.59251
G1 X104.879 Y103.189 E1423.04228
G1 X104.879 Y102.321 E1423.25921
G1 X95.121 Y112.079 E1426.70898
G1 X95.121 Y111.211 E1426.92592
G1 X104.879 Y101.454 E1430.37568
G1 X104.879 Y100.586 E1430.59262
G1 X95.121 Y110.343 E1434.04238
G1 X95.121 Y109.476 E1434.25932
G1 X104.879 Y99.718 E1437.70909
G1 X104.879 Y98.850 E1437.92602
G1 X95.121 Y108.608 E1441.37579
G1 X95.121 Y107.740 E1441.59273
G1 X104.879 Y97.983 E1445.04249
G1 X104.879 Y97.115 E1445.25943
G1 X95.121 Y106.872 E1448.70919
G1 X95.121 Y106.005 E1448.92613
G1 X104.879 Y96.247 E1452.37589
G1 X104.879 Y95.379 E1452.59283
G1 X95.121 Y105.137 E1456.04260
G1 X95.121 Y104.269 E1456.25953
G1 X104.879 Y94.512 E1459.70930
G1 X104.879 Y93.644 E1459.92623
G1 X95.121 Y103.401 E1463.37600
G1 X95.121 Y102.534 E1463.59294
G1 X104.879 Y92.776 E1467.04270
G1 X104.879 Y91.908 E1467.25964
G1 X95.121 Y101.666 E1470.70940
G1 X95.121 Y100.798 E1470.92634
G1 X104.879 Y91.041 E1474.37610
G1 X104.879 Y90.173 E1474.59304
G1 X95.121 Y99.930 E1478.04281
G1 X95.121 Y99.063 E1478.25974
G1 X104.879 Y89.305 E1481.70951
G1 X104.879 Y88.437 E1481.92645
G1 X95.121 Y98.195 E1485.37621
G1 X95.121 Y97.327 E1485.59315
G1 X104.879 Y87.570 E1489.04291
G1 X104.879 Y86.702 E1489.25985
G1 X95.121 Y96.459 E1492.70961
G1 X95.121 Y95.592 E1492.92655
G1 X104.879 Y85.834 E1496.37632
G1 X104.879 Y84.966 E1496.59325
G1 X95.121 Y94.724 E1500.04302
G1 X95.121 Y93.856 E1500.25996
G1 X104.879 Y84.099 E1503.70972
G1 X104.879 Y83.231 E1503.92666
G1 X95.121 Y92.988 E1507.37642
G1 X95.121 Y92.121 E1507.59336
G1 X104.879 Y82.363 E1511.04312
G1 X104.879 Y81.495 E1511.26006
G1 X95.121 Y91.253 E1514.70983
G1 X95.121 Y90.385 E1514.92676
G1 X104.879 Y80.628 E1518.37653
G1 X104.879 Y79.760 E1518.59347
G1 X95.121 Y89.517 E1522.04323
G1 X95.121 Y88.650 E1522.26017
G1 X104.879 Y78.892 E1525.70993
G1 X104.282 Y78.621 E1525.87380
G1 X95.121 Y87.782 E1529.11253
G1 X95.121 Y86.914 E1529.32947
G1 X103.414 Y78.621 E1532.26140
G1 X102.546 Y78.621 E1532.47834
G1 X95.121 Y86.046 E1535.10348
G1 X95.121 Y85.179 E1535.32042
G1 X101.679 Y78.621 E1537.63876
G1 X100.811 Y78.621 E1537.85570
G1 X95.121 Y84.311 E1539.86725
G1 X95.121 Y83.443 E1540.08419
G1 X99.943 Y78.621 E1541.78894
G1 X99.075 Y78.621 E1542.00587
G1 X95.121 Y82.575 E1543.40383
G1 X95.121 Y81.708 E1543.62077
G1 X98.208 Y78.621 E1544.71193
G1 X97.340 Y78.621 E1544.92886
G1 X95.121 Y80.840 E1545.71323
G1 X95.121 Y79.972 E1545.93016
G1 X96.472 Y78.621 E1546.40773
G1 X95.604 Y78.621 E1546.62467
G1 X95.121 Y79.104 E1546.79544
G1 Z3.600 F7800.000
G1 X104.879 Y79.456 F7800.000
G1 X104.044 Y78.621 E1547.09049 F4800.000
G1 X103.176 Y78.621 E1547.30742
G1 X104.879 Y80.324 E1547.90927
G1 X104.879 Y81.191 E1548.12621
G1 X102.309 Y78.621 E1549.03485
G1 X101.441 Y78.621 E1549.25178
G1 X104.879 Y82.059 E1550.46722
G1 X104.879 Y82.927 E1550.68416
G1 X100.573 Y78.621 E1552.20639
G1 X99.705 Y78.621 E1552.42333
G1 X104.879 Y83.795 E1554.25235
G1 X104.879 Y84.662 E1554.46929
G1 X98.838 Y78.621 E1556.60512
G1 X97.970 Y78.621 E1556.82205
G1 X104.879 Y85.530 E1559.26467
G1 X104.879 Y86.398 E1559.48161
G1 X97.102 Y78.621 E1562.23103
G1 X96.234 Y78.621 E1562.44797
G1 X104.879 Y87.266 E1565.50418
G1 X104.879 Y88.133 E1565.72112
G1 X95.367 Y78.621 E1569.08412
G1 X95.121 Y79.244 E1569.25137
G1 X104.879 Y89.001 E1572.70114
G1 X104.879 Y89.869 E1572.91807
G1 X95.121 Y80.111 E1576.36784
G1 X95.121 Y80.979 E1576.58478
G1 X104.879 Y90.737 E1580.03454
G1 X104.879 Y91.604 E1580.25148
G1 X95.121 Y81.847 E1583.70124
G1 X95.121 Y82.715 E1583.91818
G1 X104.879 Y92.472 E1587.36795
G1 X104.879 Y93.340 E1587.58488
G1 X95.121 Y83.582 E1591.03465
G1 X95.121 Y84.450 E1591.25159
G1 X104.879 Y94.208 E1594.70135
G1 X104.879 Y95.075 E1594.91829
G1 X95.121 Y85.318 E1598.36805
G1 X95.121 Y86.186 E1598.58499
G1 X104.879 Y95.943 E1602.03475
G1 X104.879 Y96.811 E1602.25169
G1 X95.121 Y87.053 E1605.70146
G1 X95.121 Y87.921 E1605.91839
G1 X104.879 Y97.679 E1609.36816
G1 X104.879 Y98.546 E1609.58510
G1 X95.121 Y88.789 E1613.03486
G1 X95.121 Y89.657 E1613.25180
G1 X104.879 Y99.414 E1616.70156
G1 X104.879 Y100.282 E1616.91850
G1 X95.121 Y90.524 E1620.36826
G1 X95.121 Y91.392 E1620.58520
G1 X104.879 Y101.150 E1624.03497
G1 X104.879 Y102.017 E1624.25190
G1 X95.121 Y92.260 E1627.70167
G1 X95.121 Y93.128 E1627.91861
G1 X104.879 Y102.885 E1631.36837
G1 X104.879 Y103.753 E1631.58531
G1 X95.121 Y93.995 E1635.03507
G1 X95.121 Y94.863 E1635.25201
G1 X104.879 Y104.621 E1638.70178
G1 X104.879 Y105.488 E1638.91871
G1 X95.121 Y95.731 E1642.36848
G1 X95.121 Y96.599 E1642.58541
G1 X104.879 Y106.356 E1646.03518
G1 X104.879 Y107.224 E1646.25212
G1 X95.121 Y97.466 E1649.70188
G1 X95.121 Y98.334 E1649.91882
G1 X104.879 Y108.092 E1653.36858
G1 X104.879 Y108.959 E1653.58552
G1 X95.121 Y99.202 E1657.03529
G1 X95.121 Y100.070 E1657.25222
G1 X104.879 Y109.827 E1660.70199
G1 X104.879 Y110.695 E1660.91893
G1 X95.121 Y100.937 E1664.36869
G1 X95.121 Y101.805 E1664.58563
G1 X104.879 Y111.563 E1668.03539
G1 X104.879 Y112.430 E1668.25233
G1 X95.121 Y102.673 E1671.70209
G1 X95.121 Y103.541 E1671.91903
G1 X104.879 Y113.298 E1675.36880
G1 X104.879 Y114.166 E1675.58573
G1 X95.121 Y104.408 E1679.03550
G1 X95.121 Y105.276 E1679.25244
G1 X104.879 Y115.034 E1682.70220
G1 X104.879 Y115.901 E1682.91914
G1 X95.121 Y106.144 E1686.36890
G1 X95.121 Y107.012 E1686.58584
G1 X104.879 Y116.769 E1690.03561
G1 X104.879 Y117.637 E1690.25254
G1 X95.121 Y107.879 E1693.70231
G1 X95.121 Y108.747 E1693.91925
G1 X104.879 Y118.505 E1697.36901
G1 X104.879 Y119.372 E1697.58595
G1 X95.121 Y109.615 E1701.03571
G1 X95.121 Y110.483 E1701.25265
G1 X104.879 Y120.240 E1704.70241
G1 X104.879 Y121.108 E1704.91935
G1 X95.121 Y111.350 E1708.36912
G1 X95.121 Y112.218 E1708.58605
G1 X104.282 Y121.379 E1711.82479
G1 X103.414 Y121.379 E1712.04172
G1 X95.121 Y113.086 E1714.97366
G1 X95.121 Y113.954 E1715.19060
G1 X102.546 Y121.379 E1717.81574
G1 X101.679 Y121.379 E1718.03268
G1 X95.121 Y114.821 E1720.35102
G1 X95.121 Y115.689 E1720.56796
G1 X100.811 Y121.379 E1722.57950
G1 X99.943 Y121.379 E1722.79644
G1 X95.121 Y116.557 E1724.50119
G1 X95.121 Y117.425 E1724.71813
G1 X99.075 Y121.379 E1726.11609
G1 X98.208 Y121.379 E1726.33302
G1 X95.121 Y118.292 E1727.42418
G1 X95.121 Y119.160 E1727.64112
G1 X97.340 Y121.379 E1728.42548
G1 X96.472 Y121.379 E1728.64242
G1 X95.121 Y120.028 E1729.11999
G1 X95.121 Y120.896 E1729.33692
G1 X95.604 Y121.379 E1729.50769
G1 Z4.000 F7800.000
G1 X104.044 Y121.379 F7800.000
G1 X104.879 Y120.544 E1729.80274 F4800.000
G1 X104.879 Y119.676 E1730.01968
G1 X103.176 Y121.379 E1730.62152
G1 X102.309 Y121.379 E1730.83846
G1 X104.879 Y118.809 E1731.74710
G1 X104.879 Y117.941 E1731.96404
G1 X101.441 Y121.379 E1733.17947
G1 X100.573 Y121.379 E1733.39641
G1 X104.879 Y117.073 E1734.91864
G1 X104.879 Y116.205 E1735.13558
G1 X99.705 Y121.379 E1736.96461
G1 X98.838 Y121.379 E1737.18155
G1 X104.879 Y115.338 E1739.31737
G1 X104.879 Y114.470 E1739.53431
G1 X97.970 Y121.379 E1741.97693
G1 X97.102 Y121.379 E1742.19386
G1 X104.879 Y113.602 E1744.94328
G1 X104.879 Y112.734 E1745.16022
G1 X96.234 Y121.379 E1748.21643
G1 X95.367 Y121.379 E1748.43337
G1 X104.879 Y111.867 E1751.79638
G1 X104.879 Y110.999 E1752.01331
G1 X95.121 Y120.756 E1755.46308
G1 X95.121 Y119.889 E1755.68002
G1 X104.879 Y110.131 E1759.12978
G1 X104.879 Y109.263 E1759.34672
G1 X95.121 Y119.021 E1762.79648
G1 X95.121 Y118.153 E1763.01342
G1 X104.879 Y108.396 E1766.46318
G1 X104.879 Y107.528 E1766.68012
G1 X95.121 Y117.285 E1770.12989
G1 X95.121 Y116.418 E1770.34682
G1 X104.879 Y106.660 E1773.79659
G1 X104.879 Y105.792 E1774.01353
G1 X95.121 Y115.550 E1777.46329
G1 X95.121 Y114.682 E1777.68023
G1 X104.879 Y104.925 E1781.12999
G1 X104.879 Y104.057 E1781.34693
G1 X95.121 Y113.814 E1784.79670
G1 X95.121 Y112.947 E1785.01363
G1 X104.879 Y103.189 E1788.46340
G1 X104.879 Y102.321 E1788.68034
G1 X95.121 Y112.079 E1792.13010
G1 X95.121 Y111.211 E1792.34704
G1 X104.879 Y101.454 E1795.79680
G1 X104.879 Y100.586 E1796.01374
G1 X95.121 Y110.343 E1799.46350
G1 X95.121 Y109.476 E1799.68044
G1 X104.879 Y99.718 E1803.13021
G1 X104.879 Y98.850 E1803.34714
G1 X95.121 Y108.608 E1806.79691
G1 X95.121 Y107.740 E1807.01385
G1 X104.879 Y97.983 E1810.46361
G1 X104.879 Y97.115 E1810.68055
G1 X95.121 Y106.872 E1814.13031
G1 X95.121 Y106.005 E1814.34725
G1 X104.879 Y96.247 E1817.79701
G1 X104.879 Y95.379 E1818.01395
G1 X95.121 Y105.137 E1821.46372
G1 X95.121 Y104.269 E1821.68065
G1 X104.879 Y94.512 E1825.13042
G1 X104.879 Y93.644 E1825.34736
G1 X95.121 Y103.401 E1828.79712
G1 X95.121 Y102.534 E1829.01406
G1 X104.879 Y92.776 E1832.46382
G1 X104.879 Y91.908 E1832.68076
G1 X95.121 Y101.666 E1836.13052
G1 X95.121 Y100.798 E1836.34746
G1 X104.879 Y91.041 E1839.79723
G1 X104.879 Y90.173 E1840.01416
G1 X95.121 Y99.930 E1843.46393
G1 X95.121 Y99.063 E1843.68086
G1 X104.879 Y89.305 E1847.13063
G1 X104.879 Y88.437 E1847.34757
G1 X95.121 Y98.195 E1850.79733
G1 X95.121 Y97.327 E1851.01427
G1 X104.879 Y87.570 E1854.46403
G1 X104.879 Y86.702 E1854.68097
G1 X95.121 Y96.459 E1858.13073
G1 X95.121 Y95.592 E1858.34767
G1 X104.879 Y85.834 E1861.79744
G1 X104.879 Y84.966 E1862.01437
G1 X95.121 Y94.724 E1865.46414
G1 X95.121 Y93.856 E1865.68108
G1 X104.879 Y84.099 E1869.13084
G1 X104.879 Y83.231 E1869.34778
G1 X95.121 Y92.988 E1872.79754
G1 X95.121 Y92.121 E1873.01448
G1 X104.879 Y82.363 E1876.46424
G1 X104.879 Y81.495 E1876.68118
G1 X95.121 Y91.253 E1880.13095
G1 X95.121 Y90.385 E1880.34788
G1 X104.879 Y80.628 E1883.79765
G1 X104.879 Y79.760 E1884.01459
G1 X95.121 Y89.517 E1887.46435
G1 X95.121 Y88.650 E1887.68129
G1 X104.879 Y78.892 E1891.13105
G1 X104.282 Y78.621 E1891.29492
G1 X95.121 Y87.782 E1894.53365
G1 X95.121 Y86.914 E1894.75059
G1 X103.414 Y78.621 E1897.68253
G1 X102.546 Y78.621 E1897.89946
G1 X95.121 Y86.046 E1900.52460
G1 X95.121 Y85.179 E1900.74154
G1 X101.679 Y78.621 E1903.05988
G1 X100.811 Y78.621 E1903.27682
G1 X95.121 Y84.311 E1905.28837
G1 X95.121 Y83.443 E1905.50531
G1 X99.943 Y78.621 E1907.21006
G1 X99.075 Y78.621 E1907.42700
G1 X95.121 Y82.575 E1908.82495
G1 X95.121 Y81.708 E1909.04189
G1 X98.208 Y78.621 E1910.13305
G1 X97.340 Y78.621 E1910.34999
G1 X95.121 Y80.840 E1911.13435
G1 X95.121 Y79.972 E1911.35129
G1 X96.472 Y78.621 E1911.82885
G1 X95.604 Y78.621 E1912.04579
G1 X95.121 Y79.104 E1912.21656
G1 Z4.400 F7800.000
G1 X104.879 Y79.456 F7800.000
G1 X104.044 Y78.621 E1912.51161 F4800.000
G1 X103.176 Y78.621 E1912.72855
G1 X104.879 Y80.324 E1913.33039
G1 X104.879 Y81.191 E1913.54733
G1 X102.309 Y78.621 E1914.45597
G1 X101.441 Y78.621 E1914.67290
G1 X104.879 Y82.059 E1915.88834
G1 X104.879 Y82.927 E1916.10528
G1 X100.573 Y78.621 E1917.62751
G1 X99.705 Y78.621 E1917.84445
G1 X104.879 Y83.795 E1919.67347
G1 X104.879 Y84.662 E1919.89041
G1 X98.838 Y78.621 E1922.02624
G1 X97.970 Y78.621 E1922.24317
G1 X104.879 Y85.530 E1924.68579
G1 X104.879 Y86.398 E1924.90273
G1 X97.102 Y78.621 E1927.65215
G1 X96.234 Y78.621 E1927.86909
G1 X104.879 Y87.266 E1930.92530
G1 X104.879 Y88.133 E1931.14224
G1 X95.367 Y78.621 E1934.50524
G1 X95.121 Y79.244 E1934.67249
G1 X104.879 Y89.001 E1938.12226
G1 X104.879 Y89.869 E1938.33920
G1 X95.121 Y80.111 E1941.78896
G1 X95.121 Y80.979 E1942.00590
G1 X104.879 Y90.737 E1945.45566
G1 X104.879 Y91.604 E1945.67260
G1 X95.121 Y81.847 E1949.12236
G1 X95.121 Y82.715 E1949.33930
G1 X104.879 Y92.472 E1952.78907
G1 X104.879 Y93.340 E1953.00600
G1 X95.121 Y83.582 E1956.45577
G1 X95.121 Y84.450 E1956.67271
G1 X104.879 Y94.208 E1960.12247
G1 X104.879 Y95.075 E1960.33941
G1 X95.121 Y85.318 E1963.78917
G1 X95.121 Y86.186 E1964.00611
G1 X104.879 Y95.943 E1967.45587
G1 X104.879 Y96.811 E1967.67281
G1 X95.121 Y87.053 E1971.12258
G1 X95.121 Y87.921 E1971.33951
G1 X104.879 Y97.679 E1974.78928
G1 X104.879 Y98.546 E1975.00622
G1 X95.121 Y88.789 E1978.45598
G1 X95.121 Y89.657 E1978.67292
G1 X104.879 Y99.414 E1982.12268
G1 X104.879 Y100.282 E1982.33962
G1 X95.121 Y90.524 E1985.78939
G1 X95.121 Y91.392 E1986.00632
G1 X104.879 Y101.150 E1989.45609
G1 X104.879 Y102.017 E1989.67303
G1 X95.121 Y92.260 E1993.12279
G1 X95.121 Y93.128 E1993.33973
G1 X104.879 Y102.885 E1996.78949
G1 X104.879 Y103.753 E1997.00643
G1 X95.121 Y93.995 E2000.45619
G1 X95.121 Y94.863 E2000.67313
G1 X104.879 Y104.621 E2004.12290
G1 X104.879 Y105.488 E2004.33983
G1 X95.121 Y95.731 E2007.78960
G1 X95.121 Y96.599 E2008.00654
G1 X104.879 Y106.356 E2011.45630
G1 X104.879 Y107.224 E2011.67324
G1 X95.121 Y97.466 E2015.12300
G1 X95.121 Y98.334 E2015.33994
G1 X104.879 Y108.092 E2018.78970
G1 X104.879 Y108.959 E2019.00664
G1 X95.121 Y99.202 E2022.45641
G1 X95.121 Y100.070 E2022.67334
G1 X104.879 Y109.827 E2026.12311
G1 X104.879 Y110.695 E2026.34005
G1 X95.121 Y100.937 E2029.78981
G1 X95.121 Y101.805 E2030.00675
G1 X104.879 Y111.563 E2033.45651
G1 X104.879 Y112.430 E2033.67345
G1 X95.121 Y102.673 E2037.12322
G1 X95.121 Y103.541 E2037.34015
G1 X104.879 Y113.298 E2040.78992
G1 X104.879 Y114.166 E2041.00685
G1 X95.121 Y104.408 E2044.45662
G1 X95.121 Y105.276 E2044.67356
G1 X104.879 Y115.034 E2048.12332
G1 X104.879 Y115.901 E2048.34026
G1 X95.121 Y106.144 E2051.79002
G1 X95.121 Y107.012 E2052.00696
G1 X104.879 Y116.769 E2055.45673
G1 X104.879 Y117.637 E2055.67366
G1 X95.121 Y107.879 E2059.12343
G1 X95.121 Y108.747 E2059.34037
G1 X104.879 Y118.505 E2062.79013
G1 X104.879 Y119.372 E2063.00707
G1 X95.121 Y109.615 E2066.45683
G1 X95.121 Y110.483 E2066.67377
G1 X104.879 Y120.240 E2070.12354
G1 X104.879 Y121.108 E2070.34047
G1 X95.121 Y111.350 E2073.79024
G1 X95.121 Y112.218 E2074.00718
G1 X104.282 Y121.379 E2077.24591
G1 X103.414 Y121.379 E2077.46285
G1 X95.121 Y113.086 E2080.39478
G1 X95.121 Y113.954 E2080.61172
G1 X102.546 Y121.379 E2083.23686
G1 X101.679 Y121.379 E2083.45380
G1 X95.121 Y114.821 E2085.77214
G1 X95.121 Y115.689 E2085.98908
G1 X100.811 Y121.379 E2088.00062
G1 X99.943 Y121.379 E2088.21756
G1 X95.121 Y116.557 E2089.92231
G1 X95.121 Y117.425 E2090.13925
G1 X99.075 Y121.379 E2091.53721
G1 X98.208 Y121.379 E2091.75414
G1 X95.121 Y118.292 E2092.84530
G1 X95.121 Y119.160 E2093.06224
G1 X97.340 Y121.379 E2093.84660
G1 X96.472 Y121.379 E2094.06354
G1 X95.121 Y120.028 E2094.54111
G1 X95.121 Y120.896 E2094.75804
G1 X95.604 Y121.379 E2094.92881
G1 Z4.800 F7800.000
G1 X104.044 Y121.379 F7800.000
G1 X104.879 Y120.544 E2095.22386 F4800.000
G1 X104.879 Y119.676 E2095.44080
G1 X103.176 Y121.379 E2096.04264
G1 X102.309 Y121.379 E2096.25958
G1 X104.879 Y118.809 E2097.16822
G1 X104.879 Y117.941 E2097.38516
G1 X101.441 Y121.379 E2098.60059
G1 X100.573 Y121.379 E2098.81753
G1 X104.879 Y117.073 E2100.33976
G1 X104.879 Y116.205 E2100.55670
G1 X99.705 Y121.379 E2102.38573
G1 X98.838 Y121.379 E2102.60267
G1 X104.879 Y115.338 E2104.73849
G1 X104.879 Y114.470 E2104.95543
G1 X97.970 Y121.379 E2107.39805
G1 X97.102 Y121.379 E2107.61499
G1 X104.879 Y113.602 E2110.36440
G1 X104.879 Y112.734 E2110.58134
G1 X96.234 Y121.379 E2113.63755
G1 X95.367 Y121.379 E2113.85449
G1 X104.879 Y111.867 E2117.21750
G1 X104.879 Y110.999 E2117.43443
G1 X95.121 Y120.756 E2120.88420
G1 X95.121 Y119.889 E2121.10114
G1 X104.879 Y110.131 E2124.55090
G1 X104.879 Y109.263 E2124.76784
G1 X95.121 Y119.021 E2128.21760
G1 X95.121 Y118.153 E2128.43454
G1 X104.879 Y108.396 E2131.88431
G1 X104.879 Y107.528 E2132.10124
G1 X95.121 Y117.285 E2135.55101
G1 X95.121 Y116.418 E2135.76795
G1 X104.879 Y106.660 E2139.21771
G1 X104.879 Y105.792 E2139.43465
G1 X95.121 Y115.550 E2142.88441
G1 X95.121 Y114.682 E2143.10135
G1 X104.879 Y104.925 E2146.55111
G1 X104.879 Y104.057 E2146.76805
G1 X95.121 Y113.814 E2150.21782
G1 X95.121 Y112.947 E2150.43475
G1 X104.879 Y103.189 E2153.88452
G1 X104.879 Y102.321 E2154.10146
G1 X95.121 Y112.079 E2157.55122
G1 X95.121 Y111.211 E2157.76816
G1 X104.879 Y101.454 E2161.21792
G1 X104.879 Y100.586 E2161.43486
G1 X95.121 Y110.343 E2164.88463
G1 X95.121 Y109.476 E2165.10156
G1 X104.879 Y99.718 E2168.55133
G1 X104.879 Y98.850 E2168.76827
G1 X95.121 Y108.608 E2172.21803
G1 X95.121 Y107.740 E2172.43497
G1 X104.879 Y97.983 E2175.88473
G1 X104.879 Y97.115 E2176.10167
G1 X95.121 Y106.872 E2179.55143
G1 X95.121 Y106.005 E2179.76837
G1 X104.879 Y96.247 E2183.21814
G1 X104.879 Y95.379 E2183.43507
G1 X95.121 Y105.137 E2186.88484
G1 X95.121 Y104.269 E2187.10177
G1 X104.879 Y94.512 E2190.55154
G1 X104.879 Y93.644 E2190.76848
G1 X95.121 Y103.401 E2194.21824
G1 X95.121 Y102.534 E2194.43518
G1 X104.879 Y92.776 E2197.88494
G1 X104.879 Y91.908 E2198.10188
G1 X95.121 Y101.666 E2201.55164
G1 X95.121 Y100.798 E2201.76858
G1 X104.879 Y91.041 E2205.21835
G1 X104.879 Y90.173 E2205.43528
G1 X95.121 Y99.930 E2208.88505
G1 X95.121 Y99.063 E2209.10199
G1 X104.879 Y89.305 E2212.55175
G1 X104.879 Y88.437 E2212.76869
G1 X95.121 Y98.195 E2216.21845
G1 X95.121 Y97.327 E2216.43539
G1 X104.879 Y87.570 E2219.88515
G1 X104.879 Y86.702 E2220.10209
G1 X95.121 Y96.459 E2223.55186
G1 X95.121 Y95.592 E2223.76879
G1 X104.879 Y85.834 E2227.21856
G1 X104.879 Y84.966 E2227.43550
G1 X95.121 Y94.724 E2230.88526
G1 X95.121 Y93.856 E2231.10220
G1 X104.879 Y84.099 E2234.55196
G1 X104.879 Y83.231 E2234.76890
G1 X95.121 Y92.988 E2238.21866
G1 X95.121 Y92.121 E2238.43560
G1 X104.879 Y82.363 E2241.88537
G1 X104.879 Y81.495 E2242.10230
G1 X95.121 Y91.253 E2245.55207
G1 X95.121 Y90.385 E2245.76901
G1 X104.879 Y80.628 E2249.21877
G1 X104.879 Y79.760 E2249.43571
G1 X95.121 Y89.517 E2252.88547
G1 X95.121 Y88.650 E2253.10241
G1 X104.879 Y78.892 E2256.55217
G1 X104.282 Y78.621 E2256.71604
G1 X95.121 Y87.782 E2259.95477
G1 X95.121 Y86.914 E2260.17171
G1 X103.414 Y78.621 E2263.10365
G1 X102.546 Y78.621 E2263.32058
G1 X95.121 Y86.046 E2265.94572
G1 X95.121 Y85.179 E2266.16266
G1 X101.679 Y78.621 E2268.48100
G1 X100.811 Y78.621 E2268.69794
G1 X95.121 Y84.311 E2270.70949
G1 X95.121 Y83.443 E2270.92643
G1 X99.943 Y78.621 E2272.63118
G1 X99.075 Y78.621 E2272.84812
G1 X95.121 Y82.575 E2274.24607
G1 X95.121 Y81.708 E2274.46301
G1 X98.208 Y78.621 E2275.55417
G1 X97.340 Y78.621 E2275.77111
G1 X95.121 Y80.840 E2276.55547
G1 X95.121 Y79.972 E2276.77241
G1 X96.472 Y78.621 E2277.24997
G1 X95.604 Y78.621 E2277.46691
G1 X95.121 Y79.104 E2277.63768
G1 Z5.200 F7800.000
G1 X104.879 Y79.456 F7800.000
G1 X104.044 Y78.621 E2277.93273 F4800.000
G1 X103.176 Y78.621 E2278.14967
G1 X104.879 Y80.324 E2278.75151
G1 X104.879 Y81.191 E2278.96845
G1 X102.309 Y78.621 E2279.87709
G1 X101.441 Y78.621 E2280.09402
G1 X104.879 Y82.059 E2281.30946
G1 X104.879 Y82.927 E2281.52640
G1 X100.573 Y78.621 E2283.04863
G1 X99.705 Y78.621 E2283.26557
G1 X104.879 Y83.795 E2285.09460
G1 X104.879 Y84.662 E2285.31153
G1 X98.838 Y78.621 E2287.44736
G1 X97.970 Y78.621 E2287.66429
G1 X104.879 Y85.530 E2290.10691
G1 X104.879 Y86.398 E2290.32385
G1 X97.102 Y78.621 E2293.07327
G1 X96.234 Y78.621 E2293.29021
G1 X104.879 Y87.266 E2296.34642
G1 X104.879 Y88.133 E2296.56336
G1 X95.367 Y78.621 E2299.92637
G1 X95.121 Y79.244 E2300.09361
G1 X104.879 Y89.001 E2303.54338
G1 X104.879 Y89.869 E2303.76032
G1 X95.121 Y80.111 E2307.21008
G1 X95.121 Y80.979 E2307.42702
G1 X104.879 Y90.737 E2310.87678
G1 X104.879 Y91.604 E2311.09372
G1 X95.121 Y81.847 E2314.54349
G1 X95.121 Y82.715 E2314.76042
G1 X104.879 Y92.472 E2318.21019
G1 X104.879 Y93.340 E2318.42712
G1 X95.121 Y83.582 E2321.87689
G1 X95.121 Y84.450 E2322.09383
G1 X104.879 Y94.208 E2325.54359
G1 X104.879 Y95.075 E2325.76053
G1 X95.121 Y85.318 E2329.21029
G1 X95.121 Y86.186 E2329.42723
G1 X104.879 Y95.943 E2332.87700
G1 X104.879 Y96.811 E2333.09393
G1 X95.121 Y87.053 E2336.54370
G1 X95.121 Y87.921 E2336.76064
G1 X104.879 Y97.679 E2340.21040
G1 X104.879 Y98.546 E2340.42734
G1 X95.121 Y88.789 E2343.87710
G1 X95.121 Y89.657 E2344.09404
G1 X104.879 Y99.414 E2347.54380
G1 X104.879 Y100.282 E2347.76074
G1 X95.121 Y90.524 E2351.21051
G1 X95.121 Y91.392 E2351.42744
G1 X104.879 Y101.150 E2354.87721
G1 X104.879 Y102.017 E2355.09415
G1 X95.121 Y92.260 E2358.54391
G1 X95.121 Y93.128 E2358.76085
G1 X104.879 Y102.885 E2362.21061
G1 X104.879 Y103.753 E2362.42755
G1 X95.121 Y93.995 E2365.87731
G1 X95.121 Y94.863 E2366.09425
G1 X104.879 Y104.621 E2369.54402
G1 X104.879 Y105.488 E2369.76095
G1 X95.121 Y95.731 E2373.21072
G1 X95.121 Y96.599 E2373.42766
G1 X104.879 Y106.356 E2376.87742
G1 X104.879 Y107.224 E2377.09436
G1 X95.121 Y97.466 E2380.54412
G1 X95.121 Y98.334 E2380.76106
G1 X104.879 Y108.092 E2384.21083
G1 X104.879 Y108.959 E2384.42776
G1 X95.121 Y99.202 E2387.87753
G1 X95.121 Y100.070 E2388.09446
G1 X104.879 Y109.827 E2391.54423
G1 X104.879 Y110.695 E2391.76117
G1 X95.121 Y100.937 E2395.21093
G1 X95.121 Y101.805 E2395.42787
G1 X104.879 Y111.563 E2398.87763
G1 X104.879 Y112.430 E2399.09457
G1 X95.121 Y102.673 E2402.54434
G1 X95.121 Y103.541 E2402.76127
G1 X104.879 Y113.298 E2406.21104
G1 X104.879 Y114.166 E2406.42798
G1 X95.121 Y104.408 E2409.87774
G1 X95.121 Y105.276 E2410.09468
G1 X104.879 Y115.034 E2413.54444
G1 X104.879 Y115.901 E2413.76138
G1 X95.121 Y106.144 E2417.21114
G1 X95.121 Y107.012 E2417.42808
G1 X104.879 Y116.769 E2420.87785
G1 X104.879 Y117.637 E2421.09478
G1 X95.121 Y107.879 E2424.54455
G1 X95.121 Y108.747 E2424.76149
G1 X104.879 Y118.505 E2428.21125
G1 X104.879 Y119.372 E2428.42819
G1 X95.121 Y109.615 E2431.87795
G1 X95.121 Y110.483 E2432.09489
G1 X104.879 Y120.240 E2435.54466
G1 X104.879 Y121.108 E2435.76159
G1 X95.121 Y111.350 E2439.21136
G1 X95.121 Y112.218 E2439.42830
G1 X104.282 Y121.379 E2442.66703
G1 X103.414 Y121.379 E2442.88397
G1 X95.121 Y113.086 E2445.81590
G1 X95.121 Y113.954 E2446.03284
G1 X102.546 Y121.379 E2448.65798
G1 X101.679 Y121.379 E2448.87492
G1 X95.121 Y114.821 E2451.19326
G1 X95.121 Y115.689 E2451.41020
G1 X100.811 Y121.379 E2453.42175
G1 X99.943 Y121.379 E2453.63868
G1 X95.121 Y116.557 E2455.34343
G1 X95.121 Y117.425 E2455.56037
G1 X99.075 Y121.379 E2456.95833
G1 X98.208 Y121.379 E2457.17526
G1 X95.121 Y118.292 E2458.26642
G1 X95.121 Y119.160 E2458.48336
G1 X97.340 Y121.379 E2459.26772
G1 X96.472 Y121.379 E2459.48466
G1 X95.121 Y120.028 E2459.96223
G1 X95.121 Y120.896 E2460.17917
G1 X95.604 Y121.379 E2460.34994
G92 E0
M107
M104 S0 ; turn off temperature
G28 X0  ; home X axis
M84     ; disable motors

; filament used = 4285.5mm (3.4cm3)

; avoid_crossing_perimeters = 0
; bed_shape = 0x0,200x0,200x200,0x200
; bed_temperature = 0
; before_layer_gcode = 
; bridge_acceleration = 0
; bridge_fan_speed = 100
; brim_width = 0
; complete_objects = 0
; cooling = 1
; default_acceleration = 0
; disable_fan_first_layers = 3
; duplicate_distance = 6
; end_gcode = M104 S0 ; turn off temperature\nG28 X0  ; home X axis\nM84     ; disable motors\n
; extruder_clearance_height = 20
; extruder_clearance_radius = 20
; extruder_offset = 0x0
; extrusion_axis = E
; extrusion_multiplier = 1
; fan_always_on = 0
; fan_below_layer_time = 60
; filament_colour = #FFFFFF
; filament_diameter = 1
; first_layer_acceleration = 0
; first_layer_bed_temperature = 0
; first_layer_extrusion_width = 200%
; first_layer_speed = 30
; first_layer_temperature = 200
; gcode_arcs = 0
; gcode_comments = 0
; gcode_flavor = reprap
; infill_acceleration = 0
; infill_first = 0
; layer_gcode = 
; max_fan_speed = 100
; max_print_speed = 80
; max_volumetric_speed = 0
; min_fan_speed = 35
; min_print_speed = 10
; min_skirt_length = 0
; notes = 
; nozzle_diameter = 0.5
; only_retract_when_crossing_perimeters = 1
; ooze_prevention = 0
; output_filename_format = [input_filename_base].gcode
; perimeter_acceleration = 0
; post_process = 
; pressure_advance = 0
; resolution = 0
; retract_before_travel = 2
; retract_layer_change = 0
; retract_length = 2
; retract_length_toolchange = 10
; retract_lift = 0
; retract_restart_extra = 0
; retract_restart_extra_toolchange = 0
; retract_speed = 40
; skirt_distance = 6
; skirt_height = 1
; skirts = 0
; slowdown_below_layer_time = 5
; spiral_vase = 0
; standby_temperature_delta = -5
; start_gcode = G28 ; home all axes\nG1 Z5 F5000 ; lift nozzle\n
; temperature = 200
; threads = 2
; toolchange_gcode = 
; travel_speed = 130
; use_firmware_retraction = 0
; use_relative_e_distances = 0
; use_volumetric_e = 0
; vibration_limit = 0
; wipe = 0
; z_offset = 0
; dont_support_bridges = 1
; extrusion_width = 0
; first_layer_height = 0.4
; infill_only_where_needed = 0
; interface_shells = 0
; layer_height = 0.4
; raft_layers = 0
; seam_position = aligned
; support_material = 0
; support_material_angle = 0
; support_material_contact_distance = 0.2
; support_material_enforce_layers = 0
; support_material_extruder = 1
; support_material_extrusion_width = 0
; support_material_interface_extruder = 1
; support_material_interface_layers = 3
; support_material_interface_spacing = 0
; support_material_interface_speed = 100%
; support_material_pattern = pillars
; support_material_spacing = 2.5
; support_material_speed = 60
; support_material_threshold = 0
; xy_size_compensation = 0
; bottom_solid_layers = 0
; bridge_flow_ratio = 1
; bridge_speed = 60
; external_fill_pattern = rectilinear
; external_perimeter_extrusion_width = 0
; external_perimeter_speed = 50%
; external_perimeters_first = 0
; extra_perimeters = 1
; fill_angle = 45
; fill_density = 80%
; fill_pattern = rectilinear
; gap_fill_speed = 20
; infill_every_layers = 1
; infill_extruder = 1
; infill_extrusion_width = 0
; infill_overlap = 15%
; infill_speed = 80
; overhangs = 1
; perimeter_extruder = 1
; perimeter_extrusion_width = 0
; perimeter_speed = 60
; perimeters = 0
; small_perimeter_speed = 15
; solid_infill_below_area = 70
; solid_infill_every_layers = 0
; solid_infill_extruder = 1
; solid_infill_extrusion_width = 0
; solid_infill_speed = 20
; thin_walls = 1
; top_infill_extrusion_width = 0
; top_solid_infill_speed = 15
; top_solid_layers = 0
