; generated by Slic3r 1.2.9 on 2019-09-24 at 15:55:32

; external perimeters extrusion width = 0.50mm
; perimeters extrusion width = 0.58mm
; infill extrusion width = 0.58mm
; solid infill extrusion width = 0.58mm
; top infill extrusion width = 0.58mm

M107
M104 S200 ; set temperature
G28 ; home all axes
G1 Z5 F5000 ; lift nozzle

M109 S200 ; wait for temperature to be reached
G21 ; set units to millimeters
G90 ; use absolute coordinates
M82 ; use absolute distances for extrusion
G92 E0
G1 Z0.400 F7800.000
G1 E-2.00000 F2400.00000
G92 E0
G1 X93.869 Y93.071 F7800.000
G1 E2.00000 F2400.00000
G1 X95.569 Y94.771 E2.87445 F1695.056
G1 E0.87445 F2400.00000
G92 E0
G1 X100.946 Y93.206 F7800.000
G1 E2.00000 F2400.00000
G1 X102.043 Y94.303 E2.56438 F1695.056
G1 X101.928 Y95.923 F7800.000
G1 X99.320 Y93.316 E3.90572 F1695.056
G1 X98.566 Y94.297 E4.35591
G1 X107.789 Y103.520 E9.09991
G1 E7.09991 F2400.00000
G92 E0
G1 X105.780 Y103.247 F7800.000
G1 E2.00000 F2400.00000
G1 X98.259 Y95.726 E5.86859 F1695.056
G1 X96.549 Y95.751 E6.49083
G1 X104.580 Y103.782 E10.62177
G1 X102.332 Y103.269 E11.46033
G1 X92.532 Y93.469 E16.50131
G1 X91.908 Y94.582 E16.96504
G1 X102.142 Y104.815 E22.22896
G1 X101.841 Y106.249 E22.76198
G1 X92.677 Y97.085 E27.47569
G1 X92.291 Y98.435 E27.98635
G1 X98.120 Y104.264 E30.98464
G1 X98.526 Y104.670 F7800.000
G1 X100.769 Y106.913 E32.13814 F1695.056
G1 E30.13814 F2400.00000
G92 E0
G1 X96.379 Y104.259 F7800.000
G1 E2.00000 F2400.00000
G1 X92.182 Y100.062 E4.15893 F1695.056
G1 X92.442 Y102.057 E4.89079
G1 X95.592 Y105.207 E6.51111
G1 X95.079 Y106.430 E6.99333
G1 X92.406 Y103.757 E8.36816
G1 X91.897 Y104.983 E8.85106
G1 X93.861 Y106.947 E9.86140
G1 E7.86140 F2400.00000
G92 E0
G1 X102.502 Y96.498 F7800.000
G1 E2.00000 F2400.00000
G1 X107.062 Y101.057 E4.34540 F1695.056
G1 X107.100 Y99.360 E4.96297
G1 X103.920 Y96.180 E6.59859
G1 E4.59859 F2400.00000
G92 E0
G1 X106.115 Y96.640 F7800.000
G1 E2.00000 F2400.00000
G1 X107.679 Y98.204 E2.80443 F1695.056
G1 Z0.800 F7800.000
G1 X107.421 Y98.147 F7800.000
G1 X107.844 Y97.724 E2.98378 F600.000
G1 X107.612 Y97.124 E3.17642
G1 X107.934 Y96.802 E3.31290
G1 X107.521 Y96.383 E3.48911
G1 X107.196 Y96.708 E3.62670
G1 X106.631 Y96.441 E3.81389
G1 X106.169 Y96.903 E4.00960
G1 E2.00960 F2400.00000
G92 E0
G1 X106.956 Y101.972 F7800.000
G1 E2.00000 F2400.00000
G1 X107.217 Y101.711 E2.13628 F600.000
G1 X107.864 Y102.088 E2.41228
G1 X107.544 Y102.408 E2.57878
G1 X107.887 Y103.089 E2.86002
G1 X107.404 Y103.572 E3.11196
G1 X106.729 Y103.223 F7800.000
G1 X106.409 Y103.543 E3.27863 F600.000
G1 E1.27863 F2400.00000
G92 E0
G1 X104.101 Y103.639 F7800.000
G1 E2.00000 F2400.00000
G1 X107.056 Y100.684 E3.04494 F1954.030
G1 X107.031 Y98.973 E3.47261
G1 X102.609 Y103.395 E5.03608
G1 X101.881 Y104.124 F7800.000
G1 X99.363 Y106.642 E5.92625 F1954.030
G1 X98.617 Y105.652 E6.23608
G1 X101.050 Y103.219 E7.09613
G1 X101.589 Y102.680 F7800.000
G1 X106.516 Y97.753 E8.83806 F1954.030
G1 X105.734 Y96.800 E9.14634
G1 X98.311 Y104.222 E11.77051
G1 X96.604 Y104.194 E12.19751
G1 X104.424 Y96.374 E14.96255
G1 E12.96255 F2400.00000
G92 E0
G1 X102.063 Y95.264 F7800.000
G1 E2.00000 F2400.00000
G1 X91.959 Y105.368 E5.57208 F1954.030
G1 X92.560 Y106.502 E5.89304
G1 X101.548 Y97.514 E9.07079
G1 X98.576 Y95.279 F7800.000
G1 X100.721 Y93.135 E9.82912 F1954.030
G1 X101.796 Y93.796 E10.14449
G1 X92.721 Y102.871 E13.35294
G1 X92.346 Y101.510 E13.70570
G1 X98.067 Y95.789 E15.72855
G1 X96.328 Y95.792 E16.16327
G1 X92.241 Y99.880 E17.60837
G1 X92.525 Y97.860 E18.11819
G1 X95.530 Y94.855 E19.18057
G1 X95.039 Y93.611 E19.51506
G1 X92.455 Y96.195 E20.42865
G1 X91.960 Y94.954 E20.76251
G1 X93.802 Y93.112 E21.41381
G1 X95.499 Y105.299 F7800.000
G1 X93.941 Y106.857 E21.96474 F1954.030
G1 E19.96474 F2400.00000
G92 E0
G1 X101.085 Y106.655 F7800.000
G1 E2.00000 F2400.00000
G1 X101.908 Y105.832 E2.29104 F1954.030
G1 Z1.200 F7800.000
G1 X100.542 Y106.686 F7800.000
G1 X98.757 Y104.901 E2.92213 F1505.829
G1 X98.003 Y104.147 F7800.000
G1 X92.396 Y98.540 E4.90446 F1505.829
G1 X92.771 Y97.179 E5.25740
G1 X101.655 Y106.064 E8.39852
G1 X101.609 Y104.282 E8.84414
G1 X92.154 Y94.827 E12.18688
G1 X92.712 Y93.649 E12.51265
G1 X95.024 Y95.962 E13.33032
G1 X96.668 Y95.870 E13.74185
G1 X104.224 Y103.426 E16.41317
G1 X105.550 Y103.016 E16.76016
G1 X98.372 Y95.839 E19.29787
G1 X101.737 Y95.733 E20.13957
G1 X99.509 Y93.504 E20.92749
G1 X98.781 Y94.512 E21.23826
G1 X100.746 Y96.477 E21.93296
G1 X101.750 Y97.481 F7800.000
G1 X106.410 Y102.141 E23.58052 F1505.829
G1 X106.894 Y100.889 E23.91602
G1 X102.770 Y96.765 E25.37412
G1 X104.350 Y96.610 E25.77120
G1 X106.847 Y99.107 E26.65384
G1 X101.419 Y102.357 F7800.000
G1 X94.971 Y95.909 E28.93371 F1505.829
G1 X95.202 Y94.404 E29.31427
G1 X94.238 Y93.440 E29.65503
G1 X92.296 Y100.176 F7800.000
G1 X96.268 Y104.148 E31.05935 F1505.829
G1 X95.301 Y104.916 F7800.000
G1 X92.625 Y102.240 E32.00559 F1505.829
G1 X92.591 Y103.942 F7800.000
G1 X94.899 Y106.250 E32.82168 F1505.829
G1 X93.577 Y106.663 E33.16801
G1 X92.179 Y105.265 E33.66248
M106 S255
G1 Z1.600 F7800.000
G1 E31.66248 F2400.00000
G92 E0
G1 X94.878 Y104.184 F7800.000
G1 E2.00000 F2400.00000
G1 X92.829 Y106.233 E2.72442 F1384.457
G1 X92.349 Y104.978 E3.06043
G1 X100.734 Y96.593 E6.02504
G1 X98.931 Y94.925 E6.63910
G1 X100.367 Y93.489 E7.14687
G1 X101.530 Y94.062 E7.47091
G1 X92.828 Y102.764 E10.54758
G1 X92.450 Y101.406 E10.89987
G1 X97.925 Y95.931 E12.83575
G1 X96.193 Y95.928 E13.26888
G1 X92.370 Y99.750 E14.62032
G1 X92.757 Y97.628 E15.15960
G1 X95.027 Y95.357 E15.96235
G1 X94.776 Y93.874 E16.33862
G1 X92.715 Y95.934 E17.06719
G1 X92.445 Y94.469 E17.43969
G1 X93.311 Y93.602 E17.74606
G1 E15.74606 F2400.00000
G92 E0
G1 X101.344 Y97.719 F7800.000
G1 E2.00000 F2400.00000
G1 X95.064 Y103.999 E4.22032 F1384.457
G1 X96.744 Y104.054 F7800.000
G1 X103.823 Y96.975 E6.72307 F1384.457
G1 X104.936 Y102.804 F7800.000
G1 X106.332 Y101.408 E7.21637 F1384.457
G1 X106.638 Y99.366 E7.73263
G1 X103.077 Y102.928 E8.99181
G1 X101.997 Y102.272 E9.30762
G1 X106.171 Y98.098 E10.78333
G1 X105.273 Y97.260 E11.09031
G1 X98.449 Y104.084 E13.50295
G1 X98.935 Y105.334 F7800.000
G1 X100.593 Y103.676 E14.08894 F1384.457
G1 X101.608 Y104.396 E14.40017
G1 X99.638 Y106.366 E15.09680
G1 Z2.000 F7800.000
G1 X99.264 Y105.408 F7800.000
G1 X100.033 Y106.177 E15.36870 F1807.665
G1 X101.347 Y105.756 E15.71378
G1 X99.685 Y104.094 E16.30140
G1 X99.435 Y103.844 F7800.000
G1 X92.991 Y97.400 E18.57976 F1807.665
G1 E16.57976 F2400.00000
G92 E0
G1 X93.013 Y93.951 F7800.000
G1 E2.00000 F2400.00000
G1 X94.696 Y95.634 E2.59502 F1807.665
G1 X93.755 Y96.428 E2.90292
G1 X100.642 Y103.315 E5.33801
G1 X101.243 Y102.180 E5.65902
G1 X95.195 Y96.132 E7.79732
G1 X96.992 Y96.194 E8.24694
G1 X101.509 Y100.711 E9.84390
G1 X102.063 Y101.265 F7800.000
G1 X102.964 Y102.166 E10.16253 F1807.665
G1 X101.757 Y99.223 F7800.000
G1 X104.839 Y102.305 E11.25222 F1807.665
G1 X105.790 Y101.521 E11.56043
G1 X102.386 Y98.117 E12.76412
G1 X103.568 Y97.564 E13.09046
G1 X106.198 Y100.194 E14.02046
G1 E12.02046 F2400.00000
G92 E0
G1 X101.428 Y98.894 F7800.000
G1 E2.00000 F2400.00000
G1 X98.667 Y96.133 E2.97628 F1807.665
G1 X100.325 Y96.056 E3.39137
G1 X99.187 Y94.918 E3.79382
G1 X99.826 Y93.822 E4.11106
G1 X101.420 Y95.416 E4.67459
G1 E2.67459 F2400.00000
G92 E0
G1 X97.674 Y103.819 F7800.000
G1 E2.00000 F2400.00000
G1 X92.645 Y98.789 E3.77832 F1807.665
G1 X92.596 Y100.476 E4.20029
G1 X95.971 Y103.851 E5.39344
G1 X94.314 Y103.929 F7800.000
G1 X93.236 Y102.851 E5.77448 F1807.665
G1 X92.893 Y104.243 F7800.000
G1 X94.598 Y105.949 E6.37749 F1807.665
G1 E4.37749 F2400.00000
G92 E0
G1 X101.882 Y101.921 F7800.000
G1 E2.00000 F2400.00000
G1 X102.495 Y102.534 E2.28754 F600.000
G1 X103.385 Y102.656 E2.58530
G1 X103.742 Y103.014 E2.75309
G1 X104.171 Y102.673 E2.93441
G1 X104.494 Y102.997 E3.08634
G1 X104.786 Y102.521 E3.27167
G1 X105.090 Y102.825 E3.41438
G1 X105.575 Y102.542 E3.60065
G1 X105.291 Y102.257 E3.73403
G1 X105.700 Y101.899 E3.91457
G1 X105.960 Y102.159 E4.03658
G1 X106.279 Y101.709 E4.21930
G1 X106.025 Y101.456 E4.33832
G1 X106.265 Y100.927 E4.53082
G1 X106.505 Y101.167 E4.64337
G1 X106.589 Y100.872 F7800.000
G1 X106.357 Y100.640 E4.75233 F600.000
G1 E2.75233 F2400.00000
G92 E0
G1 X106.014 Y98.091 F7800.000
G1 E2.00000 F2400.00000
G1 X105.424 Y97.501 E2.27667 F600.000
G1 X104.332 Y97.330 E2.64336
G1 X103.965 Y96.963 E2.81556
G1 X103.464 Y97.383 E3.03234
G1 X103.131 Y97.050 E3.18859
G1 X102.796 Y97.636 E3.41247
G1 X102.478 Y97.318 E3.56168
G1 X101.986 Y97.746 E3.77816
G1 X102.271 Y98.032 E3.91201
G1 X101.873 Y98.554 E4.12992
G1 X101.602 Y98.284 E4.25680
G1 Z2.400 F7800.000
G1 X102.398 Y98.562 F7800.000
M106 S255
G1 X102.120 Y98.839 E4.37630 F3600.000
G1 X101.952 Y99.858 E4.69044
G1 X103.257 Y98.554 E5.25166
G1 X104.314 Y98.348 E5.57912
G1 X101.995 Y100.667 E6.57661
G1 X102.100 Y101.412 E6.80552
G1 X104.905 Y98.607 E8.01191
G1 X105.301 Y99.061 E8.19528
G1 X102.921 Y101.442 E9.21923
G1 X103.563 Y101.650 E9.42461
G1 X105.505 Y99.708 E10.26001
G1 X105.204 Y100.860 E10.62226
G1 X104.646 Y101.417 E10.86195
M106 S255
G1 X104.577 Y101.860 F7800.000
G1 X103.996 Y102.441 E11.07210 F1119.213
G1 X103.807 Y101.919 E11.21408
G1 X103.337 Y102.389 E11.38416
G1 X102.818 Y102.197 E11.52576
G1 X103.252 Y101.763 E11.68291
G1 X105.144 Y102.003 F7800.000
G1 X105.667 Y101.481 E11.87213 F1119.213
G1 X105.670 Y100.767 E12.05488
G1 X106.169 Y100.267 E12.23556
G1 X105.771 Y99.955 E12.36513
G1 X106.175 Y99.551 E12.51152
G1 X105.646 Y99.370 E12.65476
G1 X106.035 Y98.980 E12.79567
G1 X105.803 Y98.501 E12.93188
G1 X105.407 Y98.897 E13.07524
G1 X105.075 Y98.519 E13.20412
G1 X105.470 Y98.124 E13.34703
G1 X105.075 Y97.808 E13.47644
G1 X104.642 Y98.241 E13.63314
G1 X104.090 Y98.083 E13.78016
G1 X104.564 Y97.609 E13.95176
G1 X103.897 Y97.565 E14.12291
G1 X103.329 Y98.133 E14.32834
G1 X102.833 Y97.918 E14.46662
G1 X102.452 Y98.299 E14.60476
G1 E12.60476 F2400.00000
G92 E0
G1 X101.075 Y101.513 F7800.000
G1 E2.00000 F2400.00000
M106 S255
G1 X98.985 Y103.603 E2.76946 F3600.000
G1 X98.218 Y103.577 E2.96921
G1 X101.184 Y100.611 E4.06107
G1 X101.208 Y99.795 E4.27364
G1 X97.467 Y103.535 E5.65054
G1 X96.686 Y103.525 E5.85405
G1 X101.175 Y99.035 E7.50685
G1 X101.090 Y98.329 E7.69214
G1 X95.857 Y103.561 E9.61838
G1 X95.025 Y103.601 E9.83540
G1 X100.939 Y97.687 E12.01274
G1 X100.699 Y97.135 E12.16946
G1 X94.294 Y103.540 E14.52739
G1 X93.756 Y103.285 E14.68220
G1 X100.327 Y96.714 E17.10110
G1 X99.789 Y96.461 E17.25609
G1 X93.384 Y102.865 E19.61363
G1 X93.144 Y102.313 E19.77033
G1 X99.059 Y96.398 E21.94785
G1 X98.225 Y96.439 E22.16514
G1 X92.995 Y101.670 E24.09066
G1 X92.909 Y100.964 E24.27585
G1 X97.396 Y96.476 E25.92787
G1 X96.616 Y96.465 E26.13112
G1 X92.876 Y100.204 E27.50791
G1 X92.902 Y99.386 E27.72108
G1 X95.865 Y96.423 E28.81199
G1 X95.098 Y96.397 E29.01176
G1 X93.011 Y98.485 E29.78036
M106 S255
G1 X93.478 Y97.226 F7800.000
M106 S255
G1 X94.024 Y96.680 E29.98130 F3600.000
M106 S255
G1 X100.601 Y102.779 F7800.000
M106 S255
G1 X100.058 Y103.322 E30.18119 F3600.000
M106 S255
G1 X100.047 Y103.743 F7800.000
G1 X99.790 Y103.999 E30.37245 F1119.213
G1 X99.197 Y105.372 F7800.000
G1 X100.609 Y103.959 E31.42681 F1119.213
G1 X101.133 Y104.214 E31.73452
G1 X99.456 Y105.891 E32.98652
G1 X99.918 Y106.209 E33.28220
G1 X101.449 Y104.677 E34.42534
G1 X101.314 Y105.591 E34.91292
G1 X100.825 Y106.081 E35.27840
G1 E33.27840 F2400.00000
G92 E0
G1 X101.444 Y100.726 F7800.000
G1 E2.00000 F2400.00000
G1 X101.772 Y100.399 E2.24467 F1119.213
G1 X101.439 Y99.742 F7800.000
G1 X101.757 Y99.424 E2.48198 F1119.213
G1 E0.48198 F2400.00000
G92 E0
G1 X100.793 Y95.912 F7800.000
G1 E2.00000 F2400.00000
G1 X101.366 Y95.340 E2.42763 F1119.213
G1 X101.231 Y94.009 E3.13377
G1 X99.439 Y95.801 E4.47145
G1 X99.308 Y94.465 E5.17959
G1 X99.897 Y93.877 E5.61886
G1 E3.61886 F2400.00000
G92 E0
G1 X93.995 Y96.300 F7800.000
G1 E2.00000 F2400.00000
G1 X94.336 Y95.958 E2.25499 F1119.213
G1 X93.231 Y96.026 E2.83938
G1 X94.873 Y94.384 E4.06519
G1 X94.392 Y93.828 E4.45343
G1 X92.675 Y95.545 E5.73518
G1 X92.720 Y94.462 E6.30692
G1 X93.306 Y93.876 E6.74457
G1 E4.74457 F2400.00000
G92 E0
G1 X92.752 Y104.621 F7800.000
G1 E2.00000 F2400.00000
G1 X93.262 Y104.112 E2.38003 F1119.213
G1 X94.329 Y104.024 E2.94517
G1 X92.677 Y105.675 E4.17795
G1 X93.166 Y106.165 E4.54327
G1 X94.807 Y104.523 E5.76889
G1 X94.702 Y105.607 E6.34381
G1 X94.225 Y106.085 E6.70015
M106 S244.8
G1 Z2.800 F7800.000
G1 X94.416 Y104.872 F7800.000
G1 X93.978 Y104.433 E6.90195 F1200.000
G1 X93.184 Y104.543 E7.16277
G1 X94.299 Y105.658 E7.67596
G1 X93.509 Y105.772 E7.93573
G1 X93.070 Y105.333 E8.13763
G1 E6.13763 F2400.00000
G92 E0
G1 X99.684 Y105.351 F7800.000
G1 E2.00000 F2400.00000
G1 X100.069 Y105.736 E2.17866 F1200.000
G1 X100.901 Y105.659 E2.45220
G1 X99.784 Y104.541 E2.96974
G1 X100.585 Y104.434 E3.23468
G1 X101.008 Y104.856 E3.43032
G1 E1.43032 F2400.00000
G92 E0
G1 X102.663 Y101.317 F7800.000
G1 E2.00000 F2400.00000
G1 X102.207 Y100.861 E2.18401 F1200.000
G1 X103.798 Y101.659 F7800.000
G1 X101.923 Y99.784 E2.94143 F1200.000
G1 X102.078 Y99.146 E3.12893
G1 X104.538 Y101.606 E4.12270
G1 X105.019 Y101.294 E4.28642
G1 X102.432 Y98.707 E5.33137
G1 X103.051 Y98.533 E5.51510
G1 X105.357 Y100.839 E6.44632
G1 X105.527 Y100.216 E6.63078
G1 X103.635 Y98.324 E7.39492
G1 X104.718 Y98.614 E7.71524
G1 X105.208 Y99.104 E7.91296
G1 E5.91296 F2400.00000
G92 E0
G1 X100.602 Y97.181 F7800.000
G1 E2.00000 F2400.00000
G1 X100.090 Y96.668 E2.18495 F1200.000
G1 X99.100 Y96.388 E2.44733
G1 X101.070 Y98.358 E3.15836
G1 X101.178 Y99.174 E3.36845
G1 X98.404 Y96.400 E4.36951
G1 X97.993 Y96.698 E4.49904
G1 X97.732 Y96.437 E4.59335
G1 X101.218 Y99.922 E5.85144
G1 X101.212 Y100.625 E6.03086
G1 X97.048 Y96.461 E7.53395
G1 X96.322 Y96.444 E7.71923
G1 X101.158 Y101.281 E9.46498
G1 X101.064 Y101.895 E9.62372
G1 X95.570 Y96.401 E11.60681
G1 X94.850 Y96.389 E11.79080
G1 X100.904 Y102.444 E13.97610
G1 X100.670 Y102.919 E14.11123
G1 X94.218 Y96.466 E16.44034
G1 X93.750 Y96.707 E16.57467
G1 X100.336 Y103.293 E18.95214
G1 X99.861 Y103.527 E19.08723
G1 X93.411 Y97.077 E21.41551
G1 X93.177 Y97.551 E21.55055
G1 X99.243 Y103.617 E23.74010
G1 X98.515 Y103.599 E23.92581
G1 X93.025 Y98.108 E25.90759
G1 X92.924 Y98.716 E26.06486
G1 X97.764 Y103.556 E27.81180
G1 X97.039 Y103.539 E27.99696
G1 X92.872 Y99.372 E29.50105
G1 X92.869 Y100.079 E29.68129
G1 X96.353 Y103.563 E30.93880
G1 X95.682 Y103.601 E31.11022
G1 X92.899 Y100.817 E32.11490
G1 X93.012 Y101.639 E32.32675
G1 X94.987 Y103.614 E33.03933
G1 X94.003 Y103.339 E33.30005
G1 X93.488 Y102.824 E33.48593
G1 E31.48593 F2400.00000
G92 E0
G1 X99.684 Y95.151 F7800.000
G1 E2.00000 F2400.00000
G1 X100.069 Y95.536 E2.17867 F1200.000
G1 X100.901 Y95.459 E2.45220
G1 X99.784 Y94.341 E2.96975
G1 X100.586 Y94.234 E3.23470
G1 X101.008 Y94.656 E3.43032
G1 E1.43032 F2400.00000
G92 E0
G1 X94.416 Y94.672 F7800.000
G1 E2.00000 F2400.00000
G1 X93.978 Y94.233 E2.20181 F1200.000
G1 X93.184 Y94.343 E2.46263
G1 X94.299 Y95.458 E2.97582
G1 X93.509 Y95.572 E3.23559
G1 X93.070 Y95.133 E3.43749
M106 S255
G1 Z3.200 F7800.000
G1 E1.43749 F2400.00000
G92 E0
G1 X94.002 Y97.737 F7800.000
G1 E2.00000 F2400.00000
G1 X94.464 Y97.275 E2.16636 F1195.091
G1 X95.465 Y96.981 E2.43218
G1 X93.587 Y98.859 E3.10876
G1 X93.474 Y99.679 E3.31950
G1 X96.210 Y96.943 E4.30493
G1 X96.918 Y96.942 E4.48524
G1 X93.468 Y100.392 E5.72794
G1 X93.527 Y101.040 E5.89360
G1 X97.625 Y96.942 E7.36948
G1 X98.324 Y96.951 E7.54749
G1 X93.648 Y101.626 E9.23153
G1 X93.834 Y102.147 E9.37241
G1 X98.980 Y97.002 E11.22571
G1 X99.561 Y97.128 E11.37707
G1 X94.110 Y102.579 E13.34031
G1 X94.527 Y102.869 E13.46971
G1 X99.975 Y97.421 E15.43203
G1 X100.256 Y97.847 E15.56202
G1 X95.105 Y102.998 E17.41752
G1 X95.764 Y103.046 E17.58587
G1 X100.436 Y98.374 E19.26872
G1 X100.558 Y98.959 E19.42097
G1 X96.458 Y103.060 E20.89780
G1 X97.167 Y103.058 E21.07834
G1 X100.612 Y99.612 E22.31932
G1 X100.610 Y100.322 E22.50013
G1 X97.877 Y103.055 E23.48442
G1 X98.618 Y103.021 E23.67340
G1 X100.494 Y101.145 E24.34920
G1 X100.075 Y102.271 F7800.000
G1 X99.596 Y102.750 E24.52188 F1195.091
G1 E22.52188 F2400.00000
G92 E0
G1 X103.618 Y101.118 F7800.000
G1 E2.00000 F2400.00000
G1 X103.844 Y100.893 E2.08212 F1195.091
G1 X104.107 Y100.629 F7800.000
G1 X104.530 Y100.206 E2.23625 F1195.091
G1 X104.497 Y99.524 E2.41190
G1 X102.875 Y101.146 E3.00234
G1 X102.489 Y100.818 E3.13287
G1 X104.063 Y99.244 E3.70595
G1 X103.735 Y98.857 E3.83649
G1 X102.303 Y100.289 E4.35791
G1 X102.486 Y99.392 E4.59375
G1 X102.964 Y98.914 E4.76773
G1 E2.76773 F2400.00000
G92 E0
G1 X104.192 Y101.195 F7800.000
G1 E2.00000 F2400.00000
G1 X103.904 Y101.483 E2.10487 F1195.091
G1 Z3.600 F7800.000
G1 E0.10487 F2400.00000
G92 E0
G1 X98.923 Y98.876 F7800.000
G1 E2.00000 F2400.00000
G1 X98.378 Y98.332 E2.20792 F600.000
G1 X97.247 Y97.950 F7800.000
G1 X99.306 Y100.010 E2.99465 F600.000
G1 X99.232 Y100.686 E3.17848
G1 X96.510 Y97.964 E4.21846
G1 X95.905 Y98.109 E4.38657
G1 X99.005 Y101.209 E5.57100
G1 X98.648 Y101.602 E5.71448
G1 X95.442 Y98.396 E6.93968
G1 X95.087 Y98.791 E7.08320
G1 X98.184 Y101.888 E8.26659
G1 X97.577 Y102.032 E8.43508
G1 X94.851 Y99.306 E9.47661
G1 X94.774 Y99.979 E9.65978
G1 X96.849 Y102.054 E10.45236
G1 X95.699 Y101.654 F7800.000
G1 X95.164 Y101.119 E10.65696 F600.000
G1 E8.65696 F2400.00000
G92 E0
G1 X103.202 Y100.395 F7800.000
G1 E2.00000 F2400.00000
G1 X102.841 Y100.034 E2.16243 F600.000
G1 X103.361 Y99.670 E2.36448
G1 X103.717 Y100.026 E2.52469
G1 Z4.000 F7800.000
G1 E0.52469 F2400.00000
G92 E0
G1 X97.387 Y99.992 F7800.000
G1 E2.00000 F2400.00000
G1 X97.037 Y100.342 E2.12379 F600.000
G1 E0.12379 F2400.00000
G92 E0
M107
M104 S0 ; turn off temperature
G28 X0  ; home X axis
M84     ; disable motors

; filament used = 309.9mm (0.2cm3)

; avoid_crossing_perimeters = 0
; bed_shape = 0x0,200x0,200x200,0x200
; bed_temperature = 0
; before_layer_gcode = 
; bridge_acceleration = 0
; bridge_fan_speed = 100
; brim_width = 0
; complete_objects = 0
; cooling = 1
; default_acceleration = 0
; disable_fan_first_layers = 3
; duplicate_distance = 6
; end_gcode = M104 S0 ; turn off temperature\nG28 X0  ; home X axis\nM84     ; disable motors\n
; extruder_clearance_height = 20
; extruder_clearance_radius = 20
; extruder_offset = 0x0
; extrusion_axis = E
; extrusion_multiplier = 1
; fan_always_on = 0
; fan_below_layer_time = 60
; filament_colour = #FFFFFF
; filament_diameter = 1
; first_layer_acceleration = 0
; first_layer_bed_temperature = 0
; first_layer_extrusion_width = 200%
; first_layer_speed = 30
; first_layer_temperature = 200
; gcode_arcs = 0
; gcode_comments = 0
; gcode_flavor = reprap
; infill_acceleration = 0
; infill_first = 0
; layer_gcode = 
; max_fan_speed = 100
; max_print_speed = 80
; max_volumetric_speed = 0
; min_fan_speed = 35
; min_print_speed = 10
; min_skirt_length = 0
; notes = 
; nozzle_diameter = 0.5
; only_retract_when_crossing_perimeters = 1
; ooze_prevention = 0
; output_filename_format = [input_filename_base].gcode
; perimeter_acceleration = 0
; post_process = 
; pressure_advance = 0
; resolution = 0
; retract_before_travel = 2
; retract_layer_change = 0
; retract_length = 2
; retract_length_toolchange = 10
; retract_lift = 0
; retract_restart_extra = 0
; retract_restart_extra_toolchange = 0
; retract_speed = 40
; skirt_distance = 6
; skirt_height = 1
; skirts = 0
; slowdown_below_layer_time = 5
; spiral_vase = 0
; standby_temperature_delta = -5
; start_gcode = G28 ; home all axes\nG1 Z5 F5000 ; lift nozzle\n
; temperature = 200
; threads = 2
; toolchange_gcode = 
; travel_speed = 130
; use_firmware_retraction = 0
; use_relative_e_distances = 0
; use_volumetric_e = 0
; vibration_limit = 0
; wipe = 0
; z_offset = 0
; dont_support_bridges = 1
; extrusion_width = 0
; first_layer_height = 0.4
; infill_only_where_needed = 0
; interface_shells = 0
; layer_height = 0.4
; raft_layers = 0
; seam_position = aligned
; support_material = 0
; support_material_angle = 0
; support_material_contact_distance = 0.2
; support_material_enforce_layers = 0
; support_material_extruder = 1
; support_material_extrusion_width = 0
; support_material_interface_extruder = 1
; support_material_interface_layers = 3
; support_material_interface_spacing = 0
; support_material_interface_speed = 100%
; support_material_pattern = pillars
; support_material_spacing = 2.5
; support_material_speed = 60
; support_material_threshold = 0
; xy_size_compensation = 0
; bottom_solid_layers = 0
; bridge_flow_ratio = 1
; bridge_speed = 60
; external_fill_pattern = rectilinear
; external_perimeter_extrusion_width = 0
; external_perimeter_speed = 50%
; external_perimeters_first = 0
; extra_perimeters = 1
; fill_angle = 45
; fill_density = 40%
; fill_pattern = rectilinear
; gap_fill_speed = 20
; infill_every_layers = 1
; infill_extruder = 1
; infill_extrusion_width = 0
; infill_overlap = 15%
; infill_speed = 80
; overhangs = 1
; perimeter_extruder = 1
; perimeter_extrusion_width = 0
; perimeter_speed = 60
; perimeters = 0
; small_perimeter_speed = 15
; solid_infill_below_area = 70
; solid_infill_every_layers = 0
; solid_infill_extruder = 1
; solid_infill_extrusion_width = 0
; solid_infill_speed = 20
; thin_walls = 1
; top_infill_extrusion_width = 0
; top_solid_infill_speed = 15
; top_solid_layers = 0
