; generated by Slic3r 1.3.0 on 2019-05-01 at 15:13:56

; external perimeters extrusion width = 0.55mm (4.37mm^3/s)
; perimeters extrusion width = 0.70mm (11.44mm^3/s)
; infill extrusion width = 0.63mm (13.45mm^3/s)
; solid infill extrusion width = 0.70mm (3.81mm^3/s)
; top infill extrusion width = 0.70mm (2.86mm^3/s)

M107
M104 S205 ; set temperature
G28 ; home all axes
G1 Z5 F5000 ; lift nozzle

; Filament gcode

M109 S205 ; set temperature and wait for it to be reached
G21 ; set units to millimeters
G90 ; use absolute coordinates
M82 ; use absolute distances for extrusion
G92 E0
G1 Z0.300 F7800.000
G1 E-2.00000 F2400.00000
G92 E0
G1 X95.631 Y96.314 F7800.000
G1 E2.00000 F2400.00000
G1 F600
G1 X95.945 Y96.030 E2.00896
G1 F600
G1 X96.400 Y95.764 E2.01876
G1 X96.814 Y95.632 E2.02687
G1 X97.115 Y95.590 E2.03252
G1 X97.314 Y95.580 E2.03624
G1 X97.674 Y95.611 E2.04296
G1 X98.047 Y95.706 E2.05013
G1 X98.349 Y95.828 E2.05620
G1 F600
G1 X98.725 Y96.037 E2.06520
G1 X99.116 Y96.351 E2.07568
G1 X99.406 Y96.707 E2.08529
G1 X99.594 Y97.078 E2.09400
G1 F600
G1 X99.687 Y97.403 E2.10196
G1 X99.716 Y97.611 E2.10690
G1 X99.719 Y97.851 E2.11255
G1 X99.687 Y98.101 E2.11849
G1 X99.640 Y98.290 E2.12307
G1 X99.544 Y98.530 E2.12917
G1 X99.357 Y98.813 E2.13715
G1 X99.198 Y98.984 E2.14265
G1 F600
G1 X98.849 Y99.231 E2.15151
G1 X98.542 Y99.364 E2.15845
G1 X98.316 Y99.417 E2.16326
G1 F600
G1 X98.071 Y99.454 E2.16786
G1 X97.665 Y99.456 E2.17543
G1 X97.155 Y99.378 E2.18502
G1 X96.641 Y99.224 E2.19500
G1 X96.153 Y98.995 E2.20502
G1 F600
G1 X95.775 Y98.742 E2.21446
G1 X95.456 Y98.422 E2.22384
G1 X95.245 Y98.063 E2.23249
G1 X95.189 Y97.884 E2.23640
G1 X95.141 Y97.603 E2.24233
G1 F600
G1 X95.145 Y97.357 E2.24753
G1 X95.205 Y97.062 E2.25390
G1 X95.363 Y96.690 E2.26246
G1 X95.583 Y96.372 E2.27065
G1 X95.631 Y96.314 F7800.000
M104 S200 ; set temperature
G1 Z0.600 F7800.000
G1 X95.738 Y96.401 F7800.000
G1 F600
G1 X96.096 Y96.071 E2.28082
G1 X96.476 Y95.847 E2.29003
G1 F600
G1 X96.970 Y95.680 E2.29978
G1 X97.414 Y95.631 E2.30816
G1 X97.744 Y95.653 E2.31434
G1 X98.212 Y95.763 E2.32335
G1 X98.520 Y95.885 E2.32955
G1 X98.798 Y96.032 E2.33543
G1 F600
G1 X99.026 Y96.180 E2.34119
G1 X99.347 Y96.462 E2.35024
G1 X99.581 Y96.756 E2.35820
G1 X99.762 Y97.095 E2.36635
G1 F600
G1 X99.868 Y97.432 E2.37469
G1 X99.900 Y97.609 E2.37892
G1 X99.913 Y97.829 E2.38414
G1 X99.895 Y98.113 E2.39085
G1 X99.870 Y98.247 E2.39407
G1 X99.762 Y98.568 E2.40205
G1 X99.549 Y98.903 E2.41143
G1 F600
G1 X99.396 Y99.068 E2.41619
G1 X99.063 Y99.299 E2.42479
G1 X98.795 Y99.422 E2.43105
G1 X98.404 Y99.516 E2.43957
G1 F600
G1 X97.855 Y99.531 E2.44976
G1 X97.371 Y99.458 E2.45884
G1 X96.859 Y99.310 E2.46872
G1 X96.365 Y99.082 E2.47882
G1 F600
G1 X95.925 Y98.793 E2.48976
G1 X95.765 Y98.651 E2.49422
G1 X95.599 Y98.464 E2.49943
G1 X95.396 Y98.123 E2.50769
G1 X95.343 Y97.973 E2.51099
G1 X95.285 Y97.667 E2.51747
G1 F600
G1 X95.283 Y97.424 E2.52256
G1 X95.336 Y97.144 E2.52850
G1 X95.481 Y96.776 E2.53675
G1 X95.692 Y96.460 E2.54468
G1 X95.733 Y96.390 F7800.000
G1 Z0.900 F7800.000
G1 X95.849 Y96.490 F7800.000
G1 F600
G1 X96.093 Y96.241 E2.55196
G1 X96.485 Y95.971 E2.56190
G1 F600
G1 X96.703 Y95.863 E2.56645
G1 X97.073 Y95.741 E2.57375
G1 X97.574 Y95.681 E2.58321
G1 X98.044 Y95.724 E2.59203
G1 X98.446 Y95.834 E2.59985
G1 X98.766 Y95.968 E2.60635
G1 F600
G1 X99.187 Y96.215 E2.61662
G1 X99.471 Y96.452 E2.62440
G1 X99.707 Y96.720 E2.63192
G1 X99.942 Y97.137 E2.64197
G1 F600
G1 X100.035 Y97.382 E2.64821
G1 X100.097 Y97.710 E2.65611
G1 X100.088 Y98.199 E2.66771
G1 X100.038 Y98.442 E2.67360
G1 X99.936 Y98.695 E2.68009
G1 X99.819 Y98.899 E2.68566
G1 X99.674 Y99.070 E2.69099
G1 F600
G1 X99.561 Y99.182 E2.69437
G1 X99.321 Y99.351 E2.70058
G1 X99.054 Y99.482 E2.70690
G1 X98.698 Y99.587 E2.71474
G1 F600
G1 X98.194 Y99.626 E2.72417
G1 X97.706 Y99.575 E2.73331
G1 X97.490 Y99.529 E2.73744
G1 X97.091 Y99.408 E2.74520
G1 X96.591 Y99.192 E2.75535
G1 X96.124 Y98.886 E2.76573
G1 F600
G1 X95.812 Y98.600 E2.77470
G1 X95.574 Y98.247 E2.78367
G1 X95.440 Y97.833 E2.79288
G1 X95.423 Y97.562 E2.79861
G1 F600
G1 X95.454 Y97.303 E2.80407
G1 X95.547 Y96.995 E2.81078
G1 X95.650 Y96.785 E2.81567
G1 X95.804 Y96.550 E2.82152
G1 X95.849 Y96.489 F7800.000
M106 S255
G1 Z1.200 F7800.000
G1 X95.965 Y96.575 F7800.000
G1 F600
G1 X96.343 Y96.201 E2.83259
G1 X96.739 Y95.957 E2.84230
G1 F600
G1 X96.990 Y95.851 E2.84736
G1 X97.239 Y95.779 E2.85215
G1 X97.687 Y95.725 E2.86054
G1 X98.065 Y95.743 E2.86756
G1 X98.450 Y95.823 E2.87485
G1 F600
G1 X98.929 Y96.000 E2.88557
G1 X99.207 Y96.154 E2.89226
G1 X99.481 Y96.349 E2.89931
G1 X99.693 Y96.544 E2.90536
G1 X99.852 Y96.724 E2.91040
G1 X100.048 Y97.032 E2.91808
G1 X100.140 Y97.222 E2.92251
G1 F600
G1 X100.225 Y97.469 E2.92866
G1 X100.274 Y97.708 E2.93441
G1 X100.299 Y98.070 E2.94296
G1 X100.248 Y98.436 E2.95166
G1 X100.203 Y98.596 E2.95559
G1 X100.020 Y98.971 E2.96542
G1 F600
G1 X99.809 Y99.224 E2.97241
G1 X99.540 Y99.426 E2.97956
G1 X99.221 Y99.583 E2.98713
G1 X98.844 Y99.685 E2.99542
G1 F600
G1 X98.592 Y99.716 E3.00024
G1 X98.241 Y99.718 E3.00686
G1 X97.655 Y99.626 E3.01807
G1 X97.122 Y99.451 E3.02868
G1 X96.734 Y99.264 E3.03683
G1 X96.292 Y98.980 E3.04676
G1 F600
G1 X96.131 Y98.845 E3.05118
G1 X95.943 Y98.648 E3.05691
G1 X95.727 Y98.324 E3.06510
G1 X95.600 Y97.964 E3.07311
G1 X95.566 Y97.610 E3.08059
G1 F600
G1 X95.596 Y97.354 E3.08597
G1 X95.655 Y97.146 E3.09047
G1 X95.742 Y96.924 E3.09545
G1 X95.920 Y96.635 E3.10251
G1 X95.959 Y96.562 F7800.000
G1 Z1.500 F7800.000
G1 X96.080 Y96.659 F7800.000
G1 F600
G1 X96.301 Y96.413 E3.10930
G1 X96.480 Y96.250 E3.11429
G1 X96.905 Y95.986 E3.12458
G1 X97.147 Y95.886 E3.12996
G1 X97.410 Y95.812 E3.13559
G1 X97.696 Y95.772 E3.14152
G1 X97.892 Y95.758 E3.14555
G1 X98.280 Y95.787 E3.15356
G1 X98.597 Y95.853 E3.16022
G1 X99.043 Y96.014 E3.16999
G1 X99.481 Y96.260 E3.18030
G1 X99.751 Y96.473 E3.18738
G1 X99.926 Y96.652 E3.19254
G1 X100.127 Y96.915 E3.19935
G1 X100.283 Y97.197 E3.20597
G1 F600
G1 X100.383 Y97.453 E3.21232
G1 X100.449 Y97.742 E3.21918
G1 X100.479 Y98.153 E3.22871
G1 X100.402 Y98.615 E3.23954
G1 X100.330 Y98.810 E3.24434
G1 X100.233 Y98.999 E3.24928
G1 F600
G1 X100.025 Y99.273 E3.25646
G1 X99.806 Y99.456 E3.26243
G1 X99.505 Y99.625 E3.26966
G1 X99.228 Y99.729 E3.27584
G1 X98.919 Y99.793 E3.28245
G1 X98.400 Y99.810 E3.29330
G1 X98.060 Y99.774 E3.30046
G1 X97.630 Y99.673 E3.30970
G1 X97.268 Y99.543 E3.31775
G1 X96.910 Y99.377 E3.32600
G1 X96.452 Y99.076 E3.33746
G1 X96.125 Y98.772 E3.34680
G1 X95.963 Y98.564 E3.35231
G1 X95.861 Y98.385 E3.35662
G1 X95.781 Y98.191 E3.36102
G1 X95.717 Y97.927 E3.36670
G1 X95.704 Y97.648 E3.37252
G1 F600
G1 X95.738 Y97.392 E3.37784
G1 X95.790 Y97.208 E3.38177
G1 X95.877 Y96.984 E3.38671
G1 X96.036 Y96.719 E3.39307
G1 X96.055 Y96.604 F7800.000
G1 Z1.800 F7800.000
G1 X96.190 Y96.739 F7800.000
G1 F600
G1 X96.266 Y96.636 E3.39574
G1 F600
G1 X96.460 Y96.426 E3.40109
G1 X96.632 Y96.277 E3.40533
G1 X96.842 Y96.132 E3.41008
G1 X97.085 Y96.001 E3.41523
G1 X97.515 Y95.853 E3.42371
G1 X97.821 Y95.808 E3.42949
G1 X98.081 Y95.793 E3.43434
G1 X98.445 Y95.822 E3.44115
G1 X98.780 Y95.895 E3.44755
G1 F600
G1 X99.286 Y96.088 E3.45880
G1 X99.629 Y96.288 E3.46705
G1 X99.950 Y96.548 E3.47563
G1 X100.177 Y96.796 E3.48262
G1 X100.381 Y97.107 E3.49037
G1 X100.534 Y97.455 E3.49827
G1 X100.619 Y97.816 E3.50598
G1 X100.646 Y98.178 E3.51351
G1 X100.608 Y98.535 E3.52099
G1 X100.502 Y98.876 E3.52841
G1 X100.345 Y99.166 E3.53527
G1 X100.135 Y99.414 E3.54202
G1 X99.903 Y99.591 E3.54808
G1 X99.571 Y99.757 E3.55580
G1 X99.324 Y99.833 E3.56117
G1 F600
G1 X99.009 Y99.888 E3.56708
G1 X98.615 Y99.904 E3.57437
G1 X97.990 Y99.826 E3.58603
G1 X97.522 Y99.686 E3.59504
G1 X97.207 Y99.553 E3.60137
G1 X96.818 Y99.331 E3.60966
G1 X96.517 Y99.103 E3.61663
G1 F600
G1 X96.183 Y98.766 E3.62651
G1 X95.975 Y98.423 E3.63484
G1 X95.863 Y98.073 E3.64248
G1 X95.838 Y97.677 E3.65073
G1 F600
G1 X95.877 Y97.415 E3.65626
G1 X95.926 Y97.254 E3.65978
G1 X96.014 Y97.028 E3.66485
G1 X96.146 Y96.800 E3.67036
G1 X96.139 Y96.622 F7800.000
G1 Z2.100 F7800.000
G1 X96.293 Y96.816 F7800.000
G1 F600
G1 X96.426 Y96.639 E3.67494
G1 X96.600 Y96.454 E3.68017
G1 X96.809 Y96.278 E3.68583
G1 X97.194 Y96.045 E3.69510
G1 X97.655 Y95.885 E3.70517
G1 X97.886 Y95.844 E3.71003
G1 X98.202 Y95.827 E3.71656
G1 X98.621 Y95.861 E3.72523
G1 X99.023 Y95.958 E3.73378
G1 X99.353 Y96.086 E3.74109
G1 X99.771 Y96.325 E3.75103
G1 X100.052 Y96.544 E3.75838
G1 X100.337 Y96.852 E3.76704
G1 X100.530 Y97.145 E3.77429
G1 X100.642 Y97.384 E3.77975
G1 X100.743 Y97.712 E3.78682
G1 X100.798 Y98.209 E3.79714
G1 X100.759 Y98.567 E3.80458
G1 X100.666 Y98.901 E3.81174
G1 X100.563 Y99.112 E3.81659
G1 X100.495 Y99.226 E3.81933
G1 X100.293 Y99.476 E3.82597
G1 X100.009 Y99.694 E3.83335
G1 X99.707 Y99.841 E3.84029
G1 X99.250 Y99.958 E3.85004
G1 X98.723 Y99.986 E3.86093
G1 X98.108 Y99.910 E3.87372
G1 X97.634 Y99.778 E3.88388
G1 X97.253 Y99.605 E3.89253
G1 X96.895 Y99.389 E3.90115
G1 X96.525 Y99.082 E3.91107
G1 X96.300 Y98.834 E3.91799
G1 X96.107 Y98.499 E3.92597
G1 X96.044 Y98.342 E3.92947
G1 X95.980 Y98.082 E3.93499
G1 X95.962 Y97.915 E3.93847
G1 X95.987 Y97.556 E3.94589
G1 X96.060 Y97.273 E3.95193
G1 X96.155 Y97.050 E3.95694
G1 X96.253 Y96.880 E3.96099
G1 X96.199 Y96.617 F7800.000
G1 Z2.400 F7800.000
G1 X96.402 Y96.888 F7800.000
G1 F600
G1 X96.536 Y96.701 E3.96572
G1 X96.711 Y96.508 E3.97106
G1 X96.914 Y96.334 E3.97655
G1 X97.147 Y96.173 E3.98235
G1 X97.557 Y95.987 E3.99158
G1 X97.811 Y95.917 E3.99698
G1 X98.236 Y95.867 E4.00575
G1 X98.745 Y95.900 E4.01621
G1 X99.174 Y96.003 E4.02526
G1 X99.576 Y96.168 E4.03416
G1 X99.948 Y96.391 E4.04305
G1 X100.283 Y96.677 E4.05207
G1 X100.533 Y96.973 E4.06002
G1 X100.701 Y97.251 E4.06670
G1 X100.832 Y97.568 E4.07372
G1 X100.914 Y97.963 E4.08199
G1 X100.929 Y98.332 E4.08956
G1 X100.875 Y98.688 E4.09694
G1 X100.744 Y99.069 E4.10519
G1 X100.541 Y99.398 E4.11313
G1 X100.267 Y99.672 E4.12107
G1 X99.935 Y99.870 E4.12900
G1 X99.563 Y99.996 E4.13704
G1 X99.034 Y100.057 E4.14795
G1 X98.268 Y100.052 E4.16365
G1 X97.729 Y99.958 E4.17487
G1 X97.273 Y99.774 E4.18496
G1 X96.884 Y99.522 E4.19447
G1 X96.639 Y99.286 E4.20142
G1 X96.415 Y98.988 E4.20907
G1 X96.263 Y98.681 E4.21610
G1 X96.166 Y98.433 E4.22154
G1 X96.085 Y98.001 E4.23057
G1 X96.096 Y97.712 E4.23649
G1 X96.192 Y97.307 E4.24502
G1 X96.363 Y96.952 E4.25309
G1 X96.369 Y96.825 F7800.000
G1 Z2.700 F7800.000
G1 X96.515 Y96.956 F7800.000
G1 F600
G1 X96.839 Y96.546 E4.26344
G1 X97.048 Y96.367 E4.26889
G1 X97.354 Y96.170 E4.27609
G1 X97.600 Y96.054 E4.28148
G1 X97.837 Y95.980 E4.28639
G1 X98.062 Y95.936 E4.29093
G1 X98.471 Y95.910 E4.29904
G1 X98.700 Y95.920 E4.30358
G1 X99.119 Y95.996 E4.31202
G1 X99.512 Y96.125 E4.32020
G1 X99.755 Y96.242 E4.32555
G1 X99.991 Y96.381 E4.33097
G1 X100.211 Y96.546 E4.33641
G1 X100.409 Y96.722 E4.34165
G1 X100.686 Y97.062 E4.35035
G1 X100.812 Y97.278 E4.35529
G1 X100.913 Y97.504 E4.36019
G1 X100.988 Y97.734 E4.36497
G1 X101.044 Y98.083 E4.37198
G1 X101.043 Y98.426 E4.37876
G1 X101.005 Y98.668 E4.38362
G1 X100.955 Y98.862 E4.38758
G1 X100.789 Y99.240 E4.39575
G1 X100.621 Y99.484 E4.40161
G1 X100.403 Y99.705 E4.40776
G1 X100.232 Y99.829 E4.41195
G1 X99.994 Y99.956 E4.41729
G1 X99.568 Y100.079 E4.42606
G1 X99.281 Y100.116 E4.43179
G1 X98.835 Y100.130 E4.44062
G1 F600
G1 X98.479 Y100.187 E4.44855
G1 X98.314 Y100.193 E4.45218
G1 X98.062 Y100.180 E4.45771
G1 X97.674 Y100.108 E4.46637
G1 X97.313 Y99.981 E4.47477
G1 X96.916 Y99.761 E4.48473
G1 X96.651 Y99.545 E4.49223
G1 X96.471 Y99.349 E4.49807
G1 F600
G1 X96.374 Y99.212 E4.50140
G1 X96.240 Y98.941 E4.50738
G1 X96.162 Y98.613 E4.51406
G1 X96.151 Y98.417 E4.51794
G1 F600
G1 X96.189 Y97.974 E4.52675
G1 X96.239 Y97.655 E4.53314
G1 X96.325 Y97.334 E4.53973
G1 X96.476 Y97.021 E4.54662
G1 X96.479 Y96.893 F7800.000
G1 Z3.000 F7800.000
G1 X96.632 Y97.027 F7800.000
G1 F600
G1 X96.783 Y96.802 E4.55207
G1 X96.971 Y96.587 E4.55783
G1 X97.278 Y96.334 E4.56586
G1 X97.447 Y96.233 E4.56982
G1 X97.685 Y96.117 E4.57516
G1 X98.083 Y95.999 E4.58352
G1 X98.551 Y95.958 E4.59299
G1 X99.010 Y95.999 E4.60228
G1 X99.362 Y96.086 E4.60959
G1 X99.619 Y96.176 E4.61508
G1 X99.871 Y96.293 E4.62068
G1 X100.109 Y96.437 E4.62629
G1 X100.407 Y96.670 E4.63391
G1 X100.606 Y96.871 E4.63962
G1 X100.811 Y97.142 E4.64646
G1 X100.975 Y97.452 E4.65353
G1 X101.055 Y97.657 E4.65796
G1 X101.118 Y97.912 E4.66326
G1 X101.148 Y98.173 E4.66856
G1 X101.128 Y98.597 E4.67711
G1 X101.035 Y98.954 E4.68454
G1 X100.935 Y99.189 E4.68969
G1 X100.805 Y99.402 E4.69472
G1 X100.573 Y99.672 E4.70189
G1 X100.395 Y99.824 E4.70662
G1 X100.205 Y99.947 E4.71118
G1 X99.986 Y100.043 E4.71601
G1 X99.799 Y100.102 E4.71996
G1 X99.509 Y100.155 E4.72589
G1 X99.003 Y100.181 E4.73611
G1 X98.719 Y100.272 E4.74213
G1 F600
G1 X98.475 Y100.320 E4.74767
G1 X98.235 Y100.339 E4.75303
G1 X97.806 Y100.303 E4.76263
G1 X97.534 Y100.237 E4.76887
G1 X97.041 Y100.040 E4.78071
G1 X96.723 Y99.832 E4.78918
G1 X96.474 Y99.607 E4.79666
G1 F600
G1 X96.333 Y99.435 E4.80113
G1 X96.210 Y99.240 E4.80576
G1 X96.110 Y98.995 E4.81108
G1 X96.050 Y98.594 E4.81923
G1 F600
G1 X96.062 Y98.313 E4.82490
G1 X96.154 Y97.930 E4.83283
G1 X96.356 Y97.487 E4.84264
G1 X96.593 Y97.091 E4.85195
G1 X96.575 Y96.924 F7800.000
G1 Z3.300 F7800.000
G1 X96.678 Y97.070 F7800.000
G1 F600
G1 X97.253 Y96.502 E4.86736
G1 X97.598 Y96.273 E4.87527
G1 X97.950 Y96.122 E4.88258
G1 X98.319 Y96.038 E4.88981
G1 X98.666 Y96.017 E4.89644
G1 X99.044 Y96.049 E4.90367
G1 X99.298 Y96.100 E4.90861
G1 X99.640 Y96.205 E4.91543
G1 X99.920 Y96.329 E4.92129
G1 X100.181 Y96.481 E4.92704
G1 X100.420 Y96.659 E4.93274
G1 X100.637 Y96.863 E4.93843
G1 X100.825 Y97.088 E4.94401
G1 X101.002 Y97.372 E4.95041
G1 X101.123 Y97.644 E4.95608
G1 X101.197 Y97.907 E4.96129
G1 X101.236 Y98.175 E4.96647
G1 X101.244 Y98.444 E4.97159
G1 X101.190 Y98.826 E4.97895
G1 X101.022 Y99.256 E4.98777
G1 X100.749 Y99.614 E4.99636
G1 X100.475 Y99.853 E5.00329
G1 X100.115 Y100.060 E5.01122
G1 X99.712 Y100.176 E5.01921
G1 X99.073 Y100.233 E5.03146
G1 F600
G1 X98.711 Y100.386 E5.04007
G1 X98.343 Y100.466 E5.04830
G1 X97.947 Y100.475 E5.05698
G1 X97.453 Y100.390 E5.06794
G1 X97.105 Y100.260 E5.07607
G1 X96.663 Y99.994 E5.08736
G1 X96.347 Y99.723 E5.09647
G1 X96.174 Y99.495 E5.10274
G1 F600
G1 X96.033 Y99.210 E5.10897
G1 X95.955 Y98.881 E5.11563
G1 X95.958 Y98.495 E5.12320
G1 F600
G1 X96.009 Y98.213 E5.12867
G1 X96.169 Y97.792 E5.13726
G1 X96.419 Y97.378 E5.14648
G1 X96.627 Y97.125 E5.15274
G1 X96.652 Y96.987 F7800.000
G1 Z3.600 F7800.000
G1 X96.697 Y97.091 F7800.000
G1 F600
G1 X96.923 Y96.898 E5.15894
G1 X97.558 Y96.444 E5.17524
G1 X97.839 Y96.286 E5.18197
G1 X98.069 Y96.200 E5.18710
G1 X98.342 Y96.128 E5.19299
G1 X98.737 Y96.088 E5.20126
G1 X99.036 Y96.103 E5.20752
G1 X99.375 Y96.164 E5.21470
G1 X99.905 Y96.350 E5.22644
G1 X100.193 Y96.507 E5.23328
G1 X100.472 Y96.707 E5.24043
G1 X100.821 Y97.056 E5.25073
G1 X100.989 Y97.289 E5.25675
G1 X101.129 Y97.544 E5.26281
G1 X101.234 Y97.803 E5.26865
G1 X101.309 Y98.064 E5.27431
G1 X101.360 Y98.366 E5.28070
G1 F600
G1 X101.373 Y98.746 E5.28958
G1 F600
G1 X101.283 Y99.172 E5.30072
G1 X101.142 Y99.447 E5.30861
G1 X101.048 Y99.568 E5.31251
G1 X100.832 Y99.769 E5.32005
G1 F600
G1 X100.589 Y99.911 E5.32659
G1 F600
G1 X100.175 Y100.091 E5.33570
G1 X99.739 Y100.209 E5.34482
G1 X99.193 Y100.246 E5.35585
G1 X98.719 Y100.487 E5.36659
G1 X98.501 Y100.557 E5.37120
G1 F600
G1 X98.198 Y100.615 E5.37810
G1 X97.732 Y100.612 E5.38850
G1 X97.160 Y100.471 E5.40165
G1 X96.872 Y100.341 E5.40873
G1 X96.478 Y100.087 E5.41920
G1 X96.216 Y99.836 E5.42731
G1 X96.032 Y99.567 E5.43459
G1 F600
G1 X95.887 Y99.202 E5.44250
G1 X95.846 Y98.876 E5.44913
G1 F600
G1 X95.868 Y98.542 E5.45535
G1 X95.951 Y98.211 E5.46171
G1 X96.092 Y97.885 E5.46833
G1 X96.351 Y97.470 E5.47743
G1 X96.643 Y97.143 E5.48560
G1 X96.660 Y96.941 F7800.000
G1 Z3.900 F7800.000
G1 X96.722 Y97.122 F7800.000
G1 F600
G1 X96.967 Y96.929 E5.49219
G1 X97.188 Y96.797 E5.49764
G1 X97.495 Y96.652 E5.50481
G1 X97.786 Y96.469 E5.51208
G1 X98.025 Y96.347 E5.51775
G1 F600
G1 X98.422 Y96.224 E5.52561
G1 X98.826 Y96.178 E5.53330
G1 X99.276 Y96.215 E5.54186
G1 X99.489 Y96.259 E5.54597
G1 X99.763 Y96.347 E5.55141
G1 X99.999 Y96.450 E5.55629
G1 X100.230 Y96.578 E5.56129
G1 X100.512 Y96.778 E5.56784
G1 X100.743 Y96.991 E5.57377
G1 X100.942 Y97.220 E5.57952
G1 X101.190 Y97.588 E5.58792
G1 F600
G1 X101.435 Y98.061 E5.59924
G1 F600
G1 X101.526 Y98.296 E5.60560
G1 X101.597 Y98.630 E5.61425
G1 F600
G1 X101.606 Y98.839 E5.62008
G1 X101.579 Y99.106 E5.62758
G1 X101.475 Y99.431 E5.63712
G1 X101.316 Y99.683 E5.64544
G1 X101.160 Y99.849 E5.65180
G1 X101.008 Y99.959 E5.65704
G1 F600
G1 X100.734 Y100.093 E5.66489
G1 X100.531 Y100.147 E5.67027
G1 F600
G1 X100.166 Y100.209 E5.67875
G1 F600
G1 X99.737 Y100.252 E5.68761
G1 X99.256 Y100.262 E5.69749
G1 X98.805 Y100.537 E5.70833
G1 X98.390 Y100.704 E5.71751
G1 F600
G1 X98.014 Y100.770 E5.72618
G1 X97.672 Y100.768 E5.73394
G1 X97.457 Y100.741 E5.73886
G1 X97.152 Y100.667 E5.74598
G1 X96.767 Y100.508 E5.75542
G1 X96.475 Y100.329 E5.76321
G1 X96.148 Y100.035 E5.77319
G1 X95.956 Y99.779 E5.78045
G1 F600
G1 X95.866 Y99.607 E5.78436
G1 X95.801 Y99.423 E5.78830
G1 X95.746 Y99.089 E5.79515
G1 F600
G1 X95.769 Y98.677 E5.80295
G1 X95.907 Y98.199 E5.81240
G1 X96.044 Y97.919 E5.81831
G1 X96.176 Y97.714 E5.82294
G1 X96.355 Y97.478 E5.82854
G1 X96.601 Y97.219 E5.83532
G1 F600
G1 X96.664 Y97.169 E5.83700
G1 X96.903 Y96.912 F7800.000
G1 Z4.200 F7800.000
G1 E3.83700 F2400.00000
G92 E0
G1 X101.869 Y98.846 F7800.000
G1 E2.00000 F2400.00000
G1 F600
G1 X101.854 Y99.147 E2.00768
G1 X101.800 Y99.389 E2.01398
G1 X101.657 Y99.697 E2.02262
G1 X101.539 Y99.872 E2.02797
G1 X101.335 Y100.075 E2.03529
G1 X101.091 Y100.228 E2.04260
G1 X100.917 Y100.299 E2.04738
G1 F600
G1 X100.546 Y100.378 E2.05603
G1 X100.306 Y100.383 E2.06151
G1 X100.026 Y100.358 E2.06791
G1 F600
G1 X99.366 Y100.283 E2.08139
G1 X99.291 Y100.290 E2.08291
G1 X99.204 Y100.327 E2.08483
G1 X98.808 Y100.629 E2.09492
G1 X98.475 Y100.802 E2.10252
G1 F600
G1 X98.149 Y100.901 E2.11023
G1 X97.827 Y100.943 E2.11761
G1 X97.446 Y100.923 E2.12624
G1 X97.032 Y100.830 E2.13585
G1 X96.677 Y100.685 E2.14452
G1 X96.359 Y100.492 E2.15296
G1 X96.032 Y100.197 E2.16292
G1 X95.808 Y99.873 E2.17184
G1 F600
G1 X95.686 Y99.561 E2.17857
G1 X95.642 Y99.328 E2.18331
G1 X95.635 Y99.167 E2.18652
G1 F600
G1 X95.652 Y98.878 E2.19251
G1 X95.703 Y98.646 E2.19740
G1 X95.871 Y98.191 E2.20741
G1 X96.059 Y97.872 E2.21505
G1 X96.390 Y97.470 E2.22580
G1 X96.719 Y97.178 E2.23487
G1 X97.021 Y96.974 E2.24239
G1 X97.369 Y96.806 E2.25037
G1 X97.802 Y96.655 E2.25981
G1 X97.997 Y96.537 E2.26453
G1 X98.247 Y96.422 E2.27020
G1 X98.522 Y96.344 E2.27610
G1 X98.883 Y96.298 E2.28360
G1 X99.215 Y96.309 E2.29046
G1 X99.565 Y96.372 E2.29781
G1 X99.935 Y96.506 E2.30591
G1 X100.216 Y96.650 E2.31243
G1 X100.484 Y96.831 E2.31910
G1 X100.734 Y97.037 E2.32579
G1 X101.319 Y97.632 E2.34300
G1 F600
G1 X101.526 Y97.890 E2.35061
G1 X101.631 Y98.052 E2.35505
G1 F600
G1 X101.769 Y98.344 E2.36326
G1 X101.834 Y98.567 E2.36917
G1 X101.864 Y98.771 E2.37442
G1 X101.914 Y98.868 F7800.000
G1 Z4.500 F7800.000
G1 X102.099 Y98.830 F7800.000
G1 F600
G1 X102.094 Y99.164 E2.38277
G1 X102.055 Y99.395 E2.38860
G1 X101.978 Y99.631 E2.39480
G1 X101.796 Y99.951 E2.40401
G1 X101.578 Y100.190 E2.41209
G1 F600
G1 X101.344 Y100.360 E2.41857
G1 X101.084 Y100.480 E2.42498
G1 X100.790 Y100.549 E2.43174
G1 X100.572 Y100.569 E2.43663
G1 F600
G1 X100.179 Y100.546 E2.44457
G1 X99.898 Y100.495 E2.45033
G1 X99.386 Y100.355 E2.46103
G1 X99.274 Y100.358 E2.46329
G1 X99.193 Y100.393 E2.46504
G1 X98.886 Y100.665 E2.47333
G1 X98.663 Y100.816 E2.47875
G1 X98.351 Y100.973 E2.48578
G1 F600
G1 X97.967 Y101.081 E2.49473
G1 X97.589 Y101.110 E2.50323
G1 X97.204 Y101.070 E2.51193
G1 X96.775 Y100.942 E2.52196
G1 X96.369 Y100.737 E2.53218
G1 X96.024 Y100.464 E2.54205
G1 X95.818 Y100.226 E2.54910
G1 X95.630 Y99.883 E2.55787
G1 F600
G1 X95.542 Y99.551 E2.56460
G1 X95.524 Y99.342 E2.56871
G1 X95.533 Y99.152 E2.57244
G1 F600
G1 X95.598 Y98.789 E2.57985
G1 X95.716 Y98.462 E2.58682
G1 X95.954 Y98.024 E2.59683
G1 X96.176 Y97.729 E2.60424
G1 X96.407 Y97.493 E2.61088
G1 X96.781 Y97.201 E2.62041
G1 X97.028 Y97.054 E2.62619
G1 X97.514 Y96.865 E2.63665
G1 F600
G1 X97.941 Y96.778 E2.64635
G1 X98.387 Y96.566 E2.65732
G1 X98.649 Y96.492 E2.66337
G1 X98.954 Y96.449 E2.67021
G1 X99.323 Y96.459 E2.67842
G1 F600
G1 X99.651 Y96.522 E2.68493
G1 X99.880 Y96.599 E2.68964
G1 X100.166 Y96.729 E2.69575
G1 X100.611 Y96.988 E2.70579
G1 X101.121 Y97.320 E2.71766
G1 F600
G1 X101.453 Y97.579 E2.72723
G1 X101.710 Y97.850 E2.73572
G1 X101.925 Y98.192 E2.74490
G1 X102.042 Y98.505 E2.75250
G1 F600
G1 X102.091 Y98.755 E2.75887
G1 X102.124 Y98.841 F7800.000
G1 Z4.800 F7800.000
G1 X102.286 Y98.805 F7800.000
G1 F600
G1 X102.303 Y99.055 E2.76449
G1 X102.284 Y99.344 E2.77100
G1 X102.183 Y99.729 E2.77993
G1 X102.055 Y99.984 E2.78632
G1 X101.901 Y100.189 E2.79208
G1 X101.640 Y100.414 E2.79982
G1 X101.387 Y100.560 E2.80637
G1 X101.115 Y100.652 E2.81280
G1 F600
G1 X100.788 Y100.713 E2.81956
G1 X100.365 Y100.709 E2.82815
G1 X99.887 Y100.621 E2.83801
G1 X99.363 Y100.442 E2.84927
G1 X99.264 Y100.437 E2.85127
G1 X99.156 Y100.481 E2.85364
G1 X98.844 Y100.775 E2.86234
G1 X98.552 Y100.985 E2.86964
G1 X98.194 Y101.159 E2.87773
G1 F600
G1 X97.814 Y101.258 E2.88654
G1 X97.406 Y101.277 E2.89571
G1 X97.072 Y101.227 E2.90328
G1 X96.856 Y101.172 E2.90828
G1 X96.665 Y101.104 E2.91283
G1 X96.300 Y100.925 E2.92197
G1 X95.986 Y100.697 E2.93068
G1 X95.676 Y100.342 E2.94126
G1 F600
G1 X95.543 Y100.111 E2.94659
G1 X95.485 Y99.952 E2.94998
G1 X95.439 Y99.780 E2.95355
G1 X95.415 Y99.398 E2.96121
G1 F600
G1 X95.467 Y99.033 E2.96817
G1 X95.591 Y98.655 E2.97567
G1 X95.781 Y98.287 E2.98347
G1 X96.096 Y97.855 E2.99356
G1 X96.297 Y97.648 E2.99899
G1 X96.553 Y97.430 E3.00533
G1 F600
G1 X96.855 Y97.232 E3.01309
G1 X97.259 Y97.049 E3.02260
G1 X97.671 Y96.952 E3.03169
G1 X98.013 Y96.934 E3.03904
G1 F600
G1 X98.211 Y96.899 E3.04397
G1 X98.688 Y96.697 E3.05665
G1 X98.942 Y96.648 E3.06296
G1 F600
G1 X99.274 Y96.637 E3.07031
G1 X99.696 Y96.696 E3.07974
G1 F600
G1 X100.329 Y96.892 E3.09300
G1 X100.922 Y97.121 E3.10572
G1 X101.385 Y97.378 E3.11631
G1 X101.633 Y97.573 E3.12262
G1 F600
G1 X101.858 Y97.805 E3.12987
G1 X102.030 Y98.051 E3.13659
G1 X102.176 Y98.356 E3.14419
G1 X102.275 Y98.731 E3.15288
G1 X102.363 Y98.835 F7800.000
G1 Z5.100 F7800.000
G1 X102.450 Y98.766 F7800.000
G1 F600
G1 X102.493 Y99.198 E3.16267
G1 F600
G1 X102.478 Y99.444 E3.16884
G1 X102.424 Y99.718 E3.17580
G1 X102.327 Y99.962 E3.18236
G1 X102.217 Y100.156 E3.18792
G1 F600
G1 X101.990 Y100.415 E3.19571
G1 X101.717 Y100.607 E3.20324
G1 X101.438 Y100.728 E3.21012
G1 F600
G1 X101.048 Y100.821 E3.21807
G1 X100.698 Y100.842 E3.22500
G1 X100.509 Y100.832 E3.22875
G1 X100.229 Y100.801 E3.23433
G1 X99.818 Y100.702 E3.24271
G1 X99.342 Y100.520 E3.25281
G1 X99.230 Y100.513 E3.25503
G1 X99.114 Y100.563 E3.25753
G1 X98.763 Y100.918 E3.26741
G1 X98.391 Y101.185 E3.27650
G1 F600
G1 X97.985 Y101.362 E3.28645
G1 X97.616 Y101.438 E3.29495
G1 X97.234 Y101.438 E3.30356
G1 X96.849 Y101.368 E3.31236
G1 X96.413 Y101.207 E3.32285
G1 X96.075 Y101.015 E3.33160
G1 X95.773 Y100.759 E3.34052
G1 X95.516 Y100.420 E3.35011
G1 F600
G1 X95.357 Y100.054 E3.35822
G1 X95.309 Y99.717 E3.36514
G1 F600
G1 X95.330 Y99.356 E3.37181
G1 X95.382 Y99.115 E3.37637
G1 X95.556 Y98.667 E3.38524
G1 X95.674 Y98.453 E3.38975
G1 F600
G1 X95.844 Y98.199 E3.39606
G1 X96.099 Y97.901 E3.40416
G1 X96.439 Y97.591 E3.41365
G1 X96.711 Y97.407 E3.42044
G1 X97.002 Y97.253 E3.42724
G1 X97.309 Y97.144 E3.43396
G1 X97.626 Y97.083 E3.44060
G1 F600
G1 X97.892 Y97.071 E3.44672
G1 X98.270 Y97.099 E3.45545
G1 F600
G1 X98.416 Y97.086 E3.45915
G1 X98.669 Y96.965 E3.46629
G1 X98.933 Y96.883 E3.47330
G1 F600
G1 X99.326 Y96.829 E3.48227
G1 F600
G1 X99.903 Y96.855 E3.49405
G1 X100.372 Y96.920 E3.50370
G1 X100.707 Y97.001 E3.51070
G1 X101.027 Y97.113 E3.51761
G1 X101.293 Y97.240 E3.52361
G1 X101.555 Y97.405 E3.52993
G1 X101.842 Y97.645 E3.53755
G1 X102.054 Y97.888 E3.54413
G1 X102.245 Y98.190 E3.55140
G1 F600
G1 X102.366 Y98.467 E3.55822
G1 X102.431 Y98.694 E3.56355
G1 X102.463 Y98.770 F7800.000
G1 Z5.400 F7800.000
G1 X102.588 Y98.715 F7800.000
G1 F600
G1 X102.613 Y98.799 E3.56541
G1 F600
G1 X102.671 Y99.072 E3.57204
G1 X102.689 Y99.479 E3.58170
G1 F600
G1 X102.655 Y99.744 E3.58873
G1 X102.567 Y100.036 E3.59673
G1 X102.444 Y100.261 E3.60349
G1 X102.330 Y100.415 E3.60852
G1 F600
G1 X102.073 Y100.642 E3.61658
G1 X101.818 Y100.784 E3.62346
G1 X101.539 Y100.877 E3.63037
G1 F600
G1 X101.148 Y100.944 E3.63857
G1 X100.827 Y100.951 E3.64522
G1 X100.540 Y100.930 E3.65116
G1 X100.214 Y100.881 E3.65800
G1 X99.779 Y100.762 E3.66731
G1 X99.324 Y100.574 E3.67750
G1 X99.202 Y100.568 E3.68001
G1 X99.084 Y100.624 E3.68272
G1 X98.761 Y100.985 E3.69274
G1 X98.409 Y101.271 E3.70211
G1 X98.135 Y101.430 E3.70867
G1 X97.920 Y101.516 E3.71346
G1 F600
G1 X97.570 Y101.604 E3.72175
G1 X97.409 Y101.621 E3.72545
G1 X97.174 Y101.615 E3.73085
G1 X96.951 Y101.592 E3.73598
G1 X96.503 Y101.475 E3.74659
G1 X96.073 Y101.263 E3.75759
G1 X95.760 Y101.030 E3.76652
G1 X95.537 Y100.781 E3.77418
G1 X95.362 Y100.504 E3.78171
G1 F600
G1 X95.227 Y100.130 E3.78965
G1 X95.197 Y99.790 E3.79646
G1 F600
G1 X95.222 Y99.503 E3.80201
G1 X95.272 Y99.275 E3.80650
G1 X95.350 Y99.053 E3.81104
G1 X95.549 Y98.643 E3.81981
G1 X95.696 Y98.419 E3.82498
G1 X95.997 Y98.061 E3.83398
G1 X96.211 Y97.858 E3.83966
G1 X96.471 Y97.658 E3.84599
G1 F600
G1 X96.759 Y97.486 E3.85319
G1 X97.201 Y97.301 E3.86350
G1 X97.491 Y97.234 E3.86990
G1 X97.844 Y97.219 E3.87750
G1 F600
G1 X98.494 Y97.328 E3.89311
G1 X98.810 Y97.162 E3.90155
G1 X99.170 Y97.030 E3.91061
G1 F600
G1 X99.543 Y96.951 E3.91870
G1 F600
G1 X100.017 Y96.913 E3.92770
G1 X100.387 Y96.933 E3.93472
G1 X100.717 Y96.995 E3.94109
G1 X101.036 Y97.094 E3.94742
G1 X101.333 Y97.227 E3.95360
G1 X101.631 Y97.409 E3.96022
G1 X101.881 Y97.606 E3.96625
G1 F600
G1 X102.119 Y97.848 E3.97347
G1 X102.321 Y98.124 E3.98072
G1 X102.479 Y98.419 E3.98783
G1 X102.562 Y98.645 E3.99294
G1 X102.609 Y98.719 F7800.000
G1 Z5.700 F7800.000
G1 X102.716 Y98.662 F7800.000
G1 F600
G1 X102.810 Y98.922 E3.99891
G1 F600
G1 X102.902 Y99.363 E4.00960
G1 F600
G1 X102.912 Y99.653 E4.01718
G1 X102.882 Y99.895 E4.02357
G1 X102.796 Y100.191 E4.03162
G1 X102.679 Y100.406 E4.03802
G1 X102.536 Y100.596 E4.04422
G1 X102.320 Y100.780 E4.05163
G1 X102.167 Y100.867 E4.05624
G1 F600
G1 X102.054 Y100.921 E4.05910
G1 X101.727 Y101.023 E4.06690
G1 X101.359 Y101.068 E4.07533
G1 F600
G1 X100.801 Y101.054 E4.08626
G1 X100.248 Y100.959 E4.09724
G1 X99.776 Y100.813 E4.10691
G1 X99.314 Y100.607 E4.11680
G1 X99.180 Y100.599 E4.11942
G1 X99.068 Y100.655 E4.12189
G1 X98.662 Y101.144 E4.13432
G1 X98.253 Y101.470 E4.14455
G1 F600
G1 X97.935 Y101.641 E4.15251
G1 X97.606 Y101.749 E4.16013
G1 F600
G1 X97.330 Y101.790 E4.16708
G1 X97.018 Y101.799 E4.17485
G1 X96.715 Y101.763 E4.18243
G1 X96.293 Y101.634 E4.19341
G1 X96.008 Y101.491 E4.20135
G1 X95.768 Y101.334 E4.20848
G1 X95.451 Y101.022 E4.21955
G1 F600
G1 X95.336 Y100.854 E4.22416
G1 X95.207 Y100.601 E4.23059
G1 X95.113 Y100.269 E4.23841
G1 F600
G1 X95.095 Y99.842 E4.24677
G1 X95.147 Y99.504 E4.25345
G1 X95.214 Y99.279 E4.25803
G1 X95.421 Y98.842 E4.26748
G1 X95.687 Y98.453 E4.27669
G1 X95.874 Y98.241 E4.28221
G1 X96.209 Y97.938 E4.29105
G1 X96.506 Y97.730 E4.29812
G1 F600
G1 X96.794 Y97.579 E4.30532
G1 X97.061 Y97.477 E4.31161
G1 X97.544 Y97.388 E4.32244
G1 F600
G1 X97.841 Y97.387 E4.32967
G1 X98.040 Y97.417 E4.33456
G1 X98.543 Y97.562 E4.34729
G1 F600
G1 X98.669 Y97.501 E4.35060
G1 F600
G1 X98.965 Y97.291 E4.35842
G1 X99.285 Y97.138 E4.36602
G1 F600
G1 X99.731 Y97.006 E4.37493
G1 X100.170 Y96.959 E4.38335
G1 X100.583 Y96.988 E4.39128
G1 X100.899 Y97.059 E4.39747
G1 X101.234 Y97.181 E4.40429
G1 X101.494 Y97.310 E4.40983
G1 X101.787 Y97.495 E4.41645
G1 X102.097 Y97.757 E4.42421
G1 X102.329 Y98.013 E4.43081
G1 F600
G1 X102.519 Y98.284 E4.43796
G1 X102.684 Y98.594 E4.44554
G1 X102.784 Y98.669 F7800.000
G1 Z6.000 F7800.000
G1 E2.44554 F2400.00000
G92 E0
G1 X99.188 Y100.607 F7800.000
G1 E2.00000 F2400.00000
G1 F600
G1 X99.048 Y100.674 E2.00305
G1 X98.679 Y101.173 E2.01516
G1 X98.487 Y101.372 E2.02055
G1 X98.228 Y101.584 E2.02710
G1 F600
G1 X97.824 Y101.825 E2.03759
G1 X97.552 Y101.930 E2.04410
G1 X97.391 Y101.971 E2.04779
G1 F600
G1 X97.037 Y102.013 E2.05665
G1 X96.797 Y102.001 E2.06261
G1 X96.584 Y101.972 E2.06797
G1 X96.161 Y101.838 E2.07899
G1 X95.798 Y101.641 E2.08925
G1 X95.646 Y101.536 E2.09385
G1 X95.327 Y101.222 E2.10498
G1 F600
G1 X95.221 Y101.068 E2.10917
G1 X95.079 Y100.793 E2.11609
G1 X94.989 Y100.454 E2.12394
G1 F600
G1 X94.973 Y100.183 E2.12936
G1 X94.983 Y99.950 E2.13401
G1 F600
G1 X95.062 Y99.574 E2.14127
G1 X95.239 Y99.137 E2.15015
G1 X95.488 Y98.731 E2.15914
G1 X95.769 Y98.398 E2.16735
G1 F600
G1 X96.133 Y98.075 E2.17759
G1 X96.513 Y97.830 E2.18711
G1 X96.959 Y97.641 E2.19731
G1 X97.316 Y97.565 E2.20499
G1 F600
G1 X97.592 Y97.550 E2.21147
G1 X97.910 Y97.579 E2.21895
G1 X98.056 Y97.615 E2.22248
G1 X98.525 Y97.795 E2.23427
G1 X98.634 Y97.766 E2.23692
G1 X98.716 Y97.704 E2.23934
G1 F600
G1 X99.056 Y97.412 E2.24867
G1 X99.356 Y97.242 E2.25585
G1 X99.752 Y97.096 E2.26462
G1 X100.314 Y97.025 E2.27641
G1 X100.591 Y97.044 E2.28220
G1 X100.932 Y97.111 E2.28943
G1 X101.344 Y97.258 E2.29853
G1 X101.677 Y97.429 E2.30631
G1 X102.022 Y97.662 E2.31499
G1 X102.299 Y97.907 E2.32268
G1 X102.534 Y98.168 E2.33000
G1 X102.738 Y98.450 E2.33723
G1 X102.905 Y98.748 E2.34435
G1 F600
G1 X103.032 Y99.060 E2.35221
G1 X103.119 Y99.404 E2.36051
G1 F600
G1 X103.148 Y99.741 E2.36919
G1 X103.132 Y99.978 E2.37530
G1 F600
G1 X103.091 Y100.185 E2.38119
G1 X102.992 Y100.459 E2.38930
G1 X102.812 Y100.727 E2.39828
G1 X102.588 Y100.929 E2.40668
G1 F600
G1 X102.275 Y101.096 E2.41568
G1 X101.935 Y101.184 E2.42455
G1 F600
G1 X101.499 Y101.219 E2.43465
G1 F600
G1 X100.869 Y101.164 E2.44700
G1 X100.347 Y101.050 E2.45744
G1 X99.810 Y100.865 E2.46853
G1 X99.263 Y100.612 E2.48032
G1 X99.157 Y100.686 F7800.000
G1 Z6.300 F7800.000
G1 X99.188 Y100.594 F7800.000
G1 F600
G1 X99.088 Y100.623 E2.48235
G1 X99.029 Y100.667 E2.48380
G1 X98.804 Y101.038 E2.49232
G1 X98.631 Y101.269 E2.49798
G1 X98.374 Y101.557 E2.50557
G1 X98.131 Y101.771 E2.51191
G1 F600
G1 X97.834 Y101.968 E2.51968
G1 X97.507 Y102.117 E2.52752
G1 F600
G1 X97.235 Y102.191 E2.53425
G1 X96.770 Y102.222 E2.54539
G1 X96.448 Y102.180 E2.55315
G1 X96.030 Y102.042 E2.56369
G1 X95.669 Y101.843 E2.57356
G1 X95.453 Y101.684 E2.57997
G1 X95.191 Y101.407 E2.58909
G1 X94.993 Y101.078 E2.59827
G1 F600
G1 X94.929 Y100.905 E2.60217
G1 X94.868 Y100.647 E2.60776
G1 X94.861 Y100.201 E2.61720
G1 F600
G1 X94.921 Y99.861 E2.62357
G1 X94.996 Y99.621 E2.62821
G1 X95.168 Y99.232 E2.63607
G1 X95.350 Y98.941 E2.64241
G1 F600
G1 X95.667 Y98.560 E2.65271
G1 X95.798 Y98.432 E2.65651
G1 X96.143 Y98.158 E2.66565
G1 X96.409 Y97.991 E2.67216
G1 X96.675 Y97.868 E2.67825
G1 X97.053 Y97.757 E2.68644
G1 F600
G1 X97.334 Y97.715 E2.69305
G1 X97.718 Y97.730 E2.70197
G1 X98.073 Y97.822 E2.71050
G1 X98.411 Y97.986 E2.71923
G1 F600
G1 X98.587 Y98.044 E2.72403
G1 F600
G1 X98.761 Y97.908 E2.72930
G1 F600
G1 X99.058 Y97.606 E2.73820
G1 X99.462 Y97.342 E2.74836
G1 X99.724 Y97.231 E2.75436
G1 X99.955 Y97.168 E2.75938
G1 X100.398 Y97.122 E2.76877
G1 F600
G1 X100.791 Y97.154 E2.77612
G1 X101.115 Y97.229 E2.78233
G1 X101.452 Y97.354 E2.78904
G1 X101.879 Y97.576 E2.79803
G1 X102.141 Y97.751 E2.80391
G1 X102.443 Y97.998 E2.81119
G1 F600
G1 X102.692 Y98.246 E2.81851
G1 X102.862 Y98.453 E2.82409
G1 X103.123 Y98.870 E2.83432
G1 F600
G1 X103.244 Y99.141 E2.84117
G1 X103.349 Y99.513 E2.85009
G1 F600
G1 X103.389 Y99.879 E2.85973
G1 X103.383 Y100.106 E2.86569
G1 F600
G1 X103.334 Y100.408 E2.87446
G1 X103.260 Y100.620 E2.88090
G1 X103.075 Y100.901 E2.89052
G1 X102.993 Y100.992 E2.89403
G1 X102.834 Y101.115 E2.89979
G1 F600
G1 X102.755 Y101.168 E2.90221
G1 X102.444 Y101.302 E2.91086
G1 F600
G1 X102.054 Y101.376 E2.92006
G1 X101.652 Y101.382 E2.92940
G1 F600
G1 X100.992 Y101.294 E2.94248
G1 X100.423 Y101.141 E2.95403
G1 X99.815 Y100.895 E2.96690
G1 X99.262 Y100.603 E2.97919
G1 X99.182 Y100.604 F7800.000
G1 Z6.600 F7800.000
G1 X99.089 Y100.574 F7800.000
G1 F600
G1 X99.009 Y100.631 E2.98117
G1 X98.658 Y101.269 E2.99589
G1 X98.439 Y101.561 E3.00326
G1 X98.217 Y101.801 E3.00986
G1 X98.019 Y101.975 E3.01519
G1 X97.792 Y102.132 E3.02077
G1 F600
G1 X97.462 Y102.301 E3.02914
G1 X97.160 Y102.392 E3.03627
G1 X97.015 Y102.416 E3.03960
G1 F600
G1 X96.606 Y102.431 E3.04974
G1 X96.348 Y102.393 E3.05619
G1 X96.101 Y102.324 E3.06254
G1 X95.755 Y102.181 E3.07182
G1 X95.497 Y102.018 E3.07939
G1 X95.260 Y101.823 E3.08697
G1 F600
G1 X95.055 Y101.593 E3.09394
G1 X94.868 Y101.273 E3.10229
G1 X94.798 Y101.071 E3.10712
G1 X94.749 Y100.840 E3.11244
G1 F600
G1 X94.734 Y100.704 E3.11520
G1 X94.747 Y100.335 E3.12266
G1 X94.830 Y99.954 E3.13057
G1 X94.978 Y99.582 E3.13866
G1 X95.215 Y99.159 E3.14846
G1 X95.533 Y98.752 E3.15892
G1 X95.901 Y98.420 E3.16896
G1 X96.343 Y98.137 E3.17956
G1 X96.650 Y98.006 E3.18633
G1 F600
G1 X97.089 Y97.894 E3.19659
G1 X97.392 Y97.878 E3.20348
G1 X97.737 Y97.919 E3.21135
G1 X98.010 Y98.008 E3.21785
G1 F600
G1 X98.496 Y98.274 E3.23164
G1 F600
G1 X98.645 Y98.325 E3.23604
G1 F600
G1 X98.664 Y98.315 E3.23666
G1 F600
G1 X98.819 Y98.154 E3.24235
G1 F600
G1 X99.105 Y97.811 E3.25271
G1 X99.420 Y97.563 E3.26204
G1 F600
G1 X99.735 Y97.398 E3.26939
G1 X100.012 Y97.306 E3.27543
G1 X100.281 Y97.258 E3.28107
G1 X100.559 Y97.244 E3.28682
G1 X100.930 Y97.277 E3.29453
G1 X101.321 Y97.373 E3.30284
G1 X101.715 Y97.529 E3.31161
G1 X102.052 Y97.703 E3.31946
G1 X102.415 Y97.938 E3.32840
G1 X102.711 Y98.182 E3.33632
G1 X103.012 Y98.496 E3.34531
G1 X103.246 Y98.823 E3.35364
G1 X103.383 Y99.080 E3.35966
G1 F600
G1 X103.562 Y99.579 E3.37176
G1 F600
G1 X103.617 Y99.855 E3.37889
G1 X103.639 Y100.185 E3.38728
G1 F600
G1 X103.613 Y100.524 E3.39673
G1 F600
G1 X103.531 Y100.827 E3.40645
G1 X103.434 Y101.000 E3.41257
G1 X103.330 Y101.129 E3.41768
G1 X103.198 Y101.250 E3.42322
G1 F600
G1 X103.076 Y101.337 E3.42748
G1 X102.899 Y101.418 E3.43301
G1 F600
G1 X102.637 Y101.507 E3.43995
G1 X102.266 Y101.562 E3.44932
G1 F600
G1 X101.737 Y101.549 E3.46137
G1 F600
G1 X101.101 Y101.432 E3.47444
G1 X100.485 Y101.230 E3.48755
G1 X99.914 Y100.969 E3.50022
G1 X99.296 Y100.576 E3.51501
G1 X99.163 Y100.559 E3.51774
G1 X99.081 Y100.625 F7800.000
G1 Z6.900 F7800.000
G1 E1.51774 F2400.00000
G92 E0
G1 X103.152 Y101.545 F7800.000
G1 E2.00000 F2400.00000
G1 F600
G1 X103.315 Y101.452 E2.00387
G1 X103.536 Y101.255 E2.00998
G1 X103.799 Y100.835 E2.02017
G1 X104.025 Y100.926 E2.02520
G1 X103.965 Y101.216 E2.03130
G1 X103.881 Y101.402 E2.03550
G1 X103.729 Y101.582 E2.04036
G1 X103.625 Y101.656 E2.04299
G1 X103.454 Y101.731 E2.04685
G1 X103.243 Y101.779 E2.05131
G1 X103.179 Y101.615 E2.05494
G1 X103.152 Y101.545 F7800.000
G1 X103.678 Y100.500 F7800.000
G1 F600
G1 X103.678 Y100.453 E2.05502
G1 F600
G1 X103.679 Y100.405 E2.05527
G1 F600
G1 X103.701 Y100.364 E2.05568
G1 F600
G1 X103.746 Y100.329 E2.05636
G1 F600
G1 X103.778 Y100.307 E2.05695
G1 F600
G1 X103.819 Y100.278 E2.05787
G1 F600
G1 X103.858 Y100.249 E2.05893
G1 F600
G1 X103.896 Y100.220 E2.06010
G1 X103.839 Y99.913 E2.06766
G1 F600
G1 X103.719 Y99.513 E2.07660
G1 F600
G1 X103.555 Y99.136 E2.08445
G1 X103.396 Y98.866 E2.09045
G1 X103.093 Y98.485 E2.09975
G1 X102.834 Y98.238 E2.10659
G1 X102.486 Y97.982 E2.11486
G1 X102.179 Y97.802 E2.12167
G1 X101.792 Y97.620 E2.12984
G1 F600
G1 X101.408 Y97.486 E2.13850
G1 X101.089 Y97.417 E2.14545
G1 X100.630 Y97.385 E2.15522
G1 F600
G1 X100.302 Y97.420 E2.16315
G1 X100.010 Y97.495 E2.17036
G1 X99.735 Y97.611 E2.17752
G1 X99.422 Y97.811 E2.18643
G1 F600
G1 X99.217 Y97.998 E2.19371
G1 X99.070 Y98.174 E2.19971
G1 X98.860 Y98.492 E2.20970
G1 F600
G1 X98.724 Y98.655 E2.21586
G1 X98.593 Y98.589 E2.22013
G1 F600
G1 X98.462 Y98.522 E2.22383
G1 F600
G1 X98.175 Y98.310 E2.23170
G1 X97.867 Y98.160 E2.23923
G1 X97.514 Y98.064 E2.24731
G1 X97.175 Y98.046 E2.25477
G1 F600
G1 X96.704 Y98.121 E2.26415
G1 X96.475 Y98.198 E2.26892
G1 X96.207 Y98.319 E2.27470
G1 X95.832 Y98.558 E2.28345
G1 X95.449 Y98.915 E2.29376
G1 X95.120 Y99.321 E2.30404
G1 X94.863 Y99.777 E2.31435
G1 X94.714 Y100.148 E2.32221
G1 X94.623 Y100.587 E2.33105
G1 F600
G1 X94.624 Y101.034 E2.34103
G1 X94.683 Y101.295 E2.34700
G1 X94.739 Y101.444 E2.35056
G1 F600
G1 X94.896 Y101.741 E2.35884
G1 X95.091 Y101.987 E2.36658
G1 X95.315 Y102.188 E2.37401
G1 X95.635 Y102.396 E2.38343
G1 X96.092 Y102.580 E2.39559
G1 X96.324 Y102.632 E2.40144
G1 X96.686 Y102.650 E2.41039
G1 F600
G1 X96.983 Y102.615 E2.41704
G1 X97.277 Y102.534 E2.42381
G1 F600
G1 X97.478 Y102.451 E2.42811
G1 X97.748 Y102.294 E2.43430
G1 X98.005 Y102.096 E2.44072
G1 X98.237 Y101.866 E2.44719
G1 X98.447 Y101.612 E2.45371
G1 X98.676 Y101.247 E2.46225
G1 X98.983 Y100.555 E2.47723
G1 X99.052 Y100.497 E2.47902
G1 X99.148 Y100.467 E2.48101
G1 X99.290 Y100.504 E2.48391
G1 X99.715 Y100.852 E2.49480
G1 X100.214 Y101.161 E2.50642
G1 X100.770 Y101.417 E2.51854
G1 X101.262 Y101.585 E2.52883
G1 F600
G1 X101.671 Y101.685 E2.53819
G1 X102.146 Y101.752 E2.54886
G1 F600
G1 X102.587 Y101.762 E2.56002
G1 X103.032 Y102.091 E2.57401
G1 Z7.200 F7800.000
G1 X103.082 Y101.932 F7800.000
G1 F600
G1 X103.360 Y101.859 E2.57994
G1 X103.624 Y101.734 E2.58594
G1 X103.838 Y101.554 E2.59170
G1 X103.937 Y101.429 E2.59500
G1 X104.065 Y101.185 E2.60067
G1 X104.156 Y100.824 E2.60835
G1 X104.401 Y100.843 E2.61341
G1 X104.449 Y101.362 E2.62416
G1 X104.440 Y101.455 E2.62607
M106 S255

G1 F3600
G1 X104.420 Y101.658 E2.63174
G1 X104.344 Y101.875 E2.63813
G1 X104.217 Y102.040 E2.64390
G1 X104.114 Y102.114 E2.64745
G1 X103.964 Y102.177 E2.65195
G1 X103.648 Y102.220 E2.66081
M106 S255

G1 F600
G1 X103.091 Y102.165 E2.67235
G1 X103.085 Y102.007 E2.67561
G1 X103.365 Y101.984 F7800.000
G1 X102.798 Y101.691 F7800.000
G1 F600
G1 X102.540 Y101.949 E2.68292
G1 F600
G1 X102.491 Y101.995 E2.68442
G1 X101.802 Y101.858 E2.70008
G1 F600
G1 X100.965 Y101.582 E2.71777
G1 X100.657 Y101.445 E2.72451
G1 X100.341 Y101.276 E2.73172
G1 X99.794 Y100.895 E2.74508
G1 X99.558 Y100.676 E2.75153
G1 X99.340 Y100.426 E2.75818
G1 F600
G1 X99.233 Y100.352 E2.76126
G1 F600
G1 X99.073 Y100.241 E2.76654
G1 X99.000 Y100.359 E2.77031
G1 F600
G1 X98.926 Y100.477 E2.77355
G1 F600
G1 X98.890 Y100.536 E2.77494
G1 X98.803 Y100.868 E2.78179
G1 X98.661 Y101.244 E2.78982
G1 X98.397 Y101.716 E2.80063
G1 X98.022 Y102.175 E2.81249
G1 X97.613 Y102.513 E2.82310
G1 F600
G1 X97.342 Y102.669 E2.83011
G1 X97.179 Y102.742 E2.83411
G1 X96.945 Y102.812 E2.83959
G1 F600
G1 X96.638 Y102.872 E2.84736
G1 F600
G1 X96.236 Y102.879 E2.85856
G1 X95.791 Y102.782 E2.87125
G1 X95.490 Y102.642 E2.88048
G1 X95.256 Y102.495 E2.88819
G1 X95.042 Y102.311 E2.89607
G1 X94.874 Y102.115 E2.90325
G1 F600
G1 X94.759 Y101.956 E2.90820
G1 X94.642 Y101.728 E2.91467
G1 F600
G1 X94.575 Y101.562 E2.91876
G1 X94.518 Y101.306 E2.92478
G1 F600
G1 X94.489 Y100.953 E2.93205
G1 X94.516 Y100.689 E2.93751
G1 X94.570 Y100.439 E2.94276
G1 X94.656 Y100.172 E2.94851
G1 X94.871 Y99.732 E2.95858
G1 X95.091 Y99.403 E2.96672
G1 X95.425 Y99.016 E2.97721
G1 X95.846 Y98.660 E2.98853
G1 X96.232 Y98.422 E2.99785
G1 X96.603 Y98.285 E3.00596
G1 F600
G1 X96.739 Y98.254 E3.00923
G1 X97.160 Y98.211 E3.01913
G1 X97.397 Y98.233 E3.02467
G1 X97.657 Y98.293 E3.03090
G1 X97.879 Y98.376 E3.03646
G1 X98.069 Y98.481 E3.04153
G1 X98.314 Y98.663 E3.04867
G1 X98.508 Y98.857 E3.05507
G1 F600
G1 X98.666 Y98.978 E3.06041
G1 F600
G1 X98.751 Y99.021 E3.06335
G1 F600
G1 X98.836 Y99.064 E3.06651
G1 X98.912 Y98.948 E3.07112
G1 F600
G1 X98.987 Y98.832 E3.07521
G1 F600
G1 X99.245 Y98.348 E3.08948
G1 F600
G1 X99.501 Y98.054 E3.09871
G1 X99.692 Y97.900 E3.10452
G1 X99.981 Y97.725 E3.11253
G1 X100.411 Y97.583 E3.12326
G1 F600
G1 X100.559 Y97.557 E3.12644
G1 X100.951 Y97.534 E3.13481
G1 F600
G1 X101.305 Y97.570 E3.14157
G1 X101.691 Y97.659 E3.14909
G1 X101.965 Y97.752 E3.15458
G1 X102.355 Y97.923 E3.16268
G1 X102.710 Y98.131 E3.17050
G1 X103.018 Y98.359 E3.17777
G1 X103.340 Y98.677 E3.18637
G1 F600
G1 X103.564 Y98.963 E3.19411
G1 X103.754 Y99.270 E3.20178
G1 X103.952 Y99.677 E3.21143
G1 F600
G1 X104.095 Y100.052 E3.22138
G1 X104.234 Y100.554 E3.23431
G1 Z7.500 F7800.000
G1 X103.263 Y102.296 F7800.000
G1 F600
G1 X103.505 Y102.296 E3.23929
G1 X103.750 Y102.256 E3.24440
G1 X103.979 Y102.169 E3.24945
G1 X104.130 Y102.074 E3.25313
G1 X104.333 Y101.860 E3.25921
G1 X104.475 Y101.555 E3.26614
G1 X104.547 Y101.070 E3.27626
G1 X104.783 Y101.055 E3.28112
G1 X104.877 Y101.396 E3.28841
G1 X104.916 Y101.852 E3.29784
M106 S255

G1 F3600
G1 X104.893 Y102.057 E3.30358
G1 X104.801 Y102.294 E3.31064
G1 X104.664 Y102.467 E3.31677
G1 X104.487 Y102.590 E3.32276
G1 X104.339 Y102.650 E3.32720
G1 X104.078 Y102.691 E3.33452
M106 S255

G1 F600
G1 X103.814 Y102.687 E3.33997
G1 X103.497 Y102.627 E3.34662
G1 X103.226 Y102.544 E3.35246
G1 X103.252 Y102.370 E3.35610
G1 X103.492 Y102.372 F7800.000
G1 X103.028 Y102.010 F7800.000
G1 F600
G1 X102.738 Y102.220 E3.36216
G1 F600
G1 X102.684 Y102.257 E3.36354
G1 F600
G1 X102.657 Y102.276 E3.36435
G1 X102.177 Y102.125 E3.37694
G1 F600
G1 X101.292 Y101.800 E3.39810
G1 F600
G1 X100.892 Y101.618 E3.40687
G1 X100.521 Y101.420 E3.41526
G1 X99.961 Y101.012 E3.42910
G1 X99.730 Y100.781 E3.43561
G1 X99.584 Y100.598 E3.44030
G1 X99.444 Y100.551 E3.44325
G1 F600
G1 X99.164 Y100.455 E3.44844
G1 X98.806 Y100.511 F7800.000
G1 F600
G1 X98.719 Y100.954 E3.45737
G1 X98.578 Y101.370 E3.46606
G1 X98.303 Y101.886 E3.47761
G1 X97.920 Y102.368 E3.48980
G1 X97.655 Y102.610 E3.49687
G1 X97.238 Y102.885 E3.50676
G1 F600
G1 X97.089 Y102.957 E3.51039
G1 F600
G1 X96.741 Y103.097 E3.51954
G1 F600
G1 X96.562 Y103.150 E3.52456
G1 X96.207 Y103.184 E3.53414
G1 F600
G1 X95.841 Y103.149 E3.54515
G1 X95.545 Y103.053 E3.55447
G1 X95.329 Y102.944 E3.56171
G1 X95.058 Y102.754 E3.57162
G1 X94.884 Y102.594 E3.57869
G1 X94.626 Y102.245 E3.59169
G1 F600
G1 X94.454 Y101.844 E3.60335
G1 F600
G1 X94.374 Y101.413 E3.61396
G1 F600
G1 X94.374 Y101.051 E3.62176
G1 X94.433 Y100.703 E3.62937
G1 F600
G1 X94.559 Y100.325 E3.63704
G1 X94.779 Y99.896 E3.64633
G1 X95.107 Y99.439 E3.65715
G1 X95.378 Y99.154 E3.66472
G1 X95.622 Y98.947 E3.67089
G1 X95.876 Y98.762 E3.67694
G1 X96.170 Y98.600 E3.68340
G1 F600
G1 X96.563 Y98.450 E3.69271
G1 X96.795 Y98.404 E3.69793
G1 X97.008 Y98.389 E3.70265
G1 X97.308 Y98.407 E3.70931
G1 X97.447 Y98.435 E3.71245
G1 X97.740 Y98.530 E3.71926
G1 X98.050 Y98.711 E3.72718
G1 X98.267 Y98.886 E3.73335
G1 X98.566 Y99.271 E3.74413
G1 X98.627 Y99.280 E3.74549
G1 F600
G1 X98.698 Y99.294 E3.74687
G1 F600
G1 X98.778 Y99.312 E3.74815
G1 X98.987 Y99.252 E3.75155
G1 F600
G1 X99.127 Y99.212 E3.75438
G1 F600
G1 X99.187 Y99.164 E3.75618
G1 F600
G1 X99.250 Y98.910 E3.76288
G1 X99.359 Y98.661 E3.76985
G1 X99.505 Y98.432 E3.77683
G1 X99.653 Y98.260 E3.78265
G1 X99.781 Y98.142 E3.78712
G1 X100.056 Y97.945 E3.79580
G1 X100.487 Y97.767 E3.80775
G1 F600
G1 X100.821 Y97.702 E3.81561
G1 X101.090 Y97.682 E3.82187
G1 X101.358 Y97.696 E3.82806
G1 F600
G1 X101.773 Y97.770 E3.83673
G1 X102.176 Y97.899 E3.84542
G1 X102.582 Y98.081 E3.85457
G1 X103.010 Y98.349 E3.86497
G1 X103.291 Y98.585 E3.87251
G1 X103.499 Y98.798 E3.87863
G1 X103.713 Y99.057 E3.88554
G1 X103.986 Y99.452 E3.89541
G1 X104.253 Y99.923 E3.90653
G1 F600
G1 X104.464 Y100.385 E3.91845
G1 F600
G1 X104.493 Y100.461 E3.92055
G1 X104.964 Y100.724 E3.93447
G1 E1.93447 F2400.00000
G92 E0
G1 X99.299 Y100.113 F7800.000
G1 E2.00000 F2400.00000
G1 F600
G1 X98.808 Y100.228 E2.01040
G1 X98.800 Y99.919 E2.01677
G1 X98.974 Y99.862 E2.02054
G1 X98.995 Y99.767 E2.02254
G1 X99.232 Y99.770 E2.02742
G1 X99.284 Y100.039 E2.03306
G1 X99.202 Y100.100 F7800.000
G1 E0.03306 F2400.00000
G92 E0
G1 X104.365 Y102.288 F7800.000
G1 E2.00000 F2400.00000
G1 F600
G1 X104.483 Y102.180 E2.00017
G1 X104.540 Y102.098 E2.00027
G1 Z7.800 F7800.000
G1 E0.00027 F2400.00000
G92 E0
G1 X98.676 Y100.174 F7800.000
G1 E2.00000 F2400.00000
G1 F600
G1 X98.681 Y100.717 E2.01076
G1 X98.598 Y101.165 E2.01981
G1 X98.503 Y101.451 E2.02579
G1 X98.388 Y101.734 E2.03184
G1 X98.119 Y102.196 E2.04245
G1 X97.716 Y102.667 E2.05475
G1 F600
G1 X97.355 Y102.990 E2.06586
G1 X96.954 Y103.259 E2.07692
G1 F600
G1 X96.746 Y103.362 E2.08274
G1 F600
G1 X96.555 Y103.438 E2.08843
G1 X96.325 Y103.491 E2.09495
G1 F600
G1 X96.015 Y103.510 E2.10438
G1 X95.627 Y103.454 E2.11628
G1 X95.288 Y103.324 E2.12729
G1 X95.010 Y103.149 E2.13726
G1 F600
G1 X94.696 Y102.855 E2.14936
G1 X94.467 Y102.526 E2.16062
G1 F600
G1 X94.324 Y102.191 E2.17003
G1 F600
G1 X94.238 Y101.783 E2.17973
G1 F600
G1 X94.241 Y101.312 E2.18928
G1 F600
G1 X94.336 Y100.823 E2.19895
G1 X94.488 Y100.423 E2.20726
G1 X94.666 Y100.091 E2.21458
G1 X94.995 Y99.637 E2.22548
G1 X95.357 Y99.271 E2.23549
G1 F600
G1 X95.728 Y98.994 E2.24570
G1 X95.901 Y98.890 E2.25013
G1 X96.206 Y98.745 E2.25759
G1 X96.532 Y98.640 E2.26514
G1 F600
G1 X96.982 Y98.590 E2.27638
G1 X97.281 Y98.619 E2.28382
G1 X97.442 Y98.657 E2.28793
G1 X97.770 Y98.790 E2.29670
G1 X97.932 Y98.900 E2.30156
G1 X98.167 Y99.095 E2.30914
G1 X98.376 Y99.349 E2.31729
G1 F600
G1 X98.578 Y99.750 E2.32723
G1 X98.654 Y100.041 E2.33387
G1 F600
G1 X98.665 Y100.100 E2.33507
G1 X98.746 Y100.204 F7800.000
G1 E0.33507 F2400.00000
G92 E0
G1 X103.704 Y103.030 F7800.000
G1 E2.00000 F2400.00000
G1 F600
G1 X103.734 Y102.772 E2.00537
G1 X103.982 Y102.772 E2.01049
G1 X104.230 Y102.731 E2.01567
G1 X104.439 Y102.651 E2.02029
G1 X104.603 Y102.550 E2.02425
G1 X104.817 Y102.322 E2.03068
G1 X104.962 Y101.982 E2.03831
G1 X105.009 Y101.567 E2.04691
G1 X105.263 Y101.561 E2.05214
G1 X105.325 Y101.946 E2.06017
G1 X105.309 Y102.281 E2.06708
G1 X105.242 Y102.511 E2.07202
G1 X105.097 Y102.748 E2.07774
G1 X104.889 Y102.929 E2.08344
G1 X104.759 Y103.000 E2.08648
G1 X104.575 Y103.065 E2.09051
G1 X104.375 Y103.100 E2.09470
G1 X104.164 Y103.106 E2.09905
G1 X103.777 Y103.047 E2.10712
G1 X103.862 Y102.824 F7800.000
G1 E0.10712 F2400.00000
G92 E0
G1 X105.080 Y101.291 F7800.000
G1 E2.00000 F2400.00000
G1 F640.254
G1 X104.898 Y100.782 E2.01439
G1 X104.726 Y100.404 E2.02546
G1 F640.254
G1 X104.429 Y99.904 E2.03909
G1 F640.254
G1 X104.136 Y99.486 E2.04986
G1 X103.832 Y99.117 E2.05995
G1 F640.254
G1 X103.336 Y98.627 E2.07311
G1 X102.914 Y98.318 E2.08299
G1 X102.602 Y98.149 E2.08970
G1 X102.121 Y97.957 E2.09948
G1 X101.663 Y97.858 E2.10834
G1 F640.254
G1 X101.266 Y97.834 E2.11671
G1 X100.793 Y97.893 E2.12672
G1 F640.254
G1 X100.523 Y97.978 E2.13329
G1 X100.265 Y98.102 E2.13992
G1 F640.254
G1 X99.886 Y98.393 E2.15235
G1 X99.731 Y98.571 E2.15849
G1 X99.597 Y98.780 E2.16495
G1 X99.490 Y99.027 E2.17194
G1 X99.422 Y99.295 E2.17915
G1 X99.397 Y99.548 E2.18576
G1 X99.411 Y99.806 E2.19246
G1 F640.254
G1 X99.473 Y100.096 E2.19938
G1 X99.546 Y100.304 E2.20450
G1 F640.254
G1 X99.679 Y100.573 E2.21083
G1 X99.832 Y100.799 E2.21658
G1 X100.023 Y101.022 E2.22276
G1 X100.240 Y101.224 E2.22901
G1 F640.254
G1 X100.752 Y101.586 E2.24079
G1 X101.527 Y102.002 E2.25731
G1 F640.254
G1 X102.527 Y102.466 E2.28078
G1 F640.254
G1 X103.114 Y102.715 E2.29664
G1 X103.180 Y102.673 E2.29859
G1 F640.254
G1 X103.225 Y102.646 E2.29972
G1 F640.254
G1 X103.492 Y102.463 E2.30557
G1 Z8.100 F7800.000
G1 E0.30557 F2400.00000
G92 E0
G1 X98.473 Y101.389 F7800.000
G1 E2.00000 F2400.00000
G1 F600
G1 X98.307 Y101.856 E2.01019
G1 X98.045 Y102.333 E2.02135
G1 X97.726 Y102.766 E2.03240
G1 X97.305 Y103.210 E2.04498
G1 F600
G1 X96.871 Y103.542 E2.05738
G1 F600
G1 X96.447 Y103.745 E2.06942
G1 F600
G1 X96.109 Y103.823 E2.07913
G1 F600
G1 X95.934 Y103.833 E2.08444
G1 X95.627 Y103.804 E2.09382
G1 X95.330 Y103.722 E2.10318
G1 X95.075 Y103.604 E2.11171
G1 F600
G1 X94.828 Y103.438 E2.12012
G1 X94.632 Y103.255 E2.12769
G1 X94.494 Y103.094 E2.13368
G1 X94.306 Y102.799 E2.14354
G1 F600
G1 X94.147 Y102.397 E2.15471
G1 F600
G1 X94.087 Y102.038 E2.16319
G1 F600
G1 X94.098 Y101.587 E2.17232
G1 F600
G1 X94.205 Y101.075 E2.18256
G1 X94.323 Y100.735 E2.18960
G1 X94.468 Y100.434 E2.19614
G1 X94.775 Y99.969 E2.20706
G1 X95.158 Y99.550 E2.21819
G1 F600
G1 X95.480 Y99.288 E2.22725
G1 X95.790 Y99.089 E2.23529
G1 X96.260 Y98.888 E2.24646
G1 F600
G1 X96.596 Y98.814 E2.25502
G1 X96.979 Y98.801 E2.26456
G1 X97.333 Y98.869 E2.27353
G1 X97.552 Y98.957 E2.27940
G1 X97.821 Y99.115 E2.28717
G1 X98.120 Y99.381 E2.29714
G1 F600
G1 X98.264 Y99.568 E2.30252
G1 X98.385 Y99.785 E2.30818
G1 X98.462 Y99.977 E2.31289
G1 F600
G1 X98.555 Y100.377 E2.32132
G1 X98.569 Y100.776 E2.32951
G1 X98.492 Y101.316 E2.34073
G1 X98.473 Y101.389 F7800.000
G1 E0.34073 F2400.00000
G92 E0
G1 X104.513 Y103.466 F7800.000
G1 E2.00000 F2400.00000
G1 F600
G1 X104.437 Y103.218 E2.00535
G1 X104.905 Y103.011 E2.01590
G1 X105.126 Y102.824 E2.02187
G1 X105.228 Y102.696 E2.02524
G1 X105.354 Y102.453 E2.03090
G1 X105.417 Y102.199 E2.03628
G1 X105.674 Y102.232 E2.04162
G1 X105.672 Y102.461 E2.04634
G1 X105.643 Y102.626 E2.04980
G1 X105.595 Y102.775 E2.05302
G1 X105.458 Y103.020 E2.05881
G1 X105.254 Y103.220 E2.06469
G1 X105.046 Y103.337 E2.06962
G1 X104.863 Y103.401 E2.07361
G1 X104.587 Y103.452 E2.07939
G1 X104.576 Y103.214 F7800.000
G1 X105.565 Y101.941 F7800.000
G1 F626.165
G1 X105.386 Y101.304 E2.09727
G1 X105.232 Y100.935 E2.10808
G1 F626.165
G1 X104.959 Y100.420 E2.12201
G1 X104.690 Y100.022 E2.13350
G1 F626.165
G1 X104.335 Y99.587 E2.14511
G1 X103.989 Y99.225 E2.15544
G1 X103.595 Y98.864 E2.16648
G1 X103.190 Y98.554 E2.17701
G1 X102.786 Y98.318 E2.18668
G1 X102.283 Y98.112 E2.19790
G1 X101.877 Y98.019 E2.20649
G1 X101.579 Y97.992 E2.21267
G1 X101.329 Y97.998 E2.21784
G1 F626.165
G1 X100.909 Y98.074 E2.22760
G1 X100.556 Y98.217 E2.23630
G1 F626.165
G1 X100.308 Y98.374 E2.24375
G1 X100.094 Y98.562 E2.25095
G1 X99.926 Y98.765 E2.25764
G1 X99.806 Y98.967 E2.26362
G1 X99.704 Y99.216 E2.27042
G1 X99.643 Y99.475 E2.27719
G1 X99.625 Y99.825 E2.28606
G1 X99.649 Y100.040 E2.29153
G1 F626.165
G1 X99.719 Y100.333 E2.29842
G1 X99.831 Y100.599 E2.30499
G1 X99.968 Y100.829 E2.31109
G1 F626.165
G1 X100.129 Y101.044 E2.31660
G1 X100.293 Y101.220 E2.32154
G1 X100.784 Y101.614 E2.33445
G1 X102.448 Y102.627 E2.37438
G1 F626.165
G1 X103.184 Y103.035 E2.39437
G1 F626.165
G1 X103.499 Y103.171 E2.40343
G1 X103.742 Y103.251 E2.41019
G1 X103.787 Y103.263 E2.41141
G1 X103.832 Y103.212 E2.41319
G1 F626.165
G1 X103.866 Y103.170 E2.41443
G1 F626.165
G1 X103.901 Y103.128 E2.41546
G1 F626.165
G1 X103.936 Y103.092 E2.41622
G1 F626.165
G1 X103.972 Y103.057 E2.41680
G1 F626.165
G1 X104.016 Y103.058 E2.41717
G1 F626.165
G1 X104.060 Y103.060 E2.41738
G1 F626.165
G1 X104.104 Y103.062 E2.41743
G1 Z8.400 F7800.000
G1 E0.41743 F2400.00000
G92 E0
G1 X98.350 Y101.604 F7800.000
G1 E2.00000 F2400.00000
G1 F600
G1 X98.194 Y102.042 E2.00888
G1 X98.112 Y102.221 E2.01265
G1 X97.906 Y102.593 E2.02075
G1 X97.534 Y103.109 E2.03290
G1 F600
G1 X97.183 Y103.497 E2.04463
G1 X96.787 Y103.820 E2.05609
G1 F600
G1 X96.361 Y104.045 E2.06820
G1 F600
G1 X96.007 Y104.141 E2.07879
G1 X95.811 Y104.155 E2.08449
G1 F600
G1 X95.484 Y104.142 E2.09468
G1 X95.210 Y104.072 E2.10347
G1 X94.819 Y103.853 E2.11745
G1 F600
G1 X94.547 Y103.629 E2.12731
G1 X94.363 Y103.421 E2.13510
G1 X94.207 Y103.190 E2.14289
G1 F600
G1 X94.111 Y103.011 E2.14813
G1 X93.994 Y102.675 E2.15733
G1 F600
G1 X93.938 Y102.297 E2.16618
G1 F600
G1 X93.955 Y101.859 E2.17499
G1 F600
G1 X94.068 Y101.335 E2.18522
G1 X94.243 Y100.869 E2.19471
G1 X94.515 Y100.369 E2.20555
G1 X94.823 Y99.980 E2.21502
G1 X95.012 Y99.786 E2.22019
G1 F600
G1 X95.408 Y99.465 E2.23133
G1 X95.795 Y99.234 E2.24118
G1 X96.044 Y99.135 E2.24705
G1 X96.306 Y99.058 E2.25301
G1 F600
G1 X96.580 Y99.015 E2.25971
G1 X96.876 Y99.012 E2.26687
G1 X97.113 Y99.048 E2.27268
G1 X97.379 Y99.139 E2.27948
G1 X97.791 Y99.390 E2.29116
G1 X98.007 Y99.602 E2.29846
G1 X98.129 Y99.761 E2.30332
G1 F600
G1 X98.312 Y100.106 E2.31187
G1 X98.365 Y100.263 E2.31549
G1 X98.432 Y100.583 E2.32267
G1 F600
G1 X98.443 Y101.052 E2.33162
G1 X98.370 Y101.532 E2.34088
G1 X98.428 Y101.684 F7800.000
G1 E0.34088 F2400.00000
G92 E0
G1 X104.981 Y103.744 F7800.000
G1 E2.00000 F2400.00000
G1 F600
G1 X104.924 Y103.489 E2.00537
G1 X105.038 Y103.450 E2.00786
G1 X105.261 Y103.325 E2.01314
G1 X105.396 Y103.216 E2.01670
G1 X105.566 Y103.025 E2.02197
G1 X105.774 Y102.634 E2.03110
G1 X106.012 Y102.720 E2.03630
G1 X105.928 Y103.123 E2.04478
G1 X105.805 Y103.365 E2.05037
G1 X105.698 Y103.484 E2.05366
G1 X105.609 Y103.552 E2.05598
G1 X105.373 Y103.665 E2.06138
G1 X105.056 Y103.735 E2.06807
G1 X105.061 Y103.495 F7800.000
G1 X105.530 Y102.259 F7800.000
G1 F627.586
G1 X105.750 Y102.093 E2.07429
G1 F627.586
G1 X105.861 Y102.009 E2.07793
G1 X105.857 Y101.987 E2.07852
G1 X105.741 Y101.572 E2.08987
G1 X105.573 Y101.178 E2.10114
G1 F627.586
G1 X105.276 Y100.627 E2.11528
G1 X104.964 Y100.172 E2.12774
G1 F627.586
G1 X104.628 Y99.778 E2.13818
G1 X104.282 Y99.444 E2.14787
G1 X103.777 Y99.030 E2.16102
G1 X103.332 Y98.716 E2.17199
G1 X102.912 Y98.477 E2.18174
G1 X102.485 Y98.298 E2.19105
G1 X102.103 Y98.197 E2.19901
G1 X101.730 Y98.163 E2.20656
G1 F627.586
G1 X101.417 Y98.177 E2.21355
G1 X101.119 Y98.240 E2.22036
G1 F627.586
G1 X100.907 Y98.316 E2.22591
G1 X100.697 Y98.421 E2.23170
G1 X100.523 Y98.545 E2.23696
G1 X100.292 Y98.751 E2.24458
G1 F627.586
G1 X100.123 Y98.971 E2.25204
G1 X99.964 Y99.284 E2.26145
G1 X99.864 Y99.684 E2.27252
G1 X99.853 Y99.918 E2.27881
G1 F627.586
G1 X99.888 Y100.249 E2.28690
G1 X99.998 Y100.602 E2.29591
G1 F627.586
G1 X100.132 Y100.864 E2.30235
G1 X100.270 Y101.062 E2.30763
G1 X100.627 Y101.443 E2.31909
G1 F627.586
G1 X101.242 Y101.939 E2.33415
G1 X102.600 Y102.903 E2.36593
G1 F627.586
G1 X102.942 Y103.130 E2.37483
G1 X103.323 Y103.346 E2.38432
G1 F627.586
G1 X103.766 Y103.535 E2.39589
G1 X104.059 Y103.615 E2.40319
G1 F627.586
G1 X104.322 Y103.653 E2.41030
G1 X104.508 Y103.426 E2.41816
G1 F627.586
G1 X104.602 Y103.313 E2.42168
G1 E0.42168 F2400.00000
G92 E0
M107
; Filament-specific end gcode 
;END gcode for filament

M104 S0 ; turn off temperature
G28 X0  ; home X axis
M84     ; disable motors

M140 S0 ; set bed temperature
; filament used = 12.0mm (0.1cm3)
; total filament cost = 0.0

; avoid_crossing_perimeters = 0
; bed_shape = 0x0,200x0,200x200,0x200
; bed_temperature = 0
; before_layer_gcode = 
; between_objects_gcode = 
; bridge_acceleration = 0
; bridge_fan_speed = 100
; brim_connections_width = 0
; brim_width = 0
; complete_objects = 0
; cooling = 1
; default_acceleration = 0
; disable_fan_first_layers = 3
; duplicate_distance = 6
; end_filament_gcode = "; Filament-specific end gcode \n;END gcode for filament\n"
; end_gcode = M104 S0 ; turn off temperature\nG28 X0  ; home X axis\nM84     ; disable motors\n
; extruder_clearance_height = 20
; extruder_clearance_radius = 20
; extruder_offset = 0x0
; extrusion_axis = E
; extrusion_multiplier = 1
; fan_always_on = 0
; fan_below_layer_time = 60
; filament_colour = #FFFFFF
; filament_cost = 0
; filament_density = 0
; filament_diameter = 3
; filament_max_volumetric_speed = 0
; filament_notes = ""
; first_layer_acceleration = 0
; first_layer_bed_temperature = 0
; first_layer_extrusion_width = 200%
; first_layer_speed = 30
; first_layer_temperature = 205
; gcode_arcs = 0
; gcode_comments = 0
; gcode_flavor = reprap
; has_heatbed = 1
; infill_acceleration = 0
; infill_first = 0
; interior_brim_width = 0
; layer_gcode = 
; max_fan_speed = 100
; max_layer_height = 0.3
; max_print_speed = 80
; max_volumetric_speed = 0
; min_fan_speed = 35
; min_layer_height = 0.15
; min_print_speed = 10
; min_skirt_length = 0
; notes = 
; nozzle_diameter = 0.5
; only_retract_when_crossing_perimeters = 1
; ooze_prevention = 0
; output_filename_format = [input_filename_base].gcode
; perimeter_acceleration = 0
; post_process = 
; pressure_advance = 0
; printer_notes = 
; resolution = 0
; retract_before_travel = 2
; retract_layer_change = 0
; retract_length = 2
; retract_length_toolchange = 10
; retract_lift = 0
; retract_lift_above = 0
; retract_lift_below = 0
; retract_restart_extra = 0
; retract_restart_extra_toolchange = 0
; retract_speed = 40
; skirt_distance = 6
; skirt_height = 1
; skirts = 0
; slowdown_below_layer_time = 5
; spiral_vase = 0
; standby_temperature_delta = -5
; start_filament_gcode = "; Filament gcode\n"
; start_gcode = G28 ; home all axes\nG1 Z5 F5000 ; lift nozzle\n
; temperature = 200
; threads = 8
; toolchange_gcode = 
; travel_speed = 130
; use_firmware_retraction = 0
; use_relative_e_distances = 0
; use_set_and_wait_bed = 0
; use_set_and_wait_extruder = 0
; use_volumetric_e = 0
; vibration_limit = 0
; wipe = 0
; z_offset = 0
; z_steps_per_mm = 0
; adaptive_slicing = 0
; adaptive_slicing_quality = 75%
; dont_support_bridges = 1
; extrusion_width = 0
; first_layer_height = 0.3
; infill_only_where_needed = 0
; interface_shells = 0
; layer_height = 0.3
; match_horizontal_surfaces = 0
; raft_layers = 0
; regions_overlap = 0
; seam_position = aligned
; sequential_print_priority = 0
; support_material = 0
; support_material_angle = 0
; support_material_buildplate_only = 0
; support_material_contact_distance = 0.2
; support_material_enforce_layers = 0
; support_material_extruder = 1
; support_material_extrusion_width = 0
; support_material_interface_extruder = 1
; support_material_interface_extrusion_width = 0
; support_material_interface_layers = 3
; support_material_interface_spacing = 0
; support_material_interface_speed = 100%
; support_material_max_layers = 0
; support_material_pattern = pillars
; support_material_spacing = 2.5
; support_material_speed = 60
; support_material_threshold = 60%
; xy_size_compensation = 0
; bottom_infill_pattern = rectilinear
; bottom_solid_layers = 3
; bridge_flow_ratio = 1
; bridge_speed = 60
; external_perimeter_extrusion_width = 0
; external_perimeter_speed = 50%
; external_perimeters_first = 0
; extra_perimeters = 1
; fill_angle = 45
; fill_density = 20%
; fill_gaps = 1
; fill_pattern = stars
; gap_fill_speed = 20
; infill_every_layers = 1
; infill_extruder = 1
; infill_extrusion_width = 0
; infill_overlap = 55%
; infill_speed = 80
; overhangs = 1
; perimeter_extruder = 1
; perimeter_extrusion_width = 0
; perimeter_speed = 60
; perimeters = 3
; small_perimeter_speed = 15
; solid_infill_below_area = 70
; solid_infill_every_layers = 0
; solid_infill_extruder = 1
; solid_infill_extrusion_width = 0
; solid_infill_speed = 20
; thin_walls = 1
; top_infill_extrusion_width = 0
; top_infill_pattern = rectilinear
; top_solid_infill_speed = 15
; top_solid_layers = 3
