; generated by Slic3r 1.3.0 on 2021-03-10 at 14:11:46

; external perimeters extrusion width = 0.55mm (5.57mm^3/s)
; perimeters extrusion width = 0.58mm (11.78mm^3/s)
; infill extrusion width = 0.58mm (15.71mm^3/s)
; solid infill extrusion width = 0.58mm (3.93mm^3/s)
; top infill extrusion width = 0.58mm (2.95mm^3/s)

M107
M104 S205 ; set temperature
G28 ; home all axes
G1 Z5 F5000 ; lift nozzle

; Filament gcode

M109 S205 ; set temperature and wait for it to be reached
G21 ; set units to millimeters
G90 ; use absolute coordinates
M82 ; use absolute distances for extrusion
G92 E0
G1 Z0.400 F7800.000
G1 E-2.00000 F2400.00000
G92 E0
G1 X93.076 Y89.569 F7800.000
G1 E2.00000 F2400.00000
G1 F1800
G1 X88.835 Y93.811 E2.24242
G1 X88.836 Y94.327 E2.26328
G1 X88.909 Y94.812 E2.28311
G1 X88.971 Y95.046 E2.29288
G1 X89.072 Y95.308 E2.30424
G1 X90.692 Y93.688 E2.39684
G1 X90.749 Y93.985 E2.40904
G1 X91.025 Y94.554 E2.43460
G1 X91.274 Y94.842 E2.44999
G1 X89.682 Y96.434 E2.54100
G1 X89.979 Y96.834 E2.56115
G1 X90.475 Y97.376 E2.59083
G1 X92.335 Y95.516 E2.69714
G1 X92.560 Y95.594 E2.70677
G1 X93.191 Y95.640 E2.73234
G1 X93.812 Y95.521 E2.75790
G1 X94.305 Y95.282 E2.78002
G1 X93.083 Y96.504 E2.84986
G1 X93.386 Y96.201 F7800.000
G1 F1800
G1 X91.427 Y98.160 E2.96186
G1 X91.960 Y98.489 E2.98716
G1 X92.552 Y98.771 E3.01367
G1 X93.386 Y97.937 E3.06134
G1 X93.458 Y98.031 E3.06613
G1 X93.740 Y98.247 E3.08048
G1 X94.068 Y98.383 E3.09483
G1 X94.420 Y98.429 E3.10918
G1 X94.661 Y98.397 E3.11899
G1 X93.723 Y99.335 E3.17254
G1 X94.772 Y100.021 F7800.000
G1 F1800
G1 X97.804 Y96.989 E3.34584
G1 X97.546 Y97.096 E3.35716
G1 X97.206 Y97.141 E3.37099
G1 X96.867 Y97.096 E3.38481
G1 X96.551 Y96.965 E3.39864
G1 X96.292 Y96.766 E3.41186
G1 X95.280 Y97.778 E3.46968
G1 X95.312 Y97.538 E3.47948
G1 X95.265 Y97.185 E3.49383
G1 X95.129 Y96.857 E3.50818
G1 X94.913 Y96.576 E3.52253
G1 X94.819 Y96.503 E3.52733
G1 X96.018 Y95.305 E3.59585
G1 X95.549 Y95.773 F7800.000
G1 F1800
G1 X95.603 Y95.644 E3.60150
G1 X95.811 Y95.373 E3.61533
G1 X96.083 Y95.164 E3.62915
G1 X96.212 Y95.111 E3.63480
G1 X98.385 Y92.937 E3.75904
G1 X99.036 Y94.022 E3.81016
G1 X97.673 Y95.385 E3.88806
G1 X97.896 Y96.897 F7800.000
G1 F1800
G1 X100.474 Y94.320 E4.03536
G1 X100.368 Y92.690 E4.10138
G1 X99.613 Y93.445 E4.14454
G1 X99.696 Y92.165 E4.19635
G1 X99.836 Y92.165 E4.20200
G1 X99.900 Y93.158 E4.24223
G1 E2.24223 F2400.00000
G92 E0
G1 X101.952 Y92.842 F7800.000
G1 E2.00000 F2400.00000
G1 F1800
G1 X105.341 Y89.452 E2.19371
G1 E0.19371 F2400.00000
G92 E0
G1 X104.054 Y95.946 F7800.000
G1 E2.00000 F2400.00000
G1 F1800
G1 X105.432 Y94.568 E2.07873
G1 X105.254 Y94.305 E2.09157
G1 X105.046 Y93.708 E2.11713
G1 X105.013 Y93.251 E2.13562
G1 X103.204 Y95.061 E2.23904
G1 X103.133 Y95.031 E2.24215
G1 X102.794 Y94.987 E2.25597
G1 X102.454 Y95.031 E2.26980
G1 X102.142 Y95.160 E2.28346
G1 X101.867 Y95.370 E2.29745
G1 X101.659 Y95.642 E2.31128
G1 X101.528 Y95.958 E2.32510
G1 X101.483 Y96.297 E2.33893
G1 X101.528 Y96.636 E2.35275
G1 X101.557 Y96.707 E2.35586
G1 E0.35586 F2400.00000
G92 E0
G1 X104.223 Y97.513 F7800.000
G1 E2.00000 F2400.00000
G1 F1800
G1 X104.266 Y97.183 E2.01343
G1 X104.402 Y96.855 E2.02778
G1 X104.618 Y96.574 E2.04213
G1 X104.900 Y96.357 E2.05648
G1 X105.228 Y96.221 E2.07083
G1 X105.557 Y96.178 E2.08427
G1 X106.360 Y95.375 E2.13015
G1 X106.656 Y95.519 E2.14344
G1 X107.277 Y95.638 E2.16900
G1 X107.876 Y95.595 E2.19328
G1 X106.696 Y96.775 E2.26073
G1 E0.26073 F2400.00000
G92 E0
G1 X106.158 Y99.049 F7800.000
G1 E2.00000 F2400.00000
G1 F1800
G1 X111.139 Y94.067 E2.28470
G1 X111.175 Y93.591 E2.30400
G1 X111.138 Y93.091 E2.32424
G1 X111.028 Y92.603 E2.34449
G1 X110.983 Y92.488 E2.34946
G1 X109.306 Y94.165 E2.44535
G1 X109.370 Y93.830 E2.45916
G1 X109.324 Y93.199 E2.48472
G1 X109.121 Y92.614 E2.50974
G1 X110.376 Y91.360 E2.58144
G1 X109.989 Y90.900 E2.60572
G1 X109.517 Y90.483 E2.63116
G1 X108.312 Y91.688 E2.70005
G1 X107.715 Y91.388 E2.72707
G1 X107.093 Y91.269 E2.75263
G1 X106.988 Y91.276 E2.75689
G1 X108.418 Y89.847 E2.83859
G1 X108.078 Y89.724 E2.85319
G1 X107.714 Y89.626 E2.86845
G1 X107.011 Y89.518 E2.89719
G1 X94.497 Y102.032 E3.61240
G1 X91.179 Y103.614 E3.76093
G1 X93.814 Y100.979 E3.91153
G1 X90.497 Y102.561 E4.06006
G1 X87.862 Y105.196 E4.21067
G1 X87.666 Y105.290 E4.21943
G1 X87.675 Y105.383 E4.22322
G1 X88.144 Y104.914 F7800.000
G1 F1800
G1 X84.544 Y108.514 E4.42894
G1 X84.488 Y108.857 E4.44298
G1 X84.475 Y109.115 E4.45342
G1 X84.489 Y109.389 E4.46452
G1 X84.530 Y109.661 E4.47563
G1 X84.670 Y110.124 E4.49518
G1 X87.390 Y107.403 E4.65068
G1 X87.720 Y107.759 E4.67027
G1 X91.351 Y105.178 E4.85032
G1 X86.215 Y110.314 E5.14386
G1 X86.585 Y110.227 E5.15923
G1 X87.178 Y110.033 E5.18446
G1 X88.319 Y109.557 E5.23441
G1 X89.069 Y109.195 E5.26805
G1 X98.613 Y99.652 E5.81350
G1 X99.016 Y98.739 E5.85382
G1 X99.141 Y99.124 E5.87015
G1 X102.026 Y96.239 E6.03504
G1 X102.127 Y96.484 E6.04576
G1 X102.336 Y96.755 E6.05958
G1 X102.607 Y96.963 E6.07341
G1 X102.911 Y97.089 E6.08670
G1 X100.744 Y99.256 E6.21052
G1 X101.290 Y100.445 E6.26342
G1 X104.691 Y97.044 E6.45779
G1 X104.735 Y97.419 E6.47303
G1 X104.871 Y97.747 E6.48738
G1 X105.087 Y98.029 E6.50173
G1 X105.288 Y98.183 E6.51198
G1 X101.898 Y101.573 E6.70573
G1 X102.265 Y102.176 E6.73425
G1 X102.571 Y102.636 E6.75657
G1 X103.337 Y101.869 E6.80038
G1 X103.121 Y101.716 E6.81110
G1 X103.396 Y101.249 E6.83299
G1 X103.776 Y101.430 E6.85004
G1 X104.544 Y100.663 E6.89390
G1 X104.063 Y100.434 E6.91540
G1 X104.203 Y99.952 E6.93568
G1 X105.141 Y100.065 E6.97386
G1 X106.283 Y98.923 E7.03913
G1 X106.314 Y99.200 E7.05039
G1 X107.742 Y99.200 E7.10806
G1 X106.689 Y100.253 E7.16819
G1 X108.238 Y100.440 E7.23121
G1 X109.477 Y99.201 E7.30203
G1 X111.010 Y99.201 E7.36399
G1 X111.064 Y99.349 E7.37035
G1 X109.786 Y100.627 E7.44340
G1 X109.856 Y100.636 E7.44628
G1 X109.855 Y101.335 E7.47453
G1 X109.928 Y101.767 E7.49223
G1 X109.989 Y101.971 E7.50085
G1 X110.047 Y102.101 E7.50661
G1 X111.546 Y100.602 E7.59227
G1 X112.070 Y101.814 E7.64561
G1 X109.652 Y104.232 E7.78383
G1 X110.827 Y104.792 E7.83644
G1 X112.630 Y102.989 E7.93949
G1 X113.226 Y104.129 E7.99146
G1 X111.843 Y105.512 E8.07051
G1 X111.820 Y106.014 E8.09085
G1 X111.848 Y106.285 E8.10185
G1 X111.901 Y106.552 E8.11286
G1 X112.069 Y107.021 E8.13299
G1 X113.858 Y105.233 E8.23521
G1 X114.521 Y106.305 E8.28615
G1 X111.254 Y109.572 E8.47291
G1 X112.487 Y110.075 E8.52672
G1 X115.203 Y107.358 E8.68196
G1 X115.307 Y107.574 E8.69162
G1 X115.402 Y107.832 E8.70273
G1 X115.470 Y108.098 E8.71383
G1 X115.511 Y108.369 E8.72493
G1 X115.518 Y108.779 E8.74148
G1 X113.858 Y110.439 E8.83634
G1 E6.83634 F2400.00000
G92 E0
G1 X110.081 Y109.009 F7800.000
G1 E2.00000 F2400.00000
G1 F1800
G1 X111.922 Y107.169 E2.10520
G1 X110.907 Y106.448 E2.15550
G1 X108.957 Y108.398 E2.26697
G1 X107.874 Y107.745 E2.31807
G1 X109.893 Y105.727 E2.43344
G1 X108.878 Y105.006 E2.48373
G1 X106.826 Y107.058 E2.60105
G1 X106.476 Y106.811 E2.61836
G1 X105.851 Y106.298 E2.65105
G1 X107.864 Y104.285 E2.76611
G1 X106.849 Y103.564 E2.81641
G1 X104.946 Y105.467 E2.92522
G1 X104.094 Y104.583 E2.97482
G1 X105.835 Y102.843 E3.07429
G1 X104.820 Y102.122 E3.12459
G1 X103.304 Y103.638 E3.21125
G1 X102.571 Y102.636 E3.26144
G1 X103.776 Y101.430 F7800.000
G1 F1800
G1 X104.951 Y101.991 E3.31405
G1 X106.188 Y100.754 E3.38470
G1 X107.363 Y101.315 E3.43731
G1 X106.127 Y102.551 E3.50795
G1 X107.302 Y103.111 E3.56057
G1 X108.538 Y101.875 E3.63121
G1 X109.713 Y102.436 E3.68383
G1 X108.477 Y103.672 E3.75447
G1 E1.75447 F2400.00000
G92 E0
G1 X100.059 Y99.941 F7800.000
G1 E2.00000 F2400.00000
G1 F1800
G1 X100.518 Y99.938 E2.01854
G1 X100.489 Y99.789 E2.02467
G1 X100.624 Y99.376 E2.04224
G1 X99.590 Y100.410 E2.10131
G1 X99.081 Y99.183 F7800.000
G1 F1800
G1 X98.552 Y100.298 E2.15120
G1 X98.171 Y100.993 E2.18324
G1 X97.760 Y101.671 E2.21527
G1 X97.322 Y102.331 E2.24730
G1 X96.855 Y102.972 E2.27933
G1 X96.361 Y103.592 E2.31136
G1 X96.051 Y103.949 E2.33046
G1 X93.843 Y106.157 E2.45666
G1 E0.45666 F2400.00000
G92 E0
G1 X92.798 Y100.260 F7800.000
G1 E2.00000 F2400.00000
G1 F1800
G1 X93.856 Y99.202 E2.06045
G1 X92.120 Y99.203 E2.13060
G1 X90.824 Y100.499 E2.20468
G1 X89.665 Y100.639 E2.25186
G1 X89.686 Y101.095 E2.27032
G1 X89.652 Y101.532 E2.28802
G1 X89.605 Y101.717 E2.29573
G1 X86.833 Y104.490 E2.45420
G1 X87.451 Y103.301 E2.50834
G1 X87.806 Y102.558 E2.54162
G1 X88.410 Y101.177 E2.60255
G1 X90.384 Y99.203 E2.71535
G1 E0.71535 F2400.00000
G92 E0
G1 X90.224 Y94.157 F7800.000
G1 E2.00000 F2400.00000
G1 F1800
G1 X90.161 Y93.832 E2.01336
G1 X90.207 Y93.201 E2.03893
G1 X90.414 Y92.604 E2.06449
G1 X90.769 Y92.080 E2.09005
G1 X91.248 Y91.666 E2.11562
G1 X91.817 Y91.390 E2.14118
G1 X92.438 Y91.271 E2.16675
G1 X93.064 Y91.316 E2.19213
G1 X94.930 Y89.451 E2.29875
G1 X95.354 Y89.455 E2.31590
G1 X96.350 Y89.546 E2.35629
G1 X96.432 Y89.684 E2.36277
G1 X94.212 Y91.904 E2.48967
G1 X94.604 Y92.357 E2.51388
G1 X94.887 Y92.964 E2.54096
G1 X97.083 Y90.768 E2.66647
G1 X97.734 Y91.853 E2.71758
G1 X94.610 Y94.977 E2.89613
M104 S200 ; set temperature
G1 Z0.800 F7800.000
G1 X94.402 Y96.137 F7800.000
G1 F4057.99
G1 X93.685 Y95.420 E2.92430
G1 X93.387 Y95.564 E2.93348
G1 X92.766 Y95.683 E2.95105
G1 X92.169 Y95.640 E2.96767
G1 X88.902 Y94.109 F7800.000
G1 F4057.99
G1 X93.802 Y99.008 E3.16014
G1 X95.138 Y98.609 F7800.000
G1 F4057.99
G1 X95.057 Y98.672 E3.16300
G1 X94.729 Y98.808 E3.17287
G1 X94.377 Y98.854 E3.18273
G1 X94.025 Y98.808 E3.19260
G1 X93.696 Y98.672 E3.20246
G1 X93.415 Y98.456 E3.21232
G1 X93.199 Y98.174 E3.22219
G1 X93.167 Y98.098 E3.22447
G1 X93.063 Y97.846 E3.23205
G1 X93.016 Y97.494 E3.24191
G1 X93.063 Y97.142 E3.25178
G1 X93.199 Y96.814 E3.26164
G1 X93.261 Y96.732 E3.26450
G1 X92.551 Y96.022 E3.29240
G1 X91.919 Y95.812 E3.31089
G1 X91.396 Y95.457 E3.32846
G1 X90.982 Y94.979 E3.34604
G1 X90.706 Y94.410 E3.36361
G1 X90.651 Y94.122 E3.37176
G1 X89.061 Y92.532 E3.43421
G1 X89.196 Y92.181 E3.44465
G1 X89.372 Y91.847 E3.45515
G1 X89.668 Y91.404 E3.46995
G1 X90.836 Y92.571 E3.51580
G1 X91.195 Y92.037 E3.53369
G1 X91.646 Y91.646 E3.55027
G1 X90.527 Y90.527 E3.59421
G1 X90.938 Y90.239 E3.60816
G1 X91.266 Y90.055 E3.61861
G1 X91.627 Y89.892 E3.62960
G1 X92.971 Y91.235 E3.68238
G1 X98.001 Y92.795 F7800.000
G1 F4057.99
G1 X94.704 Y89.498 E3.81190
G1 X94.091 Y89.489 E3.82895
G1 X93.035 Y89.564 E3.85835
G1 X105.456 Y101.985 E4.34629
G1 X103.821 Y101.205 E4.39661
G1 X103.546 Y101.672 E4.41166
G1 X109.067 Y105.596 E4.59978
G1 X108.685 Y105.214 F7800.000
G1 F4057.99
G1 X113.739 Y110.268 E4.79832
G1 X114.289 Y110.397 E4.81403
G1 X115.078 Y110.496 E4.83611
G1 X115.286 Y110.080 E4.84905
G1 X112.652 Y107.445 E4.95254
G1 X112.668 Y107.428 E4.95319
G1 X112.258 Y106.873 E4.97236
G1 X112.130 Y106.638 E4.97978
G1 X112.025 Y106.387 E4.98735
G1 X111.945 Y106.127 E4.99491
G1 X111.891 Y105.860 E5.00247
G1 X111.864 Y105.589 E5.01004
G1 X111.864 Y105.317 E5.01760
G1 X111.899 Y104.957 E5.02764
G1 X115.413 Y108.471 E5.16566
G1 X110.883 Y109.148 F7800.000
G1 F4057.99
G1 X100.968 Y99.233 E5.55517
G1 X101.492 Y100.339 E5.58917
G1 X101.873 Y101.034 E5.61119
G1 X102.283 Y101.713 E5.63321
G1 X102.722 Y102.373 E5.65522
G1 X103.189 Y103.013 E5.67724
G1 X103.682 Y103.633 E5.69926
G1 X104.006 Y104.006 E5.71299
G1 X106.094 Y106.094 E5.79498
G1 X105.698 Y105.741 E5.80970
G1 X105.129 Y105.189 E5.83172
G1 X104.388 Y104.388 E5.86202
G1 E3.86202 F2400.00000
G92 E0
G1 X106.225 Y101.019 F7800.000
G1 E2.00000 F2400.00000
G1 F4057.99
G1 X108.773 Y103.567 E2.10010
G1 X112.091 Y105.149 E2.20220
G1 X109.542 Y102.600 E2.30230
G1 X110.455 Y103.036 E2.33040
G1 X110.741 Y102.660 E2.34351
G1 X110.330 Y102.145 E2.36182
G1 X110.219 Y101.963 E2.36774
G1 X110.035 Y101.550 E2.38028
G1 X109.969 Y101.291 E2.38771
G1 X113.126 Y104.449 E2.51176
G1 X111.548 Y101.135 F7800.000
G1 F4057.99
G1 X109.657 Y99.244 E2.58603
G1 X107.922 Y99.244 E2.63425
G1 X109.130 Y100.453 E2.68174
G1 X107.156 Y100.214 E2.73699
G1 X106.233 Y99.291 F7800.000
G1 F4057.99
G1 X106.213 Y99.114 E2.74193
G1 X107.052 Y98.867 E2.76622
G1 X107.403 Y98.726 E2.77673
G1 X106.657 Y97.979 E2.80606
G1 X106.801 Y97.790 E2.81267
G1 X106.937 Y97.462 E2.82254
G1 X106.984 Y97.110 E2.83240
G1 X106.937 Y96.758 E2.84227
G1 X106.801 Y96.430 E2.85213
G1 X106.664 Y96.251 E2.85839
G1 X108.529 Y98.116 E2.93163
G1 E0.93163 F2400.00000
G92 E0
G1 X106.116 Y95.703 F7800.000
G1 E2.00000 F2400.00000
G1 F4057.99
G1 X106.044 Y95.668 E2.00224
G1 X105.565 Y95.254 E2.01981
G1 X105.351 Y94.938 E2.03042
G1 X102.308 Y91.895 E2.14994
G1 X102.959 Y90.811 E2.18508
G1 X105.069 Y92.920 E2.26795
G1 X105.353 Y92.311 E2.28661
G1 X105.744 Y91.860 E2.30321
G1 X103.610 Y89.726 E2.38702
G1 X103.693 Y89.589 E2.39147
G1 X104.412 Y89.513 E2.41154
G1 X105.110 Y89.490 E2.43095
G1 X106.890 Y91.271 E2.50089
G1 E0.50089 F2400.00000
G92 E0
G1 X110.730 Y93.375 F7800.000
G1 E2.00000 F2400.00000
G1 F4057.99
G1 X110.712 Y93.135 E2.00669
G1 X110.602 Y92.646 E2.02061
G1 X110.420 Y92.175 E2.03464
G1 X110.246 Y91.844 E2.04502
G1 X110.044 Y91.526 E2.05551
G1 X109.816 Y91.225 E2.06600
G1 X109.563 Y90.944 E2.07649
G1 X109.289 Y90.684 E2.08698
G1 X108.994 Y90.448 E2.09747
G1 X108.681 Y90.237 E2.10796
G1 X108.352 Y90.053 E2.11844
G1 X108.008 Y89.896 E2.12893
G1 X107.716 Y89.790 E2.13757
G1 X107.287 Y89.669 E2.14995
G1 X106.965 Y89.610 E2.15905
G1 X111.112 Y93.757 E2.32197
G1 X110.884 Y95.264 F7800.000
G1 F4057.99
G1 X109.351 Y93.731 E2.38219
G1 X109.294 Y94.026 E2.39053
G1 X109.018 Y94.595 E2.40810
G1 X108.768 Y94.884 E2.41872
G1 X110.274 Y96.390 E2.47786
G1 X109.977 Y96.789 E2.49167
G1 X109.480 Y97.332 E2.51212
G1 X107.707 Y95.558 E2.58180
G1 X107.483 Y95.636 E2.58837
G1 X106.852 Y95.681 E2.60594
G1 X106.231 Y95.562 E2.62351
G1 X105.734 Y95.321 E2.63885
G1 X106.864 Y96.451 E2.68323
G1 X106.685 Y96.314 E2.68950
G1 X106.357 Y96.178 E2.69936
G1 X106.005 Y96.132 E2.70922
G1 X105.653 Y96.178 E2.71909
G1 X105.340 Y96.303 E2.72845
G1 X105.136 Y96.459 E2.73558
G1 X104.027 Y95.349 E2.77916
G1 X104.103 Y95.533 E2.78466
G1 X104.147 Y95.872 E2.79417
G1 X104.103 Y96.211 E2.80367
G1 X103.972 Y96.527 E2.81317
G1 X103.750 Y96.808 E2.82312
G1 X104.677 Y97.735 E2.85951
G1 X104.691 Y97.844 E2.86257
G1 X104.827 Y98.172 E2.87243
G1 X105.043 Y98.454 E2.88230
G1 X105.325 Y98.670 E2.89216
G1 X105.653 Y98.806 E2.90203
G1 X105.762 Y98.820 E2.90508
G1 X106.233 Y99.291 E2.92359
G1 X106.271 Y99.625 E2.93293
G1 X106.567 Y99.625 E2.94116
G1 X107.156 Y100.214 E2.96429
G1 X105.182 Y99.975 E3.01953
G1 X102.235 Y97.029 E3.13528
G1 E1.13528 F2400.00000
G92 E0
G1 X103.741 Y95.064 F7800.000
G1 E2.00000 F2400.00000
G1 F4057.99
G1 X101.657 Y92.980 E2.08187
G1 X101.006 Y94.064 E2.11700
G1 X102.282 Y95.340 E2.16713
G1 X101.768 Y96.010 E2.19059
G1 X101.940 Y96.010 E2.19538
G1 X101.908 Y96.254 E2.20220
G1 X101.953 Y96.593 E2.21170
G1 X102.062 Y96.855 E2.21960
G1 X99.570 Y94.363 E2.31749
G1 F4057.99
G1 X99.675 Y92.733 E2.36287
G1 X100.343 Y93.401 E2.38912
G1 E0.38912 F2400.00000
G92 E0
G1 X96.754 Y95.019 F7800.000
G1 E2.00000 F2400.00000
G1 F4057.99
G1 X95.030 Y93.295 E2.06773
G1 X94.997 Y93.753 E2.08049
G1 X94.790 Y94.351 E2.09806
G1 X94.612 Y94.612 E2.10684
G1 X95.903 Y95.903 E2.15754
G1 X95.853 Y96.256 E2.16744
G1 X95.897 Y96.595 E2.17694
G1 X96.028 Y96.911 E2.18645
G1 X96.236 Y97.182 E2.19595
G1 X96.508 Y97.391 E2.20545
G1 X96.824 Y97.522 E2.21495
G1 X97.163 Y97.566 E2.22446
G1 X97.516 Y97.516 E2.23436
G1 X98.831 Y98.831 F7800.000
G1 F4057.99
G1 X99.059 Y98.314 E2.25006
G1 X99.419 Y99.419 E2.28232
G1 X100.364 Y100.364 E2.31948
G1 X100.815 Y99.080 F7800.000
G1 F4057.99
G1 X98.018 Y96.283 E2.42935
G1 X97.916 Y96.529 E2.43677
G1 X97.708 Y96.801 E2.44627
G1 X97.436 Y97.009 E2.45577
G1 X97.134 Y97.134 E2.46486
G1 X99.213 Y99.213 E2.54652
G1 X98.667 Y100.402 E2.58288
G1 X95.352 Y97.087 E2.71311
G1 X95.309 Y97.464 E2.72366
G1 X95.173 Y97.792 E2.73352
G1 X94.957 Y98.074 E2.74338
G1 X94.757 Y98.228 E2.75039
G1 X98.060 Y101.531 E2.88014
G1 X97.717 Y102.097 E2.89851
G1 X97.387 Y102.593 E2.91508
G1 X96.239 Y101.445 E2.96018
G1 X95.224 Y102.166 E2.99475
G1 X96.653 Y103.595 E3.05089
G1 X96.318 Y104.017 E3.06587
G1 X95.862 Y104.540 E3.08512
G1 X94.210 Y102.887 E3.15003
G1 X93.195 Y103.608 E3.18460
G1 X95.012 Y105.425 E3.25597
G1 X94.108 Y106.256 E3.29009
G1 X92.181 Y104.329 E3.36579
G1 X91.166 Y105.050 E3.40037
G1 X93.132 Y107.016 E3.47759
G1 X92.084 Y107.703 E3.51241
G1 X90.152 Y105.771 E3.58830
G1 X89.137 Y106.492 E3.62288
G1 X91.001 Y108.356 E3.69609
G1 X89.989 Y108.913 E3.72818
G1 X89.877 Y108.967 E3.73164
G1 X88.123 Y107.213 E3.80055
G1 E1.80055 F2400.00000
G92 E0
G1 X84.909 Y109.206 F7800.000
G1 E2.00000 F2400.00000
G1 F4057.99
G1 X84.955 Y109.617 E2.01149
G1 X85.023 Y109.883 E2.01912
G1 X85.117 Y110.142 E2.02675
G1 X85.304 Y110.499 E2.03794
G1 X86.100 Y110.397 E2.06024
G1 X84.528 Y108.824 E2.12201
G1 X84.532 Y108.415 E2.13338
G1 X84.574 Y108.143 E2.14102
G1 X84.642 Y107.877 E2.14865
G1 X84.736 Y107.619 E2.15628
G1 X84.841 Y107.402 E2.16297
G1 X87.471 Y110.033 E2.26629
G1 X88.704 Y109.530 E2.30328
G1 X85.523 Y106.349 E2.42826
G1 X86.187 Y105.277 E2.46328
G1 X87.888 Y106.979 E2.53012
G1 X88.055 Y106.511 E2.54391
G1 X88.109 Y106.244 E2.55148
G1 X88.136 Y105.973 E2.55904
G1 X88.113 Y105.468 E2.57309
G1 X86.818 Y104.173 E2.62397
G1 X87.414 Y103.033 E2.65969
G1 X89.131 Y104.750 E2.72714
G1 X90.306 Y104.190 E2.76330
G1 X87.974 Y101.858 E2.85493
G1 X88.498 Y100.646 E2.89159
G1 X89.910 Y102.058 E2.94706
G1 X89.965 Y101.934 E2.95083
G1 X90.076 Y101.498 E2.96333
G1 X90.104 Y101.246 E2.97039
G1 X90.098 Y100.595 E2.98848
G1 X90.173 Y100.586 E2.99055
G1 X88.980 Y99.393 E3.03741
G1 X89.033 Y99.247 E3.04173
G1 X90.569 Y99.246 E3.08438
G1 X91.721 Y100.398 E3.12963
G1 X93.269 Y100.211 E3.17295
G1 X92.304 Y99.246 E3.21086
G1 X93.729 Y99.246 E3.25044
G1 X93.760 Y98.967 E3.25824
G1 X94.817 Y100.024 E3.29976
G1 X96.182 Y101.388 F7800.000
G1 F4057.99
G1 X95.033 Y100.239 E3.34490
G1 X93.857 Y100.799 E3.38107
G1 X95.007 Y101.949 E3.42621
G1 X93.831 Y102.509 E3.46238
G1 X92.682 Y101.360 E3.50752
G1 X91.507 Y101.920 E3.54369
G1 X92.656 Y103.069 E3.58883
G1 X91.481 Y103.630 E3.62500
G1 X90.332 Y102.480 E3.67014
G1 Z1.200 F7800.000
G1 E1.67014 F2400.00000
G92 E0
G1 X90.340 Y99.247 F7800.000
G1 E2.00000 F2400.00000
G1 F3971.62
G1 X88.453 Y101.134 E2.07413
G1 X87.850 Y102.513 E2.11596
G1 X87.494 Y103.258 E2.13888
G1 X86.876 Y104.446 E2.17609
G1 X89.658 Y101.664 E2.28539
G1 X89.707 Y101.399 E2.29288
G1 X89.730 Y101.053 E2.30250
G1 X89.708 Y100.596 E2.31523
G1 X90.867 Y100.455 E2.34766
G1 X92.076 Y99.246 E2.39516
G1 X93.812 Y99.246 E2.44338
G1 X92.841 Y100.217 E2.48152
G1 X93.767 Y99.291 F7800.000
G1 F3971.62
G1 X94.617 Y98.441 E2.51491
G1 X94.377 Y98.473 E2.52165
G1 X94.025 Y98.426 E2.53152
G1 X93.696 Y98.290 E2.54138
G1 X93.415 Y98.074 E2.55124
G1 X93.343 Y97.980 E2.55454
G1 X92.595 Y98.727 E2.58389
G1 X92.003 Y98.445 E2.60211
G1 X91.470 Y98.117 E2.61950
G1 X93.343 Y96.244 E2.69308
G1 X93.126 Y96.461 F7800.000
G1 F3971.62
G1 X94.262 Y95.325 E2.73767
G1 X93.769 Y95.564 E2.75287
G1 X93.148 Y95.683 E2.77044
G1 X92.517 Y95.638 E2.78801
G1 X92.292 Y95.560 E2.79463
G1 X90.519 Y97.333 E2.86429
G1 X90.023 Y96.791 E2.88470
G1 X89.725 Y96.391 E2.89855
G1 X91.231 Y94.885 E2.95769
G1 X90.982 Y94.597 E2.96827
G1 X90.706 Y94.028 E2.98584
G1 X90.649 Y93.732 E2.99422
G1 X89.116 Y95.265 E3.05446
G1 X89.014 Y95.003 E3.06227
G1 X88.952 Y94.768 E3.06900
G1 X88.886 Y94.338 E3.08110
G1 X88.868 Y94.016 E3.09004
G1 X88.878 Y93.767 E3.09698
G1 X93.033 Y89.612 E3.26018
G1 E1.26018 F2400.00000
G92 E0
G1 X90.267 Y94.113 F7800.000
G1 E2.00000 F2400.00000
G1 F3971.62
G1 X90.205 Y93.789 E2.00919
G1 X90.250 Y93.158 E2.02676
G1 X90.458 Y92.560 E2.04433
G1 X90.813 Y92.037 E2.06190
G1 X91.291 Y91.623 E2.07947
G1 X91.860 Y91.347 E2.09704
G1 X92.481 Y91.227 E2.11461
G1 X93.108 Y91.273 E2.13206
G1 X94.887 Y89.494 E2.20193
G1 X95.311 Y89.499 E2.21372
G1 X96.306 Y89.590 E2.24148
G1 X96.389 Y89.727 E2.24594
G1 X94.255 Y91.861 E2.32975
G1 X94.647 Y92.314 E2.34639
G1 X94.931 Y92.921 E2.36500
G1 X97.040 Y90.812 E2.44786
G1 X97.691 Y91.896 E2.48299
G1 X94.654 Y94.933 E2.60231
G1 X95.593 Y95.730 F7800.000
G1 F3971.62
G1 X95.646 Y95.601 E2.60619
G1 X95.855 Y95.329 E2.61570
G1 X96.126 Y95.121 E2.62520
G1 X96.255 Y95.067 E2.62908
G1 X98.342 Y92.980 E2.71106
G1 X98.993 Y94.065 E2.74620
G1 X97.717 Y95.341 E2.79633
G1 X97.940 Y96.854 F7800.000
G1 F3971.62
G1 X100.430 Y94.363 E2.89417
G1 X100.325 Y92.733 E2.93955
G1 X99.657 Y93.401 E2.96580
G1 X99.739 Y92.122 E3.00142
G1 X99.879 Y92.121 E3.00530
G1 X99.943 Y93.115 E3.03295
G1 E1.03295 F2400.00000
G92 E0
G1 X101.995 Y92.798 F7800.000
G1 E2.00000 F2400.00000
G1 F3971.62
G1 X105.296 Y89.497 E2.12966
G1 X104.098 Y95.902 F7800.000
G1 F3971.62
G1 X105.388 Y94.612 E2.18037
G1 X105.210 Y94.349 E2.18919
G1 X105.003 Y93.751 E2.20676
G1 X104.970 Y93.295 E2.21947
G1 X103.247 Y95.017 E2.28714
G1 X103.176 Y94.988 E2.28928
G1 X102.732 Y94.929 E2.30173
G1 X102.732 Y94.957 E2.30251
G1 X102.498 Y94.988 E2.30906
G1 X102.182 Y95.119 E2.31856
G1 X101.910 Y95.327 E2.32806
G1 X101.702 Y95.598 E2.33756
G1 X101.571 Y95.914 E2.34707
G1 X101.527 Y96.254 E2.35657
G1 X101.571 Y96.593 E2.36607
G1 X101.601 Y96.664 E2.36821
G1 E0.36821 F2400.00000
G92 E0
G1 X104.266 Y97.469 F7800.000
G1 E2.00000 F2400.00000
G1 F3971.62
G1 X104.309 Y97.140 E2.00923
G1 X104.445 Y96.812 E2.01910
G1 X104.662 Y96.530 E2.02896
G1 X104.943 Y96.314 E2.03882
G1 X105.271 Y96.178 E2.04869
G1 X105.601 Y96.135 E2.05792
G1 X106.317 Y95.419 E2.08605
G1 X106.613 Y95.562 E2.09518
G1 X107.234 Y95.681 E2.11275
G1 X107.833 Y95.638 E2.12944
G1 X106.740 Y96.731 E2.17239
G1 E0.17239 F2400.00000
G92 E0
G1 X106.201 Y99.005 F7800.000
G1 E2.00000 F2400.00000
G1 F3971.62
G1 X111.096 Y94.111 E2.19228
G1 X111.131 Y93.634 E2.20554
G1 X111.094 Y93.135 E2.21946
G1 X110.984 Y92.646 E2.23337
G1 X110.940 Y92.531 E2.23679
G1 X109.349 Y94.122 E2.29928
G1 X109.413 Y93.786 E2.30878
G1 X109.368 Y93.156 E2.32635
G1 X109.165 Y92.571 E2.34354
G1 X110.332 Y91.403 E2.38941
G1 X109.945 Y90.944 E2.40610
G1 X109.474 Y90.526 E2.42359
G1 X108.355 Y91.645 E2.46753
G1 X107.758 Y91.344 E2.48610
G1 X107.137 Y91.225 E2.50367
G1 X107.032 Y91.233 E2.50660
G1 X108.374 Y89.890 E2.55935
G1 X108.035 Y89.768 E2.56938
G1 X107.670 Y89.669 E2.57987
G1 X106.967 Y89.562 E2.59962
G1 X94.540 Y101.989 E3.08781
G1 X91.223 Y103.571 E3.18990
G1 X93.771 Y101.023 E3.29000
G1 X90.453 Y102.605 E3.39210
G1 X87.905 Y105.153 E3.49220
G1 X87.709 Y105.246 E3.49823
G1 X87.719 Y105.340 E3.50083
G1 X88.100 Y104.958 F7800.000
G1 F3971.62
G1 X84.588 Y108.470 E3.63882
G1 X84.529 Y108.872 E3.65010
G1 X84.533 Y109.351 E3.66339
G1 X84.573 Y109.617 E3.67088
G1 X84.713 Y110.080 E3.68432
G1 X87.347 Y107.446 E3.78779
G1 X87.676 Y107.802 E3.80126
G1 X91.308 Y105.221 E3.92501
G1 X86.258 Y110.271 E4.12336
G1 X86.629 Y110.184 E4.13393
G1 X87.222 Y109.989 E4.15127
G1 X88.363 Y109.514 E4.18560
G1 X89.112 Y109.152 E4.20872
G1 X98.656 Y99.608 E4.58364
G1 X99.059 Y98.696 E4.61135
G1 X99.184 Y99.080 E4.62258
G1 X101.983 Y96.282 E4.73250
G1 X102.084 Y96.527 E4.73987
G1 X102.292 Y96.798 E4.74937
G1 X102.564 Y97.007 E4.75887
G1 X102.868 Y97.132 E4.76801
G1 X100.788 Y99.212 E4.84970
G1 X101.334 Y100.402 E4.88606
G1 X104.648 Y97.088 E5.01625
G1 X104.691 Y97.462 E5.02672
G1 X104.827 Y97.790 E5.03659
G1 X105.043 Y98.072 E5.04645
G1 X105.245 Y98.226 E5.05350
G1 X101.941 Y101.530 E5.18327
G1 X102.283 Y102.094 E5.20160
G1 X102.614 Y102.592 E5.21821
G1 X103.381 Y101.826 E5.24832
G1 X103.164 Y101.672 E5.25569
G1 X103.439 Y101.205 E5.27074
G1 X103.820 Y101.387 E5.28246
G1 X104.587 Y100.619 E5.31260
G1 X104.107 Y100.390 E5.32738
G1 X104.247 Y99.908 E5.34132
G1 X105.185 Y100.022 E5.36756
G1 X106.240 Y98.967 E5.40901
G1 X106.271 Y99.244 E5.41675
G1 X107.698 Y99.244 E5.45639
G1 X106.733 Y100.209 E5.49431
G1 X108.281 Y100.396 E5.53763
G1 X109.433 Y99.244 E5.58289
G1 X110.967 Y99.245 E5.62548
G1 X111.021 Y99.392 E5.62985
G1 X109.829 Y100.584 E5.67666
G1 X109.910 Y100.593 E5.67892
G1 X109.888 Y101.053 E5.69169
G1 X109.904 Y101.339 E5.69966
G1 X109.971 Y101.723 E5.71047
G1 X110.033 Y101.927 E5.71641
G1 X110.091 Y102.058 E5.72037
G1 X111.503 Y100.646 E5.77584
G1 X112.027 Y101.857 E5.81250
G1 X109.695 Y104.189 E5.90410
G1 X110.871 Y104.749 E5.94026
G1 X112.587 Y103.033 E6.00768
G1 X113.183 Y104.172 E6.04340
G1 X111.887 Y105.468 E6.09432
G1 X111.864 Y105.971 E6.10830
G1 X111.891 Y106.242 E6.11586
G1 X111.945 Y106.509 E6.12343
G1 X112.112 Y106.978 E6.13727
G1 X113.814 Y105.276 E6.20411
G1 X114.478 Y106.348 E6.23913
G1 X111.297 Y109.529 E6.36409
G1 X112.530 Y110.031 E6.40107
G1 X115.160 Y107.402 E6.50436
G1 X115.264 Y107.617 E6.51101
G1 X115.358 Y107.875 E6.51864
G1 X115.426 Y108.141 E6.52627
G1 X115.468 Y108.413 E6.53390
G1 X115.481 Y108.682 E6.54139
G1 X115.468 Y108.829 E6.54550
G1 X113.902 Y110.395 E6.60701
G1 E4.60701 F2400.00000
G92 E0
G1 X110.124 Y108.966 F7800.000
G1 E2.00000 F2400.00000
G1 F3971.62
G1 X111.878 Y107.212 E2.06890
G1 X110.864 Y106.491 E2.10347
G1 X109.000 Y108.355 E2.17668
G1 X107.918 Y107.702 E2.21180
G1 X109.849 Y105.770 E2.28769
G1 X108.835 Y105.049 E2.32226
G1 X106.869 Y107.015 E2.39949
G1 X106.519 Y106.767 E2.41139
G1 X105.893 Y106.255 E2.43386
G1 X107.820 Y104.328 E2.50956
G1 X106.806 Y103.607 E2.54413
G1 X104.989 Y105.424 E2.61551
G1 X104.138 Y104.540 E2.64960
G1 X105.791 Y102.886 E2.71456
G1 X104.777 Y102.165 E2.74913
G1 X103.347 Y103.594 E2.80529
G1 X102.614 Y102.592 E2.83978
G1 X103.820 Y101.387 F7800.000
G1 F3971.62
G1 X104.995 Y101.947 E2.87595
G1 X106.144 Y100.798 E2.92109
G1 X106.281 Y100.863 E2.92532
G1 X107.319 Y101.358 E2.95726
G1 X106.170 Y102.507 E3.00240
G1 X107.345 Y103.068 E3.03857
G1 X108.494 Y101.919 E3.08371
G1 X109.669 Y102.479 E3.11988
G1 X108.520 Y103.628 E3.16502
G1 E1.16502 F2400.00000
G92 E0
G1 X100.015 Y99.985 F7800.000
G1 E2.00000 F2400.00000
G1 F3971.62
G1 X100.474 Y99.982 E2.01275
G1 X100.446 Y99.833 E2.01696
G1 X100.580 Y99.420 E2.02903
G1 X99.634 Y100.366 E2.06623
G1 X99.038 Y99.226 F7800.000
G1 F3971.62
G1 X98.508 Y100.342 E2.10052
G1 X98.127 Y101.037 E2.12254
G1 X97.717 Y101.715 E2.14455
G1 X97.278 Y102.375 E2.16657
G1 X96.811 Y103.015 E2.18859
G1 X96.318 Y103.635 E2.21060
G1 X96.008 Y103.992 E2.22372
G1 X93.887 Y106.113 E2.30706
G1 E0.30706 F2400.00000
G92 E0
G1 X94.816 Y99.978 F7800.000
G1 E2.00000 F2400.00000
G1 F3971.62
G1 X97.761 Y97.032 E2.11570
G1 X97.502 Y97.140 E2.12349
G1 X97.163 Y97.184 E2.13299
G1 X96.824 Y97.140 E2.14249
G1 X96.508 Y97.009 E2.15200
G1 X96.248 Y96.810 E2.16108
G1 X95.323 Y97.735 E2.19741
G1 X95.355 Y97.494 E2.20415
G1 X95.308 Y97.133 E2.21426
G1 X95.173 Y96.814 E2.22389
G1 X94.957 Y96.532 E2.23375
G1 X94.862 Y96.460 E2.23705
G1 X95.975 Y95.348 E2.28073
M106 S255
G1 Z1.600 F7800.000
G1 X96.754 Y95.019 F7800.000
G1 F4055.5
G1 X95.030 Y93.295 E2.34846
G1 X94.997 Y93.753 E2.36123
G1 X94.790 Y94.351 E2.37880
G1 X94.612 Y94.612 E2.38758
G1 X95.903 Y95.903 E2.43827
G1 X95.853 Y96.256 E2.44817
G1 X95.897 Y96.595 E2.45768
G1 X96.028 Y96.911 E2.46718
G1 X96.236 Y97.182 E2.47668
G1 X96.508 Y97.391 E2.48618
G1 X96.824 Y97.522 E2.49569
G1 X97.163 Y97.566 E2.50519
G1 X97.516 Y97.516 E2.51509
G1 X98.831 Y98.831 F7800.000
G1 F4055.5
G1 X99.059 Y98.314 E2.53079
G1 X99.419 Y99.419 E2.56306
G1 X100.364 Y100.364 E2.60021
G1 X100.815 Y99.080 F7800.000
G1 F4055.5
G1 X98.018 Y96.283 E2.71009
G1 X97.916 Y96.529 E2.71750
G1 X97.708 Y96.801 E2.72700
G1 X97.436 Y97.009 E2.73651
G1 X97.134 Y97.134 E2.74560
G1 X99.213 Y99.213 E2.82726
G1 X98.667 Y100.402 E2.86361
G1 X95.352 Y97.087 E2.99385
G1 X95.309 Y97.464 E3.00439
G1 X95.173 Y97.792 E3.01425
G1 X94.957 Y98.074 E3.02412
G1 X94.757 Y98.228 E3.03112
G1 X98.060 Y101.531 E3.16087
G1 X97.717 Y102.097 E3.17925
G1 X97.387 Y102.593 E3.19582
G1 X96.239 Y101.445 E3.24091
G1 X95.224 Y102.166 E3.27549
G1 X96.653 Y103.595 E3.33163
G1 X96.318 Y104.017 E3.34660
G1 X95.863 Y104.541 E3.36586
G1 X94.210 Y102.887 E3.43081
G1 X93.195 Y103.608 E3.46538
G1 X95.012 Y105.425 E3.53675
G1 X94.108 Y106.256 E3.57087
G1 X92.181 Y104.329 E3.64657
G1 X91.166 Y105.050 E3.68114
G1 X93.132 Y107.016 E3.75837
G1 X92.084 Y107.703 E3.79319
G1 X90.152 Y105.771 E3.86908
G1 X89.137 Y106.492 E3.90365
G1 X91.001 Y108.356 E3.97687
G1 X89.989 Y108.913 E4.00896
G1 X89.877 Y108.967 E4.01242
G1 X88.123 Y107.213 E4.08132
G1 E2.08132 F2400.00000
G92 E0
G1 X84.912 Y109.209 F7800.000
G1 E2.00000 F2400.00000
G1 F4055.5
G1 X84.931 Y109.453 E2.00681
G1 X85.025 Y109.888 E2.01917
G1 X85.117 Y110.142 E2.02667
G1 X85.304 Y110.499 E2.03786
G1 X86.100 Y110.397 E2.06015
G1 X84.530 Y108.827 E2.12184
G1 X84.532 Y108.415 E2.13328
G1 X84.574 Y108.143 E2.14091
G1 X84.642 Y107.877 E2.14854
G1 X84.736 Y107.619 E2.15617
G1 X84.841 Y107.402 E2.16286
G1 X87.471 Y110.033 E2.26619
G1 X88.704 Y109.530 E2.30317
G1 X85.523 Y106.349 E2.42815
G1 X86.187 Y105.277 E2.46317
G1 X87.888 Y106.979 E2.53001
G1 X88.055 Y106.511 E2.54380
G1 X88.109 Y106.244 E2.55137
G1 X88.136 Y105.973 E2.55893
G1 X88.113 Y105.468 E2.57298
G1 X86.818 Y104.173 E2.62386
G1 X87.414 Y103.033 E2.65958
G1 X89.131 Y104.750 E2.72703
G1 X90.306 Y104.190 E2.76319
G1 X87.974 Y101.858 E2.85482
G1 X88.498 Y100.646 E2.89148
G1 X89.910 Y102.058 E2.94695
G1 X89.967 Y101.930 E2.95087
G1 X90.029 Y101.726 E2.95678
G1 X90.103 Y101.280 E2.96932
G1 X90.099 Y100.595 E2.98837
G1 X90.173 Y100.586 E2.99042
G1 X88.980 Y99.393 E3.03728
G1 X89.033 Y99.247 E3.04160
G1 X90.569 Y99.246 E3.08426
G1 X91.721 Y100.398 E3.12951
G1 X93.269 Y100.211 E3.17283
G1 X92.304 Y99.246 E3.21074
G1 X93.729 Y99.246 E3.25032
G1 X93.760 Y98.967 E3.25811
G1 X94.817 Y100.024 E3.29963
G1 X93.802 Y99.008 F7800.000
G1 F4055.5
G1 X88.909 Y94.116 E3.49182
G1 X92.169 Y95.640 F7800.000
G1 F4055.5
G1 X92.766 Y95.683 E3.50844
G1 X93.387 Y95.564 E3.52601
G1 X93.685 Y95.420 E3.53518
G1 X94.402 Y96.137 E3.56336
G1 E1.56336 F2400.00000
G92 E0
G1 X95.138 Y98.609 F7800.000
G1 E2.00000 F2400.00000
G1 F4055.5
G1 X95.057 Y98.672 E2.00286
G1 X94.729 Y98.808 E2.01272
G1 X94.377 Y98.854 E2.02259
G1 X94.025 Y98.808 E2.03245
G1 X93.696 Y98.672 E2.04232
G1 X93.415 Y98.456 E2.05218
G1 X93.199 Y98.174 E2.06204
G1 X93.142 Y98.037 E2.06617
G1 X93.063 Y97.846 E2.07191
G1 X93.016 Y97.494 E2.08177
G1 X93.063 Y97.142 E2.09163
G1 X93.199 Y96.814 E2.10150
G1 X93.261 Y96.732 E2.10436
G1 X92.551 Y96.022 E2.13226
G1 X91.919 Y95.812 E2.15075
G1 X91.396 Y95.457 E2.16832
G1 X90.982 Y94.979 E2.18589
G1 X90.706 Y94.410 E2.20346
G1 X90.651 Y94.122 E2.21162
G1 X89.061 Y92.532 E2.27406
G1 X89.196 Y92.181 E2.28450
G1 X89.372 Y91.847 E2.29501
G1 X89.668 Y91.404 E2.30980
G1 X90.836 Y92.571 E2.35566
G1 X91.195 Y92.037 E2.37354
G1 X91.646 Y91.646 E2.39013
G1 X90.527 Y90.527 E2.43406
G1 X90.937 Y90.239 E2.44797
G1 X91.266 Y90.055 E2.45846
G1 X91.627 Y89.892 E2.46946
G1 X92.971 Y91.235 E2.52224
G1 X98.001 Y92.795 F7800.000
G1 F4055.5
G1 X94.703 Y89.496 E2.65182
G1 X94.091 Y89.489 E2.66882
G1 X93.035 Y89.564 E2.69822
G1 X105.456 Y101.985 E3.18617
G1 X103.821 Y101.205 E3.23649
G1 X103.546 Y101.672 E3.25153
G1 X109.067 Y105.596 E3.43966
G1 X108.685 Y105.214 F7800.000
G1 F4055.5
G1 X113.739 Y110.268 E3.63819
G1 X114.289 Y110.397 E3.65390
G1 X115.078 Y110.496 E3.67599
G1 X115.286 Y110.080 E3.68892
G1 X112.652 Y107.445 E3.79242
G1 X112.668 Y107.428 E3.79307
G1 X112.258 Y106.873 E3.81223
G1 X112.130 Y106.638 E3.81966
G1 X112.025 Y106.387 E3.82722
G1 X111.945 Y106.127 E3.83479
G1 X111.891 Y105.860 E3.84235
G1 X111.864 Y105.589 E3.84991
G1 X111.864 Y105.317 E3.85748
G1 X111.899 Y104.957 E3.86751
G1 X115.413 Y108.471 E4.00554
G1 X110.883 Y109.148 F7800.000
G1 F4055.5
G1 X100.964 Y99.228 E4.39522
G1 X101.492 Y100.339 E4.42939
G1 X101.873 Y101.034 E4.45141
G1 X102.458 Y101.976 E4.48220
G1 X102.722 Y102.373 E4.49544
G1 X103.189 Y103.013 E4.51745
G1 X103.682 Y103.633 E4.53947
G1 X104.006 Y104.006 E4.55320
G1 X106.094 Y106.094 E4.63519
G1 X105.698 Y105.741 E4.64991
G1 X105.129 Y105.189 E4.67193
G1 X104.388 Y104.388 E4.70223
G1 E2.70223 F2400.00000
G92 E0
G1 X106.225 Y101.019 F7800.000
G1 E2.00000 F2400.00000
G1 F4055.5
G1 X108.773 Y103.567 E2.10010
G1 X112.091 Y105.149 E2.20220
G1 X109.542 Y102.600 E2.30230
G1 X110.455 Y103.036 E2.33040
G1 X110.741 Y102.660 E2.34351
G1 X110.330 Y102.145 E2.36182
G1 X110.219 Y101.963 E2.36774
G1 X110.034 Y101.549 E2.38032
G1 X109.964 Y101.287 E2.38786
G1 X113.126 Y104.449 E2.51207
G1 X111.548 Y101.135 F7800.000
G1 F4055.5
G1 X109.657 Y99.244 E2.58635
G1 X107.922 Y99.244 E2.63457
G1 X109.130 Y100.453 E2.68206
G1 X107.156 Y100.214 E2.73730
G1 X106.233 Y99.291 F7800.000
G1 F4055.5
G1 X106.213 Y99.114 E2.74225
G1 X107.052 Y98.867 E2.76653
G1 X107.403 Y98.726 E2.77705
G1 X106.657 Y97.979 E2.80638
G1 X106.801 Y97.790 E2.81299
G1 X106.937 Y97.462 E2.82285
G1 X106.967 Y97.239 E2.82910
G1 X107.001 Y97.239 E2.83005
G1 X106.937 Y96.758 E2.84352
G1 X106.801 Y96.430 E2.85339
G1 X106.664 Y96.251 E2.85965
G1 X108.529 Y98.116 E2.93289
G1 E0.93289 F2400.00000
G92 E0
G1 X106.116 Y95.703 F7800.000
G1 E2.00000 F2400.00000
G1 F4055.5
G1 X106.044 Y95.668 E2.00224
G1 X105.565 Y95.254 E2.01981
G1 X105.351 Y94.938 E2.03042
G1 X102.308 Y91.895 E2.14994
G1 X102.959 Y90.811 E2.18508
G1 X105.069 Y92.920 E2.26795
G1 X105.353 Y92.311 E2.28661
G1 X105.744 Y91.860 E2.30321
G1 X103.610 Y89.726 E2.38702
G1 X103.693 Y89.589 E2.39146
G1 X104.411 Y89.513 E2.41153
G1 X105.112 Y89.492 E2.43100
G1 X106.890 Y91.271 E2.50086
G1 E0.50086 F2400.00000
G92 E0
G1 X110.730 Y93.375 F7800.000
G1 E2.00000 F2400.00000
G1 F4055.5
G1 X110.712 Y93.135 E2.00670
G1 X110.602 Y92.646 E2.02061
G1 X110.420 Y92.175 E2.03464
G1 X110.246 Y91.844 E2.04502
G1 X110.044 Y91.526 E2.05551
G1 X109.816 Y91.225 E2.06600
G1 X109.563 Y90.944 E2.07649
G1 X109.289 Y90.684 E2.08698
G1 X108.994 Y90.448 E2.09747
G1 X108.681 Y90.237 E2.10796
G1 X108.352 Y90.053 E2.11844
G1 X108.008 Y89.896 E2.12893
G1 X107.653 Y89.768 E2.13942
G1 X107.288 Y89.669 E2.14991
G1 X106.965 Y89.610 E2.15906
G1 X111.112 Y93.757 E2.32198
G1 X110.884 Y95.264 F7800.000
G1 F4055.5
G1 X109.351 Y93.731 E2.38220
G1 X109.294 Y94.026 E2.39053
G1 X109.018 Y94.595 E2.40811
G1 X108.768 Y94.884 E2.41872
G1 X110.274 Y96.390 E2.47787
G1 X109.977 Y96.789 E2.49168
G1 X109.480 Y97.332 E2.51212
G1 X107.707 Y95.558 E2.58180
G1 X107.483 Y95.636 E2.58838
G1 X106.852 Y95.681 E2.60595
G1 X106.231 Y95.562 E2.62352
G1 X105.734 Y95.321 E2.63885
G1 X106.864 Y96.451 E2.68324
G1 X106.645 Y96.283 E2.69092
G1 X106.357 Y96.178 E2.69942
G1 X106.005 Y96.132 E2.70929
G1 X105.653 Y96.178 E2.71915
G1 X105.325 Y96.314 E2.72901
G1 X105.136 Y96.459 E2.73562
G1 X104.027 Y95.349 E2.77920
G1 X104.103 Y95.533 E2.78471
G1 X104.147 Y95.872 E2.79421
G1 X104.103 Y96.211 E2.80371
G1 X103.972 Y96.527 E2.81321
G1 X103.750 Y96.808 E2.82316
G1 X104.677 Y97.735 E2.85956
G1 X104.691 Y97.844 E2.86261
G1 X104.827 Y98.172 E2.87248
G1 X105.043 Y98.454 E2.88234
G1 X105.325 Y98.670 E2.89220
G1 X105.653 Y98.806 E2.90207
G1 X105.762 Y98.820 E2.90512
G1 X106.233 Y99.291 E2.92363
G1 X106.271 Y99.625 E2.93297
G1 X106.567 Y99.625 E2.94120
G1 X107.156 Y100.214 E2.96433
G1 X105.182 Y99.975 E3.01957
G1 X102.235 Y97.029 E3.13532
G1 E1.13532 F2400.00000
G92 E0
G1 X103.741 Y95.064 F7800.000
G1 E2.00000 F2400.00000
G1 F4055.5
G1 X101.657 Y92.980 E2.08187
G1 X101.006 Y94.064 E2.11700
G1 X102.282 Y95.340 E2.16713
G1 X102.084 Y95.598 E2.17617
G1 X101.953 Y95.914 E2.18567
G1 X101.908 Y96.254 E2.19518
G1 X101.953 Y96.593 E2.20468
G1 X102.062 Y96.855 E2.21257
G1 X99.570 Y94.363 E2.31047
G1 F4055.5
G1 X99.675 Y92.733 E2.35585
G1 X100.343 Y93.401 E2.38210
G1 E0.38210 F2400.00000
G92 E0
G1 X96.182 Y101.388 F7800.000
G1 E2.00000 F2400.00000
G1 F4055.5
G1 X95.033 Y100.239 E2.04515
G1 X93.857 Y100.799 E2.08131
G1 X95.007 Y101.949 E2.12646
G1 X93.831 Y102.509 E2.16262
G1 X92.682 Y101.360 E2.20777
G1 X91.507 Y101.920 E2.24393
G1 X92.656 Y103.069 E2.28907
G1 X91.481 Y103.630 E2.32524
G1 X90.332 Y102.480 E2.37038
G1 Z2.000 F7800.000
G1 E0.37038 F2400.00000
G92 E0
G1 X90.340 Y99.247 F7800.000
G1 E2.00000 F2400.00000
G1 F3970.43
G1 X88.453 Y101.134 E2.07413
G1 X87.850 Y102.515 E2.11600
G1 X87.479 Y103.291 E2.13991
G1 X86.876 Y104.446 E2.17609
G1 X89.650 Y101.672 E2.28507
G1 X89.721 Y101.286 E2.29599
G1 X89.718 Y100.595 E2.31519
G1 X90.867 Y100.455 E2.34735
G1 X92.076 Y99.246 E2.39486
G1 X93.812 Y99.246 E2.44308
G1 X92.841 Y100.217 E2.48121
G1 X93.767 Y99.291 F7800.000
G1 F3970.43
G1 X94.617 Y98.441 E2.51461
G1 X94.377 Y98.473 E2.52135
G1 X94.025 Y98.426 E2.53121
G1 X93.696 Y98.290 E2.54108
G1 X93.415 Y98.074 E2.55094
G1 X93.343 Y97.980 E2.55424
G1 X92.595 Y98.727 E2.58359
G1 X92.003 Y98.445 E2.60181
G1 X91.470 Y98.117 E2.61920
G1 X93.343 Y96.244 E2.69277
G1 X93.126 Y96.461 F7800.000
G1 F3970.43
G1 X94.262 Y95.325 E2.73737
G1 X93.769 Y95.564 E2.75257
G1 X93.148 Y95.683 E2.77014
G1 X92.517 Y95.638 E2.78771
G1 X92.292 Y95.560 E2.79433
G1 X90.519 Y97.333 E2.86399
G1 X90.023 Y96.791 E2.88439
G1 X89.725 Y96.391 E2.89825
G1 X91.231 Y94.885 E2.95739
G1 X90.982 Y94.597 E2.96796
G1 X90.706 Y94.028 E2.98553
G1 X90.649 Y93.732 E2.99392
G1 X89.116 Y95.265 E3.05415
G1 X89.016 Y95.007 E3.06184
G1 X88.906 Y94.518 E3.07576
G1 X88.869 Y94.017 E3.08972
G1 X88.884 Y93.761 E3.09685
G1 X93.033 Y89.612 E3.25981
G1 E1.25981 F2400.00000
G92 E0
G1 X90.267 Y94.113 F7800.000
G1 E2.00000 F2400.00000
G1 F3970.43
G1 X90.205 Y93.789 E2.00919
G1 X90.250 Y93.158 E2.02676
G1 X90.458 Y92.560 E2.04433
G1 X90.813 Y92.037 E2.06190
G1 X91.291 Y91.623 E2.07947
G1 X91.860 Y91.347 E2.09704
G1 X92.481 Y91.227 E2.11461
G1 X93.108 Y91.273 E2.13206
G1 X94.887 Y89.494 E2.20193
G1 X95.311 Y89.499 E2.21372
G1 X96.306 Y89.590 E2.24148
G1 X96.389 Y89.727 E2.24594
G1 X94.255 Y91.861 E2.32975
G1 X94.647 Y92.314 E2.34639
G1 X94.931 Y92.921 E2.36500
G1 X97.040 Y90.812 E2.44786
G1 X97.691 Y91.896 E2.48299
G1 X94.654 Y94.933 E2.60231
G1 X95.593 Y95.730 F7800.000
G1 F3970.43
G1 X95.646 Y95.601 E2.60619
G1 X95.855 Y95.329 E2.61569
G1 X96.126 Y95.121 E2.62520
G1 X96.255 Y95.067 E2.62908
G1 X98.342 Y92.980 E2.71106
G1 X98.993 Y94.065 E2.74620
G1 X97.717 Y95.341 E2.79633
G1 X97.940 Y96.854 F7800.000
G1 F3970.43
G1 X100.430 Y94.363 E2.89417
G1 X100.325 Y92.733 E2.93955
G1 X99.657 Y93.401 E2.96580
G1 X99.739 Y92.122 E3.00142
G1 X99.879 Y92.121 E3.00530
G1 X99.943 Y93.115 E3.03295
G1 E1.03295 F2400.00000
G92 E0
G1 X101.995 Y92.798 F7800.000
G1 E2.00000 F2400.00000
G1 F3970.43
G1 X105.295 Y89.499 E2.12961
G1 X104.098 Y95.902 F7800.000
G1 F3970.43
G1 X105.388 Y94.612 E2.18031
G1 X105.210 Y94.349 E2.18913
G1 X105.003 Y93.751 E2.20671
G1 X104.970 Y93.295 E2.21942
G1 X103.247 Y95.017 E2.28709
G1 X103.176 Y94.988 E2.28922
G1 X102.837 Y94.943 E2.29873
G1 X102.498 Y94.988 E2.30823
G1 X102.182 Y95.119 E2.31773
G1 X101.910 Y95.327 E2.32723
G1 X101.702 Y95.598 E2.33674
G1 X101.571 Y95.914 E2.34624
G1 X101.527 Y96.254 E2.35574
G1 X101.571 Y96.593 E2.36524
G1 X101.601 Y96.664 E2.36738
G1 E0.36738 F2400.00000
G92 E0
G1 X104.266 Y97.469 F7800.000
G1 E2.00000 F2400.00000
G1 F3970.43
G1 X104.309 Y97.140 E2.00923
G1 X104.445 Y96.812 E2.01910
G1 X104.662 Y96.530 E2.02896
G1 X104.943 Y96.314 E2.03882
G1 X105.271 Y96.178 E2.04869
G1 X105.606 Y96.129 E2.05808
G1 X106.317 Y95.419 E2.08601
G1 X106.613 Y95.562 E2.09514
G1 X107.234 Y95.681 E2.11271
G1 X107.833 Y95.638 E2.12939
G1 X106.740 Y96.731 E2.17235
G1 E0.17235 F2400.00000
G92 E0
G1 X106.201 Y99.005 F7800.000
G1 E2.00000 F2400.00000
G1 F3970.43
G1 X111.096 Y94.111 E2.19228
G1 X111.131 Y93.634 E2.20554
G1 X111.094 Y93.135 E2.21946
G1 X110.984 Y92.646 E2.23337
G1 X110.940 Y92.531 E2.23679
G1 X109.349 Y94.122 E2.29928
G1 X109.413 Y93.786 E2.30878
G1 X109.368 Y93.156 E2.32635
G1 X109.165 Y92.571 E2.34354
G1 X110.332 Y91.403 E2.38941
G1 X109.945 Y90.944 E2.40610
G1 X109.474 Y90.526 E2.42359
G1 X108.355 Y91.645 E2.46753
G1 X107.758 Y91.344 E2.48610
G1 X107.137 Y91.225 E2.50367
G1 X107.032 Y91.233 E2.50660
G1 X108.374 Y89.890 E2.55935
G1 X108.035 Y89.768 E2.56938
G1 X107.670 Y89.669 E2.57987
G1 X106.967 Y89.562 E2.59962
G1 X94.540 Y101.989 E3.08781
G1 X91.223 Y103.571 E3.18990
G1 X93.771 Y101.023 E3.29000
G1 X90.453 Y102.605 E3.39210
G1 X87.905 Y105.153 E3.49220
G1 X87.709 Y105.246 E3.49823
G1 X87.719 Y105.340 E3.50083
G1 X88.100 Y104.958 F7800.000
G1 F3970.43
G1 X84.588 Y108.470 E3.63882
G1 X84.526 Y108.938 E3.65193
G1 X84.533 Y109.350 E3.66336
G1 X84.573 Y109.617 E3.67088
G1 X84.713 Y110.080 E3.68432
G1 X87.347 Y107.446 E3.78779
G1 X87.676 Y107.802 E3.80125
G1 X91.308 Y105.221 E3.92501
G1 X86.258 Y110.271 E4.12336
G1 X86.629 Y110.184 E4.13393
G1 X87.222 Y109.989 E4.15126
G1 X88.363 Y109.514 E4.18560
G1 X89.112 Y109.152 E4.20872
G1 X98.646 Y99.618 E4.58324
G1 X99.063 Y98.708 E4.61105
G1 X99.184 Y99.080 E4.62191
G1 X101.983 Y96.282 E4.73183
G1 X102.084 Y96.527 E4.73920
G1 X102.292 Y96.798 E4.74870
G1 X102.564 Y97.007 E4.75820
G1 X102.868 Y97.132 E4.76734
G1 X100.788 Y99.212 E4.84903
G1 X101.334 Y100.402 E4.88539
G1 X104.648 Y97.088 E5.01558
G1 X104.691 Y97.462 E5.02606
G1 X104.827 Y97.790 E5.03592
G1 X105.043 Y98.072 E5.04578
G1 X105.245 Y98.226 E5.05283
G1 X101.943 Y101.528 E5.18254
G1 X102.618 Y102.588 E5.21746
G1 X103.381 Y101.826 E5.24741
G1 X103.164 Y101.672 E5.25478
G1 X103.439 Y101.205 E5.26983
G1 X103.820 Y101.387 E5.28154
G1 X104.587 Y100.619 E5.31169
G1 X104.107 Y100.390 E5.32647
G1 X104.247 Y99.908 E5.34041
G1 X105.185 Y100.022 E5.36665
G1 X106.240 Y98.967 E5.40810
G1 X106.271 Y99.244 E5.41584
G1 X107.698 Y99.244 E5.45548
G1 X106.733 Y100.209 E5.49340
G1 X108.281 Y100.396 E5.53672
G1 X109.433 Y99.244 E5.58198
G1 X110.967 Y99.245 E5.62457
G1 X111.021 Y99.392 E5.62894
G1 X109.829 Y100.584 E5.67575
G1 X109.901 Y100.592 E5.67774
G1 X109.897 Y101.280 E5.69684
G1 X109.948 Y101.612 E5.70618
G1 X110.034 Y101.931 E5.71534
G1 X110.091 Y102.058 E5.71921
G1 X111.503 Y100.646 E5.77467
G1 X112.027 Y101.857 E5.81134
G1 X109.695 Y104.189 E5.90293
G1 X110.871 Y104.749 E5.93909
G1 X112.587 Y103.033 E6.00651
G1 X113.183 Y104.172 E6.04223
G1 X111.887 Y105.468 E6.09315
G1 X111.864 Y105.971 E6.10713
G1 X111.891 Y106.242 E6.11470
G1 X111.945 Y106.509 E6.12226
G1 X112.112 Y106.978 E6.13610
G1 X113.814 Y105.276 E6.20295
G1 X114.478 Y106.348 E6.23796
G1 X111.297 Y109.529 E6.36292
G1 X112.530 Y110.031 E6.39991
G1 X115.160 Y107.402 E6.50320
G1 X115.264 Y107.617 E6.50984
G1 X115.358 Y107.875 E6.51747
G1 X115.426 Y108.141 E6.52510
G1 X115.468 Y108.413 E6.53274
G1 X115.481 Y108.683 E6.54025
G1 X115.469 Y108.828 E6.54428
G1 X113.902 Y110.395 E6.60586
G1 E4.60586 F2400.00000
G92 E0
G1 X110.124 Y108.966 F7800.000
G1 E2.00000 F2400.00000
G1 F3970.43
G1 X111.878 Y107.212 E2.06890
G1 X110.864 Y106.491 E2.10347
G1 X109.000 Y108.355 E2.17668
G1 X107.918 Y107.702 E2.21180
G1 X109.849 Y105.770 E2.28769
G1 X108.835 Y105.049 E2.32226
G1 X106.869 Y107.015 E2.39949
G1 X106.519 Y106.767 E2.41139
G1 X105.893 Y106.255 E2.43386
G1 X107.820 Y104.328 E2.50956
G1 X106.806 Y103.607 E2.54413
G1 X104.989 Y105.424 E2.61551
G1 X104.138 Y104.540 E2.64960
G1 X105.791 Y102.886 E2.71456
G1 X104.777 Y102.165 E2.74913
G1 X103.347 Y103.594 E2.80529
G1 X102.618 Y102.588 E2.83981
G1 X103.820 Y101.387 F7800.000
G1 F3970.43
G1 X104.995 Y101.947 E2.87597
G1 X106.144 Y100.798 E2.92112
G1 X107.319 Y101.358 E2.95728
G1 X106.170 Y102.507 E3.00243
G1 X107.345 Y103.068 E3.03859
G1 X108.494 Y101.919 E3.08374
G1 X109.669 Y102.479 E3.11990
G1 X108.520 Y103.628 E3.16505
G1 E1.16505 F2400.00000
G92 E0
G1 X100.015 Y99.985 F7800.000
G1 E2.00000 F2400.00000
G1 F3970.43
G1 X100.474 Y99.982 E2.01275
G1 X100.446 Y99.834 E2.01693
G1 X100.580 Y99.420 E2.02904
G1 X99.634 Y100.366 E2.06623
G1 X99.028 Y99.237 F7800.000
G1 F3970.43
G1 X98.689 Y99.976 E2.08883
G1 X98.126 Y101.038 E2.12221
G1 X97.717 Y101.715 E2.14418
G1 X97.278 Y102.375 E2.16620
G1 X96.811 Y103.015 E2.18821
G1 X96.318 Y103.635 E2.21023
G1 X96.008 Y103.992 E2.22335
G1 X93.887 Y106.113 E2.30668
G1 E0.30668 F2400.00000
G92 E0
G1 X94.816 Y99.978 F7800.000
G1 E2.00000 F2400.00000
G1 F3970.43
G1 X97.761 Y97.032 E2.11570
G1 X97.502 Y97.140 E2.12349
G1 X97.163 Y97.184 E2.13299
G1 X96.824 Y97.140 E2.14249
G1 X96.508 Y97.009 E2.15200
G1 X96.248 Y96.810 E2.16108
G1 X95.323 Y97.735 E2.19741
G1 X95.355 Y97.494 E2.20415
G1 X95.309 Y97.142 E2.21401
G1 X95.173 Y96.814 E2.22388
G1 X94.957 Y96.532 E2.23374
G1 X94.862 Y96.460 E2.23704
G1 X95.975 Y95.348 E2.28073
G1 Z2.400 F7800.000
G1 X96.754 Y95.019 F7800.000
G1 F4055.02
G1 X95.030 Y93.295 E2.34845
G1 X94.997 Y93.753 E2.36122
G1 X94.790 Y94.351 E2.37879
G1 X94.612 Y94.612 E2.38757
G1 X95.903 Y95.903 E2.43826
G1 X95.853 Y96.256 E2.44817
G1 X95.897 Y96.595 E2.45767
G1 X96.028 Y96.911 E2.46717
G1 X96.236 Y97.182 E2.47667
G1 X96.508 Y97.391 E2.48618
G1 X96.824 Y97.522 E2.49568
G1 X97.163 Y97.566 E2.50518
G1 X97.516 Y97.516 E2.51508
G1 X98.831 Y98.831 F7800.000
G1 F4055.02
G1 X99.059 Y98.314 E2.53078
G1 X99.419 Y99.419 E2.56305
G1 X100.364 Y100.364 E2.60020
G1 X100.815 Y99.080 F7800.000
G1 F4055.02
G1 X98.018 Y96.283 E2.71008
G1 X97.916 Y96.529 E2.71749
G1 X97.708 Y96.801 E2.72700
G1 X97.436 Y97.009 E2.73650
G1 X97.134 Y97.134 E2.74559
G1 X99.213 Y99.213 E2.82725
G1 X98.667 Y100.402 E2.86361
G1 X95.352 Y97.087 E2.99384
G1 X95.309 Y97.464 E3.00438
G1 X95.173 Y97.792 E3.01425
G1 X94.957 Y98.074 E3.02411
G1 X94.757 Y98.228 E3.03111
G1 X98.058 Y101.529 E3.16082
G1 X97.387 Y102.593 E3.19577
G1 X96.239 Y101.445 E3.24086
G1 X95.224 Y102.166 E3.27543
G1 X96.653 Y103.595 E3.33158
G1 X96.318 Y104.017 E3.34655
G1 X95.863 Y104.541 E3.36581
G1 X94.210 Y102.887 E3.43076
G1 X93.195 Y103.608 E3.46533
G1 X95.012 Y105.425 E3.53670
G1 X94.108 Y106.256 E3.57082
G1 X92.181 Y104.329 E3.64652
G1 X91.166 Y105.050 E3.68109
G1 X93.132 Y107.016 E3.75832
G1 X92.084 Y107.703 E3.79314
G1 X90.152 Y105.771 E3.86903
G1 X89.137 Y106.492 E3.90360
G1 X91.001 Y108.356 E3.97681
G1 X89.989 Y108.913 E4.00890
G1 X89.877 Y108.967 E4.01236
G1 X88.123 Y107.213 E4.08127
G1 E2.08127 F2400.00000
G92 E0
G1 X84.911 Y109.208 F7800.000
G1 E2.00000 F2400.00000
G1 F4055.02
G1 X84.955 Y109.617 E2.01142
G1 X85.023 Y109.883 E2.01905
G1 X85.117 Y110.142 E2.02669
G1 X85.304 Y110.499 E2.03788
G1 X86.100 Y110.397 E2.06017
G1 X84.530 Y108.827 E2.12187
G1 X84.524 Y108.589 E2.12846
G1 X84.575 Y108.139 E2.14105
G1 X84.642 Y107.877 E2.14855
G1 X84.736 Y107.619 E2.15618
G1 X84.841 Y107.402 E2.16287
G1 X87.471 Y110.033 E2.26620
G1 X88.704 Y109.530 E2.30318
G1 X85.523 Y106.349 E2.42817
G1 X86.187 Y105.277 E2.46318
G1 X87.888 Y106.979 E2.53002
G1 X88.055 Y106.511 E2.54382
G1 X88.109 Y106.244 E2.55138
G1 X88.136 Y105.973 E2.55894
G1 X88.113 Y105.468 E2.57299
G1 X86.818 Y104.173 E2.62387
G1 X87.414 Y103.033 E2.65959
G1 X89.131 Y104.750 E2.72704
G1 X90.306 Y104.190 E2.76321
G1 X87.974 Y101.858 E2.85483
G1 X88.498 Y100.646 E2.89149
G1 X89.910 Y102.058 E2.94696
G1 X89.965 Y101.934 E2.95073
G1 X90.077 Y101.497 E2.96327
G1 X90.103 Y101.286 E2.96919
G1 X90.099 Y100.595 E2.98838
G1 X90.173 Y100.586 E2.99044
G1 X88.980 Y99.393 E3.03729
G1 X89.033 Y99.247 E3.04161
G1 X90.569 Y99.246 E3.08427
G1 X91.721 Y100.398 E3.12952
G1 X93.269 Y100.211 E3.17284
G1 X92.304 Y99.246 E3.21075
G1 X93.729 Y99.246 E3.25033
G1 X93.760 Y98.967 E3.25812
G1 X94.817 Y100.024 E3.29964
G1 X93.802 Y99.008 F7800.000
G1 F4055.02
G1 X88.904 Y94.110 E3.49205
G1 X92.169 Y95.640 F7800.000
G1 F4055.02
G1 X92.766 Y95.683 E3.50866
G1 X93.387 Y95.564 E3.52624
G1 X93.685 Y95.420 E3.53541
G1 X94.402 Y96.137 E3.56358
G1 E1.56358 F2400.00000
G92 E0
G1 X95.138 Y98.609 F7800.000
G1 E2.00000 F2400.00000
G1 F4055.02
G1 X95.057 Y98.672 E2.00286
G1 X94.729 Y98.808 E2.01272
G1 X94.377 Y98.854 E2.02259
G1 X94.025 Y98.808 E2.03245
G1 X93.696 Y98.672 E2.04232
G1 X93.415 Y98.456 E2.05218
G1 X93.199 Y98.174 E2.06204
G1 X93.063 Y97.846 E2.07191
G1 X93.016 Y97.494 E2.08177
G1 X93.063 Y97.142 E2.09163
G1 X93.199 Y96.814 E2.10150
G1 X93.261 Y96.732 E2.10436
G1 X92.551 Y96.022 E2.13226
G1 X91.919 Y95.812 E2.15075
G1 X91.396 Y95.457 E2.16832
G1 X90.982 Y94.979 E2.18589
G1 X90.706 Y94.410 E2.20346
G1 X90.651 Y94.122 E2.21162
G1 X89.061 Y92.532 E2.27406
G1 X89.196 Y92.181 E2.28450
G1 X89.372 Y91.847 E2.29501
G1 X89.668 Y91.404 E2.30980
G1 X90.836 Y92.571 E2.35566
G1 X91.195 Y92.037 E2.37354
G1 X91.646 Y91.646 E2.39013
G1 X90.527 Y90.527 E2.43406
G1 X90.937 Y90.239 E2.44797
G1 X91.266 Y90.055 E2.45846
G1 X91.627 Y89.892 E2.46946
G1 X92.971 Y91.235 E2.52224
G1 X98.001 Y92.795 F7800.000
G1 F4055.02
G1 X94.703 Y89.496 E2.65182
G1 X94.091 Y89.489 E2.66882
G1 X93.035 Y89.564 E2.69822
G1 X105.456 Y101.985 E3.18617
G1 X103.821 Y101.205 E3.23649
G1 X103.546 Y101.672 E3.25153
G1 X109.067 Y105.596 E3.43966
G1 X108.685 Y105.214 F7800.000
G1 F4055.02
G1 X113.739 Y110.268 E3.63819
G1 X114.289 Y110.397 E3.65390
G1 X115.078 Y110.496 E3.67599
G1 X115.286 Y110.080 E3.68892
G1 X112.652 Y107.445 E3.79242
G1 X112.669 Y107.427 E3.79311
G1 X112.258 Y106.873 E3.81226
G1 X112.130 Y106.638 E3.81969
G1 X112.025 Y106.387 E3.82725
G1 X111.945 Y106.127 E3.83482
G1 X111.891 Y105.860 E3.84238
G1 X111.864 Y105.589 E3.84994
G1 X111.864 Y105.317 E3.85751
G1 X111.899 Y104.957 E3.86754
G1 X115.413 Y108.471 E4.00557
G1 X110.883 Y109.148 F7800.000
G1 F4055.02
G1 X100.964 Y99.228 E4.39525
G1 X101.492 Y100.339 E4.42942
G1 X101.873 Y101.034 E4.45144
G1 X102.283 Y101.713 E4.47346
G1 X102.722 Y102.373 E4.49547
G1 X103.189 Y103.013 E4.51749
G1 X103.682 Y103.633 E4.53951
G1 X104.006 Y104.006 E4.55324
G1 X106.094 Y106.094 E4.63523
G1 X105.698 Y105.741 E4.64995
G1 X105.129 Y105.189 E4.67197
G1 X104.388 Y104.388 E4.70226
G1 E2.70226 F2400.00000
G92 E0
G1 X106.225 Y101.019 F7800.000
G1 E2.00000 F2400.00000
G1 F4055.02
G1 X108.773 Y103.567 E2.10010
G1 X112.091 Y105.149 E2.20220
G1 X109.542 Y102.600 E2.30230
G1 X110.455 Y103.036 E2.33040
G1 X110.741 Y102.660 E2.34351
G1 X110.330 Y102.145 E2.36182
G1 X110.219 Y101.963 E2.36774
G1 X110.035 Y101.550 E2.38028
G1 X109.969 Y101.291 E2.38771
G1 X113.126 Y104.449 E2.51176
G1 X111.548 Y101.135 F7800.000
G1 F4055.02
G1 X109.657 Y99.244 E2.58603
G1 X107.922 Y99.244 E2.63425
G1 X109.130 Y100.453 E2.68174
G1 X107.156 Y100.214 E2.73699
G1 X106.233 Y99.291 F7800.000
G1 F4055.02
G1 X106.213 Y99.114 E2.74193
G1 X107.052 Y98.867 E2.76622
G1 X107.403 Y98.726 E2.77674
G1 X106.657 Y97.979 E2.80606
G1 X106.801 Y97.790 E2.81267
G1 X106.937 Y97.462 E2.82254
G1 X106.984 Y97.110 E2.83240
G1 X106.937 Y96.758 E2.84227
G1 X106.801 Y96.430 E2.85213
G1 X106.664 Y96.251 E2.85839
G1 X108.529 Y98.116 E2.93163
G1 E0.93163 F2400.00000
G92 E0
G1 X106.116 Y95.703 F7800.000
G1 E2.00000 F2400.00000
G1 F4055.02
G1 X106.044 Y95.668 E2.00224
G1 X105.565 Y95.254 E2.01981
G1 X105.351 Y94.938 E2.03042
G1 X102.308 Y91.895 E2.14994
G1 X102.959 Y90.811 E2.18508
G1 X105.069 Y92.920 E2.26795
G1 X105.353 Y92.311 E2.28661
G1 X105.744 Y91.860 E2.30321
G1 X103.610 Y89.726 E2.38702
G1 X103.693 Y89.589 E2.39147
G1 X104.411 Y89.513 E2.41153
G1 X105.114 Y89.494 E2.43105
G1 X106.890 Y91.271 E2.50084
G1 E0.50084 F2400.00000
G92 E0
G1 X110.730 Y93.375 F7800.000
G1 E2.00000 F2400.00000
G1 F4055.02
G1 X110.712 Y93.135 E2.00670
G1 X110.602 Y92.646 E2.02061
G1 X110.420 Y92.175 E2.03464
G1 X110.246 Y91.844 E2.04502
G1 X110.044 Y91.526 E2.05551
G1 X109.816 Y91.225 E2.06600
G1 X109.563 Y90.944 E2.07649
G1 X109.289 Y90.684 E2.08698
G1 X108.994 Y90.448 E2.09747
G1 X108.681 Y90.237 E2.10796
G1 X108.352 Y90.053 E2.11844
G1 X108.008 Y89.896 E2.12893
G1 X107.653 Y89.768 E2.13942
G1 X107.288 Y89.669 E2.14991
G1 X106.965 Y89.610 E2.15906
G1 X111.112 Y93.757 E2.32198
G1 X110.884 Y95.264 F7800.000
G1 F4055.02
G1 X109.351 Y93.731 E2.38220
G1 X109.294 Y94.026 E2.39053
G1 X109.018 Y94.595 E2.40811
G1 X108.768 Y94.884 E2.41872
G1 X110.274 Y96.390 E2.47787
G1 X109.977 Y96.789 E2.49168
G1 X109.480 Y97.332 E2.51212
G1 X107.707 Y95.558 E2.58180
G1 X107.483 Y95.636 E2.58838
G1 X106.852 Y95.681 E2.60595
G1 X106.231 Y95.562 E2.62352
G1 X105.734 Y95.321 E2.63885
G1 X106.864 Y96.451 E2.68324
G1 X106.685 Y96.314 E2.68950
G1 X106.357 Y96.178 E2.69937
G1 X106.005 Y96.132 E2.70923
G1 X105.653 Y96.178 E2.71909
G1 X105.325 Y96.314 E2.72896
G1 X105.136 Y96.459 E2.73557
G1 X104.027 Y95.349 E2.77915
G1 X104.103 Y95.533 E2.78465
G1 X104.147 Y95.872 E2.79415
G1 X104.103 Y96.211 E2.80366
G1 X103.972 Y96.527 E2.81316
G1 X103.750 Y96.808 E2.82311
G1 X104.677 Y97.735 E2.85950
G1 X104.691 Y97.844 E2.86256
G1 X104.827 Y98.172 E2.87242
G1 X105.043 Y98.454 E2.88228
G1 X105.325 Y98.670 E2.89215
G1 X105.653 Y98.806 E2.90201
G1 X105.762 Y98.820 E2.90507
G1 X106.233 Y99.291 E2.92358
G1 X106.271 Y99.625 E2.93291
G1 X106.567 Y99.625 E2.94115
G1 X107.156 Y100.214 E2.96427
G1 X105.182 Y99.975 E3.01952
G1 X102.235 Y97.029 E3.13527
G1 E1.13527 F2400.00000
G92 E0
G1 X103.741 Y95.064 F7800.000
G1 E2.00000 F2400.00000
G1 F4055.02
G1 X101.657 Y92.980 E2.08187
G1 X101.006 Y94.064 E2.11700
G1 X102.282 Y95.340 E2.16713
G1 X102.084 Y95.598 E2.17617
G1 X101.953 Y95.914 E2.18567
G1 X101.908 Y96.254 E2.19518
G1 X101.953 Y96.593 E2.20468
G1 X102.062 Y96.855 E2.21257
G1 X99.570 Y94.363 E2.31047
G1 F4055.02
G1 X99.675 Y92.733 E2.35585
G1 X100.343 Y93.401 E2.38210
G1 E0.38210 F2400.00000
G92 E0
G1 X96.182 Y101.388 F7800.000
G1 E2.00000 F2400.00000
G1 F4055.02
G1 X95.033 Y100.239 E2.04515
G1 X93.857 Y100.799 E2.08131
G1 X95.007 Y101.949 E2.12646
G1 X93.831 Y102.509 E2.16262
G1 X92.682 Y101.360 E2.20776
G1 X91.507 Y101.920 E2.24393
G1 X92.656 Y103.069 E2.28907
G1 X91.481 Y103.630 E2.32524
G1 X90.332 Y102.480 E2.37038
G1 Z2.800 F7800.000
G1 E0.37038 F2400.00000
G92 E0
G1 X90.340 Y99.247 F7800.000
G1 E2.00000 F2400.00000
G1 F3971.16
G1 X88.453 Y101.134 E2.07413
G1 X87.850 Y102.515 E2.11600
G1 X87.479 Y103.291 E2.13991
G1 X86.876 Y104.446 E2.17609
G1 X89.657 Y101.666 E2.28533
G1 X89.721 Y101.280 E2.29618
G1 X89.718 Y100.595 E2.31523
G1 X90.867 Y100.455 E2.34740
G1 X92.076 Y99.246 E2.39490
G1 X93.812 Y99.246 E2.44312
G1 X92.841 Y100.217 E2.48126
G1 X93.767 Y99.291 F7800.000
G1 F3971.16
G1 X94.617 Y98.441 E2.51466
G1 X94.377 Y98.473 E2.52139
G1 X94.025 Y98.426 E2.53126
G1 X93.696 Y98.290 E2.54112
G1 X93.415 Y98.074 E2.55098
G1 X93.343 Y97.980 E2.55428
G1 X92.595 Y98.727 E2.58364
G1 X92.003 Y98.445 E2.60186
G1 X91.470 Y98.117 E2.61924
G1 X93.343 Y96.244 E2.69282
G1 X93.126 Y96.461 F7800.000
G1 F3971.16
G1 X94.262 Y95.325 E2.73741
G1 X93.769 Y95.564 E2.75261
G1 X93.148 Y95.683 E2.77018
G1 X92.517 Y95.638 E2.78776
G1 X92.292 Y95.560 E2.79438
G1 X90.519 Y97.333 E2.86403
G1 X90.023 Y96.791 E2.88444
G1 X89.725 Y96.391 E2.89829
G1 X91.231 Y94.885 E2.95743
G1 X90.982 Y94.597 E2.96801
G1 X90.706 Y94.028 E2.98558
G1 X90.649 Y93.732 E2.99397
G1 X89.116 Y95.265 E3.05420
G1 X89.016 Y95.007 E3.06188
G1 X88.905 Y94.514 E3.07593
G1 X88.871 Y93.956 E3.09143
G1 X88.887 Y93.758 E3.09695
G1 X93.033 Y89.612 E3.25982
G1 E1.25982 F2400.00000
G92 E0
G1 X90.267 Y94.113 F7800.000
G1 E2.00000 F2400.00000
G1 F3971.16
G1 X90.205 Y93.789 E2.00919
G1 X90.250 Y93.158 E2.02676
G1 X90.458 Y92.560 E2.04433
G1 X90.813 Y92.037 E2.06190
G1 X91.291 Y91.623 E2.07947
G1 X91.860 Y91.347 E2.09704
G1 X92.481 Y91.227 E2.11461
G1 X93.108 Y91.273 E2.13206
G1 X94.887 Y89.494 E2.20193
G1 X95.311 Y89.499 E2.21372
G1 X96.306 Y89.590 E2.24148
G1 X96.389 Y89.727 E2.24594
G1 X94.255 Y91.861 E2.32975
G1 X94.647 Y92.314 E2.34639
G1 X94.931 Y92.921 E2.36500
G1 X97.040 Y90.812 E2.44786
G1 X97.691 Y91.896 E2.48299
G1 X94.654 Y94.933 E2.60231
G1 X95.593 Y95.730 F7800.000
G1 F3971.16
G1 X95.646 Y95.601 E2.60619
G1 X95.855 Y95.329 E2.61569
G1 X96.126 Y95.121 E2.62520
G1 X96.255 Y95.067 E2.62908
G1 X98.342 Y92.980 E2.71106
G1 X98.993 Y94.065 E2.74620
G1 X97.717 Y95.341 E2.79633
G1 X97.940 Y96.854 F7800.000
G1 F3971.16
G1 X100.430 Y94.363 E2.89417
G1 X100.325 Y92.733 E2.93955
G1 X99.657 Y93.401 E2.96580
G1 X99.739 Y92.122 E3.00142
G1 X99.879 Y92.121 E3.00530
G1 X99.943 Y93.115 E3.03295
G1 E1.03295 F2400.00000
G92 E0
G1 X101.995 Y92.798 F7800.000
G1 E2.00000 F2400.00000
G1 F3971.16
G1 X105.293 Y89.500 E2.12956
G1 X104.098 Y95.902 F7800.000
G1 F3971.16
G1 X105.388 Y94.612 E2.18026
G1 X105.210 Y94.349 E2.18908
G1 X105.003 Y93.751 E2.20666
G1 X104.970 Y93.295 E2.21937
G1 X103.247 Y95.017 E2.28704
G1 X103.176 Y94.988 E2.28917
G1 X102.837 Y94.943 E2.29868
G1 X102.498 Y94.988 E2.30818
G1 X102.182 Y95.119 E2.31768
G1 X101.910 Y95.327 E2.32718
G1 X101.702 Y95.598 E2.33669
G1 X101.571 Y95.914 E2.34619
G1 X101.527 Y96.254 E2.35569
G1 X101.571 Y96.593 E2.36519
G1 X101.601 Y96.664 E2.36733
G1 E0.36733 F2400.00000
G92 E0
G1 X104.266 Y97.469 F7800.000
G1 E2.00000 F2400.00000
G1 F3971.16
G1 X104.309 Y97.140 E2.00923
G1 X104.445 Y96.812 E2.01910
G1 X104.662 Y96.530 E2.02896
G1 X104.943 Y96.314 E2.03882
G1 X105.271 Y96.178 E2.04869
G1 X105.601 Y96.135 E2.05792
G1 X106.317 Y95.419 E2.08605
G1 X106.548 Y95.531 E2.09319
G1 X106.548 Y95.550 E2.09372
G1 X107.234 Y95.681 E2.11311
G1 X107.833 Y95.638 E2.12979
G1 X106.740 Y96.731 E2.17275
G1 E0.17275 F2400.00000
G92 E0
G1 X106.201 Y99.005 F7800.000
G1 E2.00000 F2400.00000
G1 F3971.16
G1 X111.096 Y94.111 E2.19228
G1 X111.131 Y93.634 E2.20554
G1 X111.094 Y93.135 E2.21946
G1 X110.984 Y92.646 E2.23337
G1 X110.940 Y92.531 E2.23679
G1 X109.349 Y94.122 E2.29928
G1 X109.413 Y93.786 E2.30878
G1 X109.368 Y93.156 E2.32635
G1 X109.165 Y92.571 E2.34354
G1 X110.332 Y91.403 E2.38941
G1 X109.945 Y90.944 E2.40610
G1 X109.474 Y90.526 E2.42359
G1 X108.355 Y91.645 E2.46753
G1 X107.758 Y91.344 E2.48610
G1 X107.137 Y91.225 E2.50367
G1 X107.032 Y91.233 E2.50660
G1 X108.374 Y89.890 E2.55935
G1 X108.035 Y89.768 E2.56938
G1 X107.670 Y89.669 E2.57987
G1 X106.967 Y89.562 E2.59962
G1 X94.540 Y101.989 E3.08781
G1 X91.223 Y103.571 E3.18990
G1 X93.771 Y101.023 E3.29000
G1 X90.453 Y102.605 E3.39210
G1 X87.905 Y105.153 E3.49220
G1 X87.709 Y105.246 E3.49823
G1 X87.719 Y105.339 E3.50083
G1 X88.100 Y104.958 F7800.000
G1 F3971.16
G1 X84.588 Y108.470 E3.63882
G1 X84.532 Y108.797 E3.64802
G1 X84.519 Y109.071 E3.65565
G1 X84.532 Y109.346 E3.66328
G1 X84.642 Y109.886 E3.67859
G1 X84.713 Y110.080 E3.68435
G1 X87.347 Y107.446 E3.78782
G1 X87.676 Y107.802 E3.80129
G1 X91.308 Y105.221 E3.92504
G1 X86.258 Y110.271 E4.12339
G1 X86.629 Y110.184 E4.13396
G1 X87.222 Y109.989 E4.15130
G1 X88.363 Y109.514 E4.18563
G1 X89.112 Y109.152 E4.20875
G1 X98.656 Y99.608 E4.58367
G1 X99.059 Y98.696 E4.61138
G1 X99.184 Y99.080 E4.62260
G1 X101.983 Y96.282 E4.73253
G1 X102.084 Y96.527 E4.73989
G1 X102.292 Y96.798 E4.74940
G1 X102.564 Y97.007 E4.75890
G1 X102.868 Y97.132 E4.76803
G1 X100.788 Y99.212 E4.84973
G1 X101.334 Y100.402 E4.88609
G1 X104.648 Y97.088 E5.01628
G1 X104.691 Y97.462 E5.02675
G1 X104.827 Y97.790 E5.03662
G1 X105.043 Y98.072 E5.04648
G1 X105.245 Y98.226 E5.05353
G1 X101.941 Y101.530 E5.18329
G1 X102.283 Y102.094 E5.20163
G1 X102.614 Y102.592 E5.21824
G1 X103.381 Y101.826 E5.24835
G1 X103.164 Y101.672 E5.25572
G1 X103.439 Y101.205 E5.27077
G1 X103.820 Y101.387 E5.28248
G1 X104.587 Y100.619 E5.31263
G1 X104.107 Y100.390 E5.32741
G1 X104.247 Y99.908 E5.34135
G1 X105.185 Y100.022 E5.36759
G1 X106.240 Y98.967 E5.40904
G1 X106.271 Y99.244 E5.41678
G1 X107.698 Y99.244 E5.45642
G1 X106.733 Y100.209 E5.49434
G1 X108.281 Y100.396 E5.53766
G1 X109.433 Y99.244 E5.58292
G1 X110.967 Y99.245 E5.62551
G1 X111.021 Y99.392 E5.62988
G1 X109.829 Y100.584 E5.67669
G1 X109.901 Y100.592 E5.67868
G1 X109.897 Y101.279 E5.69775
G1 X109.959 Y101.665 E5.70861
G1 X110.034 Y101.929 E5.71625
G1 X110.091 Y102.058 E5.72015
G1 X111.503 Y100.646 E5.77561
G1 X112.027 Y101.857 E5.81228
G1 X109.695 Y104.189 E5.90387
G1 X110.871 Y104.749 E5.94003
G1 X112.587 Y103.033 E6.00745
G1 X113.183 Y104.172 E6.04317
G1 X111.887 Y105.468 E6.09409
G1 X111.864 Y105.971 E6.10807
G1 X111.891 Y106.242 E6.11564
G1 X111.945 Y106.509 E6.12320
G1 X112.112 Y106.978 E6.13704
G1 X113.814 Y105.276 E6.20389
G1 X114.478 Y106.348 E6.23891
G1 X111.297 Y109.529 E6.36386
G1 X112.530 Y110.031 E6.40085
G1 X115.160 Y107.402 E6.50414
G1 X115.264 Y107.617 E6.51078
G1 X115.358 Y107.875 E6.51841
G1 X115.426 Y108.141 E6.52604
G1 X115.468 Y108.413 E6.53368
G1 X115.475 Y108.822 E6.54505
G1 X113.902 Y110.395 E6.60684
G1 E4.60684 F2400.00000
G92 E0
G1 X110.124 Y108.966 F7800.000
G1 E2.00000 F2400.00000
G1 F3971.16
G1 X111.878 Y107.212 E2.06890
G1 X110.864 Y106.491 E2.10347
G1 X109.000 Y108.355 E2.17668
G1 X107.918 Y107.702 E2.21180
G1 X109.849 Y105.770 E2.28769
G1 X108.835 Y105.049 E2.32226
G1 X106.869 Y107.015 E2.39949
G1 X106.519 Y106.767 E2.41139
G1 X105.893 Y106.255 E2.43386
G1 X107.820 Y104.328 E2.50956
G1 X106.806 Y103.607 E2.54413
G1 X104.989 Y105.424 E2.61551
G1 X104.138 Y104.540 E2.64960
G1 X105.791 Y102.886 E2.71456
G1 X104.777 Y102.165 E2.74913
G1 X103.347 Y103.594 E2.80529
G1 X102.614 Y102.592 E2.83979
G1 X103.820 Y101.387 F7800.000
G1 F3971.16
G1 X104.995 Y101.947 E2.87595
G1 X106.144 Y100.798 E2.92109
G1 X107.319 Y101.358 E2.95726
G1 X106.170 Y102.507 E3.00240
G1 X107.345 Y103.068 E3.03857
G1 X108.494 Y101.919 E3.08371
G1 X109.669 Y102.479 E3.11988
G1 X108.520 Y103.628 E3.16502
G1 E1.16502 F2400.00000
G92 E0
G1 X100.015 Y99.985 F7800.000
G1 E2.00000 F2400.00000
G1 F3971.16
G1 X100.474 Y99.982 E2.01275
G1 X100.446 Y99.833 E2.01696
G1 X100.580 Y99.420 E2.02903
G1 X99.634 Y100.366 E2.06623
G1 X99.038 Y99.226 F7800.000
G1 F3971.16
G1 X98.508 Y100.342 E2.10052
G1 X98.127 Y101.037 E2.12254
G1 X97.717 Y101.715 E2.14455
G1 X97.278 Y102.375 E2.16657
G1 X96.811 Y103.015 E2.18859
G1 X96.318 Y103.635 E2.21060
G1 X96.008 Y103.992 E2.22373
G1 X93.887 Y106.113 E2.30706
G1 E0.30706 F2400.00000
G92 E0
G1 X94.816 Y99.978 F7800.000
G1 E2.00000 F2400.00000
G1 F3971.16
G1 X97.761 Y97.032 E2.11570
G1 X97.502 Y97.140 E2.12349
G1 X97.163 Y97.184 E2.13299
G1 X96.824 Y97.140 E2.14249
G1 X96.508 Y97.009 E2.15200
G1 X96.248 Y96.810 E2.16108
G1 X95.323 Y97.735 E2.19741
G1 X95.355 Y97.494 E2.20415
G1 X95.309 Y97.142 E2.21401
G1 X95.173 Y96.814 E2.22388
G1 X94.957 Y96.532 E2.23374
G1 X94.862 Y96.460 E2.23704
G1 X95.975 Y95.348 E2.28073
G1 Z3.200 F7800.000
G1 X96.754 Y95.019 F7800.000
G1 F4055.39
G1 X95.030 Y93.295 E2.34845
G1 X94.997 Y93.753 E2.36122
G1 X94.790 Y94.351 E2.37879
G1 X94.612 Y94.612 E2.38757
G1 X95.903 Y95.903 E2.43826
G1 X95.853 Y96.256 E2.44817
G1 X95.897 Y96.595 E2.45767
G1 X96.028 Y96.911 E2.46717
G1 X96.236 Y97.182 E2.47667
G1 X96.508 Y97.391 E2.48618
G1 X96.824 Y97.522 E2.49568
G1 X97.163 Y97.566 E2.50518
G1 X97.516 Y97.516 E2.51508
G1 X98.831 Y98.831 F7800.000
G1 F4055.39
G1 X99.059 Y98.314 E2.53078
G1 X99.419 Y99.419 E2.56305
G1 X100.364 Y100.364 E2.60020
G1 X100.815 Y99.080 F7800.000
G1 F4055.39
G1 X98.018 Y96.283 E2.71008
G1 X97.916 Y96.529 E2.71749
G1 X97.708 Y96.801 E2.72700
G1 X97.436 Y97.009 E2.73650
G1 X97.134 Y97.134 E2.74559
G1 X99.213 Y99.213 E2.82725
G1 X98.667 Y100.402 E2.86361
G1 X95.352 Y97.087 E2.99384
G1 X95.309 Y97.464 E3.00438
G1 X95.173 Y97.792 E3.01425
G1 X94.957 Y98.074 E3.02411
G1 X94.757 Y98.228 E3.03111
G1 X98.060 Y101.531 E3.16086
G1 X97.717 Y102.097 E3.17924
G1 X97.387 Y102.593 E3.19581
G1 X96.239 Y101.445 E3.24090
G1 X95.224 Y102.166 E3.27548
G1 X96.653 Y103.595 E3.33162
G1 X96.318 Y104.017 E3.34660
G1 X95.863 Y104.541 E3.36585
G1 X94.210 Y102.887 E3.43080
G1 X93.195 Y103.608 E3.46537
G1 X95.012 Y105.425 E3.53674
G1 X94.108 Y106.256 E3.57086
G1 X92.181 Y104.329 E3.64656
G1 X91.166 Y105.050 E3.68113
G1 X93.132 Y107.016 E3.75836
G1 X92.084 Y107.703 E3.79318
G1 X90.152 Y105.771 E3.86907
G1 X89.137 Y106.492 E3.90364
G1 X91.001 Y108.356 E3.97686
G1 X89.989 Y108.913 E4.00895
G1 X89.877 Y108.967 E4.01241
G1 X88.123 Y107.213 E4.08131
G1 E2.08131 F2400.00000
G92 E0
G1 X84.909 Y109.206 F7800.000
G1 E2.00000 F2400.00000
G1 F4055.39
G1 X84.955 Y109.617 E2.01150
G1 X85.023 Y109.883 E2.01913
G1 X85.117 Y110.142 E2.02676
G1 X85.304 Y110.499 E2.03795
G1 X86.100 Y110.397 E2.06024
G1 X84.527 Y108.824 E2.12203
G1 X84.532 Y108.415 E2.13340
G1 X84.574 Y108.143 E2.14103
G1 X84.642 Y107.877 E2.14866
G1 X84.736 Y107.619 E2.15629
G1 X84.841 Y107.402 E2.16298
G1 X87.471 Y110.033 E2.26631
G1 X88.704 Y109.530 E2.30329
G1 X85.523 Y106.349 E2.42828
G1 X86.187 Y105.277 E2.46329
G1 X87.888 Y106.979 E2.53013
G1 X88.055 Y106.511 E2.54393
G1 X88.109 Y106.244 E2.55149
G1 X88.136 Y105.973 E2.55905
G1 X88.113 Y105.468 E2.57310
G1 X86.818 Y104.173 E2.62398
G1 X87.414 Y103.033 E2.65970
G1 X89.131 Y104.750 E2.72715
G1 X90.306 Y104.190 E2.76331
G1 X87.974 Y101.858 E2.85494
G1 X88.498 Y100.646 E2.89160
G1 X89.910 Y102.058 E2.94707
G1 X89.967 Y101.930 E2.95099
G1 X90.029 Y101.726 E2.95690
G1 X90.103 Y101.280 E2.96944
G1 X90.100 Y100.594 E2.98850
G1 X90.173 Y100.586 E2.99052
G1 X88.980 Y99.393 E3.03737
G1 X89.033 Y99.247 E3.04170
G1 X90.569 Y99.246 E3.08435
G1 X91.721 Y100.398 E3.12960
G1 X93.269 Y100.211 E3.17292
G1 X92.304 Y99.246 E3.21083
G1 X93.755 Y99.246 E3.25114
G1 X93.760 Y98.967 E3.25888
G1 X94.817 Y100.024 E3.30040
G1 X93.802 Y99.008 F7800.000
G1 F4055.39
G1 X88.904 Y94.111 E3.49280
G1 X92.169 Y95.640 F7800.000
G1 F4055.39
G1 X92.766 Y95.683 E3.50942
G1 X93.387 Y95.564 E3.52699
G1 X93.685 Y95.420 E3.53616
G1 X94.402 Y96.137 E3.56434
G1 E1.56434 F2400.00000
G92 E0
G1 X95.138 Y98.609 F7800.000
G1 E2.00000 F2400.00000
G1 F4055.39
G1 X95.057 Y98.672 E2.00286
G1 X94.729 Y98.808 E2.01272
G1 X94.377 Y98.854 E2.02259
G1 X94.025 Y98.808 E2.03245
G1 X93.696 Y98.672 E2.04232
G1 X93.415 Y98.456 E2.05218
G1 X93.199 Y98.174 E2.06204
G1 X93.084 Y97.898 E2.07036
G1 X93.063 Y97.846 E2.07191
G1 X93.016 Y97.494 E2.08177
G1 X93.063 Y97.142 E2.09163
G1 X93.199 Y96.814 E2.10150
G1 X93.261 Y96.732 E2.10436
G1 X92.551 Y96.022 E2.13226
G1 X91.919 Y95.812 E2.15075
G1 X91.396 Y95.457 E2.16832
G1 X90.982 Y94.979 E2.18589
G1 X90.706 Y94.410 E2.20346
G1 X90.651 Y94.122 E2.21162
G1 X89.061 Y92.532 E2.27406
G1 X89.196 Y92.181 E2.28450
G1 X89.372 Y91.847 E2.29501
G1 X89.668 Y91.404 E2.30980
G1 X90.836 Y92.571 E2.35566
G1 X91.195 Y92.037 E2.37354
G1 X91.646 Y91.646 E2.39013
G1 X90.527 Y90.527 E2.43406
G1 X90.937 Y90.239 E2.44797
G1 X91.266 Y90.055 E2.45846
G1 X91.627 Y89.892 E2.46946
G1 X92.971 Y91.235 E2.52224
G1 X98.001 Y92.795 F7800.000
G1 F4055.39
G1 X94.703 Y89.496 E2.65182
G1 X94.091 Y89.489 E2.66882
G1 X93.035 Y89.564 E2.69822
G1 X105.456 Y101.985 E3.18617
G1 X103.821 Y101.205 E3.23649
G1 X103.546 Y101.672 E3.25153
G1 X109.067 Y105.596 E3.43966
G1 X108.685 Y105.214 F7800.000
G1 F4055.39
G1 X113.739 Y110.268 E3.63819
G1 X114.289 Y110.397 E3.65390
G1 X115.078 Y110.496 E3.67599
G1 X115.286 Y110.080 E3.68892
G1 X112.652 Y107.445 E3.79242
G1 X112.668 Y107.428 E3.79307
G1 X112.258 Y106.873 E3.81223
G1 X112.130 Y106.638 E3.81966
G1 X112.025 Y106.387 E3.82722
G1 X111.945 Y106.127 E3.83478
G1 X111.891 Y105.860 E3.84235
G1 X111.864 Y105.589 E3.84991
G1 X111.864 Y105.317 E3.85748
G1 X111.899 Y104.957 E3.86751
G1 X115.413 Y108.471 E4.00554
G1 X110.883 Y109.148 F7800.000
G1 F4055.39
G1 X100.964 Y99.228 E4.39522
G1 X101.441 Y100.237 E4.42622
G1 X101.873 Y101.035 E4.45142
G1 X102.283 Y101.713 E4.47342
G1 X102.722 Y102.373 E4.49544
G1 X103.189 Y103.013 E4.51746
G1 X103.682 Y103.633 E4.53947
G1 X104.006 Y104.006 E4.55320
G1 X106.094 Y106.094 E4.63519
G1 X105.698 Y105.741 E4.64992
G1 X105.129 Y105.190 E4.67191
G1 X104.388 Y104.388 E4.70223
G1 E2.70223 F2400.00000
G92 E0
G1 X106.225 Y101.019 F7800.000
G1 E2.00000 F2400.00000
G1 F4055.39
G1 X108.773 Y103.567 E2.10010
G1 X112.091 Y105.149 E2.20220
G1 X109.542 Y102.600 E2.30230
G1 X110.455 Y103.036 E2.33040
G1 X110.741 Y102.660 E2.34351
G1 X110.330 Y102.145 E2.36182
G1 X110.219 Y101.963 E2.36774
G1 X110.035 Y101.550 E2.38028
G1 X109.969 Y101.291 E2.38771
G1 X113.126 Y104.449 E2.51176
G1 X111.548 Y101.135 F7800.000
G1 F4055.39
G1 X109.657 Y99.244 E2.58603
G1 X107.922 Y99.244 E2.63425
G1 X109.130 Y100.453 E2.68174
G1 X107.156 Y100.214 E2.73699
G1 X106.233 Y99.291 F7800.000
G1 F4055.39
G1 X106.213 Y99.114 E2.74193
G1 X107.052 Y98.867 E2.76622
G1 X107.403 Y98.726 E2.77674
G1 X106.657 Y97.979 E2.80606
G1 X106.801 Y97.790 E2.81267
G1 X106.937 Y97.462 E2.82254
G1 X106.984 Y97.110 E2.83240
G1 X106.937 Y96.758 E2.84227
G1 X106.801 Y96.430 E2.85213
G1 X106.664 Y96.251 E2.85839
G1 X108.529 Y98.116 E2.93163
G1 E0.93163 F2400.00000
G92 E0
G1 X106.116 Y95.703 F7800.000
G1 E2.00000 F2400.00000
G1 F4055.39
G1 X106.044 Y95.668 E2.00224
G1 X105.565 Y95.254 E2.01981
G1 X105.351 Y94.938 E2.03042
G1 X102.308 Y91.895 E2.14994
G1 X102.959 Y90.811 E2.18508
G1 X105.069 Y92.920 E2.26795
G1 X105.353 Y92.311 E2.28661
G1 X105.744 Y91.860 E2.30321
G1 X103.610 Y89.726 E2.38702
G1 X103.693 Y89.589 E2.39147
G1 X104.413 Y89.513 E2.41159
G1 X105.106 Y89.487 E2.43085
G1 X106.890 Y91.271 E2.50093
G1 E0.50093 F2400.00000
G92 E0
G1 X110.730 Y93.375 F7800.000
G1 E2.00000 F2400.00000
G1 F4055.39
G1 X110.712 Y93.135 E2.00670
G1 X110.602 Y92.646 E2.02061
G1 X110.420 Y92.175 E2.03464
G1 X110.246 Y91.844 E2.04502
G1 X110.044 Y91.526 E2.05551
G1 X109.816 Y91.225 E2.06600
G1 X109.563 Y90.944 E2.07649
G1 X109.289 Y90.684 E2.08698
G1 X108.994 Y90.448 E2.09747
G1 X108.681 Y90.237 E2.10796
G1 X108.352 Y90.053 E2.11844
G1 X108.008 Y89.896 E2.12893
G1 X107.653 Y89.768 E2.13942
G1 X107.288 Y89.669 E2.14991
G1 X106.965 Y89.610 E2.15906
G1 X111.112 Y93.757 E2.32198
G1 X110.884 Y95.264 F7800.000
G1 F4055.39
G1 X109.351 Y93.731 E2.38220
G1 X109.294 Y94.026 E2.39053
G1 X109.018 Y94.595 E2.40811
G1 X108.768 Y94.884 E2.41872
G1 X110.274 Y96.390 E2.47787
G1 X109.977 Y96.789 E2.49168
G1 X109.480 Y97.332 E2.51212
G1 X107.707 Y95.558 E2.58180
G1 X107.483 Y95.636 E2.58838
G1 X106.852 Y95.681 E2.60595
G1 X106.231 Y95.562 E2.62352
G1 X105.734 Y95.321 E2.63885
G1 X106.864 Y96.451 E2.68324
G1 X106.685 Y96.314 E2.68950
G1 X106.342 Y96.172 E2.69982
G1 X106.005 Y96.132 E2.70925
G1 X105.653 Y96.178 E2.71911
G1 X105.325 Y96.314 E2.72897
G1 X105.136 Y96.459 E2.73558
G1 X104.027 Y95.349 E2.77916
G1 X104.103 Y95.533 E2.78467
G1 X104.147 Y95.872 E2.79417
G1 X104.103 Y96.211 E2.80367
G1 X103.972 Y96.527 E2.81317
G1 X103.750 Y96.808 E2.82312
G1 X104.677 Y97.735 E2.85952
G1 X104.691 Y97.844 E2.86257
G1 X104.827 Y98.172 E2.87244
G1 X105.043 Y98.454 E2.88230
G1 X105.325 Y98.670 E2.89216
G1 X105.653 Y98.806 E2.90203
G1 X105.762 Y98.820 E2.90508
G1 X106.233 Y99.291 E2.92359
G1 X106.271 Y99.625 E2.93293
G1 X106.567 Y99.625 E2.94116
G1 X107.156 Y100.214 E2.96429
G1 X105.182 Y99.975 E3.01953
G1 X102.235 Y97.029 E3.13528
G1 E1.13528 F2400.00000
G92 E0
G1 X103.741 Y95.064 F7800.000
G1 E2.00000 F2400.00000
G1 F4055.39
G1 X101.657 Y92.980 E2.08187
G1 X101.006 Y94.064 E2.11700
G1 X102.282 Y95.340 E2.16713
G1 X102.084 Y95.598 E2.17617
G1 X101.953 Y95.914 E2.18567
G1 X101.908 Y96.254 E2.19518
G1 X101.953 Y96.593 E2.20468
G1 X102.062 Y96.855 E2.21257
G1 X99.570 Y94.363 E2.31047
G1 F4055.39
G1 X99.675 Y92.733 E2.35585
G1 X100.343 Y93.401 E2.38210
G1 E0.38210 F2400.00000
G92 E0
G1 X96.182 Y101.388 F7800.000
G1 E2.00000 F2400.00000
G1 F4055.39
G1 X95.033 Y100.239 E2.04515
G1 X93.857 Y100.799 E2.08131
G1 X95.007 Y101.949 E2.12646
G1 X93.831 Y102.509 E2.16262
G1 X92.682 Y101.360 E2.20777
G1 X91.507 Y101.920 E2.24393
G1 X92.656 Y103.069 E2.28907
G1 X91.481 Y103.630 E2.32524
G1 X90.332 Y102.480 E2.37038
G1 Z3.600 F7800.000
G1 E0.37038 F2400.00000
G92 E0
G1 X90.340 Y99.247 F7800.000
G1 E2.00000 F2400.00000
G1 F3971.18
G1 X88.453 Y101.134 E2.07413
G1 X87.850 Y102.515 E2.11600
G1 X87.494 Y103.258 E2.13888
G1 X86.876 Y104.446 E2.17609
G1 X89.650 Y101.672 E2.28507
G1 X89.721 Y101.286 E2.29599
G1 X89.718 Y100.595 E2.31519
G1 X90.867 Y100.455 E2.34735
G1 X92.076 Y99.246 E2.39486
G1 X93.812 Y99.246 E2.44307
G1 X92.841 Y100.217 E2.48121
G1 X93.767 Y99.291 F7800.000
G1 F3971.18
G1 X94.617 Y98.441 E2.51461
G1 X94.377 Y98.473 E2.52135
G1 X94.025 Y98.426 E2.53121
G1 X93.696 Y98.290 E2.54108
G1 X93.415 Y98.074 E2.55094
G1 X93.343 Y97.980 E2.55424
G1 X92.595 Y98.727 E2.58359
G1 X92.003 Y98.445 E2.60181
G1 X91.470 Y98.117 E2.61920
G1 X93.343 Y96.244 E2.69277
G1 X93.126 Y96.461 F7800.000
G1 F3971.18
G1 X94.262 Y95.325 E2.73736
G1 X93.769 Y95.564 E2.75257
G1 X93.148 Y95.683 E2.77014
G1 X92.517 Y95.638 E2.78771
G1 X92.292 Y95.560 E2.79433
G1 X90.519 Y97.333 E2.86399
G1 X90.023 Y96.791 E2.88439
G1 X89.725 Y96.391 E2.89824
G1 X91.231 Y94.885 E2.95739
G1 X90.982 Y94.597 E2.96796
G1 X90.706 Y94.028 E2.98553
G1 X90.649 Y93.732 E2.99392
G1 X89.116 Y95.265 E3.05415
G1 X89.016 Y95.007 E3.06184
G1 X88.906 Y94.518 E3.07575
G1 X88.869 Y94.011 E3.08988
G1 X88.888 Y93.757 E3.09695
G1 X93.033 Y89.612 E3.25977
G1 E1.25977 F2400.00000
G92 E0
G1 X90.267 Y94.113 F7800.000
G1 E2.00000 F2400.00000
G1 F3971.18
G1 X90.205 Y93.789 E2.00919
G1 X90.250 Y93.158 E2.02676
G1 X90.460 Y92.553 E2.04454
G1 X90.812 Y92.037 E2.06187
G1 X91.291 Y91.623 E2.07948
G1 X91.860 Y91.347 E2.09705
G1 X92.481 Y91.227 E2.11462
G1 X93.108 Y91.273 E2.13207
G1 X94.887 Y89.494 E2.20194
G1 X95.311 Y89.499 E2.21373
G1 X96.306 Y89.590 E2.24149
G1 X96.389 Y89.727 E2.24595
G1 X94.255 Y91.861 E2.32976
G1 X94.647 Y92.314 E2.34640
G1 X94.931 Y92.921 E2.36501
G1 X97.040 Y90.812 E2.44787
G1 X97.691 Y91.896 E2.48300
G1 X94.654 Y94.933 E2.60232
G1 X95.593 Y95.730 F7800.000
G1 F3971.18
G1 X95.646 Y95.601 E2.60620
G1 X95.855 Y95.329 E2.61570
G1 X96.126 Y95.121 E2.62521
G1 X96.255 Y95.067 E2.62909
G1 X98.342 Y92.980 E2.71107
G1 X98.993 Y94.065 E2.74621
G1 X97.717 Y95.341 E2.79634
G1 X97.940 Y96.854 F7800.000
G1 F3971.18
G1 X100.430 Y94.363 E2.89418
G1 X100.325 Y92.733 E2.93956
G1 X99.657 Y93.401 E2.96581
G1 X99.739 Y92.122 E3.00142
G1 X99.879 Y92.121 E3.00530
G1 X99.943 Y93.115 E3.03296
G1 E1.03296 F2400.00000
G92 E0
G1 X101.995 Y92.798 F7800.000
G1 E2.00000 F2400.00000
G1 F3971.18
G1 X105.304 Y89.489 E2.13000
G1 E0.13000 F2400.00000
G92 E0
G1 X104.098 Y95.902 F7800.000
G1 E2.00000 F2400.00000
G1 F3971.18
G1 X105.388 Y94.612 E2.05070
G1 X105.210 Y94.349 E2.05953
G1 X105.003 Y93.751 E2.07710
G1 X104.970 Y93.295 E2.08981
G1 X103.247 Y95.017 E2.15748
G1 X103.176 Y94.988 E2.15962
G1 X102.837 Y94.943 E2.16912
G1 X102.498 Y94.988 E2.17862
G1 X102.182 Y95.119 E2.18812
G1 X101.910 Y95.327 E2.19763
G1 X101.702 Y95.598 E2.20713
G1 X101.571 Y95.914 E2.21663
G1 X101.527 Y96.254 E2.22613
G1 X101.571 Y96.593 E2.23564
G1 X101.601 Y96.664 E2.23777
G1 E0.23777 F2400.00000
G92 E0
G1 X104.266 Y97.469 F7800.000
G1 E2.00000 F2400.00000
G1 F3971.18
G1 X104.309 Y97.140 E2.00923
G1 X104.445 Y96.812 E2.01910
G1 X104.662 Y96.530 E2.02896
G1 X104.943 Y96.314 E2.03882
G1 X105.271 Y96.178 E2.04869
G1 X105.601 Y96.135 E2.05792
G1 X106.317 Y95.419 E2.08605
G1 X106.613 Y95.562 E2.09518
G1 X107.234 Y95.681 E2.11275
G1 X107.833 Y95.638 E2.12944
G1 X106.740 Y96.731 E2.17239
G1 E0.17239 F2400.00000
G92 E0
G1 X106.201 Y99.005 F7800.000
G1 E2.00000 F2400.00000
G1 F3971.18
G1 X111.096 Y94.111 E2.19228
G1 X111.131 Y93.634 E2.20554
G1 X111.094 Y93.135 E2.21946
G1 X110.984 Y92.646 E2.23337
G1 X110.940 Y92.531 E2.23679
G1 X109.349 Y94.122 E2.29928
G1 X109.413 Y93.786 E2.30878
G1 X109.368 Y93.156 E2.32635
G1 X109.165 Y92.571 E2.34354
G1 X110.332 Y91.403 E2.38941
G1 X109.945 Y90.944 E2.40610
G1 X109.474 Y90.526 E2.42359
G1 X108.355 Y91.645 E2.46753
G1 X107.758 Y91.344 E2.48610
G1 X107.137 Y91.225 E2.50367
G1 X107.032 Y91.233 E2.50660
G1 X108.374 Y89.890 E2.55935
G1 X108.035 Y89.768 E2.56938
G1 X107.670 Y89.669 E2.57987
G1 X106.967 Y89.562 E2.59962
G1 X94.540 Y101.989 E3.08781
G1 X91.223 Y103.571 E3.18990
G1 X93.771 Y101.023 E3.29000
G1 X90.453 Y102.605 E3.39210
G1 X87.905 Y105.153 E3.49220
G1 X87.709 Y105.246 E3.49823
G1 X87.719 Y105.340 E3.50083
G1 X88.100 Y104.958 F7800.000
G1 F3971.18
G1 X84.588 Y108.470 E3.63882
G1 X84.532 Y108.797 E3.64802
G1 X84.519 Y109.063 E3.65542
G1 X84.532 Y109.346 E3.66329
G1 X84.573 Y109.617 E3.67091
G1 X84.713 Y110.080 E3.68435
G1 X87.347 Y107.446 E3.78782
G1 X87.676 Y107.802 E3.80129
G1 X91.308 Y105.221 E3.92504
G1 X86.258 Y110.271 E4.12339
G1 X86.629 Y110.184 E4.13396
G1 X87.222 Y109.989 E4.15130
G1 X88.363 Y109.514 E4.18563
G1 X89.112 Y109.152 E4.20875
G1 X98.656 Y99.608 E4.58367
G1 X99.059 Y98.696 E4.61138
G1 X99.184 Y99.080 E4.62261
G1 X101.983 Y96.282 E4.73253
G1 X102.084 Y96.527 E4.73990
G1 X102.292 Y96.798 E4.74940
G1 X102.564 Y97.007 E4.75890
G1 X102.868 Y97.132 E4.76804
G1 X100.788 Y99.212 E4.84973
G1 X101.334 Y100.402 E4.88609
G1 X104.648 Y97.088 E5.01628
G1 X104.691 Y97.462 E5.02675
G1 X104.827 Y97.790 E5.03662
G1 X105.043 Y98.072 E5.04648
G1 X105.245 Y98.226 E5.05353
G1 X101.941 Y101.530 E5.18330
G1 X102.283 Y102.094 E5.20163
G1 X102.614 Y102.592 E5.21824
G1 X103.381 Y101.826 E5.24835
G1 X103.164 Y101.672 E5.25572
G1 X103.439 Y101.205 E5.27077
G1 X103.820 Y101.387 E5.28249
G1 X104.587 Y100.619 E5.31263
G1 X104.107 Y100.390 E5.32741
G1 X104.247 Y99.908 E5.34135
G1 X105.185 Y100.022 E5.36759
G1 X106.240 Y98.967 E5.40904
G1 X106.271 Y99.244 E5.41678
G1 X107.698 Y99.244 E5.45642
G1 X106.733 Y100.209 E5.49434
G1 X108.281 Y100.396 E5.53766
G1 X109.433 Y99.244 E5.58292
G1 X110.967 Y99.245 E5.62552
G1 X111.021 Y99.392 E5.62988
G1 X109.829 Y100.584 E5.67669
G1 X109.901 Y100.592 E5.67868
G1 X109.897 Y101.283 E5.69788
G1 X109.923 Y101.495 E5.70379
G1 X110.035 Y101.932 E5.71634
G1 X110.091 Y102.058 E5.72015
G1 X111.503 Y100.646 E5.77562
G1 X112.027 Y101.857 E5.81228
G1 X109.695 Y104.189 E5.90388
G1 X110.871 Y104.749 E5.94004
G1 X112.587 Y103.033 E6.00746
G1 X113.183 Y104.172 E6.04318
G1 X111.887 Y105.468 E6.09410
G1 X111.864 Y105.971 E6.10808
G1 X111.891 Y106.242 E6.11564
G1 X111.945 Y106.509 E6.12321
G1 X112.112 Y106.978 E6.13705
G1 X113.814 Y105.276 E6.20389
G1 X114.478 Y106.348 E6.23891
G1 X111.297 Y109.529 E6.36387
G1 X112.530 Y110.031 E6.40085
G1 X115.160 Y107.402 E6.50414
G1 X115.264 Y107.617 E6.51079
G1 X115.358 Y107.875 E6.51842
G1 X115.426 Y108.141 E6.52605
G1 X115.468 Y108.413 E6.53368
G1 X115.475 Y108.822 E6.54506
G1 X113.902 Y110.395 E6.60685
G1 E4.60685 F2400.00000
G92 E0
G1 X110.124 Y108.966 F7800.000
G1 E2.00000 F2400.00000
G1 F3971.18
G1 X111.878 Y107.212 E2.06890
G1 X110.864 Y106.491 E2.10347
G1 X109.000 Y108.355 E2.17668
G1 X107.918 Y107.702 E2.21180
G1 X109.849 Y105.770 E2.28769
G1 X108.835 Y105.049 E2.32226
G1 X106.869 Y107.015 E2.39949
G1 X106.519 Y106.767 E2.41139
G1 X105.893 Y106.255 E2.43386
G1 X107.820 Y104.328 E2.50956
G1 X106.806 Y103.607 E2.54413
G1 X104.989 Y105.424 E2.61551
G1 X104.138 Y104.540 E2.64960
G1 X105.791 Y102.886 E2.71456
G1 X104.777 Y102.165 E2.74913
G1 X103.347 Y103.594 E2.80529
G1 X102.614 Y102.592 E2.83979
G1 X103.820 Y101.387 F7800.000
G1 F3971.18
G1 X104.995 Y101.947 E2.87595
G1 X106.144 Y100.798 E2.92109
G1 X107.319 Y101.358 E2.95726
G1 X106.170 Y102.507 E3.00240
G1 X107.345 Y103.068 E3.03857
G1 X108.494 Y101.919 E3.08371
G1 X109.669 Y102.479 E3.11988
G1 X108.520 Y103.628 E3.16502
G1 E1.16502 F2400.00000
G92 E0
G1 X100.015 Y99.985 F7800.000
G1 E2.00000 F2400.00000
G1 F3971.18
G1 X100.474 Y99.982 E2.01275
G1 X100.446 Y99.833 E2.01696
G1 X100.580 Y99.420 E2.02903
G1 X99.634 Y100.366 E2.06623
G1 X99.038 Y99.226 F7800.000
G1 F3971.18
G1 X98.508 Y100.342 E2.10052
G1 X98.127 Y101.037 E2.12253
G1 X97.704 Y101.734 E2.14519
G1 X97.278 Y102.375 E2.16657
G1 X96.811 Y103.015 E2.18859
G1 X96.318 Y103.635 E2.21060
G1 X96.008 Y103.992 E2.22372
G1 X93.887 Y106.113 E2.30706
G1 E0.30706 F2400.00000
G92 E0
G1 X94.816 Y99.978 F7800.000
G1 E2.00000 F2400.00000
G1 F3971.18
G1 X97.761 Y97.032 E2.11570
G1 X97.502 Y97.140 E2.12349
G1 X97.163 Y97.184 E2.13299
G1 X96.824 Y97.140 E2.14249
G1 X96.508 Y97.009 E2.15200
G1 X96.248 Y96.810 E2.16108
G1 X95.323 Y97.735 E2.19741
G1 X95.355 Y97.494 E2.20415
G1 X95.309 Y97.142 E2.21401
G1 X95.173 Y96.814 E2.22388
G1 X94.957 Y96.532 E2.23374
G1 X94.862 Y96.460 E2.23704
G1 X95.975 Y95.348 E2.28073
G1 E0.28073 F2400.00000
G92 E0
M107
; Filament-specific end gcode 
;END gcode for filament

M104 S0 ; turn off temperature
G28 X0  ; home X axis
M84     ; disable motors

M140 S0 ; set bed temperature
; filament used = 88.0mm (0.6cm3)
; total filament cost = 0.0

; avoid_crossing_perimeters = 0
; bed_shape = 0x0,200x0,200x200,0x200
; bed_temperature = 0
; before_layer_gcode = 
; between_objects_gcode = 
; bridge_acceleration = 0
; bridge_fan_speed = 100
; brim_connections_width = 0
; brim_width = 0
; complete_objects = 0
; cooling = 1
; default_acceleration = 0
; disable_fan_first_layers = 3
; duplicate_distance = 6
; end_filament_gcode = "; Filament-specific end gcode \n;END gcode for filament\n"
; end_gcode = M104 S0 ; turn off temperature\nG28 X0  ; home X axis\nM84     ; disable motors\n
; extruder_clearance_height = 20
; extruder_clearance_radius = 20
; extruder_offset = 0x0
; extrusion_axis = E
; extrusion_multiplier = 1
; fan_always_on = 0
; fan_below_layer_time = 60
; filament_colour = #FFFFFF
; filament_cost = 0
; filament_density = 0
; filament_diameter = 3
; filament_max_volumetric_speed = 0
; filament_notes = ""
; first_layer_acceleration = 0
; first_layer_bed_temperature = 0
; first_layer_extrusion_width = 200%
; first_layer_speed = 30
; first_layer_temperature = 205
; gcode_arcs = 0
; gcode_comments = 0
; gcode_flavor = reprap
; has_heatbed = 1
; infill_acceleration = 0
; infill_first = 0
; interior_brim_width = 0
; layer_gcode = 
; max_fan_speed = 100
; max_layer_height = 0.3
; max_print_speed = 80
; max_volumetric_speed = 0
; min_fan_speed = 35
; min_layer_height = 0.15
; min_print_speed = 10
; min_skirt_length = 0
; notes = 
; nozzle_diameter = 0.5
; only_retract_when_crossing_perimeters = 1
; ooze_prevention = 0
; output_filename_format = [input_filename_base].gcode
; perimeter_acceleration = 0
; post_process = 
; pressure_advance = 0
; printer_notes = 
; resolution = 0
; retract_before_travel = 2
; retract_layer_change = 0
; retract_length = 2
; retract_length_toolchange = 10
; retract_lift = 0
; retract_lift_above = 0
; retract_lift_below = 0
; retract_restart_extra = 0
; retract_restart_extra_toolchange = 0
; retract_speed = 40
; skirt_distance = 6
; skirt_height = 1
; skirts = 0
; slowdown_below_layer_time = 5
; spiral_vase = 0
; standby_temperature_delta = -5
; start_filament_gcode = "; Filament gcode\n"
; start_gcode = G28 ; home all axes\nG1 Z5 F5000 ; lift nozzle\n
; temperature = 200
; threads = 8
; toolchange_gcode = 
; travel_speed = 130
; use_firmware_retraction = 0
; use_relative_e_distances = 0
; use_set_and_wait_bed = 0
; use_set_and_wait_extruder = 0
; use_volumetric_e = 0
; vibration_limit = 0
; wipe = 0
; z_offset = 0
; z_steps_per_mm = 0
; adaptive_slicing = 0
; adaptive_slicing_quality = 75%
; dont_support_bridges = 1
; extrusion_width = 0
; first_layer_height = 0.4
; infill_only_where_needed = 0
; interface_shells = 0
; layer_height = 0.4
; match_horizontal_surfaces = 0
; raft_layers = 0
; regions_overlap = 0
; seam_position = aligned
; sequential_print_priority = 0
; support_material = 0
; support_material_angle = 0
; support_material_buildplate_only = 0
; support_material_contact_distance = 0.2
; support_material_enforce_layers = 0
; support_material_extruder = 1
; support_material_extrusion_width = 0
; support_material_interface_extruder = 1
; support_material_interface_extrusion_width = 0
; support_material_interface_layers = 3
; support_material_interface_spacing = 0
; support_material_interface_speed = 100%
; support_material_max_layers = 0
; support_material_pattern = pillars
; support_material_spacing = 2.5
; support_material_speed = 60
; support_material_threshold = 60%
; xy_size_compensation = 0
; bottom_infill_pattern = rectilinear
; bottom_solid_layers = 0
; bridge_flow_ratio = 1
; bridge_speed = 60
; external_perimeter_extrusion_width = 0
; external_perimeter_speed = 50%
; external_perimeters_first = 0
; extra_perimeters = 1
; fill_angle = 45
; fill_density = 40%
; fill_gaps = 1
; fill_pattern = rectilinear
; gap_fill_speed = 20
; infill_every_layers = 1
; infill_extruder = 1
; infill_extrusion_width = 0
; infill_overlap = 55%
; infill_speed = 80
; overhangs = 1
; perimeter_extruder = 1
; perimeter_extrusion_width = 0
; perimeter_speed = 60
; perimeters = 0
; small_perimeter_speed = 15
; solid_infill_below_area = 70
; solid_infill_every_layers = 0
; solid_infill_extruder = 1
; solid_infill_extrusion_width = 0
; solid_infill_speed = 20
; thin_walls = 1
; top_infill_extrusion_width = 0
; top_infill_pattern = rectilinear
; top_solid_infill_speed = 15
; top_solid_layers = 0
