%
(Header)
(Generated by gcodetools from Inkscape.)
(Using default header. To add your own header create file "header" in the output dir.)
M3
(Header end.)
G21 (All units in mm)

(Start cutting path id: path67377)
(Change tool to Cone cutter)

G00 Z0.000000
G00 X6.528020 Y-0.026602

G01 Z-1.000000 F100.0(Penetrate)
G03 X6.458349 Y-0.012797 Z-1.000000 I-0.094959 J-0.296535 F400.000000
G03 X6.225854 Y-0.001982 Z-1.000000 I-0.271485 J-3.331738
G02 X5.795656 Y0.038356 Z-1.000000 I0.030729 J2.641897
G02 X5.447942 Y0.135835 Z-1.000000 I0.322028 J1.817589
G02 X5.069644 Y0.306233 Z-1.000000 I1.449605 J3.723370
G02 X4.923615 Y0.405576 Z-1.000000 I0.331370 J0.644097
G03 X4.835945 Y0.471897 Z-1.000000 I-0.503803 J-0.574868
G03 X4.663665 Y0.574285 Z-1.000000 I-1.383134 J-2.131166
G02 X4.567595 Y0.633754 Z-1.000000 I0.468341 J0.863919
G02 X4.545462 Y0.657215 Z-1.000000 I0.046009 J0.065577
G03 X4.522785 Y0.679972 Z-1.000000 I-0.059974 J-0.037085
G03 X4.372708 Y0.764890 Z-1.000000 I-1.074780 J-1.724410
G02 X4.223388 Y0.852670 Z-1.000000 I0.667822 J1.306910
G02 X4.121770 Y0.933083 Z-1.000000 I0.457441 J0.682476
G03 X4.023523 Y1.018854 Z-1.000000 I-1.446752 J-1.558038
G03 X3.917769 Y1.100436 Z-1.000000 I-1.414231 J-1.723928
G02 X3.813075 Y1.183337 Z-1.000000 I0.919817 J1.269178
G02 X3.530822 Y1.434618 Z-1.000000 I8.202397 J9.497530
G03 X3.250058 Y1.687547 Z-1.000000 I-13.922429 J-15.172320
G03 X3.215262 Y1.713691 Z-1.000000 I-0.180957 J-0.204616
G02 X3.133652 Y1.783662 Z-1.000000 I0.200143 J0.316012
G02 X2.741166 Y2.256601 Z-1.000000 I9.209275 J8.041994
G03 X2.632395 Y2.392406 Z-1.000000 I-8.830214 J-6.960902
G03 X2.618791 Y2.406991 Z-1.000000 I-0.114532 J-0.093196
G02 X2.443149 Y2.665596 Z-1.000000 I0.486203 J0.519174
G02 X2.247390 Y3.350351 Z-1.000000 I3.435005 J1.352366
G02 X2.126044 Y4.488992 Z-1.000000 I7.448064 J1.369529
G02 X2.174991 Y5.723840 Z-1.000000 I8.816499 J0.268928
G02 X2.363632 Y6.425102 Z-1.000000 I2.367315 J-0.260808
G02 X2.646976 Y6.792685 Z-1.000000 I0.889899 J-0.392966
G03 X2.725227 Y6.906142 Z-1.000000 I-0.148376 J0.186047
G01 X2.696101 Y6.946054 Z-1.000000
G02 X2.643092 Y6.956038 Z-1.000000 I0.000000 J0.145716
G02 X2.381041 Y7.069101 Z-1.000000 I1.483712 J3.799073
G03 X2.120244 Y7.187739 Z-1.000000 I-3.978892 J-8.400659
G03 X2.099120 Y7.192148 Z-1.000000 I-0.021124 J-0.048401
G02 X1.967224 Y7.236867 Z-1.000000 I0.000000 J0.216869
G02 X1.669314 Y7.521455 Z-1.000000 I1.154178 J1.506429
G02 X1.381065 Y7.968046 Z-1.000000 I1.613844 J1.357963
G02 X0.978819 Y8.962565 Z-1.000000 I7.748027 J3.712401
G03 X0.836623 Y9.378304 Z-1.000000 I-27.133589 J-9.048316
G03 X0.782273 Y9.523112 Z-1.000000 I-3.344602 J-1.172726
G02 X0.698997 Y9.785384 Z-1.000000 I1.740838 J0.697100
G02 X0.608452 Y10.252290 Z-1.000000 I5.449125 J1.298953
G03 X0.560793 Y10.514388 Z-1.000000 I-4.278854 J-0.642672
G03 X0.526125 Y10.637294 Z-1.000000 I-0.972263 J-0.207902
G02 X0.493367 Y10.760432 Z-1.000000 I0.759426 J0.267958
G02 X0.456524 Y11.018014 Z-1.000000 I3.304180 J0.604036
G03 X0.426894 Y11.277468 Z-1.000000 I-12.510366 J-1.297263
G03 X0.403517 Y11.442991 Z-1.000000 I-5.114311 J-0.637906
G02 X0.346289 Y11.966628 Z-1.000000 I5.459829 J0.861646
G02 X0.292045 Y13.262461 Z-1.000000 I33.445908 J2.049103
G03 X0.237385 Y14.906176 Z-1.000000 I-76.410326 J-1.718156
G03 X0.156604 Y16.338634 Z-1.000000 I-58.109273 J-2.558498
G02 X0.129658 Y17.371624 Z-1.000000 I12.106803 J0.832653
G02 X0.181886 Y17.869884 Z-1.000000 I2.852076 J-0.047090
G02 X0.232807 Y18.023902 Z-1.000000 I0.628893 J-0.122494
G02 X0.303664 Y18.124426 Z-1.000000 I0.332226 J-0.158943
G02 X0.406372 Y18.187652 Z-1.000000 I0.182091 J-0.180766
G02 X0.658967 Y18.240023 Z-1.000000 I0.363153 J-1.116198
G02 X0.975732 Y18.230835 Z-1.000000 I0.121319 J-1.282306
G02 X1.565129 Y18.100912 Z-1.000000 I-0.708940 J-4.617980
G02 X1.966262 Y17.968297 Z-1.000000 I-1.557801 J-5.384993
G02 X2.317082 Y17.820463 Z-1.000000 I-1.590625 J-4.264854
G02 X3.451392 Y17.262298 Z-1.000000 I-16.198121 J-34.349675
G02 X3.520123 Y17.203396 Z-1.000000 I-0.088854 J-0.173231
G03 X3.700384 Y17.018592 Z-1.000000 I0.721551 J0.523498
G03 X3.810859 Y16.981212 Z-1.000000 I0.110475 J0.144562
G01 X3.834034 Y16.974582 Z-1.000000
G02 X4.052177 Y16.830821 Z-1.000000 I-2.722624 J-4.368710
G03 X4.269977 Y16.685966 Z-1.000000 I3.530194 J5.071743
G01 X4.289022 Y16.680430 Z-1.000000
G02 X4.435414 Y16.634437 Z-1.000000 I0.000000 J-0.255972
G02 X5.093469 Y16.119591 Z-1.000000 I-4.340314 J-6.225586
G03 X5.262699 Y15.980516 Z-1.000000 I2.321373 J2.652205
G03 X5.448938 Y15.845516 Z-1.000000 I2.373385 J3.078226
G02 X5.671170 Y15.673606 Z-1.000000 I-1.301511 J-1.912095
G02 X6.386181 Y15.024847 Z-1.000000 I-17.992487 J-20.548271
G03 X6.679693 Y14.751512 Z-1.000000 I29.137106 J30.993684
G03 X6.992864 Y14.465186 Z-1.000000 I32.289402 J35.002343
G02 X7.304701 Y14.177461 Z-1.000000 I-15.813630 J-17.451773
G02 X7.646353 Y13.851238 Z-1.000000 I-19.984183 J-21.271290
G03 X7.985696 Y13.522549 Z-1.000000 I174.463986 J179.779778
G03 X8.031177 Y13.479199 Z-1.000000 I3.077402 J3.183157
G02 X8.073195 Y13.432901 Z-1.000000 I-0.269131 J-0.286467
G02 X8.210587 Y13.246777 Z-1.000000 I-4.266005 J-3.292825
G03 X8.475662 Y12.899893 Z-1.000000 I4.684607 J3.305066
G03 X8.851802 Y12.470788 Z-1.000000 I7.550583 J6.239200
G02 X9.207372 Y12.067060 Z-1.000000 I-7.355226 J-6.836318
G02 X9.594241 Y11.580820 Z-1.000000 I-10.286133 J-8.581017
G02 X9.960534 Y11.076681 Z-1.000000 I-12.088976 J-9.168645
G02 X9.973332 Y11.035873 Z-1.000000 I-0.058662 J-0.040808
G03 X10.061995 Y10.726101 Z-1.000000 I0.585476 J0.000000
G03 X10.221724 Y10.637460 Z-1.000000 I0.159729 J0.099594
G01 X10.250416 Y10.659988 Z-1.000000
G03 X10.273744 Y10.850464 Z-1.000000 I-0.793851 J0.193891
G02 X10.326071 Y11.081653 Z-1.000000 I0.546917 J-0.002272
G02 X10.427155 Y11.175462 Z-1.000000 I0.167403 J-0.079019
G01 X10.451406 Y11.223159 Z-1.000000
G03 X10.280815 Y11.717538 Z-1.000000 I-3.683665 J-0.994468
G03 X9.656130 Y12.847318 Z-1.000000 I-5.712789 J-2.421156
G03 X8.676537 Y14.016288 Z-1.000000 I-7.101221 J-4.955870
G02 X8.379106 Y14.323949 Z-1.000000 I8.812182 J8.816777
G02 X8.127629 Y14.603933 Z-1.000000 I7.045544 J6.581108
G03 X7.881275 Y14.888696 Z-1.000000 I-155.188487 J-134.008286
G03 X7.580755 Y15.234896 Z-1.000000 I-229.782351 J-199.159333
G02 X7.007617 Y15.924462 Z-1.000000 I15.254737 J13.262055
G02 X6.866926 Y16.133555 Z-1.000000 I1.250377 J0.993207
G03 X6.792156 Y16.252636 Z-1.000000 I-1.292633 J-0.728626
G03 X6.733696 Y16.324962 Z-1.000000 I-0.532735 J-0.370816
G02 X6.656820 Y16.429184 Z-1.000000 I0.408980 J0.382134
G02 X6.327019 Y17.035930 Z-1.000000 I13.815179 J7.902337
G02 X6.101651 Y17.556817 Z-1.000000 I3.720378 J1.918869
G02 X6.063176 Y17.780616 Z-1.000000 I0.631665 J0.223799
G02 X6.105486 Y17.888937 Z-1.000000 I0.159818 J-0.000000
G02 X6.171354 Y17.897968 Z-1.000000 I0.038407 J-0.035404
G01 X6.190163 Y17.898028 Z-1.000000
G01 X6.200314 Y17.916122 Z-1.000000
G01 X6.208566 Y17.924338 Z-1.000000
G01 X6.223328 Y17.916291 Z-1.000000
G03 X6.249734 Y17.889983 Z-1.000000 I0.071471 J0.045331
G01 X6.270761 Y17.886452 Z-1.000000
G02 X6.353943 Y17.867465 Z-1.000000 I0.022099 J-0.094887
G02 X6.391302 Y17.789443 Z-1.000000 I-0.062791 J-0.078022
G03 X6.448453 Y17.506089 Z-1.000000 I0.731009 J0.000000
G03 X6.760817 Y16.910680 Z-1.000000 I3.645951 J1.533103
G02 X6.844446 Y16.769423 Z-1.000000 I-2.052808 J-1.310718
G02 X6.866965 Y16.716762 Z-1.000000 I-0.260035 J-0.142340
G03 X6.891585 Y16.665491 Z-1.000000 I0.193940 J0.061582
G03 X7.020434 Y16.486513 Z-1.000000 I2.543863 J1.695497
G02 X7.147211 Y16.308093 Z-1.000000 I-2.045728 J-1.587853
G02 X7.156682 Y16.276500 Z-1.000000 I-0.049336 J-0.032007
G03 X7.166544 Y16.245446 Z-1.000000 I0.055064 J0.000394
G03 X7.261312 Y16.126109 Z-1.000000 I0.988491 J0.687686
G02 X7.362601 Y16.007950 Z-1.000000 I-2.239872 J-2.022578
G02 X7.499925 Y15.832775 Z-1.000000 I-4.789049 J-3.895656
G03 X7.638415 Y15.658546 Z-1.000000 I3.584186 J2.706821
G03 X7.854300 Y15.408946 Z-1.000000 I7.576208 J6.334693
G02 X8.072952 Y15.161546 Z-1.000000 I-20.462686 J-18.305170
G02 X8.319788 Y14.875828 Z-1.000000 I-27.040332 J-23.610082
G03 X8.570858 Y14.594101 Z-1.000000 I6.942615 J5.934398
G03 X8.865911 Y14.287937 Z-1.000000 I8.495129 J7.891569
G02 X9.323874 Y13.799764 Z-1.000000 I-7.449474 J-7.447363
G02 X9.689376 Y13.352267 Z-1.000000 I-5.891798 J-5.185264
G02 X10.231365 Y12.554639 Z-1.000000 I-7.506210 J-5.683428
G02 X10.522455 Y11.979969 Z-1.000000 I-3.591449 J-2.180252
G02 X10.608307 Y11.772202 Z-1.000000 I-380.791396 J-157.470365
G02 X10.644922 Y11.683359 Z-1.000000 I-67.631963 J-27.924922
G03 X10.689043 Y11.605770 Z-1.000000 I0.326528 J0.134339
G01 X10.711612 Y11.594489 Z-1.000000
G01 X10.734184 Y11.605770 Z-1.000000
G03 X10.778302 Y11.683359 Z-1.000000 I-0.282057 J0.211716
G02 X10.814921 Y11.772207 Z-1.000000 I70.191347 J-28.877841
G02 X10.900769 Y11.979969 Z-1.000000 I398.142279 J-164.391476
G02 X11.191860 Y12.554640 Z-1.000000 I3.882506 J-1.605568
G02 X11.733848 Y13.352267 Z-1.000000 I8.048435 J-4.885959
G02 X12.099518 Y13.799948 Z-1.000000 I6.256238 J-4.736971
G02 X12.557314 Y14.287854 Z-1.000000 I7.891966 J-6.946206
G03 X12.851698 Y14.594560 Z-1.000000 I-7.333823 J7.333823
G03 X13.174448 Y14.957776 Z-1.000000 I-9.965560 J9.180291
G02 X13.492701 Y15.325213 Z-1.000000 I35.194340 J-30.161788
G02 X13.593323 Y15.436290 Z-1.000000 I3.313950 J-2.900908
G03 X13.692419 Y15.548599 Z-1.000000 I-1.814421 J1.700831
G03 X13.877076 Y15.778087 Z-1.000000 I-7.410006 J6.151482
G02 X14.061052 Y16.008210 Z-1.000000 I9.576105 J-7.467192
G02 X14.162303 Y16.126109 Z-1.000000 I2.609952 J-2.138985
G03 X14.256708 Y16.245427 Z-1.000000 I-0.894468 J0.804712
G03 X14.266543 Y16.276500 Z-1.000000 I-0.045389 J0.031459
G02 X14.276017 Y16.308094 Z-1.000000 I0.058822 J-0.000421
G02 X14.402792 Y16.486513 Z-1.000000 I2.173258 J-1.409949
G03 X14.531312 Y16.665642 Z-1.000000 I-2.311992 J1.794455
G03 X14.556624 Y16.718935 Z-1.000000 I-0.174720 J0.115643
G02 X14.578324 Y16.773512 Z-1.000000 I0.367095 J-0.114356
G01 X14.591274 Y16.789806 Z-1.000000
G03 X14.797212 Y17.053399 Z-1.000000 I-0.472570 J0.581450
G03 X15.007576 Y17.678478 Z-1.000000 I-2.637390 J1.235523
G02 X15.092707 Y17.878760 Z-1.000000 I0.561221 J-0.120316
G01 X15.150891 Y17.891300 Z-1.000000
G01 X15.171618 Y17.890206 Z-1.000000
G03 X15.198621 Y17.914233 Z-1.000000 I-0.028395 J0.059100
G01 X15.214513 Y17.923802 Z-1.000000
G01 X15.222911 Y17.916123 Z-1.000000
G01 X15.233057 Y17.898028 Z-1.000000
G01 X15.251871 Y17.897969 Z-1.000000
G02 X15.317743 Y17.888936 Z-1.000000 I0.027461 J-0.044439
G02 X15.360049 Y17.780618 Z-1.000000 I-0.117511 J-0.108318
G02 X15.321574 Y17.556818 Z-1.000000 I-0.670139 J-0.000000
G02 X15.096206 Y17.035931 Z-1.000000 I-3.945788 J1.397998
G02 X14.766405 Y16.429185 Z-1.000000 I-14.144792 J7.295489
G02 X14.689529 Y16.324963 Z-1.000000 I-0.485849 J0.277908
G03 X14.631070 Y16.252638 Z-1.000000 I0.474191 J-0.443064
G03 X14.556299 Y16.133557 Z-1.000000 I1.218577 J-0.848164
G02 X14.415607 Y15.924463 Z-1.000000 I-1.391189 J0.784204
G02 X13.842471 Y15.234898 Z-1.000000 I-15.826976 J12.571714
G03 X13.541950 Y14.888697 Z-1.000000 I229.347666 J-199.389275
G03 X13.295596 Y14.603934 Z-1.000000 I154.786648 J-134.158279
G02 X13.044119 Y14.323949 Z-1.000000 I-7.297382 J6.301455
G02 X12.746688 Y14.016290 Z-1.000000 I-9.108513 J8.508080
G03 X11.768668 Y12.849080 Z-1.000000 I6.108828 J-6.112016
G03 X11.142465 Y11.717131 Z-1.000000 I5.114182 J-3.568390
G03 X10.971807 Y11.223210 Z-1.000000 I3.502651 J-1.486665
G01 X10.996074 Y11.175463 Z-1.000000
G02 X11.097157 Y11.081660 Z-1.000000 I-0.066299 J-0.172811
G02 X11.149485 Y10.850465 Z-1.000000 I-0.494613 J-0.233468
G03 X11.172496 Y10.659685 Z-1.000000 I0.830937 J0.003444
G01 X11.200695 Y10.637461 Z-1.000000
G03 X11.361371 Y10.725959 Z-1.000000 I0.000000 J0.190109
G03 X11.449891 Y11.031551 Z-1.000000 I-0.483226 J0.305592
G02 X11.463835 Y11.076303 Z-1.000000 I0.078786 J0.000000
G02 X11.828982 Y11.580821 Z-1.000000 I11.449440 J-7.902183
G02 X12.215850 Y12.067061 Z-1.000000 I10.672351 J-8.094249
G02 X12.571421 Y12.470789 Z-1.000000 I7.710948 J-6.432728
G03 X12.947561 Y12.899895 Z-1.000000 I-7.174569 J6.668407
G03 X13.212636 Y13.246778 Z-1.000000 I-4.419656 J3.652050
G02 X13.350026 Y13.432897 Z-1.000000 I4.399488 J-3.103876
G02 X13.392045 Y13.479200 Z-1.000000 I0.311462 J-0.240423
G03 X13.437519 Y13.522542 Z-1.000000 I-3.024702 J3.219020
G03 X13.776870 Y13.851239 Z-1.000000 I-174.076387 J180.058180
G02 X14.118521 Y14.177463 Z-1.000000 I20.326190 J-20.945444
G02 X14.430359 Y14.465187 Z-1.000000 I16.125961 J-17.164573
G03 X14.743531 Y14.751513 Z-1.000000 I-31.967517 J35.279215
G03 X15.037042 Y15.024848 Z-1.000000 I-28.839073 J31.262111
G02 X15.752053 Y15.673607 Z-1.000000 I18.707334 J-19.899322
G02 X15.974285 Y15.845517 Z-1.000000 I1.523734 J-1.740177
G03 X16.160523 Y15.980517 Z-1.000000 I-2.186734 J3.212658
G03 X16.329754 Y16.119592 Z-1.000000 I-2.152550 J2.791779
G02 X16.987809 Y16.634438 Z-1.000000 I4.998374 J-5.710746
G02 X17.134201 Y16.680432 Z-1.000000 I0.146392 J-0.209979
G01 X17.153246 Y16.685967 Z-1.000000
G03 X17.371046 Y16.830822 Z-1.000000 I-3.312433 J5.216652
G02 X17.589190 Y16.974583 Z-1.000000 I2.940521 J-4.224588
G01 X17.612364 Y16.981213 Z-1.000000
G03 X17.722831 Y17.018590 Z-1.000000 I0.000000 J0.181933
G03 X17.903100 Y17.203397 Z-1.000000 I-0.541272 J0.708301
G02 X18.186986 Y17.441659 Z-1.000000 I0.618593 J-0.448791
G02 X19.543641 Y18.002610 Z-1.000000 I5.251588 J-10.779923
G02 X19.927800 Y18.123365 Z-1.000000 I2.490328 J-7.251029
G02 X20.315152 Y18.223037 Z-1.000000 I2.077954 J-7.273028
G02 X20.499932 Y18.247496 Z-1.000000 I0.222390 J-0.969852
G02 X20.764255 Y18.240025 Z-1.000000 I0.075698 J-2.001231
G02 X21.016850 Y18.187653 Z-1.000000 I-0.110556 J-1.168566
G02 X21.119559 Y18.124427 Z-1.000000 I-0.079382 J-0.243991
G02 X21.190416 Y18.023904 Z-1.000000 I-0.261404 J-0.259493
G02 X21.241337 Y17.869885 Z-1.000000 I-0.577873 J-0.276481
G02 X21.293565 Y17.371625 Z-1.000000 I-2.799607 J-0.545324
G02 X21.266617 Y16.338635 Z-1.000000 I-12.135196 J-0.200272
G03 X21.185416 Y14.898006 Z-1.000000 I58.238063 J-4.005175
G03 X21.131349 Y13.262462 Z-1.000000 I74.993225 J-3.297772
G02 X21.077449 Y11.971138 Z-1.000000 I-33.007478 J0.730942
G02 X21.019704 Y11.442992 Z-1.000000 I-5.570913 J0.341871
G03 X20.996325 Y11.277474 Z-1.000000 I5.081676 J-0.802193
G03 X20.966694 Y11.018015 Z-1.000000 I12.501141 J-1.559075
G02 X20.929849 Y10.760436 Z-1.000000 I-3.341627 J0.346573
G02 X20.897094 Y10.637295 Z-1.000000 I-0.792542 J0.144886
G03 X20.862429 Y10.514394 Z-1.000000 I0.937944 J-0.330890
G03 X20.814764 Y10.252291 Z-1.000000 I4.232299 J-0.905059
G02 X20.724219 Y9.785384 Z-1.000000 I-5.539933 J0.832099
G02 X20.640944 Y9.523113 Z-1.000000 I-1.824092 J0.434820
G03 X20.586591 Y9.378311 Z-1.000000 I3.284534 J-1.315477
G03 X20.444398 Y8.962566 Z-1.000000 I27.006985 J-9.469141
G02 X20.042151 Y7.968047 Z-1.000000 I-8.150316 J2.717903
G02 X19.753902 Y7.521456 Z-1.000000 I-1.902091 J0.911371
G02 X19.455990 Y7.236867 Z-1.000000 I-1.452067 J1.221822
G02 X19.324096 Y7.192149 Z-1.000000 I-0.131894 J0.172149
G03 X19.302978 Y7.187741 Z-1.000000 I-0.000000 J-0.052796
G03 X19.042175 Y7.069102 Z-1.000000 I3.721227 J-8.526283
G02 X18.780124 Y6.956039 Z-1.000000 I-1.745080 J3.684418
G02 X18.727115 Y6.946055 Z-1.000000 I-0.053009 J0.135737
G01 X18.697991 Y6.906144 Z-1.000000
G03 X18.776245 Y6.792686 Z-1.000000 I0.226645 J0.072605
G02 X19.059589 Y6.425104 Z-1.000000 I-0.606555 J-0.760549
G02 X19.248230 Y5.723841 Z-1.000000 I-2.178675 J-0.962070
G02 X19.297180 Y4.488994 Z-1.000000 I-8.767608 J-0.965948
G02 X19.175830 Y3.350352 Z-1.000000 I-7.568654 J0.230839
G02 X18.979005 Y2.662146 Z-1.000000 I-3.645196 J0.670264
G02 X18.804197 Y2.406992 Z-1.000000 I-0.643821 J0.253631
G03 X18.790361 Y2.392352 Z-1.000000 I0.093510 J-0.102238
G03 X18.580957 Y2.133555 Z-1.000000 I31.075650 J-25.358707
G02 X18.368069 Y1.877901 Z-1.000000 I-7.115480 J5.708730
G02 X18.281335 Y1.786802 Z-1.000000 I-0.986715 J0.852599
G02 X17.730467 Y1.280801 Z-1.000000 I-13.791055 J14.461047
G02 X17.505452 Y1.100437 Z-1.000000 I-1.968167 J2.224867
G03 X17.399700 Y1.018854 Z-1.000000 I1.310828 J-1.808500
G03 X17.301450 Y0.933084 Z-1.000000 I1.347751 J-1.643009
G02 X17.199829 Y0.852668 Z-1.000000 I-0.559062 J0.602066
G02 X17.050512 Y0.764889 Z-1.000000 I-0.817276 J1.219341
G03 X16.900427 Y0.679966 Z-1.000000 I0.923431 J-1.807072
G03 X16.877759 Y0.657214 Z-1.000000 I0.037288 J-0.059818
G02 X16.855661 Y0.633758 Z-1.000000 I-0.067836 J0.041772
G02 X16.759556 Y0.574284 Z-1.000000 I-0.565803 J0.806901
G03 X16.587275 Y0.471895 Z-1.000000 I1.210939 J-2.233682
G03 X16.499606 Y0.405575 Z-1.000000 I0.416160 J-0.641227
G02 X16.356293 Y0.308031 Z-1.000000 I-0.469488 J0.535729
G02 X15.975278 Y0.135509 Z-1.000000 I-1.898973 J3.686882
G02 X15.721190 Y0.062798 Z-1.000000 I-0.504484 J1.282600
G02 X15.236997 Y-0.000894 Z-1.000000 I-0.855142 J4.628611
G03 X14.908933 Y-0.027554 Z-1.000000 I5.953477 J-75.292093
G03 X14.730006 Y-0.043214 Z-1.000000 I1.851758 J-22.187760
G02 X14.279804 Y-0.021295 Z-1.000000 I-0.147315 J1.608647
G02 X13.983740 Y0.099230 Z-1.000000 I0.152358 J0.798155
G02 X13.881366 Y0.180120 Z-1.000000 I0.428501 J0.647537
G02 X13.640100 Y0.421174 Z-1.000000 I3.627816 J3.872272
G03 X13.404508 Y0.669257 Z-1.000000 I-21.228925 J-19.924106
G03 X13.302668 Y0.772343 Z-1.000000 I-3.767734 J-3.620361
G02 X13.015802 Y1.103415 Z-1.000000 I1.941774 J1.972320
G02 X12.981138 Y1.208941 Z-1.000000 I0.143293 J0.105526
G01 X12.975779 Y1.230737 Z-1.000000
G03 X12.909558 Y1.345689 Z-1.000000 I-1.453512 J-0.760780
G02 X12.692793 Y1.839636 Z-1.000000 I1.530617 J0.966237
G02 X12.528122 Y2.756924 Z-1.000000 I5.215936 J1.409786
G03 X12.505786 Y2.939419 Z-1.000000 I-2.975848 J-0.271611
G03 X12.445462 Y3.294818 Z-1.000000 I-11.437522 J-1.758533
G02 X12.384435 Y3.649892 Z-1.000000 I13.118889 J2.437545
G02 X12.379582 Y3.711701 Z-1.000000 I0.391190 J0.061809
G03 X12.372351 Y3.772776 Z-1.000000 I-0.261560 J0.000000
G03 X12.326842 Y3.931295 Z-1.000000 I-1.827337 J-0.438821
G02 X12.282057 Y4.090410 Z-1.000000 I1.596035 J0.535086
G02 X12.256322 Y4.239021 Z-1.000000 I1.367499 J0.313343
G03 X12.223747 Y4.385119 Z-1.000000 I-0.732053 J-0.086544
G03 X12.133552 Y4.608161 Z-1.000000 I-1.807404 J-0.601129
G02 X12.037122 Y4.829730 Z-1.000000 I2.942401 J1.412347
G02 X12.010324 Y4.922614 Z-1.000000 I0.486788 J0.190750
G03 X11.986461 Y5.016700 Z-1.000000 I-0.793610 J-0.151214
G03 X11.926064 Y5.187044 Z-1.000000 I-2.672003 J-0.851503
G02 X11.868621 Y5.357401 Z-1.000000 I1.754163 J0.686354
G02 X11.859864 Y5.419466 Z-1.000000 I0.220199 J0.062719
G03 X11.848847 Y5.479879 Z-1.000000 I-0.173834 J-0.000491
G03 X11.805354 Y5.565193 Z-1.000000 I-0.395970 J-0.148119
G02 X11.758835 Y5.649598 Z-1.000000 I0.495287 J0.327996
G02 X11.750844 Y5.686442 Z-1.000000 I0.082888 J0.037266
G03 X11.744411 Y5.724267 Z-1.000000 I-0.117926 J-0.000596
G03 X11.699004 Y5.836833 Z-1.000000 I-1.113301 J-0.383645
G02 X11.452728 Y6.401300 Z-1.000000 I11.826914 J5.496013
G02 X11.391179 Y6.590438 Z-1.000000 I1.259283 J0.514380
G01 X11.354179 Y6.740684 Z-1.000000
G01 X11.334749 Y6.617782 Z-1.000000
G03 X11.322998 Y6.494207 Z-1.000000 I0.991210 J-0.156600
G03 X11.299649 Y5.551521 Z-1.000000 I57.808668 J-1.903494
G02 X11.274914 Y4.608826 Z-1.000000 I-48.811312 J0.809056
G02 X11.258949 Y4.416755 Z-1.000000 I-2.048045 J0.073538
G03 X11.233942 Y4.225346 Z-1.000000 I621.123485 J-81.252137
G03 X11.201859 Y3.979255 Z-1.000000 I1058.759322 J-138.139949
G02 X11.161902 Y3.734831 Z-1.000000 I-3.777193 J0.491991
G02 X11.120349 Y3.565594 Z-1.000000 I-1.850450 J0.364627
G03 X11.077904 Y3.396515 Z-1.000000 I2.037658 J-0.601392
G03 X11.041289 Y3.185169 Z-1.000000 I3.147136 J-0.654078
G02 X11.004260 Y2.975384 Z-1.000000 I-2.888246 J0.401642
G02 X10.989269 Y2.942580 Z-1.000000 I-0.081749 J0.017531
G03 X10.970093 Y2.911036 Z-1.000000 I0.147730 J-0.111407
G03 X10.929239 Y2.817146 Z-1.000000 I1.287412 J-0.616021
G02 X10.840346 Y2.673293 Z-1.000000 I-0.441839 J0.173638
G01 X10.793828 Y2.666625 Z-1.000000
G01 X10.773876 Y2.670006 Z-1.000000
G01 X10.766278 Y2.660525 Z-1.000000
G01 X10.757071 Y2.646639 Z-1.000000
G02 X10.711588 Y2.637425 Z-1.000000 I-0.045483 J0.107648
G02 X10.666112 Y2.646633 Z-1.000000 I-0.000000 J0.116905
G01 X10.656898 Y2.660525 Z-1.000000
G01 X10.649294 Y2.669995 Z-1.000000
G01 X10.629348 Y2.666625 Z-1.000000
G01 X10.582831 Y2.673293 Z-1.000000
G02 X10.493938 Y2.817146 Z-1.000000 I0.352951 J0.317495
G03 X10.453086 Y2.911036 Z-1.000000 I-1.321628 J-0.519211
G03 X10.433908 Y2.942580 Z-1.000000 I-0.167085 J-0.079983
G02 X10.418917 Y2.975380 Z-1.000000 I0.066732 J0.050325
G02 X10.381888 Y3.185169 Z-1.000000 I2.851452 J0.611464
G03 X10.345273 Y3.396513 Z-1.000000 I-3.183631 J-0.442715
G03 X10.302828 Y3.565594 Z-1.000000 I-2.080322 J-0.432363
G02 X10.261275 Y3.734829 Z-1.000000 I1.808724 J0.533825
G02 X10.221318 Y3.979255 Z-1.000000 I3.737365 J0.736434
G03 X10.189235 Y4.225346 Z-1.000000 I-1058.791085 J-137.896316
G03 X10.164228 Y4.416755 Z-1.000000 I-621.148634 J-81.059640
G02 X10.148258 Y4.608827 Z-1.000000 I2.029022 J0.265402
G02 X10.123528 Y5.551521 Z-1.000000 I49.006039 J1.757278
G03 X10.100189 Y6.494213 Z-1.000000 I-57.636754 J-0.955342
G03 X10.088428 Y6.617782 Z-1.000000 I-1.001823 J-0.033004
G01 X10.068998 Y6.740684 Z-1.000000
G01 X10.031998 Y6.590438 Z-1.000000
G02 X9.970445 Y6.401299 Z-1.000000 I-1.321315 J0.325421
G02 X9.724173 Y5.836833 Z-1.000000 I-12.070463 J4.930282
G03 X9.678760 Y5.724267 Z-1.000000 I1.068795 J-0.496638
G03 X9.672333 Y5.686442 Z-1.000000 I0.111316 J-0.038371
G02 X9.664335 Y5.649596 Z-1.000000 I-0.091011 J0.000464
G02 X9.617823 Y5.565193 Z-1.000000 I-0.541374 J0.243319
G03 X9.574332 Y5.479879 Z-1.000000 I0.352518 J-0.233449
G03 X9.563313 Y5.419466 Z-1.000000 I0.162829 J-0.060910
G02 X9.554551 Y5.357404 Z-1.000000 I-0.229219 J0.000713
G02 X9.497113 Y5.187044 Z-1.000000 I-1.810218 J0.515460
G03 X9.436716 Y5.016696 Z-1.000000 I2.611415 J-1.021772
G03 X9.412853 Y4.922614 Z-1.000000 I0.769826 J-0.245320
G02 X9.386054 Y4.829725 Z-1.000000 I-0.513528 J0.097847
G02 X9.289625 Y4.608161 Z-1.000000 I-3.040026 J1.191308
G03 X9.199429 Y4.385116 Z-1.000000 I1.717291 J-0.824211
G03 X9.166855 Y4.239021 Z-1.000000 I0.699383 J-0.232613
G02 X9.141110 Y4.090408 Z-1.000000 I-1.397537 J0.165569
G02 X9.096335 Y3.931295 Z-1.000000 I-1.639370 J0.375465
G03 X9.050826 Y3.772781 Z-1.000000 I1.781297 J-0.597197
G03 X9.043595 Y3.711701 Z-1.000000 I0.254357 J-0.061080
G02 X9.038741 Y3.649893 Z-1.000000 I-0.395930 J0.000000
G02 X8.977715 Y3.294818 Z-1.000000 I-13.224607 J2.090099
G03 X8.917409 Y2.939421 Z-1.000000 I11.356542 J-2.109861
G03 X8.895056 Y2.756924 Z-1.000000 I2.969622 J-0.456351
G02 X8.730385 Y1.839636 Z-1.000000 I-5.380595 J0.492497
G02 X8.513620 Y1.345689 Z-1.000000 I-1.747384 J0.472291
G03 X8.447399 Y1.230742 Z-1.000000 I1.388447 J-0.876433
G01 X8.442038 Y1.208941 Z-1.000000
G02 X8.407371 Y1.103409 Z-1.000000 I-0.177964 J0.000000
G02 X8.120508 Y0.772343 Z-1.000000 I-2.228839 J1.641440
G03 X8.018668 Y0.669262 Z-1.000000 I3.656526 J-3.714330
G03 X7.783076 Y0.421174 Z-1.000000 I21.020638 J-20.197804
G02 X7.541828 Y0.180096 Z-1.000000 I-3.879862 J3.641351
G02 X7.439857 Y0.099509 Z-1.000000 I-0.528426 J0.563835
G02 X6.998159 Y-0.067260 Z-1.000000 I-0.587554 J0.887858
G02 X6.527975 Y-0.026604 Z-1.000000 I-0.145734 J1.053746
G01 X6.528020 Y-0.026602 Z-1.000000
G00 Z0.000000

(End cutting path id: path67377)


(Start cutting path id: path67377)
(Change tool to Cone cutter)

G00 Z0.000000
G00 X6.528020 Y-0.026602

G01 Z-1.000000 F100.0(Penetrate)
G03 X6.458349 Y-0.012797 Z-1.000000 I-0.094959 J-0.296535 F400.000000
G03 X6.225854 Y-0.001982 Z-1.000000 I-0.271485 J-3.331738
G02 X5.795656 Y0.038356 Z-1.000000 I0.030729 J2.641897
G02 X5.447942 Y0.135835 Z-1.000000 I0.322028 J1.817589
G02 X5.069644 Y0.306233 Z-1.000000 I1.449605 J3.723370
G02 X4.923615 Y0.405576 Z-1.000000 I0.331370 J0.644097
G03 X4.835945 Y0.471897 Z-1.000000 I-0.503803 J-0.574868
G03 X4.663665 Y0.574285 Z-1.000000 I-1.383134 J-2.131166
G02 X4.567595 Y0.633754 Z-1.000000 I0.468341 J0.863919
G02 X4.545462 Y0.657215 Z-1.000000 I0.046009 J0.065577
G03 X4.522785 Y0.679972 Z-1.000000 I-0.059974 J-0.037085
G03 X4.372708 Y0.764890 Z-1.000000 I-1.074780 J-1.724410
G02 X4.223388 Y0.852670 Z-1.000000 I0.667822 J1.306910
G02 X4.121770 Y0.933083 Z-1.000000 I0.457441 J0.682476
G03 X4.023523 Y1.018854 Z-1.000000 I-1.446752 J-1.558038
G03 X3.917769 Y1.100436 Z-1.000000 I-1.414231 J-1.723928
G02 X3.813075 Y1.183337 Z-1.000000 I0.919817 J1.269178
G02 X3.530822 Y1.434618 Z-1.000000 I8.202397 J9.497530
G03 X3.250058 Y1.687547 Z-1.000000 I-13.922429 J-15.172320
G03 X3.215262 Y1.713691 Z-1.000000 I-0.180957 J-0.204616
G02 X3.133652 Y1.783662 Z-1.000000 I0.200143 J0.316012
G02 X2.741166 Y2.256601 Z-1.000000 I9.209275 J8.041994
G03 X2.632395 Y2.392406 Z-1.000000 I-8.830214 J-6.960902
G03 X2.618791 Y2.406991 Z-1.000000 I-0.114532 J-0.093196
G02 X2.443149 Y2.665596 Z-1.000000 I0.486203 J0.519174
G02 X2.247390 Y3.350351 Z-1.000000 I3.435005 J1.352366
G02 X2.126044 Y4.488992 Z-1.000000 I7.448064 J1.369529
G02 X2.174991 Y5.723840 Z-1.000000 I8.816499 J0.268928
G02 X2.363632 Y6.425102 Z-1.000000 I2.367315 J-0.260808
G02 X2.646976 Y6.792685 Z-1.000000 I0.889899 J-0.392966
G03 X2.725227 Y6.906142 Z-1.000000 I-0.148376 J0.186047
G01 X2.696101 Y6.946054 Z-1.000000
G02 X2.643092 Y6.956038 Z-1.000000 I0.000000 J0.145716
G02 X2.381041 Y7.069101 Z-1.000000 I1.483712 J3.799073
G03 X2.120244 Y7.187739 Z-1.000000 I-3.978892 J-8.400659
G03 X2.099120 Y7.192148 Z-1.000000 I-0.021124 J-0.048401
G02 X1.967224 Y7.236867 Z-1.000000 I0.000000 J0.216869
G02 X1.669314 Y7.521455 Z-1.000000 I1.154178 J1.506429
G02 X1.381065 Y7.968046 Z-1.000000 I1.613844 J1.357963
G02 X0.978819 Y8.962565 Z-1.000000 I7.748027 J3.712401
G03 X0.836623 Y9.378304 Z-1.000000 I-27.133589 J-9.048316
G03 X0.782273 Y9.523112 Z-1.000000 I-3.344602 J-1.172726
G02 X0.698997 Y9.785384 Z-1.000000 I1.740838 J0.697100
G02 X0.608452 Y10.252290 Z-1.000000 I5.449125 J1.298953
G03 X0.560793 Y10.514388 Z-1.000000 I-4.278854 J-0.642672
G03 X0.526125 Y10.637294 Z-1.000000 I-0.972263 J-0.207902
G02 X0.493367 Y10.760432 Z-1.000000 I0.759426 J0.267958
G02 X0.456524 Y11.018014 Z-1.000000 I3.304180 J0.604036
G03 X0.426894 Y11.277468 Z-1.000000 I-12.510366 J-1.297263
G03 X0.403517 Y11.442991 Z-1.000000 I-5.114311 J-0.637906
G02 X0.346289 Y11.966628 Z-1.000000 I5.459829 J0.861646
G02 X0.292045 Y13.262461 Z-1.000000 I33.445908 J2.049103
G03 X0.237385 Y14.906176 Z-1.000000 I-76.410326 J-1.718156
G03 X0.156604 Y16.338634 Z-1.000000 I-58.109273 J-2.558498
G02 X0.129658 Y17.371624 Z-1.000000 I12.106803 J0.832653
G02 X0.181886 Y17.869884 Z-1.000000 I2.852076 J-0.047090
G02 X0.232807 Y18.023902 Z-1.000000 I0.628893 J-0.122494
G02 X0.303664 Y18.124426 Z-1.000000 I0.332226 J-0.158943
G02 X0.406372 Y18.187652 Z-1.000000 I0.182091 J-0.180766
G02 X0.658967 Y18.240023 Z-1.000000 I0.363153 J-1.116198
G02 X0.975732 Y18.230835 Z-1.000000 I0.121319 J-1.282306
G02 X1.565129 Y18.100912 Z-1.000000 I-0.708940 J-4.617980
G02 X1.966262 Y17.968297 Z-1.000000 I-1.557801 J-5.384993
G02 X2.317082 Y17.820463 Z-1.000000 I-1.590625 J-4.264854
G02 X3.451392 Y17.262298 Z-1.000000 I-16.198121 J-34.349675
G02 X3.520123 Y17.203396 Z-1.000000 I-0.088854 J-0.173231
G03 X3.700384 Y17.018592 Z-1.000000 I0.721551 J0.523498
G03 X3.810859 Y16.981212 Z-1.000000 I0.110475 J0.144562
G01 X3.834034 Y16.974582 Z-1.000000
G02 X4.052177 Y16.830821 Z-1.000000 I-2.722624 J-4.368710
G03 X4.269977 Y16.685966 Z-1.000000 I3.530194 J5.071743
G01 X4.289022 Y16.680430 Z-1.000000
G02 X4.435414 Y16.634437 Z-1.000000 I0.000000 J-0.255972
G02 X5.093469 Y16.119591 Z-1.000000 I-4.340314 J-6.225586
G03 X5.262699 Y15.980516 Z-1.000000 I2.321373 J2.652205
G03 X5.448938 Y15.845516 Z-1.000000 I2.373385 J3.078226
G02 X5.671170 Y15.673606 Z-1.000000 I-1.301511 J-1.912095
G02 X6.386181 Y15.024847 Z-1.000000 I-17.992487 J-20.548271
G03 X6.679693 Y14.751512 Z-1.000000 I29.137106 J30.993684
G03 X6.992864 Y14.465186 Z-1.000000 I32.289402 J35.002343
G02 X7.304701 Y14.177461 Z-1.000000 I-15.813630 J-17.451773
G02 X7.646353 Y13.851238 Z-1.000000 I-19.984183 J-21.271290
G03 X7.985696 Y13.522549 Z-1.000000 I174.463986 J179.779778
G03 X8.031177 Y13.479199 Z-1.000000 I3.077402 J3.183157
G02 X8.073195 Y13.432901 Z-1.000000 I-0.269131 J-0.286467
G02 X8.210587 Y13.246777 Z-1.000000 I-4.266005 J-3.292825
G03 X8.475662 Y12.899893 Z-1.000000 I4.684607 J3.305066
G03 X8.851802 Y12.470788 Z-1.000000 I7.550583 J6.239200
G02 X9.207372 Y12.067060 Z-1.000000 I-7.355226 J-6.836318
G02 X9.594241 Y11.580820 Z-1.000000 I-10.286133 J-8.581017
G02 X9.960534 Y11.076681 Z-1.000000 I-12.088976 J-9.168645
G02 X9.973332 Y11.035873 Z-1.000000 I-0.058662 J-0.040808
G03 X10.061995 Y10.726101 Z-1.000000 I0.585476 J0.000000
G03 X10.221724 Y10.637460 Z-1.000000 I0.159729 J0.099594
G01 X10.250416 Y10.659988 Z-1.000000
G03 X10.273744 Y10.850464 Z-1.000000 I-0.793851 J0.193891
G02 X10.326071 Y11.081653 Z-1.000000 I0.546917 J-0.002272
G02 X10.427155 Y11.175462 Z-1.000000 I0.167403 J-0.079019
G01 X10.451406 Y11.223159 Z-1.000000
G03 X10.280815 Y11.717538 Z-1.000000 I-3.683665 J-0.994468
G03 X9.656130 Y12.847318 Z-1.000000 I-5.712789 J-2.421156
G03 X8.676537 Y14.016288 Z-1.000000 I-7.101221 J-4.955870
G02 X8.379106 Y14.323949 Z-1.000000 I8.812182 J8.816777
G02 X8.127629 Y14.603933 Z-1.000000 I7.045544 J6.581108
G03 X7.881275 Y14.888696 Z-1.000000 I-155.188487 J-134.008286
G03 X7.580755 Y15.234896 Z-1.000000 I-229.782351 J-199.159333
G02 X7.007617 Y15.924462 Z-1.000000 I15.254737 J13.262055
G02 X6.866926 Y16.133555 Z-1.000000 I1.250377 J0.993207
G03 X6.792156 Y16.252636 Z-1.000000 I-1.292633 J-0.728626
G03 X6.733696 Y16.324962 Z-1.000000 I-0.532735 J-0.370816
G02 X6.656820 Y16.429184 Z-1.000000 I0.408980 J0.382134
G02 X6.327019 Y17.035930 Z-1.000000 I13.815179 J7.902337
G02 X6.101651 Y17.556817 Z-1.000000 I3.720378 J1.918869
G02 X6.063176 Y17.780616 Z-1.000000 I0.631665 J0.223799
G02 X6.105486 Y17.888937 Z-1.000000 I0.159818 J-0.000000
G02 X6.171354 Y17.897968 Z-1.000000 I0.038407 J-0.035404
G01 X6.190163 Y17.898028 Z-1.000000
G01 X6.200314 Y17.916122 Z-1.000000
G01 X6.208566 Y17.924338 Z-1.000000
G01 X6.223328 Y17.916291 Z-1.000000
G03 X6.249734 Y17.889983 Z-1.000000 I0.071471 J0.045331
G01 X6.270761 Y17.886452 Z-1.000000
G02 X6.353943 Y17.867465 Z-1.000000 I0.022099 J-0.094887
G02 X6.391302 Y17.789443 Z-1.000000 I-0.062791 J-0.078022
G03 X6.448453 Y17.506089 Z-1.000000 I0.731009 J0.000000
G03 X6.760817 Y16.910680 Z-1.000000 I3.645951 J1.533103
G02 X6.844446 Y16.769423 Z-1.000000 I-2.052808 J-1.310718
G02 X6.866965 Y16.716762 Z-1.000000 I-0.260035 J-0.142340
G03 X6.891585 Y16.665491 Z-1.000000 I0.193940 J0.061582
G03 X7.020434 Y16.486513 Z-1.000000 I2.543863 J1.695497
G02 X7.147211 Y16.308093 Z-1.000000 I-2.045728 J-1.587853
G02 X7.156682 Y16.276500 Z-1.000000 I-0.049336 J-0.032007
G03 X7.166544 Y16.245446 Z-1.000000 I0.055064 J0.000394
G03 X7.261312 Y16.126109 Z-1.000000 I0.988491 J0.687686
G02 X7.362601 Y16.007950 Z-1.000000 I-2.239872 J-2.022578
G02 X7.499925 Y15.832775 Z-1.000000 I-4.789049 J-3.895656
G03 X7.638415 Y15.658546 Z-1.000000 I3.584186 J2.706821
G03 X7.854300 Y15.408946 Z-1.000000 I7.576208 J6.334693
G02 X8.072952 Y15.161546 Z-1.000000 I-20.462686 J-18.305170
G02 X8.319788 Y14.875828 Z-1.000000 I-27.040332 J-23.610082
G03 X8.570858 Y14.594101 Z-1.000000 I6.942615 J5.934398
G03 X8.865911 Y14.287937 Z-1.000000 I8.495129 J7.891569
G02 X9.323874 Y13.799764 Z-1.000000 I-7.449474 J-7.447363
G02 X9.689376 Y13.352267 Z-1.000000 I-5.891798 J-5.185264
G02 X10.231365 Y12.554639 Z-1.000000 I-7.506210 J-5.683428
G02 X10.522455 Y11.979969 Z-1.000000 I-3.591449 J-2.180252
G02 X10.608307 Y11.772202 Z-1.000000 I-380.791396 J-157.470365
G02 X10.644922 Y11.683359 Z-1.000000 I-67.631963 J-27.924922
G03 X10.689043 Y11.605770 Z-1.000000 I0.326528 J0.134339
G01 X10.711612 Y11.594489 Z-1.000000
G01 X10.734184 Y11.605770 Z-1.000000
G03 X10.778302 Y11.683359 Z-1.000000 I-0.282057 J0.211716
G02 X10.814921 Y11.772207 Z-1.000000 I70.191347 J-28.877841
G02 X10.900769 Y11.979969 Z-1.000000 I398.142279 J-164.391476
G02 X11.191860 Y12.554640 Z-1.000000 I3.882506 J-1.605568
G02 X11.733848 Y13.352267 Z-1.000000 I8.048435 J-4.885959
G02 X12.099518 Y13.799948 Z-1.000000 I6.256238 J-4.736971
G02 X12.557314 Y14.287854 Z-1.000000 I7.891966 J-6.946206
G03 X12.851698 Y14.594560 Z-1.000000 I-7.333823 J7.333823
G03 X13.174448 Y14.957776 Z-1.000000 I-9.965560 J9.180291
G02 X13.492701 Y15.325213 Z-1.000000 I35.194340 J-30.161788
G02 X13.593323 Y15.436290 Z-1.000000 I3.313950 J-2.900908
G03 X13.692419 Y15.548599 Z-1.000000 I-1.814421 J1.700831
G03 X13.877076 Y15.778087 Z-1.000000 I-7.410006 J6.151482
G02 X14.061052 Y16.008210 Z-1.000000 I9.576105 J-7.467192
G02 X14.162303 Y16.126109 Z-1.000000 I2.609952 J-2.138985
G03 X14.256708 Y16.245427 Z-1.000000 I-0.894468 J0.804712
G03 X14.266543 Y16.276500 Z-1.000000 I-0.045389 J0.031459
G02 X14.276017 Y16.308094 Z-1.000000 I0.058822 J-0.000421
G02 X14.402792 Y16.486513 Z-1.000000 I2.173258 J-1.409949
G03 X14.531312 Y16.665642 Z-1.000000 I-2.311992 J1.794455
G03 X14.556624 Y16.718935 Z-1.000000 I-0.174720 J0.115643
G02 X14.578324 Y16.773512 Z-1.000000 I0.367095 J-0.114356
G01 X14.591274 Y16.789806 Z-1.000000
G03 X14.797212 Y17.053399 Z-1.000000 I-0.472570 J0.581450
G03 X15.007576 Y17.678478 Z-1.000000 I-2.637390 J1.235523
G02 X15.092707 Y17.878760 Z-1.000000 I0.561221 J-0.120316
G01 X15.150891 Y17.891300 Z-1.000000
G01 X15.171618 Y17.890206 Z-1.000000
G03 X15.198621 Y17.914233 Z-1.000000 I-0.028395 J0.059100
G01 X15.214513 Y17.923802 Z-1.000000
G01 X15.222911 Y17.916123 Z-1.000000
G01 X15.233057 Y17.898028 Z-1.000000
G01 X15.251871 Y17.897969 Z-1.000000
G02 X15.317743 Y17.888936 Z-1.000000 I0.027461 J-0.044439
G02 X15.360049 Y17.780618 Z-1.000000 I-0.117511 J-0.108318
G02 X15.321574 Y17.556818 Z-1.000000 I-0.670139 J-0.000000
G02 X15.096206 Y17.035931 Z-1.000000 I-3.945788 J1.397998
G02 X14.766405 Y16.429185 Z-1.000000 I-14.144792 J7.295489
G02 X14.689529 Y16.324963 Z-1.000000 I-0.485849 J0.277908
G03 X14.631070 Y16.252638 Z-1.000000 I0.474191 J-0.443064
G03 X14.556299 Y16.133557 Z-1.000000 I1.218577 J-0.848164
G02 X14.415607 Y15.924463 Z-1.000000 I-1.391189 J0.784204
G02 X13.842471 Y15.234898 Z-1.000000 I-15.826976 J12.571714
G03 X13.541950 Y14.888697 Z-1.000000 I229.347666 J-199.389275
G03 X13.295596 Y14.603934 Z-1.000000 I154.786648 J-134.158279
G02 X13.044119 Y14.323949 Z-1.000000 I-7.297382 J6.301455
G02 X12.746688 Y14.016290 Z-1.000000 I-9.108513 J8.508080
G03 X11.768668 Y12.849080 Z-1.000000 I6.108828 J-6.112016
G03 X11.142465 Y11.717131 Z-1.000000 I5.114182 J-3.568390
G03 X10.971807 Y11.223210 Z-1.000000 I3.502651 J-1.486665
G01 X10.996074 Y11.175463 Z-1.000000
G02 X11.097157 Y11.081660 Z-1.000000 I-0.066299 J-0.172811
G02 X11.149485 Y10.850465 Z-1.000000 I-0.494613 J-0.233468
G03 X11.172496 Y10.659685 Z-1.000000 I0.830937 J0.003444
G01 X11.200695 Y10.637461 Z-1.000000
G03 X11.361371 Y10.725959 Z-1.000000 I0.000000 J0.190109
G03 X11.449891 Y11.031551 Z-1.000000 I-0.483226 J0.305592
G02 X11.463835 Y11.076303 Z-1.000000 I0.078786 J0.000000
G02 X11.828982 Y11.580821 Z-1.000000 I11.449440 J-7.902183
G02 X12.215850 Y12.067061 Z-1.000000 I10.672351 J-8.094249
G02 X12.571421 Y12.470789 Z-1.000000 I7.710948 J-6.432728
G03 X12.947561 Y12.899895 Z-1.000000 I-7.174569 J6.668407
G03 X13.212636 Y13.246778 Z-1.000000 I-4.419656 J3.652050
G02 X13.350026 Y13.432897 Z-1.000000 I4.399488 J-3.103876
G02 X13.392045 Y13.479200 Z-1.000000 I0.311462 J-0.240423
G03 X13.437519 Y13.522542 Z-1.000000 I-3.024702 J3.219020
G03 X13.776870 Y13.851239 Z-1.000000 I-174.076387 J180.058180
G02 X14.118521 Y14.177463 Z-1.000000 I20.326190 J-20.945444
G02 X14.430359 Y14.465187 Z-1.000000 I16.125961 J-17.164573
G03 X14.743531 Y14.751513 Z-1.000000 I-31.967517 J35.279215
G03 X15.037042 Y15.024848 Z-1.000000 I-28.839073 J31.262111
G02 X15.752053 Y15.673607 Z-1.000000 I18.707334 J-19.899322
G02 X15.974285 Y15.845517 Z-1.000000 I1.523734 J-1.740177
G03 X16.160523 Y15.980517 Z-1.000000 I-2.186734 J3.212658
G03 X16.329754 Y16.119592 Z-1.000000 I-2.152550 J2.791779
G02 X16.987809 Y16.634438 Z-1.000000 I4.998374 J-5.710746
G02 X17.134201 Y16.680432 Z-1.000000 I0.146392 J-0.209979
G01 X17.153246 Y16.685967 Z-1.000000
G03 X17.371046 Y16.830822 Z-1.000000 I-3.312433 J5.216652
G02 X17.589190 Y16.974583 Z-1.000000 I2.940521 J-4.224588
G01 X17.612364 Y16.981213 Z-1.000000
G03 X17.722831 Y17.018590 Z-1.000000 I0.000000 J0.181933
G03 X17.903100 Y17.203397 Z-1.000000 I-0.541272 J0.708301
G02 X18.186986 Y17.441659 Z-1.000000 I0.618593 J-0.448791
G02 X19.543641 Y18.002610 Z-1.000000 I5.251588 J-10.779923
G02 X19.927800 Y18.123365 Z-1.000000 I2.490328 J-7.251029
G02 X20.315152 Y18.223037 Z-1.000000 I2.077954 J-7.273028
G02 X20.499932 Y18.247496 Z-1.000000 I0.222390 J-0.969852
G02 X20.764255 Y18.240025 Z-1.000000 I0.075698 J-2.001231
G02 X21.016850 Y18.187653 Z-1.000000 I-0.110556 J-1.168566
G02 X21.119559 Y18.124427 Z-1.000000 I-0.079382 J-0.243991
G02 X21.190416 Y18.023904 Z-1.000000 I-0.261404 J-0.259493
G02 X21.241337 Y17.869885 Z-1.000000 I-0.577873 J-0.276481
G02 X21.293565 Y17.371625 Z-1.000000 I-2.799607 J-0.545324
G02 X21.266617 Y16.338635 Z-1.000000 I-12.135196 J-0.200272
G03 X21.185416 Y14.898006 Z-1.000000 I58.238063 J-4.005175
G03 X21.131349 Y13.262462 Z-1.000000 I74.993225 J-3.297772
G02 X21.077449 Y11.971138 Z-1.000000 I-33.007478 J0.730942
G02 X21.019704 Y11.442992 Z-1.000000 I-5.570913 J0.341871
G03 X20.996325 Y11.277474 Z-1.000000 I5.081676 J-0.802193
G03 X20.966694 Y11.018015 Z-1.000000 I12.501141 J-1.559075
G02 X20.929849 Y10.760436 Z-1.000000 I-3.341627 J0.346573
G02 X20.897094 Y10.637295 Z-1.000000 I-0.792542 J0.144886
G03 X20.862429 Y10.514394 Z-1.000000 I0.937944 J-0.330890
G03 X20.814764 Y10.252291 Z-1.000000 I4.232299 J-0.905059
G02 X20.724219 Y9.785384 Z-1.000000 I-5.539933 J0.832099
G02 X20.640944 Y9.523113 Z-1.000000 I-1.824092 J0.434820
G03 X20.586591 Y9.378311 Z-1.000000 I3.284534 J-1.315477
G03 X20.444398 Y8.962566 Z-1.000000 I27.006985 J-9.469141
G02 X20.042151 Y7.968047 Z-1.000000 I-8.150316 J2.717903
G02 X19.753902 Y7.521456 Z-1.000000 I-1.902091 J0.911371
G02 X19.455990 Y7.236867 Z-1.000000 I-1.452067 J1.221822
G02 X19.324096 Y7.192149 Z-1.000000 I-0.131894 J0.172149
G03 X19.302978 Y7.187741 Z-1.000000 I-0.000000 J-0.052796
G03 X19.042175 Y7.069102 Z-1.000000 I3.721227 J-8.526283
G02 X18.780124 Y6.956039 Z-1.000000 I-1.745080 J3.684418
G02 X18.727115 Y6.946055 Z-1.000000 I-0.053009 J0.135737
G01 X18.697991 Y6.906144 Z-1.000000
G03 X18.776245 Y6.792686 Z-1.000000 I0.226645 J0.072605
G02 X19.059589 Y6.425104 Z-1.000000 I-0.606555 J-0.760549
G02 X19.248230 Y5.723841 Z-1.000000 I-2.178675 J-0.962070
G02 X19.297180 Y4.488994 Z-1.000000 I-8.767608 J-0.965948
G02 X19.175830 Y3.350352 Z-1.000000 I-7.568654 J0.230839
G02 X18.979005 Y2.662146 Z-1.000000 I-3.645196 J0.670264
G02 X18.804197 Y2.406992 Z-1.000000 I-0.643821 J0.253631
G03 X18.790361 Y2.392352 Z-1.000000 I0.093510 J-0.102238
G03 X18.580957 Y2.133555 Z-1.000000 I31.075650 J-25.358707
G02 X18.368069 Y1.877901 Z-1.000000 I-7.115480 J5.708730
G02 X18.281335 Y1.786802 Z-1.000000 I-0.986715 J0.852599
G02 X17.730467 Y1.280801 Z-1.000000 I-13.791055 J14.461047
G02 X17.505452 Y1.100437 Z-1.000000 I-1.968167 J2.224867
G03 X17.399700 Y1.018854 Z-1.000000 I1.310828 J-1.808500
G03 X17.301450 Y0.933084 Z-1.000000 I1.347751 J-1.643009
G02 X17.199829 Y0.852668 Z-1.000000 I-0.559062 J0.602066
G02 X17.050512 Y0.764889 Z-1.000000 I-0.817276 J1.219341
G03 X16.900427 Y0.679966 Z-1.000000 I0.923431 J-1.807072
G03 X16.877759 Y0.657214 Z-1.000000 I0.037288 J-0.059818
G02 X16.855661 Y0.633758 Z-1.000000 I-0.067836 J0.041772
G02 X16.759556 Y0.574284 Z-1.000000 I-0.565803 J0.806901
G03 X16.587275 Y0.471895 Z-1.000000 I1.210939 J-2.233682
G03 X16.499606 Y0.405575 Z-1.000000 I0.416160 J-0.641227
G02 X16.356293 Y0.308031 Z-1.000000 I-0.469488 J0.535729
G02 X15.975278 Y0.135509 Z-1.000000 I-1.898973 J3.686882
G02 X15.721190 Y0.062798 Z-1.000000 I-0.504484 J1.282600
G02 X15.236997 Y-0.000894 Z-1.000000 I-0.855142 J4.628611
G03 X14.908933 Y-0.027554 Z-1.000000 I5.953477 J-75.292093
G03 X14.730006 Y-0.043214 Z-1.000000 I1.851758 J-22.187760
G02 X14.279804 Y-0.021295 Z-1.000000 I-0.147315 J1.608647
G02 X13.983740 Y0.099230 Z-1.000000 I0.152358 J0.798155
G02 X13.881366 Y0.180120 Z-1.000000 I0.428501 J0.647537
G02 X13.640100 Y0.421174 Z-1.000000 I3.627816 J3.872272
G03 X13.404508 Y0.669257 Z-1.000000 I-21.228925 J-19.924106
G03 X13.302668 Y0.772343 Z-1.000000 I-3.767734 J-3.620361
G02 X13.015802 Y1.103415 Z-1.000000 I1.941774 J1.972320
G02 X12.981138 Y1.208941 Z-1.000000 I0.143293 J0.105526
G01 X12.975779 Y1.230737 Z-1.000000
G03 X12.909558 Y1.345689 Z-1.000000 I-1.453512 J-0.760780
G02 X12.692793 Y1.839636 Z-1.000000 I1.530617 J0.966237
G02 X12.528122 Y2.756924 Z-1.000000 I5.215936 J1.409786
G03 X12.505786 Y2.939419 Z-1.000000 I-2.975848 J-0.271611
G03 X12.445462 Y3.294818 Z-1.000000 I-11.437522 J-1.758533
G02 X12.384435 Y3.649892 Z-1.000000 I13.118889 J2.437545
G02 X12.379582 Y3.711701 Z-1.000000 I0.391190 J0.061809
G03 X12.372351 Y3.772776 Z-1.000000 I-0.261560 J0.000000
G03 X12.326842 Y3.931295 Z-1.000000 I-1.827337 J-0.438821
G02 X12.282057 Y4.090410 Z-1.000000 I1.596035 J0.535086
G02 X12.256322 Y4.239021 Z-1.000000 I1.367499 J0.313343
G03 X12.223747 Y4.385119 Z-1.000000 I-0.732053 J-0.086544
G03 X12.133552 Y4.608161 Z-1.000000 I-1.807404 J-0.601129
G02 X12.037122 Y4.829730 Z-1.000000 I2.942401 J1.412347
G02 X12.010324 Y4.922614 Z-1.000000 I0.486788 J0.190750
G03 X11.986461 Y5.016700 Z-1.000000 I-0.793610 J-0.151214
G03 X11.926064 Y5.187044 Z-1.000000 I-2.672003 J-0.851503
G02 X11.868621 Y5.357401 Z-1.000000 I1.754163 J0.686354
G02 X11.859864 Y5.419466 Z-1.000000 I0.220199 J0.062719
G03 X11.848847 Y5.479879 Z-1.000000 I-0.173834 J-0.000491
G03 X11.805354 Y5.565193 Z-1.000000 I-0.395970 J-0.148119
G02 X11.758835 Y5.649598 Z-1.000000 I0.495287 J0.327996
G02 X11.750844 Y5.686442 Z-1.000000 I0.082888 J0.037266
G03 X11.744411 Y5.724267 Z-1.000000 I-0.117926 J-0.000596
G03 X11.699004 Y5.836833 Z-1.000000 I-1.113301 J-0.383645
G02 X11.452728 Y6.401300 Z-1.000000 I11.826914 J5.496013
G02 X11.391179 Y6.590438 Z-1.000000 I1.259283 J0.514380
G01 X11.354179 Y6.740684 Z-1.000000
G01 X11.334749 Y6.617782 Z-1.000000
G03 X11.322998 Y6.494207 Z-1.000000 I0.991210 J-0.156600
G03 X11.299649 Y5.551521 Z-1.000000 I57.808668 J-1.903494
G02 X11.274914 Y4.608826 Z-1.000000 I-48.811312 J0.809056
G02 X11.258949 Y4.416755 Z-1.000000 I-2.048045 J0.073538
G03 X11.233942 Y4.225346 Z-1.000000 I621.123485 J-81.252137
G03 X11.201859 Y3.979255 Z-1.000000 I1058.759322 J-138.139949
G02 X11.161902 Y3.734831 Z-1.000000 I-3.777193 J0.491991
G02 X11.120349 Y3.565594 Z-1.000000 I-1.850450 J0.364627
G03 X11.077904 Y3.396515 Z-1.000000 I2.037658 J-0.601392
G03 X11.041289 Y3.185169 Z-1.000000 I3.147136 J-0.654078
G02 X11.004260 Y2.975384 Z-1.000000 I-2.888246 J0.401642
G02 X10.989269 Y2.942580 Z-1.000000 I-0.081749 J0.017531
G03 X10.970093 Y2.911036 Z-1.000000 I0.147730 J-0.111407
G03 X10.929239 Y2.817146 Z-1.000000 I1.287412 J-0.616021
G02 X10.840346 Y2.673293 Z-1.000000 I-0.441839 J0.173638
G01 X10.793828 Y2.666625 Z-1.000000
G01 X10.773876 Y2.670006 Z-1.000000
G01 X10.766278 Y2.660525 Z-1.000000
G01 X10.757071 Y2.646639 Z-1.000000
G02 X10.711588 Y2.637425 Z-1.000000 I-0.045483 J0.107648
G02 X10.666112 Y2.646633 Z-1.000000 I-0.000000 J0.116905
G01 X10.656898 Y2.660525 Z-1.000000
G01 X10.649294 Y2.669995 Z-1.000000
G01 X10.629348 Y2.666625 Z-1.000000
G01 X10.582831 Y2.673293 Z-1.000000
G02 X10.493938 Y2.817146 Z-1.000000 I0.352951 J0.317495
G03 X10.453086 Y2.911036 Z-1.000000 I-1.321628 J-0.519211
G03 X10.433908 Y2.942580 Z-1.000000 I-0.167085 J-0.079983
G02 X10.418917 Y2.975380 Z-1.000000 I0.066732 J0.050325
G02 X10.381888 Y3.185169 Z-1.000000 I2.851452 J0.611464
G03 X10.345273 Y3.396513 Z-1.000000 I-3.183631 J-0.442715
G03 X10.302828 Y3.565594 Z-1.000000 I-2.080322 J-0.432363
G02 X10.261275 Y3.734829 Z-1.000000 I1.808724 J0.533825
G02 X10.221318 Y3.979255 Z-1.000000 I3.737365 J0.736434
G03 X10.189235 Y4.225346 Z-1.000000 I-1058.791085 J-137.896316
G03 X10.164228 Y4.416755 Z-1.000000 I-621.148634 J-81.059640
G02 X10.148258 Y4.608827 Z-1.000000 I2.029022 J0.265402
G02 X10.123528 Y5.551521 Z-1.000000 I49.006039 J1.757278
G03 X10.100189 Y6.494213 Z-1.000000 I-57.636754 J-0.955342
G03 X10.088428 Y6.617782 Z-1.000000 I-1.001823 J-0.033004
G01 X10.068998 Y6.740684 Z-1.000000
G01 X10.031998 Y6.590438 Z-1.000000
G02 X9.970445 Y6.401299 Z-1.000000 I-1.321315 J0.325421
G02 X9.724173 Y5.836833 Z-1.000000 I-12.070463 J4.930282
G03 X9.678760 Y5.724267 Z-1.000000 I1.068795 J-0.496638
G03 X9.672333 Y5.686442 Z-1.000000 I0.111316 J-0.038371
G02 X9.664335 Y5.649596 Z-1.000000 I-0.091011 J0.000464
G02 X9.617823 Y5.565193 Z-1.000000 I-0.541374 J0.243319
G03 X9.574332 Y5.479879 Z-1.000000 I0.352518 J-0.233449
G03 X9.563313 Y5.419466 Z-1.000000 I0.162829 J-0.060910
G02 X9.554551 Y5.357404 Z-1.000000 I-0.229219 J0.000713
G02 X9.497113 Y5.187044 Z-1.000000 I-1.810218 J0.515460
G03 X9.436716 Y5.016696 Z-1.000000 I2.611415 J-1.021772
G03 X9.412853 Y4.922614 Z-1.000000 I0.769826 J-0.245320
G02 X9.386054 Y4.829725 Z-1.000000 I-0.513528 J0.097847
G02 X9.289625 Y4.608161 Z-1.000000 I-3.040026 J1.191308
G03 X9.199429 Y4.385116 Z-1.000000 I1.717291 J-0.824211
G03 X9.166855 Y4.239021 Z-1.000000 I0.699383 J-0.232613
G02 X9.141110 Y4.090408 Z-1.000000 I-1.397537 J0.165569
G02 X9.096335 Y3.931295 Z-1.000000 I-1.639370 J0.375465
G03 X9.050826 Y3.772781 Z-1.000000 I1.781297 J-0.597197
G03 X9.043595 Y3.711701 Z-1.000000 I0.254357 J-0.061080
G02 X9.038741 Y3.649893 Z-1.000000 I-0.395930 J0.000000
G02 X8.977715 Y3.294818 Z-1.000000 I-13.224607 J2.090099
G03 X8.917409 Y2.939421 Z-1.000000 I11.356542 J-2.109861
G03 X8.895056 Y2.756924 Z-1.000000 I2.969622 J-0.456351
G02 X8.730385 Y1.839636 Z-1.000000 I-5.380595 J0.492497
G02 X8.513620 Y1.345689 Z-1.000000 I-1.747384 J0.472291
G03 X8.447399 Y1.230742 Z-1.000000 I1.388447 J-0.876433
G01 X8.442038 Y1.208941 Z-1.000000
G02 X8.407371 Y1.103409 Z-1.000000 I-0.177964 J0.000000
G02 X8.120508 Y0.772343 Z-1.000000 I-2.228839 J1.641440
G03 X8.018668 Y0.669262 Z-1.000000 I3.656526 J-3.714330
G03 X7.783076 Y0.421174 Z-1.000000 I21.020638 J-20.197804
G02 X7.541828 Y0.180096 Z-1.000000 I-3.879862 J3.641351
G02 X7.439857 Y0.099509 Z-1.000000 I-0.528426 J0.563835
G02 X6.998159 Y-0.067260 Z-1.000000 I-0.587554 J0.887858
G02 X6.527975 Y-0.026604 Z-1.000000 I-0.145734 J1.053746
G01 X6.528020 Y-0.026602 Z-1.000000
G00 Z0.000000

(End cutting path id: path67377)


(Start cutting path id: path67377)
(Change tool to Cone cutter)

G00 Z0.000000
G00 X6.551163 Y0.456008

G01 Z-1.000000 F100.0(Penetrate)
G03 X6.784108 Y0.489936 Z-1.000000 I-0.113016 J1.592592 F400.000000
G01 X6.801457 Y0.511558 Z-1.000000
G03 X6.791067 Y0.542195 Z-1.000000 I-0.050364 J-0.000000
G03 X6.760441 Y0.565078 Z-1.000000 I-0.055839 J-0.042798
G02 X6.732826 Y0.590057 Z-1.000000 I0.018659 J0.048382
G02 X6.719425 Y0.646248 Z-1.000000 I0.111105 J0.056191
G03 X6.708494 Y0.700749 Z-1.000000 I-0.141333 J0.000000
G01 X6.692081 Y0.711678 Z-1.000000
G02 X6.587512 Y0.821045 Z-1.000000 I0.000000 J0.104674
G02 X6.784739 Y2.776131 Z-1.000000 I17.633087 J-0.791315
G02 X6.906294 Y3.348417 Z-1.000000 I5.447872 J-0.858087
G02 X7.033798 Y3.703559 Z-1.000000 I2.215625 J-0.595002
G03 X7.096638 Y3.842718 Z-1.000000 I-24.323996 J11.067673
G03 X7.168956 Y4.005165 Z-1.000000 I-32.990758 J14.784204
G02 X7.247022 Y4.164510 Z-1.000000 I2.073180 J-0.916891
G02 X7.349291 Y4.339456 Z-1.000000 I2.600279 J-1.402684
G03 X7.452592 Y4.512609 Z-1.000000 I-3.353019 J2.117754
G01 X7.457793 Y4.532297 Z-1.000000
G01 X7.463184 Y4.551865 Z-1.000000
G02 X7.567081 Y4.717537 Z-1.000000 I3.101076 J-1.829351
G03 X7.670629 Y4.883320 Z-1.000000 I-2.808369 J1.869341
G01 X7.676369 Y4.904338 Z-1.000000
G01 X7.667297 Y4.910722 Z-1.000000
G03 X7.587031 Y4.871808 Z-1.000000 I0.148778 J-0.409117
G02 X7.495036 Y4.821498 Z-1.000000 I-0.518528 J0.838907
G02 X7.265742 Y4.717681 Z-1.000000 I-2.463225 J5.135220
G03 X7.040496 Y4.606679 Z-1.000000 I0.897969 J-2.106198
G03 X6.755595 Y4.430493 Z-1.000000 I1.999306 J-3.551420
G02 X6.474433 Y4.247041 Z-1.000000 I-5.587814 J8.256786
G02 X6.364614 Y4.184670 Z-1.000000 I-0.751069 J1.194577
G03 X6.260614 Y4.119340 Z-1.000000 I0.313404 J-0.614360
G03 X6.236651 Y4.087400 Z-1.000000 I0.044167 J-0.058095
G02 X6.215793 Y4.055753 Z-1.000000 I-0.082481 J0.031665
G01 X6.195776 Y4.047620 Z-1.000000
G01 X6.173098 Y4.040134 Z-1.000000
G03 X6.067285 Y3.952430 Z-1.000000 I0.751679 J-1.014560
G03 X5.937113 Y3.768138 Z-1.000000 I0.368833 J-0.398638
G03 X5.761683 Y3.240979 Z-1.000000 I3.025643 J-1.299658
G02 X5.701140 Y2.995176 Z-1.000000 I-26.148422 J6.310109
G02 X5.651739 Y2.803479 Z-1.000000 I-15.966236 J4.012332
G03 X5.608902 Y2.610549 Z-1.000000 I2.405173 J-0.635255
G03 X5.557868 Y2.283948 Z-1.000000 I6.847403 J-1.237242
G02 X5.452658 Y1.658502 Z-1.000000 I-8.881878 J1.172508
G02 X5.359015 Y1.313244 Z-1.000000 I-2.792323 J0.572024
G02 X5.257052 Y1.029111 Z-1.000000 I-8.460810 J2.875850
G01 X5.245308 Y1.012463 Z-1.000000
G03 X5.157851 Y0.903934 Z-1.000000 I0.239988 J-0.282893
G01 X5.165772 Y0.863089 Z-1.000000
G03 X5.290018 Y0.779808 Z-1.000000 I0.446480 J0.531775
G03 X5.715043 Y0.575318 Z-1.000000 I3.204469 J6.116445
G03 X6.073788 Y0.472934 Z-1.000000 I0.552710 J1.256953
G03 X6.551161 Y0.456011 Z-1.000000 I0.317988 J2.228511
G01 X6.551163 Y0.456008 Z-1.000000
G00 Z0.000000

(End cutting path id: path67377)


(Start cutting path id: path67377)
(Change tool to Cone cutter)

G00 Z0.000000
G00 X6.551163 Y0.456008

G01 Z-1.000000 F100.0(Penetrate)
G03 X6.784108 Y0.489936 Z-1.000000 I-0.113016 J1.592592 F400.000000
G01 X6.801457 Y0.511558 Z-1.000000
G03 X6.791067 Y0.542195 Z-1.000000 I-0.050364 J-0.000000
G03 X6.760441 Y0.565078 Z-1.000000 I-0.055839 J-0.042798
G02 X6.732826 Y0.590057 Z-1.000000 I0.018659 J0.048382
G02 X6.719425 Y0.646248 Z-1.000000 I0.111105 J0.056191
G03 X6.708494 Y0.700749 Z-1.000000 I-0.141333 J0.000000
G01 X6.692081 Y0.711678 Z-1.000000
G02 X6.587512 Y0.821045 Z-1.000000 I0.000000 J0.104674
G02 X6.784739 Y2.776131 Z-1.000000 I17.633087 J-0.791315
G02 X6.906294 Y3.348417 Z-1.000000 I5.447872 J-0.858087
G02 X7.033798 Y3.703559 Z-1.000000 I2.215625 J-0.595002
G03 X7.096638 Y3.842718 Z-1.000000 I-24.323996 J11.067673
G03 X7.168956 Y4.005165 Z-1.000000 I-32.990758 J14.784204
G02 X7.247022 Y4.164510 Z-1.000000 I2.073180 J-0.916891
G02 X7.349291 Y4.339456 Z-1.000000 I2.600279 J-1.402684
G03 X7.452592 Y4.512609 Z-1.000000 I-3.353019 J2.117754
G01 X7.457793 Y4.532297 Z-1.000000
G01 X7.463184 Y4.551865 Z-1.000000
G02 X7.567081 Y4.717537 Z-1.000000 I3.101076 J-1.829351
G03 X7.670629 Y4.883320 Z-1.000000 I-2.808369 J1.869341
G01 X7.676369 Y4.904338 Z-1.000000
G01 X7.667297 Y4.910722 Z-1.000000
G03 X7.587031 Y4.871808 Z-1.000000 I0.148778 J-0.409117
G02 X7.495036 Y4.821498 Z-1.000000 I-0.518528 J0.838907
G02 X7.265742 Y4.717681 Z-1.000000 I-2.463225 J5.135220
G03 X7.040496 Y4.606679 Z-1.000000 I0.897969 J-2.106198
G03 X6.755595 Y4.430493 Z-1.000000 I1.999306 J-3.551420
G02 X6.474433 Y4.247041 Z-1.000000 I-5.587814 J8.256786
G02 X6.364614 Y4.184670 Z-1.000000 I-0.751069 J1.194577
G03 X6.260614 Y4.119340 Z-1.000000 I0.313404 J-0.614360
G03 X6.236651 Y4.087400 Z-1.000000 I0.044167 J-0.058095
G02 X6.215793 Y4.055753 Z-1.000000 I-0.082481 J0.031665
G01 X6.195776 Y4.047620 Z-1.000000
G01 X6.173098 Y4.040134 Z-1.000000
G03 X6.067285 Y3.952430 Z-1.000000 I0.751679 J-1.014560
G03 X5.937113 Y3.768138 Z-1.000000 I0.368833 J-0.398638
G03 X5.761683 Y3.240979 Z-1.000000 I3.025643 J-1.299658
G02 X5.701140 Y2.995176 Z-1.000000 I-26.148422 J6.310109
G02 X5.651739 Y2.803479 Z-1.000000 I-15.966236 J4.012332
G03 X5.608902 Y2.610549 Z-1.000000 I2.405173 J-0.635255
G03 X5.557868 Y2.283948 Z-1.000000 I6.847403 J-1.237242
G02 X5.452658 Y1.658502 Z-1.000000 I-8.881878 J1.172508
G02 X5.359015 Y1.313244 Z-1.000000 I-2.792323 J0.572024
G02 X5.257052 Y1.029111 Z-1.000000 I-8.460810 J2.875850
G01 X5.245308 Y1.012463 Z-1.000000
G03 X5.157851 Y0.903934 Z-1.000000 I0.239988 J-0.282893
G01 X5.165772 Y0.863089 Z-1.000000
G03 X5.290018 Y0.779808 Z-1.000000 I0.446480 J0.531775
G03 X5.715043 Y0.575318 Z-1.000000 I3.204469 J6.116445
G03 X6.073788 Y0.472934 Z-1.000000 I0.552710 J1.256953
G03 X6.551161 Y0.456011 Z-1.000000 I0.317988 J2.228511
G01 X6.551163 Y0.456008 Z-1.000000
G00 Z0.000000

(End cutting path id: path67377)


(Start cutting path id: path67377)
(Change tool to Cone cutter)

G00 Z0.000000
G00 X7.526019 Y0.932363

G01 Z-1.000000 F100.0(Penetrate)
G03 X7.707186 Y1.159261 Z-1.000000 I-1.085026 J1.052116 F400.000000
G03 X7.961368 Y1.600351 Z-1.000000 I-3.892511 J2.536871
G03 X8.086924 Y1.915567 Z-1.000000 I-1.705234 J0.861841
G03 X8.385901 Y3.022226 Z-1.000000 I-20.896891 J6.239247
G02 X8.795157 Y4.611824 Z-1.000000 I55.361989 J-13.405948
G02 X8.949251 Y5.086679 Z-1.000000 I5.083254 J-1.387123
G03 X9.030745 Y5.320996 Z-1.000000 I-4.382623 J1.655586
G03 X9.071133 Y5.469491 Z-1.000000 I-1.718655 J0.547179
G02 X9.106215 Y5.619624 Z-1.000000 I11.302695 J-2.561962
G02 X9.117213 Y5.660898 Z-1.000000 I0.857781 J-0.206467
G03 X9.127307 Y5.701889 Z-1.000000 I-0.469702 J0.137413
G01 X9.126913 Y5.709038 Z-1.000000
G01 X9.127238 Y5.715925 Z-1.000000
G02 X9.163143 Y5.791068 Z-1.000000 I1.291659 J-0.571022
G03 X9.197126 Y5.867755 Z-1.000000 I-0.642338 J0.330523
G03 X9.230183 Y5.969700 Z-1.000000 I-1.103213 J0.414056
G01 X9.258663 Y6.073424 Z-1.000000
G01 X9.168933 Y5.997044 Z-1.000000
G02 X9.078641 Y5.921341 Z-1.000000 I-5.098397 J5.989191
G02 X8.963237 Y5.827183 Z-1.000000 I-8.050483 J9.749259
G03 X8.689889 Y5.538665 Z-1.000000 I0.934057 J-1.158691
G03 X8.133921 Y4.676470 Z-1.000000 I8.044801 J-5.797861
G02 X7.982022 Y4.418399 Z-1.000000 I-11.788920 J6.765176
G02 X7.915175 Y4.314021 Z-1.000000 I-1.994108 J1.203496
G03 X7.852718 Y4.207508 Z-1.000000 I0.776369 J-0.526817
G03 X7.757645 Y3.999622 Z-1.000000 I2.873918 J-1.440013
G02 X7.663962 Y3.791031 Z-1.000000 I-3.672315 J1.523988
G02 X7.622022 Y3.719492 Z-1.000000 I-0.470708 J0.227891
G03 X7.579923 Y3.648427 Z-1.000000 I0.453130 J-0.316432
G03 X7.554286 Y3.582774 Z-1.000000 I0.360452 J-0.178590
G02 X7.532443 Y3.515021 Z-1.000000 I-1.251176 J0.365969
G02 X7.441867 Y3.264129 Z-1.000000 I-17.278119 J6.095902
G03 X7.328124 Y2.778445 Z-1.000000 I1.896406 J-0.700282
G03 X7.266437 Y1.620860 Z-1.000000 I10.855932 J-1.158945
G03 X7.284017 Y0.756716 Z-1.000000 I21.126936 J-0.002431
G01 X7.302447 Y0.739024 Z-1.000000
G01 X7.333648 Y0.750643 Z-1.000000
G03 X7.526044 Y0.932364 Z-1.000000 I-1.970658 J2.279129
G01 X7.526019 Y0.932363 Z-1.000000
G00 Z0.000000

(End cutting path id: path67377)


(Start cutting path id: path67377)
(Change tool to Cone cutter)

G00 Z0.000000
G00 X7.526019 Y0.932363

G01 Z-1.000000 F100.0(Penetrate)
G03 X7.707186 Y1.159261 Z-1.000000 I-1.085026 J1.052116 F400.000000
G03 X7.961368 Y1.600351 Z-1.000000 I-3.892511 J2.536871
G03 X8.086924 Y1.915567 Z-1.000000 I-1.705234 J0.861841
G03 X8.385901 Y3.022226 Z-1.000000 I-20.896891 J6.239247
G02 X8.795157 Y4.611824 Z-1.000000 I55.361989 J-13.405948
G02 X8.949251 Y5.086679 Z-1.000000 I5.083254 J-1.387123
G03 X9.030745 Y5.320996 Z-1.000000 I-4.382623 J1.655586
G03 X9.071133 Y5.469491 Z-1.000000 I-1.718655 J0.547179
G02 X9.106215 Y5.619624 Z-1.000000 I11.302695 J-2.561962
G02 X9.117213 Y5.660898 Z-1.000000 I0.857781 J-0.206467
G03 X9.127307 Y5.701889 Z-1.000000 I-0.469702 J0.137413
G01 X9.126913 Y5.709038 Z-1.000000
G01 X9.127238 Y5.715925 Z-1.000000
G02 X9.163143 Y5.791068 Z-1.000000 I1.291659 J-0.571022
G03 X9.197126 Y5.867755 Z-1.000000 I-0.642338 J0.330523
G03 X9.230183 Y5.969700 Z-1.000000 I-1.103213 J0.414056
G01 X9.258663 Y6.073424 Z-1.000000
G01 X9.168933 Y5.997044 Z-1.000000
G02 X9.078641 Y5.921341 Z-1.000000 I-5.098397 J5.989191
G02 X8.963237 Y5.827183 Z-1.000000 I-8.050483 J9.749259
G03 X8.689889 Y5.538665 Z-1.000000 I0.934057 J-1.158691
G03 X8.133921 Y4.676470 Z-1.000000 I8.044801 J-5.797861
G02 X7.982022 Y4.418399 Z-1.000000 I-11.788920 J6.765176
G02 X7.915175 Y4.314021 Z-1.000000 I-1.994108 J1.203496
G03 X7.852718 Y4.207508 Z-1.000000 I0.776369 J-0.526817
G03 X7.757645 Y3.999622 Z-1.000000 I2.873918 J-1.440013
G02 X7.663962 Y3.791031 Z-1.000000 I-3.672315 J1.523988
G02 X7.622022 Y3.719492 Z-1.000000 I-0.470708 J0.227891
G03 X7.579923 Y3.648427 Z-1.000000 I0.453130 J-0.316432
G03 X7.554286 Y3.582774 Z-1.000000 I0.360452 J-0.178590
G02 X7.532443 Y3.515021 Z-1.000000 I-1.251176 J0.365969
G02 X7.441867 Y3.264129 Z-1.000000 I-17.278119 J6.095902
G03 X7.328124 Y2.778445 Z-1.000000 I1.896406 J-0.700282
G03 X7.266437 Y1.620860 Z-1.000000 I10.855932 J-1.158945
G03 X7.284017 Y0.756716 Z-1.000000 I21.126936 J-0.002431
G01 X7.302447 Y0.739024 Z-1.000000
G01 X7.333648 Y0.750643 Z-1.000000
G03 X7.526044 Y0.932364 Z-1.000000 I-1.970658 J2.279129
G01 X7.526019 Y0.932363 Z-1.000000
G00 Z0.000000

(End cutting path id: path67377)


(Start cutting path id: path67377)
(Change tool to Cone cutter)

G00 Z0.000000
G00 X4.779054 Y1.332320

G01 Z-1.000000 F100.0(Penetrate)
G03 X4.805389 Y1.463812 Z-1.000000 I-9.332014 J1.937343 F400.000000
G03 X4.846605 Y1.682382 Z-1.000000 I-25.761528 J4.971120
G02 X4.889466 Y1.900589 Z-1.000000 I9.261566 J-1.705853
G02 X4.929355 Y2.078866 Z-1.000000 I6.224357 J-1.299102
G03 X4.970056 Y2.256982 Z-1.000000 I-9.020251 J2.154894
G03 X5.009889 Y2.448007 Z-1.000000 I-10.338425 J2.255478
G02 X5.048954 Y2.639205 Z-1.000000 I18.495188 J-3.679255
G02 X5.090170 Y2.830820 Z-1.000000 I18.601320 J-3.900903
G03 X5.320114 Y4.781882 Z-1.000000 I-9.636090 J2.124751
G03 X5.125314 Y4.826913 Z-1.000000 I-0.102189 J0.001799
G02 X5.081864 Y4.748121 Z-1.000000 I-0.606901 J0.283301
G02 X5.019886 Y4.662851 Z-1.000000 I-0.773770 J0.497252
G03 X4.955670 Y4.578653 Z-1.000000 I1.195962 J-0.978717
G03 X4.806384 Y4.362070 Z-1.000000 I7.771271 J-5.516322
G02 X4.532870 Y3.992317 Z-1.000000 I-4.050750 J2.710381
G02 X4.247201 Y3.676330 Z-1.000000 I-3.240353 J2.642335
G03 X4.054389 Y3.481822 Z-1.000000 I19.376036 J-19.399844
G03 X3.920358 Y3.343299 Z-1.000000 I9.684067 J-9.504175
G02 X3.611255 Y3.094557 Z-1.000000 I-1.095885 J1.045394
G02 X3.276495 Y2.951856 Z-1.000000 I-0.661886 J1.088700
G03 X3.116627 Y2.891912 Z-1.000000 I0.221509 J-0.833907
G01 X3.105116 Y2.867416 Z-1.000000
G03 X3.217334 Y2.594141 Z-1.000000 I0.928976 J0.221797
G03 X3.384196 Y2.406994 Z-1.000000 I0.588374 J0.356638
G02 X3.399357 Y2.391238 Z-1.000000 I-0.045819 J-0.059260
G02 X3.427278 Y2.346634 Z-1.000000 I-0.355082 J-0.253317
G03 X3.514763 Y2.222399 Z-1.000000 I0.583513 J0.317983
G03 X3.957726 Y1.751638 Z-1.000000 I8.977746 J8.003821
G03 X4.250189 Y1.481299 Z-1.000000 I3.300444 J3.277187
G03 X4.447137 Y1.336662 Z-1.000000 I1.132253 J1.335346
G02 X4.516056 Y1.288750 Z-1.000000 I-0.511158 J-0.808796
G02 X4.613958 Y1.209472 Z-1.000000 I-1.303618 J-1.709947
G03 X4.698776 Y1.206495 Z-1.000000 I0.044270 J0.051516
G03 X4.779054 Y1.332325 Z-1.000000 I-0.125404 J0.168529
G01 X4.779054 Y1.332320 Z-1.000000
G00 Z0.000000

(End cutting path id: path67377)


(Start cutting path id: path67377)
(Change tool to Cone cutter)

G00 Z0.000000
G00 X4.779054 Y1.332320

G01 Z-1.000000 F100.0(Penetrate)
G03 X4.805389 Y1.463812 Z-1.000000 I-9.332014 J1.937343 F400.000000
G03 X4.846605 Y1.682382 Z-1.000000 I-25.761528 J4.971120
G02 X4.889466 Y1.900589 Z-1.000000 I9.261566 J-1.705853
G02 X4.929355 Y2.078866 Z-1.000000 I6.224357 J-1.299102
G03 X4.970056 Y2.256982 Z-1.000000 I-9.020251 J2.154894
G03 X5.009889 Y2.448007 Z-1.000000 I-10.338425 J2.255478
G02 X5.048954 Y2.639205 Z-1.000000 I18.495188 J-3.679255
G02 X5.090170 Y2.830820 Z-1.000000 I18.601320 J-3.900903
G03 X5.320114 Y4.781882 Z-1.000000 I-9.636090 J2.124751
G03 X5.125314 Y4.826913 Z-1.000000 I-0.102189 J0.001799
G02 X5.081864 Y4.748121 Z-1.000000 I-0.606901 J0.283301
G02 X5.019886 Y4.662851 Z-1.000000 I-0.773770 J0.497252
G03 X4.955670 Y4.578653 Z-1.000000 I1.195962 J-0.978717
G03 X4.806384 Y4.362070 Z-1.000000 I7.771271 J-5.516322
G02 X4.532870 Y3.992317 Z-1.000000 I-4.050750 J2.710381
G02 X4.247201 Y3.676330 Z-1.000000 I-3.240353 J2.642335
G03 X4.054389 Y3.481822 Z-1.000000 I19.376036 J-19.399844
G03 X3.920358 Y3.343299 Z-1.000000 I9.684067 J-9.504175
G02 X3.611255 Y3.094557 Z-1.000000 I-1.095885 J1.045394
G02 X3.276495 Y2.951856 Z-1.000000 I-0.661886 J1.088700
G03 X3.116627 Y2.891912 Z-1.000000 I0.221509 J-0.833907
G01 X3.105116 Y2.867416 Z-1.000000
G03 X3.217334 Y2.594141 Z-1.000000 I0.928976 J0.221797
G03 X3.384196 Y2.406994 Z-1.000000 I0.588374 J0.356638
G02 X3.399357 Y2.391238 Z-1.000000 I-0.045819 J-0.059260
G02 X3.427278 Y2.346634 Z-1.000000 I-0.355082 J-0.253317
G03 X3.514763 Y2.222399 Z-1.000000 I0.583513 J0.317983
G03 X3.957726 Y1.751638 Z-1.000000 I8.977746 J8.003821
G03 X4.250189 Y1.481299 Z-1.000000 I3.300444 J3.277187
G03 X4.447137 Y1.336662 Z-1.000000 I1.132253 J1.335346
G02 X4.516056 Y1.288750 Z-1.000000 I-0.511158 J-0.808796
G02 X4.613958 Y1.209472 Z-1.000000 I-1.303618 J-1.709947
G03 X4.698776 Y1.206495 Z-1.000000 I0.044270 J0.051516
G03 X4.779054 Y1.332325 Z-1.000000 I-0.125404 J0.168529
G01 X4.779054 Y1.332320 Z-1.000000
G00 Z0.000000

(End cutting path id: path67377)


(Start cutting path id: path67377)
(Change tool to Cone cutter)

G00 Z0.000000
G00 X3.096379 Y3.460558

G01 Z-1.000000 F100.0(Penetrate)
G03 X3.798356 Y3.949991 Z-1.000000 I-1.342999 J2.674344 F400.000000
G03 X4.346796 Y4.630890 Z-1.000000 I-2.134600 J2.280668
G03 X4.707176 Y5.291466 Z-1.000000 I-8.453885 J5.040652
G03 X4.940166 Y5.824960 Z-1.000000 I-5.275460 J2.621536
G02 X5.031553 Y6.055969 Z-1.000000 I8.076031 J-3.061300
G02 X5.081099 Y6.166757 Z-1.000000 I1.905542 J-0.785712
G03 X5.126678 Y6.278605 Z-1.000000 I-0.863838 J0.417230
G03 X5.160628 Y6.403598 Z-1.000000 I-1.045580 J0.351105
G02 X5.192613 Y6.529563 Z-1.000000 I1.507238 J-0.315679
G02 X5.252717 Y6.711215 Z-1.000000 I3.198692 J-0.957588
G01 X5.318108 Y6.891366 Z-1.000000
G01 X4.509772 Y6.891366 Z-1.000000
G03 X3.466646 Y6.796099 Z-1.000000 I0.000000 J-5.758489
G03 X3.197800 Y6.649708 Z-1.000000 I0.089090 J-0.483676
G03 X2.812704 Y5.961535 Z-1.000000 I1.180592 J-1.112482
G03 X2.653179 Y4.640076 Z-1.000000 I4.460553 J-1.208833
G03 X2.694682 Y4.090791 Z-1.000000 I5.396695 J0.131553
G03 X2.776289 Y3.671736 Z-1.000000 I3.216831 J0.408975
G03 X2.920530 Y3.470928 Z-1.000000 I0.335116 J0.088507
G03 X3.096379 Y3.460558 Z-1.000000 I0.096891 J0.146861
G01 X3.096379 Y3.460558 Z-1.000000
G00 Z0.000000

(End cutting path id: path67377)


(Start cutting path id: path67377)
(Change tool to Cone cutter)

G00 Z0.000000
G00 X3.096379 Y3.460558

G01 Z-1.000000 F100.0(Penetrate)
G03 X3.798356 Y3.949991 Z-1.000000 I-1.342999 J2.674344 F400.000000
G03 X4.346796 Y4.630890 Z-1.000000 I-2.134600 J2.280668
G03 X4.707176 Y5.291466 Z-1.000000 I-8.453885 J5.040652
G03 X4.940166 Y5.824960 Z-1.000000 I-5.275460 J2.621536
G02 X5.031553 Y6.055969 Z-1.000000 I8.076031 J-3.061300
G02 X5.081099 Y6.166757 Z-1.000000 I1.905542 J-0.785712
G03 X5.126678 Y6.278605 Z-1.000000 I-0.863838 J0.417230
G03 X5.160628 Y6.403598 Z-1.000000 I-1.045580 J0.351105
G02 X5.192613 Y6.529563 Z-1.000000 I1.507238 J-0.315679
G02 X5.252717 Y6.711215 Z-1.000000 I3.198692 J-0.957588
G01 X5.318108 Y6.891366 Z-1.000000
G01 X4.509772 Y6.891366 Z-1.000000
G03 X3.466646 Y6.796099 Z-1.000000 I0.000000 J-5.758489
G03 X3.197800 Y6.649708 Z-1.000000 I0.089090 J-0.483676
G03 X2.812704 Y5.961535 Z-1.000000 I1.180592 J-1.112482
G03 X2.653179 Y4.640076 Z-1.000000 I4.460553 J-1.208833
G03 X2.694682 Y4.090791 Z-1.000000 I5.396695 J0.131553
G03 X2.776289 Y3.671736 Z-1.000000 I3.216831 J0.408975
G03 X2.920530 Y3.470928 Z-1.000000 I0.335116 J0.088507
G03 X3.096379 Y3.460558 Z-1.000000 I0.096891 J0.146861
G01 X3.096379 Y3.460558 Z-1.000000
G00 Z0.000000

(End cutting path id: path67377)


(Start cutting path id: path67377)
(Change tool to Cone cutter)

G00 Z0.000000
G00 X6.347202 Y4.770388

G01 Z-1.000000 F100.0(Penetrate)
G02 X6.565608 Y4.921874 Z-1.000000 I2.981968 J-4.066100 F400.000000
G02 X6.596025 Y4.933423 Z-1.000000 I0.041378 J-0.063148
G03 X6.670811 Y4.960950 Z-1.000000 I-0.028117 J0.191742
G03 X6.804874 Y5.064288 Z-1.000000 I-0.464398 J0.741106
G02 X6.951810 Y5.171170 Z-1.000000 I0.499738 J-0.532572
G02 X7.072757 Y5.212087 Z-1.000000 I0.174224 J-0.315781
G03 X7.111070 Y5.222834 Z-1.000000 I-0.023087 J0.155964
G03 X7.526067 Y5.403694 Z-1.000000 I-8.032677 J18.998182
G03 X8.281416 Y5.845483 Z-1.000000 I-1.673958 J3.728679
G03 X8.743485 Y6.303476 Z-1.000000 I-1.342816 J1.816851
G02 X8.932319 Y6.546542 Z-1.000000 I8.119928 J-6.113346
G02 X9.000983 Y6.624765 Z-1.000000 I0.907052 J-0.726961
G03 X9.056588 Y6.692887 Z-1.000000 I-0.393927 J0.378307
G01 X9.052873 Y6.699965 Z-1.000000
G01 X9.049313 Y6.707130 Z-1.000000
G02 X9.130613 Y6.802504 Z-1.000000 I0.873221 J-0.662020
G03 X9.552095 Y7.378057 Z-1.000000 I-1.972939 J1.886904
G03 X9.612659 Y7.682683 Z-1.000000 I-0.453868 J0.248570
G01 X9.604159 Y7.760413 Z-1.000000
G01 X9.405610 Y7.668473 Z-1.000000
G02 X9.015592 Y7.515002 Z-1.000000 I-1.499289 J3.237856
G02 X8.660801 Y7.424852 Z-1.000000 I-0.846218 J2.587105
G03 X8.244442 Y7.338126 Z-1.000000 I1.612068 J-8.782063
G03 X7.949863 Y7.259003 Z-1.000000 I1.043035 J-4.471219
G02 X7.098539 Y7.056670 Z-1.000000 I-2.047957 J6.724716
G02 X6.456132 Y7.000965 Z-1.000000 I-0.649793 J3.761508
G03 X6.357205 Y6.970418 Z-1.000000 I0.000322 J-0.176505
G03 X6.184351 Y6.816176 Z-1.000000 I0.497121 J-0.731086
G02 X6.022901 Y6.634063 Z-1.000000 I-6.361975 J5.477501
G02 X5.965964 Y6.576918 Z-1.000000 I-0.681089 J0.621673
G03 X5.911468 Y6.519572 Z-1.000000 I0.397711 J-0.432510
G01 X5.903339 Y6.501438 Z-1.000000
G02 X5.897647 Y6.481453 Z-1.000000 I-0.080867 J0.012229
G02 X5.862335 Y6.405738 Z-1.000000 I-1.217640 J0.521792
G03 X5.827623 Y6.329467 Z-1.000000 I0.916563 J-0.463176
G03 X5.759581 Y6.153095 Z-1.000000 I4.838790 J-1.968042
G03 X5.720967 Y5.970720 Z-1.000000 I0.621044 J-0.226769
G03 X5.695175 Y5.196064 Z-1.000000 I11.403367 J-0.767428
G03 X5.705535 Y4.417779 Z-1.000000 I30.711473 J0.019597
G03 X5.718275 Y4.307392 Z-1.000000 I0.625433 J0.016254
G01 X5.740883 Y4.198017 Z-1.000000
G01 X5.936194 Y4.405123 Z-1.000000
G02 X6.139851 Y4.602819 Z-1.000000 I2.348591 J-2.215659
G02 X6.347202 Y4.770388 Z-1.000000 I1.889044 J-2.125442
G01 X6.347202 Y4.770388 Z-1.000000
G00 Z0.000000

(End cutting path id: path67377)


(Start cutting path id: path67377)
(Change tool to Cone cutter)

G00 Z0.000000
G00 X6.347202 Y4.770388

G01 Z-1.000000 F100.0(Penetrate)
G02 X6.565608 Y4.921874 Z-1.000000 I2.981968 J-4.066100 F400.000000
G02 X6.596025 Y4.933423 Z-1.000000 I0.041378 J-0.063148
G03 X6.670811 Y4.960950 Z-1.000000 I-0.028117 J0.191742
G03 X6.804874 Y5.064288 Z-1.000000 I-0.464398 J0.741106
G02 X6.951810 Y5.171170 Z-1.000000 I0.499738 J-0.532572
G02 X7.072757 Y5.212087 Z-1.000000 I0.174224 J-0.315781
G03 X7.111070 Y5.222834 Z-1.000000 I-0.023087 J0.155964
G03 X7.526067 Y5.403694 Z-1.000000 I-8.032677 J18.998182
G03 X8.281416 Y5.845483 Z-1.000000 I-1.673958 J3.728679
G03 X8.743485 Y6.303476 Z-1.000000 I-1.342816 J1.816851
G02 X8.932319 Y6.546542 Z-1.000000 I8.119928 J-6.113346
G02 X9.000983 Y6.624765 Z-1.000000 I0.907052 J-0.726961
G03 X9.056588 Y6.692887 Z-1.000000 I-0.393927 J0.378307
G01 X9.052873 Y6.699965 Z-1.000000
G01 X9.049313 Y6.707130 Z-1.000000
G02 X9.130613 Y6.802504 Z-1.000000 I0.873221 J-0.662020
G03 X9.552095 Y7.378057 Z-1.000000 I-1.972939 J1.886904
G03 X9.612659 Y7.682683 Z-1.000000 I-0.453868 J0.248570
G01 X9.604159 Y7.760413 Z-1.000000
G01 X9.405610 Y7.668473 Z-1.000000
G02 X9.015592 Y7.515002 Z-1.000000 I-1.499289 J3.237856
G02 X8.660801 Y7.424852 Z-1.000000 I-0.846218 J2.587105
G03 X8.244442 Y7.338126 Z-1.000000 I1.612068 J-8.782063
G03 X7.949863 Y7.259003 Z-1.000000 I1.043035 J-4.471219
G02 X7.098539 Y7.056670 Z-1.000000 I-2.047957 J6.724716
G02 X6.456132 Y7.000965 Z-1.000000 I-0.649793 J3.761508
G03 X6.357205 Y6.970418 Z-1.000000 I0.000322 J-0.176505
G03 X6.184351 Y6.816176 Z-1.000000 I0.497121 J-0.731086
G02 X6.022901 Y6.634063 Z-1.000000 I-6.361975 J5.477501
G02 X5.965964 Y6.576918 Z-1.000000 I-0.681089 J0.621673
G03 X5.911468 Y6.519572 Z-1.000000 I0.397711 J-0.432510
G01 X5.903339 Y6.501438 Z-1.000000
G02 X5.897647 Y6.481453 Z-1.000000 I-0.080867 J0.012229
G02 X5.862335 Y6.405738 Z-1.000000 I-1.217640 J0.521792
G03 X5.827623 Y6.329467 Z-1.000000 I0.916563 J-0.463176
G03 X5.759581 Y6.153095 Z-1.000000 I4.838790 J-1.968042
G03 X5.720967 Y5.970720 Z-1.000000 I0.621044 J-0.226769
G03 X5.695175 Y5.196064 Z-1.000000 I11.403367 J-0.767428
G03 X5.705535 Y4.417779 Z-1.000000 I30.711473 J0.019597
G03 X5.718275 Y4.307392 Z-1.000000 I0.625433 J0.016254
G01 X5.740883 Y4.198017 Z-1.000000
G01 X5.936194 Y4.405123 Z-1.000000
G02 X6.139851 Y4.602819 Z-1.000000 I2.348591 J-2.215659
G02 X6.347202 Y4.770388 Z-1.000000 I1.889044 J-2.125442
G01 X6.347202 Y4.770388 Z-1.000000
G00 Z0.000000

(End cutting path id: path67377)


(Start cutting path id: path67377)
(Change tool to Cone cutter)

G00 Z0.000000
G00 X6.137308 Y7.754469

G01 Z-1.000000 F100.0(Penetrate)
G03 X6.771564 Y7.794279 Z-1.000000 I-0.323366 J10.224262 F400.000000
G03 X7.430364 Y7.876047 Z-1.000000 I-1.045239 J11.116288
G03 X8.188847 Y8.034384 Z-1.000000 I-1.125218 J7.285980
G03 X8.291692 Y8.103681 Z-1.000000 I-0.048252 J0.182577
G02 X8.325765 Y8.128703 Z-1.000000 I0.058350 J-0.043745
G02 X8.442571 Y8.156941 Z-1.000000 I0.196103 J-0.555486
G03 X8.692672 Y8.231501 Z-1.000000 I-0.114131 J0.839573
G03 X9.062006 Y8.451860 Z-1.000000 I-0.989164 J2.077589
G02 X9.252775 Y8.579858 Z-1.000000 I1.671636 J-2.285258
G02 X9.310247 Y8.604193 Z-1.000000 I0.109325 J-0.178159
G03 X9.362470 Y8.627178 Z-1.000000 I-0.043782 J0.170296
G01 X9.371767 Y8.644333 Z-1.000000
G01 X9.380151 Y8.660334 Z-1.000000
G01 X9.406977 Y8.668713 Z-1.000000
G03 X9.603711 Y8.746782 Z-1.000000 I0.000000 J0.286920
G03 X9.604185 Y8.854494 Z-1.000000 I-0.050944 J0.054081
G03 X9.573462 Y8.875301 Z-1.000000 I-0.076305 J-0.079586
G03 X9.418590 Y8.938774 Z-1.000000 I-0.929147 J-2.046404
G03 X9.256659 Y8.976136 Z-1.000000 I-0.229736 J-0.626098
G03 X8.850560 Y8.996834 Z-1.000000 I-0.406099 J-3.973600
G03 X7.850528 Y8.904829 Z-1.000000 I-0.000000 J-5.480856
G03 X7.119150 Y8.675531 Z-1.000000 I0.582555 J-3.139199
G03 X6.223733 Y8.218426 Z-1.000000 I4.322743 J-9.573340
G03 X5.612786 Y7.813284 Z-1.000000 I2.774488 J-4.847088
G03 X5.517382 Y7.729562 Z-1.000000 I0.557649 J-0.731687
G01 X5.522068 Y7.721854 Z-1.000000
G02 X5.569889 Y7.730501 Z-1.000000 I0.058025 J-0.184348
G02 X6.137303 Y7.754464 Z-1.000000 I1.412242 J-26.710028
G01 X6.137308 Y7.754469 Z-1.000000
G00 Z0.000000

(End cutting path id: path67377)


(Start cutting path id: path67377)
(Change tool to Cone cutter)

G00 Z0.000000
G00 X6.137308 Y7.754469

G01 Z-1.000000 F100.0(Penetrate)
G03 X6.771564 Y7.794279 Z-1.000000 I-0.323366 J10.224262 F400.000000
G03 X7.430364 Y7.876047 Z-1.000000 I-1.045239 J11.116288
G03 X8.188847 Y8.034384 Z-1.000000 I-1.125218 J7.285980
G03 X8.291692 Y8.103681 Z-1.000000 I-0.048252 J0.182577
G02 X8.325765 Y8.128703 Z-1.000000 I0.058350 J-0.043745
G02 X8.442571 Y8.156941 Z-1.000000 I0.196103 J-0.555486
G03 X8.692672 Y8.231501 Z-1.000000 I-0.114131 J0.839573
G03 X9.062006 Y8.451860 Z-1.000000 I-0.989164 J2.077589
G02 X9.252775 Y8.579858 Z-1.000000 I1.671636 J-2.285258
G02 X9.310247 Y8.604193 Z-1.000000 I0.109325 J-0.178159
G03 X9.362470 Y8.627178 Z-1.000000 I-0.043782 J0.170296
G01 X9.371767 Y8.644333 Z-1.000000
G01 X9.380151 Y8.660334 Z-1.000000
G01 X9.406977 Y8.668713 Z-1.000000
G03 X9.603711 Y8.746782 Z-1.000000 I0.000000 J0.286920
G03 X9.604185 Y8.854494 Z-1.000000 I-0.050944 J0.054081
G03 X9.573462 Y8.875301 Z-1.000000 I-0.076305 J-0.079586
G03 X9.418590 Y8.938774 Z-1.000000 I-0.929147 J-2.046404
G03 X9.256659 Y8.976136 Z-1.000000 I-0.229736 J-0.626098
G03 X8.850560 Y8.996834 Z-1.000000 I-0.406099 J-3.973600
G03 X7.850528 Y8.904829 Z-1.000000 I-0.000000 J-5.480856
G03 X7.119150 Y8.675531 Z-1.000000 I0.582555 J-3.139199
G03 X6.223733 Y8.218426 Z-1.000000 I4.322743 J-9.573340
G03 X5.612786 Y7.813284 Z-1.000000 I2.774488 J-4.847088
G03 X5.517382 Y7.729562 Z-1.000000 I0.557649 J-0.731687
G01 X5.522068 Y7.721854 Z-1.000000
G02 X5.569889 Y7.730501 Z-1.000000 I0.058025 J-0.184348
G02 X6.137303 Y7.754464 Z-1.000000 I1.412242 J-26.710028
G01 X6.137308 Y7.754469 Z-1.000000
G00 Z0.000000

(End cutting path id: path67377)


(Start cutting path id: path67377)
(Change tool to Cone cutter)

G00 Z0.000000
G00 X3.656926 Y7.780229

G01 Z-1.000000 F100.0(Penetrate)
G03 X4.019435 Y7.882387 Z-1.000000 I-0.922576 J3.968035 F400.000000
G03 X4.272161 Y7.984734 Z-1.000000 I-0.673889 J2.027238
G02 X4.327707 Y8.009025 Z-1.000000 I0.361083 J-0.750045
G02 X4.487074 Y8.069534 Z-1.000000 I2.415655 J-6.122115
G03 X4.644076 Y8.135001 Z-1.000000 I-0.646218 J1.770751
G03 X4.828870 Y8.230525 Z-1.000000 I-1.201478 J2.550809
G02 X5.845050 Y8.780637 Z-1.000000 I15.950127 J-28.249844
G02 X5.935926 Y8.804577 Z-1.000000 I0.098770 J-0.190477
G03 X5.957987 Y8.809751 Z-1.000000 I-0.002158 J0.058825
G03 X6.236707 Y8.940349 Z-1.000000 I-4.478423 J9.920484
G02 X6.893063 Y9.234326 Z-1.000000 I5.030798 J-10.352456
G02 X7.238958 Y9.352158 Z-1.000000 I1.129353 J-2.748599
G02 X7.836316 Y9.498383 Z-1.000000 I3.032777 J-11.096259
G02 X8.005903 Y9.518297 Z-1.000000 I0.187725 J-0.866583
G01 X8.008808 Y9.532506 Z-1.000000
G03 X7.813176 Y9.605127 Z-1.000000 I-0.631507 J-1.401388
G01 X7.526067 Y9.690027 Z-1.000000
G01 X6.555364 Y9.692027 Z-1.000000
G03 X5.587109 Y9.672858 Z-1.000000 I-0.046265 J-22.127091
G03 X5.365911 Y9.642407 Z-1.000000 I0.048976 J-1.174382
G03 X5.151052 Y9.580621 Z-1.000000 I0.534007 J-2.261447
G03 X5.037786 Y9.530708 Z-1.000000 I0.229743 J-0.674831
G02 X4.926519 Y9.474689 Z-1.000000 I-0.842462 J1.534802
G02 X4.773329 Y9.409164 Z-1.000000 I-1.305556 J2.840425
G03 X4.622712 Y9.338709 Z-1.000000 I0.511679 J-1.290088
G03 X4.281142 Y9.141888 Z-1.000000 I3.721327 J-6.852901
G02 X3.943348 Y8.937285 Z-1.000000 I-29.971189 J49.100590
G02 X3.848333 Y8.881761 Z-1.000000 I-2.301210 J3.828843
G03 X3.755496 Y8.823450 Z-1.000000 I0.610069 J-1.074345
G03 X3.697942 Y8.777732 Z-1.000000 I0.316667 J-0.457736
G02 X3.431019 Y8.595061 Z-1.000000 I-0.794764 J0.874974
G02 X2.828435 Y8.343783 Z-1.000000 I-2.150713 J4.309418
G03 X2.590031 Y8.256643 Z-1.000000 I1.760316 J-5.185738
G03 X2.418279 Y8.182995 Z-1.000000 I1.083172 J-2.763097
G01 X2.248723 Y8.103875 Z-1.000000
G01 X2.399114 Y8.017335 Z-1.000000
G03 X2.552066 Y7.936679 Z-1.000000 I1.168422 J2.030379
G03 X2.631536 Y7.905526 Z-1.000000 I0.247702 J0.514942
G03 X3.009012 Y7.797132 Z-1.000000 I3.016276 J9.792554
G03 X3.233098 Y7.745191 Z-1.000000 I0.906028 J3.399477
G03 X3.380502 Y7.736876 Z-1.000000 I0.103475 J0.523651
G03 X3.656926 Y7.780191 Z-1.000000 I-0.157761 J1.910480
G01 X3.656926 Y7.780229 Z-1.000000
G00 Z0.000000

(End cutting path id: path67377)


(Start cutting path id: path67377)
(Change tool to Cone cutter)

G00 Z0.000000
G00 X3.656926 Y7.780229

G01 Z-1.000000 F100.0(Penetrate)
G03 X4.019435 Y7.882387 Z-1.000000 I-0.922576 J3.968035 F400.000000
G03 X4.272161 Y7.984734 Z-1.000000 I-0.673889 J2.027238
G02 X4.327707 Y8.009025 Z-1.000000 I0.361083 J-0.750045
G02 X4.487074 Y8.069534 Z-1.000000 I2.415655 J-6.122115
G03 X4.644076 Y8.135001 Z-1.000000 I-0.646218 J1.770751
G03 X4.828870 Y8.230525 Z-1.000000 I-1.201478 J2.550809
G02 X5.845050 Y8.780637 Z-1.000000 I15.950127 J-28.249844
G02 X5.935926 Y8.804577 Z-1.000000 I0.098770 J-0.190477
G03 X5.957987 Y8.809751 Z-1.000000 I-0.002158 J0.058825
G03 X6.236707 Y8.940349 Z-1.000000 I-4.478423 J9.920484
G02 X6.893063 Y9.234326 Z-1.000000 I5.030798 J-10.352456
G02 X7.238958 Y9.352158 Z-1.000000 I1.129353 J-2.748599
G02 X7.836316 Y9.498383 Z-1.000000 I3.032777 J-11.096259
G02 X8.005903 Y9.518297 Z-1.000000 I0.187725 J-0.866583
G01 X8.008808 Y9.532506 Z-1.000000
G03 X7.813176 Y9.605127 Z-1.000000 I-0.631507 J-1.401388
G01 X7.526067 Y9.690027 Z-1.000000
G01 X6.555364 Y9.692027 Z-1.000000
G03 X5.587109 Y9.672858 Z-1.000000 I-0.046265 J-22.127091
G03 X5.365911 Y9.642407 Z-1.000000 I0.048976 J-1.174382
G03 X5.151052 Y9.580621 Z-1.000000 I0.534007 J-2.261447
G03 X5.037786 Y9.530708 Z-1.000000 I0.229743 J-0.674831
G02 X4.926519 Y9.474689 Z-1.000000 I-0.842462 J1.534802
G02 X4.773329 Y9.409164 Z-1.000000 I-1.305556 J2.840425
G03 X4.622712 Y9.338709 Z-1.000000 I0.511679 J-1.290088
G03 X4.281142 Y9.141888 Z-1.000000 I3.721327 J-6.852901
G02 X3.943348 Y8.937285 Z-1.000000 I-29.971189 J49.100590
G02 X3.848333 Y8.881761 Z-1.000000 I-2.301210 J3.828843
G03 X3.755496 Y8.823450 Z-1.000000 I0.610069 J-1.074345
G03 X3.697942 Y8.777732 Z-1.000000 I0.316667 J-0.457736
G02 X3.431019 Y8.595061 Z-1.000000 I-0.794764 J0.874974
G02 X2.828435 Y8.343783 Z-1.000000 I-2.150713 J4.309418
G03 X2.590031 Y8.256643 Z-1.000000 I1.760316 J-5.185738
G03 X2.418279 Y8.182995 Z-1.000000 I1.083172 J-2.763097
G01 X2.248723 Y8.103875 Z-1.000000
G01 X2.399114 Y8.017335 Z-1.000000
G03 X2.552066 Y7.936679 Z-1.000000 I1.168422 J2.030379
G03 X2.631536 Y7.905526 Z-1.000000 I0.247702 J0.514942
G03 X3.009012 Y7.797132 Z-1.000000 I3.016276 J9.792554
G03 X3.233098 Y7.745191 Z-1.000000 I0.906028 J3.399477
G03 X3.380502 Y7.736876 Z-1.000000 I0.103475 J0.523651
G03 X3.656926 Y7.780191 Z-1.000000 I-0.157761 J1.910480
G01 X3.656926 Y7.780229 Z-1.000000
G00 Z0.000000

(End cutting path id: path67377)


(Start cutting path id: path67377)
(Change tool to Cone cutter)

G00 Z0.000000
G00 X2.295012 Y8.604704

G01 Z-1.000000 F100.0(Penetrate)
G03 X2.572582 Y8.713414 Z-1.000000 I-1.550992 J4.368877 F400.000000
G03 X2.672551 Y8.766752 Z-1.000000 I-0.264206 J0.615544
G02 X2.770125 Y8.825567 Z-1.000000 I0.956371 J-1.476261
G02 X3.055364 Y8.980924 Z-1.000000 I6.992851 J-12.499516
G03 X3.342442 Y9.133164 Z-1.000000 I-371.347925 J700.590421
G03 X3.471447 Y9.201688 Z-1.000000 I-73.757129 J139.014279
G02 X3.602091 Y9.263674 Z-1.000000 I0.742765 J-1.396819
G02 X3.635510 Y9.270518 Z-1.000000 I0.034011 J-0.081054
G03 X3.669123 Y9.277007 Z-1.000000 I-0.000661 J0.093729
G03 X3.807317 Y9.338018 Z-1.000000 I-0.667200 J1.698259
G02 X3.944972 Y9.401592 Z-1.000000 I1.365340 J-2.775527
G02 X3.964827 Y9.406128 Z-1.000000 I0.022146 J-0.051214
G03 X3.984620 Y9.410875 Z-1.000000 I-0.002170 J0.052692
G03 X4.210921 Y9.518868 Z-1.000000 I-3.327541 J7.263977
G02 X4.437848 Y9.627096 Z-1.000000 I3.511448 J-7.070620
G02 X4.572942 Y9.684508 Z-1.000000 I1.120987 J-2.450098
G03 X4.708017 Y9.741885 Z-1.000000 I-0.989710 J2.517632
G03 X4.860451 Y9.815950 Z-1.000000 I-1.500585 J3.282250
G02 X5.214067 Y9.965869 Z-1.000000 I1.177483 J-2.285354
G02 X5.475286 Y10.023962 Z-1.000000 I0.400057 J-1.182531
G03 X5.584221 Y10.039070 Z-1.000000 I-0.226406 J2.032789
G03 X5.817083 Y10.080702 Z-1.000000 I-1.586992 J9.548598
G02 X6.050884 Y10.107932 Z-1.000000 I0.302441 J-1.579479
G02 X6.526362 Y10.111002 Z-1.000000 I0.280083 J-6.556181
G03 X6.899866 Y10.115659 Z-1.000000 I0.131661 J4.421278
G01 X6.902079 Y10.131572 Z-1.000000
G02 X6.803455 Y10.170936 Z-1.000000 I0.354620 J1.031717
G02 X6.767019 Y10.193252 Z-1.000000 I0.073472 J0.160863
G03 X6.730409 Y10.215101 Z-1.000000 I-0.100214 J-0.126324
G03 X6.623723 Y10.254762 Z-1.000000 I-0.453267 J-1.055929
G02 X6.253062 Y10.408215 Z-1.000000 I0.703381 J2.223382
G02 X5.907774 Y10.626257 Z-1.000000 I1.112820 J2.144663
G03 X5.818567 Y10.685688 Z-1.000000 I-0.538044 J-0.710951
G01 X5.794687 Y10.692137 Z-1.000000
G02 X5.762820 Y10.699728 Z-1.000000 I-0.000000 J0.070683
G02 X5.046464 Y11.070072 Z-1.000000 I19.298791 J38.207625
G03 X4.227232 Y11.382185 Z-1.000000 I-1.676625 J-3.169576
G03 X2.976370 Y11.579849 Z-1.000000 I-1.789109 J-7.265193
G02 X2.748802 Y11.606887 Z-1.000000 I0.178291 J2.471804
G02 X2.553092 Y11.650129 Z-1.000000 I0.310137 J1.868165
G03 X2.357527 Y11.691578 Z-1.000000 I-0.434565 J-1.568288
G03 X2.191187 Y11.703859 Z-1.000000 I-0.166340 J-1.120347
G02 X2.025321 Y11.716175 Z-1.000000 I-0.000000 J1.123040
G02 X1.903528 Y11.746819 Z-1.000000 I0.094544 J0.633119
G03 X1.782263 Y11.783561 Z-1.000000 I-0.423765 J-1.180140
G03 X1.625322 Y11.815989 Z-1.000000 I-0.484747 J-1.950016
G02 X1.286498 Y11.901741 Z-1.000000 I0.339659 J2.054330
G02 X0.998475 Y12.032041 Z-1.000000 I0.554976 J1.610231
G01 X0.974301 Y12.026548 Z-1.000000
G03 X0.965106 Y11.983911 Z-1.000000 I0.046704 J-0.032383
G02 X0.975102 Y11.908468 Z-1.000000 I-0.755332 J-0.138465
G02 X1.006171 Y11.485110 Z-1.000000 I-23.752685 J-1.955947
G03 X1.079872 Y10.585601 Z-1.000000 I25.878285 J1.667566
G03 X1.106818 Y10.473392 Z-1.000000 I0.421866 J0.041968
G02 X1.128034 Y10.403490 Z-1.000000 I-0.439423 J-0.171539
G02 X1.181926 Y10.132989 Z-1.000000 I-6.567099 J-1.448991
G03 X1.249182 Y9.866606 Z-1.000000 I1.902130 J0.338566
G03 X1.404574 Y9.457675 Z-1.000000 I4.651833 J1.533686
G02 X1.573637 Y9.053335 Z-1.000000 I-17.069116 J-7.374461
G02 X1.578802 Y9.026785 Z-1.000000 I-0.065663 J-0.026550
G03 X1.584043 Y9.000310 Z-1.000000 I0.069491 J0.000000
G03 X1.692071 Y8.751904 Z-1.000000 I6.471172 J2.666538
G01 X1.805341 Y8.504642 Z-1.000000
G01 X1.909259 Y8.504642 Z-1.000000
G03 X2.010941 Y8.517616 Z-1.000000 I0.000000 J0.404966
G03 X2.295012 Y8.604698 Z-1.000000 I-0.854811 J3.295346
G01 X2.295012 Y8.604704 Z-1.000000
G00 Z0.000000

(End cutting path id: path67377)


(Start cutting path id: path67377)
(Change tool to Cone cutter)

G00 Z0.000000
G00 X2.295012 Y8.604704

G01 Z-1.000000 F100.0(Penetrate)
G03 X2.572582 Y8.713414 Z-1.000000 I-1.550992 J4.368877 F400.000000
G03 X2.672551 Y8.766752 Z-1.000000 I-0.264206 J0.615544
G02 X2.770125 Y8.825567 Z-1.000000 I0.956371 J-1.476261
G02 X3.055364 Y8.980924 Z-1.000000 I6.992851 J-12.499516
G03 X3.342442 Y9.133164 Z-1.000000 I-371.347925 J700.590421
G03 X3.471447 Y9.201688 Z-1.000000 I-73.757129 J139.014279
G02 X3.602091 Y9.263674 Z-1.000000 I0.742765 J-1.396819
G02 X3.635510 Y9.270518 Z-1.000000 I0.034011 J-0.081054
G03 X3.669123 Y9.277007 Z-1.000000 I-0.000661 J0.093729
G03 X3.807317 Y9.338018 Z-1.000000 I-0.667200 J1.698259
G02 X3.944972 Y9.401592 Z-1.000000 I1.365340 J-2.775527
G02 X3.964827 Y9.406128 Z-1.000000 I0.022146 J-0.051214
G03 X3.984620 Y9.410875 Z-1.000000 I-0.002170 J0.052692
G03 X4.210921 Y9.518868 Z-1.000000 I-3.327541 J7.263977
G02 X4.437848 Y9.627096 Z-1.000000 I3.511448 J-7.070620
G02 X4.572942 Y9.684508 Z-1.000000 I1.120987 J-2.450098
G03 X4.708017 Y9.741885 Z-1.000000 I-0.989710 J2.517632
G03 X4.860451 Y9.815950 Z-1.000000 I-1.500585 J3.282250
G02 X5.214067 Y9.965869 Z-1.000000 I1.177483 J-2.285354
G02 X5.475286 Y10.023962 Z-1.000000 I0.400057 J-1.182531
G03 X5.584221 Y10.039070 Z-1.000000 I-0.226406 J2.032789
G03 X5.817083 Y10.080702 Z-1.000000 I-1.586992 J9.548598
G02 X6.050884 Y10.107932 Z-1.000000 I0.302441 J-1.579479
G02 X6.526362 Y10.111002 Z-1.000000 I0.280083 J-6.556181
G03 X6.899866 Y10.115659 Z-1.000000 I0.131661 J4.421278
G01 X6.902079 Y10.131572 Z-1.000000
G02 X6.803455 Y10.170936 Z-1.000000 I0.354620 J1.031717
G02 X6.767019 Y10.193252 Z-1.000000 I0.073472 J0.160863
G03 X6.730409 Y10.215101 Z-1.000000 I-0.100214 J-0.126324
G03 X6.623723 Y10.254762 Z-1.000000 I-0.453267 J-1.055929
G02 X6.253062 Y10.408215 Z-1.000000 I0.703381 J2.223382
G02 X5.907774 Y10.626257 Z-1.000000 I1.112820 J2.144663
G03 X5.818567 Y10.685688 Z-1.000000 I-0.538044 J-0.710951
G01 X5.794687 Y10.692137 Z-1.000000
G02 X5.762820 Y10.699728 Z-1.000000 I-0.000000 J0.070683
G02 X5.046464 Y11.070072 Z-1.000000 I19.298791 J38.207625
G03 X4.227232 Y11.382185 Z-1.000000 I-1.676625 J-3.169576
G03 X2.976370 Y11.579849 Z-1.000000 I-1.789109 J-7.265193
G02 X2.748802 Y11.606887 Z-1.000000 I0.178291 J2.471804
G02 X2.553092 Y11.650129 Z-1.000000 I0.310137 J1.868165
G03 X2.357527 Y11.691578 Z-1.000000 I-0.434565 J-1.568288
G03 X2.191187 Y11.703859 Z-1.000000 I-0.166340 J-1.120347
G02 X2.025321 Y11.716175 Z-1.000000 I-0.000000 J1.123040
G02 X1.903528 Y11.746819 Z-1.000000 I0.094544 J0.633119
G03 X1.782263 Y11.783561 Z-1.000000 I-0.423765 J-1.180140
G03 X1.625322 Y11.815989 Z-1.000000 I-0.484747 J-1.950016
G02 X1.286498 Y11.901741 Z-1.000000 I0.339659 J2.054330
G02 X0.998475 Y12.032041 Z-1.000000 I0.554976 J1.610231
G01 X0.974301 Y12.026548 Z-1.000000
G03 X0.965106 Y11.983911 Z-1.000000 I0.046704 J-0.032383
G02 X0.975102 Y11.908468 Z-1.000000 I-0.755332 J-0.138465
G02 X1.006171 Y11.485110 Z-1.000000 I-23.752685 J-1.955947
G03 X1.079872 Y10.585601 Z-1.000000 I25.878285 J1.667566
G03 X1.106818 Y10.473392 Z-1.000000 I0.421866 J0.041968
G02 X1.128034 Y10.403490 Z-1.000000 I-0.439423 J-0.171539
G02 X1.181926 Y10.132989 Z-1.000000 I-6.567099 J-1.448991
G03 X1.249182 Y9.866606 Z-1.000000 I1.902130 J0.338566
G03 X1.404574 Y9.457675 Z-1.000000 I4.651833 J1.533686
G02 X1.573637 Y9.053335 Z-1.000000 I-17.069116 J-7.374461
G02 X1.578802 Y9.026785 Z-1.000000 I-0.065663 J-0.026550
G03 X1.584043 Y9.000310 Z-1.000000 I0.069491 J0.000000
G03 X1.692071 Y8.751904 Z-1.000000 I6.471172 J2.666538
G01 X1.805341 Y8.504642 Z-1.000000
G01 X1.909259 Y8.504642 Z-1.000000
G03 X2.010941 Y8.517616 Z-1.000000 I0.000000 J0.404966
G03 X2.295012 Y8.604698 Z-1.000000 I-0.854811 J3.295346
G01 X2.295012 Y8.604704 Z-1.000000
G00 Z0.000000

(End cutting path id: path67377)


(Start cutting path id: path67377)
(Change tool to Cone cutter)

G00 Z0.000000
G00 X4.201605 Y11.930322

G01 Z-1.000000 F100.0(Penetrate)
G02 X3.519591 Y12.541230 Z-1.000000 I3.793536 J4.921231 F400.000000
G02 X3.076651 Y13.098398 Z-1.000000 I2.704682 J2.604831
G03 X2.648386 Y13.622519 Z-1.000000 I-2.623721 J-1.706838
G03 X2.221212 Y13.940225 Z-1.000000 I-1.358248 J-1.380213
G02 X2.064220 Y14.039632 Z-1.000000 I0.710844 J1.296288
G02 X1.919520 Y14.158976 Z-1.000000 I0.884253 J1.219524
G03 X1.780737 Y14.286757 Z-1.000000 I-8.251047 J-8.822178
G03 X1.678751 Y14.377211 Z-1.000000 I-4.239123 J-4.676867
G02 X1.243456 Y14.836385 Z-1.000000 I2.133202 J2.458181
G02 X1.037723 Y15.200859 Z-1.000000 I1.123884 J0.874696
G03 X1.016375 Y15.242112 Z-1.000000 I-0.195505 J-0.075021
G03 X0.917132 Y15.381481 Z-1.000000 I-2.362879 J-1.577559
G02 X0.824968 Y15.524398 Z-1.000000 I0.890608 J0.675510
G02 X0.768882 Y15.655040 Z-1.000000 I0.686891 J0.372246
G03 X0.719936 Y15.789154 Z-1.000000 I-1.910796 J-0.621370
G03 X0.704521 Y15.813654 Z-1.000000 I-0.076539 J-0.031057
G03 X0.586786 Y15.768894 Z-1.000000 I-0.050073 J-0.045513
G03 X0.680729 Y13.674348 Z-1.000000 I18.747911 J-0.208510
G03 X0.713455 Y13.417425 Z-1.000000 I4.969884 J0.502486
G03 X0.745921 Y13.250519 Z-1.000000 I2.127694 J0.327271
G02 X0.778186 Y13.083914 Z-1.000000 I-2.049137 J-0.483263
G02 X0.785428 Y12.990820 Z-1.000000 I-0.629911 J-0.095833
G03 X0.896883 Y12.660052 Z-1.000000 I0.553622 J0.002385
G03 X1.258154 Y12.363412 Z-1.000000 I0.793056 J0.597532
G03 X1.664549 Y12.182651 Z-1.000000 I3.085273 J6.389253
G03 X1.735666 Y12.168710 Z-1.000000 I0.071117 J0.174416
G02 X1.792624 Y12.163434 Z-1.000000 I0.000000 J-0.310107
G02 X2.020978 Y12.115400 Z-1.000000 I-0.948040 J-5.073774
G03 X2.249789 Y12.068642 Z-1.000000 I0.938585 J4.009787
G03 X2.412786 Y12.046850 Z-1.000000 I0.351685 J2.009970
G02 X3.703732 Y11.920717 Z-1.000000 I-12.636395 J-135.999882
G02 X3.752629 Y11.909515 Z-1.000000 I-0.020837 J-0.203280
G03 X3.780762 Y11.903907 Z-1.000000 I0.032146 J0.087900
G03 X4.012395 Y11.898295 Z-1.000000 I0.266098 J6.199657
G03 X4.197368 Y11.913330 Z-1.000000 I0.005720 J1.075002
G01 X4.201605 Y11.930315 Z-1.000000
G01 X4.201605 Y11.930322 Z-1.000000
G00 Z0.000000

(End cutting path id: path67377)


(Start cutting path id: path67377)
(Change tool to Cone cutter)

G00 Z0.000000
G00 X4.201605 Y11.930322

G01 Z-1.000000 F100.0(Penetrate)
G02 X3.519591 Y12.541230 Z-1.000000 I3.793536 J4.921231 F400.000000
G02 X3.076651 Y13.098398 Z-1.000000 I2.704682 J2.604831
G03 X2.648386 Y13.622519 Z-1.000000 I-2.623721 J-1.706838
G03 X2.221212 Y13.940225 Z-1.000000 I-1.358248 J-1.380213
G02 X2.064220 Y14.039632 Z-1.000000 I0.710844 J1.296288
G02 X1.919520 Y14.158976 Z-1.000000 I0.884253 J1.219524
G03 X1.780737 Y14.286757 Z-1.000000 I-8.251047 J-8.822178
G03 X1.678751 Y14.377211 Z-1.000000 I-4.239123 J-4.676867
G02 X1.243456 Y14.836385 Z-1.000000 I2.133202 J2.458181
G02 X1.037723 Y15.200859 Z-1.000000 I1.123884 J0.874696
G03 X1.016375 Y15.242112 Z-1.000000 I-0.195505 J-0.075021
G03 X0.917132 Y15.381481 Z-1.000000 I-2.362879 J-1.577559
G02 X0.824968 Y15.524398 Z-1.000000 I0.890608 J0.675510
G02 X0.768882 Y15.655040 Z-1.000000 I0.686891 J0.372246
G03 X0.719936 Y15.789154 Z-1.000000 I-1.910796 J-0.621370
G03 X0.704521 Y15.813654 Z-1.000000 I-0.076539 J-0.031057
G03 X0.586786 Y15.768894 Z-1.000000 I-0.050073 J-0.045513
G03 X0.680729 Y13.674348 Z-1.000000 I18.747911 J-0.208510
G03 X0.713455 Y13.417425 Z-1.000000 I4.969884 J0.502486
G03 X0.745921 Y13.250519 Z-1.000000 I2.127694 J0.327271
G02 X0.778186 Y13.083914 Z-1.000000 I-2.049137 J-0.483263
G02 X0.785428 Y12.990820 Z-1.000000 I-0.629911 J-0.095833
G03 X0.896883 Y12.660052 Z-1.000000 I0.553622 J0.002385
G03 X1.258154 Y12.363412 Z-1.000000 I0.793056 J0.597532
G03 X1.664549 Y12.182651 Z-1.000000 I3.085273 J6.389253
G03 X1.735666 Y12.168710 Z-1.000000 I0.071117 J0.174416
G02 X1.792624 Y12.163434 Z-1.000000 I0.000000 J-0.310107
G02 X2.020978 Y12.115400 Z-1.000000 I-0.948040 J-5.073774
G03 X2.249789 Y12.068642 Z-1.000000 I0.938585 J4.009787
G03 X2.412786 Y12.046850 Z-1.000000 I0.351685 J2.009970
G02 X3.703732 Y11.920717 Z-1.000000 I-12.636395 J-135.999882
G02 X3.752629 Y11.909515 Z-1.000000 I-0.020837 J-0.203280
G03 X3.780762 Y11.903907 Z-1.000000 I0.032146 J0.087900
G03 X4.012395 Y11.898295 Z-1.000000 I0.266098 J6.199657
G03 X4.197368 Y11.913330 Z-1.000000 I0.005720 J1.075002
G01 X4.201605 Y11.930315 Z-1.000000
G01 X4.201605 Y11.930322 Z-1.000000
G00 Z0.000000

(End cutting path id: path67377)


(Start cutting path id: path67377)
(Change tool to Cone cutter)

G00 Z0.000000
G00 X5.215520 Y13.811055

G01 Z-1.000000 F100.0(Penetrate)
G03 X5.146468 Y13.865361 Z-1.000000 I-2.157468 J-2.672232 F400.000000
G03 X4.784717 Y14.141032 Z-1.000000 I-55.949902 J-73.045574
G02 X4.118466 Y14.726805 Z-1.000000 I3.698774 J4.878716
G02 X3.563127 Y15.383133 Z-1.000000 I4.099615 J4.031918
G03 X3.304255 Y15.735360 Z-1.000000 I-27.688473 J-20.078595
G03 X3.235602 Y15.822855 Z-1.000000 I-1.775626 J-1.322567
G02 X3.171965 Y15.911238 Z-1.000000 I0.632752 J0.522695
G01 X3.164739 Y15.936479 Z-1.000000
G01 X3.157053 Y15.961529 Z-1.000000
G03 X3.065398 Y16.083117 Z-1.000000 I-1.248536 J-0.845824
G02 X2.972139 Y16.205682 Z-1.000000 I1.284500 J1.074130
G02 X2.936135 Y16.270274 Z-1.000000 I0.317657 J0.219393
G03 X2.903135 Y16.337027 Z-1.000000 I-0.732999 J-0.320834
G03 X2.822584 Y16.475352 Z-1.000000 I-3.234776 J-1.791087
G02 X2.742280 Y16.613903 Z-1.000000 I2.883734 J1.763966
G02 X2.662510 Y16.767255 Z-1.000000 I3.453728 J1.893951
G03 X2.558530 Y16.895328 Z-1.000000 I-0.332761 J-0.163918
G03 X2.235003 Y17.102216 Z-1.000000 I-1.239738 J-1.582267
G03 X1.880994 Y17.269781 Z-1.000000 I-2.862641 J-5.590094
G03 X1.822391 Y17.281993 Z-1.000000 I-0.058603 J-0.134502
G02 X1.764809 Y17.292331 Z-1.000000 I0.000000 J0.165520
G02 X1.717673 Y17.320848 Z-1.000000 I0.051067 J0.137626
G03 X1.534483 Y17.437694 Z-1.000000 I-0.442286 J-0.491388
G03 X1.359557 Y17.473399 Z-1.000000 I-0.174927 J-0.410644
G01 X1.348033 Y17.454853 Z-1.000000
G03 X1.577290 Y17.032681 Z-1.000000 I5.578379 J2.755955
G03 X1.873891 Y16.583658 Z-1.000000 I4.856022 J2.885162
G03 X2.263220 Y16.094686 Z-1.000000 I6.150829 J4.497940
G02 X2.358342 Y15.982003 Z-1.000000 I-4.509662 J-3.903320
G02 X2.467570 Y15.846446 Z-1.000000 I-6.415174 J-5.280942
G03 X2.688683 Y15.587464 Z-1.000000 I3.436686 J2.710287
G03 X3.163663 Y15.092612 Z-1.000000 I13.046268 J12.046965
G03 X3.520320 Y14.765823 Z-1.000000 I3.819233 J3.810290
G03 X3.824471 Y14.539542 Z-1.000000 I2.126490 J2.540725
G02 X4.139288 Y14.325905 Z-1.000000 I-7.568593 J-11.491891
G02 X4.252087 Y14.240641 Z-1.000000 I-1.088746 J-1.557594
G03 X4.851415 Y13.855201 Z-1.000000 I1.998773 J2.449259
G03 X5.229192 Y13.758261 Z-1.000000 I0.419237 J0.849202
G01 X5.240521 Y13.772248 Z-1.000000
G03 X5.215520 Y13.811051 Z-1.000000 I-0.071257 J-0.018456
G01 X5.215520 Y13.811055 Z-1.000000
G00 Z0.000000

(End cutting path id: path67377)


(Start cutting path id: path67377)
(Change tool to Cone cutter)

G00 Z0.000000
G00 X5.215520 Y13.811055

G01 Z-1.000000 F100.0(Penetrate)
G03 X5.146468 Y13.865361 Z-1.000000 I-2.157468 J-2.672232 F400.000000
G03 X4.784717 Y14.141032 Z-1.000000 I-55.949902 J-73.045574
G02 X4.118466 Y14.726805 Z-1.000000 I3.698774 J4.878716
G02 X3.563127 Y15.383133 Z-1.000000 I4.099615 J4.031918
G03 X3.304255 Y15.735360 Z-1.000000 I-27.688473 J-20.078595
G03 X3.235602 Y15.822855 Z-1.000000 I-1.775626 J-1.322567
G02 X3.171965 Y15.911238 Z-1.000000 I0.632752 J0.522695
G01 X3.164739 Y15.936479 Z-1.000000
G01 X3.157053 Y15.961529 Z-1.000000
G03 X3.065398 Y16.083117 Z-1.000000 I-1.248536 J-0.845824
G02 X2.972139 Y16.205682 Z-1.000000 I1.284500 J1.074130
G02 X2.936135 Y16.270274 Z-1.000000 I0.317657 J0.219393
G03 X2.903135 Y16.337027 Z-1.000000 I-0.732999 J-0.320834
G03 X2.822584 Y16.475352 Z-1.000000 I-3.234776 J-1.791087
G02 X2.742280 Y16.613903 Z-1.000000 I2.883734 J1.763966
G02 X2.662510 Y16.767255 Z-1.000000 I3.453728 J1.893951
G03 X2.558530 Y16.895328 Z-1.000000 I-0.332761 J-0.163918
G03 X2.235003 Y17.102216 Z-1.000000 I-1.239738 J-1.582267
G03 X1.880994 Y17.269781 Z-1.000000 I-2.862641 J-5.590094
G03 X1.822391 Y17.281993 Z-1.000000 I-0.058603 J-0.134502
G02 X1.764809 Y17.292331 Z-1.000000 I0.000000 J0.165520
G02 X1.717673 Y17.320848 Z-1.000000 I0.051067 J0.137626
G03 X1.534483 Y17.437694 Z-1.000000 I-0.442286 J-0.491388
G03 X1.359557 Y17.473399 Z-1.000000 I-0.174927 J-0.410644
G01 X1.348033 Y17.454853 Z-1.000000
G03 X1.577290 Y17.032681 Z-1.000000 I5.578379 J2.755955
G03 X1.873891 Y16.583658 Z-1.000000 I4.856022 J2.885162
G03 X2.263220 Y16.094686 Z-1.000000 I6.150829 J4.497940
G02 X2.358342 Y15.982003 Z-1.000000 I-4.509662 J-3.903320
G02 X2.467570 Y15.846446 Z-1.000000 I-6.415174 J-5.280942
G03 X2.688683 Y15.587464 Z-1.000000 I3.436686 J2.710287
G03 X3.163663 Y15.092612 Z-1.000000 I13.046268 J12.046965
G03 X3.520320 Y14.765823 Z-1.000000 I3.819233 J3.810290
G03 X3.824471 Y14.539542 Z-1.000000 I2.126490 J2.540725
G02 X4.139288 Y14.325905 Z-1.000000 I-7.568593 J-11.491891
G02 X4.252087 Y14.240641 Z-1.000000 I-1.088746 J-1.557594
G03 X4.851415 Y13.855201 Z-1.000000 I1.998773 J2.449259
G03 X5.229192 Y13.758261 Z-1.000000 I0.419237 J0.849202
G01 X5.240521 Y13.772248 Z-1.000000
G03 X5.215520 Y13.811051 Z-1.000000 I-0.071257 J-0.018456
G01 X5.215520 Y13.811055 Z-1.000000
G00 Z0.000000

(End cutting path id: path67377)


(Start cutting path id: path67377)
(Change tool to Cone cutter)

G00 Z0.000000
G00 X3.350826 Y14.142883

G01 Z-1.000000 F100.0(Penetrate)
G03 X3.228936 Y14.281254 Z-1.000000 I-2.332514 J-1.931828 F400.000000
G03 X2.952825 Y14.567889 Z-1.000000 I-10.306924 J-9.652198
G02 X2.681012 Y14.854237 Z-1.000000 I6.542886 J6.482932
G01 X2.672551 Y14.876119 Z-1.000000
G01 X2.664733 Y14.898339 Z-1.000000
G03 X2.547220 Y15.032168 Z-1.000000 I-1.581960 J-1.270585
G02 X2.429604 Y15.169003 Z-1.000000 I1.195676 J1.146702
G02 X2.275489 Y15.385543 Z-1.000000 I2.849524 J2.191165
G03 X2.124846 Y15.605040 Z-1.000000 I-5.586644 J-3.672732
G03 X2.050337 Y15.699996 Z-1.000000 I-1.117383 J-0.800057
G02 X1.976481 Y15.795362 Z-1.000000 I0.910676 J0.781561
G02 X1.839757 Y16.002132 Z-1.000000 I4.157958 J2.897996
G03 X1.698479 Y16.205412 Z-1.000000 I-2.205485 J-1.382059
G03 X1.493250 Y16.453304 Z-1.000000 I-3.488490 J-2.679207
G02 X1.289486 Y16.702440 Z-1.000000 I2.823037 J2.516799
G02 X1.052711 Y17.041321 Z-1.000000 I4.993723 J3.741269
G03 X0.823448 Y17.382900 Z-1.000000 I-11.969945 J-7.786330
G01 X0.811357 Y17.389954 Z-1.000000
G01 X0.792074 Y17.375632 Z-1.000000
G03 X0.714523 Y16.916960 Z-1.000000 I6.618244 J-1.354880
G03 X0.725442 Y16.714724 Z-1.000000 I0.539897 J-0.072262
G03 X0.857880 Y16.333519 Z-1.000000 I2.100185 J0.516032
G02 X0.918978 Y16.190909 Z-1.000000 I-3.063671 J-1.396951
G01 X0.922552 Y16.172411 Z-1.000000
G03 X0.964131 Y16.039964 Z-1.000000 I0.231738 J0.000000
G03 X1.266047 Y15.679246 Z-1.000000 I2.183375 J1.520745
G02 X1.378805 Y15.553983 Z-1.000000 I-1.135685 J-1.135685
G02 X1.426507 Y15.480988 Z-1.000000 I-0.334207 J-0.270489
G03 X1.582460 Y15.271735 Z-1.000000 I0.713261 J0.368842
G03 X2.112005 Y14.820139 Z-1.000000 I3.963359 J4.111191
G02 X2.358533 Y14.604208 Z-1.000000 I-1.329338 J-1.766403
G02 X2.615605 Y14.308290 Z-1.000000 I-2.254452 J-2.218122
G03 X2.713844 Y14.206141 Z-1.000000 I0.500803 J0.383320
G03 X2.777443 Y14.174095 Z-1.000000 I0.101625 J0.122554
G02 X2.848883 Y14.152049 Z-1.000000 I-0.157205 J-0.636188
G02 X2.973333 Y14.101085 Z-1.000000 I-0.726933 J-1.952544
G03 X3.110448 Y14.056588 Z-1.000000 I0.275360 J0.614994
G03 X3.432858 Y14.004755 Z-1.000000 I0.709538 J3.384835
G01 X3.440171 Y14.016085 Z-1.000000
G03 X3.350826 Y14.142876 Z-1.000000 I-0.857241 J-0.509194
G01 X3.350826 Y14.142883 Z-1.000000
G00 Z0.000000

(End cutting path id: path67377)


(Start cutting path id: path67377)
(Change tool to Cone cutter)

G00 Z0.000000
G00 X3.350826 Y14.142883

G01 Z-1.000000 F100.0(Penetrate)
G03 X3.228936 Y14.281254 Z-1.000000 I-2.332514 J-1.931828 F400.000000
G03 X2.952825 Y14.567889 Z-1.000000 I-10.306924 J-9.652198
G02 X2.681012 Y14.854237 Z-1.000000 I6.542886 J6.482932
G01 X2.672551 Y14.876119 Z-1.000000
G01 X2.664733 Y14.898339 Z-1.000000
G03 X2.547220 Y15.032168 Z-1.000000 I-1.581960 J-1.270585
G02 X2.429604 Y15.169003 Z-1.000000 I1.195676 J1.146702
G02 X2.275489 Y15.385543 Z-1.000000 I2.849524 J2.191165
G03 X2.124846 Y15.605040 Z-1.000000 I-5.586644 J-3.672732
G03 X2.050337 Y15.699996 Z-1.000000 I-1.117383 J-0.800057
G02 X1.976481 Y15.795362 Z-1.000000 I0.910676 J0.781561
G02 X1.839757 Y16.002132 Z-1.000000 I4.157958 J2.897996
G03 X1.698479 Y16.205412 Z-1.000000 I-2.205485 J-1.382059
G03 X1.493250 Y16.453304 Z-1.000000 I-3.488490 J-2.679207
G02 X1.289486 Y16.702440 Z-1.000000 I2.823037 J2.516799
G02 X1.052711 Y17.041321 Z-1.000000 I4.993723 J3.741269
G03 X0.823448 Y17.382900 Z-1.000000 I-11.969945 J-7.786330
G01 X0.811357 Y17.389954 Z-1.000000
G01 X0.792074 Y17.375632 Z-1.000000
G03 X0.714523 Y16.916960 Z-1.000000 I6.618244 J-1.354880
G03 X0.725442 Y16.714724 Z-1.000000 I0.539897 J-0.072262
G03 X0.857880 Y16.333519 Z-1.000000 I2.100185 J0.516032
G02 X0.918978 Y16.190909 Z-1.000000 I-3.063671 J-1.396951
G01 X0.922552 Y16.172411 Z-1.000000
G03 X0.964131 Y16.039964 Z-1.000000 I0.231738 J0.000000
G03 X1.266047 Y15.679246 Z-1.000000 I2.183375 J1.520745
G02 X1.378805 Y15.553983 Z-1.000000 I-1.135685 J-1.135685
G02 X1.426507 Y15.480988 Z-1.000000 I-0.334207 J-0.270489
G03 X1.582460 Y15.271735 Z-1.000000 I0.713261 J0.368842
G03 X2.112005 Y14.820139 Z-1.000000 I3.963359 J4.111191
G02 X2.358533 Y14.604208 Z-1.000000 I-1.329338 J-1.766403
G02 X2.615605 Y14.308290 Z-1.000000 I-2.254452 J-2.218122
G03 X2.713844 Y14.206141 Z-1.000000 I0.500803 J0.383320
G03 X2.777443 Y14.174095 Z-1.000000 I0.101625 J0.122554
G02 X2.848883 Y14.152049 Z-1.000000 I-0.157205 J-0.636188
G02 X2.973333 Y14.101085 Z-1.000000 I-0.726933 J-1.952544
G03 X3.110448 Y14.056588 Z-1.000000 I0.275360 J0.614994
G03 X3.432858 Y14.004755 Z-1.000000 I0.709538 J3.384835
G01 X3.440171 Y14.016085 Z-1.000000
G03 X3.350826 Y14.142876 Z-1.000000 I-0.857241 J-0.509194
G01 X3.350826 Y14.142883 Z-1.000000
G00 Z0.000000

(End cutting path id: path67377)


(Start cutting path id: path67377)
(Change tool to Cone cutter)

G00 Z0.000000
G00 X8.025870 Y12.572031

G01 Z-1.000000 F100.0(Penetrate)
G02 X7.901458 Y12.703109 Z-1.000000 I6.701889 J6.485610 F400.000000
G02 X7.740467 Y12.878622 Z-1.000000 I11.856914 J11.037479
G03 X7.157702 Y13.504445 Z-1.000000 I-21.343450 J-19.290709
G03 X6.926293 Y13.727305 Z-1.000000 I-2.930396 J-2.811243
G02 X6.819735 Y13.824131 Z-1.000000 I4.525709 J5.087646
G02 X6.543310 Y14.082774 Z-1.000000 I32.022330 J34.500961
G03 X6.265999 Y14.340439 Z-1.000000 I-17.304017 J-18.345291
G03 X6.050371 Y14.533946 Z-1.000000 I-9.975652 J-10.899149
G02 X5.834009 Y14.726655 Z-1.000000 I15.783904 J17.938976
