; generated by Slic3r 1.3.0 on 2020-03-16 at 19:30:02

; external perimeters extrusion width = 0.55mm (4.37mm^3/s)
; perimeters extrusion width = 0.70mm (11.44mm^3/s)
; infill extrusion width = 0.63mm (13.45mm^3/s)
; solid infill extrusion width = 0.70mm (3.81mm^3/s)
; top infill extrusion width = 0.70mm (2.86mm^3/s)

M107
M104 S205 ; set temperature
G28 ; home all axes
G1 Z5 F5000 ; lift nozzle

; Filament gcode

M109 S205 ; set temperature and wait for it to be reached
G21 ; set units to millimeters
G90 ; use absolute coordinates
M82 ; use absolute distances for extrusion
G92 E0
G1 Z0.300 F7800.000
G1 E-2.00000 F2400.00000
G92 E0
G1 X92.804 Y93.101 F7800.000
G1 E2.00000 F2400.00000
G1 F1800
G1 X93.614 Y92.291 E2.02605
G1 X93.737 Y92.291 E2.02884
G1 X93.356 Y92.663 E2.04096
G1 X93.230 Y92.675 E2.04383
G1 X94.483 Y92.303 F7800.000
G1 F1800
G1 X94.383 Y92.308 E2.04610
G1 X94.266 Y92.435 E2.05004
G1 X94.148 Y92.436 E2.05272
G1 X94.122 Y92.461 E2.05355
G1 X93.953 Y92.461 E2.05739
G1 X93.830 Y92.581 E2.06129
G1 X93.696 Y92.573 E2.06436
G1 X93.657 Y92.590 E2.06532
G1 X93.580 Y92.678 E2.06796
G1 X94.105 Y92.681 E2.07990
G1 X94.910 Y91.876 E2.10576
G1 X95.112 Y91.867 E2.11036
G1 X95.194 Y91.779 E2.11310
G1 X95.517 Y91.718 E2.12056
G1 X95.671 Y91.725 E2.12407
G1 X95.753 Y91.633 E2.12686
G1 X96.057 Y91.610 E2.13380
G1 X95.133 Y92.534 E2.16352
G1 X96.033 Y92.515 E2.18399
G1 X97.077 Y91.471 E2.21756
G1 X97.378 Y91.434 E2.22445
G1 X97.495 Y91.336 E2.22791
G1 X98.099 Y91.329 E2.24166
G1 X97.197 Y92.232 E2.27068
G1 X97.474 Y92.215 E2.27699
G1 X97.578 Y92.117 E2.28025
G1 X97.701 Y92.115 E2.28305
G1 X97.741 Y92.087 E2.28416
G1 X98.204 Y92.106 E2.29470
G1 X99.032 Y91.278 E2.32132
G1 X99.034 Y91.307 E2.32198
G1 X99.140 Y91.306 E2.32439
G1 X99.162 Y91.456 E2.32784
G1 X99.169 Y92.021 E2.34070
G1 X98.332 Y92.859 E2.36761
G1 X98.325 Y93.747 E2.38781
G1 X99.259 Y92.813 E2.41784
G1 X99.264 Y93.688 E2.43774
G1 X98.327 Y94.626 E2.46787
G1 E0.46787 F2400.00000
G92 E0
G1 X101.718 Y92.996 F7800.000
G1 E2.00000 F2400.00000
G1 F1800
G1 X101.015 Y93.699 E2.02260
G1 X101.015 Y93.846 E2.02593
G1 X101.214 Y93.814 E2.03050
G1 X101.557 Y93.521 E2.04075
G1 X102.037 Y93.559 E2.05169
G1 X102.550 Y93.045 E2.06820
G1 X102.990 Y93.052 E2.07820
G1 X103.007 Y93.128 E2.07996
G1 X103.334 Y93.142 E2.08740
G1 X102.656 Y93.820 E2.10919
G1 X102.712 Y93.825 E2.11045
G1 X102.732 Y93.941 E2.11311
G1 X103.009 Y93.959 E2.11941
G1 X103.011 Y94.058 E2.12167
G1 X103.274 Y94.083 E2.12768
G1 X104.049 Y93.308 E2.15259
G1 X104.233 Y93.314 E2.15678
G1 X104.247 Y93.415 E2.15909
G1 X104.593 Y93.463 E2.16703
G1 X104.678 Y93.456 E2.16897
G1 X104.696 Y93.542 E2.17097
G1 X103.968 Y94.271 E2.19440
G1 X104.003 Y94.275 E2.19520
G1 X104.004 Y94.351 E2.19692
G1 X104.326 Y94.367 E2.20425
G1 X104.343 Y94.394 E2.20496
G1 X104.564 Y94.392 E2.20998
G1 X104.563 Y94.556 E2.21372
G1 X105.417 Y93.702 E2.24118
G1 X105.702 Y93.703 E2.24766
G1 X105.849 Y93.554 E2.25243
G1 X105.927 Y93.524 E2.25431
G1 X105.970 Y93.432 E2.25663
G1 X106.158 Y93.281 E2.26211
G1 X106.216 Y93.281 E2.26344
G1 X106.192 Y93.406 E2.26633
G1 X106.098 Y93.502 E2.26938
G1 X106.051 Y93.949 E2.27960
G1 X103.696 Y96.304 E2.35532
G1 E0.35532 F2400.00000
G92 E0
G1 X103.852 Y102.315 F7800.000
G1 E2.00000 F2400.00000
G1 F1800
G1 X103.171 Y102.996 E2.02188
G1 X103.176 Y103.431 E2.03178
G1 X103.275 Y103.448 E2.03405
G1 X103.290 Y103.758 E2.04111
G1 X104.105 Y102.942 E2.06734
G1 X104.139 Y103.327 E2.07613
G1 X104.236 Y103.323 E2.07832
G1 X104.255 Y103.673 E2.08628
G1 X103.420 Y104.508 E2.11313
G1 X103.438 Y104.538 E2.11391
G1 X103.459 Y104.844 E2.12089
G1 X103.551 Y104.846 E2.12299
G1 X103.561 Y105.248 E2.13213
G1 X104.391 Y104.419 E2.15880
G1 X104.412 Y105.015 E2.17238
G1 X104.489 Y105.015 E2.17413
G1 X104.491 Y105.199 E2.17830
G1 X103.478 Y106.212 E2.21089
G1 X102.554 Y106.255 F7800.000
G1 F1800
G1 X103.488 Y105.321 E2.24092
G1 X103.159 Y105.356 E2.24844
G1 X102.960 Y105.310 E2.25308
G1 X102.630 Y105.299 E2.26061
G1 X101.678 Y106.251 E2.29121
G1 X101.339 Y106.244 E2.29891
G1 X101.319 Y106.233 E2.29942
G1 X101.299 Y106.115 E2.30216
G1 X100.943 Y106.105 E2.31027
G1 X101.696 Y105.351 E2.33449
G1 X101.546 Y105.353 E2.33791
G1 X101.475 Y105.428 E2.34024
G1 X100.726 Y105.463 E2.35729
G1 X100.638 Y105.552 E2.36013
G1 X100.615 Y105.552 E2.36066
G1 X100.082 Y106.085 E2.37780
G1 X99.944 Y106.084 E2.38094
G1 X99.916 Y106.122 E2.38202
G1 X99.845 Y106.121 E2.38362
G1 X99.693 Y106.268 E2.38842
G1 X99.453 Y106.289 E2.39390
G1 X99.453 Y106.136 E2.39737
G1 X99.330 Y106.133 E2.40017
G1 X99.330 Y105.998 E2.40323
G1 X99.293 Y105.992 E2.40408
G1 X99.977 Y105.308 E2.42608
G1 E0.42608 F2400.00000
G92 E0
G1 X97.609 Y103.272 F7800.000
G1 E2.00000 F2400.00000
G1 F1800
G1 X97.609 Y103.483 E2.00479
G1 X97.505 Y103.590 E2.00818
G1 X97.477 Y103.916 E2.01563
G1 X97.350 Y104.039 E2.01965
G1 X97.355 Y104.137 E2.02187
G1 X97.322 Y104.195 E2.02339
G1 X97.323 Y104.327 E2.02640
G1 X97.208 Y104.440 E2.03005
G1 X97.198 Y104.564 E2.03287
G1 X98.465 Y103.297 E2.07360
G1 X98.446 Y103.556 E2.07951
G1 X98.341 Y103.673 E2.08308
G1 X98.298 Y103.999 E2.09055
G1 X98.189 Y104.110 E2.09409
G1 X98.189 Y104.221 E2.09661
G1 X98.156 Y104.268 E2.09792
G1 X98.155 Y104.392 E2.10075
G1 X98.019 Y104.529 E2.10512
G1 X98.019 Y104.623 E2.10727
G1 X96.802 Y105.841 E2.14642
G1 X95.536 Y107.106 F7800.000
G1 F1800
G1 X96.633 Y106.010 E2.18167
G1 X96.513 Y106.037 E2.18446
G1 X96.392 Y106.153 E2.18828
G1 X96.059 Y106.165 E2.19584
G1 X95.948 Y106.276 E2.19943
G1 X95.809 Y106.266 E2.20259
G1 X95.775 Y106.288 E2.20350
G1 X95.483 Y106.321 E2.21018
G1 X95.394 Y106.427 E2.21334
G1 X95.338 Y106.424 E2.21460
G1 X94.114 Y107.648 E2.25396
G1 X94.042 Y107.656 E2.25562
G1 X94.018 Y107.676 E2.25633
G1 X93.907 Y107.675 E2.25884
G1 X93.802 Y107.776 E2.26216
G1 X93.472 Y107.810 E2.26968
G1 X93.370 Y107.913 E2.27300
G1 X92.951 Y107.930 E2.28253
G1 X93.899 Y106.982 E2.31301
G1 E0.31301 F2400.00000
G92 E0
G1 X91.950 Y108.050 F7800.000
G1 E2.00000 F2400.00000
G1 F1800
G1 X92.263 Y107.748 E2.00988
G1 X91.524 Y108.476 E2.03346
G1 X91.106 Y108.013 F7800.000
G1 F1800
G1 X91.544 Y107.575 E2.04755
G1 E0.04755 F2400.00000
G92 E0
G1 X90.150 Y96.636 F7800.000
G1 E2.00000 F2400.00000
G1 F1800
G1 X90.018 Y96.745 E2.00389
G1 X89.780 Y97.007 E2.01193
G1 X90.576 Y96.210 E2.03754
G1 X90.841 Y95.992 E2.04534
G1 X91.227 Y95.742 E2.05580
G1 X91.744 Y95.470 E2.06907
G1 X92.162 Y95.289 E2.07944
G1 X92.490 Y95.177 E2.08731
G1 X89.286 Y98.381 E2.19034
G1 X89.267 Y98.578 E2.19483
G1 X89.268 Y99.280 E2.21079
G1 X93.652 Y94.896 E2.35175
G1 X94.200 Y94.822 E2.36432
G1 X94.253 Y94.822 E2.36552
G1 X94.367 Y94.886 E2.36850
G1 X94.543 Y94.886 E2.37250
G1 X89.283 Y100.146 E2.54161
G1 X89.345 Y100.599 E2.55202
G1 X89.432 Y100.878 E2.55865
G1 X95.335 Y94.975 E2.74840
G1 X95.490 Y95.002 E2.75199
G1 X95.505 Y95.095 E2.75412
G1 X95.768 Y95.115 E2.76011
G1 X95.772 Y95.250 E2.76320
G1 X95.940 Y95.251 E2.76703
G1 X89.737 Y101.453 E2.96643
G1 X90.017 Y101.772 E2.97608
G1 X90.172 Y101.900 E2.98063
G1 X96.529 Y95.543 E3.18499
G1 X96.825 Y95.503 E3.19178
G1 X96.905 Y95.407 E3.19460
G1 X96.965 Y95.375 E3.19616
G1 X97.076 Y95.383 E3.19869
G1 X97.198 Y95.262 E3.20261
G1 X97.250 Y95.240 E3.20390
G1 X97.365 Y95.239 E3.20649
G1 X97.486 Y95.128 E3.21024
G1 X97.877 Y95.076 E3.21919
G1 X90.686 Y102.267 E3.45037
G1 X90.942 Y102.427 E3.45723
G1 X91.255 Y102.578 E3.46515
G1 X99.262 Y94.572 E3.72255
G1 X99.273 Y95.072 E3.73392
G1 X99.319 Y95.087 E3.73501
G1 X99.319 Y95.233 E3.73832
G1 X99.481 Y95.234 E3.74199
G1 X91.872 Y102.843 E3.98660
G1 X92.286 Y102.989 E3.99659
G1 X92.544 Y103.051 E4.00263
G1 X100.162 Y95.433 E4.24752
G1 X100.175 Y95.530 E4.24974
G1 X100.411 Y95.529 E4.25510
G1 X100.446 Y95.555 E4.25609
G1 X100.556 Y95.557 E4.25861
G1 X100.574 Y95.567 E4.25906
G1 X100.593 Y95.689 E4.26185
G1 X100.788 Y95.688 E4.26629
G1 X93.380 Y103.096 E4.50445
G1 X93.820 Y103.122 E4.51445
G1 X93.895 Y103.146 E4.51624
G1 X94.209 Y103.148 E4.52339
G1 X101.389 Y95.968 E4.75421
G1 X101.521 Y95.970 E4.75721
G1 X101.764 Y96.012 E4.76282
G1 X101.837 Y96.005 E4.76447
G1 X101.856 Y96.098 E4.76664
G1 X102.105 Y96.133 E4.77235
G1 X95.142 Y103.096 E4.99620
G1 X95.214 Y103.095 E4.99784
G1 X95.324 Y102.996 E5.00120
G1 X95.435 Y102.998 E5.00372
G1 X95.573 Y102.869 E5.00801
G1 X95.625 Y102.857 E5.00922
G1 X95.746 Y102.734 E5.01315
G1 X95.850 Y102.734 E5.01552
G1 X96.019 Y102.577 E5.02075
G1 X96.523 Y102.596 E5.03220
G1 X102.867 Y96.252 E5.23616
G1 X103.072 Y96.246 E5.24082
G1 X103.114 Y96.264 E5.24186
G1 X103.134 Y96.403 E5.24505
G1 X103.597 Y96.403 E5.25559
G1 X97.089 Y102.911 E5.46481
G1 X97.104 Y102.928 E5.46532
G1 X97.297 Y102.929 E5.46971
G1 X97.297 Y102.987 E5.47103
G1 X97.336 Y103.005 E5.47200
G1 X97.609 Y103.036 E5.47823
G1 X97.609 Y103.272 E5.48361
G1 X104.364 Y96.517 E5.70079
G1 X104.362 Y96.802 E5.70727
G1 X104.734 Y96.856 E5.71582
G1 X104.907 Y96.855 E5.71975
G1 X98.749 Y103.013 E5.91774
G1 X98.880 Y103.001 E5.92073
G1 X99.020 Y102.909 E5.92454
G1 X99.085 Y102.909 E5.92602
G1 X99.161 Y102.867 E5.92800
G1 X99.559 Y102.837 E5.93706
G1 X99.697 Y102.708 E5.94135
G1 X99.946 Y102.696 E5.94703
G1 X105.521 Y97.122 E6.12625
G1 X105.523 Y97.234 E6.12880
G1 X105.663 Y97.234 E6.13200
G1 X105.663 Y97.374 E6.13517
G1 X105.808 Y97.376 E6.13848
G1 X105.807 Y97.514 E6.14163
G1 X105.944 Y97.516 E6.14474
G1 X105.945 Y97.579 E6.14618
G1 X100.850 Y102.674 E6.30997
G1 X100.876 Y102.673 E6.31057
G1 X100.971 Y102.581 E6.31357
G1 X101.099 Y102.574 E6.31648
G1 X101.210 Y102.462 E6.32007
G1 X101.255 Y102.445 E6.32115
G1 X101.410 Y102.313 E6.32578
G1 X101.502 Y102.312 E6.32787
G1 X101.690 Y102.157 E6.33342
G1 X101.823 Y102.141 E6.33647
G1 X101.954 Y102.010 E6.34067
G1 X102.106 Y101.995 E6.34415
G1 X102.206 Y101.897 E6.34734
G1 X102.275 Y101.876 E6.34898
G1 X102.389 Y101.763 E6.35263
G1 X102.497 Y101.763 E6.35509
G1 X102.545 Y101.728 E6.35643
G1 X102.676 Y101.728 E6.35942
G1 X106.362 Y98.043 E6.47790
G1 X106.371 Y98.100 E6.47920
G1 X106.508 Y98.107 E6.48233
G1 X106.510 Y98.228 E6.48508
G1 X106.654 Y98.228 E6.48837
G1 X106.657 Y98.332 E6.49072
G1 X106.911 Y98.360 E6.49654
G1 X106.912 Y98.373 E6.49684
G1 X104.160 Y101.126 E6.58532
G1 X104.262 Y101.119 E6.58764
G1 X104.363 Y101.027 E6.59077
G1 X104.658 Y101.014 E6.59748
G1 X104.786 Y100.888 E6.60156
G1 X105.215 Y100.852 E6.61134
G1 X105.348 Y100.718 E6.61562
G1 X105.450 Y100.717 E6.61793
G1 X107.623 Y98.544 E6.68779
G1 X107.636 Y98.544 E6.68811
G1 X107.636 Y98.630 E6.69007
G1 X107.954 Y98.644 E6.69730
G1 X108.241 Y98.700 E6.70395
G1 X108.348 Y98.699 E6.70640
G1 X107.604 Y99.444 E6.73034
G1 X108.478 Y99.450 E6.75022
G1 X109.110 Y98.818 E6.77052
G1 X109.323 Y98.838 E6.77540
G1 X109.323 Y98.893 E6.77663
G1 X109.374 Y98.898 E6.77779
G1 X109.379 Y98.921 E6.77833
G1 X109.589 Y98.921 E6.78309
G1 X109.750 Y98.957 E6.78686
G1 X109.764 Y99.045 E6.78888
G1 X109.223 Y99.586 E6.80628
G1 E4.80628 F2400.00000
G92 E0
G1 X111.168 Y100.284 F7800.000
G1 E2.00000 F2400.00000
G1 F1800
G1 X110.692 Y100.760 E2.01531
G1 X110.737 Y100.767 E2.01634
G1 X110.780 Y101.112 E2.02425
G1 X110.796 Y101.537 E2.03392
G1 X111.332 Y101.001 E2.05114
G1 X111.354 Y101.335 E2.05874
G1 X111.407 Y101.335 E2.05996
G1 X111.407 Y101.487 E2.06342
G1 X111.342 Y101.557 E2.06559
G1 X111.310 Y101.904 E2.07350
G1 X110.769 Y102.445 E2.09091
M104 S200 ; set temperature
G1 Z0.600 F7800.000
G1 X110.494 Y102.566 F7800.000
G1 F3647.85
G1 X110.987 Y103.059 E2.10751
G1 X111.187 Y102.860 E2.11422
G1 X111.188 Y102.728 E2.11736
G1 X111.232 Y102.671 E2.11907
G1 X111.232 Y102.579 E2.12126
G1 X111.310 Y102.501 E2.12389
G1 X110.754 Y101.944 E2.14262
G1 X110.778 Y101.088 E2.16301
G1 X111.355 Y101.665 E2.18245
G1 X111.517 Y101.827 F7800.000
G1 F3647.85
G1 X111.006 Y101.315 E2.19965
G1 X111.052 Y101.315 E2.20076
G1 X111.052 Y101.362 E2.20185
G1 E0.20185 F2400.00000
G92 E0
G1 X109.165 Y99.475 F7800.000
G1 E2.00000 F2400.00000
G1 F3647.85
G1 X108.456 Y98.766 E2.02385
G1 X108.084 Y98.755 E2.03271
G1 X108.067 Y98.676 E2.03463
G1 X107.808 Y98.684 E2.04079
G1 X107.621 Y98.636 E2.04537
G1 X107.432 Y98.622 E2.04990
G1 X108.271 Y99.462 E2.07814
G1 X107.774 Y99.476 E2.08998
G1 X107.653 Y99.600 E2.09409
G1 X107.528 Y99.600 E2.09706
G1 E0.09706 F2400.00000
G92 E0
G1 X103.993 Y103.112 F7800.000
G1 E2.00000 F2400.00000
G1 F3647.85
G1 X103.081 Y102.204 E2.03060
G1 X103.085 Y102.628 E2.04068
G1 X103.118 Y102.978 E2.04905
G1 X103.267 Y103.004 E2.05264
G1 X103.266 Y103.266 E2.05888
G1 X104.272 Y104.272 E2.09272
G1 X104.272 Y104.330 E2.09411
G1 X104.330 Y104.330 E2.09550
G1 X104.467 Y104.467 E2.10011
G1 X104.483 Y104.570 E2.10259
G1 X104.414 Y104.574 E2.10425
G1 X104.422 Y105.303 E2.12159
G1 X103.537 Y104.418 E2.15135
G1 X103.542 Y105.023 E2.16575
G1 X103.401 Y105.163 E2.17047
G1 X104.280 Y106.042 E2.20004
G1 X104.213 Y106.133 E2.20273
G1 X104.075 Y106.168 E2.20611
G1 X104.020 Y106.219 E2.20791
G1 X103.903 Y106.202 E2.21071
G1 X103.857 Y106.332 E2.21399
G1 X103.704 Y106.347 E2.21764
G1 X102.687 Y105.330 E2.25187
G1 X102.305 Y105.225 E2.26130
G1 X102.308 Y105.259 E2.26212
G1 X101.799 Y105.322 E2.27433
G1 X102.756 Y106.280 E2.30654
G1 X101.926 Y106.277 E2.32630
G1 X101.924 Y106.329 E2.32755
G1 X101.283 Y105.688 E2.34913
G1 X101.278 Y105.660 E2.34979
G1 X101.256 Y105.661 E2.35032
G1 X101.009 Y105.414 E2.35863
G1 X100.368 Y105.419 E2.37389
G1 X100.364 Y105.377 E2.37489
G1 X100.219 Y105.505 E2.37948
G1 X100.825 Y106.111 E2.39987
G1 X100.527 Y106.111 E2.40698
G1 X100.517 Y106.197 E2.40903
G1 X100.389 Y106.207 E2.41209
G1 X100.265 Y106.303 E2.41582
G1 X100.137 Y106.303 E2.41886
G1 X99.288 Y105.455 E2.44742
G1 E0.44742 F2400.00000
G92 E0
G1 X97.663 Y102.948 F7800.000
G1 E2.00000 F2400.00000
G1 F3647.85
G1 X90.577 Y95.862 E2.23843
G1 X90.375 Y95.997 E2.24420
G1 X90.072 Y96.238 E2.25342
G1 X96.444 Y102.611 E2.46786
G1 X96.301 Y102.753 E2.47265
G1 X96.192 Y102.753 E2.47526
G1 X96.070 Y102.877 E2.47938
G1 X96.014 Y102.890 E2.48074
G1 X95.928 Y102.975 E2.48364
G1 X89.657 Y96.704 E2.69464
G1 X89.482 Y97.001 E2.70284
G1 X89.368 Y97.296 E2.71036
G1 X95.233 Y103.162 E2.90774
G1 X94.356 Y103.166 E2.92860
G1 X89.232 Y98.042 E3.10102
G1 X89.215 Y98.905 E3.12157
G1 X93.471 Y103.161 E3.26478
G1 X92.565 Y102.938 E3.28698
G1 X92.247 Y102.818 E3.29506
G1 X89.260 Y99.831 E3.39556
G1 X95.093 Y95.093 F7800.000
G1 F3647.85
G1 X102.176 Y102.176 E3.63391
G1 X102.254 Y102.176 E3.63576
G1 X102.400 Y102.030 E3.64067
G1 X102.539 Y102.028 E3.64398
G1 X102.630 Y101.938 E3.64704
G1 X102.686 Y101.805 E3.65047
G1 X96.372 Y95.491 E3.86291
G1 X96.459 Y95.388 E3.86612
G1 X96.523 Y95.356 E3.86782
G1 X96.630 Y95.364 E3.87038
G1 X96.753 Y95.242 E3.87449
G1 X96.805 Y95.220 E3.87583
G1 X96.917 Y95.220 E3.87849
G1 X96.951 Y95.189 E3.87959
G1 X103.517 Y101.755 E4.10054
G1 X103.568 Y101.755 E4.10176
G1 X103.568 Y101.601 E4.10543
G1 X103.819 Y101.350 E4.11386
G1 X103.992 Y101.349 E4.11799
G1 X97.644 Y95.001 E4.33161
G1 X97.702 Y94.967 E4.33322
G1 X97.855 Y94.971 E4.33685
G1 X97.919 Y94.945 E4.33850
G1 X98.058 Y94.946 E4.34181
G1 X98.264 Y94.740 E4.34873
G1 X104.726 Y101.202 E4.56617
G1 X105.009 Y101.127 E4.57313
G1 X105.232 Y100.907 E4.58059
G1 X105.312 Y100.907 E4.58249
G1 X99.914 Y95.509 E4.76412
G1 X100.128 Y95.548 E4.76929
G1 X100.147 Y95.669 E4.77221
G1 X100.375 Y95.668 E4.77764
G1 X100.401 Y95.683 E4.77833
G1 X100.421 Y95.820 E4.78162
G1 X100.815 Y95.829 E4.79100
G1 X100.816 Y95.947 E4.79380
G1 X101.075 Y95.951 E4.79998
G1 X101.272 Y95.986 E4.80473
G1 X106.003 Y100.717 E4.96393
G1 X106.227 Y100.490 E4.97152
G1 X106.398 Y100.488 E4.97560
G1 X106.513 Y100.346 E4.97993
G1 X102.302 Y96.136 E5.12161
G1 X102.331 Y96.136 E5.12229
G1 X102.339 Y96.085 E5.12352
G1 X102.388 Y96.088 E5.12470
G1 X102.420 Y96.233 E5.12822
G1 X102.626 Y96.226 E5.13313
G1 X102.668 Y96.244 E5.13422
G1 X102.688 Y96.385 E5.13759
G1 X103.299 Y96.382 E5.15213
G1 X103.359 Y96.311 E5.15433
G1 X106.863 Y99.816 E5.27225
G1 X107.064 Y99.616 E5.27899
G1 X107.528 Y99.600 E5.29003
G1 X106.733 Y98.804 E5.31680
G1 X106.677 Y98.804 E5.31813
G1 X106.675 Y98.747 E5.31947
G1 X106.602 Y98.674 E5.32194
G1 X106.529 Y98.674 E5.32367
G1 X106.528 Y98.600 E5.32542
G1 X106.478 Y98.550 E5.32711
G1 X106.390 Y98.545 E5.32921
G1 X106.375 Y98.446 E5.33160
G1 X106.325 Y98.397 E5.33326
G1 X106.223 Y98.382 E5.33571
G1 X106.219 Y98.291 E5.33788
G1 X106.178 Y98.250 E5.33926
G1 X106.098 Y98.250 E5.34117
G1 X106.098 Y98.169 E5.34308
G1 X106.033 Y98.105 E5.34524
G1 X105.965 Y98.104 E5.34686
G1 X105.965 Y98.036 E5.34848
G1 X105.889 Y97.961 E5.35102
G1 X105.827 Y97.960 E5.35250
G1 X105.827 Y97.899 E5.35396
G1 X105.749 Y97.820 E5.35660
G1 X105.682 Y97.819 E5.35818
G1 X105.683 Y97.754 E5.35973
G1 X105.608 Y97.680 E5.36224
G1 X105.542 Y97.680 E5.36381
G1 X105.541 Y97.613 E5.36541
G1 X105.491 Y97.563 E5.36709
G1 X105.405 Y97.563 E5.36914
G1 X105.389 Y97.461 E5.37160
G1 X105.339 Y97.411 E5.37329
G1 X105.273 Y97.403 E5.37486
G1 X105.257 Y97.329 E5.37666
G1 X105.143 Y97.215 E5.38051
G1 X105.072 Y97.206 E5.38221
G1 X105.060 Y97.280 E5.38401
G1 X104.754 Y97.302 E5.39131
G1 X104.382 Y97.248 E5.40026
G1 X104.385 Y96.789 E5.41118
G1 X104.407 Y96.761 E5.41203
G1 X104.406 Y96.644 E5.41481
G1 X104.489 Y96.561 E5.41761
G1 X103.678 Y95.750 E5.44489
G1 X103.679 Y95.669 E5.44681
G1 X103.721 Y95.597 E5.44878
G1 X103.736 Y95.609 E5.44925
G1 X104.078 Y95.269 E5.46074
G1 X104.951 Y96.141 E5.49008
G1 X105.324 Y95.634 E5.50507
G1 X104.386 Y94.696 E5.53662
G1 X104.538 Y94.564 E5.54142
G1 X104.544 Y93.973 E5.55547
G1 X105.669 Y95.098 E5.59334
G1 X105.767 Y94.947 E5.59762
G1 X106.047 Y94.706 E5.60641
G1 X106.150 Y94.698 E5.60887
G1 X105.137 Y93.685 E5.64295
G1 X105.268 Y93.684 E5.64606
G1 X105.581 Y93.319 E5.65750
G1 X105.564 Y93.294 E5.65821
G1 X105.605 Y93.272 E5.65931
G1 X106.198 Y93.865 E5.67929
G1 X104.982 Y94.411 F7800.000
G1 F3647.85
G1 X103.993 Y93.422 E5.71257
G1 X103.801 Y93.396 E5.71718
G1 X103.787 Y93.295 E5.71960
G1 X103.100 Y93.276 E5.73595
G1 X103.077 Y93.124 E5.73960
G1 X102.808 Y93.118 E5.74600
G1 X103.793 Y94.103 E5.77915
G1 X103.456 Y94.077 E5.78718
G1 X103.454 Y93.978 E5.78955
G1 X103.180 Y93.971 E5.79608
G1 X103.153 Y93.820 E5.79973
G1 X102.755 Y93.810 E5.80921
G1 X102.735 Y93.674 E5.81250
G1 X102.595 Y93.673 E5.81583
G1 X102.594 Y93.567 E5.81834
G1 X102.376 Y93.567 E5.82352
G1 X101.749 Y92.939 E5.84463
G1 X101.742 Y92.978 E5.84556
G1 X101.159 Y92.978 E5.85944
G1 X101.139 Y92.886 E5.86169
G1 X100.853 Y92.859 E5.86852
G1 X100.820 Y92.892 E5.86962
G1 X101.728 Y93.800 E5.90019
G1 X101.671 Y93.857 E5.90212
G1 X101.461 Y93.857 E5.90711
G1 X101.461 Y93.709 E5.91065
G1 X101.315 Y93.707 E5.91413
G1 X101.313 Y93.565 E5.91752
G1 X101.192 Y93.565 E5.92042
G1 X101.191 Y93.450 E5.92315
G1 X101.285 Y93.357 E5.92630
G1 X99.371 Y93.205 F7800.000
G1 F3647.85
G1 X98.335 Y92.168 E5.96118
G1 X98.275 Y92.447 E5.96795
G1 X98.227 Y92.449 E5.96909
G1 X98.216 Y92.663 E5.97417
G1 X98.304 Y92.664 E5.97628
G1 X98.304 Y93.019 E5.98473
G1 X99.386 Y94.100 E6.02110
G1 X99.375 Y94.462 E6.02971
G1 X99.279 Y94.499 E6.03218
G1 X99.282 Y94.877 E6.04117
G1 X98.305 Y93.901 E6.07403
G1 X98.300 Y94.704 E6.09315
G1 X98.264 Y94.740 E6.09436
G1 X99.185 Y92.137 F7800.000
G1 F3647.85
G1 X98.242 Y91.195 E6.12606
G1 X98.016 Y91.308 E6.13208
G1 X97.477 Y91.309 E6.14491
G1 X97.475 Y91.216 E6.14713
G1 X97.389 Y91.223 E6.14917
G1 X98.274 Y92.108 E6.17894
G1 X98.187 Y92.107 E6.18102
G1 X97.973 Y92.258 E6.18725
G1 X97.971 Y92.241 E6.18766
G1 X97.543 Y92.257 E6.19784
G1 X96.728 Y91.442 E6.22528
G1 X96.024 Y91.458 E6.24202
G1 X95.950 Y91.546 E6.24474
G1 X96.806 Y92.401 E6.27354
G1 X96.758 Y92.402 E6.27469
G1 X96.720 Y92.434 E6.27585
G1 X96.606 Y92.434 E6.27858
G1 X96.500 Y92.542 E6.28218
G1 X96.068 Y92.545 E6.29244
G1 X95.227 Y91.703 E6.32075
G1 X94.816 Y91.688 E6.33054
G1 X94.662 Y91.852 E6.33589
G1 X94.494 Y91.851 E6.33988
G1 X95.202 Y92.559 E6.36370
G1 X94.976 Y92.774 E6.37112
G1 X94.549 Y92.788 E6.38126
G1 X93.770 Y92.008 E6.40748
G1 X93.535 Y92.262 E6.41571
G1 X93.152 Y92.271 E6.42482
G1 X93.737 Y92.856 E6.44449
G1 X93.547 Y93.077 E6.45142
G1 X93.485 Y93.122 E6.45325
G1 X93.210 Y93.120 E6.45977
G1 X93.165 Y93.165 E6.46129
G1 X92.553 Y92.553 E6.48190
G1 E4.48190 F2400.00000
G92 E0
G1 X95.521 Y95.521 F7800.000
G1 E2.00000 F2400.00000
G1 F3647.85
G1 X94.967 Y94.967 E2.01864
G1 X94.507 Y94.950 E2.02960
G1 X94.469 Y94.774 E2.03388
G1 X93.915 Y94.796 E2.04707
G1 X101.628 Y102.509 E2.30662
G1 X101.463 Y102.673 E2.31215
G1 X101.155 Y102.720 E2.31957
G1 X101.151 Y102.702 E2.32002
G1 X100.943 Y102.705 E2.32496
G1 X93.139 Y94.901 E2.58757
G1 X92.418 Y95.060 E2.60515
G1 X100.110 Y102.752 E2.86398
G1 X100.011 Y102.857 E2.86740
G1 X99.618 Y102.880 E2.87676
G1 X99.531 Y102.928 E2.87912
G1 X99.451 Y102.928 E2.88102
G1 X99.425 Y102.949 E2.88181
G1 X91.751 Y95.274 E3.14005
G1 X91.139 Y95.544 E3.15595
G1 X98.789 Y103.194 E3.41335
G1 X98.686 Y103.297 E3.41682
G1 X98.686 Y103.341 E3.41789
G1 X98.607 Y103.425 E3.42063
G1 X98.608 Y103.549 E3.42358
G1 X98.580 Y103.607 E3.42511
G1 X98.480 Y103.705 E3.42843
G1 X98.480 Y103.766 E3.42988
G1 X97.589 Y102.875 E3.45986
G1 X97.589 Y103.037 E3.46373
G1 X97.485 Y103.144 E3.46728
G1 X97.465 Y103.464 E3.47489
G1 X97.375 Y103.541 E3.47773
G1 X98.338 Y104.504 E3.51013
G1 X98.087 Y105.134 E3.52627
G1 X97.175 Y104.222 E3.55696
G1 X97.175 Y104.311 E3.55907
G1 X97.026 Y104.434 E3.56368
G1 X97.047 Y104.723 E3.57056
G1 X96.920 Y104.849 E3.57481
G1 X97.765 Y105.693 E3.60323
G1 X97.629 Y105.828 E3.60779
G1 X97.628 Y106.056 E3.61321
G1 X97.599 Y106.107 E3.61462
G1 X97.583 Y106.219 E3.61731
G1 X97.515 Y106.325 E3.62029
G1 X96.755 Y105.564 E3.64589
G1 X96.755 Y105.713 E3.64942
G1 X96.503 Y105.965 E3.65790
G1 X96.275 Y105.965 E3.66333
G1 X97.055 Y106.745 E3.68958
G1 X96.770 Y106.826 E3.69663
G1 X96.522 Y106.960 E3.70333
G1 X96.530 Y107.003 E3.70437
G1 X96.463 Y107.034 E3.70613
G1 X95.594 Y106.165 E3.73537
G1 X95.502 Y106.257 E3.73846
G1 X95.380 Y106.248 E3.74138
G1 X95.362 Y106.265 E3.74197
G1 X95.041 Y106.297 E3.74964
G1 X94.951 Y106.403 E3.75296
G1 X95.785 Y107.245 E3.78113
G1 X95.611 Y107.248 E3.78525
G1 X95.472 Y107.390 E3.78999
G1 X95.199 Y107.389 E3.79649
G1 X95.127 Y107.460 E3.79889
G1 X94.189 Y106.522 E3.83043
G1 X94.124 Y106.547 E3.83209
G1 X93.823 Y106.845 E3.84216
G1 X93.638 Y106.852 E3.84657
G1 X94.473 Y107.687 E3.87467
G1 X94.353 Y107.694 E3.87754
G1 X94.217 Y107.824 E3.88201
G1 X93.918 Y107.829 E3.88913
G1 X93.827 Y107.921 E3.89222
G1 X92.968 Y107.062 E3.92112
G1 X92.404 Y107.380 E3.93651
G1 X93.095 Y108.071 E3.95974
G1 X93.001 Y108.160 E3.96283
G1 X92.805 Y108.176 E3.96751
G1 X92.795 Y108.113 E3.96903
G1 X92.408 Y108.115 E3.97822
G1 X92.419 Y108.082 E3.97906
G1 X92.547 Y108.065 E3.98211
G1 X92.870 Y107.845 E3.99140
G1 X92.310 Y108.167 F7800.000
G1 F3647.85
G1 X91.831 Y107.687 E4.00752
G1 X91.858 Y107.688 E4.00817
G1 X91.845 Y107.701 E4.00862
G1 X91.779 Y108.517 F7800.000
G1 F3647.85
G1 X91.225 Y107.963 E4.02728
G1 X91.225 Y107.936 E4.02792
G1 X91.198 Y107.935 E4.02857
G1 X91.105 Y107.843 E4.03168
G1 X91.106 Y107.792 E4.03290
G1 X91.053 Y107.791 E4.03415
G1 X90.971 Y107.709 E4.03690
G1 E2.03690 F2400.00000
G92 E0
G1 X103.427 Y104.308 F7800.000
G1 E2.00000 F2400.00000
G1 F3647.85
G1 X103.985 Y104.866 E2.01875
G1 X104.123 Y103.242 F7800.000
G1 F3647.85
G1 X103.610 Y102.729 E2.03600
G1 X103.658 Y102.730 E2.03714
G1 X103.658 Y102.777 E2.03825
G1 E0.03825 F2400.00000
G92 E0
G1 X103.911 Y94.221 F7800.000
G1 E2.00000 F2400.00000
G1 F3647.85
G1 X103.413 Y93.723 E2.01677
G1 X103.399 Y93.641 E2.01874
G1 X103.328 Y93.638 E2.02043
G1 Z0.900 F7800.000
G1 E0.02043 F2400.00000
G92 E0
G1 X109.569 Y101.039 F7800.000
G1 E2.00000 F2400.00000
G1 F1003.35
G1 X108.765 Y101.842 E2.03677
G1 X108.624 Y101.983 F7800.000
G1 F1003.35
G1 X109.173 Y101.434 E2.06189
G1 X109.165 Y101.534 E2.06513
G1 X109.113 Y101.534 E2.06682
G1 X109.137 Y101.720 E2.07289
G1 X109.092 Y101.729 E2.07438
G1 X109.119 Y101.488 E2.08222
G1 X109.681 Y102.005 F7800.000
G1 F1003.35
G1 X110.175 Y101.511 E2.10486
G1 X110.546 Y102.668 F7800.000
G1 F4013.41
G1 X111.486 Y101.728 E2.13649
G1 X111.518 Y101.494 E2.14210
G1 X111.518 Y101.108 E2.15129
G1 X111.485 Y100.848 E2.15753
G1 X110.729 Y101.604 E2.18298
G1 X110.737 Y101.419 E2.18740
G1 X110.644 Y101.435 E2.18965
G1 X110.611 Y101.201 E2.19526
G1 X110.532 Y100.920 E2.20221
G1 X111.327 Y100.125 E2.22896
G1 X111.222 Y99.830 E2.23642
G1 X111.030 Y99.541 E2.24467
G1 X110.246 Y100.325 E2.27106
G1 X110.088 Y100.142 E2.27682
G1 X109.851 Y99.972 E2.28375
G1 X109.755 Y99.935 E2.28620
G1 X110.570 Y99.120 E2.31363
G1 X110.309 Y98.967 E2.32084
G1 X109.991 Y98.818 E2.32919
G1 X109.056 Y99.753 E2.36065
G1 X108.721 Y99.707 E2.36870
G1 X108.250 Y99.678 E2.37993
G1 X109.292 Y98.636 E2.41501
G1 X108.524 Y98.523 E2.43348
G1 X107.372 Y99.676 E2.47225
G1 X106.785 Y99.753 E2.48635
G1 X106.623 Y99.806 E2.49040
G1 X106.477 Y99.882 E2.49431
G1 X106.248 Y100.081 E2.50154
G1 X105.987 Y100.416 E2.51164
G1 X105.841 Y100.559 E2.51650
G1 X105.538 Y100.760 E2.52514
G1 X105.299 Y100.868 E2.53138
G1 X107.767 Y98.400 E2.61442
G1 X107.378 Y98.340 E2.62379
G1 X107.055 Y98.231 E2.63189
G1 X104.037 Y101.248 E2.73343
G1 X103.735 Y101.350 E2.74102
G1 X103.346 Y101.600 E2.75203
G1 X103.334 Y101.651 E2.75326
G1 X103.272 Y101.655 E2.75474
G1 X103.086 Y102.156 E2.76743
G1 X102.682 Y101.896 E2.77885
G1 X102.346 Y102.059 E2.78775
G1 X106.548 Y97.857 E2.92914
G1 X106.127 Y97.397 E2.94398
G1 X100.824 Y102.700 E3.12242
G1 X100.509 Y102.752 E3.13001
G1 X100.496 Y102.782 E3.13079
G1 X100.049 Y102.932 E3.14201
G1 X99.467 Y103.175 E3.15701
G1 X105.658 Y96.985 E3.36530
G1 X105.504 Y96.898 E3.36950
G1 X105.383 Y96.854 E3.37256
G1 X105.185 Y96.819 E3.37735
G1 X105.148 Y96.894 E3.37933
G1 X104.891 Y96.871 E3.38548
G1 X97.097 Y104.665 E3.64774
G1 X97.340 Y103.956 E3.66558
G1 X97.333 Y103.875 E3.66752
G1 X97.399 Y103.659 E3.67288
G1 X97.307 Y103.602 E3.67547
G1 X97.302 Y103.579 E3.67602
G1 X104.386 Y96.495 E3.91439
G1 X104.360 Y96.455 E3.91552
G1 X104.475 Y96.033 E3.92593
G1 X104.651 Y95.989 E3.93024
G1 X104.830 Y95.778 E3.93683
G1 X105.171 Y95.327 E3.95028
G1 X105.639 Y94.601 E3.97083
G1 X105.583 Y94.552 E3.97259
G1 X105.740 Y94.260 E3.98048
G1 X103.563 Y96.437 E4.05371
G1 X103.837 Y95.933 E4.06736
G1 X104.350 Y95.168 E4.08928
G1 X104.527 Y95.116 E4.09365
G1 X104.480 Y94.639 E4.10506
G1 X105.467 Y93.652 E4.13828
G1 X105.437 Y93.615 E4.13940
G1 X104.824 Y93.414 E4.15476
G1 X103.906 Y94.333 E4.18566
G1 X103.856 Y94.322 E4.18686
G1 X103.817 Y94.381 E4.18854
G1 X103.163 Y94.194 E4.20472
G1 X104.145 Y93.212 E4.23775
G1 X103.423 Y93.054 E4.25534
G1 X102.518 Y93.958 E4.28579
G1 X102.316 Y93.872 E4.29101
G1 X102.351 Y93.811 E4.29271
G1 X102.003 Y93.592 E4.30249
G1 X102.531 Y93.064 E4.32025
G1 X100.730 Y93.103 F7800.000
G1 F4013.41
G1 X100.704 Y93.090 E4.32096
G1 X100.711 Y93.122 E4.32176
G1 X101.195 Y92.638 E4.33804
G1 X101.435 Y92.764 E4.34449
G1 X101.586 Y92.786 E4.34811
G1 X101.746 Y92.968 E4.35388
G1 X100.825 Y93.890 E4.38488
G1 E2.38488 F2400.00000
G92 E0
G1 X98.108 Y94.845 F7800.000
G1 E2.00000 F2400.00000
G1 F4013.41
G1 X99.346 Y93.607 E2.04165
G1 X99.330 Y92.742 E2.06224
G1 X98.235 Y93.837 E2.09909
G1 X98.233 Y93.568 E2.10547
G1 X98.270 Y92.978 E2.11955
G1 X98.325 Y93.005 E2.12100
G1 X98.346 Y92.845 E2.12486
G1 X99.256 Y91.935 E2.15547
G1 X99.236 Y91.791 E2.15894
G1 X99.170 Y91.799 E2.16054
G1 X99.023 Y91.287 E2.17321
G1 X98.184 Y92.126 E2.20144
G1 X97.930 Y91.966 E2.20858
G1 X97.424 Y92.156 E2.22144
G1 X97.418 Y92.235 E2.22332
G1 X97.110 Y92.319 E2.23092
G1 X98.166 Y91.254 E2.26659
G1 X97.464 Y91.296 E2.28331
G1 X97.222 Y91.326 E2.28912
G1 X95.984 Y92.564 E2.33078
G1 X94.973 Y92.694 E2.35503
G1 X96.179 Y91.488 E2.39563
G1 X95.552 Y91.627 E2.41092
G1 X95.005 Y91.781 E2.42445
G1 X94.158 Y92.628 E2.45296
G1 X93.899 Y92.600 E2.45916
G1 X94.237 Y92.396 E2.46855
G1 X94.215 Y92.353 E2.46969
G1 X94.540 Y92.247 E2.47783
G1 X93.095 Y92.810 F7800.000
G1 F4013.41
G1 X93.098 Y92.874 E2.47936
G1 X93.287 Y92.657 E2.48621
G1 X93.357 Y92.657 E2.48789
G1 X93.435 Y92.625 E2.48987
G1 X93.527 Y92.378 E2.49617
G1 X92.630 Y93.275 E2.52635
G1 E0.52635 F2400.00000
G92 E0
G1 X90.360 Y96.426 F7800.000
G1 E2.00000 F2400.00000
G1 F4013.41
G1 X89.952 Y96.753 E2.01243
G1 X89.724 Y96.993 E2.02029
G1 X89.573 Y97.213 E2.02665
G1 X90.825 Y95.961 E2.06876
G1 X90.969 Y95.857 E2.07300
G1 X91.443 Y95.579 E2.08607
G1 X91.774 Y95.418 E2.09482
G1 X92.522 Y95.145 E2.11377
G1 X89.140 Y98.527 E2.22757
G1 X89.118 Y98.753 E2.23298
G1 X89.108 Y99.440 E2.24933
G1 X93.687 Y94.861 E2.40341
G1 X94.382 Y94.749 E2.42016
G1 X94.701 Y94.728 E2.42777
G1 X89.175 Y100.254 E2.61373
G1 X89.253 Y100.629 E2.62284
G1 X89.366 Y100.944 E2.63080
G1 X95.536 Y94.773 E2.83844
G1 X95.647 Y94.794 E2.84110
G1 X95.911 Y94.894 E2.84782
G1 X95.992 Y94.943 E2.85006
G1 X95.985 Y94.965 E2.85061
G1 X96.113 Y95.077 E2.85468
G1 X89.688 Y101.502 E3.07087
G1 X89.767 Y101.613 E3.07411
G1 X90.126 Y101.946 E3.08575
G1 X96.942 Y95.130 E3.31510
G1 X97.550 Y94.825 E3.33130
G1 X98.305 Y94.607 E3.34998
G1 X98.429 Y94.523 E3.35356
G1 X90.639 Y102.314 E3.61570
G1 X91.215 Y102.619 E3.63120
G1 X99.404 Y94.430 E3.90676
G1 X99.462 Y94.661 E3.91245
G1 X99.675 Y94.813 E3.91867
G1 X99.839 Y94.875 E3.92284
G1 X91.845 Y102.869 E4.19184
G1 X92.118 Y102.967 E4.19873
G1 X92.524 Y103.071 E4.20871
G1 X100.459 Y95.136 E4.47571
G1 X101.052 Y95.424 E4.49139
G1 X93.241 Y103.235 E4.75421
G1 X94.009 Y103.348 E4.77268
G1 X101.632 Y95.726 E5.02916
G1 X101.981 Y95.886 E5.03831
G1 X102.257 Y95.981 E5.04526
G1 X94.891 Y103.347 E5.29313
G1 X95.059 Y103.324 E5.29715
G1 X95.295 Y103.258 E5.30300
G1 X95.518 Y103.157 E5.30881
G1 X95.668 Y103.049 E5.31321
G1 X95.662 Y102.906 E5.31662
G1 X96.213 Y102.805 E5.32995
G1 X96.277 Y102.842 E5.33170
G1 X102.999 Y96.121 E5.55788
G1 X103.103 Y96.153 E5.56049
G1 X103.277 Y96.253 E5.56527
G1 X103.427 Y96.302 E5.56902
G1 X103.701 Y96.299 E5.57553
G1 X96.843 Y103.157 E5.80630
G1 E3.80630 F2400.00000
G92 E0
G1 X96.884 Y105.759 F7800.000
G1 E2.00000 F2400.00000
G1 F4013.41
G1 X98.097 Y104.545 E2.04082
G1 X97.774 Y105.242 E2.05909
G1 X97.693 Y105.217 E2.06111
G1 X97.447 Y105.625 E2.07245
G1 X97.199 Y105.926 E2.08173
G1 X96.949 Y106.133 E2.08945
G1 X96.482 Y106.419 E2.10248
G1 X96.513 Y106.489 E2.10430
G1 X95.847 Y106.796 E2.12174
G1 X95.382 Y107.261 F7800.000
G1 F4013.41
G1 X96.579 Y106.064 E2.16200
G1 X96.548 Y105.990 E2.16391
G1 X96.226 Y106.059 E2.17175
G1 X95.489 Y106.273 E2.19001
G1 X93.993 Y107.769 E2.24034
G1 X93.129 Y107.998 E2.26160
G1 X93.121 Y107.928 E2.26327
G1 X92.939 Y107.942 E2.26760
G1 X94.074 Y106.807 E2.30578
G1 E0.30578 F2400.00000
G92 E0
G1 X99.169 Y106.116 F7800.000
G1 E2.00000 F2400.00000
G1 F4013.41
G1 X100.051 Y105.234 E2.02968
G1 X100.222 Y105.294 E2.03397
G1 X100.188 Y105.429 E2.03730
G1 X100.519 Y105.556 E2.04574
G1 X100.329 Y105.587 E2.05032
G1 X100.058 Y105.870 E2.05963
G1 X99.938 Y105.902 E2.06260
G1 X99.790 Y106.041 E2.06742
G1 X99.780 Y105.846 E2.07205
G1 X99.635 Y105.651 E2.07784
G1 E0.07784 F2400.00000
G92 E0
G1 X101.759 Y105.289 F7800.000
G1 E2.00000 F2400.00000
G1 F4013.41
G1 X100.808 Y106.245 E2.03210
G1 X101.604 Y106.324 E2.05113
G1 X102.689 Y105.240 E2.08763
G1 X103.270 Y105.254 E2.10146
G1 X103.288 Y105.325 E2.10320
G1 X103.467 Y105.342 E2.10749
G1 X102.463 Y106.346 E2.14128
G1 X103.501 Y106.189 F7800.000
G1 F4013.41
G1 X104.438 Y105.252 E2.17281
G1 X104.437 Y104.863 E2.18207
G1 X104.506 Y104.841 E2.18380
G1 X104.469 Y104.341 E2.19573
G1 X103.644 Y105.165 E2.22347
G1 X103.652 Y105.136 E2.22419
G1 X103.420 Y104.968 E2.23100
G1 X103.332 Y104.597 E2.24007
G1 X104.353 Y103.575 E2.27444
G1 X104.188 Y102.859 E2.29193
G1 X103.203 Y103.844 E2.32508
G1 X103.130 Y103.037 E2.34437
G1 X103.908 Y102.259 E2.37055
G1 E0.37055 F2400.00000
G92 E0
G1 X109.166 Y102.286 F7800.000
G1 E2.00000 F2400.00000
G1 F4013.41
G1 X108.671 Y102.781 E2.01666
G1 X108.847 Y103.029 E2.02388
G1 X109.091 Y103.242 E2.03160
G1 X109.718 Y102.615 E2.05270
G1 X109.935 Y102.679 E2.05808
G1 X110.130 Y102.704 E2.06276
G1 X110.308 Y102.701 E2.06700
G1 X110.569 Y102.644 E2.07336
G1 X109.757 Y103.457 E2.10071
G1 E0.10071 F2400.00000
G92 E0
G1 X105.408 Y94.592 F7800.000
G1 E2.00000 F2400.00000
G1 F4013.41
G1 X105.992 Y94.008 E2.01966
G1 X105.989 Y93.697 E2.02705
G1 X106.027 Y93.535 E2.03100
G1 X105.618 Y93.837 E2.04310
G1 X105.467 Y93.652 E2.04878
G1 E0.04878 F2400.00000
G92 E0
G1 X91.545 Y107.384 F7800.000
G1 E2.00000 F2400.00000
G1 F1003.35
G1 X91.051 Y107.879 E2.01994
G1 X91.321 Y108.559 F7800.000
G1 F1003.35
G1 X91.815 Y108.064 E2.03987
M106 S255
G1 Z1.200 F7800.000
G1 X93.171 Y107.932 F7800.000
G1 F1186.46
G1 X92.677 Y107.438 E2.05958
G1 X92.831 Y107.326 E2.06494
G1 X93.265 Y107.087 E2.07894
G1 X93.976 Y107.798 E2.10729
G1 X94.709 Y107.591 E2.12876
G1 X93.904 Y106.786 E2.16088
G1 X94.581 Y106.523 E2.18135
G1 X95.401 Y107.343 E2.21406
G1 X96.061 Y107.063 E2.23427
G1 X95.297 Y106.300 E2.26471
G1 X96.002 Y106.117 E2.28523
G1 X96.185 Y106.248 E2.29159
G1 X96.680 Y106.743 E2.31133
G1 E0.31133 F2400.00000
G92 E0
G1 X100.974 Y106.047 F7800.000
G1 E2.00000 F2400.00000
G1 F1186.46
G1 X100.480 Y105.553 E2.02104
G1 X100.700 Y105.481 E2.02800
G1 X101.312 Y105.382 E2.04667
G1 X102.163 Y106.232 E2.08288
G1 X102.401 Y106.252 E2.09008
G1 X103.174 Y106.241 E2.11335
G1 X102.271 Y105.337 E2.15183
G1 X103.171 Y105.379 E2.17896
G1 X103.275 Y105.339 E2.18230
G1 X104.079 Y106.142 E2.21652
G1 X104.527 Y106.025 E2.23048
G1 X104.407 Y105.711 E2.24062
G1 X104.405 Y105.466 E2.24798
G1 X103.561 Y104.622 E2.28390
G1 X103.401 Y103.984 E2.30371
G1 X103.310 Y103.368 E2.32245
G1 X104.307 Y104.365 E2.36488
G1 X103.992 Y103.047 F7800.000
G1 F1186.46
G1 X103.498 Y102.553 E2.38592
G1 E0.38592 F2400.00000
G92 E0
G1 X109.771 Y103.228 F7800.000
G1 E2.00000 F2400.00000
G1 F1186.46
G1 X109.277 Y102.734 E2.02129
G1 X109.482 Y102.786 E2.02773
G1 X109.797 Y102.798 E2.03733
G1 X110.011 Y102.771 E2.04391
G1 X110.243 Y102.685 E2.05144
G1 X110.800 Y103.242 E2.07545
G1 X111.057 Y103.025 E2.08569
G1 X111.209 Y102.802 E2.09392
G1 X111.259 Y102.686 E2.09775
G1 X110.666 Y102.093 E2.12329
G1 X110.714 Y101.764 E2.13343
G1 X110.742 Y101.330 E2.14666
G1 X110.938 Y101.351 E2.15267
G1 X111.433 Y101.846 E2.17397
G1 E0.17397 F2400.00000
G92 E0
G1 X110.418 Y99.847 F7800.000
G1 E2.00000 F2400.00000
G1 F4745.85
G1 X109.585 Y99.014 E2.02804
G1 X109.079 Y98.841 E2.04074
G1 X108.416 Y98.726 E2.05675
G1 X109.248 Y99.558 E2.08474
G1 X108.335 Y99.526 E2.10649
G1 X107.213 Y98.403 E2.14426
G1 X106.786 Y98.318 E2.15461
G1 X106.438 Y98.144 E2.16386
G1 X106.147 Y97.904 E2.17284
G1 X105.605 Y97.330 E2.19162
G1 X105.285 Y97.076 E2.20136
G1 X105.053 Y96.961 E2.20753
G1 X104.841 Y96.913 E2.21267
G1 X107.619 Y99.690 E2.30613
G1 X107.237 Y99.749 E2.31531
G1 X107.073 Y99.810 E2.31947
G1 X106.935 Y99.888 E2.32324
G1 X103.318 Y96.271 E2.44494
G1 X103.209 Y96.293 E2.44760
G1 X103.195 Y96.272 E2.44822
G1 X103.024 Y96.326 E2.45247
G1 X101.921 Y95.721 E2.48241
G1 X101.909 Y95.743 E2.48300
G1 X106.498 Y100.332 E2.63742
G1 X106.361 Y100.483 E2.64227
G1 X106.218 Y100.596 E2.64662
G1 X106.006 Y100.721 E2.65246
G1 X100.311 Y95.025 E2.84412
G1 X100.776 Y95.490 F7800.000
G1 F4745.85
G1 X100.143 Y95.208 E2.86060
G1 X99.575 Y95.003 E2.87496
G1 X99.412 Y94.787 E2.88141
G1 X99.260 Y94.702 E2.88554
G1 X99.136 Y94.429 E2.89269
G1 X99.149 Y93.863 E2.90615
G1 X98.434 Y93.148 E2.93021
G1 X98.500 Y92.334 E2.94966
G1 X99.094 Y92.928 E2.96965
G1 E0.96965 F2400.00000
G92 E0
G1 X103.431 Y93.741 F7800.000
G1 E2.00000 F2400.00000
G1 F4745.85
G1 X103.028 Y93.711 E2.00960
G1 X103.334 Y93.862 E2.01771
G1 X103.689 Y93.999 E2.02676
G1 X102.966 Y93.275 E2.05111
G1 X103.521 Y93.376 E2.06453
G1 X104.114 Y93.543 E2.07920
G1 X104.868 Y94.297 E2.10456
G1 X105.482 Y94.911 F7800.000
G1 F4745.85
G1 X104.774 Y94.203 E2.12837
G1 X104.829 Y94.421 E2.13372
G1 X104.511 Y94.821 E2.14587
G1 X105.154 Y95.464 E2.16751
G1 X104.781 Y95.972 E2.18251
G1 X104.155 Y95.345 E2.20360
G1 X104.017 Y95.578 E2.21003
G1 X103.850 Y95.922 E2.21913
G1 X104.363 Y96.435 E2.23638
G1 X104.331 Y96.468 E2.23748
G1 X104.288 Y96.811 E2.24571
G1 X104.359 Y97.125 E2.25336
G1 X104.495 Y97.128 E2.25661
G1 X104.615 Y97.310 E2.26181
G1 X105.307 Y97.378 E2.27834
G1 E0.27834 F2400.00000
G92 E0
G1 X105.370 Y100.965 F7800.000
G1 E2.00000 F2400.00000
G1 F4745.85
G1 X98.448 Y94.043 E2.23291
G1 X98.449 Y94.068 E2.23350
G1 X98.313 Y94.292 E2.23972
G1 X98.192 Y94.406 E2.24369
G1 X97.983 Y94.459 E2.24883
G1 X104.693 Y101.169 E2.47460
G1 X104.404 Y101.271 E2.48188
G1 X104.081 Y101.438 E2.49054
G1 X97.244 Y94.601 E2.72062
G1 X97.010 Y94.676 E2.72644
G1 X96.607 Y94.846 E2.73685
G1 X103.612 Y101.850 E2.97254
G1 X103.535 Y101.893 E2.97464
G1 X103.490 Y102.002 E2.97744
G1 X103.379 Y101.982 E2.98013
G1 X103.296 Y101.860 E2.98363
G1 X102.940 Y102.059 E2.99335
G1 X95.931 Y95.050 E3.22920
G1 X95.800 Y95.050 E3.23232
G1 X95.572 Y94.866 E3.23929
G1 X95.418 Y94.775 E3.24353
G1 X95.109 Y94.670 E3.25130
G1 X94.835 Y94.629 E3.25790
G1 X94.627 Y94.627 E3.26284
G1 X102.307 Y102.307 E3.52126
G1 X101.718 Y102.599 E3.53690
G1 X93.813 Y94.694 E3.80291
G1 X93.072 Y94.834 E3.82086
G1 X101.130 Y102.892 E4.09201
G1 X100.534 Y103.176 E4.10773
G1 X92.363 Y95.006 E4.38267
G1 X91.688 Y95.211 E4.39947
G1 X99.912 Y103.436 E4.67622
G1 X99.564 Y103.556 E4.68499
G1 X99.235 Y103.640 E4.69306
G1 X91.063 Y95.468 E4.96803
G1 X90.814 Y95.586 E4.97459
G1 X90.492 Y95.777 E4.98351
G1 X98.501 Y103.786 E5.25300
G1 X98.306 Y103.885 E5.25819
G1 X98.156 Y104.323 E5.26920
G1 X97.492 Y103.659 E5.29154
G1 X97.274 Y104.322 E5.30815
G1 X97.900 Y104.947 E5.32919
G1 X97.596 Y105.524 E5.34471
G1 X97.112 Y105.041 E5.36100
G1 X97.081 Y103.247 F7800.000
G1 F4745.85
G1 X89.991 Y96.158 E5.59954
G1 X89.759 Y96.369 E5.60701
G1 X89.564 Y96.611 E5.61441
G1 X96.113 Y103.161 E5.83480
G1 X95.880 Y103.317 E5.84149
G1 X95.653 Y103.399 E5.84724
G1 X95.501 Y103.429 E5.85091
G1 X89.257 Y97.185 E6.06103
G1 X89.164 Y97.468 E6.06810
G1 X89.233 Y97.482 E6.06980
G1 X89.152 Y97.962 E6.08137
G1 X94.630 Y103.439 E6.26569
G1 X94.296 Y103.399 E6.27369
G1 X93.566 Y103.256 E6.29139
G1 X89.100 Y98.791 E6.44165
G1 X89.120 Y99.357 E6.45513
G1 X89.163 Y99.734 E6.46417
G1 X92.369 Y102.940 E6.57203
G1 X92.002 Y102.824 E6.58119
G1 X91.350 Y102.540 E6.59809
G1 X91.034 Y102.364 E6.60670
G1 X90.725 Y102.157 E6.61555
G1 X90.622 Y102.074 E6.61871
G1 X89.586 Y101.038 E6.65355
G1 X101.842 Y101.842 F7800.000
G1 F4745.85
G1 X101.864 Y101.832 E6.65412
G1 X101.900 Y101.900 E6.65598
G1 X102.375 Y102.375 E6.67194
G1 E4.67194 F2400.00000
G92 E0
G1 X98.048 Y91.865 F7800.000
G1 E2.00000 F2400.00000
G1 F1186.46
G1 X97.553 Y91.371 E2.01942
G1 X96.688 Y91.430 E2.04351
G1 X97.494 Y92.236 E2.07517
G1 X96.741 Y92.408 E2.09663
G1 X95.883 Y91.550 E2.13030
G1 X95.182 Y91.698 E2.15019
G1 X95.123 Y91.715 E2.15191
G1 X95.945 Y92.537 E2.18418
G1 X95.275 Y92.601 E2.20286
G1 X95.238 Y92.601 E2.20388
G1 X95.254 Y92.485 E2.20713
G1 X94.909 Y92.427 E2.21684
G1 X94.415 Y91.932 E2.23626
G1 Z1.500 F7800.000
G1 E0.23626 F2400.00000
G92 E0
G1 X101.198 Y106.040 F7800.000
G1 E2.00000 F2400.00000
G1 F776.051
G1 X101.692 Y105.545 E2.02172
G1 X102.216 Y105.478 E2.03811
G1 X102.808 Y105.465 E2.05653
G1 X102.150 Y106.123 E2.08544
G1 X103.270 Y106.039 F7800.000
G1 F776.051
G1 X103.764 Y105.544 E2.10717
G1 E0.10717 F2400.00000
G92 E0
G1 X105.447 Y100.720 F7800.000
G1 E2.00000 F2400.00000
G1 F3104.21
G1 X106.886 Y99.281 E2.04841
G1 X106.928 Y99.399 E2.05141
G1 X106.801 Y99.503 E2.05530
G1 X106.432 Y99.916 E2.06849
G1 X106.129 Y100.147 E2.07755
G1 X105.912 Y100.254 E2.08331
G1 X106.435 Y99.731 F7800.000
G1 F3104.21
G1 X107.576 Y98.590 E2.12170
G1 X107.204 Y98.478 E2.13096
G1 X106.949 Y98.336 E2.13789
G1 X104.055 Y101.231 E2.23529
G1 X103.779 Y101.352 E2.24245
G1 X103.214 Y101.662 E2.25778
G1 X103.189 Y101.826 E2.26174
G1 X103.070 Y101.893 E2.26500
G1 X103.025 Y102.002 E2.26779
G1 X102.913 Y101.982 E2.27048
G1 X102.830 Y101.857 E2.27405
G1 X102.180 Y102.224 E2.29180
G1 X106.559 Y97.846 E2.43913
G1 X106.128 Y97.396 E2.45396
G1 X100.225 Y103.299 E2.65260
G1 X99.507 Y103.605 E2.67117
G1 X99.529 Y103.666 E2.67271
G1 X99.394 Y103.702 E2.67604
G1 X98.887 Y103.756 E2.68818
G1 X105.583 Y97.060 E2.91351
G1 X105.502 Y97.026 E2.91561
G1 X105.106 Y96.963 E2.92514
G1 X104.859 Y96.902 E2.93118
G1 X98.184 Y103.578 E3.15580
G1 X97.975 Y103.522 E3.16094
G1 X97.892 Y103.573 E3.16327
G1 X97.817 Y103.570 E3.16506
G1 X97.718 Y103.513 E3.16777
G1 X97.642 Y103.428 E3.17050
G1 X97.496 Y103.385 E3.17410
G1 X104.334 Y96.547 E3.40417
G1 X104.313 Y96.458 E3.40635
G1 X104.271 Y96.433 E3.40751
G1 X104.243 Y96.370 E3.40916
G1 X104.002 Y96.234 E3.41574
G1 X103.715 Y96.285 E3.42268
G1 X96.829 Y103.171 E3.65440
G1 X96.508 Y103.062 E3.66246
G1 X96.477 Y103.147 E3.66461
G1 X96.152 Y103.013 E3.67296
G1 X96.091 Y103.028 E3.67446
G1 X103.037 Y96.082 E3.90820
G1 X102.471 Y95.768 E3.92362
G1 X94.774 Y103.464 E4.18260
G1 X94.375 Y103.481 E4.19211
G1 X94.377 Y103.558 E4.19394
G1 X93.875 Y103.482 E4.20601
G1 X101.906 Y95.451 E4.47625
G1 X101.343 Y95.133 E4.49163
G1 X93.146 Y103.330 E4.76745
G1 X92.434 Y103.161 E4.78486
G1 X100.767 Y94.829 E5.06524
G1 X100.155 Y94.559 E5.08114
G1 X91.752 Y102.963 E5.36391
G1 X91.109 Y102.725 E5.38022
G1 X99.472 Y94.362 E5.66162
G1 X99.229 Y94.381 E5.66742
G1 X99.202 Y94.363 E5.66820
G1 X99.089 Y94.372 E5.67090
G1 X99.050 Y94.338 E5.67212
G1 X98.914 Y94.447 E5.67626
G1 X98.391 Y94.579 E5.68909
G1 X98.385 Y94.568 E5.68941
G1 X97.908 Y95.045 E5.70547
G1 X97.888 Y94.975 E5.70720
G1 X97.920 Y95.033 E5.70877
G1 X90.835 Y95.951 F7800.000
G1 F3104.21
G1 X90.378 Y96.196 E5.72113
G1 X90.093 Y96.394 E5.72938
G1 X89.843 Y96.610 E5.73724
G1 X89.593 Y96.873 E5.74586
G1 X89.434 Y97.087 E5.75222
G1 X89.294 Y97.334 E5.75898
G1 X89.168 Y97.618 E5.76635
G1 X91.300 Y95.486 E5.83809
G1 X91.616 Y95.344 E5.84631
G1 X92.159 Y95.145 E5.86008
G1 X92.682 Y94.985 E5.87309
G1 X88.991 Y98.676 E5.99729
G1 X88.950 Y99.163 E6.00890
G1 X88.961 Y99.586 E6.01898
G1 X93.851 Y94.697 E6.18351
G1 X94.593 Y94.559 E6.20146
G1 X94.851 Y94.533 E6.20765
G1 X94.850 Y94.579 E6.20874
G1 X89.080 Y100.349 E6.40291
G1 X89.182 Y100.747 E6.41267
G1 X89.100 Y100.769 E6.41469
G1 X89.227 Y101.083 E6.42275
G1 X95.628 Y94.682 E6.63813
G1 X95.982 Y94.796 E6.64699
G1 X96.000 Y94.743 E6.64831
G1 X96.249 Y94.942 E6.65588
G1 X89.554 Y101.636 E6.88114
G1 X89.993 Y102.078 E6.89596
G1 X97.079 Y94.992 E7.13440
G1 X98.363 Y94.589 E7.16643
G1 X90.515 Y102.438 E7.43052
G1 E5.43052 F2400.00000
G92 E0
G1 X109.509 Y98.856 F7800.000
G1 E2.00000 F2400.00000
G1 F776.051
G1 X108.825 Y99.540 E2.03131
G1 X109.263 Y99.602 E2.04564
G1 X109.718 Y99.725 E2.06091
G1 X110.289 Y99.155 E2.08704
G1 X110.533 Y99.301 E2.09625
G1 X110.762 Y99.484 E2.10572
G1 X110.883 Y99.640 E2.11211
G1 X110.388 Y100.134 E2.13474
G1 Z1.800 F7800.000
G1 E0.13474 F2400.00000
G92 E0
G1 X107.260 Y99.331 F7800.000
G1 E2.00000 F2400.00000
G1 F2721.12
G1 X106.653 Y98.725 E2.02040
G1 X107.021 Y98.812 E2.02939
G1 X106.794 Y98.866 E2.03492
G1 X106.579 Y98.651 F7800.000
G1 F2721.12
G1 X105.044 Y97.115 E2.08659
G1 X104.797 Y97.016 E2.09292
G1 X104.677 Y96.947 E2.09621
G1 X104.671 Y96.961 E2.09657
G1 X104.280 Y96.861 E2.10617
G1 X103.892 Y96.650 E2.11670
G1 X103.848 Y96.458 E2.12138
G1 X103.806 Y96.433 E2.12254
G1 X103.778 Y96.370 E2.12418
G1 X103.537 Y96.234 E2.13076
G1 X103.318 Y96.271 E2.13603
G1 X106.696 Y99.649 E2.24969
G1 X106.401 Y100.234 E2.26529
G1 X101.411 Y95.245 E2.43318
G1 X100.773 Y94.895 E2.45049
G1 X100.811 Y94.820 E2.45249
G1 X100.369 Y94.616 E2.46409
G1 X99.848 Y94.442 E2.47716
G1 X99.696 Y94.410 E2.48085
G1 X105.943 Y100.658 E2.69107
G1 X105.390 Y100.985 E2.70637
G1 X98.874 Y94.469 E2.92561
G1 X98.171 Y94.647 E2.94287
G1 X104.750 Y101.226 E3.16424
G1 X104.179 Y101.536 E3.17970
G1 X97.488 Y94.845 E3.40486
G1 X96.822 Y95.061 E3.42150
G1 X103.612 Y101.850 E3.64996
G1 X103.535 Y101.893 E3.65206
G1 X103.490 Y102.002 E3.65486
G1 X103.376 Y101.981 E3.65760
G1 X103.048 Y102.168 E3.66657
G1 X96.042 Y95.161 E3.90235
G1 X95.771 Y95.036 E3.90944
G1 X95.802 Y94.944 E3.91175
G1 X95.592 Y94.714 E3.91915
G1 X95.487 Y94.627 E3.92240
G1 X95.265 Y94.498 E3.92850
G1 X95.062 Y94.435 E3.93355
G1 X94.827 Y94.407 E3.93920
G1 X94.578 Y94.411 E3.94512
G1 X94.432 Y94.432 E3.94864
G1 X102.489 Y102.489 E4.21977
G1 X101.932 Y102.813 E4.23510
G1 X93.674 Y94.555 E4.51296
G1 X92.962 Y94.724 E4.53038
G1 X101.366 Y103.128 E4.81316
G1 X101.249 Y103.191 E4.81632
G1 X101.290 Y103.270 E4.81842
G1 X100.823 Y103.466 E4.83046
G1 X92.266 Y94.909 E5.11839
G1 X91.592 Y95.115 E5.13518
G1 X100.159 Y103.682 E5.42344
G1 X99.908 Y103.721 E5.42948
G1 X99.483 Y103.726 E5.43958
G1 X99.497 Y103.662 E5.44115
G1 X99.179 Y103.583 E5.44897
G1 X90.948 Y95.353 E5.72590
G1 X90.413 Y95.604 E5.73997
G1 X90.453 Y95.659 E5.74157
G1 X90.408 Y95.693 E5.74291
G1 X97.961 Y103.247 E5.99709
G1 X96.757 Y102.839 E6.02735
G1 X96.692 Y102.858 E6.02896
G1 X89.913 Y96.079 E6.25706
G1 X89.482 Y96.529 E6.27188
G1 X96.186 Y103.233 E6.49746
G1 X95.963 Y103.454 E6.50492
G1 X95.681 Y103.610 E6.51258
G1 X89.114 Y97.042 E6.73357
G1 X88.942 Y97.485 E6.74487
G1 X89.024 Y97.509 E6.74691
G1 X88.954 Y97.763 E6.75318
G1 X94.840 Y103.649 E6.95122
G1 X94.592 Y103.624 E6.95715
G1 X93.756 Y103.446 E6.97749
G1 X88.804 Y98.495 E7.14410
G1 X88.788 Y98.934 E7.15456
G1 X88.849 Y99.420 E7.16621
G1 X92.557 Y103.128 E7.29098
G1 X91.582 Y102.807 E7.31540
G1 X91.190 Y102.642 E7.32554
G1 X89.113 Y100.565 E7.39540
G1 Z2.100 F7800.000
G1 X91.075 Y95.711 F7800.000
G1 F2707.55
G1 X90.852 Y95.787 E7.40100
G1 X90.317 Y96.023 E7.41493
G1 X90.054 Y96.179 E7.42220
G1 X90.095 Y96.229 E7.42372
G1 X89.711 Y96.570 E7.43592
G1 X89.325 Y97.043 E7.45046
G1 X89.269 Y97.003 E7.45209
G1 X88.886 Y97.900 E7.47531
G1 X91.540 Y95.246 E7.56463
G1 X92.410 Y94.948 E7.58649
G1 X92.838 Y94.829 E7.59708
G1 X88.646 Y99.021 E7.73814
G1 X88.633 Y99.412 E7.74746
G1 X88.700 Y99.848 E7.75796
G1 X94.041 Y94.507 E7.93771
G1 X94.646 Y94.372 E7.95244
G1 X95.103 Y94.325 E7.96339
G1 X88.855 Y100.574 E8.17365
G1 X89.107 Y101.202 E8.18977
G1 X95.805 Y94.504 E8.41515
G1 X96.030 Y94.690 E8.42208
G1 X96.180 Y94.878 E8.42780
G1 X96.097 Y95.017 E8.43165
G1 X96.141 Y95.050 E8.43295
G1 X89.479 Y101.712 E8.65713
G1 X89.713 Y101.986 E8.66570
G1 X89.908 Y102.163 E8.67198
G1 X96.665 Y95.407 E8.89932
G1 X96.700 Y95.426 E8.90027
G1 X97.936 Y95.017 E8.93125
G1 X90.387 Y102.565 E9.18525
G1 X90.701 Y102.707 E9.19345
G1 X91.014 Y102.820 E9.20135
G1 X99.145 Y94.688 E9.47497
G1 X100.196 Y94.428 E9.50071
G1 X100.193 Y94.406 E9.50125
G1 X100.300 Y94.415 E9.50380
G1 X91.661 Y103.053 E9.79446
G1 X92.347 Y103.248 E9.81143
G1 X100.984 Y94.612 E10.10203
G1 X101.600 Y94.876 E10.11799
G1 X93.033 Y103.443 E10.40627
G1 X93.733 Y103.624 E10.42347
G1 X102.128 Y95.230 E10.70595
G1 X102.698 Y95.540 E10.72140
G1 X94.482 Y103.756 E10.99787
G1 X94.931 Y103.752 E11.00855
G1 X95.150 Y103.690 E11.01398
G1 X95.276 Y103.629 E11.01729
G1 X95.454 Y103.504 E11.02247
G1 X95.636 Y103.321 E11.02861
G1 X95.661 Y103.287 E11.02960
G1 X95.622 Y103.235 E11.03116
G1 X95.866 Y102.851 E11.04197
G1 X96.261 Y102.673 E11.05228
G1 X96.396 Y102.723 E11.05571
G1 X103.263 Y95.856 E11.28677
G1 X103.824 Y96.176 E11.30213
G1 X97.054 Y102.946 E11.52991
G1 X97.732 Y103.148 E11.54675
G1 X104.382 Y96.498 E11.77052
G1 X104.939 Y96.823 E11.78585
G1 X98.426 Y103.336 E12.00500
G1 X99.122 Y103.521 E12.02213
G1 X105.463 Y97.180 E12.23549
G1 X105.526 Y97.215 E12.23723
G1 X105.642 Y97.418 E12.24277
G1 X105.894 Y97.629 E12.25061
G1 X99.850 Y103.674 E12.45400
G1 X100.140 Y103.608 E12.46108
G1 X100.491 Y103.491 E12.46987
G1 X101.238 Y103.167 E12.48924
G1 X106.016 Y98.389 E12.65001
G1 X106.095 Y98.555 E12.65438
G1 X106.309 Y98.812 E12.66236
G1 X106.078 Y99.085 E12.67086
G1 X106.034 Y99.252 E12.67497
G1 X103.391 Y101.894 E12.76390
G1 Z2.400 F7800.000
G1 X105.510 Y98.463 F7800.000
G1 F2657.07
G1 X102.688 Y95.640 E12.85887
G1 X101.785 Y95.178 E12.88301
G1 X101.825 Y95.094 E12.88523
G1 X100.857 Y94.690 E12.91020
G1 X105.754 Y99.587 E13.07499
G1 X105.672 Y99.765 E13.07964
G1 X105.597 Y99.840 E13.08216
G1 X105.505 Y100.219 E13.09145
G1 X99.875 Y94.589 E13.28090
G1 X99.195 Y94.791 E13.29776
G1 X105.320 Y100.915 E13.50386
G1 X105.146 Y101.230 E13.51240
G1 X104.914 Y101.391 E13.51912
G1 X98.491 Y94.967 E13.73527
G1 X97.780 Y95.137 E13.75266
G1 X104.384 Y101.741 E13.97488
G1 X103.833 Y102.071 E13.99017
G1 X97.090 Y95.328 E14.21705
G1 X96.424 Y95.543 E14.23370
G1 X103.268 Y102.387 E14.46399
G1 X102.691 Y102.691 E14.47950
G1 X94.305 Y94.305 E14.76170
G1 X94.051 Y94.344 E14.76781
G1 X93.577 Y94.458 E14.77941
G1 X102.168 Y103.049 E15.06849
G1 X101.547 Y103.308 E15.08451
G1 X92.886 Y94.648 E15.37592
G1 X92.203 Y94.846 E15.39285
G1 X100.900 Y103.543 E15.68549
G1 X100.809 Y103.563 E15.68769
G1 X100.809 Y103.538 E15.68828
G1 X100.337 Y103.499 E15.69954
G1 X99.829 Y103.352 E15.71213
G1 X91.532 Y95.056 E15.99131
G1 X90.876 Y95.281 E16.00780
G1 X98.648 Y103.052 E16.26930
G1 X97.440 Y102.725 E16.29908
G1 X90.252 Y95.538 E16.54093
G1 X89.778 Y95.805 E16.55389
G1 X89.703 Y95.869 E16.55624
G1 X96.421 Y102.587 E16.78229
G1 X96.315 Y102.625 E16.78496
G1 X96.021 Y103.068 E16.79761
G1 X89.319 Y96.366 E17.02311
G1 X89.056 Y96.985 E17.03910
G1 X95.580 Y103.509 E17.25862
G1 X95.051 Y103.799 E17.27297
G1 X94.991 Y103.800 E17.27442
G1 X88.810 Y97.620 E17.48238
G1 X88.573 Y98.263 E17.49869
G1 X93.910 Y103.601 E17.67830
G1 X92.674 Y103.245 E17.70891
G1 X88.507 Y99.078 E17.84914
G1 X88.548 Y99.285 E17.85416
G1 X88.628 Y99.537 E17.86045
G1 X88.969 Y100.421 E17.88301
G1 X91.364 Y102.816 E17.96359
G1 X90.752 Y102.572 E17.97926
G1 X90.482 Y102.435 E17.98647
G1 X90.271 Y102.304 E17.99238
G1 X90.065 Y102.141 E17.99863
G1 X89.927 Y101.990 E18.00350
G1 X89.829 Y101.832 E18.00793
G1 X89.434 Y100.886 E18.03231
G1 Z2.700 F7800.000
G1 X91.119 Y95.667 F7800.000
G1 F2567.81
G1 X90.614 Y95.842 E18.04500
G1 X90.162 Y96.034 E18.05669
G1 X89.860 Y96.202 E18.06491
G1 X89.676 Y96.348 E18.07052
G1 X89.260 Y97.526 E18.10022
G1 X91.584 Y95.202 E18.17841
G1 X92.141 Y95.010 E18.19243
G1 X92.878 Y94.789 E18.21073
G1 X88.822 Y98.845 E18.34720
G1 X88.763 Y99.262 E18.35723
G1 X88.779 Y99.498 E18.36286
G1 X88.825 Y99.723 E18.36831
G1 X94.123 Y94.425 E18.54657
G1 X94.363 Y94.364 E18.55248
G1 X94.570 Y94.338 E18.55742
G1 X94.972 Y94.457 E18.56740
G1 X89.037 Y100.392 E18.76710
G1 X89.266 Y101.044 E18.78354
G1 X95.529 Y94.780 E18.99430
G1 X95.776 Y95.013 E19.00236
G1 X95.959 Y95.232 E19.00916
G1 X89.494 Y101.696 E19.22667
G1 X89.678 Y102.209 E19.23963
G1 X89.783 Y102.289 E19.24277
G1 X96.338 Y95.733 E19.46335
G1 X96.422 Y95.805 E19.46597
G1 X96.662 Y95.852 E19.47177
G1 X97.310 Y95.642 E19.48800
G1 X90.350 Y102.603 E19.72222
G1 X90.992 Y102.841 E19.73853
G1 X98.514 Y95.319 E19.99164
G1 X99.606 Y95.109 E20.01809
G1 X91.647 Y103.068 E20.28591
G1 X92.323 Y103.272 E20.30272
G1 X100.806 Y94.789 E20.58817
G1 X100.830 Y94.789 E20.58874
G1 X101.119 Y94.823 E20.59565
G1 X101.540 Y94.937 E20.60603
G1 X93.000 Y103.476 E20.89338
G1 X93.687 Y103.671 E20.91035
G1 X102.189 Y95.168 E21.19646
G1 X102.801 Y95.438 E21.21236
G1 X95.906 Y102.332 E21.44434
G1 X96.007 Y102.242 E21.44755
G1 X96.288 Y102.269 E21.45427
G1 X96.713 Y102.407 E21.46489
G1 X103.376 Y95.743 E21.68912
G1 X103.907 Y96.093 E21.70425
G1 X97.394 Y102.606 E21.92339
G1 X98.099 Y102.782 E21.94068
G1 X104.357 Y96.524 E22.15124
G1 X104.735 Y97.027 E22.16620
G1 X98.832 Y102.930 E22.36483
G1 X99.297 Y103.016 E22.37607
G1 X99.543 Y103.100 E22.38226
G1 X105.052 Y97.591 E22.56763
G1 X105.145 Y97.852 E22.57421
G1 X105.201 Y98.080 E22.57981
G1 X105.280 Y98.244 E22.58413
G1 X100.229 Y103.294 E22.75409
G1 X100.489 Y103.290 E22.76027
G1 X100.668 Y103.263 E22.76456
G1 X100.873 Y103.217 E22.76958
G1 X101.335 Y103.070 E22.78110
G1 X105.670 Y98.735 E22.92696
G1 X105.734 Y98.812 E22.92935
G1 X105.667 Y98.889 E22.93179
G1 X105.507 Y99.177 E22.93962
G1 X105.288 Y99.339 E22.94611
G1 X105.185 Y99.599 E22.95276
G1 X105.075 Y99.976 E22.96211
G1 X104.816 Y100.469 E22.97536
G1 X102.973 Y102.313 E23.03739
G1 E21.03739 F2400.00000
G92 E0
G1 X95.150 Y103.088 F7800.000
G1 E2.00000 F2400.00000
G1 F2567.81
G1 X95.420 Y102.926 E2.00748
G1 X95.703 Y102.687 E2.01629
G1 X95.975 Y102.374 E2.02616
G1 X96.194 Y102.044 E2.03557
G1 X94.685 Y103.553 E2.08634
G1 Z3.000 F7800.000
G1 E0.08634 F2400.00000
G92 E0
G1 X89.548 Y101.000 F7800.000
G1 E2.00000 F2400.00000
G1 F2289.32
G1 X91.315 Y102.767 E2.05945
G1 X92.611 Y103.182 E2.09184
G1 X89.158 Y99.729 E2.20804
G1 X89.025 Y99.183 E2.22142
G1 X88.994 Y98.929 E2.22750
G1 X88.995 Y98.686 E2.23330
G1 X93.888 Y103.578 E2.39794
G1 X94.244 Y103.669 E2.40667
G1 X94.511 Y103.616 E2.41317
G1 X94.728 Y103.537 E2.41864
G1 X89.142 Y97.952 E2.60658
G1 X89.346 Y97.274 E2.62341
G1 X95.294 Y103.223 E2.82356
G1 X95.507 Y103.051 E2.83005
G1 X95.752 Y102.800 E2.83842
G1 X89.555 Y96.602 E3.04696
G1 X89.781 Y95.947 E3.06344
G1 X96.121 Y102.288 E3.27680
G1 X96.219 Y102.120 E3.28142
G1 X96.350 Y102.039 E3.28509
G1 X96.505 Y101.894 E3.29013
G1 X96.654 Y101.940 E3.29385
G1 X90.262 Y95.548 E3.50893
G1 X90.906 Y95.311 E3.52525
G1 X97.900 Y102.305 E3.76060
G1 X99.056 Y102.579 E3.78885
G1 X91.566 Y95.089 E4.04089
G1 X92.237 Y94.880 E4.05763
G1 X100.117 Y102.760 E4.32279
G1 X100.733 Y102.934 E4.33801
G1 X100.951 Y102.947 E4.34320
G1 X101.161 Y102.923 E4.34825
G1 X92.910 Y94.671 E4.62592
G1 X93.582 Y94.463 E4.64267
G1 X101.838 Y102.719 E4.92046
G1 X102.443 Y102.443 E4.93628
G1 X96.157 Y96.157 E5.14781
G1 X96.831 Y95.950 E5.16458
G1 X102.994 Y102.113 E5.37195
G1 X103.489 Y101.727 E5.38689
G1 X97.523 Y95.762 E5.58763
G1 X98.231 Y95.589 E5.60497
G1 X103.939 Y101.297 E5.79704
G1 X104.346 Y100.822 E5.81191
G1 X98.966 Y95.442 E5.99293
G1 X99.421 Y95.382 E6.00386
G1 X99.715 Y95.310 E6.01105
G1 X104.702 Y100.297 E6.17887
G1 X104.883 Y99.975 E6.18766
G1 X105.038 Y99.752 E6.19412
G1 X100.428 Y95.143 E6.34922
G1 X100.698 Y95.165 E6.35565
G1 X100.974 Y95.232 E6.36241
G1 X101.661 Y95.495 E6.37992
G1 X105.437 Y99.271 E6.50699
G1 E4.50699 F2400.00000
G92 E0
G1 X95.727 Y95.727 F7800.000
G1 E2.00000 F2400.00000
G1 F2289.32
G1 X95.016 Y95.016 E2.02395
G1 X95.262 Y95.262 E2.03225
G1 Z3.300 F7800.000
G1 X91.007 Y95.779 F7800.000
G1 F2069.45
G1 X90.421 Y95.966 E2.04691
G1 X90.183 Y96.071 E2.05309
G1 X90.004 Y96.181 E2.05808
G1 X89.839 Y96.594 E2.06867
G1 X89.673 Y97.113 E2.08164
G1 X91.473 Y95.313 E2.14220
G1 X91.722 Y95.235 E2.14843
G1 X91.764 Y95.196 E2.14978
G1 X91.845 Y95.165 E2.15186
G1 X92.059 Y95.135 E2.15698
G1 X92.737 Y94.930 E2.17385
G1 X89.366 Y98.301 E2.28728
G1 X89.260 Y98.816 E2.29978
G1 X89.222 Y99.326 E2.31196
G1 X94.039 Y94.509 E2.47403
G1 X94.295 Y94.585 E2.48041
G1 X94.678 Y94.751 E2.49032
G1 X89.330 Y100.099 E2.67027
G1 X89.502 Y100.808 E2.68762
G1 X95.225 Y95.085 E2.88019
G1 X95.415 Y95.244 E2.88609
G1 X95.677 Y95.514 E2.89504
G1 X89.690 Y101.501 E3.09648
G1 X89.911 Y102.161 E3.11305
G1 X96.048 Y96.024 E3.31955
G1 X96.160 Y96.217 E3.32487
G1 X96.421 Y96.532 E3.33459
G1 X90.383 Y102.570 E3.53776
G1 X91.044 Y102.789 E3.55433
G1 X97.504 Y96.330 E3.77169
G1 X98.691 Y96.023 E3.80087
G1 X91.721 Y102.993 E4.03539
G1 X92.397 Y103.198 E4.05220
G1 X99.833 Y95.763 E4.30238
G1 X100.165 Y95.731 E4.31033
G1 X100.513 Y95.644 E4.31887
G1 X100.872 Y95.604 E4.32747
G1 X93.064 Y103.412 E4.59020
G1 X93.545 Y103.580 E4.60230
G1 X93.869 Y103.488 E4.61033
G1 X101.611 Y95.746 E4.87085
G1 X102.215 Y96.023 E4.88666
G1 X96.595 Y101.643 E5.07577
G1 X97.292 Y101.827 E5.09292
G1 X102.760 Y96.359 E5.27692
G1 X103.261 Y96.739 E5.29188
G1 X97.993 Y102.007 E5.46914
G1 X98.698 Y102.183 E5.48642
G1 X103.724 Y97.157 E5.65554
G1 X104.149 Y97.612 E5.67037
G1 X99.427 Y102.335 E5.82928
G1 X99.703 Y102.358 E5.83587
G1 X99.958 Y102.428 E5.84218
G1 X100.179 Y102.464 E5.84750
G1 X104.540 Y98.103 E5.99424
G1 X104.822 Y98.445 E6.00480
G1 X104.957 Y98.567 E6.00912
G1 X101.200 Y102.324 E6.13553
G1 Z3.600 F7800.000
G1 E4.13553 F2400.00000
G92 E0
G1 X99.085 Y102.139 F7800.000
G1 E2.00000 F2400.00000
G1 F600
G1 X98.591 Y101.644 E2.01997
G1 X97.460 Y101.168 E2.05501
G1 X96.852 Y100.984 E2.07315
G1 X97.629 Y101.761 E2.10452
G1 X96.830 Y101.553 E2.12809
G1 X96.944 Y101.418 E2.13315
G1 X97.347 Y101.479 E2.14477
G1 E0.14477 F2400.00000
G92 E0
G1 X96.935 Y97.164 F7800.000
G1 E2.00000 F2400.00000
G1 F600
G1 X96.440 Y96.670 E2.01997
G1 X96.349 Y96.535 E2.02461
G1 X97.071 Y96.348 E2.04591
G1 X97.725 Y97.002 E2.07235
G1 X98.410 Y96.736 E2.09335
G1 X97.826 Y96.152 E2.11694
G1 X98.582 Y95.956 E2.13924
G1 X99.076 Y96.450 E2.15921
G1 E0.15921 F2400.00000
G92 E0
G1 X96.166 Y97.047 F7800.000
G1 E2.00000 F2400.00000
G1 F2380.38
G1 X94.021 Y94.902 E2.07217
G1 X94.519 Y95.182 E2.08576
G1 X94.936 Y95.516 E2.09846
G1 X95.163 Y95.757 E2.10635
G1 X95.404 Y96.075 E2.11585
G1 X95.701 Y96.582 E2.12981
G1 X90.395 Y101.847 F7800.000
G1 F2380.38
G1 X90.618 Y102.437 E2.14482
G1 X90.849 Y102.563 E2.15108
G1 X91.170 Y102.696 E2.15934
G1 X91.264 Y102.716 E2.16162
G1 X89.930 Y101.382 E2.20651
G1 X89.794 Y100.891 E2.21864
G1 X89.657 Y100.228 E2.23474
G1 X92.492 Y103.063 E2.33012
G1 X92.619 Y103.059 E2.33316
G1 X93.724 Y103.414 E2.36076
G1 X89.489 Y99.179 E2.50326
G1 X89.470 Y98.780 E2.51277
G1 X89.505 Y98.314 E2.52387
G1 X94.413 Y103.222 E2.68903
G1 X94.981 Y102.909 E2.70445
G1 X89.629 Y97.558 E2.88452
G1 X89.774 Y96.822 E2.90237
G1 X95.464 Y102.511 E3.09382
G1 X95.629 Y102.331 E3.09963
G1 X95.861 Y102.028 E3.10873
G1 X89.966 Y96.133 E3.30708
G1 X90.147 Y95.655 E3.31923
G1 X90.288 Y95.574 E3.32311
G1 X96.184 Y101.469 E3.52149
G1 X96.313 Y101.183 E3.52895
G1 X96.403 Y101.098 E3.53191
G1 X96.487 Y100.892 E3.53721
G1 X90.929 Y95.334 E3.72422
G1 X91.257 Y95.235 E3.73236
G1 X91.380 Y95.165 E3.73574
G1 X91.607 Y95.131 E3.74121
G1 X97.330 Y100.854 E3.93378
G1 X97.642 Y100.924 E3.94139
G1 X98.037 Y101.046 E3.95121
G1 X98.652 Y101.294 E3.96699
G1 X92.335 Y94.978 E4.17953
G1 X93.005 Y94.767 E4.19625
G1 X100.123 Y101.885 E4.43576
G1 X100.440 Y101.944 E4.44342
G1 X100.510 Y102.015 E4.44580
G1 X100.579 Y102.041 E4.44753
G1 X100.638 Y102.034 E4.44895
G1 X100.738 Y101.967 E4.45183
G1 X101.068 Y101.949 E4.45969
G1 X96.406 Y97.287 E4.61657
G1 X96.865 Y97.237 E4.62755
G1 X97.170 Y97.170 E4.63498
G1 X101.755 Y101.755 E4.78927
G1 X102.345 Y101.464 E4.80492
G1 X97.828 Y96.947 E4.95692
G1 X98.444 Y96.682 E4.97288
G1 X102.881 Y101.119 E5.12217
G1 X103.374 Y100.731 E5.13710
G1 X99.068 Y96.425 E5.28200
G1 X99.564 Y96.228 E5.29472
G1 X99.720 Y96.196 E5.29849
G1 X103.833 Y100.310 E5.43690
G1 X104.284 Y99.880 E5.45173
G1 X100.540 Y96.135 E5.57772
G1 X100.835 Y96.184 E5.58485
G1 X101.215 Y96.304 E5.59433
G1 X101.641 Y96.496 E5.60543
G1 X101.956 Y96.671 E5.61403
G1 X104.719 Y99.433 E5.70698
M106 S244.8
G1 Z3.900 F7800.000
G1 X104.353 Y99.337 F7800.000
G1 F1200
G1 X104.887 Y98.802 E5.72766
G1 X104.734 Y98.696 E5.73274
G1 X104.421 Y98.358 E5.74535
G1 X100.928 Y101.850 E5.88043
G1 X100.530 Y101.930 E5.89154
G1 X100.357 Y101.627 E5.90108
G1 X100.334 Y101.633 E5.90174
G1 X100.295 Y101.572 E5.90370
G1 X103.946 Y97.922 E6.04490
G1 X103.481 Y97.475 E6.06253
G1 X99.242 Y101.714 E6.22652
G1 X98.596 Y101.448 E6.24561
G1 X102.977 Y97.068 E6.41506
G1 X102.785 Y96.925 E6.42161
G1 X102.429 Y96.705 E6.43307
G1 X97.959 Y101.175 E6.60597
G1 X97.287 Y100.935 E6.62548
G1 X101.834 Y96.388 E6.80136
G1 X101.304 Y96.206 E6.81667
G1 X101.135 Y96.176 E6.82139
G1 X100.598 Y96.712 E6.84213
G1 X100.576 Y96.659 E6.84371
G1 X100.640 Y96.670 E6.84549
G1 X100.289 Y97.021 F7800.000
G1 F1200
G1 X100.811 Y96.500 E6.86567
G1 X101.290 Y96.691 E6.87979
G1 X101.093 Y96.218 E6.89381
G1 E4.89381 F2400.00000
G92 E0
G1 X96.525 Y100.786 F7800.000
G1 E2.00000 F2400.00000
G1 F1200
G1 X97.768 Y99.543 E2.04808
G1 X98.159 Y99.949 E2.06351
G1 X98.605 Y99.520 E2.08046
G1 X98.217 Y99.094 E2.09623
G1 X100.759 Y96.552 E2.19455
G1 X100.232 Y96.228 E2.21147
G1 X100.239 Y96.215 E2.21189
G1 X100.177 Y96.223 E2.21362
G1 X98.811 Y97.588 E2.26645
G1 X98.752 Y97.430 E2.27106
G1 X98.371 Y97.508 E2.28170
G1 X98.114 Y97.825 E2.29286
G1 X98.348 Y98.051 E2.30176
G1 X97.156 Y99.244 E2.34787
G1 X97.065 Y98.831 E2.35944
G1 X96.594 Y98.908 E2.37248
G1 X96.405 Y99.329 E2.38510
G1 X96.825 Y99.575 E2.39839
G1 X93.133 Y103.267 E2.54119
G1 X92.434 Y103.054 E2.56117
G1 X98.659 Y96.829 E2.80195
G1 X97.954 Y97.103 E2.82263
G1 X97.663 Y97.190 E2.83094
G1 X97.311 Y97.265 E2.84077
G1 X91.239 Y103.338 E3.07566
G1 X91.165 Y103.317 E3.07776
G1 X91.036 Y103.236 E3.08190
G1 X90.947 Y103.150 E3.08529
G1 X90.865 Y103.031 E3.08925
G1 X90.799 Y102.866 E3.09411
G1 X96.488 Y97.177 E3.31416
G1 X96.381 Y96.984 E3.32018
G1 X96.252 Y96.809 E3.32614
G1 X96.132 Y96.871 E3.32983
G1 X96.046 Y96.708 E3.33488
G1 X90.284 Y102.469 E3.55773
G1 X90.149 Y102.344 E3.56277
G1 X90.108 Y102.275 E3.56498
G1 X89.962 Y101.880 E3.57648
G1 X95.813 Y96.029 E3.80281
G1 X95.613 Y95.766 E3.81186
G1 X95.396 Y95.535 E3.82052
G1 X89.773 Y101.158 E4.03801
G1 X89.629 Y100.391 E4.05936
G1 X94.881 Y95.138 E4.26254
G1 X94.278 Y94.830 E4.28106
G1 X89.509 Y99.599 E4.46552
G1 X89.496 Y99.152 E4.47774
G1 X89.549 Y98.648 E4.49162
G1 X93.254 Y94.943 E4.63490
G1 X92.816 Y95.065 E4.64733
G1 X92.630 Y95.040 E4.65246
G1 X92.361 Y94.925 E4.66047
G1 X89.747 Y97.539 E4.76159
G1 X89.904 Y96.885 E4.77999
G1 X90.095 Y96.337 E4.79586
G1 X90.158 Y96.228 E4.79929
G1 X90.325 Y96.084 E4.80532
G1 X90.411 Y96.040 E4.80798
G1 X90.665 Y96.247 E4.81695
G1 X90.818 Y95.669 E4.83330
G1 X90.871 Y95.543 E4.83705
G1 X90.989 Y95.385 E4.84243
G1 X91.485 Y94.889 E4.86161
G1 X94.815 Y102.495 F7800.000
G1 F1200
G1 X95.115 Y102.300 E4.87139
G1 X95.357 Y102.098 E4.88001
G1 X95.604 Y101.840 E4.88978
G1 X95.797 Y101.595 E4.89832
G1 X95.948 Y101.363 E4.90589
G1 X94.321 Y102.990 E4.96881
M106 S249.9
G1 Z4.200 F7800.000
G1 E2.96881 F2400.00000
G92 E0
G1 X90.961 Y102.789 F7800.000
G1 E2.00000 F2400.00000
G1 F1200
G1 X91.460 Y103.288 E2.01926
G1 X91.638 Y103.399 E2.02499
G1 X91.836 Y103.452 E2.03059
G1 X92.103 Y103.433 E2.03790
G1 X92.210 Y103.396 E2.04099
G1 X92.373 Y103.291 E2.04627
G1 X90.005 Y100.924 E2.13769
G1 X89.965 Y100.723 E2.14328
G1 X89.868 Y99.877 E2.16653
G1 X92.999 Y103.008 E2.28743
G1 X93.820 Y103.229 E2.31064
G1 X94.028 Y103.127 E2.31697
G1 X89.787 Y98.886 E2.48074
G1 X89.779 Y98.693 E2.48600
G1 X89.832 Y98.021 E2.50440
G1 X94.639 Y102.828 E2.68999
G1 X94.989 Y102.621 E2.70110
G1 X95.189 Y102.468 E2.70796
G1 X89.930 Y97.210 E2.91099
G1 X89.970 Y96.878 E2.92012
G1 X90.214 Y96.886 E2.92678
G1 X90.233 Y96.602 E2.93455
G1 X95.636 Y102.006 E3.14319
G1 X95.720 Y101.905 E3.14678
G1 X96.001 Y101.461 E3.16112
G1 X90.282 Y95.742 E3.38195
G1 X90.328 Y95.661 E3.38450
G1 X90.403 Y95.581 E3.38748
G1 X90.592 Y95.448 E3.39381
G1 X90.689 Y95.239 E3.40009
G1 X96.283 Y100.833 E3.61607
G1 X96.428 Y100.350 E3.62984
G1 X96.472 Y100.112 E3.63645
G1 X91.083 Y94.723 E3.84451
G1 X91.324 Y94.640 E3.85148
G1 X91.613 Y94.657 E3.85938
G1 X91.825 Y94.754 E3.86576
G1 X92.022 Y94.937 E3.87309
G1 X92.229 Y95.051 E3.87953
G1 X92.360 Y95.091 E3.88329
G1 X96.554 Y99.284 E4.04520
G1 X96.504 Y98.645 E4.06271
G1 X96.426 Y98.247 E4.07378
G1 X93.102 Y94.923 E4.20212
G1 X93.324 Y94.853 E4.20846
G1 X94.236 Y95.307 E4.23628
G1 X94.459 Y95.443 E4.24342
G1 X94.744 Y95.660 E4.25319
G1 X95.496 Y96.407 E4.28214
G1 E2.28214 F2400.00000
G92 E0
G1 X98.507 Y99.892 F7800.000
G1 E2.00000 F2400.00000
G1 F1200
G1 X97.751 Y99.120 E2.03043
G1 X97.770 Y99.110 E2.03104
G1 X97.673 Y98.785 E2.04058
G1 X97.929 Y98.693 E2.04823
G1 X97.837 Y98.384 E2.05733
G1 X97.885 Y98.332 E2.05932
G1 X100.941 Y101.389 E2.18101
G1 X100.993 Y101.352 E2.18278
G1 X101.448 Y101.249 E2.19593
G1 X101.667 Y101.177 E2.20242
G1 X98.391 Y97.900 E2.33287
G1 X98.735 Y97.562 E2.34646
G1 X98.898 Y97.469 E2.35174
G1 X102.315 Y100.886 E2.48777
G1 X102.635 Y100.712 E2.49801
G1 X102.903 Y100.536 E2.50705
G1 X99.413 Y97.046 E2.64598
G1 X99.771 Y96.810 E2.65805
G1 X100.024 Y96.719 E2.66562
G1 X100.686 Y97.381 E2.69196
G1 X100.480 Y97.175 F7800.000
G1 F1200
G1 X103.445 Y100.140 E2.81000
G1 X103.975 Y99.732 E2.82884
G1 X101.148 Y96.905 E2.94140
G1 X101.363 Y96.977 E2.94777
G1 X101.766 Y97.169 E2.96034
G1 X102.149 Y97.382 E2.97270
G1 X102.554 Y97.647 E2.98632
G1 X103.680 Y98.499 E3.02608
G1 X104.181 Y99.000 E3.04601
M106 S252.45
G1 Z4.500 F7800.000
G1 E1.04601 F2400.00000
G92 E0
G1 X94.759 Y102.159 F7800.000
G1 E2.00000 F2400.00000
G1 F1200
G1 X95.262 Y101.656 E2.02065
G1 X95.146 Y101.535 E2.02552
G1 X95.589 Y101.092 E2.04373
G1 X95.688 Y101.189 E2.04776
G1 X95.904 Y100.865 E2.05908
G1 X96.138 Y100.385 E2.07460
G1 X96.238 Y100.102 E2.08333
G1 X96.353 Y99.597 E2.09837
G1 X92.926 Y103.023 E2.23918
G1 X92.114 Y102.867 E2.26321
G1 X96.410 Y98.571 E2.43975
G1 X96.364 Y98.049 E2.45498
G1 X96.295 Y97.718 E2.46480
G1 X90.857 Y103.156 E2.68826
G1 X90.817 Y103.101 E2.69024
G1 X90.726 Y102.859 E2.69776
G1 X90.616 Y102.650 E2.70463
G1 X90.523 Y102.522 E2.70922
G1 X96.042 Y97.003 E2.93601
G1 X95.839 Y96.623 E2.94852
G1 X95.677 Y96.400 E2.95654
G1 X90.274 Y101.803 E3.17856
G1 X90.235 Y101.510 E3.18714
G1 X90.221 Y100.887 E3.20524
G1 X95.210 Y95.898 E3.41026
G1 X94.856 Y95.639 E3.42301
G1 X94.624 Y95.516 E3.43064
G1 X90.187 Y99.953 E3.61298
G1 X90.152 Y99.234 E3.63389
G1 X90.164 Y99.007 E3.64049
G1 X93.968 Y95.204 E3.79678
G1 X93.659 Y95.029 E3.80709
G1 X93.622 Y95.024 E3.80818
G1 X93.173 Y95.117 E3.82150
G1 X93.173 Y95.351 E3.82830
G1 X92.971 Y95.232 E3.83511
G1 X90.215 Y97.989 E3.94836
G1 X90.249 Y96.987 E3.97749
G1 X92.351 Y94.885 E4.06388
G1 X92.198 Y94.805 E4.06888
G1 X92.263 Y94.730 E4.07179
G1 X92.215 Y94.703 E4.07338
G1 X92.010 Y94.647 E4.07955
G1 X91.746 Y94.661 E4.08726
G1 X91.526 Y94.760 E4.09425
G1 X91.444 Y94.823 E4.09728
G1 X90.949 Y95.318 E4.11760
G1 X92.037 Y102.944 F7800.000
G1 F1200
G1 X92.235 Y102.882 E4.12362
G1 X92.189 Y102.830 E4.12561
G1 X92.507 Y102.647 E4.13626
G1 X92.450 Y102.531 E4.14000
G1 X91.543 Y103.438 E4.17728
G1 E2.17728 F2400.00000
G92 E0
G1 X98.178 Y98.777 F7800.000
G1 E2.00000 F2400.00000
G1 F1200
G1 X97.675 Y99.283 E2.02037
G1 X97.700 Y99.316 E2.02156
G1 X97.821 Y99.372 E2.02535
G1 X98.258 Y99.499 E2.03835
G1 X98.186 Y99.618 E2.04232
G1 X98.250 Y99.655 E2.04444
G1 X100.656 Y97.250 E2.14153
G1 X100.848 Y97.100 E2.14848
G1 X101.057 Y97.346 E2.15771
G1 X101.380 Y97.477 E2.16765
G1 X98.695 Y100.162 E2.27603
G1 X98.816 Y100.291 E2.28107
G1 X98.871 Y100.339 E2.28317
G1 X99.132 Y100.344 E2.29061
G1 X99.375 Y100.433 E2.29800
G1 X102.094 Y97.714 E2.40773
G1 X102.248 Y97.772 E2.41245
G1 X102.718 Y98.041 E2.42789
G1 X100.009 Y100.750 E2.53726
G1 X100.246 Y100.898 E2.54524
G1 X100.347 Y100.985 E2.54903
G1 X100.564 Y100.723 E2.55875
G1 X101.181 Y100.529 E2.57721
G1 X103.324 Y98.386 E2.66368
G1 X103.863 Y98.731 E2.68195
G1 X103.606 Y98.710 E2.68930
G1 X103.668 Y98.993 E2.69757
G1 X103.173 Y99.488 E2.71754
M106 S255
G1 Z4.800 F7800.000
G1 E0.71754 F2400.00000
G92 E0
G1 X95.403 Y96.809 F7800.000
G1 E2.00000 F2400.00000
G1 F1000.53
G1 X94.906 Y96.312 E2.01970
G1 X94.624 Y96.069 E2.03011
G1 X94.371 Y95.901 E2.03862
G1 X93.980 Y95.702 E2.05091
G1 X93.258 Y95.395 E2.07292
G1 X93.006 Y95.251 E2.08105
G1 X92.981 Y95.321 E2.08313
G1 X96.203 Y98.543 E2.21084
G1 X96.237 Y99.510 E2.23795
G1 X91.468 Y94.741 E2.42694
G1 X91.340 Y94.745 E2.43050
G1 X91.164 Y94.798 E2.43567
G1 X91.042 Y94.880 E2.43979
G1 X90.924 Y95.013 E2.44478
G1 X90.884 Y95.092 E2.44724
G1 X96.154 Y100.361 E2.65608
G1 X96.055 Y100.757 E2.66752
G1 X95.923 Y101.064 E2.67687
G1 X90.635 Y95.776 E2.88643
G1 X90.600 Y95.909 E2.89029
G1 X90.565 Y96.276 E2.90063
G1 X90.590 Y96.665 E2.91153
G1 X95.542 Y101.617 E3.10780
G1 X95.369 Y101.805 E3.11496
G1 X95.054 Y102.063 E3.12636
G1 X90.677 Y97.685 E3.29983
G1 X90.616 Y98.558 E3.32434
G1 X94.454 Y102.396 E3.47645
G1 X93.797 Y102.673 E3.49642
G1 X90.659 Y99.535 E3.62079
G1 X90.676 Y100.035 E3.63480
G1 X90.645 Y100.455 E3.64661
G1 X93.036 Y102.846 E3.74135
G1 X92.884 Y102.835 E3.74560
G1 X92.566 Y102.926 E3.75488
G1 X92.386 Y103.129 E3.76250
G1 X90.565 Y101.309 E3.83464
G1 X90.589 Y101.633 E3.84376
G1 X90.712 Y102.089 E3.85698
G1 X90.789 Y102.246 E3.86190
G1 X90.859 Y102.463 E3.86828
G1 X90.989 Y102.666 E3.87503
G1 X91.483 Y103.160 E3.89462
G1 E1.89462 F2400.00000
G92 E0
G1 X97.976 Y98.791 F7800.000
G1 E2.00000 F2400.00000
G1 F1000.53
G1 X98.756 Y99.571 E2.03571
G1 X98.949 Y99.737 E2.04394
G1 X99.144 Y99.860 E2.05141
G1 X99.600 Y99.958 E2.06652
G1 X100.055 Y99.992 E2.08127
G1 X100.333 Y100.069 E2.09062
G1 X98.546 Y98.282 E2.17244
G1 X98.633 Y98.232 E2.17567
G1 X98.826 Y98.180 E2.18215
G1 X99.096 Y98.133 E2.19102
G1 X99.455 Y98.112 E2.20266
G1 X101.330 Y99.987 E2.28848
G1 X101.553 Y99.872 E2.29660
G1 X102.124 Y99.703 E2.31590
G1 X100.841 Y98.420 E2.37463
G1 X100.941 Y98.158 E2.38371
G1 X101.050 Y98.214 E2.38767
G1 X101.944 Y98.471 E2.41778
G1 X101.891 Y98.653 E2.42394
G1 X102.176 Y98.676 E2.43318
G1 X102.671 Y99.170 E2.45584
G1 X100.825 Y98.404 F7800.000
G1 F1000.53
G1 X100.230 Y97.809 E2.48308
G1 X100.020 Y97.955 E2.49138
G1 X99.706 Y98.067 E2.50215
G1 X99.455 Y98.112 E2.51042
G1 Z5.100 F7800.000
G1 E0.51042 F2400.00000
G92 E0
G1 X94.913 Y101.605 F7800.000
G1 E2.00000 F2400.00000
G1 F704.985
G1 X95.503 Y101.003 E2.02471
G1 X95.679 Y100.730 E2.03424
G1 X95.860 Y100.257 E2.04911
G1 X95.920 Y100.010 E2.05656
G1 X95.979 Y99.562 E2.06980
G1 X93.081 Y102.461 E2.19002
G1 X92.738 Y102.614 E2.20103
G1 X92.570 Y102.654 E2.20609
G1 X92.446 Y102.342 E2.21594
G1 X92.103 Y102.461 E2.22657
G1 X96.006 Y98.558 E2.38841
G1 X95.970 Y97.919 E2.40720
G1 X95.930 Y97.657 E2.41495
G1 X90.984 Y102.602 E2.62004
G1 X90.928 Y102.360 E2.62733
G1 X90.941 Y101.991 E2.63816
G1 X91.019 Y101.590 E2.65014
G1 X95.697 Y96.912 E2.84414
G1 X95.600 Y96.731 E2.85018
G1 X95.485 Y96.577 E2.85580
G1 X95.270 Y96.363 E2.86472
G1 X91.186 Y100.446 E3.03407
G1 X91.169 Y100.116 E3.04376
G1 X91.096 Y99.559 E3.06024
G1 X94.638 Y96.017 E3.20713
G1 X93.917 Y95.761 E3.22957
G1 X91.165 Y98.513 E3.34373
G1 X91.186 Y98.023 E3.35812
G1 X91.134 Y97.567 E3.37159
G1 X93.227 Y95.474 E3.45840
G1 X93.117 Y95.439 E3.46179
G1 X92.739 Y95.411 E3.47291
G1 X92.386 Y95.366 E3.48335
G1 X92.374 Y95.350 E3.48394
G1 X90.968 Y96.756 E3.54227
G1 X90.923 Y96.315 E3.55527
G1 X90.944 Y96.106 E3.56143
G1 X91.062 Y95.748 E3.57248
G1 X91.134 Y95.613 E3.57698
G1 X91.634 Y95.112 E3.59774
G1 E1.59774 F2400.00000
G92 E0
G1 X91.947 Y102.617 F7800.000
G1 E2.00000 F2400.00000
G1 F704.985
G1 X92.090 Y102.581 E2.00432
G1 X92.174 Y102.518 E2.00739
G1 X92.341 Y102.289 E2.01570
G1 X92.433 Y102.260 E2.01854
G1 X92.408 Y102.156 E2.02169
G1 X91.453 Y103.111 E2.06129
G1 E0.06129 F2400.00000
G92 E0
G1 X99.653 Y99.473 F7800.000
G1 E2.00000 F2400.00000
G1 F704.985
G1 X100.697 Y98.429 E2.04778
G1 X101.149 Y99.055 F7800.000
G1 F704.985
G1 X100.655 Y99.550 E2.07042
G1 Z5.400 F7800.000
G1 E0.07042 F2400.00000
G92 E0
G1 X95.230 Y97.288 F7800.000
G1 E2.00000 F2400.00000
G1 F600
G1 X94.734 Y96.792 E2.01983
G1 X94.391 Y96.545 E2.03180
G1 X93.828 Y96.222 E2.05016
G1 X93.706 Y96.134 E2.05441
G1 X93.454 Y96.008 E2.06238
G1 X93.134 Y95.899 E2.07194
G1 X92.822 Y95.824 E2.08101
G1 X95.723 Y98.725 E2.19707
G1 X95.748 Y99.330 E2.21421
G1 X95.733 Y99.677 E2.22403
G1 X91.631 Y95.575 E2.38814
G1 X91.475 Y95.579 E2.39256
G1 X91.415 Y95.744 E2.39751
G1 X91.413 Y95.807 E2.39929
G1 X91.471 Y96.145 E2.40898
G1 X91.563 Y96.450 E2.41800
G1 X95.636 Y100.522 E2.58094
G1 X95.542 Y100.829 E2.59000
G1 X95.456 Y101.007 E2.59561
G1 X95.343 Y101.172 E2.60126
G1 X91.761 Y97.590 E2.74457
G1 X91.715 Y97.958 E2.75505
G1 X91.627 Y98.399 E2.76777
G1 X94.813 Y101.585 E2.89523
G1 X94.226 Y101.941 E2.91464
G1 X91.662 Y99.377 E3.01722
G1 X91.754 Y99.918 E3.03274
G1 X91.753 Y100.410 E3.04666
G1 X93.527 Y102.185 E3.11766
G1 X93.330 Y102.268 E3.12371
G1 X92.793 Y102.393 E3.13932
G1 X91.560 Y101.160 E3.18864
G1 X91.469 Y101.457 E3.19742
G1 X91.415 Y101.850 E3.20864
G1 X91.470 Y102.013 E3.21351
G1 X91.965 Y102.507 E3.23329
G1 Z5.700 F7800.000
G1 E1.23329 F2400.00000
G92 E0
G1 X94.719 Y100.482 F7800.000
G1 E2.00000 F2400.00000
G1 F600
G1 X95.215 Y99.987 E2.01894
G1 X95.278 Y99.895 E2.02194
G1 X95.399 Y99.466 E2.03399
G1 X95.437 Y98.864 E2.05027
G1 X93.738 Y100.564 E2.11518
G1 X92.852 Y100.549 E2.13911
G1 X95.372 Y98.029 E2.23538
G1 X95.311 Y97.776 E2.24242
G1 X95.212 Y97.602 E2.24782
G1 X95.137 Y97.538 E2.25049
G1 X95.000 Y97.502 E2.25433
G1 X92.358 Y100.144 E2.35524
G1 X92.293 Y100.021 E2.35900
G1 X92.154 Y99.630 E2.37019
G1 X92.125 Y99.476 E2.37442
G1 X94.076 Y97.526 E2.44893
G1 X93.301 Y97.546 E2.46985
G1 X93.085 Y97.622 E2.47605
G1 X92.480 Y98.222 E2.49905
G1 Z6.000 F7800.000
G1 X93.193 Y99.116 F7800.000
G1 F600
G1 X93.158 Y99.303 E2.50521
G1 X93.194 Y99.485 E2.51124
G1 X93.300 Y99.692 E2.51877
G1 X93.419 Y99.823 E2.52449
G1 X93.525 Y99.891 E2.52856
G1 X93.680 Y99.941 E2.53385
G1 X94.050 Y99.973 E2.54586
G1 X92.698 Y98.621 E2.60774
G1 X92.841 Y98.351 E2.61764
G1 X92.922 Y98.267 E2.62140
G1 X92.992 Y98.219 E2.62415
G1 X93.196 Y98.148 E2.63115
G1 X93.294 Y98.139 E2.63435
G1 X94.971 Y99.815 E2.71111
G1 X94.929 Y98.695 F7800.000
G1 F600
G1 X94.435 Y98.201 E2.73374
G1 Z6.300 F7800.000
G1 E0.73374 F2400.00000
G92 E0
M107
; Filament-specific end gcode 
;END gcode for filament

M104 S0 ; turn off temperature
G28 X0  ; home X axis
M84     ; disable motors

M140 S0 ; set bed temperature
; filament used = 84.3mm (0.6cm3)
; total filament cost = 0.0

; avoid_crossing_perimeters = 0
; bed_shape = 0x0,200x0,200x200,0x200
; bed_temperature = 0
; before_layer_gcode = 
; between_objects_gcode = 
; bridge_acceleration = 0
; bridge_fan_speed = 100
; brim_connections_width = 0
; brim_width = 0
; complete_objects = 0
; cooling = 1
; default_acceleration = 0
; disable_fan_first_layers = 3
; duplicate_distance = 6
; end_filament_gcode = "; Filament-specific end gcode \n;END gcode for filament\n"
; end_gcode = M104 S0 ; turn off temperature\nG28 X0  ; home X axis\nM84     ; disable motors\n
; extruder_clearance_height = 20
; extruder_clearance_radius = 20
; extruder_offset = 0x0
; extrusion_axis = E
; extrusion_multiplier = 1
; fan_always_on = 0
; fan_below_layer_time = 60
; filament_colour = #FFFFFF
; filament_cost = 0
; filament_density = 0
; filament_diameter = 3
; filament_max_volumetric_speed = 0
; filament_notes = ""
; first_layer_acceleration = 0
; first_layer_bed_temperature = 0
; first_layer_extrusion_width = 200%
; first_layer_speed = 30
; first_layer_temperature = 205
; gcode_arcs = 0
; gcode_comments = 0
; gcode_flavor = reprap
; has_heatbed = 1
; infill_acceleration = 0
; infill_first = 0
; interior_brim_width = 0
; layer_gcode = 
; max_fan_speed = 100
; max_layer_height = 0.3
; max_print_speed = 80
; max_volumetric_speed = 0
; min_fan_speed = 35
; min_layer_height = 0.15
; min_print_speed = 10
; min_skirt_length = 0
; notes = 
; nozzle_diameter = 0.5
; only_retract_when_crossing_perimeters = 1
; ooze_prevention = 0
; output_filename_format = [input_filename_base].gcode
; perimeter_acceleration = 0
; post_process = 
; pressure_advance = 0
; printer_notes = 
; resolution = 0
; retract_before_travel = 2
; retract_layer_change = 0
; retract_length = 2
; retract_length_toolchange = 10
; retract_lift = 0
; retract_lift_above = 0
; retract_lift_below = 0
; retract_restart_extra = 0
; retract_restart_extra_toolchange = 0
; retract_speed = 40
; skirt_distance = 6
; skirt_height = 1
; skirts = 0
; slowdown_below_layer_time = 5
; spiral_vase = 0
; standby_temperature_delta = -5
; start_filament_gcode = "; Filament gcode\n"
; start_gcode = G28 ; home all axes\nG1 Z5 F5000 ; lift nozzle\n
; temperature = 200
; threads = 8
; toolchange_gcode = 
; travel_speed = 130
; use_firmware_retraction = 0
; use_relative_e_distances = 0
; use_set_and_wait_bed = 0
; use_set_and_wait_extruder = 0
; use_volumetric_e = 0
; vibration_limit = 0
; wipe = 0
; z_offset = 0
; z_steps_per_mm = 0
; adaptive_slicing = 0
; adaptive_slicing_quality = 75%
; dont_support_bridges = 1
; extrusion_width = 0
; first_layer_height = 0.3
; infill_only_where_needed = 0
; interface_shells = 0
; layer_height = 0.3
; match_horizontal_surfaces = 0
; raft_layers = 0
; regions_overlap = 0
; seam_position = aligned
; sequential_print_priority = 0
; support_material = 0
; support_material_angle = 0
; support_material_buildplate_only = 0
; support_material_contact_distance = 0.2
; support_material_enforce_layers = 0
; support_material_extruder = 1
; support_material_extrusion_width = 0
; support_material_interface_extruder = 1
; support_material_interface_extrusion_width = 0
; support_material_interface_layers = 3
; support_material_interface_spacing = 0
; support_material_interface_speed = 100%
; support_material_max_layers = 0
; support_material_pattern = pillars
; support_material_spacing = 2.5
; support_material_speed = 60
; support_material_threshold = 60%
; xy_size_compensation = 0
; bottom_infill_pattern = rectilinear
; bottom_solid_layers = 0
; bridge_flow_ratio = 1
; bridge_speed = 60
; external_perimeter_extrusion_width = 0
; external_perimeter_speed = 50%
; external_perimeters_first = 0
; extra_perimeters = 1
; fill_angle = 45
; fill_density = 90%
; fill_gaps = 1
; fill_pattern = rectilinear
; gap_fill_speed = 20
; infill_every_layers = 1
; infill_extruder = 1
; infill_extrusion_width = 0
; infill_overlap = 55%
; infill_speed = 80
; overhangs = 1
; perimeter_extruder = 1
; perimeter_extrusion_width = 0
; perimeter_speed = 60
; perimeters = 0
; small_perimeter_speed = 15
; solid_infill_below_area = 70
; solid_infill_every_layers = 0
; solid_infill_extruder = 1
; solid_infill_extrusion_width = 0
; solid_infill_speed = 20
; thin_walls = 1
; top_infill_extrusion_width = 0
; top_infill_pattern = rectilinear
; top_solid_infill_speed = 15
; top_solid_layers = 0
