; generated by Slic3r 1.3.0 on 2020-03-16 at 20:30:13

; external perimeters extrusion width = 0.55mm (4.37mm^3/s)
; perimeters extrusion width = 0.70mm (11.44mm^3/s)
; infill extrusion width = 0.63mm (13.45mm^3/s)
; solid infill extrusion width = 0.70mm (3.81mm^3/s)
; top infill extrusion width = 0.70mm (2.86mm^3/s)

M107
M104 S205 ; set temperature
G28 ; home all axes
G1 Z5 F5000 ; lift nozzle

; Filament gcode

M109 S205 ; set temperature and wait for it to be reached
G21 ; set units to millimeters
G90 ; use absolute coordinates
M82 ; use absolute distances for extrusion
G92 E0
G1 Z0.300 F7800.000
G1 E-2.00000 F2400.00000
G92 E0
G1 X89.272 Y88.705 F7800.000
G1 E2.00000 F2400.00000
G1 F1800
G1 X89.189 Y88.714 E2.00189
G1 X88.830 Y88.685 E2.01008
G1 X88.813 Y88.960 E2.01633
G1 X88.749 Y89.023 E2.01838
G1 X88.831 Y89.023 E2.02024
G1 X88.833 Y89.144 E2.02297
G1 X89.698 Y88.279 E2.05078
G1 X90.032 Y88.270 E2.05838
G1 X90.070 Y88.453 E2.06264
G1 X90.405 Y88.453 E2.07024
G1 X89.050 Y89.808 E2.11380
G1 X89.054 Y89.902 E2.11595
G1 X89.312 Y89.644 E2.12425
G1 X89.530 Y89.645 E2.12921
G1 X90.163 Y89.017 E2.14949
G1 X90.731 Y89.008 E2.16240
G1 X91.706 Y88.033 E2.19375
G1 X91.885 Y88.024 E2.19783
G1 X92.061 Y87.823 E2.20389
G1 X92.507 Y87.821 E2.21401
G1 X92.664 Y87.654 E2.21923
G1 X93.006 Y87.614 E2.22705
G1 X91.612 Y89.007 E2.27185
G1 X92.076 Y89.004 E2.28238
G1 X92.284 Y88.801 E2.28900
G1 X92.703 Y88.798 E2.29851
G1 X94.114 Y87.387 E2.34387
G1 X94.416 Y87.395 E2.35074
G1 X94.573 Y87.209 E2.35626
G1 X95.178 Y87.204 E2.37002
G1 X93.591 Y88.790 E2.42103
G1 X94.216 Y88.785 E2.43523
G1 X94.397 Y88.600 E2.44112
G1 X94.685 Y88.578 E2.44768
G1 X96.276 Y86.986 E2.49884
G1 X97.161 Y86.983 E2.51895
G1 X95.782 Y88.361 E2.56328
G1 X96.338 Y88.340 E2.57593
G1 X96.525 Y88.162 E2.58180
G1 X96.880 Y88.145 E2.58986
G1 X98.503 Y86.522 E2.64203
G1 X98.519 Y86.972 E2.65228
G1 X98.706 Y86.970 E2.65654
G1 X98.723 Y87.182 E2.66137
G1 X97.533 Y88.372 E2.69963
G1 X97.566 Y88.615 E2.70520
G1 X97.509 Y88.881 E2.71139
G1 X97.521 Y89.265 E2.72012
G1 X98.727 Y88.060 E2.75888
G1 X98.732 Y88.666 E2.77268
G1 X98.906 Y88.666 E2.77665
G1 X98.906 Y88.761 E2.77879
G1 X97.518 Y90.149 E2.82340
G1 X97.516 Y91.032 E2.84349
G1 X98.909 Y89.639 E2.88827
G1 X98.909 Y90.520 E2.90829
G1 X97.516 Y91.913 E2.95309
G1 E0.95309 F2400.00000
G92 E0
G1 X101.451 Y89.740 F7800.000
G1 E2.00000 F2400.00000
G1 F1800
G1 X101.333 Y89.730 E2.00269
G1 X101.333 Y89.800 E2.00428
G1 X101.130 Y90.002 E2.01079
G1 X101.130 Y90.061 E2.01214
G1 X101.877 Y89.313 E2.03618
G1 X102.335 Y89.355 E2.04663
G1 X102.370 Y89.513 E2.05031
G1 X102.558 Y89.513 E2.05458
G1 X101.546 Y90.525 E2.08711
G1 X101.546 Y90.794 E2.09322
G1 X101.615 Y90.726 E2.09543
G1 X102.012 Y90.707 E2.10447
G1 X102.464 Y90.284 E2.11854
G1 X102.669 Y90.284 E2.12319
G1 X103.433 Y89.519 E2.14778
G1 X103.576 Y89.515 E2.15102
G1 X103.782 Y89.572 E2.15587
G1 X104.266 Y89.567 E2.16689
G1 X103.345 Y90.489 E2.19652
G1 X103.440 Y90.492 E2.19869
G1 X103.470 Y90.692 E2.20329
G1 X103.490 Y90.694 E2.20375
G1 X104.009 Y90.706 E2.21555
G1 X104.985 Y89.730 E2.24692
G1 X105.280 Y89.739 E2.25364
G1 X105.311 Y89.939 E2.25824
G1 X105.649 Y89.946 E2.26594
G1 X104.525 Y91.071 E2.30209
G1 X104.543 Y91.095 E2.30278
G1 X105.135 Y91.133 E2.31626
G1 X105.164 Y91.303 E2.32019
G1 X106.362 Y90.115 E2.35856
G1 X106.364 Y90.134 E2.35900
G1 X106.781 Y90.191 E2.36855
G1 X106.987 Y90.175 E2.37324
G1 X107.021 Y90.337 E2.37699
G1 X105.995 Y91.362 E2.40997
G1 X106.009 Y91.363 E2.41029
G1 X106.017 Y91.538 E2.41426
G1 X106.533 Y91.545 E2.42598
G1 X106.543 Y91.562 E2.42643
G1 X106.671 Y91.567 E2.42933
G1 X107.668 Y90.570 E2.46140
G1 X108.416 Y90.571 E2.47838
G1 X108.624 Y90.328 E2.48567
G1 X108.694 Y90.301 E2.48736
G1 X108.726 Y90.226 E2.48923
G1 X108.820 Y90.132 E2.49224
G1 X108.878 Y90.119 E2.49360
G1 X108.970 Y90.000 E2.49703
G1 X109.048 Y89.936 E2.49932
G1 X109.182 Y89.938 E2.50235
G1 X106.851 Y92.268 E2.57727
G1 X106.850 Y92.353 E2.57920
G1 X106.612 Y92.560 E2.58638
G1 X106.596 Y92.617 E2.58771
G1 X106.515 Y92.661 E2.58979
G1 X106.416 Y92.763 E2.59304
G1 X106.433 Y92.962 E2.59756
G1 X106.204 Y93.203 E2.60514
G1 X106.204 Y93.393 E2.60946
G1 X105.587 Y94.042 E2.62980
G1 X105.568 Y94.432 E2.63868
G1 X109.104 Y90.896 E2.75233
G1 X109.104 Y91.207 E2.75939
G1 X109.317 Y91.211 E2.76422
G1 X109.318 Y91.417 E2.76890
G1 X109.381 Y91.418 E2.77033
G1 X109.269 Y91.525 E2.77384
G1 X108.811 Y91.560 E2.78429
G1 X108.548 Y91.823 E2.79275
G1 X108.265 Y92.122 E2.80210
G1 X108.263 Y92.323 E2.80666
G1 X107.847 Y92.762 E2.82040
G1 X107.848 Y92.941 E2.82448
G1 X107.416 Y93.396 E2.83874
G1 X107.417 Y93.464 E2.84029
G1 X96.380 Y104.501 E3.19511
G1 X96.450 Y104.505 E3.19671
G1 X96.450 Y105.066 E3.20947
G1 X96.261 Y105.254 E3.21553
G1 X96.251 Y105.511 E3.22138
G1 X106.550 Y95.212 E3.55248
G1 X106.992 Y95.277 E3.56265
G1 X107.172 Y95.264 E3.56675
G1 X107.366 Y95.277 E3.57115
G1 X98.136 Y104.507 E3.86787
G1 X98.331 Y104.490 E3.87232
G1 X98.437 Y104.384 E3.87573
G1 X98.561 Y104.384 E3.87853
G1 X98.660 Y104.304 E3.88143
G1 X99.252 Y104.271 E3.89492
G1 X108.040 Y95.484 E4.17743
G1 X108.067 Y95.661 E4.18150
G1 X108.262 Y95.669 E4.18593
G1 X108.265 Y95.870 E4.19051
G1 X108.475 Y95.870 E4.19530
G1 X108.475 Y95.929 E4.19664
G1 X100.356 Y104.049 E4.45767
G1 X101.251 Y104.035 E4.47803
G1 X108.899 Y96.387 E4.72390
G1 X108.900 Y96.505 E4.72660
G1 X109.104 Y96.508 E4.73124
G1 X109.106 Y96.721 E4.73608
G1 X109.305 Y96.722 E4.74060
G1 X109.316 Y96.850 E4.74353
G1 X103.163 Y103.003 E4.94136
G1 X103.304 Y103.002 E4.94457
G1 X103.742 Y102.600 E4.95808
G1 X103.941 Y102.599 E4.96261
G1 X103.968 Y102.580 E4.96336
G1 X104.463 Y102.584 E4.97463
G1 X109.746 Y97.301 E5.14446
G1 X109.747 Y97.359 E5.14576
G1 X109.960 Y97.359 E5.15060
G1 X109.964 Y97.554 E5.15502
G1 X110.349 Y97.580 E5.16378
G1 X106.204 Y101.724 E5.29701
G1 X106.514 Y101.694 E5.30409
G1 X106.702 Y101.524 E5.30987
G1 X107.142 Y101.505 E5.31987
G1 X107.333 Y101.316 E5.32596
G1 X107.500 Y101.310 E5.32976
G1 X111.012 Y97.797 E5.44267
G1 X111.440 Y97.803 E5.45241
G1 X111.438 Y97.986 E5.45657
G1 X111.702 Y97.988 E5.46257
G1 X110.296 Y99.394 E5.50776
G1 X110.960 Y99.379 E5.52285
G1 X111.152 Y99.183 E5.52908
G1 X111.392 Y99.179 E5.53454
G1 X112.542 Y98.029 E5.57153
G1 X112.722 Y98.030 E5.57562
G1 X112.756 Y98.189 E5.57930
G1 X113.249 Y98.203 E5.59051
G1 X112.282 Y99.170 E5.62158
G1 X113.152 Y99.181 E5.64135
G1 X114.011 Y98.322 E5.66897
G1 X114.029 Y98.403 E5.67085
G1 X114.613 Y98.438 E5.68415
G1 X114.635 Y98.579 E5.68738
G1 X113.842 Y99.386 E5.71311
G1 X114.673 Y99.402 E5.73202
G1 X114.676 Y99.419 E5.73242
G1 X115.260 Y98.835 E5.75120
G1 X115.316 Y98.837 E5.75247
G1 X115.324 Y98.858 E5.75299
G1 X115.460 Y98.858 E5.75607
G1 X115.489 Y99.054 E5.76057
G1 X115.885 Y99.078 E5.76959
G1 X115.172 Y99.804 E5.79271
G1 X115.749 Y100.107 F7800.000
G1 F1800
G1 X116.176 Y99.681 E5.80642
G1 X116.319 Y99.683 E5.80967
G1 X116.320 Y99.898 E5.81457
G1 X116.516 Y99.901 E5.81903
G1 X116.532 Y100.206 E5.82598
G1 X115.961 Y100.776 E5.84431
G1 X115.989 Y101.101 E5.85173
G1 X116.169 Y101.127 E5.85586
G1 X116.176 Y101.443 E5.86303
G1 X116.758 Y100.861 E5.88174
G1 X116.763 Y100.953 E5.88384
G1 X116.945 Y100.965 E5.88800
G1 X116.960 Y101.540 E5.90106
G1 X116.192 Y102.308 E5.92577
G1 X116.180 Y103.200 E5.94604
G1 X117.128 Y102.252 E5.97652
G1 X117.128 Y102.332 E5.97835
G1 X116.965 Y102.508 E5.98379
G1 X116.950 Y103.169 E5.99882
G1 X116.772 Y103.348 E6.00457
G1 X116.762 Y103.500 E6.00802
G1 X115.375 Y104.886 E6.05261
G1 X114.493 Y104.888 F7800.000
G1 F1800
G1 X115.022 Y104.358 E6.06963
G1 X115.628 Y104.351 E6.08339
G1 X115.844 Y104.136 E6.09032
G1 X116.036 Y104.133 E6.09470
G1 X116.385 Y103.785 E6.10592
G1 X116.386 Y103.622 E6.10961
G1 X116.405 Y103.559 E6.11112
G1 X116.600 Y103.365 E6.11736
G1 X116.607 Y102.774 E6.13080
G1 E4.13080 F2400.00000
G92 E0
G1 X114.017 Y101.840 F7800.000
G1 E2.00000 F2400.00000
G1 F1800
G1 X113.212 Y102.644 E2.02587
G1 X113.510 Y103.228 F7800.000
G1 F1800
G1 X113.576 Y103.243 E2.02742
G1 X113.576 Y103.161 E2.02927
G1 X113.084 Y103.654 E2.04511
G1 E0.04511 F2400.00000
G92 E0
G1 X104.463 Y102.584 F7800.000
G1 E2.00000 F2400.00000
G1 F1800
G1 X104.738 Y102.587 E2.00624
G1 X104.742 Y103.186 E2.01986
G1 X105.301 Y102.627 E2.03784
G1 X105.301 Y102.651 E2.03837
G1 X105.500 Y102.653 E2.04289
G1 X105.519 Y103.075 E2.05250
G1 X105.712 Y103.079 E2.05687
G1 X105.713 Y103.097 E2.05728
G1 X104.748 Y104.062 E2.08830
G1 X104.753 Y104.937 E2.10820
G1 X105.929 Y103.761 E2.14598
G1 X105.944 Y104.138 E2.15456
G1 X106.132 Y104.141 E2.15882
G1 X106.139 Y104.433 E2.16546
G1 X104.949 Y105.622 E2.20369
G1 X104.962 Y106.393 E2.22123
G1 X105.058 Y106.395 E2.22340
G1 X106.346 Y105.106 E2.26482
G1 X106.360 Y105.839 E2.28149
G1 X106.494 Y105.839 E2.28452
G1 X105.174 Y107.159 E2.32694
G1 X105.177 Y107.248 E2.32896
G1 X105.359 Y107.252 E2.33311
G1 X105.364 Y107.850 E2.34671
G1 X106.561 Y106.653 E2.38521
G1 X106.578 Y107.517 E2.40486
G1 X104.736 Y109.358 E2.46406
G1 X103.850 Y109.364 F7800.000
G1 F1800
G1 X105.259 Y107.954 E2.50936
G1 X104.678 Y108.020 E2.52267
G1 X104.367 Y107.966 E2.52984
G1 X102.973 Y109.360 E2.57466
G1 X102.095 Y109.357 E2.59461
G1 X103.466 Y107.986 E2.63868
G1 X103.165 Y108.007 E2.64555
G1 X102.561 Y108.010 E2.65928
G1 X101.421 Y109.150 E2.69593
G1 X100.549 Y109.141 E2.71576
G1 X101.512 Y108.178 E2.74672
G1 X100.964 Y108.188 E2.75917
G1 X100.787 Y108.367 E2.76492
G1 X100.442 Y108.367 E2.77275
G1 X99.427 Y109.382 E2.80537
G1 X99.273 Y109.386 E2.80888
G1 X99.210 Y109.449 E2.81091
G1 X99.210 Y109.170 E2.81725
G1 X99.010 Y109.165 E2.82180
G1 X99.010 Y108.972 E2.82619
G1 X98.964 Y108.965 E2.82726
G1 X99.953 Y107.975 E2.85907
G1 E0.85907 F2400.00000
G92 E0
G1 X97.871 Y104.772 F7800.000
G1 E2.00000 F2400.00000
G1 F1800
G1 X95.821 Y106.822 E2.06588
G1 X95.820 Y106.978 E2.06944
G1 X95.629 Y107.137 E2.07508
G1 X95.600 Y107.366 E2.08034
G1 X95.617 Y107.599 E2.08565
G1 X95.418 Y107.797 E2.09205
G1 X95.402 Y108.121 E2.09942
G1 X97.444 Y106.079 E2.16507
G1 X97.444 Y106.124 E2.16609
G1 X97.247 Y106.323 E2.17245
G1 X97.228 Y106.746 E2.18208
G1 X97.020 Y106.956 E2.18881
G1 X97.020 Y107.171 E2.19369
G1 X96.811 Y107.381 E2.20041
G1 X96.807 Y107.597 E2.20534
G1 X93.958 Y110.446 E2.29692
G1 X92.469 Y111.054 F7800.000
G1 F1800
G1 X94.286 Y109.238 E2.35532
G1 X93.969 Y109.242 E2.36252
G1 X93.770 Y109.439 E2.36889
G1 X93.521 Y109.421 E2.37457
G1 X93.178 Y109.465 E2.38243
G1 X91.152 Y111.491 E2.44756
G1 X91.016 Y111.490 E2.45064
G1 X90.822 Y111.676 E2.45676
G1 X90.366 Y111.704 E2.46715
G1 X90.185 Y111.887 E2.47298
G1 X89.870 Y111.892 E2.48014
G1 X91.877 Y109.885 E2.54466
G1 X91.838 Y109.891 E2.54555
G1 X91.665 Y110.086 E2.55149
G1 X91.464 Y110.083 E2.55604
G1 X91.246 Y110.293 E2.56292
G1 X91.003 Y110.302 E2.56845
G1 X90.801 Y110.502 E2.57492
G1 X90.579 Y110.487 E2.57996
G1 X90.363 Y110.518 E2.58493
G1 X88.770 Y112.111 E2.63614
G1 X88.037 Y112.127 E2.65280
G1 X87.427 Y112.730 E2.67232
G1 X87.260 Y112.740 E2.67612
G1 X88.394 Y111.606 E2.71256
G1 X88.354 Y111.615 E2.71348
G1 X88.023 Y111.567 E2.72108
G1 X87.691 Y111.560 E2.72862
G1 X87.691 Y111.429 E2.73162
G1 X86.708 Y112.411 E2.76320
G1 X86.709 Y112.338 E2.76484
G1 X86.500 Y112.335 E2.76960
G1 X86.499 Y112.121 E2.77447
G1 X86.431 Y112.120 E2.77603
G1 X86.704 Y111.849 E2.78478
G1 X86.704 Y111.781 E2.78633
G1 X87.264 Y111.802 E2.79907
G1 X87.264 Y111.855 E2.80027
G1 E0.80027 F2400.00000
G92 E0
G1 X95.696 Y104.304 F7800.000
G1 E2.00000 F2400.00000
G1 F1800
G1 X105.393 Y94.607 E2.31175
G1 X104.681 Y94.612 E2.32794
G1 X104.659 Y94.460 E2.33142
G1 X95.061 Y104.058 E2.63997
G1 X94.974 Y104.053 E2.64196
G1 X94.972 Y103.863 E2.64628
G1 X94.386 Y103.853 E2.65962
G1 X104.019 Y94.219 E2.96931
G1 X103.571 Y94.218 E2.97949
G1 X103.386 Y94.235 E2.98373
G1 X103.158 Y94.200 E2.98898
G1 X92.688 Y104.669 E3.32555
G1 X92.145 Y104.705 E3.33792
G1 X91.773 Y104.704 E3.34639
G1 X102.475 Y94.002 E3.69044
G1 X102.240 Y93.970 E3.69581
G1 X101.891 Y93.965 E3.70376
G1 X101.889 Y93.771 E3.70816
G1 X101.827 Y93.769 E3.70958
G1 X90.898 Y104.697 E4.06092
G1 X90.058 Y104.656 E4.08003
G1 X101.170 Y93.544 E4.43726
G1 X100.868 Y93.546 E4.44412
G1 X100.836 Y93.349 E4.44866
G1 X100.509 Y93.324 E4.45611
G1 X89.151 Y104.683 E4.82126
G1 X88.453 Y104.499 E4.83766
G1 X99.848 Y93.104 E5.20399
G1 X99.745 Y93.105 E5.20633
G1 X99.714 Y93.076 E5.20731
G1 X99.387 Y93.074 E5.21474
G1 X99.385 Y92.908 E5.21850
G1 X99.183 Y92.889 E5.22312
G1 X87.794 Y104.278 E5.58926
G1 X87.170 Y104.021 E5.60459
G1 X98.914 Y92.277 E5.98213
G1 X98.908 Y91.401 E6.00203
G1 X86.582 Y103.728 E6.39832
G1 X86.023 Y103.406 E6.41298
G1 X96.769 Y92.660 E6.75843
G1 X96.226 Y92.702 E6.77080
G1 X96.106 Y92.823 E6.77468
G1 X95.969 Y92.823 E6.77779
G1 X95.892 Y92.893 E6.78015
G1 X95.681 Y92.894 E6.78494
G1 X95.465 Y93.110 E6.79189
G1 X95.440 Y93.108 E6.79245
G1 X85.502 Y103.046 E7.11193
G1 X85.024 Y102.643 E7.12615
G1 X94.337 Y93.330 E7.42555
G1 X94.270 Y93.330 E7.42708
G1 X94.268 Y93.124 E7.43176
G1 X94.082 Y93.101 E7.43602
G1 X94.045 Y92.917 E7.44029
G1 X93.886 Y92.900 E7.44392
G1 X84.609 Y102.177 E7.74217
G1 X84.435 Y101.932 E7.74901
G1 X84.270 Y101.635 E7.75672
G1 X93.234 Y92.671 E8.04490
G1 X93.207 Y92.504 E8.04877
G1 X92.548 Y92.476 E8.06376
G1 X84.031 Y100.993 E8.33756
G1 X83.988 Y100.836 E8.34126
G1 X83.897 Y100.246 E8.35482
G1 X91.833 Y92.310 E8.60996
G1 X91.481 Y92.311 E8.61795
G1 X91.342 Y92.233 E8.62158
G1 X91.152 Y92.206 E8.62595
G1 X91.050 Y92.212 E8.62825
G1 X83.861 Y99.402 E8.85939
G1 X83.864 Y98.518 E8.87948
G1 X89.997 Y92.384 E9.07666
G1 X89.505 Y92.471 E9.08801
G1 X88.855 Y92.645 E9.10331
G1 X83.879 Y97.622 E9.26330
G1 X83.942 Y96.951 E9.27862
G1 X84.014 Y96.605 E9.28665
G1 X87.421 Y93.199 E9.39615
M104 S200 ; set temperature
G1 Z0.600 F7800.000
G1 E7.39615 F2400.00000
G92 E0
G1 X89.711 Y89.711 F7800.000
G1 E2.00000 F2400.00000
G1 F4800
G1 X89.012 Y89.012 E2.02351
G1 X89.281 Y89.281 F7800.000
G1 F4800
G1 X89.294 Y89.451 E2.02758
G1 X89.477 Y89.477 E2.03197
G1 X88.816 Y88.816 E2.05422
G1 X88.812 Y88.578 E2.05988
G1 X88.730 Y88.577 E2.06183
G1 X88.801 Y88.507 E2.06422
G1 X88.814 Y88.237 E2.07064
G1 X89.149 Y88.268 E2.07864
G1 X90.265 Y89.385 E2.11622
G1 X90.609 Y89.036 E2.12786
G1 X90.797 Y89.035 E2.13234
G1 X90.190 Y88.428 E2.15277
G1 X90.371 Y88.427 E2.15707
G1 X90.573 Y88.213 E2.16406
G1 X90.783 Y88.227 E2.16908
G1 X90.827 Y88.184 E2.17053
G1 X91.672 Y89.029 E2.19896
G1 X92.521 Y89.023 E2.21917
G1 X92.534 Y89.011 E2.21961
G1 X91.481 Y87.957 E2.25506
G1 X91.616 Y87.804 E2.25991
G1 X92.061 Y87.802 E2.27051
G1 X92.131 Y87.727 E2.27295
G1 X93.222 Y88.817 E2.30965
G1 X94.096 Y88.811 E2.33045
G1 X92.872 Y87.586 E2.37165
G1 X92.907 Y87.588 E2.37248
G1 X93.063 Y87.414 E2.37804
G1 X93.548 Y87.382 E2.38962
G1 X94.814 Y88.648 E2.43222
G1 X94.847 Y88.615 E2.43332
G1 X95.050 Y88.615 E2.43816
G1 X95.070 Y88.598 E2.43879
G1 X95.633 Y88.586 E2.45219
G1 X94.237 Y87.190 E2.49915
G1 X95.108 Y87.179 E2.51986
G1 X96.306 Y88.378 E2.56019
G1 X96.784 Y88.359 E2.57157
G1 X96.971 Y88.182 E2.57770
G1 X96.991 Y88.182 E2.57817
G1 X95.778 Y86.968 E2.61899
G1 X96.654 Y86.963 E2.63983
G1 X97.865 Y88.175 E2.68059
G1 X98.460 Y88.770 F7800.000
G1 F4800
G1 X98.460 Y88.647 E2.68352
G1 X98.337 Y88.647 E2.68645
G1 X98.926 Y89.235 E2.70624
G1 E0.70624 F2400.00000
G92 E0
G1 X98.528 Y87.076 F7800.000
G1 E2.00000 F2400.00000
G1 F4800
G1 X97.882 Y86.430 E2.02175
G1 X97.667 Y86.621 E2.02859
G1 X97.445 Y86.874 E2.03660
G1 X98.741 Y88.170 E2.08022
G1 X98.749 Y89.059 E2.10137
G1 X97.497 Y87.807 E2.14350
G1 X97.547 Y88.169 E2.15220
G1 X97.490 Y88.435 E2.15868
G1 X97.499 Y88.690 E2.16474
G1 X98.928 Y90.119 E2.21283
G1 X98.929 Y91.001 E2.23381
G1 X97.495 Y89.567 E2.28206
G1 X97.494 Y90.447 E2.30299
G1 X98.928 Y91.880 E2.35124
G1 X98.936 Y92.769 E2.37239
G1 X97.497 Y91.331 E2.42079
G1 X97.493 Y92.115 E2.43945
G1 X97.446 Y92.161 E2.44100
G1 X106.981 Y101.695 E2.76182
G1 X106.960 Y101.714 E2.76248
G1 X106.726 Y101.740 E2.76808
G1 X106.300 Y101.758 E2.77824
G1 X106.230 Y101.826 E2.78055
G1 X96.874 Y92.469 E3.09538
G1 X96.837 Y92.468 E3.09626
G1 X96.728 Y92.578 E3.09993
G1 X96.574 Y92.577 E3.10360
G1 X96.472 Y92.636 E3.10641
G1 X96.178 Y92.654 E3.11341
G1 X105.582 Y102.059 E3.42986
G1 X105.317 Y102.324 E3.43878
G1 X105.319 Y102.676 E3.44718
G1 X95.483 Y92.840 E3.77816
G1 X95.446 Y92.873 E3.77934
G1 X95.236 Y92.874 E3.78435
G1 X95.019 Y93.090 E3.79163
G1 X94.839 Y93.077 E3.79593
G1 X104.381 Y102.619 E4.11701
G1 X104.181 Y102.619 E4.12175
G1 X103.826 Y102.946 E4.13323
G1 X94.192 Y93.311 E4.45742
G1 X93.824 Y93.311 E4.46618
G1 X93.822 Y93.107 E4.47102
G1 X93.624 Y93.101 E4.47573
G1 X93.597 Y92.897 E4.48062
G1 X93.193 Y92.880 E4.49026
G1 X93.187 Y92.681 E4.49498
G1 X92.791 Y92.672 E4.50440
G1 X92.761 Y92.484 E4.50893
G1 X92.462 Y92.462 E4.51606
G1 X103.238 Y103.238 E4.87866
G1 X103.118 Y103.238 E4.88151
G1 X102.897 Y103.456 E4.88890
G1 X102.696 Y103.458 E4.89369
G1 X102.636 Y103.517 E4.89568
G1 X91.408 Y92.289 E5.27351
G1 X91.042 Y92.295 E5.28222
G1 X90.849 Y92.187 E5.28749
G1 X90.473 Y92.235 E5.29650
G1 X102.112 Y103.874 E5.68813
G1 X102.060 Y103.874 E5.68937
G1 X101.837 Y104.090 E5.69674
G1 X101.753 Y104.103 E5.69878
G1 X101.742 Y104.055 E5.69995
G1 X101.417 Y104.060 E5.70767
G1 X89.713 Y92.356 E6.10152
G1 X88.981 Y92.504 E6.11930
G1 X100.547 Y104.071 E6.50851
G1 X100.143 Y104.082 E6.51813
G1 X99.946 Y104.289 E6.52493
G1 X99.883 Y104.288 E6.52643
G1 X88.293 Y92.697 E6.91645
G1 X88.005 Y92.782 E6.92358
G1 X87.638 Y92.924 E6.93294
G1 X99.068 Y104.354 E7.31755
G1 X99.006 Y104.403 E7.31943
G1 X98.883 Y104.403 E7.32236
G1 X98.777 Y104.510 E7.32594
G1 X98.382 Y104.548 E7.33538
G1 X87.017 Y93.183 E7.71781
G1 X86.804 Y93.283 E7.72340
G1 X86.436 Y93.483 E7.73338
G1 X97.933 Y104.981 E8.12026
G1 X97.933 Y105.028 E8.12138
G1 X97.888 Y105.076 E8.12294
G1 X97.891 Y105.293 E8.12811
G1 X97.685 Y105.494 E8.13495
G1 X97.685 Y105.613 E8.13779
G1 X96.431 Y104.359 E8.18000
G1 X96.431 Y104.620 E8.18622
G1 X96.241 Y104.808 E8.19256
G1 X96.230 Y105.040 E8.19809
G1 X97.478 Y106.287 E8.24007
G1 X97.464 Y106.570 E8.24680
G1 X97.267 Y106.769 E8.25346
G1 X97.267 Y106.957 E8.25794
G1 X96.003 Y105.693 E8.30046
G1 X96.004 Y105.890 E8.30514
G1 X95.808 Y106.083 E8.31168
G1 X95.800 Y106.371 E8.31856
G1 X97.039 Y107.617 E8.36035
G1 X96.831 Y107.826 E8.36738
G1 X96.827 Y108.044 E8.37255
G1 X96.710 Y108.162 E8.37651
G1 X95.590 Y107.042 E8.41420
G1 X95.598 Y107.153 E8.41686
G1 X95.398 Y107.351 E8.42356
G1 X95.383 Y107.716 E8.43224
G1 X96.411 Y108.744 E8.46682
G1 X96.411 Y109.309 E8.48028
G1 X96.251 Y109.465 E8.48559
G1 X95.179 Y108.393 E8.52164
G1 X95.165 Y108.642 E8.52757
G1 X94.856 Y108.951 E8.53797
G1 X95.808 Y109.902 E8.56998
G1 X95.497 Y110.221 E8.58057
G1 X95.247 Y110.223 E8.58652
G1 X94.110 Y109.086 E8.62477
G1 X93.972 Y109.219 E8.62934
G1 X93.524 Y109.221 E8.63999
G1 X93.444 Y109.301 E8.64268
G1 X94.585 Y110.442 E8.68109
G1 X94.430 Y110.441 E8.68478
G1 X94.227 Y110.632 E8.69142
G1 X93.921 Y110.659 E8.69872
G1 X92.708 Y109.446 E8.73953
G1 X92.650 Y109.447 E8.74092
G1 X92.487 Y109.640 E8.74691
G1 X92.268 Y109.625 E8.75213
G1 X92.037 Y109.655 E8.75769
G1 X93.303 Y110.922 E8.80030
G1 X93.158 Y111.070 E8.80524
G1 X92.733 Y111.074 E8.81536
G1 X92.653 Y111.152 E8.81801
G1 X91.383 Y109.882 E8.86075
G1 X91.219 Y110.066 E8.86661
G1 X91.012 Y110.064 E8.87155
G1 X90.847 Y110.227 E8.87707
G1 X92.089 Y111.469 E8.91888
G1 X91.662 Y111.511 E8.92908
G1 X91.462 Y111.509 E8.93384
G1 X91.353 Y111.614 E8.93745
G1 X90.211 Y110.473 E8.97585
G1 X90.157 Y110.469 E8.97715
G1 X89.903 Y110.498 E8.98324
G1 X89.713 Y110.682 E8.98954
G1 X89.560 Y110.703 E8.99320
G1 X90.697 Y111.839 E9.03145
G1 X90.629 Y111.908 E9.03374
G1 X89.896 Y111.920 E9.05118
G1 X88.996 Y111.020 E9.08146
G1 X88.663 Y111.330 E9.09231
G1 X88.446 Y111.321 E9.09748
G1 X88.431 Y111.335 E9.09796
G1 X89.227 Y112.131 E9.12473
G1 X88.484 Y112.144 E9.14238
G1 X88.422 Y112.207 E9.14449
G1 X87.796 Y111.581 E9.16555
G1 X87.577 Y111.548 E9.17082
G1 X87.246 Y111.541 E9.17871
G1 X87.240 Y111.351 E9.18324
G1 X86.684 Y111.340 E9.19645
G1 X87.979 Y112.645 E9.24020
G1 X87.866 Y112.756 E9.24396
G1 X87.424 Y112.771 E9.25451
G1 X87.353 Y112.842 E9.25688
G1 X87.353 Y112.570 E9.26333
G1 X87.152 Y112.569 E9.26810
G1 X87.155 Y112.358 E9.27313
G1 X86.946 Y112.354 E9.27811
G1 X86.945 Y112.140 E9.28321
G1 X86.876 Y112.140 E9.28484
G1 X87.149 Y111.869 E9.29400
G1 X87.149 Y111.815 E9.29527
G1 E7.29527 F2400.00000
G92 E0
G1 X84.120 Y100.858 F7800.000
G1 E2.00000 F2400.00000
G1 F4800
G1 X86.936 Y103.674 E2.09477
G1 X87.470 Y103.949 E2.10905
G1 X88.079 Y104.209 E2.12482
G1 X88.507 Y104.364 E2.13564
G1 X83.860 Y99.716 E2.29203
G1 X83.830 Y99.451 E2.29838
G1 X83.808 Y98.783 E2.31427
G1 X89.718 Y104.694 E2.51316
G1 X90.072 Y104.762 E2.52173
G1 X90.244 Y104.675 E2.52630
G1 X90.582 Y104.677 E2.53435
G1 X83.809 Y97.904 E2.76227
G1 X83.845 Y97.059 E2.78239
G1 X91.507 Y104.721 E3.04023
G1 X92.391 Y104.724 E3.06127
G1 X83.965 Y96.298 E3.34481
G1 X84.055 Y95.964 E3.35305
G1 X84.186 Y95.638 E3.36140
G1 X93.230 Y104.682 E3.66572
G1 X93.394 Y104.677 E3.66963
G1 X93.587 Y104.503 E3.67581
G1 X93.780 Y104.506 E3.68042
G1 X93.858 Y104.429 E3.68302
G1 X84.506 Y95.077 E3.99770
G1 X84.760 Y94.745 E4.00766
G1 X84.908 Y94.598 E4.01261
G1 X94.402 Y104.092 E4.33210
G1 X94.632 Y103.872 E4.33967
G1 X95.069 Y103.878 E4.35007
G1 X85.372 Y94.181 E4.67637
G1 X85.598 Y94.003 E4.68321
G1 X85.887 Y93.815 E4.69141
G1 X95.942 Y103.870 E5.02976
G1 X95.990 Y103.870 E5.03091
G1 X95.990 Y103.918 E5.03205
G1 X96.582 Y104.510 E5.05196
G1 E3.05196 F2400.00000
G92 E0
G1 X98.789 Y108.479 F7800.000
G1 E2.00000 F2400.00000
G1 F4800
G1 X98.807 Y108.497 E2.00063
G1 X98.991 Y108.526 E2.00505
G1 X98.990 Y108.681 E2.00872
G1 X99.030 Y108.720 E2.01006
G1 X99.191 Y108.724 E2.01388
G1 X99.191 Y108.881 E2.01760
G1 X99.717 Y109.407 E2.03531
G1 X100.150 Y109.393 E2.04562
G1 X100.369 Y109.178 E2.05291
G1 X99.129 Y107.939 E2.09462
G1 X99.546 Y107.962 E2.10456
G1 X99.578 Y108.153 E2.10916
G1 X99.766 Y108.153 E2.11363
G1 X99.770 Y108.348 E2.11828
G1 X100.341 Y108.348 E2.13185
G1 X100.380 Y108.308 E2.13318
G1 X101.235 Y109.163 E2.16193
G1 X102.125 Y109.172 E2.18312
G1 X101.106 Y108.154 E2.21739
G1 X101.602 Y108.151 E2.22919
G1 X101.752 Y107.993 E2.23436
G1 X101.826 Y107.993 E2.23614
G1 X103.218 Y109.385 E2.28298
G1 X104.102 Y109.387 E2.30400
G1 X102.702 Y107.988 E2.35109
G1 X103.249 Y107.933 E2.36416
G1 X103.537 Y107.942 E2.37102
G1 X104.980 Y109.384 E2.41955
G1 X105.500 Y109.379 E2.43195
G1 X105.829 Y109.353 E2.43979
G1 X104.459 Y107.983 E2.48588
G1 X104.757 Y107.933 E2.49306
G1 X104.993 Y107.941 E2.49869
G1 X105.146 Y107.789 E2.50382
G1 X106.333 Y108.976 E2.54377
G1 X106.612 Y108.652 E2.55394
G1 X106.704 Y108.466 E2.55887
G1 X105.342 Y107.103 E2.60472
G1 X105.342 Y106.806 E2.61179
G1 X105.155 Y106.795 E2.61623
G1 X105.134 Y106.014 E2.63482
G1 X106.590 Y107.471 E2.68384
G1 X105.406 Y106.287 F7800.000
G1 F4800
G1 X105.406 Y106.412 E2.68683
G1 X105.534 Y106.414 E2.68987
G1 X104.940 Y105.821 E2.70983
G1 X104.926 Y104.926 E2.73113
G1 X106.576 Y106.576 E2.78666
G1 X106.555 Y106.285 E2.79360
G1 X106.375 Y106.285 E2.79789
G1 X106.365 Y105.484 E2.81696
G1 X106.321 Y105.441 E2.81842
G1 X106.168 Y105.446 E2.82208
G1 X106.166 Y105.286 E2.82590
G1 X104.722 Y103.841 E2.87452
G1 X104.721 Y102.959 E2.89550
G1 X105.950 Y104.188 E2.93684
G1 E0.93684 F2400.00000
G92 E0
G1 X110.260 Y99.689 F7800.000
G1 E2.00000 F2400.00000
G1 F4800
G1 X110.536 Y99.415 E2.00925
G1 X110.862 Y99.409 E2.01699
G1 X106.699 Y95.247 E2.15707
G1 X107.385 Y95.264 E2.17341
G1 X107.419 Y95.422 E2.17724
G1 X107.591 Y95.443 E2.18135
G1 X107.623 Y95.653 E2.18641
G1 X107.816 Y95.652 E2.19100
G1 X107.819 Y95.851 E2.19575
G1 X108.030 Y95.851 E2.20075
G1 X108.029 Y96.061 E2.20575
G1 X108.243 Y96.064 E2.21085
G1 X108.242 Y96.273 E2.21583
G1 X108.452 Y96.275 E2.22084
G1 X108.454 Y96.486 E2.22586
G1 X108.658 Y96.488 E2.23071
G1 X108.660 Y96.701 E2.23578
G1 X108.857 Y96.702 E2.24047
G1 X108.865 Y96.894 E2.24504
G1 X109.071 Y96.924 E2.25000
G1 X109.103 Y97.129 E2.25493
G1 X109.298 Y97.139 E2.25957
G1 X109.301 Y97.339 E2.26434
G1 X109.514 Y97.340 E2.26940
G1 X109.519 Y97.542 E2.27422
G1 X109.867 Y97.546 E2.28250
G1 X109.893 Y97.560 E2.28322
G1 X110.390 Y98.057 E2.29994
G1 X110.099 Y97.766 F7800.000
G1 F4800
G1 X111.567 Y99.234 E2.34932
G1 X111.597 Y99.203 E2.35036
G1 X112.402 Y99.189 E2.36952
G1 X111.182 Y97.968 E2.41058
G1 X111.616 Y97.971 E2.42091
G1 X111.833 Y98.028 E2.42624
G1 X112.104 Y98.009 E2.43270
G1 X113.291 Y99.196 E2.47264
G1 X113.749 Y99.200 E2.48353
G1 X113.764 Y99.220 E2.48413
G1 X113.873 Y99.228 E2.48674
G1 X114.206 Y99.231 E2.49467
G1 X113.188 Y98.212 E2.52893
G1 X113.325 Y98.233 E2.53222
G1 X113.548 Y98.223 E2.53752
G1 X113.585 Y98.392 E2.54165
G1 X113.917 Y98.392 E2.54954
G1 X114.167 Y98.419 E2.55553
G1 X114.199 Y98.620 E2.56039
G1 X114.476 Y98.619 E2.56697
G1 X115.063 Y99.206 E2.58671
G1 X115.215 Y99.359 F7800.000
G1 F4800
G1 X115.246 Y99.361 E2.58744
G1 X115.254 Y99.381 E2.58796
G1 X115.461 Y99.392 E2.59289
G1 X115.440 Y99.059 E2.60083
G1 X115.043 Y99.035 E2.61027
G1 X115.013 Y98.834 E2.61509
G1 X114.672 Y98.815 E2.62322
G1 X115.021 Y99.164 E2.63497
G1 X115.103 Y99.165 E2.63691
G1 X115.104 Y99.247 E2.63887
G1 X115.681 Y99.824 E2.65827
G1 X116.086 Y100.229 F7800.000
G1 F4800
G1 X116.088 Y100.002 E2.66366
G1 X116.070 Y99.992 E2.66416
G1 X116.069 Y99.881 E2.66679
G1 X115.874 Y99.879 E2.67141
G1 X115.873 Y99.663 E2.67654
G1 X115.722 Y99.661 E2.68013
G1 X115.724 Y99.867 E2.68501
G1 X116.347 Y100.490 E2.70598
G1 X116.290 Y100.433 F7800.000
G1 F4800
G1 X116.280 Y100.306 E2.70901
G1 X116.162 Y100.305 E2.71182
G1 X116.755 Y100.899 E2.73180
G1 X116.551 Y100.694 F7800.000
G1 F4800
G1 X115.939 Y100.082 E2.75240
G1 X115.941 Y100.396 E2.75988
G1 X115.970 Y100.655 E2.76608
G1 X116.156 Y100.682 E2.77056
G1 X116.163 Y101.188 E2.78259
G1 X116.982 Y102.006 E2.81013
G1 X116.985 Y102.466 E2.82107
G1 X117.148 Y102.466 E2.82496
G1 X117.148 Y102.778 E2.83239
G1 X117.015 Y102.921 E2.83701
G1 X116.172 Y102.077 E2.86540
G1 X116.159 Y102.945 E2.88607
G1 X116.899 Y103.685 E2.91097
G1 X116.783 Y103.802 E2.91488
G1 X116.758 Y104.215 E2.92473
G1 X116.653 Y104.320 E2.92826
G1 X115.940 Y103.607 E2.95227
G1 X115.940 Y103.765 E2.95604
G1 X115.590 Y104.114 E2.96779
G1 X115.566 Y104.113 E2.96837
G1 X116.183 Y104.731 E2.98915
G1 X116.056 Y104.731 E2.99217
G1 X115.875 Y104.906 E2.99816
G1 X115.483 Y104.912 E3.00748
G1 X114.905 Y104.334 E3.02692
G1 E1.02692 F2400.00000
G92 E0
G1 X113.986 Y102.534 F7800.000
G1 E2.00000 F2400.00000
G1 F4800
G1 X113.352 Y101.900 E2.02134
G1 X113.326 Y101.951 E2.02271
G1 X113.269 Y101.978 E2.02420
G1 X113.181 Y102.066 E2.02717
G1 X113.200 Y102.284 E2.03238
G1 X113.010 Y102.439 E2.03821
G1 X113.599 Y103.028 E2.05803
G1 X113.596 Y103.689 E2.07375
G1 X113.471 Y103.660 E2.07679
G1 X113.475 Y102.904 E2.09478
G1 E0.09478 F2400.00000
G92 E0
G1 X114.383 Y99.407 F7800.000
G1 E2.00000 F2400.00000
G1 F4800
G1 X113.820 Y98.844 E2.01895
G1 X113.818 Y98.766 E2.02081
G1 X113.741 Y98.765 E2.02263
G1 E0.02263 F2400.00000
G92 E0
G1 X109.249 Y90.749 F7800.000
G1 E2.00000 F2400.00000
G1 F4800
G1 X108.500 Y90.001 E2.02518
G1 X108.432 Y90.100 E2.02804
G1 X108.374 Y90.112 E2.02945
G1 X108.280 Y90.206 E2.03261
G1 X108.248 Y90.282 E2.03456
G1 X108.178 Y90.308 E2.03634
G1 X108.062 Y90.444 E2.04058
G1 X109.123 Y91.505 E2.07629
G1 X109.124 Y91.653 E2.07980
G1 X109.274 Y91.656 E2.08338
G1 X109.337 Y91.718 E2.08548
G1 X109.338 Y91.863 E2.08893
G1 X109.401 Y91.864 E2.09042
G1 X109.259 Y91.998 E2.09505
G1 X108.838 Y91.998 E2.10508
G1 X108.787 Y92.049 E2.10680
G1 X107.291 Y90.553 E2.15714
G1 X107.669 Y90.931 F7800.000
G1 F4800
G1 X107.128 Y90.390 E2.17534
G1 X106.934 Y90.337 E2.18013
G1 X106.582 Y90.350 E2.18852
G1 X106.541 Y90.156 E2.19325
G1 X106.335 Y90.172 E2.19816
G1 X105.979 Y90.123 E2.20670
G1 X108.352 Y92.496 E2.28655
G1 X108.285 Y92.563 E2.28882
G1 X108.282 Y92.768 E2.29371
G1 X108.023 Y93.047 E2.30276
G1 X106.831 Y91.855 E2.34286
G1 X106.831 Y91.907 E2.34408
G1 X106.593 Y92.115 E2.35160
G1 X106.576 Y92.171 E2.35300
G1 X106.496 Y92.215 E2.35517
G1 X106.403 Y92.309 E2.35831
G1 X107.675 Y93.580 E2.40110
G1 X107.654 Y93.622 E2.40222
G1 X107.436 Y93.837 E2.40950
G1 X107.436 Y94.031 E2.41411
G1 X107.340 Y94.127 E2.41733
G1 X106.176 Y92.962 E2.45653
G1 X105.741 Y93.408 E2.47135
G1 X106.904 Y94.571 E2.51047
G1 X106.583 Y94.898 E2.52138
G1 X106.573 Y95.121 E2.52669
G1 X105.509 Y94.057 E2.56248
G1 X105.348 Y94.195 E2.56753
G1 X105.347 Y94.227 E2.56828
G1 X105.246 Y94.307 E2.57136
G1 X105.077 Y94.506 E2.57757
G1 X110.260 Y99.689 E2.75199
G1 X109.818 Y100.128 E2.76681
G1 X104.282 Y94.592 E2.95309
G1 X104.692 Y95.002 F7800.000
G1 F4800
G1 X104.058 Y94.368 E2.97441
G1 X103.827 Y94.376 E2.97993
G1 X103.788 Y94.199 E2.98423
G1 X103.018 Y94.209 E3.00255
G1 X109.506 Y100.697 E3.22087
G1 X109.269 Y100.700 E3.22652
G1 X108.938 Y101.010 E3.23730
G1 X101.892 Y93.964 E3.47439
G1 X101.445 Y93.945 E3.48504
G1 X101.443 Y93.746 E3.48979
G1 X100.841 Y93.742 E3.50412
G1 X100.810 Y93.535 E3.50910
G1 X100.573 Y93.526 E3.51476
G1 X108.358 Y101.310 E3.77671
G1 X107.783 Y101.331 E3.79039
G1 X107.639 Y101.473 E3.79520
G1 X99.223 Y93.056 E4.07841
G1 F4800
G1 X99.268 Y93.057 E4.07948
G1 X99.299 Y93.086 E4.08051
G1 X99.441 Y93.085 E4.08387
G1 X99.456 Y93.106 E4.08449
G1 X99.761 Y93.112 E4.09174
G1 X99.787 Y93.304 E4.09637
G1 X100.117 Y93.303 E4.10422
G1 X100.374 Y93.327 E4.11036
G1 X100.858 Y93.811 E4.12666
G1 E2.12666 F2400.00000
G92 E0
G1 X102.193 Y90.741 F7800.000
G1 E2.00000 F2400.00000
G1 F4800
G1 X101.298 Y89.846 E2.03010
G1 X101.576 Y90.124 F7800.000
G1 F4800
G1 X101.576 Y90.253 E2.03319
G1 X101.509 Y90.311 E2.03530
G1 X101.763 Y90.311 E2.04136
G1 X101.111 Y89.659 E2.06332
G1 X101.110 Y89.556 E2.06577
G1 X101.314 Y89.354 E2.07259
G1 X101.314 Y89.284 E2.07426
G1 X101.635 Y89.302 E2.08192
G1 X102.770 Y90.437 E2.12011
G1 X102.905 Y90.303 E2.12462
G1 X103.526 Y90.312 E2.13941
G1 X102.709 Y89.495 E2.16691
G1 X103.130 Y89.496 E2.17693
G1 X103.345 Y89.555 E2.18223
G1 X103.637 Y89.542 E2.18918
G1 X105.228 Y91.133 E2.24272
G1 X105.580 Y91.149 E2.25111
G1 X105.611 Y91.331 E2.25551
G1 X106.342 Y91.367 E2.27292
G1 X104.901 Y89.925 E2.32143
G1 X105.795 Y89.939 E2.34272
G1 X106.375 Y90.519 E2.36224
G1 X105.877 Y90.901 F7800.000
G1 F4800
G1 X105.989 Y90.903 E2.36491
G1 X105.991 Y91.015 E2.36758
G1 X106.534 Y91.558 E2.38585
G1 X105.325 Y90.349 F7800.000
G1 F4800
G1 X104.691 Y89.715 E2.40717
G1 X104.040 Y89.706 E2.42266
G1 X104.004 Y89.546 E2.42658
G1 X103.637 Y89.542 E2.43531
G1 X103.061 Y89.847 F7800.000
G1 F4800
G1 X103.223 Y89.847 E2.43916
G1 X103.225 Y90.011 E2.44305
G1 X103.254 Y90.040 E2.44403
G1 X103.420 Y90.041 E2.44799
G1 X103.449 Y90.235 E2.45265
G1 X103.927 Y90.713 E2.46873
G1 Z0.900 F7800.000
G1 E0.46873 F2400.00000
G92 E0
G1 X101.554 Y88.756 F7800.000
G1 E2.00000 F2400.00000
G1 F4800
G1 X100.966 Y89.344 E2.01980
G1 X101.066 Y89.846 E2.03199
G1 X100.929 Y90.171 E2.04038
G1 X100.555 Y90.399 E2.05078
G1 X100.120 Y90.502 E2.06144
G1 X99.895 Y90.597 E2.06725
G1 X100.200 Y90.608 E2.07451
G1 X100.460 Y90.570 E2.08077
G1 X100.459 Y90.540 E2.08149
G1 X100.711 Y90.480 E2.08765
G1 X102.084 Y89.106 E2.13387
G1 X102.386 Y89.167 E2.14118
G1 X102.370 Y89.197 E2.14198
G1 X102.639 Y89.433 E2.15050
G1 X101.259 Y90.813 E2.19693
G1 X101.366 Y90.946 E2.20101
G1 X101.417 Y91.146 E2.20591
G1 X101.256 Y91.506 E2.21530
G1 X101.198 Y91.755 E2.22138
G1 X101.389 Y91.563 E2.22783
G1 X101.456 Y91.301 E2.23427
G1 X101.425 Y91.275 E2.23522
G1 X101.616 Y90.944 E2.24431
G1 X101.727 Y90.810 E2.24844
G1 X102.184 Y90.646 E2.26000
G1 X102.196 Y90.666 E2.26056
G1 X102.352 Y90.507 E2.26586
G1 X102.457 Y90.495 E2.26838
G1 X102.477 Y90.415 E2.27034
G1 X102.544 Y90.409 E2.27193
G1 X103.448 Y89.505 E2.30236
G1 X104.221 Y89.512 E2.32075
G1 X104.226 Y89.422 E2.32289
G1 X104.392 Y89.441 E2.32688
G1 X103.238 Y90.596 E2.36573
G1 X103.566 Y90.776 E2.37464
G1 X103.526 Y90.854 E2.37675
G1 X103.765 Y90.949 E2.38288
G1 X105.158 Y89.556 E2.42975
G1 X105.884 Y89.711 E2.44741
G1 X104.400 Y91.195 E2.49733
G1 X105.065 Y91.411 E2.51395
G1 X106.585 Y89.891 E2.56511
G1 X107.257 Y90.100 E2.58186
G1 X105.758 Y91.599 E2.63229
G1 X105.927 Y91.642 E2.63643
G1 X105.972 Y91.575 E2.63837
G1 X106.476 Y91.687 E2.65064
G1 X106.496 Y91.742 E2.65204
G1 X107.837 Y90.401 E2.69715
G1 X108.039 Y90.485 E2.70235
G1 X108.449 Y90.503 E2.71213
G1 X108.743 Y90.263 E2.72116
G1 X109.055 Y90.064 E2.72997
G1 X106.325 Y92.794 E2.82184
G1 E0.82184 F2400.00000
G92 E0
G1 X109.049 Y100.642 F7800.000
G1 E2.00000 F2400.00000
G1 F4800
G1 X109.200 Y100.552 E2.00419
G1 X109.456 Y100.356 E2.01186
G1 X109.666 Y100.143 E2.01897
G1 X110.053 Y99.637 E2.03412
G1 X108.583 Y101.107 E2.08356
G1 E0.08356 F2400.00000
G92 E0
G1 X105.496 Y102.433 F7800.000
G1 E2.00000 F2400.00000
G1 F4800
G1 X104.649 Y103.279 E2.02847
G1 X104.779 Y103.452 E2.03363
G1 X104.735 Y104.074 E2.04846
G1 X105.765 Y103.044 E2.08311
G1 X106.010 Y103.615 E2.09789
G1 X106.099 Y103.591 E2.10008
G1 X104.692 Y104.998 E2.14743
G1 X104.778 Y105.793 E2.16644
G1 X106.303 Y104.268 E2.21776
G1 X106.477 Y104.975 E2.23509
G1 X104.898 Y106.554 E2.28823
G1 X105.055 Y107.278 E2.30585
G1 X106.623 Y105.710 E2.35859
G1 X106.731 Y106.483 E2.37715
G1 X105.235 Y107.979 E2.42750
G1 X105.656 Y109.320 F7800.000
G1 F4800
G1 X106.848 Y108.128 E2.46761
G1 X106.733 Y107.912 E2.47342
G1 X106.732 Y107.481 E2.48368
G1 X106.818 Y107.452 E2.48585
G1 X106.808 Y107.286 E2.48978
G1 X104.558 Y109.537 E2.56550
G1 X104.198 Y109.560 E2.57410
G1 X103.649 Y109.564 E2.58714
G1 X105.680 Y107.534 E2.65546
G1 X105.209 Y107.856 E2.66903
G1 X104.512 Y107.821 E2.68562
G1 X102.773 Y109.560 E2.74416
G1 X101.954 Y109.498 E2.76369
G1 X103.635 Y107.817 E2.82025
G1 X102.715 Y107.856 E2.84216
G1 X101.255 Y109.316 E2.89130
G1 X100.562 Y109.128 E2.90837
G1 X101.589 Y108.101 E2.94294
G1 X100.923 Y108.292 E2.95943
G1 X100.792 Y108.275 E2.96257
G1 X100.603 Y108.206 E2.96736
G1 X98.936 Y109.873 E3.02345
G1 X98.923 Y109.406 E3.03457
G1 X98.754 Y109.174 E3.04140
G1 X100.100 Y107.828 E3.08668
G1 X99.860 Y107.784 E3.09248
G1 X99.547 Y107.597 E3.10117
G1 X99.511 Y107.536 E3.10285
G1 X98.957 Y108.090 E3.12149
G1 X98.980 Y108.010 E3.12347
G1 X98.583 Y107.584 E3.13733
G1 X99.148 Y107.019 E3.15634
G1 X99.423 Y107.625 F7800.000
G1 F4800
G1 X99.269 Y108.163 E3.16965
G1 X98.842 Y108.325 E3.18052
G1 X98.712 Y108.336 E3.18363
G1 X98.084 Y108.964 E3.20476
G1 E1.20476 F2400.00000
G92 E0
G1 X97.600 Y105.924 F7800.000
G1 E2.00000 F2400.00000
G1 F4800
G1 X97.209 Y106.934 E2.02577
G1 X97.007 Y107.398 E2.03781
G1 X93.641 Y110.763 E2.15106
G1 X92.168 Y111.355 F7800.000
G1 F4800
G1 X94.564 Y108.960 E2.23166
G1 X94.196 Y109.041 E2.24061
G1 X93.372 Y109.271 E2.26097
G1 X90.859 Y111.784 E2.34552
G1 X89.894 Y112.032 E2.36923
G1 X89.878 Y111.941 E2.37142
G1 X89.810 Y111.952 E2.37307
G1 X92.034 Y109.728 E2.44790
G1 X91.480 Y109.940 E2.46200
G1 X90.511 Y110.370 E2.48722
G1 X88.806 Y112.074 E2.54459
G1 X88.504 Y112.063 E2.55178
G1 X88.396 Y112.023 E2.55452
G1 X88.549 Y111.865 E2.55974
G1 X88.888 Y111.595 E2.57006
G1 X89.536 Y111.190 E2.58825
G1 X89.490 Y111.111 E2.59041
G1 X90.046 Y110.835 E2.60518
G1 E0.60518 F2400.00000
G92 E0
G1 X86.400 Y110.957 F7800.000
G1 E2.00000 F2400.00000
G1 F4800
G1 X86.230 Y110.766 E2.00609
G1 X85.958 Y110.543 E2.01446
G1 X85.990 Y110.629 E2.01665
G1 X86.146 Y110.880 E2.02368
G1 X86.299 Y111.058 E2.02926
G1 X86.865 Y110.492 E2.04830
G1 X87.133 Y110.891 E2.05972
G1 X87.248 Y110.991 E2.06334
G1 X86.928 Y111.311 E2.07411
G1 X86.908 Y111.500 E2.07864
G1 X86.539 Y111.699 E2.08861
G1 X85.999 Y112.239 E2.10678
G1 X86.411 Y112.383 E2.11717
G1 X86.374 Y112.527 E2.12070
G1 X86.457 Y112.662 E2.12448
G1 X87.833 Y111.286 E2.17080
G1 X88.019 Y111.487 E2.17732
G1 X88.164 Y111.727 E2.18399
G1 X88.192 Y111.721 E2.18466
G1 X88.166 Y111.733 E2.18535
G1 X88.128 Y111.872 E2.18877
G1 X87.059 Y112.941 E2.22476
G1 X86.904 Y113.096 F7800.000
G1 F4800
G1 X86.830 Y113.340 E2.23082
G1 X86.782 Y113.651 E2.23830
G1 X86.929 Y113.423 E2.24476
G1 X87.012 Y113.240 E2.24955
G1 X87.142 Y112.858 E2.25914
G1 X86.438 Y113.562 E2.28281
G1 E0.28281 F2400.00000
G92 E0
G1 X86.999 Y93.621 F7800.000
G1 E2.00000 F2400.00000
G1 F4800
G1 X86.593 Y93.811 E2.01067
G1 X85.985 Y94.157 E2.02732
G1 X85.349 Y94.601 E2.04576
G1 X84.823 Y95.064 E2.06244
G1 X84.593 Y95.324 E2.07070
G1 X84.312 Y95.731 E2.08248
G1 X84.077 Y96.195 E2.09484
G1 X83.903 Y96.717 E2.10794
G1 X87.464 Y93.155 E2.22778
G1 X87.688 Y93.050 E2.23367
G1 X88.372 Y92.790 E2.25108
G1 X88.849 Y92.651 E2.26291
G1 X83.830 Y97.670 E2.43180
G1 X83.805 Y98.576 E2.45336
G1 X90.022 Y92.359 E2.66254
G1 X90.373 Y92.283 E2.67109
G1 X91.088 Y92.174 E2.68830
G1 X83.811 Y99.451 E2.93318
G1 X83.836 Y100.043 E2.94726
G1 X83.747 Y100.048 E2.94939
G1 X83.789 Y100.354 E2.95673
G1 X92.057 Y92.087 E3.23492
G1 X92.204 Y92.077 E3.23843
G1 X92.905 Y92.119 E3.25514
G1 X83.958 Y101.066 E3.55620
G1 X84.014 Y101.245 E3.56065
G1 X84.214 Y101.691 E3.57229
G1 X93.614 Y92.292 E3.88858
G1 X93.787 Y92.356 E3.89297
G1 X94.144 Y92.574 E3.90292
G1 X94.123 Y92.622 E3.90417
G1 X94.145 Y92.641 E3.90487
G1 X84.562 Y102.224 E4.22733
G1 X84.781 Y102.493 E4.23559
G1 X84.980 Y102.687 E4.24219
G1 X94.741 Y92.926 E4.57065
G1 X94.825 Y92.934 E4.57266
G1 X94.947 Y92.898 E4.57568
G1 X95.737 Y92.464 E4.59712
G1 X96.330 Y92.218 E4.61239
G1 X85.468 Y103.080 E4.97787
G1 X85.986 Y103.443 E4.99291
G1 X99.069 Y90.360 E5.43314
G1 X99.044 Y91.266 E5.45469
G1 X86.549 Y103.761 E5.87514
G1 X87.143 Y104.047 E5.89084
G1 X99.180 Y92.011 E6.29586
G1 X99.248 Y92.060 E6.29784
G1 X99.252 Y92.110 E6.29904
G1 X99.455 Y92.295 E6.30558
G1 X99.688 Y92.384 E6.31150
G1 X87.778 Y104.293 E6.71224
G1 X88.038 Y104.387 E6.71881
G1 X88.451 Y104.502 E6.72901
G1 X100.313 Y92.640 E7.12815
G1 X100.915 Y92.919 E7.14394
G1 X89.144 Y104.690 E7.54003
G1 X89.870 Y104.844 E7.55769
G1 X101.505 Y93.209 E7.94921
G1 X102.101 Y93.494 E7.96492
G1 X90.630 Y104.965 E8.35090
G1 X91.432 Y105.045 E8.37007
G1 X102.719 Y93.757 E8.74987
G1 X103.150 Y93.932 E8.76094
G1 X103.371 Y93.986 E8.76635
G1 X92.327 Y105.030 E9.13796
G1 X92.722 Y104.974 E9.14745
G1 X93.131 Y104.857 E9.15758
G1 X93.457 Y104.708 E9.16610
G1 X93.573 Y104.627 E9.16946
G1 X93.560 Y104.586 E9.17049
G1 X93.896 Y104.315 E9.18075
G1 X93.929 Y104.309 E9.18156
G1 X104.131 Y94.107 E9.52483
G1 X104.299 Y94.118 E9.52883
G1 X104.592 Y94.199 E9.53606
G1 X104.809 Y94.310 E9.54187
G1 X94.737 Y104.382 E9.88081
G1 X95.312 Y104.688 E9.89631
G1 X109.137 Y90.863 E10.36152
G1 X109.219 Y91.128 E10.36812
G1 X109.384 Y91.311 E10.37397
G1 X108.816 Y91.492 E10.38815
G1 X108.658 Y91.615 E10.39291
G1 X108.488 Y91.932 E10.40147
G1 X108.547 Y91.996 E10.40354
G1 X108.230 Y92.523 E10.41818
G1 X107.962 Y92.919 E10.42953
G1 X95.904 Y104.977 E10.83529
G1 X96.041 Y105.460 E10.84723
G1 X96.008 Y105.547 E10.84943
G1 X96.037 Y105.595 E10.85077
G1 X95.967 Y105.795 E10.85581
G1 X106.757 Y95.005 E11.21888
G1 X106.761 Y95.042 E11.21976
G1 X107.283 Y95.257 E11.23321
G1 X107.355 Y95.159 E11.23611
G1 X107.479 Y95.164 E11.23907
G1 X95.518 Y107.125 E11.64154
G1 X95.261 Y108.048 E11.66436
G1 X95.203 Y108.321 E11.67099
G1 X97.134 Y106.389 E11.73599
G1 X97.315 Y105.884 E11.74875
G1 X97.384 Y105.808 E11.75119
G1 X97.370 Y105.783 E11.75189
G1 X97.542 Y105.502 E11.75972
G1 X97.663 Y105.382 E11.76380
G1 X97.713 Y105.259 E11.76696
G1 X97.965 Y105.173 E11.77329
G1 X98.013 Y105.136 E11.77473
G1 X98.528 Y104.995 E11.78743
G1 X108.204 Y95.320 E12.11300
G1 X108.533 Y95.509 E12.12203
G1 X108.735 Y95.670 E12.12817
G1 X99.944 Y104.460 E12.42397
G1 X100.486 Y104.331 E12.43722
G1 X100.685 Y104.251 E12.44234
G1 X100.800 Y104.240 E12.44507
G1 X100.895 Y104.198 E12.44755
G1 X100.909 Y104.168 E12.44835
G1 X101.162 Y104.123 E12.45447
G1 X109.173 Y96.113 E12.72401
G1 X109.585 Y96.581 E12.73886
G1 X102.496 Y103.670 E12.97740
G1 X103.682 Y103.075 E13.00897
G1 X104.035 Y102.927 E13.01808
G1 X104.068 Y102.949 E13.01901
G1 X104.130 Y102.918 E13.02067
G1 X110.030 Y97.017 E13.21921
G1 X110.327 Y97.231 E13.22791
G1 X110.572 Y97.357 E13.23445
G1 X105.945 Y101.983 E13.39012
G1 X107.191 Y101.619 E13.42099
G1 X111.276 Y97.534 E13.55845
G1 X111.626 Y97.580 E13.56687
G1 X112.026 Y97.664 E13.57659
G1 X109.750 Y99.940 E13.65317
G1 X109.906 Y99.824 E13.65779
G1 X110.099 Y99.721 E13.66300
G1 X110.329 Y99.646 E13.66876
G1 X110.572 Y99.607 E13.67461
G1 X110.995 Y99.576 E13.68470
G1 X112.790 Y97.782 E13.74509
G1 X113.558 Y97.894 E13.76356
G1 X111.941 Y99.511 E13.81797
G1 X112.780 Y99.553 E13.83795
G1 X114.305 Y98.028 E13.88925
G1 X114.568 Y98.087 E13.89566
G1 X114.975 Y98.239 E13.90601
G1 X113.583 Y99.631 E13.95285
G1 X114.311 Y99.784 E13.97054
G1 X115.560 Y98.535 E14.01258
G1 X115.772 Y98.659 E14.01843
G1 X116.087 Y98.889 E14.02770
G1 X114.935 Y100.041 E14.06646
G1 X115.155 Y100.198 E14.07290
G1 X115.387 Y100.470 E14.08139
G1 X116.527 Y99.329 E14.11977
G1 X116.750 Y99.638 E14.12882
G1 X116.865 Y99.873 E14.13504
G1 X115.685 Y101.053 E14.17474
G1 X115.836 Y101.484 E14.18562
G1 X115.895 Y101.724 E14.19149
G1 X117.081 Y100.537 E14.23142
G1 X117.208 Y100.990 E14.24261
G1 X117.251 Y101.248 E14.24884
G1 X115.992 Y102.508 E14.29122
G1 X115.932 Y103.444 E14.31355
G1 X115.886 Y103.437 E14.31466
G1 X115.878 Y103.502 E14.31622
G1 X117.308 Y102.073 E14.36432
G1 X117.307 Y102.367 E14.37132
G1 X117.228 Y102.948 E14.38526
G1 X117.197 Y103.065 E14.38814
G1 X115.049 Y105.212 E14.46042
G1 X114.239 Y105.141 F7800.000
G1 F4800
G1 X115.363 Y104.017 E14.49825
G1 X115.079 Y104.026 E14.50503
G1 X114.821 Y103.992 E14.51120
G1 X114.576 Y103.923 E14.51726
G1 X113.648 Y104.851 E14.54848
G1 X113.508 Y104.746 E14.55266
G1 X113.197 Y104.421 E14.56335
G1 X114.040 Y103.578 E14.59170
G1 X113.940 Y103.466 E14.59530
G1 X113.840 Y103.150 E14.60318
G1 X113.741 Y103.105 E14.60576
G1 X113.731 Y103.006 E14.60811
G1 X112.862 Y103.875 E14.63735
G1 X112.816 Y103.677 E14.64220
G1 X112.831 Y103.080 E14.65640
G1 X112.836 Y103.021 E14.65780
G1 X114.368 Y101.488 E14.70938
G1 X114.615 Y103.003 F7800.000
G1 F4800
G1 X115.308 Y102.310 E14.73270
G1 X115.206 Y102.062 E14.73910
G1 X114.942 Y101.796 E14.74801
G1 X114.119 Y102.619 E14.77571
G1 X113.419 Y102.549 E14.79243
G1 X113.273 Y103.010 E14.80394
G1 X113.246 Y103.266 E14.81006
G1 X113.266 Y103.472 E14.81498
G1 E12.81498 F2400.00000
G92 E0
G1 X97.311 Y91.237 F7800.000
G1 E2.00000 F2400.00000
G1 F4800
G1 X99.055 Y89.493 E2.05868
G1 X98.999 Y88.668 E2.07836
G1 X97.307 Y90.360 E2.13531
G1 X97.338 Y89.448 E2.15702
G1 X98.918 Y87.868 E2.21018
G1 X98.901 Y87.746 E2.21311
G1 X98.809 Y87.762 E2.21534
G1 X98.699 Y87.206 E2.22883
G1 X97.400 Y88.505 E2.27252
G1 X96.850 Y88.245 E2.28701
G1 X96.749 Y88.275 E2.28950
G1 X98.476 Y86.549 E2.34759
G1 X98.411 Y86.452 E2.35036
G1 X98.299 Y86.661 E2.35602
G1 X98.131 Y86.853 E2.36210
G1 X97.922 Y86.963 E2.36772
G1 X97.221 Y86.923 E2.38443
G1 X95.538 Y88.606 E2.44106
G1 X94.423 Y88.839 E2.46814
G1 X96.388 Y86.874 E2.53426
G1 X95.398 Y86.984 E2.55798
G1 X93.380 Y89.002 E2.62588
G1 X92.391 Y89.109 E2.64955
G1 X94.351 Y87.149 E2.71551
G1 X93.230 Y87.389 E2.74278
G1 X91.578 Y89.042 E2.79839
G1 X91.118 Y89.027 E2.80932
G1 X90.753 Y88.985 E2.81807
G1 X91.993 Y87.745 E2.85979
G1 X88.978 Y89.880 F7800.000
G1 F4800
G1 X90.503 Y88.354 E2.91112
G1 X90.231 Y88.306 E2.91771
G1 X90.237 Y88.164 E2.92109
G1 X90.147 Y88.098 E2.92375
G1 X89.954 Y88.022 E2.92868
G1 X88.605 Y89.372 E2.97410
G1 X88.199 Y89.261 E2.98411
G1 X88.140 Y89.371 E2.98709
G1 X87.791 Y89.543 E2.99634
G1 X87.441 Y89.654 E3.00507
G1 X88.097 Y88.999 E3.02713
G1 X88.302 Y88.889 E3.03266
G1 X88.752 Y88.735 E3.04397
G1 X89.220 Y88.298 E3.05922
G1 X89.156 Y88.208 E3.06186
G1 X89.131 Y87.965 E3.06766
G1 X89.199 Y87.897 E3.06995
G1 X88.723 Y87.492 E3.08482
G1 X88.155 Y88.060 E3.10393
G1 X87.934 Y87.903 E3.11038
G1 X87.705 Y87.662 E3.11828
G1 X87.977 Y87.778 E3.12532
G1 X88.258 Y87.957 E3.13324
M106 S242.25
G1 Z1.200 F7800.000
G1 E1.13324 F2400.00000
G92 E0
G1 X90.681 Y88.904 F7800.000
G1 E2.00000 F2400.00000
G1 F1200
G1 X90.187 Y88.409 E2.01904
G1 X89.803 Y88.339 E2.02968
G1 X89.586 Y88.174 E2.03711
G1 X89.354 Y88.098 E2.04375
G1 X89.213 Y88.096 E2.04759
G1 X89.008 Y88.137 E2.05328
G1 X90.255 Y89.385 E2.10132
G1 X90.177 Y89.491 E2.10492
G1 X90.098 Y89.554 E2.10768
G1 X89.991 Y89.602 E2.11085
G1 X89.946 Y89.602 E2.11209
G1 X89.852 Y89.678 E2.11539
G1 X89.718 Y89.579 E2.11993
G1 X89.662 Y89.699 E2.12354
G1 X88.609 Y88.646 E2.16408
G1 X88.303 Y88.775 E2.17313
G1 X88.843 Y88.922 E2.18837
G1 X88.891 Y89.084 E2.19295
G1 X88.987 Y89.080 E2.19556
G1 X88.993 Y89.525 E2.20768
G1 X88.951 Y89.895 E2.21783
G1 X89.445 Y90.390 E2.23687
G1 E0.23687 F2400.00000
G92 E0
G1 X91.542 Y88.018 F7800.000
G1 E2.00000 F2400.00000
G1 F4800
G1 X92.389 Y88.865 E2.02851
G1 X93.236 Y88.832 E2.04869
G1 X92.182 Y87.777 E2.08418
G1 X92.865 Y87.580 E2.10111
G1 X94.031 Y88.745 E2.14032
G1 X94.791 Y88.624 E2.15863
G1 X93.580 Y87.414 E2.19937
G1 X94.324 Y87.276 E2.21736
G1 X95.523 Y88.476 E2.25771
G1 X96.222 Y88.293 E2.27489
G1 X95.100 Y87.171 E2.31265
G1 X95.916 Y87.107 E2.33215
G1 X96.890 Y88.081 E2.36491
G1 X97.451 Y87.851 E2.37934
G1 X97.557 Y87.867 E2.38188
G1 X96.809 Y87.119 E2.40703
G1 X97.164 Y87.168 E2.41556
G1 X97.392 Y87.303 E2.42186
G1 X97.795 Y87.224 E2.43163
G1 X98.569 Y87.998 E2.45769
G1 X98.764 Y89.074 F7800.000
G1 F4800
G1 X97.690 Y88.000 E2.49383
G1 X97.586 Y88.777 E2.51249
G1 X98.836 Y90.027 E2.55455
G1 X98.852 Y90.923 E2.57588
G1 X97.529 Y89.601 E2.62039
G1 X97.515 Y90.468 E2.64102
G1 X99.186 Y92.139 E2.69726
G1 X99.248 Y92.228 E2.69983
G1 X99.392 Y92.368 E2.70462
G1 X99.428 Y92.380 E2.70551
G1 E0.70551 F2400.00000
G92 E0
G1 X101.154 Y89.702 F7800.000
G1 E2.00000 F2400.00000
G1 F4800
G1 X102.120 Y90.668 E2.03252
G1 X102.608 Y90.275 F7800.000
G1 F4800
G1 X101.650 Y89.317 E2.06473
G1 X101.830 Y89.354 E2.06911
G1 X101.941 Y89.405 E2.07201
G1 X102.051 Y89.501 E2.07546
G1 X102.176 Y89.723 E2.08154
G1 X102.142 Y89.809 E2.08375
G1 X103.786 Y89.691 F7800.000
G1 F4800
G1 X105.151 Y91.056 E2.12968
G1 X105.769 Y91.257 E2.14516
G1 X106.402 Y91.426 E2.16074
G1 X104.779 Y89.803 E2.21535
G1 X105.916 Y90.059 E2.24308
G1 X108.296 Y92.439 E2.32317
G1 X108.597 Y91.860 E2.33871
G1 X107.257 Y90.519 E2.38380
G1 X107.793 Y90.757 E2.39774
G1 X108.210 Y90.592 E2.40842
G1 X108.836 Y91.217 E2.42946
G1 X107.968 Y92.992 F7800.000
G1 F4800
G1 X106.879 Y91.904 E2.46608
G1 X106.875 Y91.946 E2.46709
G1 X106.519 Y92.424 E2.48128
G1 X107.612 Y93.517 E2.51807
G1 X107.234 Y94.020 E2.53304
G1 X106.167 Y92.954 E2.56891
G1 X105.840 Y93.507 E2.58421
G1 X106.830 Y94.497 E2.61754
G1 X106.533 Y94.818 E2.62795
G1 X106.530 Y95.078 E2.63413
G1 X105.547 Y94.095 E2.66721
G1 X105.146 Y94.336 E2.67835
G1 X105.103 Y94.295 E2.67977
G1 X104.935 Y94.364 E2.68409
G1 X110.391 Y99.820 E2.86768
G1 X110.220 Y99.943 E2.87269
G1 X109.940 Y100.249 E2.88258
G1 X103.652 Y93.962 E3.09415
G1 X103.554 Y93.910 E3.09678
G1 X103.511 Y93.995 E3.09905
G1 X102.129 Y93.320 E3.13564
G1 X109.529 Y100.720 E3.38463
G1 X109.267 Y100.929 E3.39261
G1 X109.010 Y101.082 E3.39972
G1 X100.446 Y92.517 E3.68792
G1 X99.682 Y92.186 E3.70772
G1 X98.962 Y91.915 E3.72602
G1 X108.397 Y101.350 E4.04349
G1 X107.725 Y101.559 E4.06024
G1 X97.472 Y91.305 E4.40525
G1 X97.471 Y91.327 E4.40578
G1 X97.135 Y91.622 E4.41641
G1 X97.046 Y91.566 E4.41892
G1 X96.893 Y91.607 E4.42269
G1 X107.044 Y101.758 E4.76426
G1 X106.383 Y101.978 E4.78084
G1 X96.199 Y91.795 E5.12350
G1 X95.539 Y92.015 E5.14007
G1 X105.802 Y102.278 E5.48540
G1 X105.599 Y102.393 E5.49094
G1 X105.551 Y102.600 E5.49600
G1 X105.500 Y102.604 E5.49720
G1 X105.442 Y102.799 E5.50204
G1 X95.005 Y92.362 E5.85322
G1 X94.450 Y92.688 E5.86853
G1 X104.651 Y102.889 E6.21179
G1 X104.076 Y103.195 E6.22729
G1 X93.171 Y92.290 E6.59423
G1 X92.735 Y92.162 E6.60505
G1 X92.345 Y92.101 E6.61444
G1 X92.083 Y92.083 E6.62070
G1 X103.502 Y103.502 E7.00497
G1 X103.243 Y103.641 E7.01196
G1 X103.197 Y103.553 E7.01432
G1 X102.848 Y103.729 E7.02362
G1 X91.144 Y92.025 E7.41744
G1 X90.378 Y92.140 E7.43587
G1 X102.228 Y103.989 E7.83460
G1 X101.635 Y104.277 E7.85029
G1 X89.637 Y92.279 E8.25401
G1 X88.923 Y92.446 E8.27146
G1 X101.037 Y104.561 E8.67909
G1 X100.424 Y104.828 E8.69501
G1 X88.231 Y92.636 E9.10527
G1 X87.568 Y92.853 E9.12188
G1 X99.800 Y105.085 E9.53347
G1 X99.267 Y105.275 E9.54693
G1 X99.145 Y105.312 E9.54995
G1 X86.934 Y93.101 E9.96084
G1 X86.340 Y93.387 E9.97654
G1 X98.430 Y105.478 E10.38337
G1 X98.134 Y105.509 E10.39046
G1 X97.961 Y105.687 E10.39637
G1 X97.798 Y105.726 E10.40036
G1 X85.786 Y93.714 E10.80456
G1 X85.272 Y94.082 E10.81958
G1 X96.421 Y105.230 E11.19471
G1 X95.727 Y104.998 E11.21214
G1 X95.758 Y104.940 E11.21370
G1 X94.890 Y104.430 E11.23765
G1 X94.750 Y104.440 E11.24100
G1 X84.803 Y94.494 E11.57569
G1 X84.452 Y94.882 E11.58816
G1 X84.396 Y94.967 E11.59057
G1 X94.056 Y104.627 E11.91562
G1 X93.766 Y104.789 E11.92352
G1 X93.452 Y104.904 E11.93147
G1 X84.071 Y95.523 E12.24713
G1 X83.950 Y95.771 E12.25370
G1 X84.036 Y95.800 E12.25585
G1 X83.904 Y96.237 E12.26673
G1 X92.708 Y105.041 E12.56297
G1 X91.931 Y105.059 E12.58146
G1 X91.929 Y105.143 E12.58347
G1 X83.757 Y96.970 E12.85845
G1 X83.688 Y97.783 E12.87785
G1 X90.919 Y105.014 E13.12116
G1 X89.817 Y104.793 E13.14791
G1 X83.681 Y98.657 E13.35437
G1 X83.742 Y99.599 E13.37684
G1 X88.622 Y104.479 E13.54103
G1 X87.692 Y104.160 E13.56442
G1 X87.214 Y103.952 E13.57682
G1 X83.997 Y100.734 E13.68509
G1 E11.68509 F2400.00000
G92 E0
G1 X89.187 Y111.210 F7800.000
G1 E2.00000 F2400.00000
G1 F4800
G1 X89.783 Y111.806 E2.02006
G1 X90.115 Y111.793 E2.02796
G1 X90.577 Y111.719 E2.03909
G1 X89.697 Y110.839 E2.06870
G1 X90.267 Y110.528 E2.08415
G1 X91.292 Y111.553 E2.11863
G1 X91.973 Y111.354 E2.13553
G1 X90.866 Y110.246 E2.17280
G1 X91.490 Y109.989 E2.18885
G1 X92.630 Y111.130 E2.22723
G1 X93.265 Y110.883 E2.24343
G1 X92.133 Y109.752 E2.28151
G1 X92.801 Y109.539 E2.29819
G1 X93.877 Y110.615 E2.33439
G1 X94.464 Y110.321 E2.35001
G1 X93.494 Y109.351 E2.38264
G1 X93.706 Y109.303 E2.38780
G1 X94.231 Y109.207 E2.40050
G1 X95.015 Y109.991 E2.42690
G1 X95.879 Y109.093 F7800.000
G1 F4800
G1 X95.882 Y109.130 E2.42778
G1 X95.827 Y109.249 E2.43090
G1 X95.934 Y109.148 E2.43440
G1 X95.414 Y108.628 E2.45190
G1 X95.412 Y108.327 E2.45906
G1 X95.478 Y107.811 E2.47143
G1 X96.317 Y108.650 E2.49965
G1 X96.635 Y108.087 E2.51503
G1 X95.635 Y107.087 E2.54866
G1 X95.828 Y106.399 E2.56566
G1 X96.923 Y107.494 E2.60249
G1 X97.186 Y106.876 E2.61847
G1 X96.046 Y105.736 E2.65682
G1 X96.157 Y105.433 E2.66451
G1 X96.083 Y104.893 E2.67747
G1 X97.427 Y106.236 E2.72269
G1 E0.72269 F2400.00000
G92 E0
G1 X99.519 Y109.209 F7800.000
G1 E2.00000 F2400.00000
G1 F4800
G1 X99.546 Y109.253 E2.00124
G1 X99.561 Y109.372 E2.00409
G1 X99.561 Y109.578 E2.00900
G1 X99.760 Y109.450 E2.01463
G1 X99.054 Y108.744 E2.03840
G1 X98.913 Y108.527 E2.04455
G1 X98.719 Y108.399 E2.05008
G1 X98.988 Y108.200 E2.05803
G1 X99.195 Y108.005 E2.06481
G1 X100.290 Y109.099 E2.10164
G1 X101.221 Y108.268 F7800.000
G1 F4800
G1 X102.175 Y109.222 E2.13376
G1 X102.323 Y109.247 E2.13732
G1 X103.169 Y109.336 E2.15757
G1 X101.957 Y108.123 E2.19837
G1 X102.761 Y108.047 E2.21759
G1 X104.073 Y109.359 E2.26175
G1 X104.917 Y109.322 E2.28184
G1 X103.620 Y108.025 E2.32548
G1 X104.550 Y108.074 E2.34764
G1 X105.701 Y109.224 E2.38635
G1 X106.032 Y109.161 E2.39438
G1 X106.403 Y109.046 E2.40362
G1 X105.321 Y107.964 E2.44002
G1 X105.562 Y107.696 E2.44859
G1 X105.456 Y107.522 E2.45344
G1 X105.477 Y107.444 E2.45536
G1 X105.380 Y107.142 E2.46292
G1 X106.553 Y108.314 E2.50237
G1 X106.568 Y108.005 E2.50974
G1 X106.553 Y107.434 E2.52334
G1 X105.097 Y105.978 E2.57232
G1 X104.949 Y104.949 E2.59705
G1 X106.446 Y106.446 E2.64742
G1 X106.230 Y105.349 E2.67403
G1 X104.900 Y104.019 E2.71877
G1 X104.928 Y103.501 E2.73111
G1 X104.980 Y103.218 E2.73797
G1 X105.789 Y104.027 E2.76520
G1 E0.76520 F2400.00000
G92 E0
G1 X106.769 Y95.316 F7800.000
G1 E2.00000 F2400.00000
G1 F4800
G1 X111.053 Y99.601 E2.14416
G1 X111.839 Y99.506 E2.16300
G1 X107.729 Y95.396 E2.30130
G1 X107.938 Y95.480 E2.30666
G1 X108.120 Y95.588 E2.31169
G1 X108.375 Y95.780 E2.31929
G1 X108.611 Y95.997 E2.32692
G1 X109.317 Y96.763 E2.35170
G1 X109.698 Y97.106 E2.36391
G1 X110.030 Y97.319 E2.37328
G1 X110.212 Y97.402 E2.37804
G1 X110.532 Y97.500 E2.38601
G1 X110.748 Y97.534 E2.39122
G1 X112.735 Y99.521 E2.45807
G1 X113.672 Y99.577 E2.48041
G1 X111.803 Y97.708 E2.54330
G1 X112.837 Y97.862 E2.56819
G1 X114.743 Y99.767 E2.63232
G1 X116.543 Y99.806 F7800.000
G1 F4800
G1 X115.587 Y98.850 E2.66449
G1 X115.428 Y98.730 E2.66923
G1 X114.947 Y98.446 E2.68252
G1 X114.461 Y98.218 E2.69528
G1 X114.068 Y98.079 E2.70520
G1 X113.898 Y98.041 E2.70936
G1 X116.903 Y101.046 E2.81046
G1 X117.029 Y101.689 E2.82605
G1 X117.062 Y102.087 E2.83555
G1 X116.124 Y101.148 E2.86712
G1 X116.192 Y101.534 E2.87644
G1 X116.210 Y102.115 E2.89026
G1 X117.036 Y102.941 E2.91805
G1 X116.952 Y103.411 E2.92940
G1 X116.880 Y103.666 E2.93572
G1 X116.154 Y102.940 E2.96014
G1 X116.101 Y103.282 E2.96836
G1 X116.020 Y103.522 E2.97440
G1 X115.961 Y103.628 E2.97728
G1 X116.591 Y104.258 E2.99848
G1 X116.414 Y104.488 E3.00538
G1 X116.150 Y104.698 E3.01341
G1 X115.559 Y104.107 E3.03330
G1 X115.366 Y104.203 E3.03843
G1 X115.127 Y104.286 E3.04444
G1 X114.893 Y104.322 E3.05008
G1 X115.474 Y104.903 E3.06961
G1 X115.019 Y104.878 E3.08045
G1 X114.917 Y104.826 E3.08316
G1 X114.574 Y104.729 E3.09166
G1 X114.414 Y104.652 E3.09586
G1 X114.805 Y104.792 E3.10574
G1 X115.358 Y104.787 E3.11891
G1 E1.11891 F2400.00000
G92 E0
G1 X87.947 Y111.929 F7800.000
G1 E2.00000 F2400.00000
G1 F1200
G1 X87.453 Y111.435 E2.02263
G1 X86.515 Y111.575 F7800.000
G1 F1200
G1 X87.548 Y112.609 E2.06994
G1 E0.06994 F2400.00000
G92 E0
G1 X113.361 Y104.017 F7800.000
G1 E2.00000 F2400.00000
G1 F1200
G1 X113.858 Y104.514 E2.02180
G1 X113.691 Y103.314 F7800.000
G1 F1200
G1 X113.197 Y102.820 E2.04348
G1 X114.006 Y102.538 F7800.000
G1 F1200
G1 X113.281 Y101.813 E2.07665
G1 X114.514 Y101.967 F7800.000
G1 F1200
G1 X115.008 Y102.462 E2.09928
M106 S237.15
G1 Z1.500 F7800.000
G1 E0.09928 F2400.00000
G92 E0
G1 X87.290 Y112.598 F7800.000
G1 E2.00000 F2400.00000
G1 F1200
G1 X87.878 Y112.003 E2.02706
G1 X87.950 Y111.828 E2.03319
G1 X87.931 Y111.658 E2.03875
G1 X87.864 Y111.548 E2.04291
G1 X87.768 Y111.467 E2.04697
G1 X87.680 Y111.426 E2.05011
G1 X87.435 Y111.374 E2.05822
G1 X86.723 Y112.086 E2.09082
G1 X86.708 Y111.996 E2.09378
G1 X86.807 Y111.899 E2.09824
G1 X86.794 Y111.760 E2.10274
G1 X86.941 Y111.868 E2.10864
G1 E0.10864 F2400.00000
G92 E0
G1 X89.620 Y111.283 F7800.000
G1 E2.00000 F2400.00000
G1 F1200
G1 X89.125 Y111.778 E2.01923
G1 X89.216 Y111.789 E2.02176
G1 X89.630 Y111.771 E2.03314
G1 X90.143 Y111.675 E2.04746
G1 X91.687 Y110.131 E2.10747
G1 X92.346 Y109.870 E2.12694
G1 X93.111 Y109.622 E2.14903
G1 X91.368 Y111.366 E2.21676
G1 X91.819 Y111.223 E2.22977
G1 X92.629 Y110.922 E2.25350
G1 X92.803 Y110.846 E2.25872
G1 X94.355 Y109.294 E2.31901
G1 X94.942 Y109.200 E2.33534
G1 X95.176 Y109.186 E2.34177
G1 X95.362 Y109.203 E2.34690
G1 X94.854 Y109.710 E2.36662
G1 E0.36662 F2400.00000
G92 E0
G1 X98.872 Y108.945 F7800.000
G1 E2.00000 F2400.00000
G1 F1200
G1 X99.836 Y107.982 E2.03730
G1 X100.209 Y108.687 F7800.000
G1 F1200
G1 X99.714 Y109.182 E2.05643
G1 E0.05643 F2400.00000
G92 E0
G1 X101.815 Y108.667 F7800.000
G1 E2.00000 F2400.00000
G1 F1200
G1 X101.716 Y108.682 E2.00275
G1 X101.745 Y108.737 E2.00446
G1 X102.310 Y108.172 E2.02632
G1 X102.669 Y108.118 E2.03626
G1 X103.329 Y108.065 E2.05437
G1 X102.132 Y109.262 E2.10068
G1 X102.979 Y109.327 E2.12392
G1 X104.252 Y108.054 E2.17321
G1 X104.765 Y108.073 E2.18725
G1 X105.110 Y108.108 E2.19675
G1 X103.893 Y109.325 E2.24385
G1 X104.877 Y109.253 E2.27084
G1 X106.541 Y107.589 E2.33528
G1 X106.523 Y107.941 E2.34492
G1 X106.549 Y108.019 E2.34719
G1 X106.518 Y108.164 E2.35125
G1 X106.626 Y108.417 E2.35876
G1 X106.131 Y108.911 E2.37791
G1 X105.453 Y107.766 F7800.000
G1 F1200
G1 X106.508 Y106.710 E2.41878
G1 X106.469 Y106.293 E2.43024
G1 X106.408 Y105.898 E2.44118
G1 X105.255 Y107.051 E2.48582
G1 X105.095 Y106.299 E2.50686
G1 X106.260 Y105.134 E2.55197
G1 X106.185 Y104.787 E2.56169
G1 X106.073 Y104.409 E2.57247
G1 X104.982 Y105.499 E2.61466
G1 X104.935 Y104.957 E2.62958
G1 X104.929 Y104.640 E2.63823
G1 X105.843 Y103.727 E2.67360
G1 X105.682 Y103.381 E2.68404
G1 X105.521 Y103.137 E2.69205
G1 X105.027 Y103.631 E2.71119
G1 E0.71119 F2400.00000
G92 E0
G1 X115.905 Y104.478 F7800.000
G1 E2.00000 F2400.00000
G1 F1200
G1 X116.401 Y103.982 E2.02109
G1 X116.519 Y103.844 E2.02655
G1 X116.681 Y103.584 E2.03576
G1 X116.870 Y103.146 E2.05012
G1 X116.989 Y102.632 E2.06599
G1 X117.018 Y102.363 E2.07412
G1 X116.202 Y103.179 E2.10882
G1 X116.232 Y102.657 E2.12452
G1 X116.225 Y102.154 E2.13967
G1 X117.017 Y101.362 E2.17335
G1 X117.007 Y101.216 E2.17777
G1 X116.865 Y100.512 E2.19936
G1 X116.053 Y101.323 E2.23388
G1 X115.926 Y100.990 E2.24462
G1 X115.735 Y100.639 E2.25663
G1 X116.230 Y100.144 E2.27767
G1 X115.276 Y99.699 F7800.000
G1 F4800
G1 X115.789 Y99.187 E2.29492
G1 X115.653 Y99.111 E2.29862
G1 X115.559 Y99.019 E2.30174
G1 X115.252 Y98.843 E2.31017
G1 X114.662 Y99.433 E2.33005
G1 X114.171 Y99.306 E2.34211
G1 X113.945 Y99.269 E2.34756
G1 X114.652 Y98.562 E2.37138
G1 X114.269 Y98.425 E2.38107
G1 X113.975 Y98.358 E2.38824
G1 X113.129 Y99.204 E2.41669
G1 X112.260 Y99.192 E2.43738
G1 X113.235 Y98.217 E2.47021
G1 X112.504 Y98.067 E2.48796
G1 X111.340 Y99.231 E2.52713
G1 X110.969 Y99.368 E2.53655
G1 X110.557 Y99.446 E2.54652
G1 X110.212 Y99.542 E2.55505
G1 X110.235 Y99.647 E2.55760
G1 X110.074 Y99.713 E2.56174
G1 X109.777 Y99.913 E2.57025
G1 X111.787 Y97.904 E2.63787
G1 X111.514 Y97.785 E2.64496
G1 X111.117 Y97.692 E2.65465
G1 X107.312 Y101.497 E2.78269
G1 X106.732 Y101.688 E2.79722
G1 X106.661 Y101.738 E2.79927
G1 X106.368 Y101.854 E2.80676
G1 X106.161 Y101.966 E2.81236
G1 X106.119 Y101.882 E2.81461
G1 X105.981 Y101.948 E2.81825
G1 X110.553 Y97.375 E2.97212
G1 X110.293 Y97.211 E2.97945
G1 X110.044 Y97.004 E2.98715
G1 X104.130 Y102.918 E3.18616
G1 X102.223 Y103.943 E3.23767
G1 X109.608 Y96.559 E3.48615
G1 X109.180 Y96.106 E3.50097
G1 X100.374 Y104.911 E3.79726
G1 X99.641 Y105.230 E3.81629
G1 X98.938 Y105.466 E3.83393
G1 X108.689 Y95.716 E4.16202
G1 X108.352 Y95.529 E4.17120
G1 X108.082 Y95.441 E4.17793
G1 X97.923 Y105.601 E4.51980
G1 X97.352 Y105.483 E4.53365
G1 X97.147 Y105.576 E4.53901
G1 X96.852 Y105.868 E4.54888
G1 X96.629 Y106.514 E4.56514
G1 X96.335 Y107.189 E4.58268
G1 X95.880 Y107.644 E4.59798
G1 X96.021 Y107.014 E4.61334
G1 X96.197 Y106.446 E4.62749
G1 X107.302 Y95.341 E5.00115
G1 X106.953 Y95.276 E5.00958
G1 X106.755 Y95.153 E5.01512
G1 X106.695 Y95.066 E5.01764
G1 X96.367 Y105.395 E5.36518
G1 X96.202 Y105.169 E5.37184
G1 X95.826 Y105.055 E5.38120
G1 X106.400 Y94.481 E5.73702
G1 X106.223 Y94.301 E5.74302
G1 X105.675 Y94.325 E5.75609
G1 X95.166 Y104.834 E6.10969
G1 X94.931 Y104.753 E6.11560
G1 X94.901 Y104.833 E6.11765
G1 X94.480 Y104.639 E6.12867
G1 X104.798 Y94.321 E6.47587
G1 X104.221 Y94.017 E6.49138
G1 X93.340 Y104.898 E6.85753
G1 X93.113 Y104.999 E6.86343
G1 X92.728 Y105.104 E6.87293
G1 X92.192 Y105.165 E6.88577
G1 X103.646 Y93.711 E7.27120
G1 X103.076 Y93.401 E7.28666
G1 X91.339 Y105.137 E7.68158
G1 X90.730 Y105.064 E7.69618
G1 X90.716 Y105.161 E7.69851
G1 X90.479 Y105.116 E7.70426
G1 X102.504 Y93.091 E8.10888
G1 X101.933 Y92.781 E8.12434
G1 X89.748 Y104.967 E8.53436
G1 X89.037 Y104.796 E8.55175
G1 X101.357 Y92.477 E8.96630
G1 X101.269 Y92.430 E8.96867
G1 X101.273 Y92.386 E8.96972
G1 X101.228 Y92.413 E8.97096
G1 X100.766 Y92.187 E8.98321
G1 X88.344 Y104.608 E9.40119
G1 X87.670 Y104.402 E9.41796
G1 X100.150 Y91.921 E9.83792
G1 X99.496 Y91.695 E9.85440
G1 X87.025 Y104.165 E10.27402
G1 X86.494 Y103.936 E10.28779
G1 X86.538 Y103.851 E10.29007
G1 X86.486 Y103.824 E10.29147
G1 X98.887 Y91.423 E10.70873
G1 X98.706 Y91.426 E10.71303
G1 X98.607 Y91.082 E10.72153
G1 X98.621 Y90.808 E10.72807
G1 X97.769 Y91.660 E10.75674
G1 X97.731 Y90.817 E10.77682
G1 X98.627 Y89.921 E10.80697
G1 X98.568 Y89.099 E10.82658
G1 X97.763 Y89.904 E10.85368
G1 X97.830 Y89.328 E10.86748
G1 X97.928 Y88.858 E10.87890
G1 X98.415 Y88.371 E10.89529
G1 E8.89529 F2400.00000
G92 E0
G1 X104.696 Y90.018 F7800.000
G1 E2.00000 F2400.00000
G1 F4800
G1 X104.178 Y90.536 E2.01743
G1 X104.365 Y90.651 E2.02263
G1 X104.769 Y90.826 E2.03312
G1 X105.509 Y90.086 E2.05802
G1 X106.226 Y90.250 E2.07552
G1 X105.420 Y91.056 E2.10263
G1 X105.964 Y91.205 E2.11605
G1 X106.119 Y91.239 E2.11981
G1 X106.897 Y90.460 E2.14601
G1 X107.224 Y90.582 E2.15431
G1 X107.512 Y90.726 E2.16198
G1 X106.878 Y91.360 E2.18331
G1 X106.685 Y93.315 F7800.000
G1 F4800
G1 X106.509 Y93.656 E2.19243
G1 X106.335 Y94.124 E2.20431
G1 X106.800 Y93.696 E2.21936
G1 X107.214 Y93.216 E2.23444
G1 X107.627 Y92.645 E2.25119
G1 X108.011 Y91.989 E2.26928
G1 X106.220 Y93.781 E2.32956
G1 E0.32956 F2400.00000
G92 E0
G1 X109.303 Y100.387 F7800.000
G1 E2.00000 F2400.00000
G1 F4800
G1 X109.565 Y100.182 E2.00792
G1 X110.024 Y99.666 E2.02435
G1 X108.838 Y100.852 E2.06426
G1 X87.746 Y92.874 F7800.000
G1 F4800
G1 X83.730 Y96.889 E2.19938
G1 X83.610 Y97.433 E2.21262
G1 X83.536 Y97.965 E2.22540
G1 X89.042 Y92.459 E2.41068
G1 X90.208 Y92.174 E2.43923
G1 X83.493 Y98.888 E2.66516
G1 X83.544 Y99.718 E2.68495
G1 X91.240 Y92.023 E2.94390
G1 X91.245 Y92.062 E2.94485
G1 X92.172 Y91.971 E2.96702
G1 X83.673 Y100.471 E3.25302
G1 X83.761 Y100.825 E3.26172
G1 X83.869 Y101.155 E3.26998
G1 X93.024 Y92.000 E3.57803
G1 X93.398 Y92.077 E3.58711
G1 X93.714 Y92.191 E3.59511
G1 X84.141 Y101.764 E3.91726
G1 X84.300 Y102.034 E3.92470
G1 X84.488 Y102.298 E3.93242
G1 X94.263 Y92.524 E4.26131
G1 X94.322 Y92.563 E4.26302
G1 X94.380 Y92.484 E4.26534
G1 X94.615 Y92.523 E4.27101
G1 X94.865 Y92.530 E4.27697
G1 X95.364 Y92.303 E4.29001
G1 X84.919 Y102.748 E4.64145
G1 X85.398 Y103.150 E4.65633
G1 X96.546 Y92.002 E5.03145
G1 X97.764 Y91.665 E5.06151
G1 X85.921 Y103.508 E5.45999
G1 E3.45999 F2400.00000
G92 E0
G1 X101.940 Y90.523 F7800.000
G1 E2.00000 F2400.00000
G1 F1200
G1 X102.436 Y90.027 E2.02268
G1 X102.541 Y89.898 E2.02807
G1 X102.616 Y89.709 E2.03466
G1 X102.598 Y89.667 E2.03614
G1 X102.502 Y89.510 E2.04209
G1 X102.401 Y89.423 E2.04641
G1 X102.301 Y89.377 E2.04996
G1 X102.060 Y89.324 E2.05794
G1 X101.290 Y90.094 E2.09321
G1 X101.245 Y89.901 E2.09962
G1 X101.263 Y89.651 E2.10774
G1 X101.566 Y89.818 E2.11894
G1 E0.11894 F2400.00000
G92 E0
G1 X98.066 Y88.085 F7800.000
G1 E2.00000 F2400.00000
G1 F1200
G1 X98.561 Y87.590 E2.02053
G1 X98.518 Y87.423 E2.02560
G1 X98.417 Y87.173 E2.03352
G1 X98.359 Y87.231 E2.03591
G1 X97.875 Y87.326 E2.05040
G1 X97.857 Y87.316 E2.05101
G1 X97.297 Y87.876 E2.07428
G1 X96.966 Y87.827 E2.08411
G1 X96.336 Y88.083 E2.10406
G1 X96.008 Y88.186 E2.11416
G1 X97.068 Y87.126 E2.15818
G1 X96.650 Y87.121 E2.17046
G1 X96.097 Y87.149 E2.18673
G1 X96.103 Y87.392 E2.19388
G1 X95.810 Y87.405 E2.20248
G1 X94.698 Y88.517 E2.24867
G1 X93.809 Y88.686 E2.27524
G1 X93.517 Y88.720 E2.28387
G1 X94.959 Y87.278 E2.34376
G1 X94.174 Y87.414 E2.36716
G1 X93.743 Y87.515 E2.38016
G1 X92.436 Y88.822 E2.43444
G1 X91.984 Y88.838 E2.44774
G1 X92.143 Y88.561 E2.45712
G1 X91.890 Y88.390 E2.46611
G1 X92.384 Y87.895 E2.48664
G1 E0.48664 F2400.00000
G92 E0
G1 X90.075 Y88.891 F7800.000
G1 E2.00000 F2400.00000
G1 F1200
G1 X89.580 Y89.385 E2.02263
G1 X89.146 Y88.741 F7800.000
G1 F1200
G1 X89.648 Y88.239 E2.04560
M106 S242.25
G1 Z1.800 F7800.000
G1 E0.04560 F2400.00000
G92 E0
G1 X105.707 Y104.697 F7800.000
G1 E2.00000 F2400.00000
G1 F1200
G1 X105.212 Y104.203 E2.02264
G1 X105.196 Y104.456 E2.03085
G1 X105.203 Y104.856 E2.04380
G1 X105.243 Y105.312 E2.05863
G1 X106.150 Y106.220 E2.10018
G1 X106.250 Y106.890 E2.12211
G1 X106.277 Y107.425 E2.13944
G1 X105.521 Y106.669 E2.17405
G1 E0.17405 F2400.00000
G92 E0
G1 X97.295 Y105.872 F7800.000
G1 E2.00000 F2400.00000
G1 F1200
G1 X96.801 Y105.378 E2.02124
G1 X97.030 Y106.619 F7800.000
G1 F1200
G1 X96.262 Y105.851 E2.05421
G1 X96.025 Y106.626 E2.07884
G1 X96.714 Y107.315 E2.10841
G1 X96.570 Y107.611 E2.11842
G1 X96.354 Y107.968 E2.13107
G1 X95.860 Y107.473 E2.15231
G1 E0.15231 F2400.00000
G92 E0
G1 X84.083 Y100.821 F7800.000
G1 E2.00000 F2400.00000
G1 F4800
G1 X84.315 Y101.443 E2.01580
G1 X84.505 Y101.833 E2.02611
G1 X84.737 Y102.214 E2.03672
G1 X84.879 Y102.403 E2.04235
G1 X85.063 Y102.604 E2.04884
G1 X85.499 Y103.019 E2.06315
G1 X86.046 Y103.434 E2.07950
G1 X86.453 Y103.681 E2.09082
G1 X87.075 Y104.001 E2.10747
G1 X87.036 Y104.083 E2.10962
G1 X87.552 Y104.289 E2.12284
G1 X83.618 Y100.356 E2.25519
G1 X83.451 Y99.739 E2.27041
G1 X83.346 Y99.203 E2.28339
G1 X88.846 Y104.703 E2.46845
G1 X90.045 Y105.020 E2.49795
G1 X83.275 Y98.251 E2.72572
G1 X83.299 Y97.839 E2.73554
G1 X83.350 Y97.445 E2.74500
G1 X91.043 Y105.138 E3.00387
G1 X92.068 Y105.282 E3.02851
G1 X83.502 Y96.716 E3.31674
G1 X83.710 Y96.043 E3.33352
G1 X92.956 Y105.289 E3.64466
G1 X93.394 Y105.210 E3.65524
G1 X93.662 Y105.114 E3.66202
G1 X83.975 Y95.427 E3.98798
G1 X84.116 Y95.166 E3.99505
G1 X84.305 Y94.876 E4.00328
G1 X94.236 Y104.807 E4.33745
G1 X94.519 Y104.608 E4.34569
G1 X94.798 Y104.488 E4.35291
G1 X84.719 Y94.409 E4.69205
G1 X85.183 Y93.992 E4.70690
G1 X95.972 Y104.781 E5.06994
G1 X97.245 Y105.173 E5.10163
G1 X85.698 Y93.626 E5.49018
G1 X86.260 Y93.307 E5.50556
G1 X98.435 Y105.483 E5.91524
G1 X98.893 Y105.571 E5.92634
G1 X98.882 Y105.645 E5.92811
G1 X99.456 Y105.623 E5.94177
G1 X86.795 Y92.962 E6.36779
G1 X87.439 Y92.724 E6.38410
G1 X100.136 Y105.421 E6.81135
G1 X100.776 Y105.181 E6.82763
G1 X88.105 Y92.510 E7.25401
G1 X88.794 Y92.317 E7.27102
G1 X101.377 Y104.900 E7.69442
G1 X101.953 Y104.596 E7.70993
G1 X89.494 Y92.137 E8.12916
G1 X90.205 Y91.967 E8.14656
G1 X102.515 Y104.277 E8.56077
G1 X103.072 Y103.953 E8.57610
G1 X91.040 Y91.921 E8.98098
G1 X91.835 Y91.835 E9.00000
G1 X103.629 Y103.629 E9.39687
G1 X104.190 Y103.309 E9.41224
G1 X92.765 Y91.884 E9.79666
G1 X93.118 Y91.985 E9.80538
G1 X93.301 Y92.065 E9.81014
G1 X93.692 Y92.288 E9.82085
G1 X93.716 Y92.253 E9.82186
G1 X93.876 Y92.415 E9.82728
G1 X94.411 Y92.649 E9.84118
G1 X104.764 Y103.002 E10.18954
G1 X105.044 Y103.077 E10.19646
G1 X105.422 Y102.864 E10.20679
G1 X105.442 Y102.799 E10.20840
G1 X95.128 Y92.485 E10.55546
G1 X95.786 Y92.262 E10.57199
G1 X105.890 Y102.366 E10.91199
G1 X106.460 Y102.055 E10.92744
G1 X96.460 Y92.055 E11.26393
G1 X97.146 Y91.860 E11.28089
G1 X107.047 Y101.762 E11.61407
G1 X107.126 Y101.738 E11.61603
G1 X107.196 Y101.689 E11.61806
G1 X107.693 Y101.527 E11.63050
G1 X97.846 Y91.680 E11.96184
G1 X98.594 Y91.547 E11.97992
G1 X108.334 Y101.287 E12.30767
G1 X108.936 Y101.008 E12.32345
G1 X99.526 Y91.597 E12.64009
G1 X99.710 Y91.638 E12.64459
G1 X99.682 Y91.719 E12.64665
G1 X100.316 Y91.957 E12.66277
G1 X100.754 Y92.165 E12.67429
G1 X100.848 Y92.039 E12.67804
G1 X101.446 Y92.637 E12.69815
G1 X101.183 Y92.374 F7800.000
G1 F4800
G1 X109.471 Y100.662 E12.97703
G1 X109.630 Y100.528 E12.98197
G1 X109.905 Y100.214 E12.99189
G1 X103.238 Y93.548 E13.21622
G1 X104.841 Y94.450 E13.25998
G1 X104.967 Y94.396 E13.26326
G1 X110.229 Y99.658 E13.44032
G1 X110.306 Y99.569 E13.44312
G1 X110.537 Y99.409 E13.44980
G1 X110.767 Y99.315 E13.45571
G1 X106.769 Y95.316 E13.59025
G1 X106.858 Y95.328 E13.59240
G1 X106.954 Y95.382 E13.59503
G1 X107.105 Y95.414 E13.59870
G1 X107.180 Y95.456 E13.60073
G1 X107.379 Y95.500 E13.60558
G1 X107.366 Y95.538 E13.60655
G1 X107.711 Y95.690 E13.61554
G1 X108.199 Y95.866 E13.62786
G1 X111.438 Y99.105 E13.73685
G1 X112.307 Y99.170 F7800.000
G1 F1200
G1 X111.812 Y98.676 E13.75717
G1 X111.840 Y98.528 E13.76153
G1 X111.914 Y98.405 E13.76572
G1 X111.886 Y98.192 E13.77195
G1 X111.801 Y98.045 E13.77690
G1 X112.237 Y98.131 E13.78980
G1 X113.281 Y99.175 E13.83273
G1 X113.805 Y99.187 E13.84798
G1 X114.305 Y99.231 E13.86257
G1 X113.453 Y98.379 E13.89759
G1 X113.778 Y98.447 E13.90722
G1 X114.249 Y98.611 E13.92171
G1 X114.403 Y98.703 E13.92695
G1 X114.723 Y98.839 E13.93704
G1 X115.057 Y99.035 E13.94832
G1 X115.688 Y99.646 E13.97384
G1 E11.97384 F2400.00000
G92 E0
G1 X108.243 Y91.864 F7800.000
G1 E2.00000 F2400.00000
G1 F1200
G1 X107.748 Y91.370 E2.02264
G1 X107.609 Y91.440 E2.02769
G1 X107.587 Y91.536 E2.03088
G1 X107.222 Y91.923 E2.04809
G1 X107.903 Y92.604 E2.07928
G1 X107.746 Y92.891 E2.08989
G1 X107.489 Y93.268 E2.10465
G1 X106.745 Y92.524 E2.13869
G1 X106.473 Y92.918 E2.15418
G1 X106.319 Y93.177 E2.16393
G1 X107.017 Y93.875 E2.19591
G1 X106.787 Y94.149 E2.20751
G1 X106.490 Y94.426 E2.22065
G1 X105.971 Y93.907 E2.24442
G1 E0.24442 F2400.00000
G92 E0
G1 X107.709 Y91.354 F7800.000
G1 E2.00000 F2400.00000
G1 F1200
G1 X107.215 Y90.859 E2.02265
G1 X107.129 Y90.795 E2.02613
G1 X106.729 Y90.602 E2.04047
G1 X106.233 Y90.417 E2.05761
G1 X105.484 Y90.207 E2.08280
G1 X106.457 Y91.180 E2.12733
G1 X106.169 Y91.111 E2.13692
G1 X105.466 Y90.895 E2.16072
G1 X104.779 Y90.581 E2.18515
G1 X104.240 Y90.041 E2.20985
G1 E0.20985 F2400.00000
G92 E0
G1 X98.428 Y88.953 F7800.000
G1 E2.00000 F2400.00000
G1 F1200
G1 X97.934 Y88.459 E2.01927
G1 X97.887 Y88.665 E2.02511
G1 X97.806 Y89.248 E2.04135
G1 X98.583 Y90.026 E2.07164
G1 X98.604 Y90.965 E2.09754
G1 X97.762 Y90.123 E2.13037
G1 X97.757 Y90.535 E2.14174
G1 X97.784 Y91.063 E2.15630
G1 X98.278 Y91.558 E2.17557
G1 E0.17557 F2400.00000
G92 E0
G1 X96.418 Y87.902 F7800.000
G1 E2.00000 F2400.00000
G1 F1200
G1 X95.924 Y87.408 E2.02231
G1 X95.630 Y88.177 F7800.000
G1 F1200
G1 X94.892 Y87.439 E2.05561
G1 X94.873 Y87.441 E2.05620
G1 X94.335 Y87.511 E2.07352
G1 X93.970 Y87.580 E2.08540
G1 X94.769 Y88.380 E2.12148
G1 X93.839 Y88.513 E2.15148
G1 X93.105 Y87.779 E2.18457
G1 X92.846 Y87.849 E2.19315
G1 X92.311 Y88.048 E2.21136
G1 X92.805 Y88.543 E2.23367
G1 E0.23367 F2400.00000
G92 E0
G1 X94.179 Y110.117 F7800.000
G1 E2.00000 F2400.00000
G1 F1200
G1 X93.684 Y109.623 E2.01934
G1 X92.911 Y109.772 E2.04112
G1 X93.596 Y110.457 E2.06793
G1 X92.964 Y110.746 E2.08718
G1 X92.207 Y109.989 E2.11679
G1 X92.019 Y110.047 E2.12224
G1 X91.532 Y110.236 E2.13669
G1 X92.286 Y110.990 E2.16621
G1 X91.580 Y111.205 E2.18665
G1 X90.889 Y110.515 E2.21367
G1 X90.581 Y110.677 E2.22330
G1 X90.307 Y110.855 E2.23233
G1 X90.801 Y111.349 E2.25167
G1 E0.25167 F2400.00000
G92 E0
G1 X101.907 Y108.443 F7800.000
G1 E2.00000 F2400.00000
G1 F1200
G1 X102.402 Y108.938 E2.02190
G1 X103.204 Y109.082 E2.04743
G1 X103.610 Y109.102 E2.06017
G1 X102.813 Y108.305 E2.09547
G1 X103.486 Y108.274 E2.11660
G1 X103.837 Y108.285 E2.12758
G1 X104.638 Y109.086 E2.16307
G1 X105.040 Y108.444 F7800.000
G1 F1200
G1 X105.534 Y108.939 E2.18497
M106 S249.9
G1 Z2.100 F7800.000
G1 E0.18497 F2400.00000
G92 E0
G1 X107.179 Y101.631 F7800.000
G1 E2.00000 F2400.00000
G1 F4800
G1 X109.829 Y98.980 E2.08920
G1 X109.856 Y98.897 E2.09127
G1 X109.814 Y98.853 E2.09271
G1 X109.961 Y98.414 E2.10371
G1 X109.893 Y98.388 E2.10545
G1 X109.915 Y98.090 E2.11255
G1 X109.881 Y98.048 E2.11384
G1 X105.205 Y102.723 E2.27118
G1 X103.156 Y103.891 E2.32729
G1 X109.752 Y97.296 E2.54922
G1 X109.736 Y97.187 E2.55184
G1 X109.680 Y97.028 E2.55585
G1 X109.574 Y96.814 E2.56154
G1 X109.481 Y96.685 E2.56530
G1 X101.256 Y104.911 E2.84209
G1 X100.935 Y105.066 E2.85057
G1 X100.973 Y105.150 E2.85277
G1 X100.793 Y105.226 E2.85742
G1 X100.332 Y105.394 E2.86910
G1 X99.740 Y105.545 E2.88363
G1 X109.035 Y96.251 E3.19639
G1 X108.761 Y96.079 E3.20408
G1 X108.465 Y95.940 E3.21187
G1 X98.890 Y105.515 E3.53407
G1 X98.166 Y105.358 E3.55169
G1 X107.945 Y95.578 E3.88076
G1 X107.752 Y95.453 E3.88624
G1 X107.420 Y95.382 E3.89432
G1 X107.319 Y95.324 E3.89710
G1 X97.467 Y105.176 E4.22859
G1 X96.779 Y104.983 E4.24559
G1 X106.750 Y95.012 E4.58109
G1 X106.387 Y94.812 E4.59095
G1 X106.405 Y94.611 E4.59574
G1 X106.319 Y94.562 E4.59810
G1 X96.101 Y104.780 E4.94193
G1 X95.435 Y104.565 E4.95858
G1 X105.675 Y94.325 E5.30311
G1 X105.527 Y94.331 E5.30663
G1 X105.056 Y94.063 E5.31953
G1 X94.783 Y104.336 E5.66519
G1 X94.550 Y104.251 E5.67110
G1 X94.238 Y104.333 E5.67876
G1 X94.008 Y104.482 E5.68529
G1 X93.748 Y104.856 E5.69613
G1 X93.768 Y104.884 E5.69693
G1 X93.442 Y105.203 E5.70780
G1 X93.328 Y105.281 E5.71109
G1 X93.309 Y105.229 E5.71241
G1 X92.861 Y105.377 E5.72362
G1 X104.495 Y93.743 E6.11507
G1 X103.935 Y93.422 E6.13042
G1 X91.912 Y105.445 E6.53498
G1 X91.127 Y105.349 E6.55380
G1 X103.375 Y93.101 E6.96594
G1 X102.808 Y92.787 E6.98136
G1 X90.308 Y105.287 E7.40197
G1 X89.597 Y105.118 E7.41938
G1 X102.234 Y92.480 E7.84462
G1 X101.645 Y92.188 E7.86026
G1 X88.902 Y104.931 E8.28905
G1 X88.213 Y104.740 E8.30607
G1 X101.098 Y91.855 E8.73964
G1 X100.789 Y91.739 E8.74748
G1 X100.427 Y91.644 E8.75638
G1 X87.544 Y104.528 E9.18989
G1 X87.176 Y104.411 E9.19908
G1 X86.890 Y104.300 E9.20636
G1 X99.655 Y91.536 E9.63588
G1 X99.573 Y91.534 E9.63782
G1 X99.579 Y91.574 E9.63879
G1 X98.500 Y91.810 E9.66505
G1 X86.317 Y103.993 E10.07501
G1 X85.741 Y103.688 E10.09051
G1 X97.290 Y92.139 E10.47911
G1 X96.016 Y92.532 E10.51084
G1 X85.204 Y103.344 E10.87464
G1 X84.955 Y103.151 E10.88214
G1 X84.725 Y102.942 E10.88953
G1 X94.840 Y92.827 E11.22986
G1 X94.520 Y92.726 E11.23783
G1 X94.334 Y92.452 E11.24572
G1 X84.305 Y102.481 E11.58319
G1 X84.129 Y102.243 E11.59024
G1 X83.957 Y101.948 E11.59836
G1 X93.940 Y91.965 E11.93426
G1 X93.831 Y91.878 E11.93759
G1 X93.814 Y91.916 E11.93859
G1 X93.281 Y91.743 E11.95191
G1 X83.674 Y101.351 E12.27519
G1 X83.438 Y100.705 E12.29154
G1 X92.459 Y91.685 E12.59508
G1 X92.026 Y91.722 E12.60542
G1 X91.453 Y91.809 E12.61920
G1 X83.236 Y100.026 E12.89570
G1 X83.091 Y99.290 E12.91356
G1 X90.461 Y91.921 E13.16153
G1 X89.272 Y92.229 E13.19076
G1 X83.076 Y98.424 E13.39922
G1 X83.178 Y97.806 E13.41411
G1 X83.308 Y97.312 E13.42628
G1 X88.020 Y92.600 E13.58484
G1 X87.121 Y92.913 E13.60749
G1 X86.757 Y93.066 E13.61688
G1 X86.796 Y93.147 E13.61899
G1 X86.392 Y93.347 E13.62971
G1 X83.822 Y95.917 E13.71620
G1 X83.992 Y95.583 E13.72511
G1 X84.204 Y95.243 E13.73465
G1 X84.429 Y94.971 E13.74305
G1 X84.756 Y94.627 E13.75435
G1 X85.255 Y94.217 E13.76972
G1 X85.572 Y94.011 E13.77872
G1 X85.927 Y93.812 E13.78839
G1 Z2.400 F7800.000
G1 X84.080 Y101.699 F7800.000
G1 F4800
G1 X84.261 Y102.087 E13.79858
G1 X84.317 Y102.055 E13.80011
G1 X84.544 Y102.419 E13.81032
G1 X84.687 Y102.611 E13.81601
G1 X85.051 Y103.037 E13.82935
G1 X85.461 Y103.379 E13.84205
G1 X85.740 Y103.565 E13.85002
G1 X86.161 Y103.809 E13.86161
G1 X86.120 Y103.883 E13.86363
G1 X86.383 Y104.001 E13.87049
G1 X83.615 Y101.233 E13.96362
G1 X83.173 Y100.122 E13.99208
G1 X83.062 Y99.799 E14.00021
G1 X87.788 Y104.525 E14.15924
G1 X89.062 Y104.918 E14.19095
G1 X82.889 Y98.746 E14.39865
G1 X82.858 Y98.356 E14.40796
G1 X82.897 Y97.873 E14.41948
G1 X90.281 Y105.256 E14.66793
G1 X91.439 Y105.534 E14.69626
G1 X83.061 Y97.156 E14.97814
G1 X83.103 Y97.004 E14.98191
G1 X83.022 Y96.980 E14.98390
G1 X83.216 Y96.429 E14.99777
G1 X92.473 Y105.687 E15.30928
G1 X92.819 Y105.682 E15.31751
G1 X93.003 Y105.657 E15.32192
G1 X93.251 Y105.584 E15.32808
G1 X83.463 Y95.796 E15.65743
G1 X83.725 Y95.177 E15.67342
G1 X93.736 Y105.188 E16.01027
G1 X93.976 Y104.944 E16.01842
G1 X94.154 Y104.725 E16.02513
G1 X84.108 Y94.679 E16.36318
G1 X84.498 Y94.188 E16.37810
G1 X94.539 Y104.230 E16.71597
G1 X94.788 Y104.113 E16.72251
G1 X94.922 Y104.008 E16.72654
G1 X95.351 Y104.160 E16.73737
G1 X84.968 Y93.777 E17.08674
G1 X85.500 Y93.429 E17.10189
G1 X96.651 Y104.580 E17.47710
G1 X97.871 Y104.918 E17.50722
G1 X86.040 Y93.088 E17.90531
G1 X86.669 Y92.836 E17.92142
G1 X99.068 Y105.234 E18.33863
G1 X99.750 Y105.410 E18.35538
G1 X100.192 Y105.477 E18.36603
G1 X87.323 Y92.609 E18.79904
G1 X87.991 Y92.396 E18.81571
G1 X100.985 Y105.389 E19.25294
G1 X101.639 Y105.162 E19.26941
G1 X88.671 Y92.195 E19.70575
G1 X89.364 Y92.007 E19.72283
G1 X102.180 Y104.823 E20.15408
G1 X102.771 Y104.533 E20.16974
G1 X90.063 Y91.825 E20.59734
G1 X90.762 Y91.643 E20.61453
G1 X103.354 Y104.235 E21.03826
G1 X103.931 Y103.931 E21.05377
G1 X91.497 Y91.497 E21.47215
G1 X91.930 Y91.447 E21.48253
G1 X92.331 Y91.450 E21.49205
G1 X104.501 Y103.620 E21.90158
G1 X105.066 Y103.304 E21.91698
G1 X94.776 Y93.014 E22.26324
G1 X95.433 Y92.790 E22.27976
G1 X105.627 Y102.984 E22.62280
G1 X106.184 Y102.660 E22.63813
G1 X96.103 Y92.580 E22.97733
G1 X96.787 Y92.382 E22.99426
G1 X106.735 Y102.331 E23.32902
G1 X107.282 Y101.996 E23.34426
G1 X97.482 Y92.196 E23.67403
G1 X98.181 Y92.014 E23.69121
G1 X107.819 Y101.653 E24.01555
G1 X107.918 Y101.594 E24.01829
G1 X108.258 Y101.211 E24.03047
G1 X98.874 Y91.826 E24.34626
G1 X99.599 Y91.671 E24.36391
G1 X108.630 Y100.702 E24.66779
G1 X108.874 Y100.513 E24.67513
G1 X109.018 Y100.342 E24.68044
G1 X109.056 Y100.246 E24.68289
G1 X100.564 Y91.755 E24.96862
G1 X101.157 Y91.964 E24.98357
G1 X101.599 Y92.159 E24.99507
G1 X101.562 Y92.237 E24.99712
G1 X102.279 Y92.589 E25.01612
G1 X109.067 Y99.376 E25.24452
G1 X109.095 Y99.270 E25.24713
G1 X109.440 Y98.869 E25.25973
G1 X104.146 Y93.575 E25.43785
G1 X106.229 Y94.777 E25.49508
G1 X108.982 Y97.530 E25.58771
G1 Z2.700 F7800.000
G1 E23.58771 F2400.00000
G92 E0
G1 X106.292 Y102.518 F7800.000
G1 E2.00000 F2400.00000
G1 F4800
G1 X108.053 Y100.757 E2.05925
G1 X108.219 Y100.392 E2.06879
G1 X108.329 Y99.599 E2.08784
G1 X104.203 Y103.726 E2.22670
G1 X102.442 Y104.605 E2.27352
G1 X108.899 Y98.148 E2.49077
G1 X108.733 Y97.951 E2.49691
G1 X108.557 Y97.610 E2.50605
G1 X100.847 Y105.319 E2.76546
G1 X100.741 Y105.345 E2.76807
G1 X100.736 Y105.296 E2.76922
G1 X100.246 Y105.318 E2.78089
G1 X99.989 Y105.296 E2.78702
G1 X108.290 Y96.996 E3.06631
G1 X108.252 Y96.480 E3.07861
G1 X108.231 Y96.333 E3.08215
G1 X108.186 Y96.219 E3.08508
G1 X99.287 Y105.118 E3.38453
G1 X98.613 Y104.911 E3.40130
G1 X107.894 Y95.629 E3.71361
G1 X107.652 Y95.231 E3.72470
G1 X107.511 Y95.132 E3.72880
G1 X97.904 Y104.739 E4.05208
G1 X97.188 Y104.574 E4.06956
G1 X106.992 Y94.770 E4.39945
G1 X106.454 Y94.427 E4.41463
G1 X96.487 Y104.393 E4.75000
G1 X95.800 Y104.200 E4.76699
G1 X105.904 Y94.096 E5.10695
G1 X105.343 Y93.776 E5.12231
G1 X95.129 Y103.990 E5.46599
G1 X94.513 Y103.780 E5.48147
G1 X94.441 Y103.797 E5.48325
G1 X104.773 Y93.465 E5.83093
G1 X104.196 Y93.161 E5.84645
G1 X91.649 Y105.708 E6.26865
G1 X90.893 Y105.583 E6.28688
G1 X103.610 Y92.867 E6.71478
G1 X103.015 Y92.580 E6.73048
G1 X90.190 Y105.406 E7.16204
G1 X89.506 Y105.209 E7.17897
G1 X102.480 Y92.234 E7.61555
G1 X101.846 Y91.987 E7.63174
G1 X88.822 Y105.012 E8.07000
G1 X88.138 Y104.815 E8.08693
G1 X101.120 Y91.833 E8.52375
G1 X100.536 Y91.827 E8.53764
G1 X100.183 Y91.889 E8.54617
G1 X87.464 Y104.607 E8.97414
G1 X86.804 Y104.387 E8.99071
G1 X98.928 Y92.263 E9.39866
G1 X97.780 Y92.530 E9.42671
G1 X86.158 Y104.152 E9.81776
G1 X85.537 Y103.892 E9.83378
G1 X96.587 Y92.842 E10.20560
G1 X95.309 Y93.239 E10.23744
G1 X84.958 Y103.590 E10.58571
G1 X84.686 Y103.419 E10.59335
G1 X84.446 Y103.221 E10.60076
G1 X94.463 Y93.204 E10.93783
G1 X94.117 Y92.669 E10.95299
G1 X84.057 Y102.730 E11.29152
G1 X83.822 Y102.198 E11.30535
G1 X83.911 Y102.162 E11.30765
G1 X83.864 Y102.041 E11.31073
G1 X93.715 Y92.191 E11.64218
G1 X93.465 Y91.960 E11.65027
G1 X93.233 Y91.792 E11.65709
G1 X83.621 Y101.403 E11.98051
G1 X83.377 Y100.767 E11.99673
G1 X92.628 Y91.515 E12.30804
G1 X92.404 Y91.449 E12.31361
G1 X92.412 Y91.412 E12.31451
G1 X92.228 Y91.413 E12.31889
G1 X91.799 Y91.463 E12.32916
G1 X83.134 Y100.129 E12.62074
G1 X82.916 Y99.465 E12.63735
G1 X90.655 Y91.727 E12.89775
G1 X89.430 Y92.071 E12.92803
G1 X82.822 Y98.678 E13.15037
G1 X82.886 Y98.241 E13.16089
G1 X83.123 Y97.497 E13.17948
G1 X88.172 Y92.447 E13.34938
G1 X86.835 Y92.904 E13.38302
G1 X83.670 Y96.069 E13.48950
G1 X83.834 Y95.627 E13.50070
G1 X83.740 Y95.591 E13.50308
G1 X84.049 Y94.872 E13.52170
G1 X84.144 Y94.714 E13.52610
G1 X85.095 Y93.763 E13.55808
M106 S252.45
G1 Z3.000 F7800.000
G1 X84.086 Y101.705 F7800.000
G1 F4800
G1 X86.467 Y104.086 E13.63820
G1 X87.829 Y104.566 E13.67255
G1 X83.600 Y100.338 E13.81483
G1 X83.313 Y99.524 E13.83537
G1 X83.167 Y99.024 E13.84777
G1 X89.090 Y104.947 E14.04709
G1 X90.352 Y105.327 E14.07843
G1 X83.088 Y98.064 E14.32285
G1 X83.151 Y97.710 E14.33139
G1 X83.250 Y97.344 E14.34041
G1 X91.533 Y105.628 E14.61915
G1 X91.760 Y105.671 E14.62463
G1 X91.757 Y105.642 E14.62530
G1 X92.313 Y105.527 E14.63882
G1 X83.475 Y96.689 E14.93623
G1 X83.706 Y96.039 E14.95264
G1 X92.920 Y105.253 E15.26268
G1 X93.107 Y105.134 E15.26796
G1 X93.427 Y104.879 E15.27769
G1 X83.937 Y95.389 E15.59704
G1 X84.167 Y94.738 E15.61346
G1 X93.855 Y104.426 E15.93945
G1 X94.223 Y103.913 E15.95447
G1 X84.408 Y94.098 E16.28474
G1 X84.543 Y93.855 E16.29136
G1 X84.521 Y93.840 E16.29200
G1 X84.807 Y93.617 E16.30065
G1 X94.684 Y103.494 E16.63300
G1 X94.812 Y103.506 E16.63606
G1 X95.010 Y103.489 E16.64080
G1 X95.826 Y103.754 E16.66121
G1 X85.380 Y93.308 E17.01271
G1 X86.000 Y93.047 E17.02872
G1 X97.050 Y104.098 E17.40055
G1 X98.196 Y104.363 E17.42853
G1 X86.652 Y92.819 E17.81697
G1 X87.309 Y92.595 E17.83349
G1 X99.280 Y104.565 E18.23627
G1 X99.553 Y104.639 E18.24300
G1 X100.335 Y104.917 E18.26276
G1 X100.578 Y104.983 E18.26875
G1 X87.973 Y92.378 E18.69288
G1 X88.652 Y92.176 E18.70973
G1 X101.476 Y105.000 E19.14125
G1 X101.794 Y104.935 E19.14896
G1 X102.181 Y104.824 E19.15856
G1 X89.330 Y91.973 E19.59097
G1 X90.009 Y91.771 E19.60782
G1 X102.838 Y104.600 E20.03950
G1 X103.469 Y104.350 E20.05565
G1 X90.703 Y91.584 E20.48523
G1 X90.944 Y91.521 E20.49115
G1 X91.307 Y91.461 E20.49992
G1 X91.305 Y91.484 E20.50047
G1 X91.530 Y91.530 E20.50594
G1 X104.086 Y104.086 E20.92842
G1 X104.681 Y103.800 E20.94412
G1 X94.529 Y93.648 E21.28571
G1 X95.193 Y93.431 E21.30232
G1 X105.244 Y103.482 E21.64053
G1 X105.777 Y103.135 E21.65568
G1 X95.871 Y93.228 E21.98903
G1 X96.566 Y93.042 E22.00614
G1 X106.266 Y102.742 E22.33253
G1 X106.564 Y102.458 E22.34233
G1 X106.701 Y102.296 E22.34737
G1 X97.272 Y92.868 E22.66462
G1 X98.002 Y92.716 E22.68235
G1 X107.079 Y101.793 E22.98778
G1 X107.419 Y101.252 E23.00298
G1 X98.749 Y92.582 E23.29472
G1 X99.039 Y92.512 E23.30181
G1 X99.424 Y92.376 E23.31153
G1 X107.709 Y100.661 E23.59031
G1 X107.780 Y100.460 E23.59540
G1 X107.900 Y99.972 E23.60736
G1 X100.085 Y92.156 E23.87035
G1 X100.459 Y92.097 E23.87936
G1 X100.647 Y92.095 E23.88384
G1 X100.933 Y92.124 E23.89068
G1 X108.288 Y99.478 E24.13815
G1 X108.557 Y98.990 E24.15142
G1 X108.615 Y98.925 E24.15350
G1 X102.147 Y92.457 E24.37113
G1 X102.896 Y92.734 E24.39013
G1 X103.619 Y93.047 E24.40887
G1 X107.806 Y97.235 E24.54978
G1 Z3.300 F7800.000
G1 X106.643 Y95.951 F7800.000
G1 F1200
G1 X107.138 Y95.457 E24.57241
G1 X106.678 Y94.838 E24.59737
G1 X106.160 Y95.355 E24.62107
G1 X105.632 Y94.805 E24.64577
G1 X106.137 Y94.300 E24.66887
G1 E22.66887 F2400.00000
G92 E0
G1 X103.253 Y103.794 F7800.000
G1 E2.00000 F2400.00000
G1 F4800
G1 X107.321 Y99.726 E2.13689
G1 X107.601 Y99.203 E2.15100
G1 X108.029 Y98.785 E2.16524
G1 X108.292 Y98.402 E2.17630
G1 X108.306 Y98.294 E2.17890
G1 X108.130 Y98.037 E2.18631
G1 X101.752 Y104.415 E2.40092
G1 X101.189 Y104.557 E2.41474
G1 X100.887 Y104.593 E2.42196
G1 X100.689 Y104.597 E2.42668
G1 X107.704 Y97.582 E2.66272
G1 X107.647 Y97.536 E2.66445
G1 X107.371 Y97.034 E2.67809
G1 X99.956 Y104.449 E2.92759
G1 X99.290 Y104.234 E2.94424
G1 X107.062 Y96.461 E3.20577
G1 X106.716 Y95.927 E3.22093
G1 X98.524 Y104.119 E3.49658
G1 X97.780 Y103.982 E3.51457
G1 X106.332 Y95.430 E3.80234
G1 X105.913 Y94.968 E3.81717
G1 X97.060 Y103.820 E4.11505
G1 X96.355 Y103.645 E4.13235
G1 X105.464 Y94.536 E4.43886
G1 X104.987 Y94.132 E4.45374
G1 X95.661 Y103.458 E4.76753
G1 X94.982 Y103.256 E4.78440
G1 X104.473 Y93.765 E5.10376
G1 X103.916 Y93.441 E5.11909
G1 X94.317 Y103.040 E5.44207
G1 X94.277 Y103.026 E5.44309
G1 X93.958 Y103.204 E5.45178
G1 X93.824 Y103.350 E5.45649
G1 X93.500 Y103.857 E5.47081
G1 X92.385 Y104.972 E5.50834
G1 X92.030 Y105.187 E5.51822
G1 X91.676 Y105.354 E5.52752
G1 X91.319 Y105.477 E5.53649
G1 X90.921 Y105.556 E5.54617
G1 X103.326 Y93.150 E5.96361
G1 X102.705 Y92.891 E5.97963
G1 X90.204 Y105.392 E6.40028
G1 X89.531 Y105.184 E6.41704
G1 X102.047 Y92.668 E6.83819
G1 X101.713 Y92.588 E6.84636
G1 X101.306 Y92.537 E6.85611
G1 X88.858 Y104.975 E7.27481
G1 X88.185 Y104.767 E7.29157
G1 X100.188 Y92.765 E7.69544
G1 X99.714 Y92.916 E7.70727
G1 X99.067 Y93.005 E7.72282
G1 X87.512 Y104.559 E8.11161
G1 X86.852 Y104.339 E8.12818
G1 X97.984 Y93.207 E8.50277
G1 X96.821 Y93.489 E8.53124
G1 X86.194 Y104.116 E8.88883
G1 X85.553 Y103.875 E8.90511
G1 X95.597 Y93.832 E9.24307
G1 X94.724 Y94.114 E9.26491
G1 X94.565 Y93.983 E9.26982
G1 X84.969 Y103.579 E9.59273
G1 X84.888 Y103.531 E9.59497
G1 X84.815 Y103.471 E9.59720
G1 X84.834 Y103.457 E9.59776
G1 X84.588 Y103.079 E9.60850
G1 X94.136 Y93.531 E9.92978
G1 X93.769 Y93.017 E9.94480
G1 X84.356 Y102.430 E10.26153
G1 X84.137 Y101.768 E10.27812
G1 X93.346 Y92.559 E10.58801
G1 X92.860 Y92.164 E10.60291
G1 X83.924 Y101.101 E10.90361
G1 X83.712 Y100.431 E10.92032
G1 X92.295 Y91.848 E11.20913
G1 X91.886 Y91.686 E11.21959
G1 X91.636 Y91.626 E11.22571
G1 X83.513 Y99.750 E11.49906
G1 X83.425 Y99.355 E11.50867
G1 X83.380 Y99.002 E11.51715
G1 X90.621 Y91.760 E11.76083
G1 X89.350 Y92.150 E11.79246
G1 X83.471 Y98.029 E11.99030
G1 X83.611 Y97.498 E12.00337
G1 X83.834 Y96.786 E12.02113
G1 X88.072 Y92.547 E12.16375
G1 X86.757 Y92.981 E12.19671
G1 X84.249 Y95.490 E12.28112
G1 X84.580 Y94.532 E12.30525
G1 X84.763 Y94.176 E12.31477
G1 X84.919 Y94.051 E12.31952
G1 X85.305 Y93.833 E12.33008
G1 X86.292 Y93.447 E12.35529
M106 S255
G1 Z3.600 F7800.000
G1 X84.614 Y102.233 F7800.000
G1 F4746.36
G1 X86.350 Y103.968 E12.41370
G1 X87.646 Y104.383 E12.44607
G1 X84.226 Y100.964 E12.56114
G1 X83.903 Y99.760 E12.59079
G1 X88.917 Y104.774 E12.75951
G1 X90.207 Y105.183 E12.79170
G1 X83.696 Y98.671 E13.01080
G1 X83.683 Y98.144 E13.02334
G1 X83.719 Y97.814 E13.03125
G1 X91.297 Y105.392 E13.28625
G1 X91.669 Y105.274 E13.29555
G1 X91.941 Y105.155 E13.30260
G1 X83.862 Y97.076 E13.57444
G1 X84.045 Y96.378 E13.59161
G1 X92.514 Y104.847 E13.87658
G1 X93.027 Y104.479 E13.89160
G1 X84.233 Y95.685 E14.18751
G1 X84.431 Y95.002 E14.20442
G1 X93.474 Y104.045 E14.50870
G1 X93.867 Y103.557 E14.52361
G1 X84.648 Y94.338 E14.83382
G1 X84.732 Y94.096 E14.83991
G1 X84.906 Y93.716 E14.84987
G1 X94.209 Y103.018 E15.16290
G1 X94.343 Y102.843 E15.16815
G1 X94.658 Y102.587 E15.17782
G1 X85.422 Y93.350 E15.48862
G1 X85.699 Y93.229 E15.49582
G1 X86.059 Y93.107 E15.50487
G1 X95.815 Y102.862 E15.83313
G1 X97.007 Y103.173 E15.86245
G1 X86.725 Y92.892 E16.20842
G1 X87.398 Y92.684 E16.22518
G1 X98.174 Y103.459 E16.58776
G1 X99.291 Y103.695 E16.61493
G1 X88.072 Y92.477 E16.99242
G1 X88.746 Y92.270 E17.00920
G1 X100.335 Y103.859 E17.39916
G1 X100.948 Y104.002 E17.41412
G1 X101.378 Y104.021 E17.42437
G1 X89.416 Y92.059 E17.82688
G1 X90.076 Y91.838 E17.84343
G1 X102.118 Y103.880 E18.24862
G1 X102.757 Y103.638 E18.26489
G1 X90.868 Y91.749 E18.66496
G1 X91.243 Y91.876 E18.67441
G1 X91.832 Y92.157 E18.68992
G1 X92.377 Y92.506 E18.70532
G1 X92.782 Y92.853 E18.71802
G1 X93.172 Y93.278 E18.73174
G1 X93.475 Y93.682 E18.74375
G1 X93.767 Y94.152 E18.75692
G1 X94.012 Y94.363 E18.76461
G1 X94.180 Y94.616 E18.77182
G1 X94.515 Y94.515 E18.78014
G1 X103.349 Y103.349 E19.07742
G1 X103.905 Y103.024 E19.09274
G1 X95.198 Y94.317 E19.38572
G1 X95.890 Y94.128 E19.40280
G1 X104.426 Y102.664 E19.69003
G1 X104.919 Y102.276 E19.70495
G1 X96.590 Y93.947 E19.98521
G1 X97.296 Y93.773 E20.00252
G1 X105.386 Y101.862 E20.27474
G1 X105.826 Y101.422 E20.28956
G1 X98.007 Y93.602 E20.55268
G1 X98.740 Y93.454 E20.57047
G1 X106.240 Y100.954 E20.82283
G1 X106.629 Y100.462 E20.83775
G1 X99.522 Y93.355 E21.07688
G1 X99.662 Y93.336 E21.08025
G1 X100.228 Y93.181 E21.09422
G1 X106.997 Y99.950 E21.32198
G1 X107.204 Y99.667 E21.33032
G1 X107.389 Y99.460 E21.33691
G1 X101.052 Y93.124 E21.55013
G1 X101.340 Y93.173 E21.55707
G1 X101.660 Y93.258 E21.56495
G1 X102.317 Y93.508 E21.58168
G1 X107.804 Y98.995 E21.76631
M106 S252.45
G1 Z3.900 F7800.000
G1 E19.76631 F2400.00000
G92 E0
G1 X102.353 Y102.933 F7800.000
G1 E2.00000 F2400.00000
G1 F4800
G1 X107.280 Y98.005 E2.16581
G1 X107.016 Y97.741 E2.17470
G1 X106.857 Y97.547 E2.18067
G1 X101.070 Y103.335 E2.37541
G1 X100.770 Y103.354 E2.38257
G1 X100.384 Y103.335 E2.39175
G1 X100.315 Y103.364 E2.39355
G1 X100.166 Y103.358 E2.39709
G1 X106.459 Y97.065 E2.60885
G1 X106.198 Y96.772 E2.61817
G1 X106.027 Y96.615 E2.62369
G1 X99.440 Y103.203 E2.84535
G1 X99.090 Y103.131 E2.85385
G1 X98.735 Y103.027 E2.86265
G1 X105.583 Y96.179 E3.09308
G1 X105.126 Y95.755 E3.10792
G1 X98.059 Y102.822 E3.34571
G1 X97.382 Y102.618 E3.36254
G1 X104.647 Y95.353 E3.60699
G1 X104.142 Y94.977 E3.62197
G1 X96.700 Y102.419 E3.87238
G1 X96.006 Y102.232 E3.88949
G1 X103.608 Y94.630 E4.14528
G1 X103.044 Y94.313 E4.16067
G1 X95.297 Y102.061 E4.42137
G1 X94.569 Y101.907 E4.43906
G1 X102.437 Y94.040 E4.70380
G1 X102.097 Y93.923 E4.71234
G1 X101.758 Y93.837 E4.72066
G1 X90.361 Y105.234 E5.10416
G1 X90.135 Y105.202 E5.10960
G1 X90.125 Y105.240 E5.11054
G1 X89.650 Y105.065 E5.12260
G1 X100.922 Y93.793 E5.50190
G1 X100.561 Y93.748 E5.51054
G1 X100.428 Y93.853 E5.51457
G1 X100.104 Y93.917 E5.52242
G1 X99.897 Y93.936 E5.52737
G1 X88.986 Y104.847 E5.89451
G1 X88.310 Y104.642 E5.91132
G1 X98.691 Y94.262 E6.26063
G1 X97.436 Y94.636 E6.29178
G1 X87.568 Y104.503 E6.62382
G1 X86.895 Y104.296 E6.64058
G1 X96.230 Y94.960 E6.95471
G1 X95.096 Y95.214 E6.98236
G1 X86.233 Y104.077 E7.28058
G1 X85.592 Y103.837 E7.29687
G1 X94.428 Y95.001 E7.59420
G1 X94.321 Y94.758 E7.60051
G1 X94.291 Y94.740 E7.60135
G1 X94.122 Y94.426 E7.60983
G1 X85.097 Y103.451 E7.91348
G1 X85.013 Y103.321 E7.91717
G1 X84.830 Y102.837 E7.92947
G1 X93.779 Y93.888 E8.23059
G1 X93.388 Y93.398 E8.24551
G1 X84.621 Y102.165 E8.54049
G1 X84.442 Y101.463 E8.55773
G1 X92.944 Y92.962 E8.84379
G1 X92.440 Y92.584 E8.85876
G1 X84.282 Y100.742 E9.13326
G1 X84.131 Y100.012 E9.15099
G1 X91.878 Y92.265 E9.41167
G1 X91.272 Y91.991 E9.42750
G1 X84.018 Y99.244 E9.67158
G1 X83.997 Y98.828 E9.68149
G1 X84.019 Y98.363 E9.69258
G1 X90.423 Y91.958 E9.90808
G1 X89.108 Y92.393 E9.94104
G1 X84.187 Y97.314 E10.10664
G1 X84.435 Y96.184 E10.13416
G1 X87.969 Y92.651 E10.25306
G1 X86.912 Y92.981 E10.27940
G1 X86.898 Y92.955 E10.28009
G1 X86.767 Y92.998 E10.28336
G1 X86.659 Y93.080 E10.28660
G1 X84.756 Y94.983 E10.35062
G1 X84.996 Y94.312 E10.36757
G1 X85.197 Y93.968 E10.37705
G1 X85.333 Y93.882 E10.38088
G1 X85.704 Y93.709 E10.39061
G1 X86.193 Y93.545 E10.40288
G1 X92.314 Y104.162 F7800.000
G1 F4800
G1 X92.841 Y103.795 E10.41817
G1 X93.227 Y103.444 E10.43058
G1 X93.590 Y103.034 E10.44360
G1 X93.947 Y102.530 E10.45831
G1 X91.849 Y104.628 E10.52890
G1 E8.52890 F2400.00000
G92 E0
G1 X94.444 Y102.578 F7800.000
G1 E2.00000 F2400.00000
G1 F1200
G1 X94.938 Y102.084 E2.02263
G1 X95.026 Y102.035 E2.02587
G1 X95.860 Y102.216 E2.05352
G1 X95.265 Y102.811 E2.08078
G1 X95.726 Y102.942 E2.09631
G1 X96.095 Y103.036 E2.10862
G1 X96.701 Y102.429 E2.13637
G1 X97.522 Y102.663 E2.16399
G1 X96.936 Y103.248 E2.19077
G1 X97.785 Y103.454 E2.21903
G1 X98.333 Y102.905 E2.24415
G1 X99.144 Y103.149 E2.27156
G1 X98.650 Y103.643 E2.29419
G1 X100.514 Y103.960 F7800.000
G1 F1200
G1 X100.436 Y103.970 E2.29671
G1 X100.496 Y103.977 E2.29867
G1 X101.008 Y103.466 E2.32208
G1 X101.357 Y103.471 E2.33338
G1 X101.609 Y103.451 E2.34157
G1 X101.853 Y103.413 E2.34955
G1 X102.232 Y103.321 E2.36218
G1 X101.737 Y103.815 E2.38481
G1 E0.38481 F2400.00000
G92 E0
G1 X101.775 Y93.826 F7800.000
G1 E2.00000 F2400.00000
G1 F1200
G1 X102.270 Y93.332 E2.02263
G1 X101.384 Y93.139 F7800.000
G1 F1200
G1 X100.861 Y93.662 E2.04659
G1 E0.04659 F2400.00000
G92 E0
G1 X98.617 Y93.995 F7800.000
G1 E2.00000 F2400.00000
G1 F1200
G1 X99.111 Y93.500 E2.02263
G1 X98.518 Y93.619 E2.04220
G1 X97.761 Y93.807 E2.06746
G1 X97.122 Y94.446 E2.09671
G1 X95.888 Y94.790 E2.13818
G1 X95.685 Y94.841 E2.14496
G1 X96.373 Y94.153 E2.17646
G1 X94.921 Y94.562 E2.22529
G1 X94.427 Y95.057 E2.24793
M106 S249.9
G1 Z4.200 F7800.000
G1 E0.24793 F2400.00000
G92 E0
G1 X94.985 Y99.869 F7800.000
G1 E2.00000 F2400.00000
G1 F1200
G1 X95.030 Y99.725 E2.00451
G1 X95.120 Y99.005 E2.02624
G1 X95.984 Y99.869 E2.06283
G1 E0.06283 F2400.00000
G92 E0
G1 X94.497 Y101.378 F7800.000
G1 E2.00000 F2400.00000
G1 F1200
G1 X94.992 Y101.872 E2.02095
G1 X96.276 Y102.158 E2.06036
G1 X94.813 Y100.696 E2.12231
G1 X94.911 Y100.359 E2.13282
G1 X94.914 Y100.274 E2.13537
G1 X95.045 Y100.252 E2.13935
G1 X94.977 Y99.925 E2.14935
G1 X94.985 Y99.869 E2.15106
G1 X97.646 Y102.529 E2.26379
G1 X99.072 Y102.957 E2.30839
G1 X97.806 Y101.691 E2.36203
G1 X98.352 Y102.049 E2.38158
G1 X99.166 Y102.475 E2.40912
G1 X99.340 Y102.553 E2.41484
G1 X99.806 Y102.693 E2.42942
G1 X100.301 Y103.188 E2.45039
G1 X101.290 Y103.328 F7800.000
G1 F1200
G1 X100.796 Y102.834 E2.47134
G1 X100.811 Y102.814 E2.47208
G1 X100.921 Y102.788 E2.47547
G1 X100.992 Y102.719 E2.47842
G1 X101.550 Y102.619 E2.49541
G1 X102.116 Y103.185 E2.51941
G1 X102.811 Y102.911 E2.54178
G1 X102.283 Y102.384 E2.56414
G1 X102.949 Y102.081 E2.58606
G1 X103.443 Y102.575 E2.60701
G1 E0.60701 F2400.00000
G92 E0
G1 X106.961 Y99.033 F7800.000
G1 E2.00000 F2400.00000
G1 F4800
G1 X103.500 Y95.571 E2.11647
G1 X103.065 Y95.307 E2.12858
G1 X102.627 Y95.074 E2.14038
G1 X102.230 Y94.890 E2.15081
G1 X101.762 Y94.714 E2.16270
G1 X106.461 Y99.413 E2.32083
G1 X106.040 Y99.874 E2.33567
G1 X100.615 Y94.449 E2.51821
G1 X100.441 Y94.438 E2.52237
G1 X100.354 Y94.240 E2.52751
G1 X100.217 Y94.436 E2.53321
G1 X100.090 Y94.503 E2.53663
G1 X99.867 Y94.581 E2.54226
G1 X105.582 Y100.297 E2.73458
G1 X105.113 Y100.709 E2.74943
G1 X99.230 Y94.825 E2.94741
G1 X98.658 Y95.134 E2.96288
G1 X104.625 Y101.101 E3.16368
G1 X104.111 Y101.468 E3.17871
G1 X98.127 Y95.484 E3.38004
G1 X97.605 Y95.843 E3.39512
G1 X103.567 Y101.805 E3.59574
G1 X102.990 Y102.109 E3.61126
G1 X97.102 Y96.221 E3.80939
G1 X96.967 Y96.358 E3.81396
G1 X96.720 Y96.720 E3.82439
G1 X102.372 Y102.372 E4.01457
G1 X102.094 Y102.462 E4.02153
G1 X101.683 Y102.564 E4.03159
G1 X96.326 Y97.207 E4.21184
G1 X95.938 Y97.699 E4.22676
G1 X100.989 Y102.751 E4.39675
G1 X100.956 Y102.759 E4.39755
G1 X100.852 Y102.885 E4.40144
G1 X100.812 Y102.883 E4.40239
G1 X100.682 Y102.696 E4.40782
G1 X100.421 Y102.569 E4.41472
G1 X100.040 Y102.476 E4.42405
G1 X99.633 Y102.276 E4.43485
G1 X95.529 Y98.172 E4.57295
G1 X95.282 Y98.306 E4.57964
G1 X95.204 Y98.297 E4.58152
G1 X94.855 Y98.379 E4.59004
G1 X95.390 Y98.914 E4.60805
G1 X95.309 Y98.946 E4.61013
G1 X95.013 Y98.944 E4.61717
G1 X95.006 Y99.410 E4.62826
G1 X88.130 Y92.535 E4.85962
G1 X87.901 Y92.524 E4.86507
G1 X87.820 Y92.502 E4.86706
G1 X87.641 Y92.570 E4.87163
G1 X87.397 Y92.513 E4.87760
G1 X87.223 Y92.509 E4.88173
G1 X94.891 Y100.177 E5.13976
G1 X94.796 Y100.741 E5.15337
G1 X94.745 Y100.912 E5.15761
G1 X86.661 Y92.828 E5.42963
G1 X86.577 Y92.909 E5.43243
G1 X86.309 Y92.992 E5.43909
G1 X86.109 Y93.148 E5.44513
G1 X86.081 Y93.128 E5.44596
G1 X94.469 Y101.517 E5.72822
G1 X94.197 Y102.125 E5.74408
G1 X85.453 Y93.381 E6.03828
G1 X85.242 Y93.695 E6.04727
G1 X85.136 Y93.945 E6.05374
G1 X93.877 Y102.686 E6.34786
G1 X93.510 Y103.200 E6.36289
G1 X84.914 Y94.604 E6.65216
G1 X84.746 Y95.317 E6.66959
G1 X93.093 Y103.664 E6.95045
G1 X92.620 Y104.072 E6.96531
G1 X84.613 Y96.065 E7.23474
G1 X84.492 Y96.825 E7.25306
G1 X92.085 Y104.418 E7.50854
G1 X91.503 Y104.717 E7.52410
G1 X84.389 Y97.603 E7.76349
G1 X84.356 Y98.001 E7.77299
G1 X84.349 Y98.444 E7.78353
G1 X90.903 Y104.997 E8.00405
G1 X90.726 Y105.055 E8.00847
G1 X90.067 Y104.832 E8.02503
G1 X90.030 Y104.935 E8.02762
G1 X89.924 Y104.899 E8.03027
G1 X84.428 Y99.404 E8.21520
G1 X84.586 Y100.443 E8.24022
G1 X88.789 Y104.646 E8.38163
G1 X88.372 Y104.525 E8.39196
G1 X88.182 Y104.563 E8.39656
G1 X88.134 Y104.550 E8.39776
G1 X87.878 Y104.616 E8.40404
G1 X84.779 Y101.516 E8.50833
G1 X84.962 Y102.228 E8.52581
G1 X85.154 Y102.773 E8.53956
G1 X86.320 Y103.939 E8.57879
G1 X85.919 Y103.753 E8.58930
G1 X85.704 Y103.433 E8.59847
G1 X85.620 Y103.238 E8.60352
G1 X88.130 Y92.535 F7800.000
G1 F4800
G1 X88.413 Y92.548 E8.61026
G1 X88.431 Y92.500 E8.61149
G1 X88.553 Y92.507 E8.61439
G1 X88.887 Y92.411 E8.62267
G1 X95.319 Y98.843 E8.83911
G1 X95.059 Y98.470 E8.84992
G1 X94.911 Y97.554 E8.87201
G1 X89.645 Y92.288 E9.04920
G1 X90.129 Y92.113 E9.06143
G1 X90.293 Y92.075 E9.06545
G1 X90.328 Y92.090 E9.06635
G1 X94.572 Y96.334 E9.20917
G1 X93.473 Y94.354 F7800.000
G1 F4800
G1 X92.280 Y93.161 E9.24931
G1 X92.579 Y93.422 E9.25874
G1 X93.008 Y93.888 E9.27382
G1 E7.27382 F2400.00000
G92 E0
G1 X95.624 Y98.168 F7800.000
G1 E2.00000 F2400.00000
G1 F1200
G1 X95.129 Y97.674 E2.02263
G1 X95.044 Y97.058 E2.04274
G1 X95.005 Y96.901 E2.04800
G1 X95.002 Y96.837 E2.05006
G1 X95.055 Y96.658 E2.05610
G1 X96.060 Y97.663 E2.10210
G1 X96.355 Y97.287 E2.11759
G1 X96.488 Y97.150 E2.12377
G1 X94.584 Y95.245 E2.21097
G1 X95.358 Y95.078 E2.23662
G1 X96.884 Y96.604 E2.30649
G1 X96.987 Y96.453 E2.31240
G1 X97.141 Y96.291 E2.31965
G1 X97.343 Y96.122 E2.32818
G1 X96.115 Y94.893 E2.38441
G1 X96.853 Y94.690 E2.40920
G1 X97.890 Y95.727 E2.45668
G1 X98.451 Y95.347 E2.47862
G1 X97.582 Y94.478 E2.51839
G1 X98.304 Y94.258 E2.54282
G1 X99.034 Y94.987 E2.57621
G1 X99.653 Y94.665 E2.59881
G1 X99.031 Y94.044 E2.62726
G1 X99.174 Y94.002 E2.63206
G1 X99.834 Y93.905 E2.65367
G1 X100.329 Y94.399 E2.67630
G1 X101.710 Y94.345 F7800.000
G1 F1200
G1 X101.283 Y94.299 E2.69022
G1 X101.304 Y94.342 E2.69177
G1 X101.363 Y94.346 E2.69368
G1 X101.456 Y94.414 E2.69739
G1 X101.835 Y94.470 E2.70982
G1 X101.216 Y93.851 E2.73817
G1 X101.607 Y93.945 E2.75119
G1 X101.976 Y94.072 E2.76381
G1 X102.627 Y94.372 E2.78703
G1 X103.062 Y94.618 E2.80320
G1 X103.557 Y95.113 E2.82584
M106 S244.8
G1 Z4.500 F7800.000
G1 E0.82584 F2400.00000
G92 E0
G1 X106.883 Y98.816 F7800.000
G1 E2.00000 F2400.00000
G1 F1200
G1 X107.378 Y98.321 E2.01915
G1 X107.367 Y98.265 E2.02072
G1 X107.290 Y98.197 E2.02351
G1 X106.975 Y98.138 E2.03228
G1 X106.787 Y98.000 E2.03866
G1 X102.928 Y101.859 E2.18801
G1 X102.622 Y102.028 E2.19757
G1 X101.993 Y102.309 E2.21642
G1 X101.377 Y102.499 E2.23407
G1 X106.312 Y97.563 E2.42506
G1 X106.173 Y97.408 E2.43078
G1 X105.851 Y97.112 E2.44272
G1 X100.252 Y102.711 E2.65938
G1 X99.963 Y102.554 E2.66840
G1 X99.593 Y102.459 E2.67885
G1 X105.376 Y96.676 E2.90262
G1 X104.880 Y96.260 E2.92033
G1 X98.986 Y102.154 E3.14840
G1 X98.657 Y101.985 E3.15852
G1 X98.410 Y101.818 E3.16668
G1 X104.361 Y95.868 E3.39696
G1 X103.817 Y95.499 E3.41493
G1 X97.865 Y101.451 E3.64525
G1 X97.333 Y101.072 E3.66314
G1 X103.235 Y95.170 E3.89154
G1 X102.612 Y94.881 E3.91033
G1 X96.881 Y100.612 E4.13212
G1 X96.493 Y100.088 E4.14996
G1 X101.928 Y94.652 E4.36029
G1 X101.481 Y94.567 E4.37274
G1 X101.540 Y94.694 E4.37657
G1 X100.984 Y94.967 E4.39351
G1 X100.887 Y94.782 E4.39922
G1 X96.077 Y99.592 E4.58535
G1 X95.671 Y99.086 E4.60310
G1 X100.080 Y94.677 E4.77374
G1 X99.113 Y95.173 E4.80348
G1 X98.213 Y95.781 E4.83319
G1 X97.741 Y96.124 E4.84916
G1 X96.979 Y96.867 E4.87829
G1 E2.87829 F2400.00000
G92 E0
G1 X91.408 Y104.187 F7800.000
G1 E2.00000 F2400.00000
G1 F4800
G1 X94.036 Y101.560 E2.08841
G1 X94.336 Y100.927 E2.10507
G1 X94.469 Y100.570 E2.11414
G1 X94.606 Y100.108 E2.12560
G1 X89.908 Y104.806 E2.28367
G1 X89.215 Y104.619 E2.30076
G1 X94.796 Y99.038 E2.48855
G1 X94.828 Y98.497 E2.50144
G1 X94.827 Y98.126 E2.51027
G1 X88.306 Y104.647 E2.72969
G1 X88.045 Y104.664 E2.73591
G1 X87.839 Y104.836 E2.74231
G1 X87.601 Y104.953 E2.74861
G1 X87.393 Y104.997 E2.75368
G1 X87.085 Y104.987 E2.76101
G1 X94.757 Y97.315 E3.01917
G1 X94.611 Y96.580 E3.03701
G1 X86.525 Y104.666 E3.30910
G1 X86.160 Y104.150 E3.32414
G1 X94.400 Y95.909 E3.60144
G1 X94.133 Y95.296 E3.61736
G1 X85.633 Y103.796 E3.90336
G1 X85.476 Y103.522 E3.91085
G1 X85.341 Y103.207 E3.91902
G1 X93.815 Y94.733 E4.20416
G1 X93.447 Y94.220 E4.21918
G1 X85.132 Y102.535 E4.49897
G1 X84.999 Y101.787 E4.51705
G1 X93.025 Y93.761 E4.78711
G1 X92.546 Y93.359 E4.80198
G1 X84.921 Y100.984 E5.05858
G1 X84.850 Y100.174 E5.07794
G1 X92.006 Y93.018 E5.31873
G1 X91.420 Y92.723 E5.33434
G1 X84.782 Y99.361 E5.55770
G1 X84.767 Y98.495 E5.57832
G1 X90.822 Y92.440 E5.78206
G1 X90.572 Y92.293 E5.78896
G1 X90.505 Y92.290 E5.79055
G1 X89.929 Y92.452 E5.80479
G1 X84.839 Y97.542 E5.97607
G1 X84.924 Y96.576 E5.99915
G1 X88.981 Y92.520 E6.13564
G1 X88.489 Y92.455 E6.14744
G1 X88.313 Y92.307 E6.15292
G1 X85.032 Y95.588 E6.26333
G1 X85.132 Y95.050 E6.27634
G1 X85.337 Y94.401 E6.29253
G1 X87.599 Y92.140 E6.36864
G1 X89.600 Y104.234 F7800.000
G1 F4800
G1 X89.629 Y104.242 E6.36938
G1 X89.644 Y104.189 E6.37068
G1 X89.134 Y104.699 E6.38784
M106 S249.9
G1 Z4.800 F7800.000
G1 E4.38784 F2400.00000
G92 E0
G1 X85.988 Y103.606 F7800.000
G1 E2.00000 F2400.00000
G1 F4800
