; generated by Slic3r 1.3.0 on 2020-03-18 at 22:08:27

; external perimeters extrusion width = 0.55mm (4.37mm^3/s)
; perimeters extrusion width = 0.70mm (11.44mm^3/s)
; infill extrusion width = 0.63mm (13.45mm^3/s)
; solid infill extrusion width = 0.70mm (3.81mm^3/s)
; top infill extrusion width = 0.70mm (2.86mm^3/s)

M107
M104 S205 ; set temperature
G28 ; home all axes
G1 Z5 F5000 ; lift nozzle

; Filament gcode

M109 S205 ; set temperature and wait for it to be reached
G21 ; set units to millimeters
G90 ; use absolute coordinates
M82 ; use absolute distances for extrusion
G92 E0
G1 Z0.300 F7800.000
G1 E-2.00000 F2400.00000
G92 E0
G1 X94.926 Y93.622 F7800.000
G1 E2.00000 F2400.00000
G1 F1800
G1 X94.062 Y94.486 E2.02777
G1 X94.087 Y94.578 E2.02993
G1 X94.229 Y94.460 E2.03414
G1 X94.402 Y94.360 E2.03867
G1 X94.543 Y94.176 E2.04395
G1 X94.824 Y94.104 E2.05055
G1 X95.318 Y94.111 E2.06177
G1 X96.130 Y93.299 E2.08786
G1 X96.928 Y93.105 E2.10654
G1 X97.257 Y93.053 E2.11410
G1 X96.266 Y94.044 E2.14596
G1 X97.035 Y93.929 E2.16365
G1 X97.325 Y93.865 E2.17040
G1 X98.268 Y92.923 E2.20070
G1 X98.870 Y92.883 E2.21442
G1 X99.085 Y92.729 E2.22042
G1 X99.244 Y92.582 E2.22535
G1 X99.263 Y92.593 E2.22587
G1 X99.347 Y92.724 E2.22941
G1 X98.127 Y93.944 E2.26862
G1 X98.224 Y94.137 E2.27352
G1 X98.144 Y94.630 E2.28487
G1 X98.132 Y94.820 E2.28921
G1 X99.574 Y93.379 E2.33555
G1 X99.639 Y93.941 E2.34843
G1 X99.632 Y94.202 E2.35435
G1 X98.162 Y95.671 E2.40159
G1 E0.40159 F2400.00000
G92 E0
G1 X100.984 Y94.612 F7800.000
G1 E2.00000 F2400.00000
G1 F1800
G1 X100.858 Y94.559 E2.00310
G1 X100.660 Y94.521 E2.00768
G1 X100.576 Y94.470 E2.00992
G1 X100.599 Y94.584 E2.01257
G1 X100.495 Y94.815 E2.01832
G1 X100.427 Y94.870 E2.02031
G1 X100.568 Y95.027 E2.02512
G1 X101.410 Y94.185 E2.05220
G1 X101.649 Y94.251 E2.05783
G1 X102.034 Y94.251 E2.06657
G1 X102.203 Y94.274 E2.07045
G1 X101.569 Y94.907 E2.09080
G1 X102.188 Y95.170 E2.10607
G1 X102.972 Y94.385 E2.13129
G1 X103.673 Y94.565 E2.14774
G1 X102.857 Y95.381 E2.17397
G1 X103.103 Y95.458 E2.17981
G1 X103.169 Y95.889 E2.18972
G1 X103.158 Y95.961 E2.19138
G1 X104.417 Y94.702 E2.23186
G1 X104.802 Y94.492 E2.24182
G1 X104.999 Y94.427 E2.24656
G1 X105.045 Y94.428 E2.24758
G1 X105.055 Y94.446 E2.24806
G1 X105.070 Y94.660 E2.25292
G1 X105.014 Y94.986 E2.26046
G1 X97.566 Y102.434 E2.49988
G1 X97.753 Y102.674 E2.50679
G1 X97.635 Y102.852 E2.51165
G1 X97.619 Y102.966 E2.51425
G1 X97.297 Y103.471 E2.52787
G1 X97.182 Y103.699 E2.53367
G1 X103.939 Y96.941 E2.75089
G1 X103.908 Y97.161 E2.75594
G1 X104.142 Y97.313 E2.76229
G1 X104.376 Y97.386 E2.76785
G1 X99.438 Y102.324 E2.92659
G1 X100.530 Y102.113 E2.95188
G1 X104.843 Y97.800 E3.09052
G1 X105.081 Y98.081 E3.09890
G1 X105.262 Y98.261 E3.10471
G1 X101.971 Y101.553 E3.21053
G1 X102.290 Y101.717 E3.21870
G1 X102.266 Y102.138 E3.22829
G1 X102.641 Y101.764 E3.24034
G1 X102.512 Y101.593 E3.24521
G1 X102.583 Y101.098 E3.25657
G1 X103.082 Y100.933 E3.26852
G1 X103.616 Y100.788 E3.28110
G1 X105.818 Y98.587 E3.35187
G1 X106.538 Y98.748 E3.36864
G1 X105.645 Y99.641 E3.39734
G1 X106.067 Y99.565 E3.40709
G1 X106.581 Y99.586 E3.41878
G1 X107.303 Y98.863 E3.44200
G1 X107.783 Y98.954 E3.45311
G1 X108.006 Y99.041 E3.45856
G1 X107.371 Y99.677 E3.47900
G1 X107.765 Y99.784 E3.48829
G1 X108.012 Y99.916 E3.49465
G1 X108.568 Y99.360 E3.51255
G1 X108.831 Y99.640 E3.52128
G1 X108.947 Y99.863 E3.52698
G1 X108.390 Y100.420 E3.54489
G1 X108.536 Y100.843 E3.55508
G1 X108.565 Y101.126 E3.56153
G1 X109.150 Y100.541 E3.58033
G1 X109.181 Y100.830 E3.58695
G1 X109.170 Y101.127 E3.59370
G1 X109.100 Y101.471 E3.60167
G1 X108.485 Y102.086 E3.62144
G1 X107.945 Y102.626 F7800.000
G1 F1800
G1 X108.503 Y102.068 E3.63938
G1 X108.332 Y102.109 E3.64337
G1 X108.034 Y102.104 E3.65015
G1 X107.875 Y102.064 E3.65389
G1 X107.702 Y101.988 E3.65817
G1 X107.252 Y102.438 E3.67263
G1 X107.097 Y102.298 E3.67739
G1 X106.967 Y102.120 E3.68239
G1 X106.914 Y102.023 E3.68491
G1 X106.890 Y101.919 E3.68733
G1 X107.340 Y101.469 E3.70179
G1 X107.433 Y101.376 F7800.000
G1 F1800
G1 X107.939 Y100.870 E3.71808
G1 X108.104 Y101.039 E3.72345
G1 X108.202 Y101.188 E3.72749
G1 X108.185 Y101.198 E3.72795
G1 X108.130 Y101.097 E3.73054
G1 X107.859 Y100.950 E3.73755
G1 E1.73755 F2400.00000
G92 E0
G1 X102.266 Y102.138 F7800.000
G1 E2.00000 F2400.00000
G1 F1800
G1 X102.247 Y102.480 E2.00778
G1 X102.282 Y103.003 E2.01970
G1 X103.418 Y101.868 E2.05620
G1 X103.597 Y102.199 E2.06476
G1 X103.701 Y102.466 E2.07127
G1 X102.438 Y103.728 E2.11186
G1 X102.537 Y104.041 E2.11931
G1 X102.487 Y104.347 E2.12637
G1 X102.627 Y104.284 E2.12985
G1 X102.682 Y104.366 E2.13208
G1 X103.904 Y103.143 E2.17138
G1 X103.976 Y103.756 E2.18542
G1 X103.963 Y103.965 E2.19018
G1 X103.044 Y104.884 E2.21972
G1 X101.187 Y104.979 F7800.000
G1 F1800
G1 X102.074 Y104.092 E2.24823
G1 X101.262 Y104.139 E2.26673
G1 X101.123 Y104.162 E2.26992
G1 X100.404 Y104.882 E2.29304
G1 X100.152 Y104.837 E2.29886
G1 X99.894 Y104.872 E2.30477
G1 X99.690 Y104.985 E2.31008
G1 X99.562 Y105.016 E2.31307
G1 X99.444 Y105.103 E2.31641
G1 X99.410 Y104.995 E2.31898
G1 X100.239 Y104.166 E2.34563
G1 E0.34563 F2400.00000
G92 E0
G1 X96.637 Y105.124 F7800.000
G1 E2.00000 F2400.00000
G1 F1800
G1 X98.841 Y102.920 E2.07085
G1 X98.807 Y103.083 E2.07464
G1 X98.611 Y103.636 E2.08796
G1 X98.401 Y104.087 E2.09928
G1 X98.441 Y104.137 E2.10072
G1 X98.367 Y104.133 E2.10240
G1 X98.065 Y104.539 E2.11388
G1 X97.847 Y104.777 E2.12123
G1 X97.601 Y104.989 E2.12862
G1 X97.426 Y105.099 E2.13331
G1 X97.365 Y105.122 E2.13478
G1 X97.110 Y105.131 E2.14060
G1 X96.303 Y105.459 E2.16039
G1 X95.877 Y105.885 F7800.000
G1 F1800
G1 X97.028 Y104.734 E2.19739
G1 X95.991 Y105.062 E2.22211
G1 X95.707 Y105.174 E2.22905
G1 X94.586 Y106.295 E2.26509
G1 X94.062 Y106.404 E2.27726
G1 X93.638 Y106.445 E2.28695
G1 X94.241 Y106.070 E2.30311
G1 X94.939 Y105.738 E2.32068
G1 X95.281 Y105.600 E2.32905
G1 X93.973 Y106.027 F7800.000
G1 F1800
G1 X93.985 Y106.026 E2.32934
G1 X93.546 Y106.454 E2.34327
G1 X93.289 Y105.830 F7800.000
G1 F1800
G1 X92.646 Y106.473 E2.36394
G1 E0.36394 F2400.00000
G92 E0
G1 X97.003 Y102.116 F7800.000
G1 E2.00000 F2400.00000
G1 F1800
G1 X102.325 Y96.794 E2.17107
G1 X101.992 Y96.771 E2.17866
G1 X101.574 Y96.664 E2.18846
G1 X95.726 Y102.513 E2.37647
G1 X95.427 Y102.526 E2.38326
G1 X95.119 Y102.514 E2.39028
G1 X94.877 Y102.481 E2.39584
G1 X100.929 Y96.428 E2.59041
G1 X100.320 Y96.156 E2.60557
G1 X94.126 Y102.351 E2.80472
G1 X93.722 Y102.252 E2.81418
G1 X93.446 Y102.149 E2.82086
G1 X99.693 Y95.902 E3.02170
G1 X99.586 Y95.859 E3.02432
G1 X99.403 Y95.438 E3.03476
G1 X99.450 Y95.264 E3.03885
G1 X92.836 Y101.879 E3.25151
G1 X92.656 Y101.789 E3.25607
G1 X92.292 Y101.541 E3.26608
G1 X97.861 Y95.972 E3.44511
G1 X97.350 Y96.214 E3.45796
G1 X97.039 Y96.127 E3.46530
G1 X96.914 Y96.038 E3.46878
G1 X91.833 Y101.119 E3.63213
G1 X91.673 Y100.890 E3.63850
G1 X91.529 Y100.543 E3.64704
G1 X96.276 Y95.795 E3.79966
G1 X95.955 Y95.770 E3.80699
G1 X95.394 Y95.797 E3.81975
G1 X91.423 Y99.768 E3.94743
G1 X91.428 Y98.882 E3.96758
G1 X94.314 Y95.996 E4.06035
G1 X94.040 Y96.074 E4.06683
G1 X93.620 Y96.233 E4.07702
G1 X92.984 Y96.563 E4.09333
G1 X92.571 Y96.858 E4.10485
G1 X91.827 Y97.602 E4.12878
G1 X92.031 Y97.379 E4.13566
G1 X92.145 Y97.284 E4.13902
M104 S200 ; set temperature
G1 Z0.600 F7800.000
G1 X92.051 Y100.861 F7800.000
G1 F2349.71
G1 X92.247 Y101.160 E4.14754
G1 X92.544 Y101.453 E4.15747
G1 X92.888 Y101.697 E4.16748
G1 X91.586 Y100.395 E4.21128
G1 X91.466 Y100.119 E4.21844
G1 X91.370 Y99.737 E4.22781
G1 X91.323 Y99.252 E4.23941
G1 X94.422 Y102.351 E4.34369
G1 X95.507 Y102.555 E4.36996
G1 X91.337 Y98.385 E4.51027
G1 X91.396 Y97.959 E4.52049
G1 X91.492 Y97.658 E4.52800
G1 X96.392 Y102.558 E4.69288
G1 X96.596 Y102.510 E4.69789
G1 X96.740 Y102.453 E4.70156
G1 X96.874 Y102.372 E4.70529
G1 X96.884 Y102.247 E4.70827
G1 X96.944 Y102.229 E4.70976
G1 X91.813 Y97.098 E4.88242
G1 X91.892 Y97.007 E4.88531
G1 X92.282 Y96.686 E4.89730
G1 X98.860 Y103.264 E5.11865
G1 X98.895 Y103.153 E5.12142
G1 X98.866 Y103.102 E5.12283
G1 X98.994 Y102.896 E5.12861
G1 X99.001 Y102.769 E5.13163
G1 X99.145 Y102.669 E5.13580
G1 X92.831 Y96.354 E5.34827
G1 X93.064 Y96.241 E5.35444
G1 X93.450 Y96.093 E5.36428
G1 X99.752 Y102.395 E5.57636
G1 X99.944 Y102.321 E5.58126
G1 X100.464 Y102.226 E5.59383
G1 X94.138 Y95.900 E5.80671
G1 X94.880 Y95.761 E5.82468
G1 X101.183 Y102.064 E6.03676
G1 X101.787 Y101.787 E6.05257
G1 X95.714 Y95.714 E6.25691
G1 X95.820 Y95.719 E6.25942
G1 X96.103 Y95.774 E6.26629
G1 X96.269 Y95.837 E6.27051
G1 X96.465 Y95.956 E6.27596
G1 X96.464 Y96.080 E6.27890
G1 X96.753 Y96.147 E6.28598
G1 X96.887 Y96.209 E6.28947
G1 X97.020 Y96.139 E6.29306
G1 X102.518 Y101.638 E6.47808
G1 X102.431 Y103.312 F7800.000
G1 F2349.71
G1 X102.484 Y103.315 E6.47934
G1 X102.547 Y103.428 E6.48240
G1 X103.676 Y104.557 E6.52040
G1 X103.745 Y104.451 E6.52341
G1 X103.796 Y104.321 E6.52674
G1 X103.847 Y104.100 E6.53213
G1 X103.872 Y103.872 E6.53759
G1 X102.263 Y102.263 E6.59172
G1 X102.293 Y101.509 E6.60968
G1 X102.154 Y101.325 E6.61517
G1 X102.141 Y101.260 E6.61673
G1 X103.657 Y102.776 E6.66773
G1 X103.307 Y102.142 E6.68498
G1 X103.157 Y101.936 E6.69101
G1 X102.915 Y101.676 E6.69949
G1 X102.931 Y101.416 E6.70569
G1 X103.004 Y101.243 E6.71016
G1 X97.626 Y95.864 E6.89113
G1 X97.943 Y95.776 E6.89897
G1 X98.082 Y95.571 E6.90485
G1 X98.111 Y95.468 E6.90739
G1 X103.568 Y100.925 E7.09101
G1 X104.251 Y100.727 E7.10792
G1 X99.506 Y95.982 E7.26759
G1 X100.469 Y96.407 E7.29265
G1 X101.019 Y96.615 E7.30664
G1 X104.883 Y100.478 E7.43664
G1 X105.078 Y100.344 E7.44226
G1 X105.330 Y100.045 E7.45159
G1 X102.154 Y96.868 E7.55847
G1 X102.277 Y96.901 E7.56148
G1 X102.498 Y96.758 E7.56775
G1 X102.618 Y96.668 E7.57134
G1 X102.681 Y96.514 E7.57528
G1 X105.870 Y99.703 E7.68258
G1 X106.131 Y99.084 F7800.000
G1 F2349.71
G1 X105.877 Y99.035 E7.68874
G1 X105.733 Y98.985 E7.69236
G1 X105.420 Y98.803 E7.70099
G1 X105.195 Y98.602 E7.70817
G1 X104.779 Y98.147 E7.72283
G1 X104.574 Y97.974 E7.72921
G1 X104.318 Y97.850 E7.73597
G1 X104.002 Y97.797 E7.74360
G1 X103.810 Y97.351 E7.75514
G1 X104.110 Y97.062 E7.76504
G1 X102.946 Y95.899 E7.80420
G1 X103.107 Y95.623 E7.81178
G1 X103.324 Y95.584 E7.81703
G1 X103.328 Y95.400 E7.82140
G1 X104.516 Y96.588 E7.86136
G1 X104.728 Y95.919 F7800.000
G1 F2349.71
G1 X103.758 Y94.949 E7.89402
G1 X103.212 Y94.741 E7.90791
G1 X102.490 Y94.562 E7.92560
G1 X103.042 Y95.114 E7.94417
G1 X102.736 Y94.996 E7.95199
G1 X102.956 Y95.027 E7.95728
G1 E5.95728 F2400.00000
G92 E0
G1 X99.534 Y94.249 F7800.000
G1 E2.00000 F2400.00000
G1 F2349.71
G1 X98.547 Y93.261 E2.03322
G1 X98.431 Y93.280 E2.03601
G1 X98.521 Y93.560 E2.04300
G1 X98.364 Y93.630 E2.04709
G1 X98.269 Y93.865 E2.05310
G1 X99.584 Y95.179 E2.09733
G1 X99.487 Y95.658 E2.10895
G1 X99.422 Y95.882 E2.11451
G1 X99.434 Y95.911 E2.11525
G1 X98.114 Y94.591 E2.15966
G1 X98.159 Y95.184 E2.17382
G1 X98.188 Y95.199 E2.17460
G1 X98.111 Y95.468 E2.18125
G1 X98.005 Y93.600 F7800.000
G1 F2349.71
G1 X97.529 Y93.125 E2.19725
G1 X96.817 Y93.208 E2.21431
G1 X96.745 Y93.221 E2.21605
G1 X97.293 Y93.770 E2.23449
G1 X96.513 Y93.870 E2.25321
G1 X96.032 Y93.389 E2.26941
G1 E0.26941 F2400.00000
G92 E0
G1 X97.033 Y104.080 F7800.000
G1 E2.00000 F2400.00000
G1 F2349.71
G1 X97.873 Y104.920 E2.02826
G1 X98.110 Y104.733 E2.03544
G1 X98.321 Y104.488 E2.04315
G1 X97.143 Y103.310 E2.08278
G1 X97.240 Y103.105 E2.08817
G1 X97.466 Y102.752 E2.09815
G1 X98.674 Y103.959 E2.13878
G1 E0.13878 F2400.00000
G92 E0
G1 X96.719 Y105.528 F7800.000
G1 E2.00000 F2400.00000
G1 F2349.71
G1 X96.225 Y105.035 E2.01660
G1 X95.557 Y105.248 E2.03328
G1 X96.097 Y105.787 E2.05144
G1 X95.991 Y105.827 E2.05413
G1 X95.423 Y105.994 E2.06822
G1 X94.941 Y105.512 E2.08444
G1 E0.08444 F2400.00000
G92 E0
G1 X101.719 Y104.361 F7800.000
G1 E2.00000 F2400.00000
G1 F2349.71
G1 X102.013 Y104.355 E2.00700
G1 X102.005 Y104.274 E2.00892
G1 X101.626 Y104.269 E2.01795
G1 X102.184 Y104.827 E2.03673
G1 E0.03673 F2400.00000
G92 E0
G1 X107.722 Y102.436 F7800.000
G1 E2.00000 F2400.00000
G1 F2349.71
G1 X107.544 Y102.326 E2.00499
G1 X107.438 Y102.175 E2.00938
G1 X107.426 Y102.180 E2.00971
G1 X107.495 Y102.294 E2.01289
G1 X107.591 Y102.399 E2.01627
G1 X107.723 Y102.509 E2.02034
G1 X107.884 Y102.599 E2.02474
G1 X107.257 Y101.971 E2.04585
G1 X107.434 Y102.046 E2.05043
G1 X107.740 Y102.082 E2.05776
G1 X107.950 Y102.061 E2.06278
G1 X108.154 Y101.987 E2.06793
G1 X108.718 Y102.551 E2.08691
G1 X109.003 Y101.956 F7800.000
G1 F2349.71
G1 X108.944 Y102.335 E2.09604
G1 X109.060 Y102.142 E2.10138
G1 X109.093 Y102.046 E2.10381
G1 X108.538 Y101.490 E2.12249
G1 X108.575 Y101.225 E2.12886
G1 X108.601 Y100.672 E2.14203
G1 X109.211 Y101.283 E2.16257
G1 X108.878 Y100.068 F7800.000
G1 F2349.71
G1 X108.026 Y99.222 E2.19113
G1 X107.540 Y98.966 E2.20421
G1 X107.344 Y98.896 E2.20915
G1 X107.132 Y98.849 E2.21432
G1 X106.716 Y98.787 E2.22434
G1 X107.622 Y99.693 E2.25483
G1 X107.350 Y99.661 E2.26133
G1 X106.673 Y99.626 E2.27746
G1 X105.666 Y98.618 E2.31136
G1 Z0.900 F7800.000
G1 E0.31136 F2400.00000
G92 E0
G1 X108.535 Y100.758 F7800.000
G1 E2.00000 F2400.00000
G1 F600
G1 X109.054 Y100.239 E2.02375
G1 X109.079 Y101.292 F7800.000
G1 F600
G1 X108.585 Y101.787 E2.04639
G1 E0.04639 F2400.00000
G92 E0
G1 X106.690 Y99.477 F7800.000
G1 E2.00000 F2400.00000
G1 F2190.74
G1 X107.206 Y98.960 E2.01739
G1 X106.443 Y98.842 E2.03576
G1 X105.835 Y99.451 E2.05624
G1 X105.562 Y99.464 E2.06274
G1 X105.382 Y99.515 E2.06718
G1 X105.176 Y99.650 E2.07303
G1 X104.971 Y99.927 E2.08124
G1 X104.632 Y100.301 E2.09325
G1 X104.367 Y100.480 E2.10087
G1 X104.072 Y100.608 E2.10850
G1 X103.675 Y100.730 E2.11840
G1 X105.718 Y98.686 E2.18716
G1 X105.416 Y98.386 E2.19728
G1 X105.442 Y98.349 E2.19837
G1 X105.301 Y98.223 E2.20288
G1 E0.20288 F2400.00000
G92 E0
G1 X102.934 Y104.113 F7800.000
G1 E2.00000 F2400.00000
G1 F2190.74
G1 X103.718 Y103.329 E2.02638
G1 X103.723 Y103.078 E2.03235
G1 X103.678 Y102.664 E2.04226
G1 X103.732 Y102.656 E2.04356
G1 X103.668 Y102.499 E2.04761
G1 X102.558 Y103.608 E2.08494
G1 X102.446 Y103.343 E2.09180
G1 X102.394 Y103.363 E2.09312
G1 X102.333 Y102.952 E2.10298
G1 X103.375 Y101.911 E2.13803
G1 X103.126 Y101.531 E2.14882
G1 X103.004 Y101.400 E2.15308
G1 X102.353 Y102.051 E2.17499
G1 X102.374 Y101.926 E2.17801
G1 X101.947 Y101.577 E2.19114
G1 X105.301 Y98.223 E2.30400
G1 X104.869 Y97.774 E2.31882
G1 X100.445 Y102.198 E2.46768
G1 X99.593 Y102.581 E2.48991
G1 X98.981 Y102.781 E2.50524
G1 X104.305 Y97.457 E2.68441
G1 X103.804 Y97.387 E2.69644
G1 X103.833 Y97.141 E2.70233
G1 X103.801 Y97.080 E2.70398
G1 X97.736 Y103.145 E2.90804
G1 X97.688 Y102.596 E2.92115
G1 X97.482 Y102.518 E2.92640
G1 X104.529 Y95.471 E3.16352
G1 X104.472 Y95.255 E3.16884
G1 X104.279 Y95.266 E3.17344
G1 X104.132 Y95.324 E3.17720
G1 X103.854 Y95.541 E3.18558
G1 X103.597 Y95.829 E3.19476
G1 X103.546 Y95.787 E3.19634
G1 X103.421 Y96.009 E3.20240
G1 X103.157 Y96.630 E3.21847
G1 X103.104 Y96.669 E3.22002
G1 X103.042 Y96.796 E3.22338
G1 X102.683 Y96.906 E3.23231
G1 X102.380 Y96.739 E3.24055
G1 X96.792 Y102.327 E3.42857
G1 X96.613 Y102.301 E3.43287
G1 X96.360 Y102.505 E3.44060
G1 X96.190 Y102.593 E3.44515
G1 X96.005 Y102.647 E3.44976
G1 X95.823 Y102.672 E3.45412
G1 X95.573 Y102.666 E3.46008
G1 X101.740 Y96.499 E3.66760
G1 X101.146 Y96.211 E3.68329
G1 X94.786 Y102.571 E3.89730
G1 X94.438 Y102.513 E3.90569
G1 X94.059 Y102.417 E3.91500
G1 X100.551 Y95.925 E4.13347
G1 X99.933 Y95.663 E4.14945
G1 X93.377 Y102.218 E4.37005
G1 X93.051 Y102.107 E4.37826
G1 X92.749 Y101.965 E4.38618
G1 X99.492 Y95.222 E4.61307
G1 X99.449 Y95.086 E4.61646
G1 X99.498 Y95.031 E4.61823
G1 X99.480 Y94.946 E4.62029
G1 X99.538 Y94.591 E4.62885
G1 X99.487 Y94.592 E4.63007
G1 X99.475 Y94.359 E4.63563
G1 X98.214 Y95.619 E4.67803
G1 X98.179 Y94.975 E4.69338
G1 X98.227 Y94.985 E4.69453
G1 X98.315 Y94.638 E4.70305
G1 X99.274 Y93.679 E4.73532
G1 E2.73532 F2400.00000
G92 E0
G1 X92.526 Y96.902 F7800.000
G1 E2.00000 F2400.00000
G1 F2190.74
G1 X92.192 Y97.119 E2.00947
G1 X91.915 Y97.349 E2.01804
G1 X91.726 Y97.542 E2.02447
G1 X91.588 Y97.732 E2.03006
G1 X91.474 Y97.955 E2.03601
G1 X92.992 Y96.437 E2.08706
G1 X93.313 Y96.273 E2.09565
G1 X93.684 Y96.121 E2.10520
G1 X94.409 Y95.901 E2.12323
G1 X91.322 Y98.987 E2.22710
G1 X91.312 Y99.437 E2.23780
G1 X91.329 Y99.862 E2.24792
G1 X95.523 Y95.668 E2.38906
G1 X95.996 Y95.616 E2.40037
G1 X96.290 Y95.621 E2.40738
G1 X96.426 Y95.645 E2.41067
G1 X91.413 Y100.659 E2.57936
G1 X91.456 Y100.777 E2.58236
G1 X91.637 Y101.099 E2.59115
G1 X91.736 Y101.216 E2.59480
G1 X97.037 Y95.916 E2.77317
G1 X97.193 Y95.979 E2.77717
G1 X97.360 Y95.969 E2.78116
G1 X97.889 Y95.721 E2.79505
G1 X98.231 Y95.602 E2.80368
G1 X92.194 Y101.639 E3.00681
G1 E1.00681 F2400.00000
G92 E0
G1 X97.338 Y103.543 F7800.000
G1 E2.00000 F2400.00000
G1 F2190.74
G1 X98.131 Y102.750 E2.02670
G1 X98.206 Y102.726 E2.02858
G1 X98.201 Y102.680 E2.02968
G1 X97.719 Y104.043 F7800.000
G1 F2190.74
G1 X97.787 Y104.168 E2.03306
G1 X97.861 Y104.156 E2.03484
G1 X98.047 Y104.084 E2.03960
G1 X98.221 Y103.936 E2.04503
G1 X98.554 Y103.463 E2.05880
G1 X98.603 Y103.493 E2.06018
G1 X98.751 Y103.011 E2.07218
G1 X97.254 Y104.508 E2.12256
G1 E0.12256 F2400.00000
G92 E0
G1 X107.417 Y99.702 F7800.000
G1 E2.00000 F2400.00000
G1 F600
G1 X107.961 Y99.158 E2.02492
G1 X108.640 Y99.558 F7800.000
G1 F600
G1 X108.145 Y100.053 E2.04755
M106 S255
G1 Z1.200 F7800.000
G1 X107.007 Y99.448 F7800.000
G1 F600
G1 X106.512 Y98.954 E2.06713
G1 X106.065 Y99.439 F7800.000
G1 F600
G1 X105.570 Y98.945 E2.08671
G1 X105.436 Y99.270 F7800.000
G1 F2015.06
G1 X103.658 Y97.491 E2.14656
G1 X104.077 Y97.594 E2.15682
G1 X104.324 Y97.731 E2.16355
G1 X104.616 Y97.992 E2.17287
G1 X104.716 Y98.104 E2.17644
G1 X104.857 Y98.449 E2.18530
G1 X104.971 Y98.805 E2.19419
G1 E0.19419 F2400.00000
G92 E0
G1 X104.254 Y96.326 F7800.000
G1 E2.00000 F2400.00000
G1 F2015.06
G1 X103.574 Y95.646 E2.02289
G1 X103.464 Y95.696 E2.02577
G1 X103.366 Y95.775 E2.02876
G1 X103.122 Y96.075 E2.03795
G1 X103.953 Y96.906 E2.06593
G1 X103.892 Y96.996 E2.06851
G1 X103.945 Y97.034 E2.07006
G1 X103.680 Y97.304 E2.07906
G1 X103.728 Y97.562 E2.08528
G1 X102.773 Y96.606 E2.11744
G1 X102.755 Y96.646 E2.11846
G1 X102.721 Y96.660 E2.11935
G1 X102.713 Y96.754 E2.12159
G1 X102.214 Y96.908 E2.13401
G1 X102.163 Y96.877 E2.13543
G1 X105.261 Y99.975 E2.23967
G1 X105.178 Y100.164 E2.24458
G1 X105.189 Y100.172 E2.24491
G1 X104.987 Y100.345 E2.25124
G1 X104.837 Y100.433 E2.25537
G1 X100.181 Y95.776 E2.41206
G1 X99.338 Y94.934 F7800.000
G1 F2015.06
G1 X98.539 Y94.142 E2.43882
G1 X98.473 Y94.229 E2.44141
G1 X98.413 Y94.375 E2.44516
G1 X98.347 Y94.823 E2.45594
G1 X104.231 Y100.707 E2.65395
G1 X104.030 Y100.812 E2.65935
G1 X104.008 Y100.764 E2.66060
G1 X103.566 Y100.923 E2.67179
G1 X98.234 Y95.591 E2.85121
G1 X98.178 Y95.675 E2.85360
G1 X97.619 Y95.857 E2.86760
G1 X102.984 Y101.223 E3.04814
G1 X102.905 Y101.265 E3.05030
G1 X102.852 Y101.766 E3.06227
G1 X102.955 Y101.828 E3.06514
G1 X103.003 Y101.911 E3.06743
G1 X103.004 Y101.947 E3.06828
G1 X103.136 Y102.116 E3.07338
G1 X103.361 Y102.480 E3.08358
G1 X102.473 Y101.592 E3.11347
G1 X102.371 Y101.651 E3.11628
G1 X102.394 Y101.761 E3.11896
G1 X102.385 Y102.133 E3.12780
G1 X102.405 Y102.405 E3.13430
G1 X102.918 Y102.918 E3.15155
G1 X102.875 Y102.929 E3.15261
G1 X102.870 Y102.870 E3.15401
G1 X102.453 Y102.453 F7800.000
G1 F2015.06
G1 X102.467 Y102.449 E3.15436
G1 X102.475 Y102.475 E3.15501
G1 X103.539 Y103.539 E3.19080
G1 X102.685 Y101.804 F7800.000
G1 F2015.06
G1 X96.958 Y96.077 E3.38351
G1 X96.668 Y96.011 E3.39059
G1 X96.657 Y95.905 E3.39312
G1 X96.559 Y95.871 E3.39559
G1 X96.417 Y95.740 E3.40019
G1 X95.924 Y95.630 E3.41220
G1 X95.613 Y95.613 E3.41963
G1 X101.850 Y101.850 E3.62952
G1 X101.288 Y102.169 E3.64490
G1 X94.763 Y95.644 E3.86445
G1 X94.055 Y95.817 E3.88179
G1 X100.718 Y102.480 E4.10598
G1 X100.118 Y102.760 E4.12174
G1 X93.366 Y96.008 E4.34894
G1 X92.725 Y96.248 E4.36523
G1 X99.365 Y102.888 E4.58866
G1 X99.255 Y102.876 E4.59129
G1 X99.129 Y102.715 E4.59617
G1 X98.707 Y102.991 E4.60817
G1 X98.685 Y103.090 E4.61058
G1 X97.895 Y102.300 E4.63715
G1 X97.965 Y102.430 E4.64066
G1 X97.626 Y102.912 E4.65467
G1 X98.473 Y103.759 E4.68318
G1 X98.401 Y103.898 E4.68690
G1 X98.240 Y104.108 E4.69320
G1 X98.133 Y104.180 E4.69627
G1 X98.035 Y104.202 E4.69865
G1 X97.451 Y103.618 E4.71831
G1 X98.000 Y102.405 F7800.000
G1 F2015.06
G1 X92.152 Y96.557 E4.91510
G1 X91.891 Y96.760 E4.92298
G1 X91.687 Y96.973 E4.92998
G1 X97.083 Y102.368 E5.11152
G1 X96.879 Y102.552 E5.11806
G1 X96.479 Y102.645 E5.12783
G1 X91.358 Y97.524 E5.30015
G1 X91.302 Y97.659 E5.30362
G1 X91.367 Y97.678 E5.30523
G1 X91.225 Y98.273 E5.31978
G1 X95.688 Y102.736 E5.46996
G1 X94.567 Y102.496 E5.49725
G1 X91.170 Y99.098 E5.61157
G1 X91.234 Y99.599 E5.62359
G1 X91.371 Y100.150 E5.63711
G1 X91.348 Y100.157 E5.63769
G1 X93.269 Y102.078 E5.70234
G1 X92.856 Y101.884 E5.71321
G1 X92.612 Y101.734 E5.72001
G1 X92.407 Y101.577 E5.72615
G1 X92.182 Y101.354 E5.73371
G1 X92.031 Y101.170 E5.73937
G1 X91.829 Y100.804 E5.74931
G1 X91.762 Y100.637 E5.75358
G1 X91.813 Y100.623 E5.75485
G1 Z1.500 F7800.000
G1 X92.119 Y101.715 F7800.000
G1 F1839.62
G1 X97.643 Y96.190 E5.94075
G1 X97.437 Y96.277 E5.94607
G1 X97.272 Y96.179 E5.95063
G1 X97.109 Y96.127 E5.95469
G1 X97.001 Y95.951 E5.95959
G1 X91.661 Y101.291 E6.13928
G1 X91.440 Y101.039 E6.14726
G1 X91.399 Y101.071 E6.14850
G1 X91.275 Y100.797 E6.15567
G1 X96.590 Y95.482 E6.33451
G1 X96.387 Y95.418 E6.33957
G1 X96.210 Y95.405 E6.34379
G1 X95.737 Y95.453 E6.35510
G1 X91.109 Y100.081 E6.51082
G1 X91.016 Y99.633 E6.52173
G1 X91.001 Y99.309 E6.52944
G1 X94.585 Y95.725 E6.65004
G1 X93.951 Y95.906 E6.66572
G1 X93.295 Y96.134 E6.68225
G1 X91.150 Y98.279 E6.75441
G1 X91.386 Y97.715 E6.76894
G1 X91.422 Y97.744 E6.77002
G1 X91.889 Y97.227 E6.78660
G1 X92.327 Y96.885 E6.79982
G1 X92.287 Y96.829 E6.80146
G1 X92.830 Y96.599 E6.81547
G1 E4.81547 F2400.00000
G92 E0
G1 X98.672 Y95.161 F7800.000
G1 E2.00000 F2400.00000
G1 F1839.62
G1 X98.536 Y95.144 E2.00326
G1 X98.486 Y95.347 E2.00823
G1 X99.137 Y94.696 E2.03014
G1 X99.160 Y94.695 E2.03069
G1 X99.176 Y94.898 E2.03553
G1 X99.132 Y95.219 E2.04322
G1 X99.251 Y95.464 E2.04971
G1 X92.631 Y102.084 E2.27245
G1 X93.280 Y102.315 E2.28885
G1 X100.159 Y95.436 E2.52033
G1 X100.461 Y95.501 E2.52767
G1 X100.836 Y95.640 E2.53720
G1 X93.963 Y102.514 E2.76849
G1 X94.657 Y102.701 E2.78559
G1 X101.374 Y95.984 E3.01161
G1 X101.935 Y96.304 E3.02697
G1 X95.381 Y102.857 E3.24748
G1 X95.643 Y102.886 E3.25375
G1 X95.824 Y102.884 E3.25804
G1 X96.084 Y102.830 E3.26438
G1 X96.235 Y102.751 E3.26843
G1 X96.427 Y102.583 E3.27449
G1 X96.393 Y102.553 E3.27556
G1 X96.660 Y102.139 E3.28728
G1 X96.841 Y102.098 E3.29170
G1 X96.992 Y102.024 E3.29571
G1 X97.065 Y102.054 E3.29759
G1 X102.494 Y96.625 E3.48027
G1 X102.763 Y96.779 E3.48765
G1 X103.275 Y96.638 E3.50028
G1 X103.280 Y96.578 E3.50172
G1 X103.331 Y96.563 E3.50299
G1 X103.351 Y96.526 E3.50400
G1 X103.499 Y96.469 E3.50777
G1 X103.651 Y96.234 E3.51445
G1 X103.778 Y96.108 E3.51869
G1 X103.845 Y96.155 E3.52063
G1 X97.697 Y102.303 E3.72751
G1 X97.936 Y102.386 E3.73355
G1 X98.155 Y102.689 E3.74243
G1 X98.091 Y102.790 E3.74525
G1 X103.720 Y97.161 E3.93464
G1 X104.237 Y97.525 E3.94968
G1 X99.064 Y102.698 E4.12374
G1 X99.634 Y102.845 E4.13775
G1 X99.631 Y102.864 E4.13822
G1 X99.809 Y102.834 E4.14252
G1 X104.712 Y97.931 E4.30751
G1 X104.874 Y98.068 E4.31256
G1 X104.920 Y98.179 E4.31543
G1 X104.848 Y98.531 E4.32398
G1 X104.885 Y98.639 E4.32669
G1 X101.625 Y101.899 E4.43639
G1 X102.066 Y101.645 E4.44853
G1 X102.360 Y102.044 E4.46033
G1 X102.964 Y101.441 E4.48064
G1 X102.994 Y101.459 E4.48149
G1 X102.998 Y101.583 E4.48442
G1 X103.204 Y101.892 E4.49327
G1 X103.144 Y101.916 E4.49479
G1 X103.204 Y102.081 E4.49898
G1 X102.576 Y102.709 E4.52011
G1 E2.52011 F2400.00000
G92 E0
G1 X103.629 Y100.776 F7800.000
G1 E2.00000 F2400.00000
G1 F1839.62
G1 X104.914 Y99.490 E2.04326
G1 X104.855 Y99.315 E2.04767
G1 X104.909 Y99.204 E2.05059
G1 X104.943 Y99.070 E2.05390
G1 X105.078 Y98.912 E2.05883
G1 X104.904 Y98.694 E2.06546
G1 X104.885 Y98.639 E2.06685
G1 Z1.800 F7800.000
G1 X104.229 Y98.063 F7800.000
G1 F1801.38
G1 X103.488 Y97.322 E2.09179
G1 X103.713 Y97.484 E2.09839
G1 X103.764 Y97.597 E2.10135
G1 X103.714 Y97.547 F7800.000
G1 F1801.38
G1 X102.772 Y96.606 E2.13303
G1 X102.398 Y96.658 E2.14203
G1 X101.410 Y96.125 E2.16875
G1 X104.711 Y99.425 E2.27982
G1 X104.636 Y99.518 E2.28265
G1 X104.522 Y99.747 E2.28873
G1 X104.417 Y99.894 E2.29303
G1 X104.400 Y99.996 E2.29549
G1 X99.985 Y95.581 E2.44404
G1 X99.763 Y95.621 E2.44941
G1 X99.292 Y95.768 E2.46117
G1 X104.225 Y100.702 E2.62718
G1 X104.158 Y100.835 E2.63072
G1 X103.748 Y101.105 E2.64241
G1 X98.546 Y95.903 E2.81745
G1 X98.474 Y95.963 E2.81968
G1 X97.891 Y96.129 E2.83410
G1 X103.201 Y101.439 E3.01277
G1 X103.092 Y101.503 E3.01577
G1 X102.952 Y101.890 E3.02556
G1 X102.884 Y102.003 E3.02871
G1 X97.252 Y96.371 E3.21823
G1 X97.006 Y96.474 E3.22456
G1 X96.634 Y96.359 E3.23384
G1 X96.438 Y96.039 E3.24276
G1 X96.290 Y95.845 E3.24856
G1 X95.998 Y95.569 E3.25812
G1 X95.613 Y95.352 E3.26865
G1 X95.374 Y95.374 E3.27434
G1 X102.067 Y102.067 E3.49955
G1 X101.706 Y102.254 E3.50924
G1 X101.746 Y102.338 E3.51146
G1 X101.543 Y102.424 E3.51671
G1 X94.654 Y95.535 E3.74853
G1 X93.965 Y95.727 E3.76554
G1 X100.917 Y102.679 E3.99945
G1 X100.761 Y102.733 E4.00339
G1 X100.719 Y102.743 E4.00441
G1 X100.329 Y102.695 E4.01375
G1 X99.939 Y102.581 E4.02342
G1 X93.290 Y95.933 E4.24713
G1 X92.639 Y96.163 E4.26356
G1 X98.759 Y102.283 E4.46949
G1 X98.214 Y102.114 E4.48306
G1 X97.426 Y101.798 E4.50328
G1 X97.405 Y101.809 E4.50384
G1 X92.026 Y96.431 E4.68484
G1 X91.891 Y96.507 E4.68853
G1 X91.684 Y96.663 E4.69469
G1 X91.546 Y96.832 E4.69988
G1 X96.929 Y102.215 E4.88101
G1 X96.739 Y102.466 E4.88850
G1 X96.517 Y102.683 E4.89590
G1 X91.264 Y97.430 E5.07266
G1 X91.018 Y98.065 E5.08886
G1 X95.877 Y102.924 E5.25236
G1 X95.488 Y102.853 E5.26178
G1 X94.721 Y102.649 E5.28066
G1 X90.804 Y98.732 E5.41246
G1 X90.787 Y98.896 E5.41637
G1 X90.800 Y99.075 E5.42064
G1 X90.837 Y99.250 E5.42490
G1 X91.050 Y99.859 E5.44025
G1 X93.448 Y102.257 E5.52095
G1 X92.736 Y101.987 E5.53908
G1 X92.413 Y101.821 E5.54770
G1 X92.229 Y101.696 E5.55301
G1 X92.067 Y101.547 E5.55824
G1 X91.894 Y101.263 E5.56616
G1 X91.515 Y100.324 E5.59024
G1 X99.985 Y95.581 F7800.000
G1 F1801.38
G1 X100.256 Y95.552 E5.59671
G1 X100.593 Y95.662 E5.60514
G1 X101.205 Y95.920 E5.62096
G1 X101.730 Y96.444 E5.63860
G1 Z2.100 F7800.000
G1 X101.379 Y102.145 F7800.000
G1 F1599.17
G1 X104.100 Y99.424 E5.73017
G1 X104.225 Y99.215 E5.73595
G1 X104.361 Y99.131 E5.73977
G1 X104.503 Y98.915 E5.74592
G1 X104.339 Y98.673 E5.75285
G1 X104.159 Y98.527 E5.75837
G1 X104.146 Y98.497 E5.75915
G1 X100.177 Y102.466 E5.89271
G1 X99.974 Y102.428 E5.89762
G1 X99.497 Y102.265 E5.90962
G1 X103.881 Y97.880 E6.05716
G1 X103.708 Y97.596 E6.06508
G1 X103.527 Y97.353 E6.07228
G1 X98.753 Y102.128 E6.23295
G1 X98.063 Y101.937 E6.24998
G1 X103.105 Y96.895 E6.41964
G1 X102.801 Y96.653 E6.42887
G1 X102.595 Y96.524 E6.43466
G1 X97.429 Y101.690 E6.60848
G1 X96.974 Y101.495 E6.62027
G1 X96.586 Y101.688 E6.63057
G1 X96.360 Y102.061 E6.64096
G1 X96.079 Y102.400 E6.65143
G1 X95.788 Y102.635 E6.66033
G1 X95.618 Y102.732 E6.66498
G1 X95.428 Y102.810 E6.66987
G1 X102.015 Y96.223 E6.89151
G1 X101.389 Y95.968 E6.90760
G1 X94.602 Y102.755 E7.13596
G1 X93.924 Y102.552 E7.15280
G1 X100.651 Y95.825 E7.37915
G1 X100.437 Y95.866 E7.38434
G1 X99.853 Y96.058 E7.39897
G1 X99.482 Y96.114 E7.40790
G1 X93.251 Y102.345 E7.61756
G1 X92.596 Y102.118 E7.63405
G1 X98.261 Y96.454 E7.82467
G1 X97.460 Y96.793 E7.84537
G1 X97.147 Y96.687 E7.85323
G1 X91.980 Y101.853 E8.02708
G1 X91.847 Y101.776 E8.03075
G1 X91.789 Y101.728 E8.03252
G1 X91.639 Y101.313 E8.04302
G1 X96.781 Y96.171 E8.21604
G1 X96.563 Y95.912 E8.22412
G1 X96.348 Y95.724 E8.23091
G1 X91.415 Y100.657 E8.39690
G1 X91.193 Y99.997 E8.41345
G1 X95.751 Y95.440 E8.56681
G1 X95.622 Y95.399 E8.57002
G1 X95.269 Y95.480 E8.57865
G1 X94.645 Y95.665 E8.59414
G1 X91.081 Y99.228 E8.71404
G1 X91.163 Y98.859 E8.72303
G1 X91.459 Y97.970 E8.74534
G1 X93.363 Y96.066 E8.80940
M106 S249.9
G1 Z2.400 F7800.000
G1 X96.363 Y96.316 F7800.000
G1 F1200
G1 X96.058 Y95.926 E8.82338
G1 X95.856 Y95.748 E8.83100
G1 X95.676 Y95.629 E8.83709
G1 X96.858 Y96.810 E8.88429
G1 X96.803 Y96.756 F7800.000
G1 F1200
G1 X102.069 Y102.022 E9.09460
G1 X102.680 Y101.692 E9.11421
G1 X97.559 Y96.571 E9.31872
G1 X98.249 Y96.320 E9.33945
G1 X103.202 Y101.273 E9.53725
G1 X103.387 Y101.082 E9.54476
G1 X103.635 Y100.765 E9.55612
G1 X99.009 Y96.138 E9.74090
G1 X99.392 Y96.078 E9.75186
G1 X99.765 Y95.954 E9.76296
G1 X103.970 Y100.159 E9.93089
G1 X104.083 Y99.882 E9.93935
G1 X104.208 Y99.675 E9.94618
G1 X104.339 Y99.587 E9.95063
G1 X100.674 Y95.922 E10.09700
G1 X101.259 Y96.129 E10.11452
G1 X101.818 Y96.387 E10.13191
G1 X102.172 Y96.586 E10.14337
G1 X102.466 Y96.793 E10.15352
G1 X103.276 Y97.583 E10.18548
G1 E8.18548 F2400.00000
G92 E0
G1 X101.400 Y102.293 F7800.000
G1 E2.00000 F2400.00000
G1 F1200
G1 X94.673 Y95.567 E2.26863
G1 X93.960 Y95.795 E2.28977
G1 X100.595 Y102.430 E2.55476
G1 X99.891 Y102.216 E2.57556
G1 X99.341 Y102.117 E2.59132
G1 X93.247 Y96.023 E2.83470
G1 X92.534 Y96.251 E2.85584
G1 X97.963 Y101.680 E3.07264
G1 X97.454 Y101.469 E3.08820
G1 X97.052 Y101.664 E3.10080
G1 X97.034 Y101.692 E3.10175
G1 X91.894 Y96.552 E3.30700
G1 X91.770 Y96.686 E3.31217
G1 X91.596 Y97.194 E3.32733
G1 X96.653 Y102.251 E3.52928
G1 X96.531 Y102.388 E3.53445
G1 X96.327 Y102.563 E3.54205
G1 X96.139 Y102.679 E3.54827
G1 X91.356 Y97.895 E3.73930
G1 X91.177 Y98.418 E3.75490
G1 X91.133 Y98.613 E3.76056
G1 X95.284 Y102.764 E3.92633
G1 X93.911 Y102.332 E3.96697
G1 X91.285 Y99.707 E4.07183
G1 X91.752 Y101.076 E4.11268
G1 X91.836 Y101.199 E4.11688
G1 X92.331 Y101.693 E4.13662
M106 S252.45
G1 Z2.700 F7800.000
G1 X91.988 Y97.023 F7800.000
G1 F1200
G1 X92.482 Y96.528 E4.15666
G1 X92.586 Y96.448 E4.16041
G1 X92.769 Y96.356 E4.16627
G1 X93.281 Y96.171 E4.18190
G1 X93.343 Y96.121 E4.18417
G1 X93.388 Y96.115 E4.18546
G1 X93.505 Y96.012 E4.18994
G1 X93.578 Y95.997 E4.19205
G1 X93.778 Y96.025 E4.19785
G1 X93.993 Y95.972 E4.20420
G1 X91.507 Y98.459 E4.30498
G1 X91.366 Y98.998 E4.32095
G1 X91.328 Y99.283 E4.32919
G1 X91.337 Y99.584 E4.33781
G1 X95.260 Y95.661 E4.49680
G1 X95.609 Y95.786 E4.50744
G1 X95.675 Y95.617 E4.51261
G1 X95.846 Y95.689 E4.51793
G1 X96.064 Y95.812 E4.52509
G1 X91.516 Y100.359 E4.70940
G1 X91.729 Y101.102 E4.73153
G1 X96.573 Y96.258 E4.92785
G1 X96.721 Y96.444 E4.93466
G1 X96.954 Y96.832 E4.94763
G1 X92.005 Y101.780 E5.14819
G1 X92.270 Y101.934 E5.15696
G1 X92.670 Y102.071 E5.16908
G1 X97.403 Y97.338 E5.36090
G1 X97.479 Y97.403 E5.36378
G1 X97.959 Y97.293 E5.37790
G1 X98.337 Y97.173 E5.38927
G1 X98.698 Y96.997 E5.40076
G1 X93.397 Y102.298 E5.61560
G1 X93.679 Y102.350 E5.62383
G1 X94.155 Y102.495 E5.63808
G1 X100.106 Y96.544 E5.87926
G1 X100.130 Y96.585 E5.88062
G1 X100.164 Y96.595 E5.88165
G1 X100.410 Y96.811 E5.89102
G1 X100.517 Y96.704 E5.89537
G1 X100.691 Y96.757 E5.90058
G1 X100.816 Y96.405 E5.91129
G1 X100.954 Y96.266 E5.91690
G1 X101.064 Y96.280 E5.92006
G1 X101.260 Y96.345 E5.92599
G1 X94.863 Y102.742 E6.18526
G1 X94.926 Y102.754 E6.18709
G1 X95.064 Y102.723 E6.19115
G1 X95.490 Y102.529 E6.20457
G1 X95.687 Y102.403 E6.21126
G1 X95.871 Y102.253 E6.21805
G1 X96.065 Y102.054 E6.22604
G1 X96.225 Y101.851 E6.23344
G1 X96.557 Y101.274 E6.25252
G1 X96.583 Y101.257 E6.25340
G1 X96.816 Y100.871 E6.26634
G1 X96.984 Y100.916 E6.27131
G1 X97.018 Y100.894 E6.27249
G1 X97.541 Y101.019 E6.28788
G1 X101.923 Y96.637 E6.46551
G1 X102.289 Y96.865 E6.47787
G1 X102.494 Y97.021 E6.48524
G1 X98.214 Y101.301 E6.65869
G1 X98.772 Y101.698 E6.67832
G1 X103.003 Y97.467 E6.84979
G1 X103.448 Y97.977 E6.86919
G1 X99.530 Y101.895 E7.02799
G1 X99.729 Y101.926 E7.03377
G1 X100.061 Y102.017 E7.04364
G1 X100.339 Y102.041 E7.05163
G1 X103.848 Y98.532 E7.19383
G1 X104.025 Y98.721 E7.20124
G1 X103.756 Y99.110 E7.21480
G1 X103.877 Y99.228 E7.21964
G1 X103.333 Y99.971 E7.24601
G1 X103.058 Y100.276 E7.25780
G1 X102.560 Y100.775 E7.27799
M106 S255
G1 Z3.000 F7800.000
G1 E5.27799 F2400.00000
G92 E0
G1 X103.392 Y98.861 F7800.000
G1 E2.00000 F2400.00000
G1 F1032.93
G1 X102.896 Y98.365 E2.02120
G1 X102.242 Y97.752 E2.04827
G1 X101.702 Y97.332 E2.06891
G1 X101.456 Y97.185 E2.07759
G1 X101.281 Y97.615 E2.09162
G1 X101.057 Y97.532 E2.09884
G1 X103.419 Y99.895 E2.19972
G1 X102.905 Y100.386 E2.22121
G1 X99.419 Y96.901 E2.37008
G1 X99.267 Y97.019 E2.37589
G1 X98.941 Y97.429 E2.39171
G1 X102.354 Y100.842 E2.53746
G1 X102.103 Y101.023 E2.54682
G1 X101.740 Y101.234 E2.55949
G1 X98.524 Y98.018 E2.69681
G1 X98.098 Y98.599 E2.71855
G1 X101.006 Y101.506 E2.84273
G1 X100.918 Y101.528 E2.84547
G1 X100.528 Y101.539 E2.85725
G1 X100.489 Y101.563 E2.85863
G1 X100.452 Y101.525 E2.86023
G1 X99.971 Y101.425 E2.87505
G1 X99.823 Y101.330 E2.88037
G1 X99.326 Y100.833 E2.90159
G1 E0.90159 F2400.00000
G92 E0
G1 X97.275 Y98.706 F7800.000
G1 E2.00000 F2400.00000
G1 F1032.93
G1 X94.371 Y95.802 E2.12403
G1 X93.867 Y95.953 E2.13993
G1 X93.535 Y95.937 E2.14996
G1 X97.323 Y99.725 E2.31173
G1 X97.166 Y100.539 E2.33677
G1 X92.680 Y96.053 E2.52836
G1 X92.494 Y96.564 E2.54477
G1 X92.289 Y96.359 E2.55353
G1 X92.127 Y96.472 E2.55949
G1 X96.887 Y101.232 E2.76278
G1 X96.719 Y101.526 E2.77300
G1 X96.496 Y101.812 E2.78396
G1 X91.862 Y97.178 E2.98185
G1 X91.688 Y97.975 E3.00647
G1 X95.979 Y102.266 E3.18974
G1 X95.729 Y102.419 E3.19860
G1 X95.334 Y102.592 E3.21162
G1 X91.567 Y98.825 E3.37250
G1 X91.610 Y99.412 E3.39027
G1 X91.716 Y99.946 E3.40671
G1 X94.101 Y102.331 E3.50856
G1 X93.632 Y102.217 E3.52314
G1 X93.738 Y102.534 E3.53324
G1 X93.565 Y102.569 E3.53855
G1 X93.429 Y102.537 E3.54278
G1 X93.305 Y102.458 E3.54723
G1 X93.247 Y102.393 E3.54985
G1 X92.940 Y101.730 E3.57190
G1 X92.768 Y101.921 E3.57968
G1 X92.622 Y101.823 E3.58499
G1 X92.127 Y101.327 E3.60616
G1 X96.336 Y96.796 F7800.000
G1 F1032.93
G1 X95.842 Y96.301 E3.62727
G1 E1.62727 F2400.00000
G92 E0
G1 X100.756 Y97.231 F7800.000
G1 E2.00000 F2400.00000
G1 F1032.93
G1 X100.876 Y96.892 E2.01088
G1 X100.500 Y96.775 E2.02278
G1 X100.284 Y96.760 E2.02931
G1 X101.251 Y97.726 E2.07057
G1 Z3.300 F7800.000
G1 E0.07057 F2400.00000
G92 E0
G1 X95.899 Y101.655 F7800.000
G1 E2.00000 F2400.00000
G1 F893.644
G1 X96.413 Y101.141 E2.02070
G1 X96.602 Y100.906 E2.02930
G1 X96.804 Y100.582 E2.04019
G1 X96.941 Y100.298 E2.04918
G1 X97.051 Y100.004 E2.05812
G1 X97.134 Y99.696 E2.06719
G1 X97.183 Y99.422 E2.07514
G1 X94.241 Y102.364 E2.19369
G1 X93.874 Y102.279 E2.20442
G1 X93.563 Y102.375 E2.21372
G1 X93.425 Y102.538 E2.21979
G1 X93.324 Y102.605 E2.22324
G1 X93.189 Y102.652 E2.22732
G1 X93.005 Y102.651 E2.23257
G1 X97.191 Y98.465 E2.40128
G1 X97.104 Y97.977 E2.41538
G1 X97.013 Y97.693 E2.42390
G1 X92.541 Y102.165 E2.60414
G1 X92.450 Y102.016 E2.60911
G1 X92.276 Y101.874 E2.61549
G1 X92.156 Y101.600 E2.62403
G1 X96.706 Y97.050 E2.80741
G1 X96.498 Y96.756 E2.81768
G1 X96.282 Y96.524 E2.82670
G1 X91.983 Y100.824 E2.99999
G1 X91.885 Y99.972 E3.02444
G1 X95.720 Y96.137 E3.17900
G1 X95.088 Y95.820 E3.19917
G1 X91.868 Y99.040 E3.32894
G1 X91.983 Y97.974 E3.35947
G1 X94.065 Y95.892 E3.44339
G1 X93.832 Y95.694 E3.45211
G1 X93.746 Y95.656 E3.45479
G1 X93.551 Y95.631 E3.46039
G1 X93.417 Y95.659 E3.46430
G1 X93.259 Y95.749 E3.46949
G1 X92.764 Y96.244 E3.48941
G1 E1.48941 F2400.00000
G92 E0
G1 X98.832 Y98.697 F7800.000
G1 E2.00000 F2400.00000
G1 F893.644
G1 X99.326 Y98.202 E2.02058
G1 X99.877 Y98.175 E2.03681
G1 X99.885 Y97.668 E2.05176
G1 X100.277 Y97.393 E2.06587
G1 X100.522 Y97.303 E2.07356
G1 X100.644 Y97.206 E2.07811
G1 X100.740 Y97.297 E2.08202
G1 X101.115 Y97.394 E2.09343
G1 X98.636 Y99.874 E2.19667
G1 X98.807 Y100.060 E2.20412
G1 X99.001 Y100.319 E2.21364
G1 X99.102 Y100.388 E2.21726
G1 X101.822 Y97.668 E2.33050
G1 X102.139 Y97.843 E2.34117
G1 X102.433 Y98.039 E2.35154
G1 X99.652 Y100.819 E2.46730
G1 X99.782 Y100.899 E2.47179
G1 X100.004 Y100.977 E2.47870
G1 X100.119 Y101.055 E2.48281
G1 X100.346 Y100.958 E2.49007
G1 X100.537 Y100.916 E2.49583
G1 X102.990 Y98.462 E2.59797
G1 X103.335 Y98.712 E2.61050
G1 X103.066 Y98.804 E2.61887
G1 X103.424 Y98.998 E2.63084
G1 X102.879 Y99.554 E2.65377
G1 Z3.600 F7800.000
G1 E0.65377 F2400.00000
G92 E0
G1 X96.188 Y97.191 F7800.000
G1 E2.00000 F2400.00000
G1 F721.796
G1 X95.626 Y96.636 E2.02172
G1 X95.445 Y96.509 E2.02780
G1 X95.104 Y96.326 E2.03846
G1 X94.531 Y96.062 E2.05580
G1 X94.483 Y96.227 E2.06054
G1 X94.282 Y96.201 E2.06611
G1 X97.063 Y98.982 E2.17429
G1 X97.084 Y99.474 E2.18782
G1 X97.054 Y99.890 E2.19930
G1 X92.874 Y95.710 E2.36194
G1 X92.734 Y95.809 E2.36666
G1 X92.672 Y95.895 E2.36957
G1 X92.596 Y96.102 E2.37563
G1 X92.507 Y96.260 E2.38061
G1 X96.873 Y100.625 E2.55044
G1 X96.693 Y100.989 E2.56160
G1 X96.623 Y100.930 E2.56412
G1 X96.456 Y101.125 E2.57120
G1 X92.286 Y96.955 E2.73343
G1 X92.271 Y97.096 E2.73732
G1 X92.283 Y97.869 E2.75858
G1 X96.090 Y101.676 E2.90669
G1 X95.821 Y101.853 E2.91556
G1 X95.500 Y102.003 E2.92529
G1 X92.243 Y98.746 E3.05200
G1 X92.235 Y98.883 E3.05578
G1 X92.280 Y99.700 E3.07828
G1 X94.681 Y102.100 E3.17167
G1 X94.425 Y102.142 E3.17880
G1 X94.429 Y102.228 E3.18117
G1 X94.095 Y102.291 E3.19054
G1 X94.032 Y102.368 E3.19327
G1 X92.269 Y100.604 E3.26187
G1 X92.283 Y100.856 E3.26880
G1 X92.338 Y101.126 E3.27639
G1 X92.479 Y101.494 E3.28722
G1 X92.587 Y101.646 E3.29234
G1 X92.650 Y101.858 E3.29842
G1 X92.736 Y101.988 E3.30273
G1 X93.230 Y102.483 E3.32197
G1 E1.32197 F2400.00000
G92 E0
G1 X98.788 Y99.406 F7800.000
G1 E2.00000 F2400.00000
G1 F721.796
G1 X98.292 Y98.907 E2.02155
G1 X98.302 Y98.882 E2.02237
G1 X98.436 Y98.812 E2.02699
G1 X98.557 Y98.714 E2.03176
G1 X98.647 Y98.860 E2.03700
G1 X99.039 Y98.636 E2.05082
G1 X100.829 Y100.425 E2.12835
G1 X100.977 Y100.291 E2.13449
G1 X101.535 Y100.111 E2.15245
G1 X99.538 Y98.114 E2.23898
G1 X100.038 Y97.907 E2.25556
G1 X100.221 Y97.776 E2.26245
G1 X102.220 Y99.775 E2.34907
G1 X102.769 Y99.303 F7800.000
G1 F721.796
G1 X102.275 Y98.809 E2.37049
G1 Z3.900 F7800.000
G1 E0.37049 F2400.00000
G92 E0
G1 X95.970 Y101.110 F7800.000
G1 E2.00000 F2400.00000
G1 F600
G1 X96.509 Y100.568 E2.02247
G1 X96.712 Y100.191 E2.03504
G1 X96.830 Y99.732 E2.04895
G1 X96.870 Y99.231 E2.06372
G1 X93.994 Y102.107 E2.18317
G1 X93.744 Y102.103 E2.19051
G1 X93.470 Y102.214 E2.19918
G1 X93.332 Y102.392 E2.20582
G1 X93.246 Y102.454 E2.20892
G1 X93.113 Y102.491 E2.21297
G1 X93.006 Y102.483 E2.21612
G1 X92.929 Y102.452 E2.21857
G1 X92.799 Y102.323 E2.22392
G1 X96.852 Y98.271 E2.39224
G1 X96.784 Y97.837 E2.40512
G1 X96.660 Y97.484 E2.41612
G1 X92.630 Y101.514 E2.58349
G1 X92.636 Y101.358 E2.58806
G1 X92.745 Y100.689 E2.60796
G1 X92.769 Y100.396 E2.61659
G1 X96.221 Y96.944 E2.75997
G1 X96.043 Y96.818 E2.76640
G1 X95.591 Y96.595 E2.78117
G1 X92.707 Y99.480 E2.90098
G1 X92.697 Y99.349 E2.90483
G1 X92.761 Y98.712 E2.92363
G1 X92.770 Y98.438 E2.93168
G1 X94.900 Y96.308 E3.02016
G1 X94.671 Y96.194 E3.02769
G1 X94.239 Y96.187 E3.04035
G1 X94.103 Y96.126 E3.04472
G1 X92.660 Y97.570 E3.10469
G1 X92.619 Y97.130 E3.11766
G1 X92.658 Y96.855 E3.12583
G1 X92.780 Y96.496 E3.13695
G1 X92.815 Y96.436 E3.13900
G1 X93.312 Y95.939 E3.15963
G1 E1.15963 F2400.00000
G92 E0
G1 X100.449 Y99.024 F7800.000
G1 E2.00000 F2400.00000
G1 F600
G1 X100.251 Y98.878 E2.00796
G1 X99.945 Y99.033 E2.01909
G1 X99.730 Y99.115 E2.02653
G1 X99.877 Y99.442 E2.03813
G1 X99.799 Y99.479 E2.04093
G1 X99.709 Y99.668 E2.04769
G1 X99.783 Y99.690 E2.05021
G1 X100.943 Y98.530 E2.10334
G1 X101.206 Y98.724 E2.11392
G1 X101.401 Y98.809 E2.12080
G1 X101.689 Y98.863 E2.13028
G1 X101.194 Y99.357 E2.15292
G1 Z4.200 F7800.000
G1 E0.15292 F2400.00000
G92 E0
G1 X96.140 Y97.661 F7800.000
G1 E2.00000 F2400.00000
G1 F600
G1 X95.646 Y97.166 E2.02067
G1 X96.132 Y97.652 F7800.000
G1 F600
G1 X95.634 Y97.155 E2.04145
G1 X95.289 Y96.899 E2.05415
G1 X95.132 Y96.810 E2.05949
G1 X94.978 Y96.769 E2.06419
G1 X94.827 Y96.695 E2.06917
G1 X94.636 Y96.669 E2.07486
G1 X93.974 Y96.479 E2.09523
G1 X96.619 Y99.125 E2.20583
G1 X96.632 Y99.423 E2.21464
G1 X96.596 Y100.087 E2.23430
G1 X93.054 Y96.545 E2.38237
G1 X93.067 Y96.681 E2.38641
G1 X93.271 Y97.432 E2.40943
G1 X93.320 Y97.796 E2.42027
G1 X96.363 Y100.839 E2.54748
G1 X96.298 Y100.950 E2.55130
G1 X96.096 Y101.167 E2.56004
G1 X95.871 Y101.332 E2.56830
G1 X93.212 Y98.672 E2.67948
G1 X93.190 Y98.890 E2.68594
G1 X93.203 Y99.074 E2.69140
G1 X93.313 Y99.758 E2.71189
G1 X95.182 Y101.627 E2.79002
G1 X94.403 Y101.834 E2.81382
G1 X93.199 Y100.629 E2.86418
G1 X93.076 Y101.071 E2.87772
G1 X93.043 Y101.330 E2.88545
G1 X93.075 Y101.469 E2.88967
G1 X93.102 Y101.517 E2.89128
G1 X93.596 Y102.011 E2.91195
G1 Z4.500 F7800.000
G1 E0.91195 F2400.00000
G92 E0
G1 X95.736 Y100.143 F7800.000
G1 E2.00000 F2400.00000
G1 F600
G1 X96.231 Y99.649 E2.02264
G1 X96.265 Y99.564 E2.02559
G1 X96.321 Y99.176 E2.03829
G1 X96.323 Y98.659 E2.05503
G1 X96.303 Y98.498 E2.06028
G1 X94.482 Y100.318 E2.14363
G1 X94.275 Y100.313 E2.15035
G1 X94.079 Y100.260 E2.15693
G1 X93.982 Y100.165 E2.16132
G1 X93.840 Y99.882 E2.17156
G1 X95.762 Y97.960 E2.25957
G1 X94.704 Y97.987 E2.29382
G1 X94.632 Y98.012 E2.29630
G1 X93.927 Y98.716 E2.32855
G1 X94.037 Y98.555 E2.33486
G1 X94.137 Y98.506 E2.33848
G1 Z4.800 F7800.000
G1 X94.376 Y98.685 F7800.000
G1 F600
G1 X95.436 Y99.745 E2.38703
G1 X95.857 Y99.087 F7800.000
G1 F600
G1 X95.362 Y98.593 E2.40966
G1 E0.40966 F2400.00000
G92 E0
M107
; Filament-specific end gcode 
;END gcode for filament

M104 S0 ; turn off temperature
G28 X0  ; home X axis
M84     ; disable motors

M140 S0 ; set bed temperature
; filament used = 43.8mm (0.3cm3)
; total filament cost = 0.0

; avoid_crossing_perimeters = 0
; bed_shape = 0x0,200x0,200x200,0x200
; bed_temperature = 0
; before_layer_gcode = 
; between_objects_gcode = 
; bridge_acceleration = 0
; bridge_fan_speed = 100
; brim_connections_width = 0
; brim_width = 0
; complete_objects = 0
; cooling = 1
; default_acceleration = 0
; disable_fan_first_layers = 3
; duplicate_distance = 6
; end_filament_gcode = "; Filament-specific end gcode \n;END gcode for filament\n"
; end_gcode = M104 S0 ; turn off temperature\nG28 X0  ; home X axis\nM84     ; disable motors\n
; extruder_clearance_height = 20
; extruder_clearance_radius = 20
; extruder_offset = 0x0
; extrusion_axis = E
; extrusion_multiplier = 1
; fan_always_on = 0
; fan_below_layer_time = 60
; filament_colour = #FFFFFF
; filament_cost = 0
; filament_density = 0
; filament_diameter = 3
; filament_max_volumetric_speed = 0
; filament_notes = ""
; first_layer_acceleration = 0
; first_layer_bed_temperature = 0
; first_layer_extrusion_width = 200%
; first_layer_speed = 30
; first_layer_temperature = 205
; gcode_arcs = 0
; gcode_comments = 0
; gcode_flavor = reprap
; has_heatbed = 1
; infill_acceleration = 0
; infill_first = 0
; interior_brim_width = 0
; layer_gcode = 
; max_fan_speed = 100
; max_layer_height = 0.3
; max_print_speed = 80
; max_volumetric_speed = 0
; min_fan_speed = 35
; min_layer_height = 0.15
; min_print_speed = 10
; min_skirt_length = 0
; notes = 
; nozzle_diameter = 0.5
; only_retract_when_crossing_perimeters = 1
; ooze_prevention = 0
; output_filename_format = [input_filename_base].gcode
; perimeter_acceleration = 0
; post_process = 
; pressure_advance = 0
; printer_notes = 
; resolution = 0
; retract_before_travel = 2
; retract_layer_change = 0
; retract_length = 2
; retract_length_toolchange = 10
; retract_lift = 0
; retract_lift_above = 0
; retract_lift_below = 0
; retract_restart_extra = 0
; retract_restart_extra_toolchange = 0
; retract_speed = 40
; skirt_distance = 6
; skirt_height = 1
; skirts = 0
; slowdown_below_layer_time = 5
; spiral_vase = 0
; standby_temperature_delta = -5
; start_filament_gcode = "; Filament gcode\n"
; start_gcode = G28 ; home all axes\nG1 Z5 F5000 ; lift nozzle\n
; temperature = 200
; threads = 8
; toolchange_gcode = 
; travel_speed = 130
; use_firmware_retraction = 0
; use_relative_e_distances = 0
; use_set_and_wait_bed = 0
; use_set_and_wait_extruder = 0
; use_volumetric_e = 0
; vibration_limit = 0
; wipe = 0
; z_offset = 0
; z_steps_per_mm = 0
; adaptive_slicing = 0
; adaptive_slicing_quality = 75%
; dont_support_bridges = 1
; extrusion_width = 0
; first_layer_height = 0.3
; infill_only_where_needed = 0
; interface_shells = 0
; layer_height = 0.3
; match_horizontal_surfaces = 0
; raft_layers = 0
; regions_overlap = 0
; seam_position = aligned
; sequential_print_priority = 0
; support_material = 0
; support_material_angle = 0
; support_material_buildplate_only = 0
; support_material_contact_distance = 0.2
; support_material_enforce_layers = 0
; support_material_extruder = 1
; support_material_extrusion_width = 0
; support_material_interface_extruder = 1
; support_material_interface_extrusion_width = 0
; support_material_interface_layers = 3
; support_material_interface_spacing = 0
; support_material_interface_speed = 100%
; support_material_max_layers = 0
; support_material_pattern = pillars
; support_material_spacing = 2.5
; support_material_speed = 60
; support_material_threshold = 60%
; xy_size_compensation = 0
; bottom_infill_pattern = rectilinear
; bottom_solid_layers = 0
; bridge_flow_ratio = 1
; bridge_speed = 60
; external_perimeter_extrusion_width = 0
; external_perimeter_speed = 50%
; external_perimeters_first = 0
; extra_perimeters = 1
; fill_angle = 45
; fill_density = 90%
; fill_gaps = 1
; fill_pattern = rectilinear
; gap_fill_speed = 20
; infill_every_layers = 1
; infill_extruder = 1
; infill_extrusion_width = 0
; infill_overlap = 55%
; infill_speed = 80
; overhangs = 1
; perimeter_extruder = 1
; perimeter_extrusion_width = 0
; perimeter_speed = 60
; perimeters = 0
; small_perimeter_speed = 15
; solid_infill_below_area = 70
; solid_infill_every_layers = 0
; solid_infill_extruder = 1
; solid_infill_extrusion_width = 0
; solid_infill_speed = 20
; thin_walls = 1
; top_infill_extrusion_width = 0
; top_infill_pattern = rectilinear
; top_solid_infill_speed = 15
; top_solid_layers = 0
