%
(Header)
(Generated by gcodetools from Inkscape.)
(Using default header. To add your own header create file "header" in the output dir.)
M3
(Header end.)
G21 (All units in mm)

(Start cutting path id: path27802)
(Change tool to Cone cutter)

G00 Z0.000000
G00 X37.174951 Y2.034514

G01 Z-1.000000 F100.0(Penetrate)
G02 X35.530628 Y2.414230 Z-1.000000 I0.440935 J5.659571 F400.000000
G02 X33.944648 Y3.310302 Z-1.000000 I2.429673 J6.151910
G02 X33.265434 Y3.964303 Z-1.000000 I2.514769 J3.291418
G02 X32.617119 Y4.917976 Z-1.000000 I4.777409 J3.944925
G02 X32.420668 Y5.318095 Z-1.000000 I4.115576 J2.268960
G02 X32.293228 Y5.665302 Z-1.000000 I2.968552 J1.286577
G02 X32.227523 Y6.026267 Z-1.000000 I1.536022 J0.466059
G02 X32.214928 Y6.858661 Z-1.000000 I8.246297 J0.541066
G02 X32.366612 Y8.127304 Z-1.000000 I7.633980 J-0.269359
G02 X32.611093 Y8.785958 Z-1.000000 I2.262263 J-0.465013
G02 X32.957072 Y9.302468 Z-1.000000 I3.312193 J-1.844505
G02 X33.356265 Y9.722139 Z-1.000000 I2.574716 J-2.049394
G03 X33.484763 Y9.871090 Z-1.000000 I-0.477288 J0.541653
G01 X33.480291 Y9.913473 Z-1.000000
G03 X33.428612 Y9.939963 Z-1.000000 I-0.066942 J-0.066942
G03 X32.906395 Y10.007223 Z-1.000000 I-1.254474 J-7.678989
G02 X32.376242 Y10.058607 Z-1.000000 I10.571064 J111.827059
G02 X31.411275 Y10.155722 Z-1.000000 I36.566898 J368.183927
G01 X30.446431 Y10.254092 Z-1.000000
G01 X30.294087 Y10.108319 Z-1.000000
G02 X29.973046 Y9.910667 Z-1.000000 I-0.620783 J0.648768
G02 X29.665751 Y9.885807 Z-1.000000 I-0.200444 J0.566019
G02 X29.168150 Y10.147516 Z-1.000000 I0.166440 J0.920373
G02 X28.999165 Y10.557839 Z-1.000000 I0.413673 J0.410323
G03 X28.979061 Y10.751616 Z-1.000000 I-0.943938 J0.000000
G03 X28.949765 Y10.793354 Z-1.000000 I-0.063295 J-0.013276
G03 X28.897418 Y10.817006 Z-1.000000 I-0.117226 J-0.189698
G03 X28.530820 Y10.920751 Z-1.000000 I-2.853195 J-9.382541
G02 X28.167485 Y11.036020 Z-1.000000 I0.951060 J3.628057
G02 X27.186363 Y11.423818 Z-1.000000 I10.065338 J26.900144
G03 X25.681074 Y11.982804 Z-1.000000 I-7.876310 J-18.903754
G03 X23.667134 Y12.575818 Z-1.000000 I-10.890991 J-33.270728
G03 X22.814793 Y12.733536 Z-1.000000 I-1.498611 J-5.716840
G03 X20.434677 Y12.931425 Z-1.000000 I-4.906210 J-44.597151
G03 X19.830141 Y12.921922 Z-1.000000 I-0.236432 J-4.193146
G03 X19.672959 Y12.864395 Z-1.000000 I0.028205 J-0.320561
G02 X18.740728 Y12.431134 Z-1.000000 I-1.664190 J2.361221
G02 X17.301903 Y12.243345 Z-1.000000 I-1.458331 J5.567638
G02 X16.446892 Y12.344826 Z-1.000000 I-0.012036 J3.551189
G02 X15.985215 Y12.565097 Z-1.000000 I0.297525 J1.217563
G02 X15.786922 Y12.854493 Z-1.000000 I0.338359 J0.444475
G02 X15.838836 Y13.071644 Z-1.000000 I0.217370 J0.062814
G03 X15.832544 Y13.231731 Z-1.000000 I-0.082468 J0.076926
G03 X15.465962 Y13.413201 Z-1.000000 I-0.496561 J-0.542090
G03 X14.109393 Y13.591293 Z-1.000000 I-2.563177 J-14.268586
G03 X11.856580 Y13.714662 Z-1.000000 I-3.281043 J-39.283799
G02 X9.931868 Y13.780200 Z-1.000000 I3.160560 J121.113950
G02 X9.498886 Y13.813722 Z-1.000000 I0.258378 J6.150355
G03 X7.896910 Y13.961163 Z-1.000000 I-4.355847 J-38.550603
G03 X5.817529 Y14.075692 Z-1.000000 I-4.613881 J-64.835348
G02 X4.548005 Y14.125429 Z-1.000000 I159.775032 J4094.104680
G02 X4.296945 Y14.135501 Z-1.000000 I6.294600 J160.036902
G02 X4.073660 Y14.191935 Z-1.000000 I0.022936 J0.560689
G02 X3.954117 Y14.302899 Z-1.000000 I0.123496 J0.252918
G02 X3.908094 Y14.461535 Z-1.000000 I0.292533 J0.170861
G02 X3.942631 Y14.620970 Z-1.000000 I0.330227 J0.011925
G03 X3.988345 Y14.790404 Z-1.000000 I-0.396771 J0.197935
G03 X4.051896 Y16.317358 Z-1.000000 I-33.557228 J2.161429
G02 X4.209927 Y17.933562 Z-1.000000 I10.339006 J-0.195108
G02 X4.373614 Y18.125658 Z-1.000000 I0.245903 J-0.043749
G03 X4.502389 Y18.191962 Z-1.000000 I-0.170840 J0.490011
G01 X4.522607 Y18.231020 Z-1.000000
G01 X4.542720 Y18.264325 Z-1.000000
G02 X4.624169 Y18.284440 Z-1.000000 I0.081449 J-0.154848
G02 X4.709191 Y18.267901 Z-1.000000 I0.000000 J-0.226801
G01 X4.725732 Y18.243370 Z-1.000000
G03 X4.799210 Y18.112334 Z-1.000000 I0.153580 J0.000000
G03 X5.157372 Y17.979510 Z-1.000000 I0.517895 J0.847208
G03 X5.462491 Y17.960619 Z-1.000000 I0.246976 J1.515491
G03 X6.096826 Y18.015110 Z-1.000000 I-0.252183 J6.655046
G02 X7.029323 Y18.081424 Z-1.000000 I0.995951 J-7.415429
G02 X11.764556 Y18.063170 Z-1.000000 I1.627773 J-191.929617
G01 X13.852209 Y18.029370 Z-1.000000
G01 X13.704024 Y18.448122 Z-1.000000
G03 X13.541375 Y18.858245 Z-1.000000 I-5.554859 J-1.965669
G03 X13.485070 Y18.945074 Z-1.000000 I-0.296693 J-0.130722
G02 X13.367297 Y19.277012 Z-1.000000 I0.339608 J0.307356
G02 X13.525370 Y19.695296 Z-1.000000 I0.737319 J-0.039627
G02 X13.866395 Y20.026082 Z-1.000000 I1.419716 J-1.122476
G02 X14.555562 Y20.459947 Z-1.000000 I3.168765 J-4.269103
G01 X14.755025 Y20.565113 Z-1.000000
G01 X13.964060 Y20.567313 Z-1.000000
G02 X11.831965 Y20.748907 Z-1.000000 I0.037441 J13.046843
G02 X9.981591 Y21.238927 Z-1.000000 I1.735802 J10.293225
G02 X8.276042 Y22.050660 Z-1.000000 I3.474613 J9.498229
G02 X6.943201 Y23.050863 Z-1.000000 I4.031742 J6.760735
G02 X6.487517 Y23.606382 Z-1.000000 I1.832766 J1.968046
G02 X6.213794 Y24.232584 Z-1.000000 I2.070363 J1.277914
G03 X6.098667 Y24.488045 Z-1.000000 I-0.890143 J-0.247482
G03 X6.020439 Y24.530536 Z-1.000000 I-0.078228 J-0.050766
G02 X5.587039 Y24.641452 Z-1.000000 I-0.000000 J0.902200
G02 X5.209000 Y24.974974 Z-1.000000 I0.550369 J1.004841
G02 X5.140403 Y25.124654 Z-1.000000 I0.341964 J0.247279
G02 X5.108284 Y25.398644 Z-1.000000 I1.152570 J0.273990
G02 X5.285221 Y25.833414 Z-1.000000 I0.622627 J0.000000
G02 X6.700975 Y27.031340 Z-1.000000 I6.957263 J-6.786796
G03 X7.332370 Y27.486727 Z-1.000000 I-12.233608 J17.627344
G03 X7.717701 Y27.793058 Z-1.000000 I-5.143717 J6.865734
G02 X9.757556 Y29.254926 Z-1.000000 I10.305730 J-12.226250
G02 X11.230808 Y29.914527 Z-1.000000 I3.419651 J-5.662872
G03 X11.934821 Y30.227467 Z-1.000000 I-0.949672 J3.084827
G03 X12.495263 Y30.668890 Z-1.000000 I-1.417950 J2.376750
G02 X13.223351 Y31.233398 Z-1.000000 I2.413123 J-2.360594
G02 X14.098526 Y31.592465 Z-1.000000 I1.776501 J-3.083882
G02 X14.708760 Y31.706456 Z-1.000000 I1.102317 J-4.210716
G02 X15.237451 Y31.722057 Z-1.000000 I0.357220 J-3.139448
G02 X16.329326 Y31.461069 Z-1.000000 I-0.169862 J-3.125133
G02 X17.247483 Y30.836578 Z-1.000000 I-1.234386 J-2.802057
G03 X17.634142 Y30.509125 Z-1.000000 I2.317072 J2.344008
G03 X17.719636 Y30.495398 Z-1.000000 I0.056375 J0.078017
G03 X17.811689 Y30.534912 Z-1.000000 I-0.154533 J0.486990
G03 X18.215089 Y30.768414 Z-1.000000 I-5.342223 J9.694464
G02 X18.881070 Y31.119632 Z-1.000000 I3.233778 J-5.324878
G02 X20.036279 Y31.592297 Z-1.000000 I7.056665 J-15.598704
G03 X20.747077 Y31.853730 Z-1.000000 I-248.266193 J676.095201
G03 X20.950341 Y31.929038 Z-1.000000 I-20.353574 J55.248631
G02 X22.548726 Y32.389749 Z-1.000000 I3.823286 J-10.261392
G02 X24.962060 Y32.761494 Z-1.000000 I4.794101 J-23.103431
G02 X26.952605 Y32.875216 Z-1.000000 I2.286602 J-22.545991
G02 X28.694482 Y32.810264 Z-1.000000 I0.226296 J-17.320347
G02 X30.736985 Y32.519644 Z-1.000000 I-1.680529 J-19.133661
G02 X32.213887 Y32.114896 Z-1.000000 I-2.051268 J-10.381899
G03 X32.580855 Y31.990556 Z-1.000000 I4.890736 J13.830404
G03 X33.234293 Y31.784107 Z-1.000000 I14.149787 J43.648711
G02 X33.885389 Y31.572127 Z-1.000000 I-6.216239 J-20.199103
G02 X34.097574 Y31.487494 Z-1.000000 I-0.764347 J-2.224603
G03 X34.306904 Y31.395001 Z-1.000000 I3.950695 J8.658114
G03 X34.635888 Y31.257342 Z-1.000000 I9.064705 J21.201266
G02 X35.880764 Y30.647759 Z-1.000000 I-3.934475 J-9.610816
G02 X37.005197 Y29.894029 Z-1.000000 I-4.939765 J-8.584854
G02 X38.978388 Y28.142143 Z-1.000000 I-12.040037 J-15.548153
G02 X39.155419 Y27.709993 Z-1.000000 I-0.438946 J-0.432150
G01 X39.160526 Y27.690786 Z-1.000000
G03 X39.358544 Y27.355002 Z-1.000000 I12.924032 J7.395269
G02 X39.548094 Y27.016613 Z-1.000000 I-4.692793 J-2.850974
G02 X39.563749 Y26.956258 Z-1.000000 I-0.126182 J-0.064937
G03 X39.580349 Y26.896997 Z-1.000000 I0.128304 J0.003985
G03 X39.703397 Y26.709489 Z-1.000000 I1.489701 J0.843457
G03 X39.841080 Y26.527203 Z-1.000000 I139.922232 J105.542279
G03 X40.085257 Y26.204602 Z-1.000000 I452.193024 J342.010697
G02 X40.372052 Y25.755749 Z-1.000000 I-2.666938 J-2.020093
G02 X40.854218 Y24.759051 Z-1.000000 I-12.762208 J-6.788863
G03 X40.945962 Y24.557268 Z-1.000000 I7.028685 J3.073976
G03 X41.189941 Y24.048113 Z-1.000000 I44.952037 J21.227230
G02 X41.428202 Y23.536559 Z-1.000000 I-15.240392 J-7.409621
G02 X41.563346 Y23.210223 Z-1.000000 I-6.063372 J-2.702144
G03 X41.894185 Y22.451702 Z-1.000000 I8.536951 J3.272095
G03 X42.099606 Y22.118426 Z-1.000000 I1.836682 J0.902127
G02 X42.183774 Y21.988192 Z-1.000000 I-0.831413 J-0.629642
G02 X42.695131 Y21.026629 Z-1.000000 I-45.159959 J-24.632724
G03 X42.951187 Y20.547652 Z-1.000000 I18.896674 J9.794034
G03 X43.072941 Y20.341082 Z-1.000000 I3.633737 J2.002585
G02 X43.479469 Y19.613803 Z-1.000000 I-6.810920 J-4.284367
G02 X43.522607 Y19.428693 Z-1.000000 I-0.375595 J-0.185110
G01 X43.528018 Y19.406620 Z-1.000000
G03 X43.795901 Y18.904805 Z-1.000000 I26.524453 J13.837069
G02 X44.308649 Y17.799779 Z-1.000000 I-8.178957 J-4.466630
G02 X44.900003 Y16.050066 Z-1.000000 I-19.979956 J-7.727449
G02 X45.084887 Y14.994837 Z-1.000000 I-4.713203 J-1.369597
G02 X45.161023 Y11.983221 Z-1.000000 I-38.733478 J-2.485988
G01 X45.141363 Y10.531610 Z-1.000000
G01 X46.045853 Y10.164037 Z-1.000000
G03 X46.953205 Y9.803895 Z-1.000000 I22.530982 J55.442051
G03 X47.686671 Y9.528211 Z-1.000000 I13.932573 J35.954562
G02 X48.416533 Y9.245076 Z-1.000000 I-6.476067 J-17.776210
G02 X48.787050 Y9.074934 Z-1.000000 I-1.954800 J-4.745462
G03 X49.153401 Y8.899511 Z-1.000000 I3.892329 J7.658437
G03 X49.198124 Y8.889910 Z-1.000000 I0.044723 J0.099363
G02 X49.336341 Y8.813017 Z-1.000000 I0.000000 J-0.162670
G02 X49.413234 Y8.543294 Z-1.000000 I-0.434616 J-0.269723
G02 X49.385340 Y8.389373 Z-1.000000 I-0.438626 J-0.000000
G02 X49.210109 Y8.001238 Z-1.000000 I-3.045064 J1.141133
G03 X49.022720 Y7.616137 Z-1.000000 I5.143021 J-2.740722
G03 X49.006984 Y7.541599 Z-1.000000 I0.168668 J-0.074538
G02 X48.993928 Y7.466142 Z-1.000000 I-0.224575 J0.000000
G02 X48.902882 Y7.249762 Z-1.000000 I-1.988938 J0.709537
G03 X48.820266 Y7.031198 Z-1.000000 I1.136029 J-0.554307
G03 X48.795124 Y6.858660 Z-1.000000 I0.678827 J-0.187020
G02 X48.769671 Y6.686135 Z-1.000000 I-0.693615 J0.014192
G02 X48.681618 Y6.452410 Z-1.000000 I-1.371693 J0.383318
G01 X48.571773 Y6.223895 Z-1.000000
G01 X48.186491 Y6.232795 Z-1.000000
G02 X47.804869 Y6.269772 Z-1.000000 I0.060253 J2.609608
G02 X46.969523 Y6.441825 Z-1.000000 I2.186222 J12.728361
G03 X45.711874 Y6.703336 Z-1.000000 I-4.828015 J-20.063826
G03 X44.741359 Y6.833226 Z-1.000000 I-2.074546 J-11.809950
G01 X44.411281 Y6.863746 Z-1.000000
G01 X44.298932 Y6.645384 Z-1.000000
G03 X44.190965 Y6.424979 Z-1.000000 I5.548206 J-2.854485
G03 X44.090831 Y6.198505 Z-1.000000 I5.746375 J-2.676087
G02 X43.979483 Y5.979033 Z-1.000000 I-1.563046 J0.655021
G02 X43.800215 Y5.716083 Z-1.000000 I-2.426575 J1.461752
G03 X43.610266 Y5.458631 Z-1.000000 I6.704517 J-5.145436
G03 X43.279107 Y4.981063 Z-1.000000 I22.745652 J-16.126034
G02 X42.579892 Y4.069579 Z-1.000000 I-8.133062 J5.515075
G02 X42.055458 Y3.565622 Z-1.000000 I-2.979839 J2.576070
G02 X40.740008 Y2.727974 Z-1.000000 I-4.593721 J5.762302
G02 X39.231593 Y2.162976 Z-1.000000 I-3.497277 J7.040862
G02 X38.373411 Y2.025300 Z-1.000000 I-1.138814 J4.355106
G02 X37.174953 Y2.034514 Z-1.000000 I-0.533587 J8.542485
G01 X37.174951 Y2.034514 Z-1.000000
G00 Z0.000000

(End cutting path id: path27802)


(Start cutting path id: path27802)
(Change tool to Cone cutter)

G00 Z0.000000
G00 X37.174951 Y2.034514

G01 Z-1.000000 F100.0(Penetrate)
G02 X35.530628 Y2.414230 Z-1.000000 I0.440935 J5.659571 F400.000000
G02 X33.944648 Y3.310302 Z-1.000000 I2.429673 J6.151910
G02 X33.265434 Y3.964303 Z-1.000000 I2.514769 J3.291418
G02 X32.617119 Y4.917976 Z-1.000000 I4.777409 J3.944925
G02 X32.420668 Y5.318095 Z-1.000000 I4.115576 J2.268960
G02 X32.293228 Y5.665302 Z-1.000000 I2.968552 J1.286577
G02 X32.227523 Y6.026267 Z-1.000000 I1.536022 J0.466059
G02 X32.214928 Y6.858661 Z-1.000000 I8.246297 J0.541066
G02 X32.366612 Y8.127304 Z-1.000000 I7.633980 J-0.269359
G02 X32.611093 Y8.785958 Z-1.000000 I2.262263 J-0.465013
G02 X32.957072 Y9.302468 Z-1.000000 I3.312193 J-1.844505
G02 X33.356265 Y9.722139 Z-1.000000 I2.574716 J-2.049394
G03 X33.484763 Y9.871090 Z-1.000000 I-0.477288 J0.541653
G01 X33.480291 Y9.913473 Z-1.000000
G03 X33.428612 Y9.939963 Z-1.000000 I-0.066942 J-0.066942
G03 X32.906395 Y10.007223 Z-1.000000 I-1.254474 J-7.678989
G02 X32.376242 Y10.058607 Z-1.000000 I10.571064 J111.827059
G02 X31.411275 Y10.155722 Z-1.000000 I36.566898 J368.183927
G01 X30.446431 Y10.254092 Z-1.000000
G01 X30.294087 Y10.108319 Z-1.000000
G02 X29.973046 Y9.910667 Z-1.000000 I-0.620783 J0.648768
G02 X29.665751 Y9.885807 Z-1.000000 I-0.200444 J0.566019
G02 X29.168150 Y10.147516 Z-1.000000 I0.166440 J0.920373
G02 X28.999165 Y10.557839 Z-1.000000 I0.413673 J0.410323
G03 X28.979061 Y10.751616 Z-1.000000 I-0.943938 J0.000000
G03 X28.949765 Y10.793354 Z-1.000000 I-0.063295 J-0.013276
G03 X28.897418 Y10.817006 Z-1.000000 I-0.117226 J-0.189698
G03 X28.530820 Y10.920751 Z-1.000000 I-2.853195 J-9.382541
G02 X28.167485 Y11.036020 Z-1.000000 I0.951060 J3.628057
G02 X27.186363 Y11.423818 Z-1.000000 I10.065338 J26.900144
G03 X25.681074 Y11.982804 Z-1.000000 I-7.876310 J-18.903754
G03 X23.667134 Y12.575818 Z-1.000000 I-10.890991 J-33.270728
G03 X22.814793 Y12.733536 Z-1.000000 I-1.498611 J-5.716840
G03 X20.434677 Y12.931425 Z-1.000000 I-4.906210 J-44.597151
G03 X19.830141 Y12.921922 Z-1.000000 I-0.236432 J-4.193146
G03 X19.672959 Y12.864395 Z-1.000000 I0.028205 J-0.320561
G02 X18.740728 Y12.431134 Z-1.000000 I-1.664190 J2.361221
G02 X17.301903 Y12.243345 Z-1.000000 I-1.458331 J5.567638
G02 X16.446892 Y12.344826 Z-1.000000 I-0.012036 J3.551189
G02 X15.985215 Y12.565097 Z-1.000000 I0.297525 J1.217563
G02 X15.786922 Y12.854493 Z-1.000000 I0.338359 J0.444475
G02 X15.838836 Y13.071644 Z-1.000000 I0.217370 J0.062814
G03 X15.832544 Y13.231731 Z-1.000000 I-0.082468 J0.076926
G03 X15.465962 Y13.413201 Z-1.000000 I-0.496561 J-0.542090
G03 X14.109393 Y13.591293 Z-1.000000 I-2.563177 J-14.268586
G03 X11.856580 Y13.714662 Z-1.000000 I-3.281043 J-39.283799
G02 X9.931868 Y13.780200 Z-1.000000 I3.160560 J121.113950
G02 X9.498886 Y13.813722 Z-1.000000 I0.258378 J6.150355
G03 X7.896910 Y13.961163 Z-1.000000 I-4.355847 J-38.550603
G03 X5.817529 Y14.075692 Z-1.000000 I-4.613881 J-64.835348
G02 X4.548005 Y14.125429 Z-1.000000 I159.775032 J4094.104680
G02 X4.296945 Y14.135501 Z-1.000000 I6.294600 J160.036902
G02 X4.073660 Y14.191935 Z-1.000000 I0.022936 J0.560689
G02 X3.954117 Y14.302899 Z-1.000000 I0.123496 J0.252918
G02 X3.908094 Y14.461535 Z-1.000000 I0.292533 J0.170861
G02 X3.942631 Y14.620970 Z-1.000000 I0.330227 J0.011925
G03 X3.988345 Y14.790404 Z-1.000000 I-0.396771 J0.197935
G03 X4.051896 Y16.317358 Z-1.000000 I-33.557228 J2.161429
G02 X4.209927 Y17.933562 Z-1.000000 I10.339006 J-0.195108
G02 X4.373614 Y18.125658 Z-1.000000 I0.245903 J-0.043749
G03 X4.502389 Y18.191962 Z-1.000000 I-0.170840 J0.490011
G01 X4.522607 Y18.231020 Z-1.000000
G01 X4.542720 Y18.264325 Z-1.000000
G02 X4.624169 Y18.284440 Z-1.000000 I0.081449 J-0.154848
G02 X4.709191 Y18.267901 Z-1.000000 I0.000000 J-0.226801
G01 X4.725732 Y18.243370 Z-1.000000
G03 X4.799210 Y18.112334 Z-1.000000 I0.153580 J0.000000
G03 X5.157372 Y17.979510 Z-1.000000 I0.517895 J0.847208
G03 X5.462491 Y17.960619 Z-1.000000 I0.246976 J1.515491
G03 X6.096826 Y18.015110 Z-1.000000 I-0.252183 J6.655046
G02 X7.029323 Y18.081424 Z-1.000000 I0.995951 J-7.415429
G02 X11.764556 Y18.063170 Z-1.000000 I1.627773 J-191.929617
G01 X13.852209 Y18.029370 Z-1.000000
G01 X13.704024 Y18.448122 Z-1.000000
G03 X13.541375 Y18.858245 Z-1.000000 I-5.554859 J-1.965669
G03 X13.485070 Y18.945074 Z-1.000000 I-0.296693 J-0.130722
G02 X13.367297 Y19.277012 Z-1.000000 I0.339608 J0.307356
G02 X13.525370 Y19.695296 Z-1.000000 I0.737319 J-0.039627
G02 X13.866395 Y20.026082 Z-1.000000 I1.419716 J-1.122476
G02 X14.555562 Y20.459947 Z-1.000000 I3.168765 J-4.269103
G01 X14.755025 Y20.565113 Z-1.000000
G01 X13.964060 Y20.567313 Z-1.000000
G02 X11.831965 Y20.748907 Z-1.000000 I0.037441 J13.046843
G02 X9.981591 Y21.238927 Z-1.000000 I1.735802 J10.293225
G02 X8.276042 Y22.050660 Z-1.000000 I3.474613 J9.498229
G02 X6.943201 Y23.050863 Z-1.000000 I4.031742 J6.760735
G02 X6.487517 Y23.606382 Z-1.000000 I1.832766 J1.968046
G02 X6.213794 Y24.232584 Z-1.000000 I2.070363 J1.277914
G03 X6.098667 Y24.488045 Z-1.000000 I-0.890143 J-0.247482
G03 X6.020439 Y24.530536 Z-1.000000 I-0.078228 J-0.050766
G02 X5.587039 Y24.641452 Z-1.000000 I-0.000000 J0.902200
G02 X5.209000 Y24.974974 Z-1.000000 I0.550369 J1.004841
G02 X5.140403 Y25.124654 Z-1.000000 I0.341964 J0.247279
G02 X5.108284 Y25.398644 Z-1.000000 I1.152570 J0.273990
G02 X5.285221 Y25.833414 Z-1.000000 I0.622627 J0.000000
G02 X6.700975 Y27.031340 Z-1.000000 I6.957263 J-6.786796
G03 X7.332370 Y27.486727 Z-1.000000 I-12.233608 J17.627344
G03 X7.717701 Y27.793058 Z-1.000000 I-5.143717 J6.865734
G02 X9.757556 Y29.254926 Z-1.000000 I10.305730 J-12.226250
G02 X11.230808 Y29.914527 Z-1.000000 I3.419651 J-5.662872
G03 X11.934821 Y30.227467 Z-1.000000 I-0.949672 J3.084827
G03 X12.495263 Y30.668890 Z-1.000000 I-1.417950 J2.376750
G02 X13.223351 Y31.233398 Z-1.000000 I2.413123 J-2.360594
G02 X14.098526 Y31.592465 Z-1.000000 I1.776501 J-3.083882
G02 X14.708760 Y31.706456 Z-1.000000 I1.102317 J-4.210716
G02 X15.237451 Y31.722057 Z-1.000000 I0.357220 J-3.139448
G02 X16.329326 Y31.461069 Z-1.000000 I-0.169862 J-3.125133
G02 X17.247483 Y30.836578 Z-1.000000 I-1.234386 J-2.802057
G03 X17.634142 Y30.509125 Z-1.000000 I2.317072 J2.344008
G03 X17.719636 Y30.495398 Z-1.000000 I0.056375 J0.078017
G03 X17.811689 Y30.534912 Z-1.000000 I-0.154533 J0.486990
G03 X18.215089 Y30.768414 Z-1.000000 I-5.342223 J9.694464
G02 X18.881070 Y31.119632 Z-1.000000 I3.233778 J-5.324878
G02 X20.036279 Y31.592297 Z-1.000000 I7.056665 J-15.598704
G03 X20.747077 Y31.853730 Z-1.000000 I-248.266193 J676.095201
G03 X20.950341 Y31.929038 Z-1.000000 I-20.353574 J55.248631
G02 X22.548726 Y32.389749 Z-1.000000 I3.823286 J-10.261392
G02 X24.962060 Y32.761494 Z-1.000000 I4.794101 J-23.103431
G02 X26.952605 Y32.875216 Z-1.000000 I2.286602 J-22.545991
G02 X28.694482 Y32.810264 Z-1.000000 I0.226296 J-17.320347
G02 X30.736985 Y32.519644 Z-1.000000 I-1.680529 J-19.133661
G02 X32.213887 Y32.114896 Z-1.000000 I-2.051268 J-10.381899
G03 X32.580855 Y31.990556 Z-1.000000 I4.890736 J13.830404
G03 X33.234293 Y31.784107 Z-1.000000 I14.149787 J43.648711
G02 X33.885389 Y31.572127 Z-1.000000 I-6.216239 J-20.199103
G02 X34.097574 Y31.487494 Z-1.000000 I-0.764347 J-2.224603
G03 X34.306904 Y31.395001 Z-1.000000 I3.950695 J8.658114
G03 X34.635888 Y31.257342 Z-1.000000 I9.064705 J21.201266
G02 X35.880764 Y30.647759 Z-1.000000 I-3.934475 J-9.610816
G02 X37.005197 Y29.894029 Z-1.000000 I-4.939765 J-8.584854
G02 X38.978388 Y28.142143 Z-1.000000 I-12.040037 J-15.548153
G02 X39.155419 Y27.709993 Z-1.000000 I-0.438946 J-0.432150
G01 X39.160526 Y27.690786 Z-1.000000
G03 X39.358544 Y27.355002 Z-1.000000 I12.924032 J7.395269
G02 X39.548094 Y27.016613 Z-1.000000 I-4.692793 J-2.850974
G02 X39.563749 Y26.956258 Z-1.000000 I-0.126182 J-0.064937
G03 X39.580349 Y26.896997 Z-1.000000 I0.128304 J0.003985
G03 X39.703397 Y26.709489 Z-1.000000 I1.489701 J0.843457
G03 X39.841080 Y26.527203 Z-1.000000 I139.922232 J105.542279
G03 X40.085257 Y26.204602 Z-1.000000 I452.193024 J342.010697
G02 X40.372052 Y25.755749 Z-1.000000 I-2.666938 J-2.020093
G02 X40.854218 Y24.759051 Z-1.000000 I-12.762208 J-6.788863
G03 X40.945962 Y24.557268 Z-1.000000 I7.028685 J3.073976
G03 X41.189941 Y24.048113 Z-1.000000 I44.952037 J21.227230
G02 X41.428202 Y23.536559 Z-1.000000 I-15.240392 J-7.409621
G02 X41.563346 Y23.210223 Z-1.000000 I-6.063372 J-2.702144
G03 X41.894185 Y22.451702 Z-1.000000 I8.536951 J3.272095
G03 X42.099606 Y22.118426 Z-1.000000 I1.836682 J0.902127
G02 X42.183774 Y21.988192 Z-1.000000 I-0.831413 J-0.629642
G02 X42.695131 Y21.026629 Z-1.000000 I-45.159959 J-24.632724
G03 X42.951187 Y20.547652 Z-1.000000 I18.896674 J9.794034
G03 X43.072941 Y20.341082 Z-1.000000 I3.633737 J2.002585
G02 X43.479469 Y19.613803 Z-1.000000 I-6.810920 J-4.284367
G02 X43.522607 Y19.428693 Z-1.000000 I-0.375595 J-0.185110
G01 X43.528018 Y19.406620 Z-1.000000
G03 X43.795901 Y18.904805 Z-1.000000 I26.524453 J13.837069
G02 X44.308649 Y17.799779 Z-1.000000 I-8.178957 J-4.466630
G02 X44.900003 Y16.050066 Z-1.000000 I-19.979956 J-7.727449
G02 X45.084887 Y14.994837 Z-1.000000 I-4.713203 J-1.369597
G02 X45.161023 Y11.983221 Z-1.000000 I-38.733478 J-2.485988
G01 X45.141363 Y10.531610 Z-1.000000
G01 X46.045853 Y10.164037 Z-1.000000
G03 X46.953205 Y9.803895 Z-1.000000 I22.530982 J55.442051
G03 X47.686671 Y9.528211 Z-1.000000 I13.932573 J35.954562
G02 X48.416533 Y9.245076 Z-1.000000 I-6.476067 J-17.776210
G02 X48.787050 Y9.074934 Z-1.000000 I-1.954800 J-4.745462
G03 X49.153401 Y8.899511 Z-1.000000 I3.892329 J7.658437
G03 X49.198124 Y8.889910 Z-1.000000 I0.044723 J0.099363
G02 X49.336341 Y8.813017 Z-1.000000 I0.000000 J-0.162670
G02 X49.413234 Y8.543294 Z-1.000000 I-0.434616 J-0.269723
G02 X49.385340 Y8.389373 Z-1.000000 I-0.438626 J-0.000000
G02 X49.210109 Y8.001238 Z-1.000000 I-3.045064 J1.141133
G03 X49.022720 Y7.616137 Z-1.000000 I5.143021 J-2.740722
G03 X49.006984 Y7.541599 Z-1.000000 I0.168668 J-0.074538
G02 X48.993928 Y7.466142 Z-1.000000 I-0.224575 J0.000000
G02 X48.902882 Y7.249762 Z-1.000000 I-1.988938 J0.709537
G03 X48.820266 Y7.031198 Z-1.000000 I1.136029 J-0.554307
G03 X48.795124 Y6.858660 Z-1.000000 I0.678827 J-0.187020
G02 X48.769671 Y6.686135 Z-1.000000 I-0.693615 J0.014192
G02 X48.681618 Y6.452410 Z-1.000000 I-1.371693 J0.383318
G01 X48.571773 Y6.223895 Z-1.000000
G01 X48.186491 Y6.232795 Z-1.000000
G02 X47.804869 Y6.269772 Z-1.000000 I0.060253 J2.609608
G02 X46.969523 Y6.441825 Z-1.000000 I2.186222 J12.728361
G03 X45.711874 Y6.703336 Z-1.000000 I-4.828015 J-20.063826
G03 X44.741359 Y6.833226 Z-1.000000 I-2.074546 J-11.809950
G01 X44.411281 Y6.863746 Z-1.000000
G01 X44.298932 Y6.645384 Z-1.000000
G03 X44.190965 Y6.424979 Z-1.000000 I5.548206 J-2.854485
G03 X44.090831 Y6.198505 Z-1.000000 I5.746375 J-2.676087
G02 X43.979483 Y5.979033 Z-1.000000 I-1.563046 J0.655021
G02 X43.800215 Y5.716083 Z-1.000000 I-2.426575 J1.461752
G03 X43.610266 Y5.458631 Z-1.000000 I6.704517 J-5.145436
G03 X43.279107 Y4.981063 Z-1.000000 I22.745652 J-16.126034
G02 X42.579892 Y4.069579 Z-1.000000 I-8.133062 J5.515075
G02 X42.055458 Y3.565622 Z-1.000000 I-2.979839 J2.576070
G02 X40.740008 Y2.727974 Z-1.000000 I-4.593721 J5.762302
G02 X39.231593 Y2.162976 Z-1.000000 I-3.497277 J7.040862
G02 X38.373411 Y2.025300 Z-1.000000 I-1.138814 J4.355106
G02 X37.174953 Y2.034514 Z-1.000000 I-0.533587 J8.542485
G01 X37.174951 Y2.034514 Z-1.000000
G00 Z0.000000

(End cutting path id: path27802)


(Start cutting path id: path27802)
(Change tool to Cone cutter)

G00 Z0.000000
G00 X36.911523 Y2.272255

G01 Z-1.000000 F100.0(Penetrate)
G02 X36.974941 Y2.283122 Z-1.000000 I0.057085 J-0.142653 F400.000000
G02 X37.008853 Y2.268255 Z-1.000000 I-0.002100 J-0.050900
G01 X37.005611 Y2.252453 Z-1.000000
G02 X36.942203 Y2.241585 Z-1.000000 I-0.057073 J0.142583
G02 X36.908277 Y2.256456 Z-1.000000 I0.002062 J0.050840
G01 X36.911523 Y2.272265 Z-1.000000
G01 X36.911523 Y2.272255 Z-1.000000
G00 Z0.000000

(End cutting path id: path27802)


(Start cutting path id: path27802)
(Change tool to Cone cutter)

G00 Z0.000000
G00 X36.911523 Y2.272255

G01 Z-1.000000 F100.0(Penetrate)
G02 X36.974941 Y2.283122 Z-1.000000 I0.057085 J-0.142653 F400.000000
G02 X37.008853 Y2.268255 Z-1.000000 I-0.002100 J-0.050900
G01 X37.005611 Y2.252453 Z-1.000000
G02 X36.942203 Y2.241585 Z-1.000000 I-0.057073 J0.142583
G02 X36.908277 Y2.256456 Z-1.000000 I0.002062 J0.050840
G01 X36.911523 Y2.272265 Z-1.000000
G01 X36.911523 Y2.272255 Z-1.000000
G00 Z0.000000

(End cutting path id: path27802)


(Start cutting path id: path27802)
(Change tool to Cone cutter)

G00 Z0.000000
G00 X36.708398 Y2.322995

G01 Z-1.000000 F100.0(Penetrate)
G02 X36.771812 Y2.333867 Z-1.000000 I0.057103 J-0.142699 F400.000000
G02 X36.805728 Y2.318995 Z-1.000000 I-0.002091 J-0.050878
G01 X36.802486 Y2.303193 Z-1.000000
G02 X36.739078 Y2.292325 Z-1.000000 I-0.057073 J0.142583
G02 X36.705152 Y2.307196 Z-1.000000 I0.002062 J0.050840
G01 X36.708398 Y2.323005 Z-1.000000
G01 X36.708398 Y2.322995 Z-1.000000
G00 Z0.000000

(End cutting path id: path27802)


(Start cutting path id: path27802)
(Change tool to Cone cutter)

G00 Z0.000000
G00 X36.708398 Y2.322995

G01 Z-1.000000 F100.0(Penetrate)
G02 X36.771812 Y2.333867 Z-1.000000 I0.057103 J-0.142699 F400.000000
G02 X36.805728 Y2.318995 Z-1.000000 I-0.002091 J-0.050878
G01 X36.802486 Y2.303193 Z-1.000000
G02 X36.739078 Y2.292325 Z-1.000000 I-0.057073 J0.142583
G02 X36.705152 Y2.307196 Z-1.000000 I0.002062 J0.050840
G01 X36.708398 Y2.323005 Z-1.000000
G01 X36.708398 Y2.322995 Z-1.000000
G00 Z0.000000

(End cutting path id: path27802)


(Start cutting path id: path27802)
(Change tool to Cone cutter)

G00 Z0.000000
G00 X35.895898 Y2.526118

G01 Z-1.000000 F100.0(Penetrate)
G02 X35.959312 Y2.536990 Z-1.000000 I0.057103 J-0.142699 F400.000000
G02 X35.993228 Y2.522118 Z-1.000000 I-0.002091 J-0.050878
G01 X35.989986 Y2.506316 Z-1.000000
G02 X35.926578 Y2.495448 Z-1.000000 I-0.057073 J0.142583
G02 X35.892652 Y2.510319 Z-1.000000 I0.002062 J0.050840
G01 X35.895898 Y2.526128 Z-1.000000
G01 X35.895898 Y2.526118 Z-1.000000
G00 Z0.000000

(End cutting path id: path27802)


(Start cutting path id: path27802)
(Change tool to Cone cutter)

G00 Z0.000000
G00 X35.895898 Y2.526118

G01 Z-1.000000 F100.0(Penetrate)
G02 X35.959312 Y2.536990 Z-1.000000 I0.057103 J-0.142699 F400.000000
G02 X35.993228 Y2.522118 Z-1.000000 I-0.002091 J-0.050878
G01 X35.989986 Y2.506316 Z-1.000000
G02 X35.926578 Y2.495448 Z-1.000000 I-0.057073 J0.142583
G02 X35.892652 Y2.510319 Z-1.000000 I0.002062 J0.050840
G01 X35.895898 Y2.526128 Z-1.000000
G01 X35.895898 Y2.526118 Z-1.000000
G00 Z0.000000

(End cutting path id: path27802)


(Start cutting path id: path27802)
(Change tool to Cone cutter)

G00 Z0.000000
G00 X35.143701 Y2.849940

G01 Z-1.000000 F100.0(Penetrate)
G01 X35.159862 Y2.874730 Z-1.000000 F400.000000
G01 X35.194481 Y2.872330 Z-1.000000
G02 X35.237973 Y2.836885 Z-1.000000 I-0.113520 J-0.183697
G01 X35.245261 Y2.818550 Z-1.000000
G01 X35.236421 Y2.804993 Z-1.000000
G02 X35.194481 Y2.796160 Z-1.000000 I-0.041940 J0.095149
G01 X35.158998 Y2.811457 Z-1.000000
G02 X35.143701 Y2.849940 Z-1.000000 I0.040756 J0.038483
G01 X35.143701 Y2.849940 Z-1.000000
G00 Z0.000000

(End cutting path id: path27802)


(Start cutting path id: path27802)
(Change tool to Cone cutter)

G00 Z0.000000
G00 X35.143701 Y2.849940

G01 Z-1.000000 F100.0(Penetrate)
G01 X35.159862 Y2.874730 Z-1.000000 F400.000000
G01 X35.194481 Y2.872330 Z-1.000000
G02 X35.237973 Y2.836885 Z-1.000000 I-0.113520 J-0.183697
G01 X35.245261 Y2.818550 Z-1.000000
G01 X35.236421 Y2.804993 Z-1.000000
G02 X35.194481 Y2.796160 Z-1.000000 I-0.041940 J0.095149
G01 X35.158998 Y2.811457 Z-1.000000
G02 X35.143701 Y2.849940 Z-1.000000 I0.040756 J0.038483
G01 X35.143701 Y2.849940 Z-1.000000
G00 Z0.000000

(End cutting path id: path27802)


(Start cutting path id: path27802)
(Change tool to Cone cutter)

G00 Z0.000000
G00 X34.692971 Y3.063598

G01 Z-1.000000 F100.0(Penetrate)
G01 X34.670616 Y3.063557 Z-1.000000 F400.000000
G01 X34.664541 Y3.035168 Z-1.000000
G03 X34.705282 Y2.972497 Z-1.000000 I0.165537 J0.063035
G01 X34.727641 Y2.972538 Z-1.000000
G01 X34.733711 Y3.000926 Z-1.000000
G03 X34.692971 Y3.063598 Z-1.000000 I-0.165506 J-0.063010
G01 X34.692971 Y3.063598 Z-1.000000
G00 Z0.000000

(End cutting path id: path27802)


(Start cutting path id: path27802)
(Change tool to Cone cutter)

G00 Z0.000000
G00 X34.692971 Y3.063598

G01 Z-1.000000 F100.0(Penetrate)
G01 X34.670616 Y3.063557 Z-1.000000 F400.000000
G01 X34.664541 Y3.035168 Z-1.000000
G03 X34.705282 Y2.972497 Z-1.000000 I0.165537 J0.063035
G01 X34.727641 Y2.972538 Z-1.000000
G01 X34.733711 Y3.000926 Z-1.000000
G03 X34.692971 Y3.063598 Z-1.000000 I-0.165506 J-0.063010
G01 X34.692971 Y3.063598 Z-1.000000
G00 Z0.000000

(End cutting path id: path27802)


(Start cutting path id: path27802)
(Change tool to Cone cutter)

G00 Z0.000000
G00 X35.379243 Y3.430916

G01 Z-1.000000 F100.0(Penetrate)
G02 X35.394783 Y3.591569 Z-1.000000 I0.168760 J0.064754 F400.000000
G02 X35.505183 Y3.632132 Z-1.000000 I0.081363 J-0.050924
G01 X35.564086 Y3.661610 Z-1.000000
G03 X35.544813 Y3.745819 Z-1.000000 I-0.076733 J0.026748
G02 X35.459467 Y3.998289 Z-1.000000 I0.212492 J0.212492
G02 X35.594563 Y4.116463 Z-1.000000 I0.135096 J-0.018133
G03 X35.696262 Y4.193553 Z-1.000000 I0.000000 J0.105627
G03 X35.765333 Y4.725066 Z-1.000000 I-1.793823 J0.503353
G03 X35.725037 Y4.934518 Z-1.000000 I-0.613305 J-0.009391
G03 X35.643223 Y5.044690 Z-1.000000 I-0.236949 J-0.090496
G02 X35.524958 Y5.136937 Z-1.000000 I10.421594 J13.483002
G02 X35.309412 Y5.307415 Z-1.000000 I36.138359 J45.913319
G03 X34.988092 Y5.404685 Z-1.000000 I-0.283287 J-0.356449
G03 X34.883779 Y5.271735 Z-1.000000 I0.009637 J-0.114958
G01 X34.875241 Y5.246078 Z-1.000000
G01 X34.844649 Y5.233645 Z-1.000000
G01 X34.816797 Y5.218014 Z-1.000000
G03 X34.805909 Y5.170165 Z-1.000000 I0.065746 J-0.040124
G02 X34.796483 Y5.109694 Z-1.000000 I-0.120914 J-0.012123
G02 X34.597142 Y4.688870 Z-1.000000 I-6.436074 J2.791094
G03 X34.399063 Y4.266832 Z-1.000000 I5.641738 J-2.905397
G03 X34.381196 Y4.181058 Z-1.000000 I0.206263 J-0.087712
G01 X34.361667 Y4.155630 Z-1.000000
G01 X34.331196 Y4.167238 Z-1.000000
G03 X34.296251 Y4.193836 Z-1.000000 I-0.054310 J-0.035099
G01 X34.281196 Y4.182928 Z-1.000000
G03 X34.376513 Y3.970777 Z-1.000000 I0.275746 J-0.003599
G03 X35.106359 Y3.468997 Z-1.000000 I2.617454 J3.025449
G03 X35.347150 Y3.390527 Z-1.000000 I0.340572 J0.636395
G01 X35.379242 Y3.430907 Z-1.000000
G01 X35.379243 Y3.430916 Z-1.000000
G00 Z0.000000

(End cutting path id: path27802)


(Start cutting path id: path27802)
(Change tool to Cone cutter)

G00 Z0.000000
G00 X35.379243 Y3.430916

G01 Z-1.000000 F100.0(Penetrate)
G02 X35.394783 Y3.591569 Z-1.000000 I0.168760 J0.064754 F400.000000
G02 X35.505183 Y3.632132 Z-1.000000 I0.081363 J-0.050924
G01 X35.564086 Y3.661610 Z-1.000000
G03 X35.544813 Y3.745819 Z-1.000000 I-0.076733 J0.026748
G02 X35.459467 Y3.998289 Z-1.000000 I0.212492 J0.212492
G02 X35.594563 Y4.116463 Z-1.000000 I0.135096 J-0.018133
G03 X35.696262 Y4.193553 Z-1.000000 I0.000000 J0.105627
G03 X35.765333 Y4.725066 Z-1.000000 I-1.793823 J0.503353
G03 X35.725037 Y4.934518 Z-1.000000 I-0.613305 J-0.009391
G03 X35.643223 Y5.044690 Z-1.000000 I-0.236949 J-0.090496
G02 X35.524958 Y5.136937 Z-1.000000 I10.421594 J13.483002
G02 X35.309412 Y5.307415 Z-1.000000 I36.138359 J45.913319
G03 X34.988092 Y5.404685 Z-1.000000 I-0.283287 J-0.356449
G03 X34.883779 Y5.271735 Z-1.000000 I0.009637 J-0.114958
G01 X34.875241 Y5.246078 Z-1.000000
G01 X34.844649 Y5.233645 Z-1.000000
G01 X34.816797 Y5.218014 Z-1.000000
G03 X34.805909 Y5.170165 Z-1.000000 I0.065746 J-0.040124
G02 X34.796483 Y5.109694 Z-1.000000 I-0.120914 J-0.012123
G02 X34.597142 Y4.688870 Z-1.000000 I-6.436074 J2.791094
G03 X34.399063 Y4.266832 Z-1.000000 I5.641738 J-2.905397
G03 X34.381196 Y4.181058 Z-1.000000 I0.206263 J-0.087712
G01 X34.361667 Y4.155630 Z-1.000000
G01 X34.331196 Y4.167238 Z-1.000000
G03 X34.296251 Y4.193836 Z-1.000000 I-0.054310 J-0.035099
G01 X34.281196 Y4.182928 Z-1.000000
G03 X34.376513 Y3.970777 Z-1.000000 I0.275746 J-0.003599
G03 X35.106359 Y3.468997 Z-1.000000 I2.617454 J3.025449
G03 X35.347150 Y3.390527 Z-1.000000 I0.340572 J0.636395
G01 X35.379242 Y3.430907 Z-1.000000
G01 X35.379243 Y3.430916 Z-1.000000
G00 Z0.000000

(End cutting path id: path27802)


(Start cutting path id: path27802)
(Change tool to Cone cutter)

G00 Z0.000000
G00 X34.788232 Y4.167240

G01 Z-1.000000 F100.0(Penetrate)
G02 X34.803105 Y4.203147 Z-1.000000 I0.050780 J0.000000 F400.000000
G02 X34.839012 Y4.218020 Z-1.000000 I0.035907 J-0.035907
G02 X34.874919 Y4.203147 Z-1.000000 I-0.000000 J-0.050780
G02 X34.889792 Y4.167240 Z-1.000000 I-0.035907 J-0.035907
G02 X34.874919 Y4.131333 Z-1.000000 I-0.050780 J0.000000
G02 X34.839012 Y4.116460 Z-1.000000 I-0.035907 J0.035907
G02 X34.803105 Y4.131333 Z-1.000000 I0.000000 J0.050780
G02 X34.788232 Y4.167240 Z-1.000000 I0.035907 J0.035907
G01 X34.788232 Y4.167240 Z-1.000000
G00 Z0.000000

(End cutting path id: path27802)


(Start cutting path id: path27802)
(Change tool to Cone cutter)

G00 Z0.000000
G00 X34.788232 Y4.167240

G01 Z-1.000000 F100.0(Penetrate)
G02 X34.803105 Y4.203147 Z-1.000000 I0.050780 J0.000000 F400.000000
G02 X34.839012 Y4.218020 Z-1.000000 I0.035907 J-0.035907
G02 X34.874919 Y4.203147 Z-1.000000 I-0.000000 J-0.050780
G02 X34.889792 Y4.167240 Z-1.000000 I-0.035907 J-0.035907
G02 X34.874919 Y4.131333 Z-1.000000 I-0.050780 J0.000000
G02 X34.839012 Y4.116460 Z-1.000000 I-0.035907 J0.035907
G02 X34.803105 Y4.131333 Z-1.000000 I0.000000 J0.050780
G02 X34.788232 Y4.167240 Z-1.000000 I0.035907 J0.035907
G01 X34.788232 Y4.167240 Z-1.000000
G00 Z0.000000

(End cutting path id: path27802)


(Start cutting path id: path27802)
(Change tool to Cone cutter)

G00 Z0.000000
G00 X34.635888 Y4.119460

G01 Z-1.000000 F100.0(Penetrate)
G02 X34.656148 Y4.187681 Z-1.000000 I0.124987 J0.000000 F400.000000
G01 X34.684448 Y4.194010 Z-1.000000
G02 X34.710369 Y4.156354 Z-1.000000 I-0.029857 J-0.048303
G02 X34.704408 Y4.089451 Z-1.000000 I-0.120427 J-0.022986
G01 X34.665998 Y4.073402 Z-1.000000
G02 X34.635888 Y4.119461 Z-1.000000 I0.020173 J0.046059
G01 X34.635888 Y4.119460 Z-1.000000
G00 Z0.000000

(End cutting path id: path27802)


(Start cutting path id: path27802)
(Change tool to Cone cutter)

G00 Z0.000000
G00 X34.635888 Y4.119460

G01 Z-1.000000 F100.0(Penetrate)
G02 X34.656148 Y4.187681 Z-1.000000 I0.124987 J0.000000 F400.000000
G01 X34.684448 Y4.194010 Z-1.000000
G02 X34.710369 Y4.156354 Z-1.000000 I-0.029857 J-0.048303
G02 X34.704408 Y4.089451 Z-1.000000 I-0.120427 J-0.022986
G01 X34.665998 Y4.073402 Z-1.000000
G02 X34.635888 Y4.119461 Z-1.000000 I0.020173 J0.046059
G01 X34.635888 Y4.119460 Z-1.000000
G00 Z0.000000

(End cutting path id: path27802)


(Start cutting path id: path27802)
(Change tool to Cone cutter)

G00 Z0.000000
G00 X34.889794 Y4.415153

G01 Z-1.000000 F100.0(Penetrate)
G02 X34.902247 Y4.458989 Z-1.000000 I0.083378 J0.000000 F400.000000
G02 X34.940574 Y4.497313 Z-1.000000 I0.100331 J-0.062011
G01 X34.975723 Y4.500629 Z-1.000000
G01 X34.991354 Y4.477913 Z-1.000000
G02 X34.978901 Y4.434077 Z-1.000000 I-0.083378 J0.000000
G02 X34.940574 Y4.395753 Z-1.000000 I-0.100331 J0.062011
G01 X34.905425 Y4.392437 Z-1.000000
G01 X34.889794 Y4.415153 Z-1.000000
G01 X34.889794 Y4.415153 Z-1.000000
G00 Z0.000000

(End cutting path id: path27802)


(Start cutting path id: path27802)
(Change tool to Cone cutter)

G00 Z0.000000
G00 X34.889794 Y4.415153

G01 Z-1.000000 F100.0(Penetrate)
G02 X34.902247 Y4.458989 Z-1.000000 I0.083378 J0.000000 F400.000000
G02 X34.940574 Y4.497313 Z-1.000000 I0.100331 J-0.062011
G01 X34.975723 Y4.500629 Z-1.000000
G01 X34.991354 Y4.477913 Z-1.000000
G02 X34.978901 Y4.434077 Z-1.000000 I-0.083378 J0.000000
G02 X34.940574 Y4.395753 Z-1.000000 I-0.100331 J0.062011
G01 X34.905425 Y4.392437 Z-1.000000
G01 X34.889794 Y4.415153 Z-1.000000
G01 X34.889794 Y4.415153 Z-1.000000
G00 Z0.000000

(End cutting path id: path27802)


(Start cutting path id: path27802)
(Change tool to Cone cutter)

G00 Z0.000000
G00 X34.534326 Y4.725849

G01 Z-1.000000 F100.0(Penetrate)
G03 X34.571194 Y4.816933 Z-1.000000 I-0.406151 J0.217399 F400.000000
G01 X34.563286 Y4.827411 Z-1.000000
G01 X34.543629 Y4.817854 Z-1.000000
G03 X34.483536 Y4.725849 Z-1.000000 I0.496546 J-0.389944
G03 X34.446668 Y4.634764 Z-1.000000 I0.406146 J-0.217396
G01 X34.454576 Y4.624286 Z-1.000000
G01 X34.474233 Y4.633843 Z-1.000000
G03 X34.534326 Y4.725849 Z-1.000000 I-0.496533 J0.389933
G01 X34.534326 Y4.725849 Z-1.000000
G00 Z0.000000

(End cutting path id: path27802)


(Start cutting path id: path27802)
(Change tool to Cone cutter)

G00 Z0.000000
G00 X34.534326 Y4.725849

G01 Z-1.000000 F100.0(Penetrate)
G03 X34.571194 Y4.816933 Z-1.000000 I-0.406151 J0.217399 F400.000000
G01 X34.563286 Y4.827411 Z-1.000000
G01 X34.543629 Y4.817854 Z-1.000000
G03 X34.483536 Y4.725849 Z-1.000000 I0.496546 J-0.389944
G03 X34.446668 Y4.634764 Z-1.000000 I0.406146 J-0.217396
G01 X34.454576 Y4.624286 Z-1.000000
G01 X34.474233 Y4.633843 Z-1.000000
G03 X34.534326 Y4.725849 Z-1.000000 I-0.496533 J0.389933
G01 X34.534326 Y4.725849 Z-1.000000
G00 Z0.000000

(End cutting path id: path27802)


(Start cutting path id: path27802)
(Change tool to Cone cutter)

G00 Z0.000000
G00 X34.743928 Y5.068622

G01 Z-1.000000 F100.0(Penetrate)
G01 X34.742839 Y5.086703 Z-1.000000 F400.000000
G01 X34.724758 Y5.087792 Z-1.000000
G03 X34.642500 Y5.014886 Z-1.000000 I0.563739 J-0.718903
G01 X34.635888 Y4.998922 Z-1.000000
G01 X34.655674 Y4.988140 Z-1.000000
G03 X34.743928 Y5.068612 Z-1.000000 I-0.195411 J0.302938
G01 X34.743928 Y5.068622 Z-1.000000
G00 Z0.000000

(End cutting path id: path27802)


(Start cutting path id: path27802)
(Change tool to Cone cutter)

G00 Z0.000000
G00 X34.743928 Y5.068622

G01 Z-1.000000 F100.0(Penetrate)
G01 X34.742839 Y5.086703 Z-1.000000 F400.000000
G01 X34.724758 Y5.087792 Z-1.000000
G03 X34.642500 Y5.014886 Z-1.000000 I0.563739 J-0.718903
G01 X34.635888 Y4.998922 Z-1.000000
G01 X34.655674 Y4.988140 Z-1.000000
G03 X34.743928 Y5.068612 Z-1.000000 I-0.195411 J0.302938
G01 X34.743928 Y5.068622 Z-1.000000
G00 Z0.000000

(End cutting path id: path27802)


(Start cutting path id: path27802)
(Change tool to Cone cutter)

G00 Z0.000000
G00 X34.701715 Y5.292358

G01 Z-1.000000 F100.0(Penetrate)
G01 X34.937967 Y5.630353 Z-1.000000 F400.000000
G01 X34.715022 Y5.962822 Z-1.000000
G01 X34.492077 Y6.295292 Z-1.000000
G01 X34.290117 Y6.076191 Z-1.000000
G03 X34.099527 Y5.848180 Z-1.000000 I2.254892 J-2.078475
G03 X33.834568 Y5.474157 Z-1.000000 I5.817058 J-4.401691
G01 X33.580979 Y5.091223 Z-1.000000
G01 X33.710514 Y4.870450 Z-1.000000
G03 X33.846872 Y4.654310 Z-1.000000 I3.419715 J2.006346
G03 X33.991896 Y4.454744 Z-1.000000 I3.061720 J2.072461
G01 X34.143743 Y4.259811 Z-1.000000
G01 X34.304603 Y4.607088 Z-1.000000
G02 X34.480636 Y4.945637 Z-1.000000 I3.787595 J-1.754372
G02 X34.701715 Y5.292358 Z-1.000000 I4.195397 J-2.431257
G01 X34.701715 Y5.292358 Z-1.000000
G00 Z0.000000

(End cutting path id: path27802)


(Start cutting path id: path27802)
(Change tool to Cone cutter)

G00 Z0.000000
G00 X34.701715 Y5.292358

G01 Z-1.000000 F100.0(Penetrate)
G01 X34.937967 Y5.630353 Z-1.000000 F400.000000
G01 X34.715022 Y5.962822 Z-1.000000
G01 X34.492077 Y6.295292 Z-1.000000
G01 X34.290117 Y6.076191 Z-1.000000
G03 X34.099527 Y5.848180 Z-1.000000 I2.254892 J-2.078475
G03 X33.834568 Y5.474157 Z-1.000000 I5.817058 J-4.401691
G01 X33.580979 Y5.091223 Z-1.000000
G01 X33.710514 Y4.870450 Z-1.000000
G03 X33.846872 Y4.654310 Z-1.000000 I3.419715 J2.006346
G03 X33.991896 Y4.454744 Z-1.000000 I3.061720 J2.072461
G01 X34.143743 Y4.259811 Z-1.000000
G01 X34.304603 Y4.607088 Z-1.000000
G02 X34.480636 Y4.945637 Z-1.000000 I3.787595 J-1.754372
G02 X34.701715 Y5.292358 Z-1.000000 I4.195397 J-2.431257
G01 X34.701715 Y5.292358 Z-1.000000
G00 Z0.000000

(End cutting path id: path27802)


(Start cutting path id: path27802)
(Change tool to Cone cutter)

G00 Z0.000000
G00 X35.046147 Y5.364831

G01 Z-1.000000 F100.0(Penetrate)
G02 X35.061018 Y5.398757 Z-1.000000 I0.050840 J-0.002062 F400.000000
G01 X35.076827 Y5.395511 Z-1.000000
G02 X35.087699 Y5.332097 Z-1.000000 I-0.142699 J-0.057103
G02 X35.072827 Y5.298181 Z-1.000000 I-0.050878 J0.002091
G01 X35.057025 Y5.301423 Z-1.000000
G02 X35.046157 Y5.364831 Z-1.000000 I0.142583 J0.057073
G01 X35.046147 Y5.364831 Z-1.000000
G00 Z0.000000

(End cutting path id: path27802)


(Start cutting path id: path27802)
(Change tool to Cone cutter)

G00 Z0.000000
G00 X35.046147 Y5.364831

G01 Z-1.000000 F100.0(Penetrate)
G02 X35.061018 Y5.398757 Z-1.000000 I0.050840 J-0.002062 F400.000000
G01 X35.076827 Y5.395511 Z-1.000000
G02 X35.087699 Y5.332097 Z-1.000000 I-0.142699 J-0.057103
G02 X35.072827 Y5.298181 Z-1.000000 I-0.050878 J0.002091
G01 X35.057025 Y5.301423 Z-1.000000
G02 X35.046157 Y5.364831 Z-1.000000 I0.142583 J0.057073
G01 X35.046147 Y5.364831 Z-1.000000
G00 Z0.000000

(End cutting path id: path27802)


(Start cutting path id: path27802)
(Change tool to Cone cutter)

G00 Z0.000000
G00 X35.295026 Y6.072779

G01 Z-1.000000 F100.0(Penetrate)
G02 X35.248266 Y6.149365 Z-1.000000 I0.239631 J0.198876 F400.000000
G01 X35.252646 Y6.172029 Z-1.000000
G01 X35.272052 Y6.172417 Z-1.000000
G02 X35.336486 Y6.094629 Z-1.000000 I-0.257265 J-0.278680
G01 X35.328771 Y6.066061 Z-1.000000
G01 X35.295026 Y6.072779 Z-1.000000
G01 X35.295026 Y6.072779 Z-1.000000
G00 Z0.000000

(End cutting path id: path27802)


(Start cutting path id: path27802)
(Change tool to Cone cutter)

G00 Z0.000000
G00 X35.295026 Y6.072779

G01 Z-1.000000 F100.0(Penetrate)
G02 X35.248266 Y6.149365 Z-1.000000 I0.239631 J0.198876 F400.000000
G01 X35.252646 Y6.172029 Z-1.000000
G01 X35.272052 Y6.172417 Z-1.000000
G02 X35.336486 Y6.094629 Z-1.000000 I-0.257265 J-0.278680
G01 X35.328771 Y6.066061 Z-1.000000
G01 X35.295026 Y6.072779 Z-1.000000
G01 X35.295026 Y6.072779 Z-1.000000
G00 Z0.000000

(End cutting path id: path27802)


(Start cutting path id: path27802)
(Change tool to Cone cutter)

G00 Z0.000000
G00 X35.207177 Y6.689174

G01 Z-1.000000 F100.0(Penetrate)
G02 X35.170497 Y6.733221 Z-1.000000 I0.022654 J0.056161 F400.000000
G02 X35.138017 Y7.027938 Z-1.000000 I1.587613 J0.324118
G01 X35.132317 Y7.341089 Z-1.000000
G01 X35.085897 Y7.099010 Z-1.000000
G03 X35.101085 Y6.735966 Z-1.000000 I0.778374 J-0.149277
G03 X35.208943 Y6.659551 Z-1.000000 I0.101051 J0.028304
G01 X35.219695 Y6.671739 Z-1.000000
G01 X35.207143 Y6.689171 Z-1.000000
G01 X35.207177 Y6.689174 Z-1.000000
G00 Z0.000000

(End cutting path id: path27802)


(Start cutting path id: path27802)
(Change tool to Cone cutter)

G00 Z0.000000
G00 X35.207177 Y6.689174

G01 Z-1.000000 F100.0(Penetrate)
G02 X35.170497 Y6.733221 Z-1.000000 I0.022654 J0.056161 F400.000000
G02 X35.138017 Y7.027938 Z-1.000000 I1.587613 J0.324118
G01 X35.132317 Y7.341089 Z-1.000000
G01 X35.085897 Y7.099010 Z-1.000000
G03 X35.101085 Y6.735966 Z-1.000000 I0.778374 J-0.149277
G03 X35.208943 Y6.659551 Z-1.000000 I0.101051 J0.028304
G01 X35.219695 Y6.671739 Z-1.000000
G01 X35.207143 Y6.689171 Z-1.000000
G01 X35.207177 Y6.689174 Z-1.000000
G00 Z0.000000

(End cutting path id: path27802)


(Start cutting path id: path27802)
(Change tool to Cone cutter)

G00 Z0.000000
G00 X35.884567 Y7.290299

G01 Z-1.000000 F100.0(Penetrate)
G03 X35.838200 Y7.398656 Z-1.000000 I-0.362481 J-0.091010 F400.000000
G01 X35.804487 Y7.417252 Z-1.000000
G01 X35.782465 Y7.435258 Z-1.000000
G02 X35.787817 Y7.499482 Z-1.000000 I0.113042 J0.022915
G01 X35.822553 Y7.508008 Z-1.000000
G02 X35.913176 Y7.388852 Z-1.000000 I-0.252385 J-0.285989
G02 X35.982235 Y7.188767 Z-1.000000 I-0.792576 J-0.385517
G01 X35.961706 Y7.163350 Z-1.000000
G01 X35.930237 Y7.181050 Z-1.000000
G02 X35.884566 Y7.290303 Z-1.000000 I0.338337 J0.205608
G01 X35.884567 Y7.290299 Z-1.000000
G00 Z0.000000

(End cutting path id: path27802)


(Start cutting path id: path27802)
(Change tool to Cone cutter)

G00 Z0.000000
G00 X35.884567 Y7.290299

G01 Z-1.000000 F100.0(Penetrate)
G03 X35.838200 Y7.398656 Z-1.000000 I-0.362481 J-0.091010 F400.000000
G01 X35.804487 Y7.417252 Z-1.000000
G01 X35.782465 Y7.435258 Z-1.000000
G02 X35.787817 Y7.499482 Z-1.000000 I0.113042 J0.022915
G01 X35.822553 Y7.508008 Z-1.000000
G02 X35.913176 Y7.388852 Z-1.000000 I-0.252385 J-0.285989
G02 X35.982235 Y7.188767 Z-1.000000 I-0.792576 J-0.385517
G01 X35.961706 Y7.163350 Z-1.000000
G01 X35.930237 Y7.181050 Z-1.000000
G02 X35.884566 Y7.290303 Z-1.000000 I0.338337 J0.205608
G01 X35.884567 Y7.290299 Z-1.000000
G00 Z0.000000

(End cutting path id: path27802)


(Start cutting path id: path27802)
(Change tool to Cone cutter)

G00 Z0.000000
G00 X36.436534 Y6.963608

G01 Z-1.000000 F100.0(Penetrate)
G02 X36.418250 Y7.016011 Z-1.000000 I0.109227 J0.067501 F400.000000
G01 X36.427234 Y7.041968 Z-1.000000
G01 X36.446290 Y7.041978 Z-1.000000
G02 X36.481504 Y6.987808 Z-1.000000 I-0.109470 J-0.109693
G01 X36.469263 Y6.954832 Z-1.000000
G01 X36.436504 Y6.963608 Z-1.000000
G01 X36.436534 Y6.963608 Z-1.000000
G00 Z0.000000

(End cutting path id: path27802)


(Start cutting path id: path27802)
(Change tool to Cone cutter)

G00 Z0.000000
G00 X36.436534 Y6.963608

G01 Z-1.000000 F100.0(Penetrate)
G02 X36.418250 Y7.016011 Z-1.000000 I0.109227 J0.067501 F400.000000
G01 X36.427234 Y7.041968 Z-1.000000
G01 X36.446290 Y7.041978 Z-1.000000
G02 X36.481504 Y6.987808 Z-1.000000 I-0.109470 J-0.109693
G01 X36.469263 Y6.954832 Z-1.000000
G01 X36.436504 Y6.963608 Z-1.000000
G01 X36.436534 Y6.963608 Z-1.000000
G00 Z0.000000

(End cutting path id: path27802)


(Start cutting path id: path27802)
(Change tool to Cone cutter)

G00 Z0.000000
G00 X36.819482 Y7.315698

G01 Z-1.000000 F100.0(Penetrate)
G02 X36.769477 Y7.363667 Z-1.000000 I0.086909 J0.140647 F400.000000
G01 X36.771642 Y7.386348 Z-1.000000
G01 X36.799020 Y7.394612 Z-1.000000
G02 X36.870262 Y7.366478 Z-1.000000 I-0.043011 J-0.213181
G02 X36.920263 Y7.318517 Z-1.000000 I-0.086915 J-0.140657
G01 X36.918102 Y7.295828 Z-1.000000
G01 X36.890716 Y7.287558 Z-1.000000
G02 X36.819482 Y7.315698 Z-1.000000 I0.043034 J0.213164
G01 X36.819482 Y7.315698 Z-1.000000
G00 Z0.000000

(End cutting path id: path27802)


(Start cutting path id: path27802)
(Change tool to Cone cutter)

G00 Z0.000000
G00 X36.819482 Y7.315698

G01 Z-1.000000 F100.0(Penetrate)
G02 X36.769477 Y7.363667 Z-1.000000 I0.086909 J0.140647 F400.000000
G01 X36.771642 Y7.386348 Z-1.000000
G01 X36.799020 Y7.394612 Z-1.000000
G02 X36.870262 Y7.366478 Z-1.000000 I-0.043011 J-0.213181
G02 X36.920263 Y7.318517 Z-1.000000 I-0.086915 J-0.140657
G01 X36.918102 Y7.295828 Z-1.000000
G01 X36.890716 Y7.287558 Z-1.000000
G02 X36.819482 Y7.315698 Z-1.000000 I0.043034 J0.213164
G01 X36.819482 Y7.315698 Z-1.000000
G00 Z0.000000

(End cutting path id: path27802)


(Start cutting path id: path27802)
(Change tool to Cone cutter)

G00 Z0.000000
G00 X37.108130 Y6.592066

G01 Z-1.000000 F100.0(Penetrate)
G02 X37.100407 Y6.631178 Z-1.000000 I0.053321 J0.030848 F400.000000
G02 X37.126950 Y6.731714 Z-1.000000 I0.418015 J-0.056591
G01 X37.150528 Y6.737479 Z-1.000000
G02 X37.171380 Y6.693624 Z-1.000000 I-0.038906 J-0.045384
G02 X37.143578 Y6.591486 Z-1.000000 I-0.184313 J-0.004682
G01 X37.108130 Y6.592062 Z-1.000000
G01 X37.108130 Y6.592066 Z-1.000000
G00 Z0.000000

(End cutting path id: path27802)


(Start cutting path id: path27802)
(Change tool to Cone cutter)

G00 Z0.000000
G00 X37.108130 Y6.592066

G01 Z-1.000000 F100.0(Penetrate)
G02 X37.100407 Y6.631178 Z-1.000000 I0.053321 J0.030848 F400.000000
G02 X37.126950 Y6.731714 Z-1.000000 I0.418015 J-0.056591
G01 X37.150528 Y6.737479 Z-1.000000
G02 X37.171380 Y6.693624 Z-1.000000 I-0.038906 J-0.045384
G02 X37.143578 Y6.591486 Z-1.000000 I-0.184313 J-0.004682
G01 X37.108130 Y6.592062 Z-1.000000
G01 X37.108130 Y6.592066 Z-1.000000
G00 Z0.000000

(End cutting path id: path27802)


(Start cutting path id: path27802)
(Change tool to Cone cutter)

G00 Z0.000000
G00 X37.428857 Y6.683406

G01 Z-1.000000 F100.0(Penetrate)
G02 X37.556814 Y6.718320 Z-1.000000 I0.523554 J-1.666872 F400.000000
G02 X37.631982 Y6.730616 Z-1.000000 I0.130248 J-0.560304
G03 X37.705248 Y6.747404 Z-1.000000 I-0.027547 J0.288482
G03 X37.829272 Y6.803766 Z-1.000000 I-0.332916 J0.897219
G03 X37.895424 Y6.871116 Z-1.000000 I-0.077110 J0.141901
G01 X37.884662 Y6.910208 Z-1.000000
G03 X37.817396 Y6.934489 Z-1.000000 I-0.091408 J-0.147915
G03 X37.758985 Y6.927828 Z-1.000000 I-0.016315 J-0.116367
G02 X37.706202 Y6.930780 Z-1.000000 I-0.023105 J0.060220
G02 X37.627426 Y6.995998 Z-1.000000 I0.111094 J0.214375
G01 X37.630524 Y7.012483 Z-1.000000
G01 X37.652836 Y7.011008 Z-1.000000
G01 X37.681811 Y7.010706 Z-1.000000
G01 X37.686606 Y7.036398 Z-1.000000
G03 X37.608081 Y7.112296 Z-1.000000 I-0.190796 J-0.118829
G03 X37.497393 Y7.145490 Z-1.000000 I-0.125705 J-0.218026
G02 X37.303783 Y7.228830 Z-1.000000 I0.018406 J0.309320
G02 X37.227345 Y7.398798 Z-1.000000 I0.165824 J0.176746
G03 X37.157196 Y7.480872 Z-1.000000 I-0.085969 J-0.002463
G03 X36.792503 Y7.480168 Z-1.000000 I-0.180485 J-0.964439
G03 X36.714808 Y7.435065 Z-1.000000 I0.025497 J-0.133391
G03 X36.704943 Y7.377823 Z-1.000000 I0.043135 J-0.036905
G01 X36.695109 Y7.338506 Z-1.000000
G01 X36.650563 Y7.330683 Z-1.000000
G03 X36.588632 Y7.329735 Z-1.000000 I-0.029784 J-0.077624
G01 X36.565573 Y7.295063 Z-1.000000
G02 X36.542228 Y7.241460 Z-1.000000 I-0.073212 J-0.000000
G02 X36.412567 Y7.152725 Z-1.000000 I-0.360086 J0.387064
G01 X36.259562 Y7.078625 Z-1.000000
G01 X36.501434 Y6.858176 Z-1.000000
G03 X37.011508 Y6.543059 Z-1.000000 I1.093733 J1.200024
G03 X37.225729 Y6.579165 Z-1.000000 I0.076626 J0.198917
G02 X37.307374 Y6.633589 Z-1.000000 I0.278890 J-0.329926
G02 X37.428854 Y6.683416 Z-1.000000 I0.353460 J-0.688752
G01 X37.428857 Y6.683406 Z-1.000000
G00 Z0.000000

(End cutting path id: path27802)


(Start cutting path id: path27802)
(Change tool to Cone cutter)

G00 Z0.000000
G00 X37.428857 Y6.683406

G01 Z-1.000000 F100.0(Penetrate)
G02 X37.556814 Y6.718320 Z-1.000000 I0.523554 J-1.666872 F400.000000
G02 X37.631982 Y6.730616 Z-1.000000 I0.130248 J-0.560304
G03 X37.705248 Y6.747404 Z-1.000000 I-0.027547 J0.288482
G03 X37.829272 Y6.803766 Z-1.000000 I-0.332916 J0.897219
G03 X37.895424 Y6.871116 Z-1.000000 I-0.077110 J0.141901
G01 X37.884662 Y6.910208 Z-1.000000
G03 X37.817396 Y6.934489 Z-1.000000 I-0.091408 J-0.147915
G03 X37.758985 Y6.927828 Z-1.000000 I-0.016315 J-0.116367
G02 X37.706202 Y6.930780 Z-1.000000 I-0.023105 J0.060220
G02 X37.627426 Y6.995998 Z-1.000000 I0.111094 J0.214375
G01 X37.630524 Y7.012483 Z-1.000000
G01 X37.652836 Y7.011008 Z-1.000000
G01 X37.681811 Y7.010706 Z-1.000000
G01 X37.686606 Y7.036398 Z-1.000000
G03 X37.608081 Y7.112296 Z-1.000000 I-0.190796 J-0.118829
G03 X37.497393 Y7.145490 Z-1.000000 I-0.125705 J-0.218026
G02 X37.303783 Y7.228830 Z-1.000000 I0.018406 J0.309320
G02 X37.227345 Y7.398798 Z-1.000000 I0.165824 J0.176746
G03 X37.157196 Y7.480872 Z-1.000000 I-0.085969 J-0.002463
G03 X36.792503 Y7.480168 Z-1.000000 I-0.180485 J-0.964439
G03 X36.714808 Y7.435065 Z-1.000000 I0.025497 J-0.133391
G03 X36.704943 Y7.377823 Z-1.000000 I0.043135 J-0.036905
G01 X36.695109 Y7.338506 Z-1.000000
G01 X36.650563 Y7.330683 Z-1.000000
G03 X36.588632 Y7.329735 Z-1.000000 I-0.029784 J-0.077624
G01 X36.565573 Y7.295063 Z-1.000000
G02 X36.542228 Y7.241460 Z-1.000000 I-0.073212 J-0.000000
G02 X36.412567 Y7.152725 Z-1.000000 I-0.360086 J0.387064
G01 X36.259562 Y7.078625 Z-1.000000
G01 X36.501434 Y6.858176 Z-1.000000
G03 X37.011508 Y6.543059 Z-1.000000 I1.093733 J1.200024
G03 X37.225729 Y6.579165 Z-1.000000 I0.076626 J0.198917
G02 X37.307374 Y6.633589 Z-1.000000 I0.278890 J-0.329926
G02 X37.428854 Y6.683416 Z-1.000000 I0.353460 J-0.688752
G01 X37.428857 Y6.683406 Z-1.000000
G00 Z0.000000

(End cutting path id: path27802)


(Start cutting path id: path27802)
(Change tool to Cone cutter)

G00 Z0.000000
G00 X37.942504 Y6.346168

G01 Z-1.000000 F100.0(Penetrate)
G01 X37.927602 Y6.388686 Z-1.000000 F400.000000
G02 X37.977254 Y6.446953 Z-1.000000 I0.099120 J-0.034177
G02 X38.084906 Y6.492346 Z-1.000000 I0.299005 J-0.558762
G02 X38.149153 Y6.501393 Z-1.000000 I0.058986 J-0.186236
G01 X38.157043 Y6.485177 Z-1.000000
G02 X38.100113 Y6.435273 Z-1.000000 I-0.143905 J0.106740
G03 X38.018063 Y6.366217 Z-1.000000 I0.135763 J-0.244581
G01 X38.019713 Y6.335513 Z-1.000000
G01 X38.012310 Y6.320617 Z-1.000000
G02 X37.942503 Y6.346163 Z-1.000000 I0.023929 J0.173541
G01 X37.942504 Y6.346168 Z-1.000000
G00 Z0.000000

(End cutting path id: path27802)


(Start cutting path id: path27802)
(Change tool to Cone cutter)

G00 Z0.000000
G00 X37.942504 Y6.346168

G01 Z-1.000000 F100.0(Penetrate)
G01 X37.927602 Y6.388686 Z-1.000000 F400.000000
G02 X37.977254 Y6.446953 Z-1.000000 I0.099120 J-0.034177
G02 X38.084906 Y6.492346 Z-1.000000 I0.299005 J-0.558762
G02 X38.149153 Y6.501393 Z-1.000000 I0.058986 J-0.186236
G01 X38.157043 Y6.485177 Z-1.000000
G02 X38.100113 Y6.435273 Z-1.000000 I-0.143905 J0.106740
G03 X38.018063 Y6.366217 Z-1.000000 I0.135763 J-0.244581
G01 X38.019713 Y6.335513 Z-1.000000
G01 X38.012310 Y6.320617 Z-1.000000
G02 X37.942503 Y6.346163 Z-1.000000 I0.023929 J0.173541
G01 X37.942504 Y6.346168 Z-1.000000
G00 Z0.000000

(End cutting path id: path27802)


(Start cutting path id: path27802)
(Change tool to Cone cutter)

G00 Z0.000000
G00 X38.444482 Y7.061783

G01 Z-1.000000 F100.0(Penetrate)
G01 X38.459779 Y7.097266 Z-1.000000 F400.000000
G02 X38.498262 Y7.112563 Z-1.000000 I0.038483 J-0.040756
G01 X38.523050 Y7.096401 Z-1.000000
G01 X38.520652 Y7.061783 Z-1.000000
G02 X38.485207 Y7.018291 Z-1.000000 I-0.183697 J0.113520
G01 X38.466872 Y7.011003 Z-1.000000
G01 X38.453315 Y7.019843 Z-1.000000
G02 X38.444482 Y7.061783 Z-1.000000 I0.095149 J0.041940
G01 X38.444482 Y7.061783 Z-1.000000
G00 Z0.000000

(End cutting path id: path27802)


(Start cutting path id: path27802)
(Change tool to Cone cutter)

G00 Z0.000000
G00 X38.444482 Y7.061783

G01 Z-1.000000 F100.0(Penetrate)
G01 X38.459779 Y7.097266 Z-1.000000 F400.000000
G02 X38.498262 Y7.112563 Z-1.000000 I0.038483 J-0.040756
G01 X38.523050 Y7.096401 Z-1.000000
G01 X38.520652 Y7.061783 Z-1.000000
G02 X38.485207 Y7.018291 Z-1.000000 I-0.183697 J0.113520
G01 X38.466872 Y7.011003 Z-1.000000
G01 X38.453315 Y7.019843 Z-1.000000
G02 X38.444482 Y7.061783 Z-1.000000 I0.095149 J0.041940
G01 X38.444482 Y7.061783 Z-1.000000
G00 Z0.000000

(End cutting path id: path27802)


(Start cutting path id: path27802)
(Change tool to Cone cutter)

G00 Z0.000000
G00 X38.180418 Y7.528981

G01 Z-1.000000 F100.0(Penetrate)
G03 X38.215308 Y7.600703 Z-1.000000 I-0.086358 J0.086358 F400.000000
G03 X38.241358 Y8.033888 Z-1.000000 I-3.588739 J0.433185
G03 X38.093346 Y8.901220 Z-1.000000 I-2.615234 J0.000000
G03 X37.770952 Y9.372008 Z-1.000000 I-1.037589 J-0.364756
G01 X37.567391 Y9.546248 Z-1.000000
G01 X37.430815 Y9.357710 Z-1.000000
G02 X37.037011 Y8.921051 Z-1.000000 I-2.230973 J1.616108
G02 X36.528961 Y8.550577 Z-1.000000 I-2.100768 J2.347300
G03 X36.375634 Y8.409420 Z-1.000000 I0.248083 J-0.423324
G03 X36.379429 Y8.337853 Z-1.000000 I0.047468 J-0.033367
G02 X36.567467 Y8.048618 Z-1.000000 I-0.916135 J-0.801341
G02 X36.616358 Y7.827001 Z-1.000000 I-0.477837 J-0.221617
G03 X36.662930 Y7.755104 Z-1.000000 I0.078783 J0.000000
G03 X37.073389 Y7.622245 Z-1.000000 I0.817033 J1.823698
G02 X37.301190 Y7.571767 Z-1.000000 I-1.803953 J-8.680248
G02 X37.479639 Y7.526595 Z-1.000000 I-1.262846 J-5.363871
G03 X38.007952 Y7.457199 Z-1.000000 I0.521524 J1.924651
G03 X38.180420 Y7.528995 Z-1.000000 I-0.000834 J0.245054
G01 X38.180418 Y7.528981 Z-1.000000
G00 Z0.000000

(End cutting path id: path27802)


(Start cutting path id: path27802)
(Change tool to Cone cutter)

G00 Z0.000000
G00 X38.180418 Y7.528981

G01 Z-1.000000 F100.0(Penetrate)
G03 X38.215308 Y7.600703 Z-1.000000 I-0.086358 J0.086358 F400.000000
G03 X38.241358 Y8.033888 Z-1.000000 I-3.588739 J0.433185
G03 X38.093346 Y8.901220 Z-1.000000 I-2.615234 J0.000000
G03 X37.770952 Y9.372008 Z-1.000000 I-1.037589 J-0.364756
G01 X37.567391 Y9.546248 Z-1.000000
G01 X37.430815 Y9.357710 Z-1.000000
G02 X37.037011 Y8.921051 Z-1.000000 I-2.230973 J1.616108
G02 X36.528961 Y8.550577 Z-1.000000 I-2.100768 J2.347300
G03 X36.375634 Y8.409420 Z-1.000000 I0.248083 J-0.423324
G03 X36.379429 Y8.337853 Z-1.000000 I0.047468 J-0.033367
G02 X36.567467 Y8.048618 Z-1.000000 I-0.916135 J-0.801341
G02 X36.616358 Y7.827001 Z-1.000000 I-0.477837 J-0.221617
G03 X36.662930 Y7.755104 Z-1.000000 I0.078783 J0.000000
G03 X37.073389 Y7.622245 Z-1.000000 I0.817033 J1.823698
G02 X37.301190 Y7.571767 Z-1.000000 I-1.803953 J-8.680248
G02 X37.479639 Y7.526595 Z-1.000000 I-1.262846 J-5.363871
G03 X38.007952 Y7.457199 Z-1.000000 I0.521524 J1.924651
G03 X38.180420 Y7.528995 Z-1.000000 I-0.000834 J0.245054
G01 X38.180418 Y7.528981 Z-1.000000
G00 Z0.000000

(End cutting path id: path27802)


(Start cutting path id: path27802)
(Change tool to Cone cutter)

G00 Z0.000000
G00 X37.865757 Y7.306756

G01 Z-1.000000 F100.0(Penetrate)
G03 X37.789362 Y7.347721 Z-1.000000 I-0.105950 J-0.105868 F400.000000
G03 X37.626418 Y7.354926 Z-1.000000 I-0.104613 J-0.519743
G03 X37.569371 Y7.318802 Z-1.000000 I0.008464 J-0.076473
G01 X37.581198 Y7.281506 Z-1.000000
G03 X37.710637 Y7.241236 Z-1.000000 I0.259526 J0.606024
G03 X37.820537 Y7.233336 Z-1.000000 I0.085916 J0.426846
G03 X37.870847 Y7.263272 Z-1.000000 I-0.003449 J0.063039
G01 X37.865757 Y7.306756 Z-1.000000
G01 X37.865757 Y7.306756 Z-1.000000
G00 Z0.000000

(End cutting path id: path27802)


(Start cutting path id: path27802)
(Change tool to Cone cutter)

G00 Z0.000000
G00 X37.865757 Y7.306756

G01 Z-1.000000 F100.0(Penetrate)
G03 X37.789362 Y7.347721 Z-1.000000 I-0.105950 J-0.105868 F400.000000
G03 X37.626418 Y7.354926 Z-1.000000 I-0.104613 J-0.519743
G03 X37.569371 Y7.318802 Z-1.000000 I0.008464 J-0.076473
G01 X37.581198 Y7.281506 Z-1.000000
G03 X37.710637 Y7.241236 Z-1.000000 I0.259526 J0.606024
G03 X37.820537 Y7.233336 Z-1.000000 I0.085916 J0.426846
G03 X37.870847 Y7.263272 Z-1.000000 I-0.003449 J0.063039
G01 X37.865757 Y7.306756 Z-1.000000
G01 X37.865757 Y7.306756 Z-1.000000
G00 Z0.000000

(End cutting path id: path27802)


(Start cutting path id: path27802)
(Change tool to Cone cutter)

G00 Z0.000000
G00 X38.501102 Y7.950455

G01 Z-1.000000 F100.0(Penetrate)
G02 X38.513382 Y8.098163 Z-1.000000 I0.665271 J0.019055 F400.000000
G02 X38.546042 Y8.178971 Z-1.000000 I0.226913 J-0.044707
G01 X38.573163 Y8.185649 Z-1.000000
G01 X38.590982 Y8.153581 Z-1.000000
G02 X38.579062 Y8.053372 Z-1.000000 I-0.668693 J0.028730
G02 X38.546042 Y7.925065 Z-1.000000 I-1.120851 J0.220049
G01 X38.522062 Y7.915673 Z-1.000000
G01 X38.501102 Y7.950455 Z-1.000000
G01 X38.501102 Y7.950455 Z-1.000000
G00 Z0.000000

(End cutting path id: path27802)


(Start cutting path id: path27802)
(Change tool to Cone cutter)

G00 Z0.000000
G00 X38.501102 Y7.950455

G01 Z-1.000000 F100.0(Penetrate)
G02 X38.513382 Y8.098163 Z-1.000000 I0.665271 J0.019055 F400.000000
G02 X38.546042 Y8.178971 Z-1.000000 I0.226913 J-0.044707
G01 X38.573163 Y8.185649 Z-1.000000
G01 X38.590982 Y8.153581 Z-1.000000
G02 X38.579062 Y8.053372 Z-1.000000 I-0.668693 J0.028730
G02 X38.546042 Y7.925065 Z-1.000000 I-1.120851 J0.220049
G01 X38.522062 Y7.915673 Z-1.000000
G01 X38.501102 Y7.950455 Z-1.000000
G01 X38.501102 Y7.950455 Z-1.000000
G00 Z0.000000

(End cutting path id: path27802)


(Start cutting path id: path27802)
(Change tool to Cone cutter)

G00 Z0.000000
G00 X38.378109 Y8.368446

G01 Z-1.000000 F100.0(Penetrate)
G01 X38.365548 Y8.369260 Z-1.000000 F400.000000
G03 X38.352819 Y8.305936 Z-1.000000 I0.161826 J-0.065470
G03 X38.363675 Y8.216922 Z-1.000000 I0.337348 J-0.004026
G01 X38.376229 Y8.216106 Z-1.000000
G03 X38.388963 Y8.279431 Z-1.000000 I-0.161873 J0.065493
G03 X38.378129 Y8.368450 Z-1.000000 I-0.336785 J0.004181
G01 X38.378109 Y8.368446 Z-1.000000
G00 Z0.000000

(End cutting path id: path27802)


(Start cutting path id: path27802)
(Change tool to Cone cutter)

G00 Z0.000000
G00 X38.378109 Y8.368446

G01 Z-1.000000 F100.0(Penetrate)
G01 X38.365548 Y8.369260 Z-1.000000 F400.000000
G03 X38.352819 Y8.305936 Z-1.000000 I0.161826 J-0.065470
G03 X38.363675 Y8.216922 Z-1.000000 I0.337348 J-0.004026
G01 X38.376229 Y8.216106 Z-1.000000
G03 X38.388963 Y8.279431 Z-1.000000 I-0.161873 J0.065493
G03 X38.378129 Y8.368450 Z-1.000000 I-0.336785 J0.004181
G01 X38.378109 Y8.368446 Z-1.000000
G00 Z0.000000

(End cutting path id: path27802)


(Start cutting path id: path27802)
(Change tool to Cone cutter)

G00 Z0.000000
G00 X38.376774 Y8.923763

G01 Z-1.000000 F100.0(Penetrate)
G02 X38.352122 Y8.961430 Z-1.000000 I0.077853 J0.077853 F400.000000
G02 X38.342924 Y9.010093 Z-1.000000 I0.124128 J0.048663
G01 X38.358848 Y9.024129 Z-1.000000
G02 X38.403014 Y9.002493 Z-1.000000 I-0.009541 J-0.075372
G02 X38.442343 Y8.942400 Z-1.000000 I-0.124208 J-0.124208
G01 X38.436864 Y8.916163 Z-1.000000
G01 X38.410623 Y8.907184 Z-1.000000
G02 X38.376774 Y8.923763 Z-1.000000 I0.007322 J0.057795
G01 X38.376774 Y8.923763 Z-1.000000
G00 Z0.000000

(End cutting path id: path27802)


(Start cutting path id: path27802)
(Change tool to Cone cutter)

G00 Z0.000000
G00 X38.376774 Y8.923763

G01 Z-1.000000 F100.0(Penetrate)
G02 X38.352122 Y8.961430 Z-1.000000 I0.077853 J0.077853 F400.000000
G02 X38.342924 Y9.010093 Z-1.000000 I0.124128 J0.048663
G01 X38.358848 Y9.024129 Z-1.000000
G02 X38.403014 Y9.002493 Z-1.000000 I-0.009541 J-0.075372
G02 X38.442343 Y8.942400 Z-1.000000 I-0.124208 J-0.124208
G01 X38.436864 Y8.916163 Z-1.000000
G01 X38.410623 Y8.907184 Z-1.000000
G02 X38.376774 Y8.923763 Z-1.000000 I0.007322 J0.057795
G01 X38.376774 Y8.923763 Z-1.000000
G00 Z0.000000

(End cutting path id: path27802)


(Start cutting path id: path27802)
(Change tool to Cone cutter)

G00 Z0.000000
G00 X38.241357 Y9.248374

G01 Z-1.000000 F100.0(Penetrate)
G01 X38.257518 Y9.273164 Z-1.000000 F400.000000
G01 X38.292137 Y9.270764 Z-1.000000
G02 X38.335629 Y9.235319 Z-1.000000 I-0.113520 J-0.183697
G01 X38.342917 Y9.216984 Z-1.000000
G01 X38.334077 Y9.203427 Z-1.000000
G02 X38.292137 Y9.194594 Z-1.000000 I-0.041940 J0.095149
G01 X38.256654 Y9.209891 Z-1.000000
G02 X38.241357 Y9.248374 Z-1.000000 I0.040756 J0.038483
G01 X38.241357 Y9.248374 Z-1.000000
G00 Z0.000000

(End cutting path id: path27802)


(Start cutting path id: path27802)
(Change tool to Cone cutter)

G00 Z0.000000
G00 X38.241357 Y9.248374

G01 Z-1.000000 F100.0(Penetrate)
G01 X38.257518 Y9.273164 Z-1.000000 F400.000000
G01 X38.292137 Y9.270764 Z-1.000000
G02 X38.335629 Y9.235319 Z-1.000000 I-0.113520 J-0.183697
G01 X38.342917 Y9.216984 Z-1.000000
G01 X38.334077 Y9.203427 Z-1.000000
G02 X38.292137 Y9.194594 Z-1.000000 I-0.041940 J0.095149
G01 X38.256654 Y9.209891 Z-1.000000
G02 X38.241357 Y9.248374 Z-1.000000 I0.040756 J0.038483
G01 X38.241357 Y9.248374 Z-1.000000
G00 Z0.000000

(End cutting path id: path27802)


(Start cutting path id: path27802)
(Change tool to Cone cutter)

G00 Z0.000000
G00 X37.983784 Y9.585831

G01 Z-1.000000 F100.0(Penetrate)
G03 X37.843784 Y9.775518 Z-1.000000 I-0.901372 J-0.518757 F400.000000
G03 X37.761586 Y9.824632 Z-1.000000 I-0.125605 J-0.116874
G02 X37.688825 Y9.858054 Z-1.000000 I0.058221 J0.222661
G01 X37.687196 Y9.876112 Z-1.000000
G02 X38.023328 Y9.876111 Z-1.000000 I0.168065 J-0.168065
G02 X38.127197 Y9.436105 Z-1.000000 I-0.304039 J-0.304036
G01 X38.100471 Y9.430100 Z-1.000000
G02 X37.983782 Y9.585828 Z-1.000000 I0.583006 J0.558435
G01 X37.983784 Y9.585831 Z-1.000000
G00 Z0.000000

(End cutting path id: path27802)


(Start cutting path id: path27802)
(Change tool to Cone cutter)

G00 Z0.000000
G00 X37.983784 Y9.585831

G01 Z-1.000000 F100.0(Penetrate)
G03 X37.843784 Y9.775518 Z-1.000000 I-0.901372 J-0.518757 F400.000000
G03 X37.761586 Y9.824632 Z-1.000000 I-0.125605 J-0.116874
G02 X37.688825 Y9.858054 Z-1.000000 I0.058221 J0.222661
G01 X37.687196 Y9.876112 Z-1.000000
G02 X38.023328 Y9.876111 Z-1.000000 I0.168065 J-0.168065
G02 X38.127197 Y9.436105 Z-1.000000 I-0.304039 J-0.304036
G01 X38.100471 Y9.430100 Z-1.000000
G02 X37.983782 Y9.585828 Z-1.000000 I0.583006 J0.558435
G01 X37.983784 Y9.585831 Z-1.000000
G00 Z0.000000

(End cutting path id: path27802)


(Start cutting path id: path27802)
(Change tool to Cone cutter)

G00 Z0.000000
G00 X37.124174 Y9.270776

G01 Z-1.000000 F100.0(Penetrate)
G03 X37.203078 Y9.380262 Z-1.000000 I-0.379999 J0.357031 F400.000000
G01 X37.192654 Y9.397729 Z-1.000000
G03 X37.148252 Y9.382982 Z-1.000000 I0.000000 J-0.074219
G03 X37.022607 Y9.270776 Z-1.000000 I0.575708 J-0.771110
G03 X36.943698 Y9.161282 Z-1.000000 I0.380246 J-0.357212
G01 X36.954117 Y9.143822 Z-1.000000
G03 X36.998519 Y9.158569 Z-1.000000 I0.000000 J0.074220
G03 X37.124164 Y9.270776 Z-1.000000 I-0.575645 J0.771033
G01 X37.124174 Y9.270776 Z-1.000000
G00 Z0.000000

(End cutting path id: path27802)


(Start cutting path id: path27802)
(Change tool to Cone cutter)

G00 Z0.000000
G00 X37.124174 Y9.270776

G01 Z-1.000000 F100.0(Penetrate)
G03 X37.203078 Y9.380262 Z-1.000000 I-0.379999 J0.357031 F400.000000
G01 X37.192654 Y9.397729 Z-1.000000
G03 X37.148252 Y9.382982 Z-1.000000 I0.000000 J-0.074219
G03 X37.022607 Y9.270776 Z-1.000000 I0.575708 J-0.771110
G03 X36.943698 Y9.161282 Z-1.000000 I0.380246 J-0.357212
G01 X36.954117 Y9.143822 Z-1.000000
G03 X36.998519 Y9.158569 Z-1.000000 I0.000000 J0.074220
G03 X37.124164 Y9.270776 Z-1.000000 I-0.575645 J0.771033
G01 X37.124174 Y9.270776 Z-1.000000
G00 Z0.000000

(End cutting path id: path27802)


(Start cutting path id: path27802)
(Change tool to Cone cutter)

G00 Z0.000000
G00 X36.193185 Y8.974552

G01 Z-1.000000 F100.0(Penetrate)
G02 X36.168533 Y9.012219 Z-1.000000 I0.077853 J0.077853 F400.000000
G02 X36.159335 Y9.060882 Z-1.000000 I0.124128 J0.048663
G01 X36.175259 Y9.074918 Z-1.000000
G02 X36.219425 Y9.053282 Z-1.000000 I-0.009541 J-0.075372
G02 X36.258754 Y8.993189 Z-1.000000 I-0.124208 J-0.124208
G01 X36.253275 Y8.966952 Z-1.000000
G01 X36.227034 Y8.957973 Z-1.000000
G02 X36.193185 Y8.974552 Z-1.000000 I0.007322 J0.057795
G01 X36.193185 Y8.974552 Z-1.000000
G00 Z0.000000

(End cutting path id: path27802)


(Start cutting path id: path27802)
(Change tool to Cone cutter)

G00 Z0.000000
G00 X36.193185 Y8.974552

G01 Z-1.000000 F100.0(Penetrate)
G02 X36.168533 Y9.012219 Z-1.000000 I0.077853 J0.077853 F400.000000
G02 X36.159335 Y9.060882 Z-1.000000 I0.124128 J0.048663
G01 X36.175259 Y9.074918 Z-1.000000
G02 X36.219425 Y9.053282 Z-1.000000 I-0.009541 J-0.075372
G02 X36.258754 Y8.993189 Z-1.000000 I-0.124208 J-0.124208
G01 X36.253275 Y8.966952 Z-1.000000
G01 X36.227034 Y8.957973 Z-1.000000
G02 X36.193185 Y8.974552 Z-1.000000 I0.007322 J0.057795
G01 X36.193185 Y8.974552 Z-1.000000
G00 Z0.000000

(End cutting path id: path27802)


(Start cutting path id: path27802)
(Change tool to Cone cutter)

G00 Z0.000000
G00 X36.099025 Y8.873824

G01 Z-1.000000 F100.0(Penetrate)
G02 X36.162439 Y8.884696 Z-1.000000 I0.057103 J-0.142699 F400.000000
G02 X36.196355 Y8.869824 Z-1.000000 I-0.002091 J-0.050878
G01 X36.193113 Y8.854022 Z-1.000000
G02 X36.129705 Y8.843154 Z-1.000000 I-0.057073 J0.142583
G02 X36.095779 Y8.858025 Z-1.000000 I0.002062 J0.050840
G01 X36.099025 Y8.873834 Z-1.000000
G01 X36.099025 Y8.873824 Z-1.000000
G00 Z0.000000

(End cutting path id: path27802)


(Start cutting path id: path27802)
(Change tool to Cone cutter)

G00 Z0.000000
G00 X36.099025 Y8.873824

G01 Z-1.000000 F100.0(Penetrate)
G02 X36.162439 Y8.884696 Z-1.000000 I0.057103 J-0.142699 F400.000000
G02 X36.196355 Y8.869824 Z-1.000000 I-0.002091 J-0.050878
G01 X36.193113 Y8.854022 Z-1.000000
G02 X36.129705 Y8.843154 Z-1.000000 I-0.057073 J0.142583
G02 X36.095779 Y8.858025 Z-1.000000 I0.002062 J0.050840
G01 X36.099025 Y8.873834 Z-1.000000
G01 X36.099025 Y8.873824 Z-1.000000
G00 Z0.000000

(End cutting path id: path27802)


(Start cutting path id: path27802)
(Change tool to Cone cutter)

G00 Z0.000000
G00 X36.130645 Y8.742893

G01 Z-1.000000 F100.0(Penetrate)
G01 X36.128909 Y8.773655 Z-1.000000 F400.000000
G01 X36.152095 Y8.788353 Z-1.000000
G02 X36.191169 Y8.773572 Z-1.000000 I0.000000 J-0.059038
G02 X36.223985 Y8.724873 Z-1.000000 I-0.077174 J-0.087410
G01 X36.260288 Y8.706147 Z-1.000000
G03 X36.405951 Y8.777173 Z-1.000000 I-0.129374 J0.450201
G02 X36.536362 Y8.830759 Z-1.000000 I0.175815 J-0.242392
G01 X36.571462 Y8.802563 Z-1.000000
G01 X36.584743 Y8.789734 Z-1.000000
G01 X36.600692 Y8.801665 Z-1.000000
G02 X36.637236 Y8.858203 Z-1.000000 I0.103968 J-0.027122
G01 X36.673672 Y8.860475 Z-1.000000
G01 X36.718771 Y8.859523 Z-1.000000
G03 X36.822173 Y8.943795 Z-1.000000 I-0.190114 J0.338844
G03 X36.895817 Y9.098433 Z-1.000000 I-0.242556 J0.210368
G01 X36.857563 Y9.144590 Z-1.000000
G01 X36.840579 Y9.158988 Z-1.000000
G01 X36.850763 Y9.182680 Z-1.000000
G03 X36.895539 Y9.228920 Z-1.000000 I-0.081501 J0.123721
G03 X36.942293 Y9.331855 Z-1.000000 I-0.389549 J0.239021
G02 X37.080266 Y9.511796 Z-1.000000 I0.314155 J-0.098017
G02 X37.373221 Y9.604990 Z-1.000000 I0.323822 J-0.510886
G01 X37.379370 Y9.622784 Z-1.000000
G03 X37.282571 Y9.684030 Z-1.000000 I-0.247138 J-0.283486
G03 X37.110356 Y9.736947 Z-1.000000 I-0.318999 J-0.731476
G03 X37.035922 Y9.730180 Z-1.000000 I-0.025256 J-0.134961
G02 X36.648168 Y9.713190 Z-1.000000 I-0.219292 J0.571514
G02 X36.592471 Y9.857126 Z-1.000000 I0.026636 J0.093051
G01 X36.577804 Y9.883143 Z-1.000000
G03 X36.476059 Y9.856026 Z-1.000000 I0.001996 J-0.211921
G02 X36.051425 Y9.653306 Z-1.000000 I-1.742963 J3.104853
G02 X35.943545 Y9.643777 Z-1.000000 I-0.069837 J0.175214
G01 X35.918608 Y9.635478 Z-1.000000
G03 X35.905455 Y9.600837 Z-1.000000 I0.039038 J-0.034641
G01 X35.922740 Y9.567340 Z-1.000000
G03 X35.976875 Y9.550057 Z-1.000000 I0.054135 J0.076142
G01 X36.014773 Y9.524176 Z-1.000000
G02 X36.019655 Y9.440554 Z-1.000000 I-0.126231 J-0.049323
G03 X36.024039 Y9.375727 Z-1.000000 I0.098934 J-0.025871
G01 X36.049805 Y9.367384 Z-1.000000
G01 X36.071780 Y9.346702 Z-1.000000
G02 X35.962265 Y9.204426 Z-1.000000 I-0.487175 J0.261710
G03 X35.843786 Y9.053227 Z-1.000000 I0.426582 J-0.456286
G03 X35.793326 Y8.902601 Z-1.000000 I0.372740 J-0.208634
G03 X35.817714 Y8.778593 Z-1.000000 I0.192970 J-0.026451
G03 X35.888866 Y8.737561 Z-1.000000 I0.071152 J0.041175
G02 X35.987341 Y8.717884 Z-1.000000 I0.000000 J-0.256250
G01 X36.007024 Y8.688371 Z-1.000000
G01 X36.024886 Y8.665171 Z-1.000000
G03 X36.082904 Y8.668301 Z-1.000000 I0.024164 J0.091370
G03 X36.130393 Y8.706989 Z-1.000000 I-0.035163 J0.091652
G01 X36.130684 Y8.742881 Z-1.000000
G01 X36.130645 Y8.742893 Z-1.000000
G00 Z0.000000

(End cutting path id: path27802)


(Start cutting path id: path27802)
(Change tool to Cone cutter)

G00 Z0.000000
G00 X36.130645 Y8.742893

G01 Z-1.000000 F100.0(Penetrate)
G01 X36.128909 Y8.773655 Z-1.000000 F400.000000
G01 X36.152095 Y8.788353 Z-1.000000
G02 X36.191169 Y8.773572 Z-1.000000 I0.000000 J-0.059038
G02 X36.223985 Y8.724873 Z-1.000000 I-0.077174 J-0.087410
G01 X36.260288 Y8.706147 Z-1.000000
G03 X36.405951 Y8.777173 Z-1.000000 I-0.129374 J0.450201
G02 X36.536362 Y8.830759 Z-1.000000 I0.175815 J-0.242392
G01 X36.571462 Y8.802563 Z-1.000000
G01 X36.584743 Y8.789734 Z-1.000000
G01 X36.600692 Y8.801665 Z-1.000000
G02 X36.637236 Y8.858203 Z-1.000000 I0.103968 J-0.027122
G01 X36.673672 Y8.860475 Z-1.000000
G01 X36.718771 Y8.859523 Z-1.000000
G03 X36.822173 Y8.943795 Z-1.000000 I-0.190114 J0.338844
G03 X36.895817 Y9.098433 Z-1.000000 I-0.242556 J0.210368
G01 X36.857563 Y9.144590 Z-1.000000
G01 X36.840579 Y9.158988 Z-1.000000
G01 X36.850763 Y9.182680 Z-1.000000
G03 X36.895539 Y9.228920 Z-1.000000 I-0.081501 J0.123721
G03 X36.942293 Y9.331855 Z-1.000000 I-0.389549 J0.239021
G02 X37.080266 Y9.511796 Z-1.000000 I0.314155 J-0.098017
G02 X37.373221 Y9.604990 Z-1.000000 I0.323822 J-0.510886
G01 X37.379370 Y9.622784 Z-1.000000
G03 X37.282571 Y9.684030 Z-1.000000 I-0.247138 J-0.283486
G03 X37.110356 Y9.736947 Z-1.000000 I-0.318999 J-0.731476
G03 X37.035922 Y9.730180 Z-1.000000 I-0.025256 J-0.134961
G02 X36.648168 Y9.713190 Z-1.000000 I-0.219292 J0.571514
G02 X36.592471 Y9.857126 Z-1.000000 I0.026636 J0.093051
G01 X36.577804 Y9.883143 Z-1.000000
G03 X36.476059 Y9.856026 Z-1.000000 I0.001996 J-0.211921
G02 X36.051425 Y9.653306 Z-1.000000 I-1.742963 J3.104853
G02 X35.943545 Y9.643777 Z-1.000000 I-0.069837 J0.175214
G01 X35.918608 Y9.635478 Z-1.000000
G03 X35.905455 Y9.600837 Z-1.000000 I0.039038 J-0.034641
G01 X35.922740 Y9.567340 Z-1.000000
G03 X35.976875 Y9.550057 Z-1.000000 I0.054135 J0.076142
G01 X36.014773 Y9.524176 Z-1.000000
G02 X36.019655 Y9.440554 Z-1.000000 I-0.126231 J-0.049323
G03 X36.024039 Y9.375727 Z-1.000000 I0.098934 J-0.025871
G01 X36.049805 Y9.367384 Z-1.000000
G01 X36.071780 Y9.346702 Z-1.000000
G02 X35.962265 Y9.204426 Z-1.000000 I-0.487175 J0.261710
G03 X35.843786 Y9.053227 Z-1.000000 I0.426582 J-0.456286
G03 X35.793326 Y8.902601 Z-1.000000 I0.372740 J-0.208634
G03 X35.817714 Y8.778593 Z-1.000000 I0.192970 J-0.026451
G03 X35.888866 Y8.737561 Z-1.000000 I0.071152 J0.041175
G02 X35.987341 Y8.717884 Z-1.000000 I0.000000 J-0.256250
G01 X36.007024 Y8.688371 Z-1.000000
G01 X36.024886 Y8.665171 Z-1.000000
G03 X36.082904 Y8.668301 Z-1.000000 I0.024164 J0.091370
G03 X36.130393 Y8.706989 Z-1.000000 I-0.035163 J0.091652
G01 X36.130684 Y8.742881 Z-1.000000
G01 X36.130645 Y8.742893 Z-1.000000
G00 Z0.000000

(End cutting path id: path27802)


(Start cutting path id: path27802)
(Change tool to Cone cutter)

G00 Z0.000000
G00 X36.133934 Y8.534450

G01 Z-1.000000 F100.0(Penetrate)
G01 X36.136334 Y8.569064 Z-1.000000 F400.000000
G01 X36.111544 Y8.585230 Z-1.000000
G03 X36.073061 Y8.569933 Z-1.000000 I0.000000 J-0.056054
G01 X36.057764 Y8.534450 Z-1.000000
G03 X36.066604 Y8.492503 Z-1.000000 I0.103945 J0.000000
G01 X36.080154 Y8.483670 Z-1.000000
G01 X36.098489 Y8.490958 Z-1.000000
G03 X36.133934 Y8.534450 Z-1.000000 I-0.148253 J0.157012
G01 X36.133934 Y8.534450 Z-1.000000
G00 Z0.000000

(End cutting path id: path27802)


(Start cutting path id: path27802)
(Change tool to Cone cutter)

G00 Z0.000000
G00 X36.133934 Y8.534450

G01 Z-1.000000 F100.0(Penetrate)
G01 X36.136334 Y8.569064 Z-1.000000 F400.000000
G01 X36.111544 Y8.585230 Z-1.000000
G03 X36.073061 Y8.569933 Z-1.000000 I0.000000 J-0.056054
G01 X36.057764 Y8.534450 Z-1.000000
G03 X36.066604 Y8.492503 Z-1.000000 I0.103945 J0.000000
G01 X36.080154 Y8.483670 Z-1.000000
G01 X36.098489 Y8.490958 Z-1.000000
G03 X36.133934 Y8.534450 Z-1.000000 I-0.148253 J0.157012
G01 X36.133934 Y8.534450 Z-1.000000
G00 Z0.000000

(End cutting path id: path27802)


(Start cutting path id: path27802)
(Change tool to Cone cutter)

G00 Z0.000000
G00 X35.693735 Y7.963160

G01 Z-1.000000 F100.0(Penetrate)
G03 X35.537944 Y8.202709 Z-1.000000 I-0.446459 J-0.119922 F400.000000
G03 X35.388230 Y8.210195 Z-1.000000 I-0.079991 J-0.098925
G03 X35.275779 Y8.118997 Z-1.000000 I0.392130 J-0.598440
G03 X35.149146 Y7.972361 Z-1.000000 I0.903390 J-0.908155
G03 X35.113885 Y7.885052 Z-1.000000 I0.151353 J-0.111900
G01 X35.135656 Y7.869991 Z-1.000000
G02 X35.402894 Y7.931431 Z-1.000000 I0.246638 J-0.460868
G02 X35.629107 Y7.850521 Z-1.000000 I-0.015811 J-0.400891
G03 X35.728439 Y7.777685 Z-1.000000 I2.505247 J3.312426
G01 X35.736282 Y7.774351 Z-1.000000
G01 X35.739497 Y7.777679 Z-1.000000
G03 X35.693732 Y7.963165 Z-1.000000 I-4.548122 J-1.023781
G01 X35.693735 Y7.963160 Z-1.000000
G00 Z0.000000

(End cutting path id: path27802)


(Start cutting path id: path27802)
(Change tool to Cone cutter)

G00 Z0.000000
G00 X35.693735 Y7.963160

G01 Z-1.000000 F100.0(Penetrate)
G03 X35.537944 Y8.202709 Z-1.000000 I-0.446459 J-0.119922 F400.000000
G03 X35.388230 Y8.210195 Z-1.000000 I-0.079991 J-0.098925
G03 X35.275779 Y8.118997 Z-1.000000 I0.392130 J-0.598440
G03 X35.149146 Y7.972361 Z-1.000000 I0.903390 J-0.908155
G03 X35.113885 Y7.885052 Z-1.000000 I0.151353 J-0.111900
G01 X35.135656 Y7.869991 Z-1.000000
G02 X35.402894 Y7.931431 Z-1.000000 I0.246638 J-0.460868
G02 X35.629107 Y7.850521 Z-1.000000 I-0.015811 J-0.400891
G03 X35.728439 Y7.777685 Z-1.000000 I2.505247 J3.312426
G01 X35.736282 Y7.774351 Z-1.000000
G01 X35.739497 Y7.777679 Z-1.000000
G03 X35.693732 Y7.963165 Z-1.000000 I-4.548122 J-1.023781
G01 X35.693735 Y7.963160 Z-1.000000
G00 Z0.000000

(End cutting path id: path27802)


(Start cutting path id: path27802)
(Change tool to Cone cutter)

G00 Z0.000000
G00 X35.242929 Y8.755953

G01 Z-1.000000 F100.0(Penetrate)
G03 X35.415723 Y8.894545 Z-1.000000 I-0.084376 J0.282213 F400.000000
G03 X35.643880 Y9.473901 Z-1.000000 I-2.032099 J1.134867
G02 X35.780870 Y9.767693 Z-1.000000 I0.810989 J-0.199317
G02 X35.907201 Y9.833819 Z-1.000000 I0.130415 J-0.095414
G03 X36.110642 Y9.874065 Z-1.000000 I-0.015528 J0.612803
G01 X36.108549 Y9.910829 Z-1.000000
G03 X35.664594 Y9.950922 Z-1.000000 I-0.345033 J-1.342567
G03 X35.055883 Y9.835519 Z-1.000000 I0.191102 J-2.671069
G03 X34.033121 Y9.352969 Z-1.000000 I1.231610 J-3.935534
G03 X34.077299 Y9.196623 Z-1.000000 I0.046529 J-0.071267
G02 X34.471949 Y9.095518 Z-1.000000 I-0.025726 J-0.921199
G02 X34.859584 Y8.795505 Z-1.000000 I-0.607821 J-1.185773
G03 X34.984365 Y8.731612 Z-1.000000 I0.144658 J0.128718
G03 X35.242929 Y8.755945 Z-1.000000 I0.068217 J0.661038
G01 X35.242929 Y8.755953 Z-1.000000
G00 Z0.000000

(End cutting path id: path27802)


(Start cutting path id: path27802)
(Change tool to Cone cutter)

G00 Z0.000000
G00 X35.242929 Y8.755953

G01 Z-1.000000 F100.0(Penetrate)
G03 X35.415723 Y8.894545 Z-1.000000 I-0.084376 J0.282213 F400.000000
G03 X35.643880 Y9.473901 Z-1.000000 I-2.032099 J1.134867
G02 X35.780870 Y9.767693 Z-1.000000 I0.810989 J-0.199317
G02 X35.907201 Y9.833819 Z-1.000000 I0.130415 J-0.095414
G03 X36.110642 Y9.874065 Z-1.000000 I-0.015528 J0.612803
G01 X36.108549 Y9.910829 Z-1.000000
G03 X35.664594 Y9.950922 Z-1.000000 I-0.345033 J-1.342567
G03 X35.055883 Y9.835519 Z-1.000000 I0.191102 J-2.671069
G03 X34.033121 Y9.352969 Z-1.000000 I1.231610 J-3.935534
G03 X34.077299 Y9.196623 Z-1.000000 I0.046529 J-0.071267
G02 X34.471949 Y9.095518 Z-1.000000 I-0.025726 J-0.921199
G02 X34.859584 Y8.795505 Z-1.000000 I-0.607821 J-1.185773
G03 X34.984365 Y8.731612 Z-1.000000 I0.144658 J0.128718
G03 X35.242929 Y8.755945 Z-1.000000 I0.068217 J0.661038
G01 X35.242929 Y8.755953 Z-1.000000
G00 Z0.000000

(End cutting path id: path27802)


(Start cutting path id: path27802)
(Change tool to Cone cutter)

G00 Z0.000000
G00 X35.844188 Y9.481202

G01 Z-1.000000 F100.0(Penetrate)
G01 X35.824550 Y9.487025 Z-1.000000 F400.000000
G03 X35.794948 Y9.431962 Z-1.000000 I0.076737 J-0.076743
G03 X35.795290 Y9.343526 Z-1.000000 I0.212885 J-0.043395
G01 X35.814928 Y9.337702 Z-1.000000
G03 X35.844528 Y9.392758 Z-1.000000 I-0.076745 J0.076745
G03 X35.844188 Y9.481202 Z-1.000000 I-0.212827 J0.043406
G01 X35.844188 Y9.481202 Z-1.000000
G00 Z0.000000

(End cutting path id: path27802)


(Start cutting path id: path27802)
(Change tool to Cone cutter)

G00 Z0.000000
G00 X35.844188 Y9.481202

G01 Z-1.000000 F100.0(Penetrate)
G01 X35.824550 Y9.487025 Z-1.000000 F400.000000
G03 X35.794948 Y9.431962 Z-1.000000 I0.076737 J-0.076743
G03 X35.795290 Y9.343526 Z-1.000000 I0.212885 J-0.043395
G01 X35.814928 Y9.337702 Z-1.000000
G03 X35.844528 Y9.392758 Z-1.000000 I-0.076745 J0.076745
G03 X35.844188 Y9.481202 Z-1.000000 I-0.212827 J0.043406
G01 X35.844188 Y9.481202 Z-1.000000
G00 Z0.000000

(End cutting path id: path27802)


(Start cutting path id: path27802)
(Change tool to Cone cutter)

G00 Z0.000000
G00 X35.980221 Y10.258773

G01 Z-1.000000 F100.0(Penetrate)
G02 X36.017877 Y10.284694 Z-1.000000 I0.048303 J-0.029857 F400.000000
G02 X36.084780 Y10.278733 Z-1.000000 I0.022986 J-0.120427
G01 X36.100829 Y10.240323 Z-1.000000
G02 X36.054770 Y10.210213 Z-1.000000 I-0.046059 J0.020173
G02 X35.986549 Y10.230473 Z-1.000000 I0.000000 J0.124987
G01 X35.980220 Y10.258773 Z-1.000000
G01 X35.980221 Y10.258773 Z-1.000000
G00 Z0.000000

(End cutting path id: path27802)


(Start cutting path id: path27802)
(Change tool to Cone cutter)

G00 Z0.000000
G00 X35.980221 Y10.258773

G01 Z-1.000000 F100.0(Penetrate)
G02 X36.017877 Y10.284694 Z-1.000000 I0.048303 J-0.029857 F400.000000
G02 X36.084780 Y10.278733 Z-1.000000 I0.022986 J-0.120427
G01 X36.100829 Y10.240323 Z-1.000000
G02 X36.054770 Y10.210213 Z-1.000000 I-0.046059 J0.020173
G02 X35.986549 Y10.230473 Z-1.000000 I0.000000 J0.124987
G01 X35.980220 Y10.258773 Z-1.000000
G01 X35.980221 Y10.258773 Z-1.000000
G00 Z0.000000

(End cutting path id: path27802)


(Start cutting path id: path27802)
(Change tool to Cone cutter)

G00 Z0.000000
G00 X35.282947 Y10.163733

G01 Z-1.000000 F100.0(Penetrate)
G03 X35.193948 Y10.194989 Z-1.000000 I-0.125956 J-0.216315 F400.000000
G03 X35.143298 Y10.184583 Z-1.000000 I-0.011107 J-0.074406
G01 X35.108517 Y10.181409 Z-1.000000
G01 X35.092918 Y10.204233 Z-1.000000
G02 X35.144923 Y10.264317 Z-1.000000 I0.060712 J0.000000
G02 X35.312380 Y10.236033 Z-1.000000 I0.039766 J-0.274422
G03 X35.433192 Y10.190471 Z-1.000000 I0.252605 J0.486856
G01 X35.448387 Y10.202363 Z-1.000000
G01 X35.463585 Y10.224054 Z-1.000000
G02 X35.549950 Y10.239253 Z-1.000000 I0.086365 J-0.237766
G02 X35.602325 Y10.196856 Z-1.000000 I0.000000 J-0.053548
G02 X35.571190 Y10.139493 Z-1.000000 I-0.049136 J-0.010461
G02 X35.425472 Y10.118775 Z-1.000000 I-0.118089 J0.307756
G02 X35.282949 Y10.163743 Z-1.000000 I0.028482 J0.338614
G01 X35.282947 Y10.163733 Z-1.000000
G00 Z0.000000

(End cutting path id: path27802)


(Start cutting path id: path27802)
(Change tool to Cone cutter)

G00 Z0.000000
G00 X35.282947 Y10.163733

G01 Z-1.000000 F100.0(Penetrate)
G03 X35.193948 Y10.194989 Z-1.000000 I-0.125956 J-0.216315 F400.000000
G03 X35.143298 Y10.184583 Z-1.000000 I-0.011107 J-0.074406
G01 X35.108517 Y10.181409 Z-1.000000
G01 X35.092918 Y10.204233 Z-1.000000
G02 X35.144923 Y10.264317 Z-1.000000 I0.060712 J0.000000
G02 X35.312380 Y10.236033 Z-1.000000 I0.039766 J-0.274422
G03 X35.433192 Y10.190471 Z-1.000000 I0.252605 J0.486856
G01 X35.448387 Y10.202363 Z-1.000000
G01 X35.463585 Y10.224054 Z-1.000000
G02 X35.549950 Y10.239253 Z-1.000000 I0.086365 J-0.237766
G02 X35.602325 Y10.196856 Z-1.000000 I0.000000 J-0.053548
G02 X35.571190 Y10.139493 Z-1.000000 I-0.049136 J-0.010461
G02 X35.425472 Y10.118775 Z-1.000000 I-0.118089 J0.307756
G02 X35.282949 Y10.163743 Z-1.000000 I0.028482 J0.338614
G01 X35.282947 Y10.163733 Z-1.000000
G00 Z0.000000

(End cutting path id: path27802)


(Start cutting path id: path27802)
(Change tool to Cone cutter)

G00 Z0.000000
G00 X33.696440 Y10.057852

G01 Z-1.000000 F100.0(Penetrate)
G01 X33.692798 Y10.089109 Z-1.000000 F400.000000
G03 X33.645660 Y10.108632 Z-1.000000 I-0.047138 J-0.047147
G03 X33.598520 Y10.089106 Z-1.000000 I0.000000 J-0.066666
G01 X33.594880 Y10.057852 Z-1.000000
G03 X33.629900 Y10.013600 Z-1.000000 I0.207505 J0.128233
G01 X33.645660 Y10.007072 Z-1.000000
G01 X33.661420 Y10.013600 Z-1.000000
G03 X33.696440 Y10.057852 Z-1.000000 I-0.172485 J0.172485
G01 X33.696440 Y10.057852 Z-1.000000
G00 Z0.000000

(End cutting path id: path27802)


(Start cutting path id: path27802)
(Change tool to Cone cutter)

G00 Z0.000000
G00 X33.696440 Y10.057852

G01 Z-1.000000 F100.0(Penetrate)
G01 X33.692798 Y10.089109 Z-1.000000 F400.000000
G03 X33.645660 Y10.108632 Z-1.000000 I-0.047138 J-0.047147
G03 X33.598520 Y10.089106 Z-1.000000 I0.000000 J-0.066666
G01 X33.594880 Y10.057852 Z-1.000000
G03 X33.629900 Y10.013600 Z-1.000000 I0.207505 J0.128233
G01 X33.645660 Y10.007072 Z-1.000000
G01 X33.661420 Y10.013600 Z-1.000000
G03 X33.696440 Y10.057852 Z-1.000000 I-0.172485 J0.172485
G01 X33.696440 Y10.057852 Z-1.000000
G00 Z0.000000

(End cutting path id: path27802)


(Start cutting path id: path27802)
(Change tool to Cone cutter)

G00 Z0.000000
G00 X32.516737 Y10.296183

G01 Z-1.000000 F100.0(Penetrate)
G02 X32.605754 Y10.307033 Z-1.000000 I0.084842 J-0.325469 F400.000000
G02 X32.669081 Y10.294283 Z-1.000000 I-0.002165 J-0.174388
G01 X32.668268 Y10.281727 Z-1.000000
G02 X32.579251 Y10.270873 Z-1.000000 I-0.084845 J0.325392
G02 X32.515924 Y10.283600 Z-1.000000 I0.002080 J0.174267
G01 X32.516741 Y10.296163 Z-1.000000
G01 X32.516737 Y10.296183 Z-1.000000
G00 Z0.000000

(End cutting path id: path27802)


(Start cutting path id: path27802)
(Change tool to Cone cutter)

G00 Z0.000000
G00 X32.516737 Y10.296183

G01 Z-1.000000 F100.0(Penetrate)
G02 X32.605754 Y10.307033 Z-1.000000 I0.084842 J-0.325469 F400.000000
G02 X32.669081 Y10.294283 Z-1.000000 I-0.002165 J-0.174388
G01 X32.668268 Y10.281727 Z-1.000000
G02 X32.579251 Y10.270873 Z-1.000000 I-0.084845 J0.325392
G02 X32.515924 Y10.283600 Z-1.000000 I0.002080 J0.174267
G01 X32.516741 Y10.296163 Z-1.000000
G01 X32.516737 Y10.296183 Z-1.000000
G00 Z0.000000

(End cutting path id: path27802)


(Start cutting path id: path27802)
(Change tool to Cone cutter)

G00 Z0.000000
G00 X31.157013 Y10.920575

G01 Z-1.000000 F100.0(Penetrate)
G01 X31.150795 Y10.939929 Z-1.000000 F400.000000
G03 X31.109233 Y10.940535 Z-1.000000 I-0.021538 J-0.051569
G03 X31.061860 Y10.895472 Z-1.000000 I0.030507 J-0.079504
G01 X31.078203 Y10.870375 Z-1.000000
G03 X31.119310 Y10.882354 Z-1.000000 I0.000000 J0.076520
G03 X31.157013 Y10.920575 Z-1.000000 I-0.064606 J0.101437
G01 X31.157013 Y10.920575 Z-1.000000
G00 Z0.000000

(End cutting path id: path27802)


(Start cutting path id: path27802)
(Change tool to Cone cutter)

G00 Z0.000000
G00 X31.157013 Y10.920575

G01 Z-1.000000 F100.0(Penetrate)
G01 X31.150795 Y10.939929 Z-1.000000 F400.000000
G03 X31.109233 Y10.940535 Z-1.000000 I-0.021538 J-0.051569
G03 X31.061860 Y10.895472 Z-1.000000 I0.030507 J-0.079504
G01 X31.078203 Y10.870375 Z-1.000000
G03 X31.119310 Y10.882354 Z-1.000000 I0.000000 J0.076520
G03 X31.157013 Y10.920575 Z-1.000000 I-0.064606 J0.101437
G01 X31.157013 Y10.920575 Z-1.000000
G00 Z0.000000

(End cutting path id: path27802)


(Start cutting path id: path27802)
(Change tool to Cone cutter)

G00 Z0.000000
G00 X30.900785 Y10.358230

G01 Z-1.000000 F100.0(Penetrate)
G01 X30.905501 Y10.397823 Z-1.000000 F400.000000
G03 X30.877125 Y10.430590 Z-1.000000 I-0.053257 J-0.017450
G01 X30.876184 Y10.438005 Z-1.000000
G01 X30.889505 Y10.441270 Z-1.000000
G02 X30.932613 Y10.412447 Z-1.000000 I-0.017002 J-0.072076
G02 X30.941555 Y10.368910 Z-1.000000 I-0.044122 J-0.031748
G03 X31.023969 Y10.261791 Z-1.000000 I0.085981 J-0.019112
G03 X31.205476 Y10.358220 Z-1.000000 I0.008248 J0.203513
G01 X31.201044 Y10.396740 Z-1.000000
G03 X31.043434 Y10.521097 Z-1.000000 I-0.594544 J-0.591473
G02 X30.861310 Y10.644945 Z-1.000000 I1.168101 J1.913577
G02 X30.835761 Y10.677778 Z-1.000000 I0.048154 J0.063828
G01 X30.809589 Y10.704099 Z-1.000000
G03 X30.741461 Y10.718028 Z-1.000000 I-0.068128 J-0.159644
G01 X30.699735 Y10.743331 Z-1.000000
G02 X30.695141 Y10.806898 Z-1.000000 I0.071153 J0.037092
G01 X30.680994 Y10.819121 Z-1.000000
G03 X30.604231 Y10.759358 Z-1.000000 I0.126117 J-0.241172
G02 X30.479728 Y10.655153 Z-1.000000 I-0.420560 J0.375999
G01 X30.439505 Y10.657795 Z-1.000000
G01 X30.435592 Y10.654295 Z-1.000000
G03 X30.485065 Y10.587085 Z-1.000000 I0.565388 J0.364363
G02 X30.560342 Y10.476783 Z-1.000000 I-0.524049 J-0.438482
G02 X30.573395 Y10.425769 Z-1.000000 I-0.093162 J-0.051014
G03 X30.699205 Y10.271356 Z-1.000000 I0.157664 J0.000000
G03 X30.900792 Y10.358229 Z-1.000000 I0.038689 J0.187548
G01 X30.900785 Y10.358230 Z-1.000000
G00 Z0.000000

(End cutting path id: path27802)


(Start cutting path id: path27802)
(Change tool to Cone cutter)

G00 Z0.000000
G00 X30.900785 Y10.358230

G01 Z-1.000000 F100.0(Penetrate)
G01 X30.905501 Y10.397823 Z-1.000000 F400.000000
G03 X30.877125 Y10.430590 Z-1.000000 I-0.053257 J-0.017450
G01 X30.876184 Y10.438005 Z-1.000000
G01 X30.889505 Y10.441270 Z-1.000000
G02 X30.932613 Y10.412447 Z-1.000000 I-0.017002 J-0.072076
G02 X30.941555 Y10.368910 Z-1.000000 I-0.044122 J-0.031748
G03 X31.023969 Y10.261791 Z-1.000000 I0.085981 J-0.019112
G03 X31.205476 Y10.358220 Z-1.000000 I0.008248 J0.203513
G01 X31.201044 Y10.396740 Z-1.000000
G03 X31.043434 Y10.521097 Z-1.000000 I-0.594544 J-0.591473
G02 X30.861310 Y10.644945 Z-1.000000 I1.168101 J1.913577
G02 X30.835761 Y10.677778 Z-1.000000 I0.048154 J0.063828
G01 X30.809589 Y10.704099 Z-1.000000
G03 X30.741461 Y10.718028 Z-1.000000 I-0.068128 J-0.159644
G01 X30.699735 Y10.743331 Z-1.000000
G02 X30.695141 Y10.806898 Z-1.000000 I0.071153 J0.037092
G01 X30.680994 Y10.819121 Z-1.000000
G03 X30.604231 Y10.759358 Z-1.000000 I0.126117 J-0.241172
G02 X30.479728 Y10.655153 Z-1.000000 I-0.420560 J0.375999
G01 X30.439505 Y10.657795 Z-1.000000
G01 X30.435592 Y10.654295 Z-1.000000
G03 X30.485065 Y10.587085 Z-1.000000 I0.565388 J0.364363
G02 X30.560342 Y10.476783 Z-1.000000 I-0.524049 J-0.438482
G02 X30.573395 Y10.425769 Z-1.000000 I-0.093162 J-0.051014
G03 X30.699205 Y10.271356 Z-1.000000 I0.157664 J0.000000
G03 X30.900792 Y10.358229 Z-1.000000 I0.038689 J0.187548
G01 X30.900785 Y10.358230 Z-1.000000
G00 Z0.000000

(End cutting path id: path27802)


(Start cutting path id: path27802)
(Change tool to Cone cutter)

G00 Z0.000000
G00 X30.624169 Y10.462536

G01 Z-1.000000 F100.0(Penetrate)
G01 X30.642051 Y10.485707 Z-1.000000 F400.000000
G02 X30.700339 Y10.482496 Z-1.000000 I0.024154 J-0.092189
G02 X30.768597 Y10.447831 Z-1.000000 I-0.132917 J-0.346262
G01 X30.776509 Y10.433306 Z-1.000000
G01 X30.767813 Y10.422038 Z-1.000000
G02 X30.700339 Y10.413346 Z-1.000000 I-0.067474 J0.257545
G02 X30.641517 Y10.430685 Z-1.000000 I-0.000000 J0.108443
G01 X30.624169 Y10.462536 Z-1.000000
G01 X30.624169 Y10.462536 Z-1.000000
G00 Z0.000000

(End cutting path id: path27802)


(Start cutting path id: path27802)
(Change tool to Cone cutter)

G00 Z0.000000
G00 X30.624169 Y10.462536

G01 Z-1.000000 F100.0(Penetrate)
G01 X30.642051 Y10.485707 Z-1.000000 F400.000000
G02 X30.700339 Y10.482496 Z-1.000000 I0.024154 J-0.092189
G02 X30.768597 Y10.447831 Z-1.000000 I-0.132917 J-0.346262
G01 X30.776509 Y10.433306 Z-1.000000
G01 X30.767813 Y10.422038 Z-1.000000
G02 X30.700339 Y10.413346 Z-1.000000 I-0.067474 J0.257545
G02 X30.641517 Y10.430685 Z-1.000000 I-0.000000 J0.108443
G01 X30.624169 Y10.462536 Z-1.000000
G01 X30.624169 Y10.462536 Z-1.000000
G00 Z0.000000

(End cutting path id: path27802)


(Start cutting path id: path27802)
(Change tool to Cone cutter)

G00 Z0.000000
G00 X30.458073 Y10.444026

G01 Z-1.000000 F100.0(Penetrate)
G03 X30.424158 Y10.458900 Z-1.000000 I-0.036014 J-0.036014 F400.000000
G03 X30.360743 Y10.448026 Z-1.000000 I-0.006330 J-0.153432
G01 X30.357500 Y10.432223 Z-1.000000
G03 X30.391423 Y10.417346 Z-1.000000 I0.036022 J0.036022
G03 X30.454833 Y10.428215 Z-1.000000 I0.006312 J0.153582
G01 X30.458073 Y10.444016 Z-1.000000
G01 X30.458073 Y10.444026 Z-1.000000
G00 Z0.000000

(End cutting path id: path27802)


(Start cutting path id: path27802)
(Change tool to Cone cutter)

G00 Z0.000000
G00 X30.458073 Y10.444026

G01 Z-1.000000 F100.0(Penetrate)
G03 X30.424158 Y10.458900 Z-1.000000 I-0.036014 J-0.036014 F400.000000
G03 X30.360743 Y10.448026 Z-1.000000 I-0.006330 J-0.153432
G01 X30.357500 Y10.432223 Z-1.000000
G03 X30.391423 Y10.417346 Z-1.000000 I0.036022 J0.036022
G03 X30.454833 Y10.428215 Z-1.000000 I0.006312 J0.153582
G01 X30.458073 Y10.444016 Z-1.000000
G01 X30.458073 Y10.444026 Z-1.000000
G00 Z0.000000

(End cutting path id: path27802)


(Start cutting path id: path27802)
(Change tool to Cone cutter)

G00 Z0.000000
G00 X30.244692 Y10.674216

G01 Z-1.000000 F100.0(Penetrate)
G03 X30.633583 Y11.049407 Z-1.000000 I-2.475261 J2.954786 F400.000000
G03 X30.649685 Y11.123884 Z-1.000000 I-0.056950 J0.051292
G02 X30.653996 Y11.206195 Z-1.000000 I0.111611 J0.035422
G02 X30.796411 Y11.459671 Z-1.000000 I1.335465 J-0.583581
G03 X31.213326 Y12.066853 Z-1.000000 I-29.806769 J20.913208
G03 X33.078720 Y14.856683 Z-1.000000 I-627.421146 J421.537966
G02 X33.803528 Y15.911755 Z-1.000000 I36.044247 J-23.985005
G02 X34.097860 Y16.294198 Z-1.000000 I5.020382 J-3.559251
G03 X34.770555 Y17.161748 Z-1.000000 I-11.845060 J9.879197
G03 X34.902607 Y17.412043 Z-1.000000 I-0.831830 J0.598842
G02 X35.000783 Y17.524417 Z-1.000000 I0.193488 J-0.069970
G02 X35.176108 Y17.555002 Z-1.000000 I0.135579 J-0.259380
G03 X35.353331 Y17.576505 Z-1.000000 I0.047695 J0.347972
G03 X35.418884 Y17.651322 Z-1.000000 I-0.040217 J0.101364
G02 X35.520491 Y17.740504 Z-1.000000 I0.115353 J-0.028952
G02 X35.756116 Y17.690562 Z-1.000000 I0.043630 J-0.374961
G03 X35.910214 Y17.646865 Z-1.000000 I0.160102 J0.271042
G03 X36.421877 Y17.677862 Z-1.000000 I0.061496 J3.223398
G01 X36.941978 Y17.751212 Z-1.000000
G01 X37.310225 Y18.233634 Z-1.000000
G02 X38.267731 Y19.270620 Z-1.000000 I6.002505 J-4.581887
G02 X39.758840 Y20.432166 Z-1.000000 I9.047446 J-10.076602
G02 X40.486766 Y20.856702 Z-1.000000 I3.677951 J-5.470030
G02 X41.160158 Y21.133477 Z-1.000000 I2.202059 J-4.400024
G02 X41.670310 Y21.231374 Z-1.000000 I0.640501 J-1.959544
G02 X41.727112 Y21.169397 Z-1.000000 I0.003414 J-0.053889
G02 X41.654490 Y21.049580 Z-1.000000 I-0.180181 J0.027291
G02 X41.358835 Y20.900126 Z-1.000000 I-0.601377 J0.822504
G03 X41.082840 Y20.784576 Z-1.000000 I0.489933 J-1.557612
G03 X40.658980 Y20.528409 Z-1.000000 I2.098453 J-3.950894
G03 X40.247285 Y20.247215 Z-1.000000 I618.820478 J-906.450480
G03 X40.018706 Y20.090878 Z-1.000000 I189.973705 J-278.004867
G03 X39.794160 Y19.929057 Z-1.000000 I3.236247 J-4.727388
G03 X39.307768 Y19.551969 Z-1.000000 I17.104194 J-22.564297
G02 X38.822615 Y19.173148 Z-1.000000 I-25.794588 J32.534855
G02 X38.651178 Y19.047075 Z-1.000000 I-3.025022 J3.933892
G03 X38.332846 Y18.761440 Z-1.000000 I1.038639 J-1.477736
G03 X37.928222 Y18.224134 Z-1.000000 I3.356246 J-2.948465
G02 X37.709915 Y17.914501 Z-1.000000 I-3.625219 J2.324185
G02 X37.588475 Y17.784663 Z-1.000000 I-0.750194 J0.579960
G01 X37.454252 Y17.665767 Z-1.000000
G01 X37.606596 Y17.773423 Z-1.000000
G03 X38.123916 Y18.143458 Z-1.000000 I-32.020448 J45.312264
G03 X38.698393 Y18.563875 Z-1.000000 I-40.752660 J56.288905
G02 X40.410914 Y19.702699 Z-1.000000 I12.225050 J-16.526559
G02 X41.285935 Y20.103701 Z-1.000000 I2.302675 J-3.869442
G02 X41.380986 Y20.115876 Z-1.000000 I0.078312 J-0.234272
G01 X41.387498 Y20.096801 Z-1.000000
G02 X41.306924 Y20.042773 Z-1.000000 I-0.238672 J0.268846
G02 X41.120597 Y19.966108 Z-1.000000 I-0.682057 J1.392917
G03 X40.932855 Y19.889274 Z-1.000000 I0.513738 J-1.523095
G03 X40.612785 Y19.719808 Z-1.000000 I2.236537 J-4.611133
G02 X40.296762 Y19.540872 Z-1.000000 I-12.827099 J22.285685
G02 X40.094877 Y19.431378 Z-1.000000 I-4.994805 J8.968565
G03 X39.713065 Y19.197268 Z-1.000000 I1.628034 J-3.083580
G03 X38.825346 Y18.535927 Z-1.000000 I12.278500 J-17.407911
G02 X38.365741 Y18.180134 Z-1.000000 I-23.923356 J30.428902
G02 X38.241362 Y18.090822 Z-1.000000 I-1.628180 J2.136190
G03 X37.619867 Y17.624203 Z-1.000000 I4.373496 J-6.472310
G03 X37.581206 Y17.541764 Z-1.000000 I0.068565 J-0.082439
G02 X37.559942 Y17.483698 Z-1.000000 I-0.089913 J0.000000
G02 X37.492336 Y17.436702 Z-1.000000 I-0.121686 J0.102926
G03 X37.407083 Y17.397629 Z-1.000000 I0.190547 J-0.528302
G03 X37.263821 Y17.307884 Z-1.000000 I0.896824 J-1.590832
G02 X37.137867 Y17.237272 Z-1.000000 I-0.433595 J0.625787
G01 X37.124172 Y17.246194 Z-1.000000
G01 X37.111743 Y17.254797 Z-1.000000
G03 X37.046772 Y17.217024 Z-1.000000 I0.079784 J-0.211994
G03 X36.991476 Y17.151765 Z-1.000000 I0.156756 J-0.188879
G01 X36.994612 Y17.127554 Z-1.000000
G01 X36.996412 Y17.101791 Z-1.000000
G02 X36.767323 Y16.826010 Z-1.000000 I-3.028604 J2.282796
G03 X36.558800 Y16.470379 Z-1.000000 I0.729401 J-0.666631
G03 X36.571433 Y16.235239 Z-1.000000 I0.306012 J-0.101469
G03 X36.651178 Y16.169859 Z-1.000000 I0.106431 J0.048493
G03 X36.798318 Y16.182069 Z-1.000000 I0.054706 J0.233437
G02 X36.984946 Y16.231922 Z-1.000000 I0.277180 J-0.663388
G01 X37.000507 Y16.207739 Z-1.000000
G01 X37.002084 Y16.172295 Z-1.000000
G03 X37.059567 Y16.128839 Z-1.000000 I0.104013 J0.077841
G02 X37.096423 Y16.090674 Z-1.000000 I-0.022482 J-0.058590
G01 X37.084347 Y16.056849 Z-1.000000
G01 X37.085017 Y16.025268 Z-1.000000
G03 X37.365067 Y15.899435 Z-1.000000 I0.846981 J1.510464
G02 X37.705346 Y15.773889 Z-1.000000 I-2.980371 J-8.601913
G02 X37.852423 Y15.708506 Z-1.000000 I-0.653490 J-1.668115
G03 X37.990828 Y15.679221 Z-1.000000 I0.125439 J0.251139
G03 X38.088367 Y15.719416 Z-1.000000 I-0.007210 J0.155939
G02 X38.173405 Y15.771531 Z-1.000000 I0.181181 J-0.200201
G01 X38.198007 Y15.761196 Z-1.000000
G03 X38.225265 Y15.728737 Z-1.000000 I0.068695 J0.030012
G03 X38.405099 Y15.623841 Z-1.000000 I0.999202 J1.506437
G03 X38.589702 Y15.568244 Z-1.000000 I0.246934 J0.485639
G03 X38.672928 Y15.592991 Z-1.000000 I0.012645 J0.109797
G02 X38.750499 Y15.634036 Z-1.000000 I0.136965 J-0.165029
G01 X38.784718 Y15.625211 Z-1.000000
G03 X38.996132 Y15.620829 Z-1.000000 I0.107991 J0.107991
G03 X39.027451 Y15.848603 Z-1.000000 I-0.122271 J0.132853
G01 X39.033342 Y15.868471 Z-1.000000
G02 X39.092491 Y15.879303 Z-1.000000 I0.049949 J-0.105840
G03 X39.153816 Y15.896407 Z-1.000000 I0.007238 J0.092536
G01 X39.168721 Y15.933993 Z-1.000000
G01 X39.182077 Y15.965395 Z-1.000000
G01 X39.224061 Y15.969773 Z-1.000000
G03 X39.283752 Y15.971947 Z-1.000000 I0.027294 J0.071142
G03 X39.363101 Y16.035073 Z-1.000000 I-0.093404 J0.198840
G01 X39.359218 Y16.052420 Z-1.000000
G01 X39.333151 Y16.050083 Z-1.000000
G01 X39.305688 Y16.046428 Z-1.000000
G01 X39.301281 Y16.062773 Z-1.000000
G02 X39.380754 Y16.131549 Z-1.000000 I0.216243 J-0.169570
G02 X39.456144 Y16.151643 Z-1.000000 I0.075390 J-0.131381
G03 X39.533112 Y16.174369 Z-1.000000 I-0.000000 J0.141701
G03 X39.843481 Y16.402223 Z-1.000000 I-1.771390 J2.738188
G02 X40.155238 Y16.638910 Z-1.000000 I2.908296 J-3.507052
G02 X40.469840 Y16.836644 Z-1.000000 I2.339756 J-3.373505
G03 X40.784220 Y17.032552 Z-1.000000 I-2.207231 J3.892221
G03 X40.876090 Y17.113789 Z-1.000000 I-0.276343 J0.405079
G02 X40.968018 Y17.194689 Z-1.000000 I0.360714 J-0.317207
G02 X41.237447 Y17.357773 Z-1.000000 I1.778797 J-2.634625
G03 X41.512719 Y17.515126 Z-1.000000 I-3.063526 J5.678742
G03 X41.796040 Y17.695548 Z-1.000000 I-3.750010 J6.201414
G02 X42.081878 Y17.871066 Z-1.000000 I2.361502 J-3.525294
G02 X42.405415 Y18.037326 Z-1.000000 I2.441032 J-4.352244
G03 X43.245735 Y18.456479 Z-1.000000 I-8.148177 J17.387414
G01 X43.268697 Y18.494627 Z-1.000000
G01 X43.251438 Y18.510821 Z-1.000000
G03 X43.138438 Y18.486327 Z-1.000000 I0.024656 J-0.386649
G02 X43.051970 Y18.490169 Z-1.000000 I-0.038787 J0.102016
G01 X43.046998 Y18.530737 Z-1.000000
G03 X43.105909 Y18.635075 Z-1.000000 I-0.108812 J0.130237
G03 X43.090238 Y18.810747 Z-1.000000 I-0.363410 J0.056117
G03 X43.013825 Y18.994757 Z-1.000000 I-1.508557 J-0.518580
G03 X42.905056 Y19.188230 Z-1.000000 I-1.777911 J-0.872218
G02 X42.791008 Y19.379708 Z-1.000000 I3.025142 J1.931539
G02 X42.582515 Y19.770109 Z-1.000000 I12.385893 J6.865534
G03 X42.348731 Y20.102711 Z-1.000000 I-1.316241 J-0.676714
G03 X42.235773 Y20.141978 Z-1.000000 I-0.093664 J-0.087335
G03 X42.099151 Y20.103582 Z-1.000000 I0.087296 J-0.572876
G03 X42.007257 Y20.046238 Z-1.000000 I0.130418 J-0.311302
G02 X41.918103 Y19.979724 Z-1.000000 I-0.470595 J0.537774
G02 X41.757954 Y19.888886 Z-1.000000 I-1.043643 J1.653360
G03 X41.632933 Y19.780697 Z-1.000000 I0.154345 J-0.304689
G03 X41.592915 Y19.654246 Z-1.000000 I0.179777 J-0.126451
G02 X41.571680 Y19.524444 Z-1.000000 I-0.407331 J0.000000
G01 X41.542135 Y19.503207 Z-1.000000
G02 X41.436254 Y19.612447 Z-1.000000 I0.000000 J0.105933
G02 X41.554835 Y19.909546 Z-1.000000 I0.468099 J-0.014618
G01 X41.551433 Y19.919010 Z-1.000000
G01 X41.529445 Y19.913446 Z-1.000000
G02 X41.459405 Y19.884064 Z-1.000000 I-0.092430 J0.122160
G01 X41.440575 Y19.900316 Z-1.000000
G02 X41.514359 Y20.038751 Z-1.000000 I0.166759 J-0.000000
G02 X41.756561 Y20.112536 Z-1.000000 I0.242202 J-0.360625
G03 X41.827082 Y20.132274 Z-1.000000 I-0.000000 J0.135852
G01 X41.846821 Y20.167356 Z-1.000000
G01 X41.823918 Y20.193693 Z-1.000000
G03 X41.694477 Y20.188706 Z-1.000000 I-0.050843 J-0.362726
G01 X41.681735 Y20.216429 Z-1.000000
G02 X41.829586 Y20.290455 Z-1.000000 I0.275858 J-0.366303
G02 X42.117302 Y20.354715 Z-1.000000 I0.651847 J-2.242319
G02 X42.208099 Y20.350205 Z-1.000000 I0.034618 J-0.219286
G01 X42.240671 Y20.369228 Z-1.000000
G03 X42.230539 Y20.435285 Z-1.000000 I-0.081043 J0.021374
G02 X41.728949 Y21.262791 Z-1.000000 I23.557790 J14.845243
G02 X41.101975 Y22.372300 Z-1.000000 I41.729255 J24.312753
