%
(Header)
(Generated by gcodetools from Inkscape.)
(Using default header. To add your own header create file "header" in the output dir.)
M3
(Header end.)
G21 (All units in mm)

(Start cutting path id: path815)
(Change tool to Cone cutter)

G00 Z0.000000
G00 X4.186012 Y23.706211

G01 Z-1.000000 F100.0(Penetrate)
G01 X7.299945 Y23.744891 Z-1.000000 F400.000000
G01 X7.299945 Y13.097188 Z-1.000000
G01 X9.063257 Y13.097188 Z-1.000000
G01 X9.116314 Y23.849713 Z-1.000000
G01 X10.869695 Y23.846435 Z-1.000000
G01 X10.860315 Y12.987719 Z-1.000000
G01 X12.652317 Y13.023122 Z-1.000000
G01 X12.707378 Y23.811041 Z-1.000000
G01 X14.493885 Y23.802846 Z-1.000000
G01 X14.578299 Y13.097065 Z-1.000000
G01 X16.472921 Y13.097065 Z-1.000000
G01 X16.491677 Y23.860867 Z-1.000000
G01 X18.442576 Y23.860932 Z-1.000000
G01 X18.480096 Y13.135787 Z-1.000000
G01 X20.393476 Y13.155127 Z-1.000000
G01 X20.430996 Y23.938334 Z-1.000000
G01 X26.883966 Y23.938334 Z-1.000000
G02 X27.923693 Y23.898794 Z-1.000000 I0.408850 J-2.938919
G02 X28.894647 Y23.500787 Z-1.000000 I-0.641554 J-2.948440
G02 X29.674983 Y22.795001 Z-1.000000 I-1.647171 J-2.605430
G02 X30.185738 Y21.850929 Z-1.000000 I-2.526319 J-1.976969
G02 X30.359011 Y20.789759 Z-1.000000 I-3.080789 J-1.047777
G02 X30.177011 Y19.730244 Z-1.000000 I-3.252938 J0.013388
G02 X29.658487 Y18.790675 Z-1.000000 I-3.026454 J1.057360
G02 X28.872384 Y18.091769 Z-1.000000 I-2.409454 J1.918517
G02 X27.709475 Y17.599032 Z-1.000000 I-2.164763 J3.490402
G03 X26.502211 Y17.205578 Z-1.000000 I2.257997 J-8.977274
G03 X25.933828 Y16.923945 Z-1.000000 I1.556558 J-3.855760
G03 X25.432246 Y16.529417 Z-1.000000 I1.256834 J-2.113980
G03 X25.060076 Y16.006340 Z-1.000000 I1.479069 J-1.446295
G03 X24.895554 Y15.381454 Z-1.000000 I1.419171 J-0.707745
G03 X24.982067 Y14.776487 Z-1.000000 I1.580274 J-0.082683
G03 X25.267316 Y14.238669 Z-1.000000 I1.906359 J0.666545
G03 X25.688050 Y13.803427 Z-1.000000 I1.881538 J1.397842
G03 X26.187372 Y13.469782 Z-1.000000 I2.235875 J2.805676
G03 X27.286148 Y12.993283 Z-1.000000 I3.021145 J5.461471
G02 X28.384661 Y12.516245 Z-1.000000 I-1.912370 J-5.907087
G02 X29.858739 Y11.156264 Z-1.000000 I-2.055165 J-3.706452
G02 X30.577428 Y9.227633 Z-1.000000 I-3.758160 J-2.498670
G02 X30.371161 Y7.177162 Z-1.000000 I-4.543649 J-0.578542
G02 X29.301973 Y5.452927 Z-1.000000 I-4.251750 J1.442868
G02 X27.590030 Y4.390800 Z-1.000000 I-3.098495 J3.083447
G02 X25.613611 Y4.213663 Z-1.000000 I-1.360791 J4.068556
G02 X23.763421 Y4.939869 Z-1.000000 I0.625508 J4.313650
G02 X22.381898 Y6.437376 Z-1.000000 I2.632434 J3.814564
G02 X21.867283 Y7.536235 Z-1.000000 I6.149856 J3.550014
G03 X21.353459 Y8.635627 Z-1.000000 I-6.726128 J-2.473832
G03 X21.012481 Y9.137343 Z-1.000000 I-3.511912 J-2.020046
G03 X20.588126 Y9.557146 Z-1.000000 I-1.968647 J-1.565614
G03 X20.069009 Y9.852780 Z-1.000000 I-1.283420 J-1.650027
G03 X19.493067 Y9.960799 Z-1.000000 I-0.570465 J-1.452214
G03 X19.031606 Y9.888103 Z-1.000000 I0.003991 J-1.526323
G03 X18.602967 Y9.687963 Z-1.000000 I0.569702 J-1.779202
G03 X18.234230 Y9.391709 Z-1.000000 I1.120683 J-1.772484
G03 X17.927431 Y9.022463 Z-1.000000 I1.947270 J-1.930026
G03 X17.495569 Y8.169464 Z-1.000000 I2.878605 J-1.993221
G03 X17.217546 Y7.237552 Z-1.000000 I11.008744 J-3.791734
G02 X16.973570 Y6.297450 Z-1.000000 I-81.682091 J20.696469
G02 X16.634503 Y5.397086 Z-1.000000 I-4.634697 J1.231352
G02 X16.390988 Y4.980817 Z-1.000000 I-3.148376 J1.562415
G02 X16.087064 Y4.613571 Z-1.000000 I-2.113080 J1.439352
G02 X15.715965 Y4.313965 Z-1.000000 I-1.581299 J1.579006
G02 X15.291133 Y4.114241 Z-1.000000 I-0.959826 J1.489952
G02 X14.821028 Y4.034358 Z-1.000000 I-0.522004 J1.648744
G02 X14.345787 Y4.077774 Z-1.000000 I-0.059267 J1.974041
G02 X13.893380 Y4.229676 Z-1.000000 I0.452025 J2.095898
G02 X13.476803 Y4.473109 Z-1.000000 I1.091307 J2.345668
G02 X12.793988 Y5.148847 Z-1.000000 I1.779965 J2.481456
G02 X12.285439 Y5.990486 Z-1.000000 I4.454326 J3.265926
G02 X11.904023 Y6.893715 Z-1.000000 I8.037942 J3.926412
G03 X11.560613 Y7.815692 Z-1.000000 I-39.184136 J-14.070052
G03 X11.164600 Y8.717787 Z-1.000000 I-10.149365 J-3.917527
G03 X10.638991 Y9.534855 Z-1.000000 I-3.872943 J-1.913815
G03 X9.416693 Y10.507930 Z-1.000000 I-2.848683 J-2.324071
G03 X7.928568 Y10.871828 Z-1.000000 I-1.563790 J-3.170248
G03 X6.426654 Y10.571697 Z-1.000000 I-0.075673 J-3.529315
G03 X5.166738 Y9.652036 Z-1.000000 I1.479468 J-3.349695
G03 X4.392565 Y8.288280 Z-1.000000 I2.822799 J-2.504056
G03 X4.232609 Y6.705410 Z-1.000000 I3.702120 J-1.173634
G03 X4.721872 Y5.193399 Z-1.000000 I3.837674 J0.406647
G03 X5.761746 Y4.036774 Z-1.000000 I3.207346 J1.837826
G00 Z0.000000

(End cutting path id: path815)


(Footer)
M5
G00 X0.0000 Y0.0000
M2
(Using default footer. To add your own footer create file "footer" in the output dir.)
(end)
%