%
(Header)
(Generated by gcodetools from Inkscape.)
(Using default header. To add your own header create file "header" in the output dir.)
M3
(Header end.)
G21 (All units in mm)

(Start cutting path id: path833)
(Change tool to Cone cutter)

G00 Z0.000000
G00 X1.021880 Y11.741824

G01 Z-1.000000 F100.0(Penetrate)
G01 X2.988594 Y13.480179 Z-1.000000 F400.000000
G01 X3.562219 Y13.001502 Z-1.000000
G01 X0.939934 Y11.011210 Z-1.000000
G01 X0.994565 Y10.280598 Z-1.000000
G01 X4.873362 Y13.480179 Z-1.000000
G01 X5.911350 Y13.454979 Z-1.000000
G01 X0.885303 Y9.549979 Z-1.000000
G01 X0.912618 Y8.693399 Z-1.000000
G01 X6.976654 Y13.530560 Z-1.000000
G01 X8.233166 Y13.530560 Z-1.000000
G01 X1.185773 Y7.836817 Z-1.000000
G01 X1.240404 Y6.425978 Z-1.000000
G01 X9.653570 Y13.429786 Z-1.000000
G01 X11.511022 Y13.454986 Z-1.000000
G01 X1.076511 Y4.662436 Z-1.000000
G01 X1.103826 Y2.848500 Z-1.000000
G01 X13.313844 Y13.051890 Z-1.000000
G01 X13.805521 Y13.278631 Z-1.000000
G01 X14.843509 Y12.170115 Z-1.000000
G01 X14.816189 Y11.515083 Z-1.000000
G01 X2.360333 Y0.833015 Z-1.000000
G01 X7.359065 Y0.833015 Z-1.000000
G01 X14.870820 Y7.156598 Z-1.000000
G01 X14.761558 Y3.075242 Z-1.000000
G01 X12.275849 Y0.656660 Z-1.000000
G00 Z0.000000

(End cutting path id: path833)
