; generated by Slic3r 1.3.0 on 2019-11-27 at 12:33:40

; external perimeters extrusion width = 0.55mm (4.37mm^3/s)
; perimeters extrusion width = 0.70mm (11.44mm^3/s)
; infill extrusion width = 0.63mm (13.45mm^3/s)
; solid infill extrusion width = 0.70mm (3.81mm^3/s)
; top infill extrusion width = 0.70mm (2.86mm^3/s)

M107
M104 S205 ; set temperature
G28 ; home all axes
G1 Z5 F5000 ; lift nozzle

; Filament gcode

M109 S205 ; set temperature and wait for it to be reached
G21 ; set units to millimeters
G90 ; use absolute coordinates
M82 ; use absolute distances for extrusion
G92 E0
G1 Z0.300 F7800.000
G1 E-2.00000 F2400.00000
G92 E0
G1 X101.390 Y90.222 F7800.000
G1 E2.00000 F2400.00000
G1 F600
G1 X102.013 Y89.598 E2.02406
G1 X102.621 Y89.899 F7800.000
G1 F600
G1 X102.205 Y90.316 E2.04013
M104 S200 ; set temperature
G1 Z0.600 F7800.000
G1 X102.505 Y90.004 F7800.000
G1 F600
G1 X102.010 Y89.510 E2.06276
G1 X100.889 Y89.467 F7800.000
G1 F600
G1 X102.425 Y91.003 E2.13309
G1 Z0.900 F7800.000
G1 X102.449 Y90.887 F7800.000
G1 F1200
G1 X103.038 Y90.293 E2.16015
G1 X103.100 Y90.195 E2.16391
G1 X102.871 Y89.868 E2.17684
G1 X102.919 Y89.831 E2.17879
G1 X102.681 Y89.576 E2.19007
G1 X101.409 Y90.848 E2.24832
G1 X101.108 Y90.675 E2.25958
G1 X100.814 Y90.365 E2.27340
G1 X101.859 Y89.320 E2.32125
G1 E0.32125 F2400.00000
G92 E0
G1 X98.009 Y87.896 F7800.000
G1 E2.00000 F2400.00000
G1 F4800
G1 X96.470 Y89.436 E2.05180
G1 X94.826 Y89.318 F7800.000
G1 F4800
G1 X93.657 Y90.487 E2.09114
G1 X93.731 Y91.294 E2.11042
G1 X95.654 Y89.370 E2.17515
G1 X95.780 Y89.433 E2.17850
G1 X96.389 Y89.516 E2.19312
G1 X93.805 Y92.100 E2.28009
G1 X93.816 Y92.227 E2.28312
G1 X93.990 Y92.716 E2.29546
G1 X93.965 Y92.821 E2.29802
G1 X98.480 Y88.306 E2.44994
G1 X98.733 Y88.401 E2.45637
G1 X98.739 Y88.458 E2.45771
G1 X98.984 Y88.683 E2.46564
G1 X92.196 Y95.471 E2.69405
G1 X92.422 Y96.126 E2.71053
G1 X99.406 Y89.141 E2.94554
G1 X99.737 Y89.362 E2.95501
G1 X100.024 Y89.405 E2.96190
G1 X91.994 Y97.435 E3.23211
G1 X92.151 Y97.771 E3.24093
G1 X92.239 Y98.071 E3.24837
G1 X100.588 Y89.722 E3.52932
G1 X100.584 Y89.757 E3.53016
G1 X100.704 Y90.095 E3.53870
G1 X100.871 Y90.320 E3.54537
G1 X92.438 Y98.752 E3.82911
G1 X92.506 Y98.984 E3.83484
G1 X92.606 Y99.465 E3.84655
G1 X101.335 Y90.737 E4.14024
G1 X101.658 Y90.941 E4.14934
G1 X101.932 Y91.020 E4.15613
G1 X92.769 Y100.183 E4.46445
G1 X92.959 Y100.874 E4.48150
G1 X102.697 Y91.136 E4.80918
G1 X102.840 Y91.126 E4.81258
G1 X103.100 Y91.016 E4.81930
G1 X103.290 Y90.884 E4.82479
G1 X103.042 Y91.224 E4.83480
G1 X102.882 Y91.356 E4.83974
G1 X102.719 Y91.441 E4.84412
G1 X102.629 Y91.635 E4.84920
G1 X102.440 Y91.928 E4.85750
G1 X102.467 Y92.247 E4.86511
G1 X93.193 Y101.522 E5.17719
G1 X93.449 Y102.147 E5.19326
G1 X102.697 Y92.898 E5.50445
G1 X102.924 Y93.426 E5.51811
G1 X103.082 Y93.394 E5.52195
G1 X93.716 Y102.760 E5.83710
G1 X94.069 Y103.288 E5.85221
G1 X103.848 Y93.509 E6.18125
G1 X103.973 Y93.605 E6.18500
G1 X104.118 Y93.662 E6.18870
G1 X104.284 Y93.834 E6.19439
G1 X104.331 Y93.907 E6.19646
G1 X94.422 Y103.817 E6.52992
G1 X94.608 Y104.097 E6.53793
G1 X94.895 Y104.224 E6.54539
G1 X104.637 Y94.482 E6.87321
G1 X105.050 Y94.950 E6.88806
G1 X95.504 Y104.496 E7.20926
G1 X95.710 Y104.587 E7.21463
G1 X95.916 Y104.709 E7.22031
G1 X96.027 Y104.854 E7.22466
G1 X105.442 Y95.439 E7.54145
G1 X105.564 Y95.674 E7.54776
G1 X105.652 Y96.110 E7.55833
G1 X96.385 Y105.377 E7.87016
G1 X96.644 Y105.763 E7.88121
G1 X96.693 Y105.950 E7.88583
G1 X105.381 Y97.262 E8.17818
G1 X105.219 Y98.305 E8.20330
G1 X96.713 Y106.811 E8.48950
G1 X96.751 Y106.884 E8.49145
G1 X97.153 Y107.252 E8.50442
G1 X97.408 Y106.997 E8.51301
G1 X97.554 Y106.705 E8.52076
G1 X97.854 Y106.505 E8.52934
G1 X97.917 Y106.487 E8.53091
G1 X105.085 Y99.320 E8.77208
G1 X105.028 Y100.045 E8.78938
G1 X104.919 Y100.272 E8.79538
G1 X104.607 Y100.452 E8.80396
G1 X104.630 Y100.656 E8.80884
G1 X98.660 Y106.625 E9.00970
G1 X98.716 Y106.664 E9.01132
G1 X98.867 Y106.870 E9.01740
G1 X98.966 Y107.201 E9.02561
G1 X104.836 Y101.330 E9.22315
G1 X104.917 Y101.509 E9.22782
G1 X105.010 Y101.652 E9.23188
G1 X105.017 Y101.804 E9.23550
G1 X105.116 Y101.931 E9.23933
G1 X98.285 Y108.763 E9.46920
G1 X98.407 Y108.982 E9.47519
G1 X98.640 Y109.289 E9.48433
G1 X105.496 Y102.432 E9.71505
G1 X105.889 Y102.920 E9.72996
G1 X99.035 Y109.774 E9.96059
G1 X99.415 Y110.275 E9.97555
G1 X106.239 Y103.451 E10.20517
G1 X106.259 Y103.576 E10.20818
G1 X106.558 Y103.890 E10.21850
G1 X106.575 Y103.996 E10.22106
G1 X99.812 Y110.759 E10.44861
G1 X100.261 Y111.191 E10.46343
G1 X106.612 Y104.840 E10.67715
G1 X106.842 Y105.491 E10.69358
G1 X100.721 Y111.612 E10.89955
G1 X101.232 Y111.982 E10.91456
G1 X107.183 Y106.030 E11.11482
G1 X107.242 Y106.108 E11.11714
G1 X107.365 Y106.350 E11.12360
G1 X107.395 Y106.629 E11.13027
G1 X107.424 Y106.671 E11.13148
G1 X102.347 Y111.748 E11.30230
G1 X102.522 Y111.614 E11.30754
G1 X102.676 Y111.623 E11.31121
G1 X103.086 Y111.276 E11.32400
G1 X103.269 Y111.272 E11.32835
G1 X103.824 Y111.151 E11.34186
G1 X107.663 Y107.312 E11.47105
G1 X107.795 Y107.617 E11.47894
G1 X107.832 Y108.024 E11.48867
G1 X105.069 Y110.788 E11.58167
G1 E9.58167 F2400.00000
G92 E0
G1 X99.431 Y106.735 F7800.000
G1 E2.00000 F2400.00000
G1 F4800
G1 X99.348 Y107.139 E2.00982
G1 X99.175 Y107.339 E2.01608
G1 X99.050 Y107.442 E2.01995
G1 X98.783 Y107.535 E2.02668
G1 X98.636 Y107.531 E2.03018
G1 X97.968 Y108.199 E2.05266
G1 E0.05266 F2400.00000
G92 E0
G1 X91.714 Y96.834 F7800.000
G1 E2.00000 F2400.00000
G1 F4800
G1 X92.421 Y96.127 E2.02378
G1 X92.978 Y95.921 E2.03790
G1 X92.888 Y95.660 E2.04446
M106 S244.8
G1 Z1.200 F7800.000
G1 X91.681 Y94.348 F7800.000
G1 F1200
G1 X92.176 Y94.842 E2.06709
G1 X92.653 Y94.413 E2.08788
G1 X91.773 Y93.532 E2.12818
G1 X92.104 Y92.957 E2.14968
G1 X93.100 Y93.952 E2.19527
G1 X93.469 Y93.415 E2.21638
G1 X92.419 Y92.365 E2.26445
G1 X92.447 Y92.306 E2.26658
G1 X92.526 Y91.566 E2.29066
G1 X93.824 Y92.863 E2.35008
G1 X93.847 Y92.765 E2.35335
G1 X93.708 Y92.372 E2.36685
G1 X93.651 Y91.783 E2.38600
G1 X92.718 Y90.850 E2.42870
G1 X93.059 Y90.285 E2.45009
G1 X93.554 Y90.779 E2.47272
G1 E0.47272 F2400.00000
G92 E0
G1 X95.107 Y88.331 F7800.000
G1 E2.00000 F2400.00000
G1 F1200
G1 X96.131 Y89.355 E2.04688
G1 X96.659 Y88.804 F7800.000
G1 F1200
G1 X96.164 Y88.310 E2.06951
G1 E0.06951 F2400.00000
G92 E0
G1 X103.427 Y91.094 F7800.000
G1 E2.00000 F2400.00000
G1 F4800
G1 X101.403 Y89.070 E2.06808
G1 X101.120 Y89.102 E2.07488
G1 X100.658 Y89.206 E2.08614
G1 X103.084 Y91.632 E2.16778
G1 X103.042 Y91.689 E2.16947
G1 X102.882 Y91.822 E2.17441
G1 X102.718 Y91.906 E2.17879
G1 X102.642 Y92.071 E2.18311
G1 X99.955 Y89.384 E2.27354
G1 X99.628 Y89.423 E2.28136
G1 X99.274 Y89.364 E2.28991
G1 X98.987 Y89.188 E2.29792
G1 X98.692 Y88.896 E2.30780
G1 X98.529 Y88.691 E2.31402
G1 X98.274 Y88.458 E2.32225
G1 X98.267 Y88.395 E2.32375
G1 X97.978 Y88.288 E2.33108
G1 X102.473 Y92.783 E2.48235
G1 X102.480 Y92.859 E2.48417
G1 X102.927 Y93.898 E2.51108
G1 X103.462 Y93.772 E2.52417
G1 X104.635 Y94.945 E2.56363
G1 X104.828 Y95.178 E2.57082
G1 X105.151 Y95.509 E2.58183
G1 X105.343 Y95.739 E2.58896
G1 X105.567 Y96.145 E2.59999
G1 X105.653 Y96.569 E2.61028
G1 X105.609 Y96.800 E2.61588
G1 X97.059 Y88.250 E2.90358
G1 X96.692 Y88.633 E2.91621
G1 X96.640 Y88.712 E2.91845
G1 X105.417 Y97.489 E3.21380
G1 X105.302 Y98.255 E3.23222
G1 X96.290 Y89.243 E3.53546
G1 X96.095 Y89.539 E3.54392
G1 X95.644 Y89.478 E3.55474
G1 X105.186 Y99.020 E3.87582
G1 X105.097 Y99.552 E3.88866
G1 X105.110 Y99.578 E3.88936
G1 X105.090 Y99.804 E3.89476
G1 X94.565 Y89.280 E4.24891
G1 X94.444 Y89.344 E4.25218
G1 X94.219 Y89.273 E4.25778
G1 X94.118 Y89.453 E4.26270
G1 X93.911 Y89.430 E4.26765
G1 X93.857 Y89.452 E4.26903
G1 X104.991 Y100.587 E4.64368
G1 X104.919 Y100.737 E4.64766
G1 X104.607 Y100.917 E4.65623
G1 X104.628 Y101.104 E4.66072
G1 X93.659 Y90.135 E5.02981
G1 X93.753 Y91.110 E5.05313
G1 X105.339 Y102.697 E5.44299
G1 X106.101 Y103.636 E5.47176
G1 X106.255 Y103.941 E5.47989
G1 X106.259 Y104.041 E5.48228
G1 X106.558 Y104.355 E5.49260
G1 X106.603 Y104.648 E5.49965
G1 X106.655 Y104.746 E5.50228
G1 X106.653 Y104.891 E5.50575
G1 X93.977 Y92.215 E5.93229
G1 X93.990 Y92.251 E5.93318
G1 X93.889 Y92.682 E5.94373
G1 X93.756 Y92.875 E5.94930
G1 X97.469 Y96.588 E6.07423
G1 X97.325 Y96.733 E6.07909
G1 X97.276 Y97.122 E6.08842
G1 X97.283 Y97.283 E6.09225
G1 X93.397 Y93.397 E6.22299
G1 X93.039 Y93.919 E6.23806
G1 X98.085 Y98.966 E6.40785
G1 X98.005 Y99.111 E6.41180
G1 X98.165 Y99.356 E6.41876
G1 X98.438 Y99.861 E6.43242
G1 X98.787 Y99.668 E6.44192
G1 X101.616 Y102.497 E6.53710
G1 X101.207 Y102.679 E6.54775
G1 X101.100 Y102.793 E6.55147
G1 X101.050 Y102.812 E6.55274
G1 X92.596 Y94.357 E6.83722
G1 X92.132 Y94.775 E6.85206
G1 X100.604 Y103.247 E7.13715
G1 X100.549 Y103.564 E7.14479
G1 X100.503 Y103.715 E7.14856
G1 X100.556 Y103.806 E7.15107
G1 X100.570 Y103.893 E7.15317
G1 X101.005 Y104.416 E7.16935
G1 X101.137 Y104.445 E7.17256
G1 X101.209 Y104.501 E7.17474
G1 X101.822 Y104.465 E7.18934
G1 X107.212 Y109.855 E7.37072
G1 X106.712 Y110.236 E7.38567
G1 X92.428 Y95.952 E7.86631
G1 X91.785 Y96.190 E7.88262
G1 X106.141 Y110.546 E8.36567
G1 X105.949 Y110.617 E8.37055
G1 X105.875 Y110.678 E8.37283
G1 X105.735 Y110.741 E8.37648
G1 X105.513 Y110.798 E8.38195
G1 X92.205 Y97.490 E8.82974
G1 X92.506 Y98.518 E8.85523
G1 X92.547 Y98.713 E8.85997
G1 X104.834 Y111.001 E9.27344
G1 X104.672 Y111.071 E9.27764
G1 X104.130 Y111.177 E9.29079
G1 X92.807 Y99.854 E9.67180
G1 X93.023 Y100.641 E9.69122
G1 X93.238 Y101.166 E9.70471
G1 X98.535 Y106.463 E9.88295
G1 X98.319 Y106.504 E9.88818
G1 X98.017 Y106.707 E9.89684
G1 X97.978 Y106.788 E9.89896
G1 X96.755 Y105.564 E9.94013
G1 X96.693 Y105.340 E9.94567
G1 X96.629 Y105.193 E9.94948
G1 X96.219 Y104.762 E9.96364
G1 X96.087 Y104.589 E9.96881
G1 X96.138 Y104.532 E9.97064
G1 X95.916 Y104.243 E9.97929
G1 X95.710 Y104.122 E9.98497
G1 X95.337 Y103.956 E9.99470
G1 X95.304 Y104.020 E9.99641
G1 X95.076 Y103.886 E10.00269
G1 X94.190 Y102.999 E10.03252
G1 X98.085 Y98.966 F7800.000
G1 F4800
G1 X98.177 Y98.797 E10.03710
G1 X98.883 Y98.883 E10.05403
G1 X97.703 Y97.703 E10.09373
G1 X98.072 Y97.191 E10.10875
G1 X106.849 Y105.968 E10.40408
G1 X107.582 Y107.582 F7800.000
G1 F4800
G1 X102.878 Y102.878 E10.56237
G1 X102.655 Y103.367 E10.57516
G1 X102.562 Y103.443 E10.57801
G1 X107.856 Y108.737 E10.75616
G1 X107.870 Y108.888 E10.75976
G1 X107.758 Y109.220 E10.76809
G1 X107.793 Y109.234 E10.76900
G1 X107.658 Y109.420 E10.77446
G1 X102.028 Y103.790 E10.96391
G1 X101.571 Y103.988 E10.97576
G1 X101.357 Y104.000 E10.98087
G1 X102.476 Y102.476 F7800.000
G1 F4800
G1 X98.514 Y98.514 E11.11418
G1 X98.560 Y99.072 E11.12749
G1 X98.322 Y99.203 E11.13396
G1 E9.13396 F2400.00000
G92 E0
G1 X97.866 Y107.556 F7800.000
G1 E2.00000 F2400.00000
G1 F4800
G1 X102.295 Y111.985 E2.14903
G1 X102.675 Y111.792 E2.15917
G1 X102.845 Y111.731 E2.16347
G1 X102.887 Y111.696 E2.16477
G1 X98.611 Y107.420 E2.30866
G1 X98.710 Y107.339 E2.31172
G1 X98.883 Y107.140 E2.31797
G1 X98.944 Y106.873 E2.32451
G1 X103.448 Y111.376 E2.47604
G1 E0.47604 F2400.00000
G92 E0
G1 X102.229 Y103.738 F7800.000
G1 E2.00000 F2400.00000
G1 F1200
G1 X101.154 Y102.664 E2.04707
G1 X101.081 Y102.697 E2.04956
G1 X100.959 Y102.827 E2.05508
G1 X100.705 Y102.920 E2.06345
G1 X100.662 Y103.166 E2.07120
G1 X100.854 Y103.395 E2.08045
G1 X101.348 Y103.890 E2.10211
G1 X102.135 Y102.612 F7800.000
G1 F1200
G1 X102.629 Y103.107 E2.12377
G1 E0.12377 F2400.00000
G92 E0
G1 X107.907 Y106.546 F7800.000
G1 E2.00000 F2400.00000
G1 F1200
G1 X107.412 Y106.052 E2.02263
G1 X107.268 Y105.772 E2.03281
G1 X107.107 Y105.553 E2.04162
G1 X106.897 Y105.204 E2.05481
G1 X106.728 Y104.706 E2.07184
G1 X106.770 Y104.544 E2.07726
G1 X106.771 Y104.453 E2.08020
G1 X107.933 Y105.615 E2.13338
G1 X108.173 Y104.897 E2.15787
G1 X106.150 Y102.875 E2.25044
G1 X105.125 Y101.572 E2.30411
G1 X105.119 Y101.448 E2.30813
G1 X104.964 Y101.208 E2.31739
G1 X104.767 Y100.773 E2.33283
G1 X104.904 Y100.672 E2.33835
G1 X108.344 Y104.112 E2.49586
G1 X108.417 Y103.684 E2.50990
G1 X108.422 Y103.428 E2.51821
G1 X108.448 Y103.258 E2.52376
G1 X105.155 Y99.965 E2.67451
G1 X105.233 Y99.087 E2.70307
G1 X107.307 Y101.160 E2.79799
G1 X107.483 Y100.717 E2.81343
G1 X107.488 Y100.587 E2.81764
G1 X107.443 Y100.339 E2.82579
G1 X105.355 Y98.252 E2.92136
G1 X105.481 Y97.420 E2.94859
G1 X107.006 Y98.945 E3.01841
G1 X106.899 Y98.714 E3.02665
G1 X106.830 Y98.439 E3.03582
G1 X106.708 Y97.916 E3.05321
G1 X106.706 Y97.688 E3.06059
G1 X105.674 Y96.656 E3.10782
G1 X105.782 Y96.089 E3.12652
G1 X105.716 Y95.741 E3.13800
G1 X106.284 Y96.309 E3.16401
G1 E1.16401 F2400.00000
G92 E0
G1 X105.055 Y94.123 F7800.000
G1 E2.00000 F2400.00000
G1 F1200
G1 X104.561 Y93.628 E2.02263
G1 X103.073 Y92.618 F7800.000
G1 F1200
G1 X103.082 Y92.727 E2.02615
G1 X103.293 Y93.216 E2.04339
G1 X103.622 Y93.168 E2.05417
G1 X102.579 Y92.124 E2.10194
G1 X102.573 Y92.057 E2.10413
G1 X102.695 Y91.864 E2.11153
G1 X102.989 Y91.638 E2.12351
G1 X103.066 Y91.533 E2.12774
G1 X103.561 Y92.028 E2.15038
M106 S247.35
G1 Z1.500 F7800.000
G1 E0.15038 F2400.00000
G92 E0
G1 X107.397 Y97.462 F7800.000
G1 E2.00000 F2400.00000
G1 F1200
G1 X106.881 Y97.978 E2.02361
G1 X107.005 Y98.495 E2.04082
G1 X107.135 Y98.803 E2.05164
G1 X107.727 Y98.211 E2.07875
G1 X107.921 Y99.095 E2.10806
G1 X107.427 Y99.590 E2.13069
G1 X108.104 Y100.380 F7800.000
G1 F1200
G1 X107.604 Y100.880 E2.15356
G1 X108.228 Y101.335 F7800.000
G1 F1200
G1 X107.733 Y101.830 E2.17619
G1 E0.17619 F2400.00000
G92 E0
G1 X101.657 Y98.181 F7800.000
G1 E2.00000 F2400.00000
G1 F1200
G1 X101.162 Y98.676 E2.02104
G1 E0.02104 F2400.00000
G92 E0
G1 X98.805 Y100.030 F7800.000
G1 E2.00000 F2400.00000
G1 F1200
G1 X101.485 Y97.350 E2.11405
G1 X101.233 Y97.099 E2.12476
G1 X100.807 Y97.179 E2.13779
G1 X100.488 Y97.345 E2.14862
G1 X98.560 Y99.272 E2.23066
G1 X98.528 Y98.882 E2.24244
G1 X98.023 Y98.806 E2.25780
G1 X98.924 Y97.906 E2.29613
G1 X98.681 Y97.715 E2.30541
G1 X98.472 Y97.502 E2.31441
G1 X98.463 Y97.364 E2.31857
G1 X97.969 Y97.858 E2.33961
G1 E0.33961 F2400.00000
G92 E0
G1 X94.679 Y90.622 F7800.000
G1 E2.00000 F2400.00000
G1 F1200
G1 X95.173 Y90.127 E2.02263
G1 X93.860 Y90.362 F7800.000
G1 F1200
G1 X95.117 Y89.104 E2.08022
G1 X95.490 Y88.936 E2.09345
G1 X95.775 Y88.447 E2.11177
G1 X95.979 Y88.243 E2.12112
G1 X97.148 Y88.757 F7800.000
G1 F4800
G1 X96.975 Y88.782 E2.12529
G1 X96.856 Y88.837 E2.12841
G1 X96.137 Y89.071 E2.14640
G1 X95.656 Y89.756 E2.16632
G1 X95.483 Y90.423 E2.18271
G1 X97.614 Y88.292 E2.25442
G1 X97.949 Y88.243 E2.26249
G1 X98.374 Y88.319 E2.27276
G1 X98.482 Y88.304 E2.27535
G1 X91.604 Y95.182 E2.50678
G1 X91.525 Y95.705 E2.51938
G1 X91.625 Y95.994 E2.52664
G1 X91.517 Y96.033 E2.52937
G1 X91.529 Y96.138 E2.53187
G1 X99.104 Y88.563 E2.78676
G1 X99.613 Y88.773 E2.79985
G1 X99.603 Y88.798 E2.80051
G1 X99.704 Y88.843 E2.80315
G1 X91.680 Y96.868 E3.07316
G1 X91.982 Y97.447 E3.08870
G1 X100.387 Y89.042 E3.37153
G1 X100.797 Y89.040 E3.38129
G1 X101.164 Y89.010 E3.39004
G1 X101.335 Y88.974 E3.39421
G1 X92.239 Y98.071 E3.70030
G1 X92.438 Y98.752 E3.71719
G1 X102.187 Y89.003 E4.04524
G1 X102.673 Y89.398 E4.06014
G1 X92.606 Y99.465 E4.39888
G1 X92.769 Y100.183 E4.41640
G1 X96.276 Y96.677 E4.53439
G1 X96.294 Y96.467 E4.53939
G1 X96.384 Y96.318 E4.54353
G1 X96.482 Y96.241 E4.54651
G1 X96.665 Y96.171 E4.55117
G1 X96.770 Y96.183 E4.55368
G1 X103.114 Y89.839 E4.76714
G1 X103.527 Y90.306 E4.78199
G1 X97.461 Y96.372 E4.98610
G1 X97.758 Y96.520 E4.99398
G1 X97.992 Y96.723 E5.00135
G1 X103.701 Y91.014 E5.19345
G1 X103.644 Y91.212 E5.19837
G1 X103.579 Y91.594 E5.20759
G1 X103.570 Y91.778 E5.21195
G1 X103.605 Y91.990 E5.21709
G1 X98.360 Y97.235 E5.39357
G1 X98.502 Y97.454 E5.39978
G1 X98.530 Y97.536 E5.40183
G1 X98.691 Y97.493 E5.40580
G1 X98.817 Y97.378 E5.40986
G1 X99.139 Y97.338 E5.41757
G1 X103.839 Y92.637 E5.57574
G1 X104.077 Y92.965 E5.58537
G1 X104.265 Y93.092 E5.59077
G1 X100.302 Y97.055 E5.72412
G1 X100.890 Y96.959 E5.73830
G1 X101.022 Y96.996 E5.74156
G1 X101.129 Y97.109 E5.74526
G1 X104.795 Y93.443 E5.86862
G1 X105.073 Y93.618 E5.87644
G1 X105.217 Y93.902 E5.88401
G1 X101.570 Y97.549 E6.00672
G1 X101.934 Y97.911 E6.01894
G1 X101.938 Y98.062 E6.02253
G1 X105.565 Y94.435 E6.14459
G1 X105.943 Y94.938 E6.15956
G1 X95.972 Y104.909 E6.49506
G1 X96.260 Y105.145 E6.50391
G1 X96.323 Y105.080 E6.50607
G1 X96.512 Y105.250 E6.51212
G1 X106.211 Y95.551 E6.83846
G1 X106.443 Y96.200 E6.85485
G1 X96.915 Y105.728 E7.17546
G1 X96.958 Y106.134 E7.18517
G1 X96.898 Y106.588 E7.19607
G1 X96.865 Y106.586 E7.19686
G1 X96.865 Y106.658 E7.19859
G1 X100.323 Y103.200 E7.31495
G1 X100.289 Y103.296 E7.31736
G1 X100.469 Y103.606 E7.32591
G1 X100.502 Y103.804 E7.33067
G1 X100.542 Y103.862 E7.33236
G1 X96.926 Y107.479 E7.45406
G1 X96.933 Y107.497 E7.45452
G1 X96.976 Y107.471 E7.45572
G1 X97.320 Y107.966 E7.47006
G1 X101.074 Y104.212 E7.59638
G1 X101.189 Y104.301 E7.59985
G1 X101.935 Y104.232 E7.61767
G1 X97.649 Y108.517 E7.76189
G1 X97.939 Y109.109 E7.77755
G1 X107.429 Y99.618 E8.09689
G1 X107.512 Y100.108 E8.10871
G1 X107.506 Y100.242 E8.11190
G1 X107.404 Y100.524 E8.11904
G1 X98.297 Y109.631 E8.42549
G1 X98.674 Y109.893 E8.43640
G1 X98.803 Y110.006 E8.44049
G1 X107.311 Y101.499 E8.72676
G1 X107.546 Y101.704 E8.73420
G1 X107.845 Y101.845 E8.74206
G1 X99.259 Y110.431 E9.03097
G1 X99.269 Y110.441 E9.03131
G1 X99.216 Y110.497 E9.03313
G1 X99.478 Y110.786 E9.04240
G1 X99.541 Y110.737 E9.04429
G1 X99.675 Y110.896 E9.04923
G1 X108.336 Y102.235 E9.34068
G1 X108.434 Y102.527 E9.34802
G1 X108.479 Y102.748 E9.35338
G1 X108.439 Y102.963 E9.35858
G1 X108.446 Y103.006 E9.35963
G1 X100.096 Y111.356 E9.64060
G1 X100.628 Y111.705 E9.65574
G1 X108.291 Y104.042 E9.91358
G1 X108.229 Y104.334 E9.92069
G1 X108.082 Y104.726 E9.93063
G1 X107.945 Y105.173 E9.94177
G1 X107.941 Y105.273 E9.94415
G1 X101.338 Y111.876 E10.16633
G1 X102.136 Y111.959 E10.18541
G1 X107.931 Y106.164 E10.38041
G1 X107.903 Y106.712 E10.39346
G1 X107.971 Y107.005 E10.40061
G1 X103.364 Y111.611 E10.55561
G1 X104.019 Y111.336 E10.57249
G1 X104.578 Y111.145 E10.58656
G1 X104.606 Y111.220 E10.58845
G1 X104.656 Y111.200 E10.58974
G1 X108.094 Y107.763 E10.70540
G1 X108.116 Y107.936 E10.70955
G1 X107.881 Y108.397 E10.72187
G1 X107.699 Y108.852 E10.73353
G1 X107.740 Y108.872 E10.73461
G1 X107.391 Y109.347 E10.74864
G1 X106.176 Y110.561 E10.78952
G1 X103.572 Y111.403 F7800.000
G1 F4800
G1 X103.868 Y111.268 E10.79725
G1 X103.823 Y111.152 E10.80020
G1 X103.107 Y111.869 E10.82430
G1 X99.858 Y103.666 F7800.000
G1 F4800
G1 X100.012 Y103.205 E10.83585
G1 X100.361 Y102.700 E10.85046
G1 X100.915 Y102.411 E10.86533
G1 X101.207 Y102.201 E10.87387
G1 X101.400 Y102.123 E10.87884
G1 X106.668 Y96.856 E11.05608
G1 X106.728 Y97.053 E11.06099
G1 X106.731 Y97.430 E11.06997
G1 X106.777 Y97.628 E11.07479
G1 X102.463 Y101.941 E11.21994
G1 X102.981 Y101.990 E11.23231
G1 X103.157 Y102.075 E11.23696
G1 X103.180 Y102.106 E11.23788
G1 X106.967 Y98.319 E11.36531
G1 X107.020 Y98.428 E11.36820
G1 X107.179 Y98.988 E11.38204
G1 X103.426 Y102.740 E11.50831
G1 E9.50831 F2400.00000
G92 E0
G1 X95.428 Y104.572 F7800.000
G1 E2.00000 F2400.00000
G1 F4800
G1 X100.732 Y99.268 E2.17847
G1 X100.518 Y99.352 E2.18395
G1 X100.197 Y99.703 E2.19527
G1 X99.540 Y100.151 E2.21418
G1 X98.972 Y100.147 E2.22770
G1 X94.875 Y104.244 E2.36555
G1 X94.630 Y104.110 E2.37221
G1 X94.427 Y103.811 E2.38080
G1 X98.343 Y99.895 E2.51256
G1 X98.100 Y99.619 E2.52131
G1 X97.946 Y99.411 E2.52746
G1 X94.072 Y103.285 E2.65782
G1 X93.716 Y102.760 E2.67291
G1 X97.739 Y98.737 E2.80828
G1 X97.716 Y98.571 E2.81228
G1 X97.793 Y97.985 E2.82634
G1 X97.729 Y97.867 E2.82954
G1 X93.449 Y102.147 E2.97356
G1 X93.193 Y101.522 E2.98963
G1 X97.309 Y97.405 E3.12814
G1 X97.264 Y97.330 E3.13023
G1 X97.109 Y97.140 E3.13605
G1 X96.943 Y96.891 E3.14319
G1 X92.959 Y100.874 E3.27723
G1 X92.769 Y100.183 E3.29428
G1 E1.29428 F2400.00000
G92 E0
G1 X91.694 Y94.211 F7800.000
G1 E2.00000 F2400.00000
G1 F4800
G1 X95.035 Y90.870 E2.11243
G1 X94.658 Y90.486 E2.12523
G1 X94.550 Y90.475 E2.12783
G1 X92.446 Y92.578 E2.19860
G1 X92.537 Y91.735 E2.21878
G1 X92.594 Y91.549 E2.22341
G1 X93.583 Y90.561 E2.25666
M106 S249.9
G1 Z1.800 F7800.000
G1 E0.25666 F2400.00000
G92 E0
G1 X95.337 Y91.541 F7800.000
G1 E2.00000 F2400.00000
G1 F1200
G1 X94.843 Y91.046 E2.02237
G1 X95.264 Y90.401 E2.04700
G1 X96.207 Y91.344 E2.08964
G1 X96.278 Y90.651 E2.11193
G1 X96.337 Y90.408 E2.11992
G1 X95.583 Y89.654 E2.15402
G1 X95.679 Y89.288 E2.16612
G1 X95.928 Y88.933 E2.17999
G1 X96.684 Y89.690 E2.21420
G1 X96.920 Y89.365 E2.22703
G1 X97.079 Y89.189 E2.23462
G1 X97.208 Y89.147 E2.23895
G1 X96.552 Y88.491 E2.26863
G1 X96.971 Y88.338 E2.28292
G1 X97.402 Y88.276 E2.29685
G1 X97.897 Y88.770 E2.31922
G1 X103.952 Y91.619 F7800.000
G1 F4800
G1 X101.146 Y88.813 E2.41363
G1 X101.019 Y88.807 E2.41665
G1 X100.371 Y88.919 E2.43229
G1 X103.960 Y92.508 E2.55304
G1 X104.027 Y92.781 E2.55974
G1 X104.279 Y93.243 E2.57225
G1 X104.591 Y93.537 E2.58244
G1 X104.641 Y93.497 E2.58397
G1 X104.952 Y93.771 E2.59385
G1 X104.904 Y93.828 E2.59562
G1 X105.427 Y94.372 E2.61357
G1 X105.493 Y94.310 E2.61573
G1 X105.657 Y94.498 E2.62166
G1 X105.871 Y94.793 E2.63033
G1 X105.816 Y94.828 E2.63187
G1 X106.003 Y95.151 E2.64075
G1 X106.509 Y95.938 E2.66301
G1 X99.619 Y89.048 E2.89485
G1 X99.232 Y89.016 E2.90409
G1 X98.549 Y88.858 E2.92077
G1 X107.357 Y97.667 E3.21716
G1 X107.406 Y97.765 E3.21978
G1 X107.409 Y97.853 E3.22186
G1 X107.454 Y97.972 E3.22490
G1 X107.645 Y98.175 E3.23153
G1 X107.738 Y98.540 E3.24047
G1 X107.759 Y98.782 E3.24627
G1 X107.814 Y99.004 E3.25171
G1 X97.655 Y88.845 E3.59355
G1 X97.245 Y89.091 E3.60491
G1 X97.090 Y89.162 E3.60896
G1 X108.119 Y100.190 E3.98005
G1 X108.125 Y101.078 E4.00117
G1 X96.655 Y89.608 E4.38713
G1 X96.506 Y89.812 E4.39315
G1 X96.399 Y90.232 E4.40346
G1 X108.475 Y102.309 E4.80983
G1 X108.513 Y102.399 E4.81215
G1 X108.426 Y102.404 E4.81423
G1 X108.374 Y103.088 E4.83057
G1 X96.311 Y91.025 E5.23647
G1 X96.216 Y91.372 E5.24502
G1 X96.176 Y91.465 E5.24743
G1 X96.049 Y91.645 E5.25266
G1 X101.036 Y96.631 E5.42046
G1 X100.918 Y96.593 E5.42343
G1 X100.270 Y96.611 E5.43885
G1 X100.157 Y96.634 E5.44158
G1 X95.340 Y91.816 E5.60368
G1 X95.120 Y91.754 E5.60911
G1 X95.065 Y91.710 E5.61078
G1 X94.766 Y91.661 E5.61800
G1 X94.476 Y91.564 E5.62527
G1 X94.004 Y91.182 E5.63972
G1 X93.827 Y91.184 E5.64393
G1 X99.435 Y96.792 E5.83264
G1 X99.026 Y96.827 E5.84241
G1 X98.866 Y96.735 E5.84679
G1 X98.765 Y96.706 E5.84929
G1 X98.598 Y96.543 E5.85485
G1 X98.249 Y96.290 E5.86509
G1 X98.055 Y96.182 E5.87039
G1 X97.875 Y96.113 E5.87496
G1 X92.960 Y91.198 E6.04035
G1 X92.883 Y91.250 E6.04255
G1 X92.251 Y91.371 E6.05785
G1 X96.926 Y96.045 E6.21516
G1 X96.761 Y96.155 E6.21989
G1 X96.696 Y96.313 E6.22394
G1 X96.644 Y96.523 E6.22909
G1 X96.721 Y96.721 E6.23414
G1 X91.996 Y91.996 E6.39311
G1 X91.931 Y92.265 E6.39969
G1 X91.669 Y92.550 E6.40890
G1 X97.442 Y98.323 E6.60314
G1 X97.505 Y98.466 E6.60687
G1 X97.563 Y98.910 E6.61752
G1 X97.700 Y99.443 E6.63061
G1 X97.788 Y99.425 E6.63276
G1 X97.829 Y99.590 E6.63680
G1 X91.455 Y93.217 E6.85126
G1 X91.399 Y94.042 E6.87094
G1 X100.512 Y103.155 E7.17758
G1 X100.290 Y103.763 E7.19298
G1 X100.361 Y103.884 E7.19633
G1 X91.352 Y94.875 E7.49947
G1 X91.332 Y95.399 E7.51194
G1 X91.433 Y95.838 E7.52265
G1 X106.314 Y110.718 E8.02338
G1 X106.162 Y110.794 E8.02742
G1 X105.673 Y110.958 E8.03969
G1 X92.205 Y97.490 E8.49288
G1 X92.506 Y98.518 E8.51837
G1 X92.547 Y98.713 E8.52310
G1 X104.907 Y111.074 E8.93903
G1 X104.542 Y111.185 E8.94812
G1 X104.255 Y111.303 E8.95549
G1 X92.807 Y99.854 E9.34072
G1 X93.023 Y100.641 E9.36014
G1 X93.238 Y101.166 E9.37363
G1 X103.746 Y111.674 E9.72721
G1 X103.479 Y111.808 E9.73431
G1 X103.471 Y111.767 E9.73530
G1 X103.011 Y111.820 E9.74631
G1 X97.027 Y105.836 E9.94766
G1 X97.006 Y105.929 E9.94991
G1 X97.005 Y106.470 E9.96280
G1 X97.032 Y106.722 E9.96883
G1 X101.756 Y111.446 E10.12779
G1 X100.825 Y110.785 E10.15496
G1 X100.497 Y110.599 E10.16393
G1 X100.414 Y110.568 E10.16605
G1 X99.937 Y110.508 E10.17750
G1 X97.392 Y107.963 E10.26313
G1 E8.26313 F2400.00000
G92 E0
G1 X95.542 Y104.351 F7800.000
G1 E2.00000 F2400.00000
G1 F4800
G1 X94.211 Y103.020 E2.04478
G1 E0.04478 F2400.00000
G92 E0
G1 X100.512 Y103.155 F7800.000
G1 E2.00000 F2400.00000
G1 F4800
G1 X100.812 Y102.720 E2.01256
G1 X100.904 Y102.666 E2.01510
G1 X98.668 Y100.430 E2.09034
G1 X98.926 Y100.381 E2.09658
G1 X99.341 Y100.222 E2.10716
G1 X101.466 Y102.347 E2.17868
G1 X101.672 Y102.201 E2.18468
G1 X101.774 Y102.160 E2.18730
G1 X101.750 Y102.112 E2.18857
G1 X101.976 Y101.976 E2.19484
G1 X99.901 Y99.901 E2.26464
G1 X99.989 Y99.829 E2.26735
G1 X100.467 Y99.587 E2.28011
G1 X102.568 Y101.687 E2.35079
G1 X103.160 Y101.471 E2.36579
G1 X103.230 Y101.468 E2.36746
G1 X101.133 Y99.371 E2.43802
G1 X101.780 Y99.138 E2.45439
G1 X104.104 Y101.461 E2.53258
G1 X108.378 Y103.974 F7800.000
G1 F4800
G1 X102.337 Y97.933 E2.73585
G1 X102.211 Y98.687 E2.75405
G1 X108.476 Y104.952 E2.96488
G1 X108.481 Y104.995 E2.96590
G1 X108.527 Y105.003 E2.96702
G1 X108.340 Y105.697 E2.98411
G1 X104.141 Y101.498 E3.12539
G1 X104.170 Y101.813 E3.13289
G1 X104.108 Y102.138 E3.14079
G1 X104.046 Y102.284 E3.14455
G1 X108.093 Y106.331 E3.28072
G1 X107.996 Y106.824 E3.29268
G1 X107.967 Y107.086 E3.29896
G1 X103.694 Y102.813 E3.44275
G1 X103.463 Y103.158 E3.45262
G1 X103.288 Y103.288 E3.45781
G1 X107.875 Y107.875 E3.61218
G1 X107.738 Y108.619 E3.63017
G1 X102.709 Y103.590 E3.79937
G1 X102.553 Y103.699 E3.80390
G1 X102.147 Y103.909 E3.81477
G1 X107.520 Y109.282 E3.99558
G1 X107.277 Y109.758 E4.00830
G1 X107.343 Y109.799 E4.01012
G1 X107.262 Y109.905 E4.01329
G1 X101.631 Y104.274 E4.20275
G1 X101.452 Y104.351 E4.20737
G1 X100.988 Y104.358 E4.21843
G1 X100.983 Y104.276 E4.22037
G1 X100.971 Y104.278 E4.22068
G1 X100.925 Y104.384 E4.22344
G1 X100.849 Y104.372 E4.22527
G1 X106.847 Y110.371 E4.42712
G1 X106.686 Y110.503 E4.43208
G1 X106.314 Y110.718 E4.44231
M106 S252.45
G1 Z2.100 F7800.000
G1 X104.896 Y110.961 F7800.000
G1 F4800
G1 X107.520 Y108.337 E4.53060
G1 X107.568 Y107.770 E4.54413
G1 X107.626 Y107.350 E4.55422
G1 X103.574 Y111.402 E4.69058
G1 X103.013 Y111.705 E4.70574
G1 X102.782 Y111.775 E4.71149
G1 X102.390 Y111.705 E4.72096
G1 X107.782 Y106.312 E4.90242
G1 X108.205 Y105.009 E4.93502
G1 X101.739 Y111.475 E5.15258
G1 X101.531 Y111.325 E5.15868
G1 X101.363 Y111.164 E5.16422
G1 X101.278 Y111.055 E5.16751
G1 X108.201 Y104.132 E5.40046
G1 X108.130 Y103.707 E5.41070
G1 X108.108 Y103.344 E5.41937
G1 X100.911 Y110.541 E5.66156
G1 X100.758 Y110.302 E5.66833
G1 X100.531 Y110.140 E5.67495
G1 X100.454 Y110.117 E5.67686
G1 X108.223 Y102.348 E5.93826
G1 X108.426 Y101.532 E5.95829
G1 X108.487 Y101.544 E5.95977
G1 X108.474 Y101.216 E5.96758
G1 X99.558 Y110.132 E6.26760
G1 X99.264 Y110.194 E6.27477
G1 X99.058 Y110.183 E6.27966
G1 X98.709 Y110.100 E6.28820
G1 X108.414 Y100.396 E6.61474
G1 X108.406 Y99.995 E6.62428
G1 X108.356 Y99.572 E6.63441
G1 X98.089 Y109.839 E6.97988
G1 X97.886 Y109.685 E6.98596
G1 X97.636 Y109.412 E6.99477
G1 X103.689 Y103.358 E7.19846
G1 X103.675 Y103.345 E7.19892
G1 X102.995 Y103.829 E7.21879
G1 X102.258 Y104.205 E7.23848
G1 X101.922 Y104.349 E7.24716
G1 X101.813 Y104.354 E7.24977
G1 X97.328 Y108.839 E7.40067
G1 X97.148 Y108.332 E7.41347
G1 X97.112 Y108.173 E7.41734
G1 X100.967 Y104.318 E7.54705
G1 X100.737 Y104.268 E7.55266
G1 X100.500 Y103.905 E7.56297
G1 X97.266 Y107.139 E7.67180
G1 X97.283 Y106.241 E7.69317
G1 X100.422 Y103.102 E7.79879
G1 E5.79879 F2400.00000
G92 E0
G1 X101.875 Y101.648 F7800.000
G1 E2.00000 F2400.00000
G1 F4800
G1 X103.428 Y100.096 E2.05225
G1 X103.168 Y100.572 E2.06515
G1 X102.443 Y101.146 E2.08716
G1 X102.341 Y101.183 E2.08975
G1 E0.08975 F2400.00000
G92 E0
G1 X104.488 Y102.559 F7800.000
G1 E2.00000 F2400.00000
G1 F4800
G1 X108.221 Y98.827 E2.12558
G1 X108.162 Y98.579 E2.13164
G1 X108.008 Y98.158 E2.14230
G1 X104.689 Y101.478 E2.25399
G1 X104.640 Y101.242 E2.25971
G1 X104.476 Y100.988 E2.26691
G1 X104.386 Y100.900 E2.26992
G1 X107.715 Y97.570 E2.38196
G1 X107.397 Y97.008 E2.39734
G1 X103.958 Y100.447 E2.51306
G1 X103.626 Y100.240 E2.52236
G1 X103.375 Y100.321 E2.52864
G1 X103.057 Y100.467 E2.53697
G1 X107.086 Y96.437 E2.67254
G1 X106.786 Y95.897 E2.68726
G1 X106.701 Y95.942 E2.68954
G1 X97.106 Y105.537 E3.01242
G1 X96.972 Y105.326 E3.01838
G1 X96.919 Y105.345 E3.01971
G1 X96.849 Y105.256 E3.02239
G1 X96.628 Y105.134 E3.02841
G1 X106.331 Y95.431 E3.35489
G1 X106.000 Y94.881 E3.37017
G1 X102.663 Y98.218 E3.48246
G1 X102.752 Y97.646 E3.49623
G1 X102.644 Y97.356 E3.50360
G1 X105.725 Y94.275 E3.60727
G1 X105.320 Y93.799 E3.62214
G1 X102.268 Y96.851 E3.72483
G1 X102.138 Y96.722 E3.72920
G1 X101.895 Y96.672 E3.73508
G1 X101.665 Y96.573 E3.74104
G1 X104.808 Y93.430 E3.84679
G1 X104.516 Y93.125 E3.85684
G1 X104.395 Y92.962 E3.86167
G1 X100.866 Y96.491 E3.98043
G1 X100.315 Y96.325 E3.99412
G1 X100.176 Y96.300 E3.99748
G1 X104.197 Y92.280 E4.13277
G1 X104.127 Y92.074 E4.13793
G1 X104.011 Y91.584 E4.14991
G1 X101.888 Y93.707 E4.22134
G1 X101.752 Y93.526 E4.22674
G1 X101.537 Y93.479 E4.23199
G1 X101.256 Y93.459 E4.23868
G1 X103.860 Y90.855 E4.32629
G1 X103.728 Y90.579 E4.33358
G1 X103.533 Y90.300 E4.34166
G1 X97.767 Y96.067 E4.53569
G1 X97.339 Y95.860 E4.54698
G1 X97.124 Y95.828 E4.55216
G1 X103.133 Y89.820 E4.75434
G1 X102.677 Y89.395 E4.76917
G1 X92.606 Y99.465 E5.10804
G1 X92.506 Y98.984 E5.11974
G1 X92.438 Y98.752 E5.12547
G1 X102.165 Y89.025 E5.45278
G1 X102.063 Y88.962 E5.45564
G1 X101.817 Y88.868 E5.46192
G1 X101.642 Y88.840 E5.46613
G1 X101.652 Y88.879 E5.46708
G1 X101.335 Y88.975 E5.47497
G1 X92.239 Y98.071 E5.78104
G1 X92.151 Y97.772 E5.78845
G1 X91.982 Y97.447 E5.79717
G1 X100.105 Y89.324 E6.07050
G1 X99.682 Y89.379 E6.08064
G1 X99.132 Y89.416 E6.09376
G1 X97.269 Y91.279 E6.15646
G1 X97.264 Y91.092 E6.16091
G1 X97.335 Y90.864 E6.16659
G1 X97.437 Y90.615 E6.17299
G1 X97.605 Y90.376 E6.17995
G1 X97.903 Y90.100 E6.18961
G1 X98.173 Y89.955 E6.19691
G1 X98.343 Y89.908 E6.20110
G1 X98.667 Y89.881 E6.20883
G1 X101.540 Y93.174 F7800.000
G1 F4800
G1 X98.355 Y96.360 E6.31603
G1 X99.278 Y96.317 F7800.000
G1 F4800
G1 X101.840 Y93.756 E6.40223
G1 X101.892 Y93.802 E6.40390
G1 X102.377 Y93.751 E6.41549
G1 X102.512 Y93.454 E6.42325
G1 X102.353 Y93.242 E6.42955
G1 X93.164 Y91.860 F7800.000
G1 F4800
G1 X91.216 Y93.808 E6.49509
G1 X91.190 Y94.290 E6.50657
G1 X91.196 Y94.709 E6.51655
G1 X94.104 Y91.802 E6.61439
G1 X94.592 Y91.793 E6.62602
G1 X94.746 Y91.918 E6.63073
G1 X94.838 Y91.949 E6.63302
G1 X91.173 Y95.613 E6.75634
G1 X91.165 Y95.967 E6.76476
G1 X91.214 Y96.179 E6.76992
G1 X91.342 Y96.325 E6.77456
G1 X95.633 Y92.034 E6.91898
G1 X95.757 Y92.028 E6.92192
G1 X96.172 Y91.945 E6.93199
G1 X96.575 Y91.937 E6.94158
G1 X96.633 Y91.915 E6.94306
G1 X91.681 Y96.867 E7.10970
G1 E5.10970 F2400.00000
G92 E0
G1 X92.606 Y99.465 F7800.000
G1 E2.00000 F2400.00000
G1 F4800
G1 X92.769 Y100.183 E2.01752
G1 X96.709 Y96.243 E2.15009
G1 X96.759 Y96.394 E2.15387
G1 X97.016 Y96.818 E2.16566
G1 X92.959 Y100.874 E2.30216
G1 X93.023 Y101.107 E2.30790
G1 X93.193 Y101.522 E2.31856
G1 X97.275 Y97.439 E2.45592
G1 X97.370 Y97.689 E2.46227
G1 X97.311 Y97.710 E2.46376
G1 X97.435 Y98.161 E2.47489
G1 X93.449 Y102.147 E2.60901
G1 X93.674 Y102.697 E2.62315
G1 X93.717 Y102.759 E2.62496
G1 X97.665 Y98.812 E2.75780
G1 X97.904 Y99.453 E2.77409
G1 X94.075 Y103.282 E2.90294
G1 X94.434 Y103.805 E2.91802
G1 X98.166 Y100.072 E3.04361
G1 X98.185 Y100.141 E3.04531
G1 X98.346 Y100.359 E3.05176
G1 X98.588 Y100.531 E3.05883
G1 X94.879 Y104.241 E3.18364
G1 X95.449 Y104.551 E3.19909
G1 X99.436 Y100.564 E3.33324
G1 X99.583 Y100.485 E3.33722
G1 X99.935 Y100.352 E3.34618
G1 X100.248 Y100.171 E3.35477
G1 X101.032 Y99.849 E3.37494
G1 X95.999 Y104.882 E3.54430
G1 E1.54430 F2400.00000
G92 E0
G1 X99.145 Y109.664 F7800.000
G1 E2.00000 F2400.00000
G1 F4800
G1 X99.168 Y109.641 E2.00078
G1 X98.680 Y110.130 E2.01722
G1 E0.01722 F2400.00000
G92 E0
G1 X96.642 Y91.563 F7800.000
G1 E2.00000 F2400.00000
G1 F1200
G1 X97.146 Y91.058 E2.02311
G1 X97.136 Y91.068 E2.02358
G1 X96.427 Y90.699 F7800.000
G1 F1200
G1 X98.365 Y88.761 E2.11229
G1 E0.11229 F2400.00000
G92 E0
G1 X103.713 Y101.035 F7800.000
G1 E2.00000 F2400.00000
G1 F1200
G1 X103.536 Y100.913 E2.00695
G1 X103.412 Y100.970 E2.01137
G1 X103.162 Y101.436 E2.02850
G1 X103.315 Y101.433 E2.03345
G1 X104.207 Y100.541 E2.07428
G1 X104.563 Y100.997 E2.09302
G1 X104.583 Y101.244 E2.10103
G1 X104.088 Y101.739 E2.12366
G1 Z2.400 F7800.000
G1 X103.428 Y100.258 F7800.000
G1 F1200
G1 X103.465 Y100.473 E2.12996
G1 X103.587 Y100.417 E2.13385
G1 X102.934 Y99.763 E2.16047
G1 X102.912 Y99.544 E2.16684
G1 X102.975 Y98.991 E2.18287
G1 X103.417 Y99.168 E2.19659
G1 X103.912 Y99.663 E2.21676
G1 X103.467 Y98.364 F7800.000
G1 F1200
G1 X102.707 Y97.604 E2.24772
G1 X102.597 Y98.454 E2.27241
G1 X103.472 Y99.330 E2.30810
G1 X103.469 Y99.359 E2.30895
G1 X102.668 Y99.486 E2.33232
G1 X102.174 Y98.992 E2.35247
G1 E0.35247 F2400.00000
G92 E0
G1 X103.050 Y96.987 F7800.000
G1 E2.00000 F2400.00000
G1 F1200
G1 X102.556 Y96.493 E2.02015
G1 E0.02015 F2400.00000
G92 E0
G1 X101.470 Y94.422 F7800.000
G1 E2.00000 F2400.00000
G1 F4800
G1 X108.408 Y101.361 E2.23347
G1 X108.348 Y100.420 E2.25590
G1 X102.203 Y94.275 E2.46267
G1 X102.329 Y94.096 E2.46787
G1 X102.323 Y93.813 E2.47460
G1 X102.281 Y93.727 E2.47689
G1 X102.282 Y93.586 E2.48023
G1 X102.205 Y93.396 E2.48512
G1 X108.256 Y99.447 E2.68875
G1 X108.162 Y99.045 E2.69859
G1 X108.050 Y98.707 E2.70705
G1 X107.898 Y98.332 E2.71667
G1 X107.940 Y98.312 E2.71778
G1 X107.762 Y98.078 E2.72478
G1 X107.316 Y97.625 E2.73991
G1 X107.296 Y97.637 E2.74045
G1 X107.234 Y97.544 E2.74309
G1 X99.548 Y89.857 E3.00175
G1 X100.075 Y89.503 E3.01685
G1 X106.103 Y95.532 E3.21971
G1 X105.857 Y95.081 E3.23194
G1 X105.634 Y94.736 E3.24172
G1 X105.267 Y94.324 E3.25483
G1 X105.001 Y94.073 E3.26355
G1 X104.945 Y94.136 E3.26554
G1 X104.669 Y93.916 E3.27394
G1 X104.410 Y93.683 E3.28223
G1 X104.222 Y93.454 E3.28928
G1 X104.101 Y93.149 E3.29709
G1 X104.031 Y92.625 E3.30967
G1 X104.069 Y92.617 E3.31059
G1 X100.663 Y89.211 E3.42520
G1 X101.096 Y89.063 E3.43609
G1 X101.379 Y89.046 E3.44283
G1 X103.881 Y91.548 E3.52703
G1 X102.281 Y93.471 F7800.000
G1 F4800
G1 X98.917 Y90.108 E3.64021
G1 X98.618 Y90.302 E3.64870
G1 X98.485 Y90.557 E3.65554
G1 X101.380 Y93.451 E3.75292
G1 X101.290 Y93.494 E3.75530
G1 X101.285 Y93.946 E3.76604
G1 X101.353 Y94.232 E3.77304
G1 X101.448 Y94.401 E3.77764
G1 X98.080 Y91.032 E3.89099
G1 X98.046 Y91.097 E3.89273
G1 X97.539 Y91.373 E3.90645
G1 X102.304 Y96.137 E4.06677
G1 X101.833 Y96.184 E4.07804
G1 X101.601 Y96.192 E4.08354
G1 X101.457 Y96.172 E4.08701
G1 X96.912 Y91.627 E4.23993
G1 X96.583 Y91.800 E4.24878
G1 X96.288 Y91.883 E4.25609
G1 X100.508 Y96.104 E4.39811
G1 X100.098 Y96.032 E4.40802
G1 X99.953 Y96.054 E4.41150
G1 X99.712 Y96.018 E4.41731
G1 X99.537 Y96.013 E4.42147
G1 X95.514 Y91.990 E4.55684
G1 X95.252 Y92.032 E4.56314
G1 X94.690 Y92.048 E4.57652
G1 X98.655 Y96.012 E4.70992
G1 X98.308 Y95.909 E4.71854
G1 X97.928 Y95.733 E4.72850
G1 X97.853 Y95.740 E4.73030
G1 X97.569 Y95.696 E4.73713
G1 X97.502 Y95.740 E4.73904
G1 X94.148 Y92.386 E4.85189
G1 X93.607 Y92.469 E4.86491
G1 X93.365 Y92.484 E4.87068
G1 X96.926 Y96.045 E4.99052
G1 X96.761 Y96.155 E4.99525
G1 X96.696 Y96.313 E4.99930
G1 X96.644 Y96.523 E5.00445
G1 X96.721 Y96.721 E5.00950
G1 X92.536 Y92.536 E5.15031
G1 X92.061 Y92.587 E5.16167
G1 X91.942 Y92.823 E5.16796
G1 X97.319 Y98.200 E5.34889
G1 X97.657 Y99.419 E5.37897
G1 X91.397 Y93.159 E5.58959
G1 X91.056 Y93.334 E5.59873
G1 X91.044 Y93.687 E5.60712
G1 X98.487 Y101.129 E5.85756
G1 X98.545 Y101.216 E5.86006
G1 X98.587 Y101.230 E5.86112
G1 X100.571 Y103.214 E5.92787
G1 X100.431 Y103.732 E5.94065
G1 X100.442 Y103.966 E5.94620
G1 X91.034 Y94.558 E6.26275
G1 X91.008 Y95.412 E6.28309
G1 X102.563 Y106.968 E6.67192
G1 X102.491 Y106.987 E6.67370
G1 X102.366 Y107.117 E6.67800
G1 X102.252 Y107.170 E6.68099
G1 X102.138 Y107.424 E6.68761
G1 X92.205 Y97.490 E7.02186
G1 X92.506 Y98.518 E7.04735
G1 X92.547 Y98.713 E7.05208
G1 X104.840 Y111.007 E7.46576
G1 X104.427 Y111.139 E7.47609
G1 X104.200 Y111.247 E7.48208
G1 X92.807 Y99.854 E7.86542
G1 X93.023 Y100.641 E7.88485
G1 X93.238 Y101.166 E7.89834
G1 X97.132 Y105.060 E8.02936
G1 X96.327 Y104.794 E8.04952
G1 X95.530 Y104.340 E8.07135
G1 X94.235 Y103.045 E8.11492
G1 X96.666 Y104.595 F7800.000
G1 F4800
G1 X96.858 Y104.722 E8.12039
G1 X97.040 Y104.968 E8.12767
G1 X97.553 Y105.481 E8.14493
G1 X97.564 Y108.135 F7800.000
G1 F4800
G1 X97.576 Y108.364 E8.15037
G1 X97.691 Y108.787 E8.16080
G1 X97.849 Y109.125 E8.16969
G1 X97.969 Y109.314 E8.17500
G1 X98.234 Y109.618 E8.18460
G1 X98.406 Y109.751 E8.18978
G1 X98.652 Y109.878 E8.19635
G1 X99.088 Y110.043 E8.20746
G1 X99.094 Y110.011 E8.20824
G1 X99.477 Y110.048 E8.21740
G1 X97.099 Y107.670 E8.29742
G1 X97.103 Y107.598 E8.29913
G1 X97.205 Y107.467 E8.30309
G1 X97.409 Y107.268 E8.30987
G1 X97.466 Y107.156 E8.31286
G1 X100.345 Y110.035 E8.40975
G1 X100.743 Y109.937 E8.41951
G1 X100.942 Y109.931 E8.42425
G1 X101.144 Y109.953 E8.42907
G1 X97.580 Y106.389 E8.54901
G1 X97.585 Y105.903 E8.56058
G1 X97.559 Y105.721 E8.56494
G1 X97.429 Y105.428 E8.57255
G1 X97.376 Y105.379 E8.57429
G1 X97.231 Y105.159 E8.58054
G1 X103.626 Y111.554 E8.79572
G1 X102.901 Y111.710 F7800.000
G1 F4800
G1 X100.880 Y109.690 E8.86370
G1 X100.807 Y109.500 E8.86855
G1 X100.679 Y109.488 E8.87160
G1 X102.913 Y108.198 F7800.000
G1 F4800
G1 X105.557 Y110.843 E8.96059
G1 X105.986 Y110.725 E8.97116
G1 X106.219 Y110.623 E8.97721
G1 X104.281 Y108.686 E9.04241
G1 X104.604 Y108.762 E9.05031
G1 X105.037 Y108.561 E9.06167
G1 X106.756 Y110.280 E9.11951
G1 E7.11951 F2400.00000
G92 E0
G1 X102.563 Y106.968 F7800.000
G1 E2.00000 F2400.00000
G1 F4800
G1 X102.660 Y106.943 E2.00237
G1 X102.994 Y106.993 E2.01042
G1 X103.258 Y106.999 E2.01669
G1 X103.382 Y107.070 E2.02008
G1 X103.750 Y107.318 E2.03065
G1 X104.317 Y107.906 E2.05008
G1 X104.619 Y108.189 E2.05993
G1 X104.797 Y108.321 E2.06520
G1 X100.921 Y104.445 E2.19561
G1 X101.382 Y104.463 E2.20658
G1 X101.699 Y104.342 E2.21466
G1 X107.143 Y109.779 E2.39771
G1 X107.231 Y109.602 E2.40242
G1 X107.199 Y109.591 E2.40323
G1 X107.319 Y109.081 E2.41571
G1 X102.300 Y104.062 E2.58460
G1 X102.531 Y103.941 E2.59079
G1 X102.845 Y103.726 E2.59986
G1 X107.416 Y108.297 E2.75369
G1 X107.500 Y107.500 E2.77277
G1 X103.359 Y103.359 E2.91212
G1 X103.765 Y103.058 E2.92414
G1 X103.846 Y103.133 E2.92676
G1 X103.933 Y103.052 E2.92961
G1 X107.606 Y106.725 E3.05319
G1 X107.864 Y106.102 E3.06924
G1 X104.368 Y102.606 E3.18688
G1 X104.698 Y102.055 E3.20216
G1 X108.067 Y105.424 E3.31554
G1 X108.093 Y105.245 E3.31984
G1 X108.085 Y105.099 E3.32332
G1 X107.921 Y104.606 E3.33569
G1 X107.880 Y104.357 E3.34169
G1 X104.980 Y101.456 E3.43930
G1 X105.012 Y101.311 E3.44283
G1 X105.095 Y101.141 E3.44733
G1 X105.139 Y100.734 E3.45707
G1 X107.870 Y103.466 E3.54899
G1 X107.935 Y103.075 E3.55841
G1 X108.043 Y102.757 E3.56640
G1 X103.626 Y98.340 E3.71503
G1 X103.576 Y98.008 E3.72301
G1 X103.602 Y97.723 E3.72984
G1 X103.580 Y97.413 E3.73722
G1 X108.292 Y102.126 E3.89580
G1 E1.89580 F2400.00000
G92 E0
G1 X102.778 Y100.135 F7800.000
G1 E2.00000 F2400.00000
G1 F4800
G1 X102.247 Y99.604 E2.01786
G1 X101.746 Y99.690 E2.02995
G1 X101.521 Y99.759 E2.03556
G1 X102.653 Y100.891 E2.07366
G1 X102.372 Y101.308 E2.08563
G1 X102.273 Y101.393 E2.08871
G1 X100.852 Y99.971 E2.13654
G1 X100.203 Y100.203 E2.15294
G1 X101.822 Y101.822 E2.20741
G1 X101.652 Y102.008 E2.21341
G1 X101.672 Y102.033 E2.21417
G1 X101.464 Y102.178 E2.22022
G1 X101.384 Y102.265 E2.22303
G1 X99.590 Y100.470 E2.28340
G1 X99.134 Y100.714 E2.29568
G1 X98.996 Y100.758 E2.29913
G1 X100.905 Y102.667 E2.36334
G1 X100.819 Y102.739 E2.36601
G1 X100.647 Y102.937 E2.37226
G1 X100.571 Y103.214 E2.37909
G1 E0.37909 F2400.00000
G92 E0
G1 X94.275 Y92.315 F7800.000
G1 E2.00000 F2400.00000
G1 F1200
G1 X93.780 Y91.821 E2.02263
G1 X92.760 Y91.879 E2.05573
G1 X93.281 Y92.400 E2.07959
G1 X92.823 Y92.429 E2.09445
G1 X93.254 Y92.373 E2.10853
G1 E0.10853 F2400.00000
G92 E0
G1 X97.787 Y91.301 F7800.000
G1 E2.00000 F2400.00000
G1 F1200
G1 X97.293 Y90.806 E2.02178
G1 X97.288 Y90.626 E2.02742
G1 X97.412 Y90.252 E2.03968
G1 X97.542 Y90.017 E2.04805
G1 X98.372 Y90.847 E2.08462
G1 X98.577 Y90.472 E2.09794
G1 X98.675 Y90.354 E2.10272
G1 X98.809 Y90.246 E2.10808
G1 X98.109 Y89.546 E2.13891
G1 X98.334 Y89.466 E2.14634
G1 X99.009 Y89.408 E2.16746
G1 X99.503 Y89.902 E2.18924
M106 S255
G1 Z2.700 F7800.000
G1 E0.18924 F2400.00000
G92 E0
G1 X101.260 Y93.455 F7800.000
G1 E2.00000 F2400.00000
G1 F4573.07
G1 X98.925 Y95.789 E2.07854
G1 X99.318 Y95.820 E2.08792
G1 X99.690 Y95.905 E2.09700
G1 X101.385 Y94.211 E2.15402
G1 X101.586 Y94.586 E2.16416
G1 X101.710 Y94.766 E2.16936
G1 X100.446 Y96.031 E2.21192
G1 E0.21192 F2400.00000
G92 E0
G1 X96.933 Y96.019 F7800.000
G1 E2.00000 F2400.00000
G1 F4573.07
G1 X92.769 Y100.183 E2.14010
G1 X92.959 Y100.874 E2.15716
G1 X97.133 Y96.701 E2.29758
G1 X97.239 Y97.475 E2.31617
G1 X93.194 Y101.521 E2.45231
G1 X93.450 Y102.145 E2.46837
G1 X97.416 Y98.180 E2.60180
G1 X97.630 Y98.847 E2.61846
G1 X93.717 Y102.760 E2.75014
G1 X94.076 Y103.282 E2.76521
G1 X97.903 Y99.454 E2.89401
G1 X97.943 Y99.531 E2.89606
G1 X98.107 Y100.131 E2.91086
G1 X94.435 Y103.804 E3.03445
G1 X94.670 Y104.146 E3.04434
G1 X94.863 Y104.256 E3.04962
G1 X98.392 Y100.727 E3.16839
G1 X98.500 Y100.895 E3.17314
G1 X98.961 Y101.039 E3.18464
G1 X95.423 Y104.577 E3.30371
G1 X95.843 Y104.818 E3.31522
G1 X96.007 Y104.874 E3.31935
G1 X100.282 Y100.599 E3.46320
G1 X100.715 Y100.432 E3.47424
G1 X101.478 Y100.211 E3.49316
G1 X101.551 Y100.211 E3.49490
G1 X96.626 Y105.136 E3.66063
G1 X96.874 Y105.295 E3.66764
G1 X97.127 Y105.516 E3.67563
G1 X101.904 Y100.738 E3.83639
G1 X101.785 Y100.946 E3.84209
G1 X101.654 Y101.237 E3.84968
G1 X101.486 Y101.421 E3.85561
G1 X101.236 Y101.617 E3.86317
G1 X100.923 Y101.962 E3.87425
G1 X100.592 Y102.459 E3.88847
G1 X100.701 Y102.545 E3.89178
G1 X100.582 Y102.942 E3.90164
G1 X97.539 Y105.984 E4.00401
G1 X97.605 Y106.036 E4.00600
G1 X97.776 Y106.300 E4.01349
G1 X97.846 Y106.558 E4.01985
G1 X100.524 Y103.881 E4.10994
G1 X100.532 Y104.042 E4.11379
G1 X100.749 Y104.296 E4.12174
G1 X100.906 Y104.379 E4.12598
G1 X98.259 Y107.026 E4.21504
G1 X98.212 Y107.183 E4.21893
G1 X98.115 Y107.235 E4.22155
G1 X98.041 Y107.349 E4.22479
G1 X97.819 Y107.467 E4.23077
G1 X97.083 Y108.202 E4.25552
G1 X97.064 Y108.372 E4.25958
G1 X97.095 Y108.615 E4.26541
G1 X97.167 Y108.840 E4.27103
G1 X97.221 Y108.946 E4.27385
G1 X101.671 Y104.496 E4.42361
G1 X101.846 Y104.498 E4.42778
G1 X102.522 Y104.288 E4.44461
G1 X103.017 Y104.030 E4.45791
G1 X97.579 Y109.469 E4.64092
G1 X97.824 Y109.677 E4.64857
G1 X98.126 Y109.803 E4.65635
G1 X108.360 Y99.568 E5.00072
G1 X108.286 Y99.975 E5.01055
G1 X108.310 Y100.500 E5.02305
G1 X101.724 Y107.085 E5.24463
G1 X101.965 Y107.050 E5.25042
G1 X102.026 Y106.987 E5.25250
G1 X102.194 Y106.943 E5.25665
G1 X102.529 Y106.993 E5.26470
G1 X102.693 Y106.997 E5.26861
G1 X108.339 Y101.351 E5.45859
G1 X108.301 Y101.564 E5.46374
G1 X108.251 Y101.544 E5.46502
G1 X108.106 Y101.863 E5.47337
G1 X107.857 Y102.315 E5.48566
G1 X107.692 Y102.879 E5.49962
G1 X103.265 Y107.306 E5.64859
G1 X103.702 Y107.750 E5.66341
G1 X107.669 Y103.783 E5.79692
G1 X107.671 Y103.884 E5.79932
G1 X107.729 Y104.129 E5.80531
G1 X107.858 Y104.475 E5.81410
G1 X104.149 Y108.184 E5.93890
G1 X104.321 Y108.317 E5.94408
G1 X104.582 Y108.458 E5.95113
G1 X104.714 Y108.500 E5.95442
G1 X107.830 Y105.384 E6.05927
G1 X107.556 Y106.007 E6.07545
G1 X107.464 Y106.315 E6.08311
G1 X107.413 Y106.682 E6.09192
G1 X105.353 Y108.741 E6.16122
G1 X105.519 Y108.804 E6.16542
G1 X105.448 Y108.836 E6.16726
G1 X105.519 Y108.860 E6.16904
G1 X105.545 Y109.317 E6.17993
G1 X105.455 Y109.490 E6.18456
G1 X105.321 Y109.655 E6.18963
G1 X107.333 Y107.643 E6.25733
G1 X107.332 Y107.659 E6.25772
G1 X107.427 Y107.671 E6.26001
G1 X107.425 Y107.692 E6.26053
G1 X107.330 Y107.685 E6.26281
G1 X107.254 Y108.356 E6.27886
G1 X107.202 Y108.655 E6.28609
G1 X105.083 Y110.774 E6.35740
G1 X103.855 Y111.120 F7800.000
G1 F4573.07
G1 X105.773 Y109.203 E6.42192
G1 X105.624 Y109.287 E6.42600
G1 X105.300 Y109.376 E6.43400
G1 X104.993 Y109.303 E6.44151
G1 X104.849 Y109.246 E6.44520
G1 X102.455 Y111.640 E6.52573
G1 X102.324 Y111.618 E6.52890
G1 X102.120 Y111.549 E6.53402
G1 X101.817 Y111.397 E6.54209
G1 X104.313 Y108.901 E6.62610
G1 X104.140 Y108.772 E6.63123
G1 X103.981 Y108.712 E6.63527
G1 X103.833 Y108.686 E6.63885
G1 X103.716 Y108.693 E6.64163
G1 X103.554 Y108.779 E6.64600
G1 X101.344 Y110.989 E6.72038
G1 X101.158 Y110.758 E6.72745
G1 X101.000 Y110.452 E6.73563
G1 X102.835 Y108.617 E6.79738
G1 X102.789 Y108.357 E6.80367
G1 X102.712 Y108.191 E6.80801
G1 X102.573 Y107.998 E6.81367
G1 X100.623 Y109.948 E6.87928
G1 X100.477 Y109.931 E6.88277
G1 X100.268 Y109.939 E6.88775
G1 X99.988 Y110.015 E6.89465
G1 X99.797 Y110.024 E6.89922
G1 X99.683 Y110.008 E6.90196
G1 X102.137 Y107.554 E6.98453
G1 X101.928 Y107.293 E6.99248
G1 X101.791 Y107.019 E6.99977
G1 X98.791 Y110.018 E7.10070
G1 X98.286 Y109.869 E7.11324
G1 X98.126 Y109.803 E7.11736
G1 E5.11736 F2400.00000
G92 E0
G1 X105.141 Y101.906 F7800.000
G1 E2.00000 F2400.00000
G1 F4573.07
G1 X108.314 Y98.734 E2.10676
G1 X108.243 Y98.410 E2.11464
G1 X108.098 Y98.069 E2.12346
G1 X105.474 Y100.693 E2.21176
G1 X105.421 Y100.541 E2.21559
G1 X105.230 Y100.305 E2.22280
G1 X105.072 Y100.214 E2.22715
G1 X107.626 Y97.660 E2.31310
G1 X107.191 Y97.213 E2.32793
G1 X104.711 Y99.694 E2.41140
G1 X104.548 Y99.349 E2.42048
G1 X104.390 Y99.133 E2.42682
G1 X106.839 Y96.685 E2.50920
G1 X106.575 Y96.068 E2.52517
G1 X104.077 Y98.566 E2.60921
G1 X104.029 Y98.305 E2.61551
G1 X103.997 Y97.765 E2.62839
G1 X106.282 Y95.479 E2.70529
G1 X105.953 Y94.928 E2.72057
G1 X103.807 Y97.074 E2.79278
G1 X103.624 Y96.688 E2.80295
G1 X103.502 Y96.498 E2.80832
G1 X105.627 Y94.373 E2.87984
G1 X105.391 Y94.073 E2.88892
G1 X105.216 Y93.903 E2.89472
G1 X103.126 Y95.993 E2.96507
G1 X102.780 Y95.615 E2.97726
G1 X102.722 Y95.517 E2.97998
G1 X104.666 Y93.572 E3.04540
G1 X104.323 Y93.313 E3.05563
G1 X104.183 Y93.175 E3.06032
G1 X102.513 Y94.845 E3.11651
G1 X102.449 Y94.531 E3.12412
G1 X102.340 Y94.137 E3.13386
G1 X103.959 Y92.517 E3.18835
G1 X103.982 Y92.085 E3.19866
G1 X104.021 Y92.084 E3.19960
G1 X103.953 Y91.642 E3.21022
G1 X102.011 Y93.584 E3.27556
G1 X101.977 Y93.535 E3.27698
G1 X101.933 Y93.535 E3.27802
G1 X101.591 Y93.381 E3.28694
G1 X101.384 Y93.330 E3.29202
G1 X103.789 Y90.925 E3.37295
G1 X103.676 Y90.667 E3.37966
G1 X103.481 Y90.352 E3.38846
G1 X98.091 Y95.742 E3.56984
G1 X97.695 Y95.662 E3.57947
G1 X97.513 Y95.585 E3.58415
G1 X97.358 Y95.594 E3.58785
G1 X103.087 Y89.865 E3.78062
G1 X102.779 Y89.563 E3.79089
G1 X102.626 Y89.445 E3.79548
G1 X92.606 Y99.465 E4.13264
G1 X92.506 Y98.984 E4.14435
G1 X92.438 Y98.752 E4.15008
G1 X102.028 Y89.163 E4.47276
G1 X101.730 Y89.161 E4.47983
G1 X101.423 Y89.241 E4.48738
G1 X101.074 Y89.408 E4.49660
G1 X100.803 Y89.591 E4.50437
G1 X100.561 Y89.871 E4.51319
G1 X100.357 Y90.174 E4.52188
G1 X100.056 Y90.382 E4.53056
G1 X99.749 Y90.561 E4.53904
G1 X92.239 Y98.071 E4.79174
G1 X92.151 Y97.773 E4.79915
G1 X91.982 Y97.446 E4.80788
G1 X98.098 Y91.331 E5.01366
G1 X97.699 Y91.501 E5.02397
G1 X97.002 Y91.738 E5.04148
G1 X96.743 Y91.805 E5.04783
G1 X91.682 Y96.866 E5.21814
G1 X91.456 Y96.429 E5.22985
G1 X91.362 Y96.305 E5.23355
G1 X95.633 Y92.034 E5.37729
G1 X95.336 Y92.042 E5.38436
G1 X94.644 Y92.731 E5.40759
G1 X94.239 Y92.944 E5.41849
G1 X93.771 Y93.015 E5.42976
G1 X90.981 Y95.805 E5.52364
G1 X90.878 Y95.670 E5.52768
G1 X90.912 Y94.993 E5.54382
G1 X92.731 Y93.174 E5.60503
G1 E3.60503 F2400.00000
G92 E0
G1 X101.801 Y100.202 F7800.000
G1 E2.00000 F2400.00000
G1 F1143.27
G1 X102.296 Y99.708 E2.02209
G1 X102.566 Y100.490 F7800.000
G1 F1143.27
G1 X102.071 Y100.985 E2.04419
G1 Z3.000 F7800.000
G1 X101.095 Y101.976 F7800.000
G1 F4285.41
G1 X99.958 Y100.839 E2.08246
G1 X99.639 Y100.944 E2.09045
G1 X99.321 Y101.083 E2.09871
G1 X100.750 Y102.511 E2.14678
G1 X100.706 Y102.577 E2.14864
G1 X100.783 Y102.637 E2.15096
G1 X100.675 Y102.800 E2.15562
G1 X100.616 Y103.259 E2.16664
G1 E0.16664 F2400.00000
G92 E0
G1 X102.637 Y107.042 F7800.000
G1 E2.00000 F2400.00000
G1 F4285.41
G1 X102.748 Y107.032 E2.00265
G1 X102.758 Y106.986 E2.00376
G1 X103.258 Y106.999 E2.01565
G1 X103.382 Y107.070 E2.01905
G1 X103.750 Y107.318 E2.02961
G1 X104.317 Y107.906 E2.04904
G1 X104.619 Y108.189 E2.05890
G1 X104.797 Y108.321 E2.06416
G1 X100.973 Y104.497 E2.19283
G1 X101.151 Y104.524 E2.19709
G1 X101.177 Y104.648 E2.20012
G1 X101.533 Y104.605 E2.20865
G1 X101.846 Y104.488 E2.21659
G1 X105.411 Y108.054 E2.33656
G1 X105.495 Y107.972 E2.33935
G1 X105.505 Y108.148 E2.34355
G1 X106.034 Y108.677 E2.36134
G1 E0.36134 F2400.00000
G92 E0
G1 X103.558 Y111.486 F7800.000
G1 E2.00000 F2400.00000
G1 F4285.41
G1 X104.126 Y111.173 E2.01543
G1 X102.284 Y109.332 E2.07739
G1 X102.637 Y109.354 E2.08579
G1 X102.891 Y109.271 E2.09215
G1 X103.027 Y109.193 E2.09588
G1 X104.755 Y110.922 E2.15404
G1 X105.452 Y110.738 E2.17119
G1 X104.074 Y109.360 E2.21756
G1 X104.259 Y109.478 E2.22278
G1 X104.603 Y109.622 E2.23164
G1 X104.889 Y109.594 E2.23850
G1 X105.114 Y109.519 E2.24414
G1 X106.114 Y110.519 E2.27778
G1 X106.312 Y110.415 E2.28311
G1 X106.509 Y110.282 E2.28876
G1 X106.641 Y110.164 E2.29296
G1 X105.622 Y109.146 E2.32722
G1 X105.728 Y108.932 E2.33290
G1 X105.778 Y108.780 E2.33671
G1 X105.810 Y108.453 E2.34453
G1 X107.008 Y109.651 E2.38484
G1 X107.157 Y109.328 E2.39329
G1 X107.190 Y109.154 E2.39750
G1 X107.109 Y109.142 E2.39946
G1 X107.135 Y108.897 E2.40532
G1 X102.434 Y104.196 E2.56350
G1 X102.597 Y104.106 E2.56792
G1 X102.966 Y103.846 E2.57864
G1 X107.313 Y108.194 E2.72494
G1 X107.389 Y107.389 E2.74418
G1 X103.470 Y103.470 E2.87606
G1 X103.720 Y103.302 E2.88325
G1 X103.974 Y103.094 E2.89106
G1 X107.423 Y106.542 E3.00711
G1 X107.491 Y106.344 E3.01210
G1 X107.684 Y105.922 E3.02314
G1 X104.407 Y102.645 E3.13339
G1 X104.765 Y102.122 E3.14847
G1 X107.811 Y105.168 E3.25094
G1 X107.570 Y104.510 E3.26760
G1 X107.543 Y104.263 E3.27351
G1 X107.548 Y104.024 E3.27920
G1 X105.080 Y101.556 E3.36224
G1 X105.159 Y101.404 E3.36633
G1 X105.234 Y101.438 E3.36828
G1 X105.446 Y101.042 E3.37897
G1 X107.581 Y103.176 E3.45080
G1 X107.740 Y102.747 E3.46169
G1 X107.843 Y102.557 E3.46683
G1 X105.711 Y100.425 E3.53856
G1 X105.757 Y100.026 E3.54814
G1 X105.762 Y99.814 E3.55318
G1 X105.739 Y99.573 E3.55894
G1 X108.214 Y102.048 E3.64224
G1 E1.64224 F2400.00000
G92 E0
G1 X104.805 Y98.639 F7800.000
G1 E2.00000 F2400.00000
G1 F4285.41
G1 X105.411 Y99.715 E2.02938
G1 X105.536 Y99.843 E2.03364
G1 X105.642 Y99.863 E2.03622
G1 X106.010 Y99.844 E2.04499
G1 X104.340 Y98.173 E2.10120
G1 X104.245 Y97.891 E2.10828
G1 X104.128 Y97.081 E2.12776
G1 X108.253 Y101.206 E2.26655
G1 X108.221 Y100.710 E2.27838
G1 X108.279 Y100.350 E2.28704
G1 X103.347 Y95.419 E2.45299
G1 X103.246 Y95.276 E2.45715
G1 X102.626 Y94.223 E2.48622
G1 X102.452 Y94.079 E2.49161
G1 X102.367 Y93.775 E2.49912
G1 X102.244 Y93.591 E2.50437
G1 X102.304 Y93.537 E2.50628
G1 X102.205 Y93.396 E2.51040
G1 X108.430 Y99.621 E2.71986
G1 X108.453 Y99.138 E2.73135
G1 X108.429 Y98.929 E2.73637
G1 X108.399 Y98.837 E2.73867
G1 X108.286 Y98.632 E2.74424
G1 X108.116 Y98.482 E2.74963
G1 X108.050 Y98.568 E2.75219
G1 X107.419 Y98.085 E2.77109
G1 X107.491 Y97.993 E2.77386
G1 X107.152 Y97.632 E2.78563
G1 X107.052 Y97.696 E2.78848
G1 X106.751 Y97.256 E2.80115
G1 X106.592 Y96.902 E2.81039
G1 X99.919 Y90.229 E3.03494
G1 X100.143 Y90.015 E3.04229
G1 X100.349 Y89.778 E3.04978
G1 X104.097 Y93.526 E3.17589
G1 X104.004 Y93.353 E3.18055
G1 X103.968 Y93.178 E3.18481
G1 X103.954 Y92.919 E3.19099
G1 X103.979 Y92.708 E3.19605
G1 X103.965 Y92.513 E3.20068
G1 X100.860 Y89.408 E3.30516
G1 X101.324 Y89.198 E3.31727
G1 X101.310 Y89.162 E3.31819
G1 X101.514 Y89.181 E3.32307
G1 X103.543 Y91.210 E3.39134
G1 X102.285 Y93.475 F7800.000
G1 F4285.41
G1 X99.344 Y90.535 E3.49028
G1 X98.915 Y90.688 E3.50114
G1 X98.725 Y90.797 E3.50633
G1 X101.380 Y93.451 E3.59564
G1 X101.236 Y93.520 E3.59942
G1 X101.299 Y93.778 E3.60575
G1 X101.265 Y93.877 E3.60824
G1 X101.229 Y94.182 E3.61553
G1 X98.114 Y91.066 E3.72037
G1 X97.599 Y91.257 E3.73342
G1 X97.627 Y91.334 E3.73537
G1 X97.539 Y91.372 E3.73767
G1 X101.452 Y95.285 E3.86934
G1 X101.478 Y95.560 E3.87591
G1 X101.453 Y95.709 E3.87948
G1 X101.364 Y95.805 E3.88261
G1 X101.149 Y95.863 E3.88791
G1 X96.896 Y91.610 E4.03103
G1 X96.531 Y91.740 E4.04024
G1 X96.220 Y91.815 E4.04786
G1 X100.221 Y95.817 E4.18250
G1 X99.971 Y95.788 E4.18849
G1 X99.959 Y95.862 E4.19026
G1 X99.914 Y95.852 E4.19134
G1 X99.924 Y95.803 E4.19252
G1 X99.449 Y95.643 E4.20447
G1 X99.159 Y95.635 E4.21136
G1 X95.350 Y91.826 E4.33954
G1 X95.093 Y91.852 E4.34569
G1 X94.990 Y91.923 E4.34866
G1 X94.808 Y92.105 E4.35477
G1 X94.794 Y92.151 E4.35593
G1 X98.135 Y95.493 E4.46836
G1 X97.693 Y95.475 E4.47890
G1 X97.665 Y95.599 E4.48193
G1 X97.559 Y95.603 E4.48445
G1 X97.448 Y95.686 E4.48775
G1 X94.456 Y92.694 E4.58844
G1 X94.014 Y93.133 E4.60326
G1 X97.108 Y96.227 E4.70735
G1 X97.068 Y96.570 E4.71557
G1 X97.087 Y97.087 E4.72788
G1 X93.450 Y93.450 E4.85026
G1 X93.333 Y93.512 E4.85341
G1 X92.724 Y93.605 E4.86807
G1 X97.283 Y98.164 E5.02148
G1 X97.732 Y99.494 E5.05489
G1 X92.040 Y93.802 E5.24641
G1 X91.338 Y93.981 E5.26365
G1 X97.942 Y100.585 E5.48588
G1 X97.937 Y100.688 E5.48832
G1 X98.019 Y100.983 E5.49561
G1 X98.432 Y101.574 E5.51278
G1 X98.603 Y101.623 E5.51701
G1 X99.003 Y101.783 E5.52726
G1 X99.114 Y101.757 E5.52998
G1 X100.616 Y103.259 E5.58051
G1 X100.561 Y103.691 E5.59087
G1 X100.577 Y104.101 E5.60063
G1 X90.858 Y94.381 E5.92768
G1 X90.834 Y94.547 E5.93165
G1 X91.072 Y95.383 E5.95235
G1 X91.152 Y95.493 E5.95559
G1 X91.199 Y95.454 E5.95704
G1 X91.577 Y95.839 E5.96989
G1 X91.721 Y96.126 E5.97752
G1 X102.637 Y107.042 E6.34484
G1 X102.532 Y107.039 E6.34734
G1 X102.143 Y107.094 E6.35670
G1 X101.973 Y107.190 E6.36134
G1 X101.906 Y107.191 E6.36293
G1 X92.226 Y97.512 E6.68864
G1 X92.518 Y98.514 E6.71347
G1 X92.564 Y98.731 E6.71875
G1 X102.780 Y108.946 E7.06248
G1 X102.750 Y109.179 E7.06808
G1 X102.713 Y109.227 E7.06951
G1 X102.584 Y109.631 E7.07960
G1 X92.838 Y99.886 E7.40752
G1 X93.049 Y100.637 E7.42609
G1 X93.290 Y101.219 E7.44107
G1 X103.558 Y111.486 E7.78656
G1 X103.420 Y111.538 E7.79006
G1 X103.170 Y111.584 E7.79611
G1 X102.869 Y111.567 E7.80329
G1 X102.715 Y111.525 E7.80707
G1 X100.880 Y109.690 E7.86882
G1 X100.807 Y109.500 E7.87367
G1 X100.679 Y109.488 E7.87672
G1 X98.101 Y106.910 E7.96346
G1 X98.055 Y107.108 E7.96830
G1 X97.902 Y107.252 E7.97329
G1 X97.705 Y107.396 E7.97909
G1 X100.328 Y110.018 E8.06734
G1 X99.968 Y110.047 E8.07594
G1 X99.396 Y109.967 E8.08968
G1 X97.081 Y107.652 E8.16758
G1 X97.033 Y107.734 E8.16984
G1 X97.001 Y107.851 E8.17272
G1 X96.992 Y107.987 E8.17598
G1 X97.027 Y108.205 E8.18121
G1 X97.139 Y108.490 E8.18851
G1 X97.326 Y108.779 E8.19670
G1 X98.031 Y109.483 E8.22041
G1 X97.871 Y109.342 E8.22550
G1 X97.792 Y109.244 E8.22849
G1 E6.22849 F2400.00000
G92 E0
G1 X95.689 Y104.499 F7800.000
G1 E2.00000 F2400.00000
G1 F4285.41
G1 X94.185 Y102.994 E2.05061
G1 E0.05061 F2400.00000
G92 E0
G1 X105.350 Y94.779 F7800.000
G1 E2.00000 F2400.00000
G1 F4285.41
G1 X105.076 Y94.335 E2.01242
G1 X104.864 Y94.084 E2.02024
G1 X104.726 Y93.956 E2.02471
G1 X104.285 Y93.630 E2.03778
G1 X104.249 Y93.678 E2.03920
G1 X105.816 Y95.244 E2.09192
G1 Z3.300 F7800.000
G1 E0.09192 F2400.00000
G92 E0
G1 X99.783 Y95.813 F7800.000
G1 E2.00000 F2400.00000
G1 F4161.89
G1 X101.311 Y94.285 E2.05142
G1 X101.270 Y93.996 E2.05835
G1 X101.202 Y93.956 E2.06022
G1 X101.260 Y93.455 E2.07224
G1 X99.050 Y95.665 E2.14660
G1 X98.900 Y95.631 E2.15025
G1 X98.669 Y95.636 E2.15576
G1 X98.240 Y95.594 E2.16601
G1 X97.044 Y95.909 F7800.000
G1 F4161.89
G1 X92.811 Y100.141 E2.30842
G1 X93.005 Y100.828 E2.32541
G1 X97.081 Y96.752 E2.46256
G1 X97.268 Y97.447 E2.47968
G1 X93.238 Y101.476 E2.61526
G1 X93.496 Y102.099 E2.63130
G1 X97.487 Y98.109 E2.76556
G1 X97.675 Y98.626 E2.77867
G1 X97.709 Y98.767 E2.78212
G1 X93.756 Y102.720 E2.91513
G1 X94.074 Y103.283 E2.93052
G1 X97.880 Y99.477 E3.05860
G1 X97.959 Y99.805 E3.06662
G1 X97.953 Y99.918 E3.06931
G1 X97.853 Y99.929 E3.07171
G1 X97.834 Y100.300 E3.08054
G1 X97.857 Y100.382 E3.08256
G1 X94.419 Y103.819 E3.19822
G1 X94.710 Y104.241 E3.21042
G1 X94.817 Y104.302 E3.21335
G1 X98.061 Y101.058 E3.32253
G1 X98.195 Y101.517 E3.33391
G1 X98.405 Y101.595 E3.33925
G1 X95.378 Y104.622 E3.44111
G1 X95.767 Y104.844 E3.45177
G1 X95.777 Y104.824 E3.45230
G1 X95.984 Y104.897 E3.45753
G1 X99.150 Y101.730 E3.56408
G1 X99.669 Y101.495 E3.57762
G1 X100.099 Y101.378 E3.58823
G1 X100.342 Y101.420 E3.59410
G1 X96.573 Y105.189 E3.72091
G1 X96.717 Y105.254 E3.72467
G1 X97.063 Y105.580 E3.73598
G1 X100.551 Y102.092 E3.85332
G1 X100.453 Y102.282 E3.85841
G1 X100.446 Y102.938 E3.87399
G1 X100.519 Y102.941 E3.87571
G1 X100.511 Y103.013 E3.87743
G1 X97.539 Y105.984 E3.97741
G1 X97.605 Y106.036 E3.97940
G1 X97.774 Y106.298 E3.98682
G1 X97.836 Y106.323 E3.98840
G1 X97.966 Y106.438 E3.99255
G1 X100.510 Y103.895 E4.07814
G1 X100.505 Y104.357 E4.08913
G1 X100.711 Y104.575 E4.09627
G1 X98.890 Y106.396 E4.15753
G1 X98.907 Y106.722 E4.16531
G1 X98.828 Y107.004 E4.17226
G1 X98.686 Y107.256 E4.17915
G1 X98.394 Y107.415 E4.18707
G1 X97.985 Y107.494 E4.19699
G1 X97.960 Y107.441 E4.19837
G1 X97.819 Y107.467 E4.20180
G1 X96.907 Y108.379 E4.23249
G1 X96.927 Y108.608 E4.23795
G1 X96.978 Y108.768 E4.24196
G1 X97.119 Y109.047 E4.24940
G1 X101.434 Y104.733 E4.39457
G1 X101.556 Y104.772 E4.39763
G1 X102.174 Y104.697 E4.41244
G1 X102.456 Y104.592 E4.41960
G1 X97.581 Y109.467 E4.58364
G1 X98.217 Y109.711 E4.59987
G1 X108.335 Y99.593 E4.94032
G1 X108.217 Y99.994 E4.95026
G1 X108.161 Y100.258 E4.95667
G1 X108.178 Y100.632 E4.96558
G1 X101.724 Y107.085 E5.18272
G1 X102.068 Y107.039 E5.19097
G1 X102.375 Y107.023 E5.19829
G1 X102.593 Y107.097 E5.20376
G1 X108.131 Y101.559 E5.39011
G1 X108.016 Y101.816 E5.39680
G1 X107.943 Y101.771 E5.39884
G1 X107.696 Y102.114 E5.40892
G1 X107.575 Y102.340 E5.41501
G1 X107.480 Y102.614 E5.42190
G1 X107.447 Y102.827 E5.42703
G1 X107.438 Y103.133 E5.43432
G1 X103.148 Y107.423 E5.57866
G1 X103.585 Y107.868 E5.59349
G1 X107.553 Y103.899 E5.72701
G1 X107.570 Y104.045 E5.73050
G1 X107.673 Y104.323 E5.73755
G1 X107.616 Y104.341 E5.73899
G1 X107.687 Y104.646 E5.74644
G1 X104.005 Y108.328 E5.87033
G1 X104.185 Y108.518 E5.87655
G1 X104.407 Y108.807 E5.88523
G1 X107.614 Y105.600 E5.99315
G1 X107.491 Y105.878 E6.00039
G1 X107.393 Y106.185 E6.00804
G1 X107.324 Y106.771 E6.02208
G1 X105.564 Y108.531 E6.08132
G1 X105.726 Y108.508 E6.08521
G1 X105.808 Y108.946 E6.09580
G1 X105.785 Y109.191 E6.10165
G1 X107.241 Y107.735 E6.15063
G1 X107.096 Y108.760 E6.17526
G1 X105.255 Y110.602 E6.23722
G1 X103.978 Y110.998 F7800.000
G1 F4161.89
G1 X105.268 Y109.708 E6.28062
G1 X105.186 Y109.727 E6.28262
G1 X104.906 Y109.706 E6.28930
G1 X104.641 Y109.601 E6.29607
G1 X104.553 Y109.542 E6.29860
G1 X102.546 Y111.549 E6.36614
G1 X102.336 Y111.507 E6.37123
G1 X101.885 Y111.329 E6.38276
G1 X104.004 Y109.210 E6.45408
G1 X103.898 Y109.161 E6.45688
G1 X103.829 Y109.177 E6.45855
G1 X103.367 Y109.408 E6.47084
G1 X103.192 Y109.458 E6.47517
G1 X102.862 Y109.471 E6.48304
G1 X101.341 Y110.992 E6.53420
G1 X101.003 Y110.682 E6.54512
G1 X100.897 Y110.555 E6.54905
G1 X102.308 Y109.144 E6.59652
G1 X102.330 Y108.902 E6.60231
G1 X102.653 Y108.766 E6.61066
G1 X102.757 Y108.678 E6.61389
G1 X102.779 Y108.576 E6.61637
G1 X102.775 Y108.396 E6.62067
G1 X102.725 Y108.202 E6.62542
G1 X102.578 Y107.993 E6.63150
G1 X100.383 Y110.188 E6.70535
G1 X99.899 Y110.144 E6.71693
G1 X99.611 Y110.079 E6.72393
G1 X101.940 Y107.750 E6.80230
G1 X101.688 Y107.695 E6.80845
G1 X101.418 Y107.596 E6.81529
G1 X101.392 Y107.417 E6.81958
G1 X98.890 Y109.919 E6.90377
G1 X98.217 Y109.711 E6.92052
G1 E4.92052 F2400.00000
G92 E0
G1 X105.335 Y101.713 F7800.000
G1 E2.00000 F2400.00000
G1 F4161.89
G1 X108.445 Y98.602 E2.10465
G1 X108.437 Y98.510 E2.10686
G1 X108.400 Y98.398 E2.10968
G1 X108.319 Y98.287 E2.11294
G1 X108.065 Y98.101 E2.12042
G1 X105.876 Y100.290 E2.19408
G1 X105.891 Y99.926 E2.20276
G1 X105.761 Y99.740 E2.20815
G1 X105.635 Y99.650 E2.21183
G1 X107.559 Y97.726 E2.27657
G1 X107.121 Y97.283 E2.29139
G1 X104.968 Y99.437 E2.36385
G1 X104.958 Y99.420 E2.36431
G1 X104.644 Y98.880 E2.37918
G1 X106.745 Y96.778 E2.44990
G1 X106.635 Y96.579 E2.45531
G1 X106.499 Y96.143 E2.46618
G1 X104.358 Y98.285 E2.53825
G1 X104.255 Y97.697 E2.55245
G1 X104.159 Y97.709 E2.55474
G1 X104.145 Y97.616 E2.55697
G1 X106.234 Y95.527 E2.62726
G1 X105.905 Y94.976 E2.64255
G1 X103.950 Y96.931 E2.70835
G1 X103.787 Y96.597 E2.71719
G1 X103.880 Y96.543 E2.71974
G1 X103.735 Y96.265 E2.72719
G1 X105.562 Y94.438 E2.78866
G1 X105.437 Y94.272 E2.79360
G1 X105.417 Y94.301 E2.79444
G1 X105.041 Y94.078 E2.80482
G1 X103.413 Y95.706 E2.85962
G1 X103.163 Y95.075 E2.87577
G1 X104.500 Y93.739 E2.92073
G1 X104.365 Y93.623 E2.92494
G1 X104.172 Y93.352 E2.93287
G1 X104.211 Y93.310 E2.93424
G1 X104.150 Y93.207 E2.93710
G1 X102.936 Y94.422 E2.97797
G1 X102.879 Y94.333 E2.98048
G1 X102.411 Y94.065 E2.99330
G1 X103.984 Y92.492 E3.04623
G1 X103.989 Y92.318 E3.05037
G1 X103.960 Y91.977 E3.05850
G1 X103.900 Y91.696 E3.06536
G1 X101.896 Y93.699 E3.13279
G1 X101.745 Y93.605 E3.13703
G1 X101.560 Y93.523 E3.14183
G1 X101.377 Y93.474 E3.14635
G1 X101.237 Y93.478 E3.14969
G1 X103.562 Y91.152 E3.22795
G1 X103.493 Y91.046 E3.23096
G1 X103.389 Y90.955 E3.23426
G1 X103.357 Y90.790 E3.23824
G1 X103.352 Y90.481 E3.24559
G1 X98.240 Y95.594 E3.41761
G1 X97.767 Y95.499 E3.42908
G1 X97.468 Y95.485 E3.43622
G1 X103.028 Y89.925 E3.62330
G1 X102.811 Y89.711 E3.63055
G1 X102.557 Y89.514 E3.63818
G1 X92.645 Y99.426 E3.97171
G1 X92.555 Y98.999 E3.98211
G1 X92.472 Y98.719 E3.98906
G1 X101.928 Y89.262 E4.30725
G1 X101.793 Y89.257 E4.31048
G1 X101.648 Y89.282 E4.31397
G1 X101.298 Y89.420 E4.32294
G1 X101.000 Y89.612 E4.33136
G1 X100.796 Y89.795 E4.33789
G1 X100.528 Y90.091 E4.34738
G1 X100.222 Y90.325 E4.35656
G1 X99.756 Y90.554 E4.36892
G1 X92.270 Y98.039 E4.62079
G1 X92.197 Y97.795 E4.62688
G1 X92.114 Y97.390 E4.63671
G1 X92.142 Y97.380 E4.63742
G1 X92.126 Y97.303 E4.63930
G1 X98.334 Y91.095 E4.84819
G1 X98.213 Y91.124 E4.85114
G1 X98.233 Y91.184 E4.85264
G1 X97.847 Y91.336 E4.86251
G1 X97.512 Y91.430 E4.87078
G1 X97.048 Y91.500 E4.88194
G1 X91.886 Y96.662 E5.05566
G1 X91.675 Y96.241 E5.06686
G1 X91.551 Y96.116 E5.07105
G1 X93.843 Y93.824 E5.14818
G1 X93.399 Y94.114 E5.16081
G1 X92.343 Y94.443 E5.18712
G1 X91.166 Y95.620 E5.22673
G1 X91.007 Y95.106 E5.23952
G1 X91.878 Y94.908 E5.26077
G1 X94.218 Y93.449 F7800.000
G1 F4161.89
G1 X96.323 Y91.344 E5.33161
G1 Z3.600 F7800.000
G1 X101.375 Y92.566 F7800.000
G1 F4007.8
G1 X101.281 Y92.541 E5.33392
G1 X101.313 Y92.504 E5.33510
G1 X99.374 Y90.565 E5.40033
G1 X99.684 Y90.416 E5.40851
G1 X99.927 Y90.236 E5.41569
G1 X101.718 Y92.027 E5.47595
G1 X101.958 Y91.731 E5.48503
G1 X102.134 Y91.563 E5.49082
G1 X100.409 Y89.838 E5.54887
G1 X100.640 Y89.633 E5.55623
G1 X100.918 Y89.466 E5.56393
G1 X102.641 Y91.189 E5.62193
G1 X103.196 Y90.863 F7800.000
G1 F4007.8
G1 X101.719 Y89.386 E5.67165
G1 X101.975 Y89.494 E5.67828
G1 X102.135 Y89.598 E5.68282
G1 X102.480 Y89.896 E5.69366
G1 X102.737 Y90.194 E5.70304
G1 X102.806 Y90.301 E5.70604
G1 X102.798 Y90.332 E5.70682
G1 X102.731 Y90.398 E5.70905
G1 E3.70905 F2400.00000
G92 E0
G1 X104.058 Y92.606 F7800.000
G1 E2.00000 F2400.00000
G1 F4007.8
G1 X102.788 Y91.336 E2.04272
G1 X102.296 Y91.725 E2.05764
G1 X102.994 Y92.423 E2.08113
G1 X102.545 Y92.792 E2.09495
G1 X102.528 Y92.837 E2.09611
G1 X101.802 Y92.112 E2.12051
G1 X101.544 Y92.265 E2.12764
G1 X100.910 Y92.100 E2.14324
G1 X102.349 Y93.540 E2.19167
G1 X102.330 Y93.723 E2.19605
G1 X102.336 Y93.943 E2.20128
G1 X102.233 Y93.891 E2.20402
G1 X102.000 Y93.819 E2.20982
G1 X101.713 Y93.785 E2.21669
G1 X98.746 Y90.818 E2.31652
G1 X98.249 Y90.984 E2.32899
G1 X98.057 Y91.010 E2.33361
G1 X101.304 Y94.256 E2.44285
G1 X101.267 Y94.322 E2.44463
G1 X101.270 Y94.471 E2.44819
G1 X101.324 Y94.877 E2.45793
G1 X101.344 Y94.884 E2.45842
G1 X101.336 Y95.170 E2.46523
G1 X97.379 Y91.213 E2.59838
G1 X96.771 Y91.282 E2.61294
G1 X96.414 Y91.128 E2.62218
G1 X101.043 Y95.757 E2.77795
G1 X100.600 Y95.838 E2.78865
G1 X100.162 Y95.757 E2.79926
G1 X95.586 Y91.181 E2.95325
G1 X95.122 Y91.598 E2.96809
G1 X99.066 Y95.542 E3.10081
G1 X98.474 Y95.473 E3.11499
G1 X98.102 Y95.459 E3.12385
G1 X94.794 Y92.151 E3.23516
G1 X94.564 Y92.587 E3.24688
G1 X94.456 Y92.694 E3.25050
G1 X97.279 Y95.517 E3.34548
G1 X97.063 Y95.689 E3.35205
G1 X96.970 Y96.088 E3.36178
G1 X97.036 Y96.127 E3.36361
G1 X97.031 Y96.150 E3.36416
G1 X94.096 Y93.215 E3.46291
G1 X94.010 Y93.376 E3.46726
G1 X93.827 Y93.559 E3.47341
G1 X93.755 Y93.755 E3.47838
G1 X97.105 Y97.105 E3.59110
G1 X97.150 Y97.334 E3.59666
G1 X97.510 Y98.391 E3.62323
G1 X93.368 Y94.249 E3.76262
G1 X92.848 Y94.610 E3.77768
G1 X97.839 Y99.601 E3.94564
G1 X97.885 Y99.787 E3.95019
G1 X97.850 Y100.454 E3.96608
G1 X97.813 Y100.456 E3.96696
G1 X92.271 Y94.914 E4.15345
G1 X91.853 Y95.045 E4.16386
G1 X91.582 Y95.106 E4.17047
G1 X97.750 Y101.273 E4.37799
G1 X97.759 Y101.478 E4.38286
G1 X97.737 Y101.591 E4.38561
G1 X97.783 Y102.188 E4.39985
G1 X92.085 Y96.489 E4.59159
G1 X92.104 Y96.581 E4.59383
G1 X92.075 Y96.591 E4.59454
G1 X92.225 Y97.318 E4.61220
G1 X92.307 Y97.593 E4.61902
G1 X101.906 Y107.191 E4.94200
G1 X101.767 Y107.195 E4.94530
G1 X101.397 Y107.505 E4.95679
G1 X101.433 Y107.542 E4.95803
G1 X101.406 Y107.573 E4.95900
G1 X92.644 Y98.810 E5.25384
G1 X92.793 Y99.498 E5.27057
G1 X92.929 Y99.977 E5.28243
G1 X101.157 Y108.204 E5.55927
G1 X101.130 Y108.255 E5.56062
G1 X101.288 Y108.335 E5.56484
G1 X102.236 Y109.283 E5.59674
G1 X101.926 Y109.425 E5.60486
G1 X101.953 Y109.796 E5.61370
G1 X102.269 Y109.920 E5.62178
G1 X102.841 Y110.023 E5.63560
G1 X102.888 Y109.935 E5.63798
G1 X104.113 Y111.160 E5.67919
G1 X103.531 Y111.460 E5.69475
G1 X98.423 Y106.351 E5.86666
G1 X98.425 Y106.417 E5.86824
G1 X98.455 Y106.415 E5.86895
G1 X98.693 Y106.682 E5.87746
G1 X98.688 Y106.968 E5.88425
G1 X98.574 Y107.177 E5.88993
G1 X98.479 Y107.288 E5.89341
G1 X102.613 Y111.422 E6.03251
G1 X102.126 Y111.264 E6.04470
G1 X102.132 Y111.249 E6.04507
G1 X101.750 Y111.037 E6.05546
G1 X101.598 Y110.979 E6.05933
G1 X101.172 Y110.739 E6.07098
G1 X100.957 Y110.647 E6.07654
G1 X97.844 Y107.534 E6.18130
G1 X97.445 Y107.612 E6.19097
G1 X97.160 Y107.731 E6.19832
G1 X99.301 Y109.873 E6.27038
G1 X98.140 Y109.434 E6.29991
G1 X97.843 Y109.295 E6.30771
G1 X96.977 Y108.429 E6.33686
G1 E4.33686 F2400.00000
G92 E0
G1 X98.789 Y106.717 F7800.000
G1 E2.00000 F2400.00000
G1 F4007.8
G1 X93.407 Y101.335 E2.18111
G1 X93.784 Y102.243 E2.20450
G1 X94.238 Y103.047 E2.22646
G1 X95.888 Y104.698 E2.28201
G1 X95.195 Y104.289 E2.30117
G1 X94.896 Y103.855 E2.31371
G1 X94.703 Y103.512 E2.32307
G1 X98.109 Y102.514 F7800.000
G1 F4007.8
G1 X100.348 Y104.752 E2.39839
G1 X100.354 Y104.296 E2.40926
G1 X100.286 Y103.809 E2.42094
G1 X98.725 Y102.249 E2.47346
G1 X98.807 Y102.200 E2.47573
G1 X99.365 Y102.008 E2.48978
G1 X100.183 Y102.826 E2.51730
G1 E0.51730 F2400.00000
G92 E0
G1 X101.906 Y107.191 F7800.000
G1 E2.00000 F2400.00000
G1 F4007.8
G1 X101.966 Y107.190 E2.00143
G1 X102.007 Y107.158 E2.00266
G1 X102.487 Y107.236 E2.01424
G1 X102.866 Y107.270 E2.02328
G1 X100.607 Y105.011 E2.09929
G1 X100.858 Y105.006 E2.10528
G1 X101.409 Y104.932 E2.11849
G1 X105.570 Y109.094 E2.25853
G1 X105.656 Y108.634 E2.26968
G1 X105.623 Y108.485 E2.27330
G1 X105.650 Y108.477 E2.27398
G1 X105.562 Y108.205 E2.28080
G1 X102.063 Y104.706 E2.39854
G1 X102.249 Y104.620 E2.40341
G1 X102.596 Y104.358 E2.41376
G1 X107.062 Y108.824 E2.56403
G1 X107.082 Y108.709 E2.56680
G1 X107.070 Y108.629 E2.56873
G1 X107.181 Y108.062 E2.58247
G1 X103.054 Y103.934 E2.72137
G1 X103.548 Y103.548 E2.73630
G1 X107.270 Y107.270 E2.86156
G1 X107.294 Y106.755 E2.87384
G1 X107.352 Y106.471 E2.88072
G1 X104.028 Y103.147 E2.99257
G1 X104.237 Y102.933 E2.99968
G1 X104.439 Y102.677 E3.00744
G1 X107.602 Y105.840 E3.11389
G1 X107.684 Y105.599 E3.11995
G1 X107.717 Y105.413 E3.12443
G1 X107.715 Y105.227 E3.12888
G1 X107.664 Y105.022 E3.13390
G1 X104.796 Y102.153 E3.23042
G1 X105.139 Y101.616 E3.24560
G1 X107.459 Y103.935 E3.32365
G1 X107.446 Y103.351 E3.33756
G1 X107.334 Y103.321 E3.34031
G1 X107.393 Y102.988 E3.34836
G1 X105.472 Y101.067 E3.41298
G1 X105.673 Y100.710 E3.42273
G1 X105.764 Y100.479 E3.42865
G1 X107.685 Y102.400 E3.49329
G1 X107.752 Y102.296 E3.49623
G1 X107.850 Y102.355 E3.49895
G1 X107.973 Y102.176 E3.50412
G1 X108.078 Y101.911 E3.51089
G1 X105.909 Y99.743 E3.58386
G1 X106.017 Y99.400 E3.59239
G1 X106.061 Y99.014 E3.60165
G1 X108.108 Y101.061 E3.67051
G1 X108.104 Y100.791 E3.67693
G1 X108.166 Y100.481 E3.68446
G1 X108.224 Y100.296 E3.68907
G1 X103.743 Y95.815 E3.83986
G1 X103.648 Y95.637 E3.84466
G1 X103.711 Y95.605 E3.84634
G1 X103.508 Y95.163 E3.85792
G1 X103.424 Y94.918 E3.86407
G1 X103.339 Y94.530 E3.87353
G1 X108.365 Y99.555 E4.04262
G1 X108.406 Y99.247 E4.05003
G1 X108.409 Y98.988 E4.05619
G1 X108.381 Y98.926 E4.05780
G1 X108.317 Y98.862 E4.05995
G1 X107.872 Y98.556 E4.07281
G1 X107.382 Y98.120 E4.08841
G1 X107.091 Y97.802 E4.09866
G1 X106.728 Y97.347 E4.11251
G1 X106.582 Y97.116 E4.11900
G1 X106.453 Y96.762 E4.12797
G1 X103.092 Y93.402 E4.24106
G1 X102.985 Y93.115 E4.24835
G1 X102.894 Y92.764 E4.25697
G1 X102.944 Y92.373 E4.26634
G1 X104.101 Y93.530 E4.30525
G1 X105.556 Y99.389 F7800.000
G1 F4007.8
G1 X105.650 Y99.511 E4.30891
G1 X105.694 Y99.528 E4.31004
G1 X105.091 Y98.924 E4.33035
G1 X104.532 Y97.987 E4.35630
G1 X104.351 Y97.570 E4.36713
G1 X104.309 Y97.585 E4.36819
G1 X104.233 Y97.186 E4.37785
G1 X106.492 Y99.445 E4.45386
G1 E2.45386 F2400.00000
G92 E0
G1 X106.945 Y109.588 F7800.000
G1 E2.00000 F2400.00000
G1 F4007.8
G1 X106.067 Y108.710 E2.02953
G1 X106.067 Y108.753 E2.03054
G1 X105.893 Y108.769 E2.03469
G1 X105.871 Y108.921 E2.03834
G1 X105.734 Y108.912 E2.04160
G1 X105.716 Y108.955 E2.04271
G1 X105.841 Y109.153 E2.04827
G1 X105.728 Y109.252 E2.05185
G1 X106.524 Y110.048 E2.07864
G1 X106.433 Y110.134 E2.08163
G1 X105.999 Y110.404 E2.09378
G1 X105.215 Y109.619 E2.12018
G1 X105.124 Y109.678 E2.12275
G1 X105.101 Y109.628 E2.12407
G1 X104.720 Y109.727 E2.13343
G1 X104.410 Y109.695 E2.14087
G1 X105.378 Y110.663 E2.17344
G1 X104.709 Y110.875 E2.19013
G1 X103.216 Y109.382 E2.24037
G1 X102.870 Y109.510 E2.24914
G1 X102.833 Y109.428 E2.25129
G1 X102.727 Y109.458 E2.25391
G1 X102.423 Y109.470 E2.26115
G1 Z3.900 F7800.000
G1 X103.471 Y107.981 F7800.000
G1 F3979.86
G1 X105.284 Y106.168 E2.32215
G1 X105.210 Y106.049 E2.32549
G1 X105.109 Y105.462 E2.33966
G1 X102.968 Y107.604 E2.41172
G1 X102.709 Y107.532 E2.41810
G1 X102.214 Y107.476 E2.42995
G1 E0.42995 F2400.00000
G92 E0
G1 X104.698 Y109.397 F7800.000
G1 E2.00000 F2400.00000
G1 F3979.86
G1 X105.782 Y108.313 E2.03647
G1 X105.674 Y108.090 E2.04236
G1 X105.542 Y107.672 E2.05280
G1 E0.05280 F2400.00000
G92 E0
G1 X105.570 Y110.286 F7800.000
G1 E2.00000 F2400.00000
G1 F3979.86
G1 X107.182 Y108.674 E2.05425
G1 X107.172 Y108.564 E2.05687
G1 X107.087 Y108.286 E2.06379
G1 X107.086 Y108.178 E2.06637
G1 X107.046 Y108.043 E2.06971
G1 X107.073 Y107.903 E2.07311
G1 X106.305 Y108.671 E2.09895
G1 X106.292 Y108.544 E2.10198
G1 X106.101 Y108.298 E2.10939
G1 X105.934 Y108.161 E2.11454
G1 X107.243 Y106.851 E2.15861
G1 X107.242 Y106.212 E2.17383
G1 X107.292 Y105.922 E2.18081
G1 X105.604 Y107.610 E2.23759
G1 X105.586 Y107.574 E2.23855
G1 X105.037 Y107.766 E2.25237
G1 X105.103 Y108.100 E2.26049
G1 X105.070 Y108.115 E2.26134
G1 X105.077 Y108.137 E2.26188
G1 X104.232 Y108.982 E2.29032
G1 X104.045 Y108.777 E2.29692
G1 X104.007 Y108.806 E2.29806
G1 X103.835 Y108.498 E2.30646
G1 X107.634 Y104.699 E2.43428
G1 X107.400 Y104.052 E2.45065
G1 X105.482 Y105.970 E2.51521
G1 X105.454 Y105.780 E2.51979
G1 X105.377 Y105.577 E2.52494
G1 X105.245 Y105.326 E2.53170
G1 X107.369 Y103.202 E2.60317
G1 X107.362 Y102.971 E2.60867
G1 X107.248 Y102.958 E2.61140
G1 X107.267 Y102.545 E2.62124
G1 X107.298 Y102.392 E2.62494
G1 X102.214 Y107.476 E2.79600
G1 X101.809 Y107.377 E2.80592
G1 X101.470 Y107.339 E2.81404
G1 X108.056 Y100.754 E3.03565
G1 X108.040 Y100.472 E3.04236
G1 X108.058 Y100.213 E3.04855
G1 X108.200 Y99.729 E3.06054
G1 X98.436 Y109.492 E3.38906
G1 X97.966 Y109.299 E3.40115
G1 X97.799 Y109.249 E3.40532
G1 X101.420 Y105.627 E3.52717
G1 X101.327 Y105.636 E3.52940
G1 X100.949 Y105.602 E3.53843
G1 X100.753 Y105.414 E3.54489
G1 X98.633 Y107.533 E3.61621
G1 X98.688 Y107.433 E3.61894
G1 X98.693 Y107.147 E3.62573
G1 X98.455 Y106.881 E3.63424
G1 X98.425 Y106.883 E3.63494
G1 X98.425 Y106.861 E3.63545
G1 X100.403 Y104.882 E3.70204
G1 X100.184 Y104.633 E3.70993
G1 X100.182 Y104.222 E3.71970
G1 X97.851 Y106.553 E3.79813
G1 X97.760 Y106.542 E3.80033
G1 X97.573 Y106.475 E3.80505
G1 X97.393 Y106.377 E3.80992
G1 X97.266 Y106.258 E3.81407
G1 X100.104 Y103.419 E3.90957
G1 X100.078 Y103.160 E3.91579
G1 X99.959 Y102.684 E3.92746
G1 X96.812 Y105.831 E4.03333
G1 X96.346 Y105.415 E4.04818
G1 X98.327 Y103.435 E4.11482
G1 X98.279 Y103.464 E4.11615
G1 X97.766 Y103.314 E4.12888
G1 X97.545 Y103.400 E4.13451
G1 X97.515 Y103.366 E4.13559
G1 X95.862 Y105.019 E4.19120
G1 X95.353 Y104.647 E4.20620
G1 X97.254 Y102.746 E4.27014
G1 X97.306 Y102.400 E4.27848
G1 X97.266 Y101.853 E4.29153
G1 X94.832 Y104.287 E4.37343
G1 X94.521 Y103.718 E4.38888
G1 X97.550 Y100.688 E4.49082
G1 X97.535 Y100.405 E4.49757
G1 X97.623 Y100.099 E4.50514
G1 X97.697 Y99.660 E4.51573
G1 X94.118 Y103.239 E4.63616
G1 X93.819 Y102.709 E4.65065
G1 X93.804 Y102.672 E4.65158
G1 X97.776 Y98.700 E4.78524
G1 X97.606 Y97.989 E4.80263
G1 X93.545 Y102.050 E4.93928
G1 X93.286 Y101.428 E4.95531
G1 X97.378 Y97.337 E5.09299
G1 X97.148 Y96.686 E5.10942
G1 X93.057 Y100.776 E5.24707
G1 X92.861 Y100.091 E5.26403
G1 X96.979 Y95.973 E5.40259
G1 X96.964 Y95.889 E5.40462
G1 X96.993 Y95.614 E5.41120
G1 X96.958 Y95.597 E5.41213
G1 X97.003 Y95.069 E5.42474
G1 X92.697 Y99.375 E5.56965
G1 X92.605 Y98.952 E5.57994
G1 X92.521 Y98.670 E5.58695
G1 X101.825 Y89.366 E5.90001
G1 X101.669 Y89.389 E5.90375
G1 X101.379 Y89.509 E5.91123
G1 X101.050 Y89.732 E5.92068
G1 X100.195 Y90.430 E5.94695
G1 X99.868 Y90.592 E5.95562
G1 X99.645 Y90.665 E5.96121
G1 X92.319 Y97.991 E6.20774
G1 X92.253 Y97.772 E6.21318
G1 X92.151 Y97.278 E6.22519
G1 X98.404 Y91.025 E6.43558
G1 X98.230 Y91.019 E6.43970
G1 X97.854 Y91.047 E6.44867
G1 X97.675 Y91.016 E6.45301
G1 X97.579 Y90.969 E6.45554
G1 X92.026 Y96.522 E6.64240
G1 X91.993 Y96.363 E6.64626
G1 X91.855 Y96.101 E6.65331
G1 X92.097 Y96.026 E6.65933
G1 X93.217 Y95.219 E6.69217
G1 X93.502 Y94.987 E6.70093
G1 X93.743 Y94.335 E6.71747
G1 X93.719 Y94.317 E6.71820
G1 X93.851 Y93.960 E6.72724
G1 X94.022 Y93.645 E6.73577
G1 X97.060 Y90.607 E6.83802
G1 X97.023 Y90.566 E6.83933
G1 X96.855 Y90.550 E6.84334
G1 X96.445 Y90.341 E6.85430
G1 X95.605 Y91.181 E6.88256
G1 X95.900 Y90.777 E6.89445
G1 X95.980 Y90.806 E6.89648
G1 X101.611 Y92.223 F7800.000
G1 F3979.86
G1 X101.671 Y92.529 E6.90390
G1 X102.295 Y92.302 E6.91972
G1 X103.081 Y91.634 E6.94424
G1 X102.057 Y92.658 E6.97869
G1 X101.421 Y94.174 F7800.000
G1 F3979.86
G1 X102.330 Y93.266 E7.00928
G1 X102.354 Y92.968 E7.01638
G1 X102.218 Y92.920 E7.01979
G1 X102.339 Y92.537 E7.02935
G1 X102.500 Y92.214 E7.03793
G1 X99.087 Y95.627 E7.15277
G1 X98.539 Y95.543 E7.16596
G1 X98.301 Y95.532 E7.17162
G1 X101.611 Y92.223 E7.28298
G1 X101.598 Y92.158 E7.28454
G1 X101.285 Y92.077 E7.29224
G1 X101.976 Y91.249 E7.31790
G1 X102.284 Y90.956 E7.32801
G1 X102.729 Y90.669 E7.34062
G1 X103.123 Y90.452 E7.35132
G1 X103.242 Y90.356 E7.35496
G1 X103.171 Y90.217 E7.35867
G1 X102.971 Y89.982 E7.36601
G1 X97.529 Y95.424 E7.54914
G1 X97.420 Y95.423 E7.55171
G1 X97.047 Y95.203 E7.56201
G1 X96.568 Y95.504 E7.57548
G1 X102.498 Y89.574 E7.77503
G1 X102.360 Y89.489 E7.77889
G1 X102.137 Y89.396 E7.78463
G1 X102.004 Y89.366 E7.78788
G1 X101.825 Y89.366 E7.79214
G1 E5.79214 F2400.00000
G92 E0
G1 X103.986 Y91.609 F7800.000
G1 E2.00000 F2400.00000
G1 F3979.86
G1 X103.326 Y92.269 E2.02220
G1 X103.331 Y92.345 E2.02401
G1 X103.275 Y92.519 E2.02835
G1 X103.173 Y92.705 E2.03341
G1 X103.136 Y92.888 E2.03783
G1 X103.011 Y93.199 E2.04583
G1 X103.001 Y93.475 E2.05240
G1 X103.995 Y92.481 E2.08586
G1 X103.866 Y92.914 E2.09661
G1 X103.897 Y93.222 E2.10398
G1 X103.956 Y93.401 E2.10846
G1 X103.252 Y94.105 E2.13217
G1 X103.426 Y94.476 E2.14193
G1 X103.507 Y94.731 E2.14829
G1 X104.339 Y93.900 E2.17629
G1 X104.442 Y94.002 E2.17975
G1 X104.831 Y94.288 E2.19124
G1 X103.601 Y95.519 E2.23263
G1 X103.743 Y95.942 E2.24326
G1 X103.684 Y95.966 E2.24477
G1 X103.804 Y96.196 E2.25094
G1 X105.386 Y94.614 E2.30418
G1 X105.767 Y94.840 E2.31472
G1 X105.879 Y95.002 E2.31941
G1 X104.047 Y96.834 E2.38105
G1 X104.247 Y97.515 E2.39794
G1 X106.188 Y95.573 E2.46326
G1 X106.300 Y95.892 E2.47130
G1 X106.389 Y96.254 E2.48016
G1 X104.429 Y98.214 E2.54612
G1 X104.459 Y98.283 E2.54791
G1 X104.506 Y98.252 E2.54927
G1 X104.825 Y98.698 E2.56232
G1 X106.666 Y96.857 E2.62427
G1 X107.057 Y97.348 E2.63918
G1 X105.147 Y99.258 E2.70345
G1 E0.70345 F2400.00000
G92 E0
G1 X105.430 Y101.617 F7800.000
G1 E2.00000 F2400.00000
G1 F3979.86
G1 X108.367 Y98.681 E2.09881
G1 X108.371 Y98.651 E2.09952
G1 X108.358 Y98.558 E2.10175
G1 X108.328 Y98.512 E2.10306
G1 X107.940 Y98.227 E2.11452
G1 X105.922 Y100.244 E2.18241
G1 X105.968 Y100.021 E2.18783
G1 X106.078 Y99.710 E2.19568
G1 X106.152 Y99.569 E2.19948
G1 X106.285 Y99.416 E2.20429
G1 X107.169 Y98.629 E2.23246
G1 X107.136 Y98.592 E2.23363
G1 X107.268 Y98.522 E2.23717
G1 X107.475 Y98.692 E2.24354
G1 E0.24354 F2400.00000
G92 E0
G1 X100.309 Y95.286 F7800.000
G1 E2.00000 F2400.00000
G1 F3979.86
G1 X100.483 Y95.325 E2.00425
G1 X100.937 Y95.262 E2.01515
G1 X101.138 Y95.214 E2.02006
G1 X101.246 Y95.157 E2.02297
G1 X101.291 Y95.080 E2.02509
G1 X101.355 Y94.871 E2.03030
G1 X101.305 Y94.860 E2.03152
G1 X101.340 Y94.565 E2.03858
G1 X101.348 Y94.305 E2.04476
G1 X101.370 Y94.226 E2.04673
G1 X99.844 Y95.752 E2.09808
G1 E0.09808 F2400.00000
G92 E0
G1 X99.098 Y107.068 F7800.000
G1 E2.00000 F2400.00000
G1 F3979.86
G1 X98.979 Y107.264 E2.00546
G1 X98.745 Y107.452 E2.01260
G1 X98.704 Y107.463 E2.01361
G1 X97.273 Y108.893 E2.06175
G1 X98.436 Y109.492 F7800.000
G1 F3979.86
G1 X98.818 Y109.755 E2.07278
G1 X98.784 Y109.809 E2.07429
G1 X98.923 Y109.887 E2.07806
G1 X101.255 Y107.555 E2.15653
G1 X101.148 Y107.798 E2.16285
G1 X101.161 Y107.805 E2.16321
G1 X101.141 Y107.832 E2.16401
G1 X101.100 Y108.312 E2.17548
G1 X101.368 Y108.322 E2.18186
G1 X99.466 Y110.224 E2.24586
G1 X99.746 Y110.431 E2.25414
G1 X99.776 Y110.390 E2.25536
G1 X100.033 Y110.538 E2.26242
G1 X102.000 Y108.571 E2.32861
G1 X101.990 Y108.677 E2.33113
G1 X101.922 Y108.864 E2.33587
G1 X101.831 Y109.023 E2.34023
G1 X101.909 Y109.543 E2.35275
G1 X100.545 Y110.907 E2.39864
G1 X100.923 Y111.080 E2.40854
G1 X101.183 Y111.150 E2.41494
G1 X102.793 Y109.540 E2.46911
G1 X103.097 Y109.549 E2.47635
G1 X103.341 Y109.517 E2.48220
G1 X103.441 Y109.477 E2.48478
G1 X103.466 Y109.548 E2.48658
G1 X103.745 Y109.469 E2.49347
G1 X101.866 Y111.348 E2.55667
G1 X102.282 Y111.443 E2.56682
G1 X102.465 Y111.508 E2.57144
G1 X102.587 Y111.508 E2.57434
G1 X104.482 Y109.613 E2.63810
G1 X104.599 Y109.677 E2.64127
G1 X104.925 Y109.749 E2.64922
G1 X105.233 Y109.743 E2.65655
G1 X103.962 Y111.014 E2.69932
G1 E0.69932 F2400.00000
G92 E0
G1 X98.133 Y103.045 F7800.000
G1 E2.00000 F2400.00000
G1 F994.966
G1 X98.627 Y102.550 E2.02060
G1 X97.913 Y102.283 F7800.000
G1 F994.966
G1 X97.418 Y102.777 E2.04121
G1 Z4.200 F7800.000
G1 X97.246 Y102.370 F7800.000
G1 F1109.8
G1 X96.752 Y101.876 E2.06384
G1 X97.212 Y103.389 F7800.000
G1 F1109.8
G1 X95.871 Y102.048 E2.12526
G1 X95.986 Y102.514 E2.14079
G1 X96.387 Y103.502 E2.17532
G1 X96.810 Y104.040 E2.19747
G1 X97.304 Y104.535 E2.22010
G1 X98.077 Y104.255 F7800.000
G1 F1109.8
G1 X97.197 Y103.374 E2.26040
G1 X97.282 Y103.341 E2.26335
G1 X97.820 Y103.480 E2.28134
G1 X97.583 Y103.760 E2.29322
G1 X99.004 Y103.561 F7800.000
G1 F1109.8
G1 X98.953 Y103.591 E2.29512
G1 X99.008 Y103.566 E2.29708
G1 X98.509 Y103.067 E2.31994
G1 X98.959 Y102.796 E2.33693
G1 X99.254 Y102.733 E2.34669
G1 X99.748 Y103.227 E2.36933
G1 E0.36933 F2400.00000
G92 E0
G1 X102.181 Y105.898 F7800.000
G1 E2.00000 F2400.00000
G1 F1109.8
G1 X101.687 Y105.404 E2.02264
G1 X101.226 Y105.624 E2.03917
G1 X100.869 Y105.657 E2.05077
G1 X102.217 Y107.005 E2.11250
G1 X102.167 Y107.118 E2.11649
G1 X102.120 Y107.352 E2.12420
G1 X102.046 Y107.438 E2.12790
G1 X101.678 Y107.487 E2.13989
G1 X101.620 Y107.478 E2.14180
G1 X101.092 Y106.952 E2.16592
G1 X102.774 Y107.178 F7800.000
G1 F4439.2
G1 X102.627 Y107.651 E2.17769
G1 X102.891 Y107.740 E2.18434
G1 X103.367 Y107.771 E2.19568
G1 X102.309 Y106.713 E2.23129
G1 X102.348 Y106.593 E2.23430
G1 X102.349 Y106.525 E2.23592
G1 X102.300 Y105.824 E2.25265
G1 X105.613 Y109.137 E2.36414
G1 X105.770 Y109.001 E2.36907
G1 X105.864 Y108.947 E2.37167
G1 X105.761 Y108.630 E2.37960
G1 X105.642 Y108.422 E2.38530
G1 X105.596 Y108.239 E2.38981
G1 X102.410 Y105.053 E2.49701
G1 X102.636 Y104.696 E2.50705
G1 X102.783 Y104.545 E2.51207
G1 X105.648 Y107.410 E2.60847
G1 X106.048 Y107.301 E2.61834
G1 X106.293 Y107.826 E2.63213
G1 X106.378 Y107.911 E2.63500
G1 X106.780 Y108.142 E2.64602
G1 X106.938 Y108.290 E2.65117
G1 X107.024 Y108.436 E2.65520
G1 X106.999 Y108.353 E2.65725
G1 X107.100 Y108.306 E2.65990
G1 X107.091 Y108.095 E2.66492
G1 X107.112 Y107.993 E2.66739
G1 X105.425 Y106.306 E2.72417
G1 X105.586 Y105.892 E2.73473
G1 X105.473 Y105.827 E2.73784
G1 X105.495 Y105.599 E2.74330
G1 X105.485 Y105.529 E2.74497
G1 X105.518 Y105.518 E2.74579
G1 X107.234 Y107.234 E2.80353
G1 X107.198 Y106.727 E2.81563
G1 X107.217 Y106.336 E2.82494
G1 X104.088 Y103.207 E2.93020
G1 X104.338 Y102.925 E2.93916
G1 X104.485 Y102.723 E2.94511
G1 X107.480 Y105.718 E3.04588
G1 X107.586 Y105.422 E3.05336
G1 X107.607 Y105.260 E3.05724
G1 X107.591 Y105.096 E3.06116
G1 X107.493 Y104.850 E3.06747
G1 X104.812 Y102.169 E3.15769
G1 X105.147 Y101.623 E3.17293
G1 X107.292 Y103.768 E3.24511
G1 X107.264 Y103.300 E3.25628
G1 X107.162 Y103.289 E3.25873
G1 X107.167 Y102.950 E3.26678
G1 X107.198 Y102.793 E3.27059
G1 X105.470 Y101.065 E3.32874
G1 X105.675 Y100.692 E3.33888
G1 X105.756 Y100.470 E3.34449
G1 X107.594 Y102.309 E3.40635
G1 X107.671 Y102.261 E3.40849
G1 X107.687 Y102.279 E3.40908
G1 X107.797 Y102.156 E3.41300
G1 X107.930 Y101.935 E3.41913
G1 X107.971 Y101.804 E3.42240
G1 X105.935 Y99.769 E3.49089
G1 X106.016 Y99.426 E3.49927
G1 X106.077 Y99.248 E3.50374
G1 X106.153 Y99.106 E3.50759
G1 X107.975 Y100.927 E3.56888
G1 X107.971 Y100.817 E3.57151
G1 X108.007 Y100.598 E3.57679
G1 X108.117 Y100.189 E3.58688
G1 X106.597 Y98.668 E3.63804
G1 X107.067 Y98.258 E3.65289
G1 X108.259 Y99.450 E3.69301
G1 E1.69301 F2400.00000
G92 E0
G1 X104.839 Y97.792 F7800.000
G1 E2.00000 F2400.00000
G1 F4439.2
G1 X104.920 Y98.077 E2.00705
G1 X105.034 Y98.308 E2.01319
G1 X105.109 Y98.255 E2.01537
G1 X105.364 Y98.610 E2.02576
G1 X105.547 Y98.913 E2.03420
G1 X105.457 Y98.972 E2.03675
G1 X105.591 Y99.219 E2.04344
G1 X105.720 Y99.299 E2.04704
G1 X105.986 Y98.939 E2.05769
G1 X104.374 Y97.327 E2.11194
G1 X104.000 Y96.072 E2.14309
G1 X106.434 Y98.506 E2.22500
G1 X106.913 Y98.104 E2.23988
G1 X103.786 Y94.977 E2.34509
G1 X103.811 Y94.634 E2.35328
G1 X103.775 Y94.302 E2.36123
G1 X103.666 Y94.037 E2.36804
G1 X103.552 Y93.862 E2.37301
G1 X106.341 Y96.651 E2.46686
G1 X106.250 Y96.270 E2.47617
G1 X106.162 Y96.025 E2.48238
G1 X105.970 Y95.655 E2.49230
G1 X105.823 Y95.423 E2.49882
G1 X105.809 Y95.447 E2.49947
G1 X105.376 Y95.211 E2.51121
G1 X104.925 Y94.917 E2.52402
G1 X104.969 Y94.846 E2.52601
G1 X104.590 Y94.580 E2.53702
G1 X104.300 Y94.314 E2.54639
G1 X104.245 Y94.362 E2.54812
G1 X103.984 Y94.125 E2.55650
G1 X103.944 Y94.067 E2.55818
G1 X103.858 Y93.917 E2.56229
G1 X103.726 Y93.614 E2.57016
G1 X103.697 Y93.260 E2.57861
G1 X103.717 Y93.145 E2.58138
G1 X103.095 Y92.524 E2.60227
G1 X103.136 Y92.422 E2.60489
G1 X103.173 Y92.240 E2.60931
G1 X103.275 Y92.054 E2.61437
G1 X103.330 Y91.878 E2.61874
G1 X103.987 Y92.535 E2.64084
G1 X103.373 Y91.921 F7800.000
G1 F4439.2
G1 X102.874 Y91.422 E2.65762
G1 X102.394 Y91.822 E2.67250
G1 X102.877 Y92.306 E2.68877
G1 X102.495 Y92.690 E2.70167
G1 X102.457 Y92.767 E2.70370
G1 X101.917 Y92.227 E2.72187
G1 X101.830 Y92.302 E2.72460
G1 X101.303 Y92.494 E2.73795
G1 X102.266 Y93.456 E2.77034
G1 X102.251 Y93.620 E2.77424
G1 X102.321 Y94.393 E2.79272
G1 X98.736 Y90.807 E2.91337
G1 X98.500 Y90.869 E2.91916
G1 X98.181 Y90.904 E2.92680
G1 X98.014 Y90.817 E2.93129
G1 X97.835 Y90.787 E2.93562
G1 X101.709 Y94.661 E3.06598
G1 X101.580 Y94.709 E3.06924
G1 X101.470 Y94.960 E3.07577
G1 X101.387 Y95.221 E3.08227
G1 X95.895 Y89.740 E3.26689
G1 X95.570 Y90.284 E3.28197
G1 X101.015 Y95.729 E3.46519
G1 X100.498 Y95.823 E3.47770
G1 X100.183 Y95.778 E3.48527
G1 X95.287 Y90.882 E3.65002
G1 X94.901 Y91.377 E3.66495
G1 X99.127 Y95.603 E3.80714
G1 X98.427 Y95.505 E3.82397
G1 X98.008 Y95.365 E3.83447
G1 X94.637 Y91.994 E3.94790
G1 X94.393 Y92.631 E3.96414
G1 X97.055 Y95.293 E4.05370
G1 X96.955 Y95.353 E4.05647
G1 X96.910 Y95.882 E4.06911
G1 X96.969 Y95.916 E4.07072
G1 X96.954 Y96.073 E4.07447
G1 X94.216 Y93.336 E4.16659
G1 X94.185 Y93.500 E4.17057
G1 X93.957 Y93.737 E4.17841
G1 X93.822 Y93.822 E4.18220
G1 X97.204 Y97.204 E4.29601
G1 X97.351 Y97.642 E4.30700
G1 X97.644 Y98.283 E4.32378
G1 X97.704 Y98.584 E4.33108
G1 X93.573 Y94.454 E4.47005
G1 X93.351 Y95.016 E4.48441
G1 X93.298 Y95.059 E4.48606
G1 X97.734 Y99.495 E4.63533
G1 X97.528 Y100.171 E4.65213
G1 X92.807 Y95.450 E4.81099
G1 X92.299 Y95.823 E4.82598
G1 X97.365 Y100.889 E4.99646
G1 X97.347 Y100.984 E4.99876
G1 X97.259 Y101.135 E5.00291
G1 X97.014 Y101.419 E5.01184
G1 X92.123 Y96.527 E5.17644
G1 X92.281 Y97.295 E5.19509
G1 X92.396 Y97.682 E5.20469
G1 X95.839 Y101.125 E5.32055
G1 X95.602 Y101.243 E5.32685
G1 X95.657 Y101.824 E5.34072
G1 X92.879 Y99.046 E5.43420
G1 X92.991 Y99.437 E5.44389
G1 X93.324 Y100.371 E5.46748
G1 X95.818 Y102.866 E5.55142
G1 X95.896 Y103.179 E5.55910
G1 X96.336 Y104.264 E5.58695
G1 X94.058 Y101.986 E5.66359
G1 X94.175 Y102.238 E5.67021
G1 X94.467 Y102.733 E5.68388
G1 X95.016 Y103.825 E5.71294
G1 X97.090 Y105.899 E5.78275
G1 X95.681 Y104.658 E5.82743
G1 X95.481 Y104.290 E5.83741
G1 X96.736 Y104.664 F7800.000
G1 F4439.2
G1 X101.722 Y109.651 E6.00520
G1 X101.634 Y109.311 E6.01355
G1 X101.587 Y109.209 E6.01622
G1 X101.510 Y109.142 E6.01865
G1 X101.409 Y109.103 E6.02122
G1 X101.125 Y109.039 E6.02816
G1 X101.041 Y108.703 E6.03639
G1 X101.111 Y108.643 E6.03859
G1 X101.141 Y108.297 E6.04685
G1 X101.161 Y108.271 E6.04764
G1 X101.130 Y108.255 E6.04847
G1 X101.157 Y108.204 E6.04983
G1 X97.419 Y104.466 E6.17561
G1 X97.737 Y104.535 E6.18336
G1 X98.027 Y104.193 E6.19402
G1 X100.204 Y106.370 E6.26727
G1 X100.179 Y106.172 E6.27203
G1 X100.147 Y106.078 E6.27438
G1 X100.094 Y105.636 E6.28497
G1 X100.027 Y105.312 E6.29284
G1 X98.458 Y103.744 E6.34562
G1 X98.502 Y103.718 E6.34683
G1 X98.662 Y103.683 E6.35074
G1 X99.085 Y103.489 E6.36179
G1 X99.851 Y104.256 E6.38759
G1 X98.015 Y106.824 F7800.000
G1 F4439.2
G1 X96.625 Y105.434 E6.43435
G1 E4.43435 F2400.00000
G92 E0
G1 X98.428 Y108.118 F7800.000
G1 E2.00000 F2400.00000
G1 F4439.2
G1 X98.413 Y108.124 E2.00038
G1 X98.471 Y108.161 E2.00202
G1 X97.962 Y107.653 E2.01914
G1 X98.038 Y107.621 E2.02109
G1 X97.949 Y107.523 E2.02424
G1 X98.042 Y107.519 E2.02645
G1 X98.279 Y107.452 E2.03232
G1 X98.479 Y107.288 E2.03846
G1 X102.568 Y111.377 E2.17606
G1 X102.882 Y111.415 E2.18358
G1 X103.355 Y111.435 E2.19485
G1 X103.483 Y111.411 E2.19794
G1 X101.664 Y109.592 E2.25915
G1 X101.780 Y109.524 E2.26237
G1 X101.966 Y109.572 E2.26695
G1 X102.198 Y109.603 E2.27251
G1 X102.572 Y109.619 E2.28141
G1 X104.160 Y111.207 E2.33483
G1 X104.707 Y110.874 E2.35009
G1 X103.298 Y109.465 E2.39750
G1 X103.507 Y109.438 E2.40251
G1 X104.137 Y109.688 E2.41865
G1 X104.451 Y109.736 E2.42619
G1 X105.319 Y110.605 E2.45542
G1 X105.612 Y110.459 E2.46320
G1 X105.886 Y110.291 E2.47086
G1 X105.197 Y109.602 E2.49405
G1 X105.507 Y109.423 E2.50256
G1 X105.734 Y109.257 E2.50924
G1 X106.428 Y109.951 E2.53259
G1 X106.724 Y109.743 E2.54121
G1 X106.928 Y109.571 E2.54757
G1 X106.204 Y108.847 E2.57195
G1 X106.373 Y108.660 E2.57794
G1 X106.544 Y108.332 E2.58674
G1 X106.541 Y108.303 E2.58743
G1 X107.138 Y108.900 E2.60752
G1 E0.60752 F2400.00000
G92 E0
G1 X105.065 Y109.469 F7800.000
G1 E2.00000 F2400.00000
G1 F4439.2
G1 X104.118 Y108.523 E2.03185
G1 X103.871 Y108.082 E2.04389
G1 X103.740 Y107.899 E2.04922
G1 X103.554 Y107.699 E2.05573
G1 X103.388 Y107.560 E2.06087
G1 X103.032 Y107.333 E2.07093
G1 X102.902 Y107.306 E2.07409
G1 X105.890 Y106.771 F7800.000
G1 F4439.2
G1 X105.821 Y106.949 E2.07863
G1 X105.497 Y106.976 E2.08636
G1 X105.162 Y106.554 E2.09918
G1 X105.207 Y106.499 E2.10087
G1 X105.122 Y106.003 E2.11285
G1 X103.230 Y104.111 E2.17650
G1 X103.530 Y103.810 E2.18661
G1 X103.478 Y103.753 E2.18846
G1 X103.628 Y103.628 E2.19311
G1 X105.087 Y105.087 E2.24222
G1 E0.24222 F2400.00000
G92 E0
G1 X101.641 Y111.331 F7800.000
G1 E2.00000 F2400.00000
G1 F4439.2
G1 X98.189 Y107.879 E2.11615
G1 X97.728 Y108.273 E2.13058
G1 X97.732 Y108.303 E2.13131
G1 X98.364 Y108.935 E2.15257
G1 X98.299 Y108.921 E2.15417
G1 X98.205 Y108.819 E2.15747
G1 X98.197 Y108.769 E2.15867
G1 E0.15867 F2400.00000
G92 E0
G1 X101.768 Y92.959 F7800.000
G1 E2.00000 F2400.00000
G1 F4439.2
G1 X101.671 Y92.994 E2.00246
G1 X101.638 Y92.829 E2.00646
G1 X99.379 Y90.569 E2.08250
G1 X99.384 Y90.542 E2.08316
G1 X99.788 Y90.399 E2.09336
G1 X99.956 Y90.266 E2.09846
G1 X101.763 Y92.073 E2.15925
G1 X102.181 Y91.610 E2.17409
G1 X100.435 Y89.864 E2.23283
G1 X100.795 Y89.583 E2.24370
G1 X100.952 Y89.500 E2.24792
G1 X102.619 Y91.167 E2.30403
G1 X103.129 Y90.796 F7800.000
G1 F4439.2
G1 X101.806 Y89.473 E2.34854
G1 X102.171 Y89.720 E2.35901
G1 X102.392 Y89.922 E2.36613
G1 X102.723 Y90.295 E2.37799
G1 X102.664 Y90.331 E2.37965
M106 S242.25
G1 Z4.500 F7800.000
G1 X103.245 Y91.469 F7800.000
G1 F4800
G1 X102.611 Y92.103 E2.40099
G1 X102.309 Y93.286 F7800.000
G1 F4800
G1 X102.387 Y94.000 E2.41807
G1 X102.335 Y94.142 E2.42167
G1 X101.323 Y95.153 E2.45570
G1 X101.292 Y95.184 F7800.000
G1 F4800
G1 X101.351 Y95.151 E2.45731
G1 X101.507 Y94.969 E2.46303
G1 X100.827 Y95.650 E2.48594
G1 X101.127 Y95.349 F7800.000
G1 F4800
G1 X101.718 Y94.758 E2.50582
G1 X101.663 Y94.833 E2.50803
G1 X101.593 Y94.884 E2.51010
G1 E0.51010 F2400.00000
G92 E0
G1 X96.852 Y95.219 F7800.000
G1 E2.00000 F2400.00000
G1 F4800
G1 X96.849 Y95.253 E2.00081
G1 X96.917 Y95.292 E2.00269
G1 X96.874 Y95.734 E2.01324
G1 X96.959 Y95.993 E2.01974
G1 X93.188 Y99.764 E2.14662
G1 X93.417 Y100.417 E2.16308
G1 X94.050 Y99.784 E2.18437
G1 X94.101 Y99.635 E2.18811
G1 X94.309 Y99.316 E2.19719
G1 X94.773 Y98.800 E2.21368
G1 X94.882 Y98.952 E2.21812
G1 X97.180 Y96.654 E2.29545
G1 X97.448 Y97.266 E2.31136
G1 X95.260 Y99.455 E2.38500
G1 X95.594 Y99.849 E2.39732
G1 X95.675 Y99.920 E2.39987
G1 X97.679 Y97.916 E2.46731
G1 X97.732 Y98.351 E2.47774
G1 X97.561 Y98.915 E2.49177
G1 X96.140 Y100.336 E2.53957
G1 X94.515 Y99.319 F7800.000
G1 F4800
G1 X94.472 Y99.445 E2.54275
G1 X94.354 Y100.360 E2.56470
G1 X93.657 Y101.057 E2.58816
G1 E0.58816 F2400.00000
G92 E0
G1 X104.905 Y98.619 F7800.000
G1 E2.00000 F2400.00000
G1 F4800
G1 X106.639 Y96.885 E2.05834
G1 X106.445 Y96.513 E2.06831
G1 X106.370 Y96.273 E2.07431
G1 X104.556 Y98.087 E2.13536
G1 X104.475 Y97.916 E2.13986
G1 X104.317 Y97.445 E2.15169
G1 X106.162 Y95.600 E2.21377
G1 X106.008 Y95.318 E2.22141
G1 X105.755 Y95.126 E2.22896
G1 X104.113 Y96.768 E2.28421
G1 X104.023 Y96.415 E2.29288
G1 X103.905 Y96.095 E2.30099
G1 X105.229 Y94.771 E2.34555
G1 X105.218 Y94.764 E2.34586
G1 X105.268 Y94.678 E2.34823
G1 X105.030 Y94.526 E2.35496
G1 X104.783 Y94.336 E2.36237
G1 X104.048 Y95.071 E2.38710
G1 X104.040 Y94.848 E2.39240
G1 X103.881 Y94.510 E2.40129
G1 X103.801 Y94.437 E2.40386
G1 X104.300 Y93.938 E2.42066
G1 X103.984 Y93.660 E2.43068
G1 X103.875 Y93.482 E2.43564
G1 X103.317 Y94.040 E2.45441
G1 X103.251 Y93.962 E2.45685
G1 X103.133 Y93.740 E2.46281
G1 X103.037 Y93.439 E2.47034
G1 X103.700 Y92.776 E2.49263
G1 X103.758 Y92.535 E2.49853
G1 X103.976 Y92.113 E2.50983
G1 X103.996 Y92.038 E2.51168
G1 X104.001 Y91.845 E2.51626
G1 X103.963 Y91.632 E2.52142
G1 X103.379 Y92.217 E2.54109
G1 X103.400 Y91.932 E2.54787
G1 X103.001 Y91.875 E2.55746
G1 X102.840 Y91.935 E2.56154
G1 X102.160 Y92.564 E2.58359
G1 X102.059 Y92.674 E2.58715
G1 X101.870 Y93.159 E2.59952
G1 X101.850 Y93.268 E2.60216
G1 X101.844 Y93.751 E2.61367
G1 X99.731 Y95.865 E2.68477
G1 X98.978 Y95.737 E2.70294
G1 X102.966 Y91.749 E2.83713
G1 X102.690 Y91.960 E2.84540
G1 X102.493 Y92.056 E2.85061
G1 X102.456 Y92.093 E2.85185
G1 X102.447 Y92.216 E2.85479
G1 X102.295 Y92.302 E2.85894
G1 X101.671 Y92.529 E2.87475
G1 X101.611 Y92.223 E2.88217
G1 X98.250 Y95.583 E2.99526
G1 X97.729 Y95.416 E3.00829
G1 X97.611 Y95.342 E3.01160
G1 X102.913 Y90.040 E3.19001
G1 X102.571 Y89.709 E3.20133
G1 X102.452 Y89.619 E3.20487
G1 X97.128 Y94.943 E3.38401
G1 X97.052 Y94.876 E3.38645
G1 X96.800 Y94.969 E3.39283
G1 X96.438 Y95.176 E3.40274
G1 X96.387 Y95.685 E3.41491
G1 X92.994 Y99.078 E3.52909
G1 X92.790 Y98.401 E3.54592
G1 X101.875 Y89.316 E3.85162
G1 X101.743 Y89.327 E3.85478
G1 X101.525 Y89.392 E3.86019
G1 X101.227 Y89.562 E3.86837
G1 X100.592 Y90.052 E3.88742
G1 X100.624 Y90.107 E3.88893
G1 X100.256 Y90.398 E3.90009
G1 X99.910 Y90.531 E3.90890
G1 X99.753 Y90.556 E3.91268
G1 X92.574 Y97.736 E4.15427
G1 X92.460 Y97.131 E4.16891
G1 X92.615 Y96.814 E4.17733
G1 X94.037 Y95.392 E4.22518
G1 X94.117 Y95.336 E4.22748
G1 X94.135 Y95.293 E4.22860
G1 X98.909 Y90.520 E4.38923
G1 X98.375 Y90.173 E4.40438
G1 X94.411 Y94.137 E4.53777
G1 X94.530 Y93.507 E4.55302
G1 X94.681 Y92.986 E4.56594
G1 X97.841 Y89.826 E4.67227
G1 X97.302 Y89.484 E4.68746
G1 X94.960 Y91.826 E4.76624
G1 X95.089 Y91.536 E4.77379
G1 X95.695 Y90.369 E4.80507
G1 X95.871 Y90.121 E4.81231
G1 X96.476 Y89.766 E4.82899
G1 X96.836 Y89.950 E4.83862
G1 E2.83862 F2400.00000
G92 E0
G1 X94.719 Y99.774 F7800.000
G1 E2.00000 F2400.00000
G1 F1200
G1 X95.214 Y99.279 E2.01960
G1 X95.642 Y99.785 E2.03818
G1 X94.470 Y100.958 E2.08466
G1 X95.087 Y101.275 F7800.000
G1 F1200
G1 X95.028 Y100.658 E2.10202
G1 X95.388 Y100.973 E2.11543
G1 X96.139 Y100.223 E2.14518
G1 X96.618 Y100.677 E2.16370
G1 X95.887 Y101.409 E2.19271
G1 X95.581 Y100.780 F7800.000
G1 F1200
G1 X94.619 Y101.742 E2.23083
G1 X94.759 Y102.537 E2.25345
G1 X95.662 Y101.634 E2.28924
G1 X95.695 Y101.985 E2.29913
G1 X95.804 Y102.426 E2.31185
G1 X94.669 Y103.561 E2.35685
G1 X94.981 Y104.182 E2.37635
G1 X96.042 Y103.122 E2.41838
G1 X96.311 Y103.787 E2.43849
G1 X95.309 Y104.789 E2.47820
G1 X95.513 Y105.153 E2.48991
G1 X95.704 Y105.328 E2.49717
G1 X96.717 Y104.315 E2.53733
G1 X96.970 Y104.657 E2.54926
G1 X97.272 Y104.694 E2.55779
G1 X96.184 Y105.782 E2.60093
G1 X96.717 Y106.183 E2.61963
G1 X99.232 Y103.668 E2.71934
G1 X99.755 Y103.432 E2.73543
G1 X99.822 Y103.718 E2.74366
G1 X99.851 Y103.984 E2.75115
G1 X97.077 Y106.757 E2.86111
G1 X97.258 Y107.062 E2.87104
G1 X97.290 Y107.048 E2.87204
G1 X97.416 Y107.352 E2.88127
G1 X100.006 Y104.763 E2.98394
G1 X100.002 Y104.842 E2.98616
G1 X100.072 Y105.163 E2.99537
G1 X100.122 Y105.581 E3.00716
G1 X97.752 Y107.951 E3.10114
G1 X97.836 Y108.032 E3.10442
G1 X98.281 Y108.316 E3.11921
G1 X97.755 Y108.768 E3.13864
G1 X97.763 Y108.819 E3.14008
G1 X97.789 Y108.848 E3.14118
G1 X100.352 Y106.284 E3.24279
G1 X100.616 Y106.673 E3.25596
G1 X100.744 Y106.827 E3.26156
G1 X98.408 Y109.163 E3.35418
G1 X98.748 Y109.386 E3.36557
G1 X98.955 Y109.550 E3.37298
G1 X101.120 Y107.385 E3.45878
G1 X101.328 Y107.580 E3.46679
G1 X101.640 Y107.631 E3.47565
G1 X101.820 Y107.619 E3.48071
G1 X101.277 Y108.162 E3.50225
G1 X100.923 Y108.516 F7800.000
G1 F1200
G1 X99.478 Y109.961 E3.55954
G1 X99.679 Y110.147 E3.56721
G1 X99.903 Y110.470 E3.57823
G1 X101.587 Y108.786 E3.64499
G1 X101.707 Y109.199 E3.65703
G1 X101.768 Y109.320 E3.66082
G1 X101.885 Y109.422 E3.66519
G1 X100.241 Y111.066 E3.73033
G1 X100.327 Y111.176 E3.73424
G1 X100.609 Y111.402 E3.74439
G1 X100.762 Y111.479 E3.74919
G1 X102.553 Y109.688 E3.82018
G1 X102.899 Y109.725 E3.82994
G1 X103.091 Y109.720 E3.83532
G1 X103.334 Y109.696 E3.84217
G1 X103.526 Y109.649 E3.84772
G1 X101.731 Y111.444 E3.91889
G1 X102.082 Y111.332 E3.92922
G1 X102.219 Y111.307 E3.93310
G1 X102.471 Y111.305 E3.94018
G1 X102.777 Y111.333 E3.94878
G1 X104.440 Y109.670 E4.01471
G1 X104.779 Y109.738 E4.02442
G1 X105.180 Y109.745 E4.03567
G1 X105.324 Y109.719 E4.03978
G1 X104.127 Y110.916 E4.08725
G1 X104.711 Y109.399 F7800.000
G1 F1200
G1 X105.966 Y108.144 E4.13700
G1 X105.912 Y108.100 E4.13894
G1 X105.883 Y108.116 E4.13988
G1 X105.640 Y107.814 E4.15074
G1 X105.572 Y107.603 E4.15694
G1 X105.447 Y106.794 F7800.000
G1 F1200
G1 X107.572 Y104.669 E4.24117
G1 X107.538 Y104.492 E4.24622
G1 X107.310 Y103.997 E4.26151
G1 X105.566 Y105.741 E4.33066
G1 X105.498 Y105.505 E4.33753
G1 X105.432 Y105.358 E4.34206
G1 X105.317 Y105.130 E4.34922
G1 X105.275 Y105.098 E4.35070
G1 X107.170 Y103.203 E4.42586
G1 X107.139 Y102.780 E4.43774
G1 X107.146 Y102.293 E4.45140
G1 X102.371 Y107.068 E4.64071
G1 X102.320 Y106.184 E4.66552
G1 X107.895 Y100.610 E4.88651
G1 X107.880 Y100.169 E4.89888
G1 X107.991 Y99.580 E4.91568
G1 X104.780 Y102.791 E5.04299
G1 X104.837 Y102.665 E5.04687
G1 X105.377 Y101.749 E5.07667
G1 X105.548 Y101.381 E5.08807
G1 X105.659 Y101.202 E5.09397
G1 X105.789 Y100.848 E5.10454
G1 X108.136 Y98.500 E5.19760
G1 X107.637 Y98.084 E5.21583
G1 X106.059 Y99.643 E5.27801
G1 X106.147 Y99.464 E5.28361
G1 X106.363 Y99.229 E5.29255
G1 X106.847 Y98.846 E5.30986
G1 X106.838 Y98.834 E5.31029
G1 X107.027 Y98.675 E5.31723
G1 X108.136 Y98.500 F7800.000
G1 F1200
G1 X108.220 Y98.567 E5.32025
G1 X108.236 Y98.610 E5.32151
G1 X108.217 Y98.770 E5.32605
G1 X108.023 Y99.548 E5.34851
G1 X107.528 Y100.042 E5.36812
G1 E3.36812 F2400.00000
G92 E0
G1 X105.096 Y105.277 F7800.000
G1 E2.00000 F2400.00000
G1 F1200
G1 X102.435 Y107.939 E2.10551
G1 X102.511 Y107.989 E2.10808
G1 X102.349 Y108.325 E2.11854
G1 X102.603 Y108.492 E2.12706
G1 X102.704 Y108.603 E2.13127
G1 X105.223 Y106.084 E2.23112
G1 X105.245 Y106.220 E2.23498
G1 X105.589 Y106.653 E2.25046
G1 X103.465 Y108.777 E2.33467
G1 X103.760 Y109.002 E2.34509
G1 X103.978 Y109.198 E2.35329
G1 X105.078 Y108.098 E2.39690
G1 X105.018 Y107.796 E2.40551
G1 X104.982 Y107.407 E2.41647
G1 X105.577 Y107.250 E2.43374
G1 X105.691 Y107.485 E2.44105
G1 X107.115 Y106.060 E2.49752
G1 X107.179 Y106.385 E2.50681
G1 X107.197 Y106.687 E2.51528
G1 X107.181 Y106.928 E2.52206
G1 X106.108 Y108.001 E2.56460
G1 X106.327 Y108.130 E2.57172
G1 X106.488 Y108.281 E2.57790
G1 X106.587 Y108.456 E2.58356
G1 X107.158 Y107.886 E2.60616
G1 X107.364 Y108.102 E2.61454
G1 X107.464 Y108.272 E2.62007
G1 X107.484 Y108.367 E2.62279
G1 X107.473 Y108.415 E2.62418
G1 X107.328 Y108.379 E2.62839
G1 X107.321 Y108.657 E2.63619
G1 X106.824 Y109.153 E2.65586
G1 E0.65586 F2400.00000
G92 E0
G1 X94.343 Y102.953 F7800.000
G1 E2.00000 F2400.00000
G1 F1200
G1 X95.183 Y102.113 E2.03332
G1 X94.663 Y101.698 E2.05195
G1 X94.025 Y102.337 E2.07727
G1 X93.832 Y101.924 E2.09005
G1 X94.169 Y102.192 E2.10214
M106 S229.5
G1 Z4.800 F7800.000
G1 E0.10214 F2400.00000
G92 E0
G1 X97.479 Y105.909 F7800.000
G1 E2.00000 F2400.00000
G1 F1200
G1 X97.483 Y105.647 E2.00726
G1 X97.716 Y105.598 E2.01387
G1 X97.888 Y105.394 E2.02126
G1 X100.657 Y108.163 E2.12985
G1 X100.559 Y107.945 E2.13647
G1 X100.296 Y107.507 E2.15065
G1 X100.264 Y107.374 E2.15443
G1 X99.963 Y106.649 E2.17620
G1 X100.024 Y106.649 E2.17788
G1 X100.006 Y106.588 E2.17964
G1 X98.290 Y104.872 E2.24696
G1 X98.457 Y104.655 E2.25454
G1 X98.717 Y104.510 E2.26281
G1 X98.772 Y104.430 E2.26551
G1 X99.785 Y105.442 E2.30522
G1 E0.30522 F2400.00000
G92 E0
G1 X102.343 Y109.848 F7800.000
G1 E2.00000 F2400.00000
G1 F1200
G1 X102.554 Y109.844 E2.00588
G1 X102.857 Y109.788 E2.01443
G1 X102.862 Y109.804 E2.01487
G1 X103.139 Y109.721 E2.02290
G1 X104.455 Y111.037 E2.07451
G1 X104.694 Y110.816 E2.08352
G1 X104.975 Y110.632 E2.09284
G1 X104.089 Y109.747 E2.12756
G1 X104.386 Y109.769 E2.13582
G1 X104.976 Y109.710 E2.15227
G1 X105.570 Y110.303 E2.17556
G1 X105.771 Y110.146 E2.18264
G1 X106.121 Y109.930 E2.19404
G1 X105.601 Y109.410 E2.21444
G1 X105.939 Y109.067 E2.22779
G1 X106.072 Y108.957 E2.23258
G1 X106.699 Y109.584 E2.25716
G1 X107.136 Y109.280 E2.27191
G1 X107.233 Y109.193 E2.27552
G1 X106.561 Y108.522 E2.30188
