; generated by Slic3r 1.3.0 on 2020-12-02 at 13:03:39

; external perimeters extrusion width = 0.55mm (6.64mm^3/s)
; perimeters extrusion width = 0.52mm (12.53mm^3/s)
; infill extrusion width = 0.52mm (16.71mm^3/s)
; solid infill extrusion width = 0.52mm (4.18mm^3/s)
; top infill extrusion width = 0.52mm (3.13mm^3/s)

M107
M104 S205 ; set temperature
G28 ; home all axes
G1 Z5 F5000 ; lift nozzle

; Filament gcode

M109 S205 ; set temperature and wait for it to be reached
G21 ; set units to millimeters
G90 ; use absolute coordinates
M82 ; use absolute distances for extrusion
G92 E0
G1 Z0.500 F7800.000
G1 E-2.00000 F2400.00000
G92 E0
G1 X92.479 Y87.584 F7800.000
G1 E2.00000 F2400.00000
G1 F1800
G1 X91.235 Y88.829 E2.11116
G1 X91.304 Y89.311 E2.14189
G1 X91.343 Y89.459 E2.15158
G1 X92.949 Y87.853 E2.29497
G1 X93.240 Y88.025 E2.31634
G1 X93.381 Y88.159 E2.32861
G1 X91.566 Y89.974 E2.49068
G1 X91.812 Y90.466 E2.52542
G1 X93.741 Y88.538 E2.69764
G1 X94.103 Y88.914 E2.73062
G1 X92.068 Y90.949 E2.91237
G1 X92.331 Y91.425 E2.94668
G1 X94.446 Y89.309 E3.13559
G1 X94.794 Y89.699 E3.16862
G1 X92.581 Y91.913 E3.36629
G1 X92.814 Y92.418 E3.40144
G1 X95.155 Y90.077 E3.61052
G1 X95.527 Y90.443 E3.64349
G1 X93.049 Y92.921 E3.86475
G1 X93.333 Y93.376 E3.89861
G1 X95.891 Y90.818 E4.12707
G1 X96.215 Y91.233 E4.16028
G1 X93.621 Y93.827 E4.39192
G1 X93.911 Y94.274 E4.42563
G1 X96.539 Y91.647 E4.66028
G1 X96.848 Y92.076 E4.69368
G1 X94.222 Y94.702 E4.92819
G1 X94.540 Y95.123 E4.96148
G1 X97.150 Y92.512 E5.19460
G1 X97.436 Y92.965 E5.22839
G1 X94.868 Y95.533 E5.45777
G1 X95.211 Y95.929 E5.49082
G1 X97.717 Y93.422 E5.71467
G1 X97.991 Y93.886 E5.74872
G1 X95.575 Y96.303 E5.96449
G1 X95.961 Y96.655 E5.99749
G1 X98.223 Y94.393 E6.19945
G1 X98.427 Y94.928 E6.23557
G1 X96.351 Y97.004 E6.42096
G1 X96.732 Y97.361 E6.45395
G1 X98.641 Y95.452 E6.62442
G1 X98.870 Y95.961 E6.65970
G1 X97.102 Y97.729 E6.81758
G1 X97.287 Y97.913 E6.83406
G1 X97.497 Y98.072 E6.85070
G1 X99.100 Y96.469 E6.99385
G1 X99.165 Y96.613 E7.00380
G1 X99.241 Y96.961 E7.02629
G1 X99.241 Y97.067 E7.03297
G1 X96.414 Y99.894 E7.28546
G1 X95.788 Y99.781 F7800.000
G1 F1800
G1 X97.590 Y97.980 E7.44636
G1 X97.466 Y97.886 E7.45618
G1 X97.136 Y97.695 E7.48024
G1 X95.150 Y99.681 E7.65754
G1 X94.482 Y99.610 E7.69995
G1 X96.669 Y97.424 E7.89519
G1 X96.215 Y97.139 E7.92901
G1 X93.833 Y99.521 E8.14171
G1 X93.426 Y99.447 E8.16784
G1 X93.228 Y99.388 E8.18088
G1 X95.774 Y96.842 E8.40819
G1 X95.319 Y96.558 E8.44203
G1 X92.662 Y99.216 E8.67933
G1 X92.097 Y99.042 E8.71663
G1 X94.844 Y96.295 E8.96194
G1 X94.325 Y96.076 E8.99754
G1 X91.551 Y98.850 E9.24524
G1 X91.023 Y98.639 E9.28112
G1 X93.815 Y95.847 E9.53043
G1 X93.286 Y95.638 E9.56637
G1 X90.498 Y98.426 E9.81531
G1 X90.231 Y98.323 E9.83341
G1 X89.986 Y98.200 E9.85070
G1 X92.738 Y95.448 E10.09647
G1 X92.179 Y95.268 E10.13353
G1 X89.520 Y97.927 E10.37101
G1 X89.052 Y97.657 E10.40514
G1 X91.614 Y95.095 E10.63391
G1 X90.993 Y94.978 E10.67381
G1 X88.568 Y97.402 E10.89034
G1 X88.076 Y97.156 E10.92510
G1 X90.363 Y94.870 E11.12931
G1 X89.761 Y94.733 E11.16829
G1 X87.587 Y96.907 E11.36240
G1 X87.104 Y96.651 E11.39690
G1 X89.164 Y94.591 E11.58087
G1 X88.552 Y94.465 E11.62033
G1 X86.653 Y96.364 E11.78993
G1 X86.386 Y96.106 E11.81335
G1 X86.305 Y95.974 E11.82318
G1 X87.947 Y94.332 E11.96980
G1 X87.795 Y94.314 E11.97945
G1 X87.551 Y94.324 E11.99483
G1 X87.167 Y94.373 E12.01932
G1 X85.902 Y95.638 E12.13224
G1 X85.850 Y95.592 E12.13661
G1 X85.833 Y95.358 E12.15145
G1 X85.851 Y95.254 E12.15811
G1 X85.916 Y95.097 E12.16886
G1 X86.017 Y94.960 E12.17961
G1 X86.092 Y94.905 E12.18550
G1 X86.144 Y94.894 E12.18886
G1 X86.381 Y94.907 E12.20386
G1 X86.657 Y94.883 E12.22132
G1 E10.22132 F2400.00000
G92 E0
G1 X87.326 Y102.337 F7800.000
G1 E2.00000 F2400.00000
G1 F1800
G1 X85.376 Y104.286 E2.17411
G1 X85.456 Y104.457 E2.18602
G1 X85.503 Y104.516 E2.19078
G1 X85.641 Y104.568 E2.20006
G1 X85.817 Y104.584 E2.21124
G1 X88.568 Y101.833 E2.45693
G1 X89.517 Y101.428 E2.52210
G1 X89.895 Y101.245 E2.54857
G1 X86.459 Y104.680 E2.85536
G1 X86.764 Y104.733 E2.87492
G1 X87.192 Y104.685 E2.90212
G1 X91.059 Y100.818 E3.24743
G1 X91.910 Y100.548 E3.30383
G1 X92.114 Y100.502 E3.31701
G1 X88.036 Y104.580 E3.68121
G1 X88.896 Y104.459 E3.73607
G1 X93.059 Y100.295 E4.10785
G1 X93.744 Y100.158 E4.15194
G1 X93.957 Y100.135 E4.16550
G1 X89.729 Y104.364 E4.54314
G1 X90.536 Y104.295 E4.59429
G1 X94.748 Y100.083 E4.97049
G1 X95.504 Y100.066 E5.01821
G1 X91.484 Y104.085 E5.37715
G1 X91.950 Y103.988 E5.40716
G1 X92.465 Y103.843 E5.44098
G1 X96.298 Y100.010 E5.78327
G1 X96.733 Y99.964 E5.81090
G1 X97.060 Y99.986 E5.83159
G1 X93.561 Y103.485 E6.14408
G1 X94.042 Y103.325 E6.17606
G1 X94.857 Y102.928 E6.23331
G1 X101.136 Y96.649 E6.79403
G1 X100.999 Y96.858 E6.80979
G1 X101.049 Y97.107 E6.82580
G1 X101.305 Y97.219 E6.84344
G1 X99.335 Y99.188 E7.01930
G1 X98.864 Y99.659 F7800.000
G1 F1800
G1 X96.371 Y102.153 E7.24200
G1 X96.689 Y102.004 E7.26418
G1 X96.913 Y101.845 E7.28157
G1 X97.170 Y101.521 E7.30762
G1 X97.434 Y101.510 E7.32433
G1 X97.578 Y101.684 E7.33857
G1 X99.054 Y100.207 E7.47039
G1 X99.208 Y100.368 E7.48442
G1 X99.486 Y100.514 E7.50424
G1 X91.408 Y108.592 E8.22555
G1 X90.498 Y109.997 E8.33125
G1 X90.295 Y110.382 E8.35877
G1 X90.274 Y110.465 E8.36416
G1 X100.170 Y100.568 E9.24793
G1 X100.546 Y100.562 E9.27164
G1 X100.950 Y100.526 E9.29729
G1 X98.785 Y102.692 E9.49068
G1 X98.828 Y102.649 F7800.000
G1 F1800
G1 X89.992 Y111.485 E10.27972
G1 X90.008 Y111.560 E10.28462
G1 X90.086 Y111.692 E10.29424
G1 X90.159 Y111.777 E10.30133
G1 X90.328 Y111.887 E10.31408
G1 X98.052 Y104.163 E11.00385
G1 X97.671 Y104.960 E11.05963
G1 X97.346 Y105.525 E11.10077
G1 X97.114 Y105.840 E11.12547
G1 X91.434 Y111.519 E11.63266
G1 E9.63266 F2400.00000
G92 E0
G1 X92.696 Y106.566 F7800.000
G1 E2.00000 F2400.00000
G1 F1800
G1 X96.413 Y102.848 E2.33199
G1 X97.542 Y101.929 E2.42391
G1 X97.703 Y101.830 E2.43586
G1 X97.860 Y101.773 E2.44642
G1 X98.039 Y101.745 E2.45780
G1 X98.277 Y101.500 E2.47942
G1 X98.194 Y101.360 E2.48969
G1 X98.188 Y101.319 E2.49232
G1 X98.088 Y101.174 E2.50343
G1 X97.078 Y99.969 F7800.000
G1 F1800
G1 X101.465 Y95.582 E2.89520
G1 X101.827 Y94.481 E2.96835
G1 X99.244 Y97.064 E3.19903
G1 X99.216 Y97.015 E3.20263
G1 X99.156 Y96.753 E3.21959
G1 X99.127 Y96.443 E3.23924
G1 X102.111 Y93.458 E3.50578
G1 X102.242 Y92.590 E3.56124
G1 X99.063 Y95.769 E3.84512
G1 X98.979 Y95.113 E3.88682
G1 X102.349 Y91.744 E4.18772
G1 X102.404 Y90.951 E4.23793
G1 X98.880 Y94.474 E4.55261
G1 X98.814 Y93.802 E4.59528
G1 X102.442 Y90.174 E4.91922
G1 X102.440 Y89.838 E4.94048
G1 X102.404 Y89.473 E4.96360
G1 X98.835 Y93.043 E5.28235
G1 X98.865 Y92.274 E5.33092
G1 X102.340 Y88.799 E5.64126
G1 X102.310 Y88.091 E5.68600
G1 X98.934 Y91.467 E5.98750
G1 X99.038 Y90.624 E6.04112
G1 X102.295 Y87.368 E6.33195
G1 X102.252 Y86.672 E6.37594
G1 X99.233 Y89.691 E6.64553
G1 X99.375 Y89.205 E6.67754
G1 X99.485 Y88.700 E6.71015
G1 X102.174 Y86.011 E6.95027
G1 X102.158 Y85.925 E6.95583
G1 X101.970 Y85.478 E6.98647
G1 X99.681 Y87.767 E7.19087
G1 X99.898 Y86.811 E7.25276
G1 X101.772 Y84.937 E7.42010
G1 E5.42010 F2400.00000
G92 E0
G1 X108.068 Y88.978 F7800.000
G1 E2.00000 F2400.00000
G1 F1800
G1 X107.817 Y89.120 E2.01825
G1 X107.721 Y89.202 E2.02620
G1 X107.080 Y89.761 E2.07988
G1 X105.850 Y90.906 E2.18601
G1 X105.049 Y91.566 E2.25155
G1 X104.864 Y91.750 E2.26805
G1 X104.397 Y92.272 E2.31224
G1 X104.342 Y92.356 E2.31862
G1 X104.278 Y92.400 E2.32352
G1 X103.867 Y92.856 E2.36226
G1 X102.843 Y94.203 E2.46910
G1 X108.578 Y88.468 E2.98120
G1 X109.095 Y88.254 E3.01652
G1 X109.410 Y88.053 E3.04012
G1 X109.512 Y88.052 E3.04659
G1 X109.668 Y88.117 E3.05725
G1 X101.933 Y95.852 E3.74802
G1 X101.281 Y97.002 E3.83150
G1 X101.224 Y97.136 E3.84067
G1 X101.167 Y97.356 E3.85504
G1 X110.011 Y88.512 E4.64480
G1 X110.016 Y88.565 E4.64813
G1 X109.874 Y88.923 E4.67248
G1 X109.760 Y89.444 E4.70613
G1 X109.717 Y89.545 E4.71307
G1 X100.091 Y99.171 E5.57268
G1 X100.161 Y99.181 E5.57717
G1 X100.421 Y99.286 E5.59486
G1 X100.600 Y99.400 E5.60826
G1 X108.592 Y91.408 E6.32196
G1 X108.184 Y92.052 E6.37011
G1 X107.734 Y92.857 E6.42839
G1 X107.508 Y93.183 E6.45340
G1 X107.289 Y93.449 E6.47518
G1 X103.557 Y97.181 E6.80841
G1 X102.499 Y98.240 F7800.000
G1 F1800
G1 X100.980 Y99.758 E6.94402
G1 X101.059 Y99.860 E6.95217
G1 X101.121 Y100.004 E6.96207
G1 X101.145 Y100.165 E6.97236
G1 X101.117 Y100.360 E6.98475
G1 X103.620 Y97.857 E7.20823
G1 X104.520 Y97.424 E7.27130
G1 X105.138 Y97.078 E7.31602
G1 X98.859 Y103.356 E7.87672
G1 X98.726 Y103.667 E7.89808
G1 X98.523 Y104.431 E7.94795
G1 X102.981 Y99.973 E8.34604
G1 X103.146 Y100.101 E8.35924
G1 X103.579 Y100.113 E8.38658
G1 X100.746 Y102.946 E8.63955
G1 X100.783 Y103.223 E8.65720
G1 X100.841 Y103.440 E8.67137
G1 X100.888 Y103.543 E8.67851
G1 X102.493 Y101.937 E8.82190
G1 X102.653 Y102.051 E8.83431
G1 X102.888 Y102.281 E8.85504
G1 X101.121 Y104.048 E9.01284
G1 X101.350 Y104.557 E9.04811
G1 X103.259 Y102.648 E9.21861
G1 X103.640 Y103.005 E9.25160
G1 X101.566 Y105.080 E9.43686
G1 X101.768 Y105.616 E9.47306
G1 X104.031 Y103.353 E9.67520
G1 X104.238 Y103.522 E9.69208
G1 X104.418 Y103.704 E9.70824
G1 X102.002 Y106.120 E9.92397
G1 X102.280 Y106.581 E9.95795
G1 X104.794 Y104.067 E10.18249
G1 X105.123 Y104.476 E10.21565
G1 X102.562 Y107.037 E10.44435
G1 X102.845 Y107.493 E10.47821
G1 X105.452 Y104.886 E10.71101
G1 X105.770 Y105.306 E10.74430
G1 X103.142 Y107.934 E10.97894
G1 X103.459 Y108.355 E11.01224
G1 X106.081 Y105.734 E11.24637
G1 X106.373 Y106.180 E11.28005
G1 X103.776 Y108.777 E11.51196
G1 X104.102 Y109.189 E11.54515
G1 X106.663 Y106.628 E11.77387
G1 X106.945 Y107.084 E11.80775
G1 X104.466 Y109.563 E12.02915
G1 X104.838 Y109.930 E12.06212
G1 X107.177 Y107.590 E12.27102
G1 X107.411 Y108.096 E12.30615
G1 X105.196 Y110.310 E12.50391
G1 X105.545 Y110.700 E12.53693
G1 X107.664 Y108.581 E12.72616
G1 X107.919 Y109.064 E12.76066
G1 X105.893 Y111.090 E12.94155
G1 X106.252 Y111.470 E12.97454
G1 X108.173 Y109.548 E13.14612
G1 X108.425 Y110.035 E13.18071
G1 X106.613 Y111.846 E13.34249
G1 X106.878 Y112.066 E13.36420
G1 X107.046 Y112.152 E13.37614
G1 X108.650 Y110.548 E13.51933
G1 X108.754 Y111.182 E13.55990
G1 X107.508 Y112.428 E13.67118
G1 E11.67118 F2400.00000
G92 E0
G1 X112.826 Y105.634 F7800.000
G1 E2.00000 F2400.00000
G1 F1800
G1 X114.097 Y104.363 E2.11346
G1 X113.704 Y104.017 E2.14650
G1 X112.057 Y105.665 E2.29363
G1 X111.810 Y105.635 E2.30934
G1 X111.438 Y105.545 E2.33348
G1 X113.337 Y103.646 E2.50301
G1 X113.122 Y103.491 E2.51976
G1 X112.881 Y103.363 E2.53694
G1 X110.830 Y105.414 E2.72012
G1 X110.231 Y105.275 E2.75894
G1 X112.403 Y103.103 E2.95286
G1 X111.919 Y102.849 E2.98738
G1 X109.629 Y105.139 E3.19189
G1 X109.001 Y105.029 E3.23219
G1 X111.426 Y102.604 E3.44876
G1 X110.941 Y102.350 E3.48331
G1 X108.380 Y104.911 E3.71200
G1 X107.821 Y104.732 E3.74908
G1 X110.474 Y102.079 E3.98603
G1 X110.003 Y101.811 E4.02023
G1 X107.251 Y104.563 E4.26595
G1 X106.705 Y104.371 E4.30251
G1 X109.495 Y101.580 E4.55167
G1 X108.968 Y101.369 E4.58753
G1 X106.179 Y104.159 E4.83664
G1 X105.663 Y103.936 E4.87210
G1 X108.442 Y101.157 E5.12026
G1 X107.896 Y100.965 E5.15682
G1 X105.149 Y103.712 E5.40213
G1 X104.671 Y103.451 E5.43651
G1 X107.330 Y100.793 E5.67394
G1 X106.841 Y100.644 E5.70622
G1 X106.762 Y100.622 E5.71139
G1 X104.219 Y103.165 E5.93843
G1 X103.776 Y102.870 E5.97206
G1 X106.154 Y100.492 E6.18439
G1 X105.510 Y100.397 E6.22545
G1 X103.322 Y102.585 E6.42087
G1 X102.856 Y102.312 E6.45495
G1 X104.844 Y100.324 E6.63249
G1 X104.207 Y100.224 E6.67326
G1 X102.401 Y102.030 E6.83453
G1 X102.140 Y101.806 E6.85624
G1 X101.934 Y101.838 E6.86943
G1 X101.800 Y101.961 E6.88091
G1 X101.709 Y102.183 E6.89605
G1 X101.731 Y102.207 E6.89813
G1 X101.701 Y102.279 E6.90308
G1 X101.984 Y102.447 E6.92381
G1 E4.92381 F2400.00000
G92 E0
G1 X98.523 Y104.431 F7800.000
G1 E2.00000 F2400.00000
G1 F1800
G1 X98.302 Y105.160 E2.04814
G1 X98.171 Y105.521 E2.07239
G1 X100.752 Y102.940 E2.30291
G1 X100.837 Y103.245 E2.32290
G1 X100.867 Y103.563 E2.34310
G1 X97.885 Y106.545 E2.60943
G1 X97.756 Y107.413 E2.66482
G1 X100.934 Y104.235 E2.94861
G1 X101.008 Y104.899 E2.99079
G1 X97.647 Y108.260 E3.29093
G1 X97.623 Y108.433 E3.30198
G1 X97.594 Y109.052 E3.34111
G1 X101.113 Y105.532 E3.65541
G1 X101.171 Y106.213 E3.69852
G1 X97.560 Y109.824 E4.02100
G1 X97.563 Y110.277 E4.04963
G1 X97.590 Y110.532 E4.06583
G1 X101.152 Y106.970 E4.38393
G1 X101.150 Y107.120 E4.39340
G1 X101.121 Y107.739 E4.43255
G1 X97.652 Y111.208 E4.74234
G1 X97.689 Y111.911 E4.78674
G1 X101.056 Y108.543 E5.08747
G1 X100.952 Y109.386 E5.14111
G1 X97.713 Y112.624 E5.43029
G1 X97.741 Y113.335 E5.47520
G1 X100.756 Y110.320 E5.74445
G1 X100.597 Y110.878 E5.78113
G1 X100.504 Y111.310 E5.80900
G1 X97.829 Y113.986 E6.04796
G1 X97.865 Y114.138 E6.05786
G1 X97.932 Y114.269 E6.06716
G1 X98.024 Y114.528 E6.08452
G1 X100.313 Y112.239 E6.28893
G1 X100.099 Y113.192 E6.35061
G1 X98.227 Y115.064 E6.51777
G1 E4.51777 F2400.00000
G92 E0
G1 X105.138 Y97.078 F7800.000
G1 E2.00000 F2400.00000
G1 F1800
G1 X105.896 Y96.705 E2.05333
G1 X106.427 Y96.527 E2.08871
G1 X102.932 Y100.021 E2.40077
G1 X103.044 Y100.043 E2.40796
G1 X103.247 Y100.045 E2.42078
G1 X103.685 Y100.007 E2.44853
G1 X107.526 Y96.166 E2.79150
G1 X108.264 Y95.965 E2.83980
G1 X108.510 Y95.921 E2.85558
G1 X104.482 Y99.948 E3.21524
G1 X105.239 Y99.929 E3.26307
G1 X109.458 Y95.711 E3.63982
G1 X109.954 Y95.654 E3.67136
G1 X110.266 Y95.641 E3.69107
G1 X106.039 Y99.868 E4.06856
G1 X106.345 Y99.835 E4.08799
G1 X106.938 Y99.708 E4.12626
G1 X111.097 Y95.548 E4.49770
G1 X111.955 Y95.429 E4.55238
G1 X107.882 Y99.502 E4.91606
G1 X108.933 Y99.189 E4.98529
G1 X112.807 Y95.315 E5.33126
G1 X113.223 Y95.281 E5.35759
G1 X113.544 Y95.317 E5.37799
G1 X110.088 Y98.773 E5.68660
G1 X110.627 Y98.515 E5.72429
G1 X111.419 Y98.180 E5.77861
G1 X114.175 Y95.424 E6.02476
G1 X114.365 Y95.434 E6.03674
G1 X114.448 Y95.458 E6.04222
G1 X114.538 Y95.545 E6.05012
G1 X114.626 Y95.712 E6.06201
G1 X112.668 Y97.669 E6.23680
M104 S200 ; set temperature
G1 Z1.000 F7800.000
G1 X113.377 Y96.028 F7800.000
G1 F1200
G1 X113.038 Y95.689 E6.25143
G1 X112.757 Y95.657 E6.26006
G1 X112.299 Y95.548 E6.27444
G1 E4.27444 F2400.00000
G92 E0
G1 X114.410 Y96.462 F7800.000
G1 E2.00000 F2400.00000
G1 F1200
G1 X113.700 Y95.752 E2.03063
G1 X113.336 Y95.716 E2.04182
G1 X113.487 Y95.845 E2.04790
G1 X113.362 Y96.013 E2.05431
G1 X114.026 Y96.676 E2.08296
G1 X113.677 Y96.926 E2.09605
G1 X112.299 Y95.548 E2.15553
G1 X111.943 Y95.543 E2.16643
G1 X111.716 Y95.564 E2.17336
G1 X113.333 Y97.181 E2.24318
G1 X113.219 Y97.295 E2.24812
G1 X113.039 Y97.071 E2.25689
G1 X112.802 Y97.248 E2.26592
G1 X111.196 Y95.642 E2.33524
G1 X110.663 Y95.707 E2.35165
G1 X112.639 Y97.683 E2.43698
G1 X112.223 Y97.866 E2.45085
G1 X110.138 Y95.781 E2.54086
G1 X109.570 Y95.811 E2.55824
G1 X111.793 Y98.034 E2.65422
G1 X111.370 Y98.209 E2.66821
G1 X109.053 Y95.893 E2.76824
G1 X108.597 Y96.035 E2.78283
G1 X110.949 Y98.387 E2.88440
G1 X110.556 Y98.593 E2.89793
G1 X108.140 Y96.177 E3.00225
G1 X107.670 Y96.305 E3.01713
G1 X110.128 Y98.763 E3.12324
G1 X109.653 Y98.887 E3.13823
G1 X107.213 Y96.446 E3.24360
G1 X106.758 Y96.590 E3.25815
G1 X109.156 Y98.988 E3.36170
G1 X108.671 Y99.101 E3.37692
G1 X106.296 Y96.727 E3.47944
G1 X105.839 Y96.868 E3.49405
G1 X108.189 Y99.218 E3.59554
G1 X107.706 Y99.333 E3.61070
G1 X105.420 Y97.047 E3.70941
G1 X105.025 Y97.251 E3.72297
G1 X107.222 Y99.447 E3.81780
G1 X106.731 Y99.555 E3.83314
G1 X104.610 Y97.434 E3.92473
G1 X104.186 Y97.608 E3.93873
G1 X106.183 Y99.605 E4.02496
G1 X105.627 Y99.648 E4.04197
G1 X103.772 Y97.793 E4.12207
G1 X103.363 Y97.982 E4.13583
G1 X105.096 Y99.716 E4.21068
G1 X104.558 Y99.776 E4.22721
G1 X102.969 Y98.187 E4.29584
G1 X102.827 Y98.281 E4.30105
G1 X102.648 Y98.465 E4.30886
G1 X103.384 Y99.200 E4.34062
G1 X103.190 Y99.398 E4.34907
G1 X103.474 Y99.679 E4.36124
G1 X103.676 Y99.492 E4.36964
G1 X103.999 Y99.816 E4.38360
G1 X103.614 Y99.841 E4.39540
G1 X103.389 Y99.804 E4.40235
G1 X102.721 Y100.332 F7800.000
G1 F1200
G1 X103.106 Y100.318 E4.41411
G1 X103.328 Y100.341 E4.42092
G1 X106.969 Y103.982 E4.57813
G1 X107.965 Y104.380 E4.61090
G1 X104.181 Y100.595 E4.77431
G1 X104.284 Y100.615 E4.77753
G1 X104.301 Y100.507 E4.78086
G1 X104.798 Y100.615 E4.79638
G1 X108.979 Y104.795 E4.97688
G1 X109.465 Y104.890 E4.99201
G1 X109.689 Y104.907 E4.99886
G1 X105.536 Y100.753 E5.17820
G1 X106.071 Y100.831 E5.19471
G1 X106.277 Y100.897 E5.20132
G1 X110.454 Y105.073 E5.38166
G1 X110.901 Y105.163 E5.39559
G1 X111.232 Y105.253 E5.40607
G1 X107.382 Y101.403 E5.57230
G1 X107.440 Y101.273 E5.57665
G1 X108.038 Y101.461 E5.59579
G1 X111.944 Y105.366 E5.76442
G1 X112.033 Y105.376 E5.76716
G1 X112.336 Y105.352 E5.77643
G1 X112.494 Y105.318 E5.78138
G1 X108.934 Y101.758 E5.93509
G1 X109.288 Y101.861 E5.94635
G1 X109.622 Y101.990 E5.95726
G1 X109.947 Y102.173 E5.96867
G1 X113.076 Y105.301 E6.10374
G1 X113.616 Y105.298 E6.12023
G1 X113.694 Y105.321 E6.12272
G1 X111.279 Y102.907 E6.22698
G1 X111.757 Y103.150 E6.24336
G1 X112.283 Y103.480 E6.26231
G1 X112.347 Y103.533 E6.26485
G1 X112.645 Y103.883 E6.27888
G1 X113.472 Y104.587 E6.31204
G1 X113.607 Y104.636 E6.31643
G1 X113.974 Y105.003 E6.33227
G1 E4.33227 F2400.00000
G92 E0
G1 X107.158 Y108.360 F7800.000
G1 E2.00000 F2400.00000
G1 F1200
G1 X106.983 Y107.908 E2.01480
G1 X106.856 Y107.658 E2.02336
G1 X106.573 Y107.254 E2.03843
G1 X106.263 Y106.867 E2.05355
G1 X101.994 Y102.597 E2.23790
G1 X101.925 Y102.607 E2.24001
G1 X101.870 Y102.474 E2.24440
G1 X100.050 Y100.653 E2.32302
G1 X100.421 Y100.631 E2.33438
G1 X100.596 Y100.601 E2.33980
G1 X102.053 Y102.058 E2.40270
G1 X102.344 Y101.751 E2.41562
G1 X100.956 Y100.363 E2.47556
G1 X101.041 Y100.255 E2.47974
G1 X101.191 Y100.000 E2.48879
G1 X102.608 Y101.416 E2.54996
G1 X102.938 Y101.148 F7800.000
G1 F1200
G1 X99.023 Y97.233 E2.71901
G1 X98.350 Y97.757 F7800.000
G1 F1200
G1 X93.755 Y93.162 E2.91741
G1 E0.91741 F2400.00000
G92 E0
G1 X95.886 Y91.702 F7800.000
G1 E2.00000 F2400.00000
G1 F1200
G1 X95.523 Y91.119 E2.02097
G1 X95.309 Y90.824 E2.03209
G1 X94.976 Y90.484 E2.04663
G1 X94.745 Y90.298 E2.05567
G1 X94.427 Y89.921 E2.07075
G1 X94.216 Y89.704 E2.07997
G1 X94.024 Y89.840 E2.08716
G1 X96.211 Y92.027 E2.18158
G1 E0.18158 F2400.00000
G92 E0
G1 X94.055 Y89.871 F7800.000
G1 E2.00000 F2400.00000
G1 F1200
G1 X92.318 Y88.134 E2.07502
G1 X91.863 Y87.817 E2.09194
G1 X91.760 Y87.724 E2.09618
G1 X91.706 Y87.630 E2.09949
G1 X91.634 Y87.639 E2.10171
G1 X91.398 Y87.812 E2.11066
G1 X97.342 Y93.757 E2.36732
G1 X97.726 Y94.379 E2.38965
G1 X97.981 Y94.994 E2.40998
G1 X91.636 Y88.649 E2.68394
G1 X91.739 Y89.071 E2.69719
G1 X91.783 Y89.394 E2.70714
G1 X98.573 Y96.184 E3.00032
G1 X98.848 Y96.758 E3.01974
G1 X98.980 Y97.190 E3.03355
G1 X92.145 Y90.355 E3.32865
G1 X92.826 Y91.634 E3.37288
G1 X93.304 Y92.112 E3.39352
G1 X93.377 Y92.275 E3.39898
G1 X93.527 Y92.447 E3.40592
G1 X93.590 Y92.398 E3.40835
G1 X100.215 Y99.023 E3.69440
G1 X100.059 Y99.020 E3.69917
G1 X99.707 Y99.114 E3.71029
G1 X98.223 Y97.630 E3.77435
G1 X98.087 Y97.764 E3.78017
G1 X98.362 Y97.907 E3.78964
G1 X98.002 Y98.007 E3.80107
G1 X99.311 Y99.316 E3.85758
G1 X98.992 Y99.596 E3.87052
G1 X97.663 Y98.267 E3.92790
G1 X97.418 Y98.504 E3.93832
G1 X97.364 Y98.451 E3.94064
G1 X97.371 Y98.502 E3.94222
G1 X97.334 Y98.536 E3.94375
G1 X98.789 Y99.991 E4.00655
G1 X98.772 Y100.071 E4.00904
G1 X98.780 Y100.156 E4.01166
G1 X98.837 Y100.394 E4.01912
G1 X98.903 Y100.532 E4.02381
G1 X99.048 Y100.732 E4.03134
G1 X99.238 Y100.862 E4.03838
G1 X99.473 Y100.961 E4.04615
G1 X99.784 Y100.986 E4.05568
G1 X107.158 Y108.360 E4.37407
G1 X107.837 Y109.637 E4.41824
G1 X101.014 Y102.815 E4.71282
G1 X101.096 Y103.136 E4.72293
G1 X101.402 Y103.801 E4.74529
G1 X108.215 Y110.614 E5.03944
G1 X108.239 Y110.895 E5.04806
G1 X108.351 Y111.349 E5.06234
G1 X101.990 Y104.988 E5.33700
G1 X102.256 Y105.605 E5.35752
G1 X102.426 Y105.919 E5.36842
G1 X102.629 Y106.225 E5.37963
G1 X104.240 Y107.836 E5.44918
G1 X103.937 Y108.033 E5.46023
G1 X103.624 Y107.591 E5.47677
G1 X102.954 Y106.550 E5.51455
G1 E3.51455 F2400.00000
G92 E0
G1 X104.199 Y108.393 F7800.000
G1 E2.00000 F2400.00000
G1 F1200
G1 X104.189 Y108.402 E2.00041
G1 X104.159 Y108.373 E2.00169
G1 X104.270 Y108.580 E2.00887
G1 X104.555 Y109.017 E2.02479
G1 X104.897 Y109.406 E2.04061
G1 X105.098 Y109.565 E2.04842
G1 X105.372 Y109.834 E2.06015
G1 X105.679 Y110.207 E2.07490
G1 X106.377 Y110.961 E2.10627
G1 X106.775 Y111.333 E2.12290
G1 X106.905 Y111.421 E2.12768
G1 X107.286 Y111.615 E2.14075
G1 X107.691 Y111.885 E2.15561
G1 X103.874 Y108.068 E2.32042
G1 X104.153 Y107.824 E2.33174
G1 X103.941 Y107.537 E2.34265
G1 X108.591 Y112.187 E2.54345
G1 E0.54345 F2400.00000
G92 E0
G1 X98.621 Y114.186 F7800.000
G1 E2.00000 F2400.00000
G1 F1200
G1 X98.762 Y114.704 E2.01640
G1 X98.755 Y114.896 E2.02227
G1 X98.819 Y114.934 E2.02456
G1 X99.059 Y114.978 E2.03200
G1 X99.176 Y114.936 E2.03578
G1 X99.198 Y114.762 E2.04114
G1 X98.296 Y113.861 E2.08007
G1 X98.160 Y113.361 E2.09587
G1 X97.980 Y112.947 E2.10967
G1 X99.379 Y114.345 E2.17007
G1 X99.571 Y113.939 E2.18379
G1 X97.873 Y112.241 E2.25712
G1 X97.850 Y111.619 E2.27612
G1 X99.797 Y113.566 E2.36020
G1 X99.949 Y113.332 E2.36873
G1 X100.002 Y113.173 E2.37384
G1 X97.826 Y110.997 E2.46779
G1 X97.769 Y110.342 E2.48786
G1 X100.135 Y112.707 E2.59001
G1 X100.238 Y112.212 E2.60545
G1 X97.725 Y109.699 E2.71396
G1 X97.785 Y109.160 E2.73051
G1 X100.344 Y111.720 E2.84103
G1 X100.452 Y111.229 E2.85637
G1 X97.862 Y108.639 E2.96820
G1 X97.924 Y108.102 E2.98469
G1 X100.597 Y110.776 E3.10011
G1 X100.699 Y110.379 E3.11261
G1 X100.706 Y110.287 E3.11545
G1 X97.986 Y107.566 E3.23292
G1 X98.048 Y107.030 E3.24940
G1 X100.744 Y109.726 E3.36581
G1 X100.764 Y109.147 E3.38349
G1 X98.112 Y106.495 E3.49799
G1 X98.127 Y106.338 E3.50284
G1 X98.203 Y105.988 E3.51375
G1 X100.797 Y108.582 E3.62573
G1 X100.830 Y108.017 E3.64302
G1 X98.347 Y105.533 E3.75024
G1 X98.472 Y105.060 E3.76519
G1 X100.863 Y107.451 E3.86845
G1 X100.890 Y106.987 E3.88265
G1 X100.888 Y106.878 E3.88598
G1 X98.581 Y104.570 E3.98562
G1 X98.698 Y104.089 E4.00073
G1 X100.850 Y106.241 E4.09364
G1 X100.782 Y105.575 E4.11410
G1 X98.826 Y103.619 E4.19854
G1 X98.908 Y103.322 E4.20796
G1 X98.980 Y103.175 E4.21296
G1 X99.796 Y103.990 E4.24817
G1 X100.141 Y103.736 E4.26124
G1 X99.243 Y102.839 E4.30000
G1 X99.412 Y102.871 E4.30525
G1 X99.518 Y102.515 E4.31657
G1 X100.607 Y103.605 E4.36362
G1 X100.541 Y103.425 E4.36945
G1 X100.425 Y103.259 E4.37564
G1 X100.006 Y102.792 E4.39480
G1 X100.382 Y102.781 E4.40630
G1 X97.196 Y99.595 E4.54388
G1 X97.192 Y99.357 E4.55114
G1 X97.239 Y99.297 E4.55348
G1 X97.266 Y99.067 E4.56055
G1 X100.902 Y102.703 E4.71753
G1 X99.789 Y102.786 F7800.000
G1 F1200
G1 X97.200 Y100.198 E4.82930
G1 X96.953 Y100.367 E4.83846
G1 X96.623 Y100.219 E4.84949
G1 X97.626 Y101.221 E4.89276
G1 X97.405 Y101.428 E4.90198
G1 X97.339 Y101.534 E4.90579
G1 X95.995 Y100.189 E4.96385
G1 X95.826 Y100.203 E4.96903
G1 X95.834 Y100.302 E4.97206
G1 X95.542 Y100.335 E4.98103
G1 X96.241 Y101.034 E5.01121
G1 X96.227 Y101.039 E5.01167
G1 X96.269 Y101.179 E5.01611
G1 X96.235 Y101.186 E5.01717
G1 X96.289 Y101.566 E5.02889
G1 X96.671 Y101.545 E5.04059
G1 X96.679 Y101.472 E5.04283
G1 X97.028 Y101.821 E5.05793
G1 X96.632 Y102.023 E5.07151
G1 X94.905 Y100.296 E5.14607
G1 X94.374 Y100.364 E5.16241
G1 X96.223 Y102.213 E5.24226
G1 X95.813 Y102.402 E5.25603
G1 X93.812 Y100.401 E5.34243
G1 X93.427 Y100.422 E5.35422
G1 X93.271 Y100.457 E5.35912
G1 X95.389 Y102.576 E5.45059
G1 X94.973 Y102.758 E5.46446
G1 X92.783 Y100.567 E5.55904
G1 X92.295 Y100.678 E5.57432
G1 X94.576 Y102.960 E5.67284
G1 X94.350 Y103.074 E5.68057
G1 X94.153 Y103.134 E5.68688
G1 X91.807 Y100.788 E5.78818
G1 X91.322 Y100.902 E5.80338
G1 X93.694 Y103.275 E5.90582
G1 X93.236 Y103.415 E5.92045
G1 X90.839 Y101.018 E6.02396
G1 X90.343 Y101.120 E6.03942
G1 X92.778 Y103.555 E6.14456
G1 X92.320 Y103.695 E6.15920
G1 X89.864 Y101.239 E6.26523
G1 X89.438 Y101.412 E6.27926
G1 X91.859 Y103.833 E6.38382
G1 X91.404 Y103.976 E6.39840
G1 X89.050 Y101.622 E6.50003
G1 X88.629 Y101.800 E6.51397
G1 X90.945 Y104.116 E6.61398
G1 X90.809 Y104.158 E6.61835
G1 X90.426 Y104.196 E6.63008
G1 X88.203 Y101.972 E6.72609
G1 X87.772 Y102.140 E6.74020
G1 X89.862 Y104.230 E6.83043
G1 X89.335 Y104.301 E6.84666
G1 X87.360 Y102.326 E6.93195
G1 X86.974 Y102.539 E6.94539
G1 X88.804 Y104.369 E7.02439
G1 X88.280 Y104.443 E7.04055
G1 X86.661 Y102.824 E7.11044
G1 X86.320 Y103.082 E7.12349
G1 X87.694 Y104.456 E7.18282
G1 X87.229 Y104.359 E7.19730
G1 X86.966 Y104.326 E7.20542
G1 X85.968 Y103.327 E7.24852
G1 X85.667 Y103.529 E7.25956
G1 X85.595 Y103.553 E7.26190
G1 X86.305 Y104.263 E7.29255
G1 X86.240 Y104.257 E7.29454
G1 X86.167 Y104.221 E7.29703
G1 X85.947 Y104.288 E7.30405
G1 X85.856 Y104.052 E7.31176
G1 X85.829 Y103.924 E7.31576
G1 X85.829 Y103.908 E7.31626
G1 X85.919 Y103.878 E7.31915
G1 E5.31915 F2400.00000
G92 E0
G1 X90.259 Y111.210 F7800.000
G1 E2.00000 F2400.00000
G1 F1200
G1 X90.610 Y111.561 E2.01514
G1 X90.583 Y111.534 F7800.000
G1 F1200
G1 X90.258 Y111.209 E2.02916
G1 X90.218 Y111.140 E2.03160
G1 X90.330 Y111.010 E2.03684
G1 X90.423 Y110.775 E2.04456
G1 X91.144 Y111.496 E2.07571
G1 X91.517 Y111.292 E2.08867
G1 X91.508 Y111.261 E2.08965
G1 X90.578 Y110.332 E2.12978
G1 X90.724 Y109.879 E2.14430
G1 X91.376 Y110.531 E2.17244
G1 X91.457 Y110.497 E2.17512
G1 X91.555 Y110.710 E2.18228
G1 X91.919 Y111.074 E2.19800
G1 X92.338 Y110.895 E2.21192
G1 X90.842 Y109.399 E2.27650
G1 X91.041 Y108.999 E2.29013
G1 X92.694 Y110.652 E2.36149
G1 X93.019 Y110.379 E2.37446
G1 X91.276 Y108.636 E2.44974
G1 X91.512 Y108.273 E2.46295
G1 X93.329 Y110.091 E2.54143
G1 X93.640 Y109.803 E2.55435
G1 X91.748 Y107.911 E2.63603
G1 X91.983 Y107.548 E2.64924
G1 X93.949 Y109.514 E2.73413
G1 X94.163 Y109.314 E2.74306
G1 X94.273 Y109.239 E2.74712
G1 X92.183 Y107.149 E2.83737
G1 X92.410 Y106.777 E2.85066
G1 X94.606 Y108.973 E2.94547
G1 X94.788 Y108.808 E2.95299
G1 X94.900 Y108.670 E2.95843
G1 X92.690 Y106.459 E3.05387
G1 X92.975 Y106.146 E3.06681
G1 X95.165 Y108.336 E3.16133
G1 X95.424 Y107.996 E3.17437
G1 X93.260 Y105.832 E3.26780
G1 X93.541 Y105.515 E3.28075
G1 X95.690 Y107.664 E3.37353
G1 X95.958 Y107.334 E3.38652
G1 X93.826 Y105.201 E3.47860
G1 X94.111 Y104.888 E3.49154
G1 X96.215 Y106.993 E3.58240
G1 X96.475 Y106.654 E3.59543
G1 X94.393 Y104.572 E3.68534
G1 X94.562 Y104.374 E3.69329
G1 X94.676 Y104.257 E3.69828
G1 X96.739 Y106.319 E3.78732
G1 X96.999 Y105.980 E3.80035
G1 X94.979 Y103.961 E3.88753
G1 X95.318 Y103.702 E3.90057
G1 X97.214 Y105.597 E3.98241
G1 X97.420 Y105.205 E3.99594
G1 X95.645 Y103.430 E4.07259
G1 X95.957 Y103.143 E4.08552
G1 X97.653 Y104.840 E4.15878
G1 X97.886 Y104.474 E4.17201
G1 X96.272 Y102.860 E4.24171
G1 X96.599 Y102.589 E4.25468
G1 X98.109 Y104.098 E4.31985
G1 X98.325 Y103.716 E4.33325
G1 X97.999 Y103.390 E4.34734
G1 X97.800 Y103.551 E4.35514
G1 X97.536 Y103.311 E4.36603
G1 X97.656 Y103.129 E4.37269
G1 X97.703 Y103.095 E4.37449
G1 X96.926 Y102.317 E4.40805
G1 X97.102 Y102.171 E4.41504
G1 X97.288 Y102.081 E4.42135
G1 X98.339 Y103.131 E4.46671
G1 X98.237 Y102.955 E4.47293
G1 X98.481 Y102.729 E4.48308
G1 X98.584 Y102.799 E4.48688
G1 X98.574 Y102.768 E4.48786
G1 X97.771 Y101.966 E4.52250
G1 X97.994 Y101.670 E4.53381
G1 X97.843 Y101.547 E4.53976
G1 X97.594 Y101.189 E4.55307
G1 X98.873 Y102.469 E4.60831
G1 X98.206 Y102.998 F7800.000
G1 F1200
G1 X98.240 Y102.881 E4.61204
G1 X98.140 Y102.933 E4.61547
G1 X98.530 Y103.323 E4.63232
G1 E2.63232 F2400.00000
G92 E0
G1 X100.592 Y104.188 F7800.000
G1 E2.00000 F2400.00000
G1 F1200
G1 X99.938 Y103.534 E2.02824
G1 X99.863 Y103.849 E2.03811
G1 X99.801 Y103.995 E2.04298
G1 X100.756 Y104.951 E2.08423
G1 X100.782 Y105.575 E2.10330
G1 E0.10330 F2400.00000
G92 E0
G1 X103.075 Y101.883 F7800.000
G1 E2.00000 F2400.00000
G1 F1200
G1 X102.991 Y101.919 E2.00278
G1 X103.326 Y102.134 E2.01492
G1 X102.750 Y101.559 E2.03976
G1 X102.776 Y101.548 E2.04063
G1 X102.702 Y101.231 E2.05054
G1 X102.722 Y101.228 E2.05117
G1 X102.728 Y100.938 E2.06004
G1 X103.028 Y101.238 E2.07297
G1 X103.012 Y101.020 E2.07963
G1 X103.295 Y100.932 E2.08869
G1 X103.503 Y101.125 E2.09736
G1 X103.368 Y101.403 E2.10680
G1 X103.160 Y101.370 E2.11322
G1 X104.670 Y102.880 E2.17841
G1 X105.513 Y103.384 E2.20839
G1 X105.748 Y103.496 E2.21633
G1 X105.796 Y103.407 E2.21940
G1 X103.046 Y100.657 E2.33815
G1 X102.868 Y100.658 E2.34358
G1 X102.878 Y100.490 E2.34874
G1 X99.510 Y97.122 E2.49416
G1 X99.702 Y97.111 E2.50004
G1 X99.388 Y96.401 E2.52377
G1 X102.890 Y99.903 E2.67500
G1 X102.880 Y99.788 E2.67853
G1 X103.192 Y99.737 E2.68817
G1 X103.389 Y99.804 E2.69454
G1 X100.871 Y97.286 E2.80326
G1 X101.372 Y97.465 E2.81950
G1 X101.380 Y97.196 E2.82771
G1 X102.321 Y98.137 E2.86832
G1 X102.354 Y98.087 E2.87015
G1 X102.369 Y97.742 E2.88069
G1 X102.510 Y97.728 E2.88501
G1 X101.460 Y96.678 E2.93035
G1 X101.665 Y96.284 E2.94390
G1 X103.073 Y97.693 E3.00471
G1 X103.398 Y97.419 E3.01768
G1 X101.885 Y95.906 E3.08303
G1 X102.108 Y95.530 E3.09636
G1 X103.725 Y97.148 E3.16620
G1 X104.039 Y96.863 E3.17914
G1 X102.343 Y95.167 E3.25240
G1 X102.573 Y94.799 E3.26566
G1 X104.349 Y96.575 E3.34236
G1 X104.678 Y96.305 E3.35534
G1 X102.778 Y94.405 E3.43736
G1 X102.994 Y94.023 E3.45077
G1 X105.011 Y96.039 E3.53785
G1 X105.181 Y95.903 E3.54451
G1 X105.319 Y95.750 E3.55082
G1 X103.251 Y93.681 E3.64014
G1 X103.516 Y93.348 E3.65314
G1 X105.601 Y95.433 E3.74314
G1 X105.885 Y95.118 E3.75608
G1 X103.779 Y93.012 E3.84703
G1 X104.043 Y92.678 E3.86004
G1 X106.169 Y94.804 E3.95185
G1 X106.453 Y94.489 E3.96479
G1 X104.307 Y92.344 E4.05741
G1 X104.568 Y92.006 E4.07044
G1 X106.734 Y94.172 E4.16397
G1 X107.014 Y93.853 E4.17691
G1 X104.825 Y91.665 E4.27142
G1 X105.092 Y91.333 E4.28441
G1 X107.302 Y93.544 E4.37985
G1 X107.585 Y93.228 E4.39279
G1 X105.384 Y91.027 E4.48783
G1 X105.718 Y90.763 E4.50084
G1 X107.812 Y92.856 E4.59122
G1 X108.014 Y92.460 E4.60480
G1 X106.046 Y90.492 E4.68976
G1 X106.356 Y90.203 E4.70269
G1 X108.247 Y92.094 E4.78435
G1 X108.484 Y91.733 E4.79754
G1 X106.665 Y89.914 E4.87607
G1 X106.976 Y89.626 E4.88899
G1 X108.718 Y91.369 E4.96424
G1 X108.948 Y91.000 E4.97750
G1 X107.300 Y89.352 E5.04866
G1 X107.514 Y89.185 E5.05695
G1 X107.655 Y89.108 E5.06184
G1 X109.151 Y90.604 E5.12644
G1 X109.218 Y90.443 E5.13178
G1 X109.266 Y90.122 E5.14170
G1 X108.084 Y88.939 E5.19276
G1 X108.467 Y88.724 E5.20617
G1 X109.414 Y89.671 E5.24708
G1 X109.568 Y89.227 E5.26143
G1 X108.852 Y88.510 E5.29238
G1 X109.030 Y88.393 E5.29889
G1 X109.136 Y88.270 E5.30385
G1 X109.167 Y88.273 E5.30482
G1 X109.270 Y88.342 E5.30861
G1 X109.756 Y88.816 E5.32931
G1 E3.32931 F2400.00000
G92 E0
G1 X101.696 Y86.142 F7800.000
G1 E2.00000 F2400.00000
G1 F1200
G1 X100.805 Y85.251 E2.03847
G1 X100.614 Y85.659 E2.05222
G1 X102.011 Y87.055 E2.11252
G1 X102.056 Y87.166 E2.11617
G1 X102.128 Y87.771 E2.13476
G1 X100.424 Y86.067 E2.20833
G1 X100.304 Y86.296 E2.21622
G1 X100.201 Y86.442 E2.22169
G1 X102.150 Y88.391 E2.30582
G1 X102.172 Y89.011 E2.32478
G1 X99.998 Y86.838 E2.41862
G1 X99.856 Y87.294 E2.43321
G1 X102.227 Y89.665 E2.53559
G1 X102.278 Y90.163 E2.55085
G1 X102.266 Y90.303 E2.55515
G1 X99.754 Y87.791 E2.66363
G1 X99.648 Y88.283 E2.67902
G1 X102.204 Y90.839 E2.78938
G1 X102.135 Y91.368 E2.80567
G1 X99.539 Y88.773 E2.91775
G1 X99.400 Y89.232 E2.93240
G1 X102.070 Y91.902 E3.04770
G1 X102.006 Y92.436 E3.06412
G1 X99.283 Y89.714 E3.18166
G1 X99.251 Y90.275 E3.19883
G1 X101.941 Y92.970 E3.31507
G1 X101.876 Y93.503 E3.33149
G1 X99.228 Y90.855 E3.44582
G1 X99.188 Y91.413 E3.46289
G1 X101.786 Y94.012 E3.57510
G1 X101.645 Y94.469 E3.58971
G1 X99.163 Y91.987 E3.69689
G1 X99.132 Y92.555 E3.71426
G1 X101.522 Y94.945 E3.81745
G1 X101.416 Y95.437 E3.83281
G1 X99.093 Y93.114 E3.93310
G1 X99.101 Y93.364 E3.94074
G1 X99.149 Y93.768 E3.95317
G1 X101.296 Y95.915 E4.04588
G1 X101.171 Y96.388 E4.06082
G1 X99.212 Y94.430 E4.14538
G1 X99.239 Y95.055 E4.16447
G1 X100.312 Y96.128 E4.21080
G1 X100.137 Y96.098 E4.21619
G1 X100.063 Y96.478 E4.22800
G1 X99.290 Y95.707 E4.26135
G1 X99.335 Y96.194 E4.27629
G1 X99.388 Y96.401 E4.28280
G1 X101.020 Y96.836 F7800.000
G1 F1200
G1 X100.190 Y96.007 E4.31862
G1 X100.178 Y96.091 E4.32122
G1 X100.067 Y96.279 E4.32789
G1 X99.740 Y96.155 E4.33857
G1 X100.787 Y97.202 E4.38378
G1 X100.733 Y97.285 E4.38681
G1 X100.920 Y97.512 E4.39578
G1 X101.196 Y97.611 E4.40473
G1 E2.40473 F2400.00000
G92 E0
G1 X97.444 Y98.515 F7800.000
G1 E2.00000 F2400.00000
G1 F1200
G1 X97.118 Y98.189 E2.01408
G1 X96.792 Y97.947 E2.02648
G1 X95.585 Y97.266 E2.06879
G1 X97.250 Y98.931 E2.14067
G1 X97.235 Y99.156 E2.14756
G1 X97.155 Y99.073 E2.15106
G1 X96.948 Y99.239 E2.15917
G1 X96.595 Y98.886 E2.17441
G1 X96.727 Y98.749 E2.18023
G1 X96.583 Y98.545 E2.18785
G1 X96.336 Y98.473 E2.19572
G1 X96.287 Y98.579 E2.19927
G1 X94.204 Y96.495 E2.28922
G1 X93.198 Y96.100 E2.32220
G1 X96.760 Y99.662 E2.47598
G1 X96.054 Y99.566 E2.49774
G1 X92.169 Y95.682 E2.66546
G1 X91.142 Y95.265 E2.69929
G1 X95.296 Y99.419 E2.87863
G1 X94.533 Y99.266 E2.90239
G1 X90.370 Y95.103 E3.08211
G1 X90.092 Y95.066 E3.09069
G1 X89.610 Y94.953 E3.10581
G1 X93.796 Y99.140 E3.28658
G1 X92.899 Y98.853 E3.31533
G1 X88.818 Y94.772 E3.49157
G1 X88.529 Y94.701 E3.50066
G1 X88.270 Y94.685 E3.50856
G1 X88.080 Y94.645 E3.51450
G1 X92.006 Y98.570 E3.68399
G1 X91.569 Y98.406 E3.69823
G1 X91.083 Y98.258 E3.71375
G1 X87.518 Y94.693 E3.86768
G1 X86.922 Y94.707 E3.88587
G1 X90.015 Y97.800 E4.01940
G1 X89.652 Y97.574 E4.03244
G1 X88.693 Y97.088 E4.06527
G1 X87.144 Y95.540 E4.13212
G1 X86.902 Y95.239 E4.14392
G1 X86.865 Y95.260 E4.14525
G1 X86.287 Y94.683 E4.17020
G1 X86.149 Y94.648 E4.17454
G1 X86.044 Y94.871 E4.18208
G1 X86.020 Y95.026 E4.18685
G1 X86.345 Y95.351 E4.20088
G1 E2.20088 F2400.00000
G92 E0
G1 X97.026 Y98.826 F7800.000
G1 E2.00000 F2400.00000
G1 F1200
G1 X97.428 Y99.229 E2.01739
G1 E0.01739 F2400.00000
G92 E0
G1 X101.573 Y85.421 F7800.000
G1 E2.00000 F2400.00000
G1 F1200
G1 X101.229 Y85.076 E2.01487
G1 X101.248 Y85.096 E2.01571
G1 Z1.500 F7800.000
G1 E0.01571 F2400.00000
G92 E0
G1 X99.528 Y103.291 F7800.000
G1 E2.00000 F2400.00000
G1 F1200
G1 X99.040 Y103.779 E2.02446
G1 X98.860 Y104.250 F7800.000
G1 F1200
G1 X99.185 Y103.926 E2.04075
G1 X99.319 Y104.124 E2.04925
G1 X99.646 Y103.925 E2.06284
G1 X99.659 Y104.058 E2.06759
G1 X98.684 Y105.034 E2.11651
G1 X99.317 Y104.210 F7800.000
G1 F1200
G1 X99.642 Y103.885 E2.13280
G1 X100.059 Y103.658 F7800.000
G1 F1200
G1 X100.384 Y103.333 E2.14909
G1 X100.506 Y103.567 E2.15843
G1 X100.537 Y103.729 E2.16427
G1 X100.461 Y103.688 E2.16732
G1 X100.260 Y104.046 E2.18188
G1 X100.272 Y104.052 E2.18236
G1 X98.564 Y105.760 E2.26799
G1 X98.451 Y106.479 E2.29379
G1 X100.620 Y104.310 E2.40255
G1 X100.635 Y104.903 E2.42357
G1 X98.368 Y107.169 E2.53721
G1 X98.331 Y107.813 E2.56009
G1 X100.625 Y105.519 E2.67515
G1 X100.620 Y106.131 E2.69687
G1 X98.270 Y108.480 E2.81467
G1 X98.252 Y109.105 E2.83684
G1 X100.589 Y106.768 E2.95402
G1 X100.520 Y107.444 E2.97812
G1 X100.095 Y107.869 E2.99943
G1 X100.250 Y107.714 F7800.000
G1 F1200
G1 X98.280 Y109.684 E3.09821
G1 X98.286 Y110.285 E3.11950
G1 X100.453 Y108.118 E3.22813
G1 X100.403 Y108.677 E3.24802
G1 X100.372 Y108.805 E3.25269
G1 X98.227 Y110.950 E3.36024
G1 X98.167 Y111.617 E3.38398
G1 X100.201 Y109.583 E3.48596
G1 X100.123 Y109.987 E3.50053
G1 X100.086 Y110.305 E3.51189
G1 X98.139 Y112.252 E3.60952
G1 X98.147 Y112.551 E3.62014
G1 X98.199 Y112.798 E3.62909
G1 X100.039 Y110.958 E3.72136
G1 X100.013 Y111.254 E3.73189
G1 X99.805 Y111.245 E3.73926
G1 X99.770 Y111.649 E3.75361
G1 X99.938 Y111.667 E3.75957
G1 X98.316 Y113.288 E3.84089
G1 X98.472 Y113.739 E3.85780
G1 X99.846 Y112.365 E3.92667
G1 X99.726 Y112.709 E3.93960
G1 X99.614 Y112.955 E3.94915
G1 X99.306 Y113.506 E3.97155
G1 X98.911 Y113.906 E3.99148
G1 E1.99148 F2400.00000
G92 E0
G1 X92.564 Y110.126 F7800.000
G1 E2.00000 F2400.00000
G1 F1200
G1 X92.892 Y109.799 E2.01426
G1 X93.522 Y109.107 E2.04308
G1 X94.181 Y108.292 E2.07539
G1 X94.502 Y107.965 E2.08950
G1 X95.141 Y107.390 E2.11597
G1 X95.466 Y107.047 E2.13053
G1 X95.924 Y106.491 E2.15273
G1 X96.384 Y105.982 E2.17385
G1 X96.883 Y105.341 E2.19887
G1 X97.255 Y104.819 E2.21862
G1 X91.190 Y110.884 E2.48283
G1 X91.054 Y110.826 E2.48739
G1 X90.921 Y110.694 E2.49316
G1 X90.915 Y110.588 E2.49645
G1 X90.932 Y110.527 E2.49839
G1 X97.895 Y103.563 E2.80177
G1 X97.779 Y103.679 F7800.000
G1 F1200
G1 X98.289 Y103.169 E2.82399
G1 X98.334 Y103.010 E2.82908
G1 X98.337 Y102.872 E2.83336
G1 X98.281 Y102.886 E2.83514
G1 X98.045 Y103.028 E2.84362
G1 X97.780 Y103.258 E2.85445
G1 X97.548 Y103.364 E2.86229
G1 X97.515 Y103.328 E2.86382
G1 X91.624 Y109.219 E3.12046
G1 X91.482 Y109.146 E3.12536
G1 X91.568 Y109.012 E3.13025
G1 X92.675 Y107.706 E3.18299
G1 X92.903 Y107.406 E3.19461
G1 X93.053 Y107.174 E3.20312
G1 X97.478 Y102.749 E3.39589
G1 X97.572 Y102.581 E3.40183
G1 X97.670 Y102.295 E3.41114
G1 X97.383 Y102.402 E3.42058
G1 X97.197 Y102.515 E3.42730
G1 X96.818 Y102.808 E3.44204
G1 X96.170 Y103.441 E3.46997
G1 X91.949 Y108.894 F7800.000
G1 F1200
G1 X92.003 Y108.922 E3.47186
G1 X91.826 Y109.295 E3.48457
G1 X91.636 Y109.207 E3.49101
G1 X91.228 Y109.614 E3.50876
G1 E1.50876 F2400.00000
G92 E0
G1 X87.284 Y104.123 F7800.000
G1 E2.00000 F2400.00000
G1 F1200
G1 X87.810 Y103.597 E2.02316
G1 X87.968 Y103.839 E2.03217
G1 X87.609 Y103.798 E2.04341
G1 X86.937 Y103.224 F7800.000
G1 F1200
G1 X86.611 Y103.550 E2.05779
G1 X86.529 Y103.669 E2.06230
G1 X86.584 Y103.922 E2.07035
G1 X86.679 Y104.019 E2.07459
G1 X86.747 Y104.037 E2.07679
G1 X88.486 Y102.298 E2.15341
G1 X89.354 Y102.053 E2.18153
G1 X87.610 Y103.797 E2.25840
G1 X87.641 Y103.805 E2.25940
G1 X87.812 Y103.636 E2.26690
G1 X88.087 Y103.814 E2.27710
G1 X88.053 Y103.910 E2.28027
G1 X88.085 Y103.919 E2.28129
G1 X88.078 Y103.952 E2.28235
G1 X90.195 Y101.835 E2.37563
G1 X90.589 Y101.689 E2.38875
G1 X91.245 Y101.408 E2.41099
G1 X88.583 Y104.070 E2.52831
G1 X89.441 Y103.835 E2.55602
G1 X92.145 Y101.131 E2.67519
G1 X93.023 Y100.876 E2.70370
G1 X90.287 Y103.612 E2.82427
G1 X90.649 Y103.550 E2.83572
G1 X90.999 Y103.523 E2.84667
G1 X93.835 Y100.687 E2.97162
G1 X94.605 Y100.540 E2.99607
G1 X91.745 Y103.400 E3.12210
G1 X92.598 Y103.170 E3.14961
G1 X95.370 Y100.398 E3.27177
G1 X96.064 Y100.327 E3.29353
G1 X93.427 Y102.965 E3.40977
G1 E1.40977 F2400.00000
G92 E0
G1 X96.020 Y100.994 F7800.000
G1 E2.00000 F2400.00000
G1 F1200
G1 X96.648 Y100.367 E2.02766
G1 X96.755 Y100.409 E2.03127
G1 X96.538 Y100.573 E2.03977
G1 X96.345 Y100.669 E2.04648
G1 X96.054 Y100.960 F7800.000
G1 F1200
G1 X94.356 Y102.659 E2.12135
G1 X95.307 Y102.331 E2.15271
G1 X96.402 Y101.235 E2.20099
G1 X96.732 Y101.207 E2.21132
G1 X96.984 Y101.252 E2.21928
G1 X96.949 Y101.311 E2.22142
G1 X96.576 Y101.685 E2.23786
G1 E0.23786 F2400.00000
G92 E0
G1 X96.619 Y99.464 F7800.000
G1 E2.00000 F2400.00000
G1 F1200
G1 X96.944 Y99.139 E2.01404
G1 X96.540 Y98.833 F7800.000
G1 F1200
G1 X96.192 Y99.182 E2.02909
G1 X95.855 Y99.472 F7800.000
G1 F1200
G1 X96.180 Y99.147 E2.04313
G1 X96.073 Y98.871 E2.05219
G1 X96.329 Y98.717 E2.06131
G1 X96.127 Y98.601 E2.06841
G1 X96.138 Y98.578 E2.06918
G1 X95.345 Y99.372 E2.10348
G1 X94.861 Y99.245 E2.11877
G1 X96.424 Y97.681 E2.18635
G1 X96.164 Y97.539 E2.19541
G1 X96.022 Y97.473 E2.20021
G1 X94.382 Y99.113 E2.27107
G1 X93.903 Y98.981 E2.28624
G1 X94.858 Y98.026 E2.32748
G1 X94.937 Y98.087 E2.33054
G1 X95.210 Y98.049 E2.33895
G1 X95.203 Y97.681 E2.35021
G1 X95.603 Y97.281 E2.36750
G1 X95.182 Y97.091 E2.38162
G1 X93.438 Y98.834 E2.45695
G1 X92.986 Y98.676 E2.47160
G1 X94.763 Y96.899 E2.54841
G1 X94.326 Y96.725 E2.56280
G1 X93.247 Y97.804 E2.60941
G1 X93.215 Y97.565 E2.61680
G1 X92.971 Y97.568 E2.62426
G1 X92.764 Y97.690 E2.63160
G1 X92.904 Y98.025 E2.64270
G1 X93.069 Y97.982 E2.64791
G1 X92.546 Y98.505 E2.67052
G1 X92.098 Y98.342 E2.68508
G1 X93.884 Y96.556 E2.76224
G1 X93.423 Y96.407 E2.77706
G1 X92.418 Y97.411 E2.82045
G1 X92.262 Y97.372 E2.82538
G1 X92.164 Y97.665 E2.83483
G1 X91.651 Y98.178 E2.85698
G1 X91.229 Y97.989 E2.87111
G1 X92.987 Y96.231 E2.94706
G1 X92.523 Y96.085 E2.96194
G1 X90.828 Y97.779 E3.03516
G1 X90.423 Y97.573 E3.04905
G1 X92.056 Y95.940 E3.11962
G1 X91.540 Y95.845 E3.13564
G1 X89.998 Y97.387 E3.20229
G1 X89.546 Y97.229 E3.21694
G1 X91.050 Y95.724 E3.28196
G1 X90.603 Y95.560 E3.29651
G1 X89.093 Y97.070 E3.36175
G1 X88.656 Y96.897 E3.37613
G1 X90.157 Y95.396 E3.44099
G1 X89.713 Y95.229 E3.45549
G1 X88.227 Y96.715 E3.51969
G1 X88.097 Y96.640 E3.52426
G1 X88.269 Y96.472 E3.53161
G1 X88.076 Y96.255 E3.54048
G1 X89.248 Y95.083 E3.59112
G1 X89.110 Y95.040 E3.59554
G1 X88.782 Y94.986 E3.60571
G1 X88.894 Y95.248 E3.61441
G1 X88.565 Y95.431 E3.62590
G1 X88.451 Y95.269 E3.63197
G1 X87.513 Y96.207 E3.67252
G1 X87.205 Y95.904 E3.68572
G1 X88.144 Y94.965 E3.72629
G1 X87.648 Y94.979 E3.74148
G1 X87.485 Y95.023 E3.74663
G1 X87.119 Y95.379 E3.76224
G1 E1.76224 F2400.00000
G92 E0
G1 X96.162 Y98.555 F7800.000
G1 E2.00000 F2400.00000
G1 F1200
G1 X96.533 Y98.184 E2.01603
G1 X96.475 Y98.153 E2.01804
G1 X96.520 Y97.947 E2.02448
G1 X96.461 Y97.830 E2.02850
G1 X96.563 Y97.757 E2.03232
G1 X96.424 Y97.681 E2.03714
G1 X97.684 Y97.630 F7800.000
G1 F1200
G1 X98.009 Y97.305 E2.05343
G1 X98.005 Y97.229 E2.05613
G1 X97.876 Y96.841 E2.07062
G1 X97.301 Y97.417 E2.09947
G1 X97.259 Y97.381 E2.10143
G1 X97.348 Y97.121 E2.11117
G1 X97.118 Y97.004 E2.12034
G1 X98.390 Y95.731 E2.18415
G1 X98.173 Y95.353 E2.19963
G1 X96.799 Y96.727 E2.26852
G1 X96.668 Y96.576 E2.27560
G1 X96.559 Y96.663 E2.28056
G1 X96.427 Y96.503 E2.28792
G1 X97.955 Y94.974 E2.36454
G1 X97.737 Y94.596 E2.38002
G1 X96.157 Y96.176 E2.45923
G1 X95.888 Y95.849 E2.47425
G1 X97.517 Y94.220 E2.55592
G1 X97.281 Y93.860 E2.57118
G1 X95.622 Y95.519 E2.65437
G1 X95.367 Y95.178 E2.66947
G1 X97.039 Y93.506 E2.75331
G1 X96.786 Y93.162 E2.76843
G1 X95.119 Y94.830 E2.85202
G1 X94.884 Y94.469 E2.86729
G1 X96.536 Y92.816 E2.95016
G1 X96.293 Y92.463 E2.96536
G1 X94.636 Y94.120 E3.04844
G1 X94.389 Y93.772 E3.06360
G1 X96.039 Y92.121 E3.14636
G1 X95.761 Y91.803 E3.16134
G1 X94.161 Y93.404 E3.24158
G1 X93.950 Y93.018 E3.25716
G1 X95.470 Y91.498 E3.33336
G1 X95.187 Y91.185 E3.34832
G1 X93.756 Y92.616 E3.42006
G1 X93.536 Y92.240 E3.43551
G1 X94.935 Y90.841 E3.50566
G1 X94.700 Y90.480 E3.52094
G1 X93.290 Y91.889 E3.59163
G1 X93.035 Y91.548 E3.60673
G1 X94.452 Y90.132 E3.67776
G1 X94.204 Y89.783 E3.69292
G1 X92.794 Y91.194 E3.76365
G1 X92.554 Y90.838 E3.77888
G1 X93.945 Y89.446 E3.84865
G1 X93.730 Y89.230 E3.85947
G1 X93.682 Y89.437 E3.86699
G1 X93.653 Y89.439 E3.86803
G1 X93.623 Y89.511 E3.87080
G1 X93.375 Y89.421 E3.88017
G1 X92.581 Y90.214 E3.91996
G1 X92.472 Y89.947 E3.93018
G1 X92.197 Y90.003 E3.94014
G1 X93.303 Y88.896 E3.99561
G1 X92.937 Y88.666 E4.01093
G1 X92.059 Y89.544 E4.05496
G1 X92.031 Y89.473 E4.05767
G1 X91.982 Y89.097 E4.07110
G1 X91.989 Y89.042 E4.07308
G1 X92.055 Y88.952 E4.07705
G1 X92.381 Y88.626 E4.09338
G1 X92.906 Y89.889 F7800.000
G1 F1200
G1 X92.927 Y89.942 E4.09539
G1 X92.715 Y90.080 E4.10437
G1 X92.342 Y90.453 E4.12307
G1 E2.12307 F2400.00000
G92 E0
G1 X98.383 Y96.452 F7800.000
G1 E2.00000 F2400.00000
G1 F1200
G1 X98.014 Y96.821 E2.01850
G1 X98.415 Y97.129 F7800.000
G1 F1200
G1 X98.739 Y96.804 E2.03479
G1 X99.522 Y96.532 F7800.000
G1 F1200
G1 X100.099 Y95.955 E2.05891
G1 X100.073 Y96.062 E2.06217
G1 X99.934 Y96.354 E2.07172
G1 X99.847 Y96.207 E2.07677
G1 X100.530 Y96.705 F7800.000
G1 F1200
G1 X100.857 Y96.379 E2.09040
G1 X100.992 Y96.159 E2.09804
G1 X101.117 Y95.838 E2.10821
G1 X101.226 Y95.418 E2.12103
G1 X100.374 Y96.270 E2.15666
G1 X100.305 Y95.818 E2.17020
G1 X100.236 Y95.817 E2.17224
G1 X101.358 Y94.696 E2.21912
G1 X101.473 Y93.990 E2.24026
G1 X99.405 Y96.058 E2.32671
G1 X99.358 Y95.514 E2.34286
G1 X101.568 Y93.304 E2.43524
G1 X101.638 Y92.643 E2.45489
G1 X99.363 Y94.918 E2.55000
G1 X99.371 Y94.319 E2.56770
G1 X101.676 Y92.014 E2.66406
G1 X101.731 Y91.368 E2.68323
G1 X99.381 Y93.718 E2.78145
G1 X99.415 Y93.093 E2.79994
G1 X101.738 Y90.770 E2.89707
G1 X101.706 Y90.211 E2.91361
G1 X99.491 Y92.426 E3.00621
G1 X99.545 Y91.782 E3.02532
G1 X101.710 Y89.616 E3.11584
G1 X101.771 Y88.964 E3.13518
G1 X99.642 Y91.093 E3.22417
G1 X99.692 Y90.806 E3.23279
G1 X99.812 Y90.332 E3.24723
G1 X101.828 Y88.317 E3.33149
G1 X101.856 Y87.995 E3.34104
G1 X101.858 Y87.695 E3.34988
G1 X99.911 Y89.642 E3.43126
G1 X99.961 Y89.001 E3.45026
G1 X101.790 Y87.172 E3.52672
G1 X101.678 Y86.694 E3.54125
G1 X100.018 Y88.354 E3.61064
G1 X100.101 Y87.821 E3.62657
G1 X100.156 Y87.625 E3.63259
G1 X101.520 Y86.261 E3.68962
G1 X101.447 Y86.140 E3.69379
G1 X101.341 Y86.099 E3.69712
G1 X101.135 Y86.085 E3.70324
G1 X101.074 Y86.115 E3.70524
G1 X100.750 Y86.440 E3.71882
G1 E1.71882 F2400.00000
G92 E0
G1 X107.032 Y90.269 F7800.000
G1 E2.00000 F2400.00000
G1 F1200
G1 X107.357 Y89.944 E2.01418
G1 X107.744 Y89.623 E2.02970
G1 X108.086 Y89.409 E2.04214
G1 X108.438 Y89.222 E2.05445
G1 X108.689 Y89.122 E2.06278
G1 X108.817 Y89.101 E2.06679
G1 X102.754 Y95.164 E2.33142
G1 X102.121 Y96.047 E2.36496
G1 X102.220 Y96.092 E2.36830
G1 X102.094 Y96.441 E2.37974
G1 X109.064 Y89.471 E2.68396
G1 X109.055 Y89.550 E2.68640
G1 X108.882 Y90.110 E2.70448
G1 X108.773 Y90.379 E2.71343
G1 X102.517 Y96.635 E2.98652
G1 X102.760 Y96.908 E2.99779
G1 X102.516 Y97.253 E3.01084
G1 X106.964 Y92.805 E3.20498
G1 X106.486 Y93.556 E3.23246
G1 X105.394 Y94.906 E3.28604
G1 X104.736 Y95.636 E3.31637
G1 X103.371 Y97.015 E3.37626
G1 X102.419 Y96.116 F7800.000
G1 F1200
G1 X101.715 Y96.820 E3.40701
G1 E1.40701 F2400.00000
G92 E0
G1 X103.092 Y98.650 F7800.000
G1 E2.00000 F2400.00000
G1 F1200
G1 X103.417 Y98.325 E2.01430
G1 X103.624 Y98.168 E2.02237
G1 X103.732 Y98.319 E2.02814
G1 X103.962 Y98.385 E2.03559
G1 X104.127 Y98.111 E2.04555
G1 X104.107 Y98.090 E2.04644
G1 X104.214 Y97.859 E2.05437
G1 X104.689 Y97.676 E2.07020
G1 X103.597 Y98.768 E2.11827
G1 X103.702 Y98.757 E2.12154
G1 X103.978 Y98.838 E2.13050
G1 X103.967 Y99.019 E2.13614
G1 X105.639 Y97.348 E2.20969
G1 X106.561 Y97.047 E2.23988
G1 X103.924 Y99.685 E2.35595
G1 X104.617 Y99.614 E2.37765
G1 X107.388 Y96.843 E2.49957
G1 X107.844 Y96.709 E2.51434
G1 X108.230 Y96.623 E2.52668
G1 X105.385 Y99.468 E2.65187
G1 X105.940 Y99.369 E2.66938
G1 X106.154 Y99.321 E2.67622
G1 X107.758 Y97.717 E2.74682
G1 X107.926 Y98.054 E2.75853
G1 X108.155 Y97.943 E2.76643
G1 X106.978 Y99.119 E2.81819
G1 X107.840 Y98.879 E2.84604
G1 X110.552 Y96.168 E2.96535
G1 X111.404 Y95.938 E2.99281
G1 X110.198 Y97.143 E3.04585
G1 X110.507 Y97.416 E3.05868
G1 X109.929 Y97.413 E3.07668
G1 X108.736 Y98.606 E3.12917
G1 X109.450 Y98.299 E3.15335
G1 X109.790 Y98.173 E3.16465
G1 X111.877 Y96.087 E3.25646
G1 X112.259 Y96.315 E3.27030
G1 X112.428 Y96.059 E3.27985
G1 X112.364 Y95.853 E3.28654
G1 X112.704 Y95.881 E3.29715
G1 X110.635 Y97.950 E3.38819
G1 X111.493 Y97.715 E3.41585
G1 X111.863 Y97.344 E3.43217
G1 X111.844 Y97.332 E3.43289
G1 X112.040 Y96.990 E3.44516
G1 X112.159 Y97.049 E3.44928
G1 X113.240 Y95.968 E3.49686
G1 X113.374 Y96.027 E3.50143
G1 X113.464 Y96.324 E3.51109
G1 X113.426 Y96.403 E3.51381
G1 X113.099 Y96.731 E3.52823
G1 E1.52823 F2400.00000
G92 E0
G1 X107.941 Y98.156 F7800.000
G1 E2.00000 F2400.00000
G1 F1200
G1 X109.701 Y96.396 E2.07745
G1 X108.974 Y96.502 E2.10032
G1 X107.519 Y97.956 E2.16433
G1 X107.417 Y98.008 E2.16789
G1 X107.434 Y98.042 E2.16906
G1 E0.16906 F2400.00000
G92 E0
G1 X104.292 Y98.694 F7800.000
G1 E2.00000 F2400.00000
G1 F1200
G1 X104.280 Y98.910 E2.00672
G1 X104.030 Y98.977 E2.01478
G1 X103.967 Y99.020 E2.01717
G1 X103.345 Y99.642 E2.04453
G1 X103.367 Y100.541 F7800.000
G1 F1200
G1 X103.042 Y100.867 E2.06060
G1 X103.429 Y101.178 F7800.000
G1 F1200
G1 X103.754 Y100.853 E2.07665
G1 X103.516 Y101.215 F7800.000
G1 F1200
G1 X103.841 Y100.890 E2.09270
G1 X104.153 Y100.730 E2.10494
G1 X104.481 Y100.706 E2.11645
G1 X104.484 Y100.592 E2.12040
G1 X104.694 Y100.644 E2.12797
G1 X103.648 Y101.691 E2.17968
G1 X103.680 Y101.688 E2.18083
G1 X103.653 Y101.736 E2.18278
G1 X103.656 Y101.770 E2.18397
G1 X103.748 Y101.788 E2.18722
G1 X103.687 Y102.184 E2.20120
G1 X103.412 Y102.154 E2.21088
G1 X103.376 Y102.215 E2.21335
G1 X103.596 Y102.351 E2.22236
G1 X105.174 Y100.773 E2.30032
G1 X105.648 Y100.906 E2.31754
G1 X104.005 Y102.549 E2.39872
G1 X104.423 Y102.739 E2.41475
G1 X106.120 Y101.043 E2.49856
G1 X106.587 Y101.183 E2.51561
G1 X104.841 Y102.929 E2.60187
G1 X105.259 Y103.119 E2.61791
G1 X107.033 Y101.345 E2.70554
G1 X107.471 Y101.515 E2.72196
G1 X105.733 Y103.253 E2.80782
G1 X105.717 Y103.306 E2.80977
G1 X106.130 Y103.464 E2.82523
G1 X107.915 Y101.679 E2.91342
G1 X108.364 Y101.838 E2.93006
G1 X106.585 Y103.617 E3.01795
G1 X107.025 Y103.786 E3.03439
G1 X108.782 Y102.028 E3.12122
G1 X109.180 Y102.239 E3.13693
G1 X107.482 Y103.937 E3.22082
G1 X107.959 Y104.067 E3.23810
G1 X109.452 Y102.574 E3.31188
G1 X109.396 Y102.704 E3.31682
G1 X109.749 Y102.873 E3.33050
G1 X109.926 Y102.602 E3.34183
G1 X110.004 Y102.630 E3.34472
G1 X108.462 Y104.172 E3.42089
G1 X108.955 Y104.287 E3.43858
G1 X110.458 Y102.784 E3.51282
G1 X110.905 Y102.945 E3.52941
G1 X110.353 Y103.497 E3.55665
G1 X110.516 Y103.618 E3.56373
G1 X110.336 Y103.937 E3.57651
G1 X110.034 Y103.816 E3.58789
G1 X109.399 Y104.451 E3.61926
G1 X109.841 Y104.617 E3.63576
G1 X111.350 Y103.108 E3.71028
G1 X111.768 Y103.298 E3.72632
G1 X110.285 Y104.781 E3.79959
G1 X110.742 Y104.932 E3.81640
G1 X112.142 Y103.532 E3.88556
G1 X112.478 Y103.804 E3.90067
G1 X111.242 Y105.040 E3.96172
G1 X111.837 Y105.053 E3.98250
G1 X112.795 Y104.095 E4.02984
G1 X112.959 Y104.291 E4.03875
G1 X112.971 Y104.408 E4.04287
G1 X112.889 Y104.606 E4.05036
G1 X112.547 Y104.951 E4.06731
G1 E2.06731 F2400.00000
G92 E0
G1 X103.682 Y101.410 F7800.000
G1 E2.00000 F2400.00000
G1 F1200
G1 X103.358 Y101.735 E2.01605
G1 X103.068 Y101.374 F7800.000
G1 F1200
G1 X102.743 Y101.699 E2.03211
G1 X101.577 Y102.230 F7800.000
G1 F1200
G1 X102.280 Y101.503 E2.06429
G1 X102.595 Y101.093 E2.08074
G1 X102.612 Y100.870 E2.08786
G1 X102.681 Y100.841 E2.09022
G1 X102.802 Y100.576 E2.09949
G1 X102.823 Y100.411 E2.10478
G1 X102.865 Y100.371 E2.10662
G1 X102.865 Y100.306 E2.10870
G1 X100.429 Y102.742 E2.21832
G1 X99.885 Y102.804 E2.23571
G1 X99.745 Y102.790 E2.24021
G1 X102.887 Y99.648 E2.38158
G1 X102.875 Y99.378 E2.39018
G1 X102.803 Y99.096 E2.39944
G1 X99.198 Y102.701 E2.56166
G1 X98.956 Y102.633 E2.56965
G1 X98.735 Y102.528 E2.57744
G1 X100.616 Y100.647 E2.66208
G1 X99.962 Y100.664 E2.68288
G1 X98.330 Y102.296 E2.75631
G1 X98.160 Y102.177 E2.76293
G1 X97.988 Y102.003 E2.77072
G1 X99.381 Y100.609 E2.83343
G1 X99.179 Y100.517 E2.84051
G1 X99.047 Y100.414 E2.84582
G1 X99.000 Y100.354 E2.84824
G1 X97.697 Y101.657 E2.90687
G1 X97.524 Y101.396 E2.91683
G1 X97.459 Y101.259 E2.92166
G1 X98.789 Y99.929 E2.98150
G1 E0.98150 F2400.00000
G92 E0
G1 X98.458 Y97.716 F7800.000
G1 E2.00000 F2400.00000
G1 F1200
G1 X97.800 Y98.408 E2.03037
G1 X97.486 Y98.861 E2.04790
G1 X97.416 Y99.001 E2.05289
G1 X97.263 Y99.460 E2.06826
G1 X97.246 Y99.564 E2.07163
G1 X99.653 Y97.157 E2.17996
G1 X99.772 Y97.125 E2.18386
G1 X100.128 Y97.091 E2.19524
G1 X100.341 Y97.105 E2.20203
G1 X97.206 Y100.240 E2.34308
G1 X97.224 Y100.555 E2.35311
G1 X97.288 Y100.794 E2.36098
G1 X100.895 Y97.187 E2.52328
G1 X101.093 Y97.240 E2.52980
G1 X101.358 Y97.360 E2.53905
G1 X99.697 Y99.022 E2.61379
G1 X99.864 Y99.016 E2.61914
G1 X100.257 Y99.098 E2.63188
G1 X101.764 Y97.590 E2.69970
G1 X101.926 Y97.706 E2.70605
G1 X102.113 Y97.878 E2.71410
G1 X100.686 Y99.304 E2.77831
G1 X100.918 Y99.500 E2.78797
G1 X101.016 Y99.610 E2.79266
G1 X102.396 Y98.230 E2.85477
G1 X102.533 Y98.424 E2.86231
G1 X102.635 Y98.627 E2.86955
G1 X101.223 Y100.039 E2.93308
G1 E0.93308 F2400.00000
G92 E0
G1 X102.047 Y102.734 F7800.000
G1 E2.00000 F2400.00000
G1 F1200
G1 X101.972 Y102.706 E2.00285
G1 X101.986 Y102.795 E2.00606
G1 X102.372 Y102.409 E2.02541
G1 X102.670 Y102.579 E2.03759
G1 X102.549 Y102.629 E2.04224
G1 X102.503 Y102.762 E2.04725
G1 X102.518 Y102.971 E2.05469
G1 X102.193 Y103.296 E2.07098
G1 X102.146 Y103.351 F7800.000
G1 F1200
G1 X101.821 Y103.677 E2.08729
G1 X101.654 Y104.017 E2.10073
G1 X101.481 Y104.030 E2.10688
G1 X101.686 Y104.425 E2.12264
G1 X103.122 Y102.989 E2.19465
G1 X103.404 Y103.320 E2.21008
G1 X101.910 Y104.815 E2.28503
G1 X102.134 Y105.204 E2.30096
G1 X103.596 Y103.742 E2.37426
G1 X103.611 Y103.759 E2.37504
G1 X103.703 Y103.679 E2.37936
G1 X103.962 Y103.990 E2.39373
G1 X102.357 Y105.595 E2.47419
G1 X102.599 Y105.967 E2.48992
G1 X104.241 Y104.325 E2.57225
G1 X104.509 Y104.671 E2.58776
G1 X102.840 Y106.339 E2.67143
G1 X103.097 Y106.697 E2.68702
G1 X104.773 Y105.021 E2.77105
G1 X105.016 Y105.391 E2.78676
G1 X103.356 Y107.051 E2.87003
G1 X103.600 Y107.421 E2.88573
G1 X105.265 Y105.755 E2.96923
G1 X105.525 Y106.109 E2.98480
G1 X103.859 Y107.775 E3.06833
G1 X104.140 Y108.108 E3.08377
G1 X105.763 Y106.485 E3.16515
G1 X105.977 Y106.885 E3.18122
G1 X104.443 Y108.419 E3.25816
G1 X104.732 Y108.744 E3.27358
G1 X106.185 Y107.290 E3.34646
G1 X106.405 Y107.684 E3.36246
G1 X105.619 Y108.470 E3.40187
G1 X105.808 Y108.895 E3.41836
G1 X106.655 Y108.048 E3.46087
G1 X106.910 Y108.406 E3.47648
G1 X105.493 Y109.824 E3.54755
G1 X105.751 Y110.180 E3.56313
G1 X107.009 Y108.922 E3.62621
G1 X107.048 Y108.972 E3.62846
G1 X107.218 Y108.843 E3.63606
G1 X107.418 Y109.126 E3.64836
G1 X106.020 Y110.524 E3.71843
G1 X106.321 Y110.837 E3.73382
G1 X107.226 Y109.932 E3.77919
G1 X107.450 Y110.081 E3.78871
G1 X107.618 Y110.066 E3.79470
G1 X107.682 Y110.089 E3.79712
G1 X106.670 Y111.101 E3.84785
G1 X107.048 Y111.337 E3.86365
G1 X107.937 Y110.449 E3.90820
G1 X107.972 Y110.595 E3.91355
G1 X108.001 Y110.988 E3.92750
G1 X107.634 Y111.365 E3.94614
G1 E1.94614 F2400.00000
G92 E0
G1 X105.249 Y109.454 F7800.000
G1 E2.00000 F2400.00000
G1 F1200
G1 X105.975 Y108.728 E2.03645
G1 X105.829 Y108.806 E2.04235
G1 X105.703 Y108.625 E2.05016
G1 X105.625 Y108.464 E2.05650
G1 X105.002 Y109.088 E2.08775
G1 X104.732 Y108.744 E2.10324
G1 E0.10324 F2400.00000
G92 E0
G1 X101.767 Y103.622 F7800.000
G1 E2.00000 F2400.00000
G1 F1200
G1 X102.092 Y103.297 E2.01629
G1 X101.716 Y102.965 F7800.000
G1 F1200
G1 X101.270 Y103.411 E2.03862
M106 S214.2
G1 Z2.000 F7800.000
G1 X100.462 Y104.625 F7800.000
G1 F1200
G1 X100.137 Y104.300 E2.05310
G1 X99.999 Y104.793 E2.06922
G1 X100.494 Y105.287 E2.09125
G1 X100.480 Y105.903 E2.11066
G1 X99.823 Y105.246 E2.13993
G1 X99.683 Y105.737 E2.15600
G1 X100.441 Y106.495 E2.18976
G1 X100.380 Y107.064 E2.20780
G1 X99.307 Y105.991 E2.25561
G1 X99.280 Y104.704 F7800.000
G1 F1200
G1 X98.904 Y104.327 E2.27238
G1 X98.799 Y104.853 E2.28926
G1 X99.413 Y105.466 E2.31660
G1 X99.447 Y105.645 E2.32234
G1 X99.485 Y106.168 E2.33887
G1 X98.713 Y105.397 E2.37325
G1 X98.650 Y105.964 E2.39122
G1 X100.303 Y107.617 E2.46490
G1 X100.234 Y108.177 E2.48269
G1 X99.612 Y107.555 E2.51041
G1 X99.596 Y107.805 E2.51831
G1 X99.546 Y108.120 E2.52833
G1 X100.177 Y108.751 E2.55646
G1 X100.088 Y109.292 E2.57373
G1 X99.353 Y108.557 E2.60647
G1 X99.410 Y107.354 F7800.000
G1 F1200
G1 X98.610 Y106.553 E2.64212
G1 X98.581 Y107.155 E2.66110
G1 X99.228 Y107.802 E2.68992
G1 X99.190 Y108.145 E2.70081
G1 X99.196 Y108.400 E2.70883
G1 X98.557 Y107.760 E2.73734
G1 X98.511 Y108.345 E2.75582
G1 X99.941 Y109.775 E2.81954
G1 X99.890 Y109.925 E2.82453
G1 X99.822 Y110.286 E2.83610
G1 X99.254 Y109.717 E2.86143
G1 X99.319 Y109.845 E2.86595
G1 X99.354 Y110.160 E2.87593
G1 X99.352 Y110.446 E2.88493
G1 X99.795 Y110.888 E2.90466
G1 X99.791 Y111.514 E2.92438
G1 X99.317 Y111.041 E2.94548
G1 X99.302 Y111.339 E2.95491
G1 X99.312 Y111.666 E2.96519
G1 X99.735 Y112.089 E2.98404
G1 X99.670 Y112.406 E2.99425
G1 X99.637 Y111.991 E3.00738
G1 X98.699 Y112.312 F7800.000
G1 F1200
G1 X98.374 Y111.987 E3.02186
G1 X98.375 Y111.358 E3.04168
G1 X98.829 Y111.813 E3.06193
G1 X98.912 Y111.266 E3.07936
G1 X98.457 Y110.811 E3.09965
G1 X98.546 Y110.297 E3.11607
G1 X98.551 Y110.275 E3.11679
G1 X98.974 Y110.697 E3.13562
G1 X99.035 Y110.355 E3.14658
G1 X99.087 Y110.180 E3.15232
G1 X98.594 Y109.688 E3.17426
G1 X98.520 Y108.983 E3.19659
G1 X99.324 Y109.787 E3.23243
G1 E1.23243 F2400.00000
G92 E0
G1 X96.387 Y98.155 F7800.000
G1 E2.00000 F2400.00000
G1 F1200
G1 X96.061 Y97.830 E2.01386
G1 X95.943 Y97.759 E2.01804
G1 X94.899 Y97.270 E2.05280
G1 X95.696 Y98.067 E2.08679
G1 X95.364 Y98.052 E2.09680
G1 X95.006 Y97.981 E2.10781
G1 X93.952 Y96.926 E2.15278
G1 X93.077 Y96.655 E2.18039
G1 X94.548 Y98.125 E2.24309
G1 X94.400 Y98.201 E2.24809
G1 X94.717 Y98.478 E2.26079
G1 X95.159 Y98.736 E2.27621
G1 X95.625 Y99.202 E2.29609
G1 X95.206 Y99.109 E2.30903
G1 X94.808 Y98.988 E2.32158
G1 X93.392 Y97.572 E2.38196
G1 X93.051 Y97.662 E2.39259
G1 X92.872 Y97.655 E2.39801
G1 X93.866 Y98.649 E2.44041
G1 X93.125 Y98.360 E2.46438
G1 X92.836 Y98.222 E2.47403
G1 X90.640 Y96.025 E2.56771
G1 X90.219 Y95.857 E2.58138
G1 X89.822 Y95.653 E2.59484
G1 X89.555 Y95.544 E2.60352
G1 X90.146 Y96.134 E2.62870
G1 X89.437 Y95.841 E2.65184
G1 X89.013 Y95.595 E2.66661
G1 X89.226 Y95.637 E2.67314
G1 X89.594 Y95.747 E2.68474
G1 X89.880 Y95.869 E2.69412
G1 X88.721 Y96.519 F7800.000
G1 F1200
G1 X88.396 Y96.194 E2.70797
G1 X88.736 Y96.239 E2.71830
G1 X89.163 Y96.357 E2.73165
G1 X89.711 Y96.906 E2.75505
G1 X90.547 Y97.138 E2.78119
G1 X90.068 Y96.659 E2.80162
G1 X90.294 Y96.722 E2.80871
G1 X90.427 Y96.733 E2.81273
G1 X90.720 Y96.709 E2.82161
G1 X91.849 Y97.838 E2.86975
G1 X93.001 Y97.181 F7800.000
G1 F1200
G1 X92.176 Y96.356 E2.90494
G1 X91.815 Y96.235 E2.91643
G1 X91.562 Y96.178 E2.92426
G1 X91.380 Y96.163 E2.92976
G1 X92.274 Y97.057 E2.96789
G1 X92.180 Y97.059 E2.97072
G1 X92.070 Y97.436 E2.98257
G1 X92.272 Y97.615 E2.99068
G1 X92.609 Y97.799 E3.00228
G1 X93.029 Y97.954 E3.01578
G1 X93.197 Y97.980 E3.02089
G1 E1.02089 F2400.00000
G92 E0
G1 X97.276 Y96.889 F7800.000
G1 E2.00000 F2400.00000
G1 F1200
G1 X96.951 Y96.564 E2.01579
G1 X96.523 Y96.071 E2.03825
G1 X96.521 Y96.049 E2.03902
G1 X96.360 Y95.883 E2.04695
G1 X95.971 Y95.367 E2.06918
G1 X95.494 Y94.665 E2.09832
G1 X95.065 Y93.991 E2.12579
G1 X96.890 Y95.816 E2.21450
G1 X96.640 Y95.278 E2.23491
G1 X96.934 Y95.172 E2.24563
G1 X95.928 Y94.166 E2.29453
G1 X96.077 Y93.798 E2.30819
G1 X96.007 Y93.559 E2.31676
G1 X97.875 Y95.426 E2.40753
G1 X97.528 Y94.882 E2.42968
G1 X97.065 Y94.235 E2.45703
G1 X96.409 Y93.398 E2.49358
G1 X96.088 Y92.952 E2.51247
G1 X94.400 Y91.264 E2.59451
G1 X94.326 Y91.090 E2.60102
G1 X94.307 Y91.099 E2.60173
G1 X93.745 Y90.248 E2.63679
G1 X93.501 Y89.805 E2.65417
G1 X93.416 Y89.593 E2.66201
G1 X93.742 Y89.919 E2.67787
G1 X93.418 Y90.969 F7800.000
G1 F1200
G1 X92.639 Y90.190 E2.71574
G1 X92.989 Y90.772 E2.73906
G1 X93.695 Y91.612 E2.77679
G1 X93.869 Y91.847 E2.78683
G1 X93.988 Y92.052 E2.79499
G1 X94.112 Y92.350 E2.80608
G1 X95.283 Y93.522 E2.86303
G1 X95.558 Y93.989 E2.88165
G1 X95.721 Y94.192 E2.89060
G1 X95.864 Y94.319 E2.89717
G1 X95.967 Y94.382 E2.90130
G1 X96.252 Y94.491 E2.91182
G1 X95.451 Y93.002 F7800.000
G1 F1200
G1 X94.405 Y91.957 E2.96262
G1 E0.96262 F2400.00000
G92 E0
G1 X99.527 Y95.373 F7800.000
G1 E2.00000 F2400.00000
G1 F1200
G1 X99.852 Y95.698 E2.01359
G1 X99.986 Y95.241 E2.02767
G1 X99.501 Y94.756 E2.04797
G1 X99.511 Y94.174 E2.06517
G1 X100.150 Y94.814 E2.09192
G1 X100.285 Y94.357 E2.10600
G1 X99.549 Y93.621 E2.13680
G1 X99.601 Y93.083 E2.15280
G1 X100.452 Y93.933 E2.18838
G1 X101.329 Y94.219 F7800.000
G1 F1200
G1 X101.363 Y93.662 E2.20489
G1 X100.439 Y92.738 E2.24352
G1 X100.546 Y92.760 E2.24675
G1 X100.716 Y92.423 E2.25791
G1 X101.396 Y93.104 E2.28637
G1 X101.425 Y92.541 E2.30305
G1 X100.796 Y91.912 E2.32936
G1 X100.785 Y91.460 E2.34272
G1 X100.737 Y91.262 E2.34873
G1 X101.463 Y91.988 E2.37908
G1 X101.115 Y90.457 F7800.000
G1 F1200
G1 X101.016 Y90.742 E2.38800
G1 X100.673 Y90.194 E2.40712
G1 X100.647 Y89.990 E2.41321
G1 X100.197 Y89.539 E2.43205
G1 X100.192 Y88.943 E2.44968
G1 X100.645 Y89.396 E2.46864
G1 X100.681 Y88.841 E2.48509
G1 X100.205 Y88.365 E2.50500
G1 X100.223 Y88.106 E2.51268
G1 X100.271 Y87.839 E2.52069
G1 X100.682 Y88.250 E2.53788
G1 X101.624 Y88.010 F7800.000
G1 F1200
G1 X101.299 Y87.685 E2.55147
G1 X101.227 Y87.881 E2.55765
G1 X101.173 Y88.150 E2.56577
G1 X101.617 Y88.594 E2.58433
G1 X101.615 Y88.720 E2.58806
G1 X101.551 Y89.119 E2.60001
G1 X101.090 Y88.659 E2.61927
G1 X101.063 Y88.873 E2.62565
G1 X101.032 Y89.192 E2.63514
G1 X101.467 Y89.626 E2.65330
G1 X101.387 Y90.138 E2.66862
G1 X100.945 Y89.697 E2.68710
G1 X100.790 Y90.132 E2.70077
G1 X101.450 Y90.793 E2.72840
G1 X101.471 Y90.943 E2.73289
G1 X101.485 Y91.418 E2.74696
G1 X100.109 Y90.043 E2.80449
G1 X99.971 Y90.496 E2.81850
G1 X100.917 Y91.441 E2.85803
G1 X100.701 Y91.384 E2.86462
G1 X100.539 Y91.579 E2.87213
G1 X100.519 Y91.635 E2.87389
G1 X99.857 Y90.973 E2.90156
G1 X99.805 Y91.309 E2.91160
G1 X99.792 Y91.500 E2.91725
G1 X100.409 Y92.116 E2.94304
G1 X100.377 Y92.496 E2.95432
G1 X100.401 Y92.699 E2.96037
G1 X99.738 Y92.036 E2.98810
G1 X99.670 Y92.559 E3.00370
G1 X101.329 Y94.219 E3.07310
G1 X101.262 Y94.743 E3.08873
G1 X100.526 Y94.007 E3.11948
G1 X100.557 Y94.428 E3.13196
G1 X100.611 Y94.684 E3.13968
G1 X101.178 Y95.250 E3.16337
G1 X101.071 Y95.734 E3.17804
G1 X100.715 Y95.378 E3.19294
G1 E1.19294 F2400.00000
G92 E0
G1 X104.692 Y101.124 F7800.000
G1 E2.00000 F2400.00000
G1 F1200
G1 X104.350 Y101.056 E2.01058
G1 X104.649 Y101.228 E2.02102
G1 X105.174 Y101.606 E2.04063
G1 X104.368 Y100.799 E2.07517
G1 X104.854 Y100.915 E2.09030
G1 X105.203 Y101.030 E2.10143
G1 X106.671 Y102.497 E2.16425
G1 X106.835 Y102.353 E2.17088
G1 X107.140 Y102.361 E2.18010
G1 X106.143 Y101.365 E2.22275
G1 X107.168 Y101.785 E2.25627
G1 X108.336 Y102.953 E2.30627
G1 X107.014 Y102.841 F7800.000
G1 F1200
G1 X107.846 Y103.673 E2.34188
G1 X108.012 Y103.729 E2.34719
G1 X108.627 Y103.849 E2.36615
G1 X107.723 Y102.945 E2.40485
G1 X108.032 Y102.648 E2.41780
G1 X109.374 Y103.991 E2.47526
G1 X109.795 Y104.157 E2.48897
G1 X109.999 Y104.271 E2.49605
G1 X110.469 Y104.480 E2.51160
G1 X110.200 Y104.212 E2.52308
G1 X109.717 Y104.022 E2.53880
G1 X109.249 Y103.747 E2.55522
G1 X109.073 Y103.525 E2.56381
G1 X109.308 Y103.319 E2.57325
G1 X108.177 Y102.188 E2.62166
G1 X108.277 Y102.227 E2.62492
G1 X108.730 Y102.487 E2.64072
G1 X108.981 Y102.667 E2.65007
G1 X109.264 Y102.807 E2.65963
G1 X109.479 Y102.885 E2.66657
G1 X109.956 Y103.362 E2.68697
G1 X110.858 Y103.659 E2.71572
G1 X110.306 Y103.107 E2.73935
G1 X110.351 Y103.115 E2.74074
G1 X110.754 Y103.243 E2.75353
G1 X111.300 Y103.496 E2.77176
G1 X111.625 Y103.821 E2.78567
G1 E0.78567 F2400.00000
G92 E0
G1 X106.924 Y103.355 F7800.000
G1 E2.00000 F2400.00000
G1 F1200
G1 X105.431 Y101.862 E2.06390
G1 X105.265 Y102.052 E2.07153
G1 X104.992 Y102.029 E2.07981
G1 X106.036 Y103.073 E2.12452
G1 X105.680 Y102.960 E2.13584
G1 X105.079 Y102.721 E2.15539
G1 X104.298 Y101.940 E2.18884
G1 X104.037 Y101.921 E2.19676
G1 X103.608 Y101.855 E2.20989
G1 X103.933 Y102.180 E2.22380
G1 X102.837 Y103.249 F7800.000
G1 F1200
G1 X103.162 Y103.573 E2.23957
G1 E0.23957 F2400.00000
G92 E0
G1 X104.933 Y106.031 F7800.000
G1 E2.00000 F2400.00000
G1 F1200
G1 X103.115 Y104.213 E2.08825
G1 X103.230 Y104.446 E2.09716
G1 X103.294 Y104.733 E2.10726
G1 X103.071 Y104.855 E2.11599
G1 X104.014 Y105.798 E2.16178
G1 X103.933 Y106.193 E2.17559
G1 X103.931 Y106.272 E2.17830
G1 X103.996 Y106.467 E2.18538
G1 X102.141 Y104.612 E2.27545
G1 X102.591 Y105.312 E2.30400
G1 X103.347 Y106.326 E2.34743
G1 X103.640 Y106.684 E2.36331
G1 X103.921 Y107.078 E2.37991
G1 X105.614 Y108.771 E2.46210
G1 X105.802 Y109.104 E2.47525
G1 X106.156 Y109.606 E2.49632
G1 X106.506 Y110.234 E2.52100
G1 X106.581 Y110.424 E2.52802
G1 X106.255 Y110.098 E2.54383
G1 X107.354 Y109.825 F7800.000
G1 F1200
G1 X106.595 Y109.066 E2.58071
G1 X106.005 Y108.274 E2.61461
G1 X105.793 Y108.024 E2.62585
G1 X105.380 Y107.697 E2.64394
G1 X105.315 Y107.786 E2.64771
G1 X105.888 Y107.672 F7800.000
G1 F1200
G1 X104.707 Y106.491 E2.70506
G1 X104.778 Y106.690 E2.71231
G1 X104.750 Y106.862 E2.71831
G1 X104.588 Y107.058 E2.72704
G1 X105.640 Y108.111 E2.77814
G1 X105.445 Y108.381 E2.78960
G1 X105.614 Y108.771 E2.80417
G1 E0.80417 F2400.00000
G92 E0
G1 X97.842 Y104.036 F7800.000
G1 E2.00000 F2400.00000
G1 F1200
G1 X97.517 Y103.711 E2.01417
G1 X97.172 Y103.983 E2.02771
G1 X97.604 Y104.415 E2.04656
G1 X97.350 Y104.778 E2.06022
G1 X96.804 Y104.231 E2.08405
G1 X96.458 Y104.501 E2.09760
G1 X97.084 Y105.128 E2.12493
G1 X96.809 Y105.469 E2.13845
G1 X95.981 Y104.642 E2.17454
G1 X96.306 Y104.967 F7800.000
G1 F1200
G1 X96.163 Y104.885 E2.17962
G1 X96.170 Y104.857 E2.18051
G1 X96.121 Y104.820 E2.18239
G1 X96.134 Y104.794 E2.18328
G1 X95.438 Y104.098 E2.21363
G1 X95.732 Y103.776 E2.22709
G1 X96.351 Y104.394 E2.25406
G1 X96.480 Y104.168 E2.26210
G1 X96.555 Y103.983 E2.26828
G1 X96.031 Y103.458 E2.29114
G1 X96.346 Y103.156 E2.30459
G1 X96.751 Y103.562 E2.32227
G1 E0.32227 F2400.00000
G92 E0
G1 X96.526 Y105.803 F7800.000
G1 E2.00000 F2400.00000
G1 F1200
G1 X95.160 Y104.438 E2.05956
G1 X94.887 Y104.781 E2.07309
G1 X96.234 Y106.128 E2.13184
G1 X95.941 Y106.452 E2.14530
G1 X95.346 Y105.857 E2.17126
G1 X95.262 Y106.007 E2.17655
G1 X95.097 Y106.224 E2.18498
G1 X95.643 Y106.770 E2.20878
G1 X95.357 Y107.101 E2.22226
G1 X94.784 Y106.528 E2.24724
G1 X95.230 Y105.740 F7800.000
G1 F1200
G1 X94.621 Y105.131 E2.27381
G1 X94.355 Y105.482 E2.28738
G1 X94.906 Y106.033 E2.31144
G1 X94.642 Y106.385 E2.32502
G1 X94.076 Y105.819 E2.34970
G1 X93.842 Y106.099 E2.36095
G1 X93.801 Y106.161 E2.36324
G1 X95.065 Y107.425 E2.41837
G1 X94.746 Y107.723 E2.43182
G1 X93.549 Y106.526 E2.48406
G1 X93.339 Y106.933 E2.49818
G1 X94.397 Y107.990 E2.54431
G1 X94.068 Y108.278 E2.55778
G1 X93.636 Y107.846 E2.57664
G1 X93.558 Y107.996 E2.58184
G1 X93.398 Y108.225 E2.59047
G1 X93.806 Y108.633 E2.60827
G1 X93.555 Y108.999 E2.62194
G1 X93.129 Y108.573 E2.64052
G1 X92.857 Y108.917 E2.65406
G1 X93.292 Y109.352 E2.67302
G1 X93.001 Y109.678 E2.68649
G1 X92.599 Y109.276 E2.70400
G1 X92.000 Y109.293 F7800.000
G1 F1200
G1 X91.675 Y108.968 E2.71817
G1 X91.931 Y108.607 E2.73181
G1 X92.342 Y109.019 E2.74977
G1 X92.649 Y108.709 E2.76321
G1 X92.208 Y108.268 E2.78246
G1 X92.489 Y107.979 E2.79489
G1 X92.513 Y107.956 E2.79591
G1 X92.936 Y108.379 E2.81434
G1 X93.228 Y108.054 E2.82781
G1 X92.823 Y107.649 E2.84547
G1 X93.114 Y107.324 E2.85893
G1 X93.566 Y107.777 E2.87865
G1 E0.87865 F2400.00000
G92 E0
G1 X92.509 Y103.012 F7800.000
G1 E2.00000 F2400.00000
G1 F1200
G1 X93.002 Y102.899 E2.01531
G1 X92.412 Y102.309 E2.04058
G1 X92.643 Y102.227 E2.04802
G1 X92.837 Y102.129 E2.05460
G1 X93.502 Y102.794 E2.08311
G1 X94.241 Y101.715 F7800.000
G1 F1200
G1 X94.941 Y102.416 E2.11315
G1 X95.393 Y102.261 E2.12760
G1 X94.809 Y101.678 E2.15261
G1 X95.418 Y101.680 E2.17105
G1 X95.832 Y102.094 E2.18879
G1 X95.775 Y100.826 F7800.000
G1 F1200
G1 X95.450 Y100.501 E2.20271
G1 X94.916 Y100.573 E2.21903
G1 X95.368 Y101.025 E2.23842
G1 X94.989 Y101.252 E2.25180
G1 X94.400 Y100.663 E2.27706
G1 X93.902 Y100.771 E2.29248
G1 X94.589 Y101.457 E2.32188
G1 X94.446 Y101.526 E2.32668
G1 X94.208 Y101.682 E2.33531
G1 X93.426 Y100.901 E2.36878
G1 X92.967 Y101.047 E2.38339
G1 X94.477 Y102.557 E2.44808
G1 X93.993 Y102.678 E2.46321
G1 X92.509 Y101.195 E2.52676
G1 X92.053 Y101.344 E2.54131
G1 X92.626 Y101.918 E2.56589
G1 X92.501 Y101.944 E2.56978
G1 X92.164 Y102.061 E2.58058
G1 X91.567 Y101.464 E2.60616
G1 X91.113 Y101.616 E2.62067
G1 X91.784 Y102.287 E2.64941
G1 X91.607 Y102.430 E2.65629
G1 X91.931 Y102.732 E2.66970
G1 X92.228 Y102.732 E2.67872
G1 X92.509 Y103.012 E2.69073
G1 X92.311 Y103.074 E2.69702
G1 X92.021 Y103.129 E2.70597
G1 X90.688 Y101.797 E2.76308
G1 X90.298 Y102.012 E2.77658
G1 X91.511 Y103.225 E2.82854
G1 X90.931 Y103.251 E2.84613
G1 X90.376 Y102.696 E2.86989
G1 X90.284 Y102.792 E2.87391
G1 X89.997 Y102.923 E2.88347
G1 X90.416 Y103.342 E2.90139
G1 X89.963 Y103.494 E2.91587
G1 X89.549 Y103.081 E2.93358
G1 X89.079 Y103.216 E2.94841
G1 X89.520 Y103.658 E2.96733
G1 X89.278 Y103.747 E2.97515
G1 X89.055 Y103.799 E2.98207
G1 X88.629 Y103.372 E3.00034
G1 X88.209 Y103.558 E3.01426
G1 X88.534 Y103.883 E3.02818
G1 X88.666 Y102.804 F7800.000
G1 F1200
G1 X88.273 Y102.951 E3.04091
G1 X88.773 Y102.910 E3.05612
G1 X88.341 Y102.479 E3.07461
G1 X88.819 Y102.350 E3.08958
G1 X89.267 Y102.799 E3.10880
G1 X89.759 Y102.685 E3.12409
G1 X89.331 Y102.257 E3.14241
G1 X89.726 Y102.210 E3.15446
G1 X89.849 Y102.169 E3.15839
G1 X90.276 Y102.597 E3.17670
G1 E1.17670 F2400.00000
G92 E0
G1 X102.144 Y95.978 F7800.000
G1 E2.00000 F2400.00000
G1 F1200
G1 X102.469 Y96.303 E2.01426
G1 X102.814 Y96.028 E2.02797
G1 X102.382 Y95.596 E2.04691
G1 X102.636 Y95.229 E2.06076
G1 X103.185 Y95.778 E2.08485
G1 X103.369 Y95.658 E2.09167
G1 X103.538 Y95.511 E2.09864
G1 X102.905 Y94.877 E2.12644
G1 X103.182 Y94.534 E2.14014
G1 X103.919 Y95.271 E2.17248
G1 X105.099 Y94.589 F7800.000
G1 F1200
G1 X104.938 Y94.689 E2.17835
G1 X104.495 Y94.541 E2.19286
G1 X104.652 Y94.142 E2.20619
G1 X104.061 Y93.551 E2.23212
G1 X104.360 Y93.229 E2.24576
G1 X104.908 Y93.777 E2.26982
G1 X105.138 Y93.537 E2.28014
G1 X105.226 Y93.475 E2.28350
G1 X104.647 Y92.896 E2.30892
G1 X104.940 Y92.568 E2.32257
G1 X105.632 Y93.260 E2.35292
G1 X105.614 Y92.001 F7800.000
G1 F1200
G1 X105.796 Y91.856 E2.36015
G1 X105.941 Y91.707 E2.36659
G1 X106.372 Y92.138 E2.38549
G1 X106.613 Y91.758 E2.39945
G1 X106.208 Y91.353 E2.41724
G1 X106.465 Y90.990 E2.43106
G1 X106.888 Y91.413 E2.44962
G1 X107.162 Y91.066 E2.46334
G1 X106.722 Y90.626 E2.48265
G1 X107.018 Y90.302 E2.49628
G1 X107.416 Y90.700 E2.51376
G1 X108.344 Y91.007 F7800.000
G1 F1200
G1 X108.019 Y90.682 E2.52802
G1 X107.804 Y90.845 E2.53640
G1 X107.682 Y90.966 E2.54173
G1 X108.089 Y91.373 E2.55960
G1 X107.803 Y91.707 E2.57326
G1 X107.371 Y91.275 E2.59222
G1 X107.197 Y91.461 E2.60013
G1 X107.078 Y91.603 E2.60587
G1 X107.499 Y92.024 E2.62435
G1 X107.191 Y92.337 E2.63797
G1 X106.785 Y91.931 E2.65580
G1 X106.646 Y92.075 E2.66201
G1 X106.458 Y92.224 E2.66947
G1 X106.902 Y92.668 E2.68898
G1 X106.671 Y93.057 E2.70304
G1 X105.614 Y92.001 E2.74943
G1 X105.264 Y92.272 E2.76316
G1 X106.457 Y93.465 E2.81551
G1 X106.198 Y93.827 E2.82932
G1 X105.450 Y93.078 E2.86218
G1 X105.501 Y93.194 E2.86611
G1 X105.493 Y93.330 E2.87035
G1 X105.439 Y93.473 E2.87510
G1 X105.360 Y93.609 E2.87997
G1 X105.927 Y94.175 E2.90485
G1 X105.648 Y94.517 E2.91854
G1 X105.098 Y93.968 E2.94265
G1 X104.885 Y94.188 E2.95216
G1 X104.774 Y94.264 E2.95635
G1 X105.383 Y94.873 E2.98308
G1 X105.111 Y95.222 E2.99681
G1 X103.763 Y93.873 E3.05601
G1 X103.471 Y94.203 E3.06966
G1 X104.837 Y95.568 E3.12959
G1 X104.556 Y95.908 E3.14328
G1 X103.835 Y95.187 E3.17493
G1 X103.796 Y95.338 E3.17975
G1 X103.645 Y95.617 E3.18962
G1 X104.262 Y96.235 E3.21674
G1 X103.958 Y96.551 E3.23036
G1 X103.436 Y96.029 E3.25328
G1 X103.239 Y96.453 E3.26778
G1 X103.644 Y96.858 E3.28555
G1 X103.384 Y97.086 E3.29629
G1 X103.564 Y96.778 E3.30736
G1 X104.482 Y98.231 F7800.000
G1 F1200
G1 X104.225 Y98.350 E3.31597
G1 X104.577 Y98.325 E3.32667
G1 X104.157 Y97.906 E3.34468
G1 X104.601 Y97.743 E3.35905
G1 X105.183 Y98.325 E3.38406
G1 X105.385 Y98.326 E3.39020
G1 X105.756 Y98.290 E3.40152
G1 X105.054 Y97.588 E3.43167
G1 X105.527 Y97.454 E3.44661
G1 X107.039 Y98.965 E3.51155
G1 X107.496 Y98.814 E3.52617
G1 X106.008 Y97.326 E3.59012
G1 X106.505 Y97.216 E3.60559
G1 X107.167 Y97.879 E3.63406
G1 X107.463 Y97.733 E3.64409
G1 X107.590 Y97.694 E3.64812
G1 X107.002 Y97.106 E3.67339
G1 X107.494 Y96.990 E3.68874
G1 X108.107 Y97.604 E3.71511
G1 X108.271 Y97.597 E3.72007
G1 X108.834 Y97.723 E3.73761
G1 X107.979 Y96.868 E3.77433
G1 X108.506 Y96.788 E3.79052
G1 X109.711 Y97.992 E3.84228
G1 X109.863 Y97.911 E3.84752
G1 X110.163 Y97.837 E3.85691
G1 X110.060 Y97.733 E3.86135
G1 X109.571 Y97.736 E3.87621
G1 X109.578 Y97.294 E3.88964
G1 X109.606 Y97.280 E3.89060
G1 X109.084 Y96.758 E3.91303
G1 X109.288 Y96.740 E3.91923
G1 X109.596 Y96.662 E3.92889
G1 X110.009 Y97.075 E3.94662
G1 X110.465 Y96.924 E3.96123
G1 X110.043 Y96.501 E3.97937
G1 X110.411 Y96.365 E3.99130
G1 X110.488 Y96.339 E3.99376
G1 X110.939 Y96.790 E4.01314
G1 X111.387 Y96.631 E4.02761
G1 X110.962 Y96.206 E4.04588
G1 X111.327 Y96.129 E4.05720
G1 X111.481 Y96.117 E4.06191
G1 X111.806 Y96.442 E4.07588
G1 X111.670 Y97.521 F7800.000
G1 F1200
G1 X111.247 Y97.098 E4.09404
G1 X110.738 Y97.196 E4.10980
G1 X111.196 Y97.655 E4.12951
G1 X111.155 Y97.667 E4.13081
G1 X110.681 Y97.747 E4.14543
G1 X110.253 Y97.319 E4.16379
G1 X109.735 Y97.409 E4.17978
G1 X109.313 Y98.202 F7800.000
G1 F1200
G1 X108.533 Y97.422 E4.21330
G1 X108.213 Y97.709 E4.22637
G1 X108.899 Y98.395 E4.25586
G1 X108.439 Y98.543 E4.27053
G1 X107.839 Y97.943 E4.29632
G1 X107.377 Y98.088 E4.31105
G1 X107.957 Y98.668 E4.33600
G1 X107.496 Y98.814 E4.35071
G1 X106.567 Y99.101 F7800.000
G1 F1200
G1 X105.711 Y98.244 E4.38753
G1 X105.727 Y98.352 E4.39083
G1 X105.530 Y98.496 E4.39824
G1 X105.410 Y98.552 E4.40226
G1 X106.091 Y99.233 E4.43153
G1 X105.594 Y99.343 E4.44700
G1 X105.005 Y98.754 E4.47232
G1 X104.626 Y98.982 E4.48578
G1 X105.081 Y99.438 E4.50536
G1 X104.542 Y99.506 E4.52188
G1 X104.217 Y99.181 E4.53584
G1 E2.53584 F2400.00000
G92 E0
M107
; Filament-specific end gcode 
;END gcode for filament

M104 S0 ; turn off temperature
G28 X0  ; home X axis
M84     ; disable motors

M140 S0 ; set bed temperature
; filament used = 107.2mm (0.8cm3)
; total filament cost = 0.0

; avoid_crossing_perimeters = 0
; bed_shape = 0x0,200x0,200x200,0x200
; bed_temperature = 0
; before_layer_gcode = 
; between_objects_gcode = 
; bridge_acceleration = 0
; bridge_fan_speed = 100
; brim_connections_width = 0
; brim_width = 0
; complete_objects = 0
; cooling = 1
; default_acceleration = 0
; disable_fan_first_layers = 3
; duplicate_distance = 6
; end_filament_gcode = "; Filament-specific end gcode \n;END gcode for filament\n"
; end_gcode = M104 S0 ; turn off temperature\nG28 X0  ; home X axis\nM84     ; disable motors\n
; extruder_clearance_height = 20
; extruder_clearance_radius = 20
; extruder_offset = 0x0
; extrusion_axis = E
; extrusion_multiplier = 1
; fan_always_on = 0
; fan_below_layer_time = 60
; filament_colour = #FFFFFF
; filament_cost = 0
; filament_density = 0
; filament_diameter = 3
; filament_max_volumetric_speed = 0
; filament_notes = ""
; first_layer_acceleration = 0
; first_layer_bed_temperature = 0
; first_layer_extrusion_width = 200%
; first_layer_speed = 30
; first_layer_temperature = 205
; gcode_arcs = 0
; gcode_comments = 0
; gcode_flavor = reprap
; has_heatbed = 1
; infill_acceleration = 0
; infill_first = 0
; interior_brim_width = 0
; layer_gcode = 
; max_fan_speed = 100
; max_layer_height = 0.3
; max_print_speed = 80
; max_volumetric_speed = 0
; min_fan_speed = 35
; min_layer_height = 0.15
; min_print_speed = 10
; min_skirt_length = 0
; notes = 
; nozzle_diameter = 0.5
; only_retract_when_crossing_perimeters = 1
; ooze_prevention = 0
; output_filename_format = [input_filename_base].gcode
; perimeter_acceleration = 0
; post_process = 
; pressure_advance = 0
; printer_notes = 
; resolution = 0
; retract_before_travel = 2
; retract_layer_change = 0
; retract_length = 2
; retract_length_toolchange = 10
; retract_lift = 0
; retract_lift_above = 0
; retract_lift_below = 0
; retract_restart_extra = 0
; retract_restart_extra_toolchange = 0
; retract_speed = 40
; skirt_distance = 6
; skirt_height = 1
; skirts = 0
; slowdown_below_layer_time = 5
; spiral_vase = 0
; standby_temperature_delta = -5
; start_filament_gcode = "; Filament gcode\n"
; start_gcode = G28 ; home all axes\nG1 Z5 F5000 ; lift nozzle\n
; temperature = 200
; threads = 8
; toolchange_gcode = 
; travel_speed = 130
; use_firmware_retraction = 0
; use_relative_e_distances = 0
; use_set_and_wait_bed = 0
; use_set_and_wait_extruder = 0
; use_volumetric_e = 0
; vibration_limit = 0
; wipe = 0
; z_offset = 0
; z_steps_per_mm = 0
; adaptive_slicing = 0
; adaptive_slicing_quality = 75%
; dont_support_bridges = 1
; extrusion_width = 0
; first_layer_height = 0.5
; infill_only_where_needed = 0
; interface_shells = 0
; layer_height = 0.5
; match_horizontal_surfaces = 0
; raft_layers = 0
; regions_overlap = 0
; seam_position = aligned
; sequential_print_priority = 0
; support_material = 0
; support_material_angle = 0
; support_material_buildplate_only = 0
; support_material_contact_distance = 0.2
; support_material_enforce_layers = 0
; support_material_extruder = 1
; support_material_extrusion_width = 0
; support_material_interface_extruder = 1
; support_material_interface_extrusion_width = 0
; support_material_interface_layers = 3
; support_material_interface_spacing = 0
; support_material_interface_speed = 100%
; support_material_max_layers = 0
; support_material_pattern = pillars
; support_material_spacing = 2.5
; support_material_speed = 60
; support_material_threshold = 60%
; xy_size_compensation = 0
; bottom_infill_pattern = rectilinear
; bottom_solid_layers = 0
; bridge_flow_ratio = 1
; bridge_speed = 60
; external_perimeter_extrusion_width = 0
; external_perimeter_speed = 50%
; external_perimeters_first = 0
; extra_perimeters = 1
; fill_angle = 45
; fill_density = 80%
; fill_gaps = 1
; fill_pattern = rectilinear
; gap_fill_speed = 20
; infill_every_layers = 1
; infill_extruder = 1
; infill_extrusion_width = 0
; infill_overlap = 55%
; infill_speed = 80
; overhangs = 1
; perimeter_extruder = 1
; perimeter_extrusion_width = 0
; perimeter_speed = 60
; perimeters = 0
; small_perimeter_speed = 15
; solid_infill_below_area = 70
; solid_infill_every_layers = 0
; solid_infill_extruder = 1
; solid_infill_extrusion_width = 0
; solid_infill_speed = 20
; thin_walls = 1
; top_infill_extrusion_width = 0
; top_infill_pattern = rectilinear
; top_solid_infill_speed = 15
; top_solid_layers = 0
