; generated by Slic3r 1.3.0 on 2020-12-01 at 15:05:57

; external perimeters extrusion width = 0.55mm (6.64mm^3/s)
; perimeters extrusion width = 0.52mm (12.53mm^3/s)
; infill extrusion width = 0.52mm (16.71mm^3/s)
; solid infill extrusion width = 0.52mm (4.18mm^3/s)
; top infill extrusion width = 0.52mm (3.13mm^3/s)

M107
M104 S205 ; set temperature
G28 ; home all axes
G1 Z5 F5000 ; lift nozzle

; Filament gcode

M109 S205 ; set temperature and wait for it to be reached
G21 ; set units to millimeters
G90 ; use absolute coordinates
M82 ; use absolute distances for extrusion
G92 E0
G1 Z0.500 F7800.000
G1 E-2.00000 F2400.00000
G92 E0
G1 X84.858 Y97.428 F7800.000
G1 E2.00000 F2400.00000
G1 F1800
G1 X84.858 Y102.572 E2.32483
G1 X85.381 Y105.028 E2.48340
G1 X85.381 Y101.119 E2.73029
G1 X85.169 Y100.935 E2.74795
G1 X84.952 Y100.360 E2.78678
G1 X85.169 Y99.785 E2.82561
G1 X85.381 Y99.602 E2.84327
G1 X85.381 Y94.972 E3.13567
G1 X85.753 Y93.219 E3.24883
G1 X85.903 Y93.013 E3.26489
G1 X85.903 Y99.222 E3.65696
G1 X86.425 Y99.008 E3.69260
G1 X86.425 Y92.294 E4.11652
G1 X86.947 Y91.576 E4.17261
G1 X86.947 Y98.793 E4.62838
G1 X87.469 Y98.579 E4.66402
G1 X87.469 Y90.857 E5.15164
G1 X87.991 Y90.138 E5.20773
G1 X87.991 Y98.408 E5.72993
G1 X88.513 Y98.297 E5.76364
G1 X88.513 Y89.420 E6.32422
G1 X89.035 Y88.701 E6.38032
G1 X89.035 Y98.187 E6.97929
G1 X89.558 Y98.076 E7.01299
G1 X89.558 Y87.982 E7.65034
G1 X89.612 Y87.908 E7.65615
G1 X90.080 Y87.638 E7.69028
G1 X90.080 Y97.965 E8.34240
G1 X90.602 Y97.854 E8.37610
G1 X90.602 Y87.336 E9.04027
G1 X91.124 Y87.035 E9.07834
G1 X91.124 Y97.766 E9.75594
G1 X91.646 Y97.707 E9.78912
G1 X91.646 Y86.733 E10.48205
G1 X92.168 Y86.432 E10.52012
G1 X92.168 Y87.683 E10.59912
G1 X92.174 Y87.653 E10.60107
G1 X92.541 Y87.203 E10.63773
G1 X92.690 Y87.156 E10.64760
G1 X92.690 Y86.131 E10.71234
G1 X93.212 Y85.829 E10.75041
G1 X93.212 Y87.092 E10.83018
G1 X93.735 Y87.273 E10.86507
G1 X93.735 Y85.528 E10.97527
G1 X94.257 Y85.226 E11.01334
G1 X94.257 Y87.610 E11.16389
G1 X94.779 Y88.014 E11.20555
G1 X94.779 Y84.925 E11.40061
G1 X95.301 Y84.625 E11.43861
G1 X95.301 Y88.417 E11.67804
G1 X95.625 Y88.667 E11.70387
G1 X95.823 Y88.888 E11.72261
G1 X95.823 Y84.570 E11.99522
G1 X96.345 Y84.516 E12.02838
G1 X96.345 Y89.468 E12.34110
G1 X96.867 Y90.048 E12.39039
G1 X96.867 Y84.461 E12.74323
G1 X97.389 Y84.406 E12.77638
G1 X97.389 Y90.629 E13.16933
G1 X97.763 Y91.044 E13.20459
G1 X97.912 Y91.245 E13.22039
G1 X97.912 Y84.351 E13.65574
G1 X98.434 Y84.296 E13.68889
G1 X98.434 Y91.953 E14.17238
G1 X98.956 Y92.660 E14.22791
G1 X98.956 Y84.241 E14.75955
G1 X99.478 Y84.186 E14.79270
G1 X99.478 Y93.368 E15.37250
G1 X100.000 Y94.076 E15.42803
G1 X100.000 Y84.131 E16.05597
G1 X100.522 Y84.077 E16.08912
G1 X100.522 Y93.842 E16.70577
G1 X101.044 Y93.134 E16.76130
G1 X101.044 Y84.022 E17.33672
G1 X101.566 Y83.967 E17.36987
G1 X101.566 Y92.427 E17.90408
G1 X102.088 Y91.719 E17.95961
G1 X102.088 Y84.025 E18.44544
G1 X102.611 Y84.195 E18.48011
G1 X102.611 Y91.017 E18.91091
G1 X103.133 Y90.437 E18.96020
G1 X103.133 Y84.365 E19.34365
G1 X103.655 Y84.534 E19.37832
G1 X103.655 Y89.857 E19.71440
G1 X104.177 Y89.276 E19.76370
G1 X104.177 Y84.704 E20.05243
G1 X104.699 Y84.873 E20.08710
G1 X104.699 Y88.696 E20.32847
G1 X105.221 Y88.284 E20.37048
G1 X105.221 Y85.043 E20.57511
G1 X105.743 Y85.213 E20.60978
G1 X105.743 Y87.880 E20.77822
G1 X106.265 Y87.477 E20.81989
G1 X106.265 Y85.382 E20.95215
G1 X106.788 Y85.552 E20.98682
G1 X106.788 Y87.213 E21.09171
G1 X107.180 Y87.078 E21.11790
G1 X107.310 Y87.099 E21.12623
G1 X107.310 Y85.722 E21.21319
G1 X107.832 Y85.891 E21.24785
G1 X107.832 Y87.232 E21.33251
G1 E19.33251 F2400.00000
G92 E0
G1 X105.743 Y95.857 F7800.000
G1 E2.00000 F2400.00000
G1 F1800
G1 X105.743 Y97.374 E2.09577
G1 X106.265 Y97.433 E2.12895
G1 X106.265 Y94.661 E2.30397
G1 X106.788 Y93.465 E2.38639
G1 X106.788 Y97.491 E2.64067
G1 X107.310 Y97.550 E2.67384
G1 X107.310 Y92.055 E3.02084
G1 X107.832 Y90.450 E3.12741
G1 X107.832 Y97.609 E3.57945
G1 X108.354 Y97.668 E3.61263
G1 X108.354 Y86.226 E4.33514
G1 X108.876 Y86.696 E4.37950
G1 X108.876 Y97.726 E5.07604
G1 X109.398 Y97.785 E5.10922
G1 X109.398 Y87.166 E5.77978
G1 X109.920 Y87.636 E5.82415
G1 X109.920 Y97.891 E6.47170
G1 X110.442 Y98.002 E6.50540
G1 X110.442 Y88.106 E7.13027
G1 X110.965 Y88.576 E7.17463
G1 X110.965 Y98.112 E7.77680
G1 X111.487 Y98.223 E7.81050
G1 X111.487 Y89.046 E8.38998
G1 X112.009 Y89.516 E8.43435
G1 X112.009 Y98.334 E8.99114
G1 X112.531 Y98.445 E9.02484
G1 X112.531 Y89.987 E9.55894
G1 X112.946 Y90.361 E9.59423
G1 X113.053 Y90.600 E9.61080
G1 X113.053 Y98.650 E10.11910
G1 X113.575 Y98.864 E10.15474
G1 X113.575 Y91.773 E10.60251
G1 X114.097 Y92.946 E10.68357
G1 X114.097 Y99.078 E11.07083
G1 X114.619 Y99.299 E11.10662
G1 X114.619 Y94.118 E11.43376
G1 X115.142 Y95.291 E11.51482
G1 X115.142 Y99.752 E11.79648
G1 E9.79648 F2400.00000
G92 E0
G1 X115.142 Y104.709 F7800.000
G1 E2.00000 F2400.00000
G1 F1800
G1 X115.142 Y100.248 E2.28167
G1 X114.619 Y100.701 E2.32530
G1 X114.619 Y105.882 E2.65243
G1 X114.097 Y107.054 E2.73349
G1 X114.097 Y100.922 E3.12075
G1 X113.575 Y101.136 E3.15639
G1 X113.575 Y108.227 E3.60416
G1 X113.053 Y109.400 E3.68522
G1 X113.053 Y101.350 E4.19352
G1 X112.531 Y101.555 E4.22895
G1 X112.531 Y110.013 E4.76304
G1 X112.009 Y110.484 E4.80741
G1 X112.009 Y101.666 E5.36420
G1 X111.487 Y101.777 E5.39790
G1 X111.487 Y110.954 E5.97738
G1 X110.965 Y111.424 E6.02174
G1 X110.965 Y101.888 E6.62391
G1 X110.442 Y101.998 E6.65762
G1 X110.442 Y111.894 E7.28248
G1 X109.920 Y112.364 E7.32684
G1 X109.920 Y102.109 E7.97440
G1 X109.398 Y102.215 E8.00803
G1 X109.398 Y112.834 E8.67860
G1 X108.876 Y113.304 E8.72296
G1 X108.876 Y102.274 E9.41950
G1 X108.354 Y102.332 E9.45268
G1 X108.354 Y113.774 E10.17519
G1 X108.068 Y114.032 E10.19949
G1 X107.832 Y114.109 E10.21517
G1 X107.832 Y112.768 E10.29983
G1 X107.786 Y112.823 E10.30436
G1 X107.310 Y112.901 E10.33486
G1 X107.310 Y114.278 E10.42182
G1 X106.788 Y114.448 E10.45649
G1 X106.788 Y112.787 E10.56138
G1 X106.460 Y112.674 E10.58324
G1 X106.265 Y112.523 E10.59880
G1 X106.265 Y114.618 E10.73106
G1 X105.743 Y114.787 E10.76572
G1 X105.743 Y112.120 E10.93417
G1 X105.221 Y111.716 E10.97584
G1 X105.221 Y114.957 E11.18047
G1 X104.699 Y115.127 E11.21513
G1 X104.699 Y111.304 E11.45651
G1 X104.177 Y110.724 E11.50580
G1 X104.177 Y115.296 E11.79454
G1 X103.655 Y115.466 E11.82920
G1 X103.655 Y110.143 E12.16529
G1 X103.133 Y109.563 E12.21458
G1 X103.133 Y115.635 E12.59803
G1 X102.611 Y115.805 E12.63270
G1 X102.611 Y108.983 E13.06350
G1 X102.088 Y108.281 E13.11873
G1 X102.088 Y115.975 E13.60456
G1 X101.825 Y116.060 E13.62206
G1 X101.566 Y116.033 E13.63848
G1 X101.566 Y107.573 E14.17269
G1 X101.044 Y106.866 E14.22822
G1 X101.044 Y115.978 E14.80364
G1 X100.522 Y115.923 E14.83680
G1 X100.522 Y106.158 E15.45344
G1 X100.293 Y105.847 E15.47784
G1 X100.057 Y105.847 E15.49273
G1 X100.000 Y105.924 E15.49879
G1 X100.000 Y115.869 E16.12673
G1 X99.478 Y115.814 E16.15988
G1 X99.478 Y106.632 E16.73967
G1 X98.956 Y107.339 E16.79520
G1 X98.956 Y115.759 E17.32685
G1 X98.434 Y115.704 E17.36000
G1 X98.434 Y108.047 E17.84349
G1 X97.912 Y108.755 E17.89902
G1 X97.912 Y115.649 E18.33436
G1 X97.389 Y115.594 E18.36751
G1 X97.389 Y109.371 E18.76046
G1 X96.867 Y109.952 E18.80975
G1 X96.867 Y115.539 E19.16259
G1 X96.345 Y115.484 E19.19574
G1 X96.345 Y110.532 E19.50847
G1 X95.823 Y111.112 E19.55776
G1 X95.823 Y115.430 E19.83038
G1 X95.301 Y115.375 E19.86353
G1 X95.301 Y111.583 E20.10296
G1 X94.779 Y111.986 E20.14462
G1 X94.779 Y115.075 E20.33968
G1 X94.257 Y114.774 E20.37775
G1 X94.257 Y112.390 E20.52829
G1 X93.889 Y112.674 E20.55761
G1 X93.735 Y112.727 E20.56795
G1 X93.735 Y114.472 E20.67815
G1 X93.212 Y114.171 E20.71622
G1 X93.212 Y112.908 E20.79599
G1 X93.170 Y112.922 E20.79882
G1 X92.690 Y112.844 E20.82951
G1 X92.690 Y113.869 E20.89426
G1 X92.168 Y113.568 E20.93233
G1 X92.168 Y112.317 E21.01133
G1 X92.168 Y113.038 F7800.000
G1 F1800
G1 X92.030 Y112.321 E21.05744
G1 X92.168 Y111.297 E21.12269
G1 X92.168 Y102.352 E21.68752
G1 X92.690 Y102.411 E21.72070
G1 X92.690 Y109.020 E22.13803
G1 X93.212 Y107.415 E22.24460
G1 X93.212 Y102.469 E22.55689
G1 X93.735 Y102.528 E22.59007
G1 X93.735 Y106.140 E22.81816
G1 X94.257 Y104.944 E22.90058
G1 X94.257 Y102.587 E23.04942
G1 X94.740 Y102.641 E23.08015
G1 X94.779 Y102.710 E23.08514
G1 X94.779 Y103.748 E23.15065
G1 E21.15065 F2400.00000
G92 E0
G1 X94.779 Y97.290 F7800.000
G1 E2.00000 F2400.00000
G1 F1800
G1 X94.779 Y96.252 E2.06551
G1 X94.257 Y95.056 E2.14793
G1 X94.257 Y97.413 E2.29678
G1 X93.735 Y97.472 E2.32995
G1 X93.735 Y93.860 E2.55805
G1 X93.312 Y92.893 E2.62468
G1 X93.212 Y92.585 E2.64509
G1 X93.212 Y97.531 E2.95738
G1 X92.690 Y97.589 E2.99056
G1 X92.690 Y90.980 E3.40790
G1 X92.323 Y89.852 E3.48279
G1 X92.168 Y88.703 E3.55601
G1 X92.168 Y97.648 E4.12084
G1 X91.646 Y97.707 E4.15402
G1 E2.15402 F2400.00000
G92 E0
G1 X85.381 Y105.028 F7800.000
G1 E2.00000 F2400.00000
G1 F1800
G1 X85.753 Y106.781 E2.11316
G1 X85.903 Y106.987 E2.12922
G1 X85.903 Y100.778 E2.52129
G1 X86.425 Y100.992 E2.55693
G1 X86.425 Y107.706 E2.98085
G1 X86.947 Y108.424 E3.03694
G1 X86.947 Y101.207 E3.49271
G1 X87.469 Y101.421 E3.52835
G1 X87.469 Y109.143 E4.01597
G1 X87.991 Y109.862 E4.07206
G1 X87.991 Y101.592 E4.59427
G1 X88.513 Y101.703 E4.62797
G1 X88.513 Y110.580 E5.18856
G1 X89.035 Y111.299 E5.24465
G1 X89.035 Y101.813 E5.84362
G1 X89.558 Y101.924 E5.87732
G1 X89.558 Y112.018 E6.51467
G1 X89.612 Y112.092 E6.52048
G1 X90.080 Y112.362 E6.55461
G1 X90.080 Y102.035 E7.20673
G1 X90.602 Y102.146 E7.24044
G1 X90.602 Y112.664 E7.90460
G1 X91.124 Y112.965 E7.94267
G1 X91.124 Y102.234 E8.62027
G1 X91.646 Y102.293 E8.65345
G1 X91.646 Y113.267 E9.34638
G1 E7.34638 F2400.00000
G92 E0
G1 X107.832 Y109.550 F7800.000
G1 E2.00000 F2400.00000
G1 F1800
G1 X107.832 Y102.391 E2.45204
G1 X107.310 Y102.450 E2.48522
G1 X107.310 Y107.945 E2.83221
G1 X107.037 Y107.107 E2.88784
G1 X106.788 Y106.535 E2.92724
G1 X106.788 Y102.509 E3.18151
G1 X106.265 Y102.567 E3.21469
G1 X106.265 Y105.339 E3.38971
G1 X105.743 Y104.143 E3.47213
G1 X105.743 Y102.626 E3.56790
M104 S200 ; set temperature
G1 Z1.000 F7800.000
G1 X105.743 Y102.757 F7800.000
G1 F4800
G1 X105.743 Y104.012 E3.60500
G1 X106.265 Y105.209 E3.64356
G1 X106.265 Y102.698 E3.71774
G1 X106.788 Y102.639 E3.73326
G1 X106.788 Y106.405 E3.84452
G1 X107.037 Y106.977 E3.86296
G1 X107.310 Y107.814 E3.88898
G1 X107.310 Y102.581 E4.04362
G1 X107.832 Y102.522 E4.05915
G1 X107.832 Y109.419 E4.26294
G1 X115.142 Y104.578 F7800.000
G1 F4800
G1 X115.142 Y100.379 E4.38701
G1 X114.619 Y100.832 E4.40743
G1 X114.619 Y105.751 E4.55278
G1 X114.097 Y106.924 E4.59071
G1 X114.097 Y101.052 E4.76419
G1 X113.575 Y101.266 E4.78086
G1 X113.575 Y108.096 E4.98266
G1 X113.053 Y109.269 E5.02059
G1 X113.053 Y101.481 E5.25071
G1 X112.531 Y101.686 E5.26728
G1 X112.531 Y109.883 E5.50947
G1 X112.009 Y110.353 E5.53023
G1 X112.009 Y101.797 E5.78303
G1 X111.487 Y101.907 E5.79880
G1 X111.487 Y110.823 E6.06223
G1 X110.965 Y111.293 E6.08299
G1 X110.965 Y102.018 E6.35703
G1 X110.442 Y102.129 E6.37280
G1 X110.442 Y111.763 E6.65745
G1 X109.920 Y112.233 E6.67821
G1 X109.920 Y102.240 E6.97349
G1 X109.398 Y102.345 E6.98923
G1 X109.398 Y112.704 E7.29527
G1 X108.876 Y113.174 E7.31603
G1 X108.876 Y102.404 E7.63422
G1 X108.354 Y102.463 E7.64975
G1 X108.354 Y113.644 E7.98010
G1 X108.068 Y113.901 E7.99146
G1 X107.832 Y113.978 E7.99880
G1 X107.832 Y112.899 E8.03069
G1 X107.786 Y112.954 E8.03281
G1 X107.310 Y113.032 E8.04709
G1 X107.310 Y114.148 E8.08006
G1 X106.788 Y114.317 E8.09628
G1 X106.788 Y112.917 E8.13764
G1 X106.460 Y112.804 E8.14787
G1 X106.265 Y112.654 E8.15514
G1 X106.265 Y114.487 E8.20931
G1 X105.743 Y114.657 E8.22553
G1 X105.743 Y112.250 E8.29663
G1 X105.221 Y111.847 E8.31613
G1 X105.221 Y114.826 E8.40416
G1 X104.699 Y114.996 E8.42038
G1 X104.699 Y111.435 E8.52560
G1 X104.177 Y110.854 E8.54866
G1 X104.177 Y115.166 E8.67604
G1 X103.655 Y115.335 E8.69226
G1 X103.655 Y110.274 E8.84180
G1 X103.133 Y109.694 E8.86487
G1 X103.133 Y115.505 E9.03656
G1 X102.611 Y115.674 E9.05279
G1 X102.611 Y109.113 E9.24664
G1 X102.088 Y108.412 E9.27249
G1 X102.088 Y115.844 E9.49209
G1 X101.825 Y115.930 E9.50028
G1 X101.566 Y115.903 E9.50796
G1 X101.566 Y107.704 E9.75020
G1 X101.044 Y106.996 E9.77618
G1 X101.044 Y115.848 E10.03771
G1 X100.522 Y115.793 E10.05322
G1 X100.522 Y106.289 E10.33403
G1 X100.293 Y105.978 E10.34545
G1 X100.057 Y105.978 E10.35242
G1 X100.000 Y106.055 E10.35525
G1 X100.000 Y115.738 E10.64135
G1 X99.478 Y115.683 E10.65686
G1 X99.478 Y106.762 E10.92043
G1 X98.956 Y107.470 E10.94641
G1 X98.956 Y115.628 E11.18745
G1 X98.434 Y115.573 E11.20296
G1 X98.434 Y108.178 E11.42147
G1 X97.912 Y108.885 E11.44746
G1 X97.912 Y115.518 E11.64344
G1 X97.389 Y115.464 E11.65895
G1 X97.389 Y109.502 E11.83509
G1 X96.867 Y110.082 E11.85816
G1 X96.867 Y115.409 E12.01553
G1 X96.345 Y115.354 E12.03104
G1 X96.345 Y110.663 E12.16965
G1 X95.823 Y111.243 E12.19272
G1 X95.823 Y115.299 E12.31256
G1 X95.301 Y115.244 E12.32807
G1 X95.301 Y111.714 E12.43238
G1 X94.779 Y112.117 E12.45187
G1 X94.779 Y114.945 E12.53542
G1 X94.257 Y114.643 E12.55324
G1 X94.257 Y112.520 E12.61596
G1 X93.889 Y112.804 E12.62967
G1 X93.735 Y112.858 E12.63451
G1 X93.735 Y114.342 E12.67836
G1 X93.212 Y114.040 E12.69617
G1 X93.212 Y113.038 E12.72578
G1 X93.170 Y113.053 E12.72710
G1 X92.690 Y112.975 E12.74146
G1 X92.690 Y113.739 E12.76404
G1 X92.168 Y113.437 E12.78185
G1 X92.168 Y112.448 E12.81110
G1 X92.168 Y112.907 F7800.000
G1 F4800
G1 X92.030 Y112.190 E12.83267
G1 X92.168 Y111.166 E12.86320
G1 X92.168 Y102.482 E13.11977
G1 X92.690 Y102.541 E13.13530
G1 X92.690 Y108.889 E13.32285
G1 X93.212 Y107.284 E13.37272
G1 X93.212 Y102.600 E13.51112
G1 X93.735 Y102.659 E13.52664
G1 X93.735 Y106.010 E13.62565
G1 X94.257 Y104.813 E13.66421
G1 X94.257 Y102.717 E13.72614
G1 X94.740 Y102.772 E13.74052
G1 X94.779 Y102.841 E13.74285
G1 X94.779 Y103.617 E13.76578
G1 E11.76578 F2400.00000
G92 E0
G1 X94.779 Y97.159 F7800.000
G1 E2.00000 F2400.00000
G1 F4800
G1 X94.779 Y96.383 E2.02293
G1 X94.257 Y95.187 E2.06150
G1 X94.257 Y97.283 E2.12342
G1 X93.735 Y97.341 E2.13895
G1 X93.735 Y93.990 E2.23796
G1 X93.312 Y93.023 E2.26913
G1 X93.212 Y92.716 E2.27869
G1 X93.212 Y97.400 E2.41709
G1 X92.690 Y97.459 E2.43261
G1 X92.690 Y91.111 E2.62017
G1 X92.323 Y89.983 E2.65521
G1 X92.168 Y88.834 E2.68947
G1 X92.168 Y97.518 E2.94604
G1 X91.646 Y97.576 E2.96156
G1 E0.96156 F2400.00000
G92 E0
G1 X84.858 Y97.559 F7800.000
G1 E2.00000 F2400.00000
G1 F4800
G1 X84.858 Y102.441 E2.14427
G1 X85.381 Y104.898 E2.21847
G1 X85.381 Y100.988 E2.33399
G1 X85.169 Y100.805 E2.34225
G1 X84.952 Y100.230 E2.36042
G1 X85.169 Y99.655 E2.37859
G1 X85.381 Y99.472 E2.38685
G1 X85.381 Y95.102 E2.51595
G1 X85.753 Y93.349 E2.56889
G1 X85.903 Y93.143 E2.57641
G1 X85.903 Y99.091 E2.75214
G1 X86.425 Y98.877 E2.76882
G1 X86.425 Y92.425 E2.95946
G1 X86.947 Y91.706 E2.98570
G1 X86.947 Y98.663 E3.19124
G1 X87.469 Y98.449 E3.20791
G1 X87.469 Y90.988 E3.42836
G1 X87.991 Y90.269 E3.45460
G1 X87.991 Y98.277 E3.69123
G1 X88.513 Y98.167 E3.70700
G1 X88.513 Y89.550 E3.96158
G1 X89.035 Y88.832 E3.98782
G1 X89.035 Y98.056 E4.26037
G1 X89.558 Y97.945 E4.27614
G1 X89.558 Y88.113 E4.56664
G1 X89.612 Y88.039 E4.56936
G1 X90.080 Y87.768 E4.58533
G1 X90.080 Y97.834 E4.88274
G1 X90.602 Y97.724 E4.89851
G1 X90.602 Y87.467 E5.20155
G1 X91.124 Y87.165 E5.21937
G1 X91.124 Y97.635 E5.52870
G1 X91.646 Y97.576 E5.54423
G1 X91.646 Y86.864 E5.86074
G1 X92.168 Y86.563 E5.87855
G1 X92.168 Y87.552 E5.90780
G1 X92.174 Y87.522 E5.90871
G1 X92.563 Y87.046 E5.92688
G1 X92.690 Y87.025 E5.93068
G1 X92.690 Y86.261 E5.95326
G1 X93.212 Y85.960 E5.97107
G1 X93.212 Y86.962 E6.00068
G1 X93.735 Y87.142 E6.01700
G1 X93.735 Y85.658 E6.06085
G1 X94.257 Y85.357 E6.07866
G1 X94.257 Y87.480 E6.14138
G1 X94.779 Y87.883 E6.16088
G1 X94.779 Y85.055 E6.24443
G1 X95.301 Y84.756 E6.26221
G1 X95.301 Y88.286 E6.36652
G1 X95.625 Y88.536 E6.37860
G1 X95.823 Y88.757 E6.38737
G1 X95.823 Y84.701 E6.50721
G1 X96.345 Y84.646 E6.52272
G1 X96.345 Y89.337 E6.66133
G1 X96.867 Y89.918 E6.68440
G1 X96.867 Y84.591 E6.84177
G1 X97.389 Y84.536 E6.85728
G1 X97.389 Y90.498 E7.03342
G1 X97.763 Y90.913 E7.04993
G1 X97.912 Y91.115 E7.05732
G1 X97.912 Y84.482 E7.25330
G1 X98.434 Y84.427 E7.26881
G1 X98.434 Y91.822 E7.48732
G1 X98.956 Y92.530 E7.51330
G1 X98.956 Y84.372 E7.75434
G1 X99.478 Y84.317 E7.76986
G1 X99.478 Y93.238 E8.03343
G1 X100.000 Y93.945 E8.05941
G1 X100.000 Y84.262 E8.34551
G1 X100.522 Y84.207 E8.36102
G1 X100.522 Y93.711 E8.64183
G1 X101.044 Y93.004 E8.66782
G1 X101.044 Y84.152 E8.92934
G1 X101.566 Y84.097 E8.94485
G1 X101.566 Y92.296 E9.18709
G1 X102.088 Y91.588 E9.21308
G1 X102.088 Y84.156 E9.43268
G1 X102.611 Y84.326 E9.44890
G1 X102.611 Y90.887 E9.64276
G1 X103.133 Y90.306 E9.66582
G1 X103.133 Y84.495 E9.83752
G1 X103.655 Y84.665 E9.85374
G1 X103.655 Y89.726 E10.00328
G1 X104.177 Y89.146 E10.02634
G1 X104.177 Y84.834 E10.15372
G1 X104.699 Y85.004 E10.16994
G1 X104.699 Y88.565 E10.27517
G1 X105.221 Y88.153 E10.29482
G1 X105.221 Y85.174 E10.38285
G1 X105.743 Y85.343 E10.39907
G1 X105.743 Y87.750 E10.47017
G1 X106.265 Y87.346 E10.48966
G1 X106.265 Y85.513 E10.54383
G1 X106.788 Y85.683 E10.56005
G1 X106.788 Y87.083 E10.60141
G1 X107.180 Y86.947 E10.61367
G1 X107.310 Y86.968 E10.61756
G1 X107.310 Y85.852 E10.65053
G1 X107.832 Y86.022 E10.66675
G1 X107.832 Y87.101 E10.69865
G1 E8.69865 F2400.00000
G92 E0
G1 X105.743 Y95.988 F7800.000
G1 E2.00000 F2400.00000
G1 F4800
G1 X105.743 Y97.243 E2.03709
G1 X106.265 Y97.302 E2.05262
G1 X106.265 Y94.791 E2.12679
G1 X106.788 Y93.595 E2.16536
G1 X106.788 Y97.361 E2.27662
G1 X107.310 Y97.419 E2.29214
G1 X107.310 Y92.186 E2.44678
G1 X107.832 Y90.581 E2.49664
G1 X107.832 Y97.478 E2.70044
G1 X108.354 Y97.537 E2.71596
G1 X108.354 Y86.356 E3.04631
G1 X108.876 Y86.826 E3.06707
G1 X108.876 Y97.596 E3.38527
G1 X109.398 Y97.655 E3.40079
G1 X109.398 Y87.296 E3.70683
G1 X109.920 Y87.767 E3.72759
G1 X109.920 Y97.760 E4.02286
G1 X110.442 Y97.871 E4.03864
G1 X110.442 Y88.237 E4.32329
G1 X110.965 Y88.707 E4.34405
G1 X110.965 Y97.982 E4.61809
G1 X111.487 Y98.093 E4.63386
G1 X111.487 Y89.177 E4.89728
G1 X112.009 Y89.647 E4.91804
G1 X112.009 Y98.203 E5.17085
G1 X112.531 Y98.314 E5.18662
G1 X112.531 Y90.117 E5.42881
G1 X112.946 Y90.491 E5.44532
G1 X113.053 Y90.731 E5.45307
G1 X113.053 Y98.519 E5.68319
G1 X113.575 Y98.734 E5.69987
G1 X113.575 Y91.904 E5.90166
G1 X114.097 Y93.076 E5.93959
G1 X114.097 Y98.948 E6.11307
G1 X114.619 Y99.168 E6.12982
G1 X114.619 Y94.249 E6.27517
G1 X115.142 Y95.422 E6.31310
G1 X115.142 Y99.621 E6.43717
G1 E4.43717 F2400.00000
G92 E0
G1 X91.646 Y113.136 F7800.000
G1 E2.00000 F2400.00000
G1 F4800
G1 X91.646 Y102.424 E2.31651
G1 X91.124 Y102.365 E2.33203
G1 X91.124 Y112.835 E2.64137
G1 X90.602 Y112.533 E2.65918
G1 X90.602 Y102.276 E2.96223
G1 X90.080 Y102.166 E2.97800
G1 X90.080 Y112.232 E3.27541
G1 X89.612 Y111.961 E3.29138
G1 X89.558 Y111.887 E3.29410
G1 X89.558 Y102.055 E3.58460
G1 X89.035 Y101.944 E3.60037
G1 X89.035 Y111.168 E3.87291
G1 X88.513 Y110.450 E3.89916
G1 X88.513 Y101.833 E4.15374
G1 X87.991 Y101.722 E4.16951
G1 X87.991 Y109.731 E4.40613
G1 X87.469 Y109.012 E4.43238
G1 X87.469 Y101.551 E4.65282
G1 X86.947 Y101.337 E4.66949
G1 X86.947 Y108.294 E4.87503
G1 X86.425 Y107.575 E4.90128
G1 X86.425 Y101.123 E5.09192
G1 X85.903 Y100.909 E5.10859
G1 X85.903 Y106.857 E5.28432
G1 X85.753 Y106.651 E5.29184
G1 X85.381 Y104.898 E5.34479
G1 Z1.500 F7800.000
G1 X85.381 Y104.898 F7800.000
G1 F4800
G1 X85.753 Y106.651 E5.39773
G1 X85.903 Y106.857 E5.40525
G1 X85.903 Y100.909 E5.58098
G1 X86.425 Y101.123 E5.59766
G1 X86.425 Y107.575 E5.78829
G1 X86.947 Y108.294 E5.81454
G1 X86.947 Y101.337 E6.02008
G1 X87.469 Y101.551 E6.03675
G1 X87.469 Y109.012 E6.25720
G1 X87.991 Y109.731 E6.28344
G1 X87.991 Y101.722 E6.52006
G1 X88.513 Y101.833 E6.53583
G1 X88.513 Y110.450 E6.79042
G1 X89.035 Y111.168 E6.81666
G1 X89.035 Y101.944 E7.08920
G1 X89.558 Y102.055 E7.10497
G1 X89.558 Y111.887 E7.39548
G1 X89.612 Y111.961 E7.39819
G1 X90.080 Y112.232 E7.41416
G1 X90.080 Y102.166 E7.71158
G1 X90.602 Y102.276 E7.72735
G1 X90.602 Y112.533 E8.03039
G1 X91.124 Y112.835 E8.04821
G1 X91.124 Y102.365 E8.35754
G1 X91.646 Y102.424 E8.37307
G1 X91.646 Y113.136 E8.68957
G1 X92.168 Y112.907 F7800.000
G1 F4800
G1 X92.030 Y112.190 E8.71115
G1 X92.168 Y111.166 E8.74168
G1 X92.168 Y102.482 E8.99825
G1 X92.690 Y102.541 E9.01377
G1 X92.690 Y108.889 E9.20133
G1 X93.212 Y107.284 E9.25119
G1 X93.212 Y102.600 E9.38959
G1 X93.735 Y102.659 E9.40512
G1 X93.735 Y106.010 E9.50412
G1 X94.257 Y104.813 E9.54269
G1 X94.257 Y102.717 E9.60461
G1 X94.740 Y102.772 E9.61899
G1 X94.779 Y102.841 E9.62132
G1 X94.779 Y103.617 E9.64426
G1 E7.64426 F2400.00000
G92 E0
G1 X94.779 Y97.159 F7800.000
G1 E2.00000 F2400.00000
G1 F4800
G1 X94.779 Y96.383 E2.02293
G1 X94.257 Y95.187 E2.06150
G1 X94.257 Y97.283 E2.12343
G1 X93.735 Y97.341 E2.13895
G1 X93.735 Y93.990 E2.23796
G1 X93.312 Y93.023 E2.26913
G1 X93.212 Y92.716 E2.27869
G1 X93.212 Y97.400 E2.41709
G1 X92.690 Y97.459 E2.43261
G1 X92.690 Y91.111 E2.62017
G1 X92.323 Y89.983 E2.65521
G1 X92.168 Y88.834 E2.68947
G1 X92.168 Y97.518 E2.94604
G1 X91.646 Y97.576 E2.96156
G1 E0.96156 F2400.00000
G92 E0
G1 X84.858 Y97.559 F7800.000
G1 E2.00000 F2400.00000
G1 F4800
G1 X84.858 Y102.441 E2.14427
G1 X85.381 Y104.898 E2.21847
G1 X85.381 Y100.988 E2.33399
G1 X85.169 Y100.805 E2.34225
G1 X84.952 Y100.230 E2.36042
G1 X85.169 Y99.655 E2.37859
G1 X85.381 Y99.472 E2.38685
G1 X85.381 Y95.102 E2.51595
G1 X85.753 Y93.349 E2.56889
G1 X85.903 Y93.143 E2.57641
G1 X85.903 Y99.091 E2.75214
G1 X86.425 Y98.877 E2.76882
G1 X86.425 Y92.425 E2.95946
G1 X86.947 Y91.706 E2.98570
G1 X86.947 Y98.663 E3.19124
G1 X87.469 Y98.449 E3.20791
G1 X87.469 Y90.988 E3.42836
G1 X87.991 Y90.269 E3.45460
G1 X87.991 Y98.277 E3.69122
G1 X88.513 Y98.167 E3.70700
G1 X88.513 Y89.550 E3.96158
G1 X89.035 Y88.832 E3.98782
G1 X89.035 Y98.056 E4.26037
G1 X89.558 Y97.945 E4.27614
G1 X89.558 Y88.113 E4.56664
G1 X89.612 Y88.039 E4.56936
G1 X90.080 Y87.768 E4.58532
G1 X90.080 Y97.834 E4.88274
G1 X90.602 Y97.724 E4.89851
G1 X90.602 Y87.467 E5.20155
G1 X91.124 Y87.165 E5.21937
G1 X91.124 Y97.635 E5.52870
G1 X91.646 Y97.576 E5.54423
G1 X91.646 Y86.864 E5.86074
G1 X92.168 Y86.563 E5.87855
G1 X92.168 Y87.552 E5.90779
G1 X92.174 Y87.522 E5.90871
G1 X92.563 Y87.046 E5.92688
G1 X92.690 Y87.025 E5.93068
G1 X92.690 Y86.261 E5.95326
G1 X93.212 Y85.960 E5.97107
G1 X93.212 Y86.962 E6.00068
G1 X93.735 Y87.142 E6.01700
G1 X93.735 Y85.658 E6.06085
G1 X94.257 Y85.357 E6.07866
G1 X94.257 Y87.480 E6.14138
G1 X94.779 Y87.883 E6.16088
G1 X94.779 Y85.055 E6.24443
G1 X95.301 Y84.756 E6.26221
G1 X95.301 Y88.286 E6.36652
G1 X95.625 Y88.536 E6.37860
G1 X95.823 Y88.757 E6.38737
G1 X95.823 Y84.701 E6.50721
G1 X96.345 Y84.646 E6.52272
G1 X96.345 Y89.337 E6.66133
G1 X96.867 Y89.918 E6.68440
G1 X96.867 Y84.591 E6.84177
G1 X97.389 Y84.536 E6.85728
G1 X97.389 Y90.498 E7.03342
G1 X97.763 Y90.913 E7.04993
G1 X97.912 Y91.115 E7.05732
G1 X97.912 Y84.482 E7.25330
G1 X98.434 Y84.427 E7.26881
G1 X98.434 Y91.822 E7.48732
G1 X98.956 Y92.530 E7.51330
G1 X98.956 Y84.372 E7.75434
G1 X99.478 Y84.317 E7.76986
G1 X99.478 Y93.238 E8.03343
G1 X100.000 Y93.945 E8.05941
G1 X100.000 Y84.262 E8.34551
G1 X100.522 Y84.207 E8.36102
G1 X100.522 Y93.711 E8.64183
G1 X101.044 Y93.004 E8.66781
G1 X101.044 Y84.152 E8.92934
G1 X101.566 Y84.097 E8.94485
G1 X101.566 Y92.296 E9.18709
G1 X102.088 Y91.588 E9.21308
G1 X102.088 Y84.156 E9.43268
G1 X102.611 Y84.326 E9.44890
G1 X102.611 Y90.887 E9.64276
G1 X103.133 Y90.306 E9.66582
G1 X103.133 Y84.495 E9.83752
G1 X103.655 Y84.665 E9.85374
G1 X103.655 Y89.726 E10.00328
G1 X104.177 Y89.146 E10.02634
G1 X104.177 Y84.834 E10.15372
G1 X104.699 Y85.004 E10.16994
G1 X104.699 Y88.565 E10.27516
G1 X105.221 Y88.153 E10.29482
G1 X105.221 Y85.174 E10.38285
G1 X105.743 Y85.343 E10.39907
G1 X105.743 Y87.750 E10.47017
G1 X106.265 Y87.346 E10.48966
G1 X106.265 Y85.513 E10.54383
G1 X106.788 Y85.683 E10.56005
G1 X106.788 Y87.083 E10.60141
G1 X107.180 Y86.947 E10.61367
G1 X107.310 Y86.968 E10.61756
G1 X107.310 Y85.852 E10.65053
G1 X107.832 Y86.022 E10.66675
G1 X107.832 Y87.101 E10.69865
G1 E8.69865 F2400.00000
G92 E0
G1 X105.743 Y95.988 F7800.000
G1 E2.00000 F2400.00000
G1 F4800
G1 X105.743 Y97.243 E2.03709
G1 X106.265 Y97.302 E2.05262
G1 X106.265 Y94.791 E2.12679
G1 X106.788 Y93.595 E2.16536
G1 X106.788 Y97.361 E2.27662
G1 X107.310 Y97.419 E2.29214
G1 X107.310 Y92.186 E2.44678
G1 X107.832 Y90.581 E2.49664
G1 X107.832 Y97.478 E2.70044
G1 X108.354 Y97.537 E2.71596
G1 X108.354 Y86.356 E3.04631
G1 X108.876 Y86.826 E3.06707
G1 X108.876 Y97.596 E3.38527
G1 X109.398 Y97.655 E3.40079
G1 X109.398 Y87.296 E3.70683
G1 X109.920 Y87.767 E3.72759
G1 X109.920 Y97.760 E4.02286
G1 X110.442 Y97.871 E4.03863
G1 X110.442 Y88.237 E4.32329
G1 X110.965 Y88.707 E4.34405
G1 X110.965 Y97.982 E4.61809
G1 X111.487 Y98.093 E4.63386
G1 X111.487 Y89.177 E4.89728
G1 X112.009 Y89.647 E4.91804
G1 X112.009 Y98.203 E5.17085
G1 X112.531 Y98.314 E5.18662
G1 X112.531 Y90.117 E5.42880
G1 X112.946 Y90.491 E5.44532
G1 X113.053 Y90.731 E5.45307
G1 X113.053 Y98.519 E5.68319
G1 X113.575 Y98.734 E5.69987
G1 X113.575 Y91.904 E5.90166
G1 X114.097 Y93.076 E5.93959
G1 X114.097 Y98.948 E6.11307
G1 X114.619 Y99.168 E6.12982
G1 X114.619 Y94.249 E6.27517
G1 X115.142 Y95.422 E6.31310
G1 X115.142 Y99.621 E6.43717
G1 E4.43717 F2400.00000
G92 E0
G1 X115.142 Y104.578 F7800.000
G1 E2.00000 F2400.00000
G1 F4800
G1 X115.142 Y100.379 E2.12407
G1 X114.619 Y100.832 E2.14449
G1 X114.619 Y105.751 E2.28984
G1 X114.097 Y106.924 E2.32777
G1 X114.097 Y101.052 E2.50125
G1 X113.575 Y101.266 E2.51792
G1 X113.575 Y108.096 E2.71972
G1 X113.053 Y109.269 E2.75765
G1 X113.053 Y101.481 E2.98777
G1 X112.531 Y101.686 E3.00434
G1 X112.531 Y109.883 E3.24653
G1 X112.009 Y110.353 E3.26729
G1 X112.009 Y101.797 E3.52009
G1 X111.487 Y101.907 E3.53586
G1 X111.487 Y110.823 E3.79929
G1 X110.965 Y111.293 E3.82004
G1 X110.965 Y102.018 E4.09408
G1 X110.442 Y102.129 E4.10985
G1 X110.442 Y111.763 E4.39451
G1 X109.920 Y112.233 E4.41527
G1 X109.920 Y102.240 E4.71054
G1 X109.398 Y102.345 E4.72628
G1 X109.398 Y112.704 E5.03233
G1 X108.876 Y113.174 E5.05308
G1 X108.876 Y102.404 E5.37128
G1 X108.354 Y102.463 E5.38680
G1 X108.354 Y113.644 E5.71715
G1 X108.068 Y113.901 E5.72852
G1 X107.832 Y113.978 E5.73586
G1 X107.832 Y112.899 E5.76775
G1 X107.786 Y112.954 E5.76987
G1 X107.310 Y113.032 E5.78414
G1 X107.310 Y114.148 E5.81711
G1 X106.788 Y114.317 E5.83333
G1 X106.788 Y112.917 E5.87470
G1 X106.460 Y112.804 E5.88493
G1 X106.265 Y112.654 E5.89220
G1 X106.265 Y114.487 E5.94637
G1 X105.743 Y114.657 E5.96259
G1 X105.743 Y112.250 E6.03369
G1 X105.221 Y111.847 E6.05318
G1 X105.221 Y114.826 E6.14121
G1 X104.699 Y114.996 E6.15743
G1 X104.699 Y111.435 E6.26266
G1 X104.177 Y110.854 E6.28572
G1 X104.177 Y115.166 E6.41310
G1 X103.655 Y115.335 E6.42932
G1 X103.655 Y110.274 E6.57886
G1 X103.133 Y109.694 E6.60193
G1 X103.133 Y115.505 E6.77362
G1 X102.611 Y115.674 E6.78984
G1 X102.611 Y109.113 E6.98370
G1 X102.088 Y108.412 E7.00954
G1 X102.088 Y115.844 E7.22915
G1 X101.825 Y115.930 E7.23734
G1 X101.566 Y115.903 E7.24502
G1 X101.566 Y107.704 E7.48726
G1 X101.044 Y106.996 E7.51324
G1 X101.044 Y115.848 E7.77477
G1 X100.522 Y115.793 E7.79028
G1 X100.522 Y106.289 E8.07109
G1 X100.293 Y105.978 E8.08251
G1 X100.057 Y105.978 E8.08947
G1 X100.000 Y106.055 E8.09231
G1 X100.000 Y115.738 E8.37841
G1 X99.478 Y115.683 E8.39392
G1 X99.478 Y106.762 E8.65749
G1 X98.956 Y107.470 E8.68347
G1 X98.956 Y115.628 E8.92451
G1 X98.434 Y115.573 E8.94002
G1 X98.434 Y108.178 E9.15853
G1 X97.912 Y108.885 E9.18452
G1 X97.912 Y115.518 E9.38050
G1 X97.389 Y115.464 E9.39601
G1 X97.389 Y109.502 E9.57215
G1 X96.867 Y110.082 E9.59522
G1 X96.867 Y115.409 E9.75259
G1 X96.345 Y115.354 E9.76810
G1 X96.345 Y110.663 E9.90671
G1 X95.823 Y111.243 E9.92977
G1 X95.823 Y115.299 E10.04961
G1 X95.301 Y115.244 E10.06513
G1 X95.301 Y111.714 E10.16944
G1 X94.779 Y112.117 E10.18893
G1 X94.779 Y114.945 E10.27248
G1 X94.257 Y114.643 E10.29029
G1 X94.257 Y112.520 E10.35302
G1 X93.889 Y112.804 E10.36673
G1 X93.735 Y112.858 E10.37157
G1 X93.735 Y114.342 E10.41542
G1 X93.212 Y114.040 E10.43323
G1 X93.212 Y113.038 E10.46283
G1 X93.170 Y113.053 E10.46416
G1 X92.690 Y112.975 E10.47852
G1 X92.690 Y113.739 E10.50110
G1 X92.168 Y113.437 E10.51891
G1 X92.168 Y112.448 E10.54816
G1 E8.54816 F2400.00000
G92 E0
G1 X107.832 Y109.419 F7800.000
G1 E2.00000 F2400.00000
G1 F4800
G1 X107.832 Y102.522 E2.20379
G1 X107.310 Y102.581 E2.21932
G1 X107.310 Y107.814 E2.37396
G1 X107.037 Y106.977 E2.39999
G1 X106.788 Y106.405 E2.41842
G1 X106.788 Y102.639 E2.52968
G1 X106.265 Y102.698 E2.54520
G1 X106.265 Y105.209 E2.61938
G1 X105.743 Y104.012 E2.65794
G1 X105.743 Y102.757 E2.69504
M106 S234.6
G1 Z2.000 F7800.000
G1 F4800
G1 X105.743 Y104.012 E2.73213
G1 X106.265 Y105.209 E2.77069
G1 X106.265 Y102.698 E2.84487
G1 X106.788 Y102.639 E2.86039
G1 X106.788 Y106.405 E2.97165
G1 X107.037 Y106.977 E2.99009
G1 X107.310 Y107.814 E3.01611
G1 X107.310 Y102.581 E3.17075
G1 X107.832 Y102.522 E3.18628
G1 X107.832 Y109.419 E3.39007
G1 E1.39007 F2400.00000
G92 E0
G1 X115.142 Y104.578 F7800.000
G1 E2.00000 F2400.00000
G1 F4800
G1 X115.142 Y100.379 E2.12407
G1 X114.619 Y100.832 E2.14449
G1 X114.619 Y105.751 E2.28984
G1 X114.097 Y106.924 E2.32777
G1 X114.097 Y101.052 E2.50125
G1 X113.575 Y101.266 E2.51792
G1 X113.575 Y108.096 E2.71972
G1 X113.053 Y109.269 E2.75765
G1 X113.053 Y101.481 E2.98777
G1 X112.531 Y101.686 E3.00434
G1 X112.531 Y109.883 E3.24653
G1 X112.009 Y110.353 E3.26729
G1 X112.009 Y101.797 E3.52009
G1 X111.487 Y101.907 E3.53586
G1 X111.487 Y110.823 E3.79929
G1 X110.965 Y111.293 E3.82005
G1 X110.965 Y102.018 E4.09409
G1 X110.442 Y102.129 E4.10986
G1 X110.442 Y111.763 E4.39451
G1 X109.920 Y112.233 E4.41527
G1 X109.920 Y102.240 E4.71055
G1 X109.398 Y102.345 E4.72629
G1 X109.398 Y112.704 E5.03233
G1 X108.876 Y113.174 E5.05309
G1 X108.876 Y102.404 E5.37128
G1 X108.354 Y102.463 E5.38680
G1 X108.354 Y113.644 E5.71715
G1 X108.068 Y113.901 E5.72852
G1 X107.832 Y113.978 E5.73586
G1 X107.832 Y112.899 E5.76775
G1 X107.786 Y112.954 E5.76987
G1 X107.310 Y113.032 E5.78414
G1 X107.310 Y114.148 E5.81711
G1 X106.788 Y114.317 E5.83333
G1 X106.788 Y112.917 E5.87470
G1 X106.460 Y112.804 E5.88493
G1 X106.265 Y112.654 E5.89220
G1 X106.265 Y114.487 E5.94637
G1 X105.743 Y114.657 E5.96259
G1 X105.743 Y112.250 E6.03369
G1 X105.221 Y111.847 E6.05318
G1 X105.221 Y114.826 E6.14121
G1 X104.699 Y114.996 E6.15744
G1 X104.699 Y111.435 E6.26266
G1 X104.177 Y110.854 E6.28572
G1 X104.177 Y115.166 E6.41310
G1 X103.655 Y115.335 E6.42932
G1 X103.655 Y110.274 E6.57886
G1 X103.133 Y109.694 E6.60193
G1 X103.133 Y115.505 E6.77362
G1 X102.611 Y115.674 E6.78984
G1 X102.611 Y109.113 E6.98370
G1 X102.088 Y108.412 E7.00955
G1 X102.088 Y115.844 E7.22915
G1 X101.825 Y115.930 E7.23734
G1 X101.566 Y115.903 E7.24502
G1 X101.566 Y107.704 E7.48726
G1 X101.044 Y106.996 E7.51324
G1 X101.044 Y115.848 E7.77477
G1 X100.522 Y115.793 E7.79028
G1 X100.522 Y106.289 E8.07109
G1 X100.297 Y105.984 E8.08229
G1 X100.057 Y105.978 E8.08939
G1 X100.000 Y106.055 E8.09222
G1 X100.000 Y115.738 E8.37832
G1 X99.478 Y115.683 E8.39383
G1 X99.478 Y106.762 E8.65740
G1 X98.956 Y107.470 E8.68339
G1 X98.956 Y115.628 E8.92443
G1 X98.434 Y115.573 E8.93994
G1 X98.434 Y108.178 E9.15845
G1 X97.912 Y108.885 E9.18443
G1 X97.912 Y115.518 E9.38041
G1 X97.389 Y115.464 E9.39592
G1 X97.389 Y109.502 E9.57207
G1 X96.867 Y110.082 E9.59513
G1 X96.867 Y115.409 E9.75250
G1 X96.345 Y115.354 E9.76802
G1 X96.345 Y110.663 E9.90662
G1 X95.823 Y111.243 E9.92969
G1 X95.823 Y115.299 E10.04953
G1 X95.301 Y115.244 E10.06504
G1 X95.301 Y111.714 E10.16935
G1 X94.779 Y112.117 E10.18885
G1 X94.779 Y114.945 E10.27239
G1 X94.257 Y114.643 E10.29021
G1 X94.257 Y112.520 E10.35293
G1 X93.889 Y112.804 E10.36665
G1 X93.735 Y112.858 E10.37148
G1 X93.735 Y114.342 E10.41533
G1 X93.212 Y114.040 E10.43315
G1 X93.212 Y113.038 E10.46275
G1 X93.170 Y113.053 E10.46407
G1 X92.690 Y112.975 E10.47844
G1 X92.690 Y113.739 E10.50101
G1 X92.168 Y113.437 E10.51883
G1 X92.168 Y112.448 E10.54807
G1 X92.168 Y112.907 F7800.000
G1 F4800
G1 X92.030 Y112.190 E10.56964
G1 X92.168 Y111.166 E10.60018
G1 X92.168 Y102.482 E10.85674
G1 X92.690 Y102.541 E10.87227
G1 X92.690 Y108.889 E11.05982
G1 X93.212 Y107.284 E11.10969
G1 X93.212 Y102.600 E11.24809
G1 X93.735 Y102.659 E11.26361
G1 X93.735 Y106.010 E11.36262
G1 X94.257 Y104.813 E11.40119
G1 X94.257 Y102.717 E11.46311
G1 X94.740 Y102.772 E11.47749
G1 X94.779 Y102.841 E11.47982
G1 X94.779 Y103.617 E11.50276
G1 E9.50276 F2400.00000
G92 E0
G1 X94.779 Y97.159 F7800.000
G1 E2.00000 F2400.00000
G1 F4800
G1 X94.779 Y96.383 E2.02293
G1 X94.257 Y95.187 E2.06150
G1 X94.257 Y97.283 E2.12343
G1 X93.735 Y97.341 E2.13895
G1 X93.735 Y93.990 E2.23796
G1 X93.312 Y93.023 E2.26913
G1 X93.212 Y92.716 E2.27869
G1 X93.212 Y97.400 E2.41709
G1 X92.690 Y97.459 E2.43261
G1 X92.690 Y91.111 E2.62017
G1 X92.323 Y89.983 E2.65521
G1 X92.168 Y88.834 E2.68947
G1 X92.168 Y97.518 E2.94604
G1 X91.646 Y97.576 E2.96156
G1 E0.96156 F2400.00000
G92 E0
G1 X84.858 Y97.559 F7800.000
G1 E2.00000 F2400.00000
G1 F4800
G1 X84.858 Y102.441 E2.14427
G1 X85.381 Y104.898 E2.21847
G1 X85.381 Y100.988 E2.33399
G1 X85.169 Y100.805 E2.34225
G1 X84.952 Y100.230 E2.36042
G1 X85.169 Y99.655 E2.37859
G1 X85.381 Y99.472 E2.38685
G1 X85.381 Y95.102 E2.51595
G1 X85.753 Y93.349 E2.56889
G1 X85.903 Y93.143 E2.57641
G1 X85.903 Y99.091 E2.75214
G1 X86.425 Y98.877 E2.76882
G1 X86.425 Y92.425 E2.95946
G1 X86.947 Y91.706 E2.98570
G1 X86.947 Y98.663 E3.19124
G1 X87.469 Y98.449 E3.20791
G1 X87.469 Y90.988 E3.42836
G1 X87.991 Y90.269 E3.45460
G1 X87.991 Y98.277 E3.69123
G1 X88.513 Y98.167 E3.70700
G1 X88.513 Y89.550 E3.96158
G1 X89.035 Y88.832 E3.98782
G1 X89.035 Y98.056 E4.26037
G1 X89.558 Y97.945 E4.27614
G1 X89.558 Y88.113 E4.56664
G1 X89.612 Y88.039 E4.56936
G1 X90.080 Y87.768 E4.58533
G1 X90.080 Y97.834 E4.88274
G1 X90.602 Y97.724 E4.89851
G1 X90.602 Y87.467 E5.20155
G1 X91.124 Y87.165 E5.21937
G1 X91.124 Y97.635 E5.52870
G1 X91.646 Y97.576 E5.54423
G1 X91.646 Y86.864 E5.86074
G1 X92.168 Y86.563 E5.87855
G1 X92.168 Y87.552 E5.90780
G1 X92.174 Y87.522 E5.90871
G1 X92.563 Y87.046 E5.92688
G1 X92.690 Y87.025 E5.93068
G1 X92.690 Y86.261 E5.95326
G1 X93.212 Y85.960 E5.97107
G1 X93.212 Y86.962 E6.00068
G1 X93.735 Y87.142 E6.01700
G1 X93.735 Y85.658 E6.06085
G1 X94.257 Y85.357 E6.07866
G1 X94.257 Y87.480 E6.14138
G1 X94.779 Y87.883 E6.16088
G1 X94.779 Y85.055 E6.24442
G1 X95.301 Y84.756 E6.26221
G1 X95.301 Y88.286 E6.36652
G1 X95.625 Y88.536 E6.37860
G1 X95.823 Y88.757 E6.38737
G1 X95.823 Y84.701 E6.50721
G1 X96.345 Y84.646 E6.52272
G1 X96.345 Y89.337 E6.66133
G1 X96.867 Y89.918 E6.68440
G1 X96.867 Y84.591 E6.84177
G1 X97.389 Y84.536 E6.85728
G1 X97.389 Y90.498 E7.03342
G1 X97.763 Y90.913 E7.04993
G1 X97.912 Y91.115 E7.05732
G1 X97.912 Y84.482 E7.25330
G1 X98.434 Y84.427 E7.26881
G1 X98.434 Y91.822 E7.48732
G1 X98.956 Y92.530 E7.51330
G1 X98.956 Y84.372 E7.75434
G1 X99.478 Y84.317 E7.76986
G1 X99.478 Y93.238 E8.03342
G1 X100.000 Y93.945 E8.05941
G1 X100.000 Y84.262 E8.34551
G1 X100.522 Y84.207 E8.36102
G1 X100.522 Y93.711 E8.64183
G1 X101.044 Y93.004 E8.66781
G1 X101.044 Y84.152 E8.92934
G1 X101.566 Y84.097 E8.94485
G1 X101.566 Y92.296 E9.18709
G1 X102.088 Y91.588 E9.21308
G1 X102.088 Y84.156 E9.43268
G1 X102.611 Y84.326 E9.44890
G1 X102.611 Y90.887 E9.64276
G1 X103.133 Y90.306 E9.66582
G1 X103.133 Y84.495 E9.83752
G1 X103.655 Y84.665 E9.85374
G1 X103.655 Y89.726 E10.00328
G1 X104.177 Y89.146 E10.02634
G1 X104.177 Y84.834 E10.15372
G1 X104.699 Y85.004 E10.16994
G1 X104.699 Y88.565 E10.27516
G1 X105.221 Y88.153 E10.29482
G1 X105.221 Y85.174 E10.38285
G1 X105.743 Y85.343 E10.39907
G1 X105.743 Y87.750 E10.47017
G1 X106.265 Y87.346 E10.48966
G1 X106.265 Y85.513 E10.54383
G1 X106.788 Y85.683 E10.56005
G1 X106.788 Y87.083 E10.60141
G1 X107.180 Y86.947 E10.61367
G1 X107.310 Y86.968 E10.61756
G1 X107.310 Y85.852 E10.65053
G1 X107.832 Y86.022 E10.66675
G1 X107.832 Y87.101 E10.69865
G1 E8.69865 F2400.00000
G92 E0
G1 X105.743 Y95.988 F7800.000
G1 E2.00000 F2400.00000
G1 F4800
G1 X105.743 Y97.243 E2.03709
G1 X106.265 Y97.302 E2.05262
G1 X106.265 Y94.791 E2.12679
G1 X106.788 Y93.595 E2.16536
G1 X106.788 Y97.361 E2.27662
G1 X107.310 Y97.419 E2.29214
G1 X107.310 Y92.186 E2.44678
G1 X107.832 Y90.581 E2.49664
G1 X107.832 Y97.478 E2.70044
G1 X108.354 Y97.537 E2.71596
G1 X108.354 Y86.356 E3.04631
G1 X108.876 Y86.826 E3.06707
G1 X108.876 Y97.596 E3.38527
G1 X109.398 Y97.655 E3.40079
G1 X109.398 Y87.296 E3.70683
G1 X109.920 Y87.767 E3.72759
G1 X109.920 Y97.760 E4.02286
G1 X110.442 Y97.871 E4.03863
G1 X110.442 Y88.237 E4.32329
G1 X110.965 Y88.707 E4.34405
G1 X110.965 Y97.982 E4.61809
G1 X111.487 Y98.093 E4.63386
G1 X111.487 Y89.177 E4.89728
G1 X112.009 Y89.647 E4.91804
G1 X112.009 Y98.203 E5.17085
G1 X112.531 Y98.314 E5.18662
G1 X112.531 Y90.117 E5.42881
G1 X112.946 Y90.491 E5.44532
G1 X113.053 Y90.731 E5.45307
G1 X113.053 Y98.519 E5.68319
G1 X113.575 Y98.734 E5.69987
G1 X113.575 Y91.904 E5.90166
G1 X114.097 Y93.076 E5.93959
G1 X114.097 Y98.948 E6.11307
G1 X114.619 Y99.168 E6.12982
G1 X114.619 Y94.249 E6.27517
G1 X115.142 Y95.422 E6.31310
G1 X115.142 Y99.621 E6.43717
G1 E4.43717 F2400.00000
G92 E0
G1 X91.646 Y113.136 F7800.000
G1 E2.00000 F2400.00000
G1 F4800
G1 X91.646 Y102.424 E2.31651
G1 X91.124 Y102.365 E2.33203
G1 X91.124 Y112.835 E2.64137
G1 X90.602 Y112.533 E2.65918
G1 X90.602 Y102.276 E2.96223
G1 X90.080 Y102.166 E2.97800
G1 X90.080 Y112.232 E3.27541
G1 X89.612 Y111.961 E3.29138
G1 X89.558 Y111.887 E3.29410
G1 X89.558 Y102.055 E3.58460
G1 X89.035 Y101.944 E3.60037
G1 X89.035 Y111.168 E3.87291
G1 X88.513 Y110.450 E3.89916
G1 X88.513 Y101.833 E4.15374
G1 X87.991 Y101.722 E4.16951
G1 X87.991 Y109.731 E4.40613
G1 X87.469 Y109.012 E4.43238
G1 X87.469 Y101.551 E4.65282
G1 X86.947 Y101.337 E4.66949
G1 X86.947 Y108.294 E4.87503
G1 X86.425 Y107.575 E4.90128
G1 X86.425 Y101.123 E5.09192
G1 X85.903 Y100.909 E5.10859
G1 X85.903 Y106.857 E5.28432
G1 X85.753 Y106.651 E5.29184
G1 X85.381 Y104.898 E5.34479
G1 E3.34479 F2400.00000
G92 E0
M107
; Filament-specific end gcode 
;END gcode for filament

M104 S0 ; turn off temperature
G28 X0  ; home X axis
M84     ; disable motors

M140 S0 ; set bed temperature
; filament used = 144.3mm (1.0cm3)
; total filament cost = 0.0

; avoid_crossing_perimeters = 0
; bed_shape = 0x0,200x0,200x200,0x200
; bed_temperature = 0
; before_layer_gcode = 
; between_objects_gcode = 
; bridge_acceleration = 0
; bridge_fan_speed = 100
; brim_connections_width = 0
; brim_width = 0
; complete_objects = 0
; cooling = 1
; default_acceleration = 0
; disable_fan_first_layers = 3
; duplicate_distance = 6
; end_filament_gcode = "; Filament-specific end gcode \n;END gcode for filament\n"
; end_gcode = M104 S0 ; turn off temperature\nG28 X0  ; home X axis\nM84     ; disable motors\n
; extruder_clearance_height = 20
; extruder_clearance_radius = 20
; extruder_offset = 0x0
; extrusion_axis = E
; extrusion_multiplier = 1
; fan_always_on = 0
; fan_below_layer_time = 60
; filament_colour = #FFFFFF
; filament_cost = 0
; filament_density = 0
; filament_diameter = 3
; filament_max_volumetric_speed = 0
; filament_notes = ""
; first_layer_acceleration = 0
; first_layer_bed_temperature = 0
; first_layer_extrusion_width = 200%
; first_layer_speed = 30
; first_layer_temperature = 205
; gcode_arcs = 0
; gcode_comments = 0
; gcode_flavor = reprap
; has_heatbed = 1
; infill_acceleration = 0
; infill_first = 0
; interior_brim_width = 0
; layer_gcode = 
; max_fan_speed = 100
; max_layer_height = 0.3
; max_print_speed = 80
; max_volumetric_speed = 0
; min_fan_speed = 35
; min_layer_height = 0.15
; min_print_speed = 10
; min_skirt_length = 0
; notes = 
; nozzle_diameter = 0.5
; only_retract_when_crossing_perimeters = 1
; ooze_prevention = 0
; output_filename_format = [input_filename_base].gcode
; perimeter_acceleration = 0
; post_process = 
; pressure_advance = 0
; printer_notes = 
; resolution = 0
; retract_before_travel = 2
; retract_layer_change = 0
; retract_length = 2
; retract_length_toolchange = 10
; retract_lift = 0
; retract_lift_above = 0
; retract_lift_below = 0
; retract_restart_extra = 0
; retract_restart_extra_toolchange = 0
; retract_speed = 40
; skirt_distance = 6
; skirt_height = 1
; skirts = 0
; slowdown_below_layer_time = 5
; spiral_vase = 0
; standby_temperature_delta = -5
; start_filament_gcode = "; Filament gcode\n"
; start_gcode = G28 ; home all axes\nG1 Z5 F5000 ; lift nozzle\n
; temperature = 200
; threads = 8
; toolchange_gcode = 
; travel_speed = 130
; use_firmware_retraction = 0
; use_relative_e_distances = 0
; use_set_and_wait_bed = 0
; use_set_and_wait_extruder = 0
; use_volumetric_e = 0
; vibration_limit = 0
; wipe = 0
; z_offset = 0
; z_steps_per_mm = 0
; adaptive_slicing = 0
; adaptive_slicing_quality = 75%
; dont_support_bridges = 1
; extrusion_width = 0
; first_layer_height = 0.5
; infill_only_where_needed = 0
; interface_shells = 0
; layer_height = 0.5
; match_horizontal_surfaces = 0
; raft_layers = 0
; regions_overlap = 0
; seam_position = aligned
; sequential_print_priority = 0
; support_material = 0
; support_material_angle = 0
; support_material_buildplate_only = 0
; support_material_contact_distance = 0.2
; support_material_enforce_layers = 0
; support_material_extruder = 1
; support_material_extrusion_width = 0
; support_material_interface_extruder = 1
; support_material_interface_extrusion_width = 0
; support_material_interface_layers = 3
; support_material_interface_spacing = 0
; support_material_interface_speed = 100%
; support_material_max_layers = 0
; support_material_pattern = pillars
; support_material_spacing = 2.5
; support_material_speed = 60
; support_material_threshold = 60%
; xy_size_compensation = 0
; bottom_infill_pattern = rectilinear
; bottom_solid_layers = 0
; bridge_flow_ratio = 1
; bridge_speed = 60
; external_perimeter_extrusion_width = 0
; external_perimeter_speed = 50%
; external_perimeters_first = 0
; extra_perimeters = 1
; fill_angle = 90
; fill_density = 80%
; fill_gaps = 1
; fill_pattern = alignedrectilinear
; gap_fill_speed = 20
; infill_every_layers = 1
; infill_extruder = 1
; infill_extrusion_width = 0
; infill_overlap = 55%
; infill_speed = 80
; overhangs = 1
; perimeter_extruder = 1
; perimeter_extrusion_width = 0
; perimeter_speed = 60
; perimeters = 0
; small_perimeter_speed = 15
; solid_infill_below_area = 70
; solid_infill_every_layers = 0
; solid_infill_extruder = 1
; solid_infill_extrusion_width = 0
; solid_infill_speed = 20
; thin_walls = 1
; top_infill_extrusion_width = 0
; top_infill_pattern = rectilinear
; top_solid_infill_speed = 15
; top_solid_layers = 0
