; generated by Slic3r 1.3.0 on 2020-12-11 at 10:38:54

; external perimeters extrusion width = 0.55mm (6.64mm^3/s)
; perimeters extrusion width = 0.52mm (12.53mm^3/s)
; infill extrusion width = 0.52mm (16.71mm^3/s)
; solid infill extrusion width = 0.52mm (4.18mm^3/s)
; top infill extrusion width = 0.52mm (3.13mm^3/s)

M107
M104 S205 ; set temperature
G28 ; home all axes
G1 Z5 F5000 ; lift nozzle

; Filament gcode

M109 S205 ; set temperature and wait for it to be reached
G21 ; set units to millimeters
G90 ; use absolute coordinates
M82 ; use absolute distances for extrusion
G92 E0
G1 Z0.500 F7800.000
G1 E-2.00000 F2400.00000
G92 E0
G1 X92.343 Y106.965 F7800.000
G1 E2.00000 F2400.00000
G1 F1800
G1 X93.192 Y107.839 E2.07690
G1 X93.134 Y108.031 E2.08959
G1 X93.100 Y108.780 E2.13689
G1 X92.534 Y108.189 E2.18856
G1 X92.317 Y108.052 E2.20477
G1 X92.403 Y107.793 E2.22200
G1 X92.349 Y107.040 E2.26972
G1 X92.585 Y107.402 F7800.000
G1 X93.743 Y107.689 F7800.000
G1 F1800
G1 X94.518 Y107.072 E2.30740
G1 F1800
G1 X94.543 Y107.040 E2.30877
G1 F1800
G1 X94.568 Y106.985 E2.31058
G1 F1800
G1 X94.667 Y106.765 E2.31683
G1 E0.31683 F2400.00000
G92 E0
G1 X93.608 Y108.626 F7800.000
G1 E2.00000 F2400.00000
G1 F1800
G1 X94.196 Y108.981 E2.01847
G1 F1800
G1 X95.229 Y109.649 E2.05704
G1 X94.794 Y109.537 F7800.000
G1 F1800
G1 X94.747 Y109.425 E2.06398
G1 E0.06398 F2400.00000
G92 E0
G1 X92.567 Y109.335 F7800.000
G1 E2.00000 F2400.00000
G1 F1800
G1 X92.409 Y110.126 E2.02429
G1 F1800
G1 X92.338 Y110.468 E2.03726
G1 X92.567 Y109.335 F7800.000
G1 F1800
G1 X92.566 Y109.260 E2.03925
G1 F1800
G1 X92.459 Y108.834 E2.04803
G1 X91.542 Y108.388 F7800.000
G1 F1800
G1 X91.396 Y108.454 E2.05205
G1 F1800
G1 X91.271 Y108.494 E2.05595
G1 F1800
G1 X91.150 Y108.541 E2.06051
G1 F1800
G1 X91.084 Y108.571 E2.06332
G1 F1800
G1 X90.980 Y108.625 E2.06866
G1 F1800
G1 X90.887 Y108.689 E2.07436
G1 F1800
G1 X90.692 Y108.868 E2.08925
G1 X90.705 Y108.904 F7800.000
G1 F1800
G1 X90.692 Y108.868 E2.09134
G1 X90.616 Y108.894 E2.09566
G1 F1800
G1 X90.538 Y108.921 E2.09968
G1 F1800
G1 X90.472 Y108.930 E2.10248
G1 F1800
G1 X90.404 Y108.930 E2.10492
G1 F1800
G1 X90.368 Y108.930 E2.10595
G1 E0.10595 F2400.00000
G92 E0
G1 X104.479 Y108.793 F7800.000
G1 E2.00000 F2400.00000
G1 F1800
G1 X104.490 Y108.745 E2.00168
G1 F1800
G1 X104.500 Y108.697 E2.00366
G1 F1800
G1 X104.518 Y108.647 E2.00611
G1 F1800
G1 X104.549 Y108.574 E2.01025
G1 F1800
G1 X104.599 Y108.491 E2.01586
G1 F1800
G1 X104.686 Y108.315 E2.02824
G1 X104.750 Y108.120 E2.04123
G1 X104.879 Y107.233 F7800.000
G1 F1800
G1 X104.661 Y109.035 E2.09206
G1 X104.614 Y109.038 F7800.000
G1 F1800
G1 X104.960 Y106.634 E2.19483
G1 X104.930 Y106.858 F7800.000
G1 F1800
G1 X104.906 Y107.005 E2.19764
G1 F1800
G1 X104.879 Y107.233 E2.20301
G1 X106.281 Y106.615 F7800.000
G1 F1800
G1 X106.465 Y106.842 E2.21225
G1 F1800
G1 X106.718 Y107.077 E2.22506
G1 F1800
G1 X106.846 Y107.191 E2.23229
G1 F1800
G1 X107.000 Y107.286 E2.24085
G1 X106.963 Y107.322 E2.24330
G1 F1800
G1 X106.926 Y107.358 E2.24550
G1 F1800
G1 X106.889 Y107.395 E2.24733
G1 F1800
G1 X106.853 Y107.431 E2.24880
G1 F1800
G1 X106.834 Y107.449 E2.24936
G1 X107.000 Y107.286 F7800.000
G1 F1800
G1 X107.129 Y107.394 E2.25812
G1 F1800
G1 X107.239 Y107.482 E2.26621
G1 F1800
G1 X107.371 Y107.593 E2.27676
G1 F1800
G1 X107.548 Y107.754 E2.29273
G1 X107.581 Y107.816 E2.29745
G1 F1800
G1 X107.578 Y107.859 E2.30010
G1 F1800
G1 X107.575 Y107.898 E2.30234
G1 F1800
G1 X107.574 Y107.916 E2.30328
G1 X107.625 Y107.851 F7800.000
G1 F1800
G1 X107.669 Y107.886 E2.30639
G1 F1800
G1 X107.713 Y107.920 E2.30914
G1 F1800
G1 X107.757 Y107.955 E2.31153
G1 F1800
G1 X107.795 Y107.989 E2.31341
G1 F1800
G1 X107.830 Y108.023 E2.31487
G1 X107.625 Y107.851 F7800.000
G1 F1800
G1 X107.581 Y107.816 E2.31834
G1 E0.31834 F2400.00000
G92 E0
G1 X108.035 Y105.817 F7800.000
G1 E2.00000 F2400.00000
G1 F1800
G1 X107.781 Y105.775 E2.01310
G1 F1800
G1 X107.523 Y105.727 E2.02532
G1 F1800
G1 X107.287 Y105.684 E2.03529
G1 F1800
G1 X107.051 Y105.642 E2.04388
G1 F1800
G1 X106.815 Y105.595 E2.05115
G1 X106.267 Y104.719 F7800.000
G1 F1800
G1 X106.281 Y104.560 E2.05236
G1 F1800
G1 X106.291 Y104.490 E2.05315
G1 F1800
G1 X106.308 Y104.385 E2.05497
G1 F1800
G1 X106.322 Y104.320 E2.05637
G1 F1800
G1 X106.330 Y104.287 E2.05726
G1 X106.506 Y104.084 E2.06433
G1 F1800
G1 X107.596 Y102.803 E2.11559
G1 X107.391 Y103.094 F7800.000
G1 F1800
G1 X107.325 Y103.133 E2.11903
G1 F1800
G1 X107.292 Y103.153 E2.12101
G1 E0.12101 F2400.00000
G92 E0
G1 X108.035 Y105.817 F7800.000
G1 E2.00000 F2400.00000
G1 F1800
G1 X108.434 Y105.831 E2.02196
G1 F1800
G1 X108.513 Y105.813 E2.02613
G1 E0.02613 F2400.00000
G92 E0
G1 X113.373 Y99.255 F7800.000
G1 E2.00000 F2400.00000
G1 F1800
G1 X113.903 Y98.978 E2.04897
G1 F1800
G1 X115.099 Y98.356 E2.15279
G1 X115.664 Y98.093 E2.20082
G1 F1800
G1 X116.223 Y97.868 E2.24978
G1 F1800
G1 X116.776 Y97.702 E2.29886
G1 F1800
G1 X117.391 Y97.569 E2.35519
G1 F1800
G1 X118.008 Y97.495 E2.41382
G1 F1800
G1 X118.374 Y97.480 E2.45015
G1 X118.999 Y97.497 E2.51212
G1 X119.288 Y97.555 E2.54135
G1 F1800
G1 X119.639 Y97.663 E2.57623
G1 F1800
G1 X119.899 Y97.761 E2.60141
G1 F1800
G1 X120.521 Y98.072 E2.66160
G1 F1800
G1 X121.792 Y98.890 E2.78541
G1 F1800
G1 X122.116 Y99.096 E2.81534
G1 F1800
G1 X122.397 Y99.260 E2.83912
G1 F1800
G1 X122.558 Y99.356 E2.85205
G1 F1800
G1 X122.749 Y99.464 E2.86589
G1 F1800
G1 X123.790 Y100.003 E2.93308
G1 E0.93308 F2400.00000
G92 E0
G1 X105.942 Y95.365 F7800.000
G1 E2.00000 F2400.00000
G1 F1800
G1 X105.935 Y95.313 E2.00112
G1 F1800
G1 X105.927 Y95.261 E2.00260
G1 F1800
G1 X105.920 Y95.209 E2.00443
G1 F1800
G1 X105.912 Y95.157 E2.00662
G1 F1800
G1 X105.910 Y95.109 E2.00896
G1 F1800
G1 X105.912 Y95.064 E2.01139
G1 F1800
G1 X105.917 Y95.023 E2.01387
G1 F1800
G1 X105.924 Y94.986 E2.01633
G1 X105.964 Y95.026 E2.01999
G1 E0.01999 F2400.00000
G92 E0
G1 X90.071 Y102.092 F7800.000
G1 E2.00000 F2400.00000
G1 F1800
G1 X89.167 Y101.003 E2.08938
G1 X89.593 Y100.765 E2.12020
G1 X90.732 Y101.074 E2.19472
G1 X91.318 Y101.054 E2.23176
G1 X92.321 Y100.893 E2.29589
G1 X94.078 Y100.551 E2.40891
G1 X95.892 Y100.142 E2.52636
G1 X96.629 Y100.023 E2.57349
G1 X97.808 Y99.899 E2.64833
G1 X99.008 Y99.831 E2.72426
G1 X100.369 Y99.809 E2.81018
G1 X100.598 Y99.831 E2.82473
G1 X101.324 Y99.846 E2.87056
G1 X102.274 Y99.774 E2.93073
G1 X103.371 Y99.264 E3.00712
G1 X103.837 Y99.648 E3.04525
G1 X103.191 Y100.136 E3.09636
G1 X102.877 Y100.703 E3.13729
G1 X101.853 Y100.518 E3.20297
G1 X100.228 Y101.017 E3.31034
G1 X99.590 Y101.313 E3.35474
G1 X99.307 Y101.356 E3.37281
G1 X99.003 Y101.550 E3.39560
G1 X97.549 Y101.790 E3.48865
G1 X96.719 Y101.813 E3.54108
G1 X96.680 Y101.987 E3.55228
G1 X95.927 Y102.001 E3.59983
G1 X95.888 Y102.170 E3.61080
G1 X94.924 Y102.169 E3.67163
G1 X94.865 Y102.140 E3.67581
G1 X94.401 Y102.135 E3.70510
G1 X93.520 Y102.026 E3.76116
G1 X91.746 Y101.633 E3.87589
G1 X90.658 Y101.688 E3.94469
G1 X90.133 Y102.050 E3.98500
G1 X89.792 Y103.369 F7800.000
G1 F1800
G1 X89.596 Y103.088 E4.00661
G1 X89.273 Y102.529 E4.04740
G1 X88.768 Y101.921 E4.09731
G1 X87.502 Y101.507 E4.18140
G1 X87.171 Y101.333 E4.20500
G1 X86.248 Y100.754 E4.27384
G1 X85.749 Y100.470 E4.31007
G1 X85.494 Y100.347 E4.32800
G1 X85.660 Y99.891 E4.35865
G1 X86.621 Y100.138 E4.42132
G1 X87.094 Y100.229 E4.45168
G1 X87.742 Y100.311 E4.49295
G1 X88.151 Y100.330 E4.51884
G1 X88.690 Y100.247 E4.55322
G1 X89.212 Y99.956 E4.59098
G1 X89.407 Y99.790 E4.60715
G1 X90.836 Y100.177 E4.70065
G1 X91.232 Y100.164 E4.72568
G1 X92.165 Y100.014 E4.78534
G1 X93.891 Y99.678 E4.89634
G1 X95.253 Y99.359 E4.98468
G1 X96.506 Y99.138 E5.06504
G1 X97.746 Y99.008 E5.14376
G1 X98.951 Y98.939 E5.22000
G1 X100.057 Y98.933 E5.28983
G1 X100.385 Y98.914 E5.31058
G1 X100.650 Y98.939 E5.32738
G1 X101.299 Y98.953 E5.36840
G1 X102.045 Y98.896 E5.41559
G1 X102.647 Y98.616 E5.45754
G1 X103.173 Y97.944 E5.51143
G1 X104.279 Y98.856 E5.60196
G1 X105.427 Y99.087 E5.67588
G1 X106.133 Y99.262 E5.72181
G1 X105.082 Y99.895 E5.79931
G1 X104.473 Y100.286 E5.84501
G1 X103.880 Y100.734 E5.89189
G1 X103.567 Y101.300 E5.93274
G1 X103.390 Y102.199 E5.99063
G1 X102.817 Y101.599 E6.04303
G1 X101.908 Y101.435 E6.10133
G1 X100.548 Y101.853 E6.19117
G1 X99.850 Y102.177 E6.23979
G1 X99.627 Y102.211 E6.25402
G1 X99.379 Y102.368 E6.27259
G1 X99.238 Y102.416 E6.28194
G1 X98.184 Y102.590 E6.34946
G1 X98.167 Y102.665 E6.35434
G1 X97.439 Y102.686 E6.40032
G1 X97.399 Y102.866 E6.41194
G1 X96.639 Y102.880 E6.45998
G1 X96.611 Y102.998 E6.46760
G1 X96.306 Y103.001 E6.48686
G1 X96.246 Y103.061 E6.49223
G1 X95.731 Y103.063 E6.52473
G1 X95.673 Y103.093 E6.52884
G1 X95.462 Y103.093 E6.54220
G1 X95.432 Y103.065 E6.54478
G1 X94.711 Y103.060 E6.59029
G1 X94.651 Y103.030 E6.59455
G1 X94.342 Y103.027 E6.61404
G1 X93.368 Y102.907 E6.67598
G1 X91.671 Y102.530 E6.78578
G1 X90.956 Y102.566 E6.83096
G1 X89.854 Y103.326 E6.91549
G1 E4.91549 F2400.00000
G92 E0
G1 X82.849 Y98.874 F7800.000
G1 E2.00000 F2400.00000
G1 F1800
G1 X81.924 Y98.809 E2.05861
G1 X81.139 Y98.809 E2.10818
G1 X80.662 Y98.784 E2.13830
G1 X80.399 Y98.717 E2.15548
G1 X80.076 Y98.518 E2.17945
G1 X79.769 Y98.268 E2.20440
G1 X79.357 Y97.855 E2.24121
G1 X79.181 Y97.643 E2.25863
G1 X78.919 Y97.265 E2.28771
G1 X78.695 Y96.867 E2.31653
G1 X78.615 Y95.669 E2.39232
G1 X78.864 Y95.660 E2.40803
G1 X78.926 Y95.602 E2.41339
G1 X79.649 Y95.578 E2.45903
G1 X79.872 Y95.639 E2.47365
G1 X80.234 Y95.782 E2.49820
G1 X80.577 Y95.981 E2.52323
G1 X80.902 Y96.239 E2.54947
G1 X81.086 Y96.425 E2.56598
G1 X81.345 Y96.747 E2.59206
G1 X82.806 Y98.812 E2.75183
G1 E0.75183 F2400.00000
G92 E0
G1 X85.251 Y99.759 F7800.000
G1 E2.00000 F2400.00000
G1 F1800
G1 X85.077 Y100.180 E2.02875
G1 X84.077 Y99.948 E2.09361
G1 X83.547 Y99.854 E2.12759
G1 X82.901 Y99.772 E2.16874
G1 X81.892 Y99.701 E2.23257
G1 X81.116 Y99.701 E2.28161
G1 X80.564 Y99.673 E2.31651
G1 X80.224 Y99.603 E2.33838
G1 X79.895 Y99.466 E2.36092
G1 X79.534 Y99.228 E2.38819
G1 X79.170 Y98.931 E2.41788
G1 X78.696 Y98.457 E2.46020
G1 X78.470 Y98.184 E2.48262
G1 X78.162 Y97.739 E2.51678
G1 X77.914 Y97.299 E2.54864
G1 X77.815 Y97.085 E2.56357
G1 X77.757 Y96.216 E2.61852
G1 X77.581 Y96.184 E2.62984
G1 X77.513 Y95.355 E2.68232
G1 X77.907 Y94.959 E2.71759
G1 X78.006 Y94.924 E2.72426
G1 X78.142 Y94.795 E2.73608
G1 X78.502 Y94.781 E2.75885
G1 X78.566 Y94.721 E2.76436
G1 X79.128 Y94.702 E2.79988
G1 X79.166 Y94.616 E2.80581
G1 X79.693 Y94.675 E2.83926
G1 X79.931 Y94.725 E2.85463
G1 X80.165 Y94.794 E2.87003
G1 X80.611 Y94.971 E2.90033
G1 X80.877 Y95.114 E2.91939
G1 X81.095 Y95.252 E2.93571
G1 X81.499 Y95.574 E2.96832
G1 X81.753 Y95.830 E2.99108
G1 X82.057 Y96.209 E3.02179
G1 X83.508 Y98.259 E3.18038
G1 X83.962 Y98.794 E3.22470
G1 X84.255 Y99.083 E3.25069
G1 X84.662 Y99.397 E3.28311
G1 X85.187 Y99.720 E3.32203
G1 E1.32203 F2400.00000
G92 E0
G1 X90.347 Y99.120 F7800.000
G1 E2.00000 F2400.00000
G1 F1800
G1 X90.940 Y99.280 E2.03882
G1 X91.146 Y99.274 E2.05185
G1 X92.009 Y99.135 E2.10703
G1 X93.703 Y98.805 E2.21602
G1 X95.575 Y98.384 E2.33716
G1 X96.383 Y98.254 E2.38884
G1 X97.003 Y98.181 E2.42828
G1 X97.684 Y98.117 E2.47144
G1 X98.690 Y98.072 E2.53505
G1 X98.894 Y98.047 E2.54803
G1 X100.028 Y98.040 E2.61967
G1 X100.401 Y98.019 E2.64325
G1 X100.701 Y98.047 E2.66228
G1 X101.275 Y98.059 E2.69851
G1 X101.815 Y98.018 E2.73272
G1 X102.076 Y97.897 E2.75089
G1 X102.475 Y97.387 E2.79176
G1 X102.015 Y96.903 E2.83398
G1 X101.298 Y96.508 E2.88566
G1 X100.499 Y96.104 E2.94219
G1 X100.305 Y95.966 E2.95722
G1 X100.031 Y95.731 E2.97999
G1 X99.760 Y95.450 E3.00463
G1 X99.656 Y95.287 E3.01683
G1 X99.594 Y95.113 E3.02855
G1 X99.642 Y94.934 E3.04026
G1 X99.684 Y94.854 E3.04597
G1 X99.839 Y94.664 E3.06139
G1 X99.930 Y94.592 E3.06877
G1 X100.043 Y94.537 E3.07667
G1 X100.589 Y94.369 E3.11274
G1 X101.472 Y94.027 E3.17257
G1 X101.932 Y93.800 E3.20499
G1 X102.243 Y93.620 E3.22764
G1 X102.510 Y93.418 E3.24879
G1 X102.679 Y93.239 E3.26434
G1 X102.800 Y92.979 E3.28245
G1 X102.794 Y92.570 E3.30830
G1 X103.161 Y92.287 E3.33759
G1 X103.393 Y91.868 E3.36782
G1 X103.662 Y92.110 E3.39063
G1 X104.181 Y92.115 E3.42339
G1 X104.124 Y92.600 E3.45422
G1 X104.171 Y92.861 E3.47099
G1 X104.310 Y93.168 E3.49226
G1 X104.601 Y93.613 E3.52584
G1 X104.213 Y93.763 E3.55211
G1 X103.944 Y93.932 E3.57221
G1 X103.552 Y94.122 E3.59969
G1 X102.752 Y94.353 E3.65224
G1 X102.402 Y94.608 E3.67962
G1 X102.208 Y95.015 E3.70808
G1 X102.249 Y95.375 E3.73090
G1 X102.329 Y95.557 E3.74351
G1 X102.434 Y95.712 E3.75534
G1 X102.648 Y95.906 E3.77355
G1 X103.008 Y96.073 E3.79864
G1 X103.616 Y96.221 E3.83815
G1 X103.835 Y96.305 E3.85294
G1 X104.573 Y96.715 E3.90627
G1 X104.497 Y96.945 E3.92160
G1 X104.324 Y97.306 E3.94688
G1 X104.334 Y97.744 E3.97450
G1 X104.675 Y98.025 E4.00240
G1 X105.623 Y98.215 E4.06347
G1 X106.162 Y98.349 E4.09853
G1 X107.054 Y98.475 E4.15544
G1 X108.106 Y98.660 E4.22289
G1 X110.712 Y99.255 E4.39166
G1 X111.344 Y99.342 E4.43196
G1 X111.883 Y99.343 E4.46603
G1 X112.366 Y99.297 E4.49662
G1 X112.836 Y99.206 E4.52687
G1 X112.976 Y99.669 E4.55738
G1 X112.435 Y99.895 E4.59438
G1 X112.070 Y99.992 E4.61824
G1 X111.751 Y100.034 E4.63859
G1 X111.396 Y100.016 E4.66103
G1 X110.860 Y99.918 E4.69544
G1 X109.753 Y99.632 E4.76762
G1 X109.342 Y99.555 E4.79399
G1 X108.783 Y99.505 E4.82948
G1 X108.243 Y99.522 E4.86356
G1 X107.686 Y99.619 E4.89928
G1 X107.252 Y99.754 E4.92796
G1 X106.780 Y99.954 E4.96036
G1 X106.120 Y100.312 E5.00776
G1 X104.983 Y101.019 E5.09230
G1 X104.570 Y101.332 E5.12504
G1 X104.416 Y101.609 E5.14507
G1 X104.375 Y101.818 E5.15850
G1 X104.301 Y102.533 E5.20392
G1 X104.261 Y102.709 E5.21531
G1 X104.050 Y103.152 E5.24630
G1 X103.702 Y103.696 E5.28710
G1 X103.567 Y103.977 E5.30673
G1 X103.334 Y104.291 E5.33143
G1 X104.038 Y104.725 E5.38362
G1 X104.341 Y104.808 E5.40348
G1 X104.730 Y104.960 E5.42984
G1 X105.014 Y105.012 E5.44805
G1 X105.374 Y105.011 E5.47079
G1 X105.744 Y104.925 E5.49475
G1 X105.828 Y105.278 E5.51766
G1 X105.965 Y105.474 E5.53276
G1 X105.782 Y105.703 E5.55133
G1 X105.696 Y105.984 E5.56986
G1 X105.364 Y106.018 E5.59092
G1 X105.160 Y106.098 E5.60476
G1 X104.816 Y105.695 E5.63818
G1 X104.557 Y105.506 E5.65845
G1 X104.145 Y105.331 E5.68668
G1 X103.832 Y105.246 E5.70721
G1 X103.357 Y105.190 E5.73737
G1 X102.655 Y105.272 E5.78203
G1 X101.792 Y105.544 E5.83916
G1 X101.693 Y105.565 E5.84555
G1 X101.431 Y105.570 E5.86210
G1 X101.170 Y105.507 E5.87904
G1 X100.959 Y105.406 E5.89383
G1 X100.700 Y105.197 E5.91483
G1 X100.866 Y104.928 E5.93480
G1 X101.193 Y104.572 E5.96530
G1 X102.170 Y103.840 E6.04239
G1 X102.376 Y103.600 E6.06238
G1 X102.608 Y103.237 E6.08959
G1 X102.619 Y103.172 E6.09377
G1 X102.828 Y102.903 E6.11528
G1 X102.372 Y102.426 E6.15693
G1 X101.963 Y102.352 E6.18318
G1 X100.868 Y102.688 E6.25549
G1 X100.109 Y103.041 E6.30834
G1 X99.947 Y103.065 E6.31872
G1 X99.766 Y103.180 E6.33224
G1 X99.454 Y103.285 E6.35300
G1 X98.928 Y103.372 E6.38673
G1 X98.915 Y103.431 E6.39055
G1 X98.644 Y103.533 E6.40881
G1 X98.160 Y103.559 E6.43943
G1 X98.133 Y103.678 E6.44713
G1 X97.845 Y103.750 E6.46591
G1 X97.350 Y103.759 E6.49716
G1 X97.332 Y103.834 E6.50200
G1 X97.105 Y103.885 E6.51671
G1 X96.680 Y103.890 E6.54357
G1 X96.649 Y103.920 E6.54631
G1 X96.553 Y103.921 E6.55240
G1 X96.464 Y103.953 E6.55833
G1 X95.948 Y103.955 E6.59090
G1 X95.888 Y103.986 E6.59517
G1 X95.116 Y103.985 E6.64396
G1 X95.083 Y103.956 E6.64675
G1 X94.547 Y103.952 E6.68062
G1 X94.436 Y103.921 E6.68787
G1 X94.283 Y103.919 E6.69755
G1 X93.217 Y103.788 E6.76538
G1 X91.596 Y103.428 E6.87024
G1 X91.254 Y103.445 E6.89181
G1 X90.872 Y103.709 E6.92114
G1 X90.847 Y104.174 E6.95059
G1 X91.038 Y104.577 E6.97873
G1 X91.282 Y104.928 E7.00575
G1 X91.920 Y105.726 E7.07026
G1 X92.186 Y106.381 E7.11489
G1 X91.799 Y106.616 E7.14344
G1 X91.167 Y105.885 E7.20443
G1 X90.695 Y105.209 E7.25651
G1 X90.452 Y104.909 E7.28092
G1 X90.139 Y104.620 E7.30778
G1 X89.218 Y104.026 E7.37698
G1 X89.069 Y103.893 E7.38961
G1 X88.843 Y103.568 E7.41461
G1 X88.538 Y103.041 E7.45307
G1 X88.249 Y102.693 E7.48163
G1 X87.378 Y102.418 E7.53930
G1 X87.130 Y102.320 E7.55614
G1 X86.726 Y102.108 E7.58491
G1 X85.789 Y101.520 E7.65478
G1 X85.334 Y101.260 E7.68788
G1 X85.057 Y101.127 E7.70729
G1 X84.703 Y101.010 E7.73081
G1 X83.898 Y100.823 E7.78304
G1 X83.413 Y100.736 E7.81411
G1 X82.814 Y100.661 E7.85227
G1 X81.861 Y100.594 E7.91257
G1 X81.093 Y100.594 E7.96109
G1 X80.465 Y100.562 E8.00078
G1 X80.122 Y100.503 E8.02276
G1 X79.711 Y100.367 E8.05006
G1 X79.471 Y100.253 E8.06684
G1 X78.993 Y99.939 E8.10298
G1 X78.570 Y99.595 E8.13741
G1 X78.035 Y99.058 E8.18524
G1 X77.758 Y98.724 E8.21267
G1 X77.404 Y98.213 E8.25189
G1 X77.119 Y97.706 E8.28864
G1 X76.935 Y97.309 E8.31628
G1 X76.912 Y96.968 E8.33787
G1 X76.747 Y96.937 E8.34850
G1 X76.701 Y96.384 E8.38356
G1 X76.603 Y96.367 E8.38988
G1 X76.585 Y95.750 E8.42883
G1 X76.595 Y95.311 E8.45657
G1 X76.624 Y95.279 E8.45932
G1 X76.630 Y95.101 E8.47056
G1 X76.695 Y94.973 E8.47964
G1 X76.697 Y94.914 E8.48338
G1 X76.890 Y94.715 E8.50090
G1 X76.894 Y94.649 E8.50506
G1 X77.238 Y94.306 E8.53571
G1 X77.303 Y94.302 E8.53981
G1 X77.425 Y94.184 E8.55054
G1 X77.526 Y94.148 E8.55732
G1 X77.616 Y94.062 E8.56513
G1 X77.969 Y93.908 E8.58947
G1 X78.140 Y93.901 E8.60027
G1 X78.206 Y93.840 E8.60595
G1 X78.536 Y93.829 E8.62679
G1 X78.561 Y93.773 E8.63064
G1 X79.165 Y93.718 E8.66895
G1 X79.834 Y93.793 E8.71145
G1 X80.149 Y93.858 E8.73180
G1 X80.457 Y93.950 E8.75207
G1 X80.988 Y94.161 E8.78813
G1 X81.327 Y94.343 E8.81245
G1 X81.613 Y94.524 E8.83384
G1 X82.096 Y94.908 E8.87283
G1 X82.419 Y95.235 E8.90182
G1 X82.770 Y95.671 E8.93718
G1 X84.214 Y97.712 E9.09504
G1 X84.617 Y98.187 E9.13438
G1 X84.843 Y98.410 E9.15441
G1 X85.170 Y98.661 E9.18043
G1 X85.491 Y98.859 E9.20423
G1 X85.878 Y99.025 E9.23086
G1 X86.817 Y99.267 E9.29211
G1 X87.234 Y99.347 E9.31890
G1 X87.819 Y99.421 E9.35611
G1 X88.104 Y99.434 E9.37415
G1 X88.395 Y99.389 E9.39273
G1 X88.700 Y99.219 E9.41482
G1 X89.062 Y98.884 E9.44595
G1 X89.224 Y98.661 E9.46333
G1 X89.463 Y98.221 E9.49498
G1 X89.886 Y97.301 E9.55889
G1 X90.583 Y96.233 E9.63944
G1 X90.713 Y95.957 E9.65868
G1 X90.784 Y95.658 E9.67815
G1 X90.757 Y95.273 E9.70246
G1 X90.594 Y94.932 E9.72634
G1 X90.173 Y94.480 E9.76535
G1 X90.375 Y94.157 E9.78943
G1 X90.454 Y93.907 E9.80600
G1 X90.424 Y93.518 E9.83063
G1 X90.751 Y93.540 E9.85136
G1 X91.006 Y93.451 E9.86841
G1 X91.176 Y93.329 E9.88165
G1 X91.639 Y93.698 E9.91901
G1 X91.486 Y93.966 E9.93852
G1 X91.396 Y94.287 E9.95954
G1 X91.422 Y94.546 E9.97602
G1 X91.702 Y95.292 E10.02631
G1 X91.768 Y95.563 E10.04393
G1 X91.765 Y95.809 E10.05949
G1 X91.683 Y96.045 E10.07522
G1 X91.431 Y96.597 E10.11356
G1 X91.100 Y97.198 E10.15691
G1 X90.471 Y98.237 E10.23358
G1 X90.352 Y98.496 E10.25154
G1 X90.347 Y99.045 E10.28622
G1 X90.236 Y99.607 F7800.000
G1 E8.28622 F2400.00000
G92 E0
G1 X103.581 Y91.296 F7800.000
G1 E2.00000 F2400.00000
G1 F1800
G1 X102.506 Y89.374 E2.05861
G1 X102.480 Y89.598 F7800.000
G1 F1800
G1 X103.592 Y91.288 E2.07097
G1 X105.094 Y91.394 F7800.000
G1 F1800
G1 X105.330 Y91.214 E2.08671
G1 F1800
G1 X105.491 Y91.083 E2.09877
G1 F1800
G1 X105.692 Y90.887 E2.11623
G1 F1800
G1 X105.835 Y90.663 E2.13375
G1 X105.849 Y90.547 E2.14145
G1 F1800
G1 X105.846 Y90.476 E2.14574
G1 F1800
G1 X105.837 Y90.373 E2.15164
G1 F1800
G1 X105.822 Y90.284 E2.15625
G1 F1800
G1 X105.804 Y90.203 E2.16008
G1 F1800
G1 X105.779 Y90.128 E2.16327
G1 F1800
G1 X105.767 Y90.091 E2.16463
G1 E0.16463 F2400.00000
G92 E0
G1 X91.431 Y91.672 F7800.000
G1 E2.00000 F2400.00000
G1 F1800
G1 X91.410 Y91.899 E2.00951
G1 F1800
G1 X91.389 Y92.126 E2.01763
G1 F1800
G1 X91.368 Y92.353 E2.02436
G1 F1800
G1 X91.340 Y92.556 E2.02915
G1 X91.355 Y92.598 E2.03019
G1 F1800
G1 X91.385 Y92.682 E2.03181
G1 F1800
G1 X91.519 Y92.962 E2.03543
G1 X91.431 Y91.672 F7800.000
G1 F1800
G1 X91.437 Y91.431 E2.04637
G1 X91.317 Y90.797 E2.07565
G1 E0.07565 F2400.00000
G92 E0
G1 X90.920 Y94.109 F7800.000
G1 E2.00000 F2400.00000
G1 F1800
G1 X90.880 Y94.254 E2.00016
G1 F1800
G1 X90.832 Y94.532 E2.00152
G1 E0.00152 F2400.00000
G92 E0
G1 X89.875 Y98.524 F7800.000
G1 E2.00000 F2400.00000
G1 F1800
G1 X89.622 Y99.386 E2.01419
G1 E0.01419 F2400.00000
G92 E0
G1 X88.270 Y101.024 F7800.000
G1 E2.00000 F2400.00000
G1 F1800
G1 X88.029 Y100.990 E2.00705
G1 F1800
G1 X87.763 Y100.938 E2.01337
G1 F1800
G1 X87.411 Y100.830 E2.01989
G1 F1800
G1 X87.138 Y100.745 E2.02337
G1 E0.02337 F2400.00000
G92 E0
G1 X92.663 Y101.377 F7800.000
G1 E2.00000 F2400.00000
G1 F1800
G1 X93.570 Y101.345 E2.02733
G1 F1800
G1 X94.130 Y101.326 E2.04740
G1 F1800
G1 X94.353 Y101.316 E2.05645
G1 F1800
G1 X94.630 Y101.291 E2.06924
G1 F1800
G1 X94.977 Y101.253 E2.08738
G1 F1800
G1 X95.139 Y101.249 E2.09664
G1 F1800
G1 X95.209 Y101.241 E2.10097
G1 X95.237 Y101.291 E2.10443
G1 F1800
G1 X95.266 Y101.340 E2.10749
G1 F1800
G1 X95.294 Y101.389 E2.11016
G1 F1800
G1 X95.322 Y101.439 E2.11243
G1 F1800
G1 X95.350 Y101.488 E2.11430
G1 F1800
G1 X95.380 Y101.533 E2.11571
G1 F1800
G1 X95.396 Y101.554 E2.11622
G1 X95.209 Y101.241 F7800.000
G1 F1800
G1 X95.563 Y101.118 E2.13902
G1 F1800
G1 X95.809 Y101.090 E2.15294
G1 F1800
G1 X95.985 Y101.070 E2.16372
G1 X96.200 Y100.992 E2.17757
G1 F1800
G1 X96.347 Y100.952 E2.18595
G1 X96.753 Y100.913 E2.20841
G1 F1800
G1 X97.460 Y100.864 E2.25076
G1 X98.251 Y100.771 E2.29837
G1 F1800
G1 X100.164 Y100.570 E2.40479
G1 E0.40479 F2400.00000
G92 E0
G1 X103.501 Y102.961 F7800.000
G1 E2.00000 F2400.00000
G1 F1800
G1 X103.180 Y103.415 E2.00846
G1 X103.050 Y103.664 E2.01275
G1 X102.856 Y103.945 E2.01793
G1 X102.573 Y104.297 E2.02482
G1 F1800
G1 X102.534 Y104.359 E2.02619
G1 F1800
G1 X102.494 Y104.441 E2.02848
G1 F1800
G1 X102.434 Y104.566 E2.03266
G1 X102.170 Y104.701 E2.04167
G1 F1800
G1 X101.906 Y104.837 E2.04859
G1 F1800
G1 X101.642 Y104.973 E2.05342
G1 F1800
G1 X101.577 Y104.997 E2.05427
G1 F1800
G1 X101.362 Y105.094 E2.05599
G1 E0.05599 F2400.00000
G92 E0
G1 X103.880 Y97.427 F7800.000
G1 E2.00000 F2400.00000
G1 F1800
G1 X102.672 Y96.641 E2.03857
G1 F1800
G1 X102.489 Y96.509 E2.04357
G1 F1800
G1 X102.359 Y96.421 E2.04612
G1 F1800
G1 X102.135 Y96.269 E2.04950
G1 F1800
G1 X101.930 Y96.119 E2.05441
G1 E0.05441 F2400.00000
G92 E0
G1 X107.043 Y99.296 F7800.000
G1 E2.00000 F2400.00000
G1 F1800
G1 X107.188 Y99.231 E2.00049
G1 F1800
G1 X107.333 Y99.166 E2.00161
G1 X107.404 Y99.112 E2.00224
G1 X107.363 Y99.070 E2.00265
G1 F1800
G1 X107.342 Y99.048 E2.00272
G1 X107.304 Y99.061 E2.00280
G1 X107.245 Y99.112 F7800.000
G1 F1800
G1 X107.759 Y99.102 E2.00492
G1 E0.00492 F2400.00000
G92 E0
G1 X80.783 Y97.777 F7800.000
G1 E2.00000 F2400.00000
G1 F1800
G1 X80.790 Y97.754 E2.00176
G1 X80.714 Y97.679 E2.00981
G1 F1800
G1 X80.504 Y97.455 E2.03476
G1 F1800
G1 X79.951 Y96.861 E2.10368
G1 X79.099 Y96.043 E2.20387
G1 X78.089 Y95.824 F7800.000
G1 F1800
G1 X78.060 Y95.433 E2.20596
G1 E0.20596 F2400.00000
G92 E0
G1 X80.783 Y97.777 F7800.000
G1 E2.00000 F2400.00000
G1 F1800
G1 X80.769 Y97.821 E2.00322
G1 F1800
G1 X80.753 Y97.863 E2.00606
G1 F1800
G1 X80.551 Y98.295 E2.03312
M104 S200 ; set temperature
G1 Z1.000 F7800.000
G1 E0.03312 F2400.00000
G92 E0
G1 X92.784 Y107.942 F7800.000
G1 E2.00000 F2400.00000
G1 F1800
G1 X92.745 Y107.884 E2.00243
G1 E0.00243 F2400.00000
G92 E0
G1 X104.689 Y105.245 F7800.000
G1 E2.00000 F2400.00000
G1 F900
G1 X105.365 Y105.234 E2.02119
G1 X105.516 Y105.283 E2.02616
G1 X105.573 Y105.351 E2.02894
G1 X105.595 Y105.500 E2.03367
G1 X105.583 Y105.567 E2.03579
G1 X105.455 Y105.749 E2.04274
G1 X105.388 Y105.775 E2.04500
G1 X105.271 Y105.776 E2.04868
G1 X105.204 Y105.756 E2.05088
G1 X105.104 Y105.690 E2.05463
G1 X104.740 Y105.300 E2.07134
G1 X105.173 Y105.368 F7800.000
G1 X103.927 Y105.044 F7800.000
G1 F1800
G1 X104.000 Y105.050 E2.07173
G1 X103.923 Y104.731 E2.07350
G1 E0.07350 F2400.00000
G92 E0
G1 X108.083 Y99.108 F7800.000
G1 E2.00000 F2400.00000
G1 F1800
G1 X108.429 Y99.132 E2.01148
G1 F1800
G1 X108.822 Y99.171 E2.02304
G1 F1800
G1 X109.300 Y99.244 E2.03425
G1 F1800
G1 X110.473 Y99.514 E2.05622
G1 F1800
G1 X111.234 Y99.660 E2.07444
G1 F1800
G1 X111.611 Y99.684 E2.08467
G1 X112.006 Y99.659 E2.09538
G1 F1800
G1 X112.350 Y99.596 E2.10314
G1 F1800
G1 X112.576 Y99.532 E2.10679
G1 F1800
G1 X112.776 Y99.458 E2.10918
G1 F1800
G1 X113.001 Y99.386 E2.11055
G1 E0.11055 F2400.00000
G92 E0
G1 X103.090 Y104.628 F7800.000
G1 E2.00000 F2400.00000
G1 F900
G1 X102.373 Y104.768 E2.02158
G1 X102.121 Y104.837 E2.02930
G1 X102.031 Y104.647 E2.03552
G1 X102.251 Y104.491 E2.04350
G1 X102.497 Y104.271 E2.05324
G1 X103.030 Y103.734 E2.07560
G1 X103.007 Y104.294 E2.09215
G1 X103.072 Y104.555 E2.10010
G1 E0.10010 F2400.00000
G92 E0
G1 X103.490 Y97.423 F7800.000
G1 E2.00000 F2400.00000
G1 F900
G1 X103.136 Y97.025 E2.01574
G1 X102.918 Y96.833 E2.02433
G1 X103.005 Y96.660 E2.03003
G1 X103.522 Y96.778 E2.04571
G1 X103.767 Y96.932 E2.05425
G1 X103.530 Y97.360 E2.06869
G1 E0.06869 F2400.00000
G92 E0
G1 X101.838 Y96.137 F7800.000
G1 E2.00000 F2400.00000
G1 F900
G1 X100.957 Y95.752 E2.02843
G1 X100.753 Y95.638 E2.03531
G1 X100.522 Y95.436 E2.04438
G1 X100.237 Y95.105 E2.05730
G1 X100.427 Y95.004 E2.06367
G1 X101.121 Y94.732 E2.08569
G1 X101.756 Y94.554 E2.10518
G1 X101.673 Y94.971 E2.11774
G1 X101.682 Y95.288 E2.12713
G1 X101.782 Y95.697 E2.13957
G1 X101.959 Y96.002 E2.14998
G1 X101.888 Y96.081 E2.15313
G1 E0.15313 F2400.00000
G92 E0
G1 X103.162 Y93.673 F7800.000
G1 E2.00000 F2400.00000
G1 F900
G1 X103.506 Y92.652 E2.03184
G1 X103.655 Y93.047 E2.04432
G1 X103.745 Y93.360 E2.05394
G1 X103.640 Y93.449 E2.05801
G1 X103.230 Y93.641 E2.07139
G1 E0.07139 F2400.00000
G92 E0
G1 X89.785 Y101.974 F7800.000
G1 E2.00000 F2400.00000
G1 F900
G1 X89.570 Y102.862 E2.02698
G1 X89.238 Y102.313 E2.04591
G1 X88.932 Y101.703 E2.06610
G1 X88.467 Y101.440 E2.08190
G1 X87.574 Y101.134 E2.10978
G1 X87.076 Y100.846 E2.12678
G1 X86.887 Y100.728 E2.13335
G1 X86.958 Y100.537 E2.13936
G1 X87.433 Y100.607 E2.15356
G1 X88.352 Y100.665 E2.18077
G1 X88.956 Y100.301 E2.20160
G1 X89.287 Y99.975 E2.21533
G1 X89.569 Y100.493 E2.23276
G1 X90.686 Y100.548 E2.26582
G1 X92.156 Y100.360 E2.30960
G1 X94.021 Y100.015 E2.36566
G1 X95.926 Y99.597 E2.42327
G1 X96.592 Y99.492 E2.44318
G1 X98.254 Y99.346 E2.49247
G1 X99.534 Y99.291 E2.53035
G1 X101.203 Y99.292 E2.57966
G1 X102.783 Y99.161 E2.62648
G1 X103.439 Y99.020 E2.64632
G1 X103.488 Y98.967 E2.64846
G1 X103.795 Y99.161 E2.65918
G1 X104.512 Y99.242 E2.68051
G1 X105.260 Y99.408 E2.70313
G1 X104.477 Y99.890 E2.73028
G1 X103.446 Y100.591 E2.76713
G1 X103.410 Y101.051 E2.78079
G1 X103.146 Y100.788 E2.79181
G1 X102.253 Y100.964 E2.81869
G1 X101.210 Y101.303 E2.85110
G1 X100.397 Y101.538 E2.87611
G1 X99.590 Y101.864 E2.90181
G1 X98.117 Y102.334 E2.94751
G1 X97.340 Y102.526 E2.97115
G1 X96.589 Y102.640 E2.99360
G1 X95.619 Y102.694 E3.02232
G1 X95.031 Y102.689 E3.03969
G1 X94.378 Y102.644 E3.05902
G1 X93.120 Y102.487 E3.09646
G1 X91.129 Y102.078 E3.15654
G1 X89.860 Y101.980 E3.19414
G1 X84.058 Y99.592 F7800.000
G1 F900
G1 X83.470 Y99.486 E3.21178
G1 X82.709 Y99.396 E3.23445
G1 X80.594 Y99.299 E3.29698
G1 X80.299 Y99.228 E3.30594
G1 X80.040 Y99.113 E3.31431
G1 X79.707 Y98.890 E3.32616
G1 X79.208 Y98.471 E3.34542
G1 X78.642 Y97.908 E3.36900
G1 X78.436 Y97.621 E3.37943
G1 X78.303 Y97.369 E3.38785
G1 X78.164 Y97.015 E3.39911
G1 X77.958 Y96.401 E3.41823
G1 X77.850 Y95.935 E3.43237
G1 X77.827 Y95.683 E3.43983
G1 X77.837 Y95.562 E3.44342
G1 X77.964 Y95.394 E3.44964
G1 X78.208 Y95.216 E3.45857
G1 X78.549 Y95.054 E3.46973
G1 X79.147 Y94.922 E3.48782
G1 X79.416 Y94.939 E3.49577
G1 X79.719 Y95.010 E3.50495
G1 X80.248 Y95.206 E3.52163
G1 X80.653 Y95.406 E3.53497
G1 X81.087 Y95.691 E3.55032
G1 X81.200 Y95.785 E3.55467
G1 X81.549 Y96.137 E3.56930
G1 X81.749 Y96.377 E3.57854
G1 X83.116 Y98.300 E3.64825
G1 X83.619 Y98.929 E3.67206
G1 X84.142 Y99.426 E3.69336
G1 X84.092 Y99.525 E3.69666
G1 E1.69666 F2400.00000
G92 E0
G1 X90.107 Y102.418 F7800.000
G1 E2.00000 F2400.00000
G1 F3600
G1 X89.960 Y103.023 E2.01840
G1 X89.840 Y103.237 E2.02566
G1 X89.954 Y103.754 E2.04129
G1 X89.679 Y103.638 E2.05010
G1 X89.499 Y103.502 E2.05677
G1 X88.872 Y102.515 E2.09129
G1 X88.616 Y102.004 E2.10821
G1 X88.295 Y101.822 E2.11910
G1 X87.400 Y101.516 E2.14704
G1 X86.860 Y101.204 E2.16548
G1 X86.087 Y100.719 E2.19245
G1 X85.376 Y100.349 E2.21613
G1 X84.371 Y100.073 E2.24690
G1 X83.409 Y99.900 E2.27581
G1 X82.674 Y99.812 E2.29766
G1 X80.536 Y99.714 E2.36091
G1 X80.172 Y99.627 E2.37197
G1 X79.836 Y99.479 E2.38280
G1 X79.456 Y99.224 E2.39633
G1 X78.926 Y98.779 E2.41678
G1 X78.333 Y98.190 E2.44147
G1 X78.077 Y97.836 E2.45439
G1 X77.923 Y97.544 E2.46413
G1 X77.771 Y97.158 E2.47640
G1 X77.556 Y96.515 E2.49644
G1 X77.437 Y96.001 E2.51200
G1 X77.407 Y95.685 E2.52139
G1 X77.424 Y95.491 E2.52714
G1 X77.485 Y95.336 E2.53207
G1 X77.652 Y95.114 E2.54028
G1 X77.993 Y94.856 E2.55292
G1 X78.413 Y94.657 E2.56665
G1 X79.076 Y94.510 E2.58671
G1 X79.477 Y94.524 E2.59856
G1 X79.839 Y94.609 E2.60955
G1 X80.413 Y94.822 E2.62764
G1 X80.861 Y95.043 E2.64237
G1 X81.337 Y95.355 E2.65920
G1 X81.483 Y95.478 E2.66484
G1 X81.858 Y95.855 E2.68056
G1 X82.080 Y96.121 E2.69081
G1 X83.450 Y98.048 E2.76066
G1 X83.928 Y98.646 E2.78327
G1 X84.466 Y99.157 E2.80519
G1 X84.956 Y99.506 E2.82297
G1 X85.491 Y99.761 E2.84050
G1 X86.706 Y100.078 E2.87759
G1 X87.477 Y100.191 E2.90060
G1 X88.248 Y100.240 E2.92344
G1 X88.698 Y99.969 E2.93896
G1 X88.913 Y99.757 E2.94788
G1 X89.435 Y99.372 E2.96703
G1 X89.824 Y100.087 E2.99109
G1 X90.670 Y100.129 E3.01613
G1 X92.091 Y99.947 E3.05847
G1 X93.939 Y99.605 E3.11398
G1 X95.849 Y99.186 E3.17176
G1 X96.541 Y99.078 E3.19246
G1 X98.226 Y98.929 E3.24245
G1 X99.526 Y98.874 E3.28087
G1 X101.186 Y98.874 E3.32993
G1 X102.721 Y98.747 E3.37545
G1 X103.222 Y98.640 E3.39058
G1 X103.417 Y98.428 E3.39908
G1 X103.937 Y98.757 E3.41727
G1 X104.581 Y98.829 E3.43642
G1 X105.905 Y99.124 E3.47650
G1 X106.182 Y99.169 E3.48479
G1 X106.211 Y99.348 E3.49013
G1 X105.857 Y99.531 E3.50191
G1 X104.704 Y100.240 E3.54190
G1 X103.847 Y100.823 E3.57252
G1 X103.757 Y101.987 E3.60703
G1 X103.009 Y101.241 E3.63826
G1 X102.359 Y101.369 E3.65783
G1 X101.333 Y101.703 E3.68970
G1 X100.534 Y101.934 E3.71429
G1 X99.732 Y102.257 E3.73982
G1 X98.230 Y102.736 E3.78640
G1 X97.422 Y102.936 E3.81100
G1 X96.632 Y103.056 E3.83460
G1 X95.628 Y103.111 E3.86431
G1 X95.015 Y103.106 E3.88244
G1 X94.338 Y103.060 E3.90249
G1 X93.057 Y102.900 E3.94062
G1 X91.069 Y102.493 E4.00060
G1 X90.182 Y102.424 E4.02687
G1 X90.439 Y102.875 F7800.000
G1 F1800
G1 X90.364 Y103.183 E4.03678
G1 X90.295 Y103.305 E4.04119
G1 X90.337 Y103.492 E4.04718
G1 X90.560 Y104.188 E4.07007
G1 X90.693 Y104.496 E4.08057
G1 X90.544 Y104.623 E4.08669
G1 X89.957 Y104.254 E4.10840
G1 X89.807 Y104.200 E4.11340
G1 X89.652 Y104.093 E4.11929
G1 X89.462 Y104.014 E4.12574
G1 X89.181 Y103.800 E4.13681
G1 X88.780 Y103.194 E4.15954
G1 X88.495 Y102.723 E4.17678
G1 X88.290 Y102.314 E4.19112
G1 X88.118 Y102.217 E4.19731
G1 X87.221 Y101.910 E4.22700
G1 X86.638 Y101.572 E4.24810
G1 X85.873 Y101.092 E4.27638
G1 X85.218 Y100.751 E4.29950
G1 X84.276 Y100.493 E4.33008
G1 X83.345 Y100.325 E4.35972
G1 X82.639 Y100.241 E4.38198
G1 X80.475 Y100.142 E4.44981
G1 X80.040 Y100.038 E4.46381
G1 X79.626 Y99.856 E4.47798
G1 X79.197 Y99.568 E4.49415
G1 X78.635 Y99.097 E4.51711
G1 X78.015 Y98.480 E4.54452
G1 X77.887 Y98.324 E4.55083
G1 X77.707 Y98.056 E4.56093
G1 X77.532 Y97.724 E4.57271
G1 X77.367 Y97.305 E4.58680
G1 X77.141 Y96.632 E4.60904
G1 X77.011 Y96.070 E4.62708
G1 X76.976 Y95.687 E4.63915
G1 X76.998 Y95.426 E4.64735
G1 X77.021 Y95.323 E4.65064
G1 X77.111 Y95.116 E4.65770
G1 X77.335 Y94.821 E4.66930
G1 X77.772 Y94.484 E4.68660
G1 X78.273 Y94.247 E4.70395
G1 X79.003 Y94.086 E4.72735
G1 X79.120 Y94.071 E4.73106
G1 X79.540 Y94.097 E4.74422
G1 X79.964 Y94.197 E4.75785
G1 X80.584 Y94.426 E4.77856
G1 X81.075 Y94.668 E4.79570
G1 X81.594 Y95.009 E4.81515
G1 X81.774 Y95.161 E4.82253
G1 X82.176 Y95.565 E4.84038
G1 X82.421 Y95.859 E4.85235
G1 X83.794 Y97.789 E4.92653
G1 X84.245 Y98.354 E4.94918
G1 X84.740 Y98.824 E4.97054
G1 X85.175 Y99.134 E4.98726
G1 X85.640 Y99.355 E5.00339
G1 X86.792 Y99.656 E5.04068
G1 X87.522 Y99.763 E5.06377
G1 X88.141 Y99.802 E5.08321
G1 X88.432 Y99.627 E5.09386
G1 X88.633 Y99.429 E5.10267
G1 X89.170 Y99.033 E5.12358
G1 X89.445 Y98.654 E5.13822
G1 X89.660 Y98.275 E5.15188
G1 X89.796 Y97.973 E5.16226
G1 X89.918 Y97.755 E5.17006
G1 X90.115 Y97.306 E5.18543
G1 X90.722 Y96.422 E5.21900
G1 X90.912 Y96.059 E5.23184
G1 X90.968 Y95.703 E5.24312
G1 X90.960 Y95.235 E5.25779
G1 X90.711 Y94.744 E5.27502
G1 X90.572 Y94.532 E5.28295
G1 X90.547 Y94.405 E5.28702
G1 X90.552 Y94.348 E5.28880
G1 X90.703 Y93.937 E5.30253
G1 X90.779 Y93.831 E5.30661
G1 X90.911 Y93.773 E5.31110
G1 X91.088 Y93.755 E5.31669
G1 X91.208 Y93.828 E5.32106
G1 X91.217 Y94.390 E5.33866
G1 X91.260 Y94.682 E5.34792
G1 X91.324 Y94.936 E5.35610
G1 X91.507 Y95.357 E5.37050
G1 X91.555 Y95.545 E5.37658
G1 X91.561 Y95.694 E5.38125
G1 X91.497 Y95.955 E5.38967
G1 X91.196 Y96.580 E5.41138
G1 X91.002 Y96.955 E5.42460
G1 X90.885 Y97.117 E5.43087
G1 X90.820 Y97.282 E5.43641
G1 X90.353 Y98.025 E5.46390
G1 X90.080 Y98.562 E5.48275
G1 X89.938 Y98.912 E5.49460
G1 X89.874 Y99.279 E5.50626
G1 X90.086 Y99.670 E5.52017
G1 X90.653 Y99.698 E5.53794
G1 X92.025 Y99.522 E5.58125
G1 X93.853 Y99.183 E5.63948
G1 X95.769 Y98.763 E5.70090
G1 X96.489 Y98.650 E5.72371
G1 X98.198 Y98.499 E5.77745
G1 X99.516 Y98.444 E5.81877
G1 X101.168 Y98.444 E5.87049
G1 X102.658 Y98.320 E5.91731
G1 X102.998 Y98.248 E5.92819
G1 X103.147 Y98.086 E5.93508
G1 X103.188 Y97.829 E5.94321
G1 X103.117 Y97.651 E5.94923
G1 X102.832 Y97.330 E5.96265
G1 X102.440 Y96.985 E5.97900
G1 X102.078 Y96.740 E5.99270
G1 X101.601 Y96.503 E6.00938
G1 X100.765 Y96.138 E6.03794
G1 X100.504 Y95.992 E6.04730
G1 X100.216 Y95.740 E6.05927
G1 X99.942 Y95.423 E6.07240
G1 X99.839 Y95.217 E6.07961
G1 X99.817 Y95.086 E6.08378
G1 X99.929 Y94.819 E6.09285
G1 X100.025 Y94.730 E6.09695
G1 X100.247 Y94.613 E6.10480
G1 X100.984 Y94.324 E6.12957
G1 X101.529 Y94.170 E6.14733
G1 X102.053 Y93.966 E6.16493
G1 X102.480 Y93.715 E6.18043
G1 X102.652 Y93.542 E6.18808
G1 X102.734 Y93.402 E6.19315
G1 X102.834 Y93.298 E6.19768
G1 X103.045 Y92.673 E6.21833
G1 X103.110 Y92.583 E6.22183
G1 X103.249 Y92.443 E6.22800
G1 X103.387 Y92.351 E6.23317
G1 X103.479 Y92.310 E6.23635
G1 X103.551 Y92.310 E6.23860
G1 X103.662 Y92.334 E6.24216
G1 X103.829 Y92.405 E6.24783
G1 X103.902 Y92.482 E6.25117
G1 X104.064 Y92.912 E6.26554
G1 X104.185 Y93.333 E6.27925
G1 X104.170 Y93.496 E6.28438
G1 X104.050 Y93.666 E6.29091
G1 X103.810 Y93.846 E6.30029
G1 X103.529 Y93.977 E6.30999
G1 X103.371 Y94.028 E6.31520
G1 X102.942 Y94.103 E6.32885
G1 X102.635 Y94.197 E6.33891
G1 X102.301 Y94.450 E6.35203
G1 X102.147 Y94.791 E6.36373
G1 X102.105 Y95.007 E6.37062
G1 X102.111 Y95.231 E6.37763
G1 X102.185 Y95.535 E6.38743
G1 X102.384 Y95.876 E6.39981
G1 X102.512 Y95.988 E6.40514
G1 X102.701 Y96.119 E6.41235
G1 X102.871 Y96.193 E6.41812
G1 X103.553 Y96.336 E6.43997
G1 X103.706 Y96.385 E6.44497
G1 X104.013 Y96.579 E6.45634
G1 X104.196 Y96.783 E6.46493
G1 X104.218 Y96.849 E6.46711
G1 X104.192 Y97.043 E6.47325
G1 X104.020 Y97.385 E6.48524
G1 X103.786 Y97.762 E6.49913
G1 X103.795 Y98.158 E6.51152
G1 X104.084 Y98.340 E6.52223
G1 X104.652 Y98.404 E6.54015
G1 X105.987 Y98.701 E6.58296
G1 X107.806 Y98.999 E6.64067
G1 X107.810 Y99.219 E6.64758
G1 X107.433 Y99.298 E6.65966
G1 X106.664 Y99.598 E6.68551
G1 X106.069 Y99.906 E6.70648
G1 X104.938 Y100.602 E6.74807
G1 X104.260 Y101.062 E6.77374
G1 X104.147 Y102.534 E6.81995
G1 X104.107 Y102.714 E6.82574
G1 X103.992 Y102.960 E6.83423
G1 X103.670 Y103.456 E6.85276
G1 X103.457 Y103.838 E6.86647
G1 X103.439 Y104.250 E6.87938
G1 X103.511 Y104.539 E6.88871
G1 X103.615 Y104.721 E6.89525
G1 X103.625 Y104.879 E6.90021
G1 X103.455 Y104.996 E6.90669
G1 X102.471 Y105.187 E6.93806
G1 X102.013 Y105.313 E6.95294
G1 X101.590 Y105.405 E6.96652
G1 X101.305 Y105.346 E6.97562
G1 X101.209 Y105.299 E6.97897
G1 X101.108 Y105.163 E6.98427
G1 X101.099 Y105.121 E6.98563
G1 X101.099 Y105.062 E6.98746
G1 X101.175 Y104.861 E6.99418
G1 X101.379 Y104.621 E7.00407
G1 X101.730 Y104.334 E7.01826
G1 X101.982 Y104.154 E7.02797
G1 X102.201 Y103.959 E7.03714
G1 X102.507 Y103.651 E7.05073
G1 X102.688 Y103.418 E7.05998
G1 X102.889 Y103.014 E7.07411
G1 X103.037 Y102.658 E7.08619
G1 X103.174 Y102.013 E7.10683
G1 X102.867 Y101.707 E7.12038
G1 X102.467 Y101.786 E7.13314
G1 X101.460 Y102.114 E7.16633
G1 X100.674 Y102.341 E7.19193
G1 X99.878 Y102.662 E7.21880
G1 X98.348 Y103.150 E7.26912
G1 X97.506 Y103.358 E7.29626
G1 X96.677 Y103.485 E7.32253
G1 X95.638 Y103.542 E7.35509
G1 X94.998 Y103.536 E7.37515
G1 X94.296 Y103.488 E7.39718
G1 X92.992 Y103.325 E7.43833
G1 X92.434 Y103.224 E7.45609
G1 X91.007 Y102.919 E7.50179
G1 X90.514 Y102.881 E7.51728
G1 X90.130 Y102.807 F7800.000
G1 X90.997 Y104.597 F7800.000
G1 F1800
G1 X90.950 Y104.874 E7.52492
G1 F1800
G1 X90.925 Y105.024 E7.52984
G1 X91.092 Y105.233 E7.53850
G1 F1800
G1 X91.215 Y105.406 E7.54614
G1 F1800
G1 X91.324 Y105.517 E7.55253
G1 X91.563 Y105.827 E7.56864
G1 F1800
G1 X91.884 Y106.385 E7.59176
G1 E5.59176 F2400.00000
G92 E0
G1 X88.719 Y101.191 F7800.000
G1 E2.00000 F2400.00000
G1 F1200
G1 X88.395 Y100.867 E2.01394
G1 X88.773 Y100.639 E2.02735
G1 X89.844 Y101.710 E2.07330
G1 X90.502 Y101.761 E2.09331
G1 X89.494 Y100.753 E2.13654
G1 X90.132 Y100.785 E2.15592
G1 X91.159 Y101.812 E2.19999
G1 X91.349 Y101.826 E2.20577
G1 X91.892 Y101.937 E2.22257
G1 X90.734 Y100.780 E2.27224
G1 X91.272 Y100.711 E2.28869
G1 X92.655 Y102.094 E2.34802
G1 X93.412 Y102.244 E2.37144
G1 X91.810 Y100.642 E2.44017
G1 X92.334 Y100.560 E2.45626
G1 X94.105 Y102.331 E2.53225
G1 X94.785 Y102.404 E2.55301
G1 X92.845 Y100.465 E2.63623
G1 X93.357 Y100.370 E2.65202
G1 X95.423 Y102.435 E2.74064
G1 X96.018 Y102.425 E2.75872
G1 X93.869 Y100.275 E2.85095
G1 X94.368 Y100.168 E2.86645
G1 X96.593 Y102.393 E2.96192
G1 X96.709 Y102.387 E2.96542
G1 X97.129 Y102.322 E2.97834
G1 X94.866 Y100.059 E3.07546
G1 X95.363 Y99.950 E3.09091
G1 X97.638 Y102.224 E3.18850
G1 X98.124 Y102.104 E3.20371
G1 X95.862 Y99.842 E3.30078
G1 X96.386 Y99.760 E3.31687
G1 X98.587 Y101.960 E3.41128
G1 X99.046 Y101.813 E3.42593
G1 X96.938 Y99.704 E3.51641
G1 X97.495 Y99.655 E3.53339
G1 X99.506 Y101.667 E3.61969
G1 X99.945 Y101.498 E3.63394
G1 X98.052 Y99.606 E3.71514
G1 X98.631 Y99.578 E3.73273
G1 X100.377 Y101.324 E3.80763
G1 X100.844 Y101.184 E3.82241
G1 X99.213 Y99.554 E3.89236
G1 X99.813 Y99.547 E3.91055
G1 X101.312 Y101.046 E3.97489
G1 X101.770 Y100.897 E3.98949
G1 X100.420 Y99.547 E4.04743
G1 X101.026 Y99.547 E4.06584
G1 X102.227 Y100.748 E4.11738
G1 X102.726 Y100.640 E4.13285
G1 X101.589 Y99.503 E4.18162
G1 X102.149 Y99.457 E4.19867
G1 X103.211 Y100.518 E4.24422
G1 X103.572 Y100.273 E4.25747
G1 X102.706 Y99.407 E4.29461
G1 X103.206 Y99.300 E4.31011
G1 X103.933 Y100.027 E4.34130
G1 X104.294 Y99.782 F7800.000
G1 F1200
G1 X103.969 Y99.457 E4.35524
G1 E2.35524 F2400.00000
G92 E0
G1 X106.446 Y99.459 F7800.000
G1 E2.00000 F2400.00000
G1 F1200
G1 X106.677 Y99.032 E2.00402
G1 E0.00402 F2400.00000
G92 E0
G1 X102.769 Y96.651 F7800.000
G1 E2.00000 F2400.00000
G1 F1200
G1 X102.247 Y96.336 E2.01476
G1 X102.222 Y96.030 E2.02219
G1 X102.016 Y94.492 F7800.000
G1 F1200
G1 X102.102 Y94.248 E2.02223
G1 X102.924 Y93.706 E2.02239
G1 X102.869 Y93.701 F7800.000
G1 F1200
G1 X102.742 Y93.939 E2.02246
G1 E0.02246 F2400.00000
G92 E0
G1 X91.217 Y95.252 F7800.000
G1 E2.00000 F2400.00000
G1 F1200
G1 X91.264 Y95.665 E2.00154
G1 X91.188 Y95.992 E2.00279
G1 X91.061 Y94.907 F7800.000
G1 F1200
G1 X90.885 Y94.405 E2.00599
G1 X90.920 Y94.186 E2.00731
G1 F1200
G1 X90.940 Y94.065 E2.00731
G1 X90.827 Y94.222 F7800.000
G1 F1200
G1 X91.001 Y94.731 E2.00859
G1 E0.00859 F2400.00000
G92 E0
G1 X90.648 Y96.996 F7800.000
G1 E2.00000 F2400.00000
G1 F1200
G1 X90.304 Y97.563 E2.00151
G1 X90.152 Y97.864 E2.00228
G1 X89.765 Y98.630 F7800.000
G1 F1200
G1 X89.534 Y99.103 E2.00306
G1 X89.522 Y99.014 F7800.000
G1 F1200
G1 X89.447 Y99.062 E2.00313
G1 X89.522 Y99.014 F7800.000
G1 F1200
G1 X89.597 Y98.994 E2.00372
G1 X89.643 Y99.252 E2.00571
G1 E0.00571 F2400.00000
G92 E0
G1 X88.066 Y100.966 F7800.000
G1 E2.00000 F2400.00000
G1 F1200
G1 X87.715 Y100.896 E2.00283
G1 F1200
G1 X87.540 Y100.861 E2.00338
G1 X86.724 Y100.566 F7800.000
G1 F1200
G1 X86.290 Y100.379 E2.01485
G1 F1200
G1 X86.081 Y100.298 E2.01909
G1 F1200
G1 X85.690 Y100.147 E2.02550
G1 F1200
G1 X84.985 Y99.892 E2.03198
G1 F1200
G1 X84.668 Y99.764 E2.03646
G1 F1200
G1 X84.480 Y99.674 E2.04038
G1 X84.179 Y99.815 E2.04662
G1 X81.100 Y96.277 F7800.000
G1 F1200
G1 X80.675 Y95.864 E2.06737
G1 X80.283 Y95.607 E2.08379
G1 X79.920 Y95.428 E2.09792
G1 X79.353 Y95.229 E2.11897
G1 X83.314 Y99.190 E2.31501
G1 X82.905 Y99.141 E2.32941
G1 X82.549 Y99.125 E2.34188
G1 X78.679 Y95.255 E2.53341
G1 X78.523 Y95.290 E2.53901
G1 X78.260 Y95.414 E2.54919
G1 X78.190 Y95.465 E2.55223
G1 X81.816 Y99.092 E2.73168
G1 X81.083 Y99.058 E2.75737
G1 X78.222 Y96.197 E2.89894
G1 X78.394 Y96.709 E2.91784
G1 X78.521 Y97.032 E2.92999
G1 X78.630 Y97.238 E2.93815
G1 X78.799 Y97.473 E2.94827
G1 X79.153 Y97.827 E2.96578
G1 X79.123 Y97.798 E2.96722
G1 E0.96722 F2400.00000
G92 E0
G1 X119.446 Y97.623 F7800.000
G1 E2.00000 F2400.00000
G1 F1800
G1 X119.017 Y97.510 E2.00276
G1 X118.559 Y97.502 E2.00562
G1 X118.366 Y97.475 E2.00683
G1 Z1.500 F7800.000
G1 E0.00683 F2400.00000
G92 E0
G1 X91.869 Y101.414 F7800.000
G1 E2.00000 F2400.00000
G1 F900
G1 X91.879 Y101.202 E2.00625
G1 X93.154 Y100.997 E2.04439
G1 X94.205 Y100.788 E2.07605
G1 X96.012 Y100.390 E2.13072
G1 X96.683 Y100.284 E2.15080
G1 X98.134 Y100.151 E2.19384
G1 X99.049 Y100.104 E2.22091
G1 X100.293 Y100.080 E2.25768
G1 X101.293 Y100.088 E2.28722
G1 X101.780 Y100.049 E2.30167
G1 X101.827 Y100.263 E2.30815
G1 X101.578 Y100.353 E2.31598
G1 X100.147 Y100.784 E2.36013
G1 X99.362 Y101.100 E2.38513
G1 X98.464 Y101.399 E2.41309
G1 X97.223 Y101.732 E2.45105
G1 X96.516 Y101.846 E2.47222
G1 X95.445 Y101.896 E2.50390
G1 X95.081 Y101.893 E2.51465
G1 X94.361 Y101.839 E2.53598
G1 X93.711 Y101.770 E2.55531
G1 X92.878 Y101.635 E2.58024
G1 X91.943 Y101.430 E2.60853
G1 E0.60853 F2400.00000
G92 E0
G1 X89.224 Y101.236 F7800.000
G1 E2.00000 F2400.00000
G1 F900
G1 X89.250 Y101.018 E2.00649
G1 X89.647 Y101.012 E2.01821
G1 X90.671 Y100.928 E2.04859
G1 X91.930 Y100.775 E2.08605
G1 X93.079 Y100.586 E2.12046
G1 X94.119 Y100.380 E2.15179
G1 X95.934 Y99.980 E2.20671
G1 X96.632 Y99.870 E2.22756
G1 X98.104 Y99.735 E2.27124
G1 X99.034 Y99.686 E2.29876
G1 X100.291 Y99.662 E2.33589
G1 X101.278 Y99.670 E2.36506
G1 X102.780 Y99.549 E2.40959
G1 X103.371 Y99.545 E2.42707
G1 X103.950 Y99.573 E2.44417
G1 X103.997 Y99.749 E2.44955
G1 X103.630 Y99.980 E2.46238
G1 X103.035 Y100.244 E2.48162
G1 X101.710 Y100.750 E2.52352
G1 X100.285 Y101.178 E2.56747
G1 X99.506 Y101.492 E2.59228
G1 X98.587 Y101.799 E2.62091
G1 X97.306 Y102.142 E2.66010
G1 X96.559 Y102.262 E2.68244
G1 X95.453 Y102.314 E2.71516
G1 X95.064 Y102.310 E2.72666
G1 X93.655 Y102.184 E2.76845
G1 X92.799 Y102.045 E2.79407
G1 X89.904 Y101.409 E2.88166
G1 X89.297 Y101.255 E2.90016
G1 E0.90016 F2400.00000
G92 E0
G1 X86.697 Y100.670 F7800.000
G1 E2.00000 F2400.00000
G1 F900
G1 X86.771 Y100.466 E2.00680
G1 X87.524 Y100.577 E2.03065
G1 X88.141 Y100.604 E2.05000
G1 X89.626 Y100.583 E2.09649
G1 X90.628 Y100.500 E2.12797
G1 X91.869 Y100.349 E2.16713
G1 X93.002 Y100.163 E2.20309
G1 X94.031 Y99.958 E2.23593
G1 X95.855 Y99.557 E2.29441
G1 X96.578 Y99.443 E2.31735
G1 X98.073 Y99.305 E2.36436
G1 X99.019 Y99.256 E2.39401
G1 X100.288 Y99.232 E2.43376
G1 X101.262 Y99.240 E2.46426
G1 X102.761 Y99.119 E2.51136
G1 X103.380 Y99.115 E2.53075
G1 X103.918 Y99.141 E2.54762
G1 X104.660 Y99.227 E2.57101
G1 X105.400 Y99.375 E2.59464
G1 X103.823 Y100.364 E2.65295
G1 X102.580 Y100.891 E2.69521
G1 X101.845 Y101.158 E2.71970
G1 X100.428 Y101.585 E2.76605
G1 X99.655 Y101.896 E2.79215
G1 X98.713 Y102.210 E2.82323
G1 X97.391 Y102.564 E2.86609
G1 X96.604 Y102.691 E2.89106
G1 X95.461 Y102.744 E2.92688
G1 X95.046 Y102.740 E2.93987
G1 X93.598 Y102.611 E2.98540
G1 X92.719 Y102.468 E3.01330
G1 X89.804 Y101.828 E3.10673
G1 X88.646 Y101.533 E3.14418
G1 X87.742 Y101.265 E3.17368
G1 X87.424 Y101.112 E3.18476
G1 X86.761 Y100.709 E3.20904
G1 X86.871 Y100.540 F7800.000
G1 X86.480 Y100.461 F7800.000
G1 F1800
G1 X85.898 Y100.229 E3.23041
G1 F1800
G1 X85.448 Y100.053 E3.24443
G1 F1800
G1 X85.205 Y99.964 E3.25018
G1 F1800
G1 X84.789 Y99.808 E3.26223
G1 F1800
G1 X84.759 Y99.794 E3.26328
G1 X84.696 Y99.822 E3.26543
G1 F1800
G1 X84.363 Y99.976 E3.27457
G1 E1.27457 F2400.00000
G92 E0
G1 X82.345 Y98.584 F7800.000
G1 E2.00000 F2400.00000
G1 F900
G1 X80.711 Y98.507 E2.04834
G1 X80.559 Y98.468 E2.05298
G1 X80.236 Y98.287 E2.06391
G1 X79.133 Y97.411 E2.10553
G1 X78.653 Y97.567 E2.12045
G1 X78.531 Y97.332 E2.12828
G1 X78.491 Y97.195 E2.13248
G1 X78.820 Y96.812 E2.14742
G1 X78.649 Y95.858 E2.17606
G1 X79.045 Y95.512 E2.19158
G1 X79.156 Y95.118 E2.20369
G1 X79.338 Y95.139 E2.20910
G1 X79.492 Y95.188 E2.21387
G1 X79.595 Y95.448 E2.22213
G1 X79.853 Y95.834 E2.23586
G1 X80.548 Y96.281 E2.26027
G1 X80.863 Y96.564 E2.27280
G1 X81.263 Y97.055 E2.29149
G1 X82.302 Y98.522 E2.34462
G1 X83.263 Y99.080 F7800.000
G1 F900
G1 X82.715 Y99.019 E2.36089
G1 X80.649 Y98.923 E2.42202
G1 X80.402 Y98.859 E2.42955
G1 X80.002 Y98.635 E2.44309
G1 X79.049 Y97.877 E2.47906
G1 X78.521 Y98.049 E2.49546
G1 X78.419 Y97.947 E2.49974
G1 X78.287 Y97.769 E2.50627
G1 X78.142 Y97.489 E2.51560
G1 X78.053 Y97.188 E2.52486
G1 X78.045 Y97.072 E2.52829
G1 X78.374 Y96.690 E2.54318
G1 X78.214 Y95.796 E2.57002
G1 X78.218 Y95.701 E2.57282
G1 X78.248 Y95.654 E2.57448
G1 X78.676 Y95.279 E2.59129
G1 X78.814 Y94.791 E2.60628
G1 X79.059 Y94.718 E2.61381
G1 X79.230 Y94.706 E2.61889
G1 X79.554 Y94.763 E2.62861
G1 X79.774 Y94.873 E2.63586
G1 X79.844 Y94.941 E2.63876
G1 X79.967 Y95.253 E2.64865
G1 X80.152 Y95.530 E2.65850
G1 X80.802 Y95.948 E2.68133
G1 X81.167 Y96.275 E2.69580
G1 X81.596 Y96.802 E2.71588
G1 X82.852 Y98.577 E2.78013
G1 X83.215 Y99.022 E2.79712
G1 X84.209 Y99.667 F7800.000
G1 F900
G1 X83.342 Y99.522 E2.82464
G1 X82.681 Y99.448 E2.84546
G1 X80.585 Y99.350 E2.91119
G1 X80.240 Y99.262 E2.92233
G1 X79.762 Y98.993 E2.93953
G1 X78.962 Y98.358 E2.97149
G1 X78.472 Y98.505 E2.98751
G1 X78.242 Y98.377 E2.99576
G1 X78.092 Y98.229 E3.00236
G1 X77.921 Y97.997 E3.01137
G1 X77.741 Y97.650 E3.02362
G1 X77.627 Y97.264 E3.03623
G1 X77.614 Y97.060 E3.04264
G1 X77.646 Y96.914 E3.04731
G1 X77.706 Y96.807 E3.05116
G1 X77.915 Y96.565 E3.06116
G1 X77.782 Y95.824 E3.08474
G1 X77.794 Y95.569 E3.09271
G1 X77.916 Y95.372 E3.09996
G1 X78.297 Y95.039 E3.11581
G1 X78.418 Y94.611 E3.12976
G1 X78.463 Y94.539 E3.13241
G1 X78.543 Y94.460 E3.13594
G1 X78.777 Y94.340 E3.14417
G1 X78.996 Y94.292 E3.15119
G1 X79.240 Y94.274 E3.15884
G1 X79.492 Y94.304 E3.16679
G1 X79.687 Y94.353 E3.17308
G1 X79.853 Y94.419 E3.17868
G1 X80.038 Y94.530 E3.18544
G1 X80.169 Y94.658 E3.19118
G1 X80.232 Y94.754 E3.19478
G1 X80.350 Y95.052 E3.20481
G1 X80.460 Y95.217 E3.21100
G1 X81.063 Y95.604 E3.23347
G1 X81.479 Y95.977 E3.25095
G1 X81.939 Y96.541 E3.27374
G1 X83.195 Y98.316 E3.34183
G1 X83.677 Y98.908 E3.36575
G1 X84.297 Y99.491 E3.39237
G1 X84.242 Y99.600 E3.39619
G1 X83.755 Y99.459 F7800.000
G1 E1.39619 F2400.00000
G92 E0
G1 X81.347 Y98.289 F7800.000
G1 E2.00000 F2400.00000
G1 F1200
G1 X81.672 Y97.964 E2.01483
G1 X81.405 Y97.586 E2.02978
G1 X80.731 Y98.260 E2.06055
G1 X80.553 Y98.240 E2.06632
G1 X80.272 Y98.073 E2.07686
G1 X81.137 Y97.208 E2.11636
G1 X80.851 Y96.849 E2.13119
G1 X79.912 Y97.788 E2.17405
G1 X79.553 Y97.502 E2.18887
G1 X80.534 Y96.521 E2.23364
G1 X80.456 Y96.452 E2.23700
G1 X80.153 Y96.257 E2.24864
G1 X79.193 Y97.216 E2.29244
G1 X79.079 Y97.125 E2.29716
G1 X79.104 Y97.096 E2.29840
G1 X79.038 Y96.727 E2.31052
G1 X79.760 Y96.004 E2.34349
G1 X79.716 Y95.976 E2.34517
G1 X79.498 Y95.650 E2.35783
G1 X78.941 Y96.178 E2.38262
G1 E0.38262 F2400.00000
G92 E0
G1 X87.435 Y100.867 F7800.000
G1 E2.00000 F2400.00000
G1 F1200
G1 X88.141 Y100.985 E2.01138
G1 F1200
G1 X88.452 Y101.028 E2.01850
G1 F1200
G1 X88.764 Y101.071 E2.02774
G1 X88.978 Y101.395 E2.03912
G1 X90.251 Y101.222 F7800.000
G1 F1200
G1 X90.552 Y101.242 E2.04089
G1 F1200
G1 X90.899 Y101.261 E2.04520
G1 F1200
G1 X91.282 Y101.280 E2.05259
G1 F1200
G1 X91.666 Y101.298 E2.06261
G1 X92.697 Y101.332 F7800.000
G1 F1200
G1 X92.934 Y101.339 E2.06392
G1 F1200
G1 X93.214 Y101.338 E2.06724
G1 F1200
G1 X93.356 Y101.336 E2.06944
G1 F1200
G1 X93.632 Y101.331 E2.07562
G1 F1200
G1 X94.080 Y101.315 E2.08781
G1 X94.653 Y100.991 F7800.000
G1 F1200
G1 X94.328 Y101.316 E2.10350
G1 X94.341 Y101.593 E2.11298
G1 X94.706 Y101.621 E2.12549
G1 X95.529 Y100.798 E2.16521
G1 X96.393 Y100.616 E2.19535
G1 X95.373 Y101.636 E2.24458
G1 X96.089 Y101.603 E2.26904
G1 X97.181 Y100.511 E2.32176
G1 X97.932 Y100.442 E2.34752
G1 X96.872 Y101.502 E2.39870
G1 X97.790 Y101.266 E2.43104
G1 X98.669 Y100.388 E2.47346
G1 X99.046 Y100.368 E2.48635
G1 X99.101 Y100.638 E2.49576
G1 X98.776 Y100.963 E2.51145
G1 X99.321 Y100.588 F7800.000
G1 F1200
G1 X99.496 Y100.553 E2.51611
G1 F1200
G1 X99.846 Y100.481 E2.52324
G1 F1200
G1 X100.165 Y100.423 E2.52764
G1 F1200
G1 X100.439 Y100.382 E2.52999
G1 F1200
G1 X100.726 Y100.341 E2.53077
G1 X102.008 Y100.111 F7800.000
G1 F1200
G1 X102.394 Y100.024 E2.54205
G1 F1200
G1 X102.662 Y99.961 E2.54828
G1 F1200
G1 X103.496 Y99.792 E2.56253
G1 X104.183 Y99.611 F7800.000
G1 F1200
G1 X104.796 Y99.474 E2.56528
M106 S255
G1 Z2.000 F7800.000
G1 E0.56528 F2400.00000
G92 E0
G1 X94.046 Y101.421 F7800.000
G1 E2.00000 F2400.00000
G1 F735.158
G1 X94.037 Y101.207 E2.00635
G1 X96.020 Y100.773 E2.06634
G1 X96.721 Y100.662 E2.08730
G1 X98.152 Y100.531 E2.12977
G1 X99.355 Y100.476 E2.16534
G1 X99.396 Y100.680 E2.17151
G1 X98.130 Y101.104 E2.21096
G1 X97.182 Y101.349 E2.23989
G1 X96.480 Y101.469 E2.26093
G1 X95.104 Y101.514 E2.30161
G1 X94.120 Y101.429 E2.33078
G1 E0.33078 F2400.00000
G92 E0
G1 X91.613 Y101.406 F7800.000
G1 E2.00000 F2400.00000
G1 F735.158
G1 X91.624 Y101.183 E2.00697
G1 X93.135 Y100.947 E2.05485
G1 X94.207 Y100.734 E2.08909
G1 X95.940 Y100.350 E2.14466
G1 X96.668 Y100.235 E2.16774
G1 X98.121 Y100.102 E2.21345
G1 X99.112 Y100.050 E2.24450
G1 X100.217 Y100.029 E2.27912
G1 X100.637 Y100.050 E2.29228
G1 X101.361 Y100.035 E2.31497
G1 X102.046 Y99.980 E2.33648
G1 X102.097 Y100.205 E2.34368
G1 X101.592 Y100.398 E2.36059
G1 X100.183 Y100.828 E2.40675
G1 X99.433 Y101.129 E2.43203
G1 X98.251 Y101.517 E2.47100
G1 X97.272 Y101.770 E2.50265
G1 X96.528 Y101.897 E2.52630
G1 X95.948 Y101.929 E2.54449
G1 X95.091 Y101.944 E2.57134
G1 X94.276 Y101.880 E2.59692
G1 X93.459 Y101.789 E2.62268
G1 X93.005 Y101.713 E2.63709
G1 X91.686 Y101.422 E2.67938
G1 X91.744 Y101.226 F7800.000
G1 E0.67938 F2400.00000
G92 E0
G1 X102.339 Y100.032 F7800.000
G1 E2.00000 F2400.00000
G1 F1470.32
G1 X102.805 Y99.926 E2.01539
G1 X103.563 Y99.808 E2.04013
G1 E0.04013 F2400.00000
G92 E0
G1 X91.344 Y101.281 F7800.000
G1 E2.00000 F2400.00000
G1 F1470.32
G1 X90.715 Y101.249 E2.02072
G1 F1470.32
G1 X90.087 Y101.218 E2.03759
G1 E0.03759 F2400.00000
G92 E0
G1 X92.452 Y101.325 F7800.000
G1 E2.00000 F2400.00000
G1 F980.21
G1 X92.702 Y101.331 E2.00155
G1 F980.21
G1 X92.951 Y101.337 E2.00466
G1 F980.21
G1 X93.209 Y101.341 E2.00947
G1 F980.21
G1 X93.418 Y101.338 E2.01447
G1 F980.21
G1 X93.826 Y101.323 E2.02584
G1 X94.905 Y101.261 F7800.000
G1 F980.21
G1 X95.112 Y101.247 E2.02596
G1 F980.21
G1 X95.516 Y101.199 E2.02853
G1 F980.21
G1 X95.920 Y101.151 E2.03344
G1 F980.21
G1 X97.106 Y100.993 E2.05291
G1 F980.21
G1 X97.577 Y100.911 E2.05849
G1 F980.21
G1 X98.049 Y100.828 E2.06143
G1 F980.21
G1 X98.307 Y100.778 E2.06180
G1 X99.586 Y100.535 F7800.000
G1 F980.21
G1 X100.038 Y100.443 E2.07239
G1 F980.21
G1 X100.350 Y100.398 E2.07764
G1 F980.21
G1 X100.629 Y100.364 E2.08039
G1 F980.21
G1 X100.974 Y100.309 E2.08149
G1 E0.08149 F2400.00000
G92 E0
G1 X81.589 Y98.170 F7800.000
G1 E2.00000 F2400.00000
G1 F735.158
G1 X80.807 Y98.136 E2.02311
G1 X80.678 Y98.105 E2.02705
G1 X80.556 Y98.044 E2.03107
G1 X80.160 Y97.734 E2.04593
G1 X79.764 Y97.326 E2.06273
G1 X79.486 Y96.963 E2.07624
G1 X79.182 Y96.377 E2.09573
G1 X79.093 Y96.050 E2.10575
G1 X79.335 Y95.878 E2.11452
G1 X79.530 Y96.192 E2.12545
G1 X79.827 Y96.283 E2.13462
G1 X80.402 Y96.651 E2.15479
G1 X80.620 Y96.861 E2.16373
G1 X80.950 Y97.271 E2.17929
G1 X81.545 Y98.108 E2.20964
G1 E0.20964 F2400.00000
G92 E0
G1 X79.810 Y95.828 F7800.000
G1 E2.00000 F2400.00000
G1 F735.158
G1 X80.009 Y95.889 E2.00651
G1 X80.670 Y96.312 E2.03107
G1 X80.938 Y96.571 E2.04273
G1 X81.293 Y97.011 E2.06046
G1 X82.449 Y98.638 E2.12295
G1 X80.748 Y98.564 E2.17625
G1 X80.529 Y98.512 E2.18330
G1 X80.324 Y98.408 E2.19049
G1 X79.872 Y98.055 E2.20848
G1 X79.434 Y97.604 E2.22814
G1 X79.172 Y97.267 E2.24152
G1 X78.779 Y96.535 E2.26756
G1 X78.599 Y95.874 E2.28900
G1 X78.953 Y95.622 E2.30259
G1 X78.896 Y95.250 E2.31436
G1 X78.716 Y95.015 E2.32363
G1 X78.597 Y94.790 E2.33162
G1 X78.887 Y94.656 E2.34163
G1 X79.176 Y94.609 E2.35081
G1 X79.540 Y94.646 E2.36225
G1 X79.847 Y94.767 E2.37260
G1 X79.975 Y94.886 E2.37804
G1 X79.951 Y95.029 E2.38258
G1 X79.864 Y95.178 E2.38801
G1 X79.788 Y95.259 E2.39150
G1 X79.653 Y95.575 E2.40224
G1 X79.771 Y95.764 E2.40924
G1 X79.772 Y96.032 F7800.000
G1 X79.800 Y96.724 F7800.000
G1 F980.21
G1 X79.788 Y96.713 E2.40953
G1 X79.740 Y96.748 E2.41055
G1 F980.21
G1 X79.693 Y96.783 E2.41120
G1 F980.21
G1 X79.646 Y96.818 E2.41151
G1 X79.800 Y96.724 F7800.000
G1 F980.21
G1 X79.956 Y96.870 E2.41643
G1 F980.21
G1 X80.605 Y97.533 E2.44173
G1 F980.21
G1 X80.771 Y97.706 E2.44692
G1 F980.21
G1 X81.107 Y97.940 E2.45405
G1 E0.45405 F2400.00000
G92 E0
G1 X78.575 Y98.297 F7800.000
G1 E2.00000 F2400.00000
G1 F1470.32
G1 X78.263 Y97.608 E2.03150
G1 X78.032 Y97.246 E2.04940
G1 F1470.32
G1 X77.988 Y97.175 E2.05236
G1 F1470.32
G1 X77.936 Y97.108 E2.05492
G1 F1470.32
G1 X77.901 Y97.062 E2.05632
G1 F1470.32
G1 X77.768 Y96.916 E2.06019
G1 Z2.500 F7800.000
G1 E0.06019 F2400.00000
G92 E0
G1 X98.702 Y100.711 F7800.000
G1 E2.00000 F2400.00000
G1 F600
G1 X98.458 Y100.760 E2.00131
G1 F600
G1 X98.181 Y100.800 E2.00475
G1 F600
G1 X97.899 Y100.858 E2.01001
G1 F600
G1 X97.405 Y100.943 E2.02195
G1 F600
G1 X96.455 Y101.090 E2.05080
G1 X95.628 Y101.185 E2.07580
G1 F600
G1 X95.280 Y101.226 E2.08417
G1 F600
G1 X95.126 Y101.253 E2.08702
G1 F600
G1 X94.731 Y101.293 E2.09223
G1 E0.09223 F2400.00000
G92 E0
G1 X80.781 Y97.699 F7800.000
G1 E2.00000 F2400.00000
G1 F600
G1 X80.696 Y97.634 E2.00372
G1 F600
G1 X80.415 Y97.342 E2.02002
G1 F600
G1 X80.122 Y97.016 E2.03946
G1 X79.461 Y96.448 E2.07809
G1 E0.07809 F2400.00000
G92 E0
M107
; Filament-specific end gcode 
;END gcode for filament

M104 S0 ; turn off temperature
G28 X0  ; home X axis
M84     ; disable motors

M140 S0 ; set bed temperature
; filament used = 36.6mm (0.3cm3)
; total filament cost = 0.0

; avoid_crossing_perimeters = 0
; bed_shape = 0x0,200x0,200x200,0x200
; bed_temperature = 0
; before_layer_gcode = 
; between_objects_gcode = 
; bridge_acceleration = 0
; bridge_fan_speed = 100
; brim_connections_width = 0
; brim_width = 0
; complete_objects = 0
; cooling = 1
; default_acceleration = 0
; disable_fan_first_layers = 3
; duplicate_distance = 6
; end_filament_gcode = "; Filament-specific end gcode \n;END gcode for filament\n"
; end_gcode = M104 S0 ; turn off temperature\nG28 X0  ; home X axis\nM84     ; disable motors\n
; extruder_clearance_height = 20
; extruder_clearance_radius = 20
; extruder_offset = 0x0
; extrusion_axis = E
; extrusion_multiplier = 1
; fan_always_on = 0
; fan_below_layer_time = 60
; filament_colour = #FFFFFF
; filament_cost = 0
; filament_density = 0
; filament_diameter = 3
; filament_max_volumetric_speed = 0
; filament_notes = ""
; first_layer_acceleration = 0
; first_layer_bed_temperature = 0
; first_layer_extrusion_width = 200%
; first_layer_speed = 30
; first_layer_temperature = 205
; gcode_arcs = 0
; gcode_comments = 0
; gcode_flavor = reprap
; has_heatbed = 1
; infill_acceleration = 0
; infill_first = 0
; interior_brim_width = 0
; layer_gcode = 
; max_fan_speed = 100
; max_layer_height = 0.3
; max_print_speed = 80
; max_volumetric_speed = 0
; min_fan_speed = 35
; min_layer_height = 0.15
; min_print_speed = 10
; min_skirt_length = 0
; notes = 
; nozzle_diameter = 0.5
; only_retract_when_crossing_perimeters = 1
; ooze_prevention = 0
; output_filename_format = [input_filename_base].gcode
; perimeter_acceleration = 0
; post_process = 
; pressure_advance = 0
; printer_notes = 
; resolution = 0
; retract_before_travel = 2
; retract_layer_change = 0
; retract_length = 2
; retract_length_toolchange = 10
; retract_lift = 0
; retract_lift_above = 0
; retract_lift_below = 0
; retract_restart_extra = 0
; retract_restart_extra_toolchange = 0
; retract_speed = 40
; skirt_distance = 6
; skirt_height = 1
; skirts = 0
; slowdown_below_layer_time = 5
; spiral_vase = 0
; standby_temperature_delta = -5
; start_filament_gcode = "; Filament gcode\n"
; start_gcode = G28 ; home all axes\nG1 Z5 F5000 ; lift nozzle\n
; temperature = 200
; threads = 8
; toolchange_gcode = 
; travel_speed = 130
; use_firmware_retraction = 0
; use_relative_e_distances = 0
; use_set_and_wait_bed = 0
; use_set_and_wait_extruder = 0
; use_volumetric_e = 0
; vibration_limit = 0
; wipe = 0
; z_offset = 0
; z_steps_per_mm = 0
; adaptive_slicing = 0
; adaptive_slicing_quality = 75%
; dont_support_bridges = 1
; extrusion_width = 0
; first_layer_height = 0.5
; infill_only_where_needed = 0
; interface_shells = 0
; layer_height = 0.5
; match_horizontal_surfaces = 0
; raft_layers = 0
; regions_overlap = 0
; seam_position = aligned
; sequential_print_priority = 0
; support_material = 0
; support_material_angle = 0
; support_material_buildplate_only = 0
; support_material_contact_distance = 0.2
; support_material_enforce_layers = 0
; support_material_extruder = 1
; support_material_extrusion_width = 0
; support_material_interface_extruder = 1
; support_material_interface_extrusion_width = 0
; support_material_interface_layers = 3
; support_material_interface_spacing = 0
; support_material_interface_speed = 100%
; support_material_max_layers = 0
; support_material_pattern = pillars
; support_material_spacing = 2.5
; support_material_speed = 60
; support_material_threshold = 60%
; xy_size_compensation = 0
; bottom_infill_pattern = rectilinear
; bottom_solid_layers = 3
; bridge_flow_ratio = 1
; bridge_speed = 60
; external_perimeter_extrusion_width = 0
; external_perimeter_speed = 50%
; external_perimeters_first = 0
; extra_perimeters = 1
; fill_angle = 45
; fill_density = 100%
; fill_gaps = 1
; fill_pattern = rectilinear
; gap_fill_speed = 20
; infill_every_layers = 1
; infill_extruder = 1
; infill_extrusion_width = 0
; infill_overlap = 55%
; infill_speed = 80
; overhangs = 1
; perimeter_extruder = 1
; perimeter_extrusion_width = 0
; perimeter_speed = 60
; perimeters = 3
; small_perimeter_speed = 15
; solid_infill_below_area = 70
; solid_infill_every_layers = 0
; solid_infill_extruder = 1
; solid_infill_extrusion_width = 0
; solid_infill_speed = 20
; thin_walls = 1
; top_infill_extrusion_width = 0
; top_infill_pattern = rectilinear
; top_solid_infill_speed = 15
; top_solid_layers = 3
