; generated by Slic3r 1.3.0 on 2020-03-10 at 15:51:33

; external perimeters extrusion width = 0.55mm (4.37mm^3/s)
; perimeters extrusion width = 0.70mm (11.44mm^3/s)
; infill extrusion width = 0.63mm (13.45mm^3/s)
; solid infill extrusion width = 0.70mm (3.81mm^3/s)
; top infill extrusion width = 0.70mm (2.86mm^3/s)

M107
M104 S205 ; set temperature
G28 ; home all axes
G1 Z5 F5000 ; lift nozzle

; Filament gcode

M109 S205 ; set temperature and wait for it to be reached
G21 ; set units to millimeters
G90 ; use absolute coordinates
M82 ; use absolute distances for extrusion
G92 E0
G1 Z0.300 F7800.000
G1 E-2.00000 F2400.00000
G92 E0
G1 X82.571 Y94.525 F7800.000
G1 E2.00000 F2400.00000
G1 F1800
G1 X80.362 Y96.734 E2.07103
G1 X80.389 Y96.837 E2.07344
G1 X80.389 Y96.973 E2.07653
G1 X80.413 Y96.996 E2.07728
G1 X80.417 Y97.142 E2.08061
G1 X80.445 Y97.251 E2.08317
G1 X80.472 Y97.278 E2.08403
G1 X80.502 Y97.475 E2.08856
G1 X83.472 Y94.505 E2.18403
G1 X83.514 Y94.525 E2.18510
G1 X83.652 Y94.526 E2.18824
G1 X83.758 Y94.553 E2.19072
G1 X83.784 Y94.579 E2.19156
G1 X83.897 Y94.581 E2.19413
G1 X83.923 Y94.607 E2.19497
G1 X84.013 Y94.609 E2.19700
G1 X84.118 Y94.663 E2.19969
G1 X84.187 Y94.671 E2.20126
G1 X80.730 Y98.128 E2.31239
G1 X80.862 Y98.419 E2.31966
G1 X80.921 Y98.479 E2.32156
G1 X80.921 Y98.511 E2.32230
G1 X80.975 Y98.617 E2.32500
G1 X81.033 Y98.675 E2.32687
G1 X81.033 Y98.705 E2.32757
G1 X84.820 Y94.919 E2.44931
G1 X84.961 Y95.030 E2.45339
G1 X85.016 Y95.030 E2.45463
G1 X85.151 Y95.110 E2.45821
G1 X85.345 Y95.275 E2.46399
G1 X81.379 Y99.241 E2.59150
G1 X81.587 Y99.506 E2.59917
G1 X81.791 Y99.710 E2.60571
G1 X85.826 Y95.675 E2.73544
G1 X85.906 Y95.755 E2.73803
G1 X86.012 Y95.915 E2.74238
G1 X86.144 Y96.049 E2.74665
G1 X86.211 Y96.170 E2.74981
G1 X82.245 Y100.137 E2.87733
G1 X82.676 Y100.456 E2.88952
G1 X82.768 Y100.494 E2.89180
G1 X86.593 Y96.669 E3.01476
G1 X86.706 Y96.830 E3.01924
G1 X86.706 Y96.861 E3.01994
G1 X86.798 Y96.953 E3.02289
G1 X86.954 Y97.189 E3.02933
G1 X83.391 Y100.752 E3.14388
G1 X83.589 Y100.816 E3.14861
G1 X83.764 Y100.818 E3.15258
G1 X83.789 Y100.843 E3.15339
G1 X84.169 Y100.856 E3.16202
G1 X87.321 Y97.703 E3.26337
G1 X87.416 Y97.823 E3.26685
G1 X87.420 Y97.851 E3.26748
G1 X87.542 Y97.977 E3.27148
G1 X87.542 Y98.003 E3.27208
G1 X87.722 Y98.184 E3.27786
G1 X85.025 Y100.880 E3.36454
G1 X85.064 Y100.897 E3.36550
G1 X85.550 Y100.900 E3.37655
G1 X85.576 Y100.925 E3.37737
G1 X85.732 Y100.927 E3.38092
G1 X85.833 Y100.953 E3.38329
G1 X88.200 Y98.586 E3.45939
G1 X88.419 Y98.742 E3.46552
G1 X88.555 Y98.766 E3.46865
G1 X88.612 Y98.824 E3.47049
G1 X88.806 Y98.861 E3.47498
G1 X86.600 Y101.067 E3.54590
G1 X86.696 Y101.069 E3.54808
G1 X86.721 Y101.094 E3.54888
G1 X86.938 Y101.150 E3.55398
G1 X87.059 Y101.153 E3.55673
G1 X87.084 Y101.178 E3.55753
G1 X87.223 Y101.207 E3.56076
G1 X87.304 Y101.244 E3.56278
G1 X89.502 Y99.045 E3.63347
G1 X89.616 Y99.047 E3.63604
G1 X89.642 Y99.073 E3.63687
G1 X89.860 Y99.078 E3.64183
G1 X89.891 Y99.101 E3.64273
G1 X90.140 Y99.106 E3.64838
G1 X90.174 Y99.132 E3.64935
G1 X90.297 Y99.132 E3.65214
G1 X87.898 Y101.531 E3.72927
G1 X88.056 Y101.595 E3.73316
G1 X88.143 Y101.682 E3.73596
G1 X88.442 Y101.868 E3.74395
G1 X93.383 Y96.927 E3.90280
G1 X93.244 Y97.236 E3.91049
G1 X93.182 Y97.298 E3.91249
G1 X93.182 Y97.334 E3.91332
G1 X93.134 Y97.428 E3.91572
G1 X93.042 Y97.549 E3.91917
G1 X93.011 Y97.646 E3.92148
G1 X92.796 Y97.971 E3.93034
G1 X92.768 Y98.046 E3.93217
G1 X92.651 Y98.191 E3.93640
G1 X92.651 Y98.228 E3.93724
G1 X92.585 Y98.356 E3.94053
G1 X92.458 Y98.560 E3.94599
G1 X92.458 Y98.733 E3.94992
G1 X88.998 Y102.193 E4.06115
G1 X89.208 Y102.298 E4.06650
G1 X89.368 Y102.351 E4.07032
G1 X89.457 Y102.353 E4.07236
G1 X89.484 Y102.379 E4.07321
G1 X89.541 Y102.381 E4.07452
G1 X89.570 Y102.409 E4.07543
G1 X89.643 Y102.428 E4.07716
G1 X93.079 Y98.993 E4.18762
G1 X93.127 Y98.967 E4.18885
G1 X93.321 Y98.959 E4.19326
G1 X93.342 Y98.937 E4.19397
G1 X93.487 Y98.934 E4.19725
G1 X93.521 Y98.908 E4.19821
G1 X93.634 Y98.908 E4.20078
G1 X93.862 Y98.852 E4.20613
G1 X94.134 Y98.819 E4.21234
G1 X90.210 Y102.742 E4.33848
G1 X90.406 Y103.080 E4.34735
G1 X90.456 Y103.131 E4.34897
G1 X90.489 Y103.218 E4.35110
G1 X90.549 Y103.284 E4.35313
G1 X95.239 Y98.594 E4.50390
G1 X95.691 Y98.486 E4.51446
G1 X95.912 Y98.456 E4.51953
G1 X95.938 Y98.431 E4.52036
G1 X96.023 Y98.428 E4.52231
G1 X96.048 Y98.404 E4.52310
G1 X96.134 Y98.402 E4.52504
G1 X96.160 Y98.376 E4.52589
G1 X96.390 Y98.325 E4.53125
G1 X90.980 Y103.735 E4.70517
G1 X91.030 Y103.780 E4.70670
G1 X91.154 Y103.825 E4.70971
G1 X91.328 Y103.970 E4.71486
G1 X91.402 Y103.991 E4.71661
G1 X91.487 Y104.073 E4.71931
G1 X91.518 Y104.077 E4.72002
G1 X97.424 Y98.171 E4.90989
G1 X97.463 Y98.154 E4.91085
G1 X97.723 Y98.151 E4.91677
G1 X97.749 Y98.125 E4.91760
G1 X97.935 Y98.124 E4.92183
G1 X97.993 Y98.098 E4.92328
G1 X98.310 Y98.095 E4.93048
G1 X98.335 Y98.070 E4.93128
G1 X98.407 Y98.070 E4.93291
G1 X93.200 Y103.276 E5.10031
G1 X93.324 Y103.322 E5.10332
G1 X93.402 Y103.323 E5.10509
G1 X93.744 Y103.407 E5.11309
G1 X93.934 Y103.423 E5.11743
G1 X99.343 Y98.014 E5.29132
G1 X100.225 Y98.013 E5.31137
G1 X94.693 Y103.545 E5.48920
G1 X94.836 Y103.551 E5.49244
G1 X94.920 Y103.579 E5.49445
G1 X95.258 Y103.580 E5.50214
G1 X95.285 Y103.607 E5.50301
G1 X95.512 Y103.607 E5.50816
G1 X101.104 Y98.015 E5.68795
G1 X101.519 Y98.014 E5.69738
G1 X101.545 Y97.989 E5.69821
G1 X102.063 Y97.937 E5.71005
G1 X96.365 Y103.635 E5.89324
G1 E3.89324 F2400.00000
G92 E0
G1 X93.010 Y103.466 F7800.000
G1 E2.00000 F2400.00000
G1 F1800
G1 X91.950 Y104.534 E2.03422
G1 X92.117 Y104.745 E2.04033
G1 X92.199 Y104.895 E2.04421
G1 X92.281 Y104.986 E2.04701
G1 X92.304 Y105.054 E2.04862
G1 X93.392 Y103.965 E2.08362
G1 X93.468 Y104.042 E2.08609
G1 X93.697 Y104.332 E2.09449
G1 X93.771 Y104.467 E2.09798
G1 X92.715 Y105.523 E2.13195
G1 X93.114 Y106.005 E2.14617
G1 X94.028 Y105.091 E2.17555
G1 X94.354 Y105.646 E2.19018
G1 X93.367 Y106.633 E2.22191
G1 X93.367 Y106.719 E2.22388
G1 X93.231 Y106.883 E2.22873
G1 X93.231 Y106.925 E2.22968
G1 X93.194 Y106.948 E2.23067
G1 X93.385 Y106.949 E2.23501
G1 X93.440 Y107.002 E2.23674
G1 X93.468 Y107.002 E2.23738
G1 X93.663 Y107.218 E2.24400
G1 X94.793 Y106.088 E2.28032
G1 X94.921 Y106.103 E2.28325
G1 X94.835 Y106.189 E2.28600
G1 X94.746 Y106.324 E2.28968
G1 X94.745 Y106.706 E2.29837
G1 X94.884 Y106.878 E2.30340
G1 X94.454 Y107.308 E2.31723
G1 X94.042 Y107.720 F7800.000
G1 F1800
G1 X93.966 Y108.090 E2.32581
G1 X93.918 Y108.242 E2.32943
G1 X93.853 Y108.335 E2.33201
G1 X93.853 Y108.423 E2.33402
G1 X93.983 Y108.479 E2.33723
G1 X93.991 Y108.107 E2.34569
G1 X94.014 Y108.083 E2.34644
G1 X94.021 Y107.918 E2.35020
G1 X94.071 Y107.691 E2.35549
G1 X93.615 Y108.146 E2.37012
G1 X95.413 Y108.110 F7800.000
G1 F1800
G1 X95.991 Y107.532 E2.38871
G1 X96.006 Y107.547 E2.38917
G1 X96.006 Y107.702 E2.39270
G1 X95.976 Y107.756 E2.39409
G1 X95.906 Y107.751 E2.39568
G1 X95.840 Y107.684 E2.39783
G1 E0.39783 F2400.00000
G92 E0
G1 X103.463 Y107.109 F7800.000
G1 E2.00000 F2400.00000
G1 F1800
G1 X104.263 Y106.308 E2.02572
G1 X104.245 Y106.523 E2.03062
G1 X104.209 Y106.559 E2.03178
G1 X104.209 Y106.615 E2.03304
G1 X104.180 Y106.643 E2.03397
G1 X104.124 Y106.784 E2.03741
G1 X103.991 Y106.918 E2.04170
G1 X103.962 Y106.918 E2.04235
G1 X103.932 Y106.947 E2.04330
G1 X103.892 Y106.945 E2.04422
G1 X103.843 Y106.816 E2.04736
G1 X103.861 Y106.798 E2.04795
G1 X103.864 Y106.712 E2.04990
G1 X103.889 Y106.682 E2.05079
G1 X104.386 Y105.305 F7800.000
G1 F1800
G1 X105.072 Y104.618 E2.07287
G1 X105.073 Y104.550 E2.07440
G1 X105.254 Y104.369 E2.08022
G1 X105.375 Y104.309 E2.08331
G1 X105.129 Y104.062 E2.09124
G1 X105.125 Y103.711 E2.09921
G1 X105.172 Y103.638 E2.10120
G1 X103.706 Y105.103 E2.14831
G1 X103.421 Y104.855 E2.15690
G1 X103.374 Y104.855 E2.15797
G1 X103.254 Y104.787 E2.16109
G1 X103.162 Y104.766 E2.16325
G1 X104.223 Y103.705 E2.19737
G1 X104.150 Y103.704 E2.19903
G1 X103.937 Y103.608 E2.20436
G1 X103.917 Y103.628 E2.20501
G1 X103.712 Y103.536 E2.21012
G1 X103.648 Y103.534 E2.21156
G1 X103.556 Y103.491 E2.21387
G1 X102.385 Y104.662 E2.25151
G1 X102.325 Y104.686 E2.25298
G1 X102.107 Y104.692 E2.25794
G1 X102.072 Y104.717 E2.25893
G1 X101.969 Y104.717 E2.26126
G1 X101.930 Y104.746 E2.26236
G1 X101.665 Y104.831 E2.26869
G1 X101.582 Y104.842 E2.27060
G1 X101.511 Y104.888 E2.27253
G1 X101.261 Y104.966 E2.27847
G1 X101.197 Y104.969 E2.27992
G1 X103.672 Y102.489 E2.35957
G1 X103.672 Y102.448 E2.36050
G1 X103.731 Y102.379 E2.36254
G1 X103.817 Y102.207 E2.36692
G1 X103.820 Y102.149 E2.36824
G1 X103.872 Y102.069 E2.37041
G1 X103.876 Y101.977 E2.37250
G1 X103.899 Y101.955 E2.37322
G1 X103.902 Y101.812 E2.37647
G1 X103.925 Y101.789 E2.37720
G1 X103.929 Y101.451 E2.38489
G1 X103.954 Y101.426 E2.38570
G1 X103.956 Y101.330 E2.38788
G1 E0.38788 F2400.00000
G92 E0
G1 X106.796 Y104.656 F7800.000
G1 E2.00000 F2400.00000
G1 F1800
G1 X106.991 Y104.688 E2.00449
G1 X107.011 Y104.708 E2.00514
G1 X107.142 Y104.707 E2.00811
G1 X107.159 Y104.690 E2.00866
G1 X107.247 Y104.684 E2.01065
G1 X107.305 Y104.624 E2.01255
G1 X107.322 Y104.489 E2.01565
G1 X107.299 Y104.459 E2.01651
G1 X107.194 Y104.459 E2.01889
G1 X107.162 Y104.435 E2.01980
G1 X106.994 Y104.458 E2.02365
G1 X106.370 Y105.082 E2.04372
G1 X105.375 Y106.077 F7800.000
G1 F1800
G1 X105.321 Y106.052 E2.04507
G1 X105.242 Y105.974 E2.04759
G1 X105.352 Y106.100 E2.05139
G1 X105.801 Y105.651 E2.06582
G1 X106.362 Y105.933 E2.08009
G1 X106.400 Y105.933 E2.08096
G1 X105.757 Y106.576 E2.10163
G1 E0.10163 F2400.00000
G92 E0
G1 X104.621 Y96.259 F7800.000
G1 E2.00000 F2400.00000
G1 F1800
G1 X105.241 Y95.640 E2.01993
G1 X105.240 Y95.554 E2.02186
G1 X105.217 Y95.531 E2.02261
G1 X105.214 Y95.470 E2.02401
G1 X105.187 Y95.419 E2.02531
G1 X105.163 Y95.419 E2.02587
G1 X104.856 Y95.144 E2.03523
G1 X104.237 Y95.763 E2.05515
G1 X104.225 Y95.751 E2.05553
G1 X104.165 Y95.608 E2.05907
G1 X104.078 Y95.521 E2.06186
G1 X104.047 Y95.462 E2.06338
G1 X103.850 Y95.269 E2.06963
G1 X104.415 Y94.704 E2.08780
G1 X104.148 Y94.437 E2.09639
G1 X104.001 Y94.237 E2.10203
G1 X102.641 Y95.597 E2.14575
G1 X102.579 Y95.597 E2.14717
G1 X102.538 Y95.629 E2.14834
G1 X102.150 Y95.723 E2.15743
G1 X101.868 Y95.899 E2.16498
G1 X101.829 Y96.019 E2.16784
G1 X101.637 Y96.211 E2.17402
G1 X101.822 Y96.416 E2.18030
G1 E0.18030 F2400.00000
G92 E0
G1 X101.119 Y93.595 F7800.000
G1 E2.00000 F2400.00000
G1 F1800
G1 X100.949 Y93.617 E2.00390
G1 X100.825 Y93.671 E2.00699
G1 X100.913 Y93.801 E2.01056
G1 X101.546 Y93.169 E2.03089
G1 X101.662 Y93.178 E2.03356
G1 X101.849 Y93.366 E2.03957
G1 X101.946 Y93.427 E2.04218
G1 X102.127 Y93.468 E2.04640
G1 X102.060 Y93.535 E2.04856
G1 X102.223 Y93.621 E2.05274
G1 X102.358 Y93.756 E2.05710
G1 X102.355 Y94.048 E2.06374
G1 X102.177 Y94.231 E2.06955
G1 X101.833 Y94.466 E2.07901
G1 X101.294 Y94.743 E2.09279
G1 X101.238 Y94.751 E2.09407
G1 X101.190 Y94.799 E2.09563
G1 X101.098 Y94.807 E2.09772
G1 X101.050 Y94.855 E2.09926
G1 X100.958 Y94.863 E2.10137
G1 X100.874 Y94.914 E2.10360
G1 X100.714 Y94.961 E2.10739
G1 X100.660 Y95.004 E2.10897
G1 X100.582 Y95.014 E2.11075
G1 X99.316 Y96.280 E2.15145
G1 X99.332 Y96.296 E2.15198
G1 X99.336 Y96.384 E2.15398
G1 X99.394 Y96.442 E2.15584
G1 X99.411 Y96.509 E2.15742
G1 X99.508 Y96.638 E2.16109
G1 X99.673 Y96.803 E2.16639
G1 X103.321 Y93.155 E2.28367
G1 X103.541 Y93.166 E2.28868
G1 X103.702 Y93.019 E2.29363
G1 X103.841 Y92.953 E2.29713
G1 X104.112 Y92.775 E2.30449
G1 X104.138 Y92.775 E2.30509
G1 X104.343 Y92.598 E2.31125
G1 X104.671 Y92.270 E2.32179
G1 X104.791 Y92.113 E2.32628
G1 X104.922 Y91.832 E2.33333
G1 X104.933 Y91.650 E2.33748
G1 X104.972 Y91.639 E2.33841
G1 X105.075 Y91.744 E2.34175
G1 X105.104 Y91.800 E2.34319
G1 X105.148 Y91.934 E2.34639
G1 X105.207 Y92.032 E2.34900
G1 X105.214 Y92.143 E2.35153
G1 X104.225 Y93.132 E2.38333
G1 X103.786 Y93.571 F7800.000
G1 F1800
G1 X100.183 Y97.174 E2.49915
G1 X100.231 Y97.222 E2.50068
G1 X100.755 Y97.483 E2.51400
G1 X102.249 Y95.989 E2.56202
G1 X102.315 Y96.118 E2.56531
G1 X102.424 Y96.229 E2.56884
G1 X102.651 Y96.365 E2.57484
G1 X102.740 Y96.379 E2.57690
G1 X101.323 Y97.796 E2.62247
G1 X101.769 Y98.231 E2.63663
G1 X103.412 Y96.588 E2.68944
G1 X103.510 Y96.618 E2.69178
G1 X103.784 Y96.792 E2.69915
G1 X103.824 Y96.792 E2.70005
G1 X103.872 Y96.839 E2.70158
G1 X103.986 Y96.895 E2.70446
G1 X97.329 Y103.551 E2.91846
G1 X97.675 Y103.496 E2.92643
G1 X97.703 Y103.469 E2.92730
G1 X97.815 Y103.468 E2.92985
G1 X97.840 Y103.443 E2.93065
G1 X97.973 Y103.440 E2.93368
G1 X98.171 Y103.391 E2.93833
G1 X98.205 Y103.357 E2.93941
G1 X98.318 Y103.356 E2.94199
G1 X98.461 Y103.301 E2.94546
G1 X103.759 Y98.003 E3.11580
G1 X104.252 Y98.019 E3.12701
G1 X104.555 Y98.088 E3.13408
G1 X99.740 Y102.903 E3.28888
G1 X99.787 Y102.890 E3.28998
G1 X99.824 Y102.854 E3.29116
G1 X99.989 Y102.826 E3.29498
G1 X100.272 Y102.713 E3.30189
G1 X100.376 Y102.660 E3.30456
G1 X100.436 Y102.600 E3.30649
G1 X100.513 Y102.600 E3.30822
G1 X100.723 Y102.542 E3.31318
G1 X100.848 Y102.486 E3.31630
G1 X100.917 Y102.486 E3.31787
G1 X101.108 Y102.415 E3.32250
G1 X105.270 Y98.254 E3.45630
G1 X105.382 Y98.266 E3.45885
G1 X105.403 Y98.288 E3.45954
G1 X105.621 Y98.295 E3.46450
G1 X105.645 Y98.319 E3.46528
G1 X105.801 Y98.323 E3.46882
G1 X105.825 Y98.347 E3.46959
G1 X105.996 Y98.350 E3.47348
G1 X106.036 Y98.368 E3.47448
G1 X102.052 Y102.353 E3.60259
G1 X102.244 Y102.355 E3.60697
G1 X101.740 Y102.869 E3.62333
G1 X101.585 Y103.104 E3.62973
G1 X101.495 Y103.197 E3.63267
G1 X101.327 Y103.363 E3.63804
G1 X101.296 Y103.367 E3.63875
G1 X101.030 Y103.576 E3.64645
G1 X101.000 Y103.576 E3.64713
G1 X100.843 Y103.693 E3.65158
G1 X100.623 Y103.881 E3.65816
G1 X100.480 Y104.040 E3.66302
G1 X100.480 Y104.069 E3.66366
G1 X100.367 Y104.181 E3.66728
G1 X100.257 Y104.400 E3.67285
G1 X100.255 Y104.527 E3.67576
G1 X100.287 Y104.560 E3.67680
G1 X100.343 Y104.696 E3.68014
G1 X100.480 Y104.806 E3.68413
G1 X103.529 Y101.756 E3.78217
G1 X103.556 Y101.687 E3.78385
G1 X103.583 Y101.419 E3.78999
G1 X103.782 Y101.347 E3.79479
G1 X103.956 Y101.200 E3.79997
G1 X103.994 Y101.200 E3.80085
G1 X104.249 Y101.037 E3.80773
G1 X106.797 Y98.489 E3.88964
G1 X107.240 Y98.574 E3.89990
G1 X107.270 Y98.597 E3.90077
G1 X107.350 Y98.601 E3.90259
G1 X107.383 Y98.625 E3.90351
G1 X107.518 Y98.649 E3.90663
G1 X106.071 Y100.095 E3.95315
G1 X106.122 Y100.091 E3.95430
G1 X106.144 Y100.068 E3.95502
G1 X106.285 Y100.058 E3.95823
G1 X106.315 Y100.036 E3.95908
G1 X106.534 Y100.028 E3.96407
G1 X106.594 Y100.002 E3.96554
G1 X107.046 Y100.001 E3.97583
G1 X108.235 Y98.812 E4.01405
G1 X108.962 Y98.966 E4.03094
G1 X107.816 Y100.112 E4.06778
G1 X108.519 Y100.290 E4.08426
G1 X109.757 Y99.052 E4.12406
G1 X110.063 Y99.050 E4.13101
G1 X110.121 Y99.026 E4.13244
G1 X110.401 Y99.016 E4.13880
G1 X110.422 Y98.994 E4.13948
G1 X110.531 Y98.994 E4.14197
G1 X110.565 Y98.969 E4.14293
G1 X110.763 Y98.927 E4.14752
G1 X109.257 Y100.434 E4.19594
G1 X109.392 Y100.445 E4.19902
G1 X109.524 Y100.420 E4.20209
G1 X109.687 Y100.418 E4.20578
G1 X109.994 Y100.335 E4.21302
G1 X110.074 Y100.294 E4.21506
G1 X110.172 Y100.282 E4.21731
G1 X110.228 Y100.242 E4.21887
G1 X110.372 Y100.199 E4.22229
G1 X112.254 Y98.317 E4.28280
G1 X112.435 Y98.245 E4.28722
G1 X112.488 Y98.201 E4.28879
G1 X113.203 Y97.849 E4.30691
G1 X113.240 Y97.849 E4.30775
G1 X113.355 Y97.793 E4.31064
G1 X113.414 Y97.793 E4.31200
G1 X113.490 Y97.733 E4.31419
G1 X113.571 Y97.723 E4.31605
G1 X113.732 Y97.653 E4.32003
G1 X113.799 Y97.653 E4.32156
G1 X112.394 Y99.058 E4.36670
G1 X112.582 Y98.959 E4.37151
G1 X112.650 Y98.949 E4.37308
G1 X113.225 Y98.730 E4.38705
G1 X113.431 Y98.686 E4.39186
G1 X113.543 Y98.640 E4.39460
G1 X113.631 Y98.636 E4.39661
G1 X113.656 Y98.611 E4.39743
G1 X113.724 Y98.609 E4.39896
G1 X114.959 Y97.374 E4.43866
G1 X115.248 Y97.370 E4.44523
G1 X115.272 Y97.347 E4.44599
G1 X115.849 Y97.346 E4.45911
G1 X115.859 Y97.355 E4.45943
G1 X114.690 Y98.524 E4.49701
G1 X115.132 Y98.530 E4.50706
G1 X115.161 Y98.550 E4.50786
G1 X115.492 Y98.555 E4.51539
G1 X115.520 Y98.575 E4.51617
G1 X116.525 Y97.569 E4.54850
G1 X116.848 Y97.731 E4.55670
G1 X116.894 Y97.776 E4.55817
G1 X116.990 Y97.818 E4.56054
G1 X117.049 Y97.877 E4.56243
G1 X117.099 Y97.877 E4.56358
G1 X116.215 Y98.761 E4.59200
G1 X116.445 Y98.856 E4.59767
G1 X116.790 Y99.067 E4.60685
G1 X117.644 Y98.213 E4.63430
G1 X117.740 Y98.262 E4.63675
G1 X117.885 Y98.378 E4.64097
G1 X118.177 Y98.560 E4.64881
G1 X117.314 Y99.424 E4.67656
G1 X117.436 Y99.467 E4.67951
G1 X117.530 Y99.560 E4.68251
G1 X117.587 Y99.572 E4.68383
G1 X117.784 Y99.700 E4.68917
G1 X117.881 Y99.737 E4.69155
G1 X118.686 Y98.932 E4.71743
G1 X118.923 Y99.131 E4.72445
G1 X118.945 Y99.191 E4.72592
G1 X119.022 Y99.215 E4.72775
G1 X119.167 Y99.332 E4.73199
G1 X118.521 Y99.978 E4.75276
G1 E2.75276 F2400.00000
G92 E0
G1 X102.346 Y93.249 F7800.000
G1 E2.00000 F2400.00000
G1 F1800
G1 X102.985 Y92.611 E2.02053
G1 X102.898 Y92.331 E2.02718
G1 X102.884 Y92.182 E2.03058
G1 X102.866 Y92.158 E2.03126
G1 X102.858 Y91.938 E2.03626
G1 X102.835 Y91.880 E2.03769
G1 X102.152 Y92.562 E2.05964
G1 X102.053 Y92.163 E2.06898
G1 X102.025 Y91.845 E2.07625
G1 X102.127 Y91.863 E2.07860
G1 X102.162 Y91.890 E2.07960
G1 X102.256 Y91.890 E2.08174
G1 X102.355 Y91.947 E2.08434
G1 X102.403 Y92.141 E2.08888
G1 X102.408 Y92.306 E2.09264
G1 E0.09264 F2400.00000
G92 E0
G1 X93.763 Y94.785 F7800.000
G1 E2.00000 F2400.00000
G1 F1800
G1 X94.567 Y93.981 E2.02585
G1 X94.349 Y93.982 E2.03080
G1 X94.210 Y94.007 E2.03401
G1 X93.911 Y94.270 E2.04307
G1 X93.659 Y94.393 E2.04945
G1 X93.473 Y94.392 E2.05366
G1 X93.306 Y94.361 E2.05754
G1 X92.176 Y94.610 F7800.000
G1 F1800
G1 X92.175 Y94.911 E2.06440
G1 X92.095 Y94.995 E2.06702
G1 X91.851 Y95.213 E2.07446
G1 X91.685 Y95.255 E2.07835
G1 X91.524 Y95.262 E2.08203
G1 X90.760 Y96.026 E2.10656
G1 E0.10656 F2400.00000
G92 E0
G1 X91.148 Y98.281 F7800.000
G1 E2.00000 F2400.00000
G1 F1800
G1 X93.545 Y95.884 E2.07705
G1 X93.461 Y95.553 E2.08480
G1 X93.411 Y95.470 E2.08702
G1 X93.406 Y95.414 E2.08831
G1 X93.323 Y95.225 E2.09299
G1 X92.031 Y96.517 E2.13453
G1 X92.031 Y96.427 E2.13659
G1 X91.987 Y96.272 E2.14024
G1 X91.910 Y96.154 E2.14345
G1 X91.707 Y95.960 E2.14983
G1 X93.306 Y94.361 E2.20122
G1 X93.094 Y94.151 E2.20800
G1 X93.064 Y93.890 E2.21399
G1 X93.013 Y93.995 E2.21664
G1 X92.903 Y94.106 E2.22020
G1 X92.790 Y94.216 E2.22379
G1 X92.600 Y94.354 E2.22913
G1 X92.481 Y94.305 E2.23205
G1 X91.750 Y95.036 E2.25556
G1 X91.728 Y94.905 E2.25858
G1 X91.583 Y94.660 E2.26505
G1 X91.436 Y94.469 E2.27053
G1 X91.988 Y93.917 E2.28827
G1 X91.918 Y93.793 E2.29151
G1 X91.822 Y93.501 E2.29850
G1 X91.689 Y93.335 E2.30333
G1 X91.018 Y94.006 E2.32490
G1 X90.825 Y93.653 E2.33404
G1 X90.824 Y93.613 E2.33495
G1 X90.893 Y93.613 E2.33651
G1 X90.922 Y93.643 E2.33745
G1 X91.036 Y93.643 E2.34004
G1 X91.174 Y93.730 E2.34376
G1 X91.231 Y93.730 E2.34505
G1 X91.263 Y93.761 E2.34607
G1 X92.673 Y93.232 F7800.000
G1 F1800
G1 X93.219 Y92.686 E2.36363
G1 X93.261 Y92.730 E2.36502
G1 X93.261 Y92.828 E2.36725
G1 X93.132 Y93.403 E2.38063
G1 X93.127 Y92.984 E2.39014
G1 X93.101 Y92.934 E2.39143
G1 X93.099 Y92.806 E2.39433
M104 S200 ; set temperature
G1 Z0.600 F7800.000
G1 E0.39433 F2400.00000
G92 E0
G1 X93.440 Y95.202 F7800.000
G1 E2.00000 F2400.00000
G1 F4097.5
G1 X92.493 Y94.255 E2.03186
G1 X92.433 Y94.306 E2.03374
G1 X92.363 Y94.240 E2.03604
G1 X92.168 Y94.316 E2.04102
G1 X92.025 Y94.318 E2.04442
G1 X91.856 Y94.276 E2.04856
G1 X91.707 Y94.180 E2.05278
G1 X91.530 Y93.997 E2.05884
G1 X91.420 Y93.813 E2.06394
G1 X91.285 Y93.432 E2.07356
G1 X91.227 Y93.355 E2.07585
G1 X91.155 Y93.301 E2.07799
G1 X90.962 Y93.215 E2.08302
G1 X90.842 Y93.191 E2.08594
G1 X90.881 Y93.283 E2.08832
G1 X91.109 Y93.630 E2.09822
G1 X91.482 Y94.003 E2.11075
G1 X91.621 Y94.181 E2.11613
G1 X91.713 Y94.356 E2.12083
G1 X93.466 Y96.109 E2.17980
G1 X93.549 Y96.330 E2.18544
G1 X93.606 Y96.564 E2.19116
G1 X93.602 Y96.818 E2.19720
G1 X93.519 Y97.042 E2.20290
G1 X91.586 Y95.110 E2.26792
G1 X91.444 Y95.218 E2.27217
G1 X91.300 Y95.273 E2.27584
G1 X91.122 Y95.303 E2.28014
G1 X90.906 Y95.311 E2.28528
G1 X91.461 Y95.865 E2.30394
G1 X91.243 Y95.994 E2.30995
G1 X91.150 Y95.996 E2.31216
G1 X91.012 Y95.965 E2.31552
G1 X90.854 Y95.892 E2.31967
G1 X90.892 Y95.888 E2.32058
G1 X90.903 Y95.847 E2.32160
G1 X91.127 Y95.782 E2.32713
G1 X91.371 Y95.776 E2.33296
G1 E0.33296 F2400.00000
G92 E0
G1 X93.238 Y97.643 F7800.000
G1 E2.00000 F2400.00000
G1 F4097.5
G1 X92.004 Y96.409 E2.04153
G1 X91.874 Y96.675 E2.04858
G1 X91.684 Y96.970 E2.05692
G1 X92.916 Y98.202 E2.09837
G1 X92.582 Y98.749 E2.11362
G1 X91.332 Y97.499 E2.15569
G1 X91.055 Y98.102 E2.17149
G1 X92.249 Y99.297 E2.21170
G1 X92.168 Y99.405 E2.21493
G1 X92.386 Y99.434 E2.22018
G1 X91.921 Y98.969 F7800.000
G1 F4097.5
G1 X96.591 Y103.639 E2.37732
G1 X96.883 Y103.639 E2.38427
G1 X96.928 Y103.613 E2.38550
G1 X97.345 Y103.611 E2.39542
G1 X97.420 Y103.587 E2.39730
G1 X92.815 Y98.982 E2.55226
G1 X93.564 Y98.849 E2.57035
G1 X98.197 Y103.482 E2.72624
G1 X98.259 Y103.474 E2.72774
G1 X98.285 Y103.448 E2.72860
G1 X98.464 Y103.445 E2.73288
G1 X98.785 Y103.361 E2.74075
G1 X98.903 Y103.308 E2.74385
G1 X94.301 Y98.705 E2.89872
G1 X95.026 Y98.550 E2.91637
G1 X99.579 Y103.102 E3.06955
G1 X99.809 Y103.059 E3.07513
G1 X100.032 Y102.985 E3.08071
G1 X100.244 Y102.887 E3.08628
G1 X95.743 Y98.386 E3.23773
G1 X96.482 Y98.244 E3.25563
G1 X100.860 Y102.622 E3.40294
G1 X101.522 Y102.403 E3.41953
G1 X97.260 Y98.141 E3.56294
G1 X98.080 Y98.080 E3.58248
G1 X103.374 Y103.374 E3.76063
G1 X103.708 Y102.827 E3.77588
G1 X98.905 Y98.024 E3.93748
G1 X99.782 Y98.020 E3.95833
G1 X103.914 Y102.152 E4.09737
G1 X104.006 Y101.521 E4.11253
G1 X104.082 Y101.439 E4.11520
G1 X100.676 Y98.033 E4.22982
G1 X100.940 Y98.033 E4.23611
G1 X101.239 Y98.002 E4.24325
G1 X101.414 Y97.890 E4.24819
G1 X104.591 Y101.067 E4.35510
G1 X105.132 Y100.727 E4.37030
G1 X99.623 Y95.219 E4.55566
G1 X99.747 Y95.155 E4.55897
G1 X100.273 Y94.987 E4.57211
G1 X105.692 Y100.407 E4.75447
G1 X104.791 Y98.625 F7800.000
G1 F4097.5
G1 X104.156 Y98.501 E4.76986
G1 X103.931 Y98.315 E4.77681
G1 X103.924 Y98.065 E4.78275
G1 X104.012 Y97.846 E4.78838
G1 X103.140 Y96.973 E4.81774
G1 X102.639 Y96.838 E4.83009
G1 X102.492 Y96.757 E4.83406
G1 X102.389 Y96.673 E4.83723
G1 X102.265 Y96.515 E4.84202
G1 X102.215 Y96.402 E4.84495
G1 X102.188 Y96.262 E4.84833
G1 X102.227 Y96.060 E4.85323
G1 X100.908 Y94.742 E4.89760
G1 X101.487 Y94.439 E4.91313
G1 X102.715 Y95.667 E4.95445
G1 X103.196 Y95.533 E4.96633
G1 X103.370 Y95.442 E4.97102
G1 X101.920 Y93.992 E5.01980
G1 X101.929 Y93.809 E5.02415
G1 X101.865 Y93.648 E5.02830
G1 X101.748 Y93.531 E5.03223
G1 X101.688 Y93.503 E5.03380
G1 X101.941 Y93.514 E5.03982
G1 X102.080 Y93.470 E5.04330
G1 X102.198 Y93.389 E5.04670
G1 X103.488 Y94.679 E5.09010
G1 X103.522 Y94.663 E5.09099
G1 X103.650 Y94.725 E5.09438
G1 X103.732 Y94.740 E5.09637
G1 X103.852 Y94.824 E5.09985
G1 X104.014 Y94.986 E5.10529
G1 X104.120 Y95.129 E5.10952
G1 X104.229 Y95.344 E5.11526
G1 X104.286 Y95.408 E5.11729
G1 X104.306 Y95.497 E5.11946
G1 X104.511 Y95.702 E5.12638
G1 X104.554 Y95.710 E5.12740
G1 X104.565 Y95.755 E5.12851
G1 X105.090 Y96.280 E5.14617
G1 X105.177 Y96.254 E5.14835
G1 X105.222 Y96.212 E5.14980
G1 X105.245 Y96.137 E5.15167
G1 X105.243 Y95.990 E5.15517
G1 X105.215 Y95.924 E5.15688
G1 X104.795 Y95.555 E5.17018
G1 X104.203 Y94.968 E5.19002
G1 X103.990 Y94.706 E5.19805
G1 X103.847 Y94.466 E5.20470
G1 X103.788 Y94.318 E5.20848
G1 X103.761 Y94.071 E5.21439
G1 X102.842 Y93.152 E5.24531
G1 X102.988 Y93.166 E5.24878
G1 X103.136 Y93.142 E5.25235
G1 X103.506 Y92.934 E5.26244
G1 X104.062 Y93.491 E5.28118
G1 X104.228 Y93.362 E5.28618
G1 X104.592 Y93.139 E5.29632
G1 X104.007 Y92.555 E5.31598
G1 X104.259 Y92.282 E5.32481
G1 X104.400 Y92.067 E5.33093
G1 X105.095 Y92.762 E5.35433
G1 X103.308 Y93.617 F7800.000
G1 F4097.5
G1 X103.191 Y93.540 E5.35765
G1 X103.061 Y93.371 E5.36274
G1 X102.338 Y92.648 E5.38706
G1 X102.131 Y91.898 E5.40557
G1 X102.104 Y91.695 E5.41045
G1 X102.146 Y91.697 E5.41144
G1 X102.158 Y91.587 E5.41407
G1 X102.788 Y92.217 E5.43527
G1 E3.43527 F2400.00000
G92 E0
G1 X99.303 Y95.780 F7800.000
G1 E2.00000 F2400.00000
G1 F4097.5
G1 X100.776 Y97.252 E2.04954
G1 X104.326 Y98.159 F7800.000
G1 F4097.5
G1 X106.304 Y100.138 E2.11611
G1 X106.580 Y100.053 E2.12298
G1 X107.024 Y99.977 E2.13370
G1 X105.403 Y98.355 E2.18826
G1 X106.462 Y98.534 E2.21383
G1 X107.943 Y100.014 E2.26364
G1 X108.355 Y100.096 E2.27364
G1 X109.104 Y100.295 E2.29207
G1 X107.604 Y98.795 E2.34254
G1 X108.734 Y99.044 E2.37009
G1 X110.066 Y100.376 E2.41491
G1 X110.497 Y100.276 E2.42544
G1 X110.744 Y100.172 E2.43179
G1 X109.649 Y99.078 E2.46861
G1 X110.059 Y99.027 E2.47845
G1 X110.400 Y98.948 E2.48677
G1 X111.327 Y99.875 E2.51798
G1 X111.876 Y99.543 E2.53324
G1 X111.052 Y98.719 E2.56098
G1 X111.654 Y98.440 E2.57676
G1 X112.436 Y99.222 E2.60310
G1 X113.027 Y98.932 E2.61875
G1 X112.244 Y98.149 E2.64509
G1 X112.800 Y97.875 E2.65985
G1 X112.837 Y97.861 E2.66077
G1 X113.675 Y98.700 E2.68900
G1 X114.044 Y98.609 E2.69803
G1 X114.402 Y98.546 E2.70669
G1 X113.479 Y97.623 E2.73775
G1 X113.652 Y97.565 E2.74207
G1 X114.184 Y97.446 E2.75504
G1 X115.229 Y98.492 E2.79023
G1 X115.826 Y98.527 E2.80445
G1 X116.204 Y98.585 E2.81355
G1 X114.981 Y97.363 E2.85470
G1 X115.418 Y97.360 E2.86510
G1 X115.723 Y97.434 E2.87256
G1 X116.107 Y97.608 E2.88260
G1 X118.034 Y99.535 E2.94743
G1 E0.94743 F2400.00000
G92 E0
G1 X106.312 Y102.788 F7800.000
G1 E2.00000 F2400.00000
G1 F4097.5
G1 X105.818 Y102.294 E2.01661
G1 X105.743 Y102.284 E2.01842
G1 X105.665 Y102.331 E2.02058
G1 X105.571 Y102.428 E2.02379
G1 X105.485 Y102.559 E2.02753
G1 X105.392 Y102.749 E2.03256
G1 X105.886 Y103.243 E2.04918
G1 X105.819 Y103.294 E2.05118
G1 X105.857 Y103.214 E2.05328
G1 X105.110 Y104.229 F7800.000
G1 F4097.5
G1 X104.547 Y103.666 E2.07221
G1 X104.112 Y103.751 E2.08276
G1 X103.893 Y103.746 E2.08798
G1 X103.713 Y103.713 E2.09232
G1 X105.076 Y105.076 E2.13817
G1 X105.059 Y105.228 E2.14181
G1 X105.079 Y105.324 E2.14415
G1 X104.945 Y105.294 E2.14743
G1 X104.757 Y105.296 E2.15191
G1 X104.667 Y105.310 E2.15408
G1 X104.500 Y105.381 E2.15838
G1 X101.672 Y102.553 E2.25353
G1 X101.468 Y102.807 E2.26128
G1 X101.235 Y102.997 E2.26844
G1 X102.878 Y104.640 E2.32373
G1 X102.442 Y104.698 E2.33421
G1 X102.142 Y104.784 E2.34164
G1 X100.726 Y103.369 E2.38928
G1 X100.593 Y103.489 E2.39355
G1 X100.570 Y103.592 E2.39605
G1 X100.526 Y103.603 E2.39714
G1 X100.517 Y103.644 E2.39814
G1 X100.430 Y103.667 E2.40029
G1 X100.308 Y103.831 E2.40516
G1 X101.421 Y104.945 E2.44263
G1 X101.150 Y104.886 E2.44923
G1 X100.947 Y104.789 E2.45458
G1 X100.787 Y104.660 E2.45947
G1 X100.714 Y104.544 E2.46274
G1 X100.719 Y104.417 E2.46576
G1 X100.761 Y104.369 E2.46727
G1 X100.773 Y104.296 E2.46903
G1 E0.46903 F2400.00000
G92 E0
G1 X95.681 Y103.609 F7800.000
G1 E2.00000 F2400.00000
G1 F4097.5
G1 X90.746 Y98.674 E2.16607
G1 X90.512 Y98.926 E2.17426
G1 X90.281 Y99.091 E2.18099
G1 X94.675 Y103.484 E2.32883
G1 X93.548 Y103.238 E2.35629
G1 X89.420 Y99.110 E2.49519
G1 X89.001 Y99.038 E2.50530
G1 X88.285 Y98.856 E2.52288
G1 X92.864 Y103.435 E2.67695
G1 X92.854 Y103.615 E2.68125
G1 X92.929 Y103.811 E2.68625
G1 X93.131 Y104.133 E2.69530
G1 X93.704 Y104.854 E2.71719
G1 X93.920 Y105.372 E2.73054
G1 X83.051 Y94.507 E3.09619
G1 X82.281 Y94.496 E3.11453
G1 X82.185 Y94.518 E3.11686
G1 X90.098 Y102.431 E3.38311
G1 X89.610 Y102.268 E3.39535
G1 X89.253 Y102.080 E3.40494
G1 X88.243 Y101.457 E3.43319
G1 X81.489 Y94.703 E3.66045
G1 X81.302 Y94.783 E3.66530
G1 X81.236 Y94.846 E3.66745
G1 X81.154 Y94.875 E3.66954
G1 X81.068 Y94.958 E3.67238
G1 X80.940 Y95.035 E3.67593
G1 X86.941 Y101.036 E3.87788
G1 X86.437 Y100.952 E3.89005
G1 X85.919 Y100.895 E3.90244
G1 X80.539 Y95.514 E4.08349
G1 X80.519 Y95.590 E4.08534
G1 X80.439 Y95.713 E4.08883
G1 X80.435 Y95.836 E4.09176
G1 X80.411 Y95.863 E4.09263
G1 X80.383 Y96.045 E4.09701
G1 X80.358 Y96.097 E4.09838
G1 X80.359 Y96.215 E4.10119
G1 X85.001 Y100.858 E4.25741
G1 X84.696 Y100.859 E4.26468
G1 X84.079 Y100.817 E4.27939
G1 X80.575 Y97.312 E4.39731
G1 X83.058 Y94.510 F7800.000
G1 F4097.5
G1 X83.222 Y94.531 E4.40125
G1 X83.758 Y94.667 E4.41439
G1 X84.208 Y94.845 E4.42593
G1 X84.366 Y94.937 E4.43027
G1 X86.593 Y97.164 E4.50521
G1 X89.633 Y101.966 F7800.000
G1 F4097.5
G1 X90.023 Y102.088 E4.51494
G1 X90.158 Y102.220 E4.51943
G1 X90.292 Y102.385 E4.52449
G1 X90.292 Y102.429 E4.52554
G1 X90.376 Y102.580 E4.52965
G1 X90.416 Y102.596 E4.53069
G1 X90.495 Y102.782 E4.53549
G1 X90.611 Y102.944 E4.54024
G1 X90.888 Y103.221 E4.54954
G1 X91.417 Y103.551 E4.56438
G1 X91.650 Y103.726 E4.57132
G1 X91.823 Y103.892 E4.57702
G1 X92.015 Y104.130 E4.58429
G1 X92.403 Y104.684 E4.60039
G1 X92.742 Y105.075 E4.61271
G1 X94.731 Y107.064 E4.67962
G1 E2.67962 F2400.00000
G92 E0
G1 X106.376 Y104.614 F7800.000
G1 E2.00000 F2400.00000
G1 F4097.5
G1 X106.585 Y104.652 E2.00507
G1 X106.717 Y104.643 E2.00821
G1 X106.819 Y104.570 E2.01120
G1 X106.824 Y104.492 E2.01307
G1 X106.692 Y104.467 E2.01626
G1 X106.241 Y104.480 E2.02700
G1 X106.841 Y105.079 E2.04716
G1 E0.04716 F2400.00000
G92 E0
G1 X104.197 Y106.580 F7800.000
G1 E2.00000 F2400.00000
G1 F1024.38
G1 X103.702 Y106.085 E2.02129
G1 X103.605 Y106.280 E2.02793
G1 X103.483 Y106.602 E2.03839
G1 X103.437 Y106.820 E2.04516
G1 X103.963 Y107.361 E2.06812
G1 Z0.900 F7800.000
G1 E0.06812 F2400.00000
G92 E0
G1 X103.823 Y104.986 F7800.000
G1 E2.00000 F2400.00000
G1 F3823.35
G1 X104.928 Y103.881 E2.03719
G1 X104.561 Y103.854 E2.04595
G1 X104.558 Y103.810 E2.04699
G1 X104.322 Y103.803 E2.05261
G1 X104.153 Y103.775 E2.05669
G1 X103.221 Y104.707 E2.08805
G1 X102.944 Y104.616 E2.09499
G1 X102.639 Y104.575 E2.10231
G1 X102.470 Y104.577 E2.10634
G1 X103.502 Y103.546 E2.14105
G1 X103.318 Y103.386 E2.14684
G1 X103.255 Y103.236 E2.15072
G1 X103.266 Y102.990 E2.15657
G1 X103.367 Y102.799 E2.16171
G1 X101.353 Y104.814 E2.22950
G1 X101.177 Y104.866 E2.23387
G1 X100.937 Y104.877 E2.23957
G1 X100.685 Y104.817 E2.24573
G1 X100.596 Y104.774 E2.24809
G1 X100.564 Y104.722 E2.24955
G1 X103.888 Y101.397 E2.36143
G1 X101.852 Y98.148 F7800.000
G1 F3823.35
G1 X103.353 Y96.647 E2.41195
G1 X103.196 Y96.588 E2.41592
G1 X102.665 Y96.454 E2.42896
G1 X101.422 Y97.697 E2.47080
G1 X101.336 Y97.635 E2.47333
G1 X101.276 Y97.688 E2.47525
G1 X100.804 Y97.435 E2.48800
G1 X102.192 Y96.047 E2.53471
G1 X102.815 Y95.423 F7800.000
G1 F3823.35
G1 X103.877 Y94.361 E2.57046
G1 X103.769 Y94.108 E2.57700
G1 X103.819 Y94.078 E2.57838
G1 X103.737 Y93.887 E2.58333
G1 X103.713 Y93.757 E2.58648
G1 X103.617 Y93.740 E2.58879
G1 X100.219 Y97.139 E2.70316
G1 X99.961 Y96.973 E2.71045
G1 X99.718 Y96.758 E2.71816
G1 X101.970 Y94.506 E2.79395
G1 X101.449 Y94.779 E2.80795
G1 X100.442 Y95.153 E2.83350
G1 X99.367 Y96.229 E2.86970
G1 X99.363 Y96.187 E2.87069
G1 X99.434 Y95.980 E2.87591
G1 X99.601 Y95.779 E2.88210
G1 X99.796 Y95.670 E2.88742
G1 X99.977 Y95.618 E2.89191
G1 X102.086 Y94.391 F7800.000
G1 F3823.35
G1 X103.189 Y93.287 E2.92904
G1 E0.92904 F2400.00000
G92 E0
G1 X111.131 Y99.440 F7800.000
G1 E2.00000 F2400.00000
G1 F3823.35
G1 X111.660 Y98.912 E2.01778
G1 X111.305 Y99.056 E2.02689
G1 X110.583 Y99.256 E2.04470
G1 X110.417 Y99.273 E2.04867
G1 X109.550 Y100.140 E2.07787
G1 X109.401 Y100.164 E2.08145
G1 X109.105 Y100.149 E2.08850
G1 X108.732 Y100.078 E2.09755
G1 X109.501 Y99.308 E2.12344
G1 X108.990 Y99.255 E2.13566
G1 X108.735 Y99.194 E2.14191
G1 X108.033 Y99.896 E2.16554
G1 X107.486 Y99.770 E2.17889
G1 X107.295 Y99.752 E2.18345
G1 X108.015 Y99.032 E2.20768
G1 X107.296 Y98.870 E2.22521
G1 X106.409 Y99.758 E2.25508
G1 X105.951 Y99.848 E2.26619
G1 X105.260 Y100.122 E2.28387
G1 X105.057 Y100.229 E2.28933
G1 X106.566 Y98.720 E2.34010
G1 X105.812 Y98.592 E2.35828
G1 X102.019 Y102.386 E2.48591
G1 X102.024 Y102.219 E2.48988
G1 X101.756 Y102.000 E2.49810
G1 X101.646 Y102.019 E2.50075
G1 X101.510 Y102.013 E2.50398
G1 X105.058 Y98.466 E2.62335
G1 X104.338 Y98.305 E2.64090
G1 X100.221 Y102.421 E2.77942
G1 X99.721 Y102.623 E2.79226
G1 X98.855 Y102.907 E2.81395
G1 X103.742 Y98.020 E2.97839
G1 X103.660 Y97.893 E2.98199
G1 X103.713 Y97.626 E2.98847
G1 X103.905 Y97.253 E2.99845
G1 X103.939 Y97.261 E2.99928
G1 X103.909 Y97.099 E3.00322
G1 X103.860 Y97.021 E3.00541
G1 X97.666 Y103.215 E3.21382
G1 X97.054 Y103.305 E3.22855
G1 X96.666 Y103.334 E3.23781
G1 X101.764 Y98.236 E3.40937
G1 X101.158 Y98.279 E3.42383
G1 X100.844 Y98.275 E3.43130
G1 X95.771 Y103.348 E3.60202
G1 X94.943 Y103.295 E3.62175
G1 X99.962 Y98.276 E3.79062
G1 X99.048 Y98.309 E3.81237
G1 X94.159 Y103.198 E3.97687
G1 X93.410 Y103.066 E3.99497
G1 X98.104 Y98.373 E4.15291
G1 X97.112 Y98.483 E4.17664
G1 X92.680 Y102.915 E4.32577
G1 X92.395 Y102.906 E4.33257
G1 X92.299 Y103.000 E4.33578
G1 X92.110 Y103.134 E4.34127
G1 X92.175 Y103.421 E4.34828
G1 X91.558 Y104.038 E4.36904
G1 X91.016 Y103.698 E4.38425
G1 X96.026 Y98.688 E4.55284
G1 X94.893 Y98.940 E4.58046
G1 X90.574 Y103.260 E4.72580
G1 X90.272 Y102.755 E4.73979
G1 X90.306 Y102.716 E4.74102
G1 X90.281 Y102.671 E4.74224
G1 X93.813 Y99.140 E4.86109
G1 X92.798 Y99.273 E4.88543
G1 X89.851 Y102.220 E4.98460
G1 X89.192 Y101.998 E5.00114
G1 X92.224 Y98.966 E5.10316
G1 X92.206 Y98.934 E5.10405
G1 X92.265 Y98.713 E5.10948
G1 X92.256 Y98.615 E5.11182
G1 X92.412 Y98.298 E5.12022
G1 X92.487 Y98.313 E5.12205
G1 X92.519 Y98.266 E5.12339
G1 X93.209 Y97.101 E5.15562
G1 X88.634 Y101.676 E5.30955
G1 X88.096 Y101.333 E5.32473
G1 X90.050 Y99.379 E5.39046
G1 X89.853 Y99.359 E5.39515
G1 X89.298 Y99.250 E5.40863
G1 X87.513 Y101.035 E5.46868
G1 X86.821 Y100.846 E5.48575
G1 X88.600 Y99.067 E5.54563
G1 X88.500 Y99.040 E5.54810
G1 X88.150 Y98.873 E5.55733
G1 X88.014 Y98.772 E5.56135
G1 X86.076 Y100.710 E5.62656
G1 X85.277 Y100.628 E5.64567
G1 X87.541 Y98.365 E5.72183
G1 X87.440 Y98.269 E5.72513
G1 X87.138 Y97.887 E5.73673
G1 X84.432 Y100.592 E5.82776
G1 X83.728 Y100.561 E5.84455
G1 X83.610 Y100.534 E5.84743
G1 X86.772 Y97.371 E5.95385
G1 X86.410 Y96.853 E5.96890
G1 X82.955 Y100.307 E6.08514
G1 X82.437 Y99.945 E6.10019
G1 X86.036 Y96.346 E6.22129
G1 X85.785 Y96.027 E6.23093
G1 X85.633 Y95.868 E6.23618
G1 X81.980 Y99.521 E6.35911
G1 X81.840 Y99.397 E6.36354
G1 X81.570 Y99.050 E6.37401
G1 X85.170 Y95.450 E6.49516
G1 X84.623 Y95.116 E6.51041
G1 X81.217 Y98.521 E6.62499
G1 X81.138 Y98.384 E6.62877
G1 X80.935 Y97.923 E6.64075
G1 X83.979 Y94.879 E6.74317
G1 X83.500 Y94.777 E6.75481
G1 X83.225 Y94.752 E6.76139
G1 X80.726 Y97.251 E6.84548
G1 X80.670 Y96.988 E6.85187
G1 X80.645 Y96.688 E6.85903
G1 X80.670 Y96.426 E6.86529
G1 X82.187 Y94.908 E6.91636
G1 E4.91636 F2400.00000
G92 E0
G1 X91.364 Y98.065 F7800.000
G1 E2.00000 F2400.00000
G1 F3823.35
G1 X93.500 Y95.929 E2.07187
G1 X93.263 Y95.285 E2.08819
G1 X92.115 Y96.433 E2.12682
G1 X92.091 Y96.330 E2.12934
G1 X91.960 Y96.081 E2.13602
G1 X92.042 Y95.969 E2.13934
G1 X91.854 Y95.813 E2.14516
G1 X93.160 Y94.507 E2.18912
G1 E0.18912 F2400.00000
G92 E0
G1 X91.558 Y104.038 F7800.000
G1 E2.00000 F2400.00000
G1 F3823.35
G1 X91.794 Y104.235 E2.00732
G1 X92.004 Y104.472 E2.01487
G1 X92.952 Y103.524 E2.04678
G1 X93.331 Y104.026 E2.06175
G1 X92.370 Y104.987 E2.09409
G1 X92.770 Y105.468 E2.10897
G1 X93.693 Y104.545 E2.14003
G1 X93.936 Y105.109 E2.15464
G1 X93.862 Y105.147 E2.15662
G1 X93.898 Y105.221 E2.15857
G1 X93.248 Y105.871 E2.18044
G1 X93.407 Y106.124 E2.18755
G1 X93.334 Y106.174 E2.18964
G1 X93.427 Y106.354 E2.19447
G1 X93.438 Y106.428 E2.19625
G1 X93.554 Y106.446 E2.19905
G1 X94.225 Y105.775 E2.22161
G1 X94.312 Y105.892 E2.22508
G1 X94.297 Y105.912 E2.22567
G1 X94.586 Y106.186 E2.23515
G1 X94.580 Y106.300 E2.23788
G1 X93.791 Y107.090 E2.26444
G1 E0.26444 F2400.00000
G92 E0
G1 X114.155 Y98.178 F7800.000
G1 E2.00000 F2400.00000
G1 F3823.35
G1 X113.622 Y98.294 E2.01296
G1 X113.014 Y98.519 E2.02839
G1 X113.348 Y98.413 E2.03672
G1 X114.034 Y98.299 E2.05328
G1 X114.620 Y97.713 E2.07299
G1 X115.025 Y97.646 E2.08276
G1 X115.588 Y97.626 E2.09616
G1 X114.949 Y98.264 E2.11763
G1 X115.416 Y98.282 E2.12875
G1 X115.748 Y98.347 E2.13678
G1 X116.320 Y97.774 E2.15605
G1 X116.901 Y98.075 E2.17161
G1 X116.420 Y98.556 E2.18780
G1 X116.984 Y98.873 E2.20319
G1 X117.453 Y98.404 E2.21896
G1 X117.802 Y98.620 E2.22873
G1 X117.983 Y98.755 E2.23410
G1 X117.517 Y99.221 E2.24978
G1 X118.401 Y99.783 F7800.000
G1 F955.837
G1 X118.896 Y99.289 E2.27241
G1 X118.631 Y99.060 E2.28376
G1 X118.335 Y98.841 E2.29566
G1 X117.695 Y99.480 E2.32494
G1 X117.069 Y99.098 E2.34870
G1 X117.747 Y98.420 E2.37973
G1 X117.132 Y98.026 E2.40336
G1 X116.638 Y98.521 E2.42600
G1 E0.42600 F2400.00000
G92 E0
G1 X113.182 Y98.587 F7800.000
G1 E2.00000 F2400.00000
G1 F955.837
G1 X113.677 Y98.093 E2.02264
G1 X113.620 Y97.854 E2.03057
G1 X113.323 Y97.976 E2.04096
G1 X112.123 Y98.568 E2.08429
G1 X111.411 Y99.279 E2.11686
G1 X111.366 Y99.190 E2.12011
G1 X111.629 Y99.062 E2.12957
G1 E0.12957 F2400.00000
G92 E0
G1 X105.146 Y95.681 F7800.000
G1 E2.00000 F2400.00000
G1 F955.837
G1 X104.652 Y96.175 E2.01917
G1 X104.254 Y95.660 F7800.000
G1 F955.837
G1 X104.748 Y95.165 E2.03834
M106 S255
G1 Z1.200 F7800.000
G1 X103.679 Y94.870 F7800.000
G1 F3134.91
G1 X102.405 Y93.596 E2.08121
G1 X102.283 Y93.712 E2.08521
G1 X102.188 Y94.010 E2.09265
G1 X102.188 Y94.082 E2.09438
G1 X102.127 Y94.198 E2.09749
G1 X103.181 Y95.252 E2.13296
G1 X103.067 Y95.302 E2.13591
G1 X102.488 Y95.440 E2.15008
G1 X101.701 Y94.654 E2.17654
G1 X101.467 Y94.794 E2.18304
G1 X101.118 Y94.951 E2.19215
G1 X102.026 Y95.859 E2.22271
G1 X101.984 Y95.924 E2.22454
G1 X101.948 Y96.119 E2.22927
G1 X101.955 Y96.528 E2.23901
G1 X102.004 Y96.529 E2.24019
G1 X101.994 Y96.538 E2.24051
G1 X102.109 Y96.722 E2.24566
G1 X102.088 Y96.752 E2.24655
G1 X102.404 Y97.016 E2.25635
G1 X102.826 Y97.199 E2.26730
G1 X102.888 Y97.069 E2.27072
G1 X102.939 Y97.080 E2.27198
G1 X102.914 Y97.164 E2.27405
G1 X103.276 Y97.277 E2.28308
G1 X103.390 Y97.334 E2.28610
G1 X103.581 Y97.465 E2.29161
G1 X103.716 Y97.615 E2.29640
G1 X103.712 Y97.734 E2.29924
G1 X103.474 Y98.188 E2.31144
G1 X100.380 Y95.094 E2.41554
G1 X100.282 Y95.130 E2.41803
G1 X100.316 Y95.220 E2.42032
G1 X99.829 Y95.424 E2.43288
G1 X102.030 Y97.625 E2.50694
G1 X101.679 Y97.421 E2.51658
G1 X100.882 Y97.056 E2.53745
G1 X100.841 Y97.140 E2.53967
G1 X100.598 Y97.009 E2.54623
G1 X100.656 Y96.942 E2.54834
G1 X100.358 Y96.664 E2.55805
G1 X100.176 Y96.452 E2.56469
G1 X100.115 Y96.357 E2.56737
G1 X100.084 Y96.256 E2.56988
G1 X100.086 Y96.159 E2.57219
G1 X100.157 Y95.992 E2.57653
G1 X100.294 Y95.889 E2.58059
G1 E0.58059 F2400.00000
G92 E0
G1 X103.778 Y98.492 F7800.000
G1 E2.00000 F2400.00000
G1 F3134.91
G1 X105.367 Y100.082 E2.05348
G1 X105.692 Y99.914 E2.06218
G1 X105.967 Y99.800 E2.06925
G1 X104.899 Y98.733 E2.10516
G1 X105.948 Y98.901 E2.13044
G1 X106.644 Y99.596 E2.15383
G1 E0.15383 F2400.00000
G92 E0
G1 X104.813 Y100.409 F7800.000
G1 E2.00000 F2400.00000
G1 F3134.91
G1 X102.260 Y97.856 E2.08591
G1 X102.339 Y98.048 E2.09085
G1 X102.123 Y98.334 E2.09940
G1 X101.986 Y98.344 E2.10267
G1 X101.903 Y98.380 E2.10480
G1 X104.270 Y100.746 E2.18442
G1 X103.945 Y100.957 E2.19365
G1 X103.757 Y101.114 E2.19947
G1 X101.103 Y98.460 E2.28877
G1 X100.717 Y98.484 E2.29797
G1 X100.239 Y98.477 E2.30934
G1 X103.675 Y101.913 E2.42493
G1 X103.639 Y102.336 E2.43504
G1 X103.521 Y102.640 E2.44280
G1 X99.365 Y98.484 E2.58267
G1 X98.518 Y98.518 E2.60284
G1 X101.845 Y101.845 E2.71481
G1 X101.170 Y102.051 E2.73159
G1 X97.693 Y98.574 E2.84860
G1 X96.891 Y98.652 E2.86779
G1 X100.510 Y102.272 E2.98959
G1 X99.870 Y102.513 E3.00587
G1 X96.136 Y98.778 E3.13152
G1 X95.409 Y98.932 E3.14920
G1 X99.204 Y102.728 E3.27691
G1 X98.513 Y102.917 E3.29397
G1 X94.692 Y99.097 E3.42253
G1 X93.957 Y99.242 E3.44037
G1 X97.775 Y103.060 E3.56885
G1 X97.500 Y103.101 E3.57544
G1 X96.972 Y103.138 E3.58805
G1 X93.205 Y99.372 E3.71480
G1 X92.428 Y99.475 E3.73346
G1 X96.094 Y103.141 E3.85681
G1 X95.130 Y103.059 E3.87981
G1 X90.945 Y98.873 E4.02064
G1 X90.887 Y98.952 E4.02297
G1 X90.471 Y99.281 E4.03558
G1 X94.090 Y102.899 E4.15734
G1 X92.976 Y102.667 E4.18440
G1 X89.903 Y99.593 E4.28782
G1 X89.515 Y99.568 E4.29708
G1 X88.905 Y99.476 E4.31175
G1 X92.352 Y102.923 E4.42773
G1 X92.313 Y103.073 E4.43141
G1 X92.481 Y103.604 E4.44466
G1 X92.597 Y103.927 E4.45283
G1 X92.633 Y103.961 E4.45400
G1 X92.671 Y104.071 E4.45677
G1 X92.792 Y104.244 E4.46181
G1 X87.607 Y99.059 E4.63629
G1 X86.839 Y98.291 F7800.000
G1 F3134.91
G1 X83.690 Y95.142 E4.74227
G1 X83.292 Y95.018 E4.75219
G1 X82.955 Y94.948 E4.76038
G1 X82.598 Y94.931 E4.76887
G1 X89.100 Y101.433 E4.98766
G1 X88.637 Y101.141 E5.00072
G1 X88.092 Y100.856 E5.01533
G1 X87.464 Y100.678 E5.03087
G1 X81.850 Y95.064 E5.21978
G1 X81.495 Y95.240 E5.22920
G1 X81.292 Y95.386 E5.23517
G1 X86.391 Y100.485 E5.40674
G1 X85.973 Y100.436 E5.41675
G1 X85.431 Y100.407 E5.42966
G1 X80.905 Y95.881 E5.58196
G1 X80.866 Y96.018 E5.58536
G1 X80.849 Y96.223 E5.59024
G1 X80.877 Y96.530 E5.59757
G1 X80.933 Y96.790 E5.60390
G1 X84.515 Y100.372 E5.72444
G1 X84.202 Y100.356 E5.73189
G1 X83.788 Y100.251 E5.74206
G1 X83.490 Y100.117 E5.74982
G1 X83.151 Y99.889 E5.75954
G1 X81.599 Y98.337 E5.81178
G1 E3.81178 F2400.00000
G92 E0
G1 X92.893 Y99.940 F7800.000
G1 E2.00000 F2400.00000
G1 F3134.91
G1 X92.623 Y99.971 E2.00646
G1 X92.122 Y99.936 E2.01842
G1 X91.948 Y99.582 E2.02781
G1 X91.992 Y99.329 E2.03390
G1 X92.078 Y99.126 E2.03917
G1 X91.279 Y98.327 E2.06606
G1 X91.554 Y97.721 E2.08189
G1 X92.369 Y98.535 E2.10930
G1 X92.698 Y97.984 E2.12459
G1 X91.897 Y97.183 E2.15154
G1 X92.133 Y96.820 E2.16184
G1 X92.227 Y96.631 E2.16685
G1 X93.013 Y97.418 E2.19332
G1 X93.179 Y97.088 E2.20212
G1 X93.287 Y96.810 E2.20920
G1 X92.321 Y95.845 E2.24167
G1 X92.144 Y95.472 E2.25150
G1 X92.005 Y95.274 E2.25726
G1 X91.980 Y95.170 E2.25981
G1 X92.115 Y94.758 E2.27013
G1 X93.023 Y95.665 E2.30066
G1 E0.30066 F2400.00000
G92 E0
G1 X101.383 Y104.025 F7800.000
G1 E2.00000 F2400.00000
G1 F3134.91
G1 X101.149 Y104.292 E2.00843
G1 X101.105 Y104.449 E2.01232
G1 X101.190 Y104.568 E2.01581
G1 X101.341 Y104.638 E2.01976
G1 X101.507 Y104.674 E2.02380
G1 X101.598 Y104.670 E2.02597
G1 X101.933 Y104.576 E2.03425
G1 X100.917 Y103.560 E2.06844
G1 X101.058 Y103.432 E2.07296
G1 X101.309 Y103.253 E2.08029
G1 X101.318 Y103.264 E2.08064
G1 X101.417 Y103.179 E2.08374
G1 X102.649 Y104.411 E2.12521
G1 X103.176 Y104.316 E2.13796
G1 X103.462 Y104.343 E2.14478
G1 X102.931 Y103.812 E2.16264
G1 X103.096 Y103.866 E2.16678
G1 X103.292 Y103.962 E2.17197
G1 X103.674 Y104.053 E2.18131
G1 X104.052 Y104.052 E2.19029
G1 X104.823 Y104.823 E2.21625
G1 X103.396 Y104.277 F7800.000
G1 F3134.91
G1 X103.293 Y104.241 E2.21885
G1 X103.190 Y104.071 E2.22359
G1 X101.860 Y102.741 E2.26834
G1 X102.005 Y102.530 E2.27443
G1 X102.113 Y102.319 E2.28007
G1 X102.166 Y102.166 E2.28392
G1 X103.185 Y103.185 E2.31821
G1 E0.31821 F2400.00000
G92 E0
G1 X107.126 Y99.221 F7800.000
G1 E2.00000 F2400.00000
G1 F783.727
G1 X107.621 Y99.715 E2.01906
G1 X107.975 Y99.748 E2.02877
G1 X108.741 Y99.927 E2.05020
G1 X107.972 Y99.158 E2.07985
G1 X108.506 Y99.277 E2.09476
G1 X109.063 Y99.341 E2.11004
G1 X109.859 Y100.137 E2.14074
G1 X110.199 Y100.088 E2.15010
G1 X110.590 Y99.960 E2.16132
G1 X109.927 Y99.297 E2.18688
G1 X110.110 Y99.279 E2.19187
G1 X110.664 Y99.125 E2.20754
G1 X111.158 Y99.620 E2.22660
G1 E0.22660 F2400.00000
G92 E0
G1 X114.306 Y98.305 F7800.000
G1 E2.00000 F2400.00000
G1 F783.727
G1 X113.811 Y97.806 E2.02233
G1 X114.203 Y97.719 E2.03512
G1 X114.542 Y97.669 E2.04599
G1 X114.726 Y97.665 E2.05184
G1 X115.292 Y98.231 E2.07731
G1 X116.004 Y97.884 F7800.000
G1 F783.727
G1 X116.499 Y98.378 E2.09955
G1 Z1.500 F7800.000
G1 E0.09955 F2400.00000
G92 E0
G1 X104.053 Y100.351 F7800.000
G1 E2.00000 F2400.00000
G1 F3575.08
G1 X105.453 Y98.952 E2.04709
G1 X104.719 Y98.805 E2.06490
G1 X102.153 Y101.371 E2.15125
G1 X100.845 Y101.798 E2.18398
G1 X103.992 Y98.651 E2.28987
G1 X103.195 Y98.566 E2.30893
G1 X99.496 Y102.266 E2.43342
G1 X98.861 Y102.478 E2.44936
G1 X98.217 Y102.664 E2.46530
G1 X102.276 Y98.605 E2.60190
G1 X101.318 Y98.682 E2.62477
G1 X97.118 Y102.882 E2.76609
G1 X96.606 Y102.928 E2.77833
G1 X96.178 Y102.941 E2.78853
G1 X100.437 Y98.682 E2.93185
G1 X99.540 Y98.698 E2.95320
G1 X95.322 Y102.916 E3.09512
G1 X94.521 Y102.837 E3.11429
G1 X98.615 Y98.742 E3.25206
G1 X97.649 Y98.827 E3.27512
G1 X93.760 Y102.716 E3.40599
G1 X93.029 Y102.567 E3.42375
G1 X96.610 Y98.985 E3.54428
G1 X95.482 Y99.232 E3.57176
G1 X92.307 Y102.408 E3.67860
G1 X91.653 Y102.313 E3.69432
G1 X91.534 Y102.555 E3.70074
G1 X91.441 Y102.683 E3.70451
G1 X91.573 Y103.142 E3.71586
G1 X91.320 Y103.394 E3.72437
G1 X91.087 Y103.271 E3.73063
G1 X90.976 Y103.149 E3.73456
G1 X90.865 Y102.968 E3.73961
G1 X94.375 Y99.459 E3.85769
G1 X93.327 Y99.626 E3.88294
G1 X90.525 Y102.428 E3.97722
G1 X90.471 Y102.343 E3.97960
G1 X90.339 Y101.982 E3.98874
G1 X90.165 Y101.907 E3.99326
G1 X92.333 Y99.739 E4.06622
G1 X91.963 Y99.736 E4.07503
G1 X91.665 Y99.525 E4.08370
G1 X89.511 Y101.680 E4.15618
G1 X89.355 Y101.621 E4.16016
G1 X88.934 Y101.376 E4.17174
G1 X90.508 Y99.801 E4.22473
G1 X89.980 Y99.776 E4.23731
G1 X89.695 Y99.734 E4.24416
G1 X88.388 Y101.041 E4.28814
G1 X87.821 Y100.727 E4.30356
G1 X88.962 Y99.586 E4.34196
G1 X88.371 Y99.425 E4.35653
G1 X88.284 Y99.383 E4.35884
G1 X87.160 Y100.507 E4.39663
G1 X86.430 Y100.356 E4.41437
G1 X87.725 Y99.061 E4.45795
G1 X87.578 Y98.961 E4.46218
G1 X87.253 Y98.652 E4.47285
G1 X85.658 Y100.247 E4.52651
G1 X84.830 Y100.194 E4.54625
G1 X86.847 Y98.177 E4.61412
G1 X86.479 Y97.664 E4.62914
G1 X83.984 Y100.159 E4.71309
G1 X83.746 Y100.150 E4.71876
G1 X83.403 Y100.065 E4.72717
G1 X83.261 Y100.001 E4.73087
G1 X86.114 Y97.148 E4.82688
G1 X85.746 Y96.635 E4.84189
G1 X82.726 Y99.656 E4.94352
G1 X82.252 Y99.248 E4.95838
G1 X85.343 Y96.157 E5.06240
G1 X85.064 Y95.882 E5.07174
G1 X84.874 Y95.745 E5.07729
G1 X81.741 Y98.879 E5.18273
G1 X81.638 Y98.797 E5.18587
G1 X81.612 Y98.821 E5.18670
G1 X81.362 Y98.410 E5.19815
G1 X81.436 Y98.382 E5.20002
G1 X81.415 Y98.323 E5.20150
G1 X84.317 Y95.422 E5.29914
G1 X83.733 Y95.124 E5.31472
G1 X81.243 Y97.614 E5.39850
G1 X81.109 Y97.118 E5.41075
G1 X81.074 Y96.903 E5.41592
G1 X83.009 Y94.968 E5.48104
G1 E3.48104 F2400.00000
G92 E0
G1 X100.994 Y104.292 F7800.000
G1 E2.00000 F2400.00000
G1 F3575.08
G1 X101.819 Y103.467 E2.02776
G1 X102.460 Y102.903 E2.04807
G1 X102.663 Y102.622 E2.05632
G1 X103.431 Y100.973 F7800.000
G1 F3575.08
G1 X102.775 Y101.630 E2.07841
G1 X102.657 Y101.866 E2.08468
G1 X102.659 Y101.946 E2.08660
G1 X102.498 Y102.345 E2.09683
G1 X102.481 Y102.444 E2.09921
G1 X102.365 Y102.770 E2.10746
G1 X102.287 Y102.951 E2.11214
G1 X102.198 Y103.088 E2.11602
G1 X103.411 Y101.874 E2.15686
G1 X103.331 Y102.078 E2.16207
G1 X103.180 Y102.310 E2.16867
G1 X102.979 Y102.546 E2.17603
G1 X102.873 Y102.761 E2.18173
G1 X102.808 Y102.961 E2.18675
G1 X102.856 Y103.072 E2.18963
G1 X102.872 Y103.294 E2.19492
G1 X101.873 Y104.294 E2.22855
G1 E0.22855 F2400.00000
G92 E0
G1 X91.555 Y99.128 F7800.000
G1 E2.00000 F2400.00000
G1 F893.77
G1 X92.049 Y98.634 E2.02264
G1 X92.287 Y98.143 E2.04030
G1 X92.748 Y97.384 E2.06906
G1 X93.034 Y96.855 E2.08852
G1 X93.256 Y96.349 E2.10639
G1 X91.897 Y97.707 E2.16856
G1 X92.168 Y97.292 E2.18462
G1 X92.295 Y97.034 E2.19392
G1 X92.345 Y96.875 E2.19930
G1 X92.372 Y96.707 E2.20481
G1 X92.357 Y96.389 E2.21512
G1 X92.308 Y96.218 E2.22088
G1 X93.066 Y95.460 E2.25558
G1 X93.005 Y95.243 E2.26287
G1 X92.993 Y95.126 E2.26667
G1 X93.023 Y94.692 E2.28075
G1 X92.949 Y94.639 E2.28369
G1 X92.790 Y94.657 E2.28889
G1 X92.106 Y95.341 E2.32018
G1 X92.166 Y95.197 E2.32521
G1 X92.295 Y95.152 E2.32966
G1 E0.32966 F2400.00000
G92 E0
G1 X99.713 Y96.032 F7800.000
G1 E2.00000 F2400.00000
G1 F893.77
G1 X100.302 Y95.455 E2.02269
G1 X100.922 Y95.195 E2.04121
G1 X101.749 Y94.913 E2.06526
G1 X99.959 Y96.702 E2.13493
G1 E0.13493 F2400.00000
G92 E0
G1 X101.925 Y95.654 F7800.000
G1 E2.00000 F2400.00000
G1 F893.77
G1 X100.504 Y97.075 E2.05530
G1 X101.133 Y97.363 E2.07433
G1 X102.147 Y96.349 E2.11380
G1 X102.174 Y96.392 E2.11519
G1 X102.400 Y96.569 E2.12308
G1 X102.570 Y96.648 E2.12827
G1 X102.725 Y96.688 E2.13268
G1 X101.715 Y97.698 E2.17200
G1 X101.917 Y97.855 E2.17903
G1 X102.188 Y98.143 E2.18991
G1 X103.419 Y96.912 E2.23783
G1 X103.518 Y96.983 E2.24119
G1 X103.378 Y97.012 E2.24513
G1 X103.502 Y97.615 E2.26208
G1 X103.289 Y97.958 E2.27321
G1 X102.795 Y98.453 E2.29246
G1 E0.29246 F2400.00000
G92 E0
G1 X102.220 Y95.359 F7800.000
G1 E2.00000 F2400.00000
G1 F893.77
G1 X103.559 Y94.020 E2.05211
G1 X103.412 Y93.545 E2.06579
G1 X103.192 Y93.469 E2.07217
G1 X102.244 Y94.418 E2.10909
G1 X102.306 Y94.208 E2.11510
G1 X102.601 Y93.949 E2.12591
G1 X102.698 Y93.964 E2.12862
G1 E0.12862 F2400.00000
G92 E0
G1 X104.112 Y104.068 F7800.000
G1 E2.00000 F2400.00000
G1 F893.77
G1 X103.618 Y104.562 E2.01925
G1 X104.233 Y104.930 F7800.000
G1 F893.77
G1 X104.727 Y104.436 E2.03849
G1 E0.03849 F2400.00000
G92 E0
G1 X92.968 Y105.230 F7800.000
G1 E2.00000 F2400.00000
G1 F893.77
G1 X93.462 Y104.736 E2.01925
G1 X93.355 Y104.501 E2.02634
G1 X93.042 Y104.132 E2.03966
G1 X92.500 Y104.674 E2.06075
G1 X92.396 Y104.479 E2.06684
G1 X92.073 Y104.110 E2.08033
G1 X92.128 Y104.022 E2.08319
G1 X92.623 Y103.527 E2.10244
M106 S244.8
G1 Z1.800 F7800.000
G1 E0.10244 F2400.00000
G92 E0
G1 X100.776 Y96.784 F7800.000
G1 E2.00000 F2400.00000
G1 F1200
G1 X100.008 Y96.003 E2.03514
G1 X99.898 Y95.828 E2.04175
G1 X99.895 Y95.686 E2.04631
G1 X99.916 Y95.653 E2.04758
G1 X100.027 Y95.560 E2.05222
G1 X100.333 Y95.389 E2.06348
G1 X100.420 Y95.359 E2.06642
G1 X101.944 Y96.883 E2.13557
G1 X102.689 Y97.627 F7800.000
G1 F1200
G1 X102.803 Y97.535 E2.14027
G1 X102.894 Y97.395 E2.14563
G1 X102.932 Y97.259 E2.15017
G1 X102.915 Y97.173 E2.15296
G1 X102.839 Y97.082 E2.15678
G1 X102.713 Y96.995 E2.16168
G1 X102.044 Y96.860 E2.18359
G1 X101.773 Y96.712 E2.19347
G1 X103.183 Y98.122 E2.25742
G1 E0.25742 F2400.00000
G92 E0
G1 X101.795 Y95.665 F7800.000
G1 E2.00000 F2400.00000
G1 F1200
G1 X101.300 Y95.171 E2.02242
G1 X102.273 Y94.406 F7800.000
G1 F1200
G1 X102.958 Y95.091 E2.05380
G1 X103.201 Y94.255 F7800.000
G1 F1200
G1 X102.706 Y93.761 E2.07643
G1 E0.07643 F2400.00000
G92 E0
G1 X105.690 Y99.505 F7800.000
G1 E2.00000 F2400.00000
G1 F1200
G1 X105.195 Y99.010 E2.01913
G1 X104.596 Y98.911 E2.03574
G1 X104.070 Y98.796 E2.05047
G1 X105.196 Y99.923 E2.09404
G1 X104.625 Y100.263 E2.11222
G1 X102.984 Y98.622 E2.17570
G1 X102.573 Y98.572 E2.18702
G1 X102.263 Y98.608 E2.19555
G1 X102.062 Y98.611 E2.20106
G1 X104.064 Y100.613 E2.27851
G1 X103.627 Y100.897 E2.29276
G1 X103.524 Y100.984 E2.29646
G1 X101.220 Y98.680 E2.38556
G1 X100.729 Y98.711 E2.39903
G1 X100.336 Y98.707 E2.40977
G1 X102.953 Y101.325 E2.51099
G1 X102.759 Y101.309 E2.51630
G1 X102.203 Y101.486 E2.53226
G1 X99.433 Y98.716 E2.63940
G1 X98.550 Y98.744 E2.66356
G1 X101.514 Y101.708 E2.77822
G1 X100.814 Y101.919 E2.79822
G1 X97.697 Y98.803 E2.91876
G1 X96.877 Y98.894 E2.94131
G1 X100.158 Y102.174 E3.06818
G1 X99.473 Y102.400 E3.08792
G1 X96.092 Y99.020 E3.21866
G1 X95.345 Y99.184 E3.23959
G1 X98.778 Y102.617 E3.37237
G1 X98.039 Y102.789 E3.39312
G1 X94.595 Y99.345 E3.52632
G1 X93.832 Y99.493 E3.54758
G1 X97.226 Y102.888 E3.67886
G1 X96.630 Y102.919 E3.69518
G1 X96.344 Y102.917 E3.70301
G1 X93.050 Y99.622 E3.83042
G1 X92.239 Y99.723 E3.85275
G1 X95.368 Y102.852 E3.97377
G1 X94.519 Y102.743 E3.99719
G1 X94.303 Y102.698 E4.00324
G1 X90.884 Y99.279 E4.13545
G1 X90.654 Y99.398 E4.14251
G1 X90.357 Y99.664 E4.15342
G1 X93.151 Y102.458 E4.26147
G1 X92.684 Y102.360 E4.27454
G1 X92.123 Y102.289 E4.29000
G1 X92.104 Y102.322 E4.29102
G1 X89.585 Y99.802 E4.38847
G1 X88.892 Y99.709 E4.40757
G1 X88.481 Y99.610 E4.41915
G1 X91.583 Y102.712 E4.53912
G1 X91.287 Y102.813 E4.54765
G1 X90.986 Y102.342 E4.56294
G1 X90.847 Y101.977 E4.57362
G1 X90.588 Y101.849 E4.58152
G1 X89.843 Y101.596 E4.60302
G1 X89.114 Y101.155 E4.62632
G1 X83.043 Y95.083 E4.86115
G1 X82.724 Y95.027 E4.86999
G1 X82.445 Y95.048 E4.87764
G1 X82.184 Y95.135 E4.88518
G1 X87.497 Y100.448 E5.09065
G1 X87.218 Y100.386 E5.09846
G1 X86.391 Y100.254 E5.12135
G1 X81.587 Y95.449 E5.30716
G1 X81.305 Y95.666 E5.31688
G1 X81.137 Y95.911 E5.32500
G1 X85.402 Y100.176 E5.48998
G1 X84.450 Y100.135 E5.51604
G1 X81.205 Y96.890 E5.64156
G1 X81.340 Y97.545 E5.65985
G1 X81.463 Y97.891 E5.66988
G1 X81.563 Y98.086 E5.67589
G1 X81.801 Y98.397 E5.68659
G1 X82.295 Y98.892 E5.70572
G1 E3.70572 F2400.00000
G92 E0
G1 X101.503 Y104.400 F7800.000
G1 E2.00000 F2400.00000
G1 F1200
G1 X100.998 Y103.891 E2.01960
G1 X101.006 Y103.852 E2.02070
G1 X101.111 Y103.706 E2.02562
G1 X101.470 Y103.394 E2.03862
G1 X102.345 Y104.269 E2.07245
G1 X102.707 Y104.192 E2.08257
G1 X102.807 Y104.144 E2.08561
G1 X102.859 Y104.077 E2.08793
G1 X102.868 Y103.967 E2.09096
G1 X102.637 Y104.061 E2.09777
G1 X102.412 Y103.529 E2.11358
G1 X102.508 Y103.459 E2.11683
G1 X101.985 Y102.936 E2.13705
G1 X102.291 Y102.524 E2.15109
G1 X102.367 Y102.345 E2.15641
G1 X102.990 Y102.968 E2.18051
G1 X103.186 Y102.736 E2.18880
G1 X103.307 Y102.548 E2.19494
G1 X103.379 Y102.383 E2.19983
G1 X102.620 Y101.625 E2.22916
G1 X102.682 Y101.473 E2.23365
G1 X102.680 Y101.394 E2.23580
G1 X102.907 Y100.939 E2.24971
G1 X103.402 Y101.434 E2.26883
M106 S249.9
G1 Z2.100 F7800.000
G1 E0.26883 F2400.00000
G92 E0
G1 X101.018 Y96.783 F7800.000
G1 E2.00000 F2400.00000
G1 F1200
G1 X101.512 Y96.288 E2.02263
G1 X101.226 Y95.496 F7800.000
G1 F1200
G1 X100.282 Y96.440 E2.06587
G1 E0.06587 F2400.00000
G92 E0
G1 X104.801 Y99.644 F7800.000
G1 E2.00000 F2400.00000
G1 F1200
G1 X105.296 Y99.150 E2.01932
G1 X104.528 Y98.997 E2.04094
G1 X102.621 Y100.904 E2.11541
G1 X102.503 Y100.969 E2.11913
G1 X101.149 Y101.456 E2.15889
G1 X103.744 Y98.861 E2.26026
G1 X103.454 Y98.828 E2.26831
G1 X102.864 Y98.820 E2.28461
G1 X99.775 Y101.909 E2.40525
G1 X99.522 Y102.011 E2.41280
G1 X98.769 Y102.262 E2.43473
G1 X98.395 Y102.369 E2.44546
G1 X101.893 Y98.871 E2.58208
G1 X101.249 Y98.916 E2.59991
G1 X100.929 Y98.915 E2.60876
G1 X97.211 Y102.633 E2.75399
G1 X96.981 Y102.669 E2.76040
G1 X96.216 Y102.708 E2.78157
G1 X100.008 Y98.915 E2.92970
G1 X99.053 Y98.950 E2.95610
G1 X95.316 Y102.687 E3.10208
G1 X94.511 Y102.608 E3.12442
G1 X94.480 Y102.603 E3.12529
G1 X98.054 Y99.029 E3.26490
G1 X97.413 Y99.084 E3.28266
G1 X97.016 Y99.146 E3.29374
G1 X93.697 Y102.466 E3.42342
G1 X92.936 Y102.306 E3.44488
G1 X95.859 Y99.383 E3.55906
G1 X94.689 Y99.633 E3.59212
G1 X92.176 Y102.146 E3.69029
G1 X91.416 Y101.986 E3.71174
G1 X93.577 Y99.824 E3.79616
G1 X92.529 Y99.952 E3.82532
G1 X90.629 Y101.852 E3.89953
G1 X90.409 Y101.729 E3.90650
G1 X89.969 Y101.592 E3.91922
G1 X91.594 Y99.967 E3.98269
G1 X91.545 Y99.967 E3.98404
G1 X91.228 Y99.775 E3.99427
G1 X91.097 Y99.824 E3.99814
G1 X91.001 Y99.910 E4.00171
G1 X90.712 Y100.024 E4.01028
G1 X90.615 Y100.025 E4.01296
G1 X89.307 Y101.333 E4.06404
G1 X88.734 Y100.986 E4.08255
G1 X89.748 Y99.972 E4.12217
G1 X89.392 Y99.919 E4.13213
G1 X88.979 Y99.821 E4.14386
G1 X88.153 Y100.646 E4.17609
G1 X87.745 Y100.446 E4.18865
G1 X87.504 Y100.375 E4.19559
G1 X88.263 Y99.617 E4.22521
G1 X87.859 Y99.424 E4.23755
G1 X87.667 Y99.292 E4.24400
G1 X86.771 Y100.188 E4.27901
G1 X85.981 Y100.058 E4.30113
G1 X87.165 Y98.874 E4.34740
G1 X86.989 Y98.707 E4.35410
G1 X86.731 Y98.388 E4.36544
G1 X85.134 Y99.985 E4.42781
G1 X84.255 Y99.943 E4.45210
G1 X86.339 Y97.859 E4.53349
G1 X85.957 Y97.321 E4.55172
G1 X83.440 Y99.838 E4.65003
G1 X83.256 Y99.755 E4.65560
G1 X82.871 Y99.486 E4.66857
G1 X85.574 Y96.783 E4.77414
G1 X85.475 Y96.644 E4.77886
G1 X85.156 Y96.281 E4.79221
G1 X82.344 Y99.093 E4.90205
G1 X81.912 Y98.871 E4.91547
G1 X81.907 Y98.904 E4.91640
G1 X81.763 Y98.754 E4.92213
G1 X84.655 Y95.861 E5.03511
G1 X84.316 Y95.668 E5.04590
G1 X84.256 Y95.718 E5.04804
G1 X84.088 Y95.508 E5.05545
G1 X81.437 Y98.159 E5.15899
G1 X81.376 Y97.860 E5.16742
G1 X81.415 Y97.458 E5.17859
G1 X81.378 Y97.298 E5.18312
G1 X83.541 Y95.135 E5.26759
G1 X83.199 Y95.072 E5.27719
G1 X82.950 Y95.100 E5.28411
G1 X82.810 Y95.144 E5.28815
G1 X82.769 Y95.190 E5.28986
G1 X82.861 Y95.272 E5.29327
G1 X82.255 Y95.571 E5.31193
G1 X81.955 Y95.800 E5.32235
G1 X81.461 Y96.295 E5.34166
M106 S255
G1 Z2.400 F7800.000
G1 E3.34166 F2400.00000
G92 E0
G1 X81.823 Y98.271 F7800.000
G1 E2.00000 F2400.00000
G1 F1155.57
G1 X82.484 Y98.911 E2.02511
G1 X82.539 Y98.940 E2.02680
G1 X82.977 Y98.911 E2.03879
G1 X83.604 Y99.416 E2.06077
G1 X83.953 Y99.623 E2.07184
G1 X84.144 Y99.682 E2.07729
G1 X81.652 Y97.190 E2.17349
G1 X81.752 Y97.138 E2.17658
G1 X81.574 Y96.960 E2.18346
G1 X81.584 Y96.856 E2.18630
G1 X81.519 Y96.448 E2.19758
G1 X81.533 Y96.452 E2.19797
G1 X81.643 Y96.272 E2.20373
G1 X85.124 Y99.753 E2.33808
G1 X86.089 Y99.808 E2.36446
G1 X81.949 Y95.669 E2.52421
G1 X82.389 Y95.335 E2.53928
G1 X82.205 Y95.235 E2.54499
G1 X82.356 Y95.166 E2.54950
G1 X87.149 Y99.959 E2.73450
G1 X88.283 Y99.992 F7800.000
G1 F1155.57
G1 X88.778 Y100.486 E2.75359
G1 X89.896 Y101.158 E2.78919
G1 X90.157 Y101.285 E2.79711
G1 X90.639 Y101.432 E2.81085
G1 X89.410 Y100.204 E2.85826
G1 X90.007 Y100.238 E2.87456
G1 X90.356 Y100.234 E2.88407
G1 X91.882 Y101.760 E2.94297
G1 X93.056 Y102.019 E2.97578
G1 X91.257 Y100.221 E3.04518
G1 X92.103 Y100.151 E3.06833
G1 X94.226 Y102.274 E3.15026
G1 X95.299 Y102.433 E3.17988
G1 X92.919 Y100.052 E3.27174
G1 X93.711 Y99.929 E3.29359
G1 X96.289 Y102.507 E3.39309
G1 X96.539 Y102.509 E3.39993
G1 X97.175 Y102.479 E3.41731
G1 X94.481 Y99.784 E3.52128
G1 X95.234 Y99.623 E3.54230
G1 X97.991 Y102.380 E3.64870
G1 X98.728 Y102.201 E3.66938
G1 X95.985 Y99.458 E3.77522
G1 X96.758 Y99.316 E3.79667
G1 X99.432 Y101.990 E3.89986
G1 X100.110 Y101.753 E3.91946
G1 X97.585 Y99.228 E4.01691
G1 X98.433 Y99.161 E4.04012
G1 X100.776 Y101.504 E4.13053
G1 X101.479 Y101.292 E4.15058
G1 X99.319 Y99.132 E4.23394
G1 X100.227 Y99.125 E4.25872
G1 X102.158 Y101.056 E4.33327
G1 X102.821 Y100.804 E4.35262
G1 X101.116 Y99.099 E4.41841
G1 X101.958 Y99.026 E4.44147
G1 X103.450 Y100.518 E4.49903
G1 X104.007 Y100.160 E4.51710
G1 X102.882 Y99.034 E4.56054
G1 X103.559 Y99.105 E4.57911
G1 X103.939 Y99.177 E4.58968
G1 X104.434 Y99.672 E4.60876
G1 E2.60876 F2400.00000
G92 E0
G1 X85.054 Y96.955 F7800.000
G1 E2.00000 F2400.00000
G1 F1155.57
G1 X84.559 Y96.460 E2.01908
G1 Z2.700 F7800.000
G1 E0.01908 F2400.00000
G92 E0
G1 X89.384 Y100.904 F7800.000
G1 E2.00000 F2400.00000
G1 F980.045
G1 X89.879 Y100.409 E2.01963
G1 X90.508 Y100.449 E2.03734
G1 X90.777 Y100.446 E2.04489
G1 X90.038 Y101.186 E2.07425
G1 X90.774 Y101.385 E2.09566
G1 X91.729 Y100.430 E2.13360
G1 X92.754 Y100.341 E2.16247
G1 X91.526 Y101.569 E2.21123
G1 X92.281 Y101.749 E2.23304
G1 X93.833 Y100.198 E2.29465
G1 X94.972 Y99.994 E2.32715
G1 X93.047 Y101.918 E2.40358
G1 X93.819 Y102.083 E2.42572
G1 X96.161 Y99.740 E2.51873
G1 X96.868 Y99.584 E2.53906
G1 X97.317 Y99.520 E2.55178
G1 X94.634 Y102.203 E2.65832
G1 X95.487 Y102.286 E2.68239
G1 X98.366 Y99.406 E2.79671
G1 X99.365 Y99.343 E2.82480
G1 X96.421 Y102.287 E2.94167
G1 X96.939 Y102.262 E2.95621
G1 X97.468 Y102.176 E2.97126
G1 X100.311 Y99.332 E3.08416
G1 X101.254 Y99.325 E3.11062
G1 X98.749 Y101.830 E3.21007
G1 X99.409 Y101.616 E3.22954
G1 X100.201 Y101.314 E3.25333
G1 X102.265 Y99.250 E3.33531
G1 X102.527 Y99.227 E3.34269
G1 X103.214 Y99.236 E3.36199
G1 X101.575 Y100.875 E3.42708
G1 E1.42708 F2400.00000
G92 E0
G1 X103.394 Y99.992 F7800.000
G1 E2.00000 F2400.00000
G1 F980.045
G1 X103.888 Y99.498 E2.01963
G1 E0.01963 F2400.00000
G92 E0
G1 X86.446 Y99.715 F7800.000
G1 E2.00000 F2400.00000
G1 F980.045
G1 X86.940 Y99.221 E2.01904
G1 X86.698 Y98.993 E2.02809
G1 X86.501 Y98.753 E2.03655
G1 X85.645 Y99.609 E2.06953
G1 X84.791 Y99.555 E2.09282
G1 X86.108 Y98.238 E2.14355
G1 X85.732 Y97.707 E2.16127
G1 X83.919 Y99.520 E2.23110
G1 X83.836 Y99.518 E2.23334
G1 X83.591 Y99.455 E2.24023
G1 X83.261 Y99.271 E2.25053
G1 X85.356 Y97.176 E2.33120
G1 X84.958 Y96.667 E2.34880
G1 X82.752 Y98.872 E2.43373
G1 X82.496 Y98.672 E2.44258
G1 X82.231 Y98.809 E2.45071
G1 X82.043 Y98.872 E2.45610
G1 X81.930 Y98.787 E2.45995
G1 X84.478 Y96.239 E2.55807
G1 X84.071 Y95.970 E2.57135
G1 X83.922 Y95.990 E2.57543
G1 X83.923 Y95.886 E2.57824
G1 X81.573 Y98.237 E2.66874
G1 X81.538 Y98.155 E2.67116
G1 X81.482 Y97.850 E2.67960
G1 X81.520 Y97.752 E2.68246
G1 X81.681 Y97.644 E2.68775
G1 X81.814 Y97.393 E2.69548
G1 X81.763 Y97.139 E2.70252
G1 X83.629 Y95.273 E2.77437
G1 X83.356 Y95.186 E2.78218
G1 X83.175 Y95.171 E2.78713
G1 X82.973 Y95.186 E2.79265
G1 X82.836 Y95.223 E2.79648
G1 X82.672 Y95.323 E2.80173
G1 X82.178 Y95.817 E2.82077
G1 Z3.000 F7800.000
G1 E0.82077 F2400.00000
G92 E0
G1 X90.907 Y100.708 F7800.000
G1 E2.00000 F2400.00000
G1 F725.086
G1 X91.401 Y101.203 E2.01974
G1 X92.640 Y101.501 E2.05571
G1 X91.734 Y100.595 E2.09190
G1 X92.587 Y100.508 E2.11611
G1 X93.854 Y101.775 E2.16666
G1 X94.394 Y101.890 E2.18225
G1 X95.008 Y101.988 E2.19980
G1 X93.412 Y100.392 E2.26349
G1 X94.214 Y100.254 E2.28646
G1 X96.042 Y102.082 E2.35941
G1 X96.199 Y102.096 E2.36386
G1 X96.983 Y102.083 E2.38599
G1 X94.997 Y100.097 E2.46525
G1 X95.767 Y99.926 E2.48750
G1 X97.830 Y101.989 E2.56981
G1 X98.037 Y101.954 E2.57574
G1 X98.588 Y101.807 E2.59185
G1 X96.546 Y99.765 E2.67338
G1 X96.989 Y99.694 E2.68604
G1 X97.379 Y99.657 E2.69710
G1 X99.317 Y101.596 E2.77446
G1 X100.014 Y101.352 E2.79528
G1 X98.251 Y99.589 E2.86561
G1 X99.141 Y99.539 E2.89077
G1 X100.701 Y101.099 E2.95301
G1 X101.424 Y100.881 E2.97431
G1 X100.075 Y99.532 E3.02813
G1 X101.002 Y99.519 E3.05429
G1 X102.118 Y100.636 E3.09885
G1 X102.785 Y100.362 E3.11919
G1 X101.871 Y99.448 E3.15568
G1 X102.508 Y99.429 E3.17366
G1 X102.811 Y99.448 E3.18225
G1 X103.306 Y99.942 E3.20199
G1 E1.20199 F2400.00000
G92 E0
G1 X86.081 Y99.262 F7800.000
G1 E2.00000 F2400.00000
G1 F725.086
G1 X82.199 Y95.380 E2.16888
G1 X82.173 Y95.443 E2.17099
G1 X82.224 Y95.837 E2.18320
G1 X82.112 Y96.054 E2.19072
G1 X81.970 Y96.175 E2.19646
G1 X85.138 Y99.344 E2.33427
G1 X84.370 Y99.315 E2.35791
G1 X84.159 Y99.262 E2.36459
G1 X83.911 Y99.129 E2.37326
G1 X81.980 Y97.211 E2.45697
G1 X81.547 Y97.342 E2.47090
G1 X81.586 Y97.539 E2.47706
G1 X81.726 Y97.904 E2.48908
G1 X81.908 Y98.161 E2.49876
G1 X82.490 Y98.746 E2.52416
G1 E0.52416 F2400.00000
G92 E0
G1 X83.794 Y95.949 F7800.000
G1 E2.00000 F2400.00000
G1 F725.086
G1 X83.267 Y95.423 E2.02290
G1 X83.299 Y95.455 E2.02429
G1 Z3.300 F7800.000
G1 E0.02429 F2400.00000
G92 E0
G1 X92.542 Y100.771 F7800.000
G1 E2.00000 F2400.00000
G1 F600
G1 X92.047 Y101.265 E2.02094
G1 X92.855 Y101.456 E2.04579
G1 X93.675 Y100.635 E2.08056
G1 X94.880 Y100.429 E2.11715
G1 X93.677 Y101.632 E2.16811
G1 X93.975 Y101.696 E2.17724
G1 X94.529 Y101.777 E2.19403
G1 X96.142 Y100.165 E2.26234
G1 X96.913 Y99.992 E2.28600
G1 X97.381 Y99.923 E2.30019
G1 X95.440 Y101.865 E2.38243
G1 X95.715 Y101.891 E2.39071
G1 X96.435 Y101.868 E2.41228
G1 X98.495 Y99.807 E2.49956
G1 X99.554 Y99.746 E2.53133
G1 X97.564 Y101.737 E2.61562
G1 X98.500 Y101.487 E2.64464
G1 X98.967 Y101.332 E2.65938
G1 X100.559 Y99.740 E2.72680
G1 X101.578 Y99.719 E2.75733
G1 X100.500 Y100.797 E2.80300
G1 X102.054 Y100.241 F7800.000
G1 F600
G1 X102.548 Y99.746 E2.82394
G1 E0.82394 F2400.00000
G92 E0
G1 X85.134 Y99.165 F7800.000
G1 E2.00000 F2400.00000
G1 F600
G1 X85.629 Y98.671 E2.02077
G1 X85.535 Y98.507 E2.02636
G1 X85.710 Y98.392 E2.03260
G1 X85.371 Y97.912 E2.05005
G1 X84.162 Y99.121 E2.10082
G1 X83.915 Y99.113 E2.10816
G1 X83.738 Y99.069 E2.11357
G1 X83.572 Y98.986 E2.11909
G1 X83.408 Y98.858 E2.12526
G1 X84.949 Y97.317 E2.19000
G1 X84.612 Y96.888 E2.20621
G1 X84.483 Y96.766 E2.21147
G1 X82.882 Y98.368 E2.27872
G1 X82.773 Y98.254 E2.28338
G1 X82.348 Y97.953 E2.29887
G1 X82.422 Y97.941 E2.30110
G1 X82.394 Y97.838 E2.30426
G1 X83.881 Y96.351 E2.36671
G1 X83.691 Y96.229 E2.37343
G1 X83.648 Y95.957 E2.38162
G1 X83.764 Y95.560 E2.39390
G1 X83.718 Y95.498 E2.39620
G1 X82.176 Y97.040 E2.46096
G1 X82.124 Y96.820 E2.46769
G1 X82.307 Y96.678 E2.47455
G1 X82.382 Y96.528 E2.47953
G1 X82.392 Y96.339 E2.48517
G1 X82.249 Y95.955 E2.49733
G1 X82.753 Y95.446 E2.51859
G1 E0.51859 F2400.00000
G92 E0
G1 X82.163 Y97.455 F7800.000
G1 E2.00000 F2400.00000
G1 F600
G1 X81.668 Y97.949 E2.02077
G1 X82.014 Y98.593 F7800.000
G1 F600
G1 X82.508 Y98.099 E2.04153
G1 Z3.600 F7800.000
G1 E0.04153 F2400.00000
G92 E0
G1 X93.748 Y101.326 F7800.000
G1 E2.00000 F2400.00000
G1 F600
G1 X93.253 Y100.832 E2.01956
G1 X94.054 Y100.700 E2.04225
G1 X94.916 Y101.563 E2.07635
G1 X95.947 Y101.662 E2.10532
G1 X94.834 Y100.548 E2.14937
G1 X95.602 Y100.385 E2.17135
G1 X96.882 Y101.665 E2.22199
G1 X97.382 Y101.649 E2.23597
G1 X97.737 Y101.587 E2.24604
G1 X96.362 Y100.213 E2.30042
G1 X97.034 Y100.102 E2.31947
G1 X97.171 Y100.090 E2.32332
G1 X98.491 Y101.410 E2.37553
G1 X99.212 Y101.199 E2.39655
G1 X98.025 Y100.012 E2.44350
G1 X98.903 Y99.958 E2.46810
G1 X99.902 Y100.957 E2.50761
G1 X100.347 Y100.778 E2.52101
G1 X100.584 Y100.706 E2.52794
G1 X99.823 Y99.946 E2.55803
G1 X100.750 Y99.941 E2.58395
G1 X101.245 Y100.435 E2.60351
G1 E0.60351 F2400.00000
G92 E0
G1 X85.184 Y98.731 F7800.000
G1 E2.00000 F2400.00000
G1 F600
G1 X82.735 Y96.282 E2.11208
G1 X82.409 Y96.405 E2.12337
G1 X82.358 Y96.452 E2.12560
G1 X82.448 Y96.780 E2.13662
G1 X82.592 Y97.085 E2.14756
G1 X82.777 Y97.403 E2.15946
G1 X84.186 Y98.812 E2.22395
G1 X83.816 Y98.530 E2.23900
G1 X83.465 Y98.165 E2.25539
G1 X83.272 Y97.898 E2.26607
G1 X83.575 Y96.044 F7800.000
G1 F600
G1 X83.081 Y95.549 E2.28871
G1 Z3.900 F7800.000
G1 E0.28871 F2400.00000
G92 E0
G1 X95.194 Y100.783 F7800.000
G1 E2.00000 F2400.00000
G1 F600
G1 X94.650 Y101.327 E2.02488
G1 X94.689 Y101.385 E2.02715
G1 X95.588 Y101.468 E2.05637
G1 X96.568 Y100.487 E2.10126
G1 X96.958 Y100.400 E2.11419
G1 X97.552 Y100.306 E2.13364
G1 X97.856 Y100.278 E2.14355
G1 X96.684 Y101.451 E2.19724
G1 X96.869 Y101.444 E2.20322
G1 X97.453 Y101.342 E2.22241
G1 X98.022 Y101.191 E2.24148
G1 X99.030 Y100.183 E2.28765
G1 X100.148 Y100.144 E2.32385
G1 X99.654 Y100.638 E2.34649
G1 E0.34649 F2400.00000
G92 E0
G1 X84.239 Y98.709 F7800.000
G1 E2.00000 F2400.00000
G1 F600
G1 X84.734 Y98.214 E2.01961
G1 X84.907 Y97.956 E2.02833
G1 X84.544 Y97.470 E2.04530
G1 X83.560 Y98.454 E2.08430
G1 X83.452 Y98.369 E2.08817
G1 X83.095 Y97.986 E2.10283
G1 X84.099 Y96.982 E2.14260
G1 X83.742 Y96.755 E2.15446
G1 X83.486 Y96.680 E2.16191
G1 X82.895 Y97.253 E2.18498
G1 Z4.200 F7800.000
G1 E0.18498 F2400.00000
G92 E0
G1 X96.215 Y101.275 F7800.000
G1 E2.00000 F2400.00000
G1 F600
G1 X95.721 Y100.781 E2.01919
G1 X96.463 Y100.609 E2.04012
G1 X97.103 Y101.248 E2.06493
G1 X97.344 Y101.240 E2.07156
G1 X97.909 Y101.139 E2.08730
G1 X97.262 Y100.493 E2.11240
G1 X98.101 Y100.417 E2.13552
G1 X98.595 Y100.911 E2.15472
G1 Z4.500 F7800.000
G1 E0.15472 F2400.00000
G92 E0
M107
; Filament-specific end gcode 
;END gcode for filament

M104 S0 ; turn off temperature
G28 X0  ; home X axis
M84     ; disable motors

M140 S0 ; set bed temperature
; filament used = 50.7mm (0.4cm3)
; total filament cost = 0.0

; avoid_crossing_perimeters = 0
; bed_shape = 0x0,200x0,200x200,0x200
; bed_temperature = 0
; before_layer_gcode = 
; between_objects_gcode = 
; bridge_acceleration = 0
; bridge_fan_speed = 100
; brim_connections_width = 0
; brim_width = 0
; complete_objects = 0
; cooling = 1
; default_acceleration = 0
; disable_fan_first_layers = 3
; duplicate_distance = 6
; end_filament_gcode = "; Filament-specific end gcode \n;END gcode for filament\n"
; end_gcode = M104 S0 ; turn off temperature\nG28 X0  ; home X axis\nM84     ; disable motors\n
; extruder_clearance_height = 20
; extruder_clearance_radius = 20
; extruder_offset = 0x0
; extrusion_axis = E
; extrusion_multiplier = 1
; fan_always_on = 0
; fan_below_layer_time = 60
; filament_colour = #FFFFFF
; filament_cost = 0
; filament_density = 0
; filament_diameter = 3
; filament_max_volumetric_speed = 0
; filament_notes = ""
; first_layer_acceleration = 0
; first_layer_bed_temperature = 0
; first_layer_extrusion_width = 200%
; first_layer_speed = 30
; first_layer_temperature = 205
; gcode_arcs = 0
; gcode_comments = 0
; gcode_flavor = reprap
; has_heatbed = 1
; infill_acceleration = 0
; infill_first = 0
; interior_brim_width = 0
; layer_gcode = 
; max_fan_speed = 100
; max_layer_height = 0.3
; max_print_speed = 80
; max_volumetric_speed = 0
; min_fan_speed = 35
; min_layer_height = 0.15
; min_print_speed = 10
; min_skirt_length = 0
; notes = 
; nozzle_diameter = 0.5
; only_retract_when_crossing_perimeters = 1
; ooze_prevention = 0
; output_filename_format = [input_filename_base].gcode
; perimeter_acceleration = 0
; post_process = 
; pressure_advance = 0
; printer_notes = 
; resolution = 0
; retract_before_travel = 2
; retract_layer_change = 0
; retract_length = 2
; retract_length_toolchange = 10
; retract_lift = 0
; retract_lift_above = 0
; retract_lift_below = 0
; retract_restart_extra = 0
; retract_restart_extra_toolchange = 0
; retract_speed = 40
; skirt_distance = 6
; skirt_height = 1
; skirts = 0
; slowdown_below_layer_time = 5
; spiral_vase = 0
; standby_temperature_delta = -5
; start_filament_gcode = "; Filament gcode\n"
; start_gcode = G28 ; home all axes\nG1 Z5 F5000 ; lift nozzle\n
; temperature = 200
; threads = 8
; toolchange_gcode = 
; travel_speed = 130
; use_firmware_retraction = 0
; use_relative_e_distances = 0
; use_set_and_wait_bed = 0
; use_set_and_wait_extruder = 0
; use_volumetric_e = 0
; vibration_limit = 0
; wipe = 0
; z_offset = 0
; z_steps_per_mm = 0
; adaptive_slicing = 0
; adaptive_slicing_quality = 75%
; dont_support_bridges = 1
; extrusion_width = 0
; first_layer_height = 0.3
; infill_only_where_needed = 0
; interface_shells = 0
; layer_height = 0.3
; match_horizontal_surfaces = 0
; raft_layers = 0
; regions_overlap = 0
; seam_position = aligned
; sequential_print_priority = 0
; support_material = 0
; support_material_angle = 0
; support_material_buildplate_only = 0
; support_material_contact_distance = 0.2
; support_material_enforce_layers = 0
; support_material_extruder = 1
; support_material_extrusion_width = 0
; support_material_interface_extruder = 1
; support_material_interface_extrusion_width = 0
; support_material_interface_layers = 3
; support_material_interface_spacing = 0
; support_material_interface_speed = 100%
; support_material_max_layers = 0
; support_material_pattern = pillars
; support_material_spacing = 2.5
; support_material_speed = 60
; support_material_threshold = 60%
; xy_size_compensation = 0
; bottom_infill_pattern = rectilinear
; bottom_solid_layers = 0
; bridge_flow_ratio = 1
; bridge_speed = 60
; external_perimeter_extrusion_width = 0
; external_perimeter_speed = 50%
; external_perimeters_first = 0
; extra_perimeters = 1
; fill_angle = 45
; fill_density = 90%
; fill_gaps = 1
; fill_pattern = rectilinear
; gap_fill_speed = 20
; infill_every_layers = 1
; infill_extruder = 1
; infill_extrusion_width = 0
; infill_overlap = 55%
; infill_speed = 80
; overhangs = 1
; perimeter_extruder = 1
; perimeter_extrusion_width = 0
; perimeter_speed = 60
; perimeters = 0
; small_perimeter_speed = 15
; solid_infill_below_area = 70
; solid_infill_every_layers = 0
; solid_infill_extruder = 1
; solid_infill_extrusion_width = 0
; solid_infill_speed = 20
; thin_walls = 1
; top_infill_extrusion_width = 0
; top_infill_pattern = rectilinear
; top_solid_infill_speed = 15
; top_solid_layers = 0
