; generated by Slic3r 1.3.0 on 2020-03-10 at 16:45:29

; external perimeters extrusion width = 0.55mm (5.57mm^3/s)
; perimeters extrusion width = 0.58mm (11.78mm^3/s)
; infill extrusion width = 0.58mm (15.71mm^3/s)
; solid infill extrusion width = 0.58mm (3.93mm^3/s)
; top infill extrusion width = 0.58mm (2.95mm^3/s)

M107
M104 S205 ; set temperature
G28 ; home all axes
G1 Z5 F5000 ; lift nozzle

; Filament gcode

M109 S205 ; set temperature and wait for it to be reached
G21 ; set units to millimeters
G90 ; use absolute coordinates
M82 ; use absolute distances for extrusion
G92 E0
G1 Z0.300 F7800.000
G1 E-2.00000 F2400.00000
G92 E0
G1 X78.678 Y92.251 F7800.000
G1 E2.00000 F2400.00000
G1 F1800
G1 X76.740 Y94.189 E2.06231
G1 X76.674 Y94.364 E2.06656
G1 X76.673 Y94.498 E2.06961
G1 X76.640 Y94.537 E2.07076
G1 X76.640 Y94.658 E2.07351
G1 X76.607 Y94.697 E2.07467
G1 X76.607 Y94.842 E2.07797
G1 X76.575 Y94.924 E2.07997
G1 X76.575 Y95.236 E2.08705
G1 X79.797 Y92.013 E2.19066
G1 X79.841 Y92.013 E2.19165
G1 X79.873 Y92.051 E2.19279
G1 X80.207 Y92.053 E2.20037
G1 X80.238 Y92.091 E2.20150
G1 X80.439 Y92.093 E2.20606
G1 X80.471 Y92.131 E2.20720
G1 X80.559 Y92.132 E2.20920
G1 X76.675 Y96.017 E2.33408
G1 X76.708 Y96.179 E2.33786
G1 X76.740 Y96.218 E2.33900
G1 X76.741 Y96.339 E2.34176
G1 X76.770 Y96.375 E2.34280
G1 X76.774 Y96.459 E2.34472
G1 X76.847 Y96.725 E2.35099
G1 X81.219 Y92.353 E2.49156
G1 X81.234 Y92.370 E2.49208
G1 X81.331 Y92.373 E2.49429
G1 X81.403 Y92.454 E2.49675
G1 X81.499 Y92.454 E2.49892
G1 X81.600 Y92.531 E2.50181
G1 X81.663 Y92.533 E2.50325
G1 X81.823 Y92.630 E2.50750
G1 X77.072 Y97.381 E2.66024
G1 X77.101 Y97.415 E2.66125
G1 X77.107 Y97.517 E2.66357
G1 X77.327 Y98.007 E2.67578
G1 X82.329 Y93.005 E2.83659
G1 X82.377 Y93.059 E2.83824
G1 X82.404 Y93.059 E2.83884
G1 X82.506 Y93.179 E2.84243
G1 X82.537 Y93.179 E2.84313
G1 X82.628 Y93.288 E2.84635
G1 X82.662 Y93.291 E2.84712
G1 X82.735 Y93.378 E2.84973
G1 X82.797 Y93.418 E2.85139
G1 X77.628 Y98.587 E3.01754
G1 X77.695 Y98.732 E3.02118
G1 X77.961 Y99.135 E3.03215
G1 X83.194 Y93.902 E3.20039
G1 X83.341 Y94.125 E3.20647
G1 X83.341 Y94.151 E3.20706
G1 X83.472 Y94.310 E3.21173
G1 X83.472 Y94.347 E3.21258
G1 X83.542 Y94.434 E3.21514
G1 X78.343 Y99.634 E3.38230
G1 X78.680 Y100.042 E3.39433
G1 X78.712 Y100.042 E3.39505
G1 X78.759 Y100.098 E3.39673
G1 X83.882 Y94.976 E3.56143
G1 X83.937 Y95.096 E3.56443
G1 X84.113 Y95.364 E3.57172
G1 X84.195 Y95.543 E3.57621
G1 X79.213 Y100.525 E3.73638
G1 X79.245 Y100.564 E3.73751
G1 X79.278 Y100.564 E3.73825
G1 X79.345 Y100.644 E3.74063
G1 X79.378 Y100.644 E3.74139
G1 X79.412 Y100.685 E3.74259
G1 X79.444 Y100.685 E3.74332
G1 X79.511 Y100.764 E3.74569
G1 X79.545 Y100.764 E3.74646
G1 X79.578 Y100.805 E3.74765
G1 X79.678 Y100.845 E3.75010
G1 X79.724 Y100.895 E3.75165
G1 X84.523 Y96.097 E3.90591
G1 X84.650 Y96.292 E3.91121
G1 X84.721 Y96.458 E3.91530
G1 X84.812 Y96.569 E3.91857
G1 X84.849 Y96.651 E3.92062
G1 X80.340 Y101.161 E4.06559
G1 X80.479 Y101.168 E4.06876
G1 X80.511 Y101.207 E4.06990
G1 X80.679 Y101.208 E4.07372
G1 X80.710 Y101.245 E4.07481
G1 X81.135 Y101.247 E4.08448
G1 X85.193 Y97.188 E4.21495
G1 X85.593 Y97.670 E4.22917
G1 X81.977 Y101.285 E4.34540
G1 X82.170 Y101.286 E4.34977
G1 X82.240 Y101.324 E4.35159
G1 X82.812 Y101.331 E4.36459
G1 X86.065 Y98.078 E4.46917
G1 X86.161 Y98.156 E4.47199
G1 X86.212 Y98.156 E4.47315
G1 X86.259 Y98.194 E4.47452
G1 X86.323 Y98.194 E4.47596
G1 X86.480 Y98.301 E4.48028
G1 X86.588 Y98.312 E4.48275
G1 X86.622 Y98.352 E4.48395
G1 X86.671 Y98.354 E4.48506
G1 X83.574 Y101.450 E4.58461
G1 X83.639 Y101.485 E4.58629
G1 X83.735 Y101.487 E4.58847
G1 X83.805 Y101.525 E4.59027
G1 X84.008 Y101.530 E4.59489
G1 X84.038 Y101.567 E4.59597
G1 X84.173 Y101.570 E4.59905
G1 X84.204 Y101.607 E4.60014
G1 X84.287 Y101.618 E4.60204
G1 X87.352 Y98.553 E4.70057
G1 X87.422 Y98.556 E4.70216
G1 X87.452 Y98.592 E4.70323
G1 X87.588 Y98.596 E4.70633
G1 X87.622 Y98.636 E4.70753
G1 X87.855 Y98.638 E4.71284
G1 X87.885 Y98.674 E4.71389
G1 X88.108 Y98.678 E4.71896
G1 X84.948 Y101.838 E4.82054
G1 X85.081 Y101.863 E4.82360
G1 X85.131 Y101.924 E4.82541
G1 X85.513 Y102.154 E4.83554
G1 X92.253 Y95.414 E5.05222
G1 X92.171 Y95.614 E5.05714
G1 X92.127 Y95.666 E5.05868
G1 X92.124 Y95.757 E5.06075
G1 X92.087 Y95.810 E5.06221
G1 X92.087 Y95.854 E5.06321
G1 X91.974 Y96.127 E5.06993
G1 X91.567 Y96.981 E5.09143
G1 X86.025 Y102.523 E5.26958
G1 X86.260 Y102.725 E5.27662
G1 X86.363 Y102.775 E5.27924
G1 X86.427 Y102.846 E5.28140
G1 X86.524 Y102.905 E5.28398
G1 X91.025 Y98.404 E5.42868
G1 X91.025 Y99.109 E5.44471
G1 X91.515 Y98.519 E5.46216
G1 X91.720 Y98.517 E5.46683
G1 X91.763 Y98.479 E5.46811
G1 X91.834 Y98.476 E5.46973
G1 X87.049 Y103.261 E5.62356
G1 X87.178 Y103.339 E5.62699
G1 X87.364 Y103.374 E5.63129
G1 X87.398 Y103.415 E5.63249
G1 X87.465 Y103.416 E5.63403
G1 X87.497 Y103.455 E5.63517
G1 X87.565 Y103.456 E5.63672
G1 X87.600 Y103.498 E5.63794
G1 X87.686 Y103.504 E5.63992
G1 X92.920 Y98.270 E5.80818
G1 X93.021 Y98.264 E5.81047
G1 X93.046 Y98.234 E5.81136
G1 X93.215 Y98.230 E5.81521
G1 X93.246 Y98.194 E5.81630
G1 X93.306 Y98.194 E5.81767
G1 X93.379 Y98.154 E5.81955
G1 X93.475 Y98.152 E5.82175
G1 X93.541 Y98.116 E5.82346
G1 X93.746 Y98.071 E5.82821
G1 X93.886 Y98.062 E5.83142
G1 X93.911 Y98.032 E5.83230
G1 X94.042 Y98.029 E5.83528
G1 X88.258 Y103.813 E6.02123
G1 X88.392 Y104.020 E6.02684
G1 X88.557 Y104.396 E6.03616
G1 X95.281 Y97.671 E6.25234
G1 X95.340 Y97.671 E6.25368
G1 X95.374 Y97.631 E6.25488
G1 X95.439 Y97.629 E6.25636
G1 X95.508 Y97.591 E6.25814
G1 X95.574 Y97.591 E6.25966
G1 X95.677 Y97.551 E6.26216
G1 X95.847 Y97.541 E6.26604
G1 X95.873 Y97.510 E6.26694
G1 X96.041 Y97.508 E6.27077
G1 X96.072 Y97.470 E6.27188
G1 X96.137 Y97.469 E6.27336
G1 X96.206 Y97.431 E6.27514
G1 X96.339 Y97.430 E6.27818
G1 X96.443 Y97.390 E6.28070
G1 X88.875 Y104.958 E6.52399
G1 X88.884 Y105.008 E6.52514
G1 X89.091 Y105.256 E6.53247
G1 X89.188 Y105.336 E6.53535
G1 X89.224 Y105.336 E6.53616
G1 X89.294 Y105.421 E6.53865
G1 X97.445 Y97.269 E6.80071
G1 X97.570 Y97.268 E6.80354
G1 X97.602 Y97.230 E6.80467
G1 X97.937 Y97.227 E6.81229
G1 X97.967 Y97.190 E6.81337
G1 X98.407 Y97.188 E6.82337
G1 X90.940 Y104.656 E7.06343
G1 X91.624 Y104.653 E7.07898
G1 X91.657 Y104.693 E7.08014
G1 X91.748 Y104.729 E7.08236
G1 X99.367 Y97.110 E7.32730
G1 X100.248 Y97.109 E7.34734
G1 X92.466 Y104.891 E7.59752
G1 X92.586 Y104.935 E7.60041
G1 X92.790 Y104.942 E7.60505
G1 X92.819 Y104.977 E7.60610
G1 X92.988 Y104.981 E7.60993
G1 X93.018 Y105.018 E7.61102
G1 X93.186 Y105.020 E7.61483
G1 X93.200 Y105.038 E7.61534
G1 X101.128 Y97.110 E7.87020
G1 X101.762 Y97.110 E7.88462
G1 X101.793 Y97.073 E7.88574
G1 X102.052 Y97.067 E7.89162
G1 X93.953 Y105.166 E8.15198
G1 E6.15198 F2400.00000
G92 E0
G1 X91.237 Y104.358 F7800.000
G1 E2.00000 F2400.00000
G1 F1800
G1 X89.802 Y105.793 E2.04615
G1 X89.888 Y105.894 E2.04916
G1 X89.920 Y105.894 E2.04990
G1 X90.221 Y106.255 E2.06058
G1 X91.612 Y104.864 E2.10530
G1 X91.703 Y105.075 E2.11052
G1 X91.926 Y105.431 E2.12008
G1 X90.574 Y106.800 E2.16382
G1 X90.642 Y106.891 E2.16642
G1 X90.645 Y106.926 E2.16721
G1 X90.835 Y107.274 E2.17622
G1 X90.893 Y107.345 E2.17831
G1 X92.288 Y105.951 E2.22314
G1 X92.527 Y106.318 E2.23310
G1 X92.585 Y106.451 E2.23640
G1 X92.594 Y106.525 E2.23811
G1 X91.258 Y107.862 E2.28106
G1 X91.372 Y108.011 E2.28535
G1 X91.375 Y108.047 E2.28615
G1 X91.580 Y108.292 E2.29342
G1 X91.580 Y108.334 E2.29438
G1 X91.619 Y108.381 E2.29576
G1 X92.813 Y107.187 E2.33417
G1 X92.864 Y107.310 E2.33719
G1 X92.992 Y107.522 E2.34283
G1 X93.000 Y107.574 E2.34403
G1 X93.102 Y107.779 E2.34922
G1 X91.969 Y108.912 E2.38566
G1 X92.078 Y109.116 E2.39092
G1 X92.077 Y109.462 E2.39878
G1 X91.997 Y109.643 E2.40327
G1 X91.828 Y109.847 E2.40931
G1 X91.644 Y110.018 E2.41499
G1 X91.421 Y110.135 E2.42074
G1 X91.389 Y110.136 E2.42146
G1 X91.357 Y110.175 E2.42260
G1 X91.054 Y110.175 E2.42948
G1 X91.025 Y110.211 E2.43053
G1 X90.956 Y110.212 E2.43208
G1 X90.922 Y110.253 E2.43331
G1 X90.871 Y110.253 E2.43448
G1 X90.788 Y110.333 E2.43708
G1 X90.755 Y110.333 E2.43784
G1 X90.721 Y110.373 E2.43902
G1 X90.686 Y110.373 E2.43983
G1 X90.614 Y110.453 E2.44227
G1 X90.588 Y110.453 E2.44286
G1 X90.378 Y110.706 E2.45036
G1 X90.363 Y110.764 E2.45170
G1 X90.395 Y110.838 E2.45354
G1 X90.422 Y110.838 E2.45416
G1 X90.505 Y110.918 E2.45678
G1 X90.556 Y110.918 E2.45793
G1 X90.589 Y110.959 E2.45914
G1 X90.787 Y110.957 E2.46363
G1 X90.805 Y110.901 E2.46497
G1 X90.910 Y110.770 E2.46879
G1 X90.948 Y110.685 E2.47091
G1 X91.279 Y110.284 E2.48273
G1 X91.377 Y110.275 E2.48496
G1 X91.653 Y110.109 E2.49229
G1 X93.401 Y108.361 E2.54849
G1 X93.612 Y108.628 E2.55622
G1 X93.679 Y108.669 E2.55801
G1 X93.743 Y108.746 E2.56028
G1 X93.897 Y108.746 E2.56379
G1 X92.379 Y110.264 E2.61258
G1 X92.426 Y110.321 E2.61426
G1 X92.546 Y110.599 E2.62113
G1 X92.547 Y110.920 E2.62844
G1 X92.513 Y111.010 E2.63064
G1 X93.794 Y109.730 E2.67180
G1 X93.817 Y109.794 E2.67336
G1 X94.044 Y110.074 E2.68154
G1 X94.077 Y110.074 E2.68229
G1 X94.162 Y110.157 E2.68500
G1 X94.232 Y110.173 E2.68663
G1 X93.784 Y110.620 E2.70101
G1 X94.019 Y110.797 E2.70769
G1 X94.142 Y110.947 E2.71211
G1 X94.142 Y110.984 E2.71294
G1 X94.214 Y111.072 E2.71552
G1 X94.829 Y110.456 E2.73530
G1 X94.908 Y110.470 E2.73712
G1 X94.938 Y110.506 E2.73818
G1 X95.047 Y110.516 E2.74068
G1 X95.154 Y110.630 E2.74424
G1 X95.253 Y110.870 E2.75012
G1 X95.253 Y110.913 E2.75112
G1 X94.521 Y111.646 E2.77466
G1 X92.706 Y111.699 F7800.000
G1 F1800
G1 X92.672 Y111.790 E2.77687
G1 X92.668 Y111.878 E2.77889
G1 X92.576 Y112.024 E2.78280
G1 X92.576 Y112.265 E2.78827
G1 X92.653 Y112.373 E2.79129
G1 X92.756 Y112.380 E2.79363
G1 X92.787 Y112.418 E2.79475
G1 X92.844 Y112.425 E2.79605
G1 X92.851 Y111.871 E2.80864
G1 X92.880 Y111.789 E2.81063
G1 X92.885 Y111.543 E2.81621
G1 X92.914 Y111.491 E2.81756
G1 X92.280 Y112.125 E2.83795
G1 E0.83795 F2400.00000
G92 E0
G1 X100.727 Y105.440 F7800.000
G1 E2.00000 F2400.00000
G1 F1800
G1 X101.791 Y104.377 E2.03419
G1 X101.993 Y104.213 E2.04011
G1 X102.025 Y104.213 E2.04084
G1 X102.317 Y103.849 E2.05144
G1 E0.05144 F2400.00000
G92 E0
G1 X104.697 Y102.350 F7800.000
G1 E2.00000 F2400.00000
G1 F1800
G1 X100.376 Y106.671 E2.13892
G1 X100.393 Y106.729 E2.14029
G1 X100.498 Y106.855 E2.14401
G1 X100.771 Y107.061 E2.15180
G1 X100.861 Y107.068 E2.15383
G1 X104.525 Y103.403 E2.27164
G1 X104.376 Y103.762 E2.28048
G1 X104.228 Y104.000 E2.28685
G1 X103.966 Y104.537 E2.30042
G1 X103.966 Y104.790 E2.30617
G1 X103.995 Y104.814 E2.30704
G1 X101.705 Y107.104 E2.38067
G1 X101.741 Y107.102 E2.38150
G1 X101.778 Y107.067 E2.38265
G1 X101.861 Y107.060 E2.38453
G1 X101.959 Y106.985 E2.38734
G1 X102.029 Y106.981 E2.38894
G1 X102.121 Y106.944 E2.39120
G1 X102.188 Y106.908 E2.39292
G1 X102.224 Y106.866 E2.39418
G1 X102.327 Y106.861 E2.39654
G1 X102.357 Y106.824 E2.39761
G1 X102.495 Y106.819 E2.40073
G1 X102.525 Y106.782 E2.40182
G1 X102.796 Y106.777 E2.40797
G1 X102.827 Y106.740 E2.40906
G1 X102.950 Y106.740 E2.41188
G1 X104.547 Y105.143 E2.46321
G1 X104.621 Y105.183 E2.46512
G1 X104.645 Y105.153 E2.46599
G1 X104.817 Y105.254 E2.47050
G1 X104.848 Y105.291 E2.47161
G1 X105.019 Y105.297 E2.47552
G1 X105.095 Y105.336 E2.47745
G1 X105.234 Y105.337 E2.48062
G1 X103.709 Y106.862 E2.52965
G1 E0.52965 F2400.00000
G92 E0
G1 X106.080 Y107.134 F7800.000
G1 E2.00000 F2400.00000
G1 F1800
G1 X105.548 Y107.666 E2.01711
G1 X105.621 Y107.742 E2.01950
G1 X105.756 Y107.826 E2.02311
G1 X105.915 Y108.018 E2.02880
G1 X105.915 Y108.058 E2.02969
G1 X105.958 Y108.137 E2.03174
G1 X106.444 Y107.651 E2.04736
G1 X106.718 Y107.981 E2.05711
G1 X106.751 Y107.981 E2.05786
G1 X106.818 Y108.060 E2.06022
G1 X106.850 Y108.060 E2.06096
G1 X106.880 Y108.096 E2.06201
G1 X106.314 Y108.662 E2.08021
G1 X106.345 Y108.700 E2.08133
G1 X106.345 Y108.739 E2.08221
G1 X106.677 Y109.141 E2.09407
G1 X106.677 Y109.180 E2.09495
G1 X107.441 Y108.416 E2.11952
G1 X107.493 Y108.436 E2.12079
G1 X107.549 Y108.503 E2.12278
G1 X107.582 Y108.503 E2.12353
G1 X107.616 Y108.543 E2.12473
G1 X107.650 Y108.543 E2.12550
G1 X107.717 Y108.624 E2.12789
G1 X107.748 Y108.624 E2.12860
G1 X107.887 Y108.851 E2.13464
G1 X107.058 Y109.680 E2.16129
G1 E0.16129 F2400.00000
G92 E0
G1 X107.644 Y107.332 F7800.000
G1 E2.00000 F2400.00000
G1 F1800
G1 X108.597 Y106.379 E2.03065
G1 X108.504 Y106.374 E2.03278
G1 X108.478 Y106.343 E2.03369
G1 X108.412 Y106.343 E2.03520
G1 X108.382 Y106.379 E2.03625
G1 X107.743 Y106.378 E2.05078
G1 X107.731 Y106.363 E2.05120
G1 X107.026 Y107.069 E2.07389
G1 X106.957 Y107.066 E2.07545
G1 X106.925 Y107.028 E2.07658
G1 X106.857 Y107.026 E2.07813
G1 X106.823 Y106.985 E2.07934
G1 X106.756 Y106.984 E2.08087
G1 X106.726 Y106.947 E2.08194
G1 X106.658 Y106.945 E2.08349
G1 X106.626 Y106.907 E2.08463
G1 X106.491 Y106.903 E2.08770
G1 X106.460 Y106.866 E2.08879
G1 X106.351 Y106.863 E2.09128
G1 X106.912 Y106.302 E2.10933
G1 X106.711 Y106.297 E2.11391
G1 X106.680 Y106.260 E2.11500
G1 X106.576 Y106.217 E2.11756
G1 X106.376 Y106.168 E2.12225
G1 X106.280 Y106.053 E2.12566
G1 X104.619 Y107.714 E2.17907
G1 X104.619 Y107.680 E2.17984
G1 X104.570 Y107.631 E2.18141
G1 X104.521 Y107.516 E2.18427
G1 X104.521 Y107.457 E2.18560
G1 X104.278 Y107.174 E2.19408
G1 X106.258 Y105.194 E2.25773
G1 X106.307 Y105.080 E2.26054
G1 X106.361 Y105.012 E2.26252
G1 X106.366 Y104.969 E2.26351
G1 X106.578 Y104.713 E2.27107
G1 X106.841 Y104.443 E2.27963
G1 X106.870 Y104.439 E2.28030
G1 X107.004 Y104.284 E2.28495
G1 X107.037 Y104.279 E2.28572
G1 X107.091 Y104.216 E2.28760
G1 X107.148 Y104.184 E2.28908
G1 X107.268 Y104.043 E2.29329
G1 X107.300 Y104.038 E2.29403
G1 X107.393 Y103.926 E2.29735
G1 X107.397 Y103.892 E2.29813
G1 X107.494 Y103.766 E2.30174
G1 X107.613 Y103.488 E2.30862
G1 X107.613 Y103.389 E2.31088
G1 X107.546 Y103.286 E2.31368
G1 X107.525 Y103.214 E2.31536
G1 X107.370 Y103.201 E2.31889
G1 X106.554 Y104.017 E2.34514
G1 X106.631 Y103.898 E2.34836
G1 X106.673 Y103.879 E2.34941
G1 X106.694 Y103.795 E2.35137
G1 X106.772 Y103.700 E2.35418
G1 X106.908 Y103.608 E2.35790
G1 X106.944 Y103.627 E2.35883
G1 E0.35883 F2400.00000
G92 E0
G1 X104.574 Y109.520 F7800.000
G1 E2.00000 F2400.00000
G1 F1800
G1 X104.543 Y109.561 E2.00116
G1 X104.541 Y109.643 E2.00304
G1 X104.510 Y109.681 E2.00414
G1 X104.507 Y109.803 E2.00693
G1 X104.478 Y109.839 E2.00799
G1 X104.477 Y109.973 E2.01103
G1 X104.509 Y110.077 E2.01349
G1 X104.540 Y110.114 E2.01460
G1 X104.541 Y110.156 E2.01554
G1 X104.586 Y110.210 E2.01716
G1 X104.654 Y110.212 E2.01870
G1 X104.688 Y110.170 E2.01993
G1 X104.722 Y110.170 E2.02070
G1 X104.822 Y110.050 E2.02426
G1 X104.849 Y110.050 E2.02486
G1 X104.931 Y109.918 E2.02840
G1 X105.032 Y109.688 E2.03411
G1 X105.033 Y109.594 E2.03625
G1 X105.065 Y109.555 E2.03739
G1 X105.066 Y109.473 E2.03925
G1 X105.097 Y109.436 E2.04035
G1 X105.096 Y109.101 E2.04797
G1 X105.068 Y109.027 E2.04976
G1 X104.148 Y109.947 E2.07932
G1 E0.07932 F2400.00000
G92 E0
G1 X105.437 Y94.563 F7800.000
G1 E2.00000 F2400.00000
G1 F1800
G1 X106.263 Y93.737 E2.02654
G1 X106.261 Y93.630 E2.02897
G1 X106.231 Y93.594 E2.03004
G1 X106.229 Y93.511 E2.03194
G1 X106.173 Y93.405 E2.03465
G1 X106.143 Y93.369 E2.03572
G1 X106.110 Y93.366 E2.03646
G1 X105.944 Y93.175 E2.04222
G1 X105.110 Y94.009 E2.06901
G1 X105.069 Y93.958 E2.07050
G1 X104.949 Y93.693 E2.07711
G1 X104.949 Y93.659 E2.07788
G1 X104.802 Y93.436 E2.08395
G1 X105.529 Y92.709 E2.10732
G1 X105.129 Y92.228 E2.12154
G1 X104.349 Y93.008 E2.14663
G1 X104.244 Y92.882 E2.15036
G1 X104.062 Y93.102 E2.15684
G1 X104.030 Y93.102 E2.15757
G1 X103.824 Y93.308 E2.16421
G1 X103.787 Y93.310 E2.16503
G1 X103.732 Y93.377 E2.16700
G1 X103.592 Y93.467 E2.17078
G1 X103.554 Y93.469 E2.17164
G1 X103.498 Y93.538 E2.17366
G1 X103.293 Y93.660 E2.17908
G1 X103.062 Y93.670 E2.18435
G1 X103.060 Y93.742 E2.18597
G1 X102.989 Y93.745 E2.18758
G1 X102.961 Y93.779 E2.18858
G1 X102.765 Y93.821 E2.19312
G1 X102.692 Y93.862 E2.19502
G1 X102.613 Y93.867 E2.19683
G1 X102.574 Y93.902 E2.19802
G1 X104.766 Y91.710 E2.26848
G1 X104.626 Y91.496 E2.27430
G1 X104.626 Y91.441 E2.27554
G1 X104.530 Y91.225 E2.28091
G1 X104.528 Y91.067 E2.28451
G1 X99.896 Y95.699 E2.43342
G1 X99.770 Y95.549 E2.43790
G1 X99.701 Y95.503 E2.43977
G1 X99.479 Y95.235 E2.44767
G1 X106.194 Y88.520 E2.66355
G1 X106.040 Y88.116 E2.67338
G1 X105.894 Y87.939 E2.67859
G1 X105.356 Y88.478 E2.69590
G1 X105.358 Y88.396 E2.69775
G1 X105.428 Y88.321 E2.70009
G1 X105.468 Y88.366 E2.70144
G1 E0.70144 F2400.00000
G92 E0
G1 X102.902 Y88.289 F7800.000
G1 E2.00000 F2400.00000
G1 F1800
G1 X102.887 Y88.230 E2.00138
G1 X102.826 Y88.156 E2.00355
G1 X102.729 Y88.112 E2.00598
G1 X102.613 Y88.104 E2.00862
G1 X102.577 Y88.071 E2.00974
G1 X102.461 Y88.065 E2.01238
G1 X102.394 Y87.985 E2.01475
G1 X102.397 Y88.332 E2.02264
G1 X102.424 Y88.378 E2.02385
G1 X102.429 Y88.649 E2.03000
G1 X102.457 Y88.676 E2.03089
G1 X102.458 Y88.733 E2.03217
G1 X103.328 Y87.863 E2.06014
G1 X103.391 Y88.145 E2.06673
G1 X103.395 Y88.385 E2.07218
G1 X103.424 Y88.467 E2.07415
G1 X103.428 Y88.644 E2.07818
G1 X102.590 Y89.482 E2.10511
G1 X102.651 Y89.665 E2.10950
G1 X102.661 Y89.816 E2.11295
G1 X102.722 Y89.973 E2.11679
G1 X102.759 Y90.166 E2.12125
G1 X102.770 Y90.182 E2.12170
G1 X103.561 Y89.392 E2.14710
G1 X103.626 Y89.557 E2.15114
G1 X103.631 Y89.646 E2.15316
G1 X103.660 Y89.691 E2.15437
G1 X103.668 Y89.817 E2.15724
G1 X103.706 Y89.868 E2.15869
G1 X103.747 Y90.086 E2.16375
G1 X102.687 Y91.146 E2.19782
G1 X102.714 Y91.178 E2.19877
G1 X102.714 Y91.459 E2.20516
G1 X102.528 Y91.690 E2.21189
G1 X102.159 Y92.019 E2.22312
G1 X102.121 Y92.019 E2.22400
G1 X101.594 Y92.339 E2.23801
G1 X101.547 Y92.397 E2.23971
G1 X101.435 Y92.415 E2.24227
G1 X101.364 Y92.470 E2.24431
G1 X99.188 Y94.645 E2.31425
G1 E0.31425 F2400.00000
G92 E0
G1 X102.698 Y93.778 F7800.000
G1 E2.00000 F2400.00000
G1 F1800
G1 X100.394 Y96.082 E2.07407
G1 X100.944 Y96.413 E2.08866
G1 X102.838 Y94.519 E2.14955
G1 X102.924 Y94.625 E2.15265
G1 X102.957 Y94.625 E2.15338
G1 X103.029 Y94.669 E2.15532
G1 X103.106 Y94.738 E2.15766
G1 X103.184 Y94.743 E2.15945
G1 X103.386 Y94.825 E2.16440
G1 X103.398 Y94.840 E2.16483
G1 X101.493 Y96.745 E2.22607
G1 X101.562 Y96.825 E2.22848
G1 X101.671 Y96.881 E2.23126
G1 X101.905 Y97.164 E2.23961
G1 X101.662 Y97.457 E2.24827
G1 X104.055 Y95.064 E2.32521
G1 X104.125 Y95.090 E2.32689
G1 X104.430 Y95.307 E2.33541
G1 X104.522 Y95.350 E2.33773
G1 X104.581 Y95.419 E2.33978
G1 X94.779 Y105.221 E2.65492
G1 X94.913 Y105.222 E2.65799
G1 X94.946 Y105.261 E2.65914
G1 X95.620 Y105.261 E2.67447
G1 X104.929 Y95.952 E2.97372
G1 X104.925 Y96.125 E2.97765
G1 X104.897 Y96.170 E2.97886
G1 X104.894 Y96.236 E2.98036
G1 X104.865 Y96.272 E2.98141
G1 X104.861 Y96.370 E2.98365
G1 X104.697 Y96.657 E2.99116
G1 X104.699 Y97.063 E3.00038
G1 X96.620 Y105.142 E3.26011
G1 X96.878 Y105.141 E3.26596
G1 X97.077 Y105.100 E3.27059
G1 X97.110 Y105.061 E3.27175
G1 X97.277 Y105.061 E3.27554
G1 X97.309 Y105.021 E3.27671
G1 X97.443 Y105.021 E3.27974
G1 X97.473 Y104.985 E3.28080
G1 X97.681 Y104.962 E3.28557
G1 X105.413 Y97.229 E3.53416
G1 X105.517 Y97.233 E3.53650
G1 X105.546 Y97.268 E3.53755
G1 X105.683 Y97.272 E3.54066
G1 X105.704 Y97.298 E3.54143
G1 X105.832 Y97.310 E3.54434
G1 X105.941 Y97.343 E3.54694
G1 X105.980 Y97.389 E3.54833
G1 X106.082 Y97.392 E3.55065
G1 X106.105 Y97.419 E3.55144
G1 X99.066 Y104.458 E3.77774
G1 X99.265 Y104.418 E3.78236
G1 X99.526 Y104.313 E3.78875
G1 X99.571 Y104.259 E3.79036
G1 X99.638 Y104.258 E3.79188
G1 X99.672 Y104.217 E3.79308
G1 X99.722 Y104.217 E3.79423
G1 X99.769 Y104.179 E3.79560
G1 X99.803 Y104.179 E3.79637
G1 X99.835 Y104.139 E3.79753
G1 X99.903 Y104.138 E3.79906
G1 X99.935 Y104.100 E3.80019
G1 X100.002 Y104.098 E3.80172
G1 X100.038 Y104.055 E3.80300
G1 X100.100 Y104.055 E3.80443
G1 X100.201 Y104.013 E3.80691
G1 X100.505 Y103.850 E3.81475
G1 X100.563 Y103.779 E3.81683
G1 X100.629 Y103.776 E3.81832
G1 X106.852 Y97.553 E4.01838
G1 X106.882 Y97.554 E4.01906
G1 X106.911 Y97.589 E4.02012
G1 X107.114 Y97.594 E4.02473
G1 X107.144 Y97.629 E4.02579
G1 X107.349 Y97.634 E4.03045
G1 X107.419 Y97.671 E4.03225
G1 X107.513 Y97.674 E4.03440
G1 X107.543 Y97.709 E4.03546
G1 X107.575 Y97.710 E4.03619
G1 X101.875 Y103.411 E4.21947
G1 X102.122 Y103.417 E4.22510
G1 X102.122 Y103.886 E4.23574
G1 X102.054 Y103.970 E4.23821
G1 X102.051 Y104.017 E4.23927
G1 X101.972 Y104.117 E4.24218
G1 X101.891 Y104.248 E4.24567
G1 X101.891 Y104.276 E4.24630
G1 X108.296 Y97.870 E4.45223
G1 X108.310 Y97.871 E4.45255
G1 X108.310 Y97.906 E4.45335
G1 X108.577 Y97.914 E4.45941
G1 X108.605 Y97.949 E4.46044
G1 X108.709 Y97.953 E4.46279
G1 X108.739 Y97.990 E4.46386
G1 X108.876 Y97.994 E4.46697
G1 X108.896 Y98.019 E4.46771
G1 X109.016 Y98.031 E4.47045
G1 X106.490 Y100.558 E4.55167
G1 X106.555 Y100.519 E4.55340
G1 X106.612 Y100.450 E4.55545
G1 X106.716 Y100.441 E4.55780
G1 X106.788 Y100.399 E4.55970
G1 X106.847 Y100.328 E4.56180
G1 X106.916 Y100.323 E4.56338
G1 X106.947 Y100.286 E4.56448
G1 X107.016 Y100.282 E4.56606
G1 X107.047 Y100.246 E4.56714
G1 X107.213 Y100.205 E4.57103
G1 X107.247 Y100.165 E4.57223
G1 X107.516 Y100.120 E4.57844
G1 X107.548 Y100.082 E4.57956
G1 X107.812 Y100.075 E4.58557
G1 X107.850 Y100.038 E4.58678
G1 X107.891 Y100.038 E4.58771
G1 X109.694 Y98.235 E4.64567
G1 X109.740 Y98.237 E4.64674
G1 X109.768 Y98.270 E4.64774
G1 X109.872 Y98.275 E4.65010
G1 X109.902 Y98.311 E4.65115
G1 X110.057 Y98.318 E4.65469
G1 X110.099 Y98.355 E4.65595
G1 X110.211 Y98.359 E4.65852
G1 X110.279 Y98.395 E4.66027
G1 X110.357 Y98.399 E4.66204
G1 X110.385 Y98.424 E4.66290
G1 X108.734 Y100.075 E4.71599
G1 X108.959 Y100.081 E4.72112
G1 X109.000 Y100.117 E4.72236
G1 X109.078 Y100.119 E4.72412
G1 X109.147 Y100.156 E4.72590
G1 X109.244 Y100.160 E4.72812
G1 X109.314 Y100.196 E4.72991
G1 X109.475 Y100.215 E4.73361
G1 X111.129 Y98.561 E4.78677
G1 X111.180 Y98.562 E4.78794
G1 X111.252 Y98.599 E4.78976
G1 X111.959 Y98.599 E4.80583
G1 X111.985 Y98.586 E4.80652
G1 X110.134 Y100.437 E4.86605
G1 X110.198 Y100.444 E4.86751
G1 X110.235 Y100.478 E4.86866
G1 X110.344 Y100.516 E4.87129
G1 X110.487 Y100.522 E4.87454
G1 X110.517 Y100.558 E4.87562
G1 X110.575 Y100.561 E4.87694
G1 X110.643 Y100.597 E4.87869
G1 X110.740 Y100.601 E4.88090
G1 X110.816 Y100.636 E4.88280
G1 X113.175 Y98.277 E4.95864
G1 X113.256 Y98.271 E4.96049
G1 X113.295 Y98.234 E4.96169
G1 X113.435 Y98.202 E4.96497
G1 X113.473 Y98.157 E4.96630
G1 X113.499 Y98.156 E4.96690
G1 X113.604 Y98.077 E4.96987
G1 X113.856 Y97.959 E4.97621
G1 X114.040 Y97.834 E4.98127
G1 X114.127 Y97.826 E4.98324
G1 X114.180 Y97.800 E4.98458
G1 X114.258 Y97.722 E4.98709
G1 X114.409 Y97.640 E4.99100
G1 X114.446 Y97.640 E4.99183
G1 X114.527 Y97.560 E4.99443
G1 X114.598 Y97.560 E4.99604
G1 X114.707 Y97.458 E4.99944
G1 X114.779 Y97.439 E5.00112
G1 X114.840 Y97.377 E5.00311
G1 X114.912 Y97.359 E5.00478
G1 X114.990 Y97.281 E5.00730
G1 X115.120 Y97.213 E5.01063
G1 X111.771 Y100.562 E5.11830
G1 X111.845 Y100.558 E5.11999
G1 X111.957 Y100.518 E5.12269
G1 X111.993 Y100.485 E5.12381
G1 X112.038 Y100.482 E5.12484
G1 X112.059 Y100.457 E5.12558
G1 X112.172 Y100.440 E5.12817
G1 X112.273 Y100.366 E5.13102
G1 X112.337 Y100.360 E5.13250
G1 X112.551 Y100.232 E5.13817
G1 X112.678 Y100.112 E5.14212
G1 X112.748 Y100.112 E5.14373
G1 X112.811 Y100.074 E5.14541
G1 X112.919 Y99.953 E5.14910
G1 X112.978 Y99.953 E5.15043
G1 X113.109 Y99.874 E5.15389
G1 X113.710 Y99.431 E5.17087
G1 X113.775 Y99.358 E5.17310
G1 X113.872 Y99.314 E5.17553
G1 X113.979 Y99.190 E5.17924
G1 X114.024 Y99.189 E5.18027
G1 X116.787 Y96.427 E5.26908
G1 X116.868 Y96.424 E5.27092
G1 X116.897 Y96.389 E5.27195
G1 X116.994 Y96.350 E5.27433
G1 X117.166 Y96.344 E5.27824
G1 X117.195 Y96.308 E5.27929
G1 X117.257 Y96.307 E5.28071
G1 X117.327 Y96.269 E5.28250
G1 X117.530 Y96.264 E5.28713
G1 X117.560 Y96.229 E5.28819
G1 X117.687 Y96.228 E5.29107
G1 X117.758 Y96.189 E5.29291
G1 X117.907 Y96.187 E5.29630
G1 X115.938 Y98.156 E5.35960
G1 X116.036 Y98.151 E5.36182
G1 X116.132 Y98.112 E5.36419
G1 X116.161 Y98.077 E5.36522
G1 X116.299 Y98.072 E5.36835
G1 X116.329 Y98.035 E5.36944
G1 X116.492 Y98.030 E5.37315
G1 X116.528 Y97.994 E5.37430
G1 X116.699 Y97.990 E5.37819
G1 X116.729 Y97.954 E5.37925
G1 X117.026 Y97.950 E5.38600
G1 X118.827 Y96.148 E5.44391
G1 X118.858 Y96.148 E5.44461
G1 X118.887 Y96.183 E5.44564
G1 X119.020 Y96.186 E5.44866
G1 X119.089 Y96.225 E5.45048
G1 X119.153 Y96.226 E5.45192
G1 X119.260 Y96.271 E5.45455
G1 X119.319 Y96.342 E5.45664
G1 X119.416 Y96.345 E5.45886
G1 X119.476 Y96.381 E5.46044
G1 X117.944 Y97.913 E5.50968
G1 X118.101 Y97.913 E5.51324
G1 X118.131 Y97.949 E5.51432
G1 X118.535 Y97.955 E5.52349
G1 X118.565 Y97.991 E5.52456
G1 X118.691 Y97.994 E5.52743
G1 X118.725 Y98.012 E5.52832
G1 X120.037 Y96.700 E5.57049
G1 X120.158 Y96.831 E5.57452
G1 X120.220 Y96.831 E5.57594
G1 X120.321 Y96.912 E5.57889
G1 X120.357 Y96.914 E5.57972
G1 X120.457 Y97.032 E5.58322
G1 X120.520 Y97.032 E5.58464
G1 X120.561 Y97.058 E5.58575
G1 X119.373 Y98.245 E5.62394
G1 X119.524 Y98.349 E5.62811
G1 X119.593 Y98.349 E5.62968
G1 X119.725 Y98.470 E5.63374
G1 X119.785 Y98.470 E5.63511
G1 X119.890 Y98.590 E5.63873
G1 X119.909 Y98.590 E5.63916
G1 X121.060 Y97.439 E5.67616
G1 X121.542 Y97.838 E5.69039
G1 X120.406 Y98.974 E5.72691
G1 X120.657 Y99.190 E5.73443
G1 X120.703 Y99.190 E5.73548
G1 X120.787 Y99.269 E5.73810
G1 X120.821 Y99.269 E5.73887
G1 X120.898 Y99.363 E5.74163
G1 X122.019 Y98.242 E5.77766
G1 X122.474 Y98.668 E5.79183
G1 X121.439 Y99.703 E5.82511
G1 X121.567 Y99.750 E5.82821
G1 X121.618 Y99.800 E5.82984
G1 X121.661 Y99.804 E5.83081
G1 X121.718 Y99.846 E5.83243
G1 X121.838 Y99.878 E5.83524
G1 X121.881 Y99.918 E5.83658
G1 X121.944 Y99.923 E5.83801
G1 X122.038 Y99.985 E5.84058
G1 X122.907 Y99.116 E5.86853
G1 X123.238 Y99.516 E5.88032
G1 X123.289 Y99.615 E5.88286
G1 X122.738 Y100.166 E5.90060
G1 E3.90060 F2400.00000
G92 E0
G1 X101.622 Y91.331 F7800.000
G1 E2.00000 F2400.00000
G1 F1800
G1 X102.391 Y90.561 E2.02475
G1 X102.272 Y90.492 E2.02789
G1 X102.227 Y90.492 E2.02891
G1 X101.987 Y90.205 E2.03741
G1 X101.978 Y90.166 E2.03831
G1 X101.920 Y90.152 E2.03968
G1 X101.046 Y91.025 E2.06776
G1 X100.959 Y90.850 E2.07222
G1 X100.954 Y90.676 E2.07617
G1 X101.030 Y90.676 E2.07789
G1 X101.170 Y90.596 E2.08158
G1 X101.274 Y90.591 E2.08394
G1 X101.298 Y90.563 E2.08477
G1 X101.494 Y90.578 E2.08924
G1 E0.08924 F2400.00000
G92 E0
G1 X92.489 Y92.535 F7800.000
G1 E2.00000 F2400.00000
G1 F1800
G1 X93.705 Y91.319 E2.03909
G1 X93.659 Y91.303 E2.04020
G1 X93.222 Y91.306 E2.05013
G1 X93.194 Y91.330 E2.05098
G1 X93.049 Y91.343 E2.05430
G1 X92.759 Y91.678 E2.06437
G1 X92.726 Y91.684 E2.06512
G1 X92.685 Y91.734 E2.06661
G1 X92.404 Y91.899 E2.07401
G1 X92.245 Y91.899 E2.07762
G1 X90.013 Y94.130 E2.14937
G1 X89.957 Y94.096 E2.15087
G1 X89.894 Y94.020 E2.15312
G1 X89.490 Y94.020 E2.16230
G1 X89.426 Y94.097 E2.16457
G1 X89.189 Y94.263 E2.17115
G1 X89.131 Y94.333 E2.17323
G1 X89.089 Y94.334 E2.17418
G1 X89.065 Y94.306 E2.17502
G1 X88.959 Y94.303 E2.17743
G1 X90.171 Y93.091 E2.21640
G1 X90.043 Y93.142 E2.21955
G1 X89.696 Y93.146 E2.22743
G1 X89.656 Y93.180 E2.22862
G1 X89.348 Y93.183 E2.23563
G1 X89.250 Y93.222 E2.23802
G1 X89.191 Y93.293 E2.24013
G1 X89.092 Y93.296 E2.24239
G1 X88.457 Y93.925 E2.26270
G1 X88.459 Y93.844 E2.26454
G1 X88.493 Y93.844 E2.26532
G1 X88.528 Y93.803 E2.26654
G1 X88.560 Y93.802 E2.26728
G1 X88.648 Y93.733 E2.26982
G1 X90.148 Y93.114 F7800.000
G1 F1800
G1 X91.754 Y91.508 E2.32145
G1 X91.751 Y90.962 E2.33387
G1 X91.782 Y90.910 E2.33524
G1 X91.851 Y90.530 E2.34403
G1 X91.287 Y91.095 E2.36218
G1 X91.282 Y90.469 E2.37641
G1 X91.251 Y90.385 E2.37845
G1 X91.249 Y90.251 E2.38148
G1 X91.959 Y89.542 E2.40429
G1 E0.40429 F2400.00000
G92 E0
G1 X89.146 Y90.593 F7800.000
G1 E2.00000 F2400.00000
G1 F1800
G1 X89.060 Y90.591 E2.00195
G1 X89.017 Y90.668 E2.00395
G1 X89.035 Y90.704 E2.00486
G1 X89.572 Y90.166 E2.02214
G1 X89.619 Y90.167 E2.02320
G1 X89.649 Y90.204 E2.02429
G1 X89.782 Y90.208 E2.02730
G1 X89.879 Y90.283 E2.03009
G1 X89.913 Y90.285 E2.03088
G1 X89.953 Y90.333 E2.03229
G1 X90.022 Y90.335 E2.03385
G1 X90.108 Y90.436 E2.03688
G1 X90.130 Y90.439 E2.03737
G1 X90.143 Y90.476 E2.03828
G1 X89.283 Y91.336 E2.06593
G1 X89.468 Y91.659 E2.07438
G1 X89.640 Y91.861 E2.08040
G1 X90.386 Y91.115 E2.10439
G1 X90.472 Y91.322 E2.10949
G1 X90.746 Y91.635 E2.11896
G1 X90.001 Y92.381 E2.14293
G1 E0.14293 F2400.00000
G92 E0
G1 X92.068 Y92.956 F7800.000
G1 E2.00000 F2400.00000
G1 F1800
G1 X90.428 Y94.597 E2.05275
G1 X90.450 Y94.628 E2.05363
G1 X90.450 Y94.706 E2.05540
G1 X90.483 Y94.805 E2.05777
G1 X90.483 Y95.158 E2.06579
G1 X90.309 Y95.596 E2.07649
G1 X92.222 Y93.684 E2.13797
G1 X92.258 Y93.859 E2.14204
G1 X92.288 Y93.904 E2.14328
G1 X92.298 Y94.006 E2.14560
G1 X92.354 Y94.142 E2.14894
G1 X92.390 Y94.396 E2.15478
G1 X89.450 Y97.336 E2.24930
G1 E0.24930 F2400.00000
G92 E0
G1 X93.639 Y98.433 F7800.000
G1 E2.00000 F2400.00000
G1 F1800
G1 X94.080 Y97.992 E2.01417
M104 S200 ; set temperature
G1 Z0.700 F7800.000
G1 E0.01417 F2400.00000
G92 E0
G1 X91.384 Y99.098 F7800.000
G1 E2.00000 F2400.00000
G1 F4800
G1 X91.340 Y99.107 E2.00126
G1 X91.332 Y99.065 E2.00245
G1 X90.971 Y99.014 E2.01256
G1 X90.997 Y98.823 E2.01791
G1 X90.992 Y98.705 E2.02119
G1 X89.409 Y97.123 E2.08337
G1 X89.621 Y96.563 E2.09999
G1 X91.175 Y98.117 E2.16103
G1 X91.432 Y97.603 E2.17700
G1 X89.879 Y96.049 E2.23803
G1 X90.155 Y95.554 E2.25378
G1 X91.694 Y97.093 E2.31424
G1 X91.936 Y96.564 E2.33042
G1 X90.410 Y95.038 E2.39036
G1 X90.505 Y94.713 E2.39976
G1 X90.512 Y94.469 E2.40655
G1 X90.494 Y94.351 E2.40986
G1 X92.160 Y96.017 E2.47530
G1 X92.355 Y95.441 E2.49220
G1 X90.007 Y93.092 E2.58446
G1 X90.133 Y92.954 E2.58966
G1 X90.071 Y92.869 E2.59256
G1 X90.150 Y92.709 E2.59754
G1 X90.187 Y92.501 E2.60341
G1 X92.352 Y94.666 E2.68848
G1 X89.995 Y93.852 F7800.000
G1 F4800
G1 X89.478 Y93.335 E2.70878
G1 X88.999 Y93.322 E2.72210
G1 X88.744 Y93.372 E2.72932
G1 X89.511 Y94.139 E2.75946
G1 X89.429 Y94.174 E2.76193
G1 X89.083 Y94.178 E2.77156
G1 X88.901 Y94.031 E2.77804
G1 X88.837 Y93.914 E2.78177
G1 X88.837 Y93.822 E2.78433
G1 X88.855 Y93.800 E2.78512
G1 X89.126 Y93.754 E2.79274
G1 E0.79274 F2400.00000
G92 E0
G1 X90.452 Y91.995 F7800.000
G1 E2.00000 F2400.00000
G1 F4800
G1 X89.230 Y90.773 E2.04799
G1 X89.060 Y90.427 E2.05869
G1 X89.035 Y90.311 E2.06200
G1 X89.116 Y90.272 E2.06450
G1 X89.400 Y90.272 E2.07240
G1 X89.407 Y90.244 E2.07318
G1 X89.546 Y90.317 E2.07755
G1 X90.097 Y90.868 E2.09919
G1 X90.070 Y91.613 F7800.000
G1 F4800
G1 X92.048 Y93.591 E2.17690
G1 X92.041 Y93.423 E2.18157
G1 X92.104 Y93.215 E2.18761
G1 X92.182 Y93.054 E2.19257
G1 X92.096 Y92.983 E2.19567
G1 X92.144 Y92.915 E2.19799
G1 X91.000 Y91.772 E2.24290
G1 X91.174 Y91.630 E2.24911
G1 X91.236 Y91.553 E2.25187
G1 X91.399 Y91.860 E2.26153
G1 X91.452 Y91.839 E2.26311
G1 X91.430 Y91.913 E2.26527
G1 X91.707 Y92.048 E2.27382
G1 X91.890 Y92.077 E2.27897
G1 X92.063 Y92.063 E2.28379
G1 X92.509 Y92.509 E2.30132
G1 X92.817 Y92.376 E2.31065
G1 X93.114 Y92.342 E2.31894
G1 X92.516 Y91.744 E2.34244
G1 X92.674 Y91.585 E2.34867
G1 X92.741 Y91.542 E2.35089
G1 X92.916 Y91.504 E2.35586
G1 X93.046 Y91.503 E2.35946
G1 X93.602 Y92.059 E2.38130
G1 E0.38130 F2400.00000
G92 E0
G1 X91.920 Y90.377 F7800.000
G1 E2.00000 F2400.00000
G1 F4800
G1 X91.279 Y89.737 E2.02514
G1 X91.267 Y89.583 E2.02944
G1 X91.286 Y89.403 E2.03445
G1 X91.339 Y89.348 E2.03658
G1 X91.472 Y89.433 E2.04096
G1 X91.545 Y89.532 E2.04438
G1 X91.575 Y89.619 E2.04695
G1 X91.538 Y89.995 E2.05743
G1 X91.003 Y98.716 F7800.000
G1 F4800
G1 X97.407 Y105.120 E2.30901
G1 X97.546 Y105.094 E2.31293
G1 X97.587 Y105.056 E2.31449
G1 X97.727 Y105.054 E2.31836
G1 X97.764 Y105.017 E2.31984
G1 X97.862 Y105.015 E2.32256
G1 X97.892 Y104.979 E2.32388
G1 X98.033 Y104.975 E2.32779
G1 X91.643 Y98.585 E2.57882
G1 X92.094 Y98.483 E2.59167
G1 X92.073 Y98.384 E2.59450
G1 X92.187 Y98.358 E2.59776
G1 X98.607 Y104.777 E2.84995
G1 X98.939 Y104.693 E2.85946
G1 X99.185 Y104.585 E2.86694
G1 X92.820 Y98.220 E3.11698
G1 X93.341 Y98.097 E3.13185
G1 X93.390 Y98.186 E3.13464
G1 X93.534 Y98.162 E3.13871
G1 X99.761 Y104.389 E3.38332
G1 X100.084 Y104.253 E3.39305
G1 X100.176 Y104.182 E3.39629
G1 X100.159 Y104.125 E3.39794
G1 X100.230 Y104.087 E3.40018
G1 X94.138 Y97.995 E3.63951
G1 X94.735 Y97.821 E3.65679
G1 X100.731 Y103.816 E3.89232
G1 X100.979 Y103.674 E3.90026
G1 X101.035 Y103.768 E3.90332
G1 X101.064 Y103.754 E3.90422
G1 X101.026 Y103.656 E3.90716
G1 X101.249 Y103.563 E3.91388
G1 X95.347 Y97.661 E4.14576
G1 X95.390 Y97.650 E4.14701
G1 X95.400 Y97.667 E4.14755
G1 X95.691 Y97.584 E4.15596
G1 X95.986 Y97.529 E4.16429
G1 X101.808 Y103.350 E4.39298
G1 X102.142 Y103.244 E4.40273
G1 X102.480 Y103.252 E4.41213
G1 X96.664 Y97.435 E4.64063
G1 X97.340 Y97.340 E4.65960
G1 X104.289 Y104.289 E4.93256
G1 X104.388 Y104.101 E4.93846
G1 X104.524 Y103.753 E4.94884
G1 X98.050 Y97.279 E5.20318
G1 X98.409 Y97.265 E5.21317
G1 X98.409 Y97.232 E5.21408
G1 X98.442 Y97.293 E5.21602
G1 X98.776 Y97.233 E5.22546
G1 X104.672 Y103.130 E5.45709
G1 X104.691 Y102.736 E5.46803
G1 X104.733 Y102.419 E5.47692
G1 X99.437 Y97.123 E5.68497
G1 X99.677 Y97.123 E5.69161
G1 X99.652 Y97.228 E5.69462
G1 X100.288 Y97.203 E5.71230
G1 X104.990 Y101.905 E5.89702
G1 X104.943 Y101.829 E5.89951
G1 X105.186 Y101.600 E5.90879
G1 X105.341 Y101.484 E5.91416
G1 X101.095 Y97.238 E6.08094
G1 X101.269 Y97.235 E6.08576
G1 X101.281 Y97.269 E6.08678
G1 X101.630 Y97.173 E6.09682
G1 X101.745 Y97.117 E6.10038
G1 X105.855 Y101.227 E6.26182
G1 X106.301 Y100.902 E6.27715
G1 X99.187 Y93.787 E6.55663
G1 X99.212 Y93.674 E6.55987
G1 X99.287 Y93.502 E6.56507
G1 X99.339 Y93.480 E6.56662
G1 X99.355 Y93.399 E6.56894
G1 X99.441 Y93.271 E6.57323
G1 X106.683 Y100.512 E6.85770
G1 X106.823 Y100.414 E6.86246
G1 X107.113 Y100.292 E6.87121
G1 X107.103 Y100.267 E6.87197
G1 X107.176 Y100.234 E6.87418
G1 X99.897 Y92.955 E7.16011
G1 X100.447 Y92.734 E7.17658
G1 X104.724 Y97.010 E7.34460
G1 X104.834 Y96.750 E7.35245
G1 X104.903 Y96.418 E7.36187
G1 X103.885 Y95.400 E7.40184
G1 X103.355 Y95.240 E7.41723
G1 X103.082 Y95.133 E7.42536
G1 X102.852 Y94.964 E7.43330
G1 X102.761 Y94.853 E7.43730
G1 X102.695 Y94.735 E7.44103
G1 X102.624 Y94.519 E7.44736
G1 X102.627 Y94.368 E7.45156
G1 X102.686 Y94.202 E7.45646
G1 X100.973 Y92.489 E7.52376
G1 X101.471 Y92.215 E7.53954
G1 X103.086 Y93.830 E7.60297
G1 X103.663 Y93.636 E7.61989
G1 X101.926 Y91.898 E7.68814
G1 X102.154 Y91.678 E7.69696
G1 X102.277 Y91.479 E7.70346
G1 X104.158 Y93.360 E7.77734
G1 E5.77734 F2400.00000
G92 E0
G1 X104.502 Y91.389 F7800.000
G1 E2.00000 F2400.00000
G1 F4800
G1 X102.921 Y89.809 E2.06208
G1 X102.927 Y89.833 E2.06279
G1 X102.821 Y89.864 E2.06584
G1 X102.831 Y90.047 E2.07093
G1 X102.811 Y90.201 E2.07524
G1 X102.738 Y90.397 E2.08103
G1 X106.178 Y93.836 E2.21616
G1 X106.223 Y93.905 E2.21843
G1 X106.231 Y93.982 E2.22061
G1 X106.255 Y94.016 E2.22174
G1 X106.276 Y94.194 E2.22671
G1 X106.225 Y94.509 E2.23559
G1 X106.198 Y94.554 E2.23705
G1 X106.150 Y94.580 E2.23856
G1 X105.026 Y93.456 E2.28272
G1 X104.944 Y93.255 E2.28876
G1 X104.819 Y93.059 E2.29522
G1 X104.647 Y92.851 E2.30272
G1 X104.466 Y92.710 E2.30909
G1 X104.419 Y92.709 E2.31038
G1 X104.306 Y92.598 E2.31480
G1 X104.225 Y92.655 E2.31754
G1 X102.326 Y90.756 E2.39214
G1 X102.026 Y90.729 E2.40049
G1 X101.912 Y90.693 E2.40381
G1 X101.914 Y90.671 E2.40442
G1 X101.651 Y90.527 E2.41277
G1 X101.717 Y90.402 E2.41667
G1 X101.252 Y90.226 E2.43047
G1 X101.265 Y90.315 E2.43296
G1 X101.141 Y90.342 E2.43651
G1 X101.973 Y91.175 E2.46923
G1 X101.824 Y91.166 E2.47337
G1 X101.521 Y91.080 E2.48215
G1 X101.415 Y90.950 E2.48678
G1 X101.434 Y90.948 E2.48732
G1 X101.437 Y90.742 E2.49302
G1 X101.522 Y90.724 E2.49545
G1 E0.49545 F2400.00000
G92 E0
G1 X103.990 Y90.106 F7800.000
G1 E2.00000 F2400.00000
G1 F4800
G1 X104.601 Y90.717 E2.02401
G1 X104.803 Y90.499 E2.03226
G1 X104.993 Y90.338 E2.03919
G1 X104.439 Y89.783 E2.06096
G1 X104.595 Y89.655 E2.06657
G1 X104.836 Y89.409 E2.07614
G1 X105.515 Y90.088 E2.10280
G1 X105.702 Y89.948 E2.10930
G1 X105.934 Y89.736 E2.11803
G1 X105.098 Y88.900 E2.15088
G1 X105.241 Y88.639 E2.15915
G1 X105.342 Y88.376 E2.16696
G1 X106.204 Y89.235 E2.20074
G1 X104.372 Y90.488 F7800.000
G1 F4800
G1 X104.114 Y90.632 E2.20895
G1 X104.047 Y90.522 E2.21250
G1 X103.852 Y90.511 E2.21793
G1 X103.710 Y90.356 E2.22376
G1 X103.596 Y90.057 E2.23264
G1 X103.467 Y89.583 E2.24629
G1 X102.551 Y88.667 E2.28229
G1 X102.483 Y88.189 E2.29569
G1 X102.556 Y88.189 E2.29771
G1 X102.559 Y87.904 E2.30563
G1 X103.349 Y88.694 E2.33666
G1 E0.33666 F2400.00000
G92 E0
G1 X99.636 Y95.008 F7800.000
G1 E2.00000 F2400.00000
G1 F4800
G1 X100.466 Y95.838 E2.03261
G1 X105.095 Y97.381 F7800.000
G1 F4800
G1 X107.726 Y100.012 E2.13597
G1 X108.048 Y99.927 E2.14523
G1 X108.365 Y99.881 E2.15414
G1 X106.121 Y97.637 E2.24229
G1 X107.052 Y97.796 E2.26851
G1 X109.160 Y99.904 E2.35132
G1 X109.546 Y99.973 E2.36220
G1 X110.179 Y100.151 E2.38048
G1 X108.061 Y98.033 E2.46368
G1 X109.136 Y98.337 E2.49470
G1 X111.255 Y100.456 E2.57796
G1 X111.683 Y100.488 E2.58988
G1 X112.011 Y100.441 E2.59907
G1 X110.209 Y98.639 E2.66986
G1 X110.698 Y98.739 E2.68375
G1 X111.121 Y98.780 E2.69556
G1 X112.583 Y100.241 E2.75297
G1 X113.074 Y99.961 E2.76867
G1 X111.838 Y98.726 E2.81720
G1 X112.462 Y98.578 E2.83500
G1 X113.531 Y99.647 E2.87702
G1 X113.979 Y99.324 E2.89237
G1 X113.015 Y98.359 E2.93024
G1 X113.524 Y98.098 E2.94616
G1 X114.429 Y99.002 E2.98169
G1 X114.890 Y98.692 E2.99713
G1 X114.015 Y97.817 E3.03153
G1 X114.493 Y97.523 E3.04711
G1 X115.383 Y98.414 E3.08210
G1 X115.906 Y98.165 E3.09818
G1 X114.972 Y97.232 E3.13485
G1 X115.345 Y97.023 E3.14672
G1 X115.471 Y96.959 E3.15064
G1 X116.478 Y97.966 E3.19019
G1 X117.104 Y97.820 E3.20804
G1 X115.990 Y96.707 E3.25177
G1 X116.066 Y96.670 E3.25412
G1 X116.036 Y96.586 E3.25660
G1 X116.069 Y96.677 E3.25928
G1 X116.563 Y96.508 E3.27377
G1 X117.808 Y97.753 E3.32266
G1 X118.001 Y97.735 E3.32806
G1 X118.003 Y97.752 E3.32855
G1 X118.621 Y97.795 E3.34576
G1 X117.182 Y96.356 E3.40227
G1 X117.421 Y96.281 E3.40921
G1 X117.446 Y96.333 E3.41083
G1 X117.873 Y96.276 E3.42280
G1 X119.615 Y98.018 E3.49122
G1 X119.944 Y98.182 E3.50143
G1 X120.375 Y98.457 E3.51565
G1 X121.366 Y99.210 E3.55022
G1 X121.665 Y99.409 E3.56018
G1 X121.904 Y99.536 E3.56771
G1 X118.712 Y96.344 E3.69310
G1 X118.981 Y96.462 E3.70125
G1 X119.270 Y96.618 E3.71036
G1 X119.624 Y96.851 E3.72214
G1 X119.757 Y96.977 E3.72723
G1 X119.789 Y96.959 E3.72826
G1 X120.070 Y97.144 E3.73759
G1 X120.126 Y97.062 E3.74033
G1 X120.476 Y97.336 E3.75267
G1 X122.911 Y99.771 E3.84834
G1 E1.84834 F2400.00000
G92 E0
G1 X108.700 Y107.158 F7800.000
G1 E2.00000 F2400.00000
G1 F4800
G1 X107.938 Y106.396 E2.02992
G1 X107.629 Y106.413 E2.03854
G1 X107.630 Y106.433 E2.03912
G1 X107.311 Y106.495 E2.04814
G1 X107.259 Y106.488 E2.04960
G1 X108.112 Y107.340 E2.08309
G1 X107.943 Y107.302 E2.08790
G1 X107.903 Y107.264 E2.08943
G1 X107.699 Y107.212 E2.09529
G1 X107.671 Y107.184 E2.09639
G1 X107.571 Y107.170 E2.09918
G1 X107.498 Y107.105 E2.10191
G1 X107.464 Y107.101 E2.10284
G1 X107.495 Y107.035 E2.10487
G1 X107.161 Y106.863 E2.11530
G1 X107.370 Y106.865 E2.12110
G1 X107.378 Y106.758 E2.12406
G1 X107.380 Y106.833 E2.12612
G1 X107.641 Y106.870 E2.13344
G1 X106.110 Y106.110 F7800.000
G1 F4800
G1 X105.295 Y105.295 E2.16546
G1 X105.052 Y105.354 E2.17241
G1 X104.878 Y105.367 E2.17726
G1 X104.541 Y105.312 E2.18675
G1 X106.188 Y106.960 E2.25146
G1 X106.062 Y107.123 E2.25719
G1 X106.057 Y107.487 E2.26732
G1 X105.991 Y107.534 E2.26957
G1 X102.058 Y103.600 E2.42409
G1 X101.887 Y103.892 E2.43346
G1 X101.754 Y104.068 E2.43960
G1 X105.399 Y107.713 E2.58280
G1 X105.152 Y107.882 E2.59111
G1 X105.055 Y107.877 E2.59380
G1 X105.011 Y107.697 E2.59895
G1 X104.871 Y107.367 E2.60892
G1 X104.721 Y107.195 E2.61524
G1 X104.545 Y107.042 E2.62173
G1 X104.294 Y106.901 E2.62972
G1 X103.990 Y106.784 E2.63877
G1 X103.638 Y106.723 E2.64871
G1 X101.348 Y104.433 E2.73866
G1 X100.941 Y104.798 E2.75384
G1 X102.919 Y106.776 E2.83156
G1 X102.689 Y106.836 E2.83816
G1 X102.343 Y106.971 E2.84849
G1 X100.594 Y105.222 E2.91718
G1 X100.438 Y105.430 E2.92440
G1 X100.322 Y105.722 E2.93312
G1 X101.760 Y107.159 E2.98959
G1 X101.582 Y107.153 E2.99453
G1 X101.266 Y107.061 E3.00366
G1 X101.136 Y107.000 E3.00767
G1 X100.894 Y106.821 E3.01603
G1 X100.786 Y106.701 E3.02049
G1 X100.741 Y106.615 E3.02320
G1 X100.723 Y106.477 E3.02708
G1 X100.674 Y106.460 E3.02851
G1 X100.664 Y106.434 E3.02929
G1 X100.651 Y106.363 E3.03132
G1 X100.673 Y106.329 E3.03244
G1 X100.680 Y106.151 E3.03737
G1 X100.704 Y106.103 E3.03887
G1 E1.03887 F2400.00000
G92 E0
G1 X102.058 Y103.600 F7800.000
G1 E2.00000 F2400.00000
G1 F4800
G1 X102.131 Y103.454 E2.00455
G1 X102.132 Y103.413 E2.00569
G1 X102.248 Y103.232 E2.01168
G1 X102.233 Y103.219 E2.01224
G1 X102.274 Y103.182 E2.01376
G1 X102.176 Y102.947 E2.02083
G1 X104.024 Y104.796 E2.09344
G1 E0.09344 F2400.00000
G92 E0
G1 X106.852 Y104.538 F7800.000
G1 E2.00000 F2400.00000
G1 F4800
G1 X106.792 Y104.702 E2.00486
G1 X106.913 Y104.599 E2.00927
G1 X106.470 Y104.156 E2.02667
G1 X106.500 Y104.073 E2.02911
G1 X106.408 Y104.039 E2.03183
G1 X106.539 Y103.717 E2.04147
G1 X106.628 Y103.555 E2.04660
G1 X107.367 Y104.282 E2.07538
G1 E0.07538 F2400.00000
G92 E0
G1 X107.476 Y109.019 F7800.000
G1 E2.00000 F2400.00000
G1 F4800
G1 X107.479 Y108.896 E2.00341
G1 X107.500 Y108.886 E2.00405
G1 X107.500 Y108.855 E2.00489
G1 X107.431 Y108.721 E2.00908
G1 X107.316 Y108.582 E2.01409
G1 X107.227 Y108.510 E2.01726
G1 X107.088 Y108.428 E2.02176
G1 X107.059 Y108.428 E2.02256
G1 X106.947 Y108.340 E2.02651
G1 X106.890 Y108.333 E2.02812
G1 X106.750 Y108.220 E2.03311
G1 X106.715 Y108.216 E2.03407
G1 X106.596 Y108.138 E2.03803
G1 X107.858 Y109.400 E2.08761
G1 E0.08761 F2400.00000
G92 E0
G1 X105.091 Y109.719 F7800.000
G1 E2.00000 F2400.00000
G1 F4800
G1 X104.324 Y108.952 E2.03011
G1 X104.141 Y109.541 E2.04723
G1 X104.931 Y110.330 E2.07826
G1 X104.847 Y110.468 E2.08273
G1 X104.680 Y110.633 E2.08927
G1 X104.571 Y110.656 E2.09236
G1 X104.496 Y110.564 E2.09564
G1 X104.441 Y110.412 E2.10013
G1 X104.443 Y110.217 E2.10555
G1 X104.523 Y109.922 E2.11404
G1 E0.11404 F2400.00000
G92 E0
G1 X96.729 Y105.214 F7800.000
G1 E2.00000 F2400.00000
G1 F4800
G1 X89.192 Y97.676 E2.29611
G1 X89.082 Y97.923 E2.30362
G1 X88.933 Y98.189 E2.31208
G1 X95.997 Y105.253 E2.58960
G1 X95.327 Y105.253 E2.60822
G1 X95.294 Y105.217 E2.60956
G1 X95.188 Y105.216 E2.61251
G1 X88.568 Y98.595 E2.87259
G1 X88.376 Y98.721 E2.87896
G1 X88.378 Y98.860 E2.88283
G1 X88.150 Y98.869 E2.88917
G1 X88.146 Y98.888 E2.88970
G1 X88.081 Y98.879 E2.89155
G1 X94.249 Y105.048 E3.13389
G1 X93.494 Y104.921 E3.15516
G1 X93.299 Y104.869 E3.16078
G1 X87.170 Y98.740 E3.40155
G1 X86.753 Y98.628 E3.41352
G1 X86.782 Y98.519 E3.41664
G1 X86.136 Y98.323 E3.43539
G1 X85.872 Y98.204 E3.44344
G1 X92.256 Y104.598 E3.69443
G1 X91.895 Y104.500 E3.70483
G1 X91.647 Y104.529 E3.71176
G1 X91.528 Y104.640 E3.71630
G1 X79.047 Y92.160 E4.20658
G1 X78.876 Y92.176 E4.21137
G1 X78.409 Y92.293 E4.22474
G1 X91.810 Y105.694 E4.75118
G1 X92.494 Y106.734 E4.78575
G1 X92.715 Y107.370 E4.80448
G1 X77.810 Y92.465 E5.39002
G1 X77.688 Y92.577 E5.39461
G1 X77.589 Y92.619 E5.39759
G1 X77.494 Y92.730 E5.40165
G1 X77.462 Y92.733 E5.40254
G1 X77.378 Y92.805 E5.40561
G1 X87.926 Y103.353 E5.81998
G1 X87.737 Y103.284 E5.82558
G1 X87.295 Y103.039 E5.83959
G1 X86.333 Y102.327 E5.87285
G1 X86.345 Y102.291 E5.87391
G1 X85.821 Y101.992 E5.89068
G1 X85.810 Y102.008 E5.89123
G1 X77.024 Y93.222 E6.23641
G1 X76.940 Y93.362 E6.24094
G1 X76.938 Y93.401 E6.24204
G1 X76.855 Y93.505 E6.24573
G1 X76.763 Y93.732 E6.25254
G1 X84.482 Y101.451 E6.55575
G1 X83.876 Y101.317 E6.57297
G1 X83.838 Y101.420 E6.57602
G1 X83.646 Y101.387 E6.58143
G1 X76.610 Y94.351 E6.85781
G1 X76.610 Y94.413 E6.85955
G1 X76.579 Y94.491 E6.86186
G1 X76.580 Y94.902 E6.87328
G1 X76.611 Y95.017 E6.87660
G1 X76.612 Y95.124 E6.87957
G1 X82.681 Y101.193 E7.11797
G1 X82.275 Y101.145 E7.12933
G1 X82.273 Y101.161 E7.12978
G1 X81.876 Y101.159 E7.14080
G1 X76.779 Y96.062 E7.34103
G1 X76.873 Y96.441 E7.35187
G1 X76.940 Y96.547 E7.35537
G1 X76.969 Y96.558 E7.35621
G1 X76.981 Y96.781 E7.36243
G1 X77.013 Y96.858 E7.36474
G1 X77.113 Y96.836 E7.36759
G1 X77.310 Y97.365 E7.38327
G1 X81.060 Y101.114 E7.53056
G1 X80.700 Y101.040 E7.54076
G1 X80.304 Y100.879 E7.55263
G1 X80.014 Y100.718 E7.56185
G1 X79.489 Y100.297 E7.58055
G1 X79.203 Y99.990 E7.59221
G1 X79.185 Y99.999 E7.59276
G1 X79.073 Y99.898 E7.59694
G1 X78.391 Y99.217 E7.62373
G1 X84.100 Y101.069 F7800.000
G1 F4800
G1 X84.123 Y101.074 E7.62439
G1 X84.120 Y101.089 E7.62481
G1 X84.606 Y101.575 E7.64390
G1 X86.250 Y98.591 F7800.000
G1 F4800
G1 X86.193 Y98.677 E7.64676
G1 X85.914 Y98.508 E7.65582
G1 X85.675 Y98.302 E7.66458
G1 X85.736 Y98.221 E7.66740
G1 X85.492 Y97.987 E7.67678
G1 X85.345 Y97.812 E7.68314
G1 X85.030 Y97.371 E7.69819
G1 X79.837 Y92.178 E7.90218
G1 X80.392 Y92.294 E7.91794
G1 X80.942 Y92.512 E7.93437
G1 X83.899 Y95.469 E8.05054
G1 E6.05054 F2400.00000
G92 E0
G1 X92.083 Y109.052 F7800.000
G1 E2.00000 F2400.00000
G1 F4800
G1 X93.467 Y110.436 E2.05437
G1 X93.660 Y110.376 E2.05998
G1 X93.777 Y110.370 E2.06324
G1 X93.646 Y110.105 E2.07145
G1 X93.746 Y110.041 E2.07475
G1 X93.728 Y109.926 E2.07799
G1 X91.336 Y107.534 E2.17195
G1 X90.955 Y107.004 E2.19008
G1 X90.491 Y106.204 E2.21576
G1 X90.268 Y105.872 E2.22687
G1 X90.012 Y105.573 E2.23780
G1 X89.406 Y105.084 E2.25945
G1 X89.304 Y105.031 E2.26264
G1 X89.192 Y104.898 E2.26746
G1 X89.156 Y104.890 E2.26846
G1 X89.141 Y104.832 E2.27013
G1 X89.049 Y104.809 E2.27277
G1 X88.978 Y104.741 E2.27551
G1 X88.882 Y104.603 E2.28016
G1 X88.807 Y104.442 E2.28510
G1 X88.749 Y104.366 E2.28775
G1 X88.744 Y104.328 E2.28883
G1 X88.671 Y104.230 E2.29221
G1 X88.622 Y104.063 E2.29705
G1 X88.542 Y103.969 E2.30048
G1 X93.480 Y108.906 E2.49443
G1 X93.471 Y108.897 F7800.000
G1 F4800
G1 X93.853 Y109.279 E2.50943
G1 X93.795 Y109.222 F7800.000
G1 F4800
G1 X93.230 Y108.657 E2.53163
G1 X93.369 Y108.738 E2.53611
G1 X93.413 Y108.840 E2.53920
G1 X94.455 Y108.339 F7800.000
G1 F4800
G1 X94.515 Y108.134 E2.54512
G1 X94.476 Y108.114 E2.54634
G1 X94.292 Y108.176 E2.55172
G1 X94.837 Y108.721 E2.57312
G1 E0.57312 F2400.00000
G92 E0
G1 X94.899 Y111.097 F7800.000
G1 E2.00000 F2400.00000
G1 F4800
G1 X94.867 Y110.866 E2.00647
G1 X94.776 Y110.696 E2.01183
G1 X94.761 Y110.613 E2.01417
G1 X94.654 Y110.520 E2.01810
G1 X94.559 Y110.511 E2.02075
G1 X94.533 Y110.486 E2.02176
G1 X94.501 Y110.569 E2.02425
G1 X94.323 Y110.521 E2.02938
G1 X95.280 Y111.478 E2.06699
G1 E0.06699 F2400.00000
G92 E0
G1 X91.379 Y110.662 F7800.000
G1 E2.00000 F2400.00000
G1 F4800
G1 X90.681 Y109.964 E2.02740
G1 X90.927 Y109.796 E2.03568
G1 X90.945 Y109.795 E2.03617
G1 X90.943 Y109.829 E2.03714
G1 X91.191 Y109.866 E2.04411
G1 X90.998 Y110.073 E2.05198
G1 X91.075 Y110.158 E2.05516
G1 X90.997 Y110.280 E2.05919
G1 Z1.100 F7800.000
G1 E0.05919 F2400.00000
G92 E0
G1 X94.625 Y110.996 F7800.000
G1 E2.00000 F2400.00000
G1 F1200
G1 X94.261 Y110.893 E2.01264
G1 X94.325 Y111.012 E2.01716
G1 X94.590 Y111.032 E2.02600
G1 X95.007 Y110.614 E2.04568
G1 X95.080 Y110.671 E2.04875
G1 X95.152 Y110.801 E2.05370
G1 X95.199 Y110.938 E2.05854
G1 X95.217 Y111.068 E2.06290
G1 X95.198 Y111.218 E2.06795
G1 X95.166 Y111.289 E2.07056
G1 X94.783 Y111.671 E2.08859
G1 E0.08859 F2400.00000
G92 E0
G1 X104.270 Y109.740 F7800.000
G1 E2.00000 F2400.00000
G1 F1200
G1 X104.856 Y109.154 E2.02763
G1 X104.789 Y110.054 F7800.000
G1 F1200
G1 X104.407 Y110.436 E2.04563
G1 E0.04563 F2400.00000
G92 E0
G1 X106.211 Y108.332 F7800.000
G1 E2.00000 F2400.00000
G1 F1200
G1 X106.161 Y108.301 E2.00194
G1 X106.189 Y108.353 E2.00392
G1 X106.592 Y107.950 E2.02293
G1 X106.907 Y108.168 E2.03568
G1 X107.099 Y108.277 E2.04304
G1 X106.520 Y108.855 E2.07032
G1 X106.855 Y109.353 E2.09032
G1 X107.607 Y108.602 E2.12575
G1 X107.700 Y108.692 E2.13008
G1 X107.769 Y108.796 E2.13424
G1 X107.813 Y108.928 E2.13885
G1 X107.780 Y109.241 E2.14935
G1 X107.766 Y109.275 E2.15058
G1 X107.384 Y109.657 E2.16860
G1 E0.16860 F2400.00000
G92 E0
G1 X108.155 Y107.248 F7800.000
G1 E2.00000 F2400.00000
G1 F1200
G1 X108.537 Y106.866 E2.01804
G1 X108.607 Y106.750 E2.02254
G1 X108.621 Y106.632 E2.02648
G1 X108.589 Y106.531 E2.03003
G1 X108.382 Y106.492 E2.03704
G1 X108.268 Y106.511 E2.04089
G1 X108.060 Y106.510 E2.04783
G1 X107.427 Y107.143 E2.07766
G1 X107.296 Y107.104 E2.08222
G1 X106.843 Y106.894 E2.09886
G1 X107.255 Y106.482 E2.11829
G1 E0.11829 F2400.00000
G92 E0
G1 X104.805 Y107.536 F7800.000
G1 E2.00000 F2400.00000
G1 F4800
G1 X106.086 Y106.255 E2.05031
G1 X106.039 Y106.091 E2.05505
G1 X105.886 Y105.807 E2.06404
G1 X105.924 Y105.785 E2.06526
G1 X105.901 Y105.669 E2.06856
G1 X104.486 Y107.084 E2.12416
G1 X104.220 Y106.830 E2.13436
G1 X104.062 Y106.737 E2.13947
G1 X105.228 Y105.571 E2.18529
G1 X105.047 Y105.561 E2.19031
G1 X104.853 Y105.519 E2.19583
G1 X104.610 Y105.417 E2.20315
G1 X103.497 Y106.531 E2.24690
G1 X103.205 Y106.495 E2.25506
G1 X102.956 Y106.526 E2.26202
G1 X102.952 Y106.498 E2.26279
G1 X102.723 Y106.533 E2.26923
G1 X104.075 Y105.181 E2.32237
G1 X103.847 Y104.937 E2.33165
G1 X103.927 Y104.831 E2.33533
G1 X103.900 Y104.751 E2.33767
G1 X103.899 Y104.585 E2.34228
G1 X101.597 Y106.888 E2.43272
G1 X101.320 Y106.939 E2.44053
G1 X101.173 Y106.927 E2.44463
G1 X101.031 Y106.895 E2.44869
G1 X100.882 Y106.831 E2.45318
G1 X104.514 Y103.199 E2.59585
G1 X104.547 Y103.118 E2.59829
G1 X104.594 Y102.867 E2.60538
G1 X104.635 Y102.307 E2.62098
G1 X100.502 Y106.440 E2.78335
G1 X100.475 Y106.337 E2.78631
G1 X100.514 Y106.087 E2.79333
G1 X100.659 Y105.752 E2.80349
G1 X100.593 Y105.720 E2.80553
G1 X100.860 Y105.364 E2.81789
G1 X101.267 Y104.985 E2.83333
G1 X101.762 Y104.563 E2.85140
G1 X101.944 Y104.331 E2.85962
G1 X102.101 Y104.070 E2.86806
G1 X102.495 Y103.675 E2.88357
G1 X102.619 Y103.703 E2.88709
G1 X102.646 Y103.598 E2.89009
G1 X102.667 Y103.598 E2.89067
G1 X102.684 Y103.486 E2.89381
G1 X104.683 Y101.488 E2.97233
G1 X102.598 Y94.317 F7800.000
G1 F4800
G1 X100.747 Y96.168 E3.04505
G1 X101.222 Y96.464 E3.06060
G1 X102.849 Y94.837 E3.12452
G1 X102.889 Y94.862 E3.12584
G1 X102.877 Y94.894 E3.12679
G1 X103.132 Y95.015 E3.13463
G1 X103.143 Y94.999 E3.13516
G1 X103.150 Y95.019 E3.13575
G1 X103.377 Y95.080 E3.14229
G1 X101.752 Y96.706 E3.20616
G1 X101.936 Y96.898 E3.21356
G1 X102.068 Y97.063 E3.21942
G1 X102.098 Y97.131 E3.22149
G1 X103.969 Y95.260 E3.29501
G1 X104.416 Y95.584 E3.31035
G1 X95.116 Y104.884 E3.67571
G1 X95.892 Y104.879 E3.69727
G1 X104.698 Y96.073 E4.04321
G1 X104.661 Y96.279 E4.04902
G1 X104.464 Y96.767 E4.06366
G1 X104.423 Y97.045 E4.07147
G1 X104.451 Y97.092 E4.07296
G1 X96.753 Y104.790 E4.37538
G1 X97.379 Y104.679 E4.39306
G1 X97.738 Y104.576 E4.40341
G1 X104.874 Y97.440 E4.68374
G1 X105.488 Y97.597 E4.70135
G1 X98.895 Y104.190 E4.96035
G1 X99.782 Y103.835 E4.98687
G1 X100.250 Y103.606 E5.00135
G1 X106.091 Y97.766 E5.23080
G1 X106.739 Y97.889 E5.24911
G1 X101.519 Y103.109 E5.45417
G1 X101.885 Y102.966 E5.46508
G1 X102.194 Y103.008 E5.47376
G1 X102.270 Y103.130 E5.47773
G1 X107.381 Y98.018 E5.67852
G1 X108.016 Y98.154 E5.69657
G1 X104.779 Y101.392 E5.82374
G1 X105.881 Y100.559 E5.86211
G1 X106.384 Y100.237 E5.87870
G1 X107.016 Y99.926 E5.89826
G1 X108.630 Y98.312 E5.96166
G1 X109.234 Y98.479 E5.97906
G1 X108.044 Y99.670 E6.02582
G1 X108.397 Y99.671 E6.03564
G1 X108.778 Y99.707 E6.04626
G1 X109.837 Y98.648 E6.08788
G1 X110.058 Y98.690 E6.09414
G1 X110.448 Y98.808 E6.10544
G1 X109.417 Y99.839 E6.14593
G1 X110.006 Y100.022 E6.16304
G1 X111.102 Y98.925 E6.20611
G1 X111.383 Y98.969 E6.21402
G1 X111.846 Y98.953 E6.22688
G1 X110.597 Y100.201 E6.27593
G1 X110.883 Y100.264 E6.28406
G1 X111.280 Y100.290 E6.29510
G1 X112.779 Y98.791 E6.35400
G1 X113.363 Y98.585 E6.37120
G1 X113.908 Y98.330 E6.38793
G1 X114.052 Y98.230 E6.39278
G1 X114.153 Y98.188 E6.39582
G1 X112.465 Y99.876 E6.46214
G1 X112.692 Y99.743 E6.46944
G1 X114.176 Y98.677 E6.52020
G1 X114.841 Y98.272 E6.54183
G1 X116.000 Y97.112 E6.58738
G1 X116.652 Y96.826 E6.60714
G1 X117.036 Y96.704 E6.61835
G1 X117.215 Y96.669 E6.62342
G1 X116.135 Y97.749 E6.66585
G1 X117.069 Y97.587 E6.69217
G1 X118.121 Y96.535 E6.73349
G1 X118.788 Y96.512 E6.75205
G1 X118.896 Y96.531 E6.75509
G1 X117.861 Y97.566 E6.79576
G1 X118.458 Y97.592 E6.81238
G1 X118.575 Y97.623 E6.81573
G1 X119.438 Y96.760 E6.84963
G1 X119.910 Y97.059 E6.86516
G1 X119.196 Y97.774 E6.89324
G1 X119.423 Y97.867 E6.90008
G1 X119.713 Y98.027 E6.90928
G1 X120.378 Y97.362 E6.93540
G1 X120.820 Y97.692 E6.95071
G1 X120.170 Y98.342 E6.97622
G1 X120.448 Y98.553 E6.98591
G1 X120.594 Y98.689 E6.99146
G1 X121.248 Y98.035 E7.01713
G1 X121.670 Y98.384 E7.03235
G1 X121.042 Y99.013 E7.05704
G1 X121.506 Y99.320 E7.07250
G1 X122.069 Y98.757 E7.09460
G1 X122.454 Y99.143 E7.10975
G1 X122.030 Y99.567 E7.12639
G1 E5.12639 F2400.00000
G92 E0
G1 X105.682 Y93.546 F7800.000
G1 E2.00000 F2400.00000
G1 F4800
G1 X105.738 Y93.717 E2.00497
G1 X105.830 Y93.888 E2.01039
G1 X105.954 Y93.995 E2.01494
G1 X106.013 Y93.983 E2.01660
G1 X106.059 Y93.861 E2.02023
G1 X106.048 Y93.669 E2.02555
G1 X105.969 Y93.546 E2.02962
G1 X105.818 Y93.410 E2.03524
G1 X105.301 Y93.928 E2.05558
G1 X103.862 Y93.053 F7800.000
G1 F4800
G1 X104.094 Y92.924 E2.06295
G1 X104.221 Y92.830 E2.06734
G1 X104.177 Y92.738 E2.07019
G1 X103.480 Y93.435 E2.09757
G1 X103.799 Y93.115 F7800.000
G1 F4800
G1 X104.745 Y92.169 E2.13473
G1 X104.495 Y91.648 E2.15079
G1 X100.268 Y95.875 E2.31684
G1 X99.993 Y95.654 E2.32665
G1 X99.861 Y95.511 E2.33205
G1 X104.340 Y91.032 E2.50800
G1 X104.324 Y90.785 E2.51489
G1 X104.335 Y90.580 E2.52058
G1 X104.398 Y90.380 E2.52640
G1 X104.455 Y90.277 E2.52968
G1 X104.235 Y90.366 E2.53628
G1 X99.505 Y95.096 E2.72209
G1 X99.422 Y94.991 E2.72580
G1 X99.312 Y94.776 E2.73251
G1 X99.305 Y94.753 E2.73318
G1 X99.346 Y94.749 E2.73435
G1 X99.334 Y94.495 E2.74140
G1 X101.141 Y92.688 E2.81237
G1 X101.193 Y92.665 E2.81394
G1 X101.239 Y92.763 E2.81694
G1 X101.699 Y92.547 E2.83105
G1 X102.087 Y92.321 E2.84352
G1 X102.530 Y91.965 E2.85930
G1 X102.464 Y91.879 E2.86233
G1 X102.673 Y91.628 E2.87138
G1 X102.713 Y91.518 E2.87463
G1 X102.843 Y91.509 E2.87825
G1 X102.845 Y91.204 E2.88672
G1 X102.815 Y91.015 E2.89206
G1 X103.633 Y90.197 E2.92419
G1 E0.92419 F2400.00000
G92 E0
G1 X90.605 Y92.426 F7800.000
G1 E2.00000 F2400.00000
G1 F4800
G1 X90.395 Y92.410 E2.00585
G1 X90.387 Y92.643 E2.01235
G1 X90.987 Y92.044 E2.03588
G1 X91.173 Y92.023 E2.04110
G1 X91.356 Y91.952 E2.04654
G1 X91.585 Y91.830 E2.05375
G1 X91.710 Y91.986 E2.05929
G1 X91.771 Y92.031 E2.06141
G1 X90.052 Y93.750 E2.12897
G1 X90.341 Y94.015 E2.13986
G1 X90.429 Y94.144 E2.14420
G1 X91.978 Y92.596 E2.20503
G1 X91.913 Y92.769 E2.21018
G1 X91.852 Y93.129 E2.22031
G1 X91.960 Y93.153 E2.22339
G1 X91.856 Y93.179 E2.22638
G1 X91.908 Y93.437 E2.23369
G1 X90.677 Y94.668 E2.28207
G1 X90.714 Y94.782 E2.28539
G1 X90.698 Y94.787 E2.28587
G1 X90.687 Y95.097 E2.29448
G1 X90.584 Y95.099 E2.29735
G1 X90.530 Y95.368 E2.30496
G1 X90.400 Y95.665 E2.31396
G1 X90.433 Y95.683 E2.31503
G1 X92.179 Y93.937 E2.38360
G1 X92.304 Y94.412 E2.39725
G1 X92.318 Y94.570 E2.40165
G1 X89.659 Y97.229 E2.50610
G1 X89.699 Y97.243 E2.50727
G1 X89.589 Y97.582 E2.51719
G1 X89.447 Y97.892 E2.52667
G1 X89.367 Y97.859 E2.52907
G1 X89.112 Y98.433 E2.54651
G1 X88.901 Y98.757 E2.55726
G1 X92.108 Y95.551 E2.68322
G1 X91.939 Y95.995 E2.69642
G1 X91.487 Y96.943 E2.72558
G1 X86.194 Y102.236 E2.93353
G1 X86.635 Y102.566 E2.94883
G1 X90.803 Y98.398 E3.11255
G1 X90.770 Y98.548 E3.11680
G1 X90.852 Y98.724 E3.12221
G1 X90.999 Y98.895 E3.12846
G1 X91.079 Y98.894 E3.13067
G1 X87.092 Y102.881 E3.28731
G1 X87.173 Y102.937 E3.29005
G1 X87.616 Y103.129 E3.30345
G1 X91.941 Y98.803 E3.47335
G1 X92.894 Y98.621 E3.50032
G1 X88.148 Y103.367 E3.68675
G1 X88.221 Y103.428 E3.68940
G1 X88.455 Y103.832 E3.70236
G1 X93.896 Y98.391 E3.91611
G1 X94.953 Y98.105 E3.94651
G1 X88.649 Y104.409 E4.19414
G1 X88.921 Y104.908 E4.20993
G1 X95.986 Y97.844 E4.48745
G1 X96.924 Y97.677 E4.51394
G1 X89.298 Y105.302 E4.81351
G1 X90.845 Y104.527 F7800.000
G1 F4800
G1 X90.842 Y104.508 E4.81404
G1 X90.993 Y104.379 E4.81957
G1 X97.794 Y97.578 E5.08672
G1 X98.633 Y97.510 E5.11012
G1 X91.777 Y104.366 E5.37946
G1 X92.397 Y104.518 E5.39719
G1 X99.447 Y97.468 E5.67412
G1 X100.236 Y97.450 E5.69605
G1 X93.034 Y104.652 E5.97897
G1 X93.697 Y104.760 E5.99763
G1 X101.004 Y97.454 E6.28467
G1 X101.288 Y97.458 E6.29257
G1 X101.801 Y97.428 E6.30684
G1 X94.386 Y104.843 E6.59811
G1 X91.227 Y104.145 F7800.000
G1 F4800
G1 X89.738 Y105.634 E6.65659
G1 X90.051 Y105.886 E6.66774
G1 X90.120 Y105.821 E6.67036
G1 X90.222 Y105.922 E6.67433
G1 X91.345 Y104.798 E6.71846
G1 X91.375 Y104.926 E6.72210
G1 X91.390 Y104.925 E6.72253
G1 X91.590 Y105.325 E6.73493
G1 X90.568 Y106.346 E6.77505
G1 X90.669 Y106.485 E6.77982
G1 X90.856 Y106.830 E6.79071
G1 X91.888 Y105.798 E6.83126
G1 X92.201 Y106.256 E6.84668
G1 X91.144 Y107.313 E6.88819
G1 X91.470 Y107.758 E6.90352
G1 X92.447 Y106.781 E6.94190
G1 X92.562 Y107.179 E6.95341
G1 X92.641 Y107.359 E6.95886
G1 X91.796 Y108.204 E6.99204
G1 X91.904 Y108.335 E6.99676
G1 X92.097 Y108.674 E7.00760
G1 X92.879 Y107.892 E7.03833
G1 X93.141 Y108.402 E7.05424
G1 X92.289 Y109.253 E7.08770
G1 X92.281 Y109.436 E7.09277
G1 X92.222 Y109.775 E7.10233
G1 X92.387 Y109.927 E7.10856
G1 X93.473 Y108.841 E7.15120
G1 X93.603 Y108.962 E7.15613
G1 X93.504 Y109.548 E7.17264
G1 X93.531 Y109.554 E7.17342
G1 X92.727 Y110.358 E7.20498
G1 E5.20498 F2400.00000
G92 E0
G1 X85.754 Y101.905 F7800.000
G1 E2.00000 F2400.00000
G1 F4800
G1 X88.668 Y98.990 E2.11448
G1 X88.590 Y99.014 E2.11675
G1 X88.516 Y99.071 E2.11935
G1 X88.113 Y99.055 E2.13055
G1 X87.871 Y99.017 E2.13736
G1 X85.286 Y101.601 E2.23889
G1 X84.727 Y101.389 E2.25551
G1 X87.239 Y98.877 E2.35421
G1 X86.650 Y98.695 E2.37134
G1 X84.123 Y101.222 E2.47061
G1 X83.485 Y101.088 E2.48872
G1 X86.095 Y98.479 E2.59125
G1 X85.836 Y98.330 E2.59954
G1 X85.644 Y98.158 E2.60669
G1 X82.813 Y100.989 E2.71791
G1 X82.090 Y100.941 E2.73804
G1 X85.262 Y97.768 E2.86267
G1 X85.023 Y97.493 E2.87279
G1 X84.922 Y97.338 E2.87795
G1 X81.343 Y100.916 E3.01852
G1 X80.629 Y100.859 E3.03841
G1 X84.616 Y96.872 E3.19504
G1 X84.333 Y96.383 E3.21071
G1 X80.050 Y100.666 E3.37897
G1 X79.768 Y100.517 E3.38784
G1 X79.570 Y100.375 E3.39460
G1 X84.051 Y95.894 E3.57065
G1 X83.767 Y95.407 E3.58632
G1 X79.153 Y100.021 E3.76757
G1 X78.768 Y99.634 E3.78272
G1 X83.474 Y94.929 E3.96758
G1 X83.170 Y94.461 E3.98307
G1 X78.417 Y99.214 E4.16979
G1 X78.098 Y98.762 E4.18516
G1 X82.850 Y94.010 E4.37181
G1 X82.730 Y93.857 E4.37722
G1 X82.484 Y93.605 E4.38700
G1 X77.805 Y98.283 E4.57079
G1 X77.554 Y97.763 E4.58684
G1 X82.076 Y93.241 E4.76449
G1 X81.625 Y92.921 E4.77986
G1 X77.332 Y97.214 E4.94848
G1 X77.145 Y96.629 E4.96553
G1 X81.105 Y92.669 E5.12109
G1 X80.637 Y92.503 E5.13490
G1 X80.520 Y92.483 E5.13820
G1 X76.993 Y96.010 E5.27673
G1 X76.913 Y95.553 E5.28963
G1 X76.897 Y95.335 E5.29570
G1 X79.842 Y92.390 E5.41137
G1 X79.523 Y92.392 E5.42022
G1 X79.092 Y92.462 E5.43236
G1 X78.960 Y92.501 E5.43617
G1 X76.943 Y94.518 E5.51543
G1 X77.059 Y94.174 E5.52552
G1 X77.337 Y93.719 E5.54035
G1 X77.540 Y93.500 E5.54862
G1 X77.812 Y93.270 E5.55851
G1 X78.091 Y93.080 E5.56790
G1 X78.578 Y92.882 E5.58251
G1 E3.58251 F2400.00000
G92 E0
G1 X102.568 Y88.193 F7800.000
G1 E2.00000 F2400.00000
G1 F1200
G1 X102.950 Y87.811 E2.01556
G1 X103.127 Y87.894 E2.02119
G1 X103.181 Y87.962 E2.02369
G1 X103.241 Y88.241 E2.03190
G1 X102.616 Y88.865 E2.05736
G1 X102.749 Y89.453 E2.07472
G1 X103.310 Y88.891 E2.09762
G1 X103.331 Y89.066 E2.10268
G1 X103.433 Y89.488 E2.11521
G1 X103.051 Y89.870 E2.13078
G1 X101.887 Y90.791 F7800.000
G1 F1200
G1 X101.505 Y91.172 E2.14877
G1 X101.067 Y90.777 F7800.000
G1 F1200
G1 X101.505 Y90.340 E2.16939
G1 E0.16939 F2400.00000
G92 E0
G1 X93.507 Y91.825 F7800.000
G1 E2.00000 F2400.00000
G1 F1200
G1 X93.125 Y92.207 E2.01674
G1 X92.616 Y91.992 F7800.000
G1 F1200
G1 X92.234 Y92.374 E2.03348
G1 E0.03348 F2400.00000
G92 E0
G1 X89.839 Y91.487 F7800.000
G1 E2.00000 F2400.00000
G1 F1200
G1 X90.220 Y91.105 E2.01674
G1 X90.129 Y90.743 E2.02833
G1 X90.021 Y90.530 E2.03572
G1 X89.350 Y91.201 E2.06515
G1 X89.166 Y90.828 E2.07806
G1 X89.121 Y90.683 E2.08276
G1 X89.122 Y90.655 E2.08363
G1 X89.504 Y90.273 E2.10038
G1 E0.10038 F2400.00000
G92 E0
G1 X89.099 Y93.404 F7800.000
G1 E2.00000 F2400.00000
G1 F1200
G1 X88.564 Y93.938 E2.02519
G1 X89.414 Y93.922 F7800.000
G1 F1200
G1 X89.796 Y93.540 E2.04319
M106 S249.9
G1 Z1.500 F7800.000
G1 X91.726 Y93.269 F7800.000
G1 F4800
G1 X90.730 Y92.273 E2.08233
G1 X90.646 Y92.323 E2.08504
G1 X90.613 Y92.374 E2.08673
G1 X90.497 Y92.811 E2.09929
G1 X91.851 Y94.165 E2.15248
G1 X92.041 Y94.809 E2.17114
G1 X92.072 Y95.065 E2.17829
G1 X92.064 Y95.149 E2.18064
G1 X90.562 Y93.647 E2.23966
G1 X90.799 Y94.149 E2.25509
G1 X90.832 Y94.292 E2.25917
G1 X90.842 Y94.698 E2.27045
G1 X91.891 Y95.748 E2.31169
G1 X91.670 Y96.298 E2.32816
G1 X90.675 Y95.303 E2.36727
G1 X90.617 Y95.449 E2.37164
G1 X90.421 Y95.820 E2.38330
G1 X91.436 Y96.836 E2.42318
G1 X91.332 Y97.013 E2.42890
G1 X91.177 Y97.348 E2.43914
G1 X90.138 Y96.309 E2.47995
G1 X90.013 Y96.541 E2.48728
G1 X89.890 Y96.832 E2.49606
G1 X90.913 Y97.855 E2.53625
G1 X90.811 Y98.062 E2.54267
G1 X90.682 Y98.395 E2.55258
G1 X89.690 Y97.403 E2.59155
G1 X89.450 Y97.935 E2.60776
G1 X90.495 Y98.980 E2.64881
G1 X90.466 Y99.178 E2.65437
G1 X90.623 Y99.562 E2.66588
G1 X91.118 Y99.603 E2.67968
G1 X90.736 Y99.221 F7800.000
G1 F4800
G1 X96.097 Y104.582 E2.89028
G1 X96.818 Y104.531 E2.91035
G1 X91.416 Y99.130 E3.12255
G1 X92.075 Y99.017 E3.14110
G1 X97.482 Y104.424 E3.35352
G1 X97.756 Y104.371 E3.36128
G1 X98.100 Y104.271 E3.37124
G1 X92.714 Y98.885 E3.58282
G1 X93.340 Y98.739 E3.60066
G1 X98.688 Y104.088 E3.81078
G1 X99.254 Y103.882 E3.82751
G1 X93.956 Y98.584 E4.03563
G1 X94.560 Y98.417 E4.05303
G1 X99.804 Y103.661 E4.25905
G1 X100.340 Y103.425 E4.27530
G1 X95.172 Y98.257 E4.47830
G1 X95.797 Y98.111 E4.49613
G1 X100.859 Y103.173 E4.69497
G1 X101.430 Y102.973 E4.71179
G1 X96.449 Y97.992 E4.90746
G1 X97.137 Y97.908 E4.92671
G1 X101.993 Y102.764 E5.11748
G1 X102.430 Y102.596 E5.13049
G1 X102.564 Y102.564 E5.13432
G1 X97.839 Y97.839 E5.31996
G1 X98.564 Y97.793 E5.34016
G1 X104.295 Y103.524 E5.56528
G1 X104.370 Y103.240 E5.57344
G1 X104.397 Y102.854 E5.58417
G1 X99.303 Y97.760 E5.78430
G1 X100.063 Y97.749 E5.80543
G1 X104.448 Y102.134 E5.97767
G1 X104.454 Y101.808 E5.98673
G1 X104.497 Y101.723 E5.98937
G1 X104.514 Y101.581 E5.99333
G1 X104.590 Y101.505 E5.99633
G1 X100.843 Y97.758 E6.14352
G1 X101.568 Y97.711 E6.16370
G1 X105.007 Y101.150 E6.29880
G1 X105.447 Y100.819 E6.31410
G1 X102.249 Y97.621 E6.43974
G1 X102.418 Y97.544 E6.44489
G1 X102.755 Y97.515 E6.45431
G1 X102.673 Y97.274 E6.46139
G1 X105.890 Y100.490 E6.58775
G1 X106.342 Y100.171 F7800.000
G1 F4800
G1 X99.681 Y93.510 E6.84939
G1 X99.597 Y93.637 E6.85361
G1 X99.541 Y93.787 E6.85805
G1 X99.508 Y93.942 E6.86247
G1 X99.506 Y94.107 E6.86704
G1 X101.513 Y96.114 E6.94588
G1 X100.933 Y95.800 E6.96420
G1 X100.754 Y95.684 E6.97012
G1 X100.535 Y95.498 E6.97811
G1 X100.230 Y95.150 E6.99096
G1 X100.042 Y94.892 E6.99983
G1 X99.933 Y94.686 E7.00630
G1 X99.888 Y94.489 E7.01192
G1 X104.048 Y96.335 F7800.000
G1 F4800
G1 X104.098 Y96.203 E7.01585
G1 X104.092 Y95.989 E7.02178
G1 X104.074 Y95.925 E7.02364
G1 X103.898 Y95.693 E7.03171
G1 X103.581 Y95.446 E7.04287
G1 X103.431 Y95.363 E7.04763
G1 X102.911 Y95.198 E7.06278
G1 X104.430 Y96.717 E7.12244
G1 X104.753 Y97.811 F7800.000
G1 F4800
G1 X106.824 Y99.882 E7.20378
G1 X107.346 Y99.632 E7.21984
G1 X105.805 Y98.092 E7.28036
G1 X106.749 Y98.264 E7.30701
G1 X107.938 Y99.454 E7.35373
G1 X108.416 Y99.383 E7.36713
G1 X108.641 Y99.385 E7.37339
G1 X107.728 Y98.472 E7.40924
G1 X108.787 Y98.760 E7.43973
G1 X109.496 Y99.469 E7.46758
G1 X109.906 Y99.560 E7.47923
G1 X110.573 Y99.775 E7.49871
G1 X109.842 Y99.043 E7.52744
G1 X110.208 Y99.145 E7.53799
G1 X110.821 Y99.251 E7.55527
G1 X111.573 Y100.003 E7.58480
G1 X111.886 Y99.956 E7.59360
G1 X112.214 Y99.873 E7.60300
G1 X111.571 Y99.230 E7.62824
G1 X111.932 Y99.190 E7.63831
G1 X112.241 Y99.128 E7.64707
G1 X112.732 Y99.619 E7.66635
G1 E5.66635 F2400.00000
G92 E0
G1 X105.135 Y98.193 F7800.000
G1 E2.00000 F2400.00000
G1 F4800
G1 X104.645 Y98.068 E2.01407
G1 X104.341 Y98.032 E2.02254
G1 X104.129 Y97.870 E2.02996
G1 X104.127 Y97.714 E2.03430
G1 X104.046 Y97.578 E2.03870
G1 X104.207 Y97.265 E2.04846
G1 X100.161 Y93.219 E2.20740
G1 X100.691 Y92.978 E2.22358
G1 X102.379 Y94.666 E2.28988
G1 X102.355 Y94.557 E2.29298
G1 X102.350 Y94.287 E2.30048
G1 X102.383 Y94.069 E2.30661
G1 X102.443 Y93.958 E2.31010
G1 X101.237 Y92.753 E2.35746
G1 X101.440 Y92.671 E2.36353
G1 X101.750 Y92.494 E2.37345
G1 X102.787 Y93.531 E2.41418
G1 X103.070 Y93.417 E2.42266
G1 X103.371 Y93.343 E2.43125
G1 X102.183 Y92.156 E2.47790
G1 X102.495 Y91.781 E2.49146
G1 X102.515 Y91.717 E2.49332
G1 X103.911 Y93.112 E2.54815
G1 X104.062 Y93.017 E2.55312
G1 X104.282 Y92.789 E2.56190
G1 X104.308 Y92.738 E2.56350
G1 X102.678 Y91.108 E2.62755
G1 X102.684 Y91.012 E2.63021
G1 X102.705 Y90.976 E2.63137
G1 X102.998 Y90.657 E2.64341
G1 X104.320 Y91.978 E2.69533
G1 E0.69533 F2400.00000
G92 E0
G1 X104.059 Y104.059 F7800.000
G1 E2.00000 F2400.00000
G1 F4800
G1 X102.669 Y102.669 E2.05461
G1 X102.648 Y102.879 E2.06047
G1 X102.523 Y103.295 E2.07252
G1 X103.794 Y104.565 E2.12244
G1 X103.689 Y104.806 E2.12974
G1 X103.678 Y105.221 E2.14126
G1 X102.298 Y103.841 E2.19547
G1 X101.970 Y104.284 E2.21078
G1 X104.000 Y106.314 E2.29055
G1 X103.682 Y106.269 E2.29949
G1 X103.273 Y106.358 E2.31111
G1 X101.581 Y104.666 E2.37758
G1 X101.179 Y105.036 E2.39274
G1 X102.619 Y106.476 E2.44931
G1 X102.061 Y106.689 E2.46590
G1 X100.841 Y105.469 E2.51382
G1 E0.51382 F2400.00000
G92 E0
G1 X104.000 Y106.314 F7800.000
G1 E2.00000 F2400.00000
G1 F4800
G1 X104.164 Y106.338 E2.00459
G1 X104.478 Y106.473 E2.01408
G1 X104.684 Y106.604 E2.02087
G1 X105.229 Y107.211 E2.04353
G1 X105.352 Y107.261 E2.04722
G1 X105.470 Y107.246 E2.05051
G1 X105.618 Y107.160 E2.05525
G1 X104.076 Y105.618 E2.11582
G1 X104.517 Y105.776 E2.12884
G1 X104.995 Y105.767 E2.14212
G1 X105.827 Y106.599 E2.17481
G1 E0.17481 F2400.00000
G92 E0
G1 X95.325 Y104.581 F7800.000
G1 E2.00000 F2400.00000
G1 F4800
G1 X89.177 Y98.433 E2.24151
G1 X88.976 Y98.675 E2.25025
G1 X88.799 Y98.826 E2.25672
G1 X94.482 Y104.509 E2.47997
G1 X93.578 Y104.377 E2.50533
G1 X88.407 Y99.206 E2.70846
G1 X88.183 Y99.367 E2.71615
G1 X87.762 Y99.332 E2.72787
G1 X92.597 Y104.167 E2.91779
G1 X91.564 Y103.905 E2.94739
G1 X86.836 Y99.177 E3.13312
G1 X85.774 Y98.842 E3.16405
G1 X85.669 Y98.782 E3.16741
G1 X90.953 Y104.066 E3.37498
G1 X90.902 Y104.305 E3.38178
G1 X91.079 Y104.963 E3.40068
G1 X78.836 Y92.720 E3.88162
G1 X78.496 Y92.819 E3.89145
G1 X78.270 Y92.926 E3.89839
G1 X88.252 Y102.907 E4.29049
G1 X87.654 Y102.659 E4.30846
G1 X86.136 Y101.563 E4.36046
G1 X77.818 Y93.245 E4.68722
G1 X77.527 Y93.534 E4.69861
G1 X77.452 Y93.650 E4.70246
G1 X84.789 Y100.986 E4.99066
G1 X83.807 Y100.776 E5.01855
G1 X77.197 Y94.166 E5.27820
G1 X77.141 Y94.494 E5.28743
G1 X77.141 Y94.882 E5.29821
G1 X82.929 Y100.670 E5.52558
G1 X82.107 Y100.619 E5.54845
G1 X77.279 Y95.791 E5.73813
G1 X77.437 Y96.379 E5.75504
G1 X77.616 Y96.899 E5.77032
G1 X81.305 Y100.589 E5.91525
G1 X81.074 Y100.571 E5.92171
G1 X80.661 Y100.455 E5.93361
G1 X80.186 Y100.211 E5.94845
G1 X80.033 Y100.087 E5.95393
G1 X78.711 Y98.766 E6.00585
G1 X83.480 Y95.821 F7800.000
G1 F4800
G1 X80.578 Y92.919 E6.11985
G1 X80.212 Y92.788 E6.13064
G1 X79.768 Y92.682 E6.14332
G1 X79.546 Y92.659 E6.14951
G1 X84.606 Y97.718 E6.34826
G1 X84.845 Y98.084 E6.36040
G1 X85.314 Y98.622 E6.38021
G1 X85.718 Y98.972 E6.39508
G1 X86.051 Y99.164 E6.40575
G1 X91.939 Y106.595 F7800.000
G1 F4800
G1 X88.445 Y103.101 E6.54300
G1 X89.023 Y104.239 E6.57847
G1 X89.200 Y104.508 E6.58741
G1 X89.425 Y104.695 E6.59553
G1 X90.223 Y105.266 E6.62278
G1 X90.475 Y105.512 E6.63257
G1 X90.766 Y105.868 E6.64535
G1 X90.877 Y106.037 E6.65097
G1 X90.931 Y106.183 E6.65530
G1 X91.160 Y106.586 E6.66817
G1 X92.380 Y107.807 E6.71612
G1 X92.478 Y108.143 E6.72585
G1 X91.906 Y107.497 E6.74981
G1 X91.542 Y106.968 E6.76766
G1 X92.958 Y109.156 F7800.000
G1 F4800
G1 X92.887 Y108.923 E6.77444
G1 X92.845 Y108.867 E6.77636
G1 X92.753 Y108.820 E6.77924
G1 X92.498 Y108.452 E6.79168
G1 X92.473 Y108.671 E6.79780
G1 X93.340 Y109.538 E6.83186
G1 E4.83186 F2400.00000
G92 E0
G1 X105.628 Y89.517 F7800.000
G1 E2.00000 F2400.00000
G1 F1200
G1 X105.475 Y89.759 E2.00954
G1 X105.580 Y89.699 E2.01357
G1 X105.701 Y89.590 E2.01900
G1 X105.246 Y89.135 E2.04046
G1 X105.434 Y88.812 E2.05294
G1 X105.537 Y88.593 E2.06099
G1 X105.919 Y88.975 E2.07900
G1 E0.07900 F2400.00000
G92 E0
G1 X114.540 Y98.342 F7800.000
G1 E2.00000 F2400.00000
G1 F1200
G1 X114.491 Y98.369 E2.00189
G1 X114.664 Y98.615 E2.01190
G1 X114.753 Y98.554 E2.01549
G1 X114.158 Y97.960 E2.04353
G1 X114.680 Y97.648 E2.06377
G1 X115.062 Y98.030 E2.08178
G1 X115.670 Y97.521 F7800.000
G1 F1200
G1 X116.052 Y97.903 E2.09979
G1 X116.429 Y97.766 E2.11313
G1 X116.668 Y97.720 E2.12125
G1 X115.924 Y96.976 E2.15632
G1 X116.275 Y96.825 E2.16906
G1 X116.406 Y96.791 E2.17356
G1 X116.502 Y97.057 E2.18297
G1 X116.739 Y96.993 E2.19115
G1 X117.347 Y97.600 E2.21981
G1 X117.790 Y97.549 E2.23468
G1 X118.100 Y97.555 E2.24500
G1 X117.278 Y96.733 E2.28373
G1 X117.260 Y96.583 E2.28876
G1 X117.431 Y96.548 E2.29458
G1 X117.867 Y96.524 E2.30913
G1 X118.963 Y97.619 E2.36077
G1 X119.438 Y97.721 E2.37696
G1 X119.635 Y97.795 E2.38400
G1 X120.049 Y97.997 E2.39935
G1 X120.302 Y98.161 E2.40940
G1 X118.753 Y96.612 E2.48242
G1 X119.182 Y96.829 E2.49844
G1 X119.862 Y97.261 E2.52531
G1 X120.543 Y97.788 E2.55399
G1 X120.733 Y97.914 E2.56159
G1 X120.929 Y98.099 E2.57060
G1 X121.253 Y98.349 E2.58423
G1 X121.404 Y98.513 E2.59166
G1 X121.826 Y98.886 E2.61042
G1 X122.211 Y99.270 E2.62856
G1 E0.62856 F2400.00000
G92 E0
G1 X104.856 Y109.646 F7800.000
G1 E2.00000 F2400.00000
G1 F1200
G1 X104.474 Y109.264 E2.01595
G1 X104.418 Y109.424 E2.02096
G1 X104.318 Y109.846 E2.03377
G1 X104.700 Y110.228 E2.04972
M106 S244.8
G1 Z1.900 F7800.000
G1 E0.04972 F2400.00000
G92 E0
G1 X102.239 Y106.246 F7800.000
G1 E2.00000 F2400.00000
G1 F4800
G1 X103.477 Y105.008 E2.04861
G1 X103.452 Y104.470 E2.06356
G1 X103.424 Y104.394 E2.06583
G1 X103.462 Y104.251 E2.06994
G1 X101.272 Y106.441 E2.15598
G1 X101.150 Y106.349 E2.16023
G1 X101.092 Y106.250 E2.16343
G1 X101.090 Y106.080 E2.16814
G1 X101.123 Y105.951 E2.17185
G1 X101.330 Y105.652 E2.18193
G1 X101.478 Y105.489 E2.18805
G1 X101.808 Y105.176 E2.20068
G1 X102.345 Y104.597 E2.22261
G1 X104.129 Y102.813 E2.29269
G1 X104.153 Y102.018 E2.31480
G1 X102.930 Y103.241 E2.36285
G1 X102.975 Y103.009 E2.36939
G1 X103.108 Y102.612 E2.38101
G1 X103.106 Y102.441 E2.38577
G1 X103.209 Y102.190 E2.39332
G1 X104.192 Y101.208 E2.43191
G1 X103.810 Y101.589 F7800.000
G1 F4800
G1 X103.842 Y101.428 E2.43648
G1 X103.950 Y101.319 E2.44073
G1 X104.554 Y100.846 E2.46205
G1 X106.876 Y98.524 E2.55327
G1 X107.520 Y98.650 E2.57152
G1 X106.764 Y99.407 E2.60122
G1 X102.549 Y102.079 F7800.000
G1 F4800
G1 X106.228 Y98.400 E2.74575
G1 X105.611 Y98.245 E2.76341
G1 X101.285 Y102.572 E2.93338
G1 X100.420 Y102.877 E2.95886
G1 X100.009 Y103.076 E2.97153
G1 X105.003 Y98.083 E3.16770
G1 X104.676 Y98.004 E3.17704
G1 X104.349 Y97.965 E3.18618
G1 X98.672 Y103.642 E3.40918
G1 X98.177 Y103.820 E3.42380
G1 X97.526 Y104.016 E3.44268
G1 X103.685 Y97.857 E3.68462
G1 X103.570 Y97.846 E3.68784
G1 X103.290 Y97.867 E3.69563
G1 X103.091 Y97.912 E3.70131
G1 X102.858 Y97.913 E3.70778
G1 X96.555 Y104.217 E3.95539
G1 X95.722 Y104.278 E3.97858
G1 X101.990 Y98.010 E4.22481
G1 X101.348 Y98.060 E4.24270
G1 X101.171 Y98.057 E4.24760
G1 X94.948 Y104.280 E4.49206
G1 X94.235 Y104.222 E4.51194
G1 X100.406 Y98.051 E4.75437
G1 X99.622 Y98.064 E4.77616
G1 X93.552 Y104.134 E5.01463
G1 X92.898 Y104.017 E5.03308
G1 X98.812 Y98.103 E5.26540
G1 X97.978 Y98.165 E5.28863
G1 X92.271 Y103.872 E5.51282
G1 X91.655 Y103.717 E5.53047
G1 X97.114 Y98.258 E5.74493
G1 X96.775 Y98.302 E5.75443
G1 X96.187 Y98.414 E5.77106
G1 X91.045 Y103.556 E5.97305
G1 X90.837 Y103.497 E5.97903
G1 X90.398 Y103.431 E5.99136
G1 X95.162 Y98.668 E6.17848
G1 X94.104 Y98.954 E6.20891
G1 X89.005 Y104.053 E6.40921
G1 X88.736 Y103.551 E6.42503
G1 X93.097 Y99.190 E6.59635
G1 X92.136 Y99.380 E6.62356
G1 X88.510 Y103.005 E6.76599
G1 X88.448 Y102.871 E6.77009
G1 X88.249 Y102.736 E6.77678
G1 X88.079 Y102.665 E6.78189
G1 X91.229 Y99.515 E6.90561
G1 X90.837 Y99.566 E6.91658
G1 X90.414 Y99.558 E6.92832
G1 X87.523 Y102.450 E7.04191
G1 X87.362 Y102.375 E7.04684
G1 X87.044 Y102.157 E7.05754
G1 X90.079 Y99.122 E7.17676
G1 X90.048 Y98.925 E7.18231
G1 X90.099 Y98.620 E7.19091
G1 X90.204 Y98.226 E7.20221
G1 X89.321 Y99.109 E7.23689
G1 X89.477 Y98.892 E7.24433
G1 X89.512 Y98.884 E7.24531
G1 X89.715 Y98.698 E7.25296
G1 X89.970 Y97.987 E7.27395
G1 X90.132 Y97.644 E7.28448
G1 X90.147 Y97.512 E7.28819
G1 X90.926 Y96.733 E7.31879
G1 X91.058 Y96.433 E7.32789
G1 X91.095 Y96.270 E7.33252
G1 X91.272 Y95.843 E7.34538
G1 X91.484 Y95.404 E7.35892
G1 X91.036 Y95.851 E7.37650
G1 X91.151 Y95.438 E7.38840
G1 X91.180 Y95.106 E7.39768
G1 X91.171 Y94.945 E7.40216
G1 X91.685 Y94.431 E7.42232
G1 X91.076 Y94.269 F7800.000
G1 F4800
G1 X91.467 Y93.878 E7.43767
G1 X91.432 Y93.670 E7.44352
G1 X91.399 Y93.174 E7.45733
G1 X90.822 Y93.751 E7.48001
G1 X90.772 Y93.549 E7.48581
G1 X90.812 Y93.324 E7.49214
G1 X90.836 Y93.258 E7.49411
G1 X90.951 Y93.120 E7.49910
G1 X90.979 Y93.131 E7.49994
G1 X90.997 Y93.203 E7.50198
G1 X91.018 Y93.556 E7.51180
G1 E5.51180 F2400.00000
G92 E0
G1 X86.601 Y101.829 F7800.000
G1 E2.00000 F2400.00000
G1 F4800
G1 X89.577 Y98.853 E2.11692
G1 X89.365 Y98.994 E2.12400
G1 X89.178 Y99.156 E2.13089
G1 X88.911 Y99.458 E2.14208
G1 X88.844 Y99.487 E2.14410
G1 X88.614 Y99.663 E2.15216
G1 X88.033 Y99.626 E2.16833
G1 X86.158 Y101.501 E2.24198
G1 X85.700 Y101.187 E2.25739
G1 X87.371 Y99.516 E2.32305
G1 X86.765 Y99.351 E2.34051
G1 X85.187 Y100.929 E2.40250
G1 X84.610 Y100.735 E2.41941
G1 X86.184 Y99.160 E2.48125
G1 X86.078 Y99.126 E2.48437
G1 X85.678 Y98.895 E2.49718
G1 X83.990 Y100.583 E2.56349
G1 X83.342 Y100.460 E2.58182
G1 X85.251 Y98.551 E2.65683
G1 X85.164 Y98.480 E2.65994
G1 X84.879 Y98.152 E2.67202
G1 X82.655 Y100.376 E2.75940
G1 X81.931 Y100.328 E2.77954
G1 X84.541 Y97.719 E2.88205
G1 X84.232 Y97.256 E2.89750
G1 X81.196 Y100.292 E3.01675
G1 X80.703 Y100.269 E3.03045
G1 X80.506 Y100.211 E3.03617
G1 X83.949 Y96.767 E3.17146
G1 X83.667 Y96.279 E3.18714
G1 X79.971 Y99.975 E3.33233
G1 X79.539 Y99.635 E3.34759
G1 X83.380 Y95.794 E3.49848
G1 X83.094 Y95.309 E3.51412
G1 X79.156 Y99.247 E3.66883
G1 X78.778 Y98.853 E3.68398
G1 X82.793 Y94.838 E3.84170
G1 X82.618 Y94.586 E3.85024
G1 X82.461 Y94.399 E3.85702
G1 X78.376 Y98.484 E4.01750
G1 X78.245 Y98.320 E4.02332
G1 X78.067 Y98.022 E4.03298
G1 X82.100 Y93.989 E4.19142
G1 X81.678 Y93.639 E4.20663
G1 X77.832 Y97.485 E4.35772
G1 X77.675 Y96.871 E4.37533
G1 X81.203 Y93.343 E4.51392
G1 X81.004 Y93.239 E4.52016
G1 X80.721 Y93.054 E4.52955
G1 X77.546 Y96.229 E4.65427
G1 X77.420 Y95.584 E4.67252
G1 X80.175 Y92.828 E4.78076
G1 X79.840 Y92.782 E4.79014
G1 X79.536 Y92.818 E4.79866
G1 X79.357 Y92.875 E4.80387
G1 X77.398 Y94.834 E4.88082
G1 X77.420 Y94.688 E4.88491
G1 X77.512 Y94.435 E4.89239
G1 X77.717 Y94.112 E4.90302
G1 X77.792 Y94.032 E4.90606
G1 X78.139 Y93.721 E4.91900
G1 X78.587 Y93.456 E4.93346
G1 X78.644 Y93.442 E4.93509
G1 X78.975 Y93.257 E4.94564
G1 X90.508 Y103.322 F7800.000
G1 F4800
G1 X89.265 Y104.565 E4.99447
G1 X89.385 Y104.726 E5.00006
G1 X89.676 Y104.925 E5.00985
G1 X90.581 Y104.019 E5.04542
G1 X90.645 Y104.202 E5.05078
G1 X90.725 Y104.647 E5.06335
G1 X90.213 Y105.159 E5.08346
G1 X90.620 Y105.281 F7800.000
G1 F1200
G1 X90.238 Y105.662 E5.09915
G1 X90.593 Y106.031 E5.11403
G1 X91.331 Y105.293 E5.14438
G1 X91.607 Y105.740 E5.15967
G1 X90.891 Y106.456 E5.18911
G1 X90.931 Y106.565 E5.19248
G1 X91.140 Y106.932 E5.20473
G1 X91.912 Y106.159 E5.23649
G1 X91.997 Y106.334 E5.24215
G1 X92.116 Y106.475 E5.24750
G1 X92.171 Y106.623 E5.25212
G1 X91.428 Y107.367 E5.28270
G1 X91.759 Y107.759 E5.29762
G1 X92.343 Y107.175 E5.32164
G1 X92.403 Y107.535 E5.33226
G1 X92.479 Y107.763 E5.33924
G1 X92.097 Y108.145 E5.35493
G1 X92.880 Y108.452 F7800.000
G1 F1200
G1 X92.498 Y108.834 E5.37063
G1 X92.475 Y108.962 E5.37439
G1 X92.486 Y109.592 E5.39272
G1 X93.216 Y108.862 E5.42274
G1 X93.265 Y108.919 E5.42491
G1 X93.331 Y109.088 E5.43018
G1 X93.337 Y109.276 E5.43566
G1 X93.302 Y109.499 E5.44221
G1 X93.222 Y109.602 E5.44602
G1 X92.839 Y109.984 E5.46174
G1 E3.46174 F2400.00000
G92 E0
G1 X103.968 Y105.415 F7800.000
G1 E2.00000 F2400.00000
G1 F1200
G1 X103.586 Y105.797 E2.01570
G1 X103.599 Y106.064 E2.02347
G1 X103.475 Y106.146 E2.02780
G1 X103.388 Y106.283 E2.03251
G1 X103.793 Y106.343 E2.04441
G1 X104.498 Y105.638 E2.07338
G1 X104.897 Y105.775 E2.08564
G1 X105.115 Y105.775 E2.09199
G1 X104.290 Y106.600 E2.12590
G1 X104.654 Y106.990 E2.14141
G1 X105.737 Y105.908 E2.18591
G1 X105.824 Y106.136 E2.19300
G1 X105.831 Y106.307 E2.19797
G1 X105.765 Y106.546 E2.20520
G1 X105.639 Y106.759 E2.21238
G1 X105.256 Y107.142 E2.22813
G1 E0.22813 F2400.00000
G92 E0
G1 X108.888 Y99.013 F7800.000
G1 E2.00000 F2400.00000
G1 F1200
G1 X108.506 Y99.395 E2.01570
G1 X109.130 Y99.471 E2.03398
G1 X109.698 Y98.903 E2.05731
G1 X110.249 Y99.052 E2.07391
G1 X109.687 Y99.614 E2.09702
G1 X110.217 Y99.784 E2.11320
G1 X110.816 Y99.185 E2.13782
G1 X111.173 Y99.251 E2.14837
G1 X111.442 Y99.259 E2.15619
G1 X110.773 Y99.929 E2.18370
G1 X111.108 Y100.002 E2.19366
G1 X111.436 Y99.966 E2.20325
G1 X112.198 Y99.204 E2.23459
G1 X112.564 Y99.150 E2.24535
G1 X113.102 Y99.000 E2.26156
G1 X112.719 Y99.383 E2.27727
G1 E0.27727 F2400.00000
G92 E0
G1 X103.746 Y97.811 F7800.000
G1 E2.00000 F2400.00000
G1 F1200
G1 X104.128 Y97.429 E2.01570
G1 X104.127 Y97.332 E2.01852
G1 X104.049 Y97.201 E2.02296
G1 X104.391 Y96.440 E2.04719
G1 X103.098 Y97.733 E2.10034
G1 X102.596 Y97.804 E2.11507
G1 X102.676 Y97.677 E2.11942
G1 X102.619 Y97.486 E2.12520
G1 X104.335 Y95.770 E2.19574
G1 X104.265 Y95.681 E2.19902
G1 X103.991 Y95.468 E2.20913
G1 X103.942 Y95.436 E2.21081
G1 X102.351 Y97.028 E2.27621
G1 X102.158 Y96.816 E2.28453
G1 X101.982 Y96.670 E2.29118
G1 X103.414 Y95.238 E2.35006
G1 X103.053 Y95.132 E2.36099
G1 X102.885 Y95.040 E2.36655
G1 X101.562 Y96.363 E2.42093
G1 X101.102 Y96.097 E2.43638
G1 X102.526 Y94.673 E2.49489
G1 X102.408 Y94.451 E2.50222
G1 X102.353 Y94.120 E2.51197
G1 X100.630 Y95.843 E2.58278
G1 X100.372 Y95.684 E2.59158
G1 X100.205 Y95.541 E2.59797
G1 X104.284 Y91.463 E2.76561
G1 X104.144 Y90.877 E2.78313
G1 X99.858 Y95.162 E2.95927
G1 X99.660 Y94.892 E2.96899
G1 X99.571 Y94.723 E2.97456
G1 X101.476 Y92.818 E3.05287
G1 X100.809 Y93.091 E3.07384
G1 X100.280 Y93.346 E3.09091
G1 X100.085 Y93.482 E3.09780
G1 X99.703 Y93.864 E3.11350
G1 E1.11350 F2400.00000
G92 E0
G1 X103.187 Y93.286 F7800.000
G1 E2.00000 F2400.00000
G1 F1200
G1 X104.444 Y92.029 E2.05170
G1 X104.284 Y91.463 E2.06879
G1 X103.765 Y90.529 F7800.000
G1 F1200
G1 X102.629 Y91.665 E2.11547
G1 E0.11547 F2400.00000
G92 E0
G1 X117.281 Y97.259 F7800.000
G1 E2.00000 F2400.00000
G1 F1200
G1 X117.663 Y96.878 E2.01771
G1 X117.857 Y96.846 E2.02415
G1 X118.549 Y96.812 E2.04687
G1 X118.094 Y97.266 E2.06793
G1 X118.824 Y97.356 F7800.000
G1 F1200
G1 X119.205 Y96.974 E2.08564
M106 S249.9
G1 Z2.300 F7800.000
G1 E0.08564 F2400.00000
G92 E0
G1 X104.144 Y96.674 F7800.000
G1 E2.00000 F2400.00000
G1 F1200
G1 X102.961 Y95.492 E2.04790
G1 X103.350 Y95.585 E2.05936
G1 X103.469 Y95.651 E2.06323
G1 X103.566 Y95.736 E2.06692
G1 X103.746 Y96.000 E2.07609
G1 X103.781 Y96.199 E2.08185
G1 X103.762 Y96.293 E2.08460
G1 E0.08460 F2400.00000
G92 E0
G1 X100.752 Y95.430 F7800.000
G1 E2.00000 F2400.00000
G1 F1200
G1 X100.244 Y94.915 E2.02073
G1 X99.953 Y94.527 E2.03461
G1 X99.839 Y94.308 E2.04168
G1 X99.791 Y94.125 E2.04711
G1 X99.802 Y93.858 E2.05477
G1 X99.836 Y93.798 E2.05674
G1 X101.882 Y95.844 E2.13960
G1 X102.017 Y95.923 E2.14409
G1 X102.320 Y96.197 E2.15580
G1 X102.489 Y96.374 E2.16279
G1 X102.810 Y96.772 E2.17746
G1 X103.344 Y97.306 E2.19908
G1 X103.574 Y97.458 E2.20698
G1 X103.702 Y97.445 E2.21066
G1 X103.861 Y97.306 E2.21670
G1 X103.942 Y97.188 E2.22080
G1 X100.210 Y93.456 E2.37196
G1 X100.390 Y93.333 E2.37822
G1 X100.669 Y93.199 E2.38706
G1 X102.218 Y94.748 E2.44982
G1 X102.176 Y94.337 E2.46166
G1 X102.186 Y94.001 E2.47128
G1 X101.210 Y93.025 E2.51081
G1 X101.709 Y92.909 E2.52548
G1 X101.822 Y92.977 E2.52926
G1 X101.852 Y92.951 E2.53040
G1 X102.359 Y93.458 E2.55094
G1 X102.714 Y93.136 E2.56466
G1 X102.748 Y93.131 E2.56564
G1 X102.241 Y92.624 E2.58618
G1 X102.349 Y92.546 E2.59000
G1 X102.546 Y92.214 E2.60107
G1 X103.378 Y93.045 E2.63475
G1 X103.676 Y92.944 E2.64377
G1 X103.810 Y92.879 E2.64803
G1 X103.874 Y92.826 E2.65042
G1 X102.762 Y91.714 E2.69547
G1 X102.938 Y91.174 E2.71173
G1 X104.125 Y92.362 E2.75982
G1 X103.780 Y91.301 F7800.000
G1 F1200
G1 X103.398 Y90.919 E2.77529
G1 E0.77529 F2400.00000
G92 E0
G1 X106.406 Y99.464 F7800.000
G1 E2.00000 F2400.00000
G1 F4800
G1 X105.589 Y98.647 E2.03209
G1 X104.537 Y98.367 E2.06233
G1 X105.933 Y99.763 E2.11717
G1 X105.483 Y100.084 E2.13253
G1 X103.633 Y98.234 E2.20522
G1 X102.842 Y98.214 E2.22721
G1 X105.039 Y100.411 E2.31355
G1 X104.603 Y100.746 E2.32883
G1 X102.114 Y98.257 E2.42660
G1 X101.415 Y98.330 E2.44611
G1 X104.171 Y101.086 E2.55436
G1 X103.677 Y101.363 E2.57011
G1 X100.670 Y98.356 E2.68823
G1 X99.896 Y98.353 E2.70972
G1 X103.160 Y101.618 E2.83795
G1 X102.634 Y101.863 E2.85407
G1 X99.140 Y98.369 E2.99135
G1 X98.406 Y98.406 E3.01176
G1 X102.094 Y102.094 E3.15666
G1 X101.534 Y102.306 E3.17328
G1 X97.688 Y98.459 E3.32440
G1 X96.989 Y98.532 E3.34391
G1 X100.964 Y102.507 E3.50008
G1 X100.725 Y102.591 E3.50712
G1 X100.423 Y102.737 E3.51644
G1 X96.309 Y98.623 E3.67803
G1 X95.663 Y98.749 E3.69631
G1 X99.901 Y102.986 E3.86279
G1 X99.351 Y103.208 E3.87926
G1 X95.046 Y98.903 E4.04835
G1 X94.439 Y99.067 E4.06582
G1 X98.793 Y103.421 E4.23686
G1 X98.216 Y103.615 E4.25377
G1 X93.834 Y99.234 E4.42591
G1 X93.212 Y99.383 E4.44369
G1 X97.615 Y103.786 E4.61667
G1 X96.965 Y103.907 E4.63503
G1 X92.581 Y99.523 E4.80728
G1 X91.938 Y99.651 E4.82548
G1 X96.257 Y103.970 E4.99514
G1 X95.836 Y103.984 E5.00684
G1 X95.496 Y103.981 E5.01627
G1 X91.274 Y99.758 E5.18214
G1 X90.596 Y99.852 E5.20115
G1 X94.668 Y103.924 E5.36109
G1 X93.777 Y103.804 E5.38605
G1 X89.886 Y99.913 E5.53890
G1 X89.760 Y99.914 E5.54241
G1 X89.636 Y99.858 E5.54620
G1 X89.500 Y99.858 E5.54997
G1 X89.268 Y99.693 E5.55786
G1 X89.191 Y99.554 E5.56228
G1 X89.080 Y99.516 E5.56556
G1 X88.909 Y99.589 E5.57073
G1 X88.847 Y99.646 E5.57306
G1 X92.803 Y103.602 E5.72847
G1 X91.770 Y103.340 E5.75808
G1 X88.385 Y99.955 E5.89107
G1 X87.589 Y99.930 E5.91319
G1 X90.707 Y103.049 E6.03569
G1 X90.266 Y102.950 E6.04824
G1 X89.908 Y103.021 E6.05837
G1 X86.616 Y99.728 E6.18772
G1 X85.618 Y99.409 E6.21683
G1 X85.399 Y99.283 E6.22383
G1 X88.476 Y102.360 E6.34471
G1 X87.970 Y102.165 E6.35977
G1 X87.833 Y102.091 E6.36409
G1 X86.390 Y101.045 E6.41360
G1 X78.605 Y93.260 E6.71943
G1 X78.442 Y93.483 E6.72709
G1 X78.303 Y93.565 E6.73159
G1 X78.216 Y93.643 E6.73482
G1 X85.002 Y100.428 E7.00138
G1 X84.007 Y100.205 E7.02969
G1 X77.837 Y94.035 E7.27208
G1 X77.737 Y94.188 E7.27717
G1 X77.655 Y94.415 E7.28387
G1 X77.637 Y94.606 E7.28919
G1 X83.111 Y100.080 E7.50424
G1 X82.285 Y100.025 E7.52725
G1 X77.721 Y95.462 E7.70651
G1 X77.791 Y95.833 E7.71701
G1 X77.762 Y96.274 E7.72927
G1 X81.473 Y99.985 E7.87507
G1 X81.106 Y99.967 E7.88529
G1 X80.729 Y99.851 E7.89626
G1 X80.464 Y99.707 E7.90462
G1 X80.272 Y99.555 E7.91143
G1 X77.847 Y97.131 E8.00668
G1 X83.087 Y96.200 F7800.000
G1 F4800
G1 X79.696 Y92.809 E8.13989
G1 X79.445 Y92.784 E8.14692
G1 X79.154 Y92.818 E8.15504
G1 X78.987 Y92.871 E8.15992
G1 X84.238 Y98.122 E8.36622
G1 X84.488 Y98.502 E8.37884
G1 X85.015 Y99.102 E8.40102
G1 X85.483 Y99.493 E8.41796
G1 X85.781 Y99.665 E8.42753
G1 X88.094 Y101.978 F7800.000
G1 F4800
G1 X88.582 Y102.160 E8.44198
G1 X88.651 Y102.196 E8.44414
G1 X88.860 Y102.369 E8.45168
G1 X88.972 Y102.811 E8.46435
G1 X89.029 Y102.913 E8.46760
G1 X89.896 Y103.780 E8.50164
G1 X90.581 Y103.524 F7800.000
G1 F1200
G1 X90.199 Y103.142 E8.51965
G1 X89.965 Y103.089 E8.52765
G1 X89.996 Y103.285 E8.53424
G1 X90.134 Y103.787 E8.55162
G1 X90.516 Y104.169 E8.56962
G1 X90.543 Y104.291 F7800.000
G1 F1200
G1 X90.161 Y103.909 E8.58763
G1 X89.956 Y104.354 E8.60395
G1 X89.794 Y104.376 E8.60939
G1 X90.576 Y105.157 E8.64621
G1 X90.496 Y105.151 E8.64888
G1 X90.372 Y105.061 E8.65398
G1 X90.108 Y104.953 E8.66349
G1 X89.751 Y104.708 E8.67792
G1 X89.639 Y104.555 E8.68423
G1 X89.488 Y104.258 E8.69534
G1 X89.643 Y104.523 E8.70559
G1 X89.881 Y104.713 E8.71572
G1 X90.176 Y104.757 E8.72568
G1 E6.72568 F2400.00000
G92 E0
G1 X88.916 Y99.052 F7800.000
G1 E2.00000 F2400.00000
G1 F1200
G1 X89.298 Y99.434 E2.01800
G1 X89.464 Y99.367 E2.02397
G1 X89.910 Y99.529 E2.03979
G1 X90.026 Y99.740 E2.04781
G1 X90.125 Y99.749 E2.05112
G1 X90.205 Y99.785 E2.05408
G1 X90.100 Y99.638 E2.06011
G1 X90.079 Y99.503 E2.06465
G1 X89.313 Y98.738 E2.10075
G1 X89.477 Y98.510 E2.11011
G1 X89.512 Y98.502 E2.11128
G1 X89.657 Y98.370 E2.11782
G1 X90.141 Y98.854 E2.14065
G1 X90.231 Y98.472 E2.15376
G1 X90.306 Y98.308 E2.15975
G1 X89.879 Y97.881 E2.17989
G1 X89.970 Y97.605 E2.18957
G1 X90.081 Y97.371 E2.19820
G1 X90.530 Y97.820 E2.21937
G1 X90.794 Y97.373 E2.23669
G1 X90.253 Y96.832 E2.26218
G1 X90.296 Y96.712 E2.26642
G1 X90.492 Y96.359 E2.27988
G1 X91.025 Y96.893 E2.30503
G1 X91.095 Y96.652 E2.31338
G1 X91.212 Y96.368 E2.32361
G1 X90.766 Y95.922 E2.34464
G1 X91.017 Y95.535 E2.36003
G1 X91.033 Y95.479 E2.36199
G1 X91.437 Y95.882 E2.38099
G1 X91.560 Y95.629 E2.39038
G1 X91.635 Y95.369 E2.39939
G1 X91.165 Y94.898 E2.42158
G1 X91.171 Y94.560 E2.43285
G1 X91.205 Y94.227 E2.44401
G1 X91.587 Y94.609 E2.46201
G1 X91.226 Y93.830 F7800.000
G1 F1200
G1 X91.473 Y94.293 E2.47948
G1 X91.431 Y94.034 E2.48821
G1 X90.845 Y93.448 E2.51583
G1 X90.772 Y93.166 E2.52556
G1 X90.836 Y92.876 E2.53546
G1 X90.951 Y92.738 E2.54144
G1 X90.979 Y92.750 E2.54244
G1 X91.361 Y93.132 E2.56046
G1 E0.56046 F2400.00000
G92 E0
G1 X104.156 Y101.658 F7800.000
G1 E2.00000 F2400.00000
G1 F1200
G1 X103.775 Y101.276 E2.01800
G1 X103.314 Y101.547 E2.03581
G1 X104.154 Y102.387 E2.07540
G1 X104.140 Y103.104 E2.09931
G1 X103.106 Y102.070 E2.14807
G1 X103.108 Y102.230 E2.15342
G1 X102.969 Y102.664 E2.16861
G1 X103.977 Y103.673 E2.21615
G1 X103.791 Y104.023 E2.22936
G1 X103.703 Y104.130 E2.23398
G1 X102.817 Y103.244 E2.27577
G1 X102.707 Y103.599 E2.28817
G1 X102.618 Y103.776 E2.29477
G1 X103.466 Y104.624 E2.33474
G1 X103.433 Y104.743 E2.33884
G1 X103.475 Y105.364 E2.35961
G1 X102.336 Y104.225 E2.41329
G1 X101.984 Y104.604 E2.43054
G1 X103.373 Y105.993 E2.49602
G1 X103.354 Y106.023 E2.49719
G1 X103.212 Y106.097 E2.50252
G1 X102.849 Y106.201 E2.51512
G1 X101.625 Y104.977 E2.57279
G1 X101.327 Y105.276 E2.58685
G1 X101.273 Y105.356 E2.59008
G1 X102.259 Y106.342 E2.63656
G1 X101.782 Y106.462 E2.65293
G1 X101.679 Y106.450 E2.65639
G1 X101.528 Y106.343 E2.66255
G1 X101.146 Y105.960 E2.68058
M106 S255
G1 Z2.700 F7800.000
G1 X102.220 Y105.297 F7800.000
G1 F762.619
G1 X102.761 Y104.757 E2.70607
G1 X103.012 Y105.339 F7800.000
G1 F762.619
G1 X102.630 Y105.721 E2.72407
G1 E0.72407 F2400.00000
G92 E0
G1 X103.260 Y96.843 F7800.000
G1 E2.00000 F2400.00000
G1 F762.619
G1 X103.642 Y96.461 E2.01530
G1 X103.337 Y96.058 F7800.000
G1 F762.619
G1 X102.952 Y96.442 E2.03071
G1 X101.424 Y95.498 F7800.000
G1 F762.619
G1 X101.806 Y95.116 E2.04796
G1 X101.889 Y95.001 E2.05250
G1 X101.944 Y94.401 E2.07173
G1 X101.920 Y94.204 E2.07805
G1 X100.772 Y95.352 E2.12983
G1 X100.544 Y95.197 E2.13864
G1 X100.395 Y95.030 E2.14580
G1 X100.361 Y94.966 E2.14811
G1 X101.762 Y93.564 E2.21137
G1 X101.694 Y93.446 E2.21572
G1 X101.580 Y93.420 E2.21945
G1 X101.429 Y93.421 E2.22429
G1 X101.235 Y93.450 E2.23055
G1 X100.930 Y93.599 E2.24138
G1 X100.548 Y93.981 E2.25862
G1 E0.25862 F2400.00000
G92 E0
G1 X104.322 Y100.305 F7800.000
G1 E2.00000 F2400.00000
G1 F3050.47
G1 X105.735 Y98.893 E2.05548
G1 X105.130 Y98.727 E2.07291
G1 X102.368 Y101.489 E2.18141
G1 X101.668 Y101.796 E2.20265
G1 X101.061 Y102.024 E2.22065
G1 X104.478 Y98.608 E2.35486
G1 X104.023 Y98.542 E2.36763
G1 X103.783 Y98.531 E2.37430
G1 X99.768 Y102.546 E2.53201
G1 X99.503 Y102.675 E2.54019
G1 X98.449 Y103.093 E2.57169
G1 X103.025 Y98.517 E2.75145
G1 X102.174 Y98.597 E2.77519
G1 X97.315 Y103.456 E2.96607
G1 X96.990 Y103.531 E2.97536
G1 X96.369 Y103.631 E2.99281
G1 X101.339 Y98.661 E3.18806
G1 X100.571 Y98.658 E3.20941
G1 X95.552 Y103.677 E3.40656
G1 X94.792 Y103.666 E3.42768
G1 X99.795 Y98.662 E3.62423
G1 X98.990 Y98.696 E3.64660
G1 X94.089 Y103.597 E3.83913
G1 X93.411 Y103.504 E3.85815
G1 X98.162 Y98.753 E4.04479
G1 X97.300 Y98.843 E4.06885
G1 X92.766 Y103.377 E4.24698
G1 X92.148 Y103.224 E4.26466
G1 X96.386 Y98.986 E4.43112
G1 X96.119 Y99.037 E4.43865
G1 X95.371 Y99.230 E4.46011
G1 X91.533 Y103.068 E4.61088
G1 X90.927 Y102.903 E4.62834
G1 X94.313 Y99.517 E4.76135
G1 X93.299 Y99.759 E4.79029
G1 X90.327 Y102.731 E4.90707
G1 X89.873 Y102.623 E4.92004
G1 X89.718 Y102.569 E4.92459
G1 X92.335 Y99.952 E5.02740
G1 X91.422 Y100.094 E5.05306
G1 X89.129 Y102.387 E5.14314
G1 X88.536 Y102.208 E5.16033
G1 X90.541 Y100.203 E5.23910
G1 X90.037 Y100.246 E5.25314
G1 X89.722 Y100.250 E5.26188
G1 X87.971 Y102.002 E5.33069
G1 X87.732 Y101.910 E5.33781
G1 X87.454 Y101.748 E5.34675
G1 X88.939 Y100.263 E5.40509
G1 X88.574 Y100.269 E5.41523
G1 X88.182 Y100.248 E5.42612
G1 X87.011 Y101.419 E5.47215
G1 X86.565 Y101.093 E5.48748
G1 X87.504 Y100.155 E5.52436
G1 X87.272 Y100.113 E5.53091
G1 X86.884 Y100.003 E5.54210
G1 X86.114 Y100.774 E5.57237
G1 X85.629 Y100.487 E5.58801
G1 X86.298 Y99.818 E5.61429
G1 X85.921 Y99.692 E5.62533
G1 X85.751 Y99.594 E5.63080
G1 X85.077 Y100.267 E5.65724
G1 X84.487 Y100.087 E5.67440
G1 X85.277 Y99.296 E5.70545
G1 X84.854 Y98.948 E5.72067
G1 X83.854 Y99.948 E5.75996
G1 X83.197 Y99.833 E5.77848
G1 X84.494 Y98.537 E5.82940
G1 X84.310 Y98.329 E5.83712
G1 X84.160 Y98.100 E5.84473
G1 X82.495 Y99.764 E5.91012
G1 X81.771 Y99.717 E5.93028
G1 X83.847 Y97.641 E6.01185
G1 X83.566 Y97.151 E6.02754
G1 X81.036 Y99.681 E6.12693
G1 X80.772 Y99.670 E6.13425
G1 X80.396 Y99.549 E6.14522
G1 X83.280 Y96.665 E6.25852
G1 X82.994 Y96.180 E6.27417
G1 X79.938 Y99.236 E6.39422
G1 X79.544 Y98.858 E6.40937
G1 X82.708 Y95.695 E6.53364
G1 X82.408 Y95.224 E6.54916
G1 X79.121 Y98.510 E6.67827
G1 X78.603 Y98.570 E6.69276
G1 X78.512 Y98.504 E6.69587
G1 X78.434 Y98.426 E6.69895
G1 X82.082 Y94.778 E6.84224
G1 X81.705 Y94.383 E6.85739
G1 X78.116 Y97.973 E6.99841
G1 X77.923 Y97.539 E7.01158
G1 X77.891 Y97.426 E7.01485
G1 X81.269 Y94.049 E7.14754
G1 X81.151 Y93.964 E7.15156
G1 X81.007 Y93.792 E7.15780
G1 X80.929 Y93.617 E7.16312
G1 X77.761 Y96.785 E7.28755
G1 X77.760 Y96.720 E7.28934
G1 X77.798 Y96.727 E7.29040
G1 X77.886 Y96.416 E7.29938
G1 X77.966 Y96.252 E7.30445
G1 X78.004 Y96.079 E7.30937
G1 X77.960 Y95.814 E7.31682
G1 X80.645 Y93.130 E7.42228
G1 X80.493 Y93.034 E7.42727
G1 X80.223 Y92.920 E7.43542
G1 X80.109 Y92.894 E7.43865
G1 X77.883 Y95.120 E7.52610
G1 X77.902 Y94.871 E7.53304
G1 X77.937 Y94.774 E7.53591
G1 X78.091 Y94.516 E7.54425
G1 X78.481 Y94.142 E7.55927
G1 X78.609 Y93.807 E7.56923
G1 X78.749 Y93.534 E7.57776
G1 X78.722 Y93.518 E7.57863
G1 X78.741 Y93.497 E7.57943
G1 X78.843 Y93.424 E7.58291
G1 X78.903 Y93.440 E7.58463
G1 X78.964 Y93.357 E7.58747
G1 X79.163 Y93.284 E7.59335
G1 X79.391 Y93.243 E7.59979
G1 X79.727 Y93.276 E7.60918
G1 E5.60918 F2400.00000
G92 E0
G1 X89.584 Y102.542 F7800.000
G1 E2.00000 F2400.00000
G1 F762.619
G1 X88.969 Y103.157 E2.02898
G1 X89.008 Y103.262 E2.03270
G1 X89.272 Y103.687 E2.04939
G1 X89.852 Y103.107 E2.07675
G1 X89.896 Y103.391 E2.08633
G1 X90.006 Y103.786 E2.10001
G1 X89.624 Y104.168 E2.11801
M106 S237.15
G1 Z3.100 F7800.000
G1 E0.11801 F2400.00000
G92 E0
G1 X85.734 Y100.167 F7800.000
G1 E2.00000 F2400.00000
G1 F1200
G1 X86.116 Y100.549 E2.01574
G1 X86.608 Y100.846 E2.03248
G1 X87.791 Y101.717 E2.07527
G1 X88.117 Y101.911 E2.08630
G1 X88.217 Y101.948 E2.08941
G1 X86.174 Y99.904 E2.17357
G1 X86.890 Y100.113 E2.19529
G1 X87.127 Y100.156 E2.20231
G1 X89.295 Y102.324 E2.29161
G1 X90.309 Y102.635 E2.32249
G1 X87.929 Y100.255 E2.42050
G1 X88.638 Y100.262 E2.44114
G1 X91.266 Y102.890 E2.54940
G1 X92.224 Y103.145 E2.57825
G1 X89.329 Y100.251 E2.69746
G1 X89.999 Y100.218 E2.71699
G1 X93.156 Y103.376 E2.84703
G1 X94.022 Y103.539 E2.87267
G1 X90.633 Y100.150 E3.01223
G1 X91.248 Y100.063 E3.03033
G1 X94.817 Y103.632 E3.17732
G1 X95.333 Y103.678 E3.19240
G1 X95.568 Y103.680 E3.19924
G1 X91.857 Y99.970 E3.35205
G1 X92.445 Y99.856 E3.36949
G1 X96.253 Y103.664 E3.52634
G1 X96.492 Y103.655 E3.53328
G1 X96.905 Y103.613 E3.54538
G1 X93.025 Y99.734 E3.70517
G1 X93.592 Y99.598 E3.72214
G1 X97.494 Y103.500 E3.88284
G1 X98.046 Y103.349 E3.89949
G1 X94.154 Y99.458 E4.05977
G1 X94.709 Y99.310 E4.07649
G1 X98.581 Y103.182 E4.23595
G1 X99.086 Y102.985 E4.25175
G1 X95.264 Y99.163 E4.40919
G1 X95.824 Y99.021 E4.42602
G1 X99.592 Y102.789 E4.58122
G1 X100.084 Y102.578 E4.59680
G1 X96.414 Y98.908 E4.74795
G1 X97.044 Y98.836 E4.76641
G1 X100.556 Y102.349 E4.91110
G1 X101.064 Y102.154 E4.92692
G1 X97.676 Y98.766 E5.06646
G1 X98.326 Y98.714 E5.08545
G1 X101.579 Y101.967 E5.21943
G1 X102.092 Y101.777 E5.23535
G1 X98.993 Y98.678 E5.36299
G1 X99.679 Y98.662 E5.38298
G1 X102.580 Y101.563 E5.50245
G1 X103.059 Y101.340 E5.51784
G1 X100.383 Y98.664 E5.62804
G1 X101.079 Y98.658 E5.64831
G1 X103.524 Y101.103 E5.74901
G1 X103.975 Y100.851 E5.76405
G1 X101.728 Y98.604 E5.85660
G1 X102.359 Y98.534 E5.87511
G1 X104.384 Y100.558 E5.95848
G1 X104.777 Y100.249 E5.97305
G1 X103.043 Y98.515 E6.04447
G1 X103.641 Y98.542 E6.06191
G1 X103.795 Y98.564 E6.06644
G1 X105.183 Y99.952 E6.12360
G1 X105.591 Y99.659 E6.13826
G1 X104.635 Y98.703 E6.17763
G1 X105.605 Y98.970 E6.20692
G1 X105.987 Y99.352 E6.22265
G1 E4.22265 F2400.00000
G92 E0
G1 X83.155 Y96.841 F7800.000
G1 E2.00000 F2400.00000
G1 F1200
G1 X79.257 Y92.943 E2.16055
G1 X79.111 Y92.973 E2.16489
G1 X78.952 Y93.036 E2.16987
G1 X78.763 Y93.176 E2.17673
G1 X84.406 Y98.820 E2.40918
G1 X84.866 Y99.342 E2.42943
G1 X85.219 Y99.633 E2.44276
G1 X85.413 Y99.827 E2.45073
G1 X85.473 Y100.272 E2.46382
G1 X84.972 Y100.114 E2.47911
G1 X78.524 Y93.665 E2.74471
G1 X78.483 Y93.756 E2.74762
G1 X78.181 Y94.050 E2.75989
G1 X84.039 Y99.908 E3.00115
G1 X83.187 Y99.785 E3.02621
G1 X77.902 Y94.499 E3.24389
G1 X77.882 Y94.796 E3.25257
G1 X77.935 Y95.260 E3.26615
G1 X82.407 Y99.732 E3.45033
G1 X81.639 Y99.692 E3.47272
G1 X77.918 Y95.971 E3.62598
G1 X77.837 Y96.214 E3.63343
G1 X77.832 Y96.530 E3.64264
G1 X77.851 Y96.632 E3.64566
G1 X80.757 Y99.538 E3.76535
G1 X80.277 Y99.202 E3.78243
G1 X79.563 Y98.505 E3.81147
G1 X79.311 Y98.526 E3.81883
G1 X79.204 Y98.556 E3.82207
G1 X79.101 Y98.550 E3.82508
G1 X78.953 Y98.462 E3.83008
G1 X78.568 Y98.076 E3.84595
G1 X80.639 Y93.597 F7800.000
G1 F1200
G1 X80.257 Y93.215 E3.86168
M106 S242.25
G1 Z3.500 F7800.000
G1 E1.86168 F2400.00000
G92 E0
G1 X86.904 Y100.327 F7800.000
G1 E2.00000 F2400.00000
G1 F1200
G1 X86.523 Y100.708 E2.01547
G1 X86.940 Y101.007 E2.03017
G1 X87.488 Y100.459 E2.05235
G1 X87.972 Y100.545 E2.06644
G1 X88.110 Y100.553 E2.07040
G1 X87.348 Y101.315 E2.10126
G1 X87.635 Y101.525 E2.11146
G1 X87.777 Y101.602 E2.11608
G1 X88.804 Y100.575 E2.15768
G1 X89.527 Y100.568 E2.17840
G1 X88.294 Y101.801 E2.22835
G1 X88.829 Y101.982 E2.24452
G1 X90.279 Y100.532 E2.30328
G1 X91.082 Y100.445 E2.32642
G1 X89.379 Y102.147 E2.39541
G1 X89.931 Y102.311 E2.41190
G1 X91.918 Y100.325 E2.49238
G1 X92.790 Y100.168 E2.51777
G1 X90.493 Y102.466 E2.61084
G1 X91.048 Y102.627 E2.62738
G1 X93.705 Y99.969 E2.73507
G1 X94.657 Y99.733 E2.76315
G1 X91.613 Y102.777 E2.88647
G1 X92.183 Y102.924 E2.90332
G1 X95.633 Y99.474 E3.04309
G1 X96.148 Y99.336 E3.05836
G1 X96.565 Y99.257 E3.07052
G1 X92.753 Y103.069 E3.22494
G1 X93.351 Y103.187 E3.24240
G1 X97.402 Y99.136 E3.40650
G1 X98.202 Y99.052 E3.42955
G1 X93.979 Y103.275 E3.60065
G1 X94.624 Y103.346 E3.61925
G1 X98.971 Y98.999 E3.79536
G1 X99.715 Y98.971 E3.81669
G1 X95.306 Y103.380 E3.99532
G1 X96.049 Y103.353 E4.01663
G1 X100.448 Y98.954 E4.19484
G1 X101.152 Y98.966 E4.21503
G1 X96.879 Y103.239 E4.38814
G1 X97.232 Y103.169 E4.39843
G1 X97.856 Y102.978 E4.41713
G1 X101.909 Y98.925 E4.58134
G1 X102.708 Y98.841 E4.60436
G1 X98.993 Y102.557 E4.75491
G1 X99.435 Y102.385 E4.76852
G1 X100.280 Y101.985 E4.79530
G1 X103.449 Y98.816 E4.92369
G1 X104.119 Y98.863 E4.94292
G1 X101.405 Y101.577 E5.05288
G1 X102.296 Y101.198 E5.08062
G1 X102.693 Y101.004 E5.09329
G1 X104.744 Y98.953 E5.17639
G1 X105.080 Y99.022 E5.18620
G1 X105.311 Y99.103 E5.19320
G1 X104.929 Y99.485 E5.20869
G1 E3.20869 F2400.00000
G92 E0
G1 X84.541 Y99.783 F7800.000
G1 E2.00000 F2400.00000
G1 F1200
G1 X84.923 Y99.401 E2.01514
G1 X84.579 Y99.044 E2.02903
G1 X83.958 Y99.665 E2.05364
G1 X83.368 Y99.554 E2.07046
G1 X84.250 Y98.672 E2.10542
G1 X84.133 Y98.539 E2.11040
G1 X83.951 Y98.271 E2.11948
G1 X82.742 Y99.480 E2.16741
G1 X82.086 Y99.435 E2.18584
G1 X83.668 Y97.853 E2.24855
G1 X83.408 Y97.412 E2.26290
G1 X81.422 Y99.399 E2.34165
G1 X80.820 Y99.372 E2.35853
G1 X80.765 Y99.355 E2.36016
G1 X83.149 Y96.971 E2.45468
G1 X82.890 Y96.529 E2.46903
G1 X80.289 Y99.130 E2.57214
G1 X80.080 Y98.989 E2.57923
G1 X79.900 Y98.819 E2.58616
G1 X82.631 Y96.088 E2.69443
G1 X82.368 Y95.650 E2.70875
G1 X79.540 Y98.478 E2.82090
G1 X79.261 Y98.214 E2.83168
G1 X78.997 Y98.320 E2.83964
G1 X82.085 Y95.232 E2.96209
G1 X81.982 Y95.079 E2.96727
G1 X81.769 Y94.847 E2.97608
G1 X78.422 Y98.195 E3.10880
G1 X78.296 Y98.019 E3.11487
G1 X78.157 Y97.760 E3.12312
G1 X81.407 Y94.509 E3.25201
G1 X81.016 Y94.199 E3.26599
G1 X77.966 Y97.250 E3.38693
G1 X77.892 Y96.857 E3.39812
G1 X77.891 Y96.718 E3.40202
G1 X77.914 Y96.601 E3.40536
G1 X80.830 Y93.685 E3.52097
G1 X80.792 Y93.569 E3.52440
G1 X80.810 Y93.566 E3.52489
G1 X80.729 Y93.417 E3.52965
G1 X80.569 Y93.246 E3.53623
G1 X78.193 Y95.621 E3.63042
G1 X78.142 Y95.318 E3.63904
G1 X78.152 Y94.962 E3.64904
G1 X80.086 Y93.028 E3.72571
G1 X79.844 Y93.001 E3.73254
G1 X79.561 Y93.029 E3.74052
G1 X79.397 Y93.083 E3.74536
G1 X79.242 Y93.179 E3.75047
G1 X78.774 Y93.639 E3.76888
M106 S247.35
G1 Z3.900 F7800.000
G1 X80.198 Y93.362 F7800.000
G1 F1200
G1 X80.579 Y93.744 E3.78535
G1 X80.598 Y94.525 F7800.000
G1 F1200
G1 X79.201 Y93.128 E3.84562
G1 X78.984 Y93.201 E3.85260
G1 X78.837 Y93.304 E3.85809
G1 X78.766 Y93.398 E3.86168
G1 X78.750 Y93.439 E3.86303
G1 X83.100 Y97.789 E4.05074
G1 X83.484 Y98.442 E4.07385
G1 X83.615 Y98.632 E4.08090
G1 X83.447 Y98.681 E4.08626
G1 X83.461 Y98.913 E4.09334
G1 X78.737 Y94.189 E4.29717
G1 X78.677 Y94.327 E4.30176
G1 X78.460 Y94.552 E4.31131
G1 X78.420 Y94.634 E4.31410
G1 X82.953 Y99.167 E4.50969
G1 X82.137 Y99.114 E4.53463
G1 X78.500 Y95.477 E4.69156
G1 X78.528 Y95.725 E4.69918
G1 X78.502 Y95.969 E4.70668
G1 X78.309 Y96.049 E4.71304
G1 X81.338 Y99.078 E4.84375
G1 X81.250 Y99.074 E4.84645
G1 X80.976 Y98.991 E4.85518
G1 X80.653 Y98.781 E4.86693
G1 X80.064 Y98.226 E4.89162
G1 X79.874 Y97.983 E4.90105
G1 X79.587 Y97.820 E4.91110
G1 X79.442 Y97.944 E4.91694
G1 X77.977 Y96.479 E4.98016
G1 X78.082 Y96.957 E4.99510
G1 X78.202 Y97.263 E5.00511
G1 X78.443 Y97.675 E5.01970
G1 X78.573 Y97.837 E5.02602
G1 X78.954 Y98.219 E5.04250
G1 E3.04250 F2400.00000
G92 E0
G1 X81.549 Y95.476 F7800.000
G1 E2.00000 F2400.00000
G1 F1200
G1 X81.429 Y95.300 E2.00650
G1 X81.091 Y94.925 E2.02190
G1 X80.625 Y94.552 E2.04012
G1 X81.931 Y95.858 E2.09648
G1 E0.09648 F2400.00000
G92 E0
G1 X83.426 Y98.878 F7800.000
G1 E2.00000 F2400.00000
G1 F1200
G1 X83.673 Y98.903 E2.00756
G1 X83.543 Y98.704 E2.01480
G1 X83.539 Y98.740 E2.01591
G1 X83.281 Y98.733 E2.02379
G1 X83.808 Y99.260 E2.04655
G1 E0.04655 F2400.00000
G92 E0
G1 X87.751 Y100.862 F7800.000
G1 E2.00000 F2400.00000
G1 F1200
G1 X88.133 Y101.245 E2.01715
G1 X88.568 Y100.887 F7800.000
G1 F1200
G1 X88.950 Y101.269 E2.03427
G1 X89.354 Y101.701 F7800.000
G1 F1200
G1 X88.972 Y101.319 E2.05139
G1 X89.144 Y101.059 E2.06126
G1 X88.897 Y100.886 E2.07084
G1 X89.251 Y100.875 E2.08207
G1 X90.391 Y102.015 E2.13318
G1 X91.409 Y102.311 E2.16679
G1 X89.928 Y100.830 E2.23319
G1 X90.579 Y100.759 E2.25395
G1 X92.389 Y102.569 E2.33510
G1 X93.350 Y102.807 E2.36648
G1 X91.219 Y100.677 E2.46199
G1 X91.844 Y100.579 E2.48204
G1 X94.222 Y102.957 E2.58864
G1 X95.033 Y103.045 E2.61449
G1 X92.452 Y100.465 E2.73019
G1 X93.050 Y100.341 E2.74957
G1 X95.778 Y103.069 E2.87186
G1 X96.476 Y103.044 E2.89400
