; generated by Slic3r 1.3.0 on 2020-03-10 at 14:30:29

; external perimeters extrusion width = 0.55mm (4.37mm^3/s)
; perimeters extrusion width = 0.70mm (11.44mm^3/s)
; infill extrusion width = 0.63mm (13.45mm^3/s)
; solid infill extrusion width = 0.70mm (3.81mm^3/s)
; top infill extrusion width = 0.70mm (2.86mm^3/s)

M107
M104 S205 ; set temperature
G28 ; home all axes
G1 Z5 F5000 ; lift nozzle

; Filament gcode

M109 S205 ; set temperature and wait for it to be reached
G21 ; set units to millimeters
G90 ; use absolute coordinates
M82 ; use absolute distances for extrusion
G92 E0
G1 Z0.300 F7800.000
G1 E-2.00000 F2400.00000
G92 E0
G1 X91.888 Y90.493 F7800.000
G1 E2.00000 F2400.00000
G1 F1800
G1 X91.105 Y90.493 E2.01781
G1 X91.105 Y91.277 E2.03562
G1 X92.314 Y90.067 E2.07451
G1 X93.195 Y90.067 E2.09453
G1 X91.105 Y92.158 E2.16175
G1 X91.105 Y93.039 E2.18177
G1 X94.076 Y90.067 E2.27730
G1 X94.957 Y90.067 E2.29733
G1 X91.105 Y93.920 E2.42118
G1 X91.105 Y94.801 E2.44121
G1 X95.838 Y90.067 E2.59338
G1 X96.134 Y90.067 E2.60011
G1 X96.134 Y90.652 E2.61341
G1 X91.105 Y95.682 E2.77510
G1 X91.105 Y96.562 E2.79512
G1 X96.134 Y91.533 E2.95682
G1 X96.134 Y92.414 E2.97684
G1 X91.105 Y97.443 E3.13853
G1 X91.105 Y98.324 E3.15856
G1 X96.134 Y93.295 E3.32025
G1 X96.134 Y94.176 E3.34028
G1 X91.105 Y99.205 E3.50197
G1 X91.105 Y100.086 E3.52199
G1 X96.134 Y95.057 E3.68369
G1 X96.134 Y95.938 E3.70371
G1 X91.105 Y100.967 E3.86540
G1 X91.105 Y101.848 E3.88543
G1 X96.134 Y96.818 E4.04712
G1 X96.134 Y97.699 E4.06715
G1 X91.105 Y102.729 E4.22884
G1 X91.105 Y103.610 E4.24886
G1 X96.176 Y98.538 E4.41191
G1 X97.057 Y98.538 E4.43193
G1 X91.105 Y104.491 E4.62330
G1 X91.105 Y105.372 E4.64332
G1 X97.938 Y98.538 E4.86301
G1 X98.819 Y98.538 E4.88303
G1 X91.105 Y106.253 E5.13104
G1 E3.13104 F2400.00000
G92 E0
G1 X95.353 Y109.933 F7800.000
G1 E2.00000 F2400.00000
G1 F1800
G1 X96.134 Y109.151 E2.02512
G1 X96.134 Y108.271 E2.04515
G1 X94.472 Y109.933 E2.09859
G1 X93.591 Y109.933 E2.11861
G1 X96.134 Y107.390 E2.20038
G1 X96.134 Y106.509 E2.22040
G1 X92.710 Y109.933 E2.33049
G1 X91.829 Y109.933 E2.35051
G1 X96.134 Y105.628 E2.48891
G1 X96.134 Y104.747 E2.50894
G1 X91.105 Y109.776 E2.67063
G1 X91.105 Y108.895 E2.69066
G1 X96.134 Y103.866 E2.85235
G1 X96.134 Y102.985 E2.87238
G1 X91.105 Y108.014 E3.03407
G1 X91.105 Y107.134 E3.05409
G1 X96.134 Y102.104 E3.21578
G1 X95.708 Y102.530 F7800.000
G1 F1800
G1 X95.708 Y102.304 E3.22093
G1 X95.934 Y102.304 E3.22607
G1 X99.700 Y98.538 E3.34714
G1 X100.581 Y98.538 E3.36716
G1 X96.815 Y102.304 E3.48823
G1 X97.696 Y102.304 E3.50826
G1 X101.462 Y98.538 E3.62932
G1 X102.343 Y98.538 E3.64935
G1 X98.577 Y102.304 E3.77042
G1 X99.458 Y102.304 E3.79044
G1 X103.224 Y98.538 E3.91151
G1 X104.105 Y98.538 E3.93154
G1 X100.339 Y102.304 E4.05260
G1 E2.05260 F2400.00000
G92 E0
G1 X107.686 Y109.933 F7800.000
G1 E2.00000 F2400.00000
G1 F1800
G1 X108.895 Y108.723 E2.03889
G1 X108.895 Y107.842 E2.05892
G1 X106.805 Y109.933 E2.12613
G1 X105.924 Y109.933 E2.14615
G1 X108.895 Y106.961 E2.24169
G1 X108.895 Y106.080 E2.26171
G1 X105.043 Y109.933 E2.38556
G1 X104.162 Y109.933 E2.40559
G1 X108.895 Y105.199 E2.55776
G1 X108.895 Y104.318 E2.57779
G1 X103.866 Y109.348 E2.73948
G1 X103.866 Y108.467 E2.75951
G1 X108.895 Y103.438 E2.92120
G1 X108.895 Y102.557 E2.94122
G1 X103.866 Y107.586 E3.10292
G1 X103.866 Y106.705 E3.12294
G1 X108.895 Y101.676 E3.28463
G1 X108.895 Y100.795 E3.30466
G1 X103.866 Y105.824 E3.46635
G1 X103.866 Y104.943 E3.48638
G1 X108.895 Y99.914 E3.64807
G1 X108.895 Y99.033 E3.66809
G1 X103.866 Y104.062 E3.82979
G1 X103.866 Y103.182 E3.84981
G1 X108.895 Y98.152 E4.01150
G1 X108.895 Y97.271 E4.03153
G1 X103.862 Y102.304 E4.19334
G1 X102.981 Y102.304 E4.21336
G1 X108.895 Y96.390 E4.40349
G1 X108.895 Y95.509 E4.42351
G1 X102.100 Y102.304 E4.64196
G1 X101.220 Y102.304 E4.66199
G1 X108.895 Y94.628 E4.90875
G1 X108.895 Y93.747 E4.92878
G1 X103.866 Y98.777 E5.09047
G1 X103.866 Y97.896 E5.11050
G1 X108.895 Y92.866 E5.27219
G1 X108.895 Y91.986 E5.29222
G1 X103.866 Y97.015 E5.45391
G1 X103.866 Y96.134 E5.47393
G1 X108.895 Y91.105 E5.63563
G1 X108.895 Y90.224 E5.65565
G1 X103.866 Y95.253 E5.81734
G1 X103.866 Y94.372 E5.83737
G1 X108.171 Y90.067 E5.97577
G1 X107.290 Y90.067 E5.99580
G1 X103.866 Y93.491 E6.10588
G1 X103.866 Y92.610 E6.12591
G1 X106.409 Y90.067 E6.20767
G1 X105.528 Y90.067 E6.22769
G1 X103.866 Y91.729 E6.28114
G1 X103.866 Y90.849 E6.30116
G1 X104.647 Y90.067 E6.32628
M104 S200 ; set temperature
G1 Z0.600 F7800.000
G1 X108.915 Y91.296 F7800.000
G1 F4800
G1 X107.666 Y90.048 E6.36830
G1 X106.785 Y90.048 E6.38926
G1 X108.915 Y92.177 E6.46092
G1 X108.915 Y93.058 E6.48188
G1 X105.904 Y90.048 E6.58318
G1 X105.023 Y90.048 E6.60414
G1 X108.915 Y93.939 E6.73508
G1 X108.915 Y94.820 E6.75604
G1 X104.143 Y90.048 E6.91662
G1 X103.846 Y90.048 E6.92367
G1 X103.846 Y90.633 E6.93758
G1 X108.915 Y95.701 E7.10813
G1 X108.915 Y96.582 E7.12909
G1 X103.846 Y91.513 E7.29964
G1 X103.846 Y92.394 E7.32060
G1 X108.915 Y97.463 E7.49115
G1 X108.915 Y98.344 E7.51211
G1 X103.846 Y93.275 E7.68266
G1 X103.846 Y94.156 E7.70362
G1 X108.915 Y99.225 E7.87416
G1 X108.915 Y100.106 E7.89512
G1 X103.846 Y95.037 E8.06567
G1 X103.846 Y95.918 E8.08663
G1 X108.915 Y100.987 E8.25718
G1 X108.915 Y101.867 E8.27814
G1 X103.846 Y96.799 E8.44869
G1 X103.846 Y97.680 E8.46965
G1 X108.915 Y102.748 E8.64020
G1 X108.915 Y103.629 E8.66116
G1 X103.804 Y98.519 E8.83312
G1 X102.923 Y98.519 E8.85408
G1 X108.915 Y104.510 E9.05568
G1 X108.915 Y105.391 E9.07664
G1 X102.043 Y98.519 E9.30789
G1 X101.162 Y98.519 E9.32885
G1 X108.915 Y106.272 E9.58974
G1 X108.915 Y107.153 E9.61070
G1 X103.846 Y102.085 E9.78125
G1 X103.846 Y102.966 E9.80221
G1 X108.915 Y108.034 E9.97276
G1 X108.915 Y108.915 E9.99372
G1 X103.846 Y103.846 E10.16426
G1 X103.846 Y104.727 E10.18523
G1 X108.915 Y109.796 E10.35577
G1 X108.915 Y109.952 E10.35950
G1 X108.190 Y109.952 E10.37673
G1 X103.846 Y105.608 E10.52291
G1 X103.846 Y106.489 E10.54387
G1 X107.310 Y109.952 E10.66040
G1 X106.429 Y109.952 E10.68136
G1 X103.846 Y107.370 E10.76824
G1 X103.846 Y108.251 E10.78920
G1 X105.548 Y109.952 E10.84645
G1 X104.667 Y109.952 E10.86741
G1 X103.846 Y109.132 E10.89501
G1 X104.085 Y102.324 F7800.000
G1 F4800
G1 X100.281 Y98.519 E11.02304
G1 X99.400 Y98.519 E11.04400
G1 X103.205 Y102.324 E11.17203
G1 X102.324 Y102.324 E11.19299
G1 X98.519 Y98.519 E11.32101
G1 X97.638 Y98.519 E11.34197
G1 X101.443 Y102.324 E11.47000
G1 X100.562 Y102.324 E11.49096
G1 X96.757 Y98.519 E11.61899
G1 X95.876 Y98.519 E11.63995
G1 X96.154 Y90.868 F7800.000
G1 F4800
G1 X95.333 Y90.048 E11.66755
G1 X94.452 Y90.048 E11.68851
G1 X96.154 Y91.749 E11.74576
G1 X96.154 Y92.630 E11.76672
G1 X93.571 Y90.048 E11.85360
G1 X92.690 Y90.048 E11.87456
G1 X96.154 Y93.511 E11.99109
G1 X96.154 Y94.392 E12.01205
G1 X91.810 Y90.048 E12.15823
G1 X91.085 Y90.048 E12.17546
G1 X91.085 Y90.204 E12.17919
G1 X96.154 Y95.273 E12.34973
G1 X96.154 Y96.154 E12.37069
G1 X91.085 Y91.085 E12.54124
G1 X91.085 Y91.966 E12.56220
G1 X96.154 Y97.034 E12.73275
G1 X96.154 Y97.915 E12.75371
G1 X91.085 Y92.847 E12.92426
G1 X91.085 Y93.728 E12.94522
G1 X96.154 Y98.796 E13.11576
G1 X96.154 Y98.984 E13.12023
G1 X96.341 Y98.984 E13.12470
G1 X99.681 Y102.324 E13.23707
G1 X98.800 Y102.324 E13.25803
G1 X91.085 Y94.609 E13.51762
G1 X91.085 Y95.490 E13.53858
G1 X97.919 Y102.324 E13.76854
G1 X97.038 Y102.324 E13.78950
G1 X91.085 Y96.371 E13.98981
G1 X91.085 Y97.252 E14.01077
G1 X96.157 Y102.324 E14.18143
G1 X96.154 Y103.201 E14.20231
G1 X91.085 Y98.133 E14.37286
G1 X91.085 Y99.013 E14.39382
G1 X96.154 Y104.082 E14.56437
G1 X96.154 Y104.963 E14.58533
G1 X91.085 Y99.894 E14.75587
G1 X91.085 Y100.775 E14.77683
G1 X96.154 Y105.844 E14.94738
G1 X96.154 Y106.725 E14.96834
G1 X91.085 Y101.656 E15.13889
G1 X91.085 Y102.537 E15.15985
G1 X96.154 Y107.606 E15.33040
G1 X96.154 Y108.487 E15.35136
G1 X91.085 Y103.418 E15.52191
G1 X91.085 Y104.299 E15.54287
G1 X96.154 Y109.367 E15.71341
G1 X96.154 Y109.952 E15.72733
G1 X95.857 Y109.952 E15.73437
G1 X91.085 Y105.180 E15.89496
G1 X91.085 Y106.061 E15.91592
G1 X94.977 Y109.952 E16.04686
G1 X94.096 Y109.952 E16.06782
G1 X91.085 Y106.942 E16.16912
G1 X91.085 Y107.823 E16.19008
G1 X93.215 Y109.952 E16.26174
G1 X92.334 Y109.952 E16.28270
G1 X91.085 Y108.704 E16.32471
G1 Z0.900 F7800.000
G1 X91.085 Y106.272 F7800.000
G1 F4800
G1 X98.838 Y98.519 E16.58560
G1 X97.957 Y98.519 E16.60656
G1 X91.085 Y105.391 E16.83781
G1 X91.085 Y104.510 E16.85877
G1 X97.077 Y98.519 E17.06038
G1 X96.196 Y98.519 E17.08134
G1 X91.085 Y103.629 E17.25330
G1 X91.085 Y102.748 E17.27426
G1 X96.154 Y97.680 E17.44481
G1 X96.154 Y96.799 E17.46577
G1 X91.085 Y101.867 E17.63631
G1 X91.085 Y100.987 E17.65727
G1 X96.154 Y95.918 E17.82782
G1 X96.154 Y95.037 E17.84878
G1 X91.085 Y100.106 E18.01933
G1 X91.085 Y99.225 E18.04029
G1 X96.154 Y94.156 E18.21084
G1 X96.154 Y93.275 E18.23180
G1 X91.085 Y98.344 E18.40235
G1 X91.085 Y97.463 E18.42331
G1 X96.154 Y92.394 E18.59385
G1 X96.154 Y91.513 E18.61481
G1 X91.085 Y96.582 E18.78536
G1 X91.085 Y95.701 E18.80632
G1 X96.154 Y90.633 E18.97687
G1 X96.154 Y90.048 E18.99078
G1 X95.857 Y90.048 E18.99783
G1 X91.085 Y94.820 E19.15841
G1 X91.085 Y93.939 E19.17937
G1 X94.977 Y90.048 E19.31032
G1 X94.096 Y90.048 E19.33128
G1 X91.085 Y93.058 E19.43258
G1 X91.085 Y92.177 E19.45354
G1 X93.215 Y90.048 E19.52519
G1 X92.334 Y90.048 E19.54615
G1 X91.085 Y91.296 E19.58817
G1 X91.085 Y90.513 E19.60681
G1 X91.869 Y90.513 E19.62545
G1 X96.154 Y102.085 F7800.000
G1 F4800
G1 X91.085 Y107.153 E19.79600
G1 X91.085 Y108.034 E19.81696
G1 X96.154 Y102.966 E19.98750
G1 X96.154 Y103.846 E20.00846
G1 X91.085 Y108.915 E20.17901
G1 X91.085 Y109.796 E20.19997
G1 X96.154 Y104.727 E20.37052
G1 X96.154 Y105.608 E20.39148
G1 X91.810 Y109.952 E20.53765
G1 X92.690 Y109.952 E20.55861
G1 X96.154 Y106.489 E20.67514
G1 X96.154 Y107.370 E20.69610
G1 X93.571 Y109.952 E20.78299
G1 X94.452 Y109.952 E20.80395
G1 X96.154 Y108.251 E20.86120
G1 X96.154 Y109.132 E20.88216
G1 X95.333 Y109.952 E20.90976
G1 X95.688 Y102.550 F7800.000
G1 F4800
G1 X95.688 Y102.324 E20.91514
G1 X95.915 Y102.324 E20.92052
G1 X99.719 Y98.519 E21.04855
G1 X100.600 Y98.519 E21.06951
G1 X96.795 Y102.324 E21.19754
G1 X97.676 Y102.324 E21.21850
G1 X101.481 Y98.519 E21.34652
G1 X102.362 Y98.519 E21.36748
G1 X98.557 Y102.324 E21.49551
G1 X99.438 Y102.324 E21.51647
G1 X103.243 Y98.519 E21.64450
G1 X104.124 Y98.519 E21.66546
G1 X100.319 Y102.324 E21.79349
G1 E19.79349 F2400.00000
G92 E0
G1 X107.666 Y109.952 F7800.000
G1 E2.00000 F2400.00000
G1 F4800
G1 X108.915 Y108.704 E2.04202
G1 X108.915 Y107.823 E2.06298
G1 X106.785 Y109.952 E2.13463
G1 X105.904 Y109.952 E2.15559
G1 X108.915 Y106.942 E2.25689
G1 X108.915 Y106.061 E2.27785
G1 X105.023 Y109.952 E2.40880
G1 X104.143 Y109.952 E2.42976
G1 X108.915 Y105.180 E2.59034
G1 X108.915 Y104.299 E2.61130
G1 X103.846 Y109.367 E2.78185
G1 X103.846 Y108.487 E2.80281
G1 X108.915 Y103.418 E2.97336
G1 X108.915 Y102.537 E2.99432
G1 X103.846 Y107.606 E3.16486
G1 X103.846 Y106.725 E3.18582
G1 X108.915 Y101.656 E3.35637
G1 X108.915 Y100.775 E3.37733
G1 X103.846 Y105.844 E3.54788
G1 X103.846 Y104.963 E3.56884
G1 X108.915 Y99.894 E3.73939
G1 X108.915 Y99.013 E3.76035
G1 X103.846 Y104.082 E3.93090
G1 X103.846 Y103.201 E3.95186
G1 X108.915 Y98.133 E4.12240
G1 X108.915 Y97.252 E4.14336
G1 X103.843 Y102.324 E4.31403
G1 X102.962 Y102.324 E4.33499
G1 X108.915 Y96.371 E4.53530
G1 X108.915 Y95.490 E4.55626
G1 X102.081 Y102.324 E4.78621
G1 X101.200 Y102.324 E4.80717
G1 X108.915 Y94.609 E5.06677
G1 X108.915 Y93.728 E5.08773
G1 X103.846 Y98.796 E5.25828
G1 X103.846 Y97.915 E5.27924
G1 X108.915 Y92.847 E5.44978
G1 X108.915 Y91.966 E5.47074
G1 X103.846 Y97.034 E5.64129
G1 X103.846 Y96.154 E5.66225
G1 X108.915 Y91.085 E5.83280
G1 X108.915 Y90.204 E5.85376
G1 X103.846 Y95.273 E6.02431
G1 X103.846 Y94.392 E6.04527
G1 X108.190 Y90.048 E6.19144
G1 X107.310 Y90.048 E6.21240
G1 X103.846 Y93.511 E6.32893
G1 X103.846 Y92.630 E6.34989
G1 X106.429 Y90.048 E6.43678
G1 X105.548 Y90.048 E6.45774
G1 X103.846 Y91.749 E6.51498
G1 X103.846 Y90.868 E6.53594
G1 X104.667 Y90.048 E6.56355
M106 S252.45
G1 Z1.200 F7800.000
G1 X108.915 Y91.296 F7800.000
G1 F4800
G1 X107.666 Y90.048 E6.60556
G1 X106.785 Y90.048 E6.62652
G1 X108.915 Y92.177 E6.69818
G1 X108.915 Y93.058 E6.71914
G1 X105.904 Y90.048 E6.82044
G1 X105.023 Y90.048 E6.84140
G1 X108.915 Y93.939 E6.97234
G1 X108.915 Y94.820 E6.99330
G1 X104.143 Y90.048 E7.15389
G1 X103.846 Y90.048 E7.16093
G1 X103.846 Y90.633 E7.17485
G1 X108.915 Y95.701 E7.34539
G1 X108.915 Y96.582 E7.36635
G1 X103.846 Y91.513 E7.53690
G1 X103.846 Y92.394 E7.55786
G1 X108.915 Y97.463 E7.72841
G1 X108.915 Y98.344 E7.74937
G1 X103.846 Y93.275 E7.91992
G1 X103.846 Y94.156 E7.94088
G1 X108.915 Y99.225 E8.11143
G1 X108.915 Y100.106 E8.13239
G1 X103.846 Y95.037 E8.30293
G1 X103.846 Y95.918 E8.32389
G1 X108.915 Y100.987 E8.49444
G1 X108.915 Y101.867 E8.51540
G1 X103.846 Y96.799 E8.68595
G1 X103.846 Y97.680 E8.70691
G1 X108.915 Y102.748 E8.87746
G1 X108.915 Y103.629 E8.89842
G1 X103.804 Y98.519 E9.07038
G1 X102.923 Y98.519 E9.09134
G1 X108.915 Y104.510 E9.29295
G1 X108.915 Y105.391 E9.31391
G1 X102.043 Y98.519 E9.54515
G1 X101.162 Y98.519 E9.56611
G1 X108.915 Y106.272 E9.82700
G1 X108.915 Y107.153 E9.84796
G1 X103.846 Y102.085 E10.01851
G1 X103.846 Y102.966 E10.03947
G1 X108.915 Y108.034 E10.21002
G1 X108.915 Y108.915 E10.23098
G1 X103.846 Y103.846 E10.40153
G1 X103.846 Y104.727 E10.42249
G1 X108.915 Y109.796 E10.59303
G1 X108.915 Y109.952 E10.59676
G1 X108.190 Y109.952 E10.61400
G1 X103.846 Y105.608 E10.76017
G1 X103.846 Y106.489 E10.78113
G1 X107.310 Y109.952 E10.89766
G1 X106.429 Y109.952 E10.91862
G1 X103.846 Y107.370 E11.00550
G1 X103.846 Y108.251 E11.02646
G1 X105.548 Y109.952 E11.08371
G1 X104.667 Y109.952 E11.10467
G1 X103.846 Y109.132 E11.13227
G1 X104.085 Y102.324 F7800.000
G1 F4800
G1 X100.281 Y98.519 E11.26030
G1 X99.400 Y98.519 E11.28126
G1 X103.205 Y102.324 E11.40929
G1 X102.324 Y102.324 E11.43025
G1 X98.519 Y98.519 E11.55827
G1 X97.638 Y98.519 E11.57924
G1 X101.443 Y102.324 E11.70726
G1 X100.562 Y102.324 E11.72822
G1 X96.757 Y98.519 E11.85625
G1 X95.876 Y98.519 E11.87721
G1 X96.154 Y90.868 F7800.000
G1 F4800
G1 X95.333 Y90.048 E11.90481
G1 X94.452 Y90.048 E11.92577
G1 X96.154 Y91.749 E11.98302
G1 X96.154 Y92.630 E12.00398
G1 X93.571 Y90.048 E12.09087
G1 X92.690 Y90.048 E12.11183
G1 X96.154 Y93.511 E12.22836
G1 X96.154 Y94.392 E12.24932
G1 X91.810 Y90.048 E12.39549
G1 X91.085 Y90.048 E12.41272
G1 X91.085 Y90.204 E12.41645
G1 X96.154 Y95.273 E12.58700
G1 X96.154 Y96.154 E12.60796
G1 X91.085 Y91.085 E12.77850
G1 X91.085 Y91.966 E12.79946
G1 X96.154 Y97.034 E12.97001
G1 X96.154 Y97.915 E12.99097
G1 X91.085 Y92.847 E13.16152
G1 X91.085 Y93.728 E13.18248
G1 X96.154 Y98.796 E13.35303
G1 X96.154 Y98.984 E13.35749
G1 X96.341 Y98.984 E13.36196
G1 X99.681 Y102.324 E13.47433
G1 X98.800 Y102.324 E13.49529
G1 X91.085 Y94.609 E13.75489
G1 X91.085 Y95.490 E13.77585
G1 X97.919 Y102.324 E14.00580
G1 X97.038 Y102.324 E14.02676
G1 X91.085 Y96.371 E14.22707
G1 X91.085 Y97.252 E14.24803
G1 X96.157 Y102.324 E14.41870
G1 X96.154 Y103.201 E14.43957
G1 X91.085 Y98.133 E14.61012
G1 X91.085 Y99.013 E14.63108
G1 X96.154 Y104.082 E14.80163
G1 X96.154 Y104.963 E14.82259
G1 X91.085 Y99.894 E14.99314
G1 X91.085 Y100.775 E15.01410
G1 X96.154 Y105.844 E15.18464
G1 X96.154 Y106.725 E15.20560
G1 X91.085 Y101.656 E15.37615
G1 X91.085 Y102.537 E15.39711
G1 X96.154 Y107.606 E15.56766
G1 X96.154 Y108.487 E15.58862
G1 X91.085 Y103.418 E15.75917
G1 X91.085 Y104.299 E15.78013
G1 X96.154 Y109.367 E15.95067
G1 X96.154 Y109.952 E15.96459
G1 X95.857 Y109.952 E15.97164
G1 X91.085 Y105.180 E16.13222
G1 X91.085 Y106.061 E16.15318
G1 X94.977 Y109.952 E16.28412
G1 X94.096 Y109.952 E16.30508
G1 X91.085 Y106.942 E16.40638
G1 X91.085 Y107.823 E16.42734
G1 X93.215 Y109.952 E16.49900
G1 X92.334 Y109.952 E16.51996
G1 X91.085 Y108.704 E16.56198
G1 Z1.500 F7800.000
G1 X91.085 Y106.272 F7800.000
G1 F4800
G1 X98.838 Y98.519 E16.82286
G1 X97.957 Y98.519 E16.84383
G1 X91.085 Y105.391 E17.07507
G1 X91.085 Y104.510 E17.09603
G1 X97.077 Y98.519 E17.29764
G1 X96.196 Y98.519 E17.31860
G1 X91.085 Y103.629 E17.49056
G1 X91.085 Y102.748 E17.51152
G1 X96.154 Y97.680 E17.68207
G1 X96.154 Y96.799 E17.70303
G1 X91.085 Y101.867 E17.87358
G1 X91.085 Y100.987 E17.89454
G1 X96.154 Y95.918 E18.06508
G1 X96.154 Y95.037 E18.08604
G1 X91.085 Y100.106 E18.25659
G1 X91.085 Y99.225 E18.27755
G1 X96.154 Y94.156 E18.44810
G1 X96.154 Y93.275 E18.46906
G1 X91.085 Y98.344 E18.63961
G1 X91.085 Y97.463 E18.66057
G1 X96.154 Y92.394 E18.83112
G1 X96.154 Y91.513 E18.85208
G1 X91.085 Y96.582 E19.02262
G1 X91.085 Y95.701 E19.04358
G1 X96.154 Y90.633 E19.21413
G1 X96.154 Y90.048 E19.22805
G1 X95.857 Y90.048 E19.23509
G1 X91.085 Y94.820 E19.39568
G1 X91.085 Y93.939 E19.41664
G1 X94.977 Y90.048 E19.54758
G1 X94.096 Y90.048 E19.56854
G1 X91.085 Y93.058 E19.66984
G1 X91.085 Y92.177 E19.69080
G1 X93.215 Y90.048 E19.76246
G1 X92.334 Y90.048 E19.78342
G1 X91.085 Y91.296 E19.82543
G1 X91.085 Y90.513 E19.84407
G1 X91.869 Y90.513 E19.86271
G1 X96.154 Y102.085 F7800.000
G1 F4800
G1 X91.085 Y107.153 E20.03326
G1 X91.085 Y108.034 E20.05422
G1 X96.154 Y102.966 E20.22477
G1 X96.154 Y103.846 E20.24573
G1 X91.085 Y108.915 E20.41627
G1 X91.085 Y109.796 E20.43723
G1 X96.154 Y104.727 E20.60778
G1 X96.154 Y105.608 E20.62874
G1 X91.810 Y109.952 E20.77491
G1 X92.690 Y109.952 E20.79587
G1 X96.154 Y106.489 E20.91240
G1 X96.154 Y107.370 E20.93336
G1 X93.571 Y109.952 E21.02025
G1 X94.452 Y109.952 E21.04121
G1 X96.154 Y108.251 E21.09846
G1 X96.154 Y109.132 E21.11942
G1 X95.333 Y109.952 E21.14702
G1 X95.688 Y102.550 F7800.000
G1 F4800
G1 X95.688 Y102.324 E21.15240
G1 X95.915 Y102.324 E21.15778
G1 X99.719 Y98.519 E21.28581
G1 X100.600 Y98.519 E21.30677
G1 X96.795 Y102.324 E21.43480
G1 X97.676 Y102.324 E21.45576
G1 X101.481 Y98.519 E21.58379
G1 X102.362 Y98.519 E21.60475
G1 X98.557 Y102.324 E21.73277
G1 X99.438 Y102.324 E21.75373
G1 X103.243 Y98.519 E21.88176
G1 X104.124 Y98.519 E21.90272
G1 X100.319 Y102.324 E22.03075
G1 E20.03075 F2400.00000
G92 E0
G1 X107.666 Y109.952 F7800.000
G1 E2.00000 F2400.00000
G1 F4800
G1 X108.915 Y108.704 E2.04202
G1 X108.915 Y107.823 E2.06298
G1 X106.785 Y109.952 E2.13463
G1 X105.904 Y109.952 E2.15559
G1 X108.915 Y106.942 E2.25689
G1 X108.915 Y106.061 E2.27785
G1 X105.023 Y109.952 E2.40880
G1 X104.143 Y109.952 E2.42976
G1 X108.915 Y105.180 E2.59034
G1 X108.915 Y104.299 E2.61130
G1 X103.846 Y109.367 E2.78185
G1 X103.846 Y108.487 E2.80281
G1 X108.915 Y103.418 E2.97336
G1 X108.915 Y102.537 E2.99432
G1 X103.846 Y107.606 E3.16486
G1 X103.846 Y106.725 E3.18582
G1 X108.915 Y101.656 E3.35637
G1 X108.915 Y100.775 E3.37733
G1 X103.846 Y105.844 E3.54788
G1 X103.846 Y104.963 E3.56884
G1 X108.915 Y99.894 E3.73939
G1 X108.915 Y99.013 E3.76035
G1 X103.846 Y104.082 E3.93090
G1 X103.846 Y103.201 E3.95186
G1 X108.915 Y98.133 E4.12240
G1 X108.915 Y97.252 E4.14336
G1 X103.843 Y102.324 E4.31403
G1 X102.962 Y102.324 E4.33499
G1 X108.915 Y96.371 E4.53530
G1 X108.915 Y95.490 E4.55626
G1 X102.081 Y102.324 E4.78621
G1 X101.200 Y102.324 E4.80717
G1 X108.915 Y94.609 E5.06677
G1 X108.915 Y93.728 E5.08773
G1 X103.846 Y98.796 E5.25828
G1 X103.846 Y97.915 E5.27924
G1 X108.915 Y92.847 E5.44978
G1 X108.915 Y91.966 E5.47074
G1 X103.846 Y97.034 E5.64129
G1 X103.846 Y96.154 E5.66225
G1 X108.915 Y91.085 E5.83280
G1 X108.915 Y90.204 E5.85376
G1 X103.846 Y95.273 E6.02431
G1 X103.846 Y94.392 E6.04527
G1 X108.190 Y90.048 E6.19144
G1 X107.310 Y90.048 E6.21240
G1 X103.846 Y93.511 E6.32893
G1 X103.846 Y92.630 E6.34989
G1 X106.429 Y90.048 E6.43678
G1 X105.548 Y90.048 E6.45774
G1 X103.846 Y91.749 E6.51498
G1 X103.846 Y90.868 E6.53594
G1 X104.667 Y90.048 E6.56355
G1 Z1.800 F7800.000
G1 X108.915 Y91.296 F7800.000
G1 F4800
G1 X107.666 Y90.048 E6.60556
G1 X106.785 Y90.048 E6.62652
G1 X108.915 Y92.177 E6.69818
G1 X108.915 Y93.058 E6.71914
G1 X105.904 Y90.048 E6.82044
G1 X105.023 Y90.048 E6.84140
G1 X108.915 Y93.939 E6.97234
G1 X108.915 Y94.820 E6.99330
G1 X104.143 Y90.048 E7.15389
G1 X103.846 Y90.048 E7.16093
G1 X103.846 Y90.633 E7.17485
G1 X108.915 Y95.701 E7.34539
G1 X108.915 Y96.582 E7.36635
G1 X103.846 Y91.513 E7.53690
G1 X103.846 Y92.394 E7.55786
G1 X108.915 Y97.463 E7.72841
G1 X108.915 Y98.344 E7.74937
G1 X103.846 Y93.275 E7.91992
G1 X103.846 Y94.156 E7.94088
G1 X108.915 Y99.225 E8.11143
G1 X108.915 Y100.106 E8.13239
G1 X103.846 Y95.037 E8.30293
G1 X103.846 Y95.918 E8.32389
G1 X108.915 Y100.987 E8.49444
G1 X108.915 Y101.867 E8.51540
G1 X103.846 Y96.799 E8.68595
G1 X103.846 Y97.680 E8.70691
G1 X108.915 Y102.748 E8.87746
G1 X108.915 Y103.629 E8.89842
G1 X103.804 Y98.519 E9.07038
G1 X102.923 Y98.519 E9.09134
G1 X108.915 Y104.510 E9.29295
G1 X108.915 Y105.391 E9.31391
G1 X102.043 Y98.519 E9.54515
G1 X101.162 Y98.519 E9.56611
G1 X108.915 Y106.272 E9.82700
G1 X108.915 Y107.153 E9.84796
G1 X103.846 Y102.085 E10.01851
G1 X103.846 Y102.966 E10.03947
G1 X108.915 Y108.034 E10.21002
G1 X108.915 Y108.915 E10.23098
G1 X103.846 Y103.846 E10.40153
G1 X103.846 Y104.727 E10.42249
G1 X108.915 Y109.796 E10.59303
G1 X108.915 Y109.952 E10.59676
G1 X108.190 Y109.952 E10.61400
G1 X103.846 Y105.608 E10.76017
G1 X103.846 Y106.489 E10.78113
G1 X107.310 Y109.952 E10.89766
G1 X106.429 Y109.952 E10.91862
G1 X103.846 Y107.370 E11.00550
G1 X103.846 Y108.251 E11.02646
G1 X105.548 Y109.952 E11.08371
G1 X104.667 Y109.952 E11.10467
G1 X103.846 Y109.132 E11.13227
G1 X104.085 Y102.324 F7800.000
G1 F4800
G1 X100.281 Y98.519 E11.26030
G1 X99.400 Y98.519 E11.28126
G1 X103.205 Y102.324 E11.40929
G1 X102.324 Y102.324 E11.43025
G1 X98.519 Y98.519 E11.55827
G1 X97.638 Y98.519 E11.57924
G1 X101.443 Y102.324 E11.70726
G1 X100.562 Y102.324 E11.72822
G1 X96.757 Y98.519 E11.85625
G1 X95.876 Y98.519 E11.87721
G1 X96.154 Y90.868 F7800.000
G1 F4800
G1 X95.333 Y90.048 E11.90481
G1 X94.452 Y90.048 E11.92577
G1 X96.154 Y91.749 E11.98302
G1 X96.154 Y92.630 E12.00398
G1 X93.571 Y90.048 E12.09087
G1 X92.690 Y90.048 E12.11183
G1 X96.154 Y93.511 E12.22836
G1 X96.154 Y94.392 E12.24932
G1 X91.810 Y90.048 E12.39549
G1 X91.085 Y90.048 E12.41272
G1 X91.085 Y90.204 E12.41645
G1 X96.154 Y95.273 E12.58700
G1 X96.154 Y96.154 E12.60796
G1 X91.085 Y91.085 E12.77850
G1 X91.085 Y91.966 E12.79946
G1 X96.154 Y97.034 E12.97001
G1 X96.154 Y97.915 E12.99097
G1 X91.085 Y92.847 E13.16152
G1 X91.085 Y93.728 E13.18248
G1 X96.154 Y98.796 E13.35303
G1 X96.154 Y98.984 E13.35749
G1 X96.341 Y98.984 E13.36196
G1 X99.681 Y102.324 E13.47433
G1 X98.800 Y102.324 E13.49529
G1 X91.085 Y94.609 E13.75489
G1 X91.085 Y95.490 E13.77585
G1 X97.919 Y102.324 E14.00580
G1 X97.038 Y102.324 E14.02676
G1 X91.085 Y96.371 E14.22707
G1 X91.085 Y97.252 E14.24803
G1 X96.157 Y102.324 E14.41870
G1 X96.154 Y103.201 E14.43957
G1 X91.085 Y98.133 E14.61012
G1 X91.085 Y99.013 E14.63108
G1 X96.154 Y104.082 E14.80163
G1 X96.154 Y104.963 E14.82259
G1 X91.085 Y99.894 E14.99314
G1 X91.085 Y100.775 E15.01410
G1 X96.154 Y105.844 E15.18464
G1 X96.154 Y106.725 E15.20560
G1 X91.085 Y101.656 E15.37615
G1 X91.085 Y102.537 E15.39711
G1 X96.154 Y107.606 E15.56766
G1 X96.154 Y108.487 E15.58862
G1 X91.085 Y103.418 E15.75917
G1 X91.085 Y104.299 E15.78013
G1 X96.154 Y109.367 E15.95067
G1 X96.154 Y109.952 E15.96459
G1 X95.857 Y109.952 E15.97164
G1 X91.085 Y105.180 E16.13222
G1 X91.085 Y106.061 E16.15318
G1 X94.977 Y109.952 E16.28412
G1 X94.096 Y109.952 E16.30508
G1 X91.085 Y106.942 E16.40638
G1 X91.085 Y107.823 E16.42734
G1 X93.215 Y109.952 E16.49900
G1 X92.334 Y109.952 E16.51996
G1 X91.085 Y108.704 E16.56198
G1 Z2.100 F7800.000
G1 X91.085 Y106.272 F7800.000
G1 F4800
G1 X98.838 Y98.519 E16.82286
G1 X97.957 Y98.519 E16.84383
G1 X91.085 Y105.391 E17.07507
G1 X91.085 Y104.510 E17.09603
G1 X97.077 Y98.519 E17.29764
G1 X96.196 Y98.519 E17.31860
G1 X91.085 Y103.629 E17.49056
G1 X91.085 Y102.748 E17.51152
G1 X96.154 Y97.680 E17.68207
G1 X96.154 Y96.799 E17.70303
G1 X91.085 Y101.867 E17.87358
G1 X91.085 Y100.987 E17.89454
G1 X96.154 Y95.918 E18.06508
G1 X96.154 Y95.037 E18.08604
G1 X91.085 Y100.106 E18.25659
G1 X91.085 Y99.225 E18.27755
G1 X96.154 Y94.156 E18.44810
G1 X96.154 Y93.275 E18.46906
G1 X91.085 Y98.344 E18.63961
G1 X91.085 Y97.463 E18.66057
G1 X96.154 Y92.394 E18.83112
G1 X96.154 Y91.513 E18.85208
G1 X91.085 Y96.582 E19.02262
G1 X91.085 Y95.701 E19.04358
G1 X96.154 Y90.633 E19.21413
G1 X96.154 Y90.048 E19.22805
G1 X95.857 Y90.048 E19.23509
G1 X91.085 Y94.820 E19.39568
G1 X91.085 Y93.939 E19.41664
G1 X94.977 Y90.048 E19.54758
G1 X94.096 Y90.048 E19.56854
G1 X91.085 Y93.058 E19.66984
G1 X91.085 Y92.177 E19.69080
G1 X93.215 Y90.048 E19.76246
G1 X92.334 Y90.048 E19.78342
G1 X91.085 Y91.296 E19.82543
G1 X91.085 Y90.513 E19.84407
G1 X91.869 Y90.513 E19.86271
G1 X96.154 Y102.085 F7800.000
G1 F4800
G1 X91.085 Y107.153 E20.03326
G1 X91.085 Y108.034 E20.05422
G1 X96.154 Y102.966 E20.22477
G1 X96.154 Y103.846 E20.24573
G1 X91.085 Y108.915 E20.41627
G1 X91.085 Y109.796 E20.43723
G1 X96.154 Y104.727 E20.60778
G1 X96.154 Y105.608 E20.62874
G1 X91.810 Y109.952 E20.77491
G1 X92.690 Y109.952 E20.79587
G1 X96.154 Y106.489 E20.91240
G1 X96.154 Y107.370 E20.93336
G1 X93.571 Y109.952 E21.02025
G1 X94.452 Y109.952 E21.04121
G1 X96.154 Y108.251 E21.09846
G1 X96.154 Y109.132 E21.11942
G1 X95.333 Y109.952 E21.14702
G1 X95.688 Y102.550 F7800.000
G1 F4800
G1 X95.688 Y102.324 E21.15240
G1 X95.915 Y102.324 E21.15778
G1 X99.719 Y98.519 E21.28581
G1 X100.600 Y98.519 E21.30677
G1 X96.795 Y102.324 E21.43480
G1 X97.676 Y102.324 E21.45576
G1 X101.481 Y98.519 E21.58379
G1 X102.362 Y98.519 E21.60475
G1 X98.557 Y102.324 E21.73277
G1 X99.438 Y102.324 E21.75373
G1 X103.243 Y98.519 E21.88176
G1 X104.124 Y98.519 E21.90272
G1 X100.319 Y102.324 E22.03075
G1 E20.03075 F2400.00000
G92 E0
G1 X107.666 Y109.952 F7800.000
G1 E2.00000 F2400.00000
G1 F4800
G1 X108.915 Y108.704 E2.04202
G1 X108.915 Y107.823 E2.06298
G1 X106.785 Y109.952 E2.13463
G1 X105.904 Y109.952 E2.15559
G1 X108.915 Y106.942 E2.25689
G1 X108.915 Y106.061 E2.27785
G1 X105.023 Y109.952 E2.40880
G1 X104.143 Y109.952 E2.42976
G1 X108.915 Y105.180 E2.59034
G1 X108.915 Y104.299 E2.61130
G1 X103.846 Y109.367 E2.78185
G1 X103.846 Y108.487 E2.80281
G1 X108.915 Y103.418 E2.97336
G1 X108.915 Y102.537 E2.99432
G1 X103.846 Y107.606 E3.16486
G1 X103.846 Y106.725 E3.18582
G1 X108.915 Y101.656 E3.35637
G1 X108.915 Y100.775 E3.37733
G1 X103.846 Y105.844 E3.54788
G1 X103.846 Y104.963 E3.56884
G1 X108.915 Y99.894 E3.73939
G1 X108.915 Y99.013 E3.76035
G1 X103.846 Y104.082 E3.93090
G1 X103.846 Y103.201 E3.95186
G1 X108.915 Y98.133 E4.12240
G1 X108.915 Y97.252 E4.14336
G1 X103.843 Y102.324 E4.31403
G1 X102.962 Y102.324 E4.33499
G1 X108.915 Y96.371 E4.53530
G1 X108.915 Y95.490 E4.55626
G1 X102.081 Y102.324 E4.78621
G1 X101.200 Y102.324 E4.80717
G1 X108.915 Y94.609 E5.06677
G1 X108.915 Y93.728 E5.08773
G1 X103.846 Y98.796 E5.25828
G1 X103.846 Y97.915 E5.27924
G1 X108.915 Y92.847 E5.44978
G1 X108.915 Y91.966 E5.47074
G1 X103.846 Y97.034 E5.64129
G1 X103.846 Y96.154 E5.66225
G1 X108.915 Y91.085 E5.83280
G1 X108.915 Y90.204 E5.85376
G1 X103.846 Y95.273 E6.02431
G1 X103.846 Y94.392 E6.04527
G1 X108.190 Y90.048 E6.19144
G1 X107.310 Y90.048 E6.21240
G1 X103.846 Y93.511 E6.32893
G1 X103.846 Y92.630 E6.34989
G1 X106.429 Y90.048 E6.43678
G1 X105.548 Y90.048 E6.45774
G1 X103.846 Y91.749 E6.51498
G1 X103.846 Y90.868 E6.53594
G1 X104.667 Y90.048 E6.56355
G1 Z2.400 F7800.000
G1 X108.915 Y91.296 F7800.000
G1 F4800
G1 X107.666 Y90.048 E6.60556
G1 X106.785 Y90.048 E6.62652
G1 X108.915 Y92.177 E6.69818
G1 X108.915 Y93.058 E6.71914
G1 X105.904 Y90.048 E6.82044
G1 X105.023 Y90.048 E6.84140
G1 X108.915 Y93.939 E6.97234
G1 X108.915 Y94.820 E6.99330
G1 X104.143 Y90.048 E7.15389
G1 X103.846 Y90.048 E7.16093
G1 X103.846 Y90.633 E7.17485
G1 X108.915 Y95.701 E7.34539
G1 X108.915 Y96.582 E7.36635
G1 X103.846 Y91.513 E7.53690
G1 X103.846 Y92.394 E7.55786
G1 X108.915 Y97.463 E7.72841
G1 X108.915 Y98.344 E7.74937
G1 X103.846 Y93.275 E7.91992
G1 X103.846 Y94.156 E7.94088
G1 X108.915 Y99.225 E8.11143
G1 X108.915 Y100.106 E8.13239
G1 X103.846 Y95.037 E8.30293
G1 X103.846 Y95.918 E8.32389
G1 X108.915 Y100.987 E8.49444
G1 X108.915 Y101.867 E8.51540
G1 X103.846 Y96.799 E8.68595
G1 X103.846 Y97.680 E8.70691
G1 X108.915 Y102.748 E8.87746
G1 X108.915 Y103.629 E8.89842
G1 X103.804 Y98.519 E9.07038
G1 X102.923 Y98.519 E9.09134
G1 X108.915 Y104.510 E9.29295
G1 X108.915 Y105.391 E9.31391
G1 X102.043 Y98.519 E9.54515
G1 X101.162 Y98.519 E9.56611
G1 X108.915 Y106.272 E9.82700
G1 X108.915 Y107.153 E9.84796
G1 X103.846 Y102.085 E10.01851
G1 X103.846 Y102.966 E10.03947
G1 X108.915 Y108.034 E10.21002
G1 X108.915 Y108.915 E10.23098
G1 X103.846 Y103.846 E10.40153
G1 X103.846 Y104.727 E10.42249
G1 X108.915 Y109.796 E10.59303
G1 X108.915 Y109.952 E10.59676
G1 X108.190 Y109.952 E10.61400
G1 X103.846 Y105.608 E10.76017
G1 X103.846 Y106.489 E10.78113
G1 X107.310 Y109.952 E10.89766
G1 X106.429 Y109.952 E10.91862
G1 X103.846 Y107.370 E11.00550
G1 X103.846 Y108.251 E11.02646
G1 X105.548 Y109.952 E11.08371
G1 X104.667 Y109.952 E11.10467
G1 X103.846 Y109.132 E11.13227
G1 X104.085 Y102.324 F7800.000
G1 F4800
G1 X100.281 Y98.519 E11.26030
G1 X99.400 Y98.519 E11.28126
G1 X103.205 Y102.324 E11.40929
G1 X102.324 Y102.324 E11.43025
G1 X98.519 Y98.519 E11.55827
G1 X97.638 Y98.519 E11.57924
G1 X101.443 Y102.324 E11.70726
G1 X100.562 Y102.324 E11.72822
G1 X96.757 Y98.519 E11.85625
G1 X95.876 Y98.519 E11.87721
G1 X96.154 Y90.868 F7800.000
G1 F4800
G1 X95.333 Y90.048 E11.90481
G1 X94.452 Y90.048 E11.92577
G1 X96.154 Y91.749 E11.98302
G1 X96.154 Y92.630 E12.00398
G1 X93.571 Y90.048 E12.09087
G1 X92.690 Y90.048 E12.11183
G1 X96.154 Y93.511 E12.22836
G1 X96.154 Y94.392 E12.24932
G1 X91.810 Y90.048 E12.39549
G1 X91.085 Y90.048 E12.41272
G1 X91.085 Y90.204 E12.41645
G1 X96.154 Y95.273 E12.58700
G1 X96.154 Y96.154 E12.60796
G1 X91.085 Y91.085 E12.77850
G1 X91.085 Y91.966 E12.79946
G1 X96.154 Y97.034 E12.97001
G1 X96.154 Y97.915 E12.99097
G1 X91.085 Y92.847 E13.16152
G1 X91.085 Y93.728 E13.18248
G1 X96.154 Y98.796 E13.35303
G1 X96.154 Y98.984 E13.35749
G1 X96.341 Y98.984 E13.36196
G1 X99.681 Y102.324 E13.47433
G1 X98.800 Y102.324 E13.49529
G1 X91.085 Y94.609 E13.75489
G1 X91.085 Y95.490 E13.77585
G1 X97.919 Y102.324 E14.00580
G1 X97.038 Y102.324 E14.02676
G1 X91.085 Y96.371 E14.22707
G1 X91.085 Y97.252 E14.24803
G1 X96.157 Y102.324 E14.41870
G1 X96.154 Y103.201 E14.43957
G1 X91.085 Y98.133 E14.61012
G1 X91.085 Y99.013 E14.63108
G1 X96.154 Y104.082 E14.80163
G1 X96.154 Y104.963 E14.82259
G1 X91.085 Y99.894 E14.99314
G1 X91.085 Y100.775 E15.01410
G1 X96.154 Y105.844 E15.18464
G1 X96.154 Y106.725 E15.20560
G1 X91.085 Y101.656 E15.37615
G1 X91.085 Y102.537 E15.39711
G1 X96.154 Y107.606 E15.56766
G1 X96.154 Y108.487 E15.58862
G1 X91.085 Y103.418 E15.75917
G1 X91.085 Y104.299 E15.78013
G1 X96.154 Y109.367 E15.95067
G1 X96.154 Y109.952 E15.96459
G1 X95.857 Y109.952 E15.97164
G1 X91.085 Y105.180 E16.13222
G1 X91.085 Y106.061 E16.15318
G1 X94.977 Y109.952 E16.28412
G1 X94.096 Y109.952 E16.30508
G1 X91.085 Y106.942 E16.40638
G1 X91.085 Y107.823 E16.42734
G1 X93.215 Y109.952 E16.49900
G1 X92.334 Y109.952 E16.51996
G1 X91.085 Y108.704 E16.56198
G1 Z2.700 F7800.000
G1 X91.085 Y106.272 F7800.000
G1 F4800
G1 X98.838 Y98.519 E16.82286
G1 X97.957 Y98.519 E16.84383
G1 X91.085 Y105.391 E17.07507
G1 X91.085 Y104.510 E17.09603
G1 X97.077 Y98.519 E17.29764
G1 X96.196 Y98.519 E17.31860
G1 X91.085 Y103.629 E17.49056
G1 X91.085 Y102.748 E17.51152
G1 X96.154 Y97.680 E17.68207
G1 X96.154 Y96.799 E17.70303
G1 X91.085 Y101.867 E17.87358
G1 X91.085 Y100.987 E17.89454
G1 X96.154 Y95.918 E18.06508
G1 X96.154 Y95.037 E18.08604
G1 X91.085 Y100.106 E18.25659
G1 X91.085 Y99.225 E18.27755
G1 X96.154 Y94.156 E18.44810
G1 X96.154 Y93.275 E18.46906
G1 X91.085 Y98.344 E18.63961
G1 X91.085 Y97.463 E18.66057
G1 X96.154 Y92.394 E18.83112
G1 X96.154 Y91.513 E18.85208
G1 X91.085 Y96.582 E19.02262
G1 X91.085 Y95.701 E19.04358
G1 X96.154 Y90.633 E19.21413
G1 X96.154 Y90.048 E19.22805
G1 X95.857 Y90.048 E19.23509
G1 X91.085 Y94.820 E19.39568
G1 X91.085 Y93.939 E19.41664
G1 X94.977 Y90.048 E19.54758
G1 X94.096 Y90.048 E19.56854
G1 X91.085 Y93.058 E19.66984
G1 X91.085 Y92.177 E19.69080
G1 X93.215 Y90.048 E19.76246
G1 X92.334 Y90.048 E19.78342
G1 X91.085 Y91.296 E19.82543
G1 X91.085 Y90.513 E19.84407
G1 X91.869 Y90.513 E19.86271
G1 X96.154 Y102.085 F7800.000
G1 F4800
G1 X91.085 Y107.153 E20.03326
G1 X91.085 Y108.034 E20.05422
G1 X96.154 Y102.966 E20.22477
G1 X96.154 Y103.846 E20.24573
G1 X91.085 Y108.915 E20.41627
G1 X91.085 Y109.796 E20.43723
G1 X96.154 Y104.727 E20.60778
G1 X96.154 Y105.608 E20.62874
G1 X91.810 Y109.952 E20.77491
G1 X92.690 Y109.952 E20.79587
G1 X96.154 Y106.489 E20.91240
G1 X96.154 Y107.370 E20.93336
G1 X93.571 Y109.952 E21.02025
G1 X94.452 Y109.952 E21.04121
G1 X96.154 Y108.251 E21.09846
G1 X96.154 Y109.132 E21.11942
G1 X95.333 Y109.952 E21.14702
G1 X95.688 Y102.550 F7800.000
G1 F4800
G1 X95.688 Y102.324 E21.15240
G1 X95.915 Y102.324 E21.15778
G1 X99.719 Y98.519 E21.28581
G1 X100.600 Y98.519 E21.30677
G1 X96.795 Y102.324 E21.43480
G1 X97.676 Y102.324 E21.45576
G1 X101.481 Y98.519 E21.58379
G1 X102.362 Y98.519 E21.60475
G1 X98.557 Y102.324 E21.73277
G1 X99.438 Y102.324 E21.75373
G1 X103.243 Y98.519 E21.88176
G1 X104.124 Y98.519 E21.90272
G1 X100.319 Y102.324 E22.03075
G1 E20.03075 F2400.00000
G92 E0
G1 X107.666 Y109.952 F7800.000
G1 E2.00000 F2400.00000
G1 F4800
G1 X108.915 Y108.704 E2.04202
G1 X108.915 Y107.823 E2.06298
G1 X106.785 Y109.952 E2.13463
G1 X105.904 Y109.952 E2.15559
G1 X108.915 Y106.942 E2.25689
G1 X108.915 Y106.061 E2.27785
G1 X105.023 Y109.952 E2.40880
G1 X104.143 Y109.952 E2.42976
G1 X108.915 Y105.180 E2.59034
G1 X108.915 Y104.299 E2.61130
G1 X103.846 Y109.367 E2.78185
G1 X103.846 Y108.487 E2.80281
G1 X108.915 Y103.418 E2.97336
G1 X108.915 Y102.537 E2.99432
G1 X103.846 Y107.606 E3.16486
G1 X103.846 Y106.725 E3.18582
G1 X108.915 Y101.656 E3.35637
G1 X108.915 Y100.775 E3.37733
G1 X103.846 Y105.844 E3.54788
G1 X103.846 Y104.963 E3.56884
G1 X108.915 Y99.894 E3.73939
G1 X108.915 Y99.013 E3.76035
G1 X103.846 Y104.082 E3.93090
G1 X103.846 Y103.201 E3.95186
G1 X108.915 Y98.133 E4.12240
G1 X108.915 Y97.252 E4.14336
G1 X103.843 Y102.324 E4.31403
G1 X102.962 Y102.324 E4.33499
G1 X108.915 Y96.371 E4.53530
G1 X108.915 Y95.490 E4.55626
G1 X102.081 Y102.324 E4.78621
G1 X101.200 Y102.324 E4.80717
G1 X108.915 Y94.609 E5.06677
G1 X108.915 Y93.728 E5.08773
G1 X103.846 Y98.796 E5.25828
G1 X103.846 Y97.915 E5.27924
G1 X108.915 Y92.847 E5.44978
G1 X108.915 Y91.966 E5.47074
G1 X103.846 Y97.034 E5.64129
G1 X103.846 Y96.154 E5.66225
G1 X108.915 Y91.085 E5.83280
G1 X108.915 Y90.204 E5.85376
G1 X103.846 Y95.273 E6.02431
G1 X103.846 Y94.392 E6.04527
G1 X108.190 Y90.048 E6.19144
G1 X107.310 Y90.048 E6.21240
G1 X103.846 Y93.511 E6.32893
G1 X103.846 Y92.630 E6.34989
G1 X106.429 Y90.048 E6.43678
G1 X105.548 Y90.048 E6.45774
G1 X103.846 Y91.749 E6.51498
G1 X103.846 Y90.868 E6.53594
G1 X104.667 Y90.048 E6.56355
G1 Z3.000 F7800.000
G1 X108.915 Y91.296 F7800.000
G1 F4800
G1 X107.666 Y90.048 E6.60556
G1 X106.785 Y90.048 E6.62652
G1 X108.915 Y92.177 E6.69818
G1 X108.915 Y93.058 E6.71914
G1 X105.904 Y90.048 E6.82044
G1 X105.023 Y90.048 E6.84140
G1 X108.915 Y93.939 E6.97234
G1 X108.915 Y94.820 E6.99330
G1 X104.143 Y90.048 E7.15389
G1 X103.846 Y90.048 E7.16093
G1 X103.846 Y90.633 E7.17485
G1 X108.915 Y95.701 E7.34539
G1 X108.915 Y96.582 E7.36635
G1 X103.846 Y91.513 E7.53690
G1 X103.846 Y92.394 E7.55786
G1 X108.915 Y97.463 E7.72841
G1 X108.915 Y98.344 E7.74937
G1 X103.846 Y93.275 E7.91992
G1 X103.846 Y94.156 E7.94088
G1 X108.915 Y99.225 E8.11143
G1 X108.915 Y100.106 E8.13239
G1 X103.846 Y95.037 E8.30293
G1 X103.846 Y95.918 E8.32389
G1 X108.915 Y100.987 E8.49444
G1 X108.915 Y101.867 E8.51540
G1 X103.846 Y96.799 E8.68595
G1 X103.846 Y97.680 E8.70691
G1 X108.915 Y102.748 E8.87746
G1 X108.915 Y103.629 E8.89842
G1 X103.804 Y98.519 E9.07038
G1 X102.923 Y98.519 E9.09134
G1 X108.915 Y104.510 E9.29295
G1 X108.915 Y105.391 E9.31391
G1 X102.043 Y98.519 E9.54515
G1 X101.162 Y98.519 E9.56611
G1 X108.915 Y106.272 E9.82700
G1 X108.915 Y107.153 E9.84796
G1 X103.846 Y102.085 E10.01851
G1 X103.846 Y102.966 E10.03947
G1 X108.915 Y108.034 E10.21002
G1 X108.915 Y108.915 E10.23098
G1 X103.846 Y103.846 E10.40153
G1 X103.846 Y104.727 E10.42249
G1 X108.915 Y109.796 E10.59303
G1 X108.915 Y109.952 E10.59676
G1 X108.190 Y109.952 E10.61400
G1 X103.846 Y105.608 E10.76017
G1 X103.846 Y106.489 E10.78113
G1 X107.310 Y109.952 E10.89766
G1 X106.429 Y109.952 E10.91862
G1 X103.846 Y107.370 E11.00550
G1 X103.846 Y108.251 E11.02646
G1 X105.548 Y109.952 E11.08371
G1 X104.667 Y109.952 E11.10467
G1 X103.846 Y109.132 E11.13227
G1 X104.085 Y102.324 F7800.000
G1 F4800
G1 X100.281 Y98.519 E11.26030
G1 X99.400 Y98.519 E11.28126
G1 X103.205 Y102.324 E11.40929
G1 X102.324 Y102.324 E11.43025
G1 X98.519 Y98.519 E11.55827
G1 X97.638 Y98.519 E11.57924
G1 X101.443 Y102.324 E11.70726
G1 X100.562 Y102.324 E11.72822
G1 X96.757 Y98.519 E11.85625
G1 X95.876 Y98.519 E11.87721
G1 X96.154 Y90.868 F7800.000
G1 F4800
G1 X95.333 Y90.048 E11.90481
G1 X94.452 Y90.048 E11.92577
G1 X96.154 Y91.749 E11.98302
G1 X96.154 Y92.630 E12.00398
G1 X93.571 Y90.048 E12.09087
G1 X92.690 Y90.048 E12.11183
G1 X96.154 Y93.511 E12.22836
G1 X96.154 Y94.392 E12.24932
G1 X91.810 Y90.048 E12.39549
G1 X91.085 Y90.048 E12.41272
G1 X91.085 Y90.204 E12.41645
G1 X96.154 Y95.273 E12.58700
G1 X96.154 Y96.154 E12.60796
G1 X91.085 Y91.085 E12.77850
G1 X91.085 Y91.966 E12.79946
G1 X96.154 Y97.034 E12.97001
G1 X96.154 Y97.915 E12.99097
G1 X91.085 Y92.847 E13.16152
G1 X91.085 Y93.728 E13.18248
G1 X96.154 Y98.796 E13.35303
G1 X96.154 Y98.984 E13.35749
G1 X96.341 Y98.984 E13.36196
G1 X99.681 Y102.324 E13.47433
G1 X98.800 Y102.324 E13.49529
G1 X91.085 Y94.609 E13.75489
G1 X91.085 Y95.490 E13.77585
G1 X97.919 Y102.324 E14.00580
G1 X97.038 Y102.324 E14.02676
G1 X91.085 Y96.371 E14.22707
G1 X91.085 Y97.252 E14.24803
G1 X96.157 Y102.324 E14.41870
G1 X96.154 Y103.201 E14.43957
G1 X91.085 Y98.133 E14.61012
G1 X91.085 Y99.013 E14.63108
G1 X96.154 Y104.082 E14.80163
G1 X96.154 Y104.963 E14.82259
G1 X91.085 Y99.894 E14.99314
G1 X91.085 Y100.775 E15.01410
G1 X96.154 Y105.844 E15.18464
G1 X96.154 Y106.725 E15.20560
G1 X91.085 Y101.656 E15.37615
G1 X91.085 Y102.537 E15.39711
G1 X96.154 Y107.606 E15.56766
G1 X96.154 Y108.487 E15.58862
G1 X91.085 Y103.418 E15.75917
G1 X91.085 Y104.299 E15.78013
G1 X96.154 Y109.367 E15.95067
G1 X96.154 Y109.952 E15.96459
G1 X95.857 Y109.952 E15.97164
G1 X91.085 Y105.180 E16.13222
G1 X91.085 Y106.061 E16.15318
G1 X94.977 Y109.952 E16.28412
G1 X94.096 Y109.952 E16.30508
G1 X91.085 Y106.942 E16.40638
G1 X91.085 Y107.823 E16.42734
G1 X93.215 Y109.952 E16.49900
G1 X92.334 Y109.952 E16.51996
G1 X91.085 Y108.704 E16.56198
G1 Z3.300 F7800.000
G1 X91.085 Y106.272 F7800.000
G1 F4800
G1 X98.838 Y98.519 E16.82286
G1 X97.957 Y98.519 E16.84383
G1 X91.085 Y105.391 E17.07507
G1 X91.085 Y104.510 E17.09603
G1 X97.077 Y98.519 E17.29764
G1 X96.196 Y98.519 E17.31860
G1 X91.085 Y103.629 E17.49056
G1 X91.085 Y102.748 E17.51152
G1 X96.154 Y97.680 E17.68207
G1 X96.154 Y96.799 E17.70303
G1 X91.085 Y101.867 E17.87358
G1 X91.085 Y100.987 E17.89454
G1 X96.154 Y95.918 E18.06508
G1 X96.154 Y95.037 E18.08604
G1 X91.085 Y100.106 E18.25659
G1 X91.085 Y99.225 E18.27755
G1 X96.154 Y94.156 E18.44810
G1 X96.154 Y93.275 E18.46906
G1 X91.085 Y98.344 E18.63961
G1 X91.085 Y97.463 E18.66057
G1 X96.154 Y92.394 E18.83112
G1 X96.154 Y91.513 E18.85208
G1 X91.085 Y96.582 E19.02262
G1 X91.085 Y95.701 E19.04358
G1 X96.154 Y90.633 E19.21413
G1 X96.154 Y90.048 E19.22805
G1 X95.857 Y90.048 E19.23509
G1 X91.085 Y94.820 E19.39568
G1 X91.085 Y93.939 E19.41664
G1 X94.977 Y90.048 E19.54758
G1 X94.096 Y90.048 E19.56854
G1 X91.085 Y93.058 E19.66984
G1 X91.085 Y92.177 E19.69080
G1 X93.215 Y90.048 E19.76246
G1 X92.334 Y90.048 E19.78342
G1 X91.085 Y91.296 E19.82543
G1 X91.085 Y90.513 E19.84407
G1 X91.869 Y90.513 E19.86271
G1 X96.154 Y102.085 F7800.000
G1 F4800
G1 X91.085 Y107.153 E20.03326
G1 X91.085 Y108.034 E20.05422
G1 X96.154 Y102.966 E20.22477
G1 X96.154 Y103.846 E20.24573
G1 X91.085 Y108.915 E20.41627
G1 X91.085 Y109.796 E20.43723
G1 X96.154 Y104.727 E20.60778
G1 X96.154 Y105.608 E20.62874
G1 X91.810 Y109.952 E20.77491
G1 X92.690 Y109.952 E20.79587
G1 X96.154 Y106.489 E20.91240
G1 X96.154 Y107.370 E20.93336
G1 X93.571 Y109.952 E21.02025
G1 X94.452 Y109.952 E21.04121
G1 X96.154 Y108.251 E21.09846
G1 X96.154 Y109.132 E21.11942
G1 X95.333 Y109.952 E21.14702
G1 X95.688 Y102.550 F7800.000
G1 F4800
G1 X95.688 Y102.324 E21.15240
G1 X95.915 Y102.324 E21.15778
G1 X99.719 Y98.519 E21.28581
G1 X100.600 Y98.519 E21.30677
G1 X96.795 Y102.324 E21.43480
G1 X97.676 Y102.324 E21.45576
G1 X101.481 Y98.519 E21.58379
G1 X102.362 Y98.519 E21.60475
G1 X98.557 Y102.324 E21.73277
G1 X99.438 Y102.324 E21.75373
G1 X103.243 Y98.519 E21.88176
G1 X104.124 Y98.519 E21.90272
G1 X100.319 Y102.324 E22.03075
G1 E20.03075 F2400.00000
G92 E0
G1 X107.666 Y109.952 F7800.000
G1 E2.00000 F2400.00000
G1 F4800
G1 X108.915 Y108.704 E2.04202
G1 X108.915 Y107.823 E2.06298
G1 X106.785 Y109.952 E2.13463
G1 X105.904 Y109.952 E2.15559
G1 X108.915 Y106.942 E2.25689
G1 X108.915 Y106.061 E2.27785
G1 X105.023 Y109.952 E2.40880
G1 X104.143 Y109.952 E2.42976
G1 X108.915 Y105.180 E2.59034
G1 X108.915 Y104.299 E2.61130
G1 X103.846 Y109.367 E2.78185
G1 X103.846 Y108.487 E2.80281
G1 X108.915 Y103.418 E2.97336
G1 X108.915 Y102.537 E2.99432
G1 X103.846 Y107.606 E3.16486
G1 X103.846 Y106.725 E3.18582
G1 X108.915 Y101.656 E3.35637
G1 X108.915 Y100.775 E3.37733
G1 X103.846 Y105.844 E3.54788
G1 X103.846 Y104.963 E3.56884
G1 X108.915 Y99.894 E3.73939
G1 X108.915 Y99.013 E3.76035
G1 X103.846 Y104.082 E3.93090
G1 X103.846 Y103.201 E3.95186
G1 X108.915 Y98.133 E4.12240
G1 X108.915 Y97.252 E4.14336
G1 X103.843 Y102.324 E4.31403
G1 X102.962 Y102.324 E4.33499
G1 X108.915 Y96.371 E4.53530
G1 X108.915 Y95.490 E4.55626
G1 X102.081 Y102.324 E4.78621
G1 X101.200 Y102.324 E4.80717
G1 X108.915 Y94.609 E5.06677
G1 X108.915 Y93.728 E5.08773
G1 X103.846 Y98.796 E5.25828
G1 X103.846 Y97.915 E5.27924
G1 X108.915 Y92.847 E5.44978
G1 X108.915 Y91.966 E5.47074
G1 X103.846 Y97.034 E5.64129
G1 X103.846 Y96.154 E5.66225
G1 X108.915 Y91.085 E5.83280
G1 X108.915 Y90.204 E5.85376
G1 X103.846 Y95.273 E6.02431
G1 X103.846 Y94.392 E6.04527
G1 X108.190 Y90.048 E6.19144
G1 X107.310 Y90.048 E6.21240
G1 X103.846 Y93.511 E6.32893
G1 X103.846 Y92.630 E6.34989
G1 X106.429 Y90.048 E6.43678
G1 X105.548 Y90.048 E6.45774
G1 X103.846 Y91.749 E6.51498
G1 X103.846 Y90.868 E6.53594
G1 X104.667 Y90.048 E6.56355
G1 Z3.600 F7800.000
G1 X108.915 Y91.296 F7800.000
G1 F4800
G1 X107.666 Y90.048 E6.60556
G1 X106.785 Y90.048 E6.62652
G1 X108.915 Y92.177 E6.69818
G1 X108.915 Y93.058 E6.71914
G1 X105.904 Y90.048 E6.82044
G1 X105.023 Y90.048 E6.84140
G1 X108.915 Y93.939 E6.97234
G1 X108.915 Y94.820 E6.99330
G1 X104.143 Y90.048 E7.15389
G1 X103.846 Y90.048 E7.16093
G1 X103.846 Y90.633 E7.17485
G1 X108.915 Y95.701 E7.34539
G1 X108.915 Y96.582 E7.36635
G1 X103.846 Y91.513 E7.53690
G1 X103.846 Y92.394 E7.55786
G1 X108.915 Y97.463 E7.72841
G1 X108.915 Y98.344 E7.74937
G1 X103.846 Y93.275 E7.91992
G1 X103.846 Y94.156 E7.94088
G1 X108.915 Y99.225 E8.11143
G1 X108.915 Y100.106 E8.13239
G1 X103.846 Y95.037 E8.30293
G1 X103.846 Y95.918 E8.32389
G1 X108.915 Y100.987 E8.49444
G1 X108.915 Y101.867 E8.51540
G1 X103.846 Y96.799 E8.68595
G1 X103.846 Y97.680 E8.70691
G1 X108.915 Y102.748 E8.87746
G1 X108.915 Y103.629 E8.89842
G1 X103.804 Y98.519 E9.07038
G1 X102.923 Y98.519 E9.09134
G1 X108.915 Y104.510 E9.29295
G1 X108.915 Y105.391 E9.31391
G1 X102.043 Y98.519 E9.54515
G1 X101.162 Y98.519 E9.56611
G1 X108.915 Y106.272 E9.82700
G1 X108.915 Y107.153 E9.84796
G1 X103.846 Y102.085 E10.01851
G1 X103.846 Y102.966 E10.03947
G1 X108.915 Y108.034 E10.21002
G1 X108.915 Y108.915 E10.23098
G1 X103.846 Y103.846 E10.40153
G1 X103.846 Y104.727 E10.42249
G1 X108.915 Y109.796 E10.59303
G1 X108.915 Y109.952 E10.59676
G1 X108.190 Y109.952 E10.61400
G1 X103.846 Y105.608 E10.76017
G1 X103.846 Y106.489 E10.78113
G1 X107.310 Y109.952 E10.89766
G1 X106.429 Y109.952 E10.91862
G1 X103.846 Y107.370 E11.00550
G1 X103.846 Y108.251 E11.02646
G1 X105.548 Y109.952 E11.08371
G1 X104.667 Y109.952 E11.10467
G1 X103.846 Y109.132 E11.13227
G1 X104.085 Y102.324 F7800.000
G1 F4800
G1 X100.281 Y98.519 E11.26030
G1 X99.400 Y98.519 E11.28126
G1 X103.205 Y102.324 E11.40929
G1 X102.324 Y102.324 E11.43025
G1 X98.519 Y98.519 E11.55827
G1 X97.638 Y98.519 E11.57924
G1 X101.443 Y102.324 E11.70726
G1 X100.562 Y102.324 E11.72822
G1 X96.757 Y98.519 E11.85625
G1 X95.876 Y98.519 E11.87721
G1 X96.154 Y90.868 F7800.000
G1 F4800
G1 X95.333 Y90.048 E11.90481
G1 X94.452 Y90.048 E11.92577
G1 X96.154 Y91.749 E11.98302
G1 X96.154 Y92.630 E12.00398
G1 X93.571 Y90.048 E12.09087
G1 X92.690 Y90.048 E12.11183
G1 X96.154 Y93.511 E12.22836
G1 X96.154 Y94.392 E12.24932
G1 X91.810 Y90.048 E12.39549
G1 X91.085 Y90.048 E12.41272
G1 X91.085 Y90.204 E12.41645
G1 X96.154 Y95.273 E12.58700
G1 X96.154 Y96.154 E12.60796
G1 X91.085 Y91.085 E12.77850
G1 X91.085 Y91.966 E12.79946
G1 X96.154 Y97.034 E12.97001
G1 X96.154 Y97.915 E12.99097
G1 X91.085 Y92.847 E13.16152
G1 X91.085 Y93.728 E13.18248
G1 X96.154 Y98.796 E13.35303
G1 X96.154 Y98.984 E13.35749
G1 X96.341 Y98.984 E13.36196
G1 X99.681 Y102.324 E13.47433
G1 X98.800 Y102.324 E13.49529
G1 X91.085 Y94.609 E13.75489
G1 X91.085 Y95.490 E13.77585
G1 X97.919 Y102.324 E14.00580
G1 X97.038 Y102.324 E14.02676
G1 X91.085 Y96.371 E14.22707
G1 X91.085 Y97.252 E14.24803
G1 X96.157 Y102.324 E14.41870
G1 X96.154 Y103.201 E14.43957
G1 X91.085 Y98.133 E14.61012
G1 X91.085 Y99.013 E14.63108
G1 X96.154 Y104.082 E14.80163
G1 X96.154 Y104.963 E14.82259
G1 X91.085 Y99.894 E14.99314
G1 X91.085 Y100.775 E15.01410
G1 X96.154 Y105.844 E15.18464
G1 X96.154 Y106.725 E15.20560
G1 X91.085 Y101.656 E15.37615
G1 X91.085 Y102.537 E15.39711
G1 X96.154 Y107.606 E15.56766
G1 X96.154 Y108.487 E15.58862
G1 X91.085 Y103.418 E15.75917
G1 X91.085 Y104.299 E15.78013
G1 X96.154 Y109.367 E15.95067
G1 X96.154 Y109.952 E15.96459
G1 X95.857 Y109.952 E15.97164
G1 X91.085 Y105.180 E16.13222
G1 X91.085 Y106.061 E16.15318
G1 X94.977 Y109.952 E16.28412
G1 X94.096 Y109.952 E16.30508
G1 X91.085 Y106.942 E16.40638
G1 X91.085 Y107.823 E16.42734
G1 X93.215 Y109.952 E16.49900
G1 X92.334 Y109.952 E16.51996
G1 X91.085 Y108.704 E16.56198
G1 Z3.900 F7800.000
G1 X91.085 Y106.272 F7800.000
G1 F4800
G1 X98.838 Y98.519 E16.82286
G1 X97.957 Y98.519 E16.84383
G1 X91.085 Y105.391 E17.07507
G1 X91.085 Y104.510 E17.09603
G1 X97.077 Y98.519 E17.29764
G1 X96.196 Y98.519 E17.31860
G1 X91.085 Y103.629 E17.49056
G1 X91.085 Y102.748 E17.51152
G1 X96.154 Y97.680 E17.68207
G1 X96.154 Y96.799 E17.70303
G1 X91.085 Y101.867 E17.87358
G1 X91.085 Y100.987 E17.89454
G1 X96.154 Y95.918 E18.06508
G1 X96.154 Y95.037 E18.08604
G1 X91.085 Y100.106 E18.25659
G1 X91.085 Y99.225 E18.27755
G1 X96.154 Y94.156 E18.44810
G1 X96.154 Y93.275 E18.46906
G1 X91.085 Y98.344 E18.63961
G1 X91.085 Y97.463 E18.66057
G1 X96.154 Y92.394 E18.83112
G1 X96.154 Y91.513 E18.85208
G1 X91.085 Y96.582 E19.02262
G1 X91.085 Y95.701 E19.04358
G1 X96.154 Y90.633 E19.21413
G1 X96.154 Y90.048 E19.22805
G1 X95.857 Y90.048 E19.23509
G1 X91.085 Y94.820 E19.39568
G1 X91.085 Y93.939 E19.41664
G1 X94.977 Y90.048 E19.54758
G1 X94.096 Y90.048 E19.56854
G1 X91.085 Y93.058 E19.66984
G1 X91.085 Y92.177 E19.69080
G1 X93.215 Y90.048 E19.76246
G1 X92.334 Y90.048 E19.78342
G1 X91.085 Y91.296 E19.82543
G1 X91.085 Y90.513 E19.84407
G1 X91.869 Y90.513 E19.86271
G1 X96.154 Y102.085 F7800.000
G1 F4800
G1 X91.085 Y107.153 E20.03326
G1 X91.085 Y108.034 E20.05422
G1 X96.154 Y102.966 E20.22477
G1 X96.154 Y103.846 E20.24573
G1 X91.085 Y108.915 E20.41627
G1 X91.085 Y109.796 E20.43723
G1 X96.154 Y104.727 E20.60778
G1 X96.154 Y105.608 E20.62874
G1 X91.810 Y109.952 E20.77491
G1 X92.690 Y109.952 E20.79587
G1 X96.154 Y106.489 E20.91240
G1 X96.154 Y107.370 E20.93336
G1 X93.571 Y109.952 E21.02025
G1 X94.452 Y109.952 E21.04121
G1 X96.154 Y108.251 E21.09846
G1 X96.154 Y109.132 E21.11942
G1 X95.333 Y109.952 E21.14702
G1 X95.688 Y102.550 F7800.000
G1 F4800
G1 X95.688 Y102.324 E21.15240
G1 X95.915 Y102.324 E21.15778
G1 X99.719 Y98.519 E21.28581
G1 X100.600 Y98.519 E21.30677
G1 X96.795 Y102.324 E21.43480
G1 X97.676 Y102.324 E21.45576
G1 X101.481 Y98.519 E21.58379
G1 X102.362 Y98.519 E21.60475
G1 X98.557 Y102.324 E21.73277
G1 X99.438 Y102.324 E21.75373
G1 X103.243 Y98.519 E21.88176
G1 X104.124 Y98.519 E21.90272
G1 X100.319 Y102.324 E22.03075
G1 E20.03075 F2400.00000
G92 E0
G1 X107.666 Y109.952 F7800.000
G1 E2.00000 F2400.00000
G1 F4800
G1 X108.915 Y108.704 E2.04202
G1 X108.915 Y107.823 E2.06298
G1 X106.785 Y109.952 E2.13463
G1 X105.904 Y109.952 E2.15559
G1 X108.915 Y106.942 E2.25689
G1 X108.915 Y106.061 E2.27785
G1 X105.023 Y109.952 E2.40880
G1 X104.143 Y109.952 E2.42976
G1 X108.915 Y105.180 E2.59034
G1 X108.915 Y104.299 E2.61130
G1 X103.846 Y109.367 E2.78185
G1 X103.846 Y108.487 E2.80281
G1 X108.915 Y103.418 E2.97336
G1 X108.915 Y102.537 E2.99432
G1 X103.846 Y107.606 E3.16486
G1 X103.846 Y106.725 E3.18582
G1 X108.915 Y101.656 E3.35637
G1 X108.915 Y100.775 E3.37733
G1 X103.846 Y105.844 E3.54788
G1 X103.846 Y104.963 E3.56884
G1 X108.915 Y99.894 E3.73939
G1 X108.915 Y99.013 E3.76035
G1 X103.846 Y104.082 E3.93090
G1 X103.846 Y103.201 E3.95186
G1 X108.915 Y98.133 E4.12240
G1 X108.915 Y97.252 E4.14336
G1 X103.843 Y102.324 E4.31403
G1 X102.962 Y102.324 E4.33499
G1 X108.915 Y96.371 E4.53530
G1 X108.915 Y95.490 E4.55626
G1 X102.081 Y102.324 E4.78621
G1 X101.200 Y102.324 E4.80717
G1 X108.915 Y94.609 E5.06677
G1 X108.915 Y93.728 E5.08773
G1 X103.846 Y98.796 E5.25828
G1 X103.846 Y97.915 E5.27924
G1 X108.915 Y92.847 E5.44978
G1 X108.915 Y91.966 E5.47074
G1 X103.846 Y97.034 E5.64129
G1 X103.846 Y96.154 E5.66225
G1 X108.915 Y91.085 E5.83280
G1 X108.915 Y90.204 E5.85376
G1 X103.846 Y95.273 E6.02431
G1 X103.846 Y94.392 E6.04527
G1 X108.190 Y90.048 E6.19144
G1 X107.310 Y90.048 E6.21240
G1 X103.846 Y93.511 E6.32893
G1 X103.846 Y92.630 E6.34989
G1 X106.429 Y90.048 E6.43678
G1 X105.548 Y90.048 E6.45774
G1 X103.846 Y91.749 E6.51498
G1 X103.846 Y90.868 E6.53594
G1 X104.667 Y90.048 E6.56355
G1 Z4.200 F7800.000
G1 X108.915 Y91.296 F7800.000
G1 F4800
G1 X107.666 Y90.048 E6.60556
G1 X106.785 Y90.048 E6.62652
G1 X108.915 Y92.177 E6.69818
G1 X108.915 Y93.058 E6.71914
G1 X105.904 Y90.048 E6.82044
G1 X105.023 Y90.048 E6.84140
G1 X108.915 Y93.939 E6.97234
G1 X108.915 Y94.820 E6.99330
G1 X104.143 Y90.048 E7.15389
G1 X103.846 Y90.048 E7.16093
G1 X103.846 Y90.633 E7.17485
G1 X108.915 Y95.701 E7.34539
G1 X108.915 Y96.582 E7.36635
G1 X103.846 Y91.513 E7.53690
G1 X103.846 Y92.394 E7.55786
G1 X108.915 Y97.463 E7.72841
G1 X108.915 Y98.344 E7.74937
G1 X103.846 Y93.275 E7.91992
G1 X103.846 Y94.156 E7.94088
G1 X108.915 Y99.225 E8.11143
G1 X108.915 Y100.106 E8.13239
G1 X103.846 Y95.037 E8.30293
G1 X103.846 Y95.918 E8.32389
G1 X108.915 Y100.987 E8.49444
G1 X108.915 Y101.867 E8.51540
G1 X103.846 Y96.799 E8.68595
G1 X103.846 Y97.680 E8.70691
G1 X108.915 Y102.748 E8.87746
G1 X108.915 Y103.629 E8.89842
G1 X103.804 Y98.519 E9.07038
G1 X102.923 Y98.519 E9.09134
G1 X108.915 Y104.510 E9.29295
G1 X108.915 Y105.391 E9.31391
G1 X102.043 Y98.519 E9.54515
G1 X101.162 Y98.519 E9.56611
G1 X108.915 Y106.272 E9.82700
G1 X108.915 Y107.153 E9.84796
G1 X103.846 Y102.085 E10.01851
G1 X103.846 Y102.966 E10.03947
G1 X108.915 Y108.034 E10.21002
G1 X108.915 Y108.915 E10.23098
G1 X103.846 Y103.846 E10.40153
G1 X103.846 Y104.727 E10.42249
G1 X108.915 Y109.796 E10.59303
G1 X108.915 Y109.952 E10.59676
G1 X108.190 Y109.952 E10.61400
G1 X103.846 Y105.608 E10.76017
G1 X103.846 Y106.489 E10.78113
G1 X107.310 Y109.952 E10.89766
G1 X106.429 Y109.952 E10.91862
G1 X103.846 Y107.370 E11.00550
G1 X103.846 Y108.251 E11.02646
G1 X105.548 Y109.952 E11.08371
G1 X104.667 Y109.952 E11.10467
G1 X103.846 Y109.132 E11.13227
G1 X104.085 Y102.324 F7800.000
G1 F4800
G1 X100.281 Y98.519 E11.26030
G1 X99.400 Y98.519 E11.28126
G1 X103.205 Y102.324 E11.40929
G1 X102.324 Y102.324 E11.43025
G1 X98.519 Y98.519 E11.55827
G1 X97.638 Y98.519 E11.57924
G1 X101.443 Y102.324 E11.70726
G1 X100.562 Y102.324 E11.72822
G1 X96.757 Y98.519 E11.85625
G1 X95.876 Y98.519 E11.87721
G1 X96.154 Y90.868 F7800.000
G1 F4800
G1 X95.333 Y90.048 E11.90481
G1 X94.452 Y90.048 E11.92577
G1 X96.154 Y91.749 E11.98302
G1 X96.154 Y92.630 E12.00398
G1 X93.571 Y90.048 E12.09087
G1 X92.690 Y90.048 E12.11183
G1 X96.154 Y93.511 E12.22836
G1 X96.154 Y94.392 E12.24932
G1 X91.810 Y90.048 E12.39549
G1 X91.085 Y90.048 E12.41272
G1 X91.085 Y90.204 E12.41645
G1 X96.154 Y95.273 E12.58700
G1 X96.154 Y96.154 E12.60796
G1 X91.085 Y91.085 E12.77850
G1 X91.085 Y91.966 E12.79946
G1 X96.154 Y97.034 E12.97001
G1 X96.154 Y97.915 E12.99097
G1 X91.085 Y92.847 E13.16152
G1 X91.085 Y93.728 E13.18248
G1 X96.154 Y98.796 E13.35303
G1 X96.154 Y98.984 E13.35749
G1 X96.341 Y98.984 E13.36196
G1 X99.681 Y102.324 E13.47433
G1 X98.800 Y102.324 E13.49529
G1 X91.085 Y94.609 E13.75489
G1 X91.085 Y95.490 E13.77585
G1 X97.919 Y102.324 E14.00580
G1 X97.038 Y102.324 E14.02676
G1 X91.085 Y96.371 E14.22707
G1 X91.085 Y97.252 E14.24803
G1 X96.157 Y102.324 E14.41870
G1 X96.154 Y103.201 E14.43957
G1 X91.085 Y98.133 E14.61012
G1 X91.085 Y99.013 E14.63108
G1 X96.154 Y104.082 E14.80163
G1 X96.154 Y104.963 E14.82259
G1 X91.085 Y99.894 E14.99314
G1 X91.085 Y100.775 E15.01410
G1 X96.154 Y105.844 E15.18464
G1 X96.154 Y106.725 E15.20560
G1 X91.085 Y101.656 E15.37615
G1 X91.085 Y102.537 E15.39711
G1 X96.154 Y107.606 E15.56766
G1 X96.154 Y108.487 E15.58862
G1 X91.085 Y103.418 E15.75917
G1 X91.085 Y104.299 E15.78013
G1 X96.154 Y109.367 E15.95067
G1 X96.154 Y109.952 E15.96459
G1 X95.857 Y109.952 E15.97164
G1 X91.085 Y105.180 E16.13222
G1 X91.085 Y106.061 E16.15318
G1 X94.977 Y109.952 E16.28412
G1 X94.096 Y109.952 E16.30508
G1 X91.085 Y106.942 E16.40638
G1 X91.085 Y107.823 E16.42734
G1 X93.215 Y109.952 E16.49900
G1 X92.334 Y109.952 E16.51996
G1 X91.085 Y108.704 E16.56198
G1 Z4.500 F7800.000
G1 X91.085 Y106.272 F7800.000
G1 F4800
G1 X98.838 Y98.519 E16.82286
G1 X97.957 Y98.519 E16.84383
G1 X91.085 Y105.391 E17.07507
G1 X91.085 Y104.510 E17.09603
G1 X97.077 Y98.519 E17.29764
G1 X96.196 Y98.519 E17.31860
G1 X91.085 Y103.629 E17.49056
G1 X91.085 Y102.748 E17.51152
G1 X96.154 Y97.680 E17.68207
G1 X96.154 Y96.799 E17.70303
G1 X91.085 Y101.867 E17.87358
G1 X91.085 Y100.987 E17.89454
G1 X96.154 Y95.918 E18.06508
G1 X96.154 Y95.037 E18.08604
G1 X91.085 Y100.106 E18.25659
G1 X91.085 Y99.225 E18.27755
G1 X96.154 Y94.156 E18.44810
G1 X96.154 Y93.275 E18.46906
G1 X91.085 Y98.344 E18.63961
G1 X91.085 Y97.463 E18.66057
G1 X96.154 Y92.394 E18.83112
G1 X96.154 Y91.513 E18.85208
G1 X91.085 Y96.582 E19.02262
G1 X91.085 Y95.701 E19.04358
G1 X96.154 Y90.633 E19.21413
G1 X96.154 Y90.048 E19.22805
G1 X95.857 Y90.048 E19.23509
G1 X91.085 Y94.820 E19.39568
G1 X91.085 Y93.939 E19.41664
G1 X94.977 Y90.048 E19.54758
G1 X94.096 Y90.048 E19.56854
G1 X91.085 Y93.058 E19.66984
G1 X91.085 Y92.177 E19.69080
G1 X93.215 Y90.048 E19.76246
G1 X92.334 Y90.048 E19.78342
G1 X91.085 Y91.296 E19.82543
G1 X91.085 Y90.513 E19.84407
G1 X91.869 Y90.513 E19.86271
G1 X96.154 Y102.085 F7800.000
G1 F4800
G1 X91.085 Y107.153 E20.03326
G1 X91.085 Y108.034 E20.05422
G1 X96.154 Y102.966 E20.22477
G1 X96.154 Y103.846 E20.24573
G1 X91.085 Y108.915 E20.41627
G1 X91.085 Y109.796 E20.43723
G1 X96.154 Y104.727 E20.60778
G1 X96.154 Y105.608 E20.62874
G1 X91.810 Y109.952 E20.77491
G1 X92.690 Y109.952 E20.79587
G1 X96.154 Y106.489 E20.91240
G1 X96.154 Y107.370 E20.93336
G1 X93.571 Y109.952 E21.02025
G1 X94.452 Y109.952 E21.04121
G1 X96.154 Y108.251 E21.09846
G1 X96.154 Y109.132 E21.11942
G1 X95.333 Y109.952 E21.14702
G1 X95.688 Y102.550 F7800.000
G1 F4800
G1 X95.688 Y102.324 E21.15240
G1 X95.915 Y102.324 E21.15778
G1 X99.719 Y98.519 E21.28581
G1 X100.600 Y98.519 E21.30677
G1 X96.795 Y102.324 E21.43480
G1 X97.676 Y102.324 E21.45576
G1 X101.481 Y98.519 E21.58379
G1 X102.362 Y98.519 E21.60475
G1 X98.557 Y102.324 E21.73277
G1 X99.438 Y102.324 E21.75373
G1 X103.243 Y98.519 E21.88176
G1 X104.124 Y98.519 E21.90272
G1 X100.319 Y102.324 E22.03075
G1 E20.03075 F2400.00000
G92 E0
G1 X107.666 Y109.952 F7800.000
G1 E2.00000 F2400.00000
G1 F4800
G1 X108.915 Y108.704 E2.04202
G1 X108.915 Y107.823 E2.06298
G1 X106.785 Y109.952 E2.13463
G1 X105.904 Y109.952 E2.15559
G1 X108.915 Y106.942 E2.25689
G1 X108.915 Y106.061 E2.27785
G1 X105.023 Y109.952 E2.40880
G1 X104.143 Y109.952 E2.42976
G1 X108.915 Y105.180 E2.59034
G1 X108.915 Y104.299 E2.61130
G1 X103.846 Y109.367 E2.78185
G1 X103.846 Y108.487 E2.80281
G1 X108.915 Y103.418 E2.97336
G1 X108.915 Y102.537 E2.99432
G1 X103.846 Y107.606 E3.16486
G1 X103.846 Y106.725 E3.18582
G1 X108.915 Y101.656 E3.35637
G1 X108.915 Y100.775 E3.37733
G1 X103.846 Y105.844 E3.54788
G1 X103.846 Y104.963 E3.56884
G1 X108.915 Y99.894 E3.73939
G1 X108.915 Y99.013 E3.76035
G1 X103.846 Y104.082 E3.93090
G1 X103.846 Y103.201 E3.95186
G1 X108.915 Y98.133 E4.12240
G1 X108.915 Y97.252 E4.14336
G1 X103.843 Y102.324 E4.31403
G1 X102.962 Y102.324 E4.33499
G1 X108.915 Y96.371 E4.53530
G1 X108.915 Y95.490 E4.55626
G1 X102.081 Y102.324 E4.78621
G1 X101.200 Y102.324 E4.80717
G1 X108.915 Y94.609 E5.06677
G1 X108.915 Y93.728 E5.08773
G1 X103.846 Y98.796 E5.25828
G1 X103.846 Y97.915 E5.27924
G1 X108.915 Y92.847 E5.44978
G1 X108.915 Y91.966 E5.47074
G1 X103.846 Y97.034 E5.64129
G1 X103.846 Y96.154 E5.66225
G1 X108.915 Y91.085 E5.83280
G1 X108.915 Y90.204 E5.85376
G1 X103.846 Y95.273 E6.02431
G1 X103.846 Y94.392 E6.04527
G1 X108.190 Y90.048 E6.19144
G1 X107.310 Y90.048 E6.21240
G1 X103.846 Y93.511 E6.32893
G1 X103.846 Y92.630 E6.34989
G1 X106.429 Y90.048 E6.43678
G1 X105.548 Y90.048 E6.45774
G1 X103.846 Y91.749 E6.51498
G1 X103.846 Y90.868 E6.53594
G1 X104.667 Y90.048 E6.56355
G1 Z4.800 F7800.000
G1 X108.915 Y91.296 F7800.000
G1 F4800
G1 X107.666 Y90.048 E6.60556
G1 X106.785 Y90.048 E6.62652
G1 X108.915 Y92.177 E6.69818
G1 X108.915 Y93.058 E6.71914
G1 X105.904 Y90.048 E6.82044
G1 X105.023 Y90.048 E6.84140
G1 X108.915 Y93.939 E6.97234
G1 X108.915 Y94.820 E6.99330
G1 X104.143 Y90.048 E7.15389
G1 X103.846 Y90.048 E7.16093
G1 X103.846 Y90.633 E7.17485
G1 X108.915 Y95.701 E7.34539
G1 X108.915 Y96.582 E7.36635
G1 X103.846 Y91.513 E7.53690
G1 X103.846 Y92.394 E7.55786
G1 X108.915 Y97.463 E7.72841
G1 X108.915 Y98.344 E7.74937
G1 X103.846 Y93.275 E7.91992
G1 X103.846 Y94.156 E7.94088
G1 X108.915 Y99.225 E8.11143
G1 X108.915 Y100.106 E8.13239
G1 X103.846 Y95.037 E8.30293
G1 X103.846 Y95.918 E8.32389
G1 X108.915 Y100.987 E8.49444
G1 X108.915 Y101.867 E8.51540
G1 X103.846 Y96.799 E8.68595
G1 X103.846 Y97.680 E8.70691
G1 X108.915 Y102.748 E8.87746
G1 X108.915 Y103.629 E8.89842
G1 X103.804 Y98.519 E9.07038
G1 X102.923 Y98.519 E9.09134
G1 X108.915 Y104.510 E9.29295
G1 X108.915 Y105.391 E9.31391
G1 X102.043 Y98.519 E9.54515
G1 X101.162 Y98.519 E9.56611
G1 X108.915 Y106.272 E9.82700
G1 X108.915 Y107.153 E9.84796
G1 X103.846 Y102.085 E10.01851
G1 X103.846 Y102.966 E10.03947
G1 X108.915 Y108.034 E10.21002
G1 X108.915 Y108.915 E10.23098
G1 X103.846 Y103.846 E10.40153
G1 X103.846 Y104.727 E10.42249
G1 X108.915 Y109.796 E10.59303
G1 X108.915 Y109.952 E10.59676
G1 X108.190 Y109.952 E10.61400
G1 X103.846 Y105.608 E10.76017
G1 X103.846 Y106.489 E10.78113
G1 X107.310 Y109.952 E10.89766
G1 X106.429 Y109.952 E10.91862
G1 X103.846 Y107.370 E11.00550
G1 X103.846 Y108.251 E11.02646
G1 X105.548 Y109.952 E11.08371
G1 X104.667 Y109.952 E11.10467
G1 X103.846 Y109.132 E11.13227
G1 X104.085 Y102.324 F7800.000
G1 F4800
G1 X100.281 Y98.519 E11.26030
G1 X99.400 Y98.519 E11.28126
G1 X103.205 Y102.324 E11.40929
G1 X102.324 Y102.324 E11.43025
G1 X98.519 Y98.519 E11.55827
G1 X97.638 Y98.519 E11.57924
G1 X101.443 Y102.324 E11.70726
G1 X100.562 Y102.324 E11.72822
G1 X96.757 Y98.519 E11.85625
G1 X95.876 Y98.519 E11.87721
G1 X96.154 Y90.868 F7800.000
G1 F4800
G1 X95.333 Y90.048 E11.90481
G1 X94.452 Y90.048 E11.92577
G1 X96.154 Y91.749 E11.98302
G1 X96.154 Y92.630 E12.00398
G1 X93.571 Y90.048 E12.09087
G1 X92.690 Y90.048 E12.11183
G1 X96.154 Y93.511 E12.22836
G1 X96.154 Y94.392 E12.24932
G1 X91.810 Y90.048 E12.39549
G1 X91.085 Y90.048 E12.41272
G1 X91.085 Y90.204 E12.41645
G1 X96.154 Y95.273 E12.58700
G1 X96.154 Y96.154 E12.60796
G1 X91.085 Y91.085 E12.77850
G1 X91.085 Y91.966 E12.79946
G1 X96.154 Y97.034 E12.97001
G1 X96.154 Y97.915 E12.99097
G1 X91.085 Y92.847 E13.16152
G1 X91.085 Y93.728 E13.18248
G1 X96.154 Y98.796 E13.35303
G1 X96.154 Y98.984 E13.35749
G1 X96.341 Y98.984 E13.36196
G1 X99.681 Y102.324 E13.47433
G1 X98.800 Y102.324 E13.49529
G1 X91.085 Y94.609 E13.75489
G1 X91.085 Y95.490 E13.77585
G1 X97.919 Y102.324 E14.00580
G1 X97.038 Y102.324 E14.02676
G1 X91.085 Y96.371 E14.22707
G1 X91.085 Y97.252 E14.24803
G1 X96.157 Y102.324 E14.41870
G1 X96.154 Y103.201 E14.43957
G1 X91.085 Y98.133 E14.61012
G1 X91.085 Y99.013 E14.63108
G1 X96.154 Y104.082 E14.80163
G1 X96.154 Y104.963 E14.82259
G1 X91.085 Y99.894 E14.99314
G1 X91.085 Y100.775 E15.01410
G1 X96.154 Y105.844 E15.18464
G1 X96.154 Y106.725 E15.20560
G1 X91.085 Y101.656 E15.37615
G1 X91.085 Y102.537 E15.39711
G1 X96.154 Y107.606 E15.56766
G1 X96.154 Y108.487 E15.58862
G1 X91.085 Y103.418 E15.75917
G1 X91.085 Y104.299 E15.78013
G1 X96.154 Y109.367 E15.95067
G1 X96.154 Y109.952 E15.96459
G1 X95.857 Y109.952 E15.97164
G1 X91.085 Y105.180 E16.13222
G1 X91.085 Y106.061 E16.15318
G1 X94.977 Y109.952 E16.28412
G1 X94.096 Y109.952 E16.30508
G1 X91.085 Y106.942 E16.40638
G1 X91.085 Y107.823 E16.42734
G1 X93.215 Y109.952 E16.49900
G1 X92.334 Y109.952 E16.51996
G1 X91.085 Y108.704 E16.56198
G1 Z5.100 F7800.000
G1 E14.56198 F2400.00000
G92 E0
G1 X91.085 Y106.272 F7800.000
G1 E2.00000 F2400.00000
G1 F4800
G1 X98.838 Y98.519 E2.26089
G1 X97.957 Y98.519 E2.28185
G1 X91.085 Y105.391 E2.51310
G1 X91.085 Y104.510 E2.53406
G1 X97.077 Y98.519 E2.73566
G1 X96.196 Y98.519 E2.75662
G1 X91.085 Y103.629 E2.92858
G1 X91.085 Y102.748 E2.94955
G1 X96.154 Y97.680 E3.12009
G1 X96.154 Y96.799 E3.14105
G1 X91.085 Y101.867 E3.31160
G1 X91.085 Y100.987 E3.33256
G1 X96.154 Y95.918 E3.50311
G1 X96.154 Y95.037 E3.52407
G1 X91.085 Y100.106 E3.69462
G1 X91.085 Y99.225 E3.71558
G1 X96.154 Y94.156 E3.88612
G1 X96.154 Y93.275 E3.90708
G1 X91.085 Y98.344 E4.07763
G1 X91.085 Y97.463 E4.09859
G1 X96.154 Y92.394 E4.26914
G1 X96.154 Y91.513 E4.29010
G1 X91.085 Y96.582 E4.46065
G1 X91.085 Y95.701 E4.48161
G1 X96.154 Y90.633 E4.65216
G1 X96.154 Y90.048 E4.66607
G1 X95.857 Y90.048 E4.67312
G1 X91.085 Y94.820 E4.83370
G1 X91.085 Y93.939 E4.85466
G1 X94.977 Y90.048 E4.98560
G1 X94.096 Y90.048 E5.00656
G1 X91.085 Y93.058 E5.10786
G1 X91.085 Y92.177 E5.12882
G1 X93.215 Y90.048 E5.20048
G1 X92.334 Y90.048 E5.22144
G1 X91.085 Y91.296 E5.26346
G1 X91.085 Y90.513 E5.28210
G1 X91.869 Y90.513 E5.30074
G1 E3.30074 F2400.00000
G92 E0
G1 X96.154 Y102.085 F7800.000
G1 E2.00000 F2400.00000
G1 F4800
G1 X91.085 Y107.153 E2.17055
G1 X91.085 Y108.034 E2.19151
G1 X96.154 Y102.966 E2.36206
G1 X96.154 Y103.846 E2.38302
G1 X91.085 Y108.915 E2.55356
G1 X91.085 Y109.796 E2.57452
G1 X96.154 Y104.727 E2.74507
G1 X96.154 Y105.608 E2.76603
G1 X91.810 Y109.952 E2.91220
G1 X92.690 Y109.952 E2.93316
G1 X96.154 Y106.489 E3.04969
G1 X96.154 Y107.370 E3.07065
G1 X93.571 Y109.952 E3.15754
G1 X94.452 Y109.952 E3.17850
G1 X96.154 Y108.251 E3.23575
G1 X96.154 Y109.132 E3.25671
G1 X95.333 Y109.952 E3.28431
G1 E1.28431 F2400.00000
G92 E0
G1 X95.688 Y102.550 F7800.000
G1 E2.00000 F2400.00000
G1 F4800
G1 X95.688 Y102.324 E2.00538
G1 X95.915 Y102.324 E2.01076
G1 X99.719 Y98.519 E2.13879
G1 X100.600 Y98.519 E2.15975
G1 X96.795 Y102.324 E2.28778
G1 X97.676 Y102.324 E2.30874
G1 X101.481 Y98.519 E2.43677
G1 X102.362 Y98.519 E2.45773
G1 X98.557 Y102.324 E2.58575
G1 X99.438 Y102.324 E2.60671
G1 X103.243 Y98.519 E2.73474
G1 X104.124 Y98.519 E2.75570
G1 X100.319 Y102.324 E2.88373
G1 E0.88373 F2400.00000
G92 E0
G1 X107.666 Y109.952 F7800.000
G1 E2.00000 F2400.00000
G1 F4800
G1 X108.915 Y108.704 E2.04202
G1 X108.915 Y107.823 E2.06298
G1 X106.785 Y109.952 E2.13463
G1 X105.904 Y109.952 E2.15559
G1 X108.915 Y106.942 E2.25689
G1 X108.915 Y106.061 E2.27785
G1 X105.023 Y109.952 E2.40880
G1 X104.143 Y109.952 E2.42976
G1 X108.915 Y105.180 E2.59034
G1 X108.915 Y104.299 E2.61130
G1 X103.846 Y109.367 E2.78185
G1 X103.846 Y108.487 E2.80281
G1 X108.915 Y103.418 E2.97336
G1 X108.915 Y102.537 E2.99432
G1 X103.846 Y107.606 E3.16486
G1 X103.846 Y106.725 E3.18582
G1 X108.915 Y101.656 E3.35637
G1 X108.915 Y100.775 E3.37733
G1 X103.846 Y105.844 E3.54788
G1 X103.846 Y104.963 E3.56884
G1 X108.915 Y99.894 E3.73939
G1 X108.915 Y99.013 E3.76035
G1 X103.846 Y104.082 E3.93090
G1 X103.846 Y103.201 E3.95186
G1 X108.915 Y98.133 E4.12240
G1 X108.915 Y97.252 E4.14336
G1 X103.843 Y102.324 E4.31403
G1 X102.962 Y102.324 E4.33499
G1 X108.915 Y96.371 E4.53530
G1 X108.915 Y95.490 E4.55626
G1 X102.081 Y102.324 E4.78621
G1 X101.200 Y102.324 E4.80717
G1 X108.915 Y94.609 E5.06677
G1 X108.915 Y93.728 E5.08773
G1 X103.846 Y98.796 E5.25828
G1 X103.846 Y97.915 E5.27924
G1 X108.915 Y92.847 E5.44978
G1 X108.915 Y91.966 E5.47074
G1 X103.846 Y97.034 E5.64129
G1 X103.846 Y96.154 E5.66225
G1 X108.915 Y91.085 E5.83280
G1 X108.915 Y90.204 E5.85376
G1 X103.846 Y95.273 E6.02431
G1 X103.846 Y94.392 E6.04527
G1 X108.190 Y90.048 E6.19144
G1 X107.310 Y90.048 E6.21240
G1 X103.846 Y93.511 E6.32893
G1 X103.846 Y92.630 E6.34989
G1 X106.429 Y90.048 E6.43678
G1 X105.548 Y90.048 E6.45774
G1 X103.846 Y91.749 E6.51498
G1 X103.846 Y90.868 E6.53594
G1 X104.667 Y90.048 E6.56355
G1 E4.56355 F2400.00000
G92 E0
M107
; Filament-specific end gcode 
;END gcode for filament

M104 S0 ; turn off temperature
G28 X0  ; home X axis
M84     ; disable motors

M140 S0 ; set bed temperature
; filament used = 169.8mm (1.2cm3)
; total filament cost = 0.0

; avoid_crossing_perimeters = 0
; bed_shape = 0x0,200x0,200x200,0x200
; bed_temperature = 0
; before_layer_gcode = 
; between_objects_gcode = 
; bridge_acceleration = 0
; bridge_fan_speed = 100
; brim_connections_width = 0
; brim_width = 0
; complete_objects = 0
; cooling = 1
; default_acceleration = 0
; disable_fan_first_layers = 3
; duplicate_distance = 6
; end_filament_gcode = "; Filament-specific end gcode \n;END gcode for filament\n"
; end_gcode = M104 S0 ; turn off temperature\nG28 X0  ; home X axis\nM84     ; disable motors\n
; extruder_clearance_height = 20
; extruder_clearance_radius = 20
; extruder_offset = 0x0
; extrusion_axis = E
; extrusion_multiplier = 1
; fan_always_on = 0
; fan_below_layer_time = 60
; filament_colour = #FFFFFF
; filament_cost = 0
; filament_density = 0
; filament_diameter = 3
; filament_max_volumetric_speed = 0
; filament_notes = ""
; first_layer_acceleration = 0
; first_layer_bed_temperature = 0
; first_layer_extrusion_width = 200%
; first_layer_speed = 30
; first_layer_temperature = 205
; gcode_arcs = 0
; gcode_comments = 0
; gcode_flavor = reprap
; has_heatbed = 1
; infill_acceleration = 0
; infill_first = 0
; interior_brim_width = 0
; layer_gcode = 
; max_fan_speed = 100
; max_layer_height = 0.3
; max_print_speed = 80
; max_volumetric_speed = 0
; min_fan_speed = 35
; min_layer_height = 0.15
; min_print_speed = 10
; min_skirt_length = 0
; notes = 
; nozzle_diameter = 0.5
; only_retract_when_crossing_perimeters = 1
; ooze_prevention = 0
; output_filename_format = [input_filename_base].gcode
; perimeter_acceleration = 0
; post_process = 
; pressure_advance = 0
; printer_notes = 
; resolution = 0
; retract_before_travel = 2
; retract_layer_change = 0
; retract_length = 2
; retract_length_toolchange = 10
; retract_lift = 0
; retract_lift_above = 0
; retract_lift_below = 0
; retract_restart_extra = 0
; retract_restart_extra_toolchange = 0
; retract_speed = 40
; skirt_distance = 6
; skirt_height = 1
; skirts = 0
; slowdown_below_layer_time = 5
; spiral_vase = 0
; standby_temperature_delta = -5
; start_filament_gcode = "; Filament gcode\n"
; start_gcode = G28 ; home all axes\nG1 Z5 F5000 ; lift nozzle\n
; temperature = 200
; threads = 8
; toolchange_gcode = 
; travel_speed = 130
; use_firmware_retraction = 0
; use_relative_e_distances = 0
; use_set_and_wait_bed = 0
; use_set_and_wait_extruder = 0
; use_volumetric_e = 0
; vibration_limit = 0
; wipe = 0
; z_offset = 0
; z_steps_per_mm = 0
; adaptive_slicing = 0
; adaptive_slicing_quality = 75%
; dont_support_bridges = 1
; extrusion_width = 0
; first_layer_height = 0.3
; infill_only_where_needed = 0
; interface_shells = 0
; layer_height = 0.3
; match_horizontal_surfaces = 0
; raft_layers = 0
; regions_overlap = 0
; seam_position = aligned
; sequential_print_priority = 0
; support_material = 0
; support_material_angle = 0
; support_material_buildplate_only = 0
; support_material_contact_distance = 0.2
; support_material_enforce_layers = 0
; support_material_extruder = 1
; support_material_extrusion_width = 0
; support_material_interface_extruder = 1
; support_material_interface_extrusion_width = 0
; support_material_interface_layers = 3
; support_material_interface_spacing = 0
; support_material_interface_speed = 100%
; support_material_max_layers = 0
; support_material_pattern = pillars
; support_material_spacing = 2.5
; support_material_speed = 60
; support_material_threshold = 60%
; xy_size_compensation = 0
; bottom_infill_pattern = rectilinear
; bottom_solid_layers = 0
; bridge_flow_ratio = 1
; bridge_speed = 60
; external_perimeter_extrusion_width = 0
; external_perimeter_speed = 50%
; external_perimeters_first = 0
; extra_perimeters = 1
; fill_angle = 45
; fill_density = 90%
; fill_gaps = 1
; fill_pattern = rectilinear
; gap_fill_speed = 20
; infill_every_layers = 1
; infill_extruder = 1
; infill_extrusion_width = 0
; infill_overlap = 55%
; infill_speed = 80
; overhangs = 1
; perimeter_extruder = 1
; perimeter_extrusion_width = 0
; perimeter_speed = 60
; perimeters = 0
; small_perimeter_speed = 15
; solid_infill_below_area = 70
; solid_infill_every_layers = 0
; solid_infill_extruder = 1
; solid_infill_extrusion_width = 0
; solid_infill_speed = 20
; thin_walls = 1
; top_infill_extrusion_width = 0
; top_infill_pattern = rectilinear
; top_solid_infill_speed = 15
; top_solid_layers = 0
