; generated by Slic3r 1.3.0 on 2020-12-16 at 15:45:28

; external perimeters extrusion width = 0.55mm (5.57mm^3/s)
; perimeters extrusion width = 0.58mm (11.78mm^3/s)
; infill extrusion width = 0.58mm (15.71mm^3/s)
; solid infill extrusion width = 0.58mm (3.93mm^3/s)
; top infill extrusion width = 0.58mm (2.95mm^3/s)

M107
M104 S205 ; set temperature
G28 ; home all axes
G1 Z5 F5000 ; lift nozzle

; Filament gcode

M109 S205 ; set temperature and wait for it to be reached
G21 ; set units to millimeters
G90 ; use absolute coordinates
M82 ; use absolute distances for extrusion
G92 E0
G1 Z0.400 F7800.000
G1 E-2.00000 F2400.00000
G92 E0
G1 X94.105 Y92.011 F7800.000
G1 E2.00000 F2400.00000
G1 F1615.2
G1 X93.511 Y92.605 E2.03394
G1 X93.511 Y94.340 E2.10408
G1 X95.840 Y92.011 E2.23720
G1 X97.564 Y92.023 E2.30685
G1 X93.511 Y96.076 E2.53846
G1 X93.511 Y97.811 E2.60860
G1 X97.564 Y93.759 E2.84022
G1 X97.564 Y95.494 E2.91036
G1 X93.511 Y99.547 E3.14197
G1 X93.511 Y101.282 E3.21211
G1 X97.564 Y97.230 E3.44373
G1 X97.564 Y97.565 E3.45727
G1 X98.964 Y97.565 E3.51387
G1 X93.511 Y103.018 E3.82552
G1 X93.511 Y104.753 E3.89566
G1 X97.095 Y101.169 E4.10049
G1 X97.095 Y100.538 E4.12601
G1 X97.726 Y100.538 E4.15152
G1 X100.694 Y97.570 E4.32114
G1 X101.143 Y97.582 E4.33929
G1 X102.023 Y97.668 E4.37500
G1 X102.282 Y97.718 E4.38566
G1 X99.462 Y100.538 E4.54681
G1 X99.865 Y100.546 E4.56312
G1 X100.240 Y100.585 E4.57832
G1 X100.713 Y100.694 E4.59797
G1 X100.953 Y100.783 E4.60829
G1 X103.647 Y98.088 E4.76230
G1 X104.139 Y98.312 E4.78415
G1 X104.453 Y98.494 E4.79880
G1 X104.764 Y98.707 E4.81403
G1 X101.914 Y101.557 E4.97692
G1 X102.124 Y101.951 E4.99497
G1 X102.213 Y102.216 E5.00626
G1 X102.274 Y102.498 E5.01792
G1 X102.310 Y102.897 E5.03409
G1 X105.632 Y99.574 E5.22397
G1 X105.921 Y100.030 E5.24577
G1 X106.089 Y100.379 E5.26142
G1 X106.216 Y100.726 E5.27635
G1 X98.953 Y107.989 E5.69146
G1 X100.021 Y107.989 E5.73462
G1 X100.711 Y107.967 E5.76251
G1 X106.479 Y102.198 E6.09219
G1 X106.484 Y102.811 E6.11693
G1 X106.434 Y103.419 E6.14161
G1 X106.351 Y103.886 E6.16075
G1 X106.287 Y104.126 E6.17081
G1 X102.817 Y107.596 E6.36915
G1 E4.36915 F2400.00000
G92 E0
G1 X97.218 Y107.989 F7800.000
G1 E2.00000 F2400.00000
G1 F1615.2
G1 X100.194 Y105.013 E2.17009
G1 X98.455 Y105.016 E2.24034
G1 X95.482 Y107.989 E2.41026
G1 X93.747 Y107.989 E2.48040
G1 X97.564 Y104.172 E2.69856
G1 X97.564 Y102.436 E2.76870
G1 X93.511 Y106.489 E3.00031
G1 X93.511 Y104.753 E3.07045
M104 S200 ; set temperature
G1 Z0.800 F7800.000
G1 E1.07045 F2400.00000
G92 E0
G1 X93.936 Y107.820 F7800.000
G1 E2.00000 F2400.00000
G1 F1597.87
G1 X93.936 Y107.945 E2.00348
G1 X94.061 Y107.945 E2.00695
G1 X93.555 Y107.439 E2.02687
G1 X93.555 Y105.703 E2.07508
G1 X95.797 Y107.945 E2.16317
G1 X97.532 Y107.945 E2.21138
G1 X93.555 Y103.968 E2.36765
G1 X93.555 Y102.232 E2.41586
G1 X99.268 Y107.945 E2.64030
G1 X100.990 Y107.932 E2.68814
G1 X98.499 Y105.441 E2.78600
G1 X97.520 Y105.441 E2.81319
G1 X97.520 Y104.462 E2.84037
G1 X93.555 Y100.497 E2.99616
G1 X93.555 Y98.761 E3.04437
G1 X97.520 Y102.727 E3.20016
G1 X97.520 Y100.991 E3.24837
G1 X93.555 Y97.026 E3.40416
G1 X93.555 Y95.290 E3.45237
G1 X98.759 Y100.495 E3.65682
G1 X100.022 Y100.495 E3.69189
G1 X100.523 Y100.523 E3.70585
G1 X97.608 Y97.608 E3.82035
G1 X99.344 Y97.608 E3.86856
G1 X106.253 Y104.517 E4.13996
G1 X106.308 Y104.311 E4.14590
G1 X106.390 Y103.845 E4.15905
G1 X106.440 Y103.236 E4.17602
G1 X106.439 Y102.968 E4.18345
G1 X101.138 Y97.667 E4.39172
G1 X101.597 Y97.711 E4.40455
G1 X102.428 Y97.873 E4.42806
G1 X102.932 Y98.022 E4.44265
G1 X103.430 Y98.224 E4.45760
G1 X106.066 Y100.860 E4.56114
G1 E2.56114 F2400.00000
G92 E0
G1 X105.727 Y105.727 F7800.000
G1 E2.00000 F2400.00000
G1 F1597.87
G1 X102.348 Y102.348 E2.13273
G1 X102.348 Y102.838 E2.14635
G1 X102.306 Y103.177 E2.15583
G1 X102.187 Y103.606 E2.16820
G1 X102.090 Y103.825 E2.17486
G1 X104.910 Y106.645 E2.28564
G1 X104.717 Y106.809 E2.29267
G1 X104.488 Y106.968 E2.30041
G1 X104.126 Y107.182 E2.31209
G1 X103.844 Y107.315 E2.32076
G1 X101.232 Y104.703 E2.42338
G1 X100.919 Y104.847 E2.43295
G1 X100.514 Y104.970 E2.44469
G1 X100.206 Y105.024 E2.45338
G1 X99.847 Y105.054 E2.46339
G1 X102.536 Y107.743 E2.56901
G1 X101.629 Y107.886 E2.59452
G1 X100.990 Y107.932 E2.61232
G1 E0.61232 F2400.00000
G92 E0
G1 X97.520 Y94.049 F7800.000
G1 E2.00000 F2400.00000
G1 F1597.87
G1 X95.526 Y92.055 E2.07836
G1 X93.790 Y92.055 E2.12657
G1 X97.520 Y95.785 E2.27311
G1 X97.520 Y97.520 E2.32132
G1 X93.555 Y93.555 E2.47711
G1 X93.555 Y95.290 E2.52532
G1 E0.52532 F2400.00000
G92 E0
; Filament-specific end gcode 
;END gcode for filament

M104 S0 ; turn off temperature
G28 X0  ; home X axis
M84     ; disable motors

M140 S0 ; set bed temperature
; filament used = 9.1mm (0.1cm3)
; total filament cost = 0.0

; avoid_crossing_perimeters = 0
; bed_shape = 0x0,200x0,200x200,0x200
; bed_temperature = 0
; before_layer_gcode = 
; between_objects_gcode = 
; bridge_acceleration = 0
; bridge_fan_speed = 100
; brim_connections_width = 0
; brim_width = 0
; complete_objects = 0
; cooling = 1
; default_acceleration = 0
; disable_fan_first_layers = 3
; duplicate_distance = 6
; end_filament_gcode = "; Filament-specific end gcode \n;END gcode for filament\n"
; end_gcode = M104 S0 ; turn off temperature\nG28 X0  ; home X axis\nM84     ; disable motors\n
; extruder_clearance_height = 20
; extruder_clearance_radius = 20
; extruder_offset = 0x0
; extrusion_axis = E
; extrusion_multiplier = 1
; fan_always_on = 0
; fan_below_layer_time = 60
; filament_colour = #FFFFFF
; filament_cost = 0
; filament_density = 0
; filament_diameter = 3
; filament_max_volumetric_speed = 0
; filament_notes = ""
; first_layer_acceleration = 0
; first_layer_bed_temperature = 0
; first_layer_extrusion_width = 200%
; first_layer_speed = 30
; first_layer_temperature = 205
; gcode_arcs = 0
; gcode_comments = 0
; gcode_flavor = reprap
; has_heatbed = 1
; infill_acceleration = 0
; infill_first = 0
; interior_brim_width = 0
; layer_gcode = 
; max_fan_speed = 100
; max_layer_height = 0.3
; max_print_speed = 80
; max_volumetric_speed = 0
; min_fan_speed = 35
; min_layer_height = 0.15
; min_print_speed = 10
; min_skirt_length = 0
; notes = 
; nozzle_diameter = 0.5
; only_retract_when_crossing_perimeters = 1
; ooze_prevention = 0
; output_filename_format = [input_filename_base].gcode
; perimeter_acceleration = 0
; post_process = 
; pressure_advance = 0
; printer_notes = 
; resolution = 0
; retract_before_travel = 2
; retract_layer_change = 0
; retract_length = 2
; retract_length_toolchange = 10
; retract_lift = 0
; retract_lift_above = 0
; retract_lift_below = 0
; retract_restart_extra = 0
; retract_restart_extra_toolchange = 0
; retract_speed = 40
; skirt_distance = 6
; skirt_height = 1
; skirts = 0
; slowdown_below_layer_time = 5
; spiral_vase = 0
; standby_temperature_delta = -5
; start_filament_gcode = "; Filament gcode\n"
; start_gcode = G28 ; home all axes\nG1 Z5 F5000 ; lift nozzle\n
; temperature = 200
; threads = 8
; toolchange_gcode = 
; travel_speed = 130
; use_firmware_retraction = 0
; use_relative_e_distances = 0
; use_set_and_wait_bed = 0
; use_set_and_wait_extruder = 0
; use_volumetric_e = 0
; vibration_limit = 0
; wipe = 0
; z_offset = 0
; z_steps_per_mm = 0
; adaptive_slicing = 0
; adaptive_slicing_quality = 75%
; dont_support_bridges = 1
; extrusion_width = 0
; first_layer_height = 0.4
; infill_only_where_needed = 0
; interface_shells = 0
; layer_height = 0.4
; match_horizontal_surfaces = 0
; raft_layers = 0
; regions_overlap = 0
; seam_position = aligned
; sequential_print_priority = 0
; support_material = 0
; support_material_angle = 0
; support_material_buildplate_only = 0
; support_material_contact_distance = 0.2
; support_material_enforce_layers = 0
; support_material_extruder = 1
; support_material_extrusion_width = 0
; support_material_interface_extruder = 1
; support_material_interface_extrusion_width = 0
; support_material_interface_layers = 3
; support_material_interface_spacing = 0
; support_material_interface_speed = 100%
; support_material_max_layers = 0
; support_material_pattern = pillars
; support_material_spacing = 2.5
; support_material_speed = 60
; support_material_threshold = 60%
; xy_size_compensation = 0
; bottom_infill_pattern = rectilinear
; bottom_solid_layers = 0
; bridge_flow_ratio = 1
; bridge_speed = 60
; external_perimeter_extrusion_width = 0
; external_perimeter_speed = 50%
; external_perimeters_first = 0
; extra_perimeters = 1
; fill_angle = 45
; fill_density = 40%
; fill_gaps = 1
; fill_pattern = rectilinear
; gap_fill_speed = 20
; infill_every_layers = 1
; infill_extruder = 1
; infill_extrusion_width = 0
; infill_overlap = 55%
; infill_speed = 80
; overhangs = 1
; perimeter_extruder = 1
; perimeter_extrusion_width = 0
; perimeter_speed = 60
; perimeters = 0
; small_perimeter_speed = 15
; solid_infill_below_area = 70
; solid_infill_every_layers = 0
; solid_infill_extruder = 1
; solid_infill_extrusion_width = 0
; solid_infill_speed = 20
; thin_walls = 1
; top_infill_extrusion_width = 0
; top_infill_pattern = rectilinear
; top_solid_infill_speed = 15
; top_solid_layers = 0
