; generated by Slic3r 1.3.0 on 2020-12-17 at 11:57:19

; external perimeters extrusion width = 0.55mm (5.57mm^3/s)
; perimeters extrusion width = 0.58mm (11.78mm^3/s)
; infill extrusion width = 0.58mm (15.71mm^3/s)
; solid infill extrusion width = 0.58mm (3.93mm^3/s)
; top infill extrusion width = 0.58mm (2.95mm^3/s)

M107
M104 S205 ; set temperature
G28 ; home all axes
G1 Z5 F5000 ; lift nozzle

; Filament gcode

M109 S205 ; set temperature and wait for it to be reached
G21 ; set units to millimeters
G90 ; use absolute coordinates
M82 ; use absolute distances for extrusion
G92 E0
G1 Z0.400 F7800.000
G1 E-2.00000 F2400.00000
G92 E0
G1 X98.831 Y92.492 F7800.000
G1 E2.00000 F2400.00000
G1 F1293.73
G1 X93.932 Y97.391 E2.27997
G1 X93.818 Y97.737 E2.29471
G1 X93.640 Y98.569 E2.32911
G1 X93.550 Y99.294 E2.35861
G1 X93.541 Y99.517 E2.36765
G1 X100.997 Y92.061 E2.79380
G1 X101.499 Y92.022 E2.81413
G1 X102.249 Y92.015 E2.84446
G1 X102.756 Y92.038 E2.86494
G1 X99.186 Y95.608 E3.06897
G1 X99.677 Y95.329 E3.09179
G1 X99.950 Y95.210 E3.10382
G1 X100.353 Y95.073 E3.12102
G1 X100.983 Y94.938 E3.14708
G1 X101.651 Y94.878 E3.17418
G1 X104.266 Y92.263 E3.32361
G1 X104.928 Y92.434 E3.35125
G1 X105.599 Y92.665 E3.37994
G1 X103.263 Y95.002 E3.51348
G1 X103.971 Y95.170 E3.54289
G1 X104.608 Y95.392 E3.57016
G1 X106.489 Y93.511 E3.67765
G1 X106.489 Y95.247 E3.74779
G1 X105.770 Y95.966 E3.78889
G1 E1.78889 F2400.00000
G92 E0
G1 X98.476 Y96.318 F7800.000
G1 E2.00000 F2400.00000
G1 F1293.73
G1 X93.561 Y101.232 E2.28089
G1 X93.638 Y101.881 E2.30730
G1 X93.817 Y102.712 E2.34164
G1 X97.604 Y98.925 E2.55808
G1 X97.564 Y99.759 E2.59181
G1 X97.609 Y100.656 E2.62808
G1 X94.285 Y103.979 E2.81804
G1 X94.348 Y104.120 E2.82425
G1 X94.701 Y104.734 E2.85290
G1 X94.939 Y105.061 E2.86923
G1 X97.917 Y102.083 E3.03939
G1 X98.156 Y102.662 E3.06469
G1 X98.494 Y103.241 E3.09180
G1 X95.755 Y105.980 E3.24834
G1 X96.221 Y106.383 E3.27324
G1 X96.732 Y106.739 E3.29839
G1 X99.323 Y104.148 E3.44646
G1 X99.835 Y104.505 E3.47168
G1 X100.192 Y104.693 E3.48797
G1 X100.418 Y104.789 E3.49790
G1 X97.880 Y107.326 E3.64291
G1 X98.278 Y107.488 E3.66027
G1 X98.946 Y107.688 E3.68843
G1 X99.203 Y107.739 E3.69902
G1 X101.837 Y105.105 E3.84955
G1 X102.337 Y105.126 E3.86981
G1 X102.705 Y105.117 E3.88466
G1 X103.215 Y105.077 E3.90537
G1 X103.667 Y105.010 E3.92382
G1 X100.720 Y107.957 E4.09225
G1 X101.370 Y107.986 E4.11855
G1 X102.054 Y107.976 E4.14616
G1 X102.470 Y107.943 E4.16304
G1 X106.489 Y103.924 E4.39274
G1 X106.489 Y105.660 E4.46287
G1 X104.648 Y107.500 E4.56809
M104 S200 ; set temperature
G1 Z0.800 F7800.000
G1 E2.56809 F2400.00000
G92 E0
G1 X106.445 Y104.710 F7800.000
G1 E2.00000 F2400.00000
G1 F1284.18
G1 X105.813 Y104.078 E2.02484
G1 X105.358 Y104.330 E2.03930
G1 X104.652 Y104.652 E2.06085
G1 X106.445 Y106.445 E2.13130
G1 X106.445 Y106.896 E2.14380
G1 X106.118 Y107.055 E2.15391
G1 X105.554 Y107.289 E2.17089
G1 X103.306 Y105.042 E2.25917
G1 X102.790 Y105.120 E2.27367
G1 X102.429 Y105.152 E2.28374
G1 X101.694 Y105.165 E2.30417
G1 X104.225 Y107.696 E2.40359
G1 X103.509 Y107.833 E2.42384
G1 X102.711 Y107.918 E2.44612
G1 X99.227 Y104.433 E2.58299
G1 E0.58299 F2400.00000
G92 E0
G1 X93.960 Y102.638 F7800.000
G1 E2.00000 F2400.00000
G1 F1284.18
G1 X98.785 Y107.463 E2.18954
G1 X99.033 Y107.551 E2.19686
G1 X99.721 Y107.725 E2.21657
G1 X100.614 Y107.870 E2.24170
G1 X100.952 Y107.894 E2.25112
G1 X93.584 Y100.526 E2.54058
G1 X93.565 Y100.302 E2.54682
G1 X93.561 Y99.412 E2.57153
G1 X93.608 Y98.814 E2.58820
G1 X98.433 Y103.639 E2.77775
G1 X98.214 Y103.281 E2.78940
G1 X98.030 Y102.921 E2.80063
G1 X97.859 Y102.466 E2.81414
G1 X97.681 Y101.817 E2.83284
G1 X97.561 Y101.032 E2.85488
G1 X93.863 Y97.334 E3.00015
G1 X93.957 Y96.987 E3.01014
G1 X94.243 Y96.233 E3.03254
G1 X94.330 Y96.065 E3.03778
G1 X97.566 Y99.301 E3.16490
G1 X97.642 Y98.753 E3.18027
G1 X97.704 Y98.456 E3.18871
G1 X97.873 Y97.873 E3.20557
G1 X94.978 Y94.978 E3.31929
G1 X95.395 Y94.467 E3.33761
G1 X95.801 Y94.065 E3.35347
G1 X98.451 Y96.715 E3.45758
G1 X98.813 Y96.254 E3.47387
G1 X99.279 Y95.808 E3.49179
G1 X96.779 Y93.308 E3.59002
G1 X97.013 Y93.156 E3.59777
G1 X97.552 Y92.869 E3.61473
G1 X97.916 Y92.709 E3.62577
G1 X100.374 Y95.167 E3.72234
G1 X100.768 Y95.033 E3.73392
G1 X101.070 Y94.956 E3.74257
G1 X101.792 Y94.850 E3.76284
G1 X99.243 Y92.301 E3.86298
G1 X99.875 Y92.178 E3.88086
G1 X100.761 Y92.084 E3.90562
G1 X103.625 Y94.947 E4.01809
G1 X104.396 Y95.127 E4.04010
G1 X105.158 Y95.398 E4.06256
G1 X105.749 Y95.675 E4.08070
G1 X106.445 Y96.075 E4.10300
G1 X106.445 Y96.032 E4.10418
G1 X102.511 Y92.098 E4.25876
G1 X103.376 Y92.208 E4.28300
G1 X104.039 Y92.349 E4.30182
G1 X104.690 Y92.541 E4.32066
G1 X106.445 Y94.297 E4.38964
G1 E2.38964 F2400.00000
G92 E0
; Filament-specific end gcode 
;END gcode for filament

M104 S0 ; turn off temperature
G28 X0  ; home X axis
M84     ; disable motors

M140 S0 ; set bed temperature
; filament used = 7.3mm (0.1cm3)
; total filament cost = 0.0

; avoid_crossing_perimeters = 0
; bed_shape = 0x0,200x0,200x200,0x200
; bed_temperature = 0
; before_layer_gcode = 
; between_objects_gcode = 
; bridge_acceleration = 0
; bridge_fan_speed = 100
; brim_connections_width = 0
; brim_width = 0
; complete_objects = 0
; cooling = 1
; default_acceleration = 0
; disable_fan_first_layers = 3
; duplicate_distance = 6
; end_filament_gcode = "; Filament-specific end gcode \n;END gcode for filament\n"
; end_gcode = M104 S0 ; turn off temperature\nG28 X0  ; home X axis\nM84     ; disable motors\n
; extruder_clearance_height = 20
; extruder_clearance_radius = 20
; extruder_offset = 0x0
; extrusion_axis = E
; extrusion_multiplier = 1
; fan_always_on = 0
; fan_below_layer_time = 60
; filament_colour = #FFFFFF
; filament_cost = 0
; filament_density = 0
; filament_diameter = 3
; filament_max_volumetric_speed = 0
; filament_notes = ""
; first_layer_acceleration = 0
; first_layer_bed_temperature = 0
; first_layer_extrusion_width = 200%
; first_layer_speed = 30
; first_layer_temperature = 205
; gcode_arcs = 0
; gcode_comments = 0
; gcode_flavor = reprap
; has_heatbed = 1
; infill_acceleration = 0
; infill_first = 0
; interior_brim_width = 0
; layer_gcode = 
; max_fan_speed = 100
; max_layer_height = 0.3
; max_print_speed = 80
; max_volumetric_speed = 0
; min_fan_speed = 35
; min_layer_height = 0.15
; min_print_speed = 10
; min_skirt_length = 0
; notes = 
; nozzle_diameter = 0.5
; only_retract_when_crossing_perimeters = 1
; ooze_prevention = 0
; output_filename_format = [input_filename_base].gcode
; perimeter_acceleration = 0
; post_process = 
; pressure_advance = 0
; printer_notes = 
; resolution = 0
; retract_before_travel = 2
; retract_layer_change = 0
; retract_length = 2
; retract_length_toolchange = 10
; retract_lift = 0
; retract_lift_above = 0
; retract_lift_below = 0
; retract_restart_extra = 0
; retract_restart_extra_toolchange = 0
; retract_speed = 40
; skirt_distance = 6
; skirt_height = 1
; skirts = 0
; slowdown_below_layer_time = 5
; spiral_vase = 0
; standby_temperature_delta = -5
; start_filament_gcode = "; Filament gcode\n"
; start_gcode = G28 ; home all axes\nG1 Z5 F5000 ; lift nozzle\n
; temperature = 200
; threads = 8
; toolchange_gcode = 
; travel_speed = 130
; use_firmware_retraction = 0
; use_relative_e_distances = 0
; use_set_and_wait_bed = 0
; use_set_and_wait_extruder = 0
; use_volumetric_e = 0
; vibration_limit = 0
; wipe = 0
; z_offset = 0
; z_steps_per_mm = 0
; adaptive_slicing = 0
; adaptive_slicing_quality = 75%
; dont_support_bridges = 1
; extrusion_width = 0
; first_layer_height = 0.4
; infill_only_where_needed = 0
; interface_shells = 0
; layer_height = 0.4
; match_horizontal_surfaces = 0
; raft_layers = 0
; regions_overlap = 0
; seam_position = aligned
; sequential_print_priority = 0
; support_material = 0
; support_material_angle = 0
; support_material_buildplate_only = 0
; support_material_contact_distance = 0.2
; support_material_enforce_layers = 0
; support_material_extruder = 1
; support_material_extrusion_width = 0
; support_material_interface_extruder = 1
; support_material_interface_extrusion_width = 0
; support_material_interface_layers = 3
; support_material_interface_spacing = 0
; support_material_interface_speed = 100%
; support_material_max_layers = 0
; support_material_pattern = pillars
; support_material_spacing = 2.5
; support_material_speed = 60
; support_material_threshold = 60%
; xy_size_compensation = 0
; bottom_infill_pattern = rectilinear
; bottom_solid_layers = 0
; bridge_flow_ratio = 1
; bridge_speed = 60
; external_perimeter_extrusion_width = 0
; external_perimeter_speed = 50%
; external_perimeters_first = 0
; extra_perimeters = 1
; fill_angle = 45
; fill_density = 40%
; fill_gaps = 1
; fill_pattern = rectilinear
; gap_fill_speed = 20
; infill_every_layers = 1
; infill_extruder = 1
; infill_extrusion_width = 0
; infill_overlap = 55%
; infill_speed = 80
; overhangs = 1
; perimeter_extruder = 1
; perimeter_extrusion_width = 0
; perimeter_speed = 60
; perimeters = 0
; small_perimeter_speed = 15
; solid_infill_below_area = 70
; solid_infill_every_layers = 0
; solid_infill_extruder = 1
; solid_infill_extrusion_width = 0
; solid_infill_speed = 20
; thin_walls = 1
; top_infill_extrusion_width = 0
; top_infill_pattern = rectilinear
; top_solid_infill_speed = 15
; top_solid_layers = 0
