; generated by Slic3r 1.3.0 on 2020-10-23 at 16:28:57

; external perimeters extrusion width = 0.55mm (5.57mm^3/s)
; perimeters extrusion width = 0.58mm (11.78mm^3/s)
; infill extrusion width = 0.58mm (15.71mm^3/s)
; solid infill extrusion width = 0.58mm (3.93mm^3/s)
; top infill extrusion width = 0.58mm (2.95mm^3/s)

M107
M104 S205 ; set temperature
G28 ; home all axes
G1 Z5 F5000 ; lift nozzle

; Filament gcode

M109 S205 ; set temperature and wait for it to be reached
G21 ; set units to millimeters
G90 ; use absolute coordinates
M82 ; use absolute distances for extrusion
G92 E0
G1 Z0.400 F7800.000
G1 E-2.00000 F2400.00000
G92 E0
G1 X97.373 Y93.371 F7800.000
G1 E2.00000 F2400.00000
G1 F1800
G1 X97.152 Y93.476 E2.00988
G1 X96.527 Y93.861 E2.03959
G1 X95.984 Y94.280 E2.06729
G1 X95.448 Y94.788 E2.09713
G1 X95.133 Y95.145 E2.11636
G1 X94.729 Y95.691 E2.14380
G1 X94.309 Y96.435 E2.17837
G1 X97.842 Y92.902 E2.38030
G1 X98.339 Y92.666 E2.40255
G1 X99.063 Y92.410 E2.43359
G1 X99.634 Y92.267 E2.45737
G1 X93.723 Y98.178 E2.79523
G1 X93.644 Y98.540 E2.81018
G1 X93.547 Y99.327 E2.84223
G1 X93.540 Y99.518 E2.84996
G1 X100.997 Y92.061 E3.27617
G1 X101.532 Y92.020 E3.29787
G1 X102.199 Y92.016 E3.32482
G1 X93.529 Y100.686 E3.82035
G1 X93.544 Y101.097 E3.83698
G1 X93.623 Y101.749 E3.86350
G1 X97.912 Y97.460 E4.10863
G1 X97.743 Y98.050 E4.13343
G1 X97.651 Y98.542 E4.15366
G1 X97.604 Y98.926 E4.16929
G1 X93.816 Y102.713 E4.38577
G1 X94.108 Y103.578 E4.42266
G1 X97.571 Y100.115 E4.62059
G1 X97.609 Y100.653 E4.64241
G1 X97.680 Y101.163 E4.66320
G1 X94.485 Y104.358 E4.84581
G1 X94.717 Y104.758 E4.86451
G1 X94.940 Y105.060 E4.87967
G1 X97.917 Y102.083 E5.04983
G1 X98.060 Y102.453 E5.06586
G1 X98.273 Y102.884 E5.08530
G1 X95.469 Y105.688 E5.24554
G1 X95.674 Y105.909 E5.25773
G1 X96.066 Y106.248 E5.27867
G1 X98.744 Y103.570 E5.43172
G1 X99.012 Y103.867 E5.44786
G1 X99.323 Y104.148 E5.46482
G1 X96.733 Y106.738 E5.61285
G1 X97.473 Y107.155 E5.64718
G1 X100.021 Y104.607 E5.79278
G1 X100.392 Y104.779 E5.80932
G1 X100.851 Y104.934 E5.82889
G1 X98.294 Y107.491 E5.97503
G1 X98.960 Y107.691 E6.00313
G1 X99.202 Y107.740 E6.01311
G1 X101.836 Y105.106 E6.16365
G1 X102.337 Y105.126 E6.18392
G1 X103.002 Y105.097 E6.21081
G1 X100.193 Y107.906 E6.37132
G1 X100.611 Y107.954 E6.38830
G1 X101.277 Y107.979 E6.41526
G1 X104.422 Y104.834 E6.59496
G1 X104.962 Y104.654 E6.61797
G1 X105.475 Y104.438 E6.64048
G1 X106.062 Y104.136 E6.66715
G1 X106.489 Y103.881 E6.68725
G1 X106.489 Y103.924 E6.68900
G1 X102.469 Y107.944 E6.91874
G1 X102.759 Y107.919 E6.93052
G1 X103.384 Y107.826 E6.95602
G1 X103.850 Y107.720 E6.97537
G1 X106.489 Y105.081 E7.12617
G1 X106.489 Y106.238 E7.17293
G1 X105.576 Y107.151 E7.22509
G1 E5.22509 F2400.00000
G92 E0
G1 X105.398 Y95.759 F7800.000
G1 E2.00000 F2400.00000
G1 F1800
G1 X106.489 Y94.668 E2.06233
G1 X106.489 Y93.511 E2.10908
G1 X104.608 Y95.392 E2.21658
G1 X104.151 Y95.226 E2.23624
G1 X103.736 Y95.107 E2.25367
G1 X106.009 Y92.834 E2.38355
G1 X105.550 Y92.645 E2.40361
G1 X105.170 Y92.516 E2.41982
G1 X102.761 Y94.925 E2.55754
G1 X102.183 Y94.880 E2.58096
G1 X101.651 Y94.878 E2.60246
G1 X104.266 Y92.263 E2.75195
G1 X103.819 Y92.168 E2.77042
G1 X103.284 Y92.088 E2.79229
G1 X100.274 Y95.098 E2.96431
G1 X99.679 Y95.328 E2.99012
G1 X99.287 Y95.542 E3.00817
G1 X98.875 Y95.833 E3.02854
G1 X98.548 Y96.128 E3.04634
G1 X98.212 Y96.505 E3.06674
G1 X97.919 Y96.921 E3.08731
G1 X97.698 Y97.315 E3.10556
G1 X97.444 Y97.928 E3.13239
M104 S200 ; set temperature
G1 Z0.800 F7800.000
G1 X94.735 Y103.991 F7800.000
G1 F1834.02
G1 X95.123 Y104.685 E3.15449
G1 X95.360 Y105.027 E3.16604
G1 X95.618 Y105.353 E3.17761
G1 X96.106 Y105.872 E3.19739
G1 X96.644 Y106.338 E3.21716
G1 X97.225 Y106.744 E3.23685
G1 X97.803 Y107.059 E3.25513
G1 X94.353 Y103.609 E3.39067
G1 X94.100 Y103.037 E3.40804
G1 X93.872 Y102.338 E3.42845
G1 X93.765 Y101.864 E3.44195
G1 X99.589 Y107.688 E3.67072
G1 X100.248 Y107.821 E3.68939
G1 X100.954 Y107.896 E3.70912
G1 X93.587 Y100.529 E3.99849
G1 X93.555 Y99.802 E4.01872
G1 X93.570 Y99.355 E4.03115
G1 X102.154 Y107.939 E4.36838
G1 X102.691 Y107.921 E4.38329
G1 X103.236 Y107.864 E4.39853
G1 X100.700 Y105.328 E4.49818
G1 X100.162 Y105.125 E4.51414
G1 X99.692 Y104.872 E4.52898
G1 X99.262 Y104.559 E4.54375
G1 X98.804 Y104.118 E4.56140
G1 X98.467 Y103.691 E4.57652
G1 X98.267 Y103.375 E4.58690
G1 X98.021 Y102.890 E4.60200
G1 X97.869 Y102.497 E4.61370
G1 X93.662 Y98.290 E4.77897
G1 X93.781 Y97.637 E4.79743
G1 X93.863 Y97.334 E4.80613
G1 X97.561 Y101.032 E4.95141
G1 X97.524 Y100.448 E4.96767
G1 X97.527 Y99.841 E4.98452
G1 X94.154 Y96.468 E5.11703
G1 X94.243 Y96.232 E5.12404
G1 X94.527 Y95.684 E5.14118
G1 X97.636 Y98.793 E5.26330
G1 X97.732 Y98.344 E5.27604
G1 X97.873 Y97.873 E5.28972
G1 X94.979 Y94.979 E5.40341
G1 X95.506 Y94.349 E5.42622
G1 X98.230 Y97.073 E5.53322
G1 X98.473 Y96.682 E5.54600
G1 X98.700 Y96.386 E5.55636
G1 X96.108 Y93.794 E5.65821
G1 X96.558 Y93.444 E5.67405
G1 X96.779 Y93.308 E5.68125
G1 X99.279 Y95.808 E5.77948
G1 X99.661 Y95.531 E5.79259
G1 X99.977 Y95.349 E5.80271
G1 X97.522 Y92.894 E5.89915
G1 X97.819 Y92.749 E5.90835
G1 X98.341 Y92.556 E5.92380
G1 X100.807 Y95.022 E6.02068
G1 X101.291 Y94.913 E6.03445
G1 X101.793 Y94.851 E6.04849
G1 X99.241 Y92.299 E6.14873
G1 X100.230 Y92.131 E6.17660
G1 X102.958 Y94.859 E6.28377
G1 X103.762 Y94.971 E6.30632
G1 X104.378 Y95.122 E6.32395
G1 X101.319 Y92.063 E6.44413
G1 X101.808 Y92.058 E6.45772
G1 X102.510 Y92.097 E6.47725
G1 X106.445 Y96.032 E6.63184
G1 X106.445 Y94.876 E6.66398
G1 X103.887 Y92.317 E6.76449
G1 X104.492 Y92.474 E6.78185
G1 X105.145 Y92.697 E6.80101
G1 X105.622 Y92.895 E6.81537
G1 X106.445 Y93.719 E6.84771
G1 E4.84771 F2400.00000
G92 E0
G1 X106.445 Y105.288 F7800.000
G1 E2.00000 F2400.00000
G1 F1834.02
G1 X105.442 Y104.285 E2.03942
G1 X104.652 Y104.652 E2.06361
G1 X106.445 Y106.445 E2.13406
G1 X106.445 Y106.893 E2.14651
G1 X105.964 Y107.121 E2.16130
G1 X103.779 Y104.936 E2.24713
G1 X103.274 Y105.048 E2.26150
G1 X102.804 Y105.118 E2.27470
G1 X105.126 Y107.440 E2.36590
G1 X104.644 Y107.592 E2.37993
G1 X104.221 Y107.692 E2.39200
G1 X101.693 Y105.164 E2.49132
G1 X101.311 Y105.141 E2.50197
G1 X100.920 Y105.090 E2.51292
G1 X100.318 Y104.946 E2.53011
G1 Z1.200 F7800.000
G1 X105.633 Y107.094 F7800.000
G1 F1849.13
G1 X106.445 Y106.281 E2.56203
G1 X106.445 Y105.124 E2.59417
G1 X103.891 Y107.679 E2.69453
G1 X103.145 Y107.830 E2.71566
G1 X102.512 Y107.901 E2.73337
G1 X106.445 Y103.968 E2.88791
G1 X106.445 Y103.925 E2.88909
G1 X105.766 Y104.316 E2.91088
G1 X105.411 Y104.491 E2.92186
G1 X105.060 Y104.642 E2.93248
G1 X104.378 Y104.878 E2.95253
G1 X101.318 Y107.938 E3.07273
G1 X100.892 Y107.926 E3.08457
G1 X100.239 Y107.860 E3.10280
G1 X102.961 Y105.138 E3.20972
G1 X102.294 Y105.170 E3.22826
G1 X101.794 Y105.148 E3.24216
G1 X99.247 Y107.695 E3.34221
G1 X98.968 Y107.639 E3.35012
G1 X98.343 Y107.442 E3.36831
G1 X100.808 Y104.977 E3.46513
G1 X100.467 Y104.869 E3.47506
G1 X99.977 Y104.651 E3.48996
G1 X97.517 Y107.111 E3.58659
G1 X96.774 Y106.697 E3.61022
G1 X99.280 Y104.191 E3.70867
G1 X99.016 Y103.957 E3.71847
G1 X98.701 Y103.613 E3.73143
G1 X96.109 Y106.205 E3.83326
G1 X95.731 Y105.879 E3.84713
G1 X95.511 Y105.646 E3.85603
G1 X98.230 Y102.927 E3.96284
G1 X98.027 Y102.520 E3.97548
G1 X97.873 Y102.127 E3.98720
G1 X94.982 Y105.018 E4.10079
G1 X94.844 Y104.839 E4.10706
G1 X94.524 Y104.319 E4.12403
G1 X97.637 Y101.206 E4.24632
G1 X97.568 Y100.723 E4.25988
G1 X97.528 Y100.158 E4.27561
G1 X94.149 Y103.537 E4.40834
G1 X93.861 Y102.668 E4.43377
G1 X97.561 Y98.968 E4.57914
G1 X97.643 Y98.369 E4.59593
G1 X97.712 Y98.040 E4.60527
G1 X97.870 Y97.502 E4.62083
G1 X93.668 Y101.704 E4.78589
G1 X93.607 Y101.267 E4.79814
G1 X93.569 Y100.646 E4.81543
G1 X102.157 Y92.058 E5.15278
G1 X100.957 Y92.101 E5.18612
G1 X93.578 Y99.480 E5.47599
G1 X93.676 Y98.571 E5.50139
G1 X93.758 Y98.143 E5.51350
G1 X99.597 Y92.304 E5.74287
G1 X98.827 Y92.513 E5.76504
G1 X98.151 Y92.770 E5.78513
G1 X97.801 Y92.944 E5.79599
G1 X94.367 Y96.377 E5.93089
G1 X94.632 Y95.870 E5.94679
G1 X95.045 Y95.266 E5.96713
G1 X95.493 Y94.742 E5.98627
G1 X95.998 Y94.260 E6.00565
G1 X96.546 Y93.834 E6.02494
G1 X97.137 Y93.465 E6.04428
G1 X97.419 Y93.325 E6.05302
G1 X97.488 Y97.884 F7800.000
G1 F1849.13
G1 X97.631 Y97.509 E6.06418
G1 X97.913 Y96.957 E6.08138
G1 X98.257 Y96.459 E6.09821
G1 X98.662 Y96.016 E6.11488
G1 X99.115 Y95.642 E6.13120
G1 X99.411 Y95.450 E6.14099
G1 X99.888 Y95.209 E6.15584
G1 X100.318 Y95.054 E6.16854
G1 X103.233 Y92.139 E6.28304
G1 X103.731 Y92.203 E6.29700
G1 X104.221 Y92.308 E6.31091
G1 X101.695 Y94.834 E6.41014
G1 X102.286 Y94.839 E6.42656
G1 X102.803 Y94.883 E6.44097
G1 X105.125 Y92.561 E6.53220
G1 X105.547 Y92.704 E6.54459
G1 X105.965 Y92.878 E6.55715
G1 X103.780 Y95.063 E6.64297
G1 X104.085 Y95.148 E6.65176
G1 X104.651 Y95.349 E6.66845
G1 X106.445 Y93.555 E6.73894
G1 X106.445 Y94.712 E6.77108
G1 X105.442 Y95.715 E6.81049
M106 S255
G1 Z1.600 F7800.000
G1 E4.81049 F2400.00000
G92 E0
G1 X106.445 Y93.719 F7800.000
G1 E2.00000 F2400.00000
G1 F1834.22
G1 X105.622 Y92.895 E2.03234
G1 X105.145 Y92.697 E2.04670
G1 X104.492 Y92.474 E2.06586
G1 X103.887 Y92.317 E2.08322
G1 X106.445 Y94.876 E2.18373
G1 X106.445 Y96.032 E2.21586
G1 X102.510 Y92.097 E2.37045
G1 X101.684 Y92.056 E2.39342
G1 X101.323 Y92.067 E2.40347
G1 X104.378 Y95.122 E2.52350
G1 X103.762 Y94.971 E2.54112
G1 X102.958 Y94.859 E2.56367
G1 X100.237 Y92.138 E2.67057
G1 X99.886 Y92.176 E2.68038
G1 X99.243 Y92.301 E2.69857
G1 X101.793 Y94.851 E2.79873
G1 X101.291 Y94.913 E2.81277
G1 X100.807 Y95.022 E2.82654
G1 X98.337 Y92.552 E2.92358
G1 X97.680 Y92.811 E2.94318
G1 X97.521 Y92.893 E2.94817
G1 X99.977 Y95.349 E3.04465
G1 X99.661 Y95.531 E3.05478
G1 X99.279 Y95.808 E3.06789
G1 X96.780 Y93.309 E3.16607
G1 X96.446 Y93.526 E3.17713
G1 X96.111 Y93.797 E3.18910
G1 X98.700 Y96.386 E3.29083
G1 X98.473 Y96.682 E3.30120
G1 X98.230 Y97.073 E3.31398
G1 X95.510 Y94.353 E3.42082
G1 X95.383 Y94.480 E3.42580
G1 X94.978 Y94.978 E3.44364
G1 X97.873 Y97.873 E3.55735
G1 X97.732 Y98.344 E3.57102
G1 X97.636 Y98.793 E3.58377
G1 X94.522 Y95.679 E3.70611
G1 X94.244 Y96.231 E3.72327
G1 X94.154 Y96.468 E3.73032
G1 X97.527 Y99.841 E3.86283
G1 X97.524 Y100.448 E3.87968
G1 X97.561 Y101.032 E3.89594
G1 X93.863 Y97.334 E4.04122
G1 X93.782 Y97.636 E4.04990
G1 X93.667 Y98.295 E4.06850
G1 X97.869 Y102.497 E4.23356
G1 X98.021 Y102.890 E4.24526
G1 X98.267 Y103.375 E4.26036
G1 X98.467 Y103.691 E4.27074
G1 X98.804 Y104.118 E4.28587
G1 X99.262 Y104.559 E4.30352
G1 X99.692 Y104.872 E4.31828
G1 X100.162 Y105.125 E4.33312
G1 X100.700 Y105.328 E4.34908
G1 X103.236 Y107.864 E4.44872
G1 X102.811 Y107.912 E4.46059
G1 X102.154 Y107.939 E4.47886
G1 X93.567 Y99.352 E4.81621
G1 X93.566 Y100.312 E4.84290
G1 X93.584 Y100.526 E4.84885
G1 X100.952 Y107.894 E5.13831
G1 X100.611 Y107.870 E5.14779
G1 X99.595 Y107.694 E5.17646
G1 X93.757 Y101.856 E5.40578
G1 X93.957 Y102.628 E5.42792
G1 X94.100 Y103.037 E5.43997
G1 X94.361 Y103.617 E5.45764
G1 X97.807 Y107.063 E5.59300
G1 X97.653 Y106.990 E5.59771
G1 X96.986 Y106.587 E5.61937
G1 X96.420 Y106.156 E5.63914
G1 X96.106 Y105.872 E5.65089
G1 X95.810 Y105.571 E5.66262
G1 X95.360 Y105.027 E5.68224
G1 X94.973 Y104.442 E5.70171
G1 X94.743 Y103.999 E5.71559
G1 X100.318 Y104.946 F7800.000
G1 F1834.22
G1 X100.920 Y105.090 E5.73278
G1 X101.311 Y105.141 E5.74373
G1 X101.694 Y105.165 E5.75439
G1 X104.225 Y107.696 E5.85382
G1 X105.128 Y107.442 E5.87989
G1 X102.804 Y105.118 E5.97119
G1 X103.274 Y105.048 E5.98438
G1 X103.779 Y104.936 E5.99875
G1 X105.962 Y107.119 E6.08452
G1 X106.445 Y106.896 E6.09931
G1 X106.445 Y106.445 E6.11181
G1 X104.652 Y104.652 E6.18226
G1 X105.442 Y104.285 E6.20646
G1 X106.445 Y105.288 E6.24588
G1 Z2.000 F7800.000
G1 X105.623 Y107.104 F7800.000
G1 F1849.54
G1 X106.445 Y106.281 E6.27820
G1 X106.445 Y105.124 E6.31034
G1 X103.884 Y107.686 E6.41098
G1 X103.429 Y107.783 E6.42389
G1 X102.511 Y107.902 E6.44960
G1 X106.445 Y103.968 E6.60415
G1 X106.445 Y103.924 E6.60535
G1 X106.018 Y104.180 E6.61917
G1 X105.431 Y104.481 E6.63750
G1 X104.918 Y104.697 E6.65297
G1 X104.378 Y104.878 E6.66879
G1 X101.321 Y107.935 E6.78889
G1 X100.654 Y107.910 E6.80742
G1 X100.237 Y107.862 E6.81909
G1 X102.958 Y105.141 E6.92601
G1 X102.294 Y105.170 E6.94449
G1 X101.793 Y105.149 E6.95842
G1 X99.245 Y107.697 E7.05849
G1 X99.003 Y107.648 E7.06535
G1 X98.337 Y107.448 E7.08466
G1 X100.807 Y104.978 E7.18169
G1 X100.349 Y104.822 E7.19515
G1 X99.977 Y104.651 E7.20651
G1 X97.516 Y107.112 E7.30318
G1 X96.776 Y106.695 E7.32678
G1 X99.279 Y104.192 E7.42511
G1 X98.968 Y103.910 E7.43677
G1 X98.700 Y103.614 E7.44787
G1 X96.109 Y106.205 E7.54966
G1 X95.717 Y105.865 E7.56406
G1 X95.512 Y105.645 E7.57242
G1 X98.229 Y102.928 E7.67918
G1 X98.016 Y102.496 E7.69254
G1 X97.874 Y102.126 E7.70356
G1 X94.984 Y105.016 E7.81707
G1 X94.760 Y104.715 E7.82750
G1 X94.528 Y104.315 E7.84034
G1 X97.637 Y101.206 E7.96245
G1 X97.565 Y100.697 E7.97674
G1 X97.528 Y100.158 E7.99174
G1 X94.151 Y103.535 E8.12437
G1 X93.859 Y102.670 E8.14973
G1 X97.560 Y98.969 E8.29511
G1 X97.608 Y98.585 E8.30586
G1 X97.700 Y98.093 E8.31976
G1 X97.869 Y97.503 E8.33681
G1 X93.667 Y101.705 E8.50189
G1 X93.588 Y101.054 E8.52011
G1 X93.572 Y100.643 E8.53154
G1 X102.156 Y92.059 E8.86873
G1 X100.958 Y92.100 E8.90202
G1 X93.583 Y99.475 E9.19174
G1 X93.591 Y99.284 E9.19705
G1 X93.688 Y98.497 E9.21908
G1 X93.766 Y98.135 E9.22936
G1 X99.590 Y92.311 E9.45813
G1 X99.376 Y92.355 E9.46419
G1 X98.629 Y92.581 E9.48587
G1 X97.806 Y92.938 E9.51077
G1 X94.352 Y96.392 E9.64646
G1 X94.773 Y95.647 E9.67022
G1 X95.204 Y95.067 E9.69031
G1 X95.702 Y94.531 E9.71062
G1 X96.294 Y94.020 E9.73235
G1 X96.897 Y93.605 E9.75269
G1 X97.425 Y93.319 E9.76935
G1 E7.76935 F2400.00000
G92 E0
G1 X97.487 Y97.885 F7800.000
G1 E2.00000 F2400.00000
G1 F1849.54
G1 X97.742 Y97.272 E2.01844
G1 X97.962 Y96.878 E2.03099
G1 X98.255 Y96.462 E2.04513
G1 X98.593 Y96.083 E2.05922
G1 X98.917 Y95.792 E2.07130
G1 X99.330 Y95.499 E2.08538
G1 X99.719 Y95.285 E2.09771
G1 X100.318 Y95.054 E2.11553
G1 X103.241 Y92.131 E2.23036
G1 X103.776 Y92.211 E2.24539
G1 X104.223 Y92.306 E2.25809
G1 X101.694 Y94.835 E2.35743
G1 X102.227 Y94.837 E2.37223
G1 X102.804 Y94.882 E2.38831
G1 X105.127 Y92.559 E2.47955
G1 X105.506 Y92.689 E2.49069
G1 X105.965 Y92.878 E2.50448
G1 X103.780 Y95.063 E2.59035
G1 X104.194 Y95.182 E2.60233
G1 X104.652 Y95.348 E2.61584
G1 X106.445 Y93.555 E2.68631
G1 X106.445 Y94.712 E2.71845
G1 X105.442 Y95.715 E2.75788
G1 E0.75788 F2400.00000
G92 E0
M107
; Filament-specific end gcode 
;END gcode for filament

M104 S0 ; turn off temperature
G28 X0  ; home X axis
M84     ; disable motors

M140 S0 ; set bed temperature
; filament used = 23.4mm (0.2cm3)
; total filament cost = 0.0

; avoid_crossing_perimeters = 0
; bed_shape = 0x0,200x0,200x200,0x200
; bed_temperature = 0
; before_layer_gcode = 
; between_objects_gcode = 
; bridge_acceleration = 0
; bridge_fan_speed = 100
; brim_connections_width = 0
; brim_width = 0
; complete_objects = 0
; cooling = 1
; default_acceleration = 0
; disable_fan_first_layers = 3
; duplicate_distance = 6
; end_filament_gcode = "; Filament-specific end gcode \n;END gcode for filament\n"
; end_gcode = M104 S0 ; turn off temperature\nG28 X0  ; home X axis\nM84     ; disable motors\n
; extruder_clearance_height = 20
; extruder_clearance_radius = 20
; extruder_offset = 0x0
; extrusion_axis = E
; extrusion_multiplier = 1
; fan_always_on = 0
; fan_below_layer_time = 60
; filament_colour = #FFFFFF
; filament_cost = 0
; filament_density = 0
; filament_diameter = 3
; filament_max_volumetric_speed = 0
; filament_notes = ""
; first_layer_acceleration = 0
; first_layer_bed_temperature = 0
; first_layer_extrusion_width = 200%
; first_layer_speed = 30
; first_layer_temperature = 205
; gcode_arcs = 0
; gcode_comments = 0
; gcode_flavor = reprap
; has_heatbed = 1
; infill_acceleration = 0
; infill_first = 0
; interior_brim_width = 0
; layer_gcode = 
; max_fan_speed = 100
; max_layer_height = 0.3
; max_print_speed = 80
; max_volumetric_speed = 0
; min_fan_speed = 35
; min_layer_height = 0.15
; min_print_speed = 10
; min_skirt_length = 0
; notes = 
; nozzle_diameter = 0.5
; only_retract_when_crossing_perimeters = 1
; ooze_prevention = 0
; output_filename_format = [input_filename_base].gcode
; perimeter_acceleration = 0
; post_process = 
; pressure_advance = 0
; printer_notes = 
; resolution = 0
; retract_before_travel = 2
; retract_layer_change = 0
; retract_length = 2
; retract_length_toolchange = 10
; retract_lift = 0
; retract_lift_above = 0
; retract_lift_below = 0
; retract_restart_extra = 0
; retract_restart_extra_toolchange = 0
; retract_speed = 40
; skirt_distance = 6
; skirt_height = 1
; skirts = 0
; slowdown_below_layer_time = 5
; spiral_vase = 0
; standby_temperature_delta = -5
; start_filament_gcode = "; Filament gcode\n"
; start_gcode = G28 ; home all axes\nG1 Z5 F5000 ; lift nozzle\n
; temperature = 200
; threads = 8
; toolchange_gcode = 
; travel_speed = 130
; use_firmware_retraction = 0
; use_relative_e_distances = 0
; use_set_and_wait_bed = 0
; use_set_and_wait_extruder = 0
; use_volumetric_e = 0
; vibration_limit = 0
; wipe = 0
; z_offset = 0
; z_steps_per_mm = 0
; adaptive_slicing = 0
; adaptive_slicing_quality = 75%
; dont_support_bridges = 1
; extrusion_width = 0
; first_layer_height = 0.4
; infill_only_where_needed = 0
; interface_shells = 0
; layer_height = 0.4
; match_horizontal_surfaces = 0
; raft_layers = 0
; regions_overlap = 0
; seam_position = aligned
; sequential_print_priority = 0
; support_material = 0
; support_material_angle = 0
; support_material_buildplate_only = 0
; support_material_contact_distance = 0.2
; support_material_enforce_layers = 0
; support_material_extruder = 1
; support_material_extrusion_width = 0
; support_material_interface_extruder = 1
; support_material_interface_extrusion_width = 0
; support_material_interface_layers = 3
; support_material_interface_spacing = 0
; support_material_interface_speed = 100%
; support_material_max_layers = 0
; support_material_pattern = pillars
; support_material_spacing = 2.5
; support_material_speed = 60
; support_material_threshold = 60%
; xy_size_compensation = 0
; bottom_infill_pattern = rectilinear
; bottom_solid_layers = 0
; bridge_flow_ratio = 1
; bridge_speed = 60
; external_perimeter_extrusion_width = 0
; external_perimeter_speed = 50%
; external_perimeters_first = 0
; extra_perimeters = 1
; fill_angle = 45
; fill_density = 60%
; fill_gaps = 1
; fill_pattern = rectilinear
; gap_fill_speed = 20
; infill_every_layers = 1
; infill_extruder = 1
; infill_extrusion_width = 0
; infill_overlap = 55%
; infill_speed = 80
; overhangs = 1
; perimeter_extruder = 1
; perimeter_extrusion_width = 0
; perimeter_speed = 60
; perimeters = 0
; small_perimeter_speed = 15
; solid_infill_below_area = 70
; solid_infill_every_layers = 0
; solid_infill_extruder = 1
; solid_infill_extrusion_width = 0
; solid_infill_speed = 20
; thin_walls = 1
; top_infill_extrusion_width = 0
; top_infill_pattern = rectilinear
; top_solid_infill_speed = 15
; top_solid_layers = 0
