; generated by Slic3r 1.3.0 on 2019-09-26 at 19:38:42

; external perimeters extrusion width = 0.55mm (4.37mm^3/s)
; perimeters extrusion width = 0.70mm (11.44mm^3/s)
; infill extrusion width = 0.63mm (13.45mm^3/s)
; solid infill extrusion width = 0.70mm (3.81mm^3/s)
; top infill extrusion width = 0.70mm (2.86mm^3/s)

M107
M104 S205 ; set temperature
G28 ; home all axes
G1 Z5 F5000 ; lift nozzle

; Filament gcode

M109 S205 ; set temperature and wait for it to be reached
G21 ; set units to millimeters
G90 ; use absolute coordinates
M82 ; use absolute distances for extrusion
G92 E0
G1 Z0.300 F7800.000
G1 E-2.00000 F2400.00000
G92 E0
G1 X103.650 Y95.371 F7800.000
G1 E2.00000 F2400.00000
G1 F1800
G1 X104.006 Y95.371 E2.00809
G1 X104.006 Y104.629 E2.21853
G1 X103.650 Y104.629 E2.22662
G1 X103.650 Y95.446 E2.43536
G1 E0.43536 F2400.00000
G92 E0
G1 X96.350 Y95.371 F7800.000
G1 E2.00000 F2400.00000
G1 F1800
G1 X96.350 Y104.629 E2.21045
G1 X95.994 Y104.629 E2.21853
G1 X95.994 Y95.371 E2.42898
G1 X96.275 Y95.371 E2.43536
G1 E0.43536 F2400.00000
G92 E0
G1 X96.885 Y99.918 F7800.000
G1 E2.00000 F2400.00000
G1 F1800
G1 X103.115 Y99.918 E2.14162
G1 X103.115 Y94.836 E2.25716
G1 X104.542 Y94.836 E2.28960
G1 X104.542 Y105.164 E2.52440
G1 X103.115 Y105.164 E2.55684
G1 X103.115 Y100.587 E2.66089
G1 X96.885 Y100.587 E2.80250
G1 X96.885 Y105.164 E2.90656
G1 X95.458 Y105.164 E2.93900
G1 X95.458 Y94.836 E3.17379
G1 X96.885 Y94.836 E3.20623
G1 X96.885 Y99.843 E3.32007
G1 X97.421 Y99.383 F7800.000
G1 F1800
G1 X102.579 Y99.383 E3.43734
G1 X102.579 Y94.300 E3.55288
G1 X105.078 Y94.300 E3.60967
G1 X105.078 Y105.700 E3.86882
G1 X102.579 Y105.700 E3.92561
G1 X102.579 Y101.123 E4.02966
G1 X97.421 Y101.123 E4.14693
G1 X97.421 Y105.700 E4.25098
G1 X94.922 Y105.700 E4.30777
G1 X94.922 Y94.300 E4.56692
G1 X97.421 Y94.300 E4.62371
G1 X97.421 Y99.308 E4.73755
G1 X97.497 Y99.877 F7800.000
G1 X96.617 Y100.253 F7800.000
G1 F1800
G1 X103.383 Y100.253 E4.75732
M104 S200 ; set temperature
G1 Z0.600 F7800.000
G1 X96.885 Y99.918 F7800.000
G1 F2896.07
G1 X103.115 Y99.918 E4.92538
G1 X103.115 Y94.836 E5.06249
G1 X104.542 Y94.836 E5.10098
G1 X104.542 Y105.164 E5.37962
G1 X103.115 Y105.164 E5.41812
G1 X103.115 Y100.587 E5.54159
G1 X96.885 Y100.587 E5.70965
G1 X96.885 Y105.164 E5.83313
G1 X95.458 Y105.164 E5.87162
G1 X95.458 Y94.836 E6.15026
G1 X96.885 Y94.836 E6.18876
G1 X96.885 Y99.843 E6.32385
G1 X97.446 Y99.358 F7800.000
G1 F1448.03
G1 X102.554 Y99.358 E6.42913
G1 X102.554 Y94.275 E6.53389
G1 X105.103 Y94.275 E6.58641
G1 X105.103 Y105.725 E6.82240
G1 X102.554 Y105.725 E6.87492
G1 X102.554 Y101.148 E6.96926
G1 X97.446 Y101.148 E7.07455
G1 X97.446 Y105.725 E7.16888
G1 X94.897 Y105.725 E7.22140
G1 X94.897 Y94.275 E7.45739
G1 X97.446 Y94.275 E7.50991
G1 X97.446 Y99.283 E7.61312
G1 X97.523 Y99.852 F7800.000
G1 X96.172 Y95.153 F7800.000
G1 F965.355
G1 X96.172 Y104.847 E7.91222
G1 E5.91222 F2400.00000
G92 E0
G1 X103.828 Y104.847 F7800.000
G1 E2.00000 F2400.00000
G1 F965.355
G1 X103.828 Y95.153 E2.29910
G1 Z0.900 F7800.000
G1 E0.29910 F2400.00000
G92 E0
G1 X96.885 Y99.918 F7800.000
G1 E2.00000 F2400.00000
G1 F2896.07
G1 X103.115 Y99.918 E2.16806
G1 X103.115 Y94.836 E2.30517
G1 X104.542 Y94.836 E2.34367
G1 X104.542 Y105.164 E2.62230
G1 X103.115 Y105.164 E2.66080
G1 X103.115 Y100.587 E2.78428
G1 X96.885 Y100.587 E2.95233
G1 X96.885 Y105.164 E3.07581
G1 X95.458 Y105.164 E3.11431
G1 X95.458 Y94.836 E3.39294
G1 X96.885 Y94.836 E3.43144
G1 X96.885 Y99.843 E3.56653
G1 X97.446 Y99.358 F7800.000
G1 F1448.03
G1 X102.554 Y99.358 E3.67181
G1 X102.554 Y94.275 E3.77657
G1 X105.103 Y94.275 E3.82909
G1 X105.103 Y105.725 E4.06508
G1 X102.554 Y105.725 E4.11760
G1 X102.554 Y101.148 E4.21194
G1 X97.446 Y101.148 E4.31723
G1 X97.446 Y105.725 E4.41157
G1 X94.897 Y105.725 E4.46409
G1 X94.897 Y94.275 E4.70007
G1 X97.446 Y94.275 E4.75260
G1 X97.446 Y99.283 E4.85581
G1 X97.523 Y99.852 F7800.000
G1 X96.172 Y95.153 F7800.000
G1 F965.355
G1 X96.172 Y104.847 E5.15490
G1 E3.15490 F2400.00000
G92 E0
G1 X103.828 Y104.847 F7800.000
G1 E2.00000 F2400.00000
G1 F965.355
G1 X103.828 Y95.153 E2.29910
M106 S255
G1 Z1.200 F7800.000
G1 E0.29910 F2400.00000
G92 E0
G1 X96.885 Y99.918 F7800.000
G1 E2.00000 F2400.00000
G1 F2896.07
G1 X103.115 Y99.918 E2.16806
G1 X103.115 Y94.836 E2.30517
G1 X104.542 Y94.836 E2.34367
G1 X104.542 Y105.164 E2.62230
G1 X103.115 Y105.164 E2.66080
G1 X103.115 Y100.587 E2.78428
G1 X96.885 Y100.587 E2.95233
G1 X96.885 Y105.164 E3.07581
G1 X95.458 Y105.164 E3.11431
G1 X95.458 Y94.836 E3.39294
G1 X96.885 Y94.836 E3.43144
G1 X96.885 Y99.843 E3.56653
G1 X97.446 Y99.358 F7800.000
G1 F1448.03
G1 X102.554 Y99.358 E3.67181
G1 X102.554 Y94.275 E3.77657
G1 X105.103 Y94.275 E3.82909
G1 X105.103 Y105.725 E4.06508
G1 X102.554 Y105.725 E4.11760
G1 X102.554 Y101.148 E4.21194
G1 X97.446 Y101.148 E4.31723
G1 X97.446 Y105.725 E4.41157
G1 X94.897 Y105.725 E4.46409
G1 X94.897 Y94.275 E4.70007
G1 X97.446 Y94.275 E4.75260
G1 X97.446 Y99.283 E4.85581
G1 X97.523 Y99.852 F7800.000
G1 X96.172 Y95.153 F7800.000
G1 F965.355
G1 X96.172 Y104.847 E5.15490
G1 E3.15490 F2400.00000
G92 E0
G1 X103.828 Y104.847 F7800.000
G1 E2.00000 F2400.00000
G1 F965.355
G1 X103.828 Y95.153 E2.29910
G1 Z1.500 F7800.000
G1 E0.29910 F2400.00000
G92 E0
G1 X96.885 Y99.918 F7800.000
G1 E2.00000 F2400.00000
G1 F2896.07
G1 X103.115 Y99.918 E2.16806
G1 X103.115 Y94.836 E2.30517
G1 X104.542 Y94.836 E2.34367
G1 X104.542 Y105.164 E2.62230
G1 X103.115 Y105.164 E2.66080
G1 X103.115 Y100.587 E2.78428
G1 X96.885 Y100.587 E2.95233
G1 X96.885 Y105.164 E3.07581
G1 X95.458 Y105.164 E3.11431
G1 X95.458 Y94.836 E3.39294
G1 X96.885 Y94.836 E3.43144
G1 X96.885 Y99.843 E3.56653
G1 X97.446 Y99.358 F7800.000
G1 F1448.03
G1 X102.554 Y99.358 E3.67181
G1 X102.554 Y94.275 E3.77657
G1 X105.103 Y94.275 E3.82909
G1 X105.103 Y105.725 E4.06508
G1 X102.554 Y105.725 E4.11760
G1 X102.554 Y101.148 E4.21194
G1 X97.446 Y101.148 E4.31723
G1 X97.446 Y105.725 E4.41157
G1 X94.897 Y105.725 E4.46409
G1 X94.897 Y94.275 E4.70007
G1 X97.446 Y94.275 E4.75260
G1 X97.446 Y99.283 E4.85581
G1 X97.523 Y99.852 F7800.000
G1 X96.172 Y95.153 F7800.000
G1 F965.355
G1 X96.172 Y104.847 E5.15490
G1 E3.15490 F2400.00000
G92 E0
G1 X103.828 Y104.847 F7800.000
G1 E2.00000 F2400.00000
G1 F965.355
G1 X103.828 Y95.153 E2.29910
G1 Z1.800 F7800.000
G1 E0.29910 F2400.00000
G92 E0
G1 X96.885 Y99.918 F7800.000
G1 E2.00000 F2400.00000
G1 F2896.07
G1 X103.115 Y99.918 E2.16806
G1 X103.115 Y94.836 E2.30517
G1 X104.542 Y94.836 E2.34367
G1 X104.542 Y105.164 E2.62230
G1 X103.115 Y105.164 E2.66080
G1 X103.115 Y100.587 E2.78428
G1 X96.885 Y100.587 E2.95233
G1 X96.885 Y105.164 E3.07581
G1 X95.458 Y105.164 E3.11431
G1 X95.458 Y94.836 E3.39294
G1 X96.885 Y94.836 E3.43144
G1 X96.885 Y99.843 E3.56653
G1 X97.446 Y99.358 F7800.000
G1 F1448.03
G1 X102.554 Y99.358 E3.67181
G1 X102.554 Y94.275 E3.77657
G1 X105.103 Y94.275 E3.82909
G1 X105.103 Y105.725 E4.06508
G1 X102.554 Y105.725 E4.11760
G1 X102.554 Y101.148 E4.21194
G1 X97.446 Y101.148 E4.31723
G1 X97.446 Y105.725 E4.41157
G1 X94.897 Y105.725 E4.46409
G1 X94.897 Y94.275 E4.70007
G1 X97.446 Y94.275 E4.75260
G1 X97.446 Y99.283 E4.85581
G1 X97.523 Y99.852 F7800.000
G1 X96.172 Y95.153 F7800.000
G1 F965.355
G1 X96.172 Y104.847 E5.15490
G1 E3.15490 F2400.00000
G92 E0
G1 X103.828 Y104.847 F7800.000
G1 E2.00000 F2400.00000
G1 F965.355
G1 X103.828 Y95.153 E2.29910
G1 Z2.100 F7800.000
G1 E0.29910 F2400.00000
G92 E0
G1 X96.885 Y99.918 F7800.000
G1 E2.00000 F2400.00000
G1 F2896.07
G1 X103.115 Y99.918 E2.16806
G1 X103.115 Y94.836 E2.30517
G1 X104.542 Y94.836 E2.34367
G1 X104.542 Y105.164 E2.62230
G1 X103.115 Y105.164 E2.66080
G1 X103.115 Y100.587 E2.78428
G1 X96.885 Y100.587 E2.95233
G1 X96.885 Y105.164 E3.07581
G1 X95.458 Y105.164 E3.11431
G1 X95.458 Y94.836 E3.39294
G1 X96.885 Y94.836 E3.43144
G1 X96.885 Y99.843 E3.56653
G1 X97.446 Y99.358 F7800.000
G1 F1448.03
G1 X102.554 Y99.358 E3.67181
G1 X102.554 Y94.275 E3.77657
G1 X105.103 Y94.275 E3.82909
G1 X105.103 Y105.725 E4.06508
G1 X102.554 Y105.725 E4.11760
G1 X102.554 Y101.148 E4.21194
G1 X97.446 Y101.148 E4.31723
G1 X97.446 Y105.725 E4.41157
G1 X94.897 Y105.725 E4.46409
G1 X94.897 Y94.275 E4.70007
G1 X97.446 Y94.275 E4.75260
G1 X97.446 Y99.283 E4.85581
G1 X97.523 Y99.852 F7800.000
G1 X96.172 Y95.153 F7800.000
G1 F965.355
G1 X96.172 Y104.847 E5.15490
G1 E3.15490 F2400.00000
G92 E0
G1 X103.828 Y104.847 F7800.000
G1 E2.00000 F2400.00000
G1 F965.355
G1 X103.828 Y95.153 E2.29910
G1 Z2.400 F7800.000
G1 E0.29910 F2400.00000
G92 E0
G1 X96.885 Y99.918 F7800.000
G1 E2.00000 F2400.00000
G1 F2896.07
G1 X103.115 Y99.918 E2.16806
G1 X103.115 Y94.836 E2.30517
G1 X104.542 Y94.836 E2.34367
G1 X104.542 Y105.164 E2.62230
G1 X103.115 Y105.164 E2.66080
G1 X103.115 Y100.587 E2.78428
G1 X96.885 Y100.587 E2.95233
G1 X96.885 Y105.164 E3.07581
G1 X95.458 Y105.164 E3.11431
G1 X95.458 Y94.836 E3.39294
G1 X96.885 Y94.836 E3.43144
G1 X96.885 Y99.843 E3.56653
G1 X97.446 Y99.358 F7800.000
G1 F1448.03
G1 X102.554 Y99.358 E3.67181
G1 X102.554 Y94.275 E3.77657
G1 X105.103 Y94.275 E3.82909
G1 X105.103 Y105.725 E4.06508
G1 X102.554 Y105.725 E4.11760
G1 X102.554 Y101.148 E4.21194
G1 X97.446 Y101.148 E4.31723
G1 X97.446 Y105.725 E4.41157
G1 X94.897 Y105.725 E4.46409
G1 X94.897 Y94.275 E4.70007
G1 X97.446 Y94.275 E4.75260
G1 X97.446 Y99.283 E4.85581
G1 X97.523 Y99.852 F7800.000
G1 X96.172 Y95.153 F7800.000
G1 F965.355
G1 X96.172 Y104.847 E5.15490
G1 E3.15490 F2400.00000
G92 E0
G1 X103.828 Y104.847 F7800.000
G1 E2.00000 F2400.00000
G1 F965.355
G1 X103.828 Y95.153 E2.29910
G1 Z2.700 F7800.000
G1 E0.29910 F2400.00000
G92 E0
G1 X96.885 Y99.918 F7800.000
G1 E2.00000 F2400.00000
G1 F2896.07
G1 X103.115 Y99.918 E2.16806
G1 X103.115 Y94.836 E2.30517
G1 X104.542 Y94.836 E2.34367
G1 X104.542 Y105.164 E2.62230
G1 X103.115 Y105.164 E2.66080
G1 X103.115 Y100.587 E2.78428
G1 X96.885 Y100.587 E2.95233
G1 X96.885 Y105.164 E3.07581
G1 X95.458 Y105.164 E3.11431
G1 X95.458 Y94.836 E3.39294
G1 X96.885 Y94.836 E3.43144
G1 X96.885 Y99.843 E3.56653
G1 X97.446 Y99.358 F7800.000
G1 F1448.03
G1 X102.554 Y99.358 E3.67181
G1 X102.554 Y94.275 E3.77657
G1 X105.103 Y94.275 E3.82909
G1 X105.103 Y105.725 E4.06508
G1 X102.554 Y105.725 E4.11760
G1 X102.554 Y101.148 E4.21194
G1 X97.446 Y101.148 E4.31723
G1 X97.446 Y105.725 E4.41157
G1 X94.897 Y105.725 E4.46409
G1 X94.897 Y94.275 E4.70007
G1 X97.446 Y94.275 E4.75260
G1 X97.446 Y99.283 E4.85581
G1 X97.523 Y99.852 F7800.000
G1 X96.172 Y95.153 F7800.000
G1 F965.355
G1 X96.172 Y104.847 E5.15490
G1 E3.15490 F2400.00000
G92 E0
G1 X103.828 Y104.847 F7800.000
G1 E2.00000 F2400.00000
G1 F965.355
G1 X103.828 Y95.153 E2.29910
G1 Z3.000 F7800.000
G1 E0.29910 F2400.00000
G92 E0
G1 X96.885 Y99.918 F7800.000
G1 E2.00000 F2400.00000
G1 F2896.07
G1 X103.115 Y99.918 E2.16806
G1 X103.115 Y94.836 E2.30517
G1 X104.542 Y94.836 E2.34367
G1 X104.542 Y105.164 E2.62230
G1 X103.115 Y105.164 E2.66080
G1 X103.115 Y100.587 E2.78428
G1 X96.885 Y100.587 E2.95233
G1 X96.885 Y105.164 E3.07581
G1 X95.458 Y105.164 E3.11431
G1 X95.458 Y94.836 E3.39294
G1 X96.885 Y94.836 E3.43144
G1 X96.885 Y99.843 E3.56653
G1 X97.446 Y99.358 F7800.000
G1 F1448.03
G1 X102.554 Y99.358 E3.67181
G1 X102.554 Y94.275 E3.77657
G1 X105.103 Y94.275 E3.82909
G1 X105.103 Y105.725 E4.06508
G1 X102.554 Y105.725 E4.11760
G1 X102.554 Y101.148 E4.21194
G1 X97.446 Y101.148 E4.31723
G1 X97.446 Y105.725 E4.41157
G1 X94.897 Y105.725 E4.46409
G1 X94.897 Y94.275 E4.70007
G1 X97.446 Y94.275 E4.75260
G1 X97.446 Y99.283 E4.85581
G1 X97.523 Y99.852 F7800.000
G1 E2.85581 F2400.00000
G92 E0
G1 X96.172 Y95.153 F7800.000
G1 E2.00000 F2400.00000
G1 F965.355
G1 X96.172 Y104.847 E2.29910
G1 E0.29910 F2400.00000
G92 E0
G1 X103.828 Y104.847 F7800.000
G1 E2.00000 F2400.00000
G1 F965.355
G1 X103.828 Y95.153 E2.29910
G1 E0.29910 F2400.00000
G92 E0
M107
; Filament-specific end gcode 
;END gcode for filament

M104 S0 ; turn off temperature
G28 X0  ; home X axis
M84     ; disable motors

M140 S0 ; set bed temperature
; filament used = 34.7mm (0.2cm3)
; total filament cost = 0.0

; avoid_crossing_perimeters = 0
; bed_shape = 0x0,200x0,200x200,0x200
; bed_temperature = 0
; before_layer_gcode = 
; between_objects_gcode = 
; bridge_acceleration = 0
; bridge_fan_speed = 100
; brim_connections_width = 0
; brim_width = 0
; complete_objects = 0
; cooling = 1
; default_acceleration = 0
; disable_fan_first_layers = 3
; duplicate_distance = 6
; end_filament_gcode = "; Filament-specific end gcode \n;END gcode for filament\n"
; end_gcode = M104 S0 ; turn off temperature\nG28 X0  ; home X axis\nM84     ; disable motors\n
; extruder_clearance_height = 20
; extruder_clearance_radius = 20
; extruder_offset = 0x0
; extrusion_axis = E
; extrusion_multiplier = 1
; fan_always_on = 0
; fan_below_layer_time = 60
; filament_colour = #FFFFFF
; filament_cost = 0
; filament_density = 0
; filament_diameter = 3
; filament_max_volumetric_speed = 0
; filament_notes = ""
; first_layer_acceleration = 0
; first_layer_bed_temperature = 0
; first_layer_extrusion_width = 200%
; first_layer_speed = 30
; first_layer_temperature = 205
; gcode_arcs = 0
; gcode_comments = 0
; gcode_flavor = reprap
; has_heatbed = 1
; infill_acceleration = 0
; infill_first = 0
; interior_brim_width = 0
; layer_gcode = 
; max_fan_speed = 100
; max_layer_height = 0.3
; max_print_speed = 80
; max_volumetric_speed = 0
; min_fan_speed = 35
; min_layer_height = 0.15
; min_print_speed = 10
; min_skirt_length = 0
; notes = 
; nozzle_diameter = 0.5
; only_retract_when_crossing_perimeters = 1
; ooze_prevention = 0
; output_filename_format = [input_filename_base].gcode
; perimeter_acceleration = 0
; post_process = 
; pressure_advance = 0
; printer_notes = 
; resolution = 0
; retract_before_travel = 2
; retract_layer_change = 0
; retract_length = 2
; retract_length_toolchange = 10
; retract_lift = 0
; retract_lift_above = 0
; retract_lift_below = 0
; retract_restart_extra = 0
; retract_restart_extra_toolchange = 0
; retract_speed = 40
; skirt_distance = 6
; skirt_height = 1
; skirts = 0
; slowdown_below_layer_time = 5
; spiral_vase = 0
; standby_temperature_delta = -5
; start_filament_gcode = "; Filament gcode\n"
; start_gcode = G28 ; home all axes\nG1 Z5 F5000 ; lift nozzle\n
; temperature = 200
; threads = 8
; toolchange_gcode = 
; travel_speed = 130
; use_firmware_retraction = 0
; use_relative_e_distances = 0
; use_set_and_wait_bed = 0
; use_set_and_wait_extruder = 0
; use_volumetric_e = 0
; vibration_limit = 0
; wipe = 0
; z_offset = 0
; z_steps_per_mm = 0
; adaptive_slicing = 0
; adaptive_slicing_quality = 75%
; dont_support_bridges = 1
; extrusion_width = 0
; first_layer_height = 0.3
; infill_only_where_needed = 0
; interface_shells = 0
; layer_height = 0.3
; match_horizontal_surfaces = 0
; raft_layers = 0
; regions_overlap = 0
; seam_position = aligned
; sequential_print_priority = 0
; support_material = 0
; support_material_angle = 0
; support_material_buildplate_only = 0
; support_material_contact_distance = 0.2
; support_material_enforce_layers = 0
; support_material_extruder = 1
; support_material_extrusion_width = 0
; support_material_interface_extruder = 1
; support_material_interface_extrusion_width = 0
; support_material_interface_layers = 3
; support_material_interface_spacing = 0
; support_material_interface_speed = 100%
; support_material_max_layers = 0
; support_material_pattern = pillars
; support_material_spacing = 2.5
; support_material_speed = 60
; support_material_threshold = 60%
; xy_size_compensation = 0
; bottom_infill_pattern = rectilinear
; bottom_solid_layers = 3
; bridge_flow_ratio = 1
; bridge_speed = 60
; external_perimeter_extrusion_width = 0
; external_perimeter_speed = 50%
; external_perimeters_first = 0
; extra_perimeters = 1
; fill_angle = 45
; fill_density = 60%
; fill_gaps = 1
; fill_pattern = stars
; gap_fill_speed = 20
; infill_every_layers = 1
; infill_extruder = 1
; infill_extrusion_width = 0
; infill_overlap = 55%
; infill_speed = 80
; overhangs = 1
; perimeter_extruder = 1
; perimeter_extrusion_width = 0
; perimeter_speed = 60
; perimeters = 3
; small_perimeter_speed = 15
; solid_infill_below_area = 70
; solid_infill_every_layers = 0
; solid_infill_extruder = 1
; solid_infill_extrusion_width = 0
; solid_infill_speed = 20
; thin_walls = 1
; top_infill_extrusion_width = 0
; top_infill_pattern = rectilinear
; top_solid_infill_speed = 15
; top_solid_layers = 3
