; generated by Slic3r 1.3.0 on 2020-10-05 at 16:21:05

; external perimeters extrusion width = 0.55mm (4.37mm^3/s)
; perimeters extrusion width = 0.70mm (11.44mm^3/s)
; infill extrusion width = 0.63mm (13.45mm^3/s)
; solid infill extrusion width = 0.70mm (3.81mm^3/s)
; top infill extrusion width = 0.70mm (2.86mm^3/s)

M107
M104 S205 ; set temperature
G28 ; home all axes
G1 Z5 F5000 ; lift nozzle

; Filament gcode

M109 S205 ; set temperature and wait for it to be reached
G21 ; set units to millimeters
G90 ; use absolute coordinates
M82 ; use absolute distances for extrusion
G92 E0
G1 Z0.300 F7800.000
G1 E-2.00000 F2400.00000
G92 E0
G1 X91.531 Y90.067 F7800.000
G1 E2.00000 F2400.00000
G1 F1800
G1 X91.105 Y90.494 E2.01371
G1 X91.105 Y91.294 E2.03190
G1 X92.331 Y90.067 E2.07133
G1 X93.131 Y90.067 E2.08952
G1 X91.105 Y92.094 E2.15467
G1 X91.105 Y92.894 E2.17286
G1 X93.931 Y90.067 E2.26374
G1 X94.731 Y90.067 E2.28192
G1 X91.105 Y93.694 E2.39852
G1 X91.105 Y94.494 E2.41671
G1 X95.531 Y90.067 E2.55903
G1 X96.134 Y90.067 E2.57272
G1 X96.134 Y90.265 E2.57721
G1 X91.105 Y95.294 E2.73890
G1 X91.105 Y96.094 E2.75709
G1 X96.134 Y91.065 E2.91878
G1 X96.134 Y91.865 E2.93697
G1 X91.105 Y96.894 E3.09866
G1 X91.105 Y97.694 E3.11685
G1 X96.134 Y92.665 E3.27854
G1 X96.134 Y93.465 E3.29673
G1 X91.105 Y98.494 E3.45842
G1 X91.105 Y99.294 E3.47661
G1 X96.134 Y94.265 E3.63830
G1 X96.134 Y95.065 E3.65649
G1 X91.105 Y100.095 E3.81818
G1 X91.105 Y100.895 E3.83637
G1 X96.134 Y95.865 E3.99806
G1 X96.134 Y96.665 E4.01625
G1 X91.105 Y101.695 E4.17794
G1 X91.105 Y102.495 E4.19613
G1 X96.134 Y97.465 E4.35782
G1 X96.134 Y98.265 E4.37601
G1 X91.105 Y103.295 E4.53770
G1 X91.105 Y104.095 E4.55589
G1 X96.661 Y98.538 E4.73453
G1 X97.461 Y98.538 E4.75272
G1 X91.105 Y104.895 E4.95708
G1 X91.105 Y105.695 E4.97526
G1 X98.261 Y98.538 E5.20535
G1 X99.062 Y98.538 E5.22353
G1 X91.105 Y106.495 E5.47934
G1 X91.105 Y107.295 E5.49752
G1 X95.708 Y102.692 E5.64551
G1 X95.708 Y102.304 E5.65433
G1 X96.096 Y102.304 E5.66315
G1 X99.862 Y98.538 E5.78421
G1 X100.662 Y98.538 E5.80240
G1 X96.896 Y102.304 E5.92347
G1 X97.696 Y102.304 E5.94166
G1 X101.462 Y98.538 E6.06273
G1 X102.262 Y98.538 E6.08091
G1 X98.496 Y102.304 E6.20198
G1 X99.296 Y102.304 E6.22017
G1 X103.062 Y98.538 E6.34124
G1 X103.862 Y98.538 E6.35942
G1 X100.096 Y102.304 E6.48049
G1 X100.896 Y102.304 E6.49868
G1 X108.895 Y94.305 E6.75584
G1 X108.895 Y95.105 E6.77403
G1 X101.696 Y102.304 E7.00547
G1 X102.496 Y102.304 E7.02366
G1 X108.895 Y95.905 E7.22938
G1 X108.895 Y96.705 E7.24757
G1 X103.296 Y102.304 E7.42757
G1 X103.866 Y102.304 E7.44052
G1 X103.866 Y102.535 E7.44576
G1 X108.895 Y97.505 E7.60745
G1 X108.895 Y98.305 E7.62564
G1 X103.866 Y103.335 E7.78733
G1 X103.866 Y104.135 E7.80552
G1 X108.895 Y99.105 E7.96721
G1 X108.895 Y99.905 E7.98540
G1 X103.866 Y104.935 E8.14709
G1 X103.866 Y105.735 E8.16528
G1 X108.895 Y100.706 E8.32697
G1 X108.895 Y101.506 E8.34516
G1 X103.866 Y106.535 E8.50685
G1 X103.866 Y107.335 E8.52504
G1 X108.895 Y102.306 E8.68673
G1 X108.895 Y103.106 E8.70492
G1 X103.866 Y108.135 E8.86661
G1 X103.866 Y108.935 E8.88480
G1 X108.895 Y103.906 E9.04649
G1 X108.895 Y104.706 E9.06468
G1 X103.866 Y109.735 E9.22637
G1 X103.866 Y109.933 E9.23086
G1 X104.469 Y109.933 E9.24456
G1 X108.895 Y105.506 E9.38687
G1 X108.895 Y106.306 E9.40506
G1 X105.269 Y109.933 E9.52166
G1 X106.069 Y109.933 E9.53984
G1 X108.895 Y107.106 E9.63072
G1 X108.895 Y107.906 E9.64891
G1 X106.869 Y109.933 E9.71406
G1 X107.669 Y109.933 E9.73225
G1 X108.895 Y108.706 E9.77168
G1 X108.895 Y109.506 E9.78987
G1 X108.469 Y109.933 E9.80358
G1 E7.80358 F2400.00000
G92 E0
G1 X103.866 Y98.534 F7800.000
G1 E2.00000 F2400.00000
G1 F1800
G1 X108.895 Y93.505 E2.16169
G1 X108.895 Y92.705 E2.17988
G1 X103.866 Y97.734 E2.34157
G1 X103.866 Y96.934 E2.35976
G1 X108.895 Y91.905 E2.52145
G1 X108.895 Y91.105 E2.53964
G1 X103.866 Y96.134 E2.70133
G1 X103.866 Y95.334 E2.71952
G1 X108.895 Y90.305 E2.88121
G1 X108.895 Y90.067 E2.88661
G1 X108.333 Y90.067 E2.89940
G1 X103.866 Y94.534 E3.04300
G1 X103.866 Y93.734 E3.06119
G1 X107.533 Y90.067 E3.17907
G1 X106.733 Y90.067 E3.19726
G1 X103.866 Y92.934 E3.28942
G1 X103.866 Y92.134 E3.30760
G1 X105.932 Y90.067 E3.37404
G1 X105.132 Y90.067 E3.39223
G1 X103.866 Y91.334 E3.43295
G1 X103.866 Y90.534 E3.45114
G1 X104.332 Y90.067 E3.46613
G1 E1.46613 F2400.00000
G92 E0
G1 X96.134 Y102.266 F7800.000
G1 E2.00000 F2400.00000
G1 F1800
G1 X96.134 Y103.066 E2.01819
G1 X91.105 Y108.095 E2.17988
G1 X91.105 Y108.895 E2.19807
G1 X96.134 Y103.866 E2.35976
G1 X96.134 Y104.666 E2.37795
G1 X91.105 Y109.696 E2.53964
G1 X91.105 Y109.933 E2.54503
G1 X91.667 Y109.933 E2.55783
G1 X96.134 Y105.466 E2.70143
G1 X96.134 Y106.266 E2.71962
G1 X92.467 Y109.933 E2.83750
G1 X93.267 Y109.933 E2.85568
G1 X96.134 Y107.066 E2.94784
G1 X96.134 Y107.866 E2.96603
G1 X94.068 Y109.933 E3.03247
G1 X94.868 Y109.933 E3.05066
G1 X96.134 Y108.666 E3.09137
G1 X96.134 Y109.466 E3.10956
G1 X95.668 Y109.933 E3.12455
M104 S200 ; set temperature
G1 Z0.600 F7800.000
G1 X91.085 Y109.487 F7800.000
G1 F4800
G1 X91.551 Y109.952 E3.14021
G1 X92.351 Y109.952 E3.15925
G1 X91.085 Y108.687 E3.20183
G1 X91.085 Y107.887 E3.22087
G1 X93.151 Y109.952 E3.29037
G1 X93.951 Y109.952 E3.30941
G1 X91.085 Y107.087 E3.40583
G1 X91.085 Y106.287 E3.42487
G1 X94.751 Y109.952 E3.54822
G1 X95.551 Y109.952 E3.56725
G1 X91.085 Y105.487 E3.71752
G1 X91.085 Y104.686 E3.73656
G1 X96.154 Y109.755 E3.90711
G1 X96.154 Y108.955 E3.92614
G1 X91.085 Y103.886 E4.09669
G1 X91.085 Y103.086 E4.11573
G1 X96.154 Y108.155 E4.28628
G1 X96.154 Y107.355 E4.30531
G1 X91.085 Y102.286 E4.47586
G1 X91.085 Y101.486 E4.49490
G1 X96.154 Y106.555 E4.66545
G1 X96.154 Y105.754 E4.68448
G1 X91.085 Y100.686 E4.85503
G1 X91.085 Y99.886 E4.87407
G1 X96.154 Y104.954 E5.04461
G1 X96.154 Y104.154 E5.06365
G1 X91.085 Y99.086 E5.23420
G1 X91.085 Y98.286 E5.25323
G1 X96.154 Y103.354 E5.42378
G1 X96.154 Y102.554 E5.44282
G1 X91.085 Y97.486 E5.61337
G1 X91.085 Y96.686 E5.63240
G1 X96.723 Y102.324 E5.82211
G1 X97.523 Y102.324 E5.84115
G1 X91.085 Y95.886 E6.05778
G1 X91.085 Y95.086 E6.07682
G1 X98.323 Y102.324 E6.32037
G1 X99.123 Y102.324 E6.33941
G1 X91.085 Y94.285 E6.60989
G1 X91.085 Y93.485 E6.62892
G1 X96.154 Y98.554 E6.79947
G1 X96.154 Y97.754 E6.81851
G1 X91.085 Y92.685 E6.98906
G1 X91.085 Y91.885 E7.00809
G1 X96.154 Y96.954 E7.17864
G1 X96.154 Y96.154 E7.19768
G1 X91.085 Y91.085 E7.36822
G1 X91.085 Y90.285 E7.38726
G1 X96.154 Y95.353 E7.55781
G1 X96.154 Y94.553 E7.57685
G1 X91.648 Y90.048 E7.72846
G1 X92.448 Y90.048 E7.74749
G1 X96.154 Y93.753 E7.87219
G1 X96.154 Y92.953 E7.89122
G1 X93.248 Y90.048 E7.98899
G1 X94.048 Y90.048 E8.00803
G1 X96.154 Y92.153 E8.07887
G1 X96.154 Y91.353 E8.09791
G1 X94.848 Y90.048 E8.14184
G1 X95.648 Y90.048 E8.16087
G1 X96.154 Y90.553 E8.17788
G1 X96.119 Y98.519 F7800.000
G1 F4800
G1 X99.923 Y102.324 E8.30590
G1 X100.723 Y102.324 E8.32494
G1 X96.919 Y98.519 E8.45297
G1 X97.719 Y98.519 E8.47200
G1 X101.524 Y102.324 E8.60003
G1 X102.324 Y102.324 E8.61907
G1 X98.519 Y98.519 E8.74709
G1 X99.319 Y98.519 E8.76613
G1 X103.124 Y102.324 E8.89416
G1 X103.924 Y102.324 E8.91319
G1 X100.119 Y98.519 E9.04122
G1 X100.919 Y98.519 E9.06026
G1 X108.915 Y106.515 E9.32931
G1 X108.915 Y105.715 E9.34835
G1 X101.719 Y98.519 E9.59047
G1 X102.519 Y98.519 E9.60951
G1 X108.915 Y104.914 E9.82472
G1 X108.915 Y104.114 E9.84375
G1 X103.319 Y98.519 E10.03204
G1 X103.846 Y98.519 E10.04458
G1 X103.846 Y98.246 E10.05108
G1 X108.915 Y103.314 E10.22162
G1 X108.915 Y102.514 E10.24066
G1 X103.846 Y97.446 E10.41121
G1 X103.846 Y96.646 E10.43025
G1 X108.915 Y101.714 E10.60079
G1 X108.915 Y100.914 E10.61983
G1 X103.846 Y95.846 E10.79038
G1 X103.846 Y95.046 E10.80941
G1 X108.915 Y100.114 E10.97996
G1 X108.915 Y99.314 E10.99900
G1 X103.846 Y94.245 E11.16955
G1 X103.846 Y93.445 E11.18858
G1 X108.915 Y98.514 E11.35913
G1 X108.915 Y97.714 E11.37817
G1 X103.846 Y92.645 E11.54871
G1 X103.846 Y91.845 E11.56775
G1 X108.915 Y96.914 E11.73830
G1 X108.915 Y96.114 E11.75734
G1 X103.846 Y91.045 E11.92788
G1 X103.846 Y90.245 E11.94692
G1 X108.915 Y95.314 E12.11747
G1 X108.915 Y94.513 E12.13650
G1 X104.449 Y90.048 E12.28677
G1 X105.249 Y90.048 E12.30581
G1 X108.915 Y93.713 E12.42916
G1 X108.915 Y92.913 E12.44819
G1 X106.049 Y90.048 E12.54462
G1 X106.849 Y90.048 E12.56365
G1 X108.915 Y92.113 E12.63316
G1 X108.915 Y91.313 E12.65219
G1 X107.649 Y90.048 E12.69477
G1 X108.450 Y90.048 E12.71381
G1 X108.915 Y90.513 E12.72947
G1 X108.915 Y107.315 F7800.000
G1 F4800
G1 X103.846 Y102.246 E12.90002
G1 X103.846 Y103.046 E12.91905
G1 X108.915 Y108.115 E13.08960
G1 X108.915 Y108.915 E13.10864
G1 X103.846 Y103.846 E13.27919
G1 X103.846 Y104.647 E13.29822
G1 X108.915 Y109.715 E13.46877
G1 X108.915 Y109.952 E13.47442
G1 X108.352 Y109.952 E13.48781
G1 X103.846 Y105.447 E13.63942
G1 X103.846 Y106.247 E13.65846
G1 X107.552 Y109.952 E13.78315
G1 X106.752 Y109.952 E13.80219
G1 X103.846 Y107.047 E13.89995
G1 X103.846 Y107.847 E13.91899
G1 X105.952 Y109.952 E13.98984
G1 X105.152 Y109.952 E14.00888
G1 X103.846 Y108.647 E14.05280
G1 X103.846 Y109.447 E14.07184
G1 X104.352 Y109.952 E14.08884
G1 X104.312 Y109.952 E14.08980
G1 X104.312 Y109.912 E14.09075
G1 Z0.900 F7800.000
G1 X108.450 Y109.952 F7800.000
G1 F4800
G1 X108.915 Y109.487 E14.10641
G1 X108.915 Y108.687 E14.12545
G1 X107.649 Y109.952 E14.16803
G1 X106.849 Y109.952 E14.18706
G1 X108.915 Y107.887 E14.25657
G1 X108.915 Y107.087 E14.27560
G1 X106.049 Y109.952 E14.37203
G1 X105.249 Y109.952 E14.39107
G1 X108.915 Y106.287 E14.51441
G1 X108.915 Y105.487 E14.53345
G1 X104.449 Y109.952 E14.68372
G1 X103.846 Y109.952 E14.69806
G1 X103.846 Y109.755 E14.70275
G1 X108.915 Y104.686 E14.87330
G1 X108.915 Y103.886 E14.89234
G1 X103.846 Y108.955 E15.06289
G1 X103.846 Y108.155 E15.08192
G1 X108.915 Y103.086 E15.25247
G1 X108.915 Y102.286 E15.27151
G1 X103.846 Y107.355 E15.44205
G1 X103.846 Y106.555 E15.46109
G1 X108.915 Y101.486 E15.63164
G1 X108.915 Y100.686 E15.65067
G1 X103.846 Y105.755 E15.82122
G1 X103.846 Y104.954 E15.84026
G1 X108.915 Y99.886 E16.01081
G1 X108.915 Y99.086 E16.02984
G1 X103.846 Y104.154 E16.20039
G1 X103.846 Y103.354 E16.21943
G1 X108.915 Y98.286 E16.38997
G1 X108.915 Y97.486 E16.40901
G1 X103.846 Y102.554 E16.57956
G1 X103.846 Y102.324 E16.58505
G1 X103.277 Y102.324 E16.59860
G1 X108.915 Y96.686 E16.78831
G1 X108.915 Y95.886 E16.80734
G1 X102.477 Y102.324 E17.02397
G1 X101.677 Y102.324 E17.04301
G1 X108.915 Y95.086 E17.28657
G1 X108.915 Y94.285 E17.30560
G1 X100.877 Y102.324 E17.57608
G1 X100.077 Y102.324 E17.59511
G1 X103.881 Y98.519 E17.72314
G1 X103.081 Y98.519 E17.74218
G1 X99.277 Y102.324 E17.87021
G1 X98.476 Y102.324 E17.88924
G1 X102.281 Y98.519 E18.01727
G1 X101.481 Y98.519 E18.03631
G1 X97.676 Y102.324 E18.16433
G1 X96.876 Y102.324 E18.18337
G1 X100.681 Y98.519 E18.31140
G1 X99.881 Y98.519 E18.33043
G1 X96.076 Y102.324 E18.45846
G1 X95.688 Y102.324 E18.46769
G1 X95.688 Y102.712 E18.47692
G1 X91.085 Y107.315 E18.63181
G1 X91.085 Y106.515 E18.65085
G1 X99.081 Y98.519 E18.91990
G1 X98.281 Y98.519 E18.93894
G1 X91.085 Y105.715 E19.18107
G1 X91.085 Y104.914 E19.20010
G1 X97.481 Y98.519 E19.41531
G1 X96.681 Y98.519 E19.43435
G1 X91.085 Y104.114 E19.62263
G1 X91.085 Y103.314 E19.64167
G1 X96.154 Y98.246 E19.81222
G1 X96.154 Y97.446 E19.83125
G1 X91.085 Y102.514 E20.00180
G1 X91.085 Y101.714 E20.02084
G1 X96.154 Y96.646 E20.19139
G1 X96.154 Y95.846 E20.21042
G1 X91.085 Y100.914 E20.38097
G1 X91.085 Y100.114 E20.40001
G1 X96.154 Y95.046 E20.57055
G1 X96.154 Y94.246 E20.58959
G1 X91.085 Y99.314 E20.76014
G1 X91.085 Y98.514 E20.77917
G1 X96.154 Y93.445 E20.94972
G1 X96.154 Y92.645 E20.96876
G1 X91.085 Y97.714 E21.13931
G1 X91.085 Y96.914 E21.15834
G1 X96.154 Y91.845 E21.32889
G1 X96.154 Y91.045 E21.34793
G1 X91.085 Y96.114 E21.51847
G1 X91.085 Y95.314 E21.53751
G1 X96.154 Y90.245 E21.70806
G1 X96.154 Y90.048 E21.71276
G1 X95.551 Y90.048 E21.72710
G1 X91.085 Y94.513 E21.87736
G1 X91.085 Y93.713 E21.89640
G1 X94.751 Y90.048 E22.01975
G1 X93.951 Y90.048 E22.03879
G1 X91.085 Y92.913 E22.13521
G1 X91.085 Y92.113 E22.15425
G1 X93.151 Y90.048 E22.22375
G1 X92.351 Y90.048 E22.24279
G1 X91.085 Y91.313 E22.28537
G1 X91.085 Y90.513 E22.30441
G1 X91.551 Y90.048 E22.32007
G1 E20.32007 F2400.00000
G92 E0
G1 X104.352 Y90.048 F7800.000
G1 E2.00000 F2400.00000
G1 F4800
G1 X103.846 Y90.553 E2.01700
G1 X103.846 Y91.353 E2.03604
G1 X105.152 Y90.048 E2.07997
G1 X105.952 Y90.048 E2.09900
G1 X103.846 Y92.153 E2.16985
G1 X103.846 Y92.953 E2.18889
G1 X106.752 Y90.048 E2.28666
G1 X107.552 Y90.048 E2.30569
G1 X103.846 Y93.753 E2.43039
G1 X103.846 Y94.553 E2.44942
G1 X108.352 Y90.048 E2.60104
G1 X108.915 Y90.048 E2.61442
G1 X108.915 Y90.285 E2.62007
G1 X103.846 Y95.353 E2.79062
G1 X103.846 Y96.154 E2.80966
G1 X108.915 Y91.085 E2.98020
G1 X108.915 Y91.885 E2.99924
G1 X103.846 Y96.954 E3.16979
G1 X103.846 Y97.754 E3.18883
G1 X108.915 Y92.685 E3.35937
G1 X108.915 Y93.485 E3.37841
G1 X103.846 Y98.554 E3.54896
G1 X96.154 Y102.246 F7800.000
G1 F4800
G1 X96.154 Y103.046 E3.56799
G1 X91.085 Y108.115 E3.73854
G1 X91.085 Y108.915 E3.75758
G1 X96.154 Y103.846 E3.92813
G1 X96.154 Y104.647 E3.94716
G1 X91.085 Y109.715 E4.11771
G1 X91.085 Y109.952 E4.12336
G1 X91.648 Y109.952 E4.13675
G1 X96.154 Y105.447 E4.28836
G1 X96.154 Y106.247 E4.30740
G1 X92.448 Y109.952 E4.43209
G1 X93.248 Y109.952 E4.45112
G1 X96.154 Y107.047 E4.54889
G1 X96.154 Y107.847 E4.56793
G1 X94.048 Y109.952 E4.63878
G1 X94.848 Y109.952 E4.65781
G1 X96.154 Y108.647 E4.70174
G1 X96.154 Y109.447 E4.72077
G1 X95.648 Y109.952 E4.73778
M106 S252.45
G1 Z1.200 F7800.000
G1 X91.085 Y109.487 F7800.000
G1 F4800
G1 X91.551 Y109.952 E4.75344
G1 X92.351 Y109.952 E4.77247
G1 X91.085 Y108.687 E4.81506
G1 X91.085 Y107.887 E4.83409
G1 X93.151 Y109.952 E4.90360
G1 X93.951 Y109.952 E4.92263
G1 X91.085 Y107.087 E5.01906
G1 X91.085 Y106.287 E5.03809
G1 X94.751 Y109.952 E5.16144
G1 X95.551 Y109.952 E5.18048
G1 X91.085 Y105.487 E5.33075
G1 X91.085 Y104.686 E5.34978
G1 X96.154 Y109.755 E5.52033
G1 X96.154 Y108.955 E5.53937
G1 X91.085 Y103.886 E5.70992
G1 X91.085 Y103.086 E5.72895
G1 X96.154 Y108.155 E5.89950
G1 X96.154 Y107.355 E5.91854
G1 X91.085 Y102.286 E6.08908
G1 X91.085 Y101.486 E6.10812
G1 X96.154 Y106.555 E6.27867
G1 X96.154 Y105.754 E6.29771
G1 X91.085 Y100.686 E6.46825
G1 X91.085 Y99.886 E6.48729
G1 X96.154 Y104.954 E6.65784
G1 X96.154 Y104.154 E6.67687
G1 X91.085 Y99.086 E6.84742
G1 X91.085 Y98.286 E6.86646
G1 X96.154 Y103.354 E7.03701
G1 X96.154 Y102.554 E7.05604
G1 X91.085 Y97.486 E7.22659
G1 X91.085 Y96.686 E7.24563
G1 X96.723 Y102.324 E7.43534
G1 X97.523 Y102.324 E7.45437
G1 X91.085 Y95.886 E7.67101
G1 X91.085 Y95.086 E7.69004
G1 X98.323 Y102.324 E7.93360
G1 X99.123 Y102.324 E7.95263
G1 X91.085 Y94.285 E8.22311
G1 X91.085 Y93.485 E8.24215
G1 X96.154 Y98.554 E8.41270
G1 X96.154 Y97.754 E8.43173
G1 X91.085 Y92.685 E8.60228
G1 X91.085 Y91.885 E8.62132
G1 X96.154 Y96.954 E8.79186
G1 X96.154 Y96.154 E8.81090
G1 X91.085 Y91.085 E8.98145
G1 X91.085 Y90.285 E9.00048
G1 X96.154 Y95.353 E9.17103
G1 X96.154 Y94.553 E9.19007
G1 X91.648 Y90.048 E9.34168
G1 X92.448 Y90.048 E9.36072
G1 X96.154 Y93.753 E9.48541
G1 X96.154 Y92.953 E9.50445
G1 X93.248 Y90.048 E9.60221
G1 X94.048 Y90.048 E9.62125
G1 X96.154 Y92.153 E9.69210
G1 X96.154 Y91.353 E9.71113
G1 X94.848 Y90.048 E9.75506
G1 X95.648 Y90.048 E9.77410
G1 X96.154 Y90.553 E9.79110
G1 X96.119 Y98.519 F7800.000
G1 F4800
G1 X99.923 Y102.324 E9.91913
G1 X100.723 Y102.324 E9.93816
G1 X96.919 Y98.519 E10.06619
G1 X97.719 Y98.519 E10.08523
G1 X101.524 Y102.324 E10.21325
G1 X102.324 Y102.324 E10.23229
G1 X98.519 Y98.519 E10.36032
G1 X99.319 Y98.519 E10.37935
G1 X103.124 Y102.324 E10.50738
G1 X103.924 Y102.324 E10.52642
G1 X100.119 Y98.519 E10.65445
G1 X100.919 Y98.519 E10.67348
G1 X108.915 Y106.515 E10.94253
G1 X108.915 Y105.715 E10.96157
G1 X101.719 Y98.519 E11.20370
G1 X102.519 Y98.519 E11.22273
G1 X108.915 Y104.914 E11.43794
G1 X108.915 Y104.114 E11.45698
G1 X103.319 Y98.519 E11.64526
G1 X103.846 Y98.519 E11.65781
G1 X103.846 Y98.246 E11.66430
G1 X108.915 Y103.314 E11.83485
G1 X108.915 Y102.514 E11.85388
G1 X103.846 Y97.446 E12.02443
G1 X103.846 Y96.646 E12.04347
G1 X108.915 Y101.714 E12.21402
G1 X108.915 Y100.914 E12.23305
G1 X103.846 Y95.846 E12.40360
G1 X103.846 Y95.046 E12.42264
G1 X108.915 Y100.114 E12.59318
G1 X108.915 Y99.314 E12.61222
G1 X103.846 Y94.245 E12.78277
G1 X103.846 Y93.445 E12.80181
G1 X108.915 Y98.514 E12.97235
G1 X108.915 Y97.714 E12.99139
G1 X103.846 Y92.645 E13.16194
G1 X103.846 Y91.845 E13.18097
G1 X108.915 Y96.914 E13.35152
G1 X108.915 Y96.114 E13.37056
G1 X103.846 Y91.045 E13.54111
G1 X103.846 Y90.245 E13.56014
G1 X108.915 Y95.314 E13.73069
G1 X108.915 Y94.513 E13.74973
G1 X104.449 Y90.048 E13.90000
G1 X105.249 Y90.048 E13.91903
G1 X108.915 Y93.713 E14.04238
G1 X108.915 Y92.913 E14.06142
G1 X106.049 Y90.048 E14.15784
G1 X106.849 Y90.048 E14.17688
G1 X108.915 Y92.113 E14.24638
G1 X108.915 Y91.313 E14.26542
G1 X107.649 Y90.048 E14.30800
G1 X108.450 Y90.048 E14.32703
G1 X108.915 Y90.513 E14.34269
G1 X108.915 Y107.315 F7800.000
G1 F4800
G1 X103.846 Y102.246 E14.51324
G1 X103.846 Y103.046 E14.53228
G1 X108.915 Y108.115 E14.70283
G1 X108.915 Y108.915 E14.72186
G1 X103.846 Y103.846 E14.89241
G1 X103.846 Y104.647 E14.91145
G1 X108.915 Y109.715 E15.08199
G1 X108.915 Y109.952 E15.08764
G1 X108.352 Y109.952 E15.10103
G1 X103.846 Y105.447 E15.25264
G1 X103.846 Y106.247 E15.27168
G1 X107.552 Y109.952 E15.39637
G1 X106.752 Y109.952 E15.41541
G1 X103.846 Y107.047 E15.51318
G1 X103.846 Y107.847 E15.53221
G1 X105.952 Y109.952 E15.60306
G1 X105.152 Y109.952 E15.62210
G1 X103.846 Y108.647 E15.66602
G1 X103.846 Y109.447 E15.68506
G1 X104.352 Y109.952 E15.70207
G1 X104.312 Y109.952 E15.70302
G1 X104.312 Y109.912 E15.70397
G1 Z1.500 F7800.000
G1 X108.450 Y109.952 F7800.000
G1 F4800
G1 X108.915 Y109.487 E15.71963
G1 X108.915 Y108.687 E15.73867
G1 X107.649 Y109.952 E15.78125
G1 X106.849 Y109.952 E15.80029
G1 X108.915 Y107.887 E15.86979
G1 X108.915 Y107.087 E15.88883
G1 X106.049 Y109.952 E15.98525
G1 X105.249 Y109.952 E16.00429
G1 X108.915 Y106.287 E16.12764
G1 X108.915 Y105.487 E16.14667
G1 X104.449 Y109.952 E16.29694
G1 X103.846 Y109.952 E16.31128
G1 X103.846 Y109.755 E16.31598
G1 X108.915 Y104.686 E16.48652
G1 X108.915 Y103.886 E16.50556
G1 X103.846 Y108.955 E16.67611
G1 X103.846 Y108.155 E16.69515
G1 X108.915 Y103.086 E16.86569
G1 X108.915 Y102.286 E16.88473
G1 X103.846 Y107.355 E17.05528
G1 X103.846 Y106.555 E17.07431
G1 X108.915 Y101.486 E17.24486
G1 X108.915 Y100.686 E17.26390
G1 X103.846 Y105.755 E17.43445
G1 X103.846 Y104.954 E17.45348
G1 X108.915 Y99.886 E17.62403
G1 X108.915 Y99.086 E17.64307
G1 X103.846 Y104.154 E17.81361
G1 X103.846 Y103.354 E17.83265
G1 X108.915 Y98.286 E18.00320
G1 X108.915 Y97.486 E18.02223
G1 X103.846 Y102.554 E18.19278
G1 X103.846 Y102.324 E18.19827
G1 X103.277 Y102.324 E18.21182
G1 X108.915 Y96.686 E18.40153
G1 X108.915 Y95.886 E18.42057
G1 X102.477 Y102.324 E18.63720
G1 X101.677 Y102.324 E18.65623
G1 X108.915 Y95.086 E18.89979
G1 X108.915 Y94.285 E18.91883
G1 X100.877 Y102.324 E19.18930
G1 X100.077 Y102.324 E19.20834
G1 X103.881 Y98.519 E19.33636
G1 X103.081 Y98.519 E19.35540
G1 X99.277 Y102.324 E19.48343
G1 X98.476 Y102.324 E19.50247
G1 X102.281 Y98.519 E19.63049
G1 X101.481 Y98.519 E19.64953
G1 X97.676 Y102.324 E19.77756
G1 X96.876 Y102.324 E19.79659
G1 X100.681 Y98.519 E19.92462
G1 X99.881 Y98.519 E19.94366
G1 X96.076 Y102.324 E20.07168
G1 X95.688 Y102.324 E20.08091
G1 X95.688 Y102.712 E20.09014
G1 X91.085 Y107.315 E20.24504
G1 X91.085 Y106.515 E20.26407
G1 X99.081 Y98.519 E20.53312
G1 X98.281 Y98.519 E20.55216
G1 X91.085 Y105.715 E20.79429
G1 X91.085 Y104.914 E20.81333
G1 X97.481 Y98.519 E21.02853
G1 X96.681 Y98.519 E21.04757
G1 X91.085 Y104.114 E21.23586
G1 X91.085 Y103.314 E21.25489
G1 X96.154 Y98.246 E21.42544
G1 X96.154 Y97.446 E21.44448
G1 X91.085 Y102.514 E21.61502
G1 X91.085 Y101.714 E21.63406
G1 X96.154 Y96.646 E21.80461
G1 X96.154 Y95.846 E21.82365
G1 X91.085 Y100.914 E21.99419
G1 X91.085 Y100.114 E22.01323
G1 X96.154 Y95.046 E22.18378
G1 X96.154 Y94.246 E22.20281
G1 X91.085 Y99.314 E22.37336
G1 X91.085 Y98.514 E22.39240
G1 X96.154 Y93.445 E22.56295
G1 X96.154 Y92.645 E22.58198
G1 X91.085 Y97.714 E22.75253
G1 X91.085 Y96.914 E22.77157
G1 X96.154 Y91.845 E22.94211
G1 X96.154 Y91.045 E22.96115
G1 X91.085 Y96.114 E23.13170
G1 X91.085 Y95.314 E23.15073
G1 X96.154 Y90.245 E23.32128
G1 X96.154 Y90.048 E23.32598
G1 X95.551 Y90.048 E23.34032
G1 X91.085 Y94.513 E23.49059
G1 X91.085 Y93.713 E23.50962
G1 X94.751 Y90.048 E23.63297
G1 X93.951 Y90.048 E23.65201
G1 X91.085 Y92.913 E23.74843
G1 X91.085 Y92.113 E23.76747
G1 X93.151 Y90.048 E23.83697
G1 X92.351 Y90.048 E23.85601
G1 X91.085 Y91.313 E23.89859
G1 X91.085 Y90.513 E23.91763
G1 X91.551 Y90.048 E23.93329
G1 E21.93329 F2400.00000
G92 E0
G1 X104.352 Y90.048 F7800.000
G1 E2.00000 F2400.00000
G1 F4800
G1 X103.846 Y90.553 E2.01700
G1 X103.846 Y91.353 E2.03604
G1 X105.152 Y90.048 E2.07997
G1 X105.952 Y90.048 E2.09900
G1 X103.846 Y92.153 E2.16985
G1 X103.846 Y92.953 E2.18889
G1 X106.752 Y90.048 E2.28666
G1 X107.552 Y90.048 E2.30569
G1 X103.846 Y93.753 E2.43039
G1 X103.846 Y94.553 E2.44942
G1 X108.352 Y90.048 E2.60104
G1 X108.915 Y90.048 E2.61442
G1 X108.915 Y90.285 E2.62007
G1 X103.846 Y95.353 E2.79062
G1 X103.846 Y96.154 E2.80966
G1 X108.915 Y91.085 E2.98020
G1 X108.915 Y91.885 E2.99924
G1 X103.846 Y96.954 E3.16979
G1 X103.846 Y97.754 E3.18883
G1 X108.915 Y92.685 E3.35937
G1 X108.915 Y93.485 E3.37841
G1 X103.846 Y98.554 E3.54896
G1 X96.154 Y102.246 F7800.000
G1 F4800
G1 X96.154 Y103.046 E3.56799
G1 X91.085 Y108.115 E3.73854
G1 X91.085 Y108.915 E3.75758
G1 X96.154 Y103.846 E3.92813
G1 X96.154 Y104.647 E3.94716
G1 X91.085 Y109.715 E4.11771
G1 X91.085 Y109.952 E4.12336
G1 X91.648 Y109.952 E4.13675
G1 X96.154 Y105.447 E4.28836
G1 X96.154 Y106.247 E4.30740
G1 X92.448 Y109.952 E4.43209
G1 X93.248 Y109.952 E4.45112
G1 X96.154 Y107.047 E4.54889
G1 X96.154 Y107.847 E4.56793
G1 X94.048 Y109.952 E4.63878
G1 X94.848 Y109.952 E4.65781
G1 X96.154 Y108.647 E4.70174
G1 X96.154 Y109.447 E4.72077
G1 X95.648 Y109.952 E4.73778
G1 Z1.800 F7800.000
G1 X91.085 Y109.487 F7800.000
G1 F4800
G1 X91.551 Y109.952 E4.75344
G1 X92.351 Y109.952 E4.77247
G1 X91.085 Y108.687 E4.81506
G1 X91.085 Y107.887 E4.83409
G1 X93.151 Y109.952 E4.90360
G1 X93.951 Y109.952 E4.92263
G1 X91.085 Y107.087 E5.01906
G1 X91.085 Y106.287 E5.03809
G1 X94.751 Y109.952 E5.16144
G1 X95.551 Y109.952 E5.18048
G1 X91.085 Y105.487 E5.33075
G1 X91.085 Y104.686 E5.34978
G1 X96.154 Y109.755 E5.52033
G1 X96.154 Y108.955 E5.53937
G1 X91.085 Y103.886 E5.70992
G1 X91.085 Y103.086 E5.72895
G1 X96.154 Y108.155 E5.89950
G1 X96.154 Y107.355 E5.91854
G1 X91.085 Y102.286 E6.08908
G1 X91.085 Y101.486 E6.10812
G1 X96.154 Y106.555 E6.27867
G1 X96.154 Y105.754 E6.29771
G1 X91.085 Y100.686 E6.46825
G1 X91.085 Y99.886 E6.48729
G1 X96.154 Y104.954 E6.65784
G1 X96.154 Y104.154 E6.67687
G1 X91.085 Y99.086 E6.84742
G1 X91.085 Y98.286 E6.86646
G1 X96.154 Y103.354 E7.03701
G1 X96.154 Y102.554 E7.05604
G1 X91.085 Y97.486 E7.22659
G1 X91.085 Y96.686 E7.24563
G1 X96.723 Y102.324 E7.43534
G1 X97.523 Y102.324 E7.45437
G1 X91.085 Y95.886 E7.67101
G1 X91.085 Y95.086 E7.69004
G1 X98.323 Y102.324 E7.93360
G1 X99.123 Y102.324 E7.95263
G1 X91.085 Y94.285 E8.22311
G1 X91.085 Y93.485 E8.24215
G1 X96.154 Y98.554 E8.41270
G1 X96.154 Y97.754 E8.43173
G1 X91.085 Y92.685 E8.60228
G1 X91.085 Y91.885 E8.62132
G1 X96.154 Y96.954 E8.79186
G1 X96.154 Y96.154 E8.81090
G1 X91.085 Y91.085 E8.98145
G1 X91.085 Y90.285 E9.00048
G1 X96.154 Y95.353 E9.17103
G1 X96.154 Y94.553 E9.19007
G1 X91.648 Y90.048 E9.34168
G1 X92.448 Y90.048 E9.36072
G1 X96.154 Y93.753 E9.48541
G1 X96.154 Y92.953 E9.50445
G1 X93.248 Y90.048 E9.60221
G1 X94.048 Y90.048 E9.62125
G1 X96.154 Y92.153 E9.69210
G1 X96.154 Y91.353 E9.71113
G1 X94.848 Y90.048 E9.75506
G1 X95.648 Y90.048 E9.77410
G1 X96.154 Y90.553 E9.79110
G1 X96.119 Y98.519 F7800.000
G1 F4800
G1 X99.923 Y102.324 E9.91913
G1 X100.723 Y102.324 E9.93816
G1 X96.919 Y98.519 E10.06619
G1 X97.719 Y98.519 E10.08523
G1 X101.524 Y102.324 E10.21325
G1 X102.324 Y102.324 E10.23229
G1 X98.519 Y98.519 E10.36032
G1 X99.319 Y98.519 E10.37935
G1 X103.124 Y102.324 E10.50738
G1 X103.924 Y102.324 E10.52642
G1 X100.119 Y98.519 E10.65445
G1 X100.919 Y98.519 E10.67348
G1 X108.915 Y106.515 E10.94253
G1 X108.915 Y105.715 E10.96157
G1 X101.719 Y98.519 E11.20370
G1 X102.519 Y98.519 E11.22273
G1 X108.915 Y104.914 E11.43794
G1 X108.915 Y104.114 E11.45698
G1 X103.319 Y98.519 E11.64526
G1 X103.846 Y98.519 E11.65781
G1 X103.846 Y98.246 E11.66430
G1 X108.915 Y103.314 E11.83485
G1 X108.915 Y102.514 E11.85388
G1 X103.846 Y97.446 E12.02443
G1 X103.846 Y96.646 E12.04347
G1 X108.915 Y101.714 E12.21402
G1 X108.915 Y100.914 E12.23305
G1 X103.846 Y95.846 E12.40360
G1 X103.846 Y95.046 E12.42264
G1 X108.915 Y100.114 E12.59318
G1 X108.915 Y99.314 E12.61222
G1 X103.846 Y94.245 E12.78277
G1 X103.846 Y93.445 E12.80181
G1 X108.915 Y98.514 E12.97235
G1 X108.915 Y97.714 E12.99139
G1 X103.846 Y92.645 E13.16194
G1 X103.846 Y91.845 E13.18097
G1 X108.915 Y96.914 E13.35152
G1 X108.915 Y96.114 E13.37056
G1 X103.846 Y91.045 E13.54111
G1 X103.846 Y90.245 E13.56014
G1 X108.915 Y95.314 E13.73069
G1 X108.915 Y94.513 E13.74973
G1 X104.449 Y90.048 E13.90000
G1 X105.249 Y90.048 E13.91903
G1 X108.915 Y93.713 E14.04238
G1 X108.915 Y92.913 E14.06142
G1 X106.049 Y90.048 E14.15784
G1 X106.849 Y90.048 E14.17688
G1 X108.915 Y92.113 E14.24638
G1 X108.915 Y91.313 E14.26542
G1 X107.649 Y90.048 E14.30800
G1 X108.450 Y90.048 E14.32703
G1 X108.915 Y90.513 E14.34269
G1 X108.915 Y107.315 F7800.000
G1 F4800
G1 X103.846 Y102.246 E14.51324
G1 X103.846 Y103.046 E14.53228
G1 X108.915 Y108.115 E14.70283
G1 X108.915 Y108.915 E14.72186
G1 X103.846 Y103.846 E14.89241
G1 X103.846 Y104.647 E14.91145
G1 X108.915 Y109.715 E15.08199
G1 X108.915 Y109.952 E15.08764
G1 X108.352 Y109.952 E15.10103
G1 X103.846 Y105.447 E15.25264
G1 X103.846 Y106.247 E15.27168
G1 X107.552 Y109.952 E15.39637
G1 X106.752 Y109.952 E15.41541
G1 X103.846 Y107.047 E15.51318
G1 X103.846 Y107.847 E15.53221
G1 X105.952 Y109.952 E15.60306
G1 X105.152 Y109.952 E15.62210
G1 X103.846 Y108.647 E15.66602
G1 X103.846 Y109.447 E15.68506
G1 X104.352 Y109.952 E15.70207
G1 X104.312 Y109.952 E15.70302
G1 X104.312 Y109.912 E15.70397
G1 Z2.100 F7800.000
G1 X108.450 Y109.952 F7800.000
G1 F4800
G1 X108.915 Y109.487 E15.71963
G1 X108.915 Y108.687 E15.73867
G1 X107.649 Y109.952 E15.78125
G1 X106.849 Y109.952 E15.80029
G1 X108.915 Y107.887 E15.86979
G1 X108.915 Y107.087 E15.88883
G1 X106.049 Y109.952 E15.98525
G1 X105.249 Y109.952 E16.00429
G1 X108.915 Y106.287 E16.12764
G1 X108.915 Y105.487 E16.14667
G1 X104.449 Y109.952 E16.29694
G1 X103.846 Y109.952 E16.31128
G1 X103.846 Y109.755 E16.31598
G1 X108.915 Y104.686 E16.48652
G1 X108.915 Y103.886 E16.50556
G1 X103.846 Y108.955 E16.67611
G1 X103.846 Y108.155 E16.69515
G1 X108.915 Y103.086 E16.86569
G1 X108.915 Y102.286 E16.88473
G1 X103.846 Y107.355 E17.05528
G1 X103.846 Y106.555 E17.07431
G1 X108.915 Y101.486 E17.24486
G1 X108.915 Y100.686 E17.26390
G1 X103.846 Y105.755 E17.43445
G1 X103.846 Y104.954 E17.45348
G1 X108.915 Y99.886 E17.62403
G1 X108.915 Y99.086 E17.64307
G1 X103.846 Y104.154 E17.81361
G1 X103.846 Y103.354 E17.83265
G1 X108.915 Y98.286 E18.00320
G1 X108.915 Y97.486 E18.02223
G1 X103.846 Y102.554 E18.19278
G1 X103.846 Y102.324 E18.19827
G1 X103.277 Y102.324 E18.21182
G1 X108.915 Y96.686 E18.40153
G1 X108.915 Y95.886 E18.42057
G1 X102.477 Y102.324 E18.63720
G1 X101.677 Y102.324 E18.65623
G1 X108.915 Y95.086 E18.89979
G1 X108.915 Y94.285 E18.91883
G1 X100.877 Y102.324 E19.18930
G1 X100.077 Y102.324 E19.20834
G1 X103.881 Y98.519 E19.33636
G1 X103.081 Y98.519 E19.35540
G1 X99.277 Y102.324 E19.48343
G1 X98.476 Y102.324 E19.50247
G1 X102.281 Y98.519 E19.63049
G1 X101.481 Y98.519 E19.64953
G1 X97.676 Y102.324 E19.77756
G1 X96.876 Y102.324 E19.79659
G1 X100.681 Y98.519 E19.92462
G1 X99.881 Y98.519 E19.94366
G1 X96.076 Y102.324 E20.07168
G1 X95.688 Y102.324 E20.08091
G1 X95.688 Y102.712 E20.09014
G1 X91.085 Y107.315 E20.24504
G1 X91.085 Y106.515 E20.26407
G1 X99.081 Y98.519 E20.53312
G1 X98.281 Y98.519 E20.55216
G1 X91.085 Y105.715 E20.79429
G1 X91.085 Y104.914 E20.81333
G1 X97.481 Y98.519 E21.02853
G1 X96.681 Y98.519 E21.04757
G1 X91.085 Y104.114 E21.23586
G1 X91.085 Y103.314 E21.25489
G1 X96.154 Y98.246 E21.42544
G1 X96.154 Y97.446 E21.44448
G1 X91.085 Y102.514 E21.61502
G1 X91.085 Y101.714 E21.63406
G1 X96.154 Y96.646 E21.80461
G1 X96.154 Y95.846 E21.82365
G1 X91.085 Y100.914 E21.99419
G1 X91.085 Y100.114 E22.01323
G1 X96.154 Y95.046 E22.18378
G1 X96.154 Y94.246 E22.20281
G1 X91.085 Y99.314 E22.37336
G1 X91.085 Y98.514 E22.39240
G1 X96.154 Y93.445 E22.56295
G1 X96.154 Y92.645 E22.58198
G1 X91.085 Y97.714 E22.75253
G1 X91.085 Y96.914 E22.77157
G1 X96.154 Y91.845 E22.94211
G1 X96.154 Y91.045 E22.96115
G1 X91.085 Y96.114 E23.13170
G1 X91.085 Y95.314 E23.15073
G1 X96.154 Y90.245 E23.32128
G1 X96.154 Y90.048 E23.32598
G1 X95.551 Y90.048 E23.34032
G1 X91.085 Y94.513 E23.49059
G1 X91.085 Y93.713 E23.50962
G1 X94.751 Y90.048 E23.63297
G1 X93.951 Y90.048 E23.65201
G1 X91.085 Y92.913 E23.74843
G1 X91.085 Y92.113 E23.76747
G1 X93.151 Y90.048 E23.83697
G1 X92.351 Y90.048 E23.85601
G1 X91.085 Y91.313 E23.89859
G1 X91.085 Y90.513 E23.91763
G1 X91.551 Y90.048 E23.93329
G1 E21.93329 F2400.00000
G92 E0
G1 X104.352 Y90.048 F7800.000
G1 E2.00000 F2400.00000
G1 F4800
G1 X103.846 Y90.553 E2.01700
G1 X103.846 Y91.353 E2.03604
G1 X105.152 Y90.048 E2.07997
G1 X105.952 Y90.048 E2.09900
G1 X103.846 Y92.153 E2.16985
G1 X103.846 Y92.953 E2.18889
G1 X106.752 Y90.048 E2.28666
G1 X107.552 Y90.048 E2.30569
G1 X103.846 Y93.753 E2.43039
G1 X103.846 Y94.553 E2.44942
G1 X108.352 Y90.048 E2.60104
G1 X108.915 Y90.048 E2.61442
G1 X108.915 Y90.285 E2.62007
G1 X103.846 Y95.353 E2.79062
G1 X103.846 Y96.154 E2.80966
G1 X108.915 Y91.085 E2.98020
G1 X108.915 Y91.885 E2.99924
G1 X103.846 Y96.954 E3.16979
G1 X103.846 Y97.754 E3.18883
G1 X108.915 Y92.685 E3.35937
G1 X108.915 Y93.485 E3.37841
G1 X103.846 Y98.554 E3.54896
G1 X96.154 Y102.246 F7800.000
G1 F4800
G1 X96.154 Y103.046 E3.56799
G1 X91.085 Y108.115 E3.73854
G1 X91.085 Y108.915 E3.75758
G1 X96.154 Y103.846 E3.92813
G1 X96.154 Y104.647 E3.94716
G1 X91.085 Y109.715 E4.11771
G1 X91.085 Y109.952 E4.12336
G1 X91.648 Y109.952 E4.13675
G1 X96.154 Y105.447 E4.28836
G1 X96.154 Y106.247 E4.30740
G1 X92.448 Y109.952 E4.43209
G1 X93.248 Y109.952 E4.45112
G1 X96.154 Y107.047 E4.54889
G1 X96.154 Y107.847 E4.56793
G1 X94.048 Y109.952 E4.63878
G1 X94.848 Y109.952 E4.65781
G1 X96.154 Y108.647 E4.70174
G1 X96.154 Y109.447 E4.72077
G1 X95.648 Y109.952 E4.73778
G1 Z2.400 F7800.000
G1 X91.085 Y109.487 F7800.000
G1 F4800
G1 X91.551 Y109.952 E4.75344
G1 X92.351 Y109.952 E4.77247
G1 X91.085 Y108.687 E4.81506
G1 X91.085 Y107.887 E4.83409
G1 X93.151 Y109.952 E4.90360
G1 X93.951 Y109.952 E4.92263
G1 X91.085 Y107.087 E5.01906
G1 X91.085 Y106.287 E5.03809
G1 X94.751 Y109.952 E5.16144
G1 X95.551 Y109.952 E5.18048
G1 X91.085 Y105.487 E5.33075
G1 X91.085 Y104.686 E5.34978
G1 X96.154 Y109.755 E5.52033
G1 X96.154 Y108.955 E5.53937
G1 X91.085 Y103.886 E5.70992
G1 X91.085 Y103.086 E5.72895
G1 X96.154 Y108.155 E5.89950
G1 X96.154 Y107.355 E5.91854
G1 X91.085 Y102.286 E6.08908
G1 X91.085 Y101.486 E6.10812
G1 X96.154 Y106.555 E6.27867
G1 X96.154 Y105.754 E6.29771
G1 X91.085 Y100.686 E6.46825
G1 X91.085 Y99.886 E6.48729
G1 X96.154 Y104.954 E6.65784
G1 X96.154 Y104.154 E6.67687
G1 X91.085 Y99.086 E6.84742
G1 X91.085 Y98.286 E6.86646
G1 X96.154 Y103.354 E7.03701
G1 X96.154 Y102.554 E7.05604
G1 X91.085 Y97.486 E7.22659
G1 X91.085 Y96.686 E7.24563
G1 X96.723 Y102.324 E7.43534
G1 X97.523 Y102.324 E7.45437
G1 X91.085 Y95.886 E7.67101
G1 X91.085 Y95.086 E7.69004
G1 X98.323 Y102.324 E7.93360
G1 X99.123 Y102.324 E7.95263
G1 X91.085 Y94.285 E8.22311
G1 X91.085 Y93.485 E8.24215
G1 X96.154 Y98.554 E8.41270
G1 X96.154 Y97.754 E8.43173
G1 X91.085 Y92.685 E8.60228
G1 X91.085 Y91.885 E8.62132
G1 X96.154 Y96.954 E8.79186
G1 X96.154 Y96.154 E8.81090
G1 X91.085 Y91.085 E8.98145
G1 X91.085 Y90.285 E9.00048
G1 X96.154 Y95.353 E9.17103
G1 X96.154 Y94.553 E9.19007
G1 X91.648 Y90.048 E9.34168
G1 X92.448 Y90.048 E9.36072
G1 X96.154 Y93.753 E9.48541
G1 X96.154 Y92.953 E9.50445
G1 X93.248 Y90.048 E9.60221
G1 X94.048 Y90.048 E9.62125
G1 X96.154 Y92.153 E9.69210
G1 X96.154 Y91.353 E9.71113
G1 X94.848 Y90.048 E9.75506
G1 X95.648 Y90.048 E9.77410
G1 X96.154 Y90.553 E9.79110
G1 X96.119 Y98.519 F7800.000
G1 F4800
G1 X99.923 Y102.324 E9.91913
G1 X100.723 Y102.324 E9.93816
G1 X96.919 Y98.519 E10.06619
G1 X97.719 Y98.519 E10.08523
G1 X101.524 Y102.324 E10.21325
G1 X102.324 Y102.324 E10.23229
G1 X98.519 Y98.519 E10.36032
G1 X99.319 Y98.519 E10.37935
G1 X103.124 Y102.324 E10.50738
G1 X103.924 Y102.324 E10.52642
G1 X100.119 Y98.519 E10.65445
G1 X100.919 Y98.519 E10.67348
G1 X108.915 Y106.515 E10.94253
G1 X108.915 Y105.715 E10.96157
G1 X101.719 Y98.519 E11.20370
G1 X102.519 Y98.519 E11.22273
G1 X108.915 Y104.914 E11.43794
G1 X108.915 Y104.114 E11.45698
G1 X103.319 Y98.519 E11.64526
G1 X103.846 Y98.519 E11.65781
G1 X103.846 Y98.246 E11.66430
G1 X108.915 Y103.314 E11.83485
G1 X108.915 Y102.514 E11.85388
G1 X103.846 Y97.446 E12.02443
G1 X103.846 Y96.646 E12.04347
G1 X108.915 Y101.714 E12.21402
G1 X108.915 Y100.914 E12.23305
G1 X103.846 Y95.846 E12.40360
G1 X103.846 Y95.046 E12.42264
G1 X108.915 Y100.114 E12.59318
G1 X108.915 Y99.314 E12.61222
G1 X103.846 Y94.245 E12.78277
G1 X103.846 Y93.445 E12.80181
G1 X108.915 Y98.514 E12.97235
G1 X108.915 Y97.714 E12.99139
G1 X103.846 Y92.645 E13.16194
G1 X103.846 Y91.845 E13.18097
G1 X108.915 Y96.914 E13.35152
G1 X108.915 Y96.114 E13.37056
G1 X103.846 Y91.045 E13.54111
G1 X103.846 Y90.245 E13.56014
G1 X108.915 Y95.314 E13.73069
G1 X108.915 Y94.513 E13.74973
G1 X104.449 Y90.048 E13.90000
G1 X105.249 Y90.048 E13.91903
G1 X108.915 Y93.713 E14.04238
G1 X108.915 Y92.913 E14.06142
G1 X106.049 Y90.048 E14.15784
G1 X106.849 Y90.048 E14.17688
G1 X108.915 Y92.113 E14.24638
G1 X108.915 Y91.313 E14.26542
G1 X107.649 Y90.048 E14.30800
G1 X108.450 Y90.048 E14.32703
G1 X108.915 Y90.513 E14.34269
G1 X108.915 Y107.315 F7800.000
G1 F4800
G1 X103.846 Y102.246 E14.51324
G1 X103.846 Y103.046 E14.53228
G1 X108.915 Y108.115 E14.70283
G1 X108.915 Y108.915 E14.72186
G1 X103.846 Y103.846 E14.89241
G1 X103.846 Y104.647 E14.91145
G1 X108.915 Y109.715 E15.08199
G1 X108.915 Y109.952 E15.08764
G1 X108.352 Y109.952 E15.10103
G1 X103.846 Y105.447 E15.25264
G1 X103.846 Y106.247 E15.27168
G1 X107.552 Y109.952 E15.39637
G1 X106.752 Y109.952 E15.41541
G1 X103.846 Y107.047 E15.51318
G1 X103.846 Y107.847 E15.53221
G1 X105.952 Y109.952 E15.60306
G1 X105.152 Y109.952 E15.62210
G1 X103.846 Y108.647 E15.66602
G1 X103.846 Y109.447 E15.68506
G1 X104.352 Y109.952 E15.70207
G1 X104.312 Y109.952 E15.70302
G1 X104.312 Y109.912 E15.70397
G1 Z2.700 F7800.000
G1 X108.450 Y109.952 F7800.000
G1 F4800
G1 X108.915 Y109.487 E15.71963
G1 X108.915 Y108.687 E15.73867
G1 X107.649 Y109.952 E15.78125
G1 X106.849 Y109.952 E15.80029
G1 X108.915 Y107.887 E15.86979
G1 X108.915 Y107.087 E15.88883
G1 X106.049 Y109.952 E15.98525
G1 X105.249 Y109.952 E16.00429
G1 X108.915 Y106.287 E16.12764
G1 X108.915 Y105.487 E16.14667
G1 X104.449 Y109.952 E16.29694
G1 X103.846 Y109.952 E16.31128
G1 X103.846 Y109.755 E16.31598
G1 X108.915 Y104.686 E16.48652
G1 X108.915 Y103.886 E16.50556
G1 X103.846 Y108.955 E16.67611
G1 X103.846 Y108.155 E16.69515
G1 X108.915 Y103.086 E16.86569
G1 X108.915 Y102.286 E16.88473
G1 X103.846 Y107.355 E17.05528
G1 X103.846 Y106.555 E17.07431
G1 X108.915 Y101.486 E17.24486
G1 X108.915 Y100.686 E17.26390
G1 X103.846 Y105.755 E17.43445
G1 X103.846 Y104.954 E17.45348
G1 X108.915 Y99.886 E17.62403
G1 X108.915 Y99.086 E17.64307
G1 X103.846 Y104.154 E17.81361
G1 X103.846 Y103.354 E17.83265
G1 X108.915 Y98.286 E18.00320
G1 X108.915 Y97.486 E18.02223
G1 X103.846 Y102.554 E18.19278
G1 X103.846 Y102.324 E18.19827
G1 X103.277 Y102.324 E18.21182
G1 X108.915 Y96.686 E18.40153
G1 X108.915 Y95.886 E18.42057
G1 X102.477 Y102.324 E18.63720
G1 X101.677 Y102.324 E18.65623
G1 X108.915 Y95.086 E18.89979
G1 X108.915 Y94.285 E18.91883
G1 X100.877 Y102.324 E19.18930
G1 X100.077 Y102.324 E19.20834
G1 X103.881 Y98.519 E19.33636
G1 X103.081 Y98.519 E19.35540
G1 X99.277 Y102.324 E19.48343
G1 X98.476 Y102.324 E19.50247
G1 X102.281 Y98.519 E19.63049
G1 X101.481 Y98.519 E19.64953
G1 X97.676 Y102.324 E19.77756
G1 X96.876 Y102.324 E19.79659
G1 X100.681 Y98.519 E19.92462
G1 X99.881 Y98.519 E19.94366
G1 X96.076 Y102.324 E20.07168
G1 X95.688 Y102.324 E20.08091
G1 X95.688 Y102.712 E20.09014
G1 X91.085 Y107.315 E20.24504
G1 X91.085 Y106.515 E20.26407
G1 X99.081 Y98.519 E20.53312
G1 X98.281 Y98.519 E20.55216
G1 X91.085 Y105.715 E20.79429
G1 X91.085 Y104.914 E20.81333
G1 X97.481 Y98.519 E21.02853
G1 X96.681 Y98.519 E21.04757
G1 X91.085 Y104.114 E21.23586
G1 X91.085 Y103.314 E21.25489
G1 X96.154 Y98.246 E21.42544
G1 X96.154 Y97.446 E21.44448
G1 X91.085 Y102.514 E21.61502
G1 X91.085 Y101.714 E21.63406
G1 X96.154 Y96.646 E21.80461
G1 X96.154 Y95.846 E21.82365
G1 X91.085 Y100.914 E21.99419
G1 X91.085 Y100.114 E22.01323
G1 X96.154 Y95.046 E22.18378
G1 X96.154 Y94.246 E22.20281
G1 X91.085 Y99.314 E22.37336
G1 X91.085 Y98.514 E22.39240
G1 X96.154 Y93.445 E22.56295
G1 X96.154 Y92.645 E22.58198
G1 X91.085 Y97.714 E22.75253
G1 X91.085 Y96.914 E22.77157
G1 X96.154 Y91.845 E22.94211
G1 X96.154 Y91.045 E22.96115
G1 X91.085 Y96.114 E23.13170
G1 X91.085 Y95.314 E23.15073
G1 X96.154 Y90.245 E23.32128
G1 X96.154 Y90.048 E23.32598
G1 X95.551 Y90.048 E23.34032
G1 X91.085 Y94.513 E23.49059
G1 X91.085 Y93.713 E23.50962
G1 X94.751 Y90.048 E23.63297
G1 X93.951 Y90.048 E23.65201
G1 X91.085 Y92.913 E23.74843
G1 X91.085 Y92.113 E23.76747
G1 X93.151 Y90.048 E23.83697
G1 X92.351 Y90.048 E23.85601
G1 X91.085 Y91.313 E23.89859
G1 X91.085 Y90.513 E23.91763
G1 X91.551 Y90.048 E23.93329
G1 E21.93329 F2400.00000
G92 E0
G1 X104.352 Y90.048 F7800.000
G1 E2.00000 F2400.00000
G1 F4800
G1 X103.846 Y90.553 E2.01700
G1 X103.846 Y91.353 E2.03604
G1 X105.152 Y90.048 E2.07997
G1 X105.952 Y90.048 E2.09900
G1 X103.846 Y92.153 E2.16985
G1 X103.846 Y92.953 E2.18889
G1 X106.752 Y90.048 E2.28666
G1 X107.552 Y90.048 E2.30569
G1 X103.846 Y93.753 E2.43039
G1 X103.846 Y94.553 E2.44942
G1 X108.352 Y90.048 E2.60104
G1 X108.915 Y90.048 E2.61442
G1 X108.915 Y90.285 E2.62007
G1 X103.846 Y95.353 E2.79062
G1 X103.846 Y96.154 E2.80966
G1 X108.915 Y91.085 E2.98020
G1 X108.915 Y91.885 E2.99924
G1 X103.846 Y96.954 E3.16979
G1 X103.846 Y97.754 E3.18883
G1 X108.915 Y92.685 E3.35937
G1 X108.915 Y93.485 E3.37841
G1 X103.846 Y98.554 E3.54896
G1 X96.154 Y102.246 F7800.000
G1 F4800
G1 X96.154 Y103.046 E3.56799
G1 X91.085 Y108.115 E3.73854
G1 X91.085 Y108.915 E3.75758
G1 X96.154 Y103.846 E3.92813
G1 X96.154 Y104.647 E3.94716
G1 X91.085 Y109.715 E4.11771
G1 X91.085 Y109.952 E4.12336
G1 X91.648 Y109.952 E4.13675
G1 X96.154 Y105.447 E4.28836
G1 X96.154 Y106.247 E4.30740
G1 X92.448 Y109.952 E4.43209
G1 X93.248 Y109.952 E4.45112
G1 X96.154 Y107.047 E4.54889
G1 X96.154 Y107.847 E4.56793
G1 X94.048 Y109.952 E4.63878
G1 X94.848 Y109.952 E4.65781
G1 X96.154 Y108.647 E4.70174
G1 X96.154 Y109.447 E4.72077
G1 X95.648 Y109.952 E4.73778
G1 Z3.000 F7800.000
G1 E2.73778 F2400.00000
G92 E0
G1 X91.085 Y109.487 F7800.000
G1 E2.00000 F2400.00000
G1 F4800
G1 X91.551 Y109.952 E2.01566
G1 X92.351 Y109.952 E2.03470
G1 X91.085 Y108.687 E2.07728
G1 X91.085 Y107.887 E2.09631
G1 X93.151 Y109.952 E2.16582
G1 X93.951 Y109.952 E2.18485
G1 X91.085 Y107.087 E2.28128
G1 X91.085 Y106.287 E2.30032
G1 X94.751 Y109.952 E2.42366
G1 X95.551 Y109.952 E2.44270
G1 X91.085 Y105.487 E2.59297
G1 X91.085 Y104.686 E2.61201
G1 X96.154 Y109.755 E2.78255
G1 X96.154 Y108.955 E2.80159
G1 X91.085 Y103.886 E2.97214
G1 X91.085 Y103.086 E2.99117
G1 X96.154 Y108.155 E3.16172
G1 X96.154 Y107.355 E3.18076
G1 X91.085 Y102.286 E3.35131
G1 X91.085 Y101.486 E3.37034
G1 X96.154 Y106.555 E3.54089
G1 X96.154 Y105.754 E3.55993
G1 X91.085 Y100.686 E3.73048
G1 X91.085 Y99.886 E3.74951
G1 X96.154 Y104.954 E3.92006
G1 X96.154 Y104.154 E3.93910
G1 X91.085 Y99.086 E4.10964
G1 X91.085 Y98.286 E4.12868
G1 X96.154 Y103.354 E4.29923
G1 X96.154 Y102.554 E4.31826
G1 X91.085 Y97.486 E4.48881
G1 X91.085 Y96.686 E4.50785
G1 X96.723 Y102.324 E4.69756
G1 X97.523 Y102.324 E4.71660
G1 X91.085 Y95.886 E4.93323
G1 X91.085 Y95.086 E4.95227
G1 X98.323 Y102.324 E5.19582
G1 X99.123 Y102.324 E5.21486
G1 X91.085 Y94.285 E5.48533
G1 X91.085 Y93.485 E5.50437
G1 X96.154 Y98.554 E5.67492
G1 X96.154 Y97.754 E5.69395
G1 X91.085 Y92.685 E5.86450
G1 X91.085 Y91.885 E5.88354
G1 X96.154 Y96.954 E6.05409
G1 X96.154 Y96.154 E6.07312
G1 X91.085 Y91.085 E6.24367
G1 X91.085 Y90.285 E6.26271
G1 X96.154 Y95.353 E6.43325
G1 X96.154 Y94.553 E6.45229
G1 X91.648 Y90.048 E6.60390
G1 X92.448 Y90.048 E6.62294
G1 X96.154 Y93.753 E6.74763
G1 X96.154 Y92.953 E6.76667
G1 X93.248 Y90.048 E6.86444
G1 X94.048 Y90.048 E6.88347
G1 X96.154 Y92.153 E6.95432
G1 X96.154 Y91.353 E6.97336
G1 X94.848 Y90.048 E7.01728
G1 X95.648 Y90.048 E7.03632
G1 X96.154 Y90.553 E7.05332
G1 E5.05332 F2400.00000
G92 E0
G1 X96.119 Y98.519 F7800.000
G1 E2.00000 F2400.00000
G1 F4800
G1 X99.923 Y102.324 E2.12803
G1 X100.723 Y102.324 E2.14706
G1 X96.919 Y98.519 E2.27509
G1 X97.719 Y98.519 E2.29413
G1 X101.524 Y102.324 E2.42215
G1 X102.324 Y102.324 E2.44119
G1 X98.519 Y98.519 E2.56922
G1 X99.319 Y98.519 E2.58826
G1 X103.124 Y102.324 E2.71628
G1 X103.924 Y102.324 E2.73532
G1 X100.119 Y98.519 E2.86335
G1 X100.919 Y98.519 E2.88238
G1 X108.915 Y106.515 E3.15143
G1 X108.915 Y105.715 E3.17047
G1 X101.719 Y98.519 E3.41260
G1 X102.519 Y98.519 E3.43164
G1 X108.915 Y104.914 E3.64684
G1 X108.915 Y104.114 E3.66588
G1 X103.319 Y98.519 E3.85416
G1 X103.846 Y98.519 E3.86671
G1 X103.846 Y98.246 E3.87320
G1 X108.915 Y103.314 E4.04375
G1 X108.915 Y102.514 E4.06278
G1 X103.846 Y97.446 E4.23333
G1 X103.846 Y96.646 E4.25237
G1 X108.915 Y101.714 E4.42292
G1 X108.915 Y100.914 E4.44195
G1 X103.846 Y95.846 E4.61250
G1 X103.846 Y95.046 E4.63154
G1 X108.915 Y100.114 E4.80209
G1 X108.915 Y99.314 E4.82112
G1 X103.846 Y94.245 E4.99167
G1 X103.846 Y93.445 E5.01071
G1 X108.915 Y98.514 E5.18125
G1 X108.915 Y97.714 E5.20029
G1 X103.846 Y92.645 E5.37084
G1 X103.846 Y91.845 E5.38988
G1 X108.915 Y96.914 E5.56042
G1 X108.915 Y96.114 E5.57946
G1 X103.846 Y91.045 E5.75001
G1 X103.846 Y90.245 E5.76904
G1 X108.915 Y95.314 E5.93959
G1 X108.915 Y94.513 E5.95863
G1 X104.449 Y90.048 E6.10890
G1 X105.249 Y90.048 E6.12793
G1 X108.915 Y93.713 E6.25128
G1 X108.915 Y92.913 E6.27032
G1 X106.049 Y90.048 E6.36674
G1 X106.849 Y90.048 E6.38578
G1 X108.915 Y92.113 E6.45528
G1 X108.915 Y91.313 E6.47432
G1 X107.649 Y90.048 E6.51690
G1 X108.450 Y90.048 E6.53593
G1 X108.915 Y90.513 E6.55159
G1 E4.55159 F2400.00000
G92 E0
G1 X108.915 Y107.315 F7800.000
G1 E2.00000 F2400.00000
G1 F4800
G1 X103.846 Y102.246 E2.17055
G1 X103.846 Y103.046 E2.18958
G1 X108.915 Y108.115 E2.36013
G1 X108.915 Y108.915 E2.37917
G1 X103.846 Y103.846 E2.54972
G1 X103.846 Y104.647 E2.56875
G1 X108.915 Y109.715 E2.73930
G1 X108.915 Y109.952 E2.74495
G1 X108.352 Y109.952 E2.75834
G1 X103.846 Y105.447 E2.90995
G1 X103.846 Y106.247 E2.92899
G1 X107.552 Y109.952 E3.05368
G1 X106.752 Y109.952 E3.07272
G1 X103.846 Y107.047 E3.17048
G1 X103.846 Y107.847 E3.18952
G1 X105.952 Y109.952 E3.26037
G1 X105.152 Y109.952 E3.27941
G1 X103.846 Y108.647 E3.32333
G1 X103.846 Y109.447 E3.34237
G1 X104.352 Y109.952 E3.35937
G1 X104.312 Y109.952 E3.36033
G1 X104.312 Y109.912 E3.36128
G1 E1.36128 F2400.00000
G92 E0
M107
; Filament-specific end gcode 
;END gcode for filament

M104 S0 ; turn off temperature
G28 X0  ; home X axis
M84     ; disable motors

M140 S0 ; set bed temperature
; filament used = 109.1mm (0.8cm3)
; total filament cost = 0.0

; avoid_crossing_perimeters = 0
; bed_shape = 0x0,200x0,200x200,0x200
; bed_temperature = 0
; before_layer_gcode = 
; between_objects_gcode = 
; bridge_acceleration = 0
; bridge_fan_speed = 100
; brim_connections_width = 0
; brim_width = 0
; complete_objects = 0
; cooling = 1
; default_acceleration = 0
; disable_fan_first_layers = 3
; duplicate_distance = 6
; end_filament_gcode = "; Filament-specific end gcode \n;END gcode for filament\n"
; end_gcode = M104 S0 ; turn off temperature\nG28 X0  ; home X axis\nM84     ; disable motors\n
; extruder_clearance_height = 20
; extruder_clearance_radius = 20
; extruder_offset = 0x0
; extrusion_axis = E
; extrusion_multiplier = 1
; fan_always_on = 0
; fan_below_layer_time = 60
; filament_colour = #FFFFFF
; filament_cost = 0
; filament_density = 0
; filament_diameter = 3
; filament_max_volumetric_speed = 0
; filament_notes = ""
; first_layer_acceleration = 0
; first_layer_bed_temperature = 0
; first_layer_extrusion_width = 200%
; first_layer_speed = 30
; first_layer_temperature = 205
; gcode_arcs = 0
; gcode_comments = 0
; gcode_flavor = reprap
; has_heatbed = 1
; infill_acceleration = 0
; infill_first = 0
; interior_brim_width = 0
; layer_gcode = 
; max_fan_speed = 100
; max_layer_height = 0.3
; max_print_speed = 80
; max_volumetric_speed = 0
; min_fan_speed = 35
; min_layer_height = 0.15
; min_print_speed = 10
; min_skirt_length = 0
; notes = 
; nozzle_diameter = 0.5
; only_retract_when_crossing_perimeters = 1
; ooze_prevention = 0
; output_filename_format = [input_filename_base].gcode
; perimeter_acceleration = 0
; post_process = 
; pressure_advance = 0
; printer_notes = 
; resolution = 0
; retract_before_travel = 2
; retract_layer_change = 0
; retract_length = 2
; retract_length_toolchange = 10
; retract_lift = 0
; retract_lift_above = 0
; retract_lift_below = 0
; retract_restart_extra = 0
; retract_restart_extra_toolchange = 0
; retract_speed = 40
; skirt_distance = 6
; skirt_height = 1
; skirts = 0
; slowdown_below_layer_time = 5
; spiral_vase = 0
; standby_temperature_delta = -5
; start_filament_gcode = "; Filament gcode\n"
; start_gcode = G28 ; home all axes\nG1 Z5 F5000 ; lift nozzle\n
; temperature = 200
; threads = 8
; toolchange_gcode = 
; travel_speed = 130
; use_firmware_retraction = 0
; use_relative_e_distances = 0
; use_set_and_wait_bed = 0
; use_set_and_wait_extruder = 0
; use_volumetric_e = 0
; vibration_limit = 0
; wipe = 0
; z_offset = 0
; z_steps_per_mm = 0
; adaptive_slicing = 0
; adaptive_slicing_quality = 75%
; dont_support_bridges = 1
; extrusion_width = 0
; first_layer_height = 0.3
; infill_only_where_needed = 0
; interface_shells = 0
; layer_height = 0.3
; match_horizontal_surfaces = 0
; raft_layers = 0
; regions_overlap = 0
; seam_position = aligned
; sequential_print_priority = 0
; support_material = 0
; support_material_angle = 0
; support_material_buildplate_only = 0
; support_material_contact_distance = 0.2
; support_material_enforce_layers = 0
; support_material_extruder = 1
; support_material_extrusion_width = 0
; support_material_interface_extruder = 1
; support_material_interface_extrusion_width = 0
; support_material_interface_layers = 3
; support_material_interface_spacing = 0
; support_material_interface_speed = 100%
; support_material_max_layers = 0
; support_material_pattern = pillars
; support_material_spacing = 2.5
; support_material_speed = 60
; support_material_threshold = 60%
; xy_size_compensation = 0
; bottom_infill_pattern = rectilinear
; bottom_solid_layers = 0
; bridge_flow_ratio = 1
; bridge_speed = 60
; external_perimeter_extrusion_width = 0
; external_perimeter_speed = 50%
; external_perimeters_first = 0
; extra_perimeters = 1
; fill_angle = 45
; fill_density = 100%
; fill_gaps = 1
; fill_pattern = rectilinear
; gap_fill_speed = 20
; infill_every_layers = 1
; infill_extruder = 1
; infill_extrusion_width = 0
; infill_overlap = 55%
; infill_speed = 80
; overhangs = 1
; perimeter_extruder = 1
; perimeter_extrusion_width = 0
; perimeter_speed = 60
; perimeters = 0
; small_perimeter_speed = 15
; solid_infill_below_area = 70
; solid_infill_every_layers = 0
; solid_infill_extruder = 1
; solid_infill_extrusion_width = 0
; solid_infill_speed = 20
; thin_walls = 1
; top_infill_extrusion_width = 0
; top_infill_pattern = rectilinear
; top_solid_infill_speed = 15
; top_solid_layers = 0
