; generated by Slic3r 1.3.0 on 2020-10-21 at 16:02:32

; external perimeters extrusion width = 0.55mm (6.64mm^3/s)
; perimeters extrusion width = 0.52mm (12.53mm^3/s)
; infill extrusion width = 0.52mm (16.71mm^3/s)
; solid infill extrusion width = 0.52mm (4.18mm^3/s)
; top infill extrusion width = 0.52mm (3.13mm^3/s)

M107
M104 S205 ; set temperature
G28 ; home all axes
G1 Z5 F5000 ; lift nozzle

; Filament gcode

M109 S205 ; set temperature and wait for it to be reached
G21 ; set units to millimeters
G90 ; use absolute coordinates
M82 ; use absolute distances for extrusion
G92 E0
G1 Z0.500 F7800.000
G1 E-2.00000 F2400.00000
G92 E0
G1 X95.925 Y94.260 F7800.000
G1 E2.00000 F2400.00000
G1 F1800
G1 X95.410 Y94.774 E2.04591
G1 X95.076 Y95.153 E2.07781
G1 X94.679 Y95.690 E2.12001
G1 X94.295 Y96.351 E2.16824
G1 X94.182 Y96.603 E2.18571
G1 X98.021 Y92.764 E2.52854
G1 X98.350 Y92.609 E2.55150
G1 X99.010 Y92.376 E2.59568
G1 X93.822 Y97.564 E3.05892
G1 X93.762 Y97.750 E3.07128
G1 X93.631 Y98.357 E3.11047
G1 X99.820 Y92.167 E3.66315
G1 X100.537 Y92.052 E3.70901
G1 X93.525 Y99.063 E4.33517
G1 X93.491 Y99.339 E4.35272
G1 X93.476 Y99.713 E4.37636
G1 X101.199 Y91.990 E5.06606
G1 X101.828 Y91.961 E5.10584
G1 X93.457 Y100.332 E5.85338
G1 X93.479 Y100.911 E5.88996
G1 X102.424 Y91.966 E6.68875
G1 X102.985 Y92.006 E6.72425
G1 X99.544 Y95.448 E7.03155
G1 X100.077 Y95.214 E7.06831
G1 X100.506 Y95.086 E7.09659
G1 X103.529 Y92.064 E7.36649
G1 X104.041 Y92.152 E7.39931
G1 X101.231 Y94.962 E7.65021
G1 X101.863 Y94.931 E7.69015
G1 X104.533 Y92.261 E7.92858
G1 X105.003 Y92.392 E7.95938
G1 X102.441 Y94.954 E8.18813
G1 X102.981 Y95.015 E8.22244
G1 X105.450 Y92.545 E8.44295
G1 X105.586 Y92.592 E8.45198
G1 X105.883 Y92.714 E8.47227
G1 X103.487 Y95.110 E8.68625
G1 X103.964 Y95.234 E8.71738
G1 X106.298 Y92.899 E8.92584
G1 X106.546 Y93.018 E8.94319
G1 X106.546 Y93.252 E8.95797
G1 X104.415 Y95.384 E9.14829
G1 X104.841 Y95.558 E9.17737
G1 X106.546 Y93.853 E9.32964
G1 X106.546 Y94.454 E9.36758
G1 X105.248 Y95.752 E9.48346
G1 X105.637 Y95.964 E9.51143
G1 X106.546 Y95.055 E9.59259
G1 X106.546 Y95.656 E9.63053
G1 X106.012 Y96.190 E9.67823
G1 E7.67823 F2400.00000
G92 E0
G1 X98.299 Y96.692 F7800.000
G1 E2.00000 F2400.00000
G1 F1800
G1 X93.529 Y101.463 E2.42599
G1 X93.598 Y101.994 E2.45984
G1 X97.886 Y97.706 E2.84277
G1 X97.800 Y98.034 E2.86419
G1 X97.716 Y98.477 E2.89268
G1 X93.705 Y102.488 E3.25086
G1 X93.829 Y102.965 E3.28197
G1 X97.640 Y99.154 E3.62232
G1 X97.622 Y99.773 E3.66148
G1 X93.976 Y103.419 E3.98700
G1 X94.155 Y103.841 E4.01595
G1 X97.642 Y100.354 E4.32734
G1 X97.699 Y100.898 E4.36189
G1 X94.347 Y104.249 E4.66115
G1 X94.568 Y104.630 E4.68892
G1 X97.790 Y101.407 E4.97671
G1 X97.916 Y101.882 E5.00773
G1 X94.808 Y104.991 E5.28535
G1 X95.062 Y105.337 E5.31249
G1 X98.075 Y102.324 E5.58153
G1 X98.266 Y102.734 E5.61010
G1 X95.347 Y105.653 E5.87073
G1 X95.637 Y105.964 E5.89758
G1 X98.488 Y103.114 E6.15211
G1 X98.739 Y103.463 E6.17929
G1 X95.959 Y106.243 E6.42754
G1 X96.291 Y106.511 E6.45451
G1 X99.021 Y103.782 E6.69828
G1 X99.333 Y104.071 E6.72513
G1 X96.646 Y106.758 E6.96506
G1 X96.786 Y106.855 E6.97582
G1 X97.022 Y106.983 E6.99275
G1 X99.676 Y104.328 E7.22983
G1 X100.053 Y104.552 E7.25751
G1 X97.411 Y107.195 E7.49347
G1 X97.831 Y107.375 E7.52236
G1 X100.466 Y104.740 E7.75769
G1 X100.919 Y104.888 E7.78776
G1 X98.261 Y107.546 E8.02513
G1 X98.723 Y107.685 E8.05560
G1 X101.413 Y104.995 E8.29582
G1 X101.954 Y105.055 E8.33017
G1 X99.206 Y107.803 E8.57552
G1 X99.706 Y107.904 E8.60772
G1 X102.544 Y105.066 E8.86118
G1 X103.186 Y105.024 E8.90182
G1 X100.240 Y107.971 E9.16496
G1 X100.793 Y108.018 E9.20004
G1 X103.900 Y104.911 E9.47749
G1 X104.388 Y104.792 E9.50918
G1 X104.726 Y104.686 E9.53156
G1 X101.372 Y108.040 E9.83105
G1 X101.979 Y108.034 E9.86939
G1 X105.772 Y104.241 E10.20810
G1 X106.546 Y103.795 E10.26450
G1 X106.546 Y104.068 E10.28177
G1 X102.628 Y107.986 E10.63165
G1 X103.326 Y107.889 E10.67613
G1 X106.546 Y104.669 E10.96371
G1 X106.546 Y105.270 E11.00165
G1 X104.100 Y107.716 E11.22009
G1 X104.977 Y107.439 E11.27818
G1 X106.546 Y105.871 E11.41827
G1 X106.546 Y106.471 E11.45621
G1 X106.036 Y106.981 E11.50175
M104 S200 ; set temperature
G1 Z1.000 F7800.000
G1 X106.454 Y104.253 F7800.000
G1 F3104.29
G1 X106.104 Y103.903 E11.51637
G1 X105.729 Y104.130 E11.52930
G1 X106.454 Y104.854 E11.55956
G1 X106.454 Y105.455 E11.57732
G1 X105.339 Y104.340 E11.62388
G1 X104.932 Y104.534 E11.63721
G1 X106.454 Y106.056 E11.70079
G1 X106.454 Y106.657 E11.71855
G1 X104.505 Y104.708 E11.79997
G1 X104.055 Y104.859 E11.81399
G1 X106.202 Y107.006 E11.90371
G1 X105.791 Y107.196 E11.91709
G1 X103.578 Y104.983 E12.00954
G1 X103.071 Y105.076 E12.02479
G1 X105.359 Y107.365 E12.12041
G1 X104.904 Y107.511 E12.13453
G1 X102.530 Y105.137 E12.23370
G1 X101.954 Y105.161 E12.25076
G1 X104.436 Y107.644 E12.35450
G1 X103.950 Y107.758 E12.36926
G1 X101.322 Y105.131 E12.47904
G1 X100.966 Y105.083 E12.48965
G1 X100.595 Y105.004 E12.50087
G1 X103.437 Y107.846 E12.61962
G1 X102.895 Y107.905 E12.63573
G1 X99.634 Y104.644 E12.77201
G1 X95.727 Y105.545 F7800.000
G1 F3104.29
G1 X96.056 Y105.874 E12.78573
G1 X96.590 Y106.335 E12.80659
G1 X97.167 Y106.739 E12.82740
G1 X97.940 Y107.157 E12.85336
G1 X94.278 Y103.495 E13.00638
G1 X94.095 Y103.080 E13.01977
G1 X93.915 Y102.530 E13.03686
G1 X98.910 Y107.526 E13.24559
G1 X99.322 Y107.648 E13.25829
G1 X99.712 Y107.727 E13.27004
G1 X93.720 Y101.735 E13.52040
G1 X93.617 Y101.031 E13.54144
G1 X100.438 Y107.852 E13.82649
G1 X101.109 Y107.922 E13.84642
G1 X93.568 Y100.381 E14.16154
G1 X93.555 Y99.767 E14.17967
G1 X101.735 Y107.947 E14.52146
G1 X102.329 Y107.940 E14.53901
G1 X93.568 Y99.179 E14.90507
G1 X93.621 Y98.631 E14.92135
G1 X98.208 Y103.219 E15.11304
G1 X97.973 Y102.717 E15.12941
G1 X97.796 Y102.206 E15.14540
G1 X93.692 Y98.101 E15.31689
G1 X93.789 Y97.598 E15.33204
G1 X97.624 Y101.433 E15.49229
G1 X97.549 Y100.757 E15.51240
G1 X93.917 Y97.125 E15.66416
G1 X94.074 Y96.681 E15.67807
G1 X97.529 Y100.136 E15.82244
G1 X97.550 Y99.556 E15.83958
G1 X94.239 Y96.245 E15.97794
G1 X94.444 Y95.849 E15.99111
G1 X97.606 Y99.011 E16.12320
G1 X97.698 Y98.502 E16.13848
G1 X94.656 Y95.460 E16.26557
G1 X94.899 Y95.102 E16.27836
G1 X97.823 Y98.026 E16.40053
G1 X97.982 Y97.585 E16.41440
G1 X95.157 Y94.760 E16.53244
G1 X95.433 Y94.435 E16.54504
G1 X98.172 Y97.174 E16.65948
G1 X98.395 Y96.795 E16.67245
G1 X95.735 Y94.135 E16.78361
G1 X96.001 Y93.881 E16.79446
G1 X96.046 Y93.846 E16.79618
G1 X98.646 Y96.445 E16.90481
G1 X98.929 Y96.127 E16.91738
G1 X96.385 Y93.583 E17.02370
G1 X96.561 Y93.446 E17.03031
G1 X96.738 Y93.336 E17.03646
G1 X99.239 Y95.837 E17.14098
G1 X99.583 Y95.579 E17.15366
G1 X97.108 Y93.105 E17.25705
G1 X97.507 Y92.902 E17.27026
G1 X99.960 Y95.355 E17.37275
G1 X100.373 Y95.168 E17.38616
G1 X97.918 Y92.713 E17.48873
G1 X98.356 Y92.550 E17.50253
G1 X100.825 Y95.019 E17.60572
G1 X101.319 Y94.912 E17.62065
G1 X98.816 Y92.409 E17.72525
G1 X99.292 Y92.284 E17.73979
G1 X101.860 Y94.852 E17.84707
G1 X102.452 Y94.843 E17.86456
G1 X99.802 Y92.193 E17.97527
G1 X100.330 Y92.120 E17.99103
G1 X103.093 Y94.884 E18.10649
G1 X103.807 Y94.996 E18.12784
G1 X100.884 Y92.073 E18.24999
G1 X101.470 Y92.058 E18.26731
G1 X104.634 Y95.222 E18.39953
G1 X105.116 Y95.403 E18.41473
G1 X105.680 Y95.667 E18.43312
G1 X102.074 Y92.061 E18.58378
G1 X102.444 Y92.079 E18.59471
G1 X102.728 Y92.114 E18.60317
G1 X106.454 Y95.840 E18.75885
G1 X106.454 Y95.239 E18.77661
G1 X103.416 Y92.202 E18.90352
G1 X104.187 Y92.372 E18.92686
G1 X106.454 Y94.638 E19.02155
G1 X106.454 Y94.037 E19.03930
G1 X105.067 Y92.650 E19.09726
G1 X105.591 Y92.855 E19.11389
G1 X106.128 Y93.111 E19.13148
G1 X106.454 Y93.436 E19.14507
G1 Z1.500 F7800.000
G1 E17.14507 F2400.00000
G92 E0
G1 X106.107 Y96.099 F7800.000
G1 E2.00000 F2400.00000
G1 F3108.35
G1 X106.454 Y95.753 E2.01448
G1 X106.454 Y95.152 E2.03222
G1 X105.733 Y95.873 E2.06235
G1 X105.344 Y95.661 E2.07543
G1 X106.454 Y94.551 E2.12181
G1 X106.454 Y93.951 E2.13956
G1 X104.937 Y95.467 E2.20293
G1 X104.510 Y95.293 E2.21654
G1 X106.454 Y93.350 E2.29774
G1 X106.454 Y93.111 E2.30479
G1 X106.208 Y92.995 E2.31282
G1 X104.061 Y95.142 E2.40254
G1 X103.583 Y95.019 E2.41712
G1 X105.796 Y92.807 E2.50956
G1 X105.519 Y92.694 E2.51840
G1 X105.361 Y92.640 E2.52331
G1 X103.079 Y94.923 E2.61870
G1 X102.538 Y94.863 E2.63477
G1 X104.913 Y92.488 E2.73402
G1 X104.446 Y92.354 E2.74837
G1 X101.961 Y94.839 E2.85221
G1 X101.331 Y94.868 E2.87084
G1 X103.952 Y92.247 E2.98037
G1 X103.437 Y92.162 E2.99582
G1 X100.608 Y94.991 E3.11400
G1 X100.118 Y95.141 E3.12915
G1 X99.651 Y95.347 E3.14422
G1 X102.903 Y92.096 E3.28008
G1 X102.337 Y92.060 E3.29681
G1 X93.571 Y100.827 E3.66312
G1 X93.555 Y100.241 E3.68043
G1 X101.739 Y92.057 E4.02239
G1 X101.121 Y92.075 E4.04067
G1 X93.565 Y99.632 E4.35641
G1 X93.614 Y98.982 E4.37568
G1 X100.451 Y92.144 E4.66137
G1 X99.729 Y92.266 E4.68301
G1 X93.725 Y98.270 E4.93389
G1 X93.778 Y97.965 E4.94303
G1 X93.907 Y97.487 E4.95765
G1 X98.923 Y92.471 E5.16724
G1 X98.739 Y92.523 E5.17288
G1 X97.952 Y92.841 E5.19795
G1 X94.253 Y96.540 E5.35252
G1 X94.510 Y96.028 E5.36944
G1 X94.926 Y95.374 E5.39233
G1 X95.367 Y94.828 E5.41309
G1 X96.195 Y93.997 E5.44774
G1 X98.201 Y96.797 F7800.000
G1 F3108.35
G1 X93.618 Y101.381 E5.63925
G1 X93.696 Y101.903 E5.65484
G1 X97.791 Y97.808 E5.82593
G1 X97.715 Y98.094 E5.83468
G1 X97.623 Y98.577 E5.84918
G1 X93.795 Y102.405 E6.00913
G1 X93.920 Y102.880 E6.02366
G1 X97.549 Y99.252 E6.17527
G1 X97.529 Y99.872 E6.19360
G1 X94.069 Y103.332 E6.33818
G1 X94.243 Y103.759 E6.35180
G1 X97.550 Y100.451 E6.49000
G1 X97.607 Y100.995 E6.50615
G1 X94.445 Y104.157 E6.63828
G1 X94.660 Y104.543 E6.65132
G1 X97.699 Y101.504 E6.77830
G1 X97.825 Y101.979 E6.79282
G1 X94.900 Y104.904 E6.91504
G1 X94.976 Y105.019 E6.91912
G1 X95.161 Y105.243 E6.92771
G1 X97.984 Y102.420 E7.04566
G1 X98.175 Y102.830 E7.05902
G1 X95.434 Y105.571 E7.17354
G1 X95.731 Y105.874 E7.18609
G1 X98.397 Y103.208 E7.29748
G1 X98.649 Y103.557 E7.31020
G1 X96.048 Y106.159 E7.41889
G1 X96.388 Y106.419 E7.43155
G1 X98.932 Y103.876 E7.53782
G1 X99.242 Y104.166 E7.55037
G1 X96.741 Y106.667 E7.65489
G1 X97.116 Y106.893 E7.66782
G1 X99.587 Y104.422 E7.77107
G1 X99.963 Y104.646 E7.78401
G1 X97.508 Y107.101 E7.88659
G1 X97.920 Y107.290 E7.89999
G1 X100.377 Y104.833 E8.00263
G1 X100.830 Y104.981 E8.01671
G1 X98.363 Y107.448 E8.11977
G1 X98.816 Y107.595 E8.13385
G1 X101.323 Y105.088 E8.23861
G1 X101.864 Y105.148 E8.25469
G1 X99.295 Y107.717 E8.36206
G1 X99.808 Y107.804 E8.37745
G1 X102.456 Y105.157 E8.48808
G1 X103.097 Y105.116 E8.50705
G1 X100.331 Y107.883 E8.62264
G1 X100.891 Y107.923 E8.63924
G1 X103.813 Y105.002 E8.76131
G1 X104.310 Y104.881 E8.77642
G1 X104.637 Y104.778 E8.78655
G1 X101.467 Y107.948 E8.91898
G1 X102.073 Y107.943 E8.93687
G1 X105.686 Y104.330 E9.08783
G1 X106.454 Y103.887 E9.11402
G1 X106.454 Y104.163 E9.12215
G1 X102.727 Y107.890 E9.27789
G1 X103.426 Y107.791 E9.29877
G1 X106.454 Y104.763 E9.42527
G1 X106.454 Y105.364 E9.44301
G1 X104.200 Y107.618 E9.53720
G1 X104.643 Y107.498 E9.55078
G1 X105.064 Y107.354 E9.56392
G1 X106.454 Y105.965 E9.62198
G1 X106.454 Y106.565 E9.63973
G1 X106.128 Y106.890 E9.65332
M106 S255
G1 Z2.000 F7800.000
G1 E7.65332 F2400.00000
G92 E0
G1 X106.454 Y104.253 F7800.000
G1 E2.00000 F2400.00000
G1 F3104.58
G1 X106.103 Y103.903 E2.01463
G1 X105.729 Y104.129 E2.02756
G1 X106.454 Y104.854 E2.05785
G1 X106.454 Y105.455 E2.07560
G1 X105.340 Y104.341 E2.12215
G1 X104.932 Y104.534 E2.13547
G1 X106.454 Y106.056 E2.19905
G1 X106.454 Y106.657 E2.21680
G1 X104.506 Y104.709 E2.29819
G1 X104.055 Y104.859 E2.31223
G1 X106.206 Y107.010 E2.40211
G1 X105.788 Y107.193 E2.41560
G1 X103.578 Y104.983 E2.50794
G1 X103.072 Y105.077 E2.52316
G1 X105.358 Y107.364 E2.61869
G1 X104.909 Y107.515 E2.63270
G1 X102.532 Y105.138 E2.73202
G1 X101.953 Y105.161 E2.74912
G1 X104.438 Y107.645 E2.85293
G1 X103.948 Y107.757 E2.86777
G1 X101.322 Y105.130 E2.97751
G1 X100.937 Y105.080 E2.98898
G1 X100.595 Y105.005 E2.99930
G1 X103.434 Y107.843 E3.11789
G1 X102.897 Y107.907 E3.13386
G1 X99.632 Y104.642 E3.27028
G1 E1.27028 F2400.00000
G92 E0
G1 X95.719 Y105.537 F7800.000
G1 E2.00000 F2400.00000
G1 F3104.58
G1 X96.047 Y105.865 E2.01371
G1 X96.602 Y106.345 E2.03537
G1 X97.203 Y106.762 E2.05701
G1 X97.939 Y107.156 E2.08165
G1 X94.280 Y103.497 E2.23454
G1 X94.093 Y103.074 E2.24819
G1 X93.917 Y102.533 E2.26501
G1 X98.906 Y107.522 E2.47350
G1 X99.345 Y107.654 E2.48705
G1 X99.713 Y107.729 E2.49814
G1 X93.726 Y101.741 E2.74831
G1 X93.678 Y101.521 E2.75498
G1 X93.620 Y101.034 E2.76946
G1 X100.439 Y107.853 E3.05441
G1 X101.109 Y107.922 E3.07429
G1 X93.567 Y100.381 E3.38940
G1 X93.549 Y99.762 E3.40770
G1 X101.733 Y107.946 E3.74965
G1 X102.330 Y107.942 E3.76729
G1 X93.573 Y99.184 E4.13322
G1 X93.619 Y98.630 E4.14966
G1 X98.210 Y103.220 E4.34148
G1 X98.002 Y102.789 E4.35563
G1 X97.796 Y102.206 E4.37389
G1 X93.689 Y98.098 E4.54553
G1 X93.795 Y97.604 E4.56047
G1 X97.625 Y101.433 E4.72047
G1 X97.549 Y100.756 E4.74061
G1 X93.921 Y97.128 E4.89220
G1 X94.069 Y96.675 E4.90628
G1 X97.529 Y100.136 E5.05087
G1 X97.549 Y99.555 E5.06805
G1 X94.246 Y96.251 E5.20608
G1 X94.439 Y95.844 E5.21941
G1 X97.605 Y99.010 E5.35171
G1 X97.697 Y98.501 E5.36698
G1 X94.660 Y95.464 E5.49389
G1 X94.899 Y95.102 E5.50671
G1 X97.823 Y98.026 E5.62890
G1 X97.982 Y97.584 E5.64278
G1 X95.155 Y94.757 E5.76092
G1 X95.204 Y94.691 E5.76333
G1 X95.438 Y94.439 E5.77350
G1 X98.173 Y97.174 E5.88778
G1 X98.395 Y96.795 E5.90076
G1 X95.730 Y94.130 E6.01210
G1 X96.052 Y93.852 E6.02469
G1 X98.646 Y96.445 E6.13307
G1 X98.928 Y96.126 E6.14565
G1 X96.382 Y93.581 E6.25202
G1 X96.739 Y93.336 E6.26479
G1 X99.240 Y95.837 E6.36931
G1 X99.583 Y95.580 E6.38199
G1 X97.112 Y93.109 E6.48524
G1 X97.502 Y92.898 E6.49834
G1 X99.960 Y95.356 E6.60104
G1 X100.373 Y95.168 E6.61445
G1 X97.922 Y92.716 E6.71688
G1 X98.354 Y92.548 E6.73059
G1 X100.826 Y95.019 E6.83386
G1 X101.320 Y94.913 E6.84881
G1 X98.815 Y92.408 E6.95349
G1 X99.299 Y92.290 E6.96819
G1 X101.861 Y94.852 E7.07524
G1 X102.451 Y94.842 E7.09270
G1 X99.798 Y92.189 E7.20355
G1 X100.332 Y92.122 E7.21946
G1 X103.093 Y94.883 E7.33482
G1 X103.808 Y94.997 E7.35619
G1 X100.884 Y92.073 E7.47835
G1 X101.466 Y92.054 E7.49553
G1 X104.633 Y95.221 E7.62790
G1 X105.115 Y95.403 E7.64312
G1 X105.680 Y95.667 E7.66152
G1 X102.072 Y92.059 E7.81228
G1 X102.721 Y92.107 E7.83154
G1 X106.454 Y95.840 E7.98749
G1 X106.454 Y95.239 E8.00524
G1 X103.416 Y92.201 E8.13215
G1 X104.190 Y92.374 E8.15558
G1 X106.454 Y94.638 E8.25016
G1 X106.454 Y94.037 E8.26792
G1 X105.066 Y92.649 E8.32591
G1 X105.666 Y92.889 E8.34502
G1 X106.128 Y93.111 E8.36017
G1 X106.454 Y93.436 E8.37375
G1 E6.37375 F2400.00000
G92 E0
M107
; Filament-specific end gcode 
;END gcode for filament

M104 S0 ; turn off temperature
G28 X0  ; home X axis
M84     ; disable motors

M140 S0 ; set bed temperature
; filament used = 40.1mm (0.3cm3)
; total filament cost = 0.0

; avoid_crossing_perimeters = 0
; bed_shape = 0x0,200x0,200x200,0x200
; bed_temperature = 0
; before_layer_gcode = 
; between_objects_gcode = 
; bridge_acceleration = 0
; bridge_fan_speed = 100
; brim_connections_width = 0
; brim_width = 0
; complete_objects = 0
; cooling = 1
; default_acceleration = 0
; disable_fan_first_layers = 3
; duplicate_distance = 6
; end_filament_gcode = "; Filament-specific end gcode \n;END gcode for filament\n"
; end_gcode = M104 S0 ; turn off temperature\nG28 X0  ; home X axis\nM84     ; disable motors\n
; extruder_clearance_height = 20
; extruder_clearance_radius = 20
; extruder_offset = 0x0
; extrusion_axis = E
; extrusion_multiplier = 1
; fan_always_on = 0
; fan_below_layer_time = 60
; filament_colour = #FFFFFF
; filament_cost = 0
; filament_density = 0
; filament_diameter = 3
; filament_max_volumetric_speed = 0
; filament_notes = ""
; first_layer_acceleration = 0
; first_layer_bed_temperature = 0
; first_layer_extrusion_width = 200%
; first_layer_speed = 30
; first_layer_temperature = 205
; gcode_arcs = 0
; gcode_comments = 0
; gcode_flavor = reprap
; has_heatbed = 1
; infill_acceleration = 0
; infill_first = 0
; interior_brim_width = 0
; layer_gcode = 
; max_fan_speed = 100
; max_layer_height = 0.3
; max_print_speed = 80
; max_volumetric_speed = 0
; min_fan_speed = 35
; min_layer_height = 0.15
; min_print_speed = 10
; min_skirt_length = 0
; notes = 
; nozzle_diameter = 0.5
; only_retract_when_crossing_perimeters = 1
; ooze_prevention = 0
; output_filename_format = [input_filename_base].gcode
; perimeter_acceleration = 0
; post_process = 
; pressure_advance = 0
; printer_notes = 
; resolution = 0
; retract_before_travel = 2
; retract_layer_change = 0
; retract_length = 2
; retract_length_toolchange = 10
; retract_lift = 0
; retract_lift_above = 0
; retract_lift_below = 0
; retract_restart_extra = 0
; retract_restart_extra_toolchange = 0
; retract_speed = 40
; skirt_distance = 6
; skirt_height = 1
; skirts = 0
; slowdown_below_layer_time = 5
; spiral_vase = 0
; standby_temperature_delta = -5
; start_filament_gcode = "; Filament gcode\n"
; start_gcode = G28 ; home all axes\nG1 Z5 F5000 ; lift nozzle\n
; temperature = 200
; threads = 8
; toolchange_gcode = 
; travel_speed = 130
; use_firmware_retraction = 0
; use_relative_e_distances = 0
; use_set_and_wait_bed = 0
; use_set_and_wait_extruder = 0
; use_volumetric_e = 0
; vibration_limit = 0
; wipe = 0
; z_offset = 0
; z_steps_per_mm = 0
; adaptive_slicing = 0
; adaptive_slicing_quality = 75%
; dont_support_bridges = 1
; extrusion_width = 0
; first_layer_height = 0.5
; infill_only_where_needed = 0
; interface_shells = 0
; layer_height = 0.5
; match_horizontal_surfaces = 0
; raft_layers = 0
; regions_overlap = 0
; seam_position = aligned
; sequential_print_priority = 0
; support_material = 0
; support_material_angle = 0
; support_material_buildplate_only = 0
; support_material_contact_distance = 0.2
; support_material_enforce_layers = 0
; support_material_extruder = 1
; support_material_extrusion_width = 0
; support_material_interface_extruder = 1
; support_material_interface_extrusion_width = 0
; support_material_interface_layers = 3
; support_material_interface_spacing = 0
; support_material_interface_speed = 100%
; support_material_max_layers = 0
; support_material_pattern = pillars
; support_material_spacing = 2.5
; support_material_speed = 60
; support_material_threshold = 60%
; xy_size_compensation = 0
; bottom_infill_pattern = rectilinear
; bottom_solid_layers = 0
; bridge_flow_ratio = 1
; bridge_speed = 60
; external_perimeter_extrusion_width = 0
; external_perimeter_speed = 50%
; external_perimeters_first = 0
; extra_perimeters = 1
; fill_angle = 45
; fill_density = 100%
; fill_gaps = 1
; fill_pattern = rectilinear
; gap_fill_speed = 20
; infill_every_layers = 1
; infill_extruder = 1
; infill_extrusion_width = 0
; infill_overlap = 55%
; infill_speed = 80
; overhangs = 1
; perimeter_extruder = 1
; perimeter_extrusion_width = 0
; perimeter_speed = 60
; perimeters = 0
; small_perimeter_speed = 15
; solid_infill_below_area = 70
; solid_infill_every_layers = 0
; solid_infill_extruder = 1
; solid_infill_extrusion_width = 0
; solid_infill_speed = 20
; thin_walls = 1
; top_infill_extrusion_width = 0
; top_infill_pattern = rectilinear
; top_solid_infill_speed = 15
; top_solid_layers = 0
