; generated by Slic3r 1.3.0 on 2019-11-07 at 11:09:14

; external perimeters extrusion width = 0.55mm (4.37mm^3/s)
; perimeters extrusion width = 0.70mm (11.44mm^3/s)
; infill extrusion width = 0.63mm (13.45mm^3/s)
; solid infill extrusion width = 0.70mm (3.81mm^3/s)
; top infill extrusion width = 0.70mm (2.86mm^3/s)

M107
M104 S205 ; set temperature
G28 ; home all axes
G1 Z5 F5000 ; lift nozzle

; Filament gcode

M109 S205 ; set temperature and wait for it to be reached
G21 ; set units to millimeters
G90 ; use absolute coordinates
M82 ; use absolute distances for extrusion
G92 E0
G1 Z0.300 F7800.000
G1 E-2.00000 F2400.00000
G92 E0
G1 X93.754 Y92.559 F7800.000
G1 E2.00000 F2400.00000
G1 F1800
G1 X93.338 Y92.976 E2.01345
G1 X93.338 Y93.737 E2.03080
G1 X94.515 Y92.559 E2.06879
G1 X95.275 Y92.559 E2.08614
G1 X93.338 Y94.497 E2.14866
G1 X93.338 Y95.257 E2.16601
G1 X96.035 Y92.559 E2.25307
G1 X96.796 Y92.559 E2.27042
G1 X93.338 Y96.018 E2.38201
G1 X93.338 Y96.778 E2.39936
G1 X97.091 Y93.024 E2.52050
G1 X97.091 Y93.784 E2.53785
G1 X93.338 Y97.538 E2.65899
G1 X93.338 Y98.299 E2.67633
G1 X97.091 Y94.545 E2.79747
G1 X97.091 Y95.305 E2.81482
G1 X93.338 Y99.059 E2.93596
G1 X93.338 Y99.819 E2.95331
G1 X97.091 Y96.065 E3.07445
G1 X97.091 Y96.826 E3.09180
G1 X93.338 Y100.580 E3.21294
G1 X93.338 Y101.340 E3.23029
G1 X97.091 Y97.586 E3.35142
G1 X97.091 Y98.347 E3.36877
G1 X93.338 Y102.100 E3.48991
G1 X93.338 Y102.861 E3.50726
G1 X97.285 Y98.913 E3.63466
G1 X98.046 Y98.913 E3.65201
G1 X93.338 Y103.621 E3.80394
G1 X93.338 Y104.381 E3.82129
G1 X98.806 Y98.913 E3.99776
G1 X99.566 Y98.913 E4.01511
G1 X96.760 Y101.719 E4.10567
G1 X97.521 Y101.719 E4.12302
G1 X100.327 Y98.913 E4.21357
G1 X101.087 Y98.913 E4.23092
G1 X98.281 Y101.719 E4.32148
G1 X99.041 Y101.719 E4.33883
G1 X101.848 Y98.913 E4.42938
G1 X102.608 Y98.913 E4.44673
G1 X99.802 Y101.719 E4.53729
G1 X100.562 Y101.719 E4.55464
G1 X106.662 Y95.619 E4.75149
G1 X106.662 Y96.379 E4.76884
G1 X101.322 Y101.719 E4.94117
G1 X102.083 Y101.719 E4.95852
G1 X106.662 Y97.139 E5.10630
G1 X106.662 Y97.900 E5.12365
G1 X102.843 Y101.719 E5.24690
G1 X102.909 Y101.719 E5.24840
G1 X102.909 Y102.414 E5.26425
G1 X106.662 Y98.660 E5.38539
G1 X106.662 Y99.420 E5.40274
G1 X102.909 Y103.174 E5.52388
G1 X102.909 Y103.935 E5.54123
G1 X106.662 Y100.181 E5.66237
G1 X106.662 Y100.941 E5.67972
G1 X102.909 Y104.695 E5.80085
G1 X102.909 Y105.455 E5.81820
G1 X106.662 Y101.701 E5.93934
G1 X106.662 Y102.462 E5.95669
G1 X102.909 Y106.216 E6.07783
G1 X102.909 Y106.976 E6.09518
G1 X106.662 Y103.222 E6.21632
G1 X106.662 Y103.982 E6.23367
G1 X103.204 Y107.441 E6.34526
G1 X103.965 Y107.441 E6.36261
G1 X106.662 Y104.743 E6.44967
G1 X106.662 Y105.503 E6.46702
G1 X104.725 Y107.441 E6.52954
G1 X105.485 Y107.441 E6.54689
G1 X106.662 Y106.263 E6.58487
G1 X106.662 Y107.024 E6.60222
G1 X106.246 Y107.441 E6.61567
G1 E4.61567 F2400.00000
G92 E0
G1 X102.909 Y98.612 F7800.000
G1 E2.00000 F2400.00000
G1 F1800
G1 X106.662 Y94.858 E2.12114
G1 X106.662 Y94.098 E2.13849
G1 X102.909 Y97.852 E2.25963
G1 X102.909 Y97.091 E2.27698
G1 X106.662 Y93.338 E2.39811
G1 X106.662 Y92.577 E2.41546
G1 X102.909 Y96.331 E2.53660
G1 X102.909 Y95.571 E2.55395
G1 X105.920 Y92.559 E2.65113
G1 X105.160 Y92.559 E2.66848
G1 X102.909 Y94.810 E2.74111
G1 X102.909 Y94.050 E2.75846
G1 X104.399 Y92.559 E2.80657
G1 X103.639 Y92.559 E2.82392
G1 X102.909 Y93.290 E2.84748
G1 X102.909 Y92.976 E2.85464
G1 X103.222 Y92.976 E2.86180
G1 E0.86180 F2400.00000
G92 E0
G1 X93.338 Y104.381 F7800.000
G1 E2.00000 F2400.00000
G1 F1800
G1 X93.338 Y105.142 E2.01735
G1 X97.091 Y101.388 E2.13849
G1 X97.091 Y102.148 E2.15584
G1 X93.338 Y105.902 E2.27698
G1 X93.338 Y106.662 E2.29433
G1 X97.091 Y102.909 E2.41546
G1 X97.091 Y103.669 E2.43281
G1 X93.338 Y107.423 E2.55395
G1 X93.338 Y107.441 E2.55436
G1 X94.080 Y107.441 E2.57130
G1 X97.091 Y104.429 E2.66847
G1 X97.091 Y105.190 E2.68582
G1 X94.841 Y107.441 E2.75846
G1 X95.601 Y107.441 E2.77581
G1 X97.091 Y105.950 E2.82391
G1 X97.091 Y106.710 E2.84126
G1 X96.361 Y107.441 E2.86483
M104 S200 ; set temperature
G1 Z0.600 F7800.000
G1 X93.843 Y107.429 F7800.000
G1 F1200
G1 X93.349 Y106.935 E2.88383
G1 X93.349 Y106.029 E2.90845
G1 X94.749 Y107.429 E2.96228
G1 X95.655 Y107.429 E2.98690
G1 X93.349 Y105.123 E3.07555
G1 X93.349 Y104.218 E3.10017
G1 X96.560 Y107.429 E3.22363
G1 X97.080 Y107.429 E3.23776
G1 X97.080 Y107.044 E3.24825
G1 X93.349 Y103.312 E3.39170
G1 X93.349 Y102.406 E3.41632
G1 X97.080 Y106.138 E3.55977
G1 X97.080 Y105.232 E3.58439
G1 X93.349 Y101.500 E3.72784
G1 X93.349 Y100.595 E3.75246
G1 X97.080 Y104.326 E3.89591
G1 X97.080 Y103.421 E3.92053
G1 X93.349 Y99.689 E4.06398
G1 X93.349 Y98.783 E4.08860
G1 X97.080 Y102.515 E4.23205
G1 X97.080 Y101.708 E4.25398
G1 X97.179 Y101.708 E4.25667
G1 X93.349 Y97.877 E4.40392
G1 X93.349 Y96.972 E4.42854
G1 X98.085 Y101.708 E4.61060
G1 X98.991 Y101.708 E4.63522
G1 X93.349 Y96.066 E4.85210
G1 X93.349 Y95.160 E4.87672
G1 X97.080 Y98.892 E5.02017
G1 X97.080 Y97.986 E5.04479
G1 X93.349 Y94.254 E5.18824
G1 X93.349 Y93.349 E5.21286
G1 X97.080 Y97.080 E5.35631
G1 X97.080 Y96.175 E5.38093
G1 X93.476 Y92.571 E5.51947
G1 X94.382 Y92.571 E5.54409
G1 X97.080 Y95.269 E5.64782
G1 X97.080 Y94.363 E5.67244
G1 X95.288 Y92.571 E5.74134
G1 X96.194 Y92.571 E5.76596
G1 X97.080 Y93.457 E5.80005
G1 E3.80005 F2400.00000
G92 E0
G1 X98.991 Y101.708 F7800.000
G1 E2.00000 F2400.00000
G1 F1200
G1 X99.896 Y101.708 E2.02462
G1 X97.112 Y98.924 E2.13164
G1 X98.018 Y98.924 E2.15626
G1 X100.802 Y101.708 E2.26327
G1 X101.708 Y101.708 E2.28789
G1 X98.924 Y98.924 E2.39491
G1 X99.830 Y98.924 E2.41953
G1 X102.614 Y101.708 E2.52655
G1 E0.52655 F2400.00000
G92 E0
G1 X103.414 Y107.037 F7800.000
G1 E2.00000 F2400.00000
G1 F1200
G1 X103.414 Y107.429 E2.01067
G1 X103.806 Y107.429 E2.02133
G1 X102.920 Y106.543 E2.05542
G1 X102.920 Y105.637 E2.08004
G1 X104.712 Y107.429 E2.14895
G1 X105.618 Y107.429 E2.17357
G1 X102.920 Y104.731 E2.27729
G1 X102.920 Y103.825 E2.30191
G1 X106.524 Y107.429 E2.44045
G1 X106.651 Y107.429 E2.44392
G1 X106.651 Y106.651 E2.46507
G1 X102.920 Y102.920 E2.60852
G1 X102.920 Y102.014 E2.63314
G1 X106.651 Y105.746 E2.77659
G1 X106.651 Y104.840 E2.80121
G1 X100.735 Y98.924 E3.02862
G1 X101.641 Y98.924 E3.05324
G1 X106.651 Y103.934 E3.24584
G1 X106.651 Y103.028 E3.27046
G1 X102.547 Y98.924 E3.42824
G1 X102.920 Y98.924 E3.43837
G1 X102.920 Y98.391 E3.45286
G1 X106.651 Y102.123 E3.59630
G1 X106.651 Y101.217 E3.62092
G1 X102.920 Y97.485 E3.76437
G1 X102.920 Y96.579 E3.78899
G1 X106.651 Y100.311 E3.93244
G1 X106.651 Y99.405 E3.95706
G1 X102.920 Y95.674 E4.10051
G1 X102.920 Y94.768 E4.12513
G1 X106.651 Y98.500 E4.26858
G1 X106.651 Y97.594 E4.29320
G1 X102.920 Y93.862 E4.43665
G1 X102.920 Y92.956 E4.46127
G1 X106.651 Y96.688 E4.60472
G1 X106.651 Y95.782 E4.62934
G1 X103.440 Y92.571 E4.75280
G1 X104.345 Y92.571 E4.77742
G1 X106.651 Y94.877 E4.86607
G1 X106.651 Y93.971 E4.89069
G1 X105.251 Y92.571 E4.94452
G1 X106.157 Y92.571 E4.96914
G1 X106.651 Y93.065 E4.98815
G1 Z0.900 F7800.000
G1 X103.312 Y93.065 F7800.000
G1 F1200
G1 X102.920 Y93.065 E4.99881
G1 X102.920 Y93.457 E5.00948
G1 X103.806 Y92.571 E5.04357
G1 X104.712 Y92.571 E5.06819
G1 X102.920 Y94.363 E5.13710
G1 X102.920 Y95.269 E5.16172
G1 X105.618 Y92.571 E5.26544
G1 X106.524 Y92.571 E5.29006
G1 X102.920 Y96.175 E5.42860
G1 X102.920 Y97.080 E5.45322
G1 X106.651 Y93.349 E5.59667
G1 X106.651 Y94.254 E5.62129
G1 X102.920 Y97.986 E5.76474
G1 X102.920 Y98.892 E5.78936
G1 X106.651 Y95.160 E5.93281
G1 X106.651 Y96.066 E5.95743
G1 X101.009 Y101.708 E6.17431
G1 X101.915 Y101.708 E6.19893
G1 X106.651 Y96.972 E6.38100
G1 X106.651 Y97.877 E6.40562
G1 X102.821 Y101.708 E6.55286
G1 X102.920 Y101.708 E6.55555
G1 X102.920 Y102.515 E6.57748
G1 X106.651 Y98.783 E6.72093
G1 X106.651 Y99.689 E6.74555
G1 X102.920 Y103.421 E6.88900
G1 X102.920 Y104.326 E6.91362
G1 X106.651 Y100.595 E7.05707
G1 X106.651 Y101.500 E7.08169
G1 X102.920 Y105.232 E7.22514
G1 X102.920 Y106.138 E7.24976
G1 X106.651 Y102.406 E7.39321
G1 X106.651 Y103.312 E7.41783
G1 X102.920 Y107.044 E7.56128
G1 X102.920 Y107.429 E7.57177
G1 X103.440 Y107.429 E7.58590
G1 X106.651 Y104.218 E7.70936
G1 X106.651 Y105.123 E7.73398
G1 X104.345 Y107.429 E7.82263
G1 X105.251 Y107.429 E7.84725
G1 X106.651 Y106.029 E7.90108
G1 X106.651 Y106.935 E7.92570
G1 X106.157 Y107.429 E7.94471
G1 E5.94471 F2400.00000
G92 E0
G1 X100.104 Y101.708 F7800.000
G1 E2.00000 F2400.00000
G1 F1200
G1 X102.888 Y98.924 E2.10702
G1 X101.982 Y98.924 E2.13164
G1 X99.198 Y101.708 E2.23865
G1 X98.292 Y101.708 E2.26327
G1 X101.076 Y98.924 E2.37029
G1 X100.170 Y98.924 E2.39491
G1 X97.386 Y101.708 E2.50193
G1 X96.586 Y101.708 E2.52369
G1 X96.586 Y102.508 E2.54544
G1 X96.194 Y107.429 F7800.000
G1 F1200
G1 X97.080 Y106.543 E2.57953
G1 X97.080 Y105.637 E2.60415
G1 X95.288 Y107.429 E2.67306
G1 X94.382 Y107.429 E2.69768
G1 X97.080 Y104.731 E2.80140
G1 X97.080 Y103.825 E2.82602
G1 X93.476 Y107.429 E2.96456
G1 X93.349 Y107.429 E2.96803
G1 X93.349 Y106.651 E2.98918
G1 X97.080 Y102.920 E3.13263
G1 X97.080 Y102.014 E3.15725
G1 X93.349 Y105.746 E3.30070
G1 X93.349 Y104.840 E3.32532
G1 X99.265 Y98.924 E3.55273
G1 X98.359 Y98.924 E3.57735
G1 X93.349 Y103.934 E3.76995
G1 X93.349 Y103.028 E3.79457
G1 X97.453 Y98.924 E3.95235
G1 X97.080 Y98.924 E3.96248
G1 X97.080 Y98.391 E3.97697
G1 X93.349 Y102.123 E4.12042
G1 X93.349 Y101.217 E4.14504
G1 X97.080 Y97.485 E4.28849
G1 X97.080 Y96.579 E4.31311
G1 X93.349 Y100.311 E4.45655
G1 X93.349 Y99.405 E4.48117
G1 X97.080 Y95.674 E4.62462
G1 X97.080 Y94.768 E4.64924
G1 X93.349 Y98.500 E4.79269
G1 X93.349 Y97.594 E4.81731
G1 X97.080 Y93.862 E4.96076
G1 X97.080 Y92.956 E4.98538
G1 X93.349 Y96.688 E5.12883
G1 X93.349 Y95.782 E5.15345
G1 X96.560 Y92.571 E5.27692
G1 X95.655 Y92.571 E5.30154
G1 X93.349 Y94.877 E5.39018
G1 X93.349 Y93.971 E5.41480
G1 X94.749 Y92.571 E5.46863
G1 X93.843 Y92.571 E5.49325
G1 X93.349 Y93.065 E5.51226
M106 S255
G1 Z1.200 F7800.000
G1 X97.103 Y93.139 F7800.000
G1 F2677.02
G1 X96.512 Y92.548 E5.53216
G1 X95.521 Y92.548 E5.55574
G1 X97.103 Y94.130 E5.60898
G1 X97.103 Y95.121 E5.63256
G1 X94.530 Y92.548 E5.71916
G1 X93.539 Y92.548 E5.74274
G1 X97.103 Y96.112 E5.86268
G1 X97.103 Y97.103 E5.88626
G1 X93.326 Y93.326 E6.01337
G1 X93.326 Y94.317 E6.03695
G1 X97.103 Y98.094 E6.16406
G1 X97.103 Y99.085 E6.18764
G1 X93.326 Y95.308 E6.31475
G1 X93.326 Y96.299 E6.33833
G1 X98.758 Y101.731 E6.52111
G1 X97.767 Y101.731 E6.54469
G1 X93.326 Y97.290 E6.69412
G1 X93.326 Y98.281 E6.71770
G1 X97.103 Y102.058 E6.84481
G1 X97.103 Y103.050 E6.86839
G1 X93.326 Y99.272 E6.99549
G1 X93.326 Y100.263 E7.01907
G1 X97.103 Y104.041 E7.14618
G1 X97.103 Y105.032 E7.16976
G1 X93.326 Y101.254 E7.29687
G1 X93.326 Y102.245 E7.32045
G1 X97.103 Y106.023 E7.44756
G1 X97.103 Y107.014 E7.47114
G1 X93.326 Y103.236 E7.59825
G1 X93.326 Y104.227 E7.62183
G1 X96.551 Y107.452 E7.73035
G1 X95.560 Y107.452 E7.75393
G1 X93.326 Y105.218 E7.82910
G1 X93.326 Y106.209 E7.85268
G1 X94.569 Y107.452 E7.89451
G1 X93.791 Y107.452 E7.91301
G1 X93.791 Y106.675 E7.93152
G1 E5.93152 F2400.00000
G92 E0
G1 X98.758 Y101.731 F7800.000
G1 E2.00000 F2400.00000
G1 F2677.02
G1 X99.749 Y101.731 E2.02358
G1 X96.919 Y98.901 E2.11880
G1 X97.910 Y98.901 E2.14238
G1 X100.740 Y101.731 E2.23760
G1 X101.731 Y101.731 E2.26118
G1 X98.901 Y98.901 E2.35640
G1 X99.892 Y98.901 E2.37998
G1 X102.722 Y101.731 E2.47519
G1 E0.47519 F2400.00000
G92 E0
G1 X103.362 Y107.326 F7800.000
G1 E2.00000 F2400.00000
G1 F2677.02
G1 X103.362 Y107.452 E2.00300
G1 X103.488 Y107.452 E2.00600
G1 X102.897 Y106.861 E2.02590
G1 X102.897 Y105.870 E2.04948
G1 X104.479 Y107.452 E2.10273
G1 X105.470 Y107.452 E2.12631
G1 X102.897 Y104.879 E2.21291
G1 X102.897 Y103.888 E2.23649
G1 X106.461 Y107.452 E2.35643
G1 X106.674 Y107.452 E2.36150
G1 X106.674 Y106.674 E2.38001
G1 X102.897 Y102.897 E2.50712
G1 X102.897 Y101.906 E2.53070
G1 X106.674 Y105.683 E2.65781
G1 X106.674 Y104.692 E2.68139
G1 X100.883 Y98.901 E2.87625
G1 X101.874 Y98.901 E2.89983
G1 X106.674 Y103.701 E3.06135
G1 X106.674 Y102.710 E3.08493
G1 X102.865 Y98.901 E3.21310
G1 X102.897 Y98.901 E3.21385
G1 X102.897 Y97.942 E3.23668
G1 X106.674 Y101.719 E3.36379
G1 X106.674 Y100.728 E3.38737
G1 X102.897 Y96.950 E3.51448
G1 X102.897 Y95.959 E3.53806
G1 X106.674 Y99.737 E3.66517
G1 X106.674 Y98.746 E3.68875
G1 X102.897 Y94.968 E3.81585
G1 X102.897 Y93.977 E3.83943
G1 X106.674 Y97.755 E3.96654
G1 X106.674 Y96.764 E3.99012
G1 X102.897 Y92.986 E4.11723
G1 X102.897 Y92.548 E4.12767
G1 X103.449 Y92.548 E4.14081
G1 X106.674 Y95.773 E4.24933
G1 X106.674 Y94.782 E4.27291
G1 X104.440 Y92.548 E4.34809
G1 X105.431 Y92.548 E4.37167
G1 X106.674 Y93.791 E4.41349
G1 Z1.500 F7800.000
G1 X103.023 Y93.013 F7800.000
G1 F2680.49
G1 X102.897 Y93.013 E4.41649
G1 X102.897 Y93.139 E4.41950
G1 X103.488 Y92.548 E4.43940
G1 X104.479 Y92.548 E4.46298
G1 X102.897 Y94.130 E4.51622
G1 X102.897 Y95.121 E4.53980
G1 X105.470 Y92.548 E4.62640
G1 X106.461 Y92.548 E4.64998
G1 X102.897 Y96.112 E4.76992
G1 X102.897 Y97.103 E4.79350
G1 X106.674 Y93.326 E4.92061
G1 X106.674 Y94.317 E4.94419
G1 X102.897 Y98.094 E5.07130
G1 X102.897 Y99.085 E5.09488
G1 X106.674 Y95.308 E5.22199
G1 X106.674 Y96.299 E5.24557
G1 X101.242 Y101.731 E5.42835
G1 X102.233 Y101.731 E5.45193
G1 X106.674 Y97.290 E5.60136
G1 X106.674 Y98.281 E5.62494
G1 X102.897 Y102.058 E5.75204
G1 X102.897 Y103.050 E5.77563
G1 X106.674 Y99.272 E5.90273
G1 X106.674 Y100.263 E5.92631
G1 X102.897 Y104.041 E6.05342
G1 X102.897 Y105.032 E6.07700
G1 X106.674 Y101.254 E6.20411
G1 X106.674 Y102.245 E6.22769
G1 X102.897 Y106.023 E6.35480
G1 X102.897 Y107.014 E6.37838
G1 X106.674 Y103.236 E6.50549
G1 X106.674 Y104.227 E6.52907
G1 X103.449 Y107.452 E6.63759
G1 X104.440 Y107.452 E6.66117
G1 X106.674 Y105.218 E6.73634
G1 X106.674 Y106.209 E6.75992
G1 X105.431 Y107.452 E6.80175
G1 E4.80175 F2400.00000
G92 E0
G1 X100.251 Y101.731 F7800.000
G1 E2.00000 F2400.00000
G1 F2680.49
G1 X103.081 Y98.901 E2.09522
G1 X102.090 Y98.901 E2.11880
G1 X99.260 Y101.731 E2.21402
G1 X98.269 Y101.731 E2.23760
G1 X101.099 Y98.901 E2.33281
G1 X100.108 Y98.901 E2.35640
G1 X97.278 Y101.731 E2.45161
G1 X96.638 Y101.731 E2.46684
G1 X96.638 Y102.371 E2.48208
G1 X96.512 Y107.452 F7800.000
G1 F2680.49
G1 X97.103 Y106.861 E2.50198
G1 X97.103 Y105.870 E2.52556
G1 X95.521 Y107.452 E2.57880
G1 X94.530 Y107.452 E2.60238
G1 X97.103 Y104.879 E2.68898
G1 X97.103 Y103.888 E2.71256
G1 X93.539 Y107.452 E2.83250
G1 X93.326 Y107.452 E2.83757
G1 X93.326 Y106.674 E2.85608
G1 X97.103 Y102.897 E2.98319
G1 X97.103 Y101.906 E3.00677
G1 X93.326 Y105.683 E3.13388
G1 X93.326 Y104.692 E3.15746
G1 X99.117 Y98.901 E3.35232
G1 X98.126 Y98.901 E3.37590
G1 X93.326 Y103.701 E3.53742
G1 X93.326 Y102.710 E3.56100
G1 X97.135 Y98.901 E3.68917
G1 X97.103 Y98.901 E3.68992
G1 X97.103 Y97.942 E3.71275
G1 X93.326 Y101.719 E3.83986
G1 X93.326 Y100.728 E3.86344
G1 X97.103 Y96.950 E3.99055
G1 X97.103 Y95.959 E4.01413
G1 X93.326 Y99.737 E4.14124
G1 X93.326 Y98.746 E4.16482
G1 X97.103 Y94.968 E4.29193
G1 X97.103 Y93.977 E4.31551
G1 X93.326 Y97.755 E4.44262
G1 X93.326 Y96.764 E4.46620
G1 X97.103 Y92.986 E4.59330
G1 X97.103 Y92.548 E4.60374
G1 X96.551 Y92.548 E4.61688
G1 X93.326 Y95.773 E4.72540
G1 X93.326 Y94.782 E4.74898
G1 X95.560 Y92.548 E4.82416
G1 X94.569 Y92.548 E4.84774
G1 X93.326 Y93.791 E4.88956
G1 X93.326 Y93.013 E4.90807
G1 X94.104 Y93.013 E4.92657
G1 Z1.800 F7800.000
G1 X97.103 Y93.139 F7800.000
G1 F2677.02
G1 X96.512 Y92.548 E4.94647
G1 X95.521 Y92.548 E4.97005
G1 X97.103 Y94.130 E5.02330
G1 X97.103 Y95.121 E5.04688
G1 X94.530 Y92.548 E5.13348
G1 X93.539 Y92.548 E5.15706
G1 X97.103 Y96.112 E5.27700
G1 X97.103 Y97.103 E5.30058
G1 X93.326 Y93.326 E5.42769
G1 X93.326 Y94.317 E5.45127
G1 X97.103 Y98.094 E5.57838
G1 X97.103 Y99.085 E5.60196
G1 X93.326 Y95.308 E5.72907
G1 X93.326 Y96.299 E5.75265
G1 X98.758 Y101.731 E5.93542
G1 X97.767 Y101.731 E5.95900
G1 X93.326 Y97.290 E6.10843
G1 X93.326 Y98.281 E6.13202
G1 X97.103 Y102.058 E6.25912
G1 X97.103 Y103.050 E6.28270
G1 X93.326 Y99.272 E6.40981
G1 X93.326 Y100.263 E6.43339
G1 X97.103 Y104.041 E6.56050
