; generated by Slic3r 1.3.0 on 2019-11-07 at 11:33:26

; external perimeters extrusion width = 0.55mm (4.37mm^3/s)
; perimeters extrusion width = 0.70mm (11.44mm^3/s)
; infill extrusion width = 0.63mm (13.45mm^3/s)
; solid infill extrusion width = 0.70mm (3.81mm^3/s)
; top infill extrusion width = 0.70mm (2.86mm^3/s)

M107
M104 S205 ; set temperature
G28 ; home all axes
G1 Z5 F5000 ; lift nozzle

; Filament gcode

M109 S205 ; set temperature and wait for it to be reached
G21 ; set units to millimeters
G90 ; use absolute coordinates
M82 ; use absolute distances for extrusion
G92 E0
G1 Z0.300 F7800.000
G1 E-2.00000 F2400.00000
G92 E0
G1 X93.882 Y92.976 F7800.000
G1 E2.00000 F2400.00000
G1 F1800
G1 X94.298 Y92.559 E2.01350
G1 X95.062 Y92.559 E2.03098
G1 X93.882 Y93.740 E2.06922
G1 X93.882 Y94.503 E2.08670
G1 X95.825 Y92.559 E2.14966
G1 X96.588 Y92.559 E2.16715
G1 X93.882 Y95.266 E2.25484
G1 X93.882 Y96.030 E2.27233
G1 X97.352 Y92.559 E2.38475
G1 X97.636 Y92.559 E2.39125
G1 X97.636 Y93.039 E2.40223
G1 X93.882 Y96.793 E2.52385
G1 X93.882 Y97.556 E2.54133
G1 X97.636 Y93.802 E2.66295
G1 X97.636 Y94.566 E2.68044
G1 X93.882 Y98.320 E2.80205
G1 X93.882 Y99.083 E2.81954
G1 X97.636 Y95.329 E2.94115
G1 X97.636 Y96.092 E2.95864
G1 X93.882 Y99.846 E3.08025
G1 X93.882 Y100.610 E3.09774
G1 X97.636 Y96.856 E3.21935
G1 X97.636 Y97.619 E3.23684
G1 X93.882 Y101.373 E3.35845
G1 X93.882 Y102.136 E3.37594
G1 X98.252 Y97.766 E3.51752
G1 X99.015 Y97.766 E3.53500
G1 X93.882 Y102.900 E3.70131
G1 X93.882 Y103.663 E3.71879
G1 X99.778 Y97.766 E3.90983
G1 X100.539 Y97.769 E3.92726
G1 X97.853 Y100.455 E4.01430
G1 X98.616 Y100.455 E4.03178
G1 X101.273 Y97.799 E4.11785
G1 X101.957 Y97.877 E4.13364
G1 X99.379 Y100.455 E4.21715
G1 X100.114 Y100.484 E4.23401
G1 X102.604 Y97.994 E4.31465
G1 X103.193 Y98.168 E4.32873
G1 X100.744 Y100.618 E4.40810
G1 X101.108 Y100.765 E4.41711
G1 X101.263 Y100.861 E4.42130
G1 X103.739 Y98.385 E4.50150
G1 X104.232 Y98.656 E4.51437
G1 X101.683 Y101.205 E4.59695
G1 X101.853 Y101.414 E4.60313
G1 X101.996 Y101.655 E4.60955
G1 X104.679 Y98.972 E4.69648
G1 X105.070 Y99.345 E4.70885
G1 X102.190 Y102.225 E4.80217
G1 X102.236 Y102.543 E4.80953
G1 X102.243 Y102.935 E4.81850
G1 X105.405 Y99.773 E4.92094
G1 X105.684 Y100.258 E4.93375
G1 X102.024 Y103.918 E5.05232
G1 E3.05232 F2400.00000
G92 E0
G1 X104.593 Y105.929 F7800.000
G1 E2.00000 F2400.00000
G1 F1800
G1 X105.012 Y105.509 E2.01359
G1 X105.311 Y105.157 E2.02417
G1 X105.440 Y104.972 E2.02933
G1 X105.660 Y104.586 E2.03952
G1 X105.842 Y104.157 E2.05019
G1 X105.943 Y103.815 E2.05835
G1 X102.701 Y107.057 E2.16336
G1 X102.237 Y107.202 E2.17451
G1 X101.694 Y107.301 E2.18716
G1 X106.098 Y102.897 E2.32983
G1 X106.118 Y102.401 E2.34119
G1 X106.106 Y102.125 E2.34753
G1 X100.819 Y107.412 E2.51882
G1 X100.027 Y107.441 E2.53697
G1 X106.039 Y101.429 E2.73174
G1 X105.896 Y100.809 E2.74631
G1 X99.264 Y107.441 E2.96116
G1 X98.501 Y107.441 E2.97865
G1 X101.482 Y104.459 E3.07523
G1 X101.109 Y104.608 E3.08441
G1 X100.855 Y104.673 E3.09044
G1 X100.446 Y104.732 E3.09989
G1 X97.737 Y107.441 E3.18765
G1 X96.974 Y107.441 E3.20513
G1 X99.663 Y104.751 E3.29225
G1 X98.900 Y104.751 E3.30974
G1 X96.211 Y107.441 E3.39686
G1 X95.447 Y107.441 E3.41435
G1 X98.137 Y104.751 E3.50147
G1 X97.636 Y104.751 E3.51294
G1 X97.636 Y104.489 E3.51895
G1 X94.684 Y107.441 E3.61457
G1 X93.921 Y107.441 E3.63206
G1 X97.636 Y103.726 E3.75241
G1 X97.636 Y102.962 E3.76989
G1 X93.882 Y106.716 E3.89151
G1 X93.882 Y105.953 E3.90899
G1 X97.636 Y102.199 E4.03061
G1 X97.636 Y101.436 E4.04809
G1 X93.882 Y105.190 E4.16971
G1 X93.882 Y104.426 E4.18719
G1 X97.636 Y100.672 E4.30881
M104 S200 ; set temperature
G1 Z0.600 F7800.000
G1 X99.288 Y100.444 F7800.000
G1 F1200
G1 X93.893 Y95.049 E4.51817
G1 X93.893 Y95.963 E4.54326
G1 X98.374 Y100.444 E4.71714
G1 X97.624 Y100.444 E4.73771
G1 X97.624 Y100.609 E4.74223
G1 X93.893 Y96.877 E4.88704
G1 X93.893 Y97.792 E4.91212
G1 X97.624 Y101.523 E5.05693
G1 X97.624 Y102.438 E5.08202
G1 X93.893 Y98.706 E5.22682
G1 X93.893 Y99.620 E5.25191
G1 X97.624 Y103.352 E5.39671
G1 X97.624 Y104.266 E5.42180
G1 X93.893 Y100.535 E5.56661
G1 X93.893 Y101.449 E5.59169
G1 X97.624 Y105.181 E5.73650
G1 X97.624 Y105.257 E5.73859
G1 X97.701 Y105.257 E5.74068
G1 X94.387 Y107.429 F7800.000
G1 F1200
G1 X93.893 Y106.935 E5.75986
G1 X93.893 Y106.021 E5.78495
G1 X95.302 Y107.429 E5.83962
G1 X96.216 Y107.429 E5.86471
G1 X93.893 Y105.106 E5.95486
G1 X93.893 Y104.192 E5.97995
G1 X97.130 Y107.429 E6.10557
G1 X98.045 Y107.429 E6.13066
G1 X93.893 Y103.278 E6.29177
G1 X93.893 Y102.363 E6.31686
G1 X98.959 Y107.429 E6.51344
G1 X99.873 Y107.429 E6.53853
G1 X97.206 Y104.762 E6.64202
G1 X98.121 Y104.762 E6.66711
G1 X100.779 Y107.421 E6.77025
G1 X101.209 Y107.407 E6.78207
G1 X101.640 Y107.368 E6.79395
G1 X99.035 Y104.762 E6.89505
G1 X99.935 Y104.749 E6.91976
G1 X102.432 Y107.246 E7.01666
G1 X102.697 Y107.188 E7.02408
G1 X103.148 Y107.047 E7.03705
G1 X100.706 Y104.605 E7.13179
G1 X101.111 Y104.436 E7.14384
G1 X101.324 Y104.309 E7.15064
G1 X103.806 Y106.790 E7.24695
G1 X104.086 Y106.648 E7.25556
G1 X104.387 Y106.457 E7.26535
G1 X101.796 Y103.867 E7.36587
G1 X101.969 Y103.609 E7.37439
G1 X102.116 Y103.272 E7.38447
G1 X104.891 Y106.047 E7.49214
G1 X105.000 Y105.946 E7.49622
G1 X105.322 Y105.564 E7.50993
G1 X102.254 Y102.496 E7.62900
G1 X102.250 Y102.123 E7.63923
G1 X102.218 Y101.850 E7.64677
G1 X102.113 Y101.440 E7.65838
G1 X105.665 Y104.993 E7.79625
G1 E5.79625 F2400.00000
G92 E0
G1 X105.016 Y99.772 F7800.000
G1 E2.00000 F2400.00000
G1 F1200
G1 X104.218 Y98.994 E2.03060
G1 X103.977 Y98.807 E2.03896
G1 X103.618 Y98.574 E2.05072
G1 X103.198 Y98.358 E2.06366
G1 X102.934 Y98.247 E2.07152
G1 X102.401 Y98.071 E2.08692
G1 X105.980 Y101.650 E2.22578
G1 X106.021 Y101.828 E2.23080
G1 X106.082 Y102.285 E2.24344
G1 X106.099 Y102.684 E2.25441
G1 X101.266 Y97.851 E2.44196
G1 X100.645 Y97.795 E2.45906
G1 X100.286 Y97.785 E2.46891
G1 X106.065 Y103.564 E2.69314
G1 X105.962 Y104.162 E2.70980
G1 X105.913 Y104.327 E2.71451
G1 X99.364 Y97.777 E2.96865
G1 X98.450 Y97.777 E2.99374
G1 X101.319 Y100.647 E3.10509
G1 X100.878 Y100.520 E3.11769
G1 X100.626 Y100.477 E3.12472
G1 X100.206 Y100.448 E3.13627
G1 X97.535 Y97.777 E3.23989
G1 X98.030 Y98.272 F7800.000
G1 F1200
G1 X97.624 Y98.272 E3.25101
G1 X97.624 Y97.866 E3.26214
G1 X93.893 Y94.135 E3.40694
G1 X93.893 Y93.220 E3.43203
G1 X97.624 Y96.952 E3.57684
G1 X97.624 Y96.038 E3.60192
G1 X94.157 Y92.571 E3.73646
G1 X95.072 Y92.571 E3.76155
G1 X97.624 Y95.123 E3.86060
G1 X97.624 Y94.209 E3.88569
G1 X95.986 Y92.571 E3.94927
G1 X96.900 Y92.571 E3.97436
G1 X97.624 Y93.295 E4.00246
G1 Z0.900 F7800.000
G1 X94.387 Y92.571 F7800.000
G1 F1200
G1 X93.893 Y93.065 E4.02142
G1 X93.893 Y93.969 E4.04592
G1 X95.291 Y92.571 E4.09953
G1 X96.194 Y92.571 E4.12403
G1 X93.893 Y94.872 E4.21230
G1 X93.893 Y95.776 E4.23680
G1 X97.098 Y92.571 E4.35971
G1 X97.624 Y92.571 E4.37398
G1 X97.624 Y92.948 E4.38421
G1 X93.893 Y96.679 E4.52731
G1 X93.893 Y97.583 E4.55181
G1 X97.624 Y93.851 E4.69491
G1 X97.624 Y94.755 E4.71941
G1 X93.893 Y98.486 E4.86251
G1 X93.893 Y99.390 E4.88701
G1 X97.624 Y95.658 E5.03011
G1 X97.624 Y96.562 E5.05461
G1 X93.893 Y100.293 E5.19771
G1 X93.893 Y101.197 E5.22221
G1 X97.624 Y97.465 E5.36531
G1 X97.624 Y97.777 E5.37377
G1 X98.216 Y97.777 E5.38981
G1 X93.893 Y102.101 E5.55559
G1 X93.893 Y103.004 E5.58009
G1 X99.120 Y97.777 E5.78053
G1 X100.023 Y97.777 E5.80503
G1 X97.356 Y100.444 E5.90730
G1 X98.260 Y100.444 E5.93180
G1 X100.915 Y97.789 E6.03363
G1 X101.757 Y97.851 E6.05651
G1 X99.163 Y100.444 E6.15597
G1 X100.043 Y100.468 E6.17983
G1 X102.528 Y97.983 E6.27512
G1 X102.950 Y98.086 E6.28691
G1 X103.233 Y98.181 E6.29501
G1 X100.783 Y100.631 E6.38897
G1 X101.101 Y100.769 E6.39836
G1 X101.377 Y100.941 E6.40718
G1 X103.869 Y98.449 E6.50275
G1 X104.113 Y98.574 E6.51018
G1 X104.438 Y98.784 E6.52066
G1 X101.830 Y101.391 E6.62065
G1 X101.991 Y101.649 E6.62889
G1 X102.132 Y101.993 E6.63897
G1 X104.929 Y99.196 E6.74621
G1 X105.164 Y99.442 E6.75544
G1 X105.344 Y99.685 E6.76363
G1 X102.256 Y102.772 E6.88202
G1 X102.250 Y103.099 E6.89088
G1 X102.223 Y103.333 E6.89725
G1 X102.163 Y103.626 E6.90539
G1 X102.091 Y103.841 E6.91153
G1 X105.680 Y100.252 E7.04915
G1 X105.772 Y100.457 E7.05525
G1 X105.923 Y100.913 E7.06826
G1 X99.406 Y107.429 E7.31816
G1 X100.320 Y107.419 E7.34294
G1 X106.066 Y101.673 E7.56328
G1 X106.107 Y102.363 E7.58201
G1 X106.100 Y102.543 E7.58690
G1 X101.288 Y107.354 E7.77141
G1 X101.781 Y107.278 E7.78493
G1 X102.224 Y107.183 E7.79722
G1 X102.428 Y107.118 E7.80301
G1 X105.981 Y103.565 E7.93927
G1 X105.838 Y104.089 E7.95400
G1 X105.653 Y104.527 E7.96690
G1 X105.449 Y104.886 E7.97810
G1 X105.309 Y105.090 E7.98480
G1 X104.991 Y105.458 E7.99799
G1 X104.494 Y105.956 E8.01706
G1 X98.503 Y107.429 F7800.000
G1 F1200
G1 X101.400 Y104.532 E8.12816
G1 X101.159 Y104.621 E8.13513
G1 X100.931 Y104.678 E8.14149
G1 X100.638 Y104.728 E8.14955
G1 X100.271 Y104.758 E8.15954
G1 X97.599 Y107.429 E8.26199
G1 X96.696 Y107.429 E8.28649
G1 X99.363 Y104.762 E8.38876
G1 X98.459 Y104.762 E8.41326
G1 X95.792 Y107.429 E8.51553
G1 X94.889 Y107.429 E8.54003
G1 X97.624 Y104.694 E8.64494
G1 X97.624 Y103.790 E8.66944
G1 X93.985 Y107.429 E8.80900
G1 X93.893 Y107.429 E8.81151
G1 X93.893 Y106.618 E8.83350
G1 X97.624 Y102.887 E8.97660
G1 X97.624 Y101.983 E9.00110
G1 X93.893 Y105.715 E9.14420
G1 X93.893 Y104.811 E9.16870
G1 X97.624 Y101.079 E9.31180
G1 X97.624 Y100.176 E9.33630
G1 X93.893 Y103.908 E9.47940
G1 X93.893 Y103.004 E9.50390
M106 S255
G1 Z1.200 F7800.000
G1 X94.335 Y106.668 F7800.000
G1 F2530.28
G1 X94.335 Y107.452 E9.52256
G1 X95.119 Y107.452 E9.54122
G1 X93.870 Y106.203 E9.58327
G1 X93.870 Y105.322 E9.60423
G1 X96.000 Y107.452 E9.67591
G1 X96.881 Y107.452 E9.69687
G1 X93.870 Y104.441 E9.79820
G1 X93.870 Y103.560 E9.81916
G1 X97.762 Y107.452 E9.95013
G1 X98.643 Y107.452 E9.97109
G1 X93.870 Y102.679 E10.13171
G1 X93.870 Y101.798 E10.15267
G1 X99.524 Y107.452 E10.34292
G1 X100.405 Y107.452 E10.36388
G1 X97.692 Y104.740 E10.45516
G1 X98.573 Y104.740 E10.47612
G1 X101.259 Y107.426 E10.56651
G1 X102.049 Y107.335 E10.58543
G1 X99.454 Y104.740 E10.67276
G1 X99.934 Y104.728 E10.68418
G1 X100.281 Y104.686 E10.69251
G1 X102.780 Y107.185 E10.77660
G1 X103.447 Y106.971 E10.79326
G1 X100.963 Y104.487 E10.87684
G1 X101.317 Y104.293 E10.88645
G1 X101.506 Y104.148 E10.89210
G1 X104.047 Y106.689 E10.97760
G1 X104.576 Y106.338 E10.99272
G1 X101.910 Y103.672 E11.08243
G1 X102.072 Y103.344 E11.09114
G1 X102.162 Y103.043 E11.09860
G1 X105.040 Y105.921 E11.19543
G1 X105.322 Y105.595 E11.20569
G1 X105.433 Y105.433 E11.21035
G1 X102.232 Y102.232 E11.31808
G1 X102.198 Y101.884 E11.32639
G1 X102.114 Y101.531 E11.33502
G1 X101.975 Y101.191 E11.34375
G1 X101.816 Y100.935 E11.35093
G1 X105.741 Y104.860 E11.48298
G1 E9.48298 F2400.00000
G92 E0
G1 X105.133 Y99.848 F7800.000
G1 E2.00000 F2400.00000
G1 F2530.28
G1 X104.291 Y99.009 E2.02827
G1 X103.962 Y98.755 E2.03817
G1 X103.653 Y98.557 E2.04691
G1 X103.258 Y98.353 E2.05748
G1 X102.942 Y98.219 E2.06563
G1 X102.465 Y98.061 E2.07760
G1 X105.991 Y101.586 E2.19623
G1 X106.050 Y101.843 E2.20250
G1 X106.102 Y102.235 E2.21191
G1 X106.118 Y102.595 E2.22047
G1 X101.361 Y97.837 E2.38056
G1 X100.407 Y97.765 E2.40331
G1 X106.097 Y103.454 E2.59474
G1 X106.062 Y103.756 E2.60199
G1 X105.970 Y104.208 E2.61295
G1 X99.516 Y97.754 E2.83011
G1 X98.635 Y97.754 E2.85107
G1 X101.844 Y100.963 E2.95904
G1 X101.551 Y100.781 E2.96726
G1 X101.146 Y100.615 E2.97766
G1 X100.810 Y100.533 E2.98589
G1 X100.487 Y100.487 E2.99365
G1 X97.754 Y97.754 E3.08562
G1 X98.220 Y98.220 F7800.000
G1 F2530.28
G1 X97.647 Y98.220 E3.09923
G1 X97.647 Y97.647 E3.11285
G1 X93.870 Y93.870 E3.23996
G1 X93.870 Y92.989 E3.26092
G1 X97.647 Y96.766 E3.38803
G1 X97.647 Y95.885 E3.40899
G1 X94.310 Y92.548 E3.52130
G1 X95.190 Y92.548 E3.54226
G1 X97.647 Y95.005 E3.62493
G1 X97.647 Y94.124 E3.64589
G1 X96.071 Y92.548 E3.69892
G1 X96.952 Y92.548 E3.71988
G1 X97.647 Y93.243 E3.74327
G1 E1.74327 F2400.00000
G92 E0
G1 X99.586 Y100.467 F7800.000
G1 E2.00000 F2400.00000
G1 F2530.28
G1 X93.870 Y94.751 E2.19235
G1 X93.870 Y95.632 E2.21331
G1 X98.705 Y100.467 E2.37602
G1 X97.824 Y100.467 E2.39698
G1 X93.870 Y96.513 E2.53004
G1 X93.870 Y97.394 E2.55100
G1 X97.647 Y101.171 E2.67811
G1 X97.647 Y102.052 E2.69907
G1 X93.870 Y98.274 E2.82618
G1 X93.870 Y99.155 E2.84714
G1 X97.647 Y102.933 E2.97425
G1 X97.647 Y103.814 E2.99521
G1 X93.870 Y100.036 E3.12232
G1 X93.870 Y100.917 E3.14328
G1 X97.647 Y104.695 E3.27039
G1 X97.647 Y105.205 E3.28252
G1 X98.157 Y105.205 E3.29466
G1 Z1.500 F7800.000
G1 X97.833 Y107.452 F7800.000
G1 F2469.54
G1 X100.575 Y104.710 E3.38692
G1 X100.202 Y104.737 E3.39582
G1 X99.665 Y104.740 E3.40859
G1 X96.952 Y107.452 E3.49988
G1 X96.071 Y107.452 E3.52084
G1 X98.784 Y104.740 E3.61212
G1 X97.903 Y104.740 E3.63308
G1 X95.190 Y107.452 E3.72436
G1 X94.310 Y107.452 E3.74532
G1 X97.647 Y104.115 E3.85763
G1 X97.647 Y103.234 E3.87859
G1 X93.870 Y107.011 E4.00570
G1 X93.870 Y106.130 E4.02666
G1 X97.647 Y102.353 E4.15377
G1 X97.647 Y101.472 E4.17473
G1 X93.870 Y105.249 E4.30184
G1 X93.870 Y104.368 E4.32280
G1 X102.593 Y107.097 F7800.000
G1 F2469.54
G1 X105.979 Y103.712 E4.43671
G1 X106.057 Y103.323 E4.44615
G1 X106.119 Y102.690 E4.46128
G1 X101.454 Y107.355 E4.61824
G1 X100.810 Y107.425 E4.63366
G1 X100.493 Y107.436 E4.64122
G1 X106.103 Y101.825 E4.83002
G1 X106.053 Y101.396 E4.84029
G1 X105.979 Y101.069 E4.84828
G1 X99.595 Y107.452 E5.06308
G1 X98.714 Y107.452 E5.08404
G1 X105.764 Y100.402 E5.32127
G1 X105.636 Y100.114 E5.32876
G1 X105.464 Y99.821 E5.33685
G1 X102.229 Y103.057 E5.44571
G1 X102.223 Y102.538 E5.45804
G1 X102.175 Y102.229 E5.46548
G1 X105.075 Y99.329 E5.56306
G1 X104.770 Y99.021 E5.57338
G1 X104.619 Y98.905 E5.57792
G1 X101.937 Y101.587 E5.66818
G1 X101.736 Y101.297 E5.67655
G1 X101.545 Y101.098 E5.68314
G1 X104.097 Y98.546 E5.76902
G1 X103.502 Y98.260 E5.78472
G1 X101.015 Y100.746 E5.86840
G1 X100.681 Y100.615 E5.87696
G1 X100.347 Y100.533 E5.88512
G1 X102.843 Y98.038 E5.96908
G1 X102.570 Y97.968 E5.97578
G1 X102.113 Y97.887 E5.98683
G1 X99.533 Y100.467 E6.07364
G1 X98.652 Y100.467 E6.09460
G1 X101.327 Y97.792 E6.18463
G1 X101.070 Y97.769 E6.19077
G1 X100.472 Y97.766 E6.20501
G1 X97.771 Y100.467 E6.29588
G1 X97.182 Y100.467 E6.30990
G1 X97.182 Y101.056 E6.32391
G1 X93.870 Y104.368 E6.43536
G1 X93.870 Y103.487 E6.45632
G1 X99.595 Y97.762 E6.64896
G1 X98.718 Y97.758 E6.66983
G1 X93.870 Y102.606 E6.83297
G1 X93.870 Y101.726 E6.85393
G1 X97.841 Y97.754 E6.98755
G1 X97.647 Y97.754 E6.99216
G1 X97.647 Y97.067 E7.00851
G1 X93.870 Y100.845 E7.13562
G1 X93.870 Y99.964 E7.15658
G1 X97.647 Y96.186 E7.28369
G1 X97.647 Y95.305 E7.30465
G1 X93.870 Y99.083 E7.43176
G1 X93.870 Y98.202 E7.45272
G1 X97.647 Y94.424 E7.57983
G1 X97.647 Y93.543 E7.60079
G1 X93.870 Y97.321 E7.72789
G1 X93.870 Y96.440 E7.74885
G1 X97.647 Y92.662 E7.87596
G1 X97.647 Y92.548 E7.87869
G1 X96.881 Y92.548 E7.89692
G1 X93.870 Y95.559 E7.99825
G1 X93.870 Y94.678 E8.01921
G1 X96.000 Y92.548 E8.09090
G1 X95.119 Y92.548 E8.11186
G1 X93.870 Y93.797 E8.15390
G1 X93.870 Y93.013 E8.17256
G1 X94.654 Y93.013 E8.19122
G1 Z1.800 F7800.000
G1 X97.647 Y93.243 F7800.000
G1 F2529.86
G1 X96.952 Y92.548 E8.21461
G1 X96.071 Y92.548 E8.23557
G1 X97.647 Y94.124 E8.28860
G1 X97.647 Y95.005 E8.30956
G1 X95.190 Y92.548 E8.39223
G1 X94.310 Y92.548 E8.41319
G1 X97.647 Y95.885 E8.52550
G1 X97.647 Y96.766 E8.54646
G1 X93.870 Y92.989 E8.67357
G1 X93.870 Y93.870 E8.69453
G1 X97.647 Y97.647 E8.82164
G1 X97.647 Y98.218 E8.83523
G1 X98.221 Y98.221 E8.84887
G1 X97.756 Y97.756 F7800.000
G1 F2529.86
G1 X100.487 Y100.487 E8.94078
G1 X100.764 Y100.524 E8.94743
G1 X101.145 Y100.615 E8.95675
G1 X101.525 Y100.768 E8.96650
G1 X101.844 Y100.963 E8.97541
G1 X98.641 Y97.760 E9.08322
G1 X99.525 Y97.764 E9.10427
G1 X105.971 Y104.209 E9.32115
G1 X106.052 Y103.820 E9.33060
G1 X106.095 Y103.452 E9.33941
G1 X100.410 Y97.767 E9.53069
G1 X101.360 Y97.837 E9.55336
G1 X106.118 Y102.594 E9.71344
G1 X106.099 Y102.203 E9.72276
G1 X106.056 Y101.880 E9.73051
G1 X105.990 Y101.585 E9.73769
G1 X102.466 Y98.061 E9.85627
G1 X102.923 Y98.212 E9.86772
G1 X103.288 Y98.366 E9.87714
G1 X103.651 Y98.556 E9.88689
G1 X104.136 Y98.882 E9.90081
G1 X104.413 Y99.128 E9.90961
G1 X105.126 Y99.840 E9.93358
G1 E7.93358 F2400.00000
G92 E0
G1 X105.740 Y104.860 F7800.000
G1 E2.00000 F2400.00000
G1 F2529.86
G1 X101.816 Y100.935 E2.13204
G1 X101.982 Y101.197 E2.13941
G1 X102.139 Y101.605 E2.14980
G1 X102.200 Y101.898 E2.15693
G1 X102.232 Y102.232 E2.16492
G1 X105.432 Y105.432 E2.27260
G1 X105.320 Y105.597 E2.27736
G1 X105.038 Y105.919 E2.28753
G1 X102.162 Y103.043 E2.38431
G1 X102.077 Y103.332 E2.39146
G1 X101.911 Y103.673 E2.40049
G1 X104.578 Y106.340 E2.49022
G1 X104.046 Y106.688 E2.50536
G1 X101.506 Y104.148 E2.59083
G1 X101.307 Y104.300 E2.59677
G1 X100.963 Y104.487 E2.60609
G1 X103.447 Y106.971 E2.68967
G1 X102.782 Y107.187 E2.70630
G1 X100.282 Y104.686 E2.79044
G1 X99.954 Y104.726 E2.79830
G1 X99.454 Y104.740 E2.81020
G1 X102.051 Y107.337 E2.89759
G1 X101.258 Y107.425 E2.91657
G1 X98.573 Y104.740 E3.00693
G1 X97.692 Y104.740 E3.02789
G1 X100.405 Y107.452 E3.11917
G1 X99.524 Y107.452 E3.14013
G1 X93.870 Y101.798 E3.33038
G1 X93.870 Y102.679 E3.35134
G1 X98.643 Y107.452 E3.51196
G1 X97.762 Y107.452 E3.53292
G1 X93.870 Y103.560 E3.66389
G1 X93.870 Y104.441 E3.68485
G1 X96.881 Y107.452 E3.78618
G1 X96.000 Y107.452 E3.80714
G1 X93.870 Y105.322 E3.87882
G1 X93.870 Y106.203 E3.89978
G1 X95.119 Y107.452 E3.94183
G1 X94.335 Y107.452 E3.96049
G1 X94.335 Y106.668 E3.97915
G1 X98.157 Y105.205 F7800.000
G1 F2529.86
G1 X97.647 Y105.205 E3.99128
G1 X97.647 Y104.695 E4.00342
G1 X93.870 Y100.917 E4.13053
G1 X93.870 Y100.036 E4.15149
G1 X97.647 Y103.814 E4.27860
G1 X97.647 Y102.933 E4.29956
G1 X93.870 Y99.155 E4.42667
G1 X93.870 Y98.274 E4.44763
G1 X97.647 Y102.052 E4.57474
G1 X97.647 Y101.171 E4.59570
G1 X93.870 Y97.394 E4.72280
G1 X93.870 Y96.513 E4.74376
G1 X97.824 Y100.467 E4.87683
G1 X98.705 Y100.467 E4.89779
G1 X93.870 Y95.632 E5.06050
G1 X93.870 Y94.751 E5.08146
G1 X99.586 Y100.467 E5.27381
G1 Z2.100 F7800.000
G1 E3.27381 F2400.00000
G92 E0
G1 X93.870 Y104.368 F7800.000
G1 E2.00000 F2400.00000
G1 F2469.66
G1 X93.870 Y105.249 E2.02096
G1 X97.647 Y101.472 E2.14807
G1 X97.647 Y102.353 E2.16903
G1 X93.870 Y106.130 E2.29614
G1 X93.870 Y107.011 E2.31710
G1 X97.647 Y103.234 E2.44421
G1 X97.647 Y104.115 E2.46517
G1 X94.310 Y107.452 E2.57748
G1 X95.190 Y107.452 E2.59844
G1 X97.903 Y104.740 E2.68972
G1 X98.784 Y104.740 E2.71068
G1 X96.071 Y107.452 E2.80196
G1 X96.952 Y107.452 E2.82292
G1 X99.665 Y104.740 E2.91420
G1 X100.256 Y104.736 E2.92827
G1 X100.575 Y104.711 E2.93587
G1 X97.833 Y107.452 E3.02812
G1 X102.591 Y107.099 F7800.000
G1 F2469.66
G1 X105.978 Y103.712 E3.14209
G1 X106.050 Y103.371 E3.15039
G1 X106.120 Y102.689 E3.16669
G1 X101.453 Y107.356 E3.32373
G1 X100.849 Y107.422 E3.33818
G1 X100.493 Y107.435 E3.34666
G1 X106.103 Y101.826 E3.53540
G1 X106.058 Y101.424 E3.54503
G1 X105.978 Y101.069 E3.55368
G1 X99.595 Y107.452 E3.76846
G1 X98.714 Y107.452 E3.78943
G1 X105.763 Y100.404 E4.02660
G1 X105.623 Y100.089 E4.03479
G1 X105.463 Y99.822 E4.04219
G1 X102.229 Y103.057 E4.15103
G1 X102.232 Y102.674 E4.16015
G1 X102.176 Y102.229 E4.17081
G1 X105.080 Y99.325 E4.26854
G1 X104.622 Y98.902 E4.28337
G1 X101.937 Y101.587 E4.37374
G1 X101.748 Y101.312 E4.38168
G1 X101.545 Y101.098 E4.38870
G1 X104.097 Y98.546 E4.47458
G1 X103.761 Y98.370 E4.48362
G1 X103.502 Y98.260 E4.49031
G1 X101.015 Y100.746 E4.57397
G1 X100.680 Y100.615 E4.58255
G1 X100.347 Y100.534 E4.59069
G1 X102.842 Y98.039 E4.67465
G1 X102.537 Y97.960 E4.68216
G1 X102.114 Y97.886 E4.69238
G1 X99.533 Y100.467 E4.77922
G1 X98.652 Y100.467 E4.80018
G1 X101.327 Y97.792 E4.89018
G1 X101.040 Y97.768 E4.89703
G1 X100.473 Y97.765 E4.91052
G1 X97.771 Y100.467 E5.00144
G1 X97.182 Y100.467 E5.01545
G1 X97.182 Y101.056 E5.02946
G1 X93.870 Y104.368 E5.14091
G1 X93.870 Y103.487 E5.16187
G1 X99.596 Y97.762 E5.35454
G1 X98.719 Y97.758 E5.37541
G1 X93.870 Y102.606 E5.53857
G1 X93.870 Y101.726 E5.55953
G1 X97.841 Y97.754 E5.69316
G1 X97.647 Y97.753 E5.69778
G1 X97.647 Y97.067 E5.71410
G1 X93.870 Y100.845 E5.84121
G1 X93.870 Y99.964 E5.86217
G1 X97.647 Y96.186 E5.98928
G1 X97.647 Y95.305 E6.01024
G1 X93.870 Y99.083 E6.13735
G1 X93.870 Y98.202 E6.15831
G1 X97.647 Y94.424 E6.28542
G1 X97.647 Y93.543 E6.30638
G1 X93.870 Y97.321 E6.43349
G1 X93.870 Y96.440 E6.45445
G1 X97.647 Y92.662 E6.58156
G1 X97.647 Y92.548 E6.58429
G1 X96.881 Y92.548 E6.60252
G1 X93.870 Y95.559 E6.70384
G1 X93.870 Y94.678 E6.72480
G1 X96.000 Y92.548 E6.79649
G1 X95.119 Y92.548 E6.81745
G1 X93.870 Y93.797 E6.85950
G1 X93.870 Y93.013 E6.87816
G1 X94.654 Y93.013 E6.89682
G1 Z2.400 F7800.000
G1 X97.647 Y93.243 F7800.000
G1 F2486.2
G1 X96.952 Y92.548 E6.92020
G1 X96.071 Y92.548 E6.94116
G1 X97.647 Y94.124 E6.99419
G1 X97.647 Y95.005 E7.01515
G1 X95.190 Y92.548 E7.09782
G1 X94.310 Y92.548 E7.11878
G1 X97.647 Y95.885 E7.23109
G1 X97.647 Y96.766 E7.25205
G1 X93.870 Y92.989 E7.37916
G1 X93.870 Y93.870 E7.40012
G1 X97.647 Y97.647 E7.52723
G1 X97.647 Y98.218 E7.54082
G1 X98.221 Y98.221 E7.55447
G1 X100.487 Y100.487 E7.63072
G1 X99.586 Y100.467 E7.65215
G1 X93.870 Y94.751 E7.84450
G1 X93.870 Y95.632 E7.86546
G1 X98.705 Y100.467 E8.02817
G1 X97.824 Y100.467 E8.04913
G1 X93.870 Y96.513 E8.18220
G1 X93.870 Y97.394 E8.20316
G1 X97.647 Y101.171 E8.33026
G1 X97.647 Y102.052 E8.35122
G1 X93.870 Y98.274 E8.47833
G1 X93.870 Y99.155 E8.49929
G1 X97.647 Y102.933 E8.62640
G1 X97.647 Y103.814 E8.64736
G1 X93.870 Y100.036 E8.77447
G1 X93.870 Y100.917 E8.79543
G1 X97.647 Y104.695 E8.92254
G1 X97.647 Y105.205 E8.93468
G1 X98.157 Y105.205 E8.94681
G1 X94.335 Y106.668 F7800.000
G1 F2486.2
G1 X94.335 Y107.452 E8.96547
G1 X95.119 Y107.452 E8.98413
G1 X93.870 Y106.203 E9.02618
G1 X93.870 Y105.322 E9.04714
G1 X96.000 Y107.452 E9.11882
G1 X96.881 Y107.452 E9.13978
G1 X93.870 Y104.441 E9.24111
G1 X93.870 Y103.560 E9.26207
G1 X97.762 Y107.452 E9.39304
G1 X98.643 Y107.452 E9.41400
G1 X93.870 Y102.679 E9.57462
G1 X93.870 Y101.798 E9.59558
G1 X99.524 Y107.452 E9.78583
G1 X100.405 Y107.452 E9.80679
G1 X97.692 Y104.740 E9.89807
G1 X98.573 Y104.740 E9.91903
G1 X101.259 Y107.425 E10.00940
G1 X102.051 Y107.336 E10.02836
G1 X99.454 Y104.740 E10.11574
G1 X99.949 Y104.727 E10.12751
G1 X100.282 Y104.686 E10.13549
G1 X102.782 Y107.186 E10.21962
G1 X103.447 Y106.971 E10.23626
G1 X100.963 Y104.487 E10.31984
G1 X101.309 Y104.298 E10.32922
G1 X101.506 Y104.148 E10.33509
G1 X104.046 Y106.689 E10.42058
G1 X104.577 Y106.339 E10.43571
G1 X101.911 Y103.673 E10.52543
G1 X102.076 Y103.335 E10.53438
G1 X102.162 Y103.043 E10.54161
G1 X105.039 Y105.920 E10.63840
G1 X105.320 Y105.597 E10.64860
G1 X105.433 Y105.433 E10.65333
G1 X102.232 Y102.232 E10.76102
G1 X102.200 Y101.895 E10.76909
G1 X102.105 Y101.501 E10.77872
G1 X101.980 Y101.199 E10.78650
G1 X101.816 Y100.935 E10.79388
G1 X105.741 Y104.860 E10.92592
G1 X105.867 Y104.557 E10.93374
G1 X105.970 Y104.209 E10.94237
G1 X99.526 Y97.764 E11.15923
G1 X100.411 Y97.768 E11.18029
G1 X106.095 Y103.453 E11.37157
G1 X106.130 Y102.844 E11.38608
G1 X106.118 Y102.594 E11.39202
G1 X101.360 Y97.837 E11.55211
G1 X102.094 Y97.965 E11.56982
G1 X102.466 Y98.061 E11.57896
G1 X105.990 Y101.586 E11.69755
G1 X101.844 Y100.963 F7800.000
G1 F2486.2
G1 X98.641 Y97.760 E11.80535
G1 X97.756 Y97.756 E11.82641
G1 Z2.700 F7800.000
G1 E9.82641 F2400.00000
G92 E0
G1 X94.654 Y93.013 F7800.000
G1 E2.00000 F2400.00000
G1 F2469.87
G1 X93.870 Y93.013 E2.01866
G1 X93.870 Y93.797 E2.03732
G1 X95.119 Y92.548 E2.07936
G1 X96.000 Y92.548 E2.10032
G1 X93.870 Y94.678 E2.17201
G1 X93.870 Y95.559 E2.19297
G1 X96.881 Y92.548 E2.29430
G1 X97.647 Y92.548 E2.31253
G1 X97.647 Y92.662 E2.31526
G1 X93.870 Y96.440 E2.44237
G1 X93.870 Y97.321 E2.46333
G1 X97.647 Y93.543 E2.59044
G1 X97.647 Y94.424 E2.61140
G1 X93.870 Y98.202 E2.73851
G1 X93.870 Y99.083 E2.75947
G1 X97.647 Y95.305 E2.88657
G1 X97.647 Y96.186 E2.90753
G1 X93.870 Y99.964 E3.03464
G1 X93.870 Y100.845 E3.05560
G1 X97.647 Y97.067 E3.18271
G1 X97.647 Y97.754 E3.19906
G1 X97.841 Y97.754 E3.20367
G1 X93.870 Y101.726 E3.33730
G1 X93.870 Y102.606 E3.35826
G1 X98.722 Y97.754 E3.52152
G1 X99.603 Y97.754 E3.54248
G1 X93.870 Y103.487 E3.73539
G1 X93.870 Y104.368 E3.75635
G1 X97.182 Y101.056 E3.86781
G1 X97.182 Y100.467 E3.88182
G1 X97.771 Y100.467 E3.89583
G1 X100.484 Y97.755 E3.98711
G1 X101.328 Y97.792 E4.00721
G1 X98.652 Y100.467 E4.09724
G1 X99.533 Y100.467 E4.11820
G1 X102.113 Y97.887 E4.20500
G1 X102.581 Y97.970 E4.21633
G1 X102.843 Y98.038 E4.22276
G1 X100.348 Y100.533 E4.30672
G1 X100.681 Y100.615 E4.31489
G1 X101.015 Y100.747 E4.32344
G1 X103.502 Y98.260 E4.40712
G1 X104.097 Y98.546 E4.42283
G1 X101.545 Y101.098 E4.50871
G1 X101.732 Y101.293 E4.51514
G1 X101.937 Y101.587 E4.52366
G1 X104.620 Y98.904 E4.61394
G1 X104.761 Y99.014 E4.61820
G1 X105.075 Y99.329 E4.62879
G1 X102.175 Y102.230 E4.72638
G1 X102.230 Y102.643 E4.73630
G1 X102.229 Y103.057 E4.74615
G1 X105.464 Y99.821 E4.85503
G1 X105.641 Y100.123 E4.86335
G1 X105.765 Y100.402 E4.87061
G1 X98.714 Y107.452 E5.10785
G1 X99.595 Y107.452 E5.12881
G1 X105.979 Y101.069 E5.34362
G1 X106.051 Y101.387 E5.35139
G1 X106.104 Y101.825 E5.36187
G1 X100.492 Y107.436 E5.55070
G1 X100.797 Y107.426 E5.55795
G1 X101.455 Y107.355 E5.57369
G1 X106.119 Y102.691 E5.73063
G1 X106.060 Y103.307 E5.74537
G1 X105.979 Y103.711 E5.75518
G1 X102.594 Y107.097 E5.86908
G1 X97.833 Y107.452 F7800.000
G1 F2469.87
G1 X100.575 Y104.710 E5.96135
G1 X100.289 Y104.734 E5.96818
G1 X99.665 Y104.740 E5.98302
G1 X96.952 Y107.452 E6.07430
G1 X96.071 Y107.452 E6.09527
G1 X98.784 Y104.740 E6.18655
G1 X97.903 Y104.740 E6.20751
G1 X95.190 Y107.452 E6.29879
G1 X94.310 Y107.452 E6.31975
G1 X97.647 Y104.115 E6.43206
G1 X97.647 Y103.234 E6.45302
G1 X93.870 Y107.011 E6.58013
G1 X93.870 Y106.130 E6.60109
G1 X97.647 Y102.353 E6.72820
G1 X97.647 Y101.472 E6.74916
G1 X93.870 Y105.249 E6.87627
G1 X93.870 Y104.368 E6.89723
G1 Z3.000 F7800.000
G1 X94.335 Y106.668 F7800.000
G1 F2530.05
G1 X94.335 Y107.452 E6.91589
G1 X95.119 Y107.452 E6.93455
G1 X93.870 Y106.203 E6.97659
G1 X93.870 Y105.322 E6.99755
G1 X96.000 Y107.452 E7.06924
G1 X96.881 Y107.452 E7.09020
G1 X93.870 Y104.441 E7.19153
G1 X93.870 Y103.560 E7.21249
G1 X97.762 Y107.452 E7.34346
G1 X98.643 Y107.452 E7.36442
G1 X93.870 Y102.679 E7.52503
G1 X93.870 Y101.798 E7.54599
G1 X99.524 Y107.452 E7.73625
G1 X100.405 Y107.452 E7.75721
G1 X97.692 Y104.740 E7.84849
G1 X98.573 Y104.740 E7.86945
G1 X101.259 Y107.425 E7.95983
G1 X102.049 Y107.335 E7.97875
G1 X99.454 Y104.740 E8.06607
G1 X99.929 Y104.728 E8.07736
G1 X100.281 Y104.686 E8.08581
G1 X102.780 Y107.184 E8.16989
G1 X103.447 Y106.971 E8.18656
G1 X100.963 Y104.487 E8.27014
G1 X101.320 Y104.291 E8.27982
G1 X101.506 Y104.148 E8.28539
G1 X104.046 Y106.689 E8.37087
G1 X104.410 Y106.463 E8.38107
G1 X104.576 Y106.338 E8.38601
G1 X101.932 Y103.694 E8.47498
G1 X102.071 Y103.347 E8.48388
G1 X102.162 Y103.043 E8.49142
G1 X105.040 Y105.921 E8.58826
G1 X105.323 Y105.594 E8.59855
G1 X105.433 Y105.433 E8.60319
G1 X102.231 Y102.231 E8.71093
G1 X102.198 Y101.881 E8.71931
G1 X102.137 Y101.599 E8.72617
G1 X101.974 Y101.189 E8.73668
G1 X101.816 Y100.935 E8.74378
G1 X105.741 Y104.860 E8.87584
G1 E6.87584 F2400.00000
G92 E0
G1 X105.134 Y99.848 F7800.000
G1 E2.00000 F2400.00000
G1 F2530.05
G1 X104.283 Y99.002 E2.02855
G1 X103.975 Y98.764 E2.03780
G1 X103.652 Y98.556 E2.04693
G1 X103.251 Y98.349 E2.05768
G1 X102.947 Y98.221 E2.06552
G1 X102.465 Y98.061 E2.07761
G1 X105.991 Y101.587 E2.19626
G1 X106.048 Y101.834 E2.20230
G1 X106.102 Y102.243 E2.21213
G1 X106.119 Y102.595 E2.22050
G1 X101.361 Y97.837 E2.38058
G1 X100.408 Y97.765 E2.40333
G1 X106.097 Y103.454 E2.59478
G1 X106.064 Y103.740 E2.60163
G1 X105.970 Y104.208 E2.61297
G1 X99.516 Y97.754 E2.83012
G1 X98.635 Y97.754 E2.85108
G1 X101.844 Y100.963 E2.95906
G1 X101.557 Y100.784 E2.96710
G1 X101.147 Y100.615 E2.97766
G1 X100.822 Y100.535 E2.98562
G1 X100.488 Y100.488 E2.99366
G1 X97.754 Y97.754 E3.08563
G1 X98.220 Y98.220 F7800.000
G1 F2530.05
G1 X97.647 Y98.220 E3.09924
G1 X97.647 Y97.647 E3.11286
G1 X93.870 Y93.870 E3.23997
G1 X93.870 Y92.989 E3.26093
G1 X97.647 Y96.766 E3.38804
G1 X97.647 Y95.885 E3.40900
G1 X94.310 Y92.548 E3.52131
G1 X95.190 Y92.548 E3.54227
G1 X97.647 Y95.005 E3.62494
G1 X97.647 Y94.124 E3.64590
G1 X96.071 Y92.548 E3.69893
G1 X96.952 Y92.548 E3.71989
G1 X97.647 Y93.243 E3.74328
G1 E1.74328 F2400.00000
G92 E0
G1 X99.586 Y100.467 F7800.000
G1 E2.00000 F2400.00000
G1 F2530.05
G1 X93.870 Y94.751 E2.19235
G1 X93.870 Y95.632 E2.21331
G1 X98.705 Y100.467 E2.37602
G1 X97.824 Y100.467 E2.39698
G1 X93.870 Y96.513 E2.53004
G1 X93.870 Y97.394 E2.55100
G1 X97.647 Y101.171 E2.67811
G1 X97.647 Y102.052 E2.69907
G1 X93.870 Y98.274 E2.82618
G1 X93.870 Y99.155 E2.84714
G1 X97.647 Y102.933 E2.97425
G1 X97.647 Y103.814 E2.99521
G1 X93.870 Y100.036 E3.12232
G1 X93.870 Y100.917 E3.14328
G1 X97.647 Y104.695 E3.27039
G1 X97.647 Y105.205 E3.28252
G1 X98.157 Y105.205 E3.29466
M106 S237.15
G1 Z3.300 F7800.000
G1 X98.503 Y107.429 F7800.000
G1 F1200
G1 X101.401 Y104.532 E3.40578
G1 X100.929 Y104.678 E3.41917
G1 X100.641 Y104.728 E3.42710
G1 X100.272 Y104.757 E3.43715
G1 X97.600 Y107.429 E3.53962
G1 X96.696 Y107.429 E3.56412
G1 X99.363 Y104.762 E3.66639
G1 X98.460 Y104.762 E3.69089
G1 X95.793 Y107.429 E3.79317
G1 X94.889 Y107.429 E3.81767
G1 X97.624 Y104.694 E3.92256
G1 X97.624 Y103.791 E3.94706
G1 X93.986 Y107.429 E4.08661
G1 X93.893 Y107.429 E4.08912
G1 X93.893 Y106.619 E4.11111
G1 X97.624 Y102.887 E4.25421
G1 X97.624 Y101.983 E4.27872
G1 X93.893 Y105.715 E4.42182
G1 X93.893 Y104.812 E4.44632
G1 X97.624 Y101.080 E4.58943
G1 X97.624 Y100.176 E4.61393
G1 X93.893 Y103.908 E4.75703
G1 X93.893 Y103.004 E4.78153
G1 X94.387 Y92.571 F7800.000
G1 F1200
G1 X93.893 Y93.065 E4.80050
G1 X93.893 Y93.969 E4.82500
G1 X95.291 Y92.571 E4.87862
G1 X96.194 Y92.571 E4.90312
G1 X93.893 Y94.872 E4.99139
G1 X93.893 Y95.776 E5.01589
G1 X97.098 Y92.571 E5.13880
G1 X97.624 Y92.571 E5.15308
G1 X97.624 Y92.948 E5.16331
G1 X93.893 Y96.679 E5.30641
G1 X93.893 Y97.583 E5.33091
G1 X97.624 Y93.851 E5.47402
G1 X97.624 Y94.755 E5.49852
G1 X93.893 Y98.487 E5.64162
G1 X93.893 Y99.390 E5.66613
G1 X97.624 Y95.658 E5.80923
G1 X97.624 Y96.562 E5.83373
G1 X93.893 Y100.294 E5.97684
G1 X93.893 Y101.197 E6.00134
G1 X97.624 Y97.466 E6.14444
G1 X97.624 Y97.777 E6.15290
G1 X98.216 Y97.777 E6.16895
G1 X93.893 Y102.101 E6.33475
G1 X93.893 Y103.004 E6.35925
G1 X99.120 Y97.777 E6.55970
G1 X100.023 Y97.777 E6.58420
G1 X97.356 Y100.444 E6.68648
G1 X98.260 Y100.444 E6.71098
G1 X100.915 Y97.789 E6.81281
G1 X101.757 Y97.851 E6.83570
G1 X99.164 Y100.444 E6.93517
G1 X100.043 Y100.468 E6.95902
G1 X102.528 Y97.984 E7.05430
G1 X102.947 Y98.085 E7.06600
G1 X103.233 Y98.182 E7.07420
G1 X100.783 Y100.632 E7.16815
G1 X101.108 Y100.772 E7.17773
G1 X101.378 Y100.941 E7.18637
G1 X103.870 Y98.449 E7.28194
G1 X104.113 Y98.574 E7.28935
G1 X104.438 Y98.784 E7.29985
G1 X101.831 Y101.391 E7.39983
G1 X101.990 Y101.646 E7.40797
G1 X102.132 Y101.993 E7.41815
G1 X104.930 Y99.196 E7.52542
G1 X105.165 Y99.442 E7.53465
G1 X105.344 Y99.685 E7.54284
G1 X102.256 Y102.773 E7.66126
G1 X102.250 Y103.103 E7.67022
G1 X102.222 Y103.341 E7.67671
G1 X102.160 Y103.635 E7.68485
G1 X102.091 Y103.842 E7.69078
G1 X105.681 Y100.252 E7.82846
G1 X105.772 Y100.455 E7.83448
G1 X105.923 Y100.913 E7.84757
G1 X99.407 Y107.429 E8.09746
G1 X100.321 Y107.419 E8.12224
G1 X106.067 Y101.673 E8.34258
G1 X106.107 Y102.363 E8.36130
G1 X106.100 Y102.544 E8.36621
G1 X101.289 Y107.355 E8.55070
G1 X101.805 Y107.274 E8.56487
G1 X102.213 Y107.186 E8.57619
G1 X102.430 Y107.117 E8.58234
G1 X105.981 Y103.566 E8.71854
G1 X105.838 Y104.089 E8.73325
G1 X105.653 Y104.528 E8.74615
G1 X105.450 Y104.885 E8.75731
G1 X105.309 Y105.090 E8.76405
G1 X104.993 Y105.458 E8.77719
G1 X104.496 Y105.955 E8.79625
M106 S239.7
G1 Z3.600 F7800.000
G1 X105.665 Y104.993 F7800.000
G1 F1200
G1 X102.112 Y101.440 E8.93413
G1 X102.218 Y101.846 E8.94565
G1 X102.250 Y102.115 E8.95309
G1 X102.254 Y102.496 E8.96353
G1 X105.322 Y105.564 E9.08260
G1 X105.007 Y105.938 E9.09603
G1 X104.890 Y106.046 E9.10039
G1 X102.116 Y103.272 E9.20805
G1 X101.972 Y103.604 E9.21799
G1 X101.796 Y103.867 E9.22665
G1 X104.386 Y106.457 E9.32716
G1 X104.095 Y106.643 E9.33664
G1 X103.805 Y106.790 E9.34556
G1 X101.324 Y104.308 E9.44186
G1 X101.118 Y104.432 E9.44846
G1 X100.706 Y104.605 E9.46071
G1 X103.147 Y107.046 E9.55546
G1 X102.686 Y107.191 E9.56872
G1 X102.433 Y107.246 E9.57583
G1 X99.935 Y104.749 E9.67275
G1 X99.035 Y104.762 E9.69746
G1 X101.640 Y107.368 E9.79855
G1 X101.196 Y107.408 E9.81079
G1 X100.779 Y107.421 E9.82224
G1 X98.120 Y104.762 E9.92539
G1 X97.206 Y104.762 E9.95048
G1 X99.873 Y107.429 E10.05397
G1 X98.959 Y107.429 E10.07905
G1 X93.893 Y102.363 E10.27564
G1 X93.893 Y103.278 E10.30073
G1 X98.044 Y107.429 E10.46183
G1 X97.130 Y107.429 E10.48692
G1 X93.893 Y104.192 E10.61254
G1 X93.893 Y105.106 E10.63763
G1 X96.216 Y107.429 E10.72778
G1 X95.302 Y107.429 E10.75287
G1 X93.893 Y106.021 E10.80754
G1 X93.893 Y106.935 E10.83262
G1 X94.387 Y107.429 E10.85181
G1 X97.701 Y105.257 F7800.000
G1 F1200
G1 X97.624 Y105.257 E10.85390
G1 X97.624 Y105.181 E10.85599
G1 X93.893 Y101.449 E11.00079
G1 X93.893 Y100.535 E11.02588
G1 X97.624 Y104.266 E11.17068
G1 X97.624 Y103.352 E11.19577
G1 X93.893 Y99.620 E11.34057
G1 X93.893 Y98.706 E11.36566
G1 X97.624 Y102.438 E11.51046
G1 X97.624 Y101.524 E11.53555
G1 X93.893 Y97.792 E11.68035
G1 X93.893 Y96.878 E11.70544
G1 X97.624 Y100.609 E11.85025
G1 X97.624 Y100.444 E11.85477
G1 X98.374 Y100.444 E11.87533
G1 X93.893 Y95.963 E12.04921
G1 X93.893 Y95.049 E12.07430
G1 X99.288 Y100.444 E12.28366
G1 X98.030 Y98.272 F7800.000
G1 F1200
G1 X97.624 Y98.272 E12.29478
G1 X97.624 Y97.866 E12.30591
G1 X93.893 Y94.135 E12.45071
G1 X93.893 Y93.220 E12.47580
G1 X97.624 Y96.952 E12.62060
G1 X97.624 Y96.038 E12.64569
G1 X94.157 Y92.571 E12.78023
G1 X95.072 Y92.571 E12.80531
G1 X97.624 Y95.123 E12.90437
G1 X97.624 Y94.209 E12.92946
G1 X95.986 Y92.571 E12.99304
G1 X96.900 Y92.571 E13.01813
G1 X97.624 Y93.295 E13.04623
G1 X97.535 Y97.777 F7800.000
G1 F1200
G1 X100.206 Y100.448 E13.14985
G1 X100.634 Y100.478 E13.16163
G1 X100.890 Y100.522 E13.16876
G1 X101.320 Y100.647 E13.18104
G1 X98.450 Y97.777 E13.29240
G1 X99.364 Y97.777 E13.31749
G1 X105.913 Y104.327 E13.57163
G1 X105.963 Y104.157 E13.57648
G1 X106.065 Y103.564 E13.59298
G1 X100.286 Y97.785 E13.81722
G1 X100.655 Y97.796 E13.82735
G1 X101.266 Y97.851 E13.84417
G1 X106.100 Y102.684 E14.03173
G1 X106.083 Y102.294 E14.04245
G1 X105.980 Y101.650 E14.06033
G1 X102.401 Y98.071 E14.19922
G1 X102.939 Y98.249 E14.21477
G1 X103.191 Y98.355 E14.22227
G1 X103.617 Y98.573 E14.23542
G1 X103.990 Y98.816 E14.24763
G1 X104.209 Y98.986 E14.25522
G1 X105.020 Y99.776 E14.28628
M106 S226.95
G1 Z3.900 F7800.000
G1 E12.28628 F2400.00000
G92 E0
G1 X104.525 Y105.926 F7800.000
G1 E2.00000 F2400.00000
G1 F900
G1 X105.022 Y105.428 E2.01907
G1 X105.308 Y105.090 E2.03107
G1 X105.553 Y104.717 E2.04318
G1 X105.653 Y104.528 E2.04897
G1 X105.832 Y104.105 E2.06143
G1 X105.982 Y103.565 E2.07664
G1 X102.415 Y107.132 E2.21344
G1 X102.182 Y107.194 E2.21996
G1 X101.289 Y107.354 E2.24456
G1 X106.099 Y102.544 E2.42903
G1 X106.107 Y102.362 E2.43397
G1 X106.065 Y101.674 E2.45265
G1 X100.320 Y107.420 E2.67299
G1 X99.407 Y107.429 E2.69774
G1 X105.923 Y100.913 E2.94763
G1 X105.682 Y100.250 E2.96676
G1 X102.090 Y103.843 E3.10453
G1 X102.216 Y103.385 E3.11740
G1 X102.248 Y103.127 E3.12446
G1 X102.256 Y102.773 E3.13404
G1 X105.345 Y99.684 E3.25251
G1 X105.170 Y99.449 E3.26046
G1 X104.929 Y99.196 E3.26992
G1 X102.132 Y101.994 E3.37720
G1 X101.981 Y101.629 E3.38790
G1 X101.830 Y101.392 E3.39553
G1 X104.435 Y98.787 E3.49542
G1 X104.115 Y98.575 E3.50583
G1 X103.869 Y98.449 E3.51331
G1 X101.377 Y100.941 E3.60887
G1 X101.141 Y100.789 E3.61648
G1 X100.783 Y100.632 E3.62709
G1 X103.233 Y98.182 E3.72104
G1 X102.934 Y98.081 E3.72958
G1 X102.528 Y97.983 E3.74091
G1 X100.042 Y100.469 E3.83625
G1 X99.163 Y100.444 E3.86009
G1 X101.748 Y97.859 E3.95921
G1 X101.167 Y97.797 E3.97506
G1 X100.915 Y97.789 E3.98191
G1 X98.260 Y100.444 E4.08372
G1 X97.356 Y100.444 E4.10822
G1 X100.023 Y97.777 E4.21049
G1 X99.120 Y97.777 E4.23499
G1 X93.893 Y103.004 E4.43543
G1 X93.893 Y102.101 E4.45994
G1 X98.216 Y97.777 E4.62573
G1 X97.624 Y97.777 E4.64177
G1 X97.624 Y97.465 E4.65023
G1 X93.893 Y101.197 E4.79333
G1 X93.893 Y100.294 E4.81783
G1 X97.624 Y96.562 E4.96094
G1 X97.624 Y95.658 E4.98544
G1 X93.893 Y99.390 E5.12854
G1 X93.893 Y98.486 E5.15304
G1 X97.624 Y94.755 E5.29614
G1 X97.624 Y93.851 E5.32064
G1 X93.893 Y97.583 E5.46374
G1 X93.893 Y96.679 E5.48824
G1 X97.624 Y92.948 E5.63135
G1 X97.624 Y92.571 E5.64157
G1 X97.098 Y92.571 E5.65585
G1 X93.893 Y95.776 E5.77876
G1 X93.893 Y94.872 E5.80326
G1 X96.194 Y92.571 E5.89153
G1 X95.291 Y92.571 E5.91603
G1 X93.893 Y93.969 E5.96964
G1 X93.893 Y93.065 E5.99414
G1 X94.387 Y92.571 E6.01311
G1 E4.01311 F2400.00000
G92 E0
G1 X93.893 Y103.004 F7800.000
G1 E2.00000 F2400.00000
G1 F900
G1 X93.893 Y103.908 E2.02450
G1 X97.624 Y100.176 E2.16760
G1 X97.624 Y101.080 E2.19210
G1 X93.893 Y104.811 E2.33521
G1 X93.893 Y105.715 E2.35971
G1 X97.624 Y101.983 E2.50281
G1 X97.624 Y102.887 E2.52731
G1 X93.893 Y106.618 E2.67041
G1 X93.893 Y107.429 E2.69240
G1 X93.985 Y107.429 E2.69491
G1 X97.624 Y103.790 E2.83446
G1 X97.624 Y104.694 E2.85896
G1 X94.889 Y107.429 E2.96387
G1 X95.792 Y107.429 E2.98837
G1 X98.459 Y104.762 E3.09064
G1 X99.363 Y104.762 E3.11514
G1 X96.696 Y107.429 E3.21741
G1 X97.600 Y107.429 E3.24191
G1 X100.272 Y104.757 E3.34440
G1 X100.656 Y104.726 E3.35484
G1 X100.922 Y104.680 E3.36216
G1 X101.401 Y104.532 E3.37575
G1 X98.503 Y107.429 E3.48686
G1 E1.48686 F2400.00000
G92 E0
M107
; Filament-specific end gcode 
;END gcode for filament

M104 S0 ; turn off temperature
G28 X0  ; home X axis
M84     ; disable motors

M140 S0 ; set bed temperature
; filament used = 67.5mm (0.5cm3)
; total filament cost = 0.0

; avoid_crossing_perimeters = 0
; bed_shape = 0x0,200x0,200x200,0x200
; bed_temperature = 0
; before_layer_gcode = 
; between_objects_gcode = 
; bridge_acceleration = 0
; bridge_fan_speed = 100
; brim_connections_width = 0
; brim_width = 0
; complete_objects = 0
; cooling = 1
; default_acceleration = 0
; disable_fan_first_layers = 3
; duplicate_distance = 6
; end_filament_gcode = "; Filament-specific end gcode \n;END gcode for filament\n"
; end_gcode = M104 S0 ; turn off temperature\nG28 X0  ; home X axis\nM84     ; disable motors\n
; extruder_clearance_height = 20
; extruder_clearance_radius = 20
; extruder_offset = 0x0
; extrusion_axis = E
; extrusion_multiplier = 1
; fan_always_on = 0
; fan_below_layer_time = 60
; filament_colour = #FFFFFF
; filament_cost = 0
; filament_density = 0
; filament_diameter = 3
; filament_max_volumetric_speed = 0
; filament_notes = ""
; first_layer_acceleration = 0
; first_layer_bed_temperature = 0
; first_layer_extrusion_width = 200%
; first_layer_speed = 30
; first_layer_temperature = 205
; gcode_arcs = 0
; gcode_comments = 0
; gcode_flavor = reprap
; has_heatbed = 1
; infill_acceleration = 0
; infill_first = 0
; interior_brim_width = 0
; layer_gcode = 
; max_fan_speed = 100
; max_layer_height = 0.3
; max_print_speed = 80
; max_volumetric_speed = 0
; min_fan_speed = 35
; min_layer_height = 0.15
; min_print_speed = 10
; min_skirt_length = 0
; notes = 
; nozzle_diameter = 0.5
; only_retract_when_crossing_perimeters = 1
; ooze_prevention = 0
; output_filename_format = [input_filename_base].gcode
; perimeter_acceleration = 0
; post_process = 
; pressure_advance = 0
; printer_notes = 
; resolution = 0
; retract_before_travel = 2
; retract_layer_change = 0
; retract_length = 2
; retract_length_toolchange = 10
; retract_lift = 0
; retract_lift_above = 0
; retract_lift_below = 0
; retract_restart_extra = 0
; retract_restart_extra_toolchange = 0
; retract_speed = 40
; skirt_distance = 6
; skirt_height = 1
; skirts = 0
; slowdown_below_layer_time = 5
; spiral_vase = 0
; standby_temperature_delta = -5
; start_filament_gcode = "; Filament gcode\n"
; start_gcode = G28 ; home all axes\nG1 Z5 F5000 ; lift nozzle\n
; temperature = 200
; threads = 8
; toolchange_gcode = 
; travel_speed = 130
; use_firmware_retraction = 0
; use_relative_e_distances = 0
; use_set_and_wait_bed = 0
; use_set_and_wait_extruder = 0
; use_volumetric_e = 0
; vibration_limit = 0
; wipe = 0
; z_offset = 0
; z_steps_per_mm = 0
; adaptive_slicing = 0
; adaptive_slicing_quality = 75%
; dont_support_bridges = 1
; extrusion_width = 0
; first_layer_height = 0.3
; infill_only_where_needed = 0
; interface_shells = 0
; layer_height = 0.3
; match_horizontal_surfaces = 0
; raft_layers = 0
; regions_overlap = 0
; seam_position = aligned
; sequential_print_priority = 0
; support_material = 0
; support_material_angle = 0
; support_material_buildplate_only = 0
; support_material_contact_distance = 0.2
; support_material_enforce_layers = 0
; support_material_extruder = 1
; support_material_extrusion_width = 0
; support_material_interface_extruder = 1
; support_material_interface_extrusion_width = 0
; support_material_interface_layers = 3
; support_material_interface_spacing = 0
; support_material_interface_speed = 100%
; support_material_max_layers = 0
; support_material_pattern = pillars
; support_material_spacing = 2.5
; support_material_speed = 60
; support_material_threshold = 60%
; xy_size_compensation = 0
; bottom_infill_pattern = rectilinear
; bottom_solid_layers = 3
; bridge_flow_ratio = 1
; bridge_speed = 60
; external_perimeter_extrusion_width = 0
; external_perimeter_speed = 50%
; external_perimeters_first = 0
; extra_perimeters = 1
; fill_angle = 45
; fill_density = 90%
; fill_gaps = 1
; fill_pattern = rectilinear
; gap_fill_speed = 20
; infill_every_layers = 1
; infill_extruder = 1
; infill_extrusion_width = 0
; infill_overlap = 55%
; infill_speed = 80
; overhangs = 1
; perimeter_extruder = 1
; perimeter_extrusion_width = 0
; perimeter_speed = 60
; perimeters = 0
; small_perimeter_speed = 15
; solid_infill_below_area = 70
; solid_infill_every_layers = 0
; solid_infill_extruder = 1
; solid_infill_extrusion_width = 0
; solid_infill_speed = 20
; thin_walls = 1
; top_infill_extrusion_width = 0
; top_infill_pattern = rectilinear
; top_solid_infill_speed = 15
; top_solid_layers = 3
