; generated by Slic3r 1.3.0 on 2021-03-02 at 14:09:40

; external perimeters extrusion width = 0.55mm (5.57mm^3/s)
; perimeters extrusion width = 0.58mm (11.78mm^3/s)
; infill extrusion width = 0.58mm (15.71mm^3/s)
; solid infill extrusion width = 0.58mm (3.93mm^3/s)
; top infill extrusion width = 0.58mm (2.95mm^3/s)

M107
M104 S205 ; set temperature
G28 ; home all axes
G1 Z5 F5000 ; lift nozzle

; Filament gcode

M109 S205 ; set temperature and wait for it to be reached
G21 ; set units to millimeters
G90 ; use absolute coordinates
M82 ; use absolute distances for extrusion
G92 E0
G1 Z0.400 F7800.000
G1 E-2.00000 F2400.00000
G92 E0
G1 X94.105 Y92.011 F7800.000
G1 E2.00000 F2400.00000
G1 F1800
G1 X93.511 Y92.605 E2.03394
G1 X93.511 Y93.473 E2.06901
G1 X94.973 Y92.011 E2.15254
G1 X95.840 Y92.011 E2.18761
G1 X93.511 Y94.340 E2.32073
G1 X93.511 Y95.208 E2.35580
G1 X96.708 Y92.011 E2.53852
G1 X97.564 Y92.023 E2.57310
G1 X93.511 Y96.076 E2.80472
G1 X93.511 Y96.944 E2.83979
G1 X97.564 Y92.891 E3.07141
G1 X97.564 Y93.759 E3.10647
G1 X93.511 Y97.811 E3.33809
G1 X93.511 Y98.679 E3.37316
G1 X97.564 Y94.627 E3.60478
G1 X97.564 Y95.494 E3.63985
G1 X93.511 Y99.547 E3.87146
G1 X93.511 Y100.415 E3.90653
G1 X97.564 Y96.362 E4.13815
G1 X97.564 Y97.230 E4.17322
G1 X93.511 Y101.282 E4.40484
G1 X93.511 Y102.150 E4.43991
G1 X98.096 Y97.565 E4.70196
G1 X98.964 Y97.565 E4.73703
G1 X93.511 Y103.018 E5.04869
G1 X93.511 Y103.886 E5.08375
G1 X99.832 Y97.565 E5.44500
G1 X100.694 Y97.571 E5.47984
G1 X97.726 Y100.538 E5.64943
G1 X98.594 Y100.538 E5.68450
G1 X101.516 Y97.616 E5.85151
G1 X101.939 Y97.656 E5.86869
G1 X102.287 Y97.713 E5.88291
G1 X99.462 Y100.538 E6.04435
G1 X99.883 Y100.547 E6.06135
G1 X100.276 Y100.592 E6.07734
G1 X102.995 Y97.872 E6.23278
G1 X103.649 Y98.087 E6.26057
G1 X100.953 Y100.783 E6.41463
G1 X101.150 Y100.873 E6.42340
G1 X101.495 Y101.108 E6.44028
G1 X104.234 Y98.369 E6.59682
G1 X104.765 Y98.706 E6.62223
G1 X101.914 Y101.557 E6.78519
G1 X102.039 Y101.766 E6.79500
G1 X102.192 Y102.147 E6.81162
G1 X105.229 Y99.110 E6.98523
G1 X105.633 Y99.574 E7.01009
G1 X102.309 Y102.897 E7.20003
G1 X102.299 Y103.330 E7.21753
G1 X102.266 Y103.582 E7.22780
G1 X102.193 Y103.881 E7.24023
G1 X105.960 Y100.115 E7.45550
G1 X106.099 Y100.402 E7.46840
G1 X106.217 Y100.725 E7.48230
G1 X98.953 Y107.989 E7.89747
G1 X99.821 Y107.989 E7.93254
G1 X106.389 Y101.421 E8.30791
G1 X106.430 Y101.645 E8.31713
G1 X106.479 Y102.199 E8.33958
G1 X100.708 Y107.969 E8.66937
G1 X101.129 Y107.937 E8.68642
G1 X101.691 Y107.854 E8.70940
G1 X106.462 Y103.083 E8.98206
G1 X106.434 Y103.418 E8.99562
G1 X106.290 Y104.123 E9.02471
G1 X102.819 Y107.594 E9.22311
G1 E7.22311 F2400.00000
G92 E0
G1 X98.085 Y107.989 F7800.000
G1 E2.00000 F2400.00000
G1 F1800
G1 X101.229 Y104.845 E2.17968
G1 X100.932 Y104.928 E2.19213
G1 X100.684 Y104.973 E2.20235
G1 X100.194 Y105.012 E2.22219
G1 X97.218 Y107.989 E2.39232
G1 X96.350 Y107.989 E2.42739
G1 X99.323 Y105.016 E2.59731
G1 X98.455 Y105.016 E2.63238
G1 X95.482 Y107.989 E2.80230
G1 X94.614 Y107.989 E2.83737
G1 X97.587 Y105.016 E3.00729
G1 X97.564 Y105.016 E3.00825
G1 X97.564 Y104.172 E3.04236
G1 X93.747 Y107.989 E3.26052
G1 X93.511 Y107.989 E3.27003
G1 X93.511 Y107.357 E3.29558
G1 X97.564 Y103.304 E3.52720
G1 X97.564 Y102.436 E3.56227
G1 X93.511 Y106.489 E3.79389
G1 X93.511 Y105.621 E3.82896
G1 X97.564 Y101.569 E4.06057
G1 X97.564 Y100.701 E4.09564
G1 X93.511 Y104.753 E4.32726
G1 X93.511 Y103.886 E4.36233
M104 S200 ; set temperature
G1 Z0.800 F7800.000
G1 X97.249 Y105.059 F7800.000
G1 F2823.64
G1 X100.136 Y107.945 E4.47571
G1 X100.991 Y107.933 E4.49946
G1 X98.117 Y105.059 E4.61235
G1 X98.985 Y105.059 E4.63645
G1 X101.788 Y107.863 E4.74658
G1 X102.536 Y107.743 E4.76762
G1 X99.848 Y105.054 E4.87325
G1 X100.428 Y104.994 E4.88945
G1 X100.607 Y104.946 E4.89462
G1 X103.220 Y107.559 E4.99727
G1 X103.843 Y107.314 E5.01586
G1 X101.236 Y104.707 E5.11828
G1 X101.565 Y104.477 E5.12941
G1 X101.725 Y104.329 E5.13549
G1 X104.411 Y107.014 E5.24100
G1 X104.716 Y106.810 E5.25120
G1 X104.909 Y106.645 E5.25826
G1 X102.089 Y103.825 E5.36904
G1 X102.189 Y103.602 E5.37581
G1 X102.306 Y103.174 E5.38815
G1 X105.355 Y106.222 E5.50791
G1 X105.644 Y105.859 E5.52080
G1 X105.727 Y105.727 E5.52514
G1 X102.348 Y102.348 E5.65789
G1 X102.280 Y101.880 E5.67102
G1 X102.199 Y101.609 E5.67887
G1 X102.045 Y101.274 E5.68911
G1 X101.817 Y100.950 E5.70012
G1 X106.032 Y105.164 E5.86568
G1 E3.86568 F2400.00000
G92 E0
G1 X106.065 Y100.859 F7800.000
G1 E2.00000 F2400.00000
G1 F2823.64
G1 X103.422 Y98.216 E2.10383
G1 X102.929 Y98.021 E2.11856
G1 X102.437 Y97.875 E2.13281
G1 X102.159 Y97.821 E2.14067
G1 X106.380 Y102.042 E2.30649
G1 X106.438 Y102.642 E2.32324
G1 X106.439 Y102.968 E2.33231
G1 X101.139 Y97.668 E2.54055
G1 X100.705 Y97.625 E2.55266
G1 X100.215 Y97.612 E2.56625
G1 X106.395 Y103.791 E2.80899
G1 X106.311 Y104.298 E2.82325
G1 X106.252 Y104.517 E2.82954
G1 X99.344 Y97.608 E3.10092
G1 X98.476 Y97.608 E3.12502
G1 X101.976 Y101.108 E3.26251
G1 X101.658 Y100.880 E3.27336
G1 X101.352 Y100.728 E3.28288
G1 X100.913 Y100.589 E3.29565
G1 X100.523 Y100.523 E3.30665
G1 X97.608 Y97.608 E3.42114
G1 X97.990 Y97.990 F7800.000
G1 F2823.64
G1 X97.520 Y97.990 E3.43419
G1 X97.520 Y97.520 E3.44724
G1 X93.555 Y93.555 E3.60303
G1 X93.555 Y92.687 E3.62714
G1 X97.520 Y96.653 E3.78293
G1 X97.520 Y95.785 E3.80703
G1 X93.790 Y92.055 E3.95357
G1 X94.658 Y92.055 E3.97768
G1 X97.520 Y94.917 E4.09013
G1 X97.520 Y94.049 E4.11423
G1 X95.526 Y92.055 E4.19259
G1 X96.393 Y92.055 E4.21670
G1 X97.520 Y93.182 E4.26097
G1 E2.26097 F2400.00000
G92 E0
G1 X99.627 Y100.495 F7800.000
G1 E2.00000 F2400.00000
G1 F2823.64
G1 X93.555 Y94.422 E2.23854
G1 X93.555 Y95.290 E2.26265
G1 X98.759 Y100.495 E2.46710
G1 X97.891 Y100.495 E2.49121
G1 X93.555 Y96.158 E2.66158
G1 X93.555 Y97.026 E2.68568
G1 X97.520 Y100.991 E2.84147
G1 X97.520 Y101.859 E2.86557
G1 X93.555 Y97.893 E3.02136
G1 X93.555 Y98.761 E3.04547
G1 X97.520 Y102.727 E3.20126
G1 X97.520 Y103.595 E3.22536
G1 X93.555 Y99.629 E3.38115
G1 X93.555 Y100.497 E3.40526
G1 X97.520 Y104.462 E3.56105
G1 X97.520 Y105.330 E3.58515
G1 X93.555 Y101.364 E3.74094
G1 X93.555 Y102.232 E3.76504
G1 X99.268 Y107.945 E3.98949
G1 X98.400 Y107.945 E4.01360
G1 X93.555 Y103.100 E4.20395
G1 X93.555 Y103.968 E4.22806
G1 X97.532 Y107.945 E4.38433
G1 X96.665 Y107.945 E4.40843
G1 X93.555 Y104.835 E4.53061
G1 X93.555 Y105.703 E4.55472
G1 X95.797 Y107.945 E4.64281
G1 X94.929 Y107.945 E4.66691
G1 X93.555 Y106.571 E4.72092
G1 X93.555 Y107.439 E4.74502
G1 X94.061 Y107.945 E4.76494
G1 X93.936 Y107.945 E4.76841
G1 X93.936 Y107.820 E4.77189
G1 Z1.200 F7800.000
G1 X93.555 Y103.842 F7800.000
G1 F2788.12
G1 X93.555 Y104.710 E4.79600
G1 X97.520 Y100.744 E4.95179
G1 X97.520 Y101.612 E4.97589
G1 X93.555 Y105.578 E5.13168
G1 X93.555 Y106.445 E5.15578
G1 X97.520 Y102.480 E5.31157
G1 X97.520 Y103.347 E5.33568
G1 X93.555 Y107.313 E5.49147
G1 X93.555 Y107.945 E5.50903
G1 X93.790 Y107.945 E5.51557
G1 X97.520 Y104.215 E5.66211
G1 X97.520 Y105.059 E5.68556
G1 X97.544 Y105.059 E5.68622
G1 X94.658 Y107.945 E5.79960
G1 X95.526 Y107.945 E5.82370
G1 X98.412 Y105.059 E5.93709
G1 X99.280 Y105.059 E5.96119
G1 X96.393 Y107.945 E6.07457
G1 X97.261 Y107.945 E6.09868
G1 X100.150 Y105.057 E6.21216
G1 X100.742 Y105.001 E6.22867
G1 X101.185 Y104.889 E6.24138
G1 X98.129 Y107.945 E6.36145
G1 X102.857 Y107.556 F7800.000
G1 F2788.12
G1 X106.246 Y104.167 E6.49462
G1 X106.390 Y103.463 E6.51455
G1 X106.417 Y103.128 E6.52389
G1 X101.731 Y107.814 E6.70797
G1 X101.369 Y107.873 E6.71815
G1 X100.757 Y107.920 E6.73520
G1 X106.437 Y102.241 E6.95832
G1 X106.411 Y101.899 E6.96785
G1 X106.343 Y101.467 E6.97999
G1 X99.864 Y107.945 E7.23450
G1 X98.997 Y107.945 E7.25860
G1 X106.171 Y100.771 E7.54045
G1 X106.031 Y100.388 E7.55177
G1 X105.920 Y100.155 E7.55896
G1 X102.237 Y103.837 E7.70361
G1 X102.331 Y103.395 E7.71616
G1 X102.354 Y102.853 E7.73124
G1 X105.588 Y99.619 E7.85828
G1 X105.185 Y99.154 E7.87536
G1 X102.236 Y102.103 E7.99123
G1 X102.097 Y101.751 E8.00174
G1 X101.957 Y101.514 E8.00939
G1 X104.721 Y98.750 E8.11796
G1 X104.192 Y98.412 E8.13541
G1 X101.540 Y101.063 E8.23956
G1 X101.307 Y100.898 E8.24748
G1 X100.995 Y100.740 E8.25720
G1 X103.603 Y98.133 E8.35962
G1 X103.306 Y98.019 E8.36845
G1 X102.954 Y97.914 E8.37865
G1 X100.320 Y100.548 E8.48211
G1 X99.880 Y100.501 E8.49442
G1 X99.505 Y100.495 E8.50481
G1 X102.245 Y97.755 E8.61242
G1 X101.863 Y97.694 E8.62318
G1 X101.472 Y97.660 E8.63406
G1 X98.638 Y100.495 E8.74541
G1 X97.770 Y100.495 E8.76952
G1 X100.644 Y97.621 E8.88242
G1 X99.780 Y97.617 E8.90642
G1 X93.555 Y103.842 E9.15097
G1 X93.555 Y102.974 E9.17507
G1 X98.916 Y97.613 E9.38568
G1 X98.052 Y97.610 E9.40969
G1 X93.555 Y102.107 E9.58635
G1 X93.555 Y101.239 E9.61046
G1 X97.520 Y97.273 E9.76625
G1 X97.520 Y96.405 E9.79035
G1 X93.555 Y100.371 E9.94614
G1 X93.555 Y99.503 E9.97024
G1 X97.520 Y95.538 E10.12603
G1 X97.520 Y94.670 E10.15014
G1 X93.555 Y98.636 E10.30593
G1 X93.555 Y97.768 E10.33003
G1 X97.520 Y93.802 E10.48582
G1 X97.520 Y92.934 E10.50993
G1 X93.555 Y96.900 E10.66572
G1 X93.555 Y96.032 E10.68982
G1 X97.520 Y92.067 E10.84561
G1 X96.665 Y92.055 E10.86938
G1 X93.555 Y95.165 E10.99156
G1 X93.555 Y94.297 E11.01566
G1 X95.797 Y92.055 E11.10376
G1 X94.929 Y92.055 E11.12786
G1 X93.555 Y93.429 E11.18186
G1 X93.555 Y92.561 E11.20597
G1 X94.061 Y92.055 E11.22588
M106 S255
G1 Z1.600 F7800.000
G1 X97.520 Y93.182 F7800.000
G1 F2823.64
G1 X96.393 Y92.055 E11.27016
G1 X95.526 Y92.055 E11.29426
G1 X97.520 Y94.049 E11.37262
G1 X97.520 Y94.917 E11.39673
G1 X94.658 Y92.055 E11.50918
G1 X93.790 Y92.055 E11.53328
G1 X97.520 Y95.785 E11.67982
G1 X97.520 Y96.653 E11.70392
G1 X93.555 Y92.687 E11.85971
G1 X93.555 Y93.555 E11.88382
G1 X97.520 Y97.520 E12.03961
G1 X97.520 Y97.990 E12.05266
G1 X97.990 Y97.990 E12.06571
G1 X97.608 Y97.608 F7800.000
G1 F2823.64
G1 X100.523 Y100.523 E12.18021
G1 X100.913 Y100.589 E12.19120
G1 X101.352 Y100.728 E12.20398
G1 X101.658 Y100.880 E12.21349
G1 X101.976 Y101.108 E12.22435
G1 X98.476 Y97.608 E12.36183
G1 X99.344 Y97.608 E12.38593
G1 X106.252 Y104.517 E12.65731
G1 X106.311 Y104.298 E12.66360
G1 X106.395 Y103.791 E12.67786
G1 X100.215 Y97.612 E12.92060
G1 X100.705 Y97.625 E12.93420
G1 X101.139 Y97.668 E12.94631
G1 X106.439 Y102.968 E13.15454
G1 X106.438 Y102.642 E13.16362
G1 X106.380 Y102.042 E13.18037
G1 X102.159 Y97.821 E13.34618
G1 X102.437 Y97.875 E13.35405
G1 X102.929 Y98.021 E13.36829
G1 X103.422 Y98.216 E13.38302
G1 X106.065 Y100.859 E13.48685
G1 E11.48685 F2400.00000
G92 E0
G1 X106.032 Y105.164 F7800.000
G1 E2.00000 F2400.00000
G1 F2823.64
G1 X101.817 Y100.950 E2.16555
G1 X102.045 Y101.274 E2.17657
G1 X102.199 Y101.609 E2.18681
G1 X102.280 Y101.880 E2.19466
G1 X102.348 Y102.348 E2.20779
G1 X105.727 Y105.727 E2.34053
G1 X105.644 Y105.859 E2.34488
G1 X105.355 Y106.222 E2.35777
G1 X102.306 Y103.174 E2.47753
G1 X102.189 Y103.602 E2.48987
G1 X102.089 Y103.825 E2.49664
G1 X104.909 Y106.645 E2.60742
G1 X104.716 Y106.810 E2.61447
G1 X104.411 Y107.014 E2.62468
G1 X101.725 Y104.329 E2.73018
G1 X101.565 Y104.477 E2.73627
G1 X101.236 Y104.707 E2.74740
G1 X103.843 Y107.314 E2.84981
G1 X103.220 Y107.559 E2.86840
G1 X100.607 Y104.946 E2.97106
G1 X100.428 Y104.994 E2.97623
G1 X99.848 Y105.054 E2.99242
G1 X102.536 Y107.743 E3.09805
G1 X101.788 Y107.863 E3.11910
G1 X98.985 Y105.059 E3.22923
G1 X98.117 Y105.059 E3.25333
G1 X100.991 Y107.933 E3.36621
G1 X100.136 Y107.945 E3.38996
G1 X97.249 Y105.059 E3.50335
G1 X93.936 Y107.820 F7800.000
G1 F2823.64
G1 X93.936 Y107.945 E3.50682
G1 X94.061 Y107.945 E3.51030
G1 X93.555 Y107.439 E3.53022
G1 X93.555 Y106.571 E3.55432
G1 X94.929 Y107.945 E3.60832
G1 X95.797 Y107.945 E3.63243
G1 X93.555 Y105.703 E3.72052
G1 X93.555 Y104.835 E3.74462
G1 X96.665 Y107.945 E3.86681
G1 X97.532 Y107.945 E3.89091
G1 X93.555 Y103.968 E4.04718
G1 X93.555 Y103.100 E4.07128
G1 X98.400 Y107.945 E4.26164
G1 X99.268 Y107.945 E4.28575
G1 X93.555 Y102.232 E4.51019
G1 X93.555 Y101.364 E4.53430
G1 X97.520 Y105.330 E4.69009
G1 X97.520 Y104.462 E4.71419
G1 X93.555 Y100.497 E4.86998
G1 X93.555 Y99.629 E4.89408
G1 X97.520 Y103.595 E5.04987
G1 X97.520 Y102.727 E5.07398
G1 X93.555 Y98.761 E5.22977
G1 X93.555 Y97.893 E5.25387
G1 X97.520 Y101.859 E5.40966
G1 X97.520 Y100.991 E5.43377
G1 X93.555 Y97.026 E5.58956
G1 X93.555 Y96.158 E5.61366
G1 X97.891 Y100.495 E5.78403
G1 X98.759 Y100.495 E5.80813
G1 X93.555 Y95.290 E6.01259
G1 X93.555 Y94.422 E6.03669
G1 X99.627 Y100.495 E6.27524
G1 Z2.000 F7800.000
G1 E4.27524 F2400.00000
G92 E0
G1 X93.555 Y103.842 F7800.000
G1 E2.00000 F2400.00000
G1 F2788.76
G1 X93.555 Y104.710 E2.02410
G1 X97.520 Y100.744 E2.17989
G1 X97.520 Y101.612 E2.20400
G1 X93.555 Y105.578 E2.35979
G1 X93.555 Y106.445 E2.38389
G1 X97.520 Y102.480 E2.53968
G1 X97.520 Y103.347 E2.56379
G1 X93.555 Y107.313 E2.71958
G1 X93.555 Y107.945 E2.73714
G1 X93.790 Y107.945 E2.74368
G1 X97.520 Y104.215 E2.89022
G1 X97.520 Y105.059 E2.91366
G1 X97.544 Y105.059 E2.91432
G1 X94.658 Y107.945 E3.02771
G1 X95.526 Y107.945 E3.05181
G1 X98.412 Y105.059 E3.16519
G1 X99.280 Y105.059 E3.18930
G1 X96.393 Y107.945 E3.30268
G1 X97.261 Y107.945 E3.32679
G1 X100.151 Y105.056 E3.44031
G1 X100.640 Y105.016 E3.45395
G1 X100.889 Y104.971 E3.46097
G1 X101.186 Y104.888 E3.46953
G1 X98.129 Y107.945 E3.58962
G1 E1.58962 F2400.00000
G92 E0
G1 X102.862 Y107.551 F7800.000
G1 E2.00000 F2400.00000
G1 F2788.76
G1 X106.247 Y104.166 E2.13296
G1 X106.391 Y103.461 E2.15295
G1 X106.419 Y103.127 E2.16228
G1 X101.735 Y107.810 E2.34628
G1 X101.172 Y107.894 E2.36207
G1 X100.752 Y107.926 E2.37379
G1 X106.435 Y102.242 E2.59705
G1 X106.386 Y101.689 E2.61249
G1 X106.345 Y101.464 E2.61882
G1 X99.864 Y107.945 E2.87342
G1 X98.997 Y107.945 E2.89753
G1 X106.174 Y100.768 E3.17948
G1 X106.056 Y100.445 E3.18904
G1 X105.916 Y100.158 E3.19790
G1 X102.237 Y103.838 E3.34245
G1 X102.310 Y103.539 E3.35100
G1 X102.342 Y103.287 E3.35806
G1 X102.353 Y102.854 E3.37009
G1 X105.589 Y99.617 E3.49723
G1 X105.186 Y99.153 E3.51432
G1 X102.235 Y102.104 E3.63024
G1 X102.082 Y101.722 E3.64166
G1 X101.957 Y101.514 E3.64841
G1 X104.722 Y98.749 E3.75700
G1 X104.191 Y98.412 E3.77447
G1 X101.539 Y101.064 E3.87866
G1 X101.194 Y100.829 E3.89026
G1 X100.996 Y100.739 E3.89628
G1 X103.605 Y98.130 E3.99876
G1 X102.952 Y97.916 E4.01786
G1 X100.319 Y100.549 E4.12130
G1 X99.926 Y100.503 E4.13229
G1 X99.505 Y100.495 E4.14397
G1 X102.243 Y97.757 E4.25152
G1 X101.896 Y97.699 E4.26130
G1 X101.473 Y97.659 E4.27311
G1 X98.638 Y100.495 E4.38449
G1 X97.770 Y100.495 E4.40859
G1 X100.650 Y97.614 E4.52175
G1 X99.788 Y97.608 E4.54570
G1 X93.555 Y103.842 E4.79059
G1 X93.555 Y102.974 E4.81469
G1 X98.921 Y97.608 E5.02549
G1 X98.053 Y97.608 E5.04960
G1 X93.555 Y102.107 E5.22631
G1 X93.555 Y101.239 E5.25041
G1 X97.520 Y97.273 E5.40620
G1 X97.520 Y96.405 E5.43031
G1 X93.555 Y100.371 E5.58610
G1 X93.555 Y99.503 E5.61020
G1 X97.520 Y95.538 E5.76599
G1 X97.520 Y94.670 E5.79010
G1 X93.555 Y98.636 E5.94589
G1 X93.555 Y97.768 E5.96999
G1 X97.520 Y93.802 E6.12578
G1 X97.520 Y92.934 E6.14988
G1 X93.555 Y96.900 E6.30567
G1 X93.555 Y96.032 E6.32978
G1 X97.520 Y92.067 E6.48557
G1 X96.665 Y92.055 E6.50934
G1 X93.555 Y95.165 E6.63152
G1 X93.555 Y94.297 E6.65562
G1 X95.797 Y92.055 E6.74371
G1 X94.929 Y92.055 E6.76782
G1 X93.555 Y93.429 E6.82182
G1 X93.555 Y92.561 E6.84593
G1 X94.061 Y92.055 E6.86584
G1 E4.86584 F2400.00000
G92 E0
M107
; Filament-specific end gcode 
;END gcode for filament

M104 S0 ; turn off temperature
G28 X0  ; home X axis
M84     ; disable motors

M140 S0 ; set bed temperature
; filament used = 35.6mm (0.3cm3)
; total filament cost = 0.0

; avoid_crossing_perimeters = 0
; bed_shape = 0x0,200x0,200x200,0x200
; bed_temperature = 0
; before_layer_gcode = 
; between_objects_gcode = 
; bridge_acceleration = 0
; bridge_fan_speed = 100
; brim_connections_width = 0
; brim_width = 0
; complete_objects = 0
; cooling = 1
; default_acceleration = 0
; disable_fan_first_layers = 3
; duplicate_distance = 6
; end_filament_gcode = "; Filament-specific end gcode \n;END gcode for filament\n"
; end_gcode = M104 S0 ; turn off temperature\nG28 X0  ; home X axis\nM84     ; disable motors\n
; extruder_clearance_height = 20
; extruder_clearance_radius = 20
; extruder_offset = 0x0
; extrusion_axis = E
; extrusion_multiplier = 1
; fan_always_on = 0
; fan_below_layer_time = 60
; filament_colour = #FFFFFF
; filament_cost = 0
; filament_density = 0
; filament_diameter = 3
; filament_max_volumetric_speed = 0
; filament_notes = ""
; first_layer_acceleration = 0
; first_layer_bed_temperature = 0
; first_layer_extrusion_width = 200%
; first_layer_speed = 30
; first_layer_temperature = 205
; gcode_arcs = 0
; gcode_comments = 0
; gcode_flavor = reprap
; has_heatbed = 1
; infill_acceleration = 0
; infill_first = 0
; interior_brim_width = 0
; layer_gcode = 
; max_fan_speed = 100
; max_layer_height = 0.3
; max_print_speed = 80
; max_volumetric_speed = 0
; min_fan_speed = 35
; min_layer_height = 0.15
; min_print_speed = 10
; min_skirt_length = 0
; notes = 
; nozzle_diameter = 0.5
; only_retract_when_crossing_perimeters = 1
; ooze_prevention = 0
; output_filename_format = [input_filename_base].gcode
; perimeter_acceleration = 0
; post_process = 
; pressure_advance = 0
; printer_notes = 
; resolution = 0
; retract_before_travel = 2
; retract_layer_change = 0
; retract_length = 2
; retract_length_toolchange = 10
; retract_lift = 0
; retract_lift_above = 0
; retract_lift_below = 0
; retract_restart_extra = 0
; retract_restart_extra_toolchange = 0
; retract_speed = 40
; skirt_distance = 6
; skirt_height = 1
; skirts = 0
; slowdown_below_layer_time = 5
; spiral_vase = 0
; standby_temperature_delta = -5
; start_filament_gcode = "; Filament gcode\n"
; start_gcode = G28 ; home all axes\nG1 Z5 F5000 ; lift nozzle\n
; temperature = 200
; threads = 8
; toolchange_gcode = 
; travel_speed = 130
; use_firmware_retraction = 0
; use_relative_e_distances = 0
; use_set_and_wait_bed = 0
; use_set_and_wait_extruder = 0
; use_volumetric_e = 0
; vibration_limit = 0
; wipe = 0
; z_offset = 0
; z_steps_per_mm = 0
; adaptive_slicing = 0
; adaptive_slicing_quality = 75%
; dont_support_bridges = 1
; extrusion_width = 0
; first_layer_height = 0.4
; infill_only_where_needed = 0
; interface_shells = 0
; layer_height = 0.4
; match_horizontal_surfaces = 0
; raft_layers = 0
; regions_overlap = 0
; seam_position = aligned
; sequential_print_priority = 0
; support_material = 0
; support_material_angle = 0
; support_material_buildplate_only = 0
; support_material_contact_distance = 0.2
; support_material_enforce_layers = 0
; support_material_extruder = 1
; support_material_extrusion_width = 0
; support_material_interface_extruder = 1
; support_material_interface_extrusion_width = 0
; support_material_interface_layers = 3
; support_material_interface_spacing = 0
; support_material_interface_speed = 100%
; support_material_max_layers = 0
; support_material_pattern = pillars
; support_material_spacing = 2.5
; support_material_speed = 60
; support_material_threshold = 60%
; xy_size_compensation = 0
; bottom_infill_pattern = rectilinear
; bottom_solid_layers = 0
; bridge_flow_ratio = 1
; bridge_speed = 60
; external_perimeter_extrusion_width = 0
; external_perimeter_speed = 50%
; external_perimeters_first = 0
; extra_perimeters = 1
; fill_angle = 45
; fill_density = 80%
; fill_gaps = 1
; fill_pattern = rectilinear
; gap_fill_speed = 20
; infill_every_layers = 1
; infill_extruder = 1
; infill_extrusion_width = 0
; infill_overlap = 55%
; infill_speed = 80
; overhangs = 1
; perimeter_extruder = 1
; perimeter_extrusion_width = 0
; perimeter_speed = 60
; perimeters = 0
; small_perimeter_speed = 15
; solid_infill_below_area = 70
; solid_infill_every_layers = 0
; solid_infill_extruder = 1
; solid_infill_extrusion_width = 0
; solid_infill_speed = 20
; thin_walls = 1
; top_infill_extrusion_width = 0
; top_infill_pattern = rectilinear
; top_solid_infill_speed = 15
; top_solid_layers = 0
