; generated by Slic3r 1.3.0 on 2020-10-08 at 11:18:11

; external perimeters extrusion width = 0.55mm (5.57mm^3/s)
; perimeters extrusion width = 0.58mm (11.78mm^3/s)
; infill extrusion width = 0.58mm (15.71mm^3/s)
; solid infill extrusion width = 0.58mm (3.93mm^3/s)
; top infill extrusion width = 0.58mm (2.95mm^3/s)

M107
M104 S205 ; set temperature
G28 ; home all axes
G1 Z5 F5000 ; lift nozzle

; Filament gcode

M109 S205 ; set temperature and wait for it to be reached
G21 ; set units to millimeters
G90 ; use absolute coordinates
M82 ; use absolute distances for extrusion
G92 E0
G1 Z0.400 F7800.000
G1 E-2.00000 F2400.00000
G92 E0
G1 X95.398 Y94.880 F7800.000
G1 E2.00000 F2400.00000
G1 F1793.6
G1 X95.867 Y94.411 E2.02678
G1 X96.568 Y94.411 E2.05510
G1 X95.398 Y95.580 E2.12193
G1 X95.398 Y96.281 E2.15024
G1 X97.268 Y94.411 E2.25711
G1 X97.969 Y94.411 E2.28542
G1 X95.398 Y96.982 E2.43232
G1 X95.398 Y97.682 E2.46063
G1 X98.268 Y94.813 E2.62463
G1 X98.268 Y95.513 E2.65294
G1 X95.398 Y98.383 E2.81695
G1 X95.398 Y99.083 E2.84526
G1 X98.268 Y96.214 E3.00926
G1 X98.268 Y96.914 E3.03757
G1 X95.398 Y99.784 E3.20157
G1 X95.398 Y100.484 E3.22988
G1 X98.268 Y97.615 E3.39388
G1 X98.268 Y98.297 E3.42147
G1 X98.286 Y98.297 E3.42219
G1 X95.398 Y101.185 E3.58720
G1 X95.398 Y101.885 E3.61551
G1 X98.982 Y98.301 E3.82033
G1 X99.679 Y98.305 E3.84848
G1 X95.398 Y102.586 E4.09311
G1 X95.398 Y103.286 E4.12143
G1 X97.799 Y100.885 E4.25864
G1 X97.799 Y100.373 E4.27934
G1 X98.311 Y100.373 E4.30003
G1 X100.375 Y98.309 E4.41799
G1 X101.059 Y98.326 E4.44563
G1 X99.012 Y100.373 E4.56263
G1 X99.711 Y100.375 E4.59087
G1 X101.678 Y98.407 E4.70334
G1 X102.021 Y98.469 E4.71739
G1 X102.247 Y98.539 E4.72698
G1 X100.334 Y100.452 E4.83634
G1 X100.629 Y100.547 E4.84884
G1 X100.836 Y100.650 E4.85822
G1 X102.763 Y98.724 E4.96831
G1 X103.115 Y98.892 E4.98409
G1 X103.221 Y98.966 E4.98931
G1 X101.225 Y100.962 E5.10336
G1 X101.359 Y101.133 E5.11214
G1 X101.497 Y101.391 E5.12395
G1 X103.622 Y99.265 E5.24544
G1 X103.963 Y99.625 E5.26546
G1 X101.634 Y101.954 E5.39860
G1 X101.638 Y102.373 E5.41550
G1 X101.585 Y102.704 E5.42905
G1 X104.239 Y100.050 E5.58073
G1 X104.440 Y100.550 E5.60250
G1 X99.400 Y105.589 E5.89051
G1 X100.106 Y105.584 E5.91902
G1 X104.561 Y101.129 E6.17366
G1 X104.583 Y101.292 E6.18031
G1 X104.598 Y101.792 E6.20055
G1 X100.852 Y105.539 E6.41467
G1 X101.593 Y105.409 E6.44506
G1 X101.723 Y105.368 E6.45058
G1 X104.510 Y102.581 E6.60986
G1 X104.399 Y103.005 E6.62757
G1 X104.265 Y103.322 E6.64148
G1 X104.003 Y103.750 E6.66176
G1 X103.780 Y104.011 E6.67563
G1 X103.309 Y104.483 E6.70257
G1 E4.70257 F2400.00000
G92 E0
G1 X98.700 Y105.589 F7800.000
G1 E2.00000 F2400.00000
G1 F1793.6
G1 X100.870 Y103.419 E2.12403
G1 X100.533 Y103.488 E2.13796
G1 X100.074 Y103.514 E2.15653
G1 X97.999 Y105.589 E2.27509
G1 X97.299 Y105.589 E2.30340
G1 X99.373 Y103.514 E2.42197
G1 X98.673 Y103.514 E2.45028
G1 X96.598 Y105.589 E2.56884
G1 X95.898 Y105.589 E2.59715
G1 X98.268 Y103.219 E2.73261
G1 X98.268 Y102.518 E2.76092
G1 X95.398 Y105.388 E2.92492
G1 X95.398 Y104.687 E2.95323
G1 X98.268 Y101.818 E3.11723
G1 X98.268 Y101.117 E3.14554
G1 X95.398 Y103.987 E3.30954
G1 X95.398 Y103.286 E3.33785
M104 S200 ; set temperature
G1 Z0.800 F7800.000
G1 X95.442 Y105.164 F7800.000
G1 F1704.2
G1 X95.824 Y105.545 E3.35286
G1 X96.540 Y105.545 E3.37276
G1 X95.442 Y104.447 E3.41591
G1 X95.442 Y103.730 E3.43582
G1 X97.257 Y105.545 E3.50712
G1 X97.973 Y105.545 E3.52702
G1 X95.442 Y103.014 E3.62647
G1 X95.442 Y102.297 E3.64638
G1 X98.690 Y105.545 E3.77398
G1 X99.406 Y105.545 E3.79388
G1 X95.442 Y101.581 E3.94963
G1 X95.442 Y100.864 E3.96953
G1 X98.224 Y103.647 E4.07885
G1 X98.224 Y102.930 E4.09875
G1 X95.442 Y100.148 E4.20806
G1 X95.442 Y99.431 E4.22797
G1 X98.224 Y102.214 E4.33728
G1 X98.224 Y101.497 E4.35719
G1 X95.442 Y98.715 E4.46650
G1 X95.442 Y97.998 E4.48640
G1 X98.224 Y100.781 E4.59572
G1 X98.224 Y100.330 E4.60824
G1 X98.490 Y100.330 E4.61562
G1 X95.442 Y97.282 E4.73537
G1 X95.442 Y96.565 E4.75527
G1 X99.207 Y100.330 E4.90317
G1 X98.316 Y98.723 F7800.000
G1 F1704.2
G1 X98.224 Y98.723 E4.90573
G1 X98.224 Y98.631 E4.90827
G1 X95.442 Y95.848 E5.01759
G1 X95.442 Y95.132 E5.03749
G1 X98.224 Y97.915 E5.14681
G1 X98.224 Y97.198 E5.16671
G1 X95.481 Y94.455 E5.27449
G1 X96.197 Y94.455 E5.29439
G1 X98.224 Y96.482 E5.37402
G1 X98.224 Y95.765 E5.39393
G1 X96.914 Y94.455 E5.44541
G1 X97.630 Y94.455 E5.46531
G1 X98.224 Y95.048 E5.48864
G1 X97.935 Y98.341 F7800.000
G1 F1704.2
G1 X99.923 Y100.330 E5.56676
G1 X100.363 Y100.343 E5.57899
G1 X100.705 Y100.395 E5.58858
G1 X98.655 Y98.345 E5.66910
G1 X99.375 Y98.349 E5.68910
G1 X104.380 Y103.353 E5.88570
G1 X104.446 Y103.129 E5.89219
G1 X104.513 Y102.770 E5.90234
G1 X100.095 Y98.352 E6.07589
G1 X100.444 Y98.354 E6.08559
G1 X100.849 Y98.389 E6.09687
G1 X104.556 Y102.097 E6.24250
G1 X104.537 Y101.686 E6.25391
G1 X104.476 Y101.300 E6.26478
G1 X101.732 Y98.556 E6.37256
G1 X102.164 Y98.686 E6.38508
G1 X102.696 Y98.939 E6.40145
G1 X102.916 Y99.079 E6.40869
G1 X103.163 Y99.270 E6.41737
G1 X103.575 Y99.682 E6.43355
G1 E4.43355 F2400.00000
G92 E0
G1 X104.160 Y103.850 F7800.000
G1 E2.00000 F2400.00000
G1 F1704.2
G1 X101.652 Y101.342 E2.09850
G1 X101.688 Y101.758 E2.11009
G1 X101.667 Y102.074 E2.11889
G1 X103.871 Y104.278 E2.20546
G1 X103.709 Y104.465 E2.21233
G1 X103.518 Y104.641 E2.21956
G1 X101.504 Y102.628 E2.29865
G1 X101.380 Y102.837 E2.30541
G1 X101.202 Y103.042 E2.31296
G1 X103.095 Y104.935 E2.38731
G1 X102.615 Y105.171 E2.40217
G1 X100.780 Y103.336 E2.47425
G1 X100.545 Y103.433 E2.48130
G1 X100.237 Y103.510 E2.49011
G1 X102.077 Y105.349 E2.56236
G1 X101.474 Y105.463 E2.57940
G1 X99.568 Y103.558 E2.65425
G1 X98.852 Y103.558 E2.67415
G1 X100.824 Y105.530 E2.75164
G1 X100.123 Y105.545 E2.77113
G1 X98.135 Y103.558 E2.84921
G1 Z1.200 F7800.000
G1 X98.744 Y105.545 F7800.000
G1 F1744.65
G1 X100.826 Y103.464 E2.93100
G1 X100.468 Y103.534 E2.94113
G1 X100.031 Y103.558 E2.95328
G1 X98.043 Y105.545 E3.03137
G1 X97.343 Y105.545 E3.05083
G1 X99.331 Y103.558 E3.12891
G1 X98.630 Y103.558 E3.14837
G1 X96.642 Y105.545 E3.22645
G1 X95.942 Y105.545 E3.24591
G1 X98.224 Y103.263 E3.33559
G1 X98.224 Y102.562 E3.35505
G1 X95.442 Y105.345 E3.46436
G1 X95.442 Y104.644 E3.48382
G1 X98.224 Y101.862 E3.59314
G1 X98.224 Y101.161 E3.61260
G1 X95.442 Y103.944 E3.72191
G1 X95.442 Y103.243 E3.74137
G1 X103.299 Y104.493 F7800.000
G1 F1744.65
G1 X103.683 Y104.109 E3.75647
G1 X103.960 Y103.793 E3.76812
G1 X104.096 Y103.594 E3.77482
G1 X104.271 Y103.262 E3.78526
G1 X104.442 Y102.761 E3.79995
G1 X104.472 Y102.619 E3.80399
G1 X101.761 Y105.331 E3.91050
G1 X101.461 Y105.406 E3.91909
G1 X100.895 Y105.496 E3.93500
G1 X104.556 Y101.835 E4.07879
G1 X104.517 Y101.173 E4.09721
G1 X100.154 Y105.536 E4.26861
G1 X99.445 Y105.545 E4.28832
G1 X104.398 Y100.592 E4.48292
G1 X104.196 Y100.094 E4.49786
G1 X101.629 Y102.661 E4.59870
G1 X101.684 Y102.294 E4.60901
G1 X101.678 Y101.911 E4.61964
G1 X103.923 Y99.666 E4.70783
G1 X103.725 Y99.439 E4.71619
G1 X103.579 Y99.309 E4.72162
G1 X101.541 Y101.347 E4.80167
G1 X101.443 Y101.154 E4.80769
G1 X101.269 Y100.919 E4.81581
G1 X103.180 Y99.008 E4.89090
G1 X102.725 Y98.762 E4.90527
G1 X100.880 Y100.607 E4.97774
G1 X100.644 Y100.492 E4.98503
G1 X100.378 Y100.408 E4.99277
G1 X102.203 Y98.584 E5.06444
G1 X101.895 Y98.493 E5.07334
G1 X101.638 Y98.448 E5.08061
G1 X99.755 Y100.331 E5.15458
G1 X99.056 Y100.330 E5.17400
G1 X101.014 Y98.371 E5.25093
G1 X100.335 Y98.350 E5.26981
G1 X98.355 Y100.330 E5.34759
G1 X97.843 Y100.330 E5.36182
G1 X97.843 Y100.842 E5.37606
G1 X95.442 Y103.243 E5.47037
G1 X95.442 Y102.543 E5.48983
G1 X99.637 Y98.347 E5.65465
G1 X98.940 Y98.344 E5.67403
G1 X95.442 Y101.842 E5.81144
G1 X95.442 Y101.142 E5.83090
G1 X98.242 Y98.341 E5.94091
G1 X98.224 Y98.341 E5.94140
G1 X98.224 Y97.658 E5.96037
G1 X95.442 Y100.441 E6.06968
G1 X95.442 Y99.740 E6.08914
G1 X98.224 Y96.958 E6.19845
G1 X98.224 Y96.257 E6.21791
G1 X95.442 Y99.040 E6.32723
G1 X95.442 Y98.339 E6.34669
G1 X98.224 Y95.557 E6.45600
G1 X98.224 Y94.856 E6.47546
G1 X95.442 Y97.639 E6.58478
G1 X95.442 Y96.938 E6.60424
G1 X97.925 Y94.455 E6.70180
G1 X97.225 Y94.455 E6.72126
G1 X95.442 Y96.238 E6.79131
G1 X95.442 Y95.537 E6.81077
G1 X96.524 Y94.455 E6.85330
G1 X95.824 Y94.455 E6.87276
G1 X95.442 Y94.836 E6.88776
M106 S255
G1 Z1.600 F7800.000
G1 X98.224 Y95.048 F7800.000
G1 F1704.2
G1 X97.630 Y94.455 E6.91109
G1 X96.914 Y94.455 E6.93099
G1 X98.224 Y95.765 E6.98247
G1 X98.224 Y96.482 E7.00238
G1 X96.197 Y94.455 E7.08201
G1 X95.481 Y94.455 E7.10191
G1 X98.224 Y97.198 E7.20969
G1 X98.224 Y97.915 E7.22959
G1 X95.442 Y95.132 E7.33891
G1 X95.442 Y95.848 E7.35881
G1 X98.224 Y98.631 E7.46813
G1 X98.224 Y98.723 E7.47067
G1 X98.316 Y98.723 E7.47323
G1 X97.935 Y98.341 F7800.000
G1 F1704.2
G1 X99.923 Y100.330 E7.55134
G1 X100.363 Y100.343 E7.56357
G1 X100.705 Y100.395 E7.57316
G1 X98.655 Y98.345 E7.65368
G1 X99.375 Y98.349 E7.67368
G1 X104.380 Y103.353 E7.87029
G1 X104.446 Y103.129 E7.87677
G1 X104.513 Y102.770 E7.88693
G1 X100.095 Y98.352 E8.06047
G1 X100.444 Y98.354 E8.07017
G1 X100.849 Y98.389 E8.08146
G1 X104.556 Y102.097 E8.22709
G1 X104.537 Y101.686 E8.23849
G1 X104.476 Y101.300 E8.24937
G1 X101.732 Y98.556 E8.35714
G1 X102.164 Y98.686 E8.36966
G1 X102.696 Y98.939 E8.38603
G1 X102.916 Y99.079 E8.39327
G1 X103.163 Y99.270 E8.40195
G1 X103.575 Y99.682 E8.41814
G1 E6.41814 F2400.00000
G92 E0
G1 X104.160 Y103.850 F7800.000
G1 E2.00000 F2400.00000
G1 F1704.2
G1 X101.652 Y101.342 E2.09850
G1 X101.688 Y101.758 E2.11009
G1 X101.667 Y102.074 E2.11889
G1 X103.871 Y104.278 E2.20546
G1 X103.709 Y104.465 E2.21233
G1 X103.518 Y104.641 E2.21956
G1 X101.504 Y102.628 E2.29865
G1 X101.380 Y102.837 E2.30541
G1 X101.202 Y103.042 E2.31296
G1 X103.095 Y104.935 E2.38731
G1 X102.615 Y105.171 E2.40217
G1 X100.780 Y103.336 E2.47425
G1 X100.545 Y103.433 E2.48130
G1 X100.237 Y103.510 E2.49011
G1 X102.077 Y105.349 E2.56236
G1 X101.474 Y105.463 E2.57940
G1 X99.568 Y103.558 E2.65425
G1 X98.852 Y103.558 E2.67415
G1 X100.824 Y105.530 E2.75164
G1 X100.123 Y105.545 E2.77113
G1 X98.135 Y103.558 E2.84921
G1 X95.442 Y105.164 F7800.000
G1 F1704.2
G1 X95.824 Y105.545 E2.86422
G1 X96.540 Y105.545 E2.88412
G1 X95.442 Y104.447 E2.92728
G1 X95.442 Y103.730 E2.94718
G1 X97.257 Y105.545 E3.01848
G1 X97.973 Y105.545 E3.03839
G1 X95.442 Y103.014 E3.13784
G1 X95.442 Y102.297 E3.15774
G1 X98.690 Y105.545 E3.28534
G1 X99.406 Y105.545 E3.30524
G1 X95.442 Y101.581 E3.46099
G1 X95.442 Y100.864 E3.48089
G1 X98.224 Y103.647 E3.59021
G1 X98.224 Y102.930 E3.61011
G1 X95.442 Y100.148 E3.71942
G1 X95.442 Y99.431 E3.73933
G1 X98.224 Y102.214 E3.84864
G1 X98.224 Y101.497 E3.86855
G1 X95.442 Y98.715 E3.97786
G1 X95.442 Y97.998 E3.99776
G1 X98.224 Y100.781 E4.10708
G1 X98.224 Y100.330 E4.11960
G1 X98.490 Y100.330 E4.12698
G1 X95.442 Y97.282 E4.24673
G1 X95.442 Y96.565 E4.26664
G1 X99.207 Y100.330 E4.41453
G1 Z2.000 F7800.000
G1 E2.41453 F2400.00000
G92 E0
G1 X95.442 Y103.243 F7800.000
G1 E2.00000 F2400.00000
G1 F1743.49
G1 X95.442 Y103.943 E2.01946
G1 X98.224 Y101.161 E2.12877
G1 X98.224 Y101.861 E2.14823
G1 X95.442 Y104.644 E2.25755
G1 X95.442 Y105.344 E2.27701
G1 X98.224 Y102.562 E2.38632
G1 X98.224 Y103.262 E2.40578
G1 X95.941 Y105.545 E2.49547
G1 X96.642 Y105.545 E2.51493
G1 X98.629 Y103.558 E2.59301
G1 X99.330 Y103.558 E2.61247
G1 X97.342 Y105.545 E2.69056
G1 X98.043 Y105.545 E2.71002
G1 X100.031 Y103.558 E2.78810
G1 X100.489 Y103.532 E2.80086
G1 X100.827 Y103.462 E2.81043
G1 X98.743 Y105.545 E2.89228
G1 E0.89228 F2400.00000
G92 E0
G1 X103.352 Y104.439 F7800.000
G1 E2.00000 F2400.00000
G1 F1743.49
G1 X103.737 Y104.055 E2.01511
G1 X103.960 Y103.794 E2.02464
G1 X104.222 Y103.366 E2.03858
G1 X104.356 Y103.049 E2.04814
G1 X104.466 Y102.625 E2.06031
G1 X101.766 Y105.325 E2.16638
G1 X101.636 Y105.366 E2.17017
G1 X100.895 Y105.495 E2.19106
G1 X104.555 Y101.836 E2.33483
G1 X104.540 Y101.335 E2.34874
G1 X104.518 Y101.172 E2.35331
G1 X100.149 Y105.541 E2.52492
G1 X99.444 Y105.545 E2.54452
G1 X104.396 Y100.593 E2.73907
G1 X104.196 Y100.093 E2.75403
G1 X101.629 Y102.660 E2.85488
G1 X101.681 Y102.329 E2.86419
G1 X101.677 Y101.911 E2.87581
G1 X103.920 Y99.668 E2.96391
G1 X103.579 Y99.309 E2.97767
G1 X101.540 Y101.347 E3.05776
G1 X101.402 Y101.090 E3.06588
G1 X101.269 Y100.918 E3.07192
G1 X103.178 Y99.010 E3.14690
G1 X103.072 Y98.936 E3.15049
G1 X102.719 Y98.768 E3.16134
G1 X100.880 Y100.607 E3.23358
G1 X100.672 Y100.504 E3.24003
G1 X100.377 Y100.409 E3.24862
G1 X102.204 Y98.582 E3.32038
G1 X101.977 Y98.512 E3.32697
G1 X101.635 Y98.451 E3.33663
G1 X99.754 Y100.332 E3.41052
G1 X99.055 Y100.330 E3.42993
G1 X101.016 Y98.370 E3.50694
G1 X100.332 Y98.353 E3.52594
G1 X98.355 Y100.330 E3.60360
G1 X97.843 Y100.330 E3.61783
G1 X97.843 Y100.842 E3.63205
G1 X95.442 Y103.243 E3.72637
G1 X95.442 Y102.542 E3.74583
G1 X99.635 Y98.349 E3.91056
G1 X98.939 Y98.345 E3.92991
G1 X95.442 Y101.842 E4.06728
G1 X95.442 Y101.141 E4.08674
G1 X98.242 Y98.341 E4.19675
G1 X98.224 Y98.341 E4.19724
G1 X98.224 Y97.658 E4.21621
G1 X95.442 Y100.441 E4.32552
G1 X95.442 Y99.740 E4.34498
G1 X98.224 Y96.958 E4.45430
G1 X98.224 Y96.257 E4.47376
G1 X95.442 Y99.040 E4.58307
G1 X95.442 Y98.339 E4.60253
G1 X98.224 Y95.556 E4.71184
G1 X98.224 Y94.856 E4.73130
G1 X95.442 Y97.639 E4.84062
G1 X95.442 Y96.938 E4.86008
G1 X97.925 Y94.455 E4.95764
G1 X97.225 Y94.455 E4.97710
G1 X95.442 Y96.238 E5.04714
G1 X95.442 Y95.537 E5.06660
G1 X96.524 Y94.455 E5.10913
G1 X95.824 Y94.455 E5.12859
G1 X95.442 Y94.836 E5.14358
G1 E3.14358 F2400.00000
G92 E0
M107
; Filament-specific end gcode 
;END gcode for filament

M104 S0 ; turn off temperature
G28 X0  ; home X axis
M84     ; disable motors

M140 S0 ; set bed temperature
; filament used = 22.0mm (0.2cm3)
; total filament cost = 0.0

; avoid_crossing_perimeters = 0
; bed_shape = 0x0,200x0,200x200,0x200
; bed_temperature = 0
; before_layer_gcode = 
; between_objects_gcode = 
; bridge_acceleration = 0
; bridge_fan_speed = 100
; brim_connections_width = 0
; brim_width = 0
; complete_objects = 0
; cooling = 1
; default_acceleration = 0
; disable_fan_first_layers = 3
; duplicate_distance = 6
; end_filament_gcode = "; Filament-specific end gcode \n;END gcode for filament\n"
; end_gcode = M104 S0 ; turn off temperature\nG28 X0  ; home X axis\nM84     ; disable motors\n
; extruder_clearance_height = 20
; extruder_clearance_radius = 20
; extruder_offset = 0x0
; extrusion_axis = E
; extrusion_multiplier = 1
; fan_always_on = 0
; fan_below_layer_time = 60
; filament_colour = #FFFFFF
; filament_cost = 0
; filament_density = 0
; filament_diameter = 3
; filament_max_volumetric_speed = 0
; filament_notes = ""
; first_layer_acceleration = 0
; first_layer_bed_temperature = 0
; first_layer_extrusion_width = 200%
; first_layer_speed = 30
; first_layer_temperature = 205
; gcode_arcs = 0
; gcode_comments = 0
; gcode_flavor = reprap
; has_heatbed = 1
; infill_acceleration = 0
; infill_first = 0
; interior_brim_width = 0
; layer_gcode = 
; max_fan_speed = 100
; max_layer_height = 0.3
; max_print_speed = 80
; max_volumetric_speed = 0
; min_fan_speed = 35
; min_layer_height = 0.15
; min_print_speed = 10
; min_skirt_length = 0
; notes = 
; nozzle_diameter = 0.5
; only_retract_when_crossing_perimeters = 1
; ooze_prevention = 0
; output_filename_format = [input_filename_base].gcode
; perimeter_acceleration = 0
; post_process = 
; pressure_advance = 0
; printer_notes = 
; resolution = 0
; retract_before_travel = 2
; retract_layer_change = 0
; retract_length = 2
; retract_length_toolchange = 10
; retract_lift = 0
; retract_lift_above = 0
; retract_lift_below = 0
; retract_restart_extra = 0
; retract_restart_extra_toolchange = 0
; retract_speed = 40
; skirt_distance = 6
; skirt_height = 1
; skirts = 0
; slowdown_below_layer_time = 5
; spiral_vase = 0
; standby_temperature_delta = -5
; start_filament_gcode = "; Filament gcode\n"
; start_gcode = G28 ; home all axes\nG1 Z5 F5000 ; lift nozzle\n
; temperature = 200
; threads = 8
; toolchange_gcode = 
; travel_speed = 130
; use_firmware_retraction = 0
; use_relative_e_distances = 0
; use_set_and_wait_bed = 0
; use_set_and_wait_extruder = 0
; use_volumetric_e = 0
; vibration_limit = 0
; wipe = 0
; z_offset = 0
; z_steps_per_mm = 0
; adaptive_slicing = 0
; adaptive_slicing_quality = 75%
; dont_support_bridges = 1
; extrusion_width = 0
; first_layer_height = 0.4
; infill_only_where_needed = 0
; interface_shells = 0
; layer_height = 0.4
; match_horizontal_surfaces = 0
; raft_layers = 0
; regions_overlap = 0
; seam_position = aligned
; sequential_print_priority = 0
; support_material = 0
; support_material_angle = 0
; support_material_buildplate_only = 0
; support_material_contact_distance = 0.2
; support_material_enforce_layers = 0
; support_material_extruder = 1
; support_material_extrusion_width = 0
; support_material_interface_extruder = 1
; support_material_interface_extrusion_width = 0
; support_material_interface_layers = 3
; support_material_interface_spacing = 0
; support_material_interface_speed = 100%
; support_material_max_layers = 0
; support_material_pattern = pillars
; support_material_spacing = 2.5
; support_material_speed = 60
; support_material_threshold = 60%
; xy_size_compensation = 0
; bottom_infill_pattern = rectilinear
; bottom_solid_layers = 0
; bridge_flow_ratio = 1
; bridge_speed = 60
; external_perimeter_extrusion_width = 0
; external_perimeter_speed = 50%
; external_perimeters_first = 0
; extra_perimeters = 1
; fill_angle = 45
; fill_density = 100%
; fill_gaps = 1
; fill_pattern = rectilinear
; gap_fill_speed = 20
; infill_every_layers = 1
; infill_extruder = 1
; infill_extrusion_width = 0
; infill_overlap = 55%
; infill_speed = 80
; overhangs = 1
; perimeter_extruder = 1
; perimeter_extrusion_width = 0
; perimeter_speed = 60
; perimeters = 0
; small_perimeter_speed = 15
; solid_infill_below_area = 70
; solid_infill_every_layers = 0
; solid_infill_extruder = 1
; solid_infill_extrusion_width = 0
; solid_infill_speed = 20
; thin_walls = 1
; top_infill_extrusion_width = 0
; top_infill_pattern = rectilinear
; top_solid_infill_speed = 15
; top_solid_layers = 0
