; generated by Slic3r 1.3.0 on 2021-03-02 at 13:29:27

; external perimeters extrusion width = 0.55mm (5.57mm^3/s)
; perimeters extrusion width = 0.58mm (11.78mm^3/s)
; infill extrusion width = 0.58mm (15.71mm^3/s)
; solid infill extrusion width = 0.58mm (3.93mm^3/s)
; top infill extrusion width = 0.58mm (2.95mm^3/s)

M107
M104 S205 ; set temperature
G28 ; home all axes
G1 Z5 F5000 ; lift nozzle

; Filament gcode

M109 S205 ; set temperature and wait for it to be reached
G21 ; set units to millimeters
G90 ; use absolute coordinates
M82 ; use absolute distances for extrusion
G92 E0
G1 Z0.400 F7800.000
G1 E-2.00000 F2400.00000
G92 E0
G1 X94.105 Y92.011 F7800.000
G1 E2.00000 F2400.00000
G1 F1800
G1 X93.511 Y92.605 E2.03394
G1 X93.511 Y93.473 E2.06901
G1 X94.973 Y92.011 E2.15254
G1 X95.840 Y92.011 E2.18761
G1 X93.511 Y94.340 E2.32073
G1 X93.511 Y95.208 E2.35580
G1 X96.708 Y92.011 E2.53852
G1 X97.564 Y92.023 E2.57310
G1 X93.511 Y96.076 E2.80472
G1 X93.511 Y96.944 E2.83979
G1 X97.564 Y92.891 E3.07141
G1 X97.564 Y93.759 E3.10647
G1 X93.511 Y97.811 E3.33809
G1 X93.511 Y98.679 E3.37316
G1 X97.564 Y94.627 E3.60478
G1 X97.564 Y95.494 E3.63985
G1 X93.511 Y99.547 E3.87146
G1 X93.511 Y100.415 E3.90653
G1 X97.564 Y96.362 E4.13815
G1 X97.564 Y97.230 E4.17322
G1 X93.511 Y101.282 E4.40484
G1 X93.511 Y102.150 E4.43991
G1 X98.096 Y97.565 E4.70196
G1 X98.964 Y97.565 E4.73703
G1 X93.511 Y103.018 E5.04869
G1 X93.511 Y103.886 E5.08375
G1 X99.832 Y97.565 E5.44500
G1 X100.694 Y97.571 E5.47984
G1 X97.726 Y100.538 E5.64943
G1 X98.594 Y100.538 E5.68449
G1 X101.517 Y97.615 E5.85155
G1 X101.911 Y97.652 E5.86752
G1 X102.286 Y97.714 E5.88291
G1 X99.462 Y100.538 E6.04433
G1 X99.888 Y100.547 E6.06156
G1 X100.275 Y100.592 E6.07731
G1 X102.995 Y97.873 E6.23275
G1 X103.648 Y98.087 E6.26054
G1 X100.953 Y100.782 E6.41456
G1 X101.197 Y100.903 E6.42556
G1 X101.495 Y101.108 E6.44018
G1 X104.234 Y98.369 E6.59672
G1 X104.766 Y98.705 E6.62214
G1 X101.914 Y101.557 E6.78512
G1 X102.037 Y101.762 E6.79477
G1 X102.191 Y102.147 E6.81155
G1 X105.230 Y99.109 E6.98522
G1 X105.632 Y99.574 E7.01008
G1 X102.309 Y102.898 E7.20002
G1 X102.300 Y103.317 E7.21699
G1 X102.267 Y103.576 E7.22751
G1 X102.193 Y103.881 E7.24023
G1 X105.959 Y100.115 E7.45549
G1 X106.102 Y100.409 E7.46872
G1 X106.217 Y100.725 E7.48230
G1 X98.953 Y107.989 E7.89744
G1 X99.821 Y107.989 E7.93251
G1 X106.388 Y101.421 E8.30786
G1 X106.432 Y101.661 E8.31770
G1 X106.478 Y102.199 E8.33952
G1 X100.720 Y107.957 E8.66861
G1 X101.108 Y107.939 E8.68427
G1 X101.691 Y107.854 E8.70812
G1 X106.462 Y103.083 E8.98079
G1 X106.434 Y103.417 E8.99434
G1 X106.291 Y104.122 E9.02339
G1 X102.817 Y107.596 E9.22198
G1 E7.22198 F2400.00000
G92 E0
G1 X98.085 Y107.989 F7800.000
G1 E2.00000 F2400.00000
G1 F1800
G1 X101.230 Y104.845 E2.17971
G1 X100.930 Y104.928 E2.19228
G1 X100.671 Y104.975 E2.20290
G1 X100.195 Y105.012 E2.22223
G1 X97.218 Y107.989 E2.39237
G1 X96.350 Y107.989 E2.42744
G1 X99.323 Y105.016 E2.59736
G1 X98.455 Y105.016 E2.63243
G1 X95.482 Y107.989 E2.80235
G1 X94.614 Y107.989 E2.83742
G1 X97.587 Y105.016 E3.00734
G1 X97.564 Y105.016 E3.00830
G1 X97.564 Y104.172 E3.04241
G1 X93.747 Y107.989 E3.26057
G1 X93.511 Y107.989 E3.27008
G1 X93.511 Y107.357 E3.29563
G1 X97.564 Y103.304 E3.52725
G1 X97.564 Y102.436 E3.56232
G1 X93.511 Y106.489 E3.79394
G1 X93.511 Y105.621 E3.82901
G1 X97.564 Y101.569 E4.06062
G1 X97.564 Y100.701 E4.09569
G1 X93.511 Y104.753 E4.32731
G1 X93.511 Y103.886 E4.36238
M104 S200 ; set temperature
G1 Z0.800 F7800.000
G1 X97.249 Y105.059 F7800.000
G1 F2824.03
G1 X100.136 Y107.945 E4.47576
G1 X100.989 Y107.931 E4.49947
G1 X98.117 Y105.059 E4.61229
G1 X98.985 Y105.059 E4.63639
G1 X101.786 Y107.860 E4.74643
G1 X102.535 Y107.742 E4.76750
G1 X99.847 Y105.053 E4.87312
G1 X100.214 Y105.023 E4.88334
G1 X100.607 Y104.945 E4.89447
G1 X103.219 Y107.558 E4.99710
G1 X103.846 Y107.317 E5.01574
G1 X101.232 Y104.703 E5.11842
G1 X101.466 Y104.553 E5.12614
G1 X101.725 Y104.328 E5.13567
G1 X104.410 Y107.013 E5.24116
G1 X104.719 Y106.808 E5.25146
G1 X104.910 Y106.646 E5.25843
G1 X102.090 Y103.825 E5.36923
G1 X102.184 Y103.614 E5.37565
G1 X102.306 Y103.174 E5.38835
G1 X105.354 Y106.222 E5.50808
G1 X105.614 Y105.902 E5.51951
G1 X105.726 Y105.726 E5.52532
G1 X102.348 Y102.348 E5.65802
G1 X102.305 Y102.000 E5.66776
G1 X102.173 Y101.538 E5.68109
G1 X102.058 Y101.297 E5.68851
G1 X101.821 Y100.953 E5.70014
G1 X106.031 Y105.163 E5.86554
G1 E3.86554 F2400.00000
G92 E0
G1 X106.068 Y100.862 F7800.000
G1 E2.00000 F2400.00000
G1 F2824.03
G1 X103.432 Y98.225 E2.10356
G1 X102.935 Y98.023 E2.11847
G1 X102.148 Y97.809 E2.14112
G1 X106.382 Y102.043 E2.30743
G1 X106.438 Y102.658 E2.32459
G1 X106.439 Y102.968 E2.33321
G1 X101.135 Y97.664 E2.54156
G1 X100.745 Y97.627 E2.55247
G1 X100.216 Y97.613 E2.56716
G1 X106.395 Y103.792 E2.80990
G1 X106.302 Y104.337 E2.82526
G1 X106.254 Y104.518 E2.83048
G1 X99.344 Y97.608 E3.10193
G1 X98.476 Y97.608 E3.12604
G1 X101.977 Y101.109 E3.26355
G1 X101.637 Y100.868 E3.27513
G1 X101.366 Y100.734 E3.28353
G1 X100.900 Y100.586 E3.29711
G1 X100.524 Y100.524 E3.30770
G1 X97.608 Y97.608 E3.42222
G1 X97.990 Y97.990 F7800.000
G1 F2824.03
G1 X97.520 Y97.990 E3.43527
G1 X97.520 Y97.520 E3.44832
G1 X93.555 Y93.555 E3.60411
G1 X93.555 Y92.687 E3.62822
G1 X97.520 Y96.653 E3.78401
G1 X97.520 Y95.785 E3.80811
G1 X93.790 Y92.055 E3.95465
G1 X94.658 Y92.055 E3.97876
G1 X97.520 Y94.917 E4.09121
G1 X97.520 Y94.049 E4.11531
G1 X95.526 Y92.055 E4.19367
G1 X96.393 Y92.055 E4.21778
G1 X97.520 Y93.182 E4.26205
G1 E2.26205 F2400.00000
G92 E0
G1 X99.627 Y100.495 F7800.000
G1 E2.00000 F2400.00000
G1 F2824.03
G1 X93.555 Y94.422 E2.23854
G1 X93.555 Y95.290 E2.26265
G1 X98.759 Y100.495 E2.46710
G1 X97.891 Y100.495 E2.49121
G1 X93.555 Y96.158 E2.66158
G1 X93.555 Y97.026 E2.68568
G1 X97.520 Y100.991 E2.84147
G1 X97.520 Y101.859 E2.86557
G1 X93.555 Y97.893 E3.02136
G1 X93.555 Y98.761 E3.04547
G1 X97.520 Y102.727 E3.20126
G1 X97.520 Y103.595 E3.22536
G1 X93.555 Y99.629 E3.38115
G1 X93.555 Y100.497 E3.40526
G1 X97.520 Y104.462 E3.56105
G1 X97.520 Y105.330 E3.58515
G1 X93.555 Y101.364 E3.74094
G1 X93.555 Y102.232 E3.76504
G1 X99.268 Y107.945 E3.98949
G1 X98.400 Y107.945 E4.01360
G1 X93.555 Y103.100 E4.20395
G1 X93.555 Y103.968 E4.22806
G1 X97.532 Y107.945 E4.38433
G1 X96.665 Y107.945 E4.40843
G1 X93.555 Y104.835 E4.53061
G1 X93.555 Y105.703 E4.55472
G1 X95.797 Y107.945 E4.64281
G1 X94.929 Y107.945 E4.66691
G1 X93.555 Y106.571 E4.72092
G1 X93.555 Y107.439 E4.74502
G1 X94.061 Y107.945 E4.76494
G1 X93.936 Y107.945 E4.76841
G1 X93.936 Y107.820 E4.77189
G1 Z1.200 F7800.000
G1 X93.555 Y103.842 F7800.000
G1 F2788.45
G1 X93.555 Y104.710 E4.79600
G1 X97.520 Y100.744 E4.95179
G1 X97.520 Y101.612 E4.97589
G1 X93.555 Y105.578 E5.13168
G1 X93.555 Y106.445 E5.15578
G1 X97.520 Y102.480 E5.31157
G1 X97.520 Y103.347 E5.33568
G1 X93.555 Y107.313 E5.49147
G1 X93.555 Y107.945 E5.50903
G1 X93.790 Y107.945 E5.51557
G1 X97.520 Y104.215 E5.66211
G1 X97.520 Y105.059 E5.68556
G1 X97.544 Y105.059 E5.68622
G1 X94.658 Y107.945 E5.79960
G1 X95.526 Y107.945 E5.82370
G1 X98.412 Y105.059 E5.93709
G1 X99.280 Y105.059 E5.96119
G1 X96.393 Y107.945 E6.07457
G1 X97.261 Y107.945 E6.09868
G1 X100.150 Y105.056 E6.21218
G1 X100.677 Y105.011 E6.22687
G1 X101.185 Y104.890 E6.24136
G1 X98.129 Y107.945 E6.36140
G1 X102.860 Y107.553 F7800.000
G1 F2788.45
G1 X106.243 Y104.170 E6.49431
G1 X106.308 Y103.929 E6.50123
G1 X106.390 Y103.463 E6.51438
G1 X106.418 Y103.127 E6.52373
G1 X101.734 Y107.811 E6.70774
G1 X101.247 Y107.886 E6.72141
G1 X100.754 Y107.923 E6.73515
G1 X106.436 Y102.242 E6.95834
G1 X106.346 Y101.463 E6.98011
G1 X99.864 Y107.945 E7.23476
G1 X98.997 Y107.945 E7.25886
G1 X106.173 Y100.769 E7.54077
G1 X106.046 Y100.422 E7.55104
G1 X105.917 Y100.157 E7.55922
G1 X102.237 Y103.837 E7.70381
G1 X102.306 Y103.559 E7.71178
G1 X102.338 Y103.326 E7.71831
G1 X102.353 Y102.853 E7.73144
G1 X105.589 Y99.618 E7.85854
G1 X105.354 Y99.328 E7.86890
G1 X105.184 Y99.155 E7.87564
G1 X102.236 Y102.103 E7.99147
G1 X102.088 Y101.733 E8.00255
G1 X101.957 Y101.514 E8.00963
G1 X104.720 Y98.751 E8.11818
G1 X104.192 Y98.411 E8.13563
G1 X101.539 Y101.064 E8.23983
G1 X101.269 Y100.876 E8.24896
G1 X100.996 Y100.739 E8.25745
G1 X103.604 Y98.131 E8.35990
G1 X102.953 Y97.915 E8.37897
G1 X100.320 Y100.548 E8.48240
G1 X99.909 Y100.502 E8.49388
G1 X99.505 Y100.495 E8.50509
G1 X102.238 Y97.762 E8.61245
G1 X101.979 Y97.711 E8.61978
G1 X101.470 Y97.662 E8.63398
G1 X98.638 Y100.495 E8.74526
G1 X97.770 Y100.495 E8.76936
G1 X100.651 Y97.614 E8.88253
G1 X99.788 Y97.608 E8.90649
G1 X93.555 Y103.842 E9.15138
G1 X93.555 Y102.974 E9.17548
G1 X98.921 Y97.608 E9.38629
G1 X98.053 Y97.608 E9.41039
G1 X93.555 Y102.107 E9.58710
G1 X93.555 Y101.239 E9.61121
G1 X97.520 Y97.273 E9.76700
G1 X97.520 Y96.405 E9.79110
G1 X93.555 Y100.371 E9.94689
G1 X93.555 Y99.503 E9.97100
G1 X97.520 Y95.538 E10.12679
G1 X97.520 Y94.670 E10.15089
G1 X93.555 Y98.636 E10.30668
G1 X93.555 Y97.768 E10.33078
G1 X97.520 Y93.802 E10.48657
G1 X97.520 Y92.934 E10.51068
G1 X93.555 Y96.900 E10.66647
G1 X93.555 Y96.032 E10.69057
G1 X97.520 Y92.067 E10.84636
G1 X96.665 Y92.055 E10.87013
G1 X93.555 Y95.165 E10.99231
G1 X93.555 Y94.297 E11.01641
G1 X95.797 Y92.055 E11.10451
G1 X94.929 Y92.055 E11.12861
G1 X93.555 Y93.429 E11.18262
G1 X93.555 Y92.561 E11.20672
G1 X94.061 Y92.055 E11.22664
M106 S255
G1 Z1.600 F7800.000
G1 X97.520 Y93.182 F7800.000
G1 F2823.83
G1 X96.393 Y92.055 E11.27091
G1 X95.526 Y92.055 E11.29501
G1 X97.520 Y94.049 E11.37338
G1 X97.520 Y94.917 E11.39748
G1 X94.658 Y92.055 E11.50993
G1 X93.790 Y92.055 E11.53403
G1 X97.520 Y95.785 E11.68057
G1 X97.520 Y96.653 E11.70468
G1 X93.555 Y92.687 E11.86047
G1 X93.555 Y93.555 E11.88457
G1 X97.520 Y97.520 E12.04036
G1 X97.520 Y97.990 E12.05341
G1 X97.990 Y97.990 E12.06647
G1 X97.608 Y97.608 F7800.000
G1 F2823.83
G1 X100.523 Y100.523 E12.18095
G1 X100.921 Y100.590 E12.19217
G1 X101.347 Y100.726 E12.20459
G1 X101.665 Y100.885 E12.21447
G1 X101.977 Y101.109 E12.22514
G1 X98.476 Y97.608 E12.36266
G1 X99.344 Y97.608 E12.38676
G1 X106.251 Y104.516 E12.65812
G1 X106.314 Y104.285 E12.66477
G1 X106.395 Y103.791 E12.67866
G1 X100.215 Y97.612 E12.92140
G1 X101.127 Y97.656 E12.94676
G1 X106.439 Y102.968 E13.15544
G1 X106.437 Y102.636 E13.16467
G1 X106.380 Y102.041 E13.18129
G1 X102.159 Y97.820 E13.34709
G1 X102.447 Y97.878 E13.35523
G1 X102.928 Y98.021 E13.36917
G1 X103.423 Y98.216 E13.38396
G1 X106.064 Y100.858 E13.48773
G1 E11.48773 F2400.00000
G92 E0
G1 X106.032 Y105.164 F7800.000
G1 E2.00000 F2400.00000
G1 F2823.83
G1 X101.816 Y100.949 E2.16561
G1 X102.003 Y101.204 E2.17439
G1 X102.164 Y101.517 E2.18417
G1 X102.282 Y101.896 E2.19519
G1 X102.348 Y102.348 E2.20787
G1 X105.727 Y105.727 E2.34064
G1 X105.355 Y106.223 E2.35785
G1 X102.306 Y103.174 E2.47763
G1 X102.190 Y103.598 E2.48985
G1 X102.089 Y103.825 E2.49674
G1 X104.909 Y106.645 E2.60751
G1 X104.715 Y106.810 E2.61460
G1 X104.411 Y107.015 E2.62477
G1 X101.726 Y104.329 E2.73028
G1 X101.496 Y104.531 E2.73876
G1 X101.231 Y104.702 E2.74753
G1 X103.843 Y107.314 E2.85010
G1 X103.650 Y107.404 E2.85602
G1 X103.221 Y107.560 E2.86869
G1 X100.607 Y104.946 E2.97136
G1 X100.199 Y105.025 E2.98292
G1 X99.848 Y105.054 E2.99270
G1 X102.537 Y107.743 E3.09834
G1 X101.789 Y107.863 E3.11937
G1 X98.985 Y105.059 E3.22954
G1 X98.117 Y105.059 E3.25364
G1 X100.991 Y107.933 E3.36652
G1 X100.136 Y107.945 E3.39028
G1 X97.249 Y105.059 E3.50366
G1 X93.936 Y107.820 F7800.000
G1 F2823.83
G1 X93.936 Y107.945 E3.50714
G1 X94.061 Y107.945 E3.51062
G1 X93.555 Y107.439 E3.53053
G1 X93.555 Y106.571 E3.55464
G1 X94.929 Y107.945 E3.60864
G1 X95.797 Y107.945 E3.63274
G1 X93.555 Y105.703 E3.72084
G1 X93.555 Y104.835 E3.74494
G1 X96.665 Y107.945 E3.86712
G1 X97.532 Y107.945 E3.89123
G1 X93.555 Y103.968 E4.04750
G1 X93.555 Y103.100 E4.07160
G1 X98.400 Y107.945 E4.26196
G1 X99.268 Y107.945 E4.28606
G1 X93.555 Y102.232 E4.51051
G1 X93.555 Y101.364 E4.53461
G1 X97.520 Y105.330 E4.69040
G1 X97.520 Y104.462 E4.71451
G1 X93.555 Y100.497 E4.87030
G1 X93.555 Y99.629 E4.89440
G1 X97.520 Y103.595 E5.05019
G1 X97.520 Y102.727 E5.07429
G1 X93.555 Y98.761 E5.23008
G1 X93.555 Y97.893 E5.25419
G1 X97.520 Y101.859 E5.40998
G1 X97.520 Y100.991 E5.43408
G1 X93.555 Y97.026 E5.58987
G1 X93.555 Y96.158 E5.61398
G1 X97.891 Y100.495 E5.78434
G1 X98.759 Y100.495 E5.80845
G1 X93.555 Y95.290 E6.01290
G1 X93.555 Y94.422 E6.03701
G1 X99.627 Y100.495 E6.27555
G1 Z2.000 F7800.000
G1 E4.27555 F2400.00000
G92 E0
G1 X93.555 Y103.842 F7800.000
G1 E2.00000 F2400.00000
G1 F2787.99
G1 X93.555 Y104.710 E2.02410
G1 X97.520 Y100.744 E2.17989
G1 X97.520 Y101.612 E2.20400
G1 X93.555 Y105.578 E2.35979
G1 X93.555 Y106.445 E2.38389
G1 X97.520 Y102.480 E2.53968
G1 X97.520 Y103.347 E2.56379
G1 X93.555 Y107.313 E2.71958
G1 X93.555 Y107.945 E2.73714
G1 X93.790 Y107.945 E2.74368
G1 X97.520 Y104.215 E2.89022
G1 X97.520 Y105.059 E2.91366
G1 X97.544 Y105.059 E2.91432
G1 X94.658 Y107.945 E3.02771
G1 X95.526 Y107.945 E3.05181
G1 X98.412 Y105.059 E3.16519
G1 X99.280 Y105.059 E3.18930
G1 X96.393 Y107.945 E3.30268
G1 X97.261 Y107.945 E3.32679
G1 X100.150 Y105.057 E3.44027
G1 X100.727 Y105.003 E3.45636
G1 X101.185 Y104.889 E3.46948
G1 X98.129 Y107.945 E3.58955
G1 X102.857 Y107.556 F7800.000
G1 F2787.99
G1 X106.239 Y104.174 E3.72240
G1 X106.319 Y103.877 E3.73093
G1 X106.390 Y103.465 E3.74255
G1 X106.417 Y103.128 E3.75194
G1 X101.732 Y107.813 E3.93600
G1 X101.347 Y107.876 E3.94682
G1 X100.757 Y107.920 E3.96325
G1 X106.437 Y102.241 E4.18635
G1 X106.348 Y101.462 E4.20814
G1 X99.864 Y107.945 E4.46285
G1 X98.997 Y107.945 E4.48696
G1 X106.170 Y100.772 E4.76874
G1 X106.033 Y100.392 E4.77997
G1 X105.919 Y100.155 E4.78727
G1 X102.237 Y103.837 E4.93191
G1 X102.333 Y103.378 E4.94494
G1 X102.354 Y102.853 E4.95954
G1 X105.589 Y99.618 E5.08661
G1 X105.417 Y99.400 E5.09433
G1 X105.182 Y99.157 E5.10371
G1 X102.236 Y102.103 E5.21945
G1 X102.095 Y101.747 E5.23008
G1 X101.957 Y101.514 E5.23761
G1 X104.715 Y98.756 E5.34596
G1 X104.555 Y98.630 E5.35163
G1 X104.191 Y98.412 E5.36340
G1 X101.540 Y101.063 E5.46755
G1 X101.298 Y100.893 E5.47577
G1 X100.996 Y100.740 E5.48519
G1 X103.602 Y98.133 E5.58759
G1 X103.307 Y98.020 E5.59638
G1 X102.954 Y97.914 E5.60662
G1 X100.320 Y100.547 E5.71007
G1 X99.886 Y100.501 E5.72220
G1 X99.505 Y100.495 E5.73277
G1 X102.242 Y97.758 E5.84027
G1 X101.478 Y97.654 E5.86168
G1 X98.638 Y100.495 E5.97326
G1 X97.770 Y100.495 E5.99736
G1 X100.643 Y97.621 E6.11024
G1 X99.779 Y97.617 E6.13424
G1 X93.555 Y103.842 E6.37877
G1 X93.555 Y102.974 E6.40288
G1 X98.916 Y97.613 E6.61348
G1 X98.052 Y97.610 E6.63747
G1 X93.555 Y102.107 E6.81414
G1 X93.555 Y101.239 E6.83824
G1 X97.520 Y97.273 E6.99403
G1 X97.520 Y96.405 E7.01814
G1 X93.555 Y100.371 E7.17393
G1 X93.555 Y99.503 E7.19803
G1 X97.520 Y95.538 E7.35382
G1 X97.520 Y94.670 E7.37792
G1 X93.555 Y98.636 E7.53371
G1 X93.555 Y97.768 E7.55782
G1 X97.520 Y93.802 E7.71361
G1 X97.520 Y92.934 E7.73771
G1 X93.555 Y96.900 E7.89350
G1 X93.555 Y96.032 E7.91761
G1 X97.520 Y92.067 E8.07340
G1 X96.665 Y92.055 E8.09716
G1 X93.555 Y95.165 E8.21934
G1 X93.555 Y94.297 E8.24345
G1 X95.797 Y92.055 E8.33154
G1 X94.929 Y92.055 E8.35565
G1 X93.555 Y93.429 E8.40965
G1 X93.555 Y92.561 E8.43375
G1 X94.061 Y92.055 E8.45367
G1 Z2.400 F7800.000
G1 X97.520 Y93.182 F7800.000
G1 F2823.38
G1 X96.393 Y92.055 E8.49794
G1 X95.526 Y92.055 E8.52205
G1 X97.520 Y94.049 E8.60041
G1 X97.520 Y94.917 E8.62451
G1 X94.658 Y92.055 E8.73696
G1 X93.790 Y92.055 E8.76107
G1 X97.520 Y95.785 E8.90761
G1 X97.520 Y96.653 E8.93171
G1 X93.555 Y92.687 E9.08750
G1 X93.555 Y93.555 E9.11161
G1 X97.520 Y97.520 E9.26740
G1 X97.520 Y97.989 E9.28042
G1 X97.991 Y97.991 E9.29350
G1 X97.609 Y97.609 F7800.000
G1 F2823.38
G1 X100.523 Y100.523 E9.40794
G1 X100.931 Y100.592 E9.41944
G1 X101.338 Y100.722 E9.43130
G1 X101.680 Y100.893 E9.44193
G1 X101.979 Y101.111 E9.45221
G1 X98.481 Y97.613 E9.58962
G1 X99.353 Y97.617 E9.61383
G1 X106.250 Y104.515 E9.88479
G1 X106.319 Y104.259 E9.89215
G1 X106.394 Y103.791 E9.90531
G1 X100.224 Y97.621 E10.14770
G1 X100.670 Y97.623 E10.16009
G1 X101.128 Y97.657 E10.17283
G1 X106.440 Y102.969 E10.38150
G1 X106.437 Y102.626 E10.39103
G1 X106.378 Y102.039 E10.40740
G1 X102.158 Y97.819 E10.57317
G1 X102.465 Y97.882 E10.58188
G1 X102.925 Y98.020 E10.59521
G1 X103.424 Y98.218 E10.61013
G1 X106.063 Y100.856 E10.71377
G1 E8.71377 F2400.00000
G92 E0
G1 X106.033 Y105.165 F7800.000
G1 E2.00000 F2400.00000
G1 F2823.38
G1 X101.814 Y100.947 E2.16571
G1 X102.017 Y101.225 E2.17527
G1 X102.160 Y101.509 E2.18410
G1 X102.289 Y101.923 E2.19614
G1 X102.347 Y102.347 E2.20806
G1 X105.728 Y105.728 E2.34086
G1 X105.356 Y106.223 E2.35807
G1 X102.306 Y103.174 E2.47788
G1 X102.194 Y103.590 E2.48987
G1 X102.089 Y103.825 E2.49700
G1 X104.909 Y106.644 E2.60776
G1 X104.717 Y106.809 E2.61478
G1 X104.405 Y107.008 E2.62507
G1 X101.726 Y104.329 E2.73031
G1 X101.511 Y104.519 E2.73827
G1 X101.231 Y104.702 E2.74756
G1 X103.841 Y107.312 E2.85009
G1 X103.597 Y107.426 E2.85757
G1 X103.222 Y107.560 E2.86865
G1 X100.607 Y104.946 E2.97134
G1 X100.191 Y105.026 E2.98311
G1 X99.848 Y105.054 E2.99268
G1 X102.537 Y107.744 E3.09834
G1 X101.791 Y107.866 E3.11934
G1 X98.985 Y105.059 E3.22958
G1 X98.117 Y105.059 E3.25369
G1 X100.989 Y107.931 E3.36652
G1 X100.136 Y107.945 E3.39023
G1 X97.249 Y105.059 E3.50362
G1 X93.936 Y107.820 F7800.000
G1 F2823.38
G1 X93.936 Y107.945 E3.50709
G1 X94.061 Y107.945 E3.51057
G1 X93.555 Y107.439 E3.53049
G1 X93.555 Y106.571 E3.55459
G1 X94.929 Y107.945 E3.60859
G1 X95.797 Y107.945 E3.63270
G1 X93.555 Y105.703 E3.72079
G1 X93.555 Y104.835 E3.74489
G1 X96.665 Y107.945 E3.86708
G1 X97.532 Y107.945 E3.89118
G1 X93.555 Y103.968 E4.04745
G1 X93.555 Y103.100 E4.07155
G1 X98.400 Y107.945 E4.26191
G1 X99.268 Y107.945 E4.28602
G1 X93.555 Y102.232 E4.51046
G1 X93.555 Y101.364 E4.53457
G1 X97.520 Y105.330 E4.69036
G1 X97.520 Y104.462 E4.71446
G1 X93.555 Y100.497 E4.87025
G1 X93.555 Y99.629 E4.89435
G1 X97.520 Y103.595 E5.05014
G1 X97.520 Y102.727 E5.07425
G1 X93.555 Y98.761 E5.23004
G1 X93.555 Y97.893 E5.25414
G1 X97.520 Y101.859 E5.40993
G1 X97.520 Y100.991 E5.43404
G1 X93.555 Y97.026 E5.58983
G1 X93.555 Y96.158 E5.61393
G1 X97.891 Y100.495 E5.78430
G1 X98.759 Y100.495 E5.80840
G1 X93.555 Y95.290 E6.01286
G1 X93.555 Y94.422 E6.03696
G1 X99.627 Y100.495 E6.27551
G1 Z2.800 F7800.000
G1 E4.27551 F2400.00000
G92 E0
G1 X93.555 Y103.842 F7800.000
G1 E2.00000 F2400.00000
G1 F2788.35
G1 X93.555 Y104.710 E2.02410
G1 X97.520 Y100.744 E2.17989
G1 X97.520 Y101.612 E2.20400
G1 X93.555 Y105.578 E2.35979
G1 X93.555 Y106.445 E2.38389
G1 X97.520 Y102.480 E2.53968
G1 X97.520 Y103.347 E2.56379
G1 X93.555 Y107.313 E2.71958
G1 X93.555 Y107.945 E2.73714
G1 X93.790 Y107.945 E2.74368
G1 X97.520 Y104.215 E2.89022
G1 X97.520 Y105.059 E2.91366
G1 X97.544 Y105.059 E2.91432
G1 X94.658 Y107.945 E3.02771
G1 X95.526 Y107.945 E3.05181
G1 X98.412 Y105.059 E3.16519
G1 X99.280 Y105.059 E3.18930
G1 X96.393 Y107.945 E3.30268
G1 X97.261 Y107.945 E3.32679
G1 X100.150 Y105.057 E3.44027
G1 X100.786 Y104.993 E3.45803
G1 X101.185 Y104.889 E3.46947
G1 X98.129 Y107.945 E3.58953
G1 X102.859 Y107.554 F7800.000
G1 F2788.35
G1 X106.241 Y104.172 E3.72241
G1 X106.314 Y103.903 E3.73013
G1 X106.390 Y103.464 E3.74252
G1 X106.418 Y103.128 E3.75189
G1 X101.733 Y107.812 E3.93592
G1 X101.297 Y107.881 E3.94817
G1 X100.756 Y107.922 E3.96325
G1 X106.436 Y102.241 E4.18640
G1 X106.347 Y101.462 E4.20817
G1 X99.864 Y107.945 E4.46285
G1 X98.997 Y107.945 E4.48696
G1 X106.171 Y100.771 E4.76880
G1 X106.039 Y100.407 E4.77955
G1 X105.918 Y100.156 E4.78729
G1 X102.237 Y103.837 E4.93190
G1 X102.336 Y103.352 E4.94566
G1 X102.354 Y102.853 E4.95953
G1 X105.589 Y99.618 E5.08661
G1 X105.385 Y99.364 E5.09564
G1 X105.183 Y99.156 E5.10371
G1 X102.236 Y102.103 E5.21949
G1 X102.092 Y101.735 E5.23048
G1 X101.957 Y101.514 E5.23767
G1 X104.715 Y98.756 E5.34599
G1 X104.546 Y98.624 E5.35195
G1 X104.191 Y98.412 E5.36342
G1 X101.540 Y101.063 E5.46758
G1 X101.284 Y100.885 E5.47626
G1 X100.996 Y100.740 E5.48521
G1 X103.602 Y98.134 E5.58758
G1 X103.310 Y98.021 E5.59629
G1 X102.953 Y97.915 E5.60661
G1 X100.320 Y100.548 E5.71005
G1 X99.897 Y100.502 E5.72186
G1 X99.505 Y100.495 E5.73275
G1 X102.240 Y97.760 E5.84017
G1 X101.478 Y97.654 E5.86153
G1 X98.638 Y100.495 E5.97311
G1 X97.770 Y100.495 E5.99722
G1 X100.651 Y97.614 E6.11040
G1 X99.788 Y97.608 E6.13436
G1 X93.555 Y103.842 E6.37925
G1 X93.555 Y102.974 E6.40335
G1 X98.921 Y97.608 E6.61415
G1 X98.053 Y97.608 E6.63826
G1 X93.555 Y102.107 E6.81497
G1 X93.555 Y101.239 E6.83908
G1 X97.520 Y97.273 E6.99487
G1 X97.520 Y96.405 E7.01897
G1 X93.555 Y100.371 E7.17476
G1 X93.555 Y99.503 E7.19887
G1 X97.520 Y95.538 E7.35466
G1 X97.520 Y94.670 E7.37876
G1 X93.555 Y98.636 E7.53455
G1 X93.555 Y97.768 E7.55865
G1 X97.520 Y93.802 E7.71444
G1 X97.520 Y92.934 E7.73855
G1 X93.555 Y96.900 E7.89434
G1 X93.555 Y96.032 E7.91844
G1 X97.520 Y92.067 E8.07423
G1 X96.665 Y92.055 E8.09800
G1 X93.555 Y95.165 E8.22018
G1 X93.555 Y94.297 E8.24428
G1 X95.797 Y92.055 E8.33238
G1 X94.929 Y92.055 E8.35648
G1 X93.555 Y93.429 E8.41049
G1 X93.555 Y92.561 E8.43459
G1 X94.061 Y92.055 E8.45451
G1 Z3.200 F7800.000
G1 X97.520 Y93.182 F7800.000
G1 F2823.65
G1 X96.393 Y92.055 E8.49878
G1 X95.526 Y92.055 E8.52288
G1 X97.520 Y94.049 E8.60125
G1 X97.520 Y94.917 E8.62535
G1 X94.658 Y92.055 E8.73780
G1 X93.790 Y92.055 E8.76190
G1 X97.520 Y95.785 E8.90844
G1 X97.520 Y96.653 E8.93255
G1 X93.555 Y92.687 E9.08834
G1 X93.555 Y93.555 E9.11244
G1 X97.520 Y97.520 E9.26823
G1 X97.520 Y97.990 E9.28128
G1 X97.990 Y97.990 E9.29433
G1 X97.608 Y97.608 F7800.000
G1 F2823.65
G1 X100.523 Y100.523 E9.40884
G1 X100.909 Y100.588 E9.41970
G1 X101.356 Y100.730 E9.43274
G1 X101.651 Y100.876 E9.44188
G1 X101.975 Y101.107 E9.45293
G1 X98.476 Y97.608 E9.59038
G1 X99.344 Y97.608 E9.61448
G1 X106.253 Y104.517 E9.88588
G1 X106.308 Y104.311 E9.89182
G1 X106.395 Y103.791 E9.90644
G1 X100.216 Y97.612 E10.14918
G1 X100.718 Y97.626 E10.16314
G1 X101.138 Y97.667 E10.17485
G1 X106.439 Y102.968 E10.38313
G1 X106.438 Y102.647 E10.39205
G1 X106.381 Y102.042 E10.40892
G1 X102.160 Y97.821 E10.57476
G1 X102.428 Y97.873 E10.58236
G1 X102.932 Y98.022 E10.59694
G1 X103.430 Y98.224 E10.61189
G1 X106.066 Y100.860 E10.71544
G1 E8.71544 F2400.00000
G92 E0
G1 X106.031 Y105.164 F7800.000
G1 E2.00000 F2400.00000
G1 F2823.65
G1 X101.818 Y100.951 E2.16550
G1 X102.050 Y101.282 E2.17672
G1 X102.196 Y101.601 E2.18648
G1 X102.302 Y101.991 E2.19769
G1 X102.348 Y102.348 E2.20770
G1 X105.727 Y105.727 E2.34042
G1 X105.634 Y105.874 E2.34526
G1 X105.354 Y106.222 E2.35766
G1 X102.306 Y103.174 E2.47740
G1 X102.187 Y103.606 E2.48986
G1 X102.090 Y103.825 E2.49651
G1 X104.910 Y106.645 E2.60730
G1 X104.717 Y106.809 E2.61433
G1 X104.411 Y107.014 E2.62456
G1 X101.725 Y104.328 E2.73006
G1 X101.481 Y104.542 E2.73907
G1 X101.232 Y104.703 E2.74731
G1 X103.844 Y107.315 E2.84994
G1 X103.220 Y107.559 E2.86854
G1 X100.607 Y104.946 E2.97119
G1 X100.206 Y105.024 E2.98253
G1 X99.847 Y105.054 E2.99254
G1 X102.536 Y107.743 E3.09816
G1 X101.788 Y107.862 E3.11922
G1 X98.985 Y105.059 E3.22932
G1 X98.117 Y105.059 E3.25342
G1 X100.990 Y107.932 E3.36628
G1 X100.136 Y107.945 E3.39001
G1 X97.249 Y105.059 E3.50340
G1 X93.936 Y107.820 F7800.000
G1 F2823.65
G1 X93.936 Y107.945 E3.50687
G1 X94.061 Y107.945 E3.51035
G1 X93.555 Y107.439 E3.53027
G1 X93.555 Y106.571 E3.55437
G1 X94.929 Y107.945 E3.60837
G1 X95.797 Y107.945 E3.63248
G1 X93.555 Y105.703 E3.72057
G1 X93.555 Y104.835 E3.74468
G1 X96.665 Y107.945 E3.86686
G1 X97.532 Y107.945 E3.89096
G1 X93.555 Y103.968 E4.04723
G1 X93.555 Y103.100 E4.07133
G1 X98.400 Y107.945 E4.26169
G1 X99.268 Y107.945 E4.28580
G1 X93.555 Y102.232 E4.51024
G1 X93.555 Y101.364 E4.53435
G1 X97.520 Y105.330 E4.69014
G1 X97.520 Y104.462 E4.71424
G1 X93.555 Y100.497 E4.87003
G1 X93.555 Y99.629 E4.89413
G1 X97.520 Y103.595 E5.04992
G1 X97.520 Y102.727 E5.07403
G1 X93.555 Y98.761 E5.22982
G1 X93.555 Y97.893 E5.25392
G1 X97.520 Y101.859 E5.40971
G1 X97.520 Y100.991 E5.43382
G1 X93.555 Y97.026 E5.58961
G1 X93.555 Y96.158 E5.61371
G1 X97.891 Y100.495 E5.78408
G1 X98.759 Y100.495 E5.80818
G1 X93.555 Y95.290 E6.01264
G1 X93.555 Y94.422 E6.03674
G1 X99.627 Y100.495 E6.27529
G1 Z3.600 F7800.000
G1 E4.27529 F2400.00000
G92 E0
G1 X93.555 Y103.842 F7800.000
G1 E2.00000 F2400.00000
G1 F2788.71
G1 X93.555 Y104.710 E2.02410
G1 X97.520 Y100.744 E2.17989
G1 X97.520 Y101.612 E2.20400
G1 X93.555 Y105.578 E2.35979
G1 X93.555 Y106.445 E2.38389
G1 X97.520 Y102.480 E2.53968
G1 X97.520 Y103.347 E2.56379
G1 X93.555 Y107.313 E2.71958
G1 X93.555 Y107.945 E2.73714
G1 X93.790 Y107.945 E2.74368
G1 X97.520 Y104.215 E2.89022
G1 X97.520 Y105.059 E2.91366
G1 X97.544 Y105.059 E2.91432
G1 X94.658 Y107.945 E3.02771
G1 X95.526 Y107.945 E3.05181
G1 X98.412 Y105.059 E3.16519
G1 X99.280 Y105.059 E3.18930
G1 X96.393 Y107.945 E3.30268
G1 X97.261 Y107.945 E3.32679
G1 X100.151 Y105.056 E3.44030
G1 X100.653 Y105.014 E3.45429
G1 X101.185 Y104.889 E3.46950
G1 X98.129 Y107.945 E3.58957
G1 X102.861 Y107.552 F7800.000
G1 F2788.71
G1 X106.246 Y104.167 E3.72252
G1 X106.302 Y103.955 E3.72862
G1 X106.390 Y103.462 E3.74254
G1 X106.418 Y103.127 E3.75188
G1 X101.735 Y107.811 E3.93588
G1 X101.197 Y107.891 E3.95097
G1 X100.753 Y107.925 E3.96336
G1 X106.435 Y102.242 E4.18660
G1 X106.384 Y101.673 E4.20247
G1 X106.346 Y101.464 E4.20837
G1 X99.864 Y107.945 E4.46299
G1 X98.997 Y107.945 E4.48709
G1 X106.175 Y100.767 E4.76907
G1 X106.052 Y100.437 E4.77885
G1 X105.917 Y100.158 E4.78749
G1 X102.237 Y103.837 E4.93204
G1 X102.308 Y103.545 E4.94039
G1 X102.341 Y103.300 E4.94727
G1 X102.353 Y102.854 E4.95967
G1 X105.589 Y99.618 E5.08680
G1 X105.185 Y99.154 E5.10388
G1 X102.235 Y102.104 E5.21977
G1 X102.084 Y101.726 E5.23108
G1 X101.957 Y101.514 E5.23794
G1 X104.721 Y98.750 E5.34652
G1 X104.191 Y98.412 E5.36398
G1 X101.539 Y101.064 E5.46817
G1 X101.255 Y100.868 E5.47776
G1 X100.996 Y100.739 E5.48579
G1 X103.605 Y98.131 E5.58826
G1 X102.952 Y97.916 E5.60735
G1 X100.319 Y100.549 E5.71078
G1 X99.920 Y100.503 E5.72193
G1 X99.505 Y100.495 E5.73346
G1 X102.244 Y97.756 E5.84103
G1 X101.925 Y97.703 E5.85000
G1 X101.472 Y97.660 E5.86264
G1 X98.638 Y100.495 E5.97399
G1 X97.770 Y100.495 E5.99809
G1 X100.651 Y97.614 E6.11125
G1 X99.788 Y97.608 E6.13520
G1 X93.555 Y103.842 E6.38009
G1 X93.555 Y102.974 E6.40420
G1 X98.921 Y97.608 E6.61500
G1 X98.053 Y97.608 E6.63910
G1 X93.555 Y102.107 E6.81582
G1 X93.555 Y101.239 E6.83992
G1 X97.520 Y97.273 E6.99571
G1 X97.520 Y96.405 E7.01981
G1 X93.555 Y100.371 E7.17560
G1 X93.555 Y99.503 E7.19971
G1 X97.520 Y95.538 E7.35550
G1 X97.520 Y94.670 E7.37960
G1 X93.555 Y98.636 E7.53539
G1 X93.555 Y97.768 E7.55950
G1 X97.520 Y93.802 E7.71529
G1 X97.520 Y92.934 E7.73939
G1 X93.555 Y96.900 E7.89518
G1 X93.555 Y96.032 E7.91928
G1 X97.520 Y92.067 E8.07507
G1 X96.665 Y92.055 E8.09884
G1 X93.555 Y95.165 E8.22102
G1 X93.555 Y94.297 E8.24513
G1 X95.797 Y92.055 E8.33322
G1 X94.929 Y92.055 E8.35732
G1 X93.555 Y93.429 E8.41133
G1 X93.555 Y92.561 E8.43543
G1 X94.061 Y92.055 E8.45535
G1 Z4.000 F7800.000
G1 E6.45535 F2400.00000
G92 E0
G1 X97.520 Y93.182 F7800.000
G1 E2.00000 F2400.00000
G1 F2824.15
G1 X96.393 Y92.055 E2.04427
G1 X95.526 Y92.055 E2.06838
G1 X97.520 Y94.049 E2.14674
G1 X97.520 Y94.917 E2.17084
G1 X94.658 Y92.055 E2.28329
G1 X93.790 Y92.055 E2.30740
G1 X97.520 Y95.785 E2.45394
G1 X97.520 Y96.653 E2.47804
G1 X93.555 Y92.687 E2.63383
G1 X93.555 Y93.555 E2.65794
G1 X97.520 Y97.520 E2.81373
G1 X97.520 Y97.990 E2.82678
G1 X97.990 Y97.990 E2.83983
G1 X97.608 Y97.608 F7800.000
G1 F2824.15
G1 X100.524 Y100.524 E2.95437
G1 X100.890 Y100.584 E2.96468
G1 X101.375 Y100.738 E2.97881
G1 X101.622 Y100.859 E2.98646
G1 X101.981 Y101.113 E2.99865
G1 X98.476 Y97.608 E3.13632
G1 X99.344 Y97.608 E3.16042
G1 X106.255 Y104.520 E3.43192
G1 X106.395 Y103.792 E3.45251
G1 X100.216 Y97.613 E3.69525
G1 X100.771 Y97.628 E3.71068
G1 X101.133 Y97.662 E3.72078
G1 X106.439 Y102.968 E3.92921
G1 X106.439 Y102.669 E3.93754
G1 X106.380 Y102.042 E3.95503
G1 X102.147 Y97.809 E4.12132
G1 X102.938 Y98.024 E4.14409
G1 X103.433 Y98.226 E4.15893
G1 X106.070 Y100.863 E4.26253
G1 E2.26253 F2400.00000
G92 E0
G1 X106.030 Y105.163 F7800.000
G1 E2.00000 F2400.00000
G1 F2824.15
G1 X101.818 Y100.950 E2.16549
G1 X102.067 Y101.313 E2.17773
G1 X102.184 Y101.568 E2.18553
G1 X102.310 Y102.029 E2.19879
G1 X102.348 Y102.348 E2.20771
G1 X105.726 Y105.726 E2.34041
G1 X105.594 Y105.931 E2.34718
G1 X105.353 Y106.221 E2.35765
G1 X102.306 Y103.173 E2.47737
G1 X102.181 Y103.623 E2.49032
G1 X102.090 Y103.825 E2.49650
G1 X104.911 Y106.646 E2.60733
G1 X104.721 Y106.807 E2.61424
G1 X104.410 Y107.013 E2.62460
G1 X101.724 Y104.328 E2.73009
G1 X101.451 Y104.564 E2.74014
G1 X101.232 Y104.703 E2.74733
G1 X103.847 Y107.318 E2.85008
G1 X103.220 Y107.559 E2.86873
G1 X100.606 Y104.945 E2.97142
G1 X100.221 Y105.022 E2.98233
G1 X99.846 Y105.053 E2.99277
G1 X102.537 Y107.744 E3.09848
G1 X101.785 Y107.859 E3.11962
G1 X98.985 Y105.059 E3.22961
G1 X98.117 Y105.059 E3.25371
G1 X100.979 Y107.921 E3.36614
G1 X100.136 Y107.945 E3.38958
G1 X97.249 Y105.059 E3.50296
G1 E1.50296 F2400.00000
G92 E0
G1 X93.936 Y107.820 F7800.000
G1 E2.00000 F2400.00000
G1 F2824.15
G1 X93.936 Y107.945 E2.00348
G1 X94.061 Y107.945 E2.00695
G1 X93.555 Y107.439 E2.02687
G1 X93.555 Y106.571 E2.05097
G1 X94.929 Y107.945 E2.10498
G1 X95.797 Y107.945 E2.12908
G1 X93.555 Y105.703 E2.21718
G1 X93.555 Y104.835 E2.24128
G1 X96.665 Y107.945 E2.36346
G1 X97.532 Y107.945 E2.38756
G1 X93.555 Y103.968 E2.54383
G1 X93.555 Y103.100 E2.56794
G1 X98.400 Y107.945 E2.75830
G1 X99.268 Y107.945 E2.78240
G1 X93.555 Y102.232 E3.00685
G1 X93.555 Y101.364 E3.03095
G1 X97.520 Y105.330 E3.18674
G1 X97.520 Y104.462 E3.21084
G1 X93.555 Y100.497 E3.36663
G1 X93.555 Y99.629 E3.39074
G1 X97.520 Y103.595 E3.54653
G1 X97.520 Y102.727 E3.57063
G1 X93.555 Y98.761 E3.72642
G1 X93.555 Y97.893 E3.75053
G1 X97.520 Y101.859 E3.90632
G1 X97.520 Y100.991 E3.93042
G1 X93.555 Y97.026 E4.08621
G1 X93.555 Y96.158 E4.11032
G1 X97.891 Y100.495 E4.28068
G1 X98.759 Y100.495 E4.30479
G1 X93.555 Y95.290 E4.50924
G1 X93.555 Y94.422 E4.53335
G1 X99.627 Y100.495 E4.77189
G1 E2.77189 F2400.00000
G92 E0
M107
; Filament-specific end gcode 
;END gcode for filament

M104 S0 ; turn off temperature
G28 X0  ; home X axis
M84     ; disable motors

M140 S0 ; set bed temperature
; filament used = 68.1mm (0.5cm3)
; total filament cost = 0.0

; avoid_crossing_perimeters = 0
; bed_shape = 0x0,200x0,200x200,0x200
; bed_temperature = 0
; before_layer_gcode = 
; between_objects_gcode = 
; bridge_acceleration = 0
; bridge_fan_speed = 100
; brim_connections_width = 0
; brim_width = 0
; complete_objects = 0
; cooling = 1
; default_acceleration = 0
; disable_fan_first_layers = 3
; duplicate_distance = 6
; end_filament_gcode = "; Filament-specific end gcode \n;END gcode for filament\n"
; end_gcode = M104 S0 ; turn off temperature\nG28 X0  ; home X axis\nM84     ; disable motors\n
; extruder_clearance_height = 20
; extruder_clearance_radius = 20
; extruder_offset = 0x0
; extrusion_axis = E
; extrusion_multiplier = 1
; fan_always_on = 0
; fan_below_layer_time = 60
; filament_colour = #FFFFFF
; filament_cost = 0
; filament_density = 0
; filament_diameter = 3
; filament_max_volumetric_speed = 0
; filament_notes = ""
; first_layer_acceleration = 0
; first_layer_bed_temperature = 0
; first_layer_extrusion_width = 200%
; first_layer_speed = 30
; first_layer_temperature = 205
; gcode_arcs = 0
; gcode_comments = 0
; gcode_flavor = reprap
; has_heatbed = 1
; infill_acceleration = 0
; infill_first = 0
; interior_brim_width = 0
; layer_gcode = 
; max_fan_speed = 100
; max_layer_height = 0.3
; max_print_speed = 80
; max_volumetric_speed = 0
; min_fan_speed = 35
; min_layer_height = 0.15
; min_print_speed = 10
; min_skirt_length = 0
; notes = 
; nozzle_diameter = 0.5
; only_retract_when_crossing_perimeters = 1
; ooze_prevention = 0
; output_filename_format = [input_filename_base].gcode
; perimeter_acceleration = 0
; post_process = 
; pressure_advance = 0
; printer_notes = 
; resolution = 0
; retract_before_travel = 2
; retract_layer_change = 0
; retract_length = 2
; retract_length_toolchange = 10
; retract_lift = 0
; retract_lift_above = 0
; retract_lift_below = 0
; retract_restart_extra = 0
; retract_restart_extra_toolchange = 0
; retract_speed = 40
; skirt_distance = 6
; skirt_height = 1
; skirts = 0
; slowdown_below_layer_time = 5
; spiral_vase = 0
; standby_temperature_delta = -5
; start_filament_gcode = "; Filament gcode\n"
; start_gcode = G28 ; home all axes\nG1 Z5 F5000 ; lift nozzle\n
; temperature = 200
; threads = 8
; toolchange_gcode = 
; travel_speed = 130
; use_firmware_retraction = 0
; use_relative_e_distances = 0
; use_set_and_wait_bed = 0
; use_set_and_wait_extruder = 0
; use_volumetric_e = 0
; vibration_limit = 0
; wipe = 0
; z_offset = 0
; z_steps_per_mm = 0
; adaptive_slicing = 0
; adaptive_slicing_quality = 75%
; dont_support_bridges = 1
; extrusion_width = 0
; first_layer_height = 0.4
; infill_only_where_needed = 0
; interface_shells = 0
; layer_height = 0.4
; match_horizontal_surfaces = 0
; raft_layers = 0
; regions_overlap = 0
; seam_position = aligned
; sequential_print_priority = 0
; support_material = 0
; support_material_angle = 0
; support_material_buildplate_only = 0
; support_material_contact_distance = 0.2
; support_material_enforce_layers = 0
; support_material_extruder = 1
; support_material_extrusion_width = 0
; support_material_interface_extruder = 1
; support_material_interface_extrusion_width = 0
; support_material_interface_layers = 3
; support_material_interface_spacing = 0
; support_material_interface_speed = 100%
; support_material_max_layers = 0
; support_material_pattern = pillars
; support_material_spacing = 2.5
; support_material_speed = 60
; support_material_threshold = 60%
; xy_size_compensation = 0
; bottom_infill_pattern = rectilinear
; bottom_solid_layers = 0
; bridge_flow_ratio = 1
; bridge_speed = 60
; external_perimeter_extrusion_width = 0
; external_perimeter_speed = 50%
; external_perimeters_first = 0
; extra_perimeters = 1
; fill_angle = 45
; fill_density = 80%
; fill_gaps = 1
; fill_pattern = rectilinear
; gap_fill_speed = 20
; infill_every_layers = 1
; infill_extruder = 1
; infill_extrusion_width = 0
; infill_overlap = 55%
; infill_speed = 80
; overhangs = 1
; perimeter_extruder = 1
; perimeter_extrusion_width = 0
; perimeter_speed = 60
; perimeters = 0
; small_perimeter_speed = 15
; solid_infill_below_area = 70
; solid_infill_every_layers = 0
; solid_infill_extruder = 1
; solid_infill_extrusion_width = 0
; solid_infill_speed = 20
; thin_walls = 1
; top_infill_extrusion_width = 0
; top_infill_pattern = rectilinear
; top_solid_infill_speed = 15
; top_solid_layers = 0
