; generated by Slic3r 1.3.0 on 2020-10-15 at 15:37:27

; external perimeters extrusion width = 0.55mm (5.57mm^3/s)
; perimeters extrusion width = 0.58mm (11.78mm^3/s)
; infill extrusion width = 0.58mm (15.71mm^3/s)
; solid infill extrusion width = 0.58mm (3.93mm^3/s)
; top infill extrusion width = 0.58mm (2.95mm^3/s)

M107
M104 S205 ; set temperature
G28 ; home all axes
G1 Z5 F5000 ; lift nozzle

; Filament gcode

M109 S205 ; set temperature and wait for it to be reached
G21 ; set units to millimeters
G90 ; use absolute coordinates
M82 ; use absolute distances for extrusion
G92 E0
G1 Z0.400 F7800.000
G1 E-2.00000 F2400.00000
G92 E0
G1 X93.980 Y92.011 F7800.000
G1 E2.00000 F2400.00000
G1 F1800
G1 X93.511 Y92.480 E2.02679
G1 X93.511 Y93.180 E2.05510
G1 X94.680 Y92.011 E2.12193
G1 X95.381 Y92.011 E2.15024
G1 X93.511 Y93.881 E2.25710
G1 X93.511 Y94.581 E2.28540
G1 X96.081 Y92.011 E2.43230
G1 X96.782 Y92.011 E2.46060
G1 X93.511 Y95.282 E2.64753
G1 X93.511 Y95.982 E2.67584
G1 X97.482 Y92.011 E2.90279
G1 X97.564 Y92.011 E2.90609
G1 X97.564 Y92.630 E2.93110
G1 X93.511 Y96.683 E3.16272
G1 X93.511 Y97.383 E3.19103
G1 X97.564 Y93.330 E3.42264
G1 X97.564 Y94.031 E3.45095
G1 X93.511 Y98.084 E3.68257
G1 X93.511 Y98.784 E3.71087
G1 X97.564 Y94.731 E3.94249
G1 X97.564 Y95.432 E3.97080
G1 X93.511 Y99.484 E4.20242
G1 X93.511 Y100.185 E4.23072
G1 X97.564 Y96.132 E4.46234
G1 X97.564 Y96.833 E4.49065
G1 X93.511 Y100.885 E4.72227
G1 X93.511 Y101.586 E4.75058
G1 X97.564 Y97.533 E4.98219
G1 X97.564 Y97.565 E4.98348
G1 X98.232 Y97.565 E5.01050
G1 X93.511 Y102.286 E5.28033
G1 X93.511 Y102.987 E5.30864
G1 X98.933 Y97.565 E5.61851
G1 X99.633 Y97.565 E5.64682
G1 X93.511 Y103.687 E5.99672
G1 X93.511 Y104.388 E6.02502
G1 X97.095 Y100.804 E6.22986
G1 X97.095 Y100.538 E6.24059
G1 X97.361 Y100.538 E6.25132
G1 X100.334 Y97.565 E6.42124
G1 X101.019 Y97.580 E6.44894
G1 X98.061 Y100.538 E6.61800
G1 X98.762 Y100.538 E6.64631
G1 X101.671 Y97.629 E6.81257
G1 X102.286 Y97.714 E6.83768
G1 X99.462 Y100.538 E6.99910
G1 X100.130 Y100.571 E7.02611
G1 X102.866 Y97.835 E7.18248
G1 X103.405 Y97.996 E7.20522
G1 X100.708 Y100.692 E7.35931
G1 X100.951 Y100.782 E7.36977
G1 X101.198 Y100.903 E7.38088
G1 X103.904 Y98.198 E7.53552
G1 X104.363 Y98.439 E7.55649
G1 X101.603 Y101.198 E7.71422
G1 X101.766 Y101.365 E7.72363
G1 X101.926 Y101.576 E7.73434
G1 X104.783 Y98.719 E7.89764
G1 X105.162 Y99.040 E7.91772
G1 X102.157 Y102.045 E8.08945
G1 X102.218 Y102.236 E8.09753
G1 X102.288 Y102.616 E8.11314
G1 X105.495 Y99.408 E8.29645
G1 X105.630 Y99.571 E8.30500
G1 X105.788 Y99.816 E8.31677
G1 X102.302 Y103.302 E8.51600
G1 X102.213 Y103.819 E8.53720
G1 X102.137 Y104.049 E8.54700
G1 X102.039 Y104.265 E8.55656
G1 X106.034 Y100.270 E8.78488
G1 X106.104 Y100.412 E8.79128
G1 X106.231 Y100.774 E8.80678
G1 X99.016 Y107.989 E9.21914
G1 X99.716 Y107.989 E9.24745
G1 X106.372 Y101.333 E9.62786
G1 X106.433 Y101.666 E9.64156
G1 X106.457 Y101.949 E9.65301
G1 X100.435 Y107.970 E9.99716
G1 X101.177 Y107.929 E10.02718
G1 X106.483 Y102.623 E10.33042
G1 X106.483 Y102.843 E10.33928
G1 X106.438 Y103.368 E10.36060
G1 X101.997 Y107.809 E10.61441
G1 X102.343 Y107.735 E10.62868
G1 X102.960 Y107.547 E10.65474
G1 X106.253 Y104.254 E10.84295
G1 X106.102 Y104.678 E10.86113
G1 X105.892 Y105.110 E10.88053
G1 X105.634 Y105.510 E10.89979
G1 X105.480 Y105.707 E10.90988
G1 X104.684 Y106.523 E10.95595
G1 E8.95595 F2400.00000
G92 E0
G1 X98.315 Y107.989 F7800.000
G1 E2.00000 F2400.00000
G1 F1800
G1 X101.631 Y104.673 E2.18950
G1 X101.174 Y104.864 E2.20951
G1 X100.929 Y104.929 E2.21974
G1 X100.623 Y104.981 E2.23231
G1 X97.615 Y107.989 E2.40423
G1 X96.914 Y107.989 E2.43253
G1 X99.887 Y105.016 E2.60246
G1 X99.187 Y105.016 E2.63076
G1 X96.214 Y107.989 E2.80068
G1 X95.513 Y107.989 E2.82899
G1 X98.486 Y105.016 E2.99891
G1 X97.786 Y105.016 E3.02722
G1 X94.813 Y107.989 E3.19714
G1 X94.112 Y107.989 E3.22545
G1 X97.564 Y104.538 E3.42270
G1 X97.564 Y103.837 E3.45101
G1 X93.511 Y107.890 E3.68262
G1 X93.511 Y107.189 E3.71093
G1 X97.564 Y103.137 E3.94255
G1 X97.564 Y102.436 E3.97086
G1 X93.511 Y106.489 E4.20247
G1 X93.511 Y105.788 E4.23078
G1 X97.564 Y101.736 E4.46240
G1 X97.564 Y101.035 E4.49071
G1 X93.511 Y105.088 E4.72233
G1 X93.511 Y104.388 E4.75063
M104 S200 ; set temperature
G1 Z0.800 F7800.000
G1 X93.936 Y107.945 F7800.000
G1 F3392.7
G1 X93.555 Y107.564 E4.76563
G1 X93.555 Y106.861 E4.78514
G1 X94.639 Y107.945 E4.82773
G1 X95.341 Y107.945 E4.84723
G1 X93.555 Y106.159 E4.91741
G1 X93.555 Y105.457 E4.93691
G1 X96.043 Y107.945 E5.03467
G1 X96.745 Y107.945 E5.05418
G1 X93.555 Y104.755 E5.17952
G1 X93.555 Y104.053 E5.19902
G1 X97.447 Y107.945 E5.35195
G1 X98.150 Y107.945 E5.37146
G1 X93.555 Y103.350 E5.55197
G1 X93.555 Y102.648 E5.57147
G1 X98.852 Y107.945 E5.77957
G1 X99.554 Y107.945 E5.79908
G1 X93.555 Y101.946 E6.03476
G1 X93.555 Y101.244 E6.05426
G1 X97.520 Y105.210 E6.21005
G1 X97.520 Y104.507 E6.22956
G1 X93.555 Y100.542 E6.38535
G1 X93.555 Y99.839 E6.40485
G1 X97.520 Y103.805 E6.56064
G1 X97.520 Y103.103 E6.58015
G1 X93.555 Y99.137 E6.73594
G1 X93.555 Y98.435 E6.75544
G1 X97.520 Y102.401 E6.91123
G1 X97.520 Y101.699 E6.93074
G1 X93.555 Y97.733 E7.08653
G1 X93.555 Y97.031 E7.10603
G1 X97.520 Y100.996 E7.26182
G1 X97.520 Y100.495 E7.27576
G1 X97.721 Y100.495 E7.28133
G1 X93.555 Y96.329 E7.44499
G1 X93.555 Y95.626 E7.46449
G1 X98.423 Y100.495 E7.65574
G1 X99.125 Y100.495 E7.67524
G1 X93.555 Y94.924 E7.89407
G1 X93.555 Y94.222 E7.91357
G1 X99.827 Y100.495 E8.15999
G1 X98.025 Y97.990 F7800.000
G1 F3392.7
G1 X97.520 Y97.990 E8.17400
G1 X97.520 Y97.486 E8.18802
G1 X93.555 Y93.520 E8.34381
G1 X93.555 Y92.818 E8.36331
G1 X97.520 Y96.783 E8.51910
G1 X97.520 Y96.081 E8.53861
G1 X93.555 Y92.115 E8.69440
G1 X93.555 Y92.055 E8.69609
G1 X94.196 Y92.055 E8.71390
G1 X97.520 Y95.379 E8.84450
G1 X97.520 Y94.677 E8.86401
G1 X94.898 Y92.055 E8.96702
G1 X95.600 Y92.055 E8.98653
G1 X97.520 Y93.975 E9.06196
G1 X97.520 Y93.272 E9.08146
G1 X96.302 Y92.055 E9.12931
G1 X97.005 Y92.055 E9.14881
G1 X97.520 Y92.570 E9.16907
G1 E7.16907 F2400.00000
G92 E0
G1 X97.643 Y97.608 F7800.000
G1 E2.00000 F2400.00000
G1 F3392.7
G1 X100.563 Y100.528 E2.11469
G1 X100.895 Y100.585 E2.12406
G1 X101.140 Y100.651 E2.13110
G1 X101.567 Y100.830 E2.14398
G1 X98.345 Y97.608 E2.27055
G1 X99.047 Y97.608 E2.29006
G1 X106.186 Y104.747 E2.57049
G1 X106.329 Y104.187 E2.58653
G1 X99.750 Y97.608 E2.84497
G1 X100.463 Y97.619 E2.86479
G1 X106.413 Y103.570 E3.09855
G1 X106.440 Y103.258 E3.10725
G1 X106.439 Y102.893 E3.11737
G1 X101.217 Y97.671 E3.32252
G1 X101.514 Y97.699 E3.33082
G1 X102.033 Y97.785 E3.34542
G1 X106.393 Y102.145 E3.51669
G1 X106.297 Y101.582 E3.53255
G1 X106.204 Y101.254 E3.54204
G1 X102.995 Y98.045 E3.66806
G1 X103.699 Y98.348 E3.68934
G1 X104.094 Y98.579 E3.70205
G1 X104.357 Y98.761 E3.71092
G1 X104.708 Y99.056 E3.72366
G1 X105.101 Y99.449 E3.73912
G1 E1.73912 F2400.00000
G92 E0
G1 X105.988 Y105.251 F7800.000
G1 E2.00000 F2400.00000
G1 F3392.7
G1 X102.086 Y101.349 E2.15328
G1 X102.257 Y101.791 E2.16645
G1 X102.345 Y102.311 E2.18108
G1 X105.739 Y105.705 E2.31441
G1 X105.449 Y106.116 E2.32840
G1 X102.331 Y102.998 E2.45088
G1 X102.259 Y103.387 E2.46184
G1 X102.199 Y103.569 E2.46717
G1 X105.109 Y106.479 E2.58148
G1 X104.728 Y106.800 E2.59532
G1 X101.965 Y104.037 E2.70387
G1 X101.813 Y104.237 E2.71085
G1 X101.639 Y104.413 E2.71772
G1 X104.302 Y107.076 E2.82235
G1 X103.843 Y107.319 E2.83679
G1 X101.228 Y104.705 E2.93949
G1 X100.998 Y104.817 E2.94662
G1 X100.733 Y104.912 E2.95442
G1 X103.342 Y107.520 E3.05689
G1 X102.792 Y107.672 E3.07275
G1 X100.149 Y105.029 E3.17658
G1 X99.476 Y105.059 E3.19527
G1 X102.213 Y107.796 E3.30279
G1 X101.602 Y107.887 E3.31996
G1 X98.774 Y105.059 E3.43104
G1 X98.072 Y105.059 E3.45054
G1 X100.945 Y107.932 E3.56339
G1 X100.256 Y107.945 E3.58252
G1 X97.370 Y105.059 E3.69590
G1 Z1.200 F7800.000
G1 X98.359 Y107.945 F7800.000
G1 F3403.49
G1 X101.587 Y104.718 E3.82271
G1 X101.378 Y104.817 E3.82914
G1 X101.113 Y104.913 E3.83696
G1 X100.580 Y105.025 E3.85211
G1 X97.659 Y107.945 E3.96685
G1 X96.958 Y107.945 E3.98631
G1 X99.844 Y105.059 E4.09970
G1 X99.144 Y105.059 E4.11915
G1 X96.258 Y107.945 E4.23254
G1 X95.557 Y107.945 E4.25199
G1 X98.444 Y105.059 E4.36538
G1 X97.743 Y105.059 E4.38483
G1 X94.857 Y107.945 E4.49822
G1 X94.156 Y107.945 E4.51768
G1 X97.520 Y104.582 E4.64983
G1 X97.520 Y103.881 E4.66928
G1 X93.555 Y107.847 E4.82507
G1 X93.555 Y107.146 E4.84453
G1 X97.520 Y103.181 E5.00032
G1 X97.520 Y102.480 E5.01978
G1 X93.555 Y106.446 E5.17557
G1 X93.555 Y105.745 E5.19503
G1 X97.520 Y101.780 E5.35082
G1 X97.520 Y101.079 E5.37027
G1 X93.555 Y105.045 E5.52606
G1 X93.555 Y104.344 E5.54552
G1 X104.750 Y106.458 F7800.000
G1 F3403.49
G1 X105.423 Y105.766 E5.57233
G1 X105.617 Y105.516 E5.58114
G1 X105.855 Y105.141 E5.59347
G1 X106.052 Y104.739 E5.60590
G1 X106.211 Y104.297 E5.61897
G1 X103.005 Y107.503 E5.74491
G1 X102.043 Y107.764 E5.77261
G1 X106.395 Y103.412 E5.94358
G1 X106.440 Y102.866 E5.95880
G1 X106.439 Y102.667 E5.96433
G1 X101.218 Y107.889 E6.16946
G1 X100.471 Y107.935 E6.19024
G1 X106.413 Y101.993 E6.42364
G1 X106.383 Y101.668 E6.43272
G1 X106.330 Y101.376 E6.44097
G1 X99.760 Y107.945 E6.69905
G1 X99.060 Y107.945 E6.71851
G1 X106.189 Y100.816 E6.99857
G1 X105.992 Y100.313 E7.01359
G1 X102.081 Y104.223 E7.16721
G1 X102.185 Y103.995 E7.17417
G1 X102.256 Y103.778 E7.18051
G1 X102.345 Y103.259 E7.19513
G1 X105.744 Y99.860 E7.32865
G1 X105.591 Y99.621 E7.33654
G1 X105.452 Y99.451 E7.34263
G1 X102.332 Y102.572 E7.46523
G1 X102.270 Y102.228 E7.47494
G1 X102.202 Y102.002 E7.48152
G1 X105.118 Y99.085 E7.59608
G1 X104.740 Y98.763 E7.60988
G1 X101.970 Y101.533 E7.71871
G1 X101.824 Y101.338 E7.72547
G1 X101.648 Y101.154 E7.73253
G1 X104.317 Y98.485 E7.83740
G1 X103.857 Y98.245 E7.85182
G1 X101.241 Y100.860 E7.95456
G1 X100.982 Y100.733 E7.96258
G1 X100.752 Y100.649 E7.96938
G1 X103.362 Y98.040 E8.07189
G1 X102.823 Y97.878 E8.08751
G1 X100.174 Y100.527 E8.19158
G1 X99.506 Y100.495 E8.21016
G1 X102.237 Y97.763 E8.31747
G1 X101.932 Y97.705 E8.32612
G1 X101.625 Y97.675 E8.33468
G1 X98.805 Y100.495 E8.44544
G1 X98.105 Y100.495 E8.46490
G1 X100.977 Y97.623 E8.57772
G1 X100.291 Y97.608 E8.59678
G1 X97.404 Y100.495 E8.71016
G1 X97.138 Y100.495 E8.71754
G1 X97.138 Y100.761 E8.72493
G1 X93.555 Y104.344 E8.86572
G1 X93.555 Y103.644 E8.88518
G1 X99.590 Y97.608 E9.12228
G1 X98.890 Y97.608 E9.14174
G1 X93.555 Y102.944 E9.35132
G1 X93.555 Y102.243 E9.37078
G1 X98.189 Y97.608 E9.55285
G1 X97.520 Y97.608 E9.57143
G1 X97.520 Y97.577 E9.57231
G1 X93.555 Y101.543 E9.72810
G1 X93.555 Y100.842 E9.74756
G1 X97.520 Y96.876 E9.90335
G1 X97.520 Y96.176 E9.92280
G1 X93.555 Y100.142 E10.07859
G1 X93.555 Y99.441 E10.09805
G1 X97.520 Y95.475 E10.25384
G1 X97.520 Y94.775 E10.27330
G1 X93.555 Y98.741 E10.42909
G1 X93.555 Y98.040 E10.44855
G1 X97.520 Y94.074 E10.60434
G1 X97.520 Y93.374 E10.62379
G1 X93.555 Y97.340 E10.77958
G1 X93.555 Y96.639 E10.79904
G1 X97.520 Y92.674 E10.95483
G1 X97.520 Y92.055 E10.97203
G1 X97.439 Y92.055 E10.97429
G1 X93.555 Y95.939 E11.12688
G1 X93.555 Y95.238 E11.14634
G1 X96.738 Y92.055 E11.27141
G1 X96.038 Y92.055 E11.29087
G1 X93.555 Y94.538 E11.38842
G1 X93.555 Y93.837 E11.40788
G1 X95.337 Y92.055 E11.47792
G1 X94.637 Y92.055 E11.49738
G1 X93.555 Y93.137 E11.53990
G1 X93.555 Y92.436 E11.55936
G1 X93.937 Y92.055 E11.57436
M106 S255
G1 Z1.600 F7800.000
G1 X97.520 Y92.572 F7800.000
G1 F3392.05
G1 X97.003 Y92.055 E11.59469
G1 X96.301 Y92.055 E11.61419
G1 X97.520 Y93.274 E11.66210
G1 X97.520 Y93.976 E11.68161
G1 X95.599 Y92.055 E11.75710
G1 X94.896 Y92.055 E11.77660
G1 X97.520 Y94.678 E11.87968
G1 X97.520 Y95.380 E11.89918
G1 X94.194 Y92.055 E12.02983
G1 X93.555 Y92.055 E12.04761
G1 X93.555 Y92.117 E12.04934
G1 X97.520 Y96.083 E12.20513
G1 X97.520 Y96.785 E12.22463
G1 X93.555 Y92.819 E12.38042
G1 X93.555 Y93.521 E12.39992
G1 X97.520 Y97.487 E12.55571
G1 X97.520 Y97.990 E12.56970
G1 X98.024 Y97.990 E12.58368
G1 X97.642 Y97.608 F7800.000
G1 F3392.05
G1 X100.561 Y100.527 E12.69834
G1 X100.907 Y100.588 E12.70811
G1 X101.139 Y100.650 E12.71478
G1 X101.563 Y100.827 E12.72754
G1 X98.344 Y97.608 E12.85400
G1 X99.046 Y97.608 E12.87350
G1 X106.187 Y104.749 E13.15403
G1 X106.329 Y104.189 E13.17007
G1 X99.748 Y97.608 E13.42860
G1 X100.461 Y97.619 E13.44840
G1 X106.413 Y103.571 E13.68222
G1 X106.440 Y103.238 E13.69150
G1 X106.439 Y102.895 E13.70103
G1 X101.218 Y97.674 E13.90613
G1 X101.588 Y97.710 E13.91645
G1 X102.045 Y97.799 E13.92938
G1 X106.391 Y102.145 E14.10011
G1 X106.301 Y101.600 E14.11545
G1 X106.207 Y101.258 E14.12529
G1 X102.993 Y98.045 E14.25152
G1 X103.266 Y98.148 E14.25960
G1 X103.712 Y98.355 E14.27328
G1 X104.035 Y98.542 E14.28365
G1 X104.379 Y98.778 E14.29523
G1 X104.686 Y99.036 E14.30636
G1 X105.075 Y99.424 E14.32164
G1 X99.826 Y100.495 F7800.000
G1 F3392.05
G1 X93.555 Y94.223 E14.56800
G1 X93.555 Y94.925 E14.58751
G1 X99.124 Y100.495 E14.80629
G1 X98.422 Y100.495 E14.82579
G1 X93.555 Y95.627 E15.01699
G1 X93.555 Y96.330 E15.03650
G1 X97.720 Y100.495 E15.20012
G1 X97.520 Y100.495 E15.20565
G1 X97.520 Y100.997 E15.21962
G1 X93.555 Y97.032 E15.37541
G1 X93.555 Y97.734 E15.39491
G1 X97.520 Y101.700 E15.55070
G1 X97.520 Y102.402 E15.57021
G1 X93.555 Y98.436 E15.72600
G1 X93.555 Y99.138 E15.74550
G1 X97.520 Y103.104 E15.90129
G1 X97.520 Y103.806 E15.92079
G1 X93.555 Y99.840 E16.07658
G1 X93.555 Y100.542 E16.09609
G1 X97.520 Y104.508 E16.25188
G1 X97.520 Y105.210 E16.27138
G1 X93.555 Y101.244 E16.42717
G1 X93.555 Y101.947 E16.44667
G1 X99.553 Y107.945 E16.68233
G1 X98.851 Y107.945 E16.70184
G1 X93.555 Y102.649 E16.90992
G1 X93.555 Y103.351 E16.92942
G1 X98.149 Y107.945 E17.10992
G1 X97.447 Y107.945 E17.12942
G1 X93.555 Y104.053 E17.28234
G1 X93.555 Y104.755 E17.30184
G1 X96.745 Y107.945 E17.42717
G1 X96.043 Y107.945 E17.44668
G1 X93.555 Y105.457 E17.54443
G1 X93.555 Y106.159 E17.56393
G1 X95.341 Y107.945 E17.63410
G1 X94.639 Y107.945 E17.65360
G1 X93.555 Y106.861 E17.69619
G1 X93.555 Y107.564 E17.71569
G1 X93.936 Y107.945 E17.73069
G1 X97.369 Y105.059 F7800.000
G1 F3392.05
G1 X100.256 Y107.945 E17.84408
G1 X100.945 Y107.933 E17.86324
G1 X98.071 Y105.059 E17.97613
G1 X98.774 Y105.059 E17.99563
G1 X101.603 Y107.888 E18.10677
G1 X102.213 Y107.796 E18.12391
G1 X99.476 Y105.059 E18.23144
G1 X100.148 Y105.030 E18.25015
G1 X102.792 Y107.674 E18.35400
G1 X103.341 Y107.520 E18.36983
G1 X100.733 Y104.912 E18.47228
G1 X100.995 Y104.818 E18.48003
G1 X101.228 Y104.705 E18.48721
G1 X103.840 Y107.317 E18.58984
G1 X104.303 Y107.078 E18.60430
G1 X101.638 Y104.413 E18.70896
G1 X101.823 Y104.224 E18.71631
G1 X101.964 Y104.037 E18.72281
G1 X104.727 Y106.800 E18.83136
G1 X105.107 Y106.478 E18.84519
G1 X102.199 Y103.570 E18.95941
G1 X102.277 Y103.306 E18.96707
G1 X102.331 Y103.000 E18.97569
G1 X105.447 Y106.116 E19.09809
G1 X105.739 Y105.706 E19.11208
G1 X102.345 Y102.312 E19.24541
G1 X102.257 Y101.791 E19.26009
G1 X102.088 Y101.352 E19.27314
G1 X105.988 Y105.252 E19.42634
G1 Z2.000 F7800.000
G1 X104.772 Y106.437 F7800.000
G1 F3403.2
G1 X105.409 Y105.782 E19.45172
G1 X105.644 Y105.478 E19.46240
G1 X105.862 Y105.130 E19.47380
G1 X106.044 Y104.757 E19.48534
G1 X106.207 Y104.301 E19.49879
G1 X103.006 Y107.502 E19.62455
G1 X102.044 Y107.763 E19.65224
G1 X106.394 Y103.413 E19.82313
G1 X106.440 Y102.667 E19.84389
G1 X101.220 Y107.887 E20.04895
G1 X100.471 Y107.936 E20.06980
G1 X106.412 Y101.994 E20.30321
G1 X106.377 Y101.626 E20.31348
G1 X106.331 Y101.375 E20.32057
G1 X99.761 Y107.945 E20.57867
G1 X99.060 Y107.945 E20.59812
G1 X106.189 Y100.817 E20.87817
G1 X105.993 Y100.312 E20.89320
G1 X102.080 Y104.226 E21.04694
G1 X102.189 Y103.984 E21.05430
G1 X102.255 Y103.781 E21.06024
G1 X102.344 Y103.260 E21.07491
G1 X105.743 Y99.861 E21.20843
G1 X105.596 Y99.627 E21.21612
G1 X105.454 Y99.451 E21.22242
G1 X102.332 Y102.572 E21.34505
G1 X102.280 Y102.262 E21.35380
G1 X102.202 Y102.001 E21.36134
G1 X105.117 Y99.087 E21.47583
G1 X104.740 Y98.763 E21.48963
G1 X101.970 Y101.533 E21.59845
G1 X101.838 Y101.355 E21.60463
G1 X101.648 Y101.155 E21.61228
G1 X104.316 Y98.487 E21.71710
G1 X103.860 Y98.242 E21.73148
G1 X101.241 Y100.861 E21.83434
G1 X100.970 Y100.728 E21.84274
G1 X100.753 Y100.649 E21.84916
G1 X103.361 Y98.041 E21.95163
G1 X102.824 Y97.877 E21.96722
G1 X100.174 Y100.527 E22.07132
G1 X99.506 Y100.495 E22.08991
G1 X102.240 Y97.761 E22.19729
G1 X102.008 Y97.716 E22.20385
G1 X101.623 Y97.678 E22.21460
G1 X98.806 Y100.495 E22.32526
G1 X98.105 Y100.495 E22.34472
G1 X100.978 Y97.622 E22.45756
G1 X100.291 Y97.608 E22.47664
G1 X97.405 Y100.495 E22.59003
G1 X97.138 Y100.495 E22.59742
G1 X97.138 Y100.761 E22.60482
G1 X93.555 Y104.345 E22.74561
G1 X93.555 Y103.644 E22.76506
G1 X99.590 Y97.608 E23.00218
G1 X98.890 Y97.608 E23.02164
G1 X93.555 Y102.944 E23.23123
G1 X93.555 Y102.243 E23.25069
G1 X98.190 Y97.608 E23.43277
G1 X97.520 Y97.608 E23.45136
G1 X97.520 Y97.577 E23.45223
G1 X93.555 Y101.543 E23.60802
G1 X93.555 Y100.842 E23.62748
G1 X97.520 Y96.877 E23.78327
G1 X97.520 Y96.176 E23.80273
G1 X93.555 Y100.142 E23.95852
G1 X93.555 Y99.441 E23.97797
G1 X97.520 Y95.476 E24.13376
G1 X97.520 Y94.775 E24.15322
G1 X93.555 Y98.741 E24.30901
G1 X93.555 Y98.040 E24.32847
G1 X97.520 Y94.075 E24.48426
G1 X97.520 Y93.374 E24.50372
G1 X93.555 Y97.340 E24.65951
G1 X93.555 Y96.639 E24.67897
G1 X97.520 Y92.674 E24.83476
G1 X97.520 Y92.055 E24.85195
G1 X97.439 Y92.055 E24.85421
G1 X93.555 Y95.939 E25.00681
G1 X93.555 Y95.238 E25.02627
G1 X96.738 Y92.055 E25.15134
G1 X96.038 Y92.055 E25.17080
G1 X93.555 Y94.538 E25.26836
G1 X93.555 Y93.837 E25.28782
G1 X95.337 Y92.055 E25.35786
G1 X94.637 Y92.055 E25.37732
G1 X93.555 Y93.137 E25.41984
G1 X93.555 Y92.436 E25.43930
G1 X93.936 Y92.055 E25.45430
G1 X93.555 Y104.345 F7800.000
G1 F3403.2
G1 X93.555 Y105.045 E25.47376
G1 X97.520 Y101.080 E25.62955
G1 X97.520 Y101.780 E25.64901
G1 X93.555 Y105.746 E25.80480
G1 X93.555 Y106.446 E25.82426
G1 X97.520 Y102.480 E25.98005
G1 X97.520 Y103.181 E25.99950
G1 X93.555 Y107.147 E26.15529
G1 X93.555 Y107.847 E26.17475
G1 X97.520 Y103.881 E26.33054
G1 X97.520 Y104.582 E26.35000
G1 X94.157 Y107.945 E26.48213
G1 X94.857 Y107.945 E26.50159
G1 X97.744 Y105.059 E26.61497
G1 X98.444 Y105.059 E26.63443
G1 X95.558 Y107.945 E26.74781
G1 X96.258 Y107.945 E26.76727
G1 X99.145 Y105.059 E26.88066
G1 X99.845 Y105.059 E26.90011
G1 X96.959 Y107.945 E27.01350
G1 X97.659 Y107.945 E27.03296
G1 X100.580 Y105.025 E27.14769
G1 X100.809 Y104.994 E27.15412
G1 X101.192 Y104.889 E27.16515
G1 X101.590 Y104.715 E27.17722
G1 X98.360 Y107.945 E27.30413
G1 Z2.400 F7800.000
G1 X97.369 Y105.059 F7800.000
G1 F3392.09
G1 X100.255 Y107.945 E27.41751
G1 X100.946 Y107.935 E27.43671
G1 X98.071 Y105.059 E27.54966
G1 X98.773 Y105.059 E27.56917
G1 X101.600 Y107.887 E27.68023
G1 X102.213 Y107.797 E27.69743
G1 X99.475 Y105.059 E27.80498
G1 X100.148 Y105.030 E27.82369
G1 X102.793 Y107.675 E27.92758
G1 X103.340 Y107.520 E27.94338
G1 X100.732 Y104.912 E28.04584
G1 X100.993 Y104.819 E28.05354
G1 X101.227 Y104.705 E28.06077
G1 X103.837 Y107.316 E28.16333
G1 X104.303 Y107.079 E28.17783
G1 X101.638 Y104.414 E28.28251
G1 X101.834 Y104.212 E28.29034
G1 X101.964 Y104.038 E28.29636
G1 X104.727 Y106.801 E28.40490
G1 X105.105 Y106.477 E28.41873
G1 X102.199 Y103.571 E28.53287
G1 X102.288 Y103.262 E28.54180
G1 X102.332 Y103.002 E28.54914
G1 X105.446 Y106.116 E28.67147
G1 X105.740 Y105.708 E28.68544
G1 X102.345 Y102.313 E28.81879
G1 X102.257 Y101.790 E28.83351
G1 X102.090 Y101.355 E28.84646
G1 X105.988 Y105.254 E28.99961
G1 E26.99961 F2400.00000
G92 E0
G1 X105.055 Y99.406 F7800.000
G1 E2.00000 F2400.00000
G1 F3392.09
G1 X104.667 Y99.019 E2.01522
G1 X104.166 Y98.625 E2.03293
G1 X103.723 Y98.360 E2.04725
G1 X103.374 Y98.193 E2.05800
G1 X102.992 Y98.045 E2.06938
G1 X106.211 Y101.265 E2.19585
G1 X106.305 Y101.617 E2.20598
G1 X106.389 Y102.145 E2.22083
G1 X102.041 Y97.797 E2.39165
G1 X101.661 Y97.720 E2.40242
G1 X101.205 Y97.663 E2.41517
G1 X106.439 Y102.897 E2.62076
G1 X106.441 Y103.219 E2.62971
G1 X106.412 Y103.572 E2.63956
G1 X100.459 Y97.618 E2.87344
G1 X99.747 Y97.608 E2.89322
G1 X106.330 Y104.192 E3.15184
G1 X106.188 Y104.751 E3.16789
G1 X99.045 Y97.608 E3.44849
G1 X98.343 Y97.608 E3.46799
G1 X101.561 Y100.827 E3.59442
G1 X101.138 Y100.650 E3.60716
G1 X100.922 Y100.590 E3.61337
G1 X100.560 Y100.528 E3.62360
G1 X97.640 Y97.608 E3.73827
G1 X98.022 Y97.990 F7800.000
G1 F3392.09
G1 X97.520 Y97.990 E3.75222
G1 X97.520 Y97.488 E3.76616
G1 X93.555 Y93.522 E3.92195
G1 X93.555 Y92.820 E3.94145
G1 X97.520 Y96.786 E4.09724
G1 X97.520 Y96.084 E4.11675
G1 X93.555 Y92.118 E4.27254
G1 X93.555 Y92.055 E4.27431
G1 X94.193 Y92.055 E4.29204
G1 X97.520 Y95.382 E4.42275
G1 X97.520 Y94.680 E4.44225
G1 X94.895 Y92.055 E4.54539
G1 X95.597 Y92.055 E4.56489
G1 X97.520 Y93.978 E4.64045
G1 X97.520 Y93.276 E4.65995
G1 X96.299 Y92.055 E4.70792
G1 X97.001 Y92.055 E4.72743
G1 X97.520 Y92.574 E4.74782
G1 E2.74782 F2400.00000
G92 E0
G1 X99.825 Y100.495 F7800.000
G1 E2.00000 F2400.00000
G1 F3392.09
G1 X93.555 Y94.224 E2.24632
G1 X93.555 Y94.926 E2.26582
G1 X99.123 Y100.495 E2.48455
G1 X98.421 Y100.495 E2.50406
G1 X93.555 Y95.629 E2.69521
G1 X93.555 Y96.331 E2.71471
G1 X97.719 Y100.495 E2.87829
G1 X97.520 Y100.495 E2.88380
G1 X97.520 Y100.998 E2.89779
G1 X93.555 Y97.033 E3.05358
G1 X93.555 Y97.735 E3.07309
G1 X97.520 Y101.700 E3.22888
G1 X97.520 Y102.403 E3.24838
G1 X93.555 Y98.437 E3.40417
G1 X93.555 Y99.139 E3.42367
G1 X97.520 Y103.105 E3.57946
G1 X97.520 Y103.807 E3.59896
G1 X93.555 Y99.841 E3.75475
G1 X93.555 Y100.543 E3.77425
G1 X97.520 Y104.509 E3.93004
G1 X97.520 Y105.211 E3.94954
G1 X93.555 Y101.245 E4.10533
G1 X93.555 Y101.947 E4.12483
G1 X99.553 Y107.945 E4.36047
G1 X98.851 Y107.945 E4.37998
G1 X93.555 Y102.649 E4.58804
G1 X93.555 Y103.351 E4.60754
G1 X98.149 Y107.945 E4.78802
G1 X97.447 Y107.945 E4.80752
G1 X93.555 Y104.053 E4.96042
G1 X93.555 Y104.755 E4.97992
G1 X96.745 Y107.945 E5.10525
G1 X96.043 Y107.945 E5.12475
G1 X93.555 Y105.457 E5.22249
G1 X93.555 Y106.159 E5.24199
G1 X95.341 Y107.945 E5.31216
G1 X94.639 Y107.945 E5.33166
G1 X93.555 Y106.861 E5.37424
G1 X93.555 Y107.564 E5.39374
G1 X93.936 Y107.945 E5.40874
G1 Z2.800 F7800.000
G1 X93.555 Y104.345 F7800.000
G1 F3402.42
G1 X93.555 Y105.046 E5.42820
G1 X97.520 Y101.080 E5.58399
G1 X97.520 Y101.780 E5.60345
G1 X93.555 Y105.746 E5.75924
G1 X93.555 Y106.447 E5.77870
G1 X97.520 Y102.481 E5.93449
G1 X97.520 Y103.181 E5.95395
G1 X93.555 Y107.147 E6.10974
G1 X93.555 Y107.848 E6.12920
G1 X97.520 Y103.882 E6.28499
G1 X97.520 Y104.582 E6.30444
G1 X94.157 Y107.945 E6.43656
G1 X94.858 Y107.945 E6.45602
G1 X97.744 Y105.059 E6.56940
G1 X98.444 Y105.059 E6.58886
G1 X95.558 Y107.945 E6.70224
G1 X96.259 Y107.945 E6.72170
G1 X99.145 Y105.059 E6.83509
G1 X99.846 Y105.059 E6.85454
G1 X96.959 Y107.945 E6.96793
G1 X97.660 Y107.945 E6.98739
G1 X100.580 Y105.025 E7.10212
G1 X101.078 Y104.923 E7.11624
G1 X101.373 Y104.819 E7.12492
G1 X101.592 Y104.714 E7.13167
G1 X98.360 Y107.945 E7.25863
G1 X104.794 Y106.415 F7800.000
G1 F3402.42
G1 X105.396 Y105.798 E7.28258
G1 X105.671 Y105.440 E7.29512
G1 X105.868 Y105.118 E7.30561
G1 X106.037 Y104.774 E7.31626
G1 X106.204 Y104.305 E7.33009
G1 X103.006 Y107.503 E7.45572
G1 X102.045 Y107.763 E7.48336
G1 X106.394 Y103.414 E7.65420
G1 X106.440 Y102.668 E7.67497
G1 X101.223 Y107.885 E7.87995
G1 X100.470 Y107.937 E7.90090
G1 X106.412 Y101.995 E8.13433
G1 X106.332 Y101.375 E8.15171
G1 X99.761 Y107.945 E8.40982
G1 X99.061 Y107.945 E8.42928
G1 X106.187 Y100.819 E8.70922
G1 X105.994 Y100.312 E8.72431
G1 X102.078 Y104.228 E8.87816
G1 X102.253 Y103.790 E8.89126
G1 X102.301 Y103.583 E8.89716
G1 X102.344 Y103.261 E8.90617
G1 X105.743 Y99.862 E9.03970
G1 X105.600 Y99.633 E9.04720
G1 X105.455 Y99.449 E9.05370
G1 X102.332 Y102.572 E9.17638
G1 X102.288 Y102.300 E9.18405
G1 X102.203 Y102.002 E9.19267
G1 X105.116 Y99.088 E9.30710
G1 X104.734 Y98.770 E9.32092
G1 X101.970 Y101.534 E9.42948
G1 X101.852 Y101.371 E9.43506
G1 X101.648 Y101.155 E9.44331
G1 X104.316 Y98.487 E9.54815
G1 X103.859 Y98.243 E9.56253
G1 X101.241 Y100.861 E9.66538
G1 X100.957 Y100.723 E9.67416
G1 X100.753 Y100.649 E9.68019
G1 X103.362 Y98.041 E9.78267
G1 X102.824 Y97.878 E9.79827
G1 X100.174 Y100.527 E9.90236
G1 X99.507 Y100.495 E9.92093
G1 X102.242 Y97.759 E10.02841
G1 X102.081 Y97.726 E10.03299
G1 X101.632 Y97.668 E10.04555
G1 X98.806 Y100.495 E10.15657
G1 X98.106 Y100.495 E10.17603
G1 X100.977 Y97.623 E10.28884
G1 X100.280 Y97.620 E10.30821
G1 X97.405 Y100.495 E10.42115
G1 X97.138 Y100.495 E10.42855
G1 X97.138 Y100.761 E10.43596
G1 X93.555 Y104.345 E10.57675
G1 X93.555 Y103.645 E10.59621
G1 X99.583 Y97.617 E10.83301
G1 X98.885 Y97.613 E10.85238
G1 X93.555 Y102.944 E11.06179
G1 X93.555 Y102.244 E11.08125
G1 X98.188 Y97.610 E11.26326
G1 X97.520 Y97.607 E11.28181
G1 X97.520 Y97.577 E11.28264
G1 X93.555 Y101.543 E11.43843
G1 X93.555 Y100.843 E11.45788
G1 X97.520 Y96.877 E11.61367
G1 X97.520 Y96.176 E11.63313
G1 X93.555 Y100.142 E11.78892
G1 X93.555 Y99.442 E11.80838
G1 X97.520 Y95.476 E11.96417
G1 X97.520 Y94.775 E11.98363
G1 X93.555 Y98.741 E12.13942
G1 X93.555 Y98.041 E12.15888
G1 X97.520 Y94.075 E12.31467
G1 X97.520 Y93.374 E12.33413
G1 X93.555 Y97.340 E12.48992
G1 X93.555 Y96.640 E12.50938
G1 X97.520 Y92.674 E12.66517
G1 X97.520 Y92.055 E12.68237
G1 X97.439 Y92.055 E12.68462
G1 X93.555 Y95.939 E12.83722
G1 X93.555 Y95.239 E12.85668
G1 X96.739 Y92.055 E12.98176
G1 X96.038 Y92.055 E13.00122
G1 X93.555 Y94.538 E13.09878
G1 X93.555 Y93.837 E13.11824
G1 X95.337 Y92.055 E13.18828
G1 X94.637 Y92.055 E13.20774
G1 X93.555 Y93.137 E13.25026
G1 X93.555 Y92.436 E13.26972
G1 X93.936 Y92.055 E13.28472
G1 Z3.200 F7800.000
G1 X97.520 Y92.568 F7800.000
G1 F3394.07
G1 X97.007 Y92.055 E13.30490
G1 X96.305 Y92.055 E13.32440
G1 X97.520 Y93.270 E13.37216
G1 X97.520 Y93.973 E13.39167
G1 X95.602 Y92.055 E13.46702
G1 X94.900 Y92.055 E13.48653
G1 X97.520 Y94.675 E13.58946
G1 X97.520 Y95.377 E13.60897
G1 X94.198 Y92.055 E13.73949
G1 X93.555 Y92.055 E13.75736
G1 X93.555 Y92.114 E13.75900
G1 X97.520 Y96.079 E13.91479
G1 X97.520 Y96.782 E13.93430
G1 X93.555 Y92.816 E14.09009
G1 X93.555 Y93.518 E14.10959
G1 X97.520 Y97.484 E14.26538
G1 X97.520 Y97.989 E14.27942
G1 X98.028 Y97.991 E14.29351
G1 X97.646 Y97.609 F7800.000
G1 F3394.07
G1 X100.565 Y100.529 E14.40819
G1 X100.932 Y100.593 E14.41855
G1 X101.137 Y100.650 E14.42444
G1 X101.572 Y100.834 E14.43757
G1 X98.351 Y97.612 E14.56411
G1 X99.056 Y97.615 E14.58370
G1 X106.188 Y104.747 E14.86386
G1 X106.277 Y104.445 E14.87262
G1 X106.326 Y104.183 E14.88002
G1 X99.762 Y97.618 E15.13790
G1 X100.467 Y97.622 E15.15749
G1 X106.412 Y103.567 E15.39105
G1 X106.442 Y103.199 E15.40130
G1 X106.439 Y102.891 E15.40985
G1 X101.219 Y97.671 E15.61491
G1 X101.481 Y97.694 E15.62220
G1 X102.036 Y97.786 E15.63783
G1 X106.389 Y102.139 E15.80884
G1 X106.309 Y101.635 E15.82303
G1 X106.198 Y101.245 E15.83427
G1 X103.001 Y98.049 E15.95985
G1 X103.345 Y98.180 E15.97009
G1 X103.736 Y98.367 E15.98212
G1 X104.181 Y98.635 E15.99655
G1 X104.417 Y98.807 E16.00466
G1 X104.854 Y99.200 E16.02098
G1 X105.238 Y99.584 E16.03606
G1 X99.829 Y100.495 F7800.000
G1 F3394.07
G1 X93.555 Y94.220 E16.28253
G1 X93.555 Y94.923 E16.30204
G1 X99.126 Y100.495 E16.52093
G1 X98.424 Y100.495 E16.54043
G1 X93.555 Y95.625 E16.73173
G1 X93.555 Y96.327 E16.75124
G1 X97.722 Y100.495 E16.91495
G1 X97.520 Y100.495 E16.92055
G1 X97.520 Y100.995 E16.93446
G1 X93.555 Y97.029 E17.09025
G1 X93.555 Y97.732 E17.10976
G1 X97.520 Y101.698 E17.26555
G1 X97.520 Y102.400 E17.28505
G1 X93.555 Y98.434 E17.44084
G1 X93.555 Y99.136 E17.46035
G1 X97.520 Y103.102 E17.61614
G1 X97.520 Y103.804 E17.63565
G1 X93.555 Y99.839 E17.79144
G1 X93.555 Y100.541 E17.81095
G1 X97.520 Y104.507 E17.96674
G1 X97.520 Y105.209 E17.98624
G1 X93.555 Y101.243 E18.14203
G1 X93.555 Y101.945 E18.16154
G1 X99.555 Y107.945 E18.39725
G1 X98.852 Y107.945 E18.41675
G1 X93.555 Y102.648 E18.62487
G1 X93.555 Y103.350 E18.64438
G1 X98.150 Y107.945 E18.82491
G1 X97.448 Y107.945 E18.84442
G1 X93.555 Y104.052 E18.99736
G1 X93.555 Y104.754 E19.01687
G1 X96.746 Y107.945 E19.14223
G1 X96.043 Y107.945 E19.16173
G1 X93.555 Y105.457 E19.25950
G1 X93.555 Y106.159 E19.27901
G1 X95.341 Y107.945 E19.34919
G1 X94.639 Y107.945 E19.36870
G1 X93.555 Y106.861 E19.41129
G1 X93.555 Y107.564 E19.43080
G1 X93.936 Y107.945 E19.44580
G1 X97.371 Y105.059 F7800.000
G1 F3394.07
G1 X100.257 Y107.945 E19.55918
G1 X100.941 Y107.927 E19.57819
G1 X98.073 Y105.059 E19.69087
G1 X98.775 Y105.059 E19.71038
G1 X101.604 Y107.888 E19.82149
G1 X102.216 Y107.797 E19.83867
G1 X99.477 Y105.059 E19.94624
G1 X100.151 Y105.030 E19.96496
G1 X102.796 Y107.675 E20.06886
G1 X103.340 Y107.517 E20.08460
G1 X100.734 Y104.911 E20.18698
G1 X100.990 Y104.820 E20.19454
G1 X101.229 Y104.704 E20.20191
G1 X103.844 Y107.319 E20.30464
G1 X104.302 Y107.075 E20.31906
G1 X101.640 Y104.413 E20.42364
G1 X101.834 Y104.216 E20.43130
G1 X101.965 Y104.036 E20.43751
G1 X104.729 Y106.800 E20.54609
G1 X104.956 Y106.618 E20.55417
G1 X105.103 Y106.472 E20.55993
G1 X102.201 Y103.569 E20.67396
G1 X102.299 Y103.212 E20.68424
G1 X102.333 Y102.999 E20.69024
G1 X105.447 Y106.113 E20.81257
G1 X105.742 Y105.706 E20.82654
G1 X102.345 Y102.308 E20.96002
G1 X102.256 Y101.782 E20.97484
G1 X102.084 Y101.345 E20.98789
G1 X105.990 Y105.252 E21.14137
G1 Z3.600 F7800.000
G1 X104.794 Y106.415 F7800.000
G1 F3402.42
G1 X105.396 Y105.798 E21.16531
G1 X105.671 Y105.440 E21.17786
G1 X105.868 Y105.118 E21.18834
G1 X106.037 Y104.774 E21.19899
G1 X106.204 Y104.305 E21.21282
G1 X103.006 Y107.503 E21.33845
G1 X102.045 Y107.763 E21.36610
G1 X106.394 Y103.414 E21.53693
G1 X106.440 Y102.668 E21.55771
G1 X101.223 Y107.885 E21.76268
G1 X100.470 Y107.937 E21.78364
G1 X106.412 Y101.995 E22.01707
G1 X106.332 Y101.375 E22.03444
G1 X99.761 Y107.945 E22.29256
G1 X99.061 Y107.945 E22.31202
G1 X106.187 Y100.819 E22.59196
G1 X105.994 Y100.312 E22.60705
G1 X102.078 Y104.228 E22.76089
G1 X102.253 Y103.790 E22.77399
G1 X102.301 Y103.583 E22.77989
G1 X102.344 Y103.261 E22.78891
G1 X105.743 Y99.862 E22.92243
G1 X105.600 Y99.633 E22.92994
G1 X105.455 Y99.449 E22.93643
G1 X102.332 Y102.572 E23.05912
G1 X102.288 Y102.300 E23.06679
G1 X102.203 Y102.002 E23.07540
G1 X105.116 Y99.088 E23.18984
G1 X104.734 Y98.770 E23.20365
G1 X101.970 Y101.534 E23.31222
G1 X101.852 Y101.371 E23.31780
G1 X101.648 Y101.155 E23.32605
G1 X104.316 Y98.487 E23.43088
G1 X103.859 Y98.243 E23.44527
G1 X101.241 Y100.861 E23.54812
G1 X100.957 Y100.723 E23.55690
G1 X100.753 Y100.649 E23.56293
G1 X103.362 Y98.041 E23.66541
G1 X102.824 Y97.878 E23.68101
G1 X100.174 Y100.527 E23.78510
G1 X99.507 Y100.495 E23.80367
G1 X102.242 Y97.759 E23.91114
G1 X102.081 Y97.726 E23.91573
G1 X101.632 Y97.668 E23.92829
G1 X98.806 Y100.495 E24.03931
G1 X98.106 Y100.495 E24.05877
G1 X100.977 Y97.623 E24.17158
G1 X100.280 Y97.620 E24.19095
G1 X97.405 Y100.495 E24.30388
G1 X97.138 Y100.495 E24.31129
G1 X97.138 Y100.761 E24.31869
G1 X93.555 Y104.345 E24.45948
G1 X93.555 Y103.645 E24.47894
G1 X99.583 Y97.617 E24.71574
G1 X98.885 Y97.613 E24.73512
G1 X93.555 Y102.944 E24.94452
G1 X93.555 Y102.244 E24.96398
G1 X98.188 Y97.610 E25.14600
G1 X97.520 Y97.607 E25.16454
G1 X97.520 Y97.577 E25.16537
G1 X93.555 Y101.543 E25.32116
G1 X93.555 Y100.843 E25.34062
G1 X97.520 Y96.877 E25.49641
G1 X97.520 Y96.176 E25.51587
G1 X93.555 Y100.142 E25.67166
G1 X93.555 Y99.442 E25.69112
G1 X97.520 Y95.476 E25.84691
G1 X97.520 Y94.775 E25.86637
G1 X93.555 Y98.741 E26.02216
G1 X93.555 Y98.041 E26.04161
G1 X97.520 Y94.075 E26.19740
G1 X97.520 Y93.374 E26.21686
G1 X93.555 Y97.340 E26.37265
G1 X93.555 Y96.640 E26.39211
G1 X97.520 Y92.674 E26.54790
G1 X97.520 Y92.055 E26.56510
G1 X97.439 Y92.055 E26.56736
G1 X93.555 Y95.939 E26.71996
G1 X93.555 Y95.239 E26.73942
G1 X96.739 Y92.055 E26.86450
G1 X96.038 Y92.055 E26.88395
G1 X93.555 Y94.538 E26.98151
G1 X93.555 Y93.837 E27.00097
G1 X95.337 Y92.055 E27.07101
G1 X94.637 Y92.055 E27.09047
G1 X93.555 Y93.137 E27.13300
G1 X93.555 Y92.436 E27.15245
G1 X93.936 Y92.055 E27.16746
G1 X93.555 Y104.345 F7800.000
G1 F3402.42
G1 X93.555 Y105.046 E27.18692
G1 X97.520 Y101.080 E27.34271
G1 X97.520 Y101.780 E27.36217
G1 X93.555 Y105.746 E27.51796
G1 X93.555 Y106.447 E27.53741
G1 X97.520 Y102.481 E27.69320
G1 X97.520 Y103.181 E27.71266
G1 X93.555 Y107.147 E27.86845
G1 X93.555 Y107.848 E27.88791
G1 X97.520 Y103.882 E28.04370
G1 X97.520 Y104.582 E28.06316
G1 X94.157 Y107.945 E28.19527
G1 X94.858 Y107.945 E28.21473
G1 X97.744 Y105.059 E28.32812
G1 X98.444 Y105.059 E28.34758
G1 X95.558 Y107.945 E28.46096
G1 X96.259 Y107.945 E28.48042
G1 X99.145 Y105.059 E28.59380
G1 X99.846 Y105.059 E28.61326
G1 X96.959 Y107.945 E28.72664
G1 X97.660 Y107.945 E28.74610
G1 X100.580 Y105.025 E28.86084
G1 X101.078 Y104.923 E28.87495
G1 X101.373 Y104.819 E28.88364
G1 X101.592 Y104.714 E28.89039
G1 X98.360 Y107.945 E29.01735
G1 Z4.000 F7800.000
G1 X97.369 Y105.059 F7800.000
G1 F3392.09
G1 X100.255 Y107.945 E29.13073
G1 X100.946 Y107.935 E29.14993
G1 X98.071 Y105.059 E29.26289
G1 X98.773 Y105.059 E29.28239
G1 X101.600 Y107.887 E29.39346
G1 X102.213 Y107.797 E29.41065
G1 X99.475 Y105.059 E29.51820
G1 X100.148 Y105.030 E29.53691
G1 X102.793 Y107.675 E29.64080
G1 X103.340 Y107.520 E29.65660
G1 X100.732 Y104.912 E29.75906
G1 X100.993 Y104.819 E29.76676
G1 X101.227 Y104.705 E29.77399
G1 X103.837 Y107.316 E29.87655
G1 X104.303 Y107.079 E29.89105
G1 X101.638 Y104.414 E29.99573
G1 X101.834 Y104.212 E30.00357
G1 X101.964 Y104.038 E30.00959
G1 X104.727 Y106.801 E30.11812
G1 X105.105 Y106.477 E30.13195
G1 X102.199 Y103.571 E30.24610
G1 X102.288 Y103.262 E30.25502
G1 X102.332 Y103.002 E30.26236
G1 X105.446 Y106.116 E30.38469
G1 X105.740 Y105.708 E30.39866
G1 X102.345 Y102.313 E30.53201
G1 X102.257 Y101.790 E30.54673
G1 X102.090 Y101.355 E30.55968
G1 X105.988 Y105.254 E30.71283
G1 E28.71283 F2400.00000
G92 E0
G1 X105.055 Y99.406 F7800.000
G1 E2.00000 F2400.00000
G1 F3392.09
G1 X104.667 Y99.019 E2.01522
G1 X104.166 Y98.625 E2.03293
G1 X103.723 Y98.360 E2.04725
G1 X103.374 Y98.193 E2.05800
G1 X102.992 Y98.045 E2.06938
G1 X106.211 Y101.265 E2.19585
G1 X106.305 Y101.617 E2.20598
G1 X106.389 Y102.145 E2.22083
G1 X102.041 Y97.797 E2.39165
G1 X101.661 Y97.720 E2.40242
G1 X101.205 Y97.663 E2.41517
G1 X106.439 Y102.897 E2.62076
G1 X106.441 Y103.219 E2.62971
G1 X106.412 Y103.572 E2.63956
G1 X100.459 Y97.618 E2.87344
G1 X99.747 Y97.608 E2.89322
G1 X106.330 Y104.192 E3.15184
G1 X106.188 Y104.751 E3.16789
G1 X99.045 Y97.608 E3.44849
G1 X98.343 Y97.608 E3.46799
G1 X101.561 Y100.827 E3.59442
G1 X101.138 Y100.650 E3.60716
G1 X100.922 Y100.590 E3.61337
G1 X100.560 Y100.528 E3.62360
G1 X97.640 Y97.608 E3.73827
G1 X98.022 Y97.990 F7800.000
G1 F3392.09
G1 X97.520 Y97.990 E3.75222
G1 X97.520 Y97.488 E3.76616
G1 X93.555 Y93.522 E3.92195
G1 X93.555 Y92.820 E3.94145
G1 X97.520 Y96.786 E4.09724
G1 X97.520 Y96.084 E4.11675
G1 X93.555 Y92.118 E4.27254
G1 X93.555 Y92.055 E4.27431
G1 X94.193 Y92.055 E4.29204
G1 X97.520 Y95.382 E4.42275
G1 X97.520 Y94.680 E4.44225
G1 X94.895 Y92.055 E4.54539
G1 X95.597 Y92.055 E4.56489
G1 X97.520 Y93.978 E4.64045
G1 X97.520 Y93.276 E4.65995
G1 X96.299 Y92.055 E4.70792
G1 X97.001 Y92.055 E4.72743
G1 X97.520 Y92.574 E4.74782
G1 E2.74782 F2400.00000
G92 E0
G1 X99.825 Y100.495 F7800.000
G1 E2.00000 F2400.00000
G1 F3392.09
G1 X93.555 Y94.224 E2.24632
G1 X93.555 Y94.926 E2.26582
G1 X99.123 Y100.495 E2.48455
G1 X98.421 Y100.495 E2.50406
G1 X93.555 Y95.629 E2.69521
G1 X93.555 Y96.331 E2.71471
G1 X97.719 Y100.495 E2.87829
G1 X97.520 Y100.495 E2.88380
G1 X97.520 Y100.998 E2.89779
G1 X93.555 Y97.033 E3.05358
G1 X93.555 Y97.735 E3.07309
G1 X97.520 Y101.700 E3.22888
G1 X97.520 Y102.403 E3.24838
G1 X93.555 Y98.437 E3.40417
G1 X93.555 Y99.139 E3.42367
G1 X97.520 Y103.105 E3.57946
G1 X97.520 Y103.807 E3.59896
G1 X93.555 Y99.841 E3.75475
G1 X93.555 Y100.543 E3.77425
G1 X97.520 Y104.509 E3.93004
G1 X97.520 Y105.211 E3.94954
G1 X93.555 Y101.245 E4.10533
G1 X93.555 Y101.947 E4.12483
G1 X99.553 Y107.945 E4.36047
G1 X98.851 Y107.945 E4.37998
G1 X93.555 Y102.649 E4.58804
G1 X93.555 Y103.351 E4.60754
G1 X98.149 Y107.945 E4.78802
G1 X97.447 Y107.945 E4.80752
G1 X93.555 Y104.053 E4.96042
G1 X93.555 Y104.755 E4.97992
G1 X96.745 Y107.945 E5.10525
G1 X96.043 Y107.945 E5.12475
G1 X93.555 Y105.457 E5.22249
G1 X93.555 Y106.159 E5.24199
G1 X95.341 Y107.945 E5.31216
G1 X94.639 Y107.945 E5.33166
G1 X93.555 Y106.861 E5.37424
G1 X93.555 Y107.564 E5.39374
G1 X93.936 Y107.945 E5.40874
G1 Z4.400 F7800.000
G1 X93.555 Y104.345 F7800.000
G1 F3403.2
G1 X93.555 Y105.045 E5.42820
G1 X97.520 Y101.080 E5.58399
G1 X97.520 Y101.780 E5.60345
G1 X93.555 Y105.746 E5.75924
G1 X93.555 Y106.446 E5.77870
G1 X97.520 Y102.480 E5.93449
G1 X97.520 Y103.181 E5.95395
G1 X93.555 Y107.147 E6.10974
G1 X93.555 Y107.847 E6.12919
G1 X97.520 Y103.881 E6.28498
G1 X97.520 Y104.582 E6.30444
G1 X94.157 Y107.945 E6.43657
G1 X94.857 Y107.945 E6.45603
G1 X97.744 Y105.059 E6.56941
G1 X98.444 Y105.059 E6.58887
G1 X95.558 Y107.945 E6.70226
G1 X96.258 Y107.945 E6.72171
G1 X99.145 Y105.059 E6.83510
G1 X99.845 Y105.059 E6.85456
G1 X96.959 Y107.945 E6.96794
G1 X97.659 Y107.945 E6.98740
G1 X100.580 Y105.025 E7.10213
G1 X100.809 Y104.994 E7.10856
G1 X101.192 Y104.889 E7.11959
G1 X101.590 Y104.715 E7.13166
G1 X98.360 Y107.945 E7.25857
G1 X104.772 Y106.437 F7800.000
G1 F3403.2
G1 X105.409 Y105.782 E7.28395
G1 X105.644 Y105.478 E7.29462
G1 X105.862 Y105.130 E7.30603
G1 X106.044 Y104.757 E7.31757
G1 X106.207 Y104.301 E7.33102
G1 X103.006 Y107.502 E7.45678
G1 X102.044 Y107.763 E7.48447
G1 X106.394 Y103.413 E7.65536
G1 X106.440 Y102.667 E7.67612
G1 X101.220 Y107.887 E7.88118
G1 X100.471 Y107.936 E7.90203
G1 X106.412 Y101.994 E8.13544
G1 X106.377 Y101.626 E8.14571
G1 X106.331 Y101.375 E8.15280
G1 X99.761 Y107.945 E8.41090
G1 X99.060 Y107.945 E8.43035
G1 X106.189 Y100.817 E8.71040
G1 X105.993 Y100.312 E8.72543
G1 X102.080 Y104.226 E8.87917
G1 X102.189 Y103.984 E8.88653
G1 X102.255 Y103.781 E8.89247
G1 X102.344 Y103.260 E8.90714
G1 X105.743 Y99.861 E9.04066
G1 X105.596 Y99.627 E9.04835
G1 X105.454 Y99.451 E9.05465
G1 X102.332 Y102.572 E9.17728
G1 X102.280 Y102.262 E9.18602
G1 X102.202 Y102.001 E9.19357
G1 X105.117 Y99.087 E9.30806
G1 X104.740 Y98.763 E9.32186
G1 X101.970 Y101.533 E9.43068
G1 X101.838 Y101.355 E9.43685
G1 X101.648 Y101.155 E9.44451
G1 X104.316 Y98.487 E9.54933
G1 X103.860 Y98.242 E9.56371
G1 X101.241 Y100.861 E9.66657
G1 X100.970 Y100.728 E9.67497
G1 X100.753 Y100.649 E9.68139
G1 X103.361 Y98.041 E9.78386
G1 X102.824 Y97.877 E9.79945
G1 X100.174 Y100.527 E9.90355
G1 X99.506 Y100.495 E9.92214
G1 X102.240 Y97.761 E10.02951
G1 X102.008 Y97.716 E10.03608
G1 X101.623 Y97.678 E10.04683
G1 X98.806 Y100.495 E10.15749
G1 X98.105 Y100.495 E10.17695
G1 X100.978 Y97.622 E10.28979
G1 X100.291 Y97.608 E10.30887
G1 X97.405 Y100.495 E10.42225
G1 X97.138 Y100.495 E10.42965
G1 X97.138 Y100.761 E10.43704
G1 X93.555 Y104.345 E10.57784
G1 X93.555 Y103.644 E10.59729
G1 X99.590 Y97.608 E10.83441
G1 X98.890 Y97.608 E10.85387
G1 X93.555 Y102.944 E11.06346
G1 X93.555 Y102.243 E11.08292
G1 X98.190 Y97.608 E11.26500
G1 X97.520 Y97.608 E11.28359
G1 X97.520 Y97.577 E11.28446
G1 X93.555 Y101.543 E11.44025
G1 X93.555 Y100.842 E11.45971
G1 X97.520 Y96.877 E11.61550
G1 X97.520 Y96.176 E11.63495
G1 X93.555 Y100.142 E11.79074
G1 X93.555 Y99.441 E11.81020
G1 X97.520 Y95.476 E11.96599
G1 X97.520 Y94.775 E11.98545
G1 X93.555 Y98.741 E12.14124
G1 X93.555 Y98.040 E12.16070
G1 X97.520 Y94.075 E12.31649
G1 X97.520 Y93.374 E12.33595
G1 X93.555 Y97.340 E12.49174
G1 X93.555 Y96.639 E12.51119
G1 X97.520 Y92.674 E12.66698
G1 X97.520 Y92.055 E12.68418
G1 X97.439 Y92.055 E12.68644
G1 X93.555 Y95.939 E12.83904
G1 X93.555 Y95.238 E12.85849
G1 X96.738 Y92.055 E12.98357
G1 X96.038 Y92.055 E13.00303
G1 X93.555 Y94.538 E13.10059
G1 X93.555 Y93.837 E13.12005
G1 X95.337 Y92.055 E13.19009
G1 X94.637 Y92.055 E13.20954
G1 X93.555 Y93.137 E13.25207
G1 X93.555 Y92.436 E13.27153
G1 X93.936 Y92.055 E13.28653
G1 Z4.800 F7800.000
G1 X97.520 Y92.572 F7800.000
G1 F3392.05
G1 X97.003 Y92.055 E13.30686
G1 X96.301 Y92.055 E13.32636
G1 X97.520 Y93.274 E13.37427
G1 X97.520 Y93.976 E13.39377
G1 X95.599 Y92.055 E13.46927
G1 X94.896 Y92.055 E13.48877
G1 X97.520 Y94.678 E13.59184
G1 X97.520 Y95.380 E13.61135
G1 X94.194 Y92.055 E13.74200
G1 X93.555 Y92.055 E13.75977
G1 X93.555 Y92.117 E13.76151
G1 X97.520 Y96.083 E13.91730
G1 X97.520 Y96.785 E13.93680
G1 X93.555 Y92.819 E14.09259
G1 X93.555 Y93.521 E14.11209
G1 X97.520 Y97.487 E14.26788
G1 X97.520 Y97.990 E14.28186
G1 X98.024 Y97.990 E14.29584
G1 X97.642 Y97.608 F7800.000
G1 F3392.05
G1 X100.561 Y100.527 E14.41051
G1 X100.907 Y100.588 E14.42028
G1 X101.139 Y100.650 E14.42695
G1 X101.563 Y100.827 E14.43971
G1 X98.344 Y97.608 E14.56617
G1 X99.046 Y97.608 E14.58567
G1 X106.187 Y104.749 E14.86620
G1 X106.329 Y104.189 E14.88224
G1 X99.748 Y97.608 E15.14077
G1 X100.461 Y97.619 E15.16057
G1 X106.413 Y103.571 E15.39439
G1 X106.440 Y103.238 E15.40366
G1 X106.439 Y102.895 E15.41320
G1 X101.218 Y97.674 E15.61830
G1 X101.588 Y97.710 E15.62861
G1 X102.045 Y97.799 E15.64154
G1 X106.391 Y102.145 E15.81227
G1 X106.301 Y101.600 E15.82762
G1 X106.207 Y101.258 E15.83745
G1 X102.993 Y98.045 E15.96369
G1 X103.266 Y98.148 E15.97177
G1 X103.712 Y98.355 E15.98545
G1 X104.035 Y98.542 E15.99581
G1 X104.379 Y98.778 E16.00740
G1 X104.686 Y99.036 E16.01853
G1 X105.075 Y99.424 E16.03380
G1 X99.826 Y100.495 F7800.000
G1 F3392.05
G1 X93.555 Y94.223 E16.28017
G1 X93.555 Y94.925 E16.29967
G1 X99.124 Y100.495 E16.51846
G1 X98.422 Y100.495 E16.53796
G1 X93.555 Y95.627 E16.72916
G1 X93.555 Y96.330 E16.74866
G1 X97.720 Y100.495 E16.91228
G1 X97.520 Y100.495 E16.91782
G1 X97.520 Y100.997 E16.93179
G1 X93.555 Y97.032 E17.08758
G1 X93.555 Y97.734 E17.10708
G1 X97.520 Y101.700 E17.26287
G1 X97.520 Y102.402 E17.28237
G1 X93.555 Y98.436 E17.43816
G1 X93.555 Y99.138 E17.45767
G1 X97.520 Y103.104 E17.61346
G1 X97.520 Y103.806 E17.63296
G1 X93.555 Y99.840 E17.78875
G1 X93.555 Y100.542 E17.80825
G1 X97.520 Y104.508 E17.96404
G1 X97.520 Y105.210 E17.98355
G1 X93.555 Y101.244 E18.13934
G1 X93.555 Y101.947 E18.15884
G1 X99.553 Y107.945 E18.39450
G1 X98.851 Y107.945 E18.41400
G1 X93.555 Y102.649 E18.62208
G1 X93.555 Y103.351 E18.64159
G1 X98.149 Y107.945 E18.82208
G1 X97.447 Y107.945 E18.84159
G1 X93.555 Y104.053 E18.99450
G1 X93.555 Y104.755 E19.01401
G1 X96.745 Y107.945 E19.13934
G1 X96.043 Y107.945 E19.15884
G1 X93.555 Y105.457 E19.25659
G1 X93.555 Y106.159 E19.27610
G1 X95.341 Y107.945 E19.34627
G1 X94.639 Y107.945 E19.36577
G1 X93.555 Y106.861 E19.40836
G1 X93.555 Y107.564 E19.42786
G1 X93.936 Y107.945 E19.44286
G1 X97.369 Y105.059 F7800.000
G1 F3392.05
G1 X100.256 Y107.945 E19.55624
G1 X100.945 Y107.933 E19.57540
G1 X98.071 Y105.059 E19.68830
G1 X98.774 Y105.059 E19.70780
G1 X101.603 Y107.888 E19.81894
G1 X102.213 Y107.796 E19.83608
G1 X99.476 Y105.059 E19.94361
G1 X100.148 Y105.030 E19.96231
G1 X102.792 Y107.674 E20.06617
G1 X103.341 Y107.520 E20.08199
G1 X100.733 Y104.912 E20.18445
G1 X100.995 Y104.818 E20.19220
G1 X101.228 Y104.705 E20.19938
G1 X103.840 Y107.317 E20.30200
G1 X104.303 Y107.078 E20.31647
G1 X101.638 Y104.413 E20.42113
G1 X101.823 Y104.224 E20.42848
G1 X101.964 Y104.037 E20.43498
G1 X104.727 Y106.800 E20.54352
G1 X105.107 Y106.478 E20.55736
G1 X102.199 Y103.570 E20.67158
G1 X102.277 Y103.306 E20.67924
G1 X102.331 Y103.000 E20.68786
G1 X105.447 Y106.116 E20.81026
G1 X105.739 Y105.706 E20.82425
G1 X102.345 Y102.312 E20.95758
G1 X102.257 Y101.791 E20.97226
G1 X102.088 Y101.352 E20.98530
G1 X105.988 Y105.252 E21.13851
G1 Z5.200 F7800.000
G1 X104.750 Y106.458 F7800.000
G1 F3403.49
G1 X105.423 Y105.766 E21.16532
G1 X105.617 Y105.516 E21.17413
G1 X105.855 Y105.141 E21.18645
G1 X106.052 Y104.739 E21.19888
G1 X106.211 Y104.297 E21.21195
G1 X103.005 Y107.503 E21.33789
G1 X102.043 Y107.764 E21.36560
G1 X106.395 Y103.412 E21.53656
G1 X106.440 Y102.866 E21.55178
G1 X106.439 Y102.667 E21.55732
G1 X101.218 Y107.889 E21.76244
G1 X100.471 Y107.935 E21.78322
G1 X106.413 Y101.993 E22.01663
G1 X106.383 Y101.668 E22.02570
G1 X106.330 Y101.376 E22.03395
G1 X99.760 Y107.945 E22.29203
G1 X99.060 Y107.945 E22.31149
G1 X106.189 Y100.816 E22.59155
G1 X105.992 Y100.313 E22.60657
G1 X102.081 Y104.223 E22.76020
G1 X102.185 Y103.995 E22.76716
G1 X102.256 Y103.778 E22.77350
G1 X102.345 Y103.259 E22.78812
G1 X105.744 Y99.860 E22.92164
G1 X105.591 Y99.621 E22.92953
G1 X105.452 Y99.451 E22.93562
G1 X102.332 Y102.572 E23.05822
G1 X102.270 Y102.228 E23.06793
G1 X102.202 Y102.002 E23.07450
G1 X105.118 Y99.085 E23.18906
G1 X104.740 Y98.763 E23.20286
G1 X101.970 Y101.533 E23.31169
G1 X101.824 Y101.338 E23.31846
G1 X101.648 Y101.154 E23.32552
G1 X104.317 Y98.485 E23.43038
G1 X103.857 Y98.245 E23.44481
G1 X101.241 Y100.860 E23.54755
G1 X100.982 Y100.733 E23.55557
G1 X100.752 Y100.649 E23.56237
G1 X103.362 Y98.040 E23.66488
G1 X102.823 Y97.878 E23.68049
G1 X100.174 Y100.527 E23.78456
G1 X99.506 Y100.495 E23.80315
G1 X102.237 Y97.763 E23.91046
G1 X101.932 Y97.705 E23.91911
G1 X101.625 Y97.675 E23.92767
G1 X98.805 Y100.495 E24.03843
G1 X98.105 Y100.495 E24.05789
G1 X100.977 Y97.623 E24.17070
G1 X100.291 Y97.608 E24.18976
G1 X97.404 Y100.495 E24.30314
G1 X97.138 Y100.495 E24.31053
G1 X97.138 Y100.761 E24.31792
G1 X93.555 Y104.344 E24.45871
G1 X93.555 Y103.644 E24.47816
G1 X99.590 Y97.608 E24.71527
G1 X98.890 Y97.608 E24.73472
G1 X93.555 Y102.944 E24.94431
G1 X93.555 Y102.243 E24.96377
G1 X98.189 Y97.608 E25.14584
G1 X97.520 Y97.608 E25.16442
G1 X97.520 Y97.577 E25.16529
G1 X93.555 Y101.543 E25.32108
G1 X93.555 Y100.842 E25.34054
G1 X97.520 Y96.876 E25.49633
G1 X97.520 Y96.176 E25.51579
G1 X93.555 Y100.142 E25.67158
G1 X93.555 Y99.441 E25.69104
G1 X97.520 Y95.475 E25.84683
G1 X97.520 Y94.775 E25.86628
G1 X93.555 Y98.741 E26.02207
G1 X93.555 Y98.040 E26.04153
G1 X97.520 Y94.074 E26.19732
G1 X97.520 Y93.374 E26.21678
G1 X93.555 Y97.340 E26.37257
G1 X93.555 Y96.639 E26.39203
G1 X97.520 Y92.674 E26.54782
G1 X97.520 Y92.055 E26.56501
G1 X97.439 Y92.055 E26.56727
G1 X93.555 Y95.939 E26.71986
G1 X93.555 Y95.238 E26.73932
G1 X96.738 Y92.055 E26.86440
G1 X96.038 Y92.055 E26.88385
G1 X93.555 Y94.538 E26.98141
G1 X93.555 Y93.837 E27.00087
G1 X95.337 Y92.055 E27.07091
G1 X94.637 Y92.055 E27.09036
G1 X93.555 Y93.137 E27.13289
G1 X93.555 Y92.436 E27.15234
G1 X93.937 Y92.055 E27.16735
G1 X93.555 Y104.344 F7800.000
G1 F3403.49
G1 X93.555 Y105.045 E27.18681
G1 X97.520 Y101.079 E27.34260
G1 X97.520 Y101.780 E27.36205
G1 X93.555 Y105.745 E27.51784
G1 X93.555 Y106.446 E27.53730
G1 X97.520 Y102.480 E27.69309
G1 X97.520 Y103.181 E27.71255
G1 X93.555 Y107.146 E27.86834
G1 X93.555 Y107.847 E27.88780
G1 X97.520 Y103.881 E28.04359
G1 X97.520 Y104.582 E28.06304
G1 X94.156 Y107.945 E28.19519
G1 X94.857 Y107.945 E28.21465
G1 X97.743 Y105.059 E28.32803
G1 X98.444 Y105.059 E28.34749
G1 X95.557 Y107.945 E28.46088
G1 X96.258 Y107.945 E28.48033
G1 X99.144 Y105.059 E28.59372
G1 X99.844 Y105.059 E28.61317
G1 X96.958 Y107.945 E28.72656
G1 X97.659 Y107.945 E28.74601
G1 X100.580 Y105.025 E28.86076
G1 X101.113 Y104.913 E28.87591
G1 X101.378 Y104.817 E28.88373
G1 X101.587 Y104.718 E28.89016
G1 X98.359 Y107.945 E29.01696
G1 Z5.600 F7800.000
G1 X97.370 Y105.059 F7800.000
G1 F3392.7
G1 X100.256 Y107.945 E29.13035
G1 X100.945 Y107.932 E29.14948
G1 X98.072 Y105.059 E29.26232
G1 X98.774 Y105.059 E29.28183
G1 X101.602 Y107.887 E29.39291
G1 X102.213 Y107.796 E29.41008
G1 X99.476 Y105.059 E29.51760
G1 X100.149 Y105.029 E29.53629
G1 X102.792 Y107.672 E29.64012
G1 X103.342 Y107.520 E29.65597
G1 X100.733 Y104.912 E29.75845
G1 X100.998 Y104.817 E29.76625
G1 X101.228 Y104.705 E29.77338
G1 X103.843 Y107.319 E29.87608
G1 X104.302 Y107.076 E29.89051
G1 X101.639 Y104.413 E29.99515
G1 X101.813 Y104.237 E30.00202
G1 X101.965 Y104.037 E30.00900
G1 X104.728 Y106.800 E30.11755
G1 X105.109 Y106.479 E30.13139
G1 X102.199 Y103.569 E30.24570
G1 X102.259 Y103.387 E30.25103
G1 X102.331 Y102.998 E30.26199
G1 X105.449 Y106.116 E30.38447
G1 X105.739 Y105.705 E30.39846
G1 X102.345 Y102.311 E30.53178
G1 X102.257 Y101.791 E30.54642
G1 X102.086 Y101.349 E30.55959
G1 X105.988 Y105.251 E30.71287
G1 E28.71287 F2400.00000
G92 E0
G1 X105.101 Y99.449 F7800.000
G1 E2.00000 F2400.00000
G1 F3392.7
G1 X104.708 Y99.056 E2.01545
G1 X104.357 Y98.761 E2.02820
G1 X104.094 Y98.579 E2.03707
G1 X103.699 Y98.348 E2.04978
G1 X102.995 Y98.045 E2.07106
G1 X106.204 Y101.254 E2.19708
G1 X106.297 Y101.582 E2.20657
G1 X106.393 Y102.145 E2.22243
G1 X102.033 Y97.785 E2.39370
G1 X101.514 Y97.699 E2.40830
G1 X101.217 Y97.671 E2.41660
G1 X106.439 Y102.893 E2.62175
G1 X106.440 Y103.258 E2.63187
G1 X106.413 Y103.570 E2.64057
G1 X100.463 Y97.619 E2.87433
G1 X99.750 Y97.608 E2.89415
G1 X106.329 Y104.187 E3.15259
G1 X106.186 Y104.747 E3.16863
G1 X99.047 Y97.608 E3.44906
G1 X98.345 Y97.608 E3.46857
G1 X101.567 Y100.830 E3.59514
G1 X101.140 Y100.651 E3.60802
G1 X100.895 Y100.585 E3.61506
G1 X100.563 Y100.528 E3.62443
G1 X97.643 Y97.608 E3.73912
G1 X98.025 Y97.990 F7800.000
G1 F3392.7
G1 X97.520 Y97.990 E3.75313
G1 X97.520 Y97.486 E3.76715
G1 X93.555 Y93.520 E3.92294
G1 X93.555 Y92.818 E3.94245
G1 X97.520 Y96.783 E4.09824
G1 X97.520 Y96.081 E4.11774
G1 X93.555 Y92.115 E4.27353
G1 X93.555 Y92.055 E4.27522
G1 X94.196 Y92.055 E4.29304
G1 X97.520 Y95.379 E4.42363
G1 X97.520 Y94.677 E4.44314
G1 X94.898 Y92.055 E4.54615
G1 X95.600 Y92.055 E4.56566
G1 X97.520 Y93.975 E4.64109
G1 X97.520 Y93.272 E4.66059
G1 X96.302 Y92.055 E4.70844
G1 X97.005 Y92.055 E4.72794
G1 X97.520 Y92.570 E4.74820
G1 E2.74820 F2400.00000
G92 E0
G1 X99.827 Y100.495 F7800.000
G1 E2.00000 F2400.00000
G1 F3392.7
G1 X93.555 Y94.222 E2.24641
G1 X93.555 Y94.924 E2.26592
G1 X99.125 Y100.495 E2.48475
G1 X98.423 Y100.495 E2.50425
G1 X93.555 Y95.626 E2.69549
G1 X93.555 Y96.329 E2.71500
G1 X97.721 Y100.495 E2.87866
G1 X97.520 Y100.495 E2.88422
G1 X97.520 Y100.996 E2.89816
G1 X93.555 Y97.031 E3.05395
G1 X93.555 Y97.733 E3.07346
G1 X97.520 Y101.699 E3.22925
G1 X97.520 Y102.401 E3.24875
G1 X93.555 Y98.435 E3.40454
G1 X93.555 Y99.137 E3.42405
G1 X97.520 Y103.103 E3.57984
G1 X97.520 Y103.805 E3.59934
G1 X93.555 Y99.839 E3.75513
G1 X93.555 Y100.542 E3.77464
G1 X97.520 Y104.507 E3.93043
G1 X97.520 Y105.210 E3.94993
G1 X93.555 Y101.244 E4.10572
G1 X93.555 Y101.946 E4.12523
G1 X99.554 Y107.945 E4.36091
G1 X98.852 Y107.945 E4.38042
G1 X93.555 Y102.648 E4.58851
G1 X93.555 Y103.350 E4.60802
G1 X98.150 Y107.945 E4.78853
G1 X97.447 Y107.945 E4.80804
G1 X93.555 Y104.053 E4.96096
G1 X93.555 Y104.755 E4.98047
G1 X96.745 Y107.945 E5.10581
G1 X96.043 Y107.945 E5.12532
G1 X93.555 Y105.457 E5.22308
G1 X93.555 Y106.159 E5.24258
G1 X95.341 Y107.945 E5.31275
G1 X94.639 Y107.945 E5.33226
G1 X93.555 Y106.861 E5.37485
G1 X93.555 Y107.564 E5.39436
G1 X93.936 Y107.945 E5.40935
G1 Z6.000 F7800.000
G1 E3.40935 F2400.00000
G92 E0
G1 X93.555 Y104.344 F7800.000
G1 E2.00000 F2400.00000
G1 F3403.86
G1 X93.555 Y105.045 E2.01946
G1 X97.520 Y101.079 E2.17525
G1 X97.520 Y101.779 E2.19470
G1 X93.555 Y105.745 E2.35049
G1 X93.555 Y106.445 E2.36995
G1 X97.520 Y102.480 E2.52574
G1 X97.520 Y103.180 E2.54520
G1 X93.555 Y107.146 E2.70099
G1 X93.555 Y107.846 E2.72044
G1 X97.520 Y103.881 E2.87623
G1 X97.520 Y104.581 E2.89569
G1 X94.156 Y107.945 E3.02786
G1 X94.856 Y107.945 E3.04732
G1 X97.743 Y105.059 E3.16070
G1 X98.443 Y105.059 E3.18016
G1 X95.557 Y107.945 E3.29354
G1 X96.257 Y107.945 E3.31300
G1 X99.143 Y105.059 E3.42638
G1 X99.844 Y105.059 E3.44584
G1 X96.958 Y107.945 E3.55922
G1 X97.658 Y107.945 E3.57868
G1 X100.579 Y105.024 E3.69343
G1 X100.886 Y104.972 E3.70207
G1 X101.131 Y104.907 E3.70910
G1 X101.587 Y104.717 E3.72285
G1 X98.359 Y107.945 E3.84970
G1 E1.84970 F2400.00000
G92 E0
G1 X104.728 Y106.480 F7800.000
G1 E2.00000 F2400.00000
G1 F3403.86
G1 X105.437 Y105.750 E2.02825
G1 X105.590 Y105.554 E2.03519
G1 X105.849 Y105.153 E2.04843
G1 X106.059 Y104.722 E2.06176
G1 X106.209 Y104.298 E2.07426
G1 X103.003 Y107.504 E2.20021
G1 X102.386 Y107.692 E2.21813
G1 X102.041 Y107.766 E2.22793
G1 X106.395 Y103.412 E2.39898
G1 X106.439 Y102.886 E2.41363
G1 X106.439 Y102.667 E2.41972
G1 X101.220 Y107.886 E2.62474
G1 X100.479 Y107.927 E2.64537
G1 X106.413 Y101.992 E2.87852
G1 X106.389 Y101.710 E2.88638
G1 X106.329 Y101.376 E2.89580
G1 X99.759 Y107.945 E3.15386
G1 X99.059 Y107.945 E3.17332
G1 X106.187 Y100.817 E3.45334
G1 X106.060 Y100.455 E3.46400
G1 X105.991 Y100.313 E3.46839
G1 X102.083 Y104.221 E3.62191
G1 X102.181 Y104.006 E3.62849
G1 X102.257 Y103.776 E3.63522
G1 X102.345 Y103.258 E3.64980
G1 X105.744 Y99.859 E3.78332
G1 X105.587 Y99.614 E3.79142
G1 X105.452 Y99.452 E3.79729
G1 X102.331 Y102.572 E3.91988
G1 X102.262 Y102.192 E3.93061
G1 X102.201 Y102.002 E3.93616
G1 X105.119 Y99.084 E4.05079
G1 X104.740 Y98.763 E4.06459
G1 X101.969 Y101.533 E4.17342
G1 X101.810 Y101.322 E4.18078
G1 X101.647 Y101.155 E4.18725
G1 X104.320 Y98.482 E4.29226
G1 X103.860 Y98.241 E4.30667
G1 X101.241 Y100.860 E4.40955
G1 X100.995 Y100.738 E4.41718
G1 X100.752 Y100.649 E4.42437
G1 X103.361 Y98.040 E4.52688
G1 X102.822 Y97.878 E4.54250
G1 X100.173 Y100.527 E4.64657
G1 X99.505 Y100.495 E4.66514
G1 X102.243 Y97.757 E4.77268
G1 X101.627 Y97.672 E4.78994
G1 X98.805 Y100.495 E4.90081
G1 X98.104 Y100.495 E4.92026
G1 X100.976 Y97.623 E5.03305
G1 X100.290 Y97.608 E5.05209
G1 X97.404 Y100.495 E5.16548
G1 X97.138 Y100.495 E5.17285
G1 X97.138 Y100.760 E5.18023
G1 X93.555 Y104.344 E5.32102
G1 X93.555 Y103.644 E5.34048
G1 X99.590 Y97.608 E5.57757
G1 X98.889 Y97.608 E5.59702
G1 X93.555 Y102.943 E5.80660
G1 X93.555 Y102.243 E5.82606
G1 X98.189 Y97.608 E6.00811
G1 X97.520 Y97.608 E6.02669
G1 X97.520 Y97.577 E6.02757
G1 X93.555 Y101.542 E6.18336
G1 X93.555 Y100.842 E6.20282
G1 X97.520 Y96.876 E6.35861
G1 X97.520 Y96.176 E6.37807
G1 X93.555 Y100.141 E6.53385
G1 X93.555 Y99.441 E6.55331
G1 X97.520 Y95.475 E6.70910
G1 X97.520 Y94.775 E6.72856
G1 X93.555 Y98.741 E6.88435
G1 X93.555 Y98.040 E6.90381
G1 X97.520 Y94.074 E7.05960
G1 X97.520 Y93.374 E7.07905
G1 X93.555 Y97.340 E7.23484
G1 X93.555 Y96.639 E7.25430
G1 X97.520 Y92.673 E7.41009
G1 X97.520 Y92.055 E7.42728
G1 X97.439 Y92.055 E7.42955
G1 X93.555 Y95.939 E7.58213
G1 X93.555 Y95.238 E7.60159
G1 X96.738 Y92.055 E7.72666
G1 X96.038 Y92.055 E7.74612
G1 X93.555 Y94.538 E7.84367
G1 X93.555 Y93.837 E7.86313
G1 X95.337 Y92.055 E7.93317
G1 X94.637 Y92.055 E7.95262
G1 X93.555 Y93.137 E7.99515
G1 X93.555 Y92.437 E8.01460
G1 X93.937 Y92.055 E8.02961
G1 E6.02961 F2400.00000
G92 E0
M107
; Filament-specific end gcode 
;END gcode for filament

M104 S0 ; turn off temperature
G28 X0  ; home X axis
M84     ; disable motors

M140 S0 ; set bed temperature
; filament used = 121.8mm (0.9cm3)
; total filament cost = 0.0

; avoid_crossing_perimeters = 0
; bed_shape = 0x0,200x0,200x200,0x200
; bed_temperature = 0
; before_layer_gcode = 
; between_objects_gcode = 
; bridge_acceleration = 0
; bridge_fan_speed = 100
; brim_connections_width = 0
; brim_width = 0
; complete_objects = 0
; cooling = 1
; default_acceleration = 0
; disable_fan_first_layers = 3
; duplicate_distance = 6
; end_filament_gcode = "; Filament-specific end gcode \n;END gcode for filament\n"
; end_gcode = M104 S0 ; turn off temperature\nG28 X0  ; home X axis\nM84     ; disable motors\n
; extruder_clearance_height = 20
; extruder_clearance_radius = 20
; extruder_offset = 0x0
; extrusion_axis = E
; extrusion_multiplier = 1
; fan_always_on = 0
; fan_below_layer_time = 60
; filament_colour = #FFFFFF
; filament_cost = 0
; filament_density = 0
; filament_diameter = 3
; filament_max_volumetric_speed = 0
; filament_notes = ""
; first_layer_acceleration = 0
; first_layer_bed_temperature = 0
; first_layer_extrusion_width = 200%
; first_layer_speed = 30
; first_layer_temperature = 205
; gcode_arcs = 0
; gcode_comments = 0
; gcode_flavor = reprap
; has_heatbed = 1
; infill_acceleration = 0
; infill_first = 0
; interior_brim_width = 0
; layer_gcode = 
; max_fan_speed = 100
; max_layer_height = 0.3
; max_print_speed = 80
; max_volumetric_speed = 0
; min_fan_speed = 35
; min_layer_height = 0.15
; min_print_speed = 10
; min_skirt_length = 0
; notes = 
; nozzle_diameter = 0.5
; only_retract_when_crossing_perimeters = 1
; ooze_prevention = 0
; output_filename_format = [input_filename_base].gcode
; perimeter_acceleration = 0
; post_process = 
; pressure_advance = 0
; printer_notes = 
; resolution = 0
; retract_before_travel = 2
; retract_layer_change = 0
; retract_length = 2
; retract_length_toolchange = 10
; retract_lift = 0
; retract_lift_above = 0
; retract_lift_below = 0
; retract_restart_extra = 0
; retract_restart_extra_toolchange = 0
; retract_speed = 40
; skirt_distance = 6
; skirt_height = 1
; skirts = 0
; slowdown_below_layer_time = 5
; spiral_vase = 0
; standby_temperature_delta = -5
; start_filament_gcode = "; Filament gcode\n"
; start_gcode = G28 ; home all axes\nG1 Z5 F5000 ; lift nozzle\n
; temperature = 200
; threads = 8
; toolchange_gcode = 
; travel_speed = 130
; use_firmware_retraction = 0
; use_relative_e_distances = 0
; use_set_and_wait_bed = 0
; use_set_and_wait_extruder = 0
; use_volumetric_e = 0
; vibration_limit = 0
; wipe = 0
; z_offset = 0
; z_steps_per_mm = 0
; adaptive_slicing = 0
; adaptive_slicing_quality = 75%
; dont_support_bridges = 1
; extrusion_width = 0
; first_layer_height = 0.4
; infill_only_where_needed = 0
; interface_shells = 0
; layer_height = 0.4
; match_horizontal_surfaces = 0
; raft_layers = 0
; regions_overlap = 0
; seam_position = aligned
; sequential_print_priority = 0
; support_material = 0
; support_material_angle = 0
; support_material_buildplate_only = 0
; support_material_contact_distance = 0.2
; support_material_enforce_layers = 0
; support_material_extruder = 1
; support_material_extrusion_width = 0
; support_material_interface_extruder = 1
; support_material_interface_extrusion_width = 0
; support_material_interface_layers = 3
; support_material_interface_spacing = 0
; support_material_interface_speed = 100%
; support_material_max_layers = 0
; support_material_pattern = pillars
; support_material_spacing = 2.5
; support_material_speed = 60
; support_material_threshold = 60%
; xy_size_compensation = 0
; bottom_infill_pattern = rectilinear
; bottom_solid_layers = 0
; bridge_flow_ratio = 1
; bridge_speed = 60
; external_perimeter_extrusion_width = 0
; external_perimeter_speed = 50%
; external_perimeters_first = 0
; extra_perimeters = 1
; fill_angle = 45
; fill_density = 100%
; fill_gaps = 1
; fill_pattern = rectilinear
; gap_fill_speed = 20
; infill_every_layers = 1
; infill_extruder = 1
; infill_extrusion_width = 0
; infill_overlap = 55%
; infill_speed = 80
; overhangs = 1
; perimeter_extruder = 1
; perimeter_extrusion_width = 0
; perimeter_speed = 60
; perimeters = 0
; small_perimeter_speed = 15
; solid_infill_below_area = 70
; solid_infill_every_layers = 0
; solid_infill_extruder = 1
; solid_infill_extrusion_width = 0
; solid_infill_speed = 20
; thin_walls = 1
; top_infill_extrusion_width = 0
; top_infill_pattern = rectilinear
; top_solid_infill_speed = 15
; top_solid_layers = 0
