; generated by Slic3r 1.3.0 on 2021-03-02 at 15:05:35

; external perimeters extrusion width = 0.55mm (5.57mm^3/s)
; perimeters extrusion width = 0.58mm (11.78mm^3/s)
; infill extrusion width = 0.58mm (15.71mm^3/s)
; solid infill extrusion width = 0.58mm (3.93mm^3/s)
; top infill extrusion width = 0.58mm (2.95mm^3/s)

M107
M104 S205 ; set temperature
G28 ; home all axes
G1 Z5 F5000 ; lift nozzle

; Filament gcode

M109 S205 ; set temperature and wait for it to be reached
G21 ; set units to millimeters
G90 ; use absolute coordinates
M82 ; use absolute distances for extrusion
G92 E0
G1 Z0.400 F7800.000
G1 E-2.00000 F2400.00000
G92 E0
G1 X96.701 Y93.754 F7800.000
G1 E2.00000 F2400.00000
G1 F1800
G1 X96.527 Y93.861 E2.00826
G1 X95.984 Y94.280 E2.03596
G1 X95.448 Y94.788 E2.06580
G1 X95.133 Y95.145 E2.08503
G1 X94.681 Y95.774 E2.11632
G1 X97.169 Y93.286 E2.25852
G1 X97.621 Y93.007 E2.27997
G1 X98.339 Y92.666 E2.31210
G1 X98.831 Y92.492 E2.33317
G1 X93.931 Y97.392 E2.61322
G1 X93.818 Y97.739 E2.62800
G1 X93.643 Y98.547 E2.66137
G1 X100.000 Y92.191 E3.02465
G1 X100.659 Y92.087 E3.05164
G1 X100.997 Y92.061 E3.06533
G1 X93.540 Y99.518 E3.49154
G1 X93.518 Y100.408 E3.52749
G1 X101.908 Y92.018 E4.00699
G1 X102.293 Y92.015 E4.02256
G1 X102.746 Y92.048 E4.04090
G1 X99.185 Y95.609 E4.24444
G1 X99.478 Y95.430 E4.25833
G1 X99.879 Y95.238 E4.27630
G1 X100.346 Y95.075 E4.29628
G1 X100.665 Y94.996 E4.30956
G1 X103.536 Y92.125 E4.47364
G1 X104.266 Y92.263 E4.50368
G1 X101.651 Y94.878 E4.65317
G1 X102.498 Y94.899 E4.68739
G1 X104.955 Y92.442 E4.82782
G1 X105.599 Y92.666 E4.85538
G1 X103.263 Y95.002 E4.98889
G1 X103.964 Y95.169 E5.01801
G1 X106.206 Y92.926 E5.14619
G1 X106.489 Y93.062 E5.15886
G1 X106.489 Y93.511 E5.17702
G1 X104.608 Y95.392 E5.28451
G1 X105.207 Y95.660 E5.31105
G1 X106.489 Y94.379 E5.38429
G1 X106.489 Y95.247 E5.41935
G1 X105.770 Y95.966 E5.46047
G1 E3.46047 F2400.00000
G92 E0
G1 X98.477 Y96.316 F7800.000
G1 E2.00000 F2400.00000
G1 F1800
G1 X93.561 Y101.233 E2.28097
G1 X93.661 Y102.000 E2.31224
G1 X97.787 Y97.874 E2.54803
G1 X97.686 Y98.327 E2.56677
G1 X97.604 Y98.926 E2.59120
G1 X93.816 Y102.713 E2.80768
G1 X94.026 Y103.370 E2.83557
G1 X97.565 Y99.832 E3.03782
G1 X97.609 Y100.656 E3.07116
G1 X94.286 Y103.979 E3.26108
G1 X94.353 Y104.131 E3.26782
G1 X94.591 Y104.541 E3.28697
G1 X97.728 Y101.404 E3.46624
G1 X97.917 Y102.083 E3.49471
G1 X94.940 Y105.060 E3.66487
G1 X95.146 Y105.340 E3.67890
G1 X95.330 Y105.538 E3.68983
G1 X98.173 Y102.695 E3.85232
G1 X98.495 Y103.241 E3.87793
G1 X95.756 Y105.980 E4.03447
G1 X96.221 Y106.382 E4.05933
G1 X98.878 Y103.725 E4.21118
G1 X99.323 Y104.148 E4.23599
G1 X96.733 Y106.738 E4.38402
G1 X97.286 Y107.053 E4.40973
G1 X99.835 Y104.504 E4.55542
G1 X100.164 Y104.680 E4.57050
G1 X100.418 Y104.789 E4.58166
G1 X97.880 Y107.327 E4.72672
G1 X98.238 Y107.474 E4.74238
G1 X98.516 Y107.558 E4.75413
G1 X101.081 Y104.993 E4.90072
G1 X101.511 Y105.071 E4.91837
G1 X101.836 Y105.106 E4.93158
G1 X99.202 Y107.740 E5.08212
G1 X99.934 Y107.876 E5.11221
G1 X102.692 Y105.118 E5.26985
G1 X103.223 Y105.076 E5.29135
G1 X103.668 Y105.010 E5.30954
G1 X100.720 Y107.958 E5.47802
G1 X101.548 Y107.989 E5.51153
G1 X104.851 Y104.695 E5.70003
G1 X105.254 Y104.535 E5.71758
G1 X105.768 Y104.294 E5.74049
G1 X106.489 Y103.881 E5.77408
G1 X106.489 Y103.924 E5.77583
G1 X102.469 Y107.944 E6.00557
G1 X102.759 Y107.919 E6.01734
G1 X103.475 Y107.805 E6.04664
G1 X106.489 Y104.792 E6.21888
G1 X106.489 Y105.660 E6.25394
G1 X104.646 Y107.503 E6.35929
M104 S200 ; set temperature
G1 Z0.800 F7800.000
G1 X106.445 Y104.710 F7800.000
G1 F2263.08
G1 X105.813 Y104.078 E6.38413
G1 X105.250 Y104.383 E6.40191
G1 X106.445 Y105.578 E6.44886
G1 X106.445 Y106.445 E6.47296
G1 X104.652 Y104.652 E6.54341
G1 X104.007 Y104.875 E6.56237
G1 X106.160 Y107.028 E6.64696
G1 X105.553 Y107.288 E6.66533
G1 X103.306 Y105.042 E6.75357
G1 X102.539 Y105.143 E6.77505
G1 X104.906 Y107.509 E6.86803
G1 X104.221 Y107.692 E6.88771
G1 X101.693 Y105.164 E6.98703
G1 X101.205 Y105.129 E7.00062
G1 X100.709 Y105.047 E7.01460
G1 X103.493 Y107.832 E7.12398
G1 X102.712 Y107.919 E7.14579
G1 X99.227 Y104.433 E7.28272
G1 X95.100 Y104.645 F7800.000
G1 F2263.08
G1 X95.360 Y105.027 E7.29554
G1 X95.618 Y105.353 E7.30712
G1 X96.106 Y105.872 E7.32689
G1 X96.644 Y106.338 E7.34666
G1 X97.136 Y106.681 E7.36332
G1 X94.718 Y104.263 E7.45831
G1 X94.389 Y103.691 E7.47665
G1 X94.100 Y103.037 E7.49651
G1 X93.974 Y102.651 E7.50778
G1 X98.795 Y107.473 E7.69718
G1 X99.366 Y107.643 E7.71374
G1 X99.951 Y107.761 E7.73031
G1 X93.692 Y101.502 E7.97617
G1 X93.600 Y100.806 E7.99568
G1 X93.587 Y100.529 E8.00337
G1 X100.954 Y107.896 E8.29275
G1 X101.189 Y107.921 E8.29933
G1 X101.868 Y107.942 E8.31819
G1 X93.560 Y99.635 E8.64454
G1 X93.605 Y98.812 E8.66743
G1 X98.432 Y103.639 E8.85704
G1 X98.210 Y103.275 E8.86887
G1 X98.021 Y102.890 E8.88078
G1 X97.863 Y102.479 E8.89301
G1 X97.745 Y102.084 E8.90448
G1 X93.707 Y98.046 E9.06311
G1 X93.781 Y97.637 E9.07466
G1 X93.863 Y97.334 E9.08337
G1 X97.561 Y101.032 E9.22864
G1 X97.522 Y100.125 E9.25387
G1 X94.075 Y96.678 E9.38928
G1 X94.243 Y96.232 E9.40252
G1 X94.330 Y96.065 E9.40774
G1 X97.566 Y99.301 E9.53486
G1 X97.684 Y98.552 E9.55593
G1 X94.629 Y95.497 E9.67595
G1 X94.979 Y94.979 E9.69331
G1 X97.873 Y97.873 E9.80700
G1 X98.129 Y97.261 E9.82542
G1 X95.371 Y94.503 E9.93378
G1 X95.477 Y94.377 E9.93835
G1 X95.802 Y94.066 E9.95084
G1 X98.451 Y96.715 E10.05490
G1 X98.834 Y96.231 E10.07206
G1 X96.271 Y93.667 E10.17277
G1 X96.558 Y93.444 E10.18288
G1 X96.779 Y93.308 E10.19008
G1 X99.279 Y95.808 E10.28831
G1 X99.791 Y95.452 E10.30563
G1 X97.327 Y92.988 E10.40239
G1 X97.919 Y92.712 E10.42053
G1 X100.374 Y95.167 E10.51697
G1 X100.772 Y95.032 E10.52866
G1 X101.038 Y94.964 E10.53628
G1 X98.554 Y92.480 E10.63386
G1 X99.241 Y92.299 E10.65358
G1 X101.793 Y94.851 E10.75383
G1 X102.294 Y94.830 E10.76778
G1 X102.648 Y94.839 E10.77761
G1 X99.979 Y92.170 E10.88246
G1 X100.214 Y92.132 E10.88906
G1 X100.766 Y92.089 E10.90445
G1 X103.625 Y94.947 E11.01674
G1 X104.202 Y95.073 E11.03316
G1 X104.807 Y95.261 E11.05074
G1 X101.605 Y92.060 E11.17650
G1 X102.510 Y92.097 E11.20167
G1 X106.445 Y96.032 E11.35626
G1 X106.445 Y95.165 E11.38036
G1 X103.519 Y92.239 E11.49531
G1 X104.049 Y92.352 E11.51037
G1 X104.690 Y92.542 E11.52893
G1 X106.445 Y94.297 E11.59789
G1 Z1.200 F7800.000
G1 X105.814 Y95.922 F7800.000
G1 F2270.85
G1 X106.445 Y95.290 E11.62272
G1 X106.445 Y94.422 E11.64682
G1 X105.251 Y95.617 E11.69374
G1 X104.651 Y95.349 E11.71199
G1 X106.445 Y93.555 E11.78248
G1 X106.445 Y93.106 E11.79493
G1 X106.161 Y92.971 E11.80368
G1 X104.006 Y95.126 E11.88832
G1 X103.306 Y94.959 E11.90832
G1 X105.556 Y92.708 E11.99673
G1 X104.909 Y92.488 E12.01573
G1 X102.539 Y94.857 E12.10881
G1 X101.695 Y94.834 E12.13229
G1 X104.221 Y92.308 E12.23152
G1 X103.731 Y92.203 E12.24543
G1 X103.489 Y92.172 E12.25221
G1 X100.709 Y94.952 E12.36142
G1 X100.218 Y95.085 E12.37555
G1 X99.888 Y95.209 E12.38534
G1 X99.564 Y95.364 E12.39532
G1 X99.231 Y95.563 E12.40611
G1 X102.709 Y92.084 E12.54276
G1 X102.128 Y92.057 E12.55891
G1 X101.862 Y92.064 E12.56631
G1 X93.560 Y100.366 E12.89245
G1 X93.578 Y99.480 E12.91708
G1 X100.957 Y92.101 E13.20695
G1 X100.311 Y92.170 E13.22501
G1 X99.953 Y92.237 E13.23511
G1 X93.689 Y98.501 E13.48120
G1 X93.791 Y97.977 E13.49603
G1 X93.963 Y97.360 E13.51384
G1 X98.798 Y92.524 E13.70379
G1 X98.151 Y92.770 E13.72301
G1 X97.518 Y93.083 E13.74262
G1 X97.126 Y93.329 E13.75548
G1 X94.734 Y95.721 E13.84945
G1 X95.045 Y95.266 E13.86477
G1 X95.493 Y94.742 E13.88391
G1 X95.998 Y94.260 E13.90329
G1 X96.546 Y93.834 E13.92258
G1 X96.744 Y93.710 E13.92906
G1 X98.433 Y96.360 F7800.000
G1 F2270.85
G1 X93.602 Y101.191 E14.11885
G1 X93.704 Y101.957 E14.14031
G1 X97.745 Y97.916 E14.29908
G1 X97.643 Y98.369 E14.31198
G1 X97.561 Y98.968 E14.32877
G1 X93.861 Y102.668 E14.47414
G1 X94.070 Y103.327 E14.49333
G1 X97.522 Y99.875 E14.62893
G1 X97.566 Y100.699 E14.65184
G1 X94.326 Y103.939 E14.77912
G1 X94.486 Y104.258 E14.78905
G1 X94.634 Y104.498 E14.79688
G1 X97.685 Y101.448 E14.91671
G1 X97.873 Y102.127 E14.93629
G1 X94.982 Y105.018 E15.04988
G1 X95.370 Y105.497 E15.06701
G1 X98.130 Y102.738 E15.17541
G1 X98.450 Y103.285 E15.19302
G1 X95.798 Y105.937 E15.29720
G1 X96.265 Y106.339 E15.31429
G1 X98.835 Y103.769 E15.41525
G1 X99.280 Y104.191 E15.43230
G1 X96.774 Y106.697 E15.53075
G1 X97.330 Y107.008 E15.54847
G1 X99.792 Y104.547 E15.64515
G1 X100.203 Y104.762 E15.65804
G1 X100.375 Y104.831 E15.66320
G1 X97.919 Y107.288 E15.75969
G1 X98.104 Y107.366 E15.76528
G1 X98.563 Y107.511 E15.77865
G1 X101.038 Y105.037 E15.87585
G1 X101.334 Y105.095 E15.88424
G1 X101.794 Y105.148 E15.89711
G1 X99.247 Y107.695 E15.99715
G1 X99.976 Y107.833 E16.01777
G1 X102.650 Y105.160 E16.12279
G1 X103.160 Y105.122 E16.13699
G1 X103.624 Y105.053 E16.15003
G1 X100.764 Y107.913 E16.26238
G1 X101.589 Y107.945 E16.28532
G1 X104.809 Y104.736 E16.41159
G1 X105.413 Y104.490 E16.42970
G1 X105.766 Y104.316 E16.44064
G1 X106.445 Y103.925 E16.46242
G1 X106.445 Y103.968 E16.46360
G1 X102.509 Y107.904 E16.61826
G1 X103.514 Y107.767 E16.64645
G1 X106.445 Y104.835 E16.76161
G1 X106.445 Y105.703 E16.78571
G1 X104.695 Y107.454 E16.85449
M106 S255
G1 Z1.600 F7800.000
G1 X106.445 Y104.710 F7800.000
G1 F2263.04
G1 X105.813 Y104.078 E16.87933
G1 X105.250 Y104.383 E16.89711
G1 X106.445 Y105.578 E16.94406
G1 X106.445 Y106.445 E16.96816
G1 X104.652 Y104.652 E17.03861
G1 X104.007 Y104.875 E17.05757
G1 X106.165 Y107.033 E17.14235
G1 X105.553 Y107.289 E17.16077
G1 X103.306 Y105.042 E17.24904
G1 X102.539 Y105.143 E17.27053
G1 X104.909 Y107.512 E17.36361
G1 X104.225 Y107.696 E17.38329
G1 X101.694 Y105.165 E17.48272
G1 X101.205 Y105.129 E17.49633
G1 X100.709 Y105.047 E17.51031
G1 X103.496 Y107.834 E17.61980
G1 X102.712 Y107.918 E17.64170
G1 X99.227 Y104.433 E17.77859
G1 X95.121 Y104.667 F7800.000
G1 F2263.04
G1 X95.360 Y105.027 E17.79058
G1 X95.810 Y105.571 E17.81020
G1 X96.106 Y105.872 E17.82193
G1 X96.420 Y106.156 E17.83369
G1 X96.986 Y106.587 E17.85345
G1 X97.127 Y106.673 E17.85804
G1 X94.740 Y104.285 E17.95184
G1 X94.591 Y104.060 E17.95932
G1 X94.264 Y103.430 E17.97904
G1 X94.100 Y103.037 E17.99088
G1 X93.960 Y102.638 E18.00262
G1 X98.785 Y107.462 E18.19213
G1 X99.038 Y107.552 E18.19960
G1 X99.707 Y107.722 E18.21876
G1 X99.952 Y107.762 E18.22568
G1 X93.698 Y101.508 E18.47136
G1 X93.634 Y101.129 E18.48203
G1 X93.584 Y100.526 E18.49885
G1 X100.952 Y107.894 E18.78830
G1 X101.577 Y107.939 E18.80570
G1 X101.865 Y107.939 E18.81371
G1 X93.562 Y99.636 E19.13987
G1 X93.561 Y99.423 E19.14579
G1 X93.608 Y98.814 E19.16276
G1 X98.432 Y103.639 E19.35228
G1 X98.210 Y103.275 E19.36411
G1 X98.021 Y102.890 E19.37602
G1 X97.863 Y102.479 E19.38825
G1 X97.745 Y102.084 E19.39972
G1 X93.710 Y98.049 E19.55822
G1 X93.782 Y97.636 E19.56987
G1 X93.863 Y97.334 E19.57855
G1 X97.561 Y101.032 E19.72383
G1 X97.522 Y100.125 E19.74905
G1 X94.075 Y96.678 E19.88447
G1 X94.244 Y96.231 E19.89775
G1 X94.328 Y96.064 E19.90294
G1 X97.566 Y99.301 E20.03013
G1 X97.684 Y98.552 E20.05121
G1 X94.634 Y95.502 E20.17103
G1 X94.978 Y94.978 E20.18843
G1 X97.873 Y97.873 E20.30214
G1 X98.129 Y97.261 E20.32055
G1 X95.367 Y94.499 E20.42905
G1 X95.800 Y94.065 E20.44609
G1 X98.451 Y96.715 E20.55022
G1 X98.834 Y96.231 E20.56738
G1 X96.271 Y93.667 E20.66809
G1 X96.446 Y93.526 E20.67435
G1 X96.780 Y93.309 E20.68541
G1 X99.279 Y95.808 E20.78359
G1 X99.791 Y95.452 E20.80091
G1 X97.330 Y92.991 E20.89758
G1 X97.680 Y92.811 E20.90853
G1 X97.922 Y92.715 E20.91574
G1 X100.374 Y95.167 E21.01205
G1 X100.772 Y95.032 E21.02375
G1 X101.038 Y94.964 E21.03137
G1 X98.559 Y92.485 E21.12875
G1 X99.243 Y92.301 E21.14843
G1 X101.793 Y94.851 E21.24858
G1 X102.294 Y94.830 E21.26254
G1 X102.648 Y94.839 E21.27237
G1 X99.976 Y92.166 E21.37734
G1 X100.761 Y92.084 E21.39927
G1 X103.625 Y94.947 E21.51176
G1 X104.202 Y95.073 E21.52818
G1 X104.807 Y95.261 E21.54576
G1 X101.604 Y92.058 E21.67158
G1 X102.510 Y92.097 E21.69678
G1 X106.445 Y96.032 E21.85137
G1 X106.445 Y95.165 E21.87548
G1 X103.519 Y92.239 E21.99043
G1 X104.049 Y92.352 E22.00548
G1 X104.690 Y92.542 E22.02405
G1 X106.445 Y94.297 E22.09300
G1 Z2.000 F7800.000
G1 X105.813 Y95.923 F7800.000
G1 F2270.92
G1 X106.445 Y95.290 E22.11785
G1 X106.445 Y94.422 E22.14196
G1 X105.251 Y95.617 E22.18888
G1 X104.652 Y95.348 E22.20713
G1 X106.445 Y93.555 E22.27760
G1 X106.445 Y93.105 E22.29008
G1 X106.163 Y92.969 E22.29879
G1 X104.007 Y95.125 E22.38348
G1 X103.306 Y94.958 E22.40349
G1 X105.555 Y92.709 E22.49185
G1 X104.911 Y92.486 E22.51079
G1 X102.541 Y94.856 E22.60390
G1 X101.694 Y94.835 E22.62743
G1 X104.223 Y92.306 E22.72677
G1 X103.492 Y92.169 E22.74742
G1 X100.708 Y94.953 E22.85678
G1 X100.389 Y95.032 E22.86591
G1 X99.923 Y95.195 E22.87965
G1 X99.522 Y95.387 E22.89200
G1 X99.228 Y95.566 E22.90155
G1 X102.710 Y92.084 E23.03832
G1 X101.866 Y92.060 E23.06176
G1 X93.562 Y100.364 E23.38799
G1 X93.583 Y99.475 E23.41270
G1 X100.958 Y92.100 E23.70242
G1 X100.225 Y92.183 E23.72292
G1 X99.952 Y92.238 E23.73065
G1 X93.687 Y98.503 E23.97677
G1 X93.861 Y97.696 E23.99971
G1 X93.974 Y97.348 E24.00987
G1 X98.790 Y92.532 E24.19906
G1 X98.629 Y92.581 E24.20375
G1 X97.930 Y92.871 E24.22476
G1 X97.279 Y93.223 E24.24532
G1 X97.127 Y93.327 E24.25043
G1 X94.725 Y95.730 E24.34482
G1 X95.204 Y95.067 E24.36755
G1 X95.702 Y94.531 E24.38786
G1 X96.294 Y94.020 E24.40959
G1 X96.746 Y93.709 E24.42482
G1 E22.42482 F2400.00000
G92 E0
G1 X98.434 Y96.360 F7800.000
G1 E2.00000 F2400.00000
G1 F2270.92
G1 X93.604 Y101.189 E2.18971
G1 X93.705 Y101.956 E2.21121
G1 X97.744 Y97.918 E2.36987
G1 X97.642 Y98.371 E2.38277
G1 X97.560 Y98.969 E2.39954
G1 X93.859 Y102.670 E2.54492
G1 X94.070 Y103.327 E2.56409
G1 X97.522 Y99.875 E2.69969
G1 X97.565 Y100.699 E2.72261
G1 X94.329 Y103.935 E2.84974
G1 X94.397 Y104.088 E2.85438
G1 X94.635 Y104.498 E2.86754
G1 X97.684 Y101.448 E2.98735
G1 X97.874 Y102.126 E3.00691
G1 X94.984 Y105.016 E3.12043
G1 X95.219 Y105.332 E3.13136
G1 X95.372 Y105.496 E3.13759
G1 X98.130 Y102.738 E3.24592
G1 X98.451 Y103.284 E3.26352
G1 X95.799 Y105.936 E3.36770
G1 X96.264 Y106.339 E3.38479
G1 X98.835 Y103.769 E3.48576
G1 X99.279 Y104.192 E3.50281
G1 X96.776 Y106.695 E3.60114
G1 X97.329 Y107.010 E3.61881
G1 X99.791 Y104.548 E3.71554
G1 X100.130 Y104.728 E3.72621
G1 X100.374 Y104.832 E3.73358
G1 X97.923 Y107.283 E3.82988
G1 X98.281 Y107.431 E3.84064
G1 X98.560 Y107.514 E3.84871
G1 X101.038 Y105.036 E3.94607
G1 X101.282 Y105.087 E3.95298
G1 X101.793 Y105.149 E3.96728
G1 X99.245 Y107.697 E4.06734
G1 X99.977 Y107.832 E4.08802
G1 X102.649 Y105.161 E4.19296
G1 X103.179 Y105.119 E4.20774
G1 X103.624 Y105.053 E4.22024
G1 X100.763 Y107.914 E4.33264
G1 X101.591 Y107.945 E4.35566
G1 X104.807 Y104.738 E4.48182
G1 X105.211 Y104.579 E4.49388
G1 X105.724 Y104.338 E4.50963
G1 X106.445 Y103.924 E4.53272
G1 X106.445 Y103.968 E4.53392
G1 X102.511 Y107.902 E4.68847
G1 X102.802 Y107.876 E4.69659
G1 X103.517 Y107.764 E4.71667
G1 X106.445 Y104.835 E4.83173
G1 X106.445 Y105.703 E4.85583
G1 X104.686 Y107.462 E4.92494
G1 E2.92494 F2400.00000
G92 E0
M107
; Filament-specific end gcode 
;END gcode for filament

M104 S0 ; turn off temperature
G28 X0  ; home X axis
M84     ; disable motors

M140 S0 ; set bed temperature
; filament used = 28.8mm (0.2cm3)
; total filament cost = 0.0

; avoid_crossing_perimeters = 0
; bed_shape = 0x0,200x0,200x200,0x200
; bed_temperature = 0
; before_layer_gcode = 
; between_objects_gcode = 
; bridge_acceleration = 0
; bridge_fan_speed = 100
; brim_connections_width = 0
; brim_width = 0
; complete_objects = 0
; cooling = 1
; default_acceleration = 0
; disable_fan_first_layers = 3
; duplicate_distance = 6
; end_filament_gcode = "; Filament-specific end gcode \n;END gcode for filament\n"
; end_gcode = M104 S0 ; turn off temperature\nG28 X0  ; home X axis\nM84     ; disable motors\n
; extruder_clearance_height = 20
; extruder_clearance_radius = 20
; extruder_offset = 0x0
; extrusion_axis = E
; extrusion_multiplier = 1
; fan_always_on = 0
; fan_below_layer_time = 60
; filament_colour = #FFFFFF
; filament_cost = 0
; filament_density = 0
; filament_diameter = 3
; filament_max_volumetric_speed = 0
; filament_notes = ""
; first_layer_acceleration = 0
; first_layer_bed_temperature = 0
; first_layer_extrusion_width = 200%
; first_layer_speed = 30
; first_layer_temperature = 205
; gcode_arcs = 0
; gcode_comments = 0
; gcode_flavor = reprap
; has_heatbed = 1
; infill_acceleration = 0
; infill_first = 0
; interior_brim_width = 0
; layer_gcode = 
; max_fan_speed = 100
; max_layer_height = 0.3
; max_print_speed = 80
; max_volumetric_speed = 0
; min_fan_speed = 35
; min_layer_height = 0.15
; min_print_speed = 10
; min_skirt_length = 0
; notes = 
; nozzle_diameter = 0.5
; only_retract_when_crossing_perimeters = 1
; ooze_prevention = 0
; output_filename_format = [input_filename_base].gcode
; perimeter_acceleration = 0
; post_process = 
; pressure_advance = 0
; printer_notes = 
; resolution = 0
; retract_before_travel = 2
; retract_layer_change = 0
; retract_length = 2
; retract_length_toolchange = 10
; retract_lift = 0
; retract_lift_above = 0
; retract_lift_below = 0
; retract_restart_extra = 0
; retract_restart_extra_toolchange = 0
; retract_speed = 40
; skirt_distance = 6
; skirt_height = 1
; skirts = 0
; slowdown_below_layer_time = 5
; spiral_vase = 0
; standby_temperature_delta = -5
; start_filament_gcode = "; Filament gcode\n"
; start_gcode = G28 ; home all axes\nG1 Z5 F5000 ; lift nozzle\n
; temperature = 200
; threads = 8
; toolchange_gcode = 
; travel_speed = 130
; use_firmware_retraction = 0
; use_relative_e_distances = 0
; use_set_and_wait_bed = 0
; use_set_and_wait_extruder = 0
; use_volumetric_e = 0
; vibration_limit = 0
; wipe = 0
; z_offset = 0
; z_steps_per_mm = 0
; adaptive_slicing = 0
; adaptive_slicing_quality = 75%
; dont_support_bridges = 1
; extrusion_width = 0
; first_layer_height = 0.4
; infill_only_where_needed = 0
; interface_shells = 0
; layer_height = 0.4
; match_horizontal_surfaces = 0
; raft_layers = 0
; regions_overlap = 0
; seam_position = aligned
; sequential_print_priority = 0
; support_material = 0
; support_material_angle = 0
; support_material_buildplate_only = 0
; support_material_contact_distance = 0.2
; support_material_enforce_layers = 0
; support_material_extruder = 1
; support_material_extrusion_width = 0
; support_material_interface_extruder = 1
; support_material_interface_extrusion_width = 0
; support_material_interface_layers = 3
; support_material_interface_spacing = 0
; support_material_interface_speed = 100%
; support_material_max_layers = 0
; support_material_pattern = pillars
; support_material_spacing = 2.5
; support_material_speed = 60
; support_material_threshold = 60%
; xy_size_compensation = 0
; bottom_infill_pattern = rectilinear
; bottom_solid_layers = 0
; bridge_flow_ratio = 1
; bridge_speed = 60
; external_perimeter_extrusion_width = 0
; external_perimeter_speed = 50%
; external_perimeters_first = 0
; extra_perimeters = 1
; fill_angle = 45
; fill_density = 80%
; fill_gaps = 1
; fill_pattern = rectilinear
; gap_fill_speed = 20
; infill_every_layers = 1
; infill_extruder = 1
; infill_extrusion_width = 0
; infill_overlap = 55%
; infill_speed = 80
; overhangs = 1
; perimeter_extruder = 1
; perimeter_extrusion_width = 0
; perimeter_speed = 60
; perimeters = 0
; small_perimeter_speed = 15
; solid_infill_below_area = 70
; solid_infill_every_layers = 0
; solid_infill_extruder = 1
; solid_infill_extrusion_width = 0
; solid_infill_speed = 20
; thin_walls = 1
; top_infill_extrusion_width = 0
; top_infill_pattern = rectilinear
; top_solid_infill_speed = 15
; top_solid_layers = 0
