%
(Header)
(Generated by gcodetools from Inkscape.)
(Using default header. To add your own header create file "header" in the output dir.)
M3
(Header end.)
G21 (All units in mm)

(Start cutting path id: path13794)
(Change tool to Cone cutter)

G00 Z0.000000
G00 X31.626650 Y1.496866

G01 Z-1.000000 F100.0(Penetrate)
G02 X30.649824 Y2.763058 Z-1.000000 I6.045328 J5.673668 F400.000000
G02 X30.495588 Y3.298919 Z-1.000000 I0.853754 J0.535861
G02 X31.504334 Y5.559101 Z-1.000000 I3.036440 J-0.000000
G02 X33.295528 Y5.810854 Z-1.000000 I1.082950 J-1.207117
G02 X33.568010 Y5.252668 Z-1.000000 I-0.219893 J-0.452942
G02 X33.090389 Y4.851126 Z-1.000000 I-0.496893 J0.106210
G03 X32.325464 Y4.462063 Z-1.000000 I0.038832 J-1.022827
G03 X32.063715 Y3.549065 Z-1.000000 I0.984476 J-0.776260
G03 X32.633130 Y2.798093 Z-1.000000 I0.911880 J0.100060
G03 X33.974809 Y2.780019 Z-1.000000 I0.694201 J1.725100
G03 X35.274590 Y4.075323 Z-1.000000 I-0.769656 J2.072105
G03 X36.036262 Y8.271831 Z-1.000000 I-11.179708 J4.196508
G02 X36.172372 Y10.252691 Z-1.000000 I14.482114 J-0.000000
G02 X36.513905 Y11.731112 Z-1.000000 I8.378608 J-1.156897
G03 X36.461540 Y13.582153 Z-1.000000 I-2.600474 J0.852695
G03 X35.316894 Y14.786276 Z-1.000000 I-2.051004 J-0.803581
G03 X30.585026 Y16.763287 Z-1.000000 I-37.300563 J-82.625608
G03 X27.438666 Y17.819088 Z-1.000000 I-13.640281 J-35.432905
G03 X20.349265 Y19.674557 Z-1.000000 I-42.106994 J-146.411585
G03 X18.888834 Y19.838379 Z-1.000000 I-1.408257 J-5.962664
G02 X18.497904 Y19.925714 Z-1.000000 I-0.007847 J0.883486
G02 X18.098955 Y20.218299 Z-1.000000 I0.585221 J1.216251
G03 X17.697352 Y20.537647 Z-1.000000 I-1.291937 J-1.212506
G03 X17.000372 Y20.856811 Z-1.000000 I-1.987349 J-3.419308
G02 X16.275557 Y21.143303 Z-1.000000 I2.886708 J8.363384
G02 X15.391479 Y21.576217 Z-1.000000 I5.761065 J12.884179
G03 X14.498701 Y21.974939 Z-1.000000 I-3.281274 J-6.148227
G03 X13.767489 Y22.168692 Z-1.000000 I-1.429610 J-3.918610
G03 X13.013612 Y22.295501 Z-1.000000 I-40.543588 J-238.725720
G03 X12.406777 Y22.395374 Z-1.000000 I-25.860279 J-155.235928
G02 X11.590376 Y23.487233 Z-1.000000 I0.157515 J0.968925
G02 X12.876572 Y26.117221 Z-1.000000 I4.491164 J-0.566903
G03 X12.858313 Y26.705545 Z-1.000000 I-0.286282 J0.285560
G03 X11.238028 Y27.567747 Z-1.000000 I-2.606058 J-2.943858
G03 X9.469178 Y27.829574 Z-1.000000 I-2.109270 J-8.143886
G03 X8.429317 Y27.681496 Z-1.000000 I-0.117460 J-2.900337
G02 X7.380198 Y27.483941 Z-1.000000 I-1.239725 J3.699115
G02 X5.497104 Y27.538068 Z-1.000000 I-0.593542 J12.134156
G02 X3.626029 Y27.830430 Z-1.000000 I2.066675 J19.359913
G02 X3.047757 Y28.043897 Z-1.000000 I0.417192 J2.020144
G02 X1.736460 Y29.087980 Z-1.000000 I2.407112 J4.368655
G02 X1.454819 Y29.825539 Z-1.000000 I0.824931 J0.737559
G03 X1.392430 Y30.159295 Z-1.000000 I-0.923929 J-0.000000
G03 X1.263761 Y30.318726 Z-1.000000 I-0.313678 J-0.121517
G02 X1.067252 Y30.833687 Z-1.000000 I0.259442 J0.393978
G02 X1.598112 Y31.578801 Z-1.000000 I1.256201 J-0.333323
G03 X2.100337 Y31.960995 Z-1.000000 I-3.016587 J4.485043
G03 X3.109056 Y32.874665 Z-1.000000 I-16.363723 J19.079698
G02 X4.918742 Y34.196602 Z-1.000000 I5.876128 J-6.144550
G02 X6.078631 Y34.491972 Z-1.000000 I1.159888 J-2.129698
G03 X6.698390 Y34.561516 Z-1.000000 I0.000000 J2.796354
G03 X6.909516 Y34.680826 Z-1.000000 I-0.093700 J0.412262
G02 X7.109255 Y34.846797 Z-1.000000 I0.838233 J-0.805606
G02 X8.303485 Y35.596906 Z-1.000000 I18.829804 J-28.652754
G02 X10.170725 Y36.191852 Z-1.000000 I2.193810 J-3.657635
G02 X11.276978 Y35.825251 Z-1.000000 I0.115490 J-1.503909
G03 X11.861049 Y35.515848 Z-1.000000 I0.954257 J1.095397
G03 X12.327795 Y35.548345 Z-1.000000 I0.185494 J0.703923
G02 X17.008133 Y36.620865 Z-1.000000 I5.437863 J-12.981672
G02 X18.387771 Y35.874981 Z-1.000000 I0.080818 J-1.499393
G03 X18.496844 Y35.806467 Z-1.000000 I0.119665 J0.069426
G03 X18.754091 Y35.846861 Z-1.000000 I0.043283 J0.563681
G02 X19.022774 Y35.876205 Z-1.000000 I0.185490 J-0.453658
G02 X19.273382 Y35.757421 Z-1.000000 I-0.087595 J-0.508562
G03 X19.535671 Y35.598689 Z-1.000000 I0.592283 J0.682620
G03 X20.942704 Y35.102684 Z-1.000000 I7.814307 J19.923394
G02 X22.349505 Y34.606270 Z-1.000000 I-6.350454 J-20.238319
G02 X22.614459 Y34.445796 Z-1.000000 I-0.334454 J-0.851172
G03 X22.807729 Y34.338386 Z-1.000000 I0.351723 J0.405291
G01 X22.853281 Y34.371986 Z-1.000000
G02 X23.109248 Y34.518984 Z-1.000000 I0.170193 J0.000000
G02 X25.632565 Y32.750260 Z-1.000000 I-9.347995 J-16.020421
G02 X28.485470 Y29.950704 Z-1.000000 I-15.724957 J-18.878032
G02 X29.935832 Y27.778052 Z-1.000000 I-7.935006 J-6.867464
G03 X30.634517 Y26.568365 Z-1.000000 I10.428499 J5.216625
G03 X30.962035 Y26.224322 Z-1.000000 I1.124955 J0.743006
G03 X31.358469 Y25.940166 Z-1.000000 I13.098848 J17.855920
G03 X34.125685 Y24.009006 Z-1.000000 I608.019615 J868.301249
G02 X36.724414 Y21.912816 Z-1.000000 I-13.425056 J-19.302535
G02 X38.090132 Y20.317026 Z-1.000000 I-6.341585 J-6.809596
G02 X39.215481 Y18.530761 Z-1.000000 I-26.844912 J-18.159945
G02 X39.284242 Y18.277194 Z-1.000000 I-0.433154 J-0.253567
G03 X39.381383 Y18.099393 Z-1.000000 I0.211289 J-0.000000
G03 X39.714122 Y18.001213 Z-1.000000 I0.334672 J0.521301
G02 X40.119078 Y17.921747 Z-1.000000 I-0.003371 J-1.088727
G02 X40.717176 Y17.595408 Z-1.000000 I-1.113166 J-2.751409
G02 X41.043446 Y17.271729 Z-1.000000 I-0.797529 J-1.130193
G01 X41.003762 Y17.196079 Z-1.000000
G02 X40.737482 Y17.257156 Z-1.000000 I0.011765 J0.662287
G02 X40.346307 Y17.500097 Z-1.000000 I0.790420 J1.709104
G03 X39.765682 Y17.639455 Z-1.000000 I-0.437260 J-0.542569
G03 X39.589270 Y17.340942 Z-1.000000 I0.048344 J-0.229954
G02 X39.685086 Y16.874976 Z-1.000000 I-2.442350 J-0.745051
G02 X39.840968 Y15.051913 Z-1.000000 I-37.554766 J-4.129341
G01 X39.952944 Y13.220923 Z-1.000000
G01 X40.621647 Y12.873282 Z-1.000000
G02 X41.028804 Y12.588325 Z-1.000000 I-0.876001 J-1.685025
G01 X41.003762 Y12.523077 Z-1.000000
G02 X40.730425 Y12.569921 Z-1.000000 I-0.006932 J0.780451
G02 X40.246988 Y12.797913 Z-1.000000 I0.989291 J2.724235
G03 X39.896989 Y12.739204 Z-1.000000 I-0.140093 J-0.237455
G03 X39.244067 Y11.620153 Z-1.000000 I2.797590 J-2.382286
G03 X38.787142 Y10.143687 Z-1.000000 I14.284871 J-5.229702
G03 X38.122062 Y7.213187 Z-1.000000 I55.727836 J-14.188214
G02 X36.616076 Y2.543593 Z-1.000000 I-20.977241 J4.187704
G02 X35.228199 Y0.851532 Z-1.000000 I-3.873726 J1.762123
G02 X34.406936 Y0.426201 Z-1.000000 I-1.857514 J2.581092
G02 X33.604006 Y0.291707 Z-1.000000 I-0.802930 J2.329500
G02 X32.849416 Y0.503537 Z-1.000000 I-0.000000 J1.449930
G02 X31.626650 Y1.496858 Z-1.000000 I3.048704 J5.002184
G01 X31.626650 Y1.496866 Z-1.000000
G00 Z0.000000

(End cutting path id: path13794)


(Start cutting path id: path13794)
(Change tool to Cone cutter)

G00 Z0.000000
G00 X31.626650 Y1.496866

G01 Z-1.000000 F100.0(Penetrate)
G02 X30.649824 Y2.763058 Z-1.000000 I6.045328 J5.673668 F400.000000
G02 X30.495588 Y3.298919 Z-1.000000 I0.853754 J0.535861
G02 X31.504334 Y5.559101 Z-1.000000 I3.036440 J-0.000000
G02 X33.295528 Y5.810854 Z-1.000000 I1.082950 J-1.207117
G02 X33.568010 Y5.252668 Z-1.000000 I-0.219893 J-0.452942
G02 X33.090389 Y4.851126 Z-1.000000 I-0.496893 J0.106210
G03 X32.325464 Y4.462063 Z-1.000000 I0.038832 J-1.022827
G03 X32.063715 Y3.549065 Z-1.000000 I0.984476 J-0.776260
G03 X32.633130 Y2.798093 Z-1.000000 I0.911880 J0.100060
G03 X33.974809 Y2.780019 Z-1.000000 I0.694201 J1.725100
G03 X35.274590 Y4.075323 Z-1.000000 I-0.769656 J2.072105
G03 X36.036262 Y8.271831 Z-1.000000 I-11.179708 J4.196508
G02 X36.172372 Y10.252691 Z-1.000000 I14.482114 J-0.000000
G02 X36.513905 Y11.731112 Z-1.000000 I8.378608 J-1.156897
G03 X36.461540 Y13.582153 Z-1.000000 I-2.600474 J0.852695
G03 X35.316894 Y14.786276 Z-1.000000 I-2.051004 J-0.803581
G03 X30.585026 Y16.763287 Z-1.000000 I-37.300563 J-82.625608
G03 X27.438666 Y17.819088 Z-1.000000 I-13.640281 J-35.432905
G03 X20.349265 Y19.674557 Z-1.000000 I-42.106994 J-146.411585
G03 X18.888834 Y19.838379 Z-1.000000 I-1.408257 J-5.962664
G02 X18.497904 Y19.925714 Z-1.000000 I-0.007847 J0.883486
G02 X18.098955 Y20.218299 Z-1.000000 I0.585221 J1.216251
G03 X17.697352 Y20.537647 Z-1.000000 I-1.291937 J-1.212506
G03 X17.000372 Y20.856811 Z-1.000000 I-1.987349 J-3.419308
G02 X16.275557 Y21.143303 Z-1.000000 I2.886708 J8.363384
G02 X15.391479 Y21.576217 Z-1.000000 I5.761065 J12.884179
G03 X14.498701 Y21.974939 Z-1.000000 I-3.281274 J-6.148227
G03 X13.767489 Y22.168692 Z-1.000000 I-1.429610 J-3.918610
G03 X13.013612 Y22.295501 Z-1.000000 I-40.543588 J-238.725720
G03 X12.406777 Y22.395374 Z-1.000000 I-25.860279 J-155.235928
G02 X11.590376 Y23.487233 Z-1.000000 I0.157515 J0.968925
G02 X12.876572 Y26.117221 Z-1.000000 I4.491164 J-0.566903
G03 X12.858313 Y26.705545 Z-1.000000 I-0.286282 J0.285560
G03 X11.238028 Y27.567747 Z-1.000000 I-2.606058 J-2.943858
G03 X9.469178 Y27.829574 Z-1.000000 I-2.109270 J-8.143886
G03 X8.429317 Y27.681496 Z-1.000000 I-0.117460 J-2.900337
G02 X7.380198 Y27.483941 Z-1.000000 I-1.239725 J3.699115
G02 X5.497104 Y27.538068 Z-1.000000 I-0.593542 J12.134156
G02 X3.626029 Y27.830430 Z-1.000000 I2.066675 J19.359913
G02 X3.047757 Y28.043897 Z-1.000000 I0.417192 J2.020144
G02 X1.736460 Y29.087980 Z-1.000000 I2.407112 J4.368655
G02 X1.454819 Y29.825539 Z-1.000000 I0.824931 J0.737559
G03 X1.392430 Y30.159295 Z-1.000000 I-0.923929 J-0.000000
G03 X1.263761 Y30.318726 Z-1.000000 I-0.313678 J-0.121517
G02 X1.067252 Y30.833687 Z-1.000000 I0.259442 J0.393978
G02 X1.598112 Y31.578801 Z-1.000000 I1.256201 J-0.333323
G03 X2.100337 Y31.960995 Z-1.000000 I-3.016587 J4.485043
G03 X3.109056 Y32.874665 Z-1.000000 I-16.363723 J19.079698
G02 X4.918742 Y34.196602 Z-1.000000 I5.876128 J-6.144550
G02 X6.078631 Y34.491972 Z-1.000000 I1.159888 J-2.129698
G03 X6.698390 Y34.561516 Z-1.000000 I0.000000 J2.796354
G03 X6.909516 Y34.680826 Z-1.000000 I-0.093700 J0.412262
G02 X7.109255 Y34.846797 Z-1.000000 I0.838233 J-0.805606
G02 X8.303485 Y35.596906 Z-1.000000 I18.829804 J-28.652754
G02 X10.170725 Y36.191852 Z-1.000000 I2.193810 J-3.657635
G02 X11.276978 Y35.825251 Z-1.000000 I0.115490 J-1.503909
G03 X11.861049 Y35.515848 Z-1.000000 I0.954257 J1.095397
G03 X12.327795 Y35.548345 Z-1.000000 I0.185494 J0.703923
G02 X17.008133 Y36.620865 Z-1.000000 I5.437863 J-12.981672
G02 X18.387771 Y35.874981 Z-1.000000 I0.080818 J-1.499393
G03 X18.496844 Y35.806467 Z-1.000000 I0.119665 J0.069426
G03 X18.754091 Y35.846861 Z-1.000000 I0.043283 J0.563681
G02 X19.022774 Y35.876205 Z-1.000000 I0.185490 J-0.453658
G02 X19.273382 Y35.757421 Z-1.000000 I-0.087595 J-0.508562
G03 X19.535671 Y35.598689 Z-1.000000 I0.592283 J0.682620
G03 X20.942704 Y35.102684 Z-1.000000 I7.814307 J19.923394
G02 X22.349505 Y34.606270 Z-1.000000 I-6.350454 J-20.238319
G02 X22.614459 Y34.445796 Z-1.000000 I-0.334454 J-0.851172
G03 X22.807729 Y34.338386 Z-1.000000 I0.351723 J0.405291
G01 X22.853281 Y34.371986 Z-1.000000
G02 X23.109248 Y34.518984 Z-1.000000 I0.170193 J0.000000
G02 X25.632565 Y32.750260 Z-1.000000 I-9.347995 J-16.020421
G02 X28.485470 Y29.950704 Z-1.000000 I-15.724957 J-18.878032
G02 X29.935832 Y27.778052 Z-1.000000 I-7.935006 J-6.867464
G03 X30.634517 Y26.568365 Z-1.000000 I10.428499 J5.216625
G03 X30.962035 Y26.224322 Z-1.000000 I1.124955 J0.743006
G03 X31.358469 Y25.940166 Z-1.000000 I13.098848 J17.855920
G03 X34.125685 Y24.009006 Z-1.000000 I608.019615 J868.301249
G02 X36.724414 Y21.912816 Z-1.000000 I-13.425056 J-19.302535
G02 X38.090132 Y20.317026 Z-1.000000 I-6.341585 J-6.809596
G02 X39.215481 Y18.530761 Z-1.000000 I-26.844912 J-18.159945
G02 X39.284242 Y18.277194 Z-1.000000 I-0.433154 J-0.253567
G03 X39.381383 Y18.099393 Z-1.000000 I0.211289 J-0.000000
G03 X39.714122 Y18.001213 Z-1.000000 I0.334672 J0.521301
G02 X40.119078 Y17.921747 Z-1.000000 I-0.003371 J-1.088727
G02 X40.717176 Y17.595408 Z-1.000000 I-1.113166 J-2.751409
G02 X41.043446 Y17.271729 Z-1.000000 I-0.797529 J-1.130193
G01 X41.003762 Y17.196079 Z-1.000000
G02 X40.737482 Y17.257156 Z-1.000000 I0.011765 J0.662287
G02 X40.346307 Y17.500097 Z-1.000000 I0.790420 J1.709104
G03 X39.765682 Y17.639455 Z-1.000000 I-0.437260 J-0.542569
G03 X39.589270 Y17.340942 Z-1.000000 I0.048344 J-0.229954
G02 X39.685086 Y16.874976 Z-1.000000 I-2.442350 J-0.745051
G02 X39.840968 Y15.051913 Z-1.000000 I-37.554766 J-4.129341
G01 X39.952944 Y13.220923 Z-1.000000
G01 X40.621647 Y12.873282 Z-1.000000
G02 X41.028804 Y12.588325 Z-1.000000 I-0.876001 J-1.685025
G01 X41.003762 Y12.523077 Z-1.000000
G02 X40.730425 Y12.569921 Z-1.000000 I-0.006932 J0.780451
G02 X40.246988 Y12.797913 Z-1.000000 I0.989291 J2.724235
G03 X39.896989 Y12.739204 Z-1.000000 I-0.140093 J-0.237455
G03 X39.244067 Y11.620153 Z-1.000000 I2.797590 J-2.382286
G03 X38.787142 Y10.143687 Z-1.000000 I14.284871 J-5.229702
G03 X38.122062 Y7.213187 Z-1.000000 I55.727836 J-14.188214
G02 X36.616076 Y2.543593 Z-1.000000 I-20.977241 J4.187704
G02 X35.228199 Y0.851532 Z-1.000000 I-3.873726 J1.762123
G02 X34.406936 Y0.426201 Z-1.000000 I-1.857514 J2.581092
G02 X33.604006 Y0.291707 Z-1.000000 I-0.802930 J2.329500
G02 X32.849416 Y0.503537 Z-1.000000 I-0.000000 J1.449930
G02 X31.626650 Y1.496858 Z-1.000000 I3.048704 J5.002184
G01 X31.626650 Y1.496866 Z-1.000000
G00 Z0.000000

(End cutting path id: path13794)


(Start cutting path id: path13794)
(Change tool to Cone cutter)

G00 Z0.000000
G00 X32.946226 Y1.804980

G01 Z-1.000000 F100.0(Penetrate)
G03 X32.900920 Y2.194719 Z-1.000000 I-0.871711 J0.096169 F400.000000
G03 X32.795161 Y2.230189 Z-1.000000 I-0.066784 J-0.023724
G03 X32.679230 Y2.052243 Z-1.000000 I0.146168 J-0.221965
G03 X32.697501 Y1.648699 Z-1.000000 I0.948218 J-0.159254
G02 X32.677507 Y1.513992 Z-1.000000 I-0.167444 J-0.043984
G01 X32.614101 Y1.513152 Z-1.000000
G02 X32.490532 Y1.829730 Z-1.000000 I0.696049 J0.454093
G02 X32.508800 Y2.140755 Z-1.000000 I0.688913 J0.115586
G03 X32.465365 Y2.402056 Z-1.000000 I-0.293359 J0.085497
G03 X32.115882 Y2.699343 Z-1.000000 I-0.749904 J-0.527502
G03 X31.714418 Y2.493722 Z-1.000000 I-0.123304 J-0.253985
G03 X31.942358 Y1.701337 Z-1.000000 I0.929460 J-0.161606
G03 X32.590402 Y1.451636 Z-1.000000 I0.569405 J0.511985
G03 X32.946226 Y1.804980 Z-1.000000 I-0.041000 J0.397121
G01 X32.946226 Y1.804980 Z-1.000000
G00 Z0.000000

(End cutting path id: path13794)


(Start cutting path id: path13794)
(Change tool to Cone cutter)

G00 Z0.000000
G00 X32.946226 Y1.804980

G01 Z-1.000000 F100.0(Penetrate)
G03 X32.900920 Y2.194719 Z-1.000000 I-0.871711 J0.096169 F400.000000
G03 X32.795161 Y2.230189 Z-1.000000 I-0.066784 J-0.023724
G03 X32.679230 Y2.052243 Z-1.000000 I0.146168 J-0.221965
G03 X32.697501 Y1.648699 Z-1.000000 I0.948218 J-0.159254
G02 X32.677507 Y1.513992 Z-1.000000 I-0.167444 J-0.043984
G01 X32.614101 Y1.513152 Z-1.000000
G02 X32.490532 Y1.829730 Z-1.000000 I0.696049 J0.454093
G02 X32.508800 Y2.140755 Z-1.000000 I0.688913 J0.115586
G03 X32.465365 Y2.402056 Z-1.000000 I-0.293359 J0.085497
G03 X32.115882 Y2.699343 Z-1.000000 I-0.749904 J-0.527502
G03 X31.714418 Y2.493722 Z-1.000000 I-0.123304 J-0.253985
G03 X31.942358 Y1.701337 Z-1.000000 I0.929460 J-0.161606
G03 X32.590402 Y1.451636 Z-1.000000 I0.569405 J0.511985
G03 X32.946226 Y1.804980 Z-1.000000 I-0.041000 J0.397121
G01 X32.946226 Y1.804980 Z-1.000000
G00 Z0.000000

(End cutting path id: path13794)


(Start cutting path id: path13794)
(Change tool to Cone cutter)

G00 Z0.000000
G00 X34.985445 Y1.150781

G01 Z-1.000000 F100.0(Penetrate)
G03 X36.242587 Y2.335097 Z-1.000000 I-1.761973 J3.129701 F400.000000
G03 X37.070492 Y4.386641 Z-1.000000 I-4.953502 J3.191820
G02 X37.174946 Y4.870056 Z-1.000000 I13.446622 J-2.652501
G02 X37.292978 Y5.333170 Z-1.000000 I12.437399 J-2.923261
G03 X37.260774 Y5.614999 Z-1.000000 I-0.366834 J0.100837
G03 X37.111716 Y5.668302 Z-1.000000 I-0.104217 J-0.056368
G02 X36.862507 Y5.674584 Z-1.000000 I-0.117444 J0.287224
G02 X36.686553 Y5.867679 Z-1.000000 I0.144740 J0.308605
G03 X36.530717 Y6.076825 Z-1.000000 I-0.422467 J-0.152154
G03 X36.398358 Y6.080361 Z-1.000000 I-0.068714 J-0.093112
G03 X36.077021 Y5.440088 Z-1.000000 I0.394195 J-0.598608
G03 X36.466138 Y4.916251 Z-1.000000 I0.593698 J0.034570
G01 X36.467746 Y4.889705 Z-1.000000
G02 X36.389358 Y4.877041 Z-1.000000 I-0.058825 J0.115186
G03 X35.730147 Y4.506507 Z-1.000000 I-0.092805 J-0.606555
G03 X35.502046 Y2.747656 Z-1.000000 I3.115611 J-1.298273
G02 X35.508121 Y2.193484 Z-1.000000 I-2.186182 J-0.301085
G02 X35.430006 Y2.123868 Z-1.000000 I-0.078115 J0.009018
G02 X35.339955 Y2.191782 Z-1.000000 I0.000000 J0.093659
G02 X35.272037 Y2.676425 Z-1.000000 I1.695180 J0.484643
G03 X35.145966 Y2.910429 Z-1.000000 I-0.280207 J0.000000
G03 X34.951566 Y2.887517 Z-1.000000 I-0.083593 J-0.126908
G03 X34.782984 Y2.517512 Z-1.000000 I0.462643 J-0.434196
G03 X34.859146 Y1.978708 Z-1.000000 I1.130585 J-0.114973
G02 X34.862273 Y1.815943 Z-1.000000 I-0.212706 J-0.085498
G01 X34.797506 Y1.806525 Z-1.000000
G02 X34.539500 Y2.212057 Z-1.000000 I2.940109 J2.155388
G02 X34.507815 Y2.335975 Z-1.000000 I0.226478 J0.123918
G03 X34.448341 Y2.388136 Z-1.000000 I-0.052610 J-0.000000
G03 X33.825394 Y2.246165 Z-1.000000 I0.447713 J-3.402182
G03 X33.334382 Y1.902291 Z-1.000000 I0.323045 J-0.983761
G03 X33.217650 Y1.472999 Z-1.000000 I0.448364 J-0.352435
G02 X33.208073 Y1.057829 Z-1.000000 I-1.305720 J-0.177575
G01 X33.135840 Y1.026974 Z-1.000000
G03 X33.033392 Y1.029740 Z-1.000000 I-0.053453 J-0.081169
G03 X32.979353 Y0.935624 Z-1.000000 I0.054937 J-0.094116
G03 X33.329771 Y0.620777 Z-1.000000 I0.316653 J0.000000
G03 X34.985459 Y1.150767 Z-1.000000 I-0.459819 J4.287654
G01 X34.985445 Y1.150781 Z-1.000000
G00 Z0.000000

(End cutting path id: path13794)


(Start cutting path id: path13794)
(Change tool to Cone cutter)

G00 Z0.000000
G00 X34.985445 Y1.150781

G01 Z-1.000000 F100.0(Penetrate)
G03 X36.242587 Y2.335097 Z-1.000000 I-1.761973 J3.129701 F400.000000
G03 X37.070492 Y4.386641 Z-1.000000 I-4.953502 J3.191820
G02 X37.174946 Y4.870056 Z-1.000000 I13.446622 J-2.652501
G02 X37.292978 Y5.333170 Z-1.000000 I12.437399 J-2.923261
G03 X37.260774 Y5.614999 Z-1.000000 I-0.366834 J0.100837
G03 X37.111716 Y5.668302 Z-1.000000 I-0.104217 J-0.056368
G02 X36.862507 Y5.674584 Z-1.000000 I-0.117444 J0.287224
G02 X36.686553 Y5.867679 Z-1.000000 I0.144740 J0.308605
G03 X36.530717 Y6.076825 Z-1.000000 I-0.422467 J-0.152154
G03 X36.398358 Y6.080361 Z-1.000000 I-0.068714 J-0.093112
G03 X36.077021 Y5.440088 Z-1.000000 I0.394195 J-0.598608
G03 X36.466138 Y4.916251 Z-1.000000 I0.593698 J0.034570
G01 X36.467746 Y4.889705 Z-1.000000
G02 X36.389358 Y4.877041 Z-1.000000 I-0.058825 J0.115186
G03 X35.730147 Y4.506507 Z-1.000000 I-0.092805 J-0.606555
G03 X35.502046 Y2.747656 Z-1.000000 I3.115611 J-1.298273
G02 X35.508121 Y2.193484 Z-1.000000 I-2.186182 J-0.301085
G02 X35.430006 Y2.123868 Z-1.000000 I-0.078115 J0.009018
G02 X35.339955 Y2.191782 Z-1.000000 I0.000000 J0.093659
G02 X35.272037 Y2.676425 Z-1.000000 I1.695180 J0.484643
G03 X35.145966 Y2.910429 Z-1.000000 I-0.280207 J0.000000
G03 X34.951566 Y2.887517 Z-1.000000 I-0.083593 J-0.126908
G03 X34.782984 Y2.517512 Z-1.000000 I0.462643 J-0.434196
G03 X34.859146 Y1.978708 Z-1.000000 I1.130585 J-0.114973
G02 X34.862273 Y1.815943 Z-1.000000 I-0.212706 J-0.085498
G01 X34.797506 Y1.806525 Z-1.000000
G02 X34.539500 Y2.212057 Z-1.000000 I2.940109 J2.155388
G02 X34.507815 Y2.335975 Z-1.000000 I0.226478 J0.123918
G03 X34.448341 Y2.388136 Z-1.000000 I-0.052610 J-0.000000
G03 X33.825394 Y2.246165 Z-1.000000 I0.447713 J-3.402182
G03 X33.334382 Y1.902291 Z-1.000000 I0.323045 J-0.983761
G03 X33.217650 Y1.472999 Z-1.000000 I0.448364 J-0.352435
G02 X33.208073 Y1.057829 Z-1.000000 I-1.305720 J-0.177575
G01 X33.135840 Y1.026974 Z-1.000000
G03 X33.033392 Y1.029740 Z-1.000000 I-0.053453 J-0.081169
G03 X32.979353 Y0.935624 Z-1.000000 I0.054937 J-0.094116
G03 X33.329771 Y0.620777 Z-1.000000 I0.316653 J0.000000
G03 X34.985459 Y1.150767 Z-1.000000 I-0.459819 J4.287654
G01 X34.985445 Y1.150781 Z-1.000000
G00 Z0.000000

(End cutting path id: path13794)


(Start cutting path id: path13794)
(Change tool to Cone cutter)

G00 Z0.000000
G00 X31.641935 Y3.675594

G01 Z-1.000000 F100.0(Penetrate)
G03 X31.561908 Y4.283146 Z-1.000000 I-2.346238 J-0.000000 F400.000000
G03 X31.457599 Y4.363174 Z-1.000000 I-0.104309 J-0.027964
G03 X31.026396 Y4.060759 Z-1.000000 I0.000000 J-0.458626
G03 X30.964859 Y3.003023 Z-1.000000 I1.745069 J-0.632182
G03 X31.158155 Y2.726839 Z-1.000000 I0.443081 J0.104370
G03 X31.363220 Y2.741549 Z-1.000000 I0.092907 J0.141546
G03 X31.547735 Y3.030464 Z-1.000000 I-0.413210 J0.467273
G03 X31.641935 Y3.675594 Z-1.000000 I-2.161992 J0.645130
G01 X31.641935 Y3.675594 Z-1.000000
G00 Z0.000000

(End cutting path id: path13794)


(Start cutting path id: path13794)
(Change tool to Cone cutter)

G00 Z0.000000
G00 X31.641935 Y3.675594

G01 Z-1.000000 F100.0(Penetrate)
G03 X31.561908 Y4.283146 Z-1.000000 I-2.346238 J-0.000000 F400.000000
G03 X31.457599 Y4.363174 Z-1.000000 I-0.104309 J-0.027964
G03 X31.026396 Y4.060759 Z-1.000000 I0.000000 J-0.458626
G03 X30.964859 Y3.003023 Z-1.000000 I1.745069 J-0.632182
G03 X31.158155 Y2.726839 Z-1.000000 I0.443081 J0.104370
G03 X31.363220 Y2.741549 Z-1.000000 I0.092907 J0.141546
G03 X31.547735 Y3.030464 Z-1.000000 I-0.413210 J0.467273
G03 X31.641935 Y3.675594 Z-1.000000 I-2.161992 J0.645130
G01 X31.641935 Y3.675594 Z-1.000000
G00 Z0.000000

(End cutting path id: path13794)


(Start cutting path id: path13794)
(Change tool to Cone cutter)

G00 Z0.000000
G00 X32.050439 Y4.897553

G01 Z-1.000000 F100.0(Penetrate)
G02 X32.428913 Y5.140627 Z-1.000000 I0.800412 J-0.830080 F400.000000
G02 X32.891808 Y5.228358 Z-1.000000 I0.462895 J-1.177325
G03 X33.182512 Y5.318228 Z-1.000000 I0.000000 J0.515105
G03 X33.195354 Y5.435875 Z-1.000000 I-0.043974 J0.064325
G03 X32.609968 Y5.572987 Z-1.000000 I-0.395745 J-0.371415
G03 X31.624875 Y4.850203 Z-1.000000 I0.783168 J-2.100084
G03 X31.692407 Y4.729453 Z-1.000000 I0.059229 J-0.046134
G03 X32.050439 Y4.897553 Z-1.000000 I-0.067861 J0.609868
G01 X32.050439 Y4.897553 Z-1.000000
G00 Z0.000000

(End cutting path id: path13794)


(Start cutting path id: path13794)
(Change tool to Cone cutter)

G00 Z0.000000
G00 X32.050439 Y4.897553

G01 Z-1.000000 F100.0(Penetrate)
G02 X32.428913 Y5.140627 Z-1.000000 I0.800412 J-0.830080 F400.000000
G02 X32.891808 Y5.228358 Z-1.000000 I0.462895 J-1.177325
G03 X33.182512 Y5.318228 Z-1.000000 I0.000000 J0.515105
G03 X33.195354 Y5.435875 Z-1.000000 I-0.043974 J0.064325
G03 X32.609968 Y5.572987 Z-1.000000 I-0.395745 J-0.371415
G03 X31.624875 Y4.850203 Z-1.000000 I0.783168 J-2.100084
G03 X31.692407 Y4.729453 Z-1.000000 I0.059229 J-0.046134
G03 X32.050439 Y4.897553 Z-1.000000 I-0.067861 J0.609868
G01 X32.050439 Y4.897553 Z-1.000000
G00 Z0.000000

(End cutting path id: path13794)


(Start cutting path id: path13794)
(Change tool to Cone cutter)

G00 Z0.000000
G00 X37.307169 Y5.943981

G01 Z-1.000000 F100.0(Penetrate)
G03 X37.452756 Y6.139922 Z-1.000000 I-0.208719 J0.307138 F400.000000
G03 X37.667791 Y7.093036 Z-1.000000 I-5.676152 J1.781428
G03 X37.639572 Y7.875626 Z-1.000000 I-2.217841 J0.311833
G03 X37.481624 Y7.958952 Z-1.000000 I-0.113868 J-0.024481
G02 X37.160697 Y7.913953 Z-1.000000 I-0.249009 J0.608993
G02 X36.786653 Y8.035382 Z-1.000000 I0.105900 J0.963017
G03 X36.572904 Y7.979386 Z-1.000000 I-0.078258 J-0.137235
G03 X36.418377 Y7.421170 Z-1.000000 I0.930994 J-0.558216
G03 X36.495161 Y6.617799 Z-1.000000 I4.241128 J0.000000
G03 X36.655393 Y6.192571 Z-1.000000 I1.320311 J0.254710
G03 X36.992441 Y5.907231 Z-1.000000 I0.574243 J0.336572
G03 X37.307169 Y5.943984 Z-1.000000 I0.122119 J0.320189
G01 X37.307169 Y5.943981 Z-1.000000
G00 Z0.000000

(End cutting path id: path13794)


(Start cutting path id: path13794)
(Change tool to Cone cutter)

G00 Z0.000000
G00 X37.307169 Y5.943981

G01 Z-1.000000 F100.0(Penetrate)
G03 X37.452756 Y6.139922 Z-1.000000 I-0.208719 J0.307138 F400.000000
G03 X37.667791 Y7.093036 Z-1.000000 I-5.676152 J1.781428
G03 X37.639572 Y7.875626 Z-1.000000 I-2.217841 J0.311833
G03 X37.481624 Y7.958952 Z-1.000000 I-0.113868 J-0.024481
G02 X37.160697 Y7.913953 Z-1.000000 I-0.249009 J0.608993
G02 X36.786653 Y8.035382 Z-1.000000 I0.105900 J0.963017
G03 X36.572904 Y7.979386 Z-1.000000 I-0.078258 J-0.137235
G03 X36.418377 Y7.421170 Z-1.000000 I0.930994 J-0.558216
G03 X36.495161 Y6.617799 Z-1.000000 I4.241128 J0.000000
G03 X36.655393 Y6.192571 Z-1.000000 I1.320311 J0.254710
G03 X36.992441 Y5.907231 Z-1.000000 I0.574243 J0.336572
G03 X37.307169 Y5.943984 Z-1.000000 I0.122119 J0.320189
G01 X37.307169 Y5.943981 Z-1.000000
G00 Z0.000000

(End cutting path id: path13794)


(Start cutting path id: path13794)
(Change tool to Cone cutter)

G00 Z0.000000
G00 X38.000868 Y8.780503

G01 Z-1.000000 F100.0(Penetrate)
G03 X37.888137 Y9.079210 Z-1.000000 I-0.306432 J0.054979 F400.000000
G03 X37.514570 Y9.166986 Z-1.000000 I-0.279827 J-0.352099
G02 X36.963130 Y9.143857 Z-1.000000 I-0.343889 J1.613706
G02 X36.677612 Y9.273110 Z-1.000000 I0.066928 J0.527821
G03 X36.512668 Y9.293099 Z-1.000000 I-0.096972 J-0.109661
G03 X36.418377 Y9.137201 Z-1.000000 I0.081733 J-0.155898
G03 X37.153312 Y8.218172 Z-1.000000 I0.942086 J-0.000000
G03 X38.000868 Y8.780503 Z-1.000000 I0.154766 J0.686625
G01 X38.000868 Y8.780503 Z-1.000000
G00 Z0.000000

(End cutting path id: path13794)


(Start cutting path id: path13794)
(Change tool to Cone cutter)

G00 Z0.000000
G00 X38.000868 Y8.780503

G01 Z-1.000000 F100.0(Penetrate)
G03 X37.888137 Y9.079210 Z-1.000000 I-0.306432 J0.054979 F400.000000
G03 X37.514570 Y9.166986 Z-1.000000 I-0.279827 J-0.352099
G02 X36.963130 Y9.143857 Z-1.000000 I-0.343889 J1.613706
G02 X36.677612 Y9.273110 Z-1.000000 I0.066928 J0.527821
G03 X36.512668 Y9.293099 Z-1.000000 I-0.096972 J-0.109661
G03 X36.418377 Y9.137201 Z-1.000000 I0.081733 J-0.155898
G03 X37.153312 Y8.218172 Z-1.000000 I0.942086 J-0.000000
G03 X38.000868 Y8.780503 Z-1.000000 I0.154766 J0.686625
G01 X38.000868 Y8.780503 Z-1.000000
G00 Z0.000000

(End cutting path id: path13794)


(Start cutting path id: path13794)
(Change tool to Cone cutter)

G00 Z0.000000
G00 X38.072608 Y9.527172

G01 Z-1.000000 F100.0(Penetrate)
G03 X38.316527 Y9.900387 Z-1.000000 I-0.576523 J0.643109 F400.000000
G03 X39.027121 Y12.428773 Z-1.000000 I-28.467976 J9.364870
G03 X38.952699 Y12.766185 Z-1.000000 I-0.388928 J0.091129
G03 X38.509034 Y13.090385 Z-1.000000 I-0.795463 J-0.622910
G03 X37.671364 Y13.095758 Z-1.000000 I-0.426212 J-1.147471
G03 X37.241188 Y12.637881 Z-1.000000 I0.231436 J-0.648448
G03 X37.244143 Y12.028899 Z-1.000000 I1.039631 J-0.299454
G03 X37.543483 Y11.625433 Z-1.000000 I0.705493 J0.210644
G02 X37.843777 Y11.352650 Z-1.000000 I-0.733724 J-1.109404
G01 X37.814822 Y11.290071 Z-1.000000
G02 X37.618243 Y11.339918 Z-1.000000 I-0.009035 J0.376914
G02 X37.469195 Y11.488227 Z-1.000000 I0.201701 J0.351755
G03 X37.055581 Y11.692897 Z-1.000000 I-0.361086 J-0.209445
G03 X36.800492 Y11.403407 Z-1.000000 I0.036720 J-0.289490
G03 X36.848795 Y11.142460 Z-1.000000 I0.729002 J-0.000000
G03 X36.943786 Y11.029627 Z-1.000000 I0.210246 J0.080598
G01 X36.942070 Y11.003673 Z-1.000000
G02 X36.869316 Y10.997657 Z-1.000000 I-0.045365 J0.105686
G03 X36.345445 Y10.648367 Z-1.000000 I-0.101777 J-0.414854
G03 X36.639177 Y9.516090 Z-1.000000 I1.456881 J-0.226298
G03 X36.905384 Y9.354277 Z-1.000000 I0.346186 J0.269648
G03 X37.451865 Y9.365443 Z-1.000000 I0.246216 J1.328247
G03 X38.037959 Y9.508564 Z-1.000000 I-4.364201 J19.143364
G03 X38.072600 Y9.527173 Z-1.000000 I-0.021020 J0.080677
G01 X38.072608 Y9.527172 Z-1.000000
G00 Z0.000000

(End cutting path id: path13794)


(Start cutting path id: path13794)
(Change tool to Cone cutter)

G00 Z0.000000
G00 X38.072608 Y9.527172

G01 Z-1.000000 F100.0(Penetrate)
G03 X38.316527 Y9.900387 Z-1.000000 I-0.576523 J0.643109 F400.000000
G03 X39.027121 Y12.428773 Z-1.000000 I-28.467976 J9.364870
G03 X38.952699 Y12.766185 Z-1.000000 I-0.388928 J0.091129
G03 X38.509034 Y13.090385 Z-1.000000 I-0.795463 J-0.622910
G03 X37.671364 Y13.095758 Z-1.000000 I-0.426212 J-1.147471
G03 X37.241188 Y12.637881 Z-1.000000 I0.231436 J-0.648448
G03 X37.244143 Y12.028899 Z-1.000000 I1.039631 J-0.299454
G03 X37.543483 Y11.625433 Z-1.000000 I0.705493 J0.210644
G02 X37.843777 Y11.352650 Z-1.000000 I-0.733724 J-1.109404
G01 X37.814822 Y11.290071 Z-1.000000
G02 X37.618243 Y11.339918 Z-1.000000 I-0.009035 J0.376914
G02 X37.469195 Y11.488227 Z-1.000000 I0.201701 J0.351755
G03 X37.055581 Y11.692897 Z-1.000000 I-0.361086 J-0.209445
G03 X36.800492 Y11.403407 Z-1.000000 I0.036720 J-0.289490
G03 X36.848795 Y11.142460 Z-1.000000 I0.729002 J-0.000000
G03 X36.943786 Y11.029627 Z-1.000000 I0.210246 J0.080598
G01 X36.942070 Y11.003673 Z-1.000000
G02 X36.869316 Y10.997657 Z-1.000000 I-0.045365 J0.105686
G03 X36.345445 Y10.648367 Z-1.000000 I-0.101777 J-0.414854
G03 X36.639177 Y9.516090 Z-1.000000 I1.456881 J-0.226298
G03 X36.905384 Y9.354277 Z-1.000000 I0.346186 J0.269648
G03 X37.451865 Y9.365443 Z-1.000000 I0.246216 J1.328247
G03 X38.037959 Y9.508564 Z-1.000000 I-4.364201 J19.143364
G03 X38.072600 Y9.527173 Z-1.000000 I-0.021020 J0.080677
G01 X38.072608 Y9.527172 Z-1.000000
G00 Z0.000000

(End cutting path id: path13794)


(Start cutting path id: path13794)
(Change tool to Cone cutter)

G00 Z0.000000
G00 X39.418936 Y14.216907

G01 Z-1.000000 F100.0(Penetrate)
G03 X39.461517 Y15.347249 Z-1.000000 I-11.017116 J0.981001 F400.000000
G03 X39.391316 Y16.261139 Z-1.000000 I-7.259856 J-0.098032
G03 X39.098708 Y16.939531 Z-1.000000 I-1.384440 J-0.194844
G03 X38.748167 Y17.065286 Z-1.000000 I-0.277427 J-0.221883
G02 X38.241892 Y17.038616 Z-1.000000 I-0.338671 J1.610344
G02 X37.755785 Y17.166902 Z-1.000000 I0.164794 J1.609579
G01 X37.761039 Y17.237666 Z-1.000000
G02 X38.086956 Y17.257052 Z-1.000000 I0.209259 J-0.768726
G03 X38.808110 Y17.283877 Z-1.000000 I0.288564 J1.949388
G03 X39.014016 Y17.465646 Z-1.000000 I-0.062663 J0.278493
G03 X38.937586 Y19.032805 Z-1.000000 I-1.920769 J0.691767
G03 X37.986554 Y19.630390 Z-1.000000 I-0.945144 J-0.448600
G03 X36.960056 Y19.276911 Z-1.000000 I0.009333 J-1.694311
G03 X36.607802 Y18.565386 Z-1.000000 I0.554125 J-0.717288
G03 X36.648785 Y18.316822 Z-1.000000 I0.743131 J-0.005133
G03 X37.022154 Y17.369833 Z-1.000000 I11.499924 J3.986966
G03 X37.592051 Y16.687433 Z-1.000000 I1.478635 J0.655691
G03 X38.313430 Y16.492890 Z-1.000000 I0.641768 J0.944986
G02 X38.709331 Y16.489327 Z-1.000000 I0.175375 J-2.510476
G01 X38.711074 Y16.457910 Z-1.000000
G03 X37.750347 Y15.980360 Z-1.000000 I0.407542 J-2.025050
G03 X37.529524 Y15.413207 Z-1.000000 I0.440331 J-0.498010
G03 X37.901127 Y14.443245 Z-1.000000 I1.996787 J0.208827
G03 X38.591807 Y13.948649 Z-1.000000 I1.087052 J0.788467
G02 X38.825648 Y13.810289 Z-1.000000 I-0.172455 J-0.558251
G01 X38.801350 Y13.745891 Z-1.000000
G02 X38.436415 Y13.800862 Z-1.000000 I-0.044670 J0.942281
G02 X38.003537 Y14.033849 Z-1.000000 I0.568297 J1.574493
G03 X37.678772 Y14.122754 Z-1.000000 I-0.275668 J-0.369372
G03 X37.528510 Y13.982959 Z-1.000000 I0.018241 J-0.170260
G03 X37.624217 Y13.717892 Z-1.000000 I0.276471 J-0.049987
G03 X38.326324 Y13.312437 Z-1.000000 I1.496155 J1.780187
G03 X39.184834 Y13.031650 Z-1.000000 I4.763361 J13.111191
G03 X39.253435 Y13.042106 Z-1.000000 I0.023049 J0.079048
G03 X39.290783 Y13.101377 Z-1.000000 I-0.047275 J0.071192
G03 X39.418940 Y14.216911 Z-1.000000 I-21.746083 J3.063398
G01 X39.418936 Y14.216907 Z-1.000000
G00 Z0.000000

(End cutting path id: path13794)


(Start cutting path id: path13794)
(Change tool to Cone cutter)

G00 Z0.000000
G00 X39.418936 Y14.216907

G01 Z-1.000000 F100.0(Penetrate)
G03 X39.461517 Y15.347249 Z-1.000000 I-11.017116 J0.981001 F400.000000
G03 X39.391316 Y16.261139 Z-1.000000 I-7.259856 J-0.098032
G03 X39.098708 Y16.939531 Z-1.000000 I-1.384440 J-0.194844
G03 X38.748167 Y17.065286 Z-1.000000 I-0.277427 J-0.221883
G02 X38.241892 Y17.038616 Z-1.000000 I-0.338671 J1.610344
G02 X37.755785 Y17.166902 Z-1.000000 I0.164794 J1.609579
G01 X37.761039 Y17.237666 Z-1.000000
G02 X38.086956 Y17.257052 Z-1.000000 I0.209259 J-0.768726
G03 X38.808110 Y17.283877 Z-1.000000 I0.288564 J1.949388
G03 X39.014016 Y17.465646 Z-1.000000 I-0.062663 J0.278493
G03 X38.937586 Y19.032805 Z-1.000000 I-1.920769 J0.691767
G03 X37.986554 Y19.630390 Z-1.000000 I-0.945144 J-0.448600
G03 X36.960056 Y19.276911 Z-1.000000 I0.009333 J-1.694311
G03 X36.607802 Y18.565386 Z-1.000000 I0.554125 J-0.717288
G03 X36.648785 Y18.316822 Z-1.000000 I0.743131 J-0.005133
G03 X37.022154 Y17.369833 Z-1.000000 I11.499924 J3.986966
G03 X37.592051 Y16.687433 Z-1.000000 I1.478635 J0.655691
G03 X38.313430 Y16.492890 Z-1.000000 I0.641768 J0.944986
G02 X38.709331 Y16.489327 Z-1.000000 I0.175375 J-2.510476
G01 X38.711074 Y16.457910 Z-1.000000
G03 X37.750347 Y15.980360 Z-1.000000 I0.407542 J-2.025050
G03 X37.529524 Y15.413207 Z-1.000000 I0.440331 J-0.498010
G03 X37.901127 Y14.443245 Z-1.000000 I1.996787 J0.208827
G03 X38.591807 Y13.948649 Z-1.000000 I1.087052 J0.788467
G02 X38.825648 Y13.810289 Z-1.000000 I-0.172455 J-0.558251
G01 X38.801350 Y13.745891 Z-1.000000
G02 X38.436415 Y13.800862 Z-1.000000 I-0.044670 J0.942281
G02 X38.003537 Y14.033849 Z-1.000000 I0.568297 J1.574493
G03 X37.678772 Y14.122754 Z-1.000000 I-0.275668 J-0.369372
G03 X37.528510 Y13.982959 Z-1.000000 I0.018241 J-0.170260
G03 X37.624217 Y13.717892 Z-1.000000 I0.276471 J-0.049987
G03 X38.326324 Y13.312437 Z-1.000000 I1.496155 J1.780187
G03 X39.184834 Y13.031650 Z-1.000000 I4.763361 J13.111191
G03 X39.253435 Y13.042106 Z-1.000000 I0.023049 J0.079048
G03 X39.290783 Y13.101377 Z-1.000000 I-0.047275 J0.071192
G03 X39.418940 Y14.216911 Z-1.000000 I-21.746083 J3.063398
G01 X39.418936 Y14.216907 Z-1.000000
G00 Z0.000000

(End cutting path id: path13794)


(Start cutting path id: path13794)
(Change tool to Cone cutter)

G00 Z0.000000
G00 X37.062419 Y15.403381

G01 Z-1.000000 F100.0(Penetrate)
G03 X36.926222 Y16.301800 Z-1.000000 I-3.676556 J-0.097817 F400.000000
G03 X36.511970 Y17.359535 Z-1.000000 I-5.532909 J-1.556929
G03 X35.880456 Y18.166752 Z-1.000000 I-2.396214 J-1.224007
G03 X35.456992 Y18.276085 Z-1.000000 I-0.321344 J-0.369877
G02 X34.943774 Y18.253647 Z-1.000000 I-0.323455 J1.517712
G02 X34.574508 Y18.384809 Z-1.000000 I0.110432 J0.896287
G01 X34.580904 Y18.463434 Z-1.000000
G02 X34.818982 Y18.487497 Z-1.000000 I0.158362 J-0.377021
G03 X35.143469 Y18.736358 Z-1.000000 I0.053033 J0.266829
G03 X34.868502 Y19.235639 Z-1.000000 I-0.527390 J0.034909
G03 X34.052367 Y19.552796 Z-1.000000 I-1.647496 J-3.030819
G03 X33.557988 Y19.561062 Z-1.000000 I-0.265108 J-1.067618
G02 X33.055395 Y19.562259 Z-1.000000 I-0.248521 J1.166323
G02 X31.739501 Y19.957623 Z-1.000000 I1.898639 J8.706784
G03 X30.433246 Y20.373561 Z-1.000000 I-4.071183 J-10.526444
G03 X30.167479 Y20.354843 Z-1.000000 I-0.104433 J-0.413301
G02 X30.043089 Y20.368941 Z-1.000000 I-0.049322 J0.120631
G02 X30.024030 Y20.455929 Z-1.000000 I0.037983 J0.053904
G03 X29.984007 Y20.541740 Z-1.000000 I-0.049922 J0.028955
G03 X29.623342 Y20.525689 Z-1.000000 I-0.143905 J-0.826546
G02 X29.244162 Y20.495472 Z-1.000000 I-0.271782 J1.016281
G01 X29.206974 Y20.568419 Z-1.000000
G03 X29.181399 Y20.680360 Z-1.000000 I-0.072841 J0.042250
G03 X28.901119 Y20.775861 Z-1.000000 I-0.314324 J-0.463454
G02 X26.583421 Y21.138214 Z-1.000000 I0.757503 J12.438648
G02 X25.350498 Y21.680000 Z-1.000000 I1.013577 J3.980310
G01 X25.360772 Y21.748327 Z-1.000000
G02 X25.623617 Y21.758600 Z-1.000000 I0.152307 J-0.529240
G03 X25.816460 Y21.800180 Z-1.000000 I0.049164 J0.239962
G03 X25.814675 Y21.896976 Z-1.000000 I-0.034602 J0.047776
G03 X25.404100 Y22.052135 Z-1.000000 I-0.538698 J-0.804678
G03 X24.244034 Y22.106632 Z-1.000000 I-0.897000 J-6.719930
G02 X23.145014 Y22.223967 Z-1.000000 I-0.148248 J3.817102
G02 X22.812909 Y22.474390 Z-1.000000 I0.134661 J0.524010
G03 X22.330622 Y22.748127 Z-1.000000 I-0.477765 J-0.280026
G03 X21.392452 Y22.462790 Z-1.000000 I0.014141 J-1.731486
G03 X19.930444 Y21.110718 Z-1.000000 I3.353863 J-5.093041
G03 X19.605300 Y20.162133 Z-1.000000 I1.221144 J-0.948585
G03 X19.954702 Y19.734175 Z-1.000000 I0.436789 J0.000000
G03 X21.770687 Y19.719975 Z-1.000000 I0.944206 J4.624072
G02 X22.009799 Y19.717670 Z-1.000000 I0.113733 J-0.605186
G01 X22.015242 Y19.669115 Z-1.000000
G03 X22.019262 Y19.541515 Z-1.000000 I0.028747 J-0.062958
G03 X23.639233 Y19.047893 Z-1.000000 I4.351302 J11.375110
G02 X27.776996 Y17.964422 Z-1.000000 I-16.037999 J-69.691695
G02 X30.370417 Y17.068441 Z-1.000000 I-8.302649 J-28.233383
G03 X32.655744 Y16.272619 Z-1.000000 I10.143311 J25.448855
G03 X33.052843 Y16.265290 Z-1.000000 I0.211665 J0.706933
G02 X33.195350 Y16.274505 Z-1.000000 I0.095284 J-0.366996
G01 X33.199850 Y16.246840 Z-1.000000
G03 X33.195194 Y16.123047 Z-1.000000 I0.030287 J-0.063123
G03 X34.817763 Y15.258037 Z-1.000000 I14.004204 J24.314522
G03 X36.573808 Y14.454896 Z-1.000000 I15.186720 J30.884008
G03 X36.896022 Y14.429306 Z-1.000000 I0.199506 J0.470698
G03 X37.000914 Y14.542169 Z-1.000000 I-0.033760 J0.136548
G03 X37.062417 Y15.403376 Z-1.000000 I-4.353726 J0.743723
G01 X37.062419 Y15.403381 Z-1.000000
G00 Z0.000000

(End cutting path id: path13794)


(Start cutting path id: path13794)
(Change tool to Cone cutter)

G00 Z0.000000
G00 X37.062419 Y15.403381

G01 Z-1.000000 F100.0(Penetrate)
G03 X36.926222 Y16.301800 Z-1.000000 I-3.676556 J-0.097817 F400.000000
G03 X36.511970 Y17.359535 Z-1.000000 I-5.532909 J-1.556929
G03 X35.880456 Y18.166752 Z-1.000000 I-2.396214 J-1.224007
G03 X35.456992 Y18.276085 Z-1.000000 I-0.321344 J-0.369877
G02 X34.943774 Y18.253647 Z-1.000000 I-0.323455 J1.517712
G02 X34.574508 Y18.384809 Z-1.000000 I0.110432 J0.896287
G01 X34.580904 Y18.463434 Z-1.000000
G02 X34.818982 Y18.487497 Z-1.000000 I0.158362 J-0.377021
G03 X35.143469 Y18.736358 Z-1.000000 I0.053033 J0.266829
G03 X34.868502 Y19.235639 Z-1.000000 I-0.527390 J0.034909
G03 X34.052367 Y19.552796 Z-1.000000 I-1.647496 J-3.030819
G03 X33.557988 Y19.561062 Z-1.000000 I-0.265108 J-1.067618
G02 X33.055395 Y19.562259 Z-1.000000 I-0.248521 J1.166323
G02 X31.739501 Y19.957623 Z-1.000000 I1.898639 J8.706784
G03 X30.433246 Y20.373561 Z-1.000000 I-4.071183 J-10.526444
G03 X30.167479 Y20.354843 Z-1.000000 I-0.104433 J-0.413301
G02 X30.043089 Y20.368941 Z-1.000000 I-0.049322 J0.120631
G02 X30.024030 Y20.455929 Z-1.000000 I0.037983 J0.053904
G03 X29.984007 Y20.541740 Z-1.000000 I-0.049922 J0.028955
G03 X29.623342 Y20.525689 Z-1.000000 I-0.143905 J-0.826546
G02 X29.244162 Y20.495472 Z-1.000000 I-0.271782 J1.016281
G01 X29.206974 Y20.568419 Z-1.000000
G03 X29.181399 Y20.680360 Z-1.000000 I-0.072841 J0.042250
G03 X28.901119 Y20.775861 Z-1.000000 I-0.314324 J-0.463454
G02 X26.583421 Y21.138214 Z-1.000000 I0.757503 J12.438648
G02 X25.350498 Y21.680000 Z-1.000000 I1.013577 J3.980310
G01 X25.360772 Y21.748327 Z-1.000000
G02 X25.623617 Y21.758600 Z-1.000000 I0.152307 J-0.529240
G03 X25.816460 Y21.800180 Z-1.000000 I0.049164 J0.239962
G03 X25.814675 Y21.896976 Z-1.000000 I-0.034602 J0.047776
G03 X25.404100 Y22.052135 Z-1.000000 I-0.538698 J-0.804678
G03 X24.244034 Y22.106632 Z-1.000000 I-0.897000 J-6.719930
G02 X23.145014 Y22.223967 Z-1.000000 I-0.148248 J3.817102
G02 X22.812909 Y22.474390 Z-1.000000 I0.134661 J0.524010
G03 X22.330622 Y22.748127 Z-1.000000 I-0.477765 J-0.280026
G03 X21.392452 Y22.462790 Z-1.000000 I0.014141 J-1.731486
G03 X19.930444 Y21.110718 Z-1.000000 I3.353863 J-5.093041
G03 X19.605300 Y20.162133 Z-1.000000 I1.221144 J-0.948585
G03 X19.954702 Y19.734175 Z-1.000000 I0.436789 J0.000000
G03 X21.770687 Y19.719975 Z-1.000000 I0.944206 J4.624072
G02 X22.009799 Y19.717670 Z-1.000000 I0.113733 J-0.605186
G01 X22.015242 Y19.669115 Z-1.000000
G03 X22.019262 Y19.541515 Z-1.000000 I0.028747 J-0.062958
G03 X23.639233 Y19.047893 Z-1.000000 I4.351302 J11.375110
G02 X27.776996 Y17.964422 Z-1.000000 I-16.037999 J-69.691695
G02 X30.370417 Y17.068441 Z-1.000000 I-8.302649 J-28.233383
G03 X32.655744 Y16.272619 Z-1.000000 I10.143311 J25.448855
G03 X33.052843 Y16.265290 Z-1.000000 I0.211665 J0.706933
G02 X33.195350 Y16.274505 Z-1.000000 I0.095284 J-0.366996
G01 X33.199850 Y16.246840 Z-1.000000
G03 X33.195194 Y16.123047 Z-1.000000 I0.030287 J-0.063123
G03 X34.817763 Y15.258037 Z-1.000000 I14.004204 J24.314522
G03 X36.573808 Y14.454896 Z-1.000000 I15.186720 J30.884008
G03 X36.896022 Y14.429306 Z-1.000000 I0.199506 J0.470698
G03 X37.000914 Y14.542169 Z-1.000000 I-0.033760 J0.136548
G03 X37.062417 Y15.403376 Z-1.000000 I-4.353726 J0.743723
G01 X37.062419 Y15.403381 Z-1.000000
G00 Z0.000000

(End cutting path id: path13794)


(Start cutting path id: path13794)
(Change tool to Cone cutter)

G00 Z0.000000
G00 X36.382622 Y19.936986

G01 Z-1.000000 F100.0(Penetrate)
G03 X37.311870 Y20.483865 Z-1.000000 I-4.316072 J8.396728 F400.000000
G03 X37.372754 Y20.598599 Z-1.000000 I-0.076117 J0.113913
G03 X36.902816 Y21.814923 Z-1.000000 I-1.837009 J-0.010801
G03 X35.865781 Y22.277594 Z-1.000000 I-1.037035 J-0.930875
G03 X34.728192 Y21.382648 Z-1.000000 I0.000000 J-1.170482
G03 X35.208347 Y19.563288 Z-1.000000 I1.922529 J-0.465657
G03 X35.373286 Y19.520381 Z-1.000000 I0.116492 J0.109330
G03 X36.382622 Y19.936986 Z-1.000000 I-1.988745 J6.249251
G01 X36.382622 Y19.936986 Z-1.000000
G00 Z0.000000

(End cutting path id: path13794)


(Start cutting path id: path13794)
(Change tool to Cone cutter)

G00 Z0.000000
G00 X36.382622 Y19.936986

G01 Z-1.000000 F100.0(Penetrate)
G03 X37.311870 Y20.483865 Z-1.000000 I-4.316072 J8.396728 F400.000000
G03 X37.372754 Y20.598599 Z-1.000000 I-0.076117 J0.113913
G03 X36.902816 Y21.814923 Z-1.000000 I-1.837009 J-0.010801
G03 X35.865781 Y22.277594 Z-1.000000 I-1.037035 J-0.930875
G03 X34.728192 Y21.382648 Z-1.000000 I0.000000 J-1.170482
G03 X35.208347 Y19.563288 Z-1.000000 I1.922529 J-0.465657
G03 X35.373286 Y19.520381 Z-1.000000 I0.116492 J0.109330
G03 X36.382622 Y19.936986 Z-1.000000 I-1.988745 J6.249251
G01 X36.382622 Y19.936986 Z-1.000000
G00 Z0.000000

(End cutting path id: path13794)


(Start cutting path id: path13794)
(Change tool to Cone cutter)

G00 Z0.000000
G00 X37.752338 Y20.089185

G01 Z-1.000000 F100.0(Penetrate)
G03 X37.606890 Y20.208311 Z-1.000000 I-0.119283 J0.002716 F400.000000
G03 X36.601824 Y19.830582 Z-1.000000 I0.853315 J-3.796524
G03 X36.016257 Y19.252770 Z-1.000000 I0.708786 J-1.303918
G03 X36.062901 Y18.869901 Z-1.000000 I0.284525 J-0.159613
G03 X36.289229 Y18.823562 Z-1.000000 I0.145954 J0.136980
G03 X37.014744 Y19.287226 Z-1.000000 I-1.116444 J2.546401
G03 X37.699964 Y19.959220 Z-1.000000 I-6.172303 J6.979138
G03 X37.752338 Y20.089185 Z-1.000000 I-0.146173 J0.134441
G01 X37.752338 Y20.089185 Z-1.000000
G00 Z0.000000

(End cutting path id: path13794)


(Start cutting path id: path13794)
(Change tool to Cone cutter)

G00 Z0.000000
G00 X37.752338 Y20.089185

G01 Z-1.000000 F100.0(Penetrate)
G03 X37.606890 Y20.208311 Z-1.000000 I-0.119283 J0.002716 F400.000000
G03 X36.601824 Y19.830582 Z-1.000000 I0.853315 J-3.796524
G03 X36.016257 Y19.252770 Z-1.000000 I0.708786 J-1.303918
G03 X36.062901 Y18.869901 Z-1.000000 I0.284525 J-0.159613
G03 X36.289229 Y18.823562 Z-1.000000 I0.145954 J0.136980
G03 X37.014744 Y19.287226 Z-1.000000 I-1.116444 J2.546401
G03 X37.699964 Y19.959220 Z-1.000000 I-6.172303 J6.979138
G03 X37.752338 Y20.089185 Z-1.000000 I-0.146173 J0.134441
G01 X37.752338 Y20.089185 Z-1.000000
G00 Z0.000000

(End cutting path id: path13794)


(Start cutting path id: path13794)
(Change tool to Cone cutter)

G00 Z0.000000
G00 X34.963452 Y20.801690

G01 Z-1.000000 F100.0(Penetrate)
G03 X35.065537 Y21.769434 Z-1.000000 I-47.239478 J5.472430 F400.000000
G03 X35.089783 Y22.129314 Z-1.000000 I-6.506715 J0.619133
G02 X35.185997 Y22.333096 Z-1.000000 I0.288048 J-0.011395
G02 X35.331357 Y22.344703 Z-1.000000 I0.080340 J-0.090115
G01 X35.371868 Y22.371492 Z-1.000000
G03 X35.298307 Y22.541416 Z-1.000000 I-0.380830 J-0.063979
G03 X35.005980 Y22.849103 Z-1.000000 I-1.549384 J-1.179328
G03 X34.385390 Y23.313155 Z-1.000000 I-4.190547 J-4.957143
G03 X33.641400 Y23.287961 Z-1.000000 I-0.354207 J-0.537887
G03 X32.892706 Y22.178318 Z-1.000000 I1.260357 J-1.657783
G03 X32.800283 Y20.586670 Z-1.000000 I3.717987 J-1.014402
G03 X33.197739 Y20.164786 Z-1.000000 I0.503618 J0.076294
G03 X33.977890 Y20.344986 Z-1.000000 I0.197172 J0.925248
G03 X34.316733 Y21.040368 Z-1.000000 I-0.544117 J0.695382
G02 X34.542109 Y21.848646 Z-1.000000 I1.562071 J-0.000000
G02 X34.941765 Y22.074021 Z-1.000000 I0.399656 J-0.241665
G01 X34.979016 Y22.018072 Z-1.000000
G02 X34.808024 Y21.754121 Z-1.000000 I-0.815470 J0.340915
G03 X34.589257 Y21.401977 Z-1.000000 I0.769112 J-0.721832
G03 X34.507790 Y20.951843 Z-1.000000 I1.202846 J-0.450134
G02 X34.434525 Y20.508948 Z-1.000000 I-1.375313 J-0.000000
G02 X34.296335 Y20.330219 Z-1.000000 I-0.329739 J0.112162
G03 X34.233967 Y20.190113 Z-1.000000 I0.078195 J-0.118743
G03 X34.344095 Y20.015962 Z-1.000000 I0.253744 J0.038564
G03 X34.659448 Y20.065143 Z-1.000000 I0.131203 J0.194336
G03 X34.963440 Y20.801690 Z-1.000000 I-1.147768 J0.904720
G01 X34.963452 Y20.801690 Z-1.000000
G00 Z0.000000

(End cutting path id: path13794)


(Start cutting path id: path13794)
(Change tool to Cone cutter)

G00 Z0.000000
G00 X34.963452 Y20.801690

G01 Z-1.000000 F100.0(Penetrate)
G03 X35.065537 Y21.769434 Z-1.000000 I-47.239478 J5.472430 F400.000000
G03 X35.089783 Y22.129314 Z-1.000000 I-6.506715 J0.619133
G02 X35.185997 Y22.333096 Z-1.000000 I0.288048 J-0.011395
G02 X35.331357 Y22.344703 Z-1.000000 I0.080340 J-0.090115
G01 X35.371868 Y22.371492 Z-1.000000
G03 X35.298307 Y22.541416 Z-1.000000 I-0.380830 J-0.063979
G03 X35.005980 Y22.849103 Z-1.000000 I-1.549384 J-1.179328
G03 X34.385390 Y23.313155 Z-1.000000 I-4.190547 J-4.957143
G03 X33.641400 Y23.287961 Z-1.000000 I-0.354207 J-0.537887
G03 X32.892706 Y22.178318 Z-1.000000 I1.260357 J-1.657783
G03 X32.800283 Y20.586670 Z-1.000000 I3.717987 J-1.014402
G03 X33.197739 Y20.164786 Z-1.000000 I0.503618 J0.076294
G03 X33.977890 Y20.344986 Z-1.000000 I0.197172 J0.925248
G03 X34.316733 Y21.040368 Z-1.000000 I-0.544117 J0.695382
G02 X34.542109 Y21.848646 Z-1.000000 I1.562071 J-0.000000
G02 X34.941765 Y22.074021 Z-1.000000 I0.399656 J-0.241665
G01 X34.979016 Y22.018072 Z-1.000000
G02 X34.808024 Y21.754121 Z-1.000000 I-0.815470 J0.340915
G03 X34.589257 Y21.401977 Z-1.000000 I0.769112 J-0.721832
G03 X34.507790 Y20.951843 Z-1.000000 I1.202846 J-0.450134
G02 X34.434525 Y20.508948 Z-1.000000 I-1.375313 J-0.000000
G02 X34.296335 Y20.330219 Z-1.000000 I-0.329739 J0.112162
G03 X34.233967 Y20.190113 Z-1.000000 I0.078195 J-0.118743
G03 X34.344095 Y20.015962 Z-1.000000 I0.253744 J0.038564
G03 X34.659448 Y20.065143 Z-1.000000 I0.131203 J0.194336
G03 X34.963440 Y20.801690 Z-1.000000 I-1.147768 J0.904720
G01 X34.963452 Y20.801690 Z-1.000000
G00 Z0.000000

(End cutting path id: path13794)


(Start cutting path id: path13794)
(Change tool to Cone cutter)

G00 Z0.000000
G00 X34.030157 Y19.020427

G01 Z-1.000000 F100.0(Penetrate)
G01 X34.030157 Y19.020427 Z-1.000000 F400.000000
G01 X34.030157 Y19.020427 Z-1.000000
G00 Z0.000000

(End cutting path id: path13794)


(Start cutting path id: path13794)
(Change tool to Cone cutter)

G00 Z0.000000
G00 X34.030157 Y19.020427

G01 Z-1.000000 F100.0(Penetrate)
G01 X34.030157 Y19.020427 Z-1.000000 F400.000000
G01 X34.030157 Y19.020427 Z-1.000000
G00 Z0.000000

(End cutting path id: path13794)


(Start cutting path id: path13794)
(Change tool to Cone cutter)

G00 Z0.000000
G00 X32.360046 Y20.562435

G01 Z-1.000000 F100.0(Penetrate)
G02 X32.117219 Y21.564432 Z-1.000000 I0.761895 J0.715062 F400.000000
G02 X33.252234 Y23.686487 Z-1.000000 I5.474064 J-1.563321
G03 X33.343942 Y23.994810 Z-1.000000 I-0.304037 J0.258233
G03 X33.179654 Y24.259920 Z-1.000000 I-0.372033 J-0.047089
G03 X32.934657 Y24.216944 Z-1.000000 I-0.099926 J-0.150170
G03 X32.588369 Y23.459703 Z-1.000000 I1.625685 J-1.201229
G02 X32.242470 Y22.477466 Z-1.000000 I-4.346420 J0.978587
G02 X31.702629 Y21.652597 Z-1.000000 I-3.585104 J1.757210
G03 X31.300343 Y20.922977 Z-1.000000 I1.604245 J-1.360236
G03 X31.394044 Y20.670724 Z-1.000000 I0.209306 J-0.065781
G03 X32.263509 Y20.369702 Z-1.000000 I1.102576 J1.778472
G03 X32.360049 Y20.562435 Z-1.000000 I0.012795 J0.114136
G01 X32.360046 Y20.562435 Z-1.000000
G00 Z0.000000

(End cutting path id: path13794)


(Start cutting path id: path13794)
(Change tool to Cone cutter)

G00 Z0.000000
G00 X32.360046 Y20.562435

G01 Z-1.000000 F100.0(Penetrate)
G02 X32.117219 Y21.564432 Z-1.000000 I0.761895 J0.715062 F400.000000
G02 X33.252234 Y23.686487 Z-1.000000 I5.474064 J-1.563321
G03 X33.343942 Y23.994810 Z-1.000000 I-0.304037 J0.258233
G03 X33.179654 Y24.259920 Z-1.000000 I-0.372033 J-0.047089
G03 X32.934657 Y24.216944 Z-1.000000 I-0.099926 J-0.150170
G03 X32.588369 Y23.459703 Z-1.000000 I1.625685 J-1.201229
G02 X32.242470 Y22.477466 Z-1.000000 I-4.346420 J0.978587
G02 X31.702629 Y21.652597 Z-1.000000 I-3.585104 J1.757210
G03 X31.300343 Y20.922977 Z-1.000000 I1.604245 J-1.360236
G03 X31.394044 Y20.670724 Z-1.000000 I0.209306 J-0.065781
G03 X32.263509 Y20.369702 Z-1.000000 I1.102576 J1.778472
G03 X32.360049 Y20.562435 Z-1.000000 I0.012795 J0.114136
G01 X32.360046 Y20.562435 Z-1.000000
G00 Z0.000000

(End cutting path id: path13794)


(Start cutting path id: path13794)
(Change tool to Cone cutter)

G00 Z0.000000
G00 X30.495586 Y20.734193

G01 Z-1.000000 F100.0(Penetrate)
G03 X30.233421 Y21.164438 Z-1.000000 I-0.484125 J0.000000 F400.000000
G03 X28.509931 Y21.758574 Z-1.000000 I-2.906007 J-5.632995
G02 X27.795367 Y21.976380 Z-1.000000 I0.645208 J3.397802
G02 X26.748536 Y22.511743 Z-1.000000 I3.368912 J7.878618
G03 X25.621571 Y22.857401 Z-1.000000 I-1.258297 J-2.092506
G03 X25.337029 Y22.587773 Z-1.000000 I-0.014524 J-0.269628
G03 X25.557556 Y22.254416 Z-1.000000 I0.362221 J-0.000000
G03 X28.737202 Y21.142526 Z-1.000000 I10.063400 J23.675750
G02 X30.399703 Y20.679572 Z-1.000000 I-327.599588 J-1179.648725
G02 X30.447823 Y20.664871 Z-1.000000 I-0.279641 J-1.001478
G01 X30.477062 Y20.674683 Z-1.000000
G03 X30.495583 Y20.734191 Z-1.000000 I-0.086342 J0.059508
G01 X30.495586 Y20.734193 Z-1.000000
G00 Z0.000000

(End cutting path id: path13794)


(Start cutting path id: path13794)
(Change tool to Cone cutter)

G00 Z0.000000
G00 X30.495586 Y20.734193

G01 Z-1.000000 F100.0(Penetrate)
G03 X30.233421 Y21.164438 Z-1.000000 I-0.484125 J0.000000 F400.000000
G03 X28.509931 Y21.758574 Z-1.000000 I-2.906007 J-5.632995
G02 X27.795367 Y21.976380 Z-1.000000 I0.645208 J3.397802
G02 X26.748536 Y22.511743 Z-1.000000 I3.368912 J7.878618
G03 X25.621571 Y22.857401 Z-1.000000 I-1.258297 J-2.092506
G03 X25.337029 Y22.587773 Z-1.000000 I-0.014524 J-0.269628
G03 X25.557556 Y22.254416 Z-1.000000 I0.362221 J-0.000000
G03 X28.737202 Y21.142526 Z-1.000000 I10.063400 J23.675750
G02 X30.399703 Y20.679572 Z-1.000000 I-327.599588 J-1179.648725
G02 X30.447823 Y20.664871 Z-1.000000 I-0.279641 J-1.001478
G01 X30.477062 Y20.674683 Z-1.000000
G03 X30.495583 Y20.734191 Z-1.000000 I-0.086342 J0.059508
G01 X30.495586 Y20.734193 Z-1.000000
G00 Z0.000000

(End cutting path id: path13794)


(Start cutting path id: path13794)
(Change tool to Cone cutter)

G00 Z0.000000
G00 X24.947298 Y22.776746

G01 Z-1.000000 F100.0(Penetrate)
G03 X25.024610 Y23.436743 Z-1.000000 I-0.505503 J0.393742 F400.000000
G03 X24.393007 Y23.990052 Z-1.000000 I-0.930599 J-0.425138
G03 X23.807786 Y24.058258 Z-1.000000 I-0.479438 J-1.568912
G03 X23.660794 Y23.942742 Z-1.000000 I0.010651 J-0.164833
G02 X23.552075 Y23.713617 Z-1.000000 I-0.868255 J0.271627
G02 X23.295310 Y23.388376 Z-1.000000 I-2.027822 J1.336915
G03 X23.107285 Y23.060720 Z-1.000000 I0.597160 J-0.560455
G03 X23.115315 Y22.781293 Z-1.000000 I0.429944 J-0.127474
G03 X23.867941 Y22.250994 Z-1.000000 I0.754629 J0.271774
G03 X24.947298 Y22.776793 Z-1.000000 I0.003405 J1.363758
G01 X24.947298 Y22.776746 Z-1.000000
G00 Z0.000000

(End cutting path id: path13794)


(Start cutting path id: path13794)
(Change tool to Cone cutter)

G00 Z0.000000
G00 X24.947298 Y22.776746

G01 Z-1.000000 F100.0(Penetrate)
G03 X25.024610 Y23.436743 Z-1.000000 I-0.505503 J0.393742 F400.000000
G03 X24.393007 Y23.990052 Z-1.000000 I-0.930599 J-0.425138
G03 X23.807786 Y24.058258 Z-1.000000 I-0.479438 J-1.568912
G03 X23.660794 Y23.942742 Z-1.000000 I0.010651 J-0.164833
G02 X23.552075 Y23.713617 Z-1.000000 I-0.868255 J0.271627
G02 X23.295310 Y23.388376 Z-1.000000 I-2.027822 J1.336915
G03 X23.107285 Y23.060720 Z-1.000000 I0.597160 J-0.560455
G03 X23.115315 Y22.781293 Z-1.000000 I0.429944 J-0.127474
G03 X23.867941 Y22.250994 Z-1.000000 I0.754629 J0.271774
G03 X24.947298 Y22.776793 Z-1.000000 I0.003405 J1.363758
G01 X24.947298 Y22.776746 Z-1.000000
G00 Z0.000000

(End cutting path id: path13794)


(Start cutting path id: path13794)
(Change tool to Cone cutter)

G00 Z0.000000
G00 X22.765609 Y23.309000

G01 Z-1.000000 F100.0(Penetrate)
G03 X22.702686 Y23.472453 Z-1.000000 I-0.097242 J0.056404 F400.000000
G03 X22.474998 Y23.402170 Z-1.000000 I-0.063526 J-0.198152
G03 X22.375227 Y23.161234 Z-1.000000 I0.386849 J-0.301319
G03 X22.436498 Y23.091890 Z-1.000000 I0.061271 J-0.007603
G03 X22.609723 Y23.143881 Z-1.000000 I-0.000000 J0.314575
G03 X22.765610 Y23.309007 Z-1.000000 I-0.273070 J0.413937
G01 X22.765609 Y23.309000 Z-1.000000
G00 Z0.000000

(End cutting path id: path13794)


(Start cutting path id: path13794)
(Change tool to Cone cutter)

G00 Z0.000000
G00 X22.765609 Y23.309000

G01 Z-1.000000 F100.0(Penetrate)
G03 X22.702686 Y23.472453 Z-1.000000 I-0.097242 J0.056404 F400.000000
G03 X22.474998 Y23.402170 Z-1.000000 I-0.063526 J-0.198152
G03 X22.375227 Y23.161234 Z-1.000000 I0.386849 J-0.301319
G03 X22.436498 Y23.091890 Z-1.000000 I0.061271 J-0.007603
G03 X22.609723 Y23.143881 Z-1.000000 I-0.000000 J0.314575
G03 X22.765610 Y23.309007 Z-1.000000 I-0.273070 J0.413937
G01 X22.765609 Y23.309000 Z-1.000000
G00 Z0.000000

(End cutting path id: path13794)


(Start cutting path id: path13794)
(Change tool to Cone cutter)

G00 Z0.000000
G00 X21.100693 Y26.126313

G01 Z-1.000000 F100.0(Penetrate)
G03 X22.291250 Y27.780494 Z-1.000000 I-8.737381 J7.544046 F400.000000
G03 X22.471165 Y28.436376 Z-1.000000 I-1.105553 J0.655882
G02 X22.567284 Y28.891611 Z-1.000000 I1.126091 J0.000000
G02 X22.853281 Y29.300916 Z-1.000000 I1.186254 J-0.524310
G03 X23.176515 Y29.694396 Z-1.000000 I-1.528466 J1.585100
G03 X23.235396 Y29.894699 Z-1.000000 I-0.311257 J0.200303
G03 X23.138378 Y30.049475 Z-1.000000 I-0.171968 J-0.000000
G03 X21.829204 Y30.575654 Z-1.000000 I-4.471786 J-9.234393
G03 X20.463508 Y30.831871 Z-1.000000 I-1.679093 J-5.182105
G03 X20.351096 Y30.660834 Z-1.000000 I-0.006800 J-0.117991
G03 X20.610287 Y30.376056 Z-1.000000 I0.638286 J0.320597
G03 X21.360870 Y30.028496 Z-1.000000 I1.749211 J2.793306
G02 X22.310073 Y29.630872 Z-1.000000 I-1.756961 J-5.525973
G01 X22.280107 Y29.543426 Z-1.000000
G02 X21.622440 Y29.698384 Z-1.000000 I1.037263 J5.875398
G02 X21.012499 Y29.919029 Z-1.000000 I1.561184 J5.269044
G03 X20.503998 Y29.950434 Z-1.000000 I-0.298018 J-0.692970
G03 X20.202852 Y29.683769 Z-1.000000 I0.131207 J-0.451547
G02 X19.919632 Y29.264832 Z-1.000000 I-1.228533 J0.525339
G02 X19.519202 Y28.999367 Z-1.000000 I-0.853255 J0.852320
G03 X19.115887 Y28.726887 Z-1.000000 I0.439850 J-1.085774
G03 X18.587549 Y28.033495 Z-1.000000 I2.704610 J-2.608793
G02 X18.094505 Y27.287560 Z-1.000000 I-7.822334 J4.634446
G02 X17.816237 Y26.982797 Z-1.000000 I-1.561244 J1.146098
G03 X17.716981 Y26.582910 Z-1.000000 I0.240485 J-0.271952
G03 X18.054865 Y26.349099 Z-1.000000 I0.337884 J0.127235
G03 X18.533360 Y26.479160 Z-1.000000 I0.000000 J0.945221
G03 X18.917419 Y26.855413 Z-1.000000 I-0.562559 J0.958371
G02 X19.896854 Y27.887662 Z-1.000000 I2.937432 J-1.806357
G02 X20.839563 Y28.181255 Z-1.000000 I0.942709 J-1.366692
G02 X20.990420 Y27.961561 Z-1.000000 I0.000000 J-0.161641
G02 X20.369531 Y26.959818 Z-1.000000 I-2.950300 J1.135334
G03 X19.838574 Y26.069275 Z-1.000000 I1.878962 J-1.723824
G03 X19.923730 Y25.670523 Z-1.000000 I0.372713 J-0.128874
G03 X20.324649 Y25.579261 Z-1.000000 I0.268128 J0.251643
G03 X21.100693 Y26.126305 Z-1.000000 I-0.708076 J1.828461
G01 X21.100693 Y26.126313 Z-1.000000
G00 Z0.000000

(End cutting path id: path13794)


(Start cutting path id: path13794)
(Change tool to Cone cutter)

G00 Z0.000000
G00 X21.100693 Y26.126313

G01 Z-1.000000 F100.0(Penetrate)
G03 X22.291250 Y27.780494 Z-1.000000 I-8.737381 J7.544046 F400.000000
G03 X22.471165 Y28.436376 Z-1.000000 I-1.105553 J0.655882
G02 X22.567284 Y28.891611 Z-1.000000 I1.126091 J0.000000
G02 X22.853281 Y29.300916 Z-1.000000 I1.186254 J-0.524310
G03 X23.176515 Y29.694396 Z-1.000000 I-1.528466 J1.585100
G03 X23.235396 Y29.894699 Z-1.000000 I-0.311257 J0.200303
G03 X23.138378 Y30.049475 Z-1.000000 I-0.171968 J-0.000000
G03 X21.829204 Y30.575654 Z-1.000000 I-4.471786 J-9.234393
G03 X20.463508 Y30.831871 Z-1.000000 I-1.679093 J-5.182105
G03 X20.351096 Y30.660834 Z-1.000000 I-0.006800 J-0.117991
G03 X20.610287 Y30.376056 Z-1.000000 I0.638286 J0.320597
G03 X21.360870 Y30.028496 Z-1.000000 I1.749211 J2.793306
G02 X22.310073 Y29.630872 Z-1.000000 I-1.756961 J-5.525973
G01 X22.280107 Y29.543426 Z-1.000000
G02 X21.622440 Y29.698384 Z-1.000000 I1.037263 J5.875398
G02 X21.012499 Y29.919029 Z-1.000000 I1.561184 J5.269044
G03 X20.503998 Y29.950434 Z-1.000000 I-0.298018 J-0.692970
G03 X20.202852 Y29.683769 Z-1.000000 I0.131207 J-0.451547
G02 X19.919632 Y29.264832 Z-1.000000 I-1.228533 J0.525339
G02 X19.519202 Y28.999367 Z-1.000000 I-0.853255 J0.852320
G03 X19.115887 Y28.726887 Z-1.000000 I0.439850 J-1.085774
G03 X18.587549 Y28.033495 Z-1.000000 I2.704610 J-2.608793
G02 X18.094505 Y27.287560 Z-1.000000 I-7.822334 J4.634446
G02 X17.816237 Y26.982797 Z-1.000000 I-1.561244 J1.146098
G03 X17.716981 Y26.582910 Z-1.000000 I0.240485 J-0.271952
G03 X18.054865 Y26.349099 Z-1.000000 I0.337884 J0.127235
G03 X18.533360 Y26.479160 Z-1.000000 I0.000000 J0.945221
G03 X18.917419 Y26.855413 Z-1.000000 I-0.562559 J0.958371
G02 X19.896854 Y27.887662 Z-1.000000 I2.937432 J-1.806357
G02 X20.839563 Y28.181255 Z-1.000000 I0.942709 J-1.366692
G02 X20.990420 Y27.961561 Z-1.000000 I0.000000 J-0.161641
G02 X20.369531 Y26.959818 Z-1.000000 I-2.950300 J1.135334
G03 X19.838574 Y26.069275 Z-1.000000 I1.878962 J-1.723824
G03 X19.923730 Y25.670523 Z-1.000000 I0.372713 J-0.128874
G03 X20.324649 Y25.579261 Z-1.000000 I0.268128 J0.251643
G03 X21.100693 Y26.126305 Z-1.000000 I-0.708076 J1.828461
G01 X21.100693 Y26.126313 Z-1.000000
G00 Z0.000000

(End cutting path id: path13794)


(Start cutting path id: path13794)
(Change tool to Cone cutter)

G00 Z0.000000
G00 X19.605300 Y26.209233

G01 Z-1.000000 F100.0(Penetrate)
G02 X19.677724 Y26.446941 Z-1.000000 I0.426312 J0.000000 F400.000000
G02 X20.176480 Y27.059577 Z-1.000000 I3.576559 J-2.402390
G03 X20.677047 Y27.643404 Z-1.000000 I-4.144246 J4.059743
G03 X20.672638 Y27.722583 Z-1.000000 I-0.049392 J0.036962
G03 X20.587787 Y27.741459 Z-1.000000 I-0.056272 J-0.052803
G03 X19.839414 Y27.390375 Z-1.000000 I2.584912 J-6.483178
G03 X19.114047 Y26.465840 Z-1.000000 I0.707833 J-1.302168
G03 X19.462006 Y25.958032 Z-1.000000 I0.393291 J-0.103628
G03 X19.550634 Y26.003114 Z-1.000000 I0.010041 J0.089921
G03 X19.605300 Y26.209233 Z-1.000000 I-0.361258 J0.206119
G01 X19.605300 Y26.209233 Z-1.000000
G00 Z0.000000

(End cutting path id: path13794)


(Start cutting path id: path13794)
(Change tool to Cone cutter)

G00 Z0.000000
G00 X19.605300 Y26.209233

G01 Z-1.000000 F100.0(Penetrate)
G02 X19.677724 Y26.446941 Z-1.000000 I0.426312 J0.000000 F400.000000
G02 X20.176480 Y27.059577 Z-1.000000 I3.576559 J-2.402390
G03 X20.677047 Y27.643404 Z-1.000000 I-4.144246 J4.059743
G03 X20.672638 Y27.722583 Z-1.000000 I-0.049392 J0.036962
G03 X20.587787 Y27.741459 Z-1.000000 I-0.056272 J-0.052803
G03 X19.839414 Y27.390375 Z-1.000000 I2.584912 J-6.483178
G03 X19.114047 Y26.465840 Z-1.000000 I0.707833 J-1.302168
G03 X19.462006 Y25.958032 Z-1.000000 I0.393291 J-0.103628
G03 X19.550634 Y26.003114 Z-1.000000 I0.010041 J0.089921
G03 X19.605300 Y26.209233 Z-1.000000 I-0.361258 J0.206119
G01 X19.605300 Y26.209233 Z-1.000000
G00 Z0.000000

(End cutting path id: path13794)


(Start cutting path id: path13794)
(Change tool to Cone cutter)

G00 Z0.000000
G00 X18.748641 Y24.318723

G01 Z-1.000000 F100.0(Penetrate)
G02 X18.915578 Y24.441189 Z-1.000000 I0.223489 J-0.129633 F400.000000
G02 X19.483624 Y24.483596 Z-1.000000 I0.428065 J-1.908238
G03 X20.355177 Y24.626996 Z-1.000000 I0.135913 J1.894202
G03 X20.560588 Y24.936111 Z-1.000000 I-0.129882 J0.309115
G03 X20.493092 Y25.060173 Z-1.000000 I-0.147764 J0.000000
G03 X20.264514 Y25.127670 Z-1.000000 I-0.228578 J-0.353289
G02 X19.981179 Y25.177184 Z-1.000000 I0.000000 J0.835424
G02 X19.408047 Y25.436442 Z-1.000000 I1.355188 J3.758993
G03 X18.826514 Y25.682335 Z-1.000000 I-1.473596 J-2.674419
G03 X17.984603 Y25.871258 Z-1.000000 I-1.665985 J-5.453868
G03 X17.314420 Y25.774219 Z-1.000000 I-0.171794 J-1.176309
G03 X17.121550 Y25.472714 Z-1.000000 I0.139230 J-0.301505
G02 X17.041432 Y24.991294 Z-1.000000 I-1.486453 J-0.000000
G02 X16.889709 Y24.795454 Z-1.000000 I-0.362372 J0.124048
G03 X16.868823 Y24.659248 Z-1.000000 I0.051057 J-0.077534
G03 X17.224060 Y24.385475 Z-1.000000 I0.762101 J0.621515
G03 X18.369242 Y24.111106 Z-1.000000 I1.280570 J2.817834
G03 X18.748641 Y24.318725 Z-1.000000 I0.018262 J0.417092
G01 X18.748641 Y24.318723 Z-1.000000
G00 Z0.000000

(End cutting path id: path13794)


(Start cutting path id: path13794)
(Change tool to Cone cutter)

G00 Z0.000000
G00 X18.748641 Y24.318723

G01 Z-1.000000 F100.0(Penetrate)
G02 X18.915578 Y24.441189 Z-1.000000 I0.223489 J-0.129633 F400.000000
G02 X19.483624 Y24.483596 Z-1.000000 I0.428065 J-1.908238
G03 X20.355177 Y24.626996 Z-1.000000 I0.135913 J1.894202
G03 X20.560588 Y24.936111 Z-1.000000 I-0.129882 J0.309115
G03 X20.493092 Y25.060173 Z-1.000000 I-0.147764 J0.000000
G03 X20.264514 Y25.127670 Z-1.000000 I-0.228578 J-0.353289
G02 X19.981179 Y25.177184 Z-1.000000 I0.000000 J0.835424
G02 X19.408047 Y25.436442 Z-1.000000 I1.355188 J3.758993
G03 X18.826514 Y25.682335 Z-1.000000 I-1.473596 J-2.674419
G03 X17.984603 Y25.871258 Z-1.000000 I-1.665985 J-5.453868
G03 X17.314420 Y25.774219 Z-1.000000 I-0.171794 J-1.176309
G03 X17.121550 Y25.472714 Z-1.000000 I0.139230 J-0.301505
G02 X17.041432 Y24.991294 Z-1.000000 I-1.486453 J-0.000000
G02 X16.889709 Y24.795454 Z-1.000000 I-0.362372 J0.124048
G03 X16.868823 Y24.659248 Z-1.000000 I0.051057 J-0.077534
G03 X17.224060 Y24.385475 Z-1.000000 I0.762101 J0.621515
G03 X18.369242 Y24.111106 Z-1.000000 I1.280570 J2.817834
G03 X18.748641 Y24.318725 Z-1.000000 I0.018262 J0.417092
G01 X18.748641 Y24.318723 Z-1.000000
G00 Z0.000000

(End cutting path id: path13794)


(Start cutting path id: path13794)
(Change tool to Cone cutter)

G00 Z0.000000
G00 X17.885781 Y21.540162

G01 Z-1.000000 F100.0(Penetrate)
G02 X17.981725 Y22.184508 Z-1.000000 I2.211647 J0.000000 F400.000000
G02 X18.172368 Y22.481167 Z-1.000000 I0.619931 J-0.188802
G03 X18.566643 Y23.328805 Z-1.000000 I-0.774394 J0.875723
G03 X18.201718 Y23.702605 Z-1.000000 I-0.364925 J0.008770
G02 X17.955680 Y23.747510 Z-1.000000 I-0.000000 J0.696483
G02 X17.313505 Y24.037999 Z-1.000000 I1.953941 J5.174579
G03 X16.689255 Y24.236907 Z-1.000000 I-0.858361 J-1.614847
G03 X16.362887 Y24.160701 Z-1.000000 I-0.061261 J-0.474611
G02 X16.037362 Y23.957664 Z-1.000000 I-3.608037 J5.422234
G02 X15.051446 Y23.395438 Z-1.000000 I-28.723054 J49.222959
G02 X13.963623 Y23.329879 Z-1.000000 I-0.612099 J1.098649
G02 X13.491451 Y24.032891 Z-1.000000 I0.287268 J0.703012
G03 X13.335557 Y24.564576 Z-1.000000 I-0.984620 J0.000000
G03 X13.050323 Y24.720469 Z-1.000000 I-0.285234 J-0.182998
G03 X12.203464 Y24.388670 Z-1.000000 I0.000000 J-1.246630
G03 X11.858583 Y23.617274 Z-1.000000 I0.730908 J-0.789573
G03 X12.034621 Y23.400282 Z-1.000000 I0.217232 J-0.003670
G03 X12.318065 Y23.528544 Z-1.000000 I0.051070 J0.264461
G03 X12.352638 Y23.773244 Z-1.000000 I-0.280541 J0.164429
G03 X12.241465 Y23.829244 Z-1.000000 I-0.079949 J-0.020366
G02 X12.138885 Y23.867582 Z-1.000000 I-0.030539 J0.074691
G02 X12.152365 Y24.005813 Z-1.000000 I0.115877 J0.058473
G02 X12.410751 Y24.157127 Z-1.000000 I0.319011 J-0.248480
G02 X12.661854 Y24.083073 Z-1.000000 I0.046343 J-0.305609
G02 X12.758536 Y23.832724 Z-1.000000 I-0.193166 J-0.218442
G02 X12.588744 Y23.418951 Z-1.000000 I-0.805028 J0.088621
G02 X12.237035 Y23.002728 Z-1.000000 I-6.591198 J5.212867
G02 X12.088787 Y22.864779 Z-1.000000 I-0.861712 J0.777412
G03 X12.137149 Y22.651908 Z-1.000000 I0.074115 J-0.095091
G03 X15.054027 Y22.216429 Z-1.000000 I4.700432 J21.497432
G02 X15.289298 Y22.124006 Z-1.000000 I-0.035467 J-0.435948
G02 X15.340614 Y21.990558 Z-1.000000 I-0.086611 J-0.109896
G03 X15.634481 Y21.428379 Z-1.000000 I0.516079 J-0.088126
G03 X17.742482 Y20.864685 Z-1.000000 I2.629309 J5.609205
G03 X17.821032 Y20.923058 Z-1.000000 I0.006174 J0.073728
G03 X17.885775 Y21.540162 Z-1.000000 I-2.908612 J0.617104
G01 X17.885781 Y21.540162 Z-1.000000
G00 Z0.000000

(End cutting path id: path13794)


(Start cutting path id: path13794)
(Change tool to Cone cutter)

G00 Z0.000000
G00 X17.885781 Y21.540162

G01 Z-1.000000 F100.0(Penetrate)
G02 X17.981725 Y22.184508 Z-1.000000 I2.211647 J0.000000 F400.000000
G02 X18.172368 Y22.481167 Z-1.000000 I0.619931 J-0.188802
G03 X18.566643 Y23.328805 Z-1.000000 I-0.774394 J0.875723
G03 X18.201718 Y23.702605 Z-1.000000 I-0.364925 J0.008770
G02 X17.955680 Y23.747510 Z-1.000000 I-0.000000 J0.696483
G02 X17.313505 Y24.037999 Z-1.000000 I1.953941 J5.174579
G03 X16.689255 Y24.236907 Z-1.000000 I-0.858361 J-1.614847
G03 X16.362887 Y24.160701 Z-1.000000 I-0.061261 J-0.474611
G02 X16.037362 Y23.957664 Z-1.000000 I-3.608037 J5.422234
G02 X15.051446 Y23.395438 Z-1.000000 I-28.723054 J49.222959
G02 X13.963623 Y23.329879 Z-1.000000 I-0.612099 J1.098649
G02 X13.491451 Y24.032891 Z-1.000000 I0.287268 J0.703012
G03 X13.335557 Y24.564576 Z-1.000000 I-0.984620 J0.000000
G03 X13.050323 Y24.720469 Z-1.000000 I-0.285234 J-0.182998
G03 X12.203464 Y24.388670 Z-1.000000 I0.000000 J-1.246630
G03 X11.858583 Y23.617274 Z-1.000000 I0.730908 J-0.789573
G03 X12.034621 Y23.400282 Z-1.000000 I0.217232 J-0.003670
G03 X12.318065 Y23.528544 Z-1.000000 I0.051070 J0.264461
G03 X12.352638 Y23.773244 Z-1.000000 I-0.280541 J0.164429
G03 X12.241465 Y23.829244 Z-1.000000 I-0.079949 J-0.020366
G02 X12.138885 Y23.867582 Z-1.000000 I-0.030539 J0.074691
G02 X12.152365 Y24.005813 Z-1.000000 I0.115877 J0.058473
G02 X12.410751 Y24.157127 Z-1.000000 I0.319011 J-0.248480
G02 X12.661854 Y24.083073 Z-1.000000 I0.046343 J-0.305609
G02 X12.758536 Y23.832724 Z-1.000000 I-0.193166 J-0.218442
G02 X12.588744 Y23.418951 Z-1.000000 I-0.805028 J0.088621
G02 X12.237035 Y23.002728 Z-1.000000 I-6.591198 J5.212867
G02 X12.088787 Y22.864779 Z-1.000000 I-0.861712 J0.777412
G03 X12.137149 Y22.651908 Z-1.000000 I0.074115 J-0.095091
G03 X15.054027 Y22.216429 Z-1.000000 I4.700432 J21.497432
G02 X15.289298 Y22.124006 Z-1.000000 I-0.035467 J-0.435948
G02 X15.340614 Y21.990558 Z-1.000000 I-0.086611 J-0.109896
G03 X15.634481 Y21.428379 Z-1.000000 I0.516079 J-0.088126
G03 X17.742482 Y20.864685 Z-1.000000 I2.629309 J5.609205
G03 X17.821032 Y20.923058 Z-1.000000 I0.006174 J0.073728
G03 X17.885775 Y21.540162 Z-1.000000 I-2.908612 J0.617104
G01 X17.885781 Y21.540162 Z-1.000000
G00 Z0.000000

(End cutting path id: path13794)


(Start cutting path id: path13794)
(Change tool to Cone cutter)

G00 Z0.000000
G00 X19.357061 Y20.699903

G01 Z-1.000000 F100.0(Penetrate)
G03 X19.719001 Y21.177295 Z-1.000000 I-3.888623 J3.324104 F400.000000
G03 X19.969291 Y21.614052 Z-1.000000 I-3.001136 J2.009938
G02 X20.261018 Y22.013190 Z-1.000000 I1.239340 J-0.599644
G02 X21.760449 Y23.313446 Z-1.000000 I15.271577 J-16.096215
G02 X23.389272 Y24.328026 Z-1.000000 I5.302414 J-6.697825
G02 X24.095154 Y24.425518 Z-1.000000 I0.506553 J-1.063467
G03 X24.860409 Y24.301022 Z-1.000000 I7.481536 J43.573391
G03 X25.528087 Y24.205273 Z-1.000000 I5.087717 J33.102020
G02 X26.190130 Y24.087241 Z-1.000000 I-1.007512 J-7.566852
G02 X26.769961 Y23.926920 Z-1.000000 I-1.335944 J-5.960393
G02 X26.959283 Y23.791131 Z-1.000000 I-0.122374 J-0.370494
G01 X26.925693 Y23.720103 Z-1.000000
G02 X26.516977 Y23.753011 Z-1.000000 I-0.070304 J1.681404
G02 X25.991671 Y23.911874 Z-1.000000 I0.605857 J2.951294
G03 X25.488605 Y24.059586 Z-1.000000 I-0.992859 J-2.450890
G03 X25.385854 Y24.026059 Z-1.000000 I-0.020814 J-0.110428
G01 X25.400362 Y23.957700 Z-1.000000
G03 X26.654227 Y23.491602 Z-1.000000 I6.055807 J14.371348
G02 X27.358871 Y23.108288 Z-1.000000 I-0.670608 J-2.072103
G02 X27.295370 Y22.969493 Z-1.000000 I-0.049792 J-0.061143
G01 X26.578904 Y23.095986 Z-1.000000
G01 X27.150107 Y22.756508 Z-1.000000
G03 X27.742793 Y22.467308 Z-1.000000 I2.049974 J3.449291
G03 X28.768397 Y22.125689 Z-1.000000 I3.915510 J10.044750
G02 X29.782630 Y21.768072 Z-1.000000 I-2.133562 J-7.667995
G02 X30.301663 Y21.465476 Z-1.000000 I-0.982420 J-2.281554
G03 X30.776996 Y21.330241 Z-1.000000 I0.411040 J0.541766
G03 X31.293045 Y21.559626 Z-1.000000 I-0.083957 J0.884050
G03 X32.032418 Y22.534426 Z-1.000000 I-2.308420 J2.518710
G03 X32.504178 Y23.950489 Z-1.000000 I-4.535955 J2.297762
G03 X32.380214 Y24.570007 Z-1.000000 I-0.856433 J0.150791
G03 X31.708562 Y25.193783 Z-1.000000 I-1.541781 J-0.986626
G02 X30.661272 Y26.025298 Z-1.000000 I1.818635 J3.365851
G02 X29.546785 Y27.638408 Z-1.000000 I6.160872 J5.448055
G03 X28.851168 Y28.778030 Z-1.000000 I-9.391662 J-4.950493
G03 X27.907244 Y29.979496 Z-1.000000 I-11.387964 J-7.975351
G03 X26.856492 Y30.864297 Z-1.000000 I-3.452009 J-3.033142
G03 X26.471424 Y30.859492 Z-1.000000 I-0.188722 J-0.307922
G02 X26.057267 Y30.794678 Z-1.000000 I-0.279732 J0.431845
G02 X25.263214 Y31.186504 Z-1.000000 I0.599773 J2.215975
G02 X24.585895 Y31.827151 Z-1.000000 I2.697356 J3.530124
G02 X24.531629 Y32.040937 Z-1.000000 I0.188882 J0.161725
G03 X24.343108 Y32.734856 Z-1.000000 I-0.766953 J0.164205
G03 X22.898844 Y33.823891 Z-1.000000 I-3.660217 J-3.351933
G03 X21.515074 Y34.302595 Z-1.000000 I-2.525883 J-5.062104
G03 X21.197420 Y34.174601 Z-1.000000 I-0.062480 J-0.303111
G03 X20.977419 Y33.792667 Z-1.000000 I2.306899 J-1.583146
G03 X20.942702 Y33.638772 Z-1.000000 I0.323738 J-0.153895
G03 X21.187452 Y33.434316 Z-1.000000 I0.207773 J0.000000
G03 X21.938932 Y33.818946 Z-1.000000 I-0.259105 J1.432657
G02 X22.120095 Y33.891294 Z-1.000000 I0.179276 J-0.185919
G02 X22.171725 Y33.817246 Z-1.000000 I-0.000404 J-0.055305
G02 X21.979193 Y33.544330 Z-1.000000 I-0.591803 J0.213124
G02 X21.606415 Y33.352854 Z-1.000000 I-0.628627 J0.765241
G03 X21.256655 Y33.127041 Z-1.000000 I0.175241 J-0.655205
G03 X20.713639 Y32.261277 Z-1.000000 I3.163327 J-2.587246
G01 X20.261348 Y31.287498 Z-1.000000
G01 X21.563544 Y30.854035 Z-1.000000
G03 X23.271603 Y30.531290 Z-1.000000 I2.045843 J6.146036
G03 X23.892848 Y30.732404 Z-1.000000 I0.047666 J0.912832
G02 X24.600301 Y30.880043 Z-1.000000 I0.498120 J-0.618085
G02 X24.994187 Y30.431322 Z-1.000000 I-0.142884 J-0.522660
G02 X24.991717 Y29.966317 Z-1.000000 I-1.625402 J-0.223874
G01 X24.920347 Y29.934404 Z-1.000000
G02 X24.820403 Y30.067913 Z-1.000000 I0.135242 J0.205405
G02 X24.763859 Y30.446297 Z-1.000000 I1.237776 J0.378384
G03 X24.635500 Y30.680489 Z-1.000000 I-0.277822 J0.000000
G03 X24.333979 Y30.720648 Z-1.000000 I-0.193900 J-0.303819
G03 X23.949069 Y30.528441 Z-1.000000 I0.403498 J-1.289546
G03 X23.713042 Y30.274515 Z-1.000000 I0.511881 J-0.712458
G02 X23.521647 Y29.963089 Z-1.000000 I-144.250014 J88.437905
G02 X23.092105 Y29.266605 Z-1.000000 I-722.035277 J444.819945
G03 X22.723285 Y28.552997 Z-1.000000 I4.495884 J-2.775757
G03 X22.662225 Y28.252501 Z-1.000000 I0.708884 J-0.300496
G02 X22.595422 Y27.956556 Z-1.000000 I-0.688932 J-0.000000
G02 X22.232345 Y27.348814 Z-1.000000 I-3.387438 J1.611393
G03 X21.090886 Y25.630844 Z-1.000000 I17.858791 J-13.103986
G03 X21.145293 Y25.534812 Z-1.000000 I0.054407 J-0.032604
G03 X21.341583 Y25.610893 Z-1.000000 I0.000000 J0.291255
G03 X22.149507 Y26.450891 Z-1.000000 I-6.016396 J6.595207
G02 X22.979608 Y27.243178 Z-1.000000 I4.065841 J-3.428886
G02 X23.344576 Y27.366969 Z-1.000000 I0.364968 J-0.476118
G03 X23.671610 Y27.507439 Z-1.000000 I0.000000 J0.450926
G03 X24.069277 Y28.130369 Z-1.000000 I-1.409974 J1.338498
G02 X24.405280 Y28.874967 Z-1.000000 I8.089217 J-3.202179
G02 X24.647115 Y29.265497 Z-1.000000 I2.451417 J-1.247895
G02 X24.962014 Y29.433285 Z-1.000000 I0.334190 J-0.247806
G02 X25.464246 Y29.303427 Z-1.000000 I0.040775 J-0.878430
G02 X25.650259 Y29.136970 Z-1.000000 I-0.370814 J-0.601539
G01 X25.623619 Y29.099458 Z-1.000000
G03 X25.023530 Y29.142223 Z-1.000000 I-0.381609 J-1.123166
G03 X24.883406 Y28.960752 Z-1.000000 I0.031731 J-0.169336
G02 X24.812751 Y28.751386 Z-1.000000 I-0.285702 J-0.020190
G02 X24.669692 Y28.717800 Z-1.000000 I-0.095116 J0.083673
G03 X24.492847 Y28.692085 Z-1.000000 I-0.066605 J-0.162901
G03 X24.333001 Y28.447236 Z-1.000000 I0.295140 J-0.367279
G02 X24.224490 Y28.082591 Z-1.000000 I-6.967218 J1.874840
G02 X24.098568 Y27.729257 Z-1.000000 I-6.666895 J2.176855
G03 X24.160501 Y27.458044 Z-1.000000 I0.231928 J-0.089716
G03 X24.988212 Y26.895993 Z-1.000000 I2.198743 J2.347512
G03 X26.023833 Y26.438487 Z-1.000000 I9.902935 J21.015642
G03 X27.024960 Y26.054920 Z-1.000000 I7.951108 J19.254458
G02 X27.931454 Y25.671339 Z-1.000000 I-2.731347 J-7.717743
G01 X27.944528 Y25.598801 Z-1.000000
G02 X27.836034 Y25.569677 Z-1.000000 I-0.077740 J0.072956
G02 X25.848576 Y26.230261 Z-1.000000 I10.688708 J35.478520
G03 X23.834120 Y26.899912 Z-1.000000 I-12.867687 J-35.344002
G03 X23.427726 Y26.959818 Z-1.000000 I-0.406394 J-1.348514
G03 X23.070696 Y26.827319 Z-1.000000 I-0.000000 J-0.547275
G03 X21.713109 Y25.483914 Z-1.000000 I8.980363 J-10.432825
G02 X20.320892 Y24.217067 Z-1.000000 I-6.364120 J5.595508
G02 X19.676026 Y24.008010 Z-1.000000 I-0.644866 J0.890061
G03 X19.132202 Y23.803030 Z-1.000000 I0.000000 J-0.823889
G03 X18.904866 Y23.330409 Z-1.000000 I0.442863 J-0.504008
G02 X18.787825 Y22.686431 Z-1.000000 I-2.465270 J0.115431
G02 X18.570515 Y22.296515 Z-1.000000 I-1.092276 J0.353238
G03 X18.085256 Y21.040449 Z-1.000000 I1.558836 J-1.323997
G03 X18.506725 Y20.376733 Z-1.000000 I0.696864 J-0.023159
G03 X18.886375 Y20.368605 Z-1.000000 I0.199865 J0.464866
G03 X19.357070 Y20.699949 Z-1.000000 I-0.413113 J1.086849
G01 X19.357061 Y20.699903 Z-1.000000
G00 Z0.000000

(End cutting path id: path13794)


(Start cutting path id: path13794)
(Change tool to Cone cutter)

G00 Z0.000000
G00 X19.357061 Y20.699903

G01 Z-1.000000 F100.0(Penetrate)
G03 X19.719001 Y21.177295 Z-1.000000 I-3.888623 J3.324104 F400.000000
G03 X19.969291 Y21.614052 Z-1.000000 I-3.001136 J2.009938
G02 X20.261018 Y22.013190 Z-1.000000 I1.239340 J-0.599644
G02 X21.760449 Y23.313446 Z-1.000000 I15.271577 J-16.096215
G02 X23.389272 Y24.328026 Z-1.000000 I5.302414 J-6.697825
G02 X24.095154 Y24.425518 Z-1.000000 I0.506553 J-1.063467
G03 X24.860409 Y24.301022 Z-1.000000 I7.481536 J43.573391
G03 X25.528087 Y24.205273 Z-1.000000 I5.087717 J33.102020
G02 X26.190130 Y24.087241 Z-1.000000 I-1.007512 J-7.566852
G02 X26.769961 Y23.926920 Z-1.000000 I-1.335944 J-5.960393
G02 X26.959283 Y23.791131 Z-1.000000 I-0.122374 J-0.370494
G01 X26.925693 Y23.720103 Z-1.000000
G02 X26.516977 Y23.753011 Z-1.000000 I-0.070304 J1.681404
G02 X25.991671 Y23.911874 Z-1.000000 I0.605857 J2.951294
G03 X25.488605 Y24.059586 Z-1.000000 I-0.992859 J-2.450890
G03 X25.385854 Y24.026059 Z-1.000000 I-0.020814 J-0.110428
G01 X25.400362 Y23.957700 Z-1.000000
G03 X26.654227 Y23.491602 Z-1.000000 I6.055807 J14.371348
G02 X27.358871 Y23.108288 Z-1.000000 I-0.670608 J-2.072103
G02 X27.295370 Y22.969493 Z-1.000000 I-0.049792 J-0.061143
G01 X26.578904 Y23.095986 Z-1.000000
G01 X27.150107 Y22.756508 Z-1.000000
G03 X27.742793 Y22.467308 Z-1.000000 I2.049974 J3.449291
G03 X28.768397 Y22.125689 Z-1.000000 I3.915510 J10.044750
G02 X29.782630 Y21.768072 Z-1.000000 I-2.133562 J-7.667995
G02 X30.301663 Y21.465476 Z-1.000000 I-0.982420 J-2.281554
G03 X30.776996 Y21.330241 Z-1.000000 I0.411040 J0.541766
G03 X31.293045 Y21.559626 Z-1.000000 I-0.083957 J0.884050
G03 X32.032418 Y22.534426 Z-1.000000 I-2.308420 J2.518710
G03 X32.504178 Y23.950489 Z-1.000000 I-4.535955 J2.297762
G03 X32.380214 Y24.570007 Z-1.000000 I-0.856433 J0.150791
G03 X31.708562 Y25.193783 Z-1.000000 I-1.541781 J-0.986626
G02 X30.661272 Y26.025298 Z-1.000000 I1.818635 J3.365851
G02 X29.546785 Y27.638408 Z-1.000000 I6.160872 J5.448055
G03 X28.851168 Y28.778030 Z-1.000000 I-9.391662 J-4.950493
G03 X27.907244 Y29.979496 Z-1.000000 I-11.387964 J-7.975351
G03 X26.856492 Y30.864297 Z-1.000000 I-3.452009 J-3.033142
G03 X26.471424 Y30.859492 Z-1.000000 I-0.188722 J-0.307922
G02 X26.057267 Y30.794678 Z-1.000000 I-0.279732 J0.431845
G02 X25.263214 Y31.186504 Z-1.000000 I0.599773 J2.215975
G02 X24.585895 Y31.827151 Z-1.000000 I2.697356 J3.530124
G02 X24.531629 Y32.040937 Z-1.000000 I0.188882 J0.161725
G03 X24.343108 Y32.734856 Z-1.000000 I-0.766953 J0.164205
G03 X22.898844 Y33.823891 Z-1.000000 I-3.660217 J-3.351933
G03 X21.515074 Y34.302595 Z-1.000000 I-2.525883 J-5.062104
G03 X21.197420 Y34.174601 Z-1.000000 I-0.062480 J-0.303111
G03 X20.977419 Y33.792667 Z-1.000000 I2.306899 J-1.583146
G03 X20.942702 Y33.638772 Z-1.000000 I0.323738 J-0.153895
G03 X21.187452 Y33.434316 Z-1.000000 I0.207773 J0.000000
G03 X21.938932 Y33.818946 Z-1.000000 I-0.259105 J1.432657
G02 X22.120095 Y33.891294 Z-1.000000 I0.179276 J-0.185919
G02 X22.171725 Y33.817246 Z-1.000000 I-0.000404 J-0.055305
G02 X21.979193 Y33.544330 Z-1.000000 I-0.591803 J0.213124
G02 X21.606415 Y33.352854 Z-1.000000 I-0.628627 J0.765241
G03 X21.256655 Y33.127041 Z-1.000000 I0.175241 J-0.655205
G03 X20.713639 Y32.261277 Z-1.000000 I3.163327 J-2.587246
G01 X20.261348 Y31.287498 Z-1.000000
G01 X21.563544 Y30.854035 Z-1.000000
G03 X23.271603 Y30.531290 Z-1.000000 I2.045843 J6.146036
G03 X23.892848 Y30.732404 Z-1.000000 I0.047666 J0.912832
G02 X24.600301 Y30.880043 Z-1.000000 I0.498120 J-0.618085
G02 X24.994187 Y30.431322 Z-1.000000 I-0.142884 J-0.522660
G02 X24.991717 Y29.966317 Z-1.000000 I-1.625402 J-0.223874
G01 X24.920347 Y29.934404 Z-1.000000
G02 X24.820403 Y30.067913 Z-1.000000 I0.135242 J0.205405
G02 X24.763859 Y30.446297 Z-1.000000 I1.237776 J0.378384
G03 X24.635500 Y30.680489 Z-1.000000 I-0.277822 J0.000000
G03 X24.333979 Y30.720648 Z-1.000000 I-0.193900 J-0.303819
G03 X23.949069 Y30.528441 Z-1.000000 I0.403498 J-1.289546
G03 X23.713042 Y30.274515 Z-1.000000 I0.511881 J-0.712458
G02 X23.521647 Y29.963089 Z-1.000000 I-144.250014 J88.437905
G02 X23.092105 Y29.266605 Z-1.000000 I-722.035277 J444.819945
G03 X22.723285 Y28.552997 Z-1.000000 I4.495884 J-2.775757
G03 X22.662225 Y28.252501 Z-1.000000 I0.708884 J-0.300496
G02 X22.595422 Y27.956556 Z-1.000000 I-0.688932 J-0.000000
G02 X22.232345 Y27.348814 Z-1.000000 I-3.387438 J1.611393
G03 X21.090886 Y25.630844 Z-1.000000 I17.858791 J-13.103986
G03 X21.145293 Y25.534812 Z-1.000000 I0.054407 J-0.032604
G03 X21.341583 Y25.610893 Z-1.000000 I0.000000 J0.291255
G03 X22.149507 Y26.450891 Z-1.000000 I-6.016396 J6.595207
G02 X22.979608 Y27.243178 Z-1.000000 I4.065841 J-3.428886
G02 X23.344576 Y27.366969 Z-1.000000 I0.364968 J-0.476118
G03 X23.671610 Y27.507439 Z-1.000000 I0.000000 J0.450926
G03 X24.069277 Y28.130369 Z-1.000000 I-1.409974 J1.338498
G02 X24.405280 Y28.874967 Z-1.000000 I8.089217 J-3.202179
G02 X24.647115 Y29.265497 Z-1.000000 I2.451417 J-1.247895
G02 X24.962014 Y29.433285 Z-1.000000 I0.334190 J-0.247806
G02 X25.464246 Y29.303427 Z-1.000000 I0.040775 J-0.878430
G02 X25.650259 Y29.136970 Z-1.000000 I-0.370814 J-0.601539
G01 X25.623619 Y29.099458 Z-1.000000
G03 X25.023530 Y29.142223 Z-1.000000 I-0.381609 J-1.123166
G03 X24.883406 Y28.960752 Z-1.000000 I0.031731 J-0.169336
G02 X24.812751 Y28.751386 Z-1.000000 I-0.285702 J-0.020190
G02 X24.669692 Y28.717800 Z-1.000000 I-0.095116 J0.083673
G03 X24.492847 Y28.692085 Z-1.000000 I-0.066605 J-0.162901
G03 X24.333001 Y28.447236 Z-1.000000 I0.295140 J-0.367279
G02 X24.224490 Y28.082591 Z-1.000000 I-6.967218 J1.874840
G02 X24.098568 Y27.729257 Z-1.000000 I-6.666895 J2.176855
G03 X24.160501 Y27.458044 Z-1.000000 I0.231928 J-0.089716
G03 X24.988212 Y26.895993 Z-1.000000 I2.198743 J2.347512
G03 X26.023833 Y26.438487 Z-1.000000 I9.902935 J21.015642
G03 X27.024960 Y26.054920 Z-1.000000 I7.951108 J19.254458
G02 X27.931454 Y25.671339 Z-1.000000 I-2.731347 J-7.717743
G01 X27.944528 Y25.598801 Z-1.000000
G02 X27.836034 Y25.569677 Z-1.000000 I-0.077740 J0.072956
G02 X25.848576 Y26.230261 Z-1.000000 I10.688708 J35.478520
G03 X23.834120 Y26.899912 Z-1.000000 I-12.867687 J-35.344002
G03 X23.427726 Y26.959818 Z-1.000000 I-0.406394 J-1.348514
G03 X23.070696 Y26.827319 Z-1.000000 I-0.000000 J-0.547275
G03 X21.713109 Y25.483914 Z-1.000000 I8.980363 J-10.432825
G02 X20.320892 Y24.217067 Z-1.000000 I-6.364120 J5.595508
G02 X19.676026 Y24.008010 Z-1.000000 I-0.644866 J0.890061
G03 X19.132202 Y23.803030 Z-1.000000 I0.000000 J-0.823889
G03 X18.904866 Y23.330409 Z-1.000000 I0.442863 J-0.504008
G02 X18.787825 Y22.686431 Z-1.000000 I-2.465270 J0.115431
G02 X18.570515 Y22.296515 Z-1.000000 I-1.092276 J0.353238
G03 X18.085256 Y21.040449 Z-1.000000 I1.558836 J-1.323997
G03 X18.506725 Y20.376733 Z-1.000000 I0.696864 J-0.023159
G03 X18.886375 Y20.368605 Z-1.000000 I0.199865 J0.464866
G03 X19.357070 Y20.699949 Z-1.000000 I-0.413113 J1.086849
G01 X19.357061 Y20.699903 Z-1.000000
G00 Z0.000000

(End cutting path id: path13794)


(Start cutting path id: path13794)
(Change tool to Cone cutter)

G00 Z0.000000
G00 X14.216614 Y25.738389

G01 Z-1.000000 F100.0(Penetrate)
G03 X14.422799 Y26.341194 Z-1.000000 I-1.157924 J0.732724 F400.000000
G03 X14.290404 Y26.513170 Z-1.000000 I-0.158307 J0.015077
G03 X13.955417 Y26.444585 Z-1.000000 I-0.077924 J-0.471773
G03 X13.081453 Y25.742377 Z-1.000000 I2.763561 J-4.334479
G01 X12.249584 Y24.909306 Z-1.000000
G01 X13.007669 Y24.967586 Z-1.000000
G03 X13.668168 Y25.188052 Z-1.000000 I-0.109825 J1.428663
G03 X14.216620 Y25.738380 Z-1.000000 I-0.959113 J1.504299
G01 X14.216614 Y25.738389 Z-1.000000
G00 Z0.000000

(End cutting path id: path13794)


(Start cutting path id: path13794)
(Change tool to Cone cutter)

G00 Z0.000000
G00 X14.216614 Y25.738389

G01 Z-1.000000 F100.0(Penetrate)
G03 X14.422799 Y26.341194 Z-1.000000 I-1.157924 J0.732724 F400.000000
G03 X14.290404 Y26.513170 Z-1.000000 I-0.158307 J0.015077
G03 X13.955417 Y26.444585 Z-1.000000 I-0.077924 J-0.471773
G03 X13.081453 Y25.742377 Z-1.000000 I2.763561 J-4.334479
G01 X12.249584 Y24.909306 Z-1.000000
G01 X13.007669 Y24.967586 Z-1.000000
G03 X13.668168 Y25.188052 Z-1.000000 I-0.109825 J1.428663
G03 X14.216620 Y25.738380 Z-1.000000 I-0.959113 J1.504299
G01 X14.216614 Y25.738389 Z-1.000000
G00 Z0.000000

(End cutting path id: path13794)


(Start cutting path id: path13794)
(Change tool to Cone cutter)

G00 Z0.000000
G00 X14.693036 Y30.976737

G01 Z-1.000000 F100.0(Penetrate)
G03 X14.699452 Y31.520021 Z-1.000000 I-1.621017 J0.290824 F400.000000
G03 X14.519346 Y32.096389 Z-1.000000 I-2.010228 J-0.311842
G03 X14.138349 Y32.488168 Z-1.000000 I-0.782399 J-0.379721
G03 X13.436324 Y32.659871 Z-1.000000 I-0.702025 J-1.349301
G03 X12.728419 Y32.507244 Z-1.000000 I0.000000 J-1.717993
G03 X12.438178 Y32.208480 Z-1.000000 I0.234203 J-0.517884
G02 X12.173798 Y31.845574 Z-1.000000 I-0.894006 J0.373535
G02 X11.772938 Y31.639729 Z-1.000000 I-0.634191 J0.741779
G03 X11.384622 Y31.439400 Z-1.000000 I0.224539 J-0.911767
G03 X11.233520 Y31.175041 Z-1.000000 I0.297587 J-0.345456
G03 X11.335643 Y30.963249 Z-1.000000 I0.196882 J-0.035583
G03 X11.901219 Y30.815982 Z-1.000000 I0.585423 J1.088626
G02 X12.627279 Y30.766556 Z-1.000000 I-0.111417 J-6.994225
G02 X13.395925 Y30.635819 Z-1.000000 I-0.963431 J-7.989279
G03 X14.396727 Y30.655884 Z-1.000000 I0.458860 J2.082019
G03 X14.693036 Y30.976737 Z-1.000000 I-0.103166 J0.392523
G01 X14.693036 Y30.976737 Z-1.000000
G00 Z0.000000

(End cutting path id: path13794)


(Start cutting path id: path13794)
(Change tool to Cone cutter)

G00 Z0.000000
G00 X14.693036 Y30.976737

G01 Z-1.000000 F100.0(Penetrate)
G03 X14.699452 Y31.520021 Z-1.000000 I-1.621017 J0.290824 F400.000000
G03 X14.519346 Y32.096389 Z-1.000000 I-2.010228 J-0.311842
G03 X14.138349 Y32.488168 Z-1.000000 I-0.782399 J-0.379721
G03 X13.436324 Y32.659871 Z-1.000000 I-0.702025 J-1.349301
G03 X12.728419 Y32.507244 Z-1.000000 I0.000000 J-1.717993
G03 X12.438178 Y32.208480 Z-1.000000 I0.234203 J-0.517884
G02 X12.173798 Y31.845574 Z-1.000000 I-0.894006 J0.373535
G02 X11.772938 Y31.639729 Z-1.000000 I-0.634191 J0.741779
G03 X11.384622 Y31.439400 Z-1.000000 I0.224539 J-0.911767
G03 X11.233520 Y31.175041 Z-1.000000 I0.297587 J-0.345456
G03 X11.335643 Y30.963249 Z-1.000000 I0.196882 J-0.035583
G03 X11.901219 Y30.815982 Z-1.000000 I0.585423 J1.088626
G02 X12.627279 Y30.766556 Z-1.000000 I-0.111417 J-6.994225
G02 X13.395925 Y30.635819 Z-1.000000 I-0.963431 J-7.989279
G03 X14.396727 Y30.655884 Z-1.000000 I0.458860 J2.082019
G03 X14.693036 Y30.976737 Z-1.000000 I-0.103166 J0.392523
G01 X14.693036 Y30.976737 Z-1.000000
G00 Z0.000000

(End cutting path id: path13794)


(Start cutting path id: path13794)
(Change tool to Cone cutter)

G00 Z0.000000
G00 X15.975204 Y31.641950

G01 Z-1.000000 F100.0(Penetrate)
G03 X15.890636 Y31.760957 Z-1.000000 I-0.126020 J0.000000 F400.000000
G03 X15.390756 Y31.845524 Z-1.000000 I-0.499880 J-1.435130
G03 X14.961772 Y31.755978 Z-1.000000 I-0.000000 J-1.072329
G03 X14.924387 Y31.641950 Z-1.000000 I0.032165 J-0.073688
G03 X15.083873 Y31.510270 Z-1.000000 I0.257341 J0.149260
G03 X15.508836 Y31.438378 Z-1.000000 I0.424963 J1.220061
G03 X15.894661 Y31.518912 Z-1.000000 I0.000000 J0.964472
G03 X15.975204 Y31.641950 Z-1.000000 I-0.053704 J0.123038
G01 X15.975204 Y31.641950 Z-1.000000
G00 Z0.000000

(End cutting path id: path13794)


(Start cutting path id: path13794)
(Change tool to Cone cutter)

G00 Z0.000000
G00 X15.975204 Y31.641950

G01 Z-1.000000 F100.0(Penetrate)
G03 X15.890636 Y31.760957 Z-1.000000 I-0.126020 J0.000000 F400.000000
G03 X15.390756 Y31.845524 Z-1.000000 I-0.499880 J-1.435130
G03 X14.961772 Y31.755978 Z-1.000000 I-0.000000 J-1.072329
G03 X14.924387 Y31.641950 Z-1.000000 I0.032165 J-0.073688
G03 X15.083873 Y31.510270 Z-1.000000 I0.257341 J0.149260
G03 X15.508836 Y31.438378 Z-1.000000 I0.424963 J1.220061
G03 X15.894661 Y31.518912 Z-1.000000 I0.000000 J0.964472
G03 X15.975204 Y31.641950 Z-1.000000 I-0.053704 J0.123038
G01 X15.975204 Y31.641950 Z-1.000000
G00 Z0.000000

(End cutting path id: path13794)


(Start cutting path id: path13794)
(Change tool to Cone cutter)

G00 Z0.000000
G00 X16.320744 Y30.633313

G01 Z-1.000000 F100.0(Penetrate)
G03 X15.393812 Y31.177915 Z-1.000000 I-1.052550 J-0.730341 F400.000000
G03 X14.864246 Y30.776820 Z-1.000000 I-0.047965 J-0.486813
G03 X14.954001 Y30.548125 Z-1.000000 I0.231328 J-0.041172
G03 X15.340258 Y30.417450 Z-1.000000 I0.389996 J0.516574
G02 X15.860622 Y30.353691 Z-1.000000 I-0.012956 J-2.261089
G02 X16.166262 Y30.216994 Z-1.000000 I-0.217618 J-0.896607
G03 X16.365377 Y30.279949 Z-1.000000 I0.075050 J0.108992
G03 X16.320744 Y30.633313 Z-1.000000 I-0.360895 J0.133916
G01 X16.320744 Y30.633313 Z-1.000000
G00 Z0.000000

(End cutting path id: path13794)


(Start cutting path id: path13794)
(Change tool to Cone cutter)

G00 Z0.000000
G00 X16.320744 Y30.633313

G01 Z-1.000000 F100.0(Penetrate)
G03 X15.393812 Y31.177915 Z-1.000000 I-1.052550 J-0.730341 F400.000000
G03 X14.864246 Y30.776820 Z-1.000000 I-0.047965 J-0.486813
G03 X14.954001 Y30.548125 Z-1.000000 I0.231328 J-0.041172
G03 X15.340258 Y30.417450 Z-1.000000 I0.389996 J0.516574
G02 X15.860622 Y30.353691 Z-1.000000 I-0.012956 J-2.261089
G02 X16.166262 Y30.216994 Z-1.000000 I-0.217618 J-0.896607
G03 X16.365377 Y30.279949 Z-1.000000 I0.075050 J0.108992
G03 X16.320744 Y30.633313 Z-1.000000 I-0.360895 J0.133916
G01 X16.320744 Y30.633313 Z-1.000000
G00 Z0.000000

(End cutting path id: path13794)


(Start cutting path id: path13794)
(Change tool to Cone cutter)

G00 Z0.000000
G00 X17.885781 Y34.577109

G01 Z-1.000000 F100.0(Penetrate)
G02 X17.910795 Y34.861451 Z-1.000000 I1.628608 J0.000000 F400.000000
G02 X17.986628 Y35.145838 Z-1.000000 I1.704793 J-0.302286
G03 X17.922062 Y35.318256 Z-1.000000 I-0.133811 J0.048189
G03 X17.395128 Y35.475540 Z-1.000000 I-0.617746 J-1.108264
G03 X16.876180 Y35.402332 Z-1.000000 I-0.089224 J-1.243448
G03 X16.816513 Y35.263063 Z-1.000000 I0.035914 J-0.097803
G02 X16.923450 Y34.998313 Z-1.000000 I-5.150262 J-2.234243
G02 X17.048181 Y34.644651 Z-1.000000 I-9.061079 J-3.394534
G03 X17.540167 Y34.258236 Z-1.000000 I0.537496 J0.177935
G03 X17.885781 Y34.577101 Z-1.000000 I0.025713 J0.318865
G01 X17.885781 Y34.577109 Z-1.000000
G00 Z0.000000

(End cutting path id: path13794)


(Start cutting path id: path13794)
(Change tool to Cone cutter)

G00 Z0.000000
G00 X17.885781 Y34.577109

G01 Z-1.000000 F100.0(Penetrate)
G02 X17.910795 Y34.861451 Z-1.000000 I1.628608 J0.000000 F400.000000
G02 X17.986628 Y35.145838 Z-1.000000 I1.704793 J-0.302286
G03 X17.922062 Y35.318256 Z-1.000000 I-0.133811 J0.048189
G03 X17.395128 Y35.475540 Z-1.000000 I-0.617746 J-1.108264
G03 X16.876180 Y35.402332 Z-1.000000 I-0.089224 J-1.243448
G03 X16.816513 Y35.263063 Z-1.000000 I0.035914 J-0.097803
G02 X16.923450 Y34.998313 Z-1.000000 I-5.150262 J-2.234243
G02 X17.048181 Y34.644651 Z-1.000000 I-9.061079 J-3.394534
G03 X17.540167 Y34.258236 Z-1.000000 I0.537496 J0.177935
G03 X17.885781 Y34.577101 Z-1.000000 I0.025713 J0.318865
G01 X17.885781 Y34.577109 Z-1.000000
G00 Z0.000000

(End cutting path id: path13794)


(Start cutting path id: path13794)
(Change tool to Cone cutter)

G00 Z0.000000
G00 X15.784146 Y35.200188

G01 Z-1.000000 F100.0(Penetrate)
G03 X15.684325 Y35.347734 Z-1.000000 I-0.158954 J-0.000000 F400.000000
G03 X15.211409 Y35.429728 Z-1.000000 I-0.429274 J-1.071102
G03 X14.903655 Y35.223652 Z-1.000000 I0.013356 J-0.352784
G03 X14.953388 Y34.864973 Z-1.000000 I0.306931 J-0.140229
G03 X15.280968 Y34.661313 Z-1.000000 I0.481193 J0.408701
G03 X15.526561 Y34.721190 Z-1.000000 I0.065974 J0.263000
G03 X15.727330 Y34.974574 Z-1.000000 I-0.609269 J0.688988
G03 X15.784146 Y35.200188 Z-1.000000 I-0.419547 J0.225614
G01 X15.784146 Y35.200188 Z-1.000000
G00 Z0.000000

(End cutting path id: path13794)


(Start cutting path id: path13794)
(Change tool to Cone cutter)

G00 Z0.000000
G00 X15.784146 Y35.200188

G01 Z-1.000000 F100.0(Penetrate)
G03 X15.684325 Y35.347734 Z-1.000000 I-0.158954 J-0.000000 F400.000000
G03 X15.211409 Y35.429728 Z-1.000000 I-0.429274 J-1.071102
G03 X14.903655 Y35.223652 Z-1.000000 I0.013356 J-0.352784
G03 X14.953388 Y34.864973 Z-1.000000 I0.306931 J-0.140229
G03 X15.280968 Y34.661313 Z-1.000000 I0.481193 J0.408701
G03 X15.526561 Y34.721190 Z-1.000000 I0.065974 J0.263000
G03 X15.727330 Y34.974574 Z-1.000000 I-0.609269 J0.688988
G03 X15.784146 Y35.200188 Z-1.000000 I-0.419547 J0.225614
G01 X15.784146 Y35.200188 Z-1.000000
G00 Z0.000000

(End cutting path id: path13794)


(Start cutting path id: path13794)
(Change tool to Cone cutter)

G00 Z0.000000
G00 X13.682512 Y35.034699

G01 Z-1.000000 F100.0(Penetrate)
G03 X13.587223 Y35.207917 Z-1.000000 I-0.205084 J0.000000 F400.000000
G03 X13.380300 Y35.226258 Z-1.000000 I-0.121226 J-0.191252
G02 X13.072058 Y35.131631 Z-1.000000 I-0.676842 J1.655423
G02 X12.759362 Y35.095477 Z-1.000000 I-0.351265 J1.667749
G03 X12.713921 Y35.016997 Z-1.000000 I0.001197 J-0.053089
G03 X12.915884 Y34.807979 Z-1.000000 I0.479060 J0.260808
G03 X13.462767 Y34.740559 Z-1.000000 I0.350958 J0.595077
G03 X13.682512 Y35.034699 Z-1.000000 I-0.086988 J0.294140
G01 X13.682512 Y35.034699 Z-1.000000
G00 Z0.000000

(End cutting path id: path13794)


(Start cutting path id: path13794)
(Change tool to Cone cutter)

G00 Z0.000000
G00 X13.682512 Y35.034699

G01 Z-1.000000 F100.0(Penetrate)
G03 X13.587223 Y35.207917 Z-1.000000 I-0.205084 J0.000000 F400.000000
G03 X13.380300 Y35.226258 Z-1.000000 I-0.121226 J-0.191252
G02 X13.072058 Y35.131631 Z-1.000000 I-0.676842 J1.655423
G02 X12.759362 Y35.095477 Z-1.000000 I-0.351265 J1.667749
G03 X12.713921 Y35.016997 Z-1.000000 I0.001197 J-0.053089
G03 X12.915884 Y34.807979 Z-1.000000 I0.479060 J0.260808
G03 X13.462767 Y34.740559 Z-1.000000 I0.350958 J0.595077
G03 X13.682512 Y35.034699 Z-1.000000 I-0.086988 J0.294140
G01 X13.682512 Y35.034699 Z-1.000000
G00 Z0.000000

(End cutting path id: path13794)


(Start cutting path id: path13794)
(Change tool to Cone cutter)

G00 Z0.000000
G00 X9.865605 Y28.753104

G01 Z-1.000000 F100.0(Penetrate)
G03 X9.789691 Y28.883989 Z-1.000000 I-0.154999 J-0.002443 F400.000000
G03 X9.650482 Y28.880719 Z-1.000000 I-0.066990 J-0.112938
G01 X9.606149 Y28.913642 Z-1.000000
G02 X9.767985 Y29.275850 Z-1.000000 I1.454041 J-0.432414
G02 X10.029246 Y29.520061 Z-1.000000 I0.575668 J-0.354002
G02 X10.106176 Y29.453595 Z-1.000000 I0.025409 J-0.048345
G03 X10.152909 Y29.350173 Z-1.000000 I0.077489 J-0.027255
G03 X10.301127 Y29.374875 Z-1.000000 I0.053915 J0.133521
G03 X10.510438 Y29.672860 Z-1.000000 I-0.492796 J0.568654
G03 X10.497325 Y29.883808 Z-1.000000 I-0.236516 J0.091179
G02 X10.490167 Y29.960949 Z-1.000000 I0.087753 J0.047045
G01 X10.524555 Y29.969688 Z-1.000000
G03 X10.688876 Y29.914286 Z-1.000000 I0.140879 J0.146459
G03 X11.080595 Y30.034248 Z-1.000000 I-0.130861 J1.126843
G01 X11.123104 Y29.999541 Z-1.000000
G02 X11.028715 Y29.852023 Z-1.000000 I-0.292715 J0.083337
G03 X10.598213 Y29.435713 Z-1.000000 I3.315405 J-3.859176
G03 X10.220968 Y28.973177 Z-1.000000 I3.720845 J-3.419831
G02 X9.940724 Y28.712053 Z-1.000000 I-0.799050 J0.576614
G01 X9.865611 Y28.753106 Z-1.000000
G01 X9.865605 Y28.753104 Z-1.000000
G00 Z0.000000

(End cutting path id: path13794)


(Start cutting path id: path13794)
(Change tool to Cone cutter)

G00 Z0.000000
G00 X9.865605 Y28.753104

G01 Z-1.000000 F100.0(Penetrate)
G03 X9.789691 Y28.883989 Z-1.000000 I-0.154999 J-0.002443 F400.000000
G03 X9.650482 Y28.880719 Z-1.000000 I-0.066990 J-0.112938
G01 X9.606149 Y28.913642 Z-1.000000
G02 X9.767985 Y29.275850 Z-1.000000 I1.454041 J-0.432414
G02 X10.029246 Y29.520061 Z-1.000000 I0.575668 J-0.354002
G02 X10.106176 Y29.453595 Z-1.000000 I0.025409 J-0.048345
G03 X10.152909 Y29.350173 Z-1.000000 I0.077489 J-0.027255
G03 X10.301127 Y29.374875 Z-1.000000 I0.053915 J0.133521
G03 X10.510438 Y29.672860 Z-1.000000 I-0.492796 J0.568654
G03 X10.497325 Y29.883808 Z-1.000000 I-0.236516 J0.091179
G02 X10.490167 Y29.960949 Z-1.000000 I0.087753 J0.047045
G01 X10.524555 Y29.969688 Z-1.000000
G03 X10.688876 Y29.914286 Z-1.000000 I0.140879 J0.146459
G03 X11.080595 Y30.034248 Z-1.000000 I-0.130861 J1.126843
G01 X11.123104 Y29.999541 Z-1.000000
G02 X11.028715 Y29.852023 Z-1.000000 I-0.292715 J0.083337
G03 X10.598213 Y29.435713 Z-1.000000 I3.315405 J-3.859176
G03 X10.220968 Y28.973177 Z-1.000000 I3.720845 J-3.419831
G02 X9.940724 Y28.712053 Z-1.000000 I-0.799050 J0.576614
G01 X9.865611 Y28.753106 Z-1.000000
G01 X9.865605 Y28.753104 Z-1.000000
G00 Z0.000000

(End cutting path id: path13794)


(Start cutting path id: path13794)
(Change tool to Cone cutter)

G00 Z0.000000
G00 X6.995492 Y31.031237

G01 Z-1.000000 F100.0(Penetrate)
G03 X7.241601 Y31.865703 Z-1.000000 I-0.704679 J0.661357 F400.000000
G03 X6.708905 Y32.605289 Z-1.000000 I-1.043553 J-0.189999
G03 X5.943825 Y32.655121 Z-1.000000 I-0.435815 J-0.793034
G03 X5.273750 Y32.044677 Z-1.000000 I0.460271 J-1.178220
G03 X5.229482 Y31.339148 Z-1.000000 I0.805742 J-0.404709
G03 X5.701617 Y30.835676 Z-1.000000 I0.810319 J0.286773
G03 X6.442654 Y30.740921 Z-1.000000 I0.537041 J1.254924
G03 X6.995492 Y31.031237 Z-1.000000 I-0.142516 J0.942920
G01 X6.995492 Y31.031237 Z-1.000000
G00 Z0.000000

(End cutting path id: path13794)


(Start cutting path id: path13794)
(Change tool to Cone cutter)

G00 Z0.000000
G00 X6.995492 Y31.031237

G01 Z-1.000000 F100.0(Penetrate)
G03 X7.241601 Y31.865703 Z-1.000000 I-0.704679 J0.661357 F400.000000
G03 X6.708905 Y32.605289 Z-1.000000 I-1.043553 J-0.189999
G03 X5.943825 Y32.655121 Z-1.000000 I-0.435815 J-0.793034
G03 X5.273750 Y32.044677 Z-1.000000 I0.460271 J-1.178220
G03 X5.229482 Y31.339148 Z-1.000000 I0.805742 J-0.404709
G03 X5.701617 Y30.835676 Z-1.000000 I0.810319 J0.286773
G03 X6.442654 Y30.740921 Z-1.000000 I0.537041 J1.254924
G03 X6.995492 Y31.031237 Z-1.000000 I-0.142516 J0.942920
G01 X6.995492 Y31.031237 Z-1.000000
G00 Z0.000000

(End cutting path id: path13794)


(Start cutting path id: path13794)
(Change tool to Cone cutter)

G00 Z0.000000
G00 X5.074924 Y32.374895

G01 Z-1.000000 F100.0(Penetrate)
G03 X5.593470 Y32.787309 Z-1.000000 I-0.447664 J1.095067 F400.000000
G03 X5.577521 Y33.017090 Z-1.000000 I-0.148780 J0.105117
G02 X5.515134 Y33.557157 Z-1.000000 I0.332486 J0.312045
G02 X6.076537 Y33.881253 Z-1.000000 I0.561403 J-0.324186
G02 X6.130402 Y33.807188 Z-1.000000 I-0.000000 J-0.056620
G02 X5.944674 Y33.474107 Z-1.000000 I-0.934064 J0.302517
G03 X5.926619 Y33.218603 Z-1.000000 I0.164881 J-0.140042
G03 X6.201649 Y33.066961 Z-1.000000 I0.275030 J0.173589
G02 X7.196032 Y32.452519 Z-1.000000 I-0.000000 J-1.111851
G02 X7.270876 Y30.929445 Z-1.000000 I-1.692331 J-0.846537
G03 X7.315442 Y30.808606 Z-1.000000 I0.091317 J-0.034959
G03 X7.463349 Y30.824669 Z-1.000000 I0.062381 J0.114593
G03 X7.774247 Y31.158286 Z-1.000000 I-1.415791 J1.631047
G03 X8.263272 Y31.889247 Z-1.000000 I-6.422088 J4.825541
G02 X8.800370 Y32.562170 Z-1.000000 I2.677785 J-1.586489
G02 X9.526926 Y33.086499 Z-1.000000 I2.318279 J-2.446854
G03 X10.723224 Y34.050111 Z-1.000000 I-1.958485 J3.655795
G03 X11.007704 Y34.821720 Z-1.000000 I-0.904195 J0.771609
G03 X10.874938 Y35.418219 Z-1.000000 I-1.406377 J0.000000
G03 X10.577824 Y35.739577 Z-1.000000 I-0.653277 J-0.305964
G03 X10.445115 Y35.725421 Z-1.000000 I-0.056495 J-0.099507
G03 X10.434531 Y35.611624 Z-1.000000 I0.055889 J-0.062589
G02 X10.418945 Y35.502193 Z-1.000000 I-0.061159 J-0.047115
G02 X10.273443 Y35.493818 Z-1.000000 I-0.079228 J0.108336
G03 X9.398705 Y35.644241 Z-1.000000 I-0.645905 J-1.137459
G03 X8.525516 Y35.183243 Z-1.000000 I0.283206 J-1.593892
G02 X7.048837 Y34.087532 Z-1.000000 I-4.192535 J4.107330
G02 X6.227743 Y33.983863 Z-1.000000 I-0.550169 J1.054014
G03 X5.222742 Y33.857889 Z-1.000000 I-0.332371 J-1.420248
G03 X3.224396 Y32.423036 Z-1.000000 I3.968114 J-7.635459
G02 X2.073785 Y31.364507 Z-1.000000 I-24.182422 J25.131447
G02 X1.748336 Y31.124969 Z-1.000000 I-1.538634 J1.749614
G03 X1.578699 Y30.868726 Z-1.000000 I0.188500 J-0.309063
G03 X1.653643 Y30.482912 Z-1.000000 I0.585794 J-0.086395
G03 X2.016207 Y30.252164 Z-1.000000 I0.406250 J0.238110
G03 X5.169929 Y30.155282 Z-1.000000 I2.354702 J25.271890
G02 X8.371879 Y30.082775 Z-1.000000 I0.931843 J-29.585283
G02 X8.884216 Y29.869583 Z-1.000000 I-0.068150 J-0.885991
G02 X9.131904 Y29.470292 Z-1.000000 I-0.513203 J-0.594818
G02 X9.059519 Y29.187397 Z-1.000000 I-0.293868 J-0.075516
G02 X8.727189 Y29.032075 Z-1.000000 I-0.360003 J0.337080
G02 X5.645087 Y28.995502 Z-1.000000 I-1.953794 J34.764227
G02 X2.662215 Y29.193247 Z-1.000000 I1.433994 J44.227242
G02 X2.601165 Y29.300862 Z-1.000000 I0.007565 J0.075416
G02 X2.719184 Y29.450548 Z-1.000000 I0.380245 J-0.178435
G02 X2.806911 Y29.465289 Z-1.000000 I0.057110 J-0.071461
G03 X2.920164 Y29.440587 Z-1.000000 I0.153719 J0.432804
G03 X4.869012 Y29.282903 Z-1.000000 I11.512382 J130.161490
G03 X6.793982 Y29.258635 Z-1.000000 I1.162311 J15.838353
G03 X7.274928 Y29.398571 Z-1.000000 I-0.051632 J1.073903
G02 X7.739350 Y29.529946 Z-1.000000 I0.497676 J-0.872751
G02 X8.331780 Y29.433571 Z-1.000000 I0.051428 J-1.552920
G03 X8.789818 Y29.362244 Z-1.000000 I0.403908 J1.087418
G03 X8.856879 Y29.458101 Z-1.000000 I-0.003447 J0.073799
G03 X8.516871 Y29.737861 Z-1.000000 I-0.383923 J-0.120108
G03 X4.956780 Y29.886422 Z-1.000000 I-2.875898 J-26.186560
G03 X2.784098 Y29.383231 Z-1.000000 I0.144618 J-5.566639
G03 X2.697154 Y28.852299 Z-1.000000 I0.134856 J-0.294668
G03 X3.215627 Y28.474624 Z-1.000000 I1.770914 J1.886401
G03 X3.891119 Y28.191822 Z-1.000000 I1.632358 J2.950865
G03 X6.546069 Y27.832418 Z-1.000000 I2.491705 J8.420581
G03 X8.911851 Y28.285172 Z-1.000000 I-0.131950 J7.096841
G02 X9.713762 Y28.523365 Z-1.000000 I2.078965 J-5.530163
G02 X9.828144 Y28.488031 Z-1.000000 I0.026155 J-0.118139
G03 X9.935146 Y28.464002 Z-1.000000 I0.071205 J0.066823
