%
(Header)
(Generated by gcodetools from Inkscape.)
(Using default header. To add your own header create file "header" in the output dir.)
M3
(Header end.)
G21 (All units in mm)

(Start cutting path id: path24)
(Change tool to Cone cutter)

G00 Z0.000000
G00 X15.226473 Y0.231079

G01 Z-1.000000 F100.0(Penetrate)
G02 X15.077532 Y0.599677 Z-1.000000 I11.373468 J4.810128 F400.000000
G02 X14.910869 Y1.049821 Z-1.000000 I16.808594 J6.479189
G03 X14.685208 Y1.410273 Z-1.000000 I-0.926092 J-0.328915
G03 X14.465554 Y1.502283 Z-1.000000 I-0.219654 J-0.216185
G01 X14.180937 Y1.502283 Z-1.000000
G01 X14.174137 Y2.084020 Z-1.000000
G03 X14.146991 Y2.558155 Z-1.000000 I-5.205682 J-0.060199
G01 X14.124947 Y2.561291 Z-1.000000
G02 X14.061946 Y2.474233 Z-1.000000 I-0.208577 J0.084614
G02 X13.784584 Y2.272662 Z-1.000000 I-1.482179 J1.747875
G02 X13.491873 Y2.164135 Z-1.000000 I-0.416090 J0.673247
G02 X13.347767 Y2.203722 Z-1.000000 I-0.028275 J0.179158
G02 X13.273007 Y2.346827 Z-1.000000 I0.133441 J0.160791
G02 X13.260867 Y3.226695 Z-1.000000 I6.184429 J0.525349
G02 X13.677368 Y4.747525 Z-1.000000 I3.773111 J-0.215874
G02 X14.557034 Y5.731866 Z-1.000000 I2.352704 J-1.217284
G03 X14.956764 Y6.037031 Z-1.000000 I-2.243135 J3.352628
G01 X14.944859 Y6.068203 Z-1.000000
G03 X14.827495 Y6.062715 Z-1.000000 I0.028335 J-1.863567
G03 X13.319102 Y5.940721 Z-1.000000 I24.170404 J-308.241558
G02 X11.809626 Y5.845034 Z-1.000000 I-3.165969 J37.989562
G02 X10.388183 Y5.813240 Z-1.000000 I-1.463894 J33.657113
G03 X8.984821 Y5.733147 Z-1.000000 I0.016180 J-12.618121
G03 X8.578334 Y5.608300 Z-1.000000 I0.129858 J-1.146967
G02 X7.869469 Y5.361249 Z-1.000000 I-1.183625 J2.255681
G02 X7.374594 Y5.379955 Z-1.000000 I-0.206619 J1.089207
G02 X7.096297 Y5.539694 Z-1.000000 I0.163472 J0.607094
G02 X6.824112 Y5.923563 Z-1.000000 I0.950075 J0.962089
G02 X6.289440 Y8.628403 Z-1.000000 I5.102566 J2.413901
G02 X7.126551 Y11.783657 Z-1.000000 I7.902180 J-0.407832
G02 X8.007047 Y13.067949 Z-1.000000 I5.207718 J-2.626377
G02 X9.535607 Y14.449319 Z-1.000000 I7.575304 J-6.846078
G03 X10.579379 Y15.377369 Z-1.000000 I-4.454318 J6.060729
G03 X11.083111 Y16.106993 Z-1.000000 I-2.215606 J2.068354
G03 X11.276199 Y16.670266 Z-1.000000 I-2.105221 J1.036393
G03 X11.424561 Y17.765678 Z-1.000000 I-7.920831 J1.630547
G02 X11.706811 Y19.299547 Z-1.000000 I6.736935 J-0.446772
G02 X12.057382 Y19.827977 Z-1.000000 I1.067129 J-0.327452
G03 X12.533714 Y20.378636 Z-1.000000 I-1.461234 J1.745347
G03 X12.579920 Y20.675437 Z-1.000000 I-0.329775 J0.203337
G02 X12.658216 Y21.116149 Z-1.000000 I0.533286 J0.132568
G02 X13.467057 Y21.985336 Z-1.000000 I3.201283 J-2.168088
G02 X13.901573 Y22.292188 Z-1.000000 I3.146991 J-3.995208
G02 X14.585735 Y22.690669 Z-1.000000 I6.009069 J-9.530547
G01 X15.285195 Y23.065788 Z-1.000000
G01 X15.078639 Y23.509411 Z-1.000000
G02 X14.924926 Y23.964778 Z-1.000000 I1.980621 J0.922201
G02 X14.871241 Y24.457617 Z-1.000000 I2.270980 J0.496723
G02 X15.008035 Y25.128391 Z-1.000000 I1.699120 J0.002826
G02 X15.711135 Y26.422110 Z-1.000000 I7.227345 J-3.089941
G03 X16.255197 Y27.575590 Z-1.000000 I-3.521178 J2.365884
G03 X16.304430 Y28.411454 Z-1.000000 I-1.752270 J0.522591
G03 X16.126198 Y29.018442 Z-1.000000 I-2.753384 J-0.478824
G03 X15.836714 Y29.520695 Z-1.000000 I-2.162286 J-0.911727
G02 X15.269098 Y31.136995 Z-1.000000 I2.248051 J1.697295
G02 X15.730466 Y33.214226 Z-1.000000 I4.344236 J0.124965
G03 X16.044553 Y33.918871 Z-1.000000 I-7.402240 J3.721776
G03 X16.172758 Y34.345388 Z-1.000000 I-2.571663 J1.005536
G03 X16.171798 Y34.772288 Z-1.000000 I-0.984936 J0.211236
G03 X15.922440 Y35.487498 Z-1.000000 I-3.097714 J-0.678944
G02 X15.489862 Y36.603989 Z-1.000000 I6.293373 J3.080379
G02 X15.389873 Y37.311445 Z-1.000000 I2.394895 J0.699278
G02 X15.599350 Y38.096869 Z-1.000000 I1.597172 J-0.005329
G02 X16.312585 Y38.930632 Z-1.000000 I2.527742 J-1.440388
G03 X16.881118 Y39.438808 Z-1.000000 I-4.252417 J5.329597
G03 X17.490256 Y40.108190 Z-1.000000 I-6.791032 J6.791696
G02 X18.519123 Y41.106374 Z-1.000000 I5.060173 J-4.186381
G02 X19.105452 Y41.364100 Z-1.000000 I0.804720 J-1.034931
G03 X19.436550 Y41.470344 Z-1.000000 I-0.203036 J1.201768
G03 X19.985605 Y41.793227 Z-1.000000 I-1.792247 J3.675950
G02 X20.971477 Y42.277050 Z-1.000000 I2.058304 J-2.947793
G02 X21.533670 Y42.277021 Z-1.000000 I0.281049 J-0.899314
G03 X21.812906 Y42.215261 Z-1.000000 I0.500603 J1.601258
G03 X22.881640 Y42.097590 Z-1.000000 I3.128925 J23.506028
G02 X25.774219 Y41.434207 Z-1.000000 I-0.934099 J-10.710999
G02 X27.255100 Y40.431939 Z-1.000000 I-1.389332 J-3.647937
G02 X27.744430 Y39.732675 Z-1.000000 I-2.346263 J-2.162709
G02 X28.139540 Y38.718233 Z-1.000000 I-4.613764 J-2.381157
G02 X28.548942 Y36.802415 Z-1.000000 I-16.929847 J-4.619488
G02 X29.218953 Y31.795714 Z-1.000000 I-115.276806 J-17.974852
G03 X29.562668 Y29.043925 Z-1.000000 I106.996440 J11.967129
G03 X29.703057 Y28.287901 Z-1.000000 I8.200413 J1.131722
G03 X30.416913 Y26.501026 Z-1.000000 I6.268080 J1.468065
G03 X32.201644 Y24.024313 Z-1.000000 I13.980273 J8.192854
G03 X32.994993 Y23.245168 Z-1.000000 I5.535033 J4.842458
G03 X33.589563 Y22.853637 Z-1.000000 I1.943553 J2.304220
G02 X34.622540 Y22.145736 Z-1.000000 I-2.054422 J-4.105451
G02 X35.565063 Y21.058472 Z-1.000000 I-4.076345 J-4.485842
G02 X36.638786 Y18.975245 Z-1.000000 I-8.150521 J-5.519206
G02 X37.363159 Y16.231297 Z-1.000000 I-13.525523 J-5.038181
G03 X37.543243 Y15.163748 Z-1.000000 I71.448422 J11.503613
G03 X37.726545 Y14.171228 Z-1.000000 I61.893119 J10.917449
G02 X37.995378 Y11.511098 Z-1.000000 I-14.614339 J-2.820575
G02 X37.774395 Y9.732788 Z-1.000000 I-6.685767 J-0.072074
G03 X37.638984 Y9.215412 Z-1.000000 I126.074688 J-33.273558
G03 X37.459341 Y8.518859 Z-1.000000 I227.255999 J-58.981324
G02 X36.423890 Y5.644461 Z-1.000000 I-15.618072 J4.002435
G02 X35.337349 Y4.019084 Z-1.000000 I-5.971603 J2.816073
G02 X34.363939 Y3.322426 Z-1.000000 I-2.107045 J1.915702
G02 X31.934697 Y2.542502 Z-1.000000 I-5.150111 J11.867972
G02 X29.202221 Y2.199007 Z-1.000000 I-3.338954 J15.521057
G02 X25.772590 Y2.306935 Z-1.000000 I-0.941490 J24.627946
G03 X24.574250 Y2.386623 Z-1.000000 I-1.745974 J-17.205644
G03 X24.413995 Y2.349975 Z-1.000000 I-0.010260 J-0.323842
G02 X24.256570 Y2.306829 Z-1.000000 I-0.178058 J0.340908
G02 X23.966831 Y2.325945 Z-1.000000 I-0.065304 J1.215543
G03 X23.683063 Y2.328682 Z-1.000000 I-0.149586 J-0.797353
G03 X23.474853 Y2.243445 Z-1.000000 I0.084352 J-0.502969
G02 X23.075221 Y2.107788 Z-1.000000 I-0.432397 J0.617332
G02 X22.367780 Y2.195275 Z-1.000000 I-0.093472 J2.148177
G03 X22.062803 Y2.262945 Z-1.000000 I-0.626618 J-2.102992
G03 X21.548175 Y2.316727 Z-1.000000 I-0.882642 J-5.956710
G02 X21.036194 Y2.381942 Z-1.000000 I0.240735 J3.932205
G02 X20.545694 Y2.511857 Z-1.000000 I0.727640 J3.738162
G03 X20.062011 Y2.606186 Z-1.000000 I-0.594425 J-1.760755
G03 X19.730408 Y2.560527 Z-1.000000 I-0.051095 J-0.855906
G02 X19.394028 Y2.466702 Z-1.000000 I-0.932846 J2.694518
G02 X18.793765 Y2.360169 Z-1.000000 I-1.817510 J8.496445
G03 X16.965260 Y1.737221 Z-1.000000 I0.724776 J-5.122425
G03 X16.151734 Y0.860918 Z-1.000000 I0.978297 J-1.723988
G03 X15.928563 Y0.333460 Z-1.000000 I6.221695 J-2.943385
G03 X15.904669 Y0.201832 Z-1.000000 I0.351631 J-0.131813
G02 X15.789216 Y-0.019849 Z-1.000000 I-0.270809 J0.000135
G02 X15.423475 Y-0.135190 Z-1.000000 I-0.365741 J0.522201
G01 X15.393326 Y-0.117173 Z-1.000000
G02 X15.226471 Y0.231089 Z-1.000000 I3.643142 J1.959557
G01 X15.226473 Y0.231079 Z-1.000000
G00 Z0.000000

(End cutting path id: path24)


(Start cutting path id: path24)
(Change tool to Cone cutter)

G00 Z0.000000
G00 X15.226473 Y0.231079

G01 Z-1.000000 F100.0(Penetrate)
G02 X15.077532 Y0.599677 Z-1.000000 I11.373468 J4.810128 F400.000000
G02 X14.910869 Y1.049821 Z-1.000000 I16.808594 J6.479189
G03 X14.685208 Y1.410273 Z-1.000000 I-0.926092 J-0.328915
G03 X14.465554 Y1.502283 Z-1.000000 I-0.219654 J-0.216185
G01 X14.180937 Y1.502283 Z-1.000000
G01 X14.174137 Y2.084020 Z-1.000000
G03 X14.146991 Y2.558155 Z-1.000000 I-5.205682 J-0.060199
G01 X14.124947 Y2.561291 Z-1.000000
G02 X14.061946 Y2.474233 Z-1.000000 I-0.208577 J0.084614
G02 X13.784584 Y2.272662 Z-1.000000 I-1.482179 J1.747875
G02 X13.491873 Y2.164135 Z-1.000000 I-0.416090 J0.673247
G02 X13.347767 Y2.203722 Z-1.000000 I-0.028275 J0.179158
G02 X13.273007 Y2.346827 Z-1.000000 I0.133441 J0.160791
G02 X13.260867 Y3.226695 Z-1.000000 I6.184429 J0.525349
G02 X13.677368 Y4.747525 Z-1.000000 I3.773111 J-0.215874
G02 X14.557034 Y5.731866 Z-1.000000 I2.352704 J-1.217284
G03 X14.956764 Y6.037031 Z-1.000000 I-2.243135 J3.352628
G01 X14.944859 Y6.068203 Z-1.000000
G03 X14.827495 Y6.062715 Z-1.000000 I0.028335 J-1.863567
G03 X13.319102 Y5.940721 Z-1.000000 I24.170404 J-308.241558
G02 X11.809626 Y5.845034 Z-1.000000 I-3.165969 J37.989562
G02 X10.388183 Y5.813240 Z-1.000000 I-1.463894 J33.657113
G03 X8.984821 Y5.733147 Z-1.000000 I0.016180 J-12.618121
G03 X8.578334 Y5.608300 Z-1.000000 I0.129858 J-1.146967
G02 X7.869469 Y5.361249 Z-1.000000 I-1.183625 J2.255681
G02 X7.374594 Y5.379955 Z-1.000000 I-0.206619 J1.089207
G02 X7.096297 Y5.539694 Z-1.000000 I0.163472 J0.607094
G02 X6.824112 Y5.923563 Z-1.000000 I0.950075 J0.962089
G02 X6.289440 Y8.628403 Z-1.000000 I5.102566 J2.413901
G02 X7.126551 Y11.783657 Z-1.000000 I7.902180 J-0.407832
G02 X8.007047 Y13.067949 Z-1.000000 I5.207718 J-2.626377
G02 X9.535607 Y14.449319 Z-1.000000 I7.575304 J-6.846078
G03 X10.579379 Y15.377369 Z-1.000000 I-4.454318 J6.060729
G03 X11.083111 Y16.106993 Z-1.000000 I-2.215606 J2.068354
G03 X11.276199 Y16.670266 Z-1.000000 I-2.105221 J1.036393
G03 X11.424561 Y17.765678 Z-1.000000 I-7.920831 J1.630547
G02 X11.706811 Y19.299547 Z-1.000000 I6.736935 J-0.446772
G02 X12.057382 Y19.827977 Z-1.000000 I1.067129 J-0.327452
G03 X12.533714 Y20.378636 Z-1.000000 I-1.461234 J1.745347
G03 X12.579920 Y20.675437 Z-1.000000 I-0.329775 J0.203337
G02 X12.658216 Y21.116149 Z-1.000000 I0.533286 J0.132568
G02 X13.467057 Y21.985336 Z-1.000000 I3.201283 J-2.168088
G02 X13.901573 Y22.292188 Z-1.000000 I3.146991 J-3.995208
G02 X14.585735 Y22.690669 Z-1.000000 I6.009069 J-9.530547
G01 X15.285195 Y23.065788 Z-1.000000
G01 X15.078639 Y23.509411 Z-1.000000
G02 X14.924926 Y23.964778 Z-1.000000 I1.980621 J0.922201
G02 X14.871241 Y24.457617 Z-1.000000 I2.270980 J0.496723
G02 X15.008035 Y25.128391 Z-1.000000 I1.699120 J0.002826
G02 X15.711135 Y26.422110 Z-1.000000 I7.227345 J-3.089941
G03 X16.255197 Y27.575590 Z-1.000000 I-3.521178 J2.365884
G03 X16.304430 Y28.411454 Z-1.000000 I-1.752270 J0.522591
G03 X16.126198 Y29.018442 Z-1.000000 I-2.753384 J-0.478824
G03 X15.836714 Y29.520695 Z-1.000000 I-2.162286 J-0.911727
G02 X15.269098 Y31.136995 Z-1.000000 I2.248051 J1.697295
G02 X15.730466 Y33.214226 Z-1.000000 I4.344236 J0.124965
G03 X16.044553 Y33.918871 Z-1.000000 I-7.402240 J3.721776
G03 X16.172758 Y34.345388 Z-1.000000 I-2.571663 J1.005536
G03 X16.171798 Y34.772288 Z-1.000000 I-0.984936 J0.211236
G03 X15.922440 Y35.487498 Z-1.000000 I-3.097714 J-0.678944
G02 X15.489862 Y36.603989 Z-1.000000 I6.293373 J3.080379
G02 X15.389873 Y37.311445 Z-1.000000 I2.394895 J0.699278
G02 X15.599350 Y38.096869 Z-1.000000 I1.597172 J-0.005329
G02 X16.312585 Y38.930632 Z-1.000000 I2.527742 J-1.440388
G03 X16.881118 Y39.438808 Z-1.000000 I-4.252417 J5.329597
G03 X17.490256 Y40.108190 Z-1.000000 I-6.791032 J6.791696
G02 X18.519123 Y41.106374 Z-1.000000 I5.060173 J-4.186381
G02 X19.105452 Y41.364100 Z-1.000000 I0.804720 J-1.034931
G03 X19.436550 Y41.470344 Z-1.000000 I-0.203036 J1.201768
G03 X19.985605 Y41.793227 Z-1.000000 I-1.792247 J3.675950
G02 X20.971477 Y42.277050 Z-1.000000 I2.058304 J-2.947793
G02 X21.533670 Y42.277021 Z-1.000000 I0.281049 J-0.899314
G03 X21.812906 Y42.215261 Z-1.000000 I0.500603 J1.601258
G03 X22.881640 Y42.097590 Z-1.000000 I3.128925 J23.506028
G02 X25.774219 Y41.434207 Z-1.000000 I-0.934099 J-10.710999
G02 X27.255100 Y40.431939 Z-1.000000 I-1.389332 J-3.647937
G02 X27.744430 Y39.732675 Z-1.000000 I-2.346263 J-2.162709
G02 X28.139540 Y38.718233 Z-1.000000 I-4.613764 J-2.381157
G02 X28.548942 Y36.802415 Z-1.000000 I-16.929847 J-4.619488
G02 X29.218953 Y31.795714 Z-1.000000 I-115.276806 J-17.974852
G03 X29.562668 Y29.043925 Z-1.000000 I106.996440 J11.967129
G03 X29.703057 Y28.287901 Z-1.000000 I8.200413 J1.131722
G03 X30.416913 Y26.501026 Z-1.000000 I6.268080 J1.468065
G03 X32.201644 Y24.024313 Z-1.000000 I13.980273 J8.192854
G03 X32.994993 Y23.245168 Z-1.000000 I5.535033 J4.842458
G03 X33.589563 Y22.853637 Z-1.000000 I1.943553 J2.304220
G02 X34.622540 Y22.145736 Z-1.000000 I-2.054422 J-4.105451
G02 X35.565063 Y21.058472 Z-1.000000 I-4.076345 J-4.485842
G02 X36.638786 Y18.975245 Z-1.000000 I-8.150521 J-5.519206
G02 X37.363159 Y16.231297 Z-1.000000 I-13.525523 J-5.038181
G03 X37.543243 Y15.163748 Z-1.000000 I71.448422 J11.503613
G03 X37.726545 Y14.171228 Z-1.000000 I61.893119 J10.917449
G02 X37.995378 Y11.511098 Z-1.000000 I-14.614339 J-2.820575
G02 X37.774395 Y9.732788 Z-1.000000 I-6.685767 J-0.072074
G03 X37.638984 Y9.215412 Z-1.000000 I126.074688 J-33.273558
G03 X37.459341 Y8.518859 Z-1.000000 I227.255999 J-58.981324
G02 X36.423890 Y5.644461 Z-1.000000 I-15.618072 J4.002435
G02 X35.337349 Y4.019084 Z-1.000000 I-5.971603 J2.816073
G02 X34.363939 Y3.322426 Z-1.000000 I-2.107045 J1.915702
G02 X31.934697 Y2.542502 Z-1.000000 I-5.150111 J11.867972
G02 X29.202221 Y2.199007 Z-1.000000 I-3.338954 J15.521057
G02 X25.772590 Y2.306935 Z-1.000000 I-0.941490 J24.627946
G03 X24.574250 Y2.386623 Z-1.000000 I-1.745974 J-17.205644
G03 X24.413995 Y2.349975 Z-1.000000 I-0.010260 J-0.323842
G02 X24.256570 Y2.306829 Z-1.000000 I-0.178058 J0.340908
G02 X23.966831 Y2.325945 Z-1.000000 I-0.065304 J1.215543
G03 X23.683063 Y2.328682 Z-1.000000 I-0.149586 J-0.797353
G03 X23.474853 Y2.243445 Z-1.000000 I0.084352 J-0.502969
G02 X23.075221 Y2.107788 Z-1.000000 I-0.432397 J0.617332
G02 X22.367780 Y2.195275 Z-1.000000 I-0.093472 J2.148177
G03 X22.062803 Y2.262945 Z-1.000000 I-0.626618 J-2.102992
G03 X21.548175 Y2.316727 Z-1.000000 I-0.882642 J-5.956710
G02 X21.036194 Y2.381942 Z-1.000000 I0.240735 J3.932205
G02 X20.545694 Y2.511857 Z-1.000000 I0.727640 J3.738162
G03 X20.062011 Y2.606186 Z-1.000000 I-0.594425 J-1.760755
G03 X19.730408 Y2.560527 Z-1.000000 I-0.051095 J-0.855906
G02 X19.394028 Y2.466702 Z-1.000000 I-0.932846 J2.694518
G02 X18.793765 Y2.360169 Z-1.000000 I-1.817510 J8.496445
G03 X16.965260 Y1.737221 Z-1.000000 I0.724776 J-5.122425
G03 X16.151734 Y0.860918 Z-1.000000 I0.978297 J-1.723988
G03 X15.928563 Y0.333460 Z-1.000000 I6.221695 J-2.943385
G03 X15.904669 Y0.201832 Z-1.000000 I0.351631 J-0.131813
G02 X15.789216 Y-0.019849 Z-1.000000 I-0.270809 J0.000135
G02 X15.423475 Y-0.135190 Z-1.000000 I-0.365741 J0.522201
G01 X15.393326 Y-0.117173 Z-1.000000
G02 X15.226471 Y0.231089 Z-1.000000 I3.643142 J1.959557
G01 X15.226473 Y0.231079 Z-1.000000
G00 Z0.000000

(End cutting path id: path24)


(Start cutting path id: path24)
(Change tool to Cone cutter)

G00 Z0.000000
G00 X15.680426 Y0.753557

G01 Z-1.000000 F100.0(Penetrate)
G02 X15.993090 Y1.483871 Z-1.000000 I1.796466 J-0.337022 F400.000000
G02 X16.654570 Y2.107804 Z-1.000000 I1.943980 J-1.398354
G02 X17.248584 Y2.382205 Z-1.000000 I1.326940 J-2.092366
G02 X18.466849 Y2.669019 Z-1.000000 I2.681483 J-8.659060
G03 X19.092507 Y2.966125 Z-1.000000 I-0.201429 J1.231499
G03 X19.076110 Y3.208313 Z-1.000000 I-0.101591 J0.114771
G02 X17.001415 Y4.802505 Z-1.000000 I11.055196 J16.534435
G02 X16.238223 Y5.702324 Z-1.000000 I2.670054 J3.038202
G01 X16.064635 Y5.981026 Z-1.000000
G01 X15.704524 Y5.797922 Z-1.000000
G03 X14.751161 Y5.222520 Z-1.000000 I3.477321 J-6.838952
G03 X14.121585 Y4.678190 Z-1.000000 I2.475012 J-3.498864
G03 X13.797126 Y4.143908 Z-1.000000 I1.061771 J-1.010453
G03 X13.663837 Y3.345590 Z-1.000000 I2.324068 J-0.798318
G01 X13.663837 Y2.786986 Z-1.000000
G01 X13.876588 Y2.941830 Z-1.000000
G03 X14.036449 Y3.123971 Z-1.000000 I-0.324869 J0.446355
G03 X14.092046 Y3.337112 Z-1.000000 I-0.400457 J0.218279
G02 X14.128356 Y3.569274 Z-1.000000 I0.819828 J-0.009299
G02 X14.275117 Y3.931090 Z-1.000000 I2.161887 J-0.666240
G02 X14.983688 Y4.957034 Z-1.000000 I4.197792 J-2.141557
G02 X15.356205 Y5.121982 Z-1.000000 I0.372517 J-0.338169
G02 X15.498059 Y4.944447 Z-1.000000 I0.000000 J-0.145440
G02 X15.077667 Y3.890893 Z-1.000000 I-3.534507 J0.799698
G03 X14.748866 Y3.203640 Z-1.000000 I3.618844 J-2.153637
G03 X14.633580 Y2.695370 Z-1.000000 I1.847440 J-0.686246
G03 X14.752624 Y2.622506 Z-1.000000 I0.077519 J-0.007029
G03 X14.969313 Y2.907136 Z-1.000000 I-0.272778 J0.432463
G02 X15.473669 Y4.048479 Z-1.000000 I4.876904 J-1.472981
G02 X15.715212 Y4.154678 Z-1.000000 I0.195514 J-0.116897
G02 X15.881442 Y3.929824 Z-1.000000 I-0.042334 J-0.205168
G02 X15.603190 Y2.967849 Z-1.000000 I-2.674854 J0.252473
G01 X15.375662 Y2.518843 Z-1.000000
G01 X15.721933 Y2.797116 Z-1.000000
G02 X16.076971 Y3.019389 Z-1.000000 I1.118322 J-1.391612
G02 X16.201862 Y3.024098 Z-1.000000 I0.067952 J-0.143676
G02 X16.282896 Y2.859592 Z-1.000000 I-0.048364 J-0.126035
G02 X16.073095 Y2.590995 Z-1.000000 I-0.446964 J0.132888
G03 X15.841381 Y2.403609 Z-1.000000 I0.519302 J-0.879104
G03 X15.501658 Y1.970570 Z-1.000000 I2.561847 J-2.359571
G03 X15.271066 Y1.488140 Z-1.000000 I1.593293 J-1.057885
G03 X15.247193 Y1.164051 Z-1.000000 I0.673663 J-0.212548
G03 X15.495394 Y0.693582 Z-1.000000 I0.817898 J0.130786
G03 X15.680426 Y0.753557 Z-1.000000 I0.076177 J0.080396
G01 X15.680426 Y0.753557 Z-1.000000
G00 Z0.000000

(End cutting path id: path24)


(Start cutting path id: path24)
(Change tool to Cone cutter)

G00 Z0.000000
G00 X15.680426 Y0.753557

G01 Z-1.000000 F100.0(Penetrate)
G02 X15.993090 Y1.483871 Z-1.000000 I1.796466 J-0.337022 F400.000000
G02 X16.654570 Y2.107804 Z-1.000000 I1.943980 J-1.398354
G02 X17.248584 Y2.382205 Z-1.000000 I1.326940 J-2.092366
G02 X18.466849 Y2.669019 Z-1.000000 I2.681483 J-8.659060
G03 X19.092507 Y2.966125 Z-1.000000 I-0.201429 J1.231499
G03 X19.076110 Y3.208313 Z-1.000000 I-0.101591 J0.114771
G02 X17.001415 Y4.802505 Z-1.000000 I11.055196 J16.534435
G02 X16.238223 Y5.702324 Z-1.000000 I2.670054 J3.038202
G01 X16.064635 Y5.981026 Z-1.000000
G01 X15.704524 Y5.797922 Z-1.000000
G03 X14.751161 Y5.222520 Z-1.000000 I3.477321 J-6.838952
G03 X14.121585 Y4.678190 Z-1.000000 I2.475012 J-3.498864
G03 X13.797126 Y4.143908 Z-1.000000 I1.061771 J-1.010453
G03 X13.663837 Y3.345590 Z-1.000000 I2.324068 J-0.798318
G01 X13.663837 Y2.786986 Z-1.000000
G01 X13.876588 Y2.941830 Z-1.000000
G03 X14.036449 Y3.123971 Z-1.000000 I-0.324869 J0.446355
G03 X14.092046 Y3.337112 Z-1.000000 I-0.400457 J0.218279
G02 X14.128356 Y3.569274 Z-1.000000 I0.819828 J-0.009299
G02 X14.275117 Y3.931090 Z-1.000000 I2.161887 J-0.666240
G02 X14.983688 Y4.957034 Z-1.000000 I4.197792 J-2.141557
G02 X15.356205 Y5.121982 Z-1.000000 I0.372517 J-0.338169
G02 X15.498059 Y4.944447 Z-1.000000 I0.000000 J-0.145440
G02 X15.077667 Y3.890893 Z-1.000000 I-3.534507 J0.799698
G03 X14.748866 Y3.203640 Z-1.000000 I3.618844 J-2.153637
G03 X14.633580 Y2.695370 Z-1.000000 I1.847440 J-0.686246
G03 X14.752624 Y2.622506 Z-1.000000 I0.077519 J-0.007029
G03 X14.969313 Y2.907136 Z-1.000000 I-0.272778 J0.432463
G02 X15.473669 Y4.048479 Z-1.000000 I4.876904 J-1.472981
G02 X15.715212 Y4.154678 Z-1.000000 I0.195514 J-0.116897
G02 X15.881442 Y3.929824 Z-1.000000 I-0.042334 J-0.205168
G02 X15.603190 Y2.967849 Z-1.000000 I-2.674854 J0.252473
G01 X15.375662 Y2.518843 Z-1.000000
G01 X15.721933 Y2.797116 Z-1.000000
G02 X16.076971 Y3.019389 Z-1.000000 I1.118322 J-1.391612
G02 X16.201862 Y3.024098 Z-1.000000 I0.067952 J-0.143676
G02 X16.282896 Y2.859592 Z-1.000000 I-0.048364 J-0.126035
G02 X16.073095 Y2.590995 Z-1.000000 I-0.446964 J0.132888
G03 X15.841381 Y2.403609 Z-1.000000 I0.519302 J-0.879104
G03 X15.501658 Y1.970570 Z-1.000000 I2.561847 J-2.359571
G03 X15.271066 Y1.488140 Z-1.000000 I1.593293 J-1.057885
G03 X15.247193 Y1.164051 Z-1.000000 I0.673663 J-0.212548
G03 X15.495394 Y0.693582 Z-1.000000 I0.817898 J0.130786
G03 X15.680426 Y0.753557 Z-1.000000 I0.076177 J0.080396
G01 X15.680426 Y0.753557 Z-1.000000
G00 Z0.000000

(End cutting path id: path24)


(Start cutting path id: path24)
(Change tool to Cone cutter)

G00 Z0.000000
G00 X13.017462 Y6.300896

G01 Z-1.000000 F100.0(Penetrate)
G02 X14.137725 Y6.360054 Z-1.000000 I5.031239 J-84.638412 F400.000000
G02 X14.245575 Y6.357596 Z-1.000000 I0.036122 J-0.782266
G01 X14.288955 Y6.406920 Z-1.000000
G03 X14.127154 Y6.887875 Z-1.000000 I-2.366905 J-0.528572
G02 X13.833541 Y7.952864 Z-1.000000 I3.146123 J1.440343
G02 X13.920712 Y8.779694 Z-1.000000 I1.948298 J0.212604
G02 X14.057841 Y9.083448 Z-1.000000 I1.505934 J-0.497021
G02 X14.272492 Y9.381004 Z-1.000000 I1.658833 J-0.970446
G01 X14.518167 Y9.660812 Z-1.000000
G01 X14.308506 Y10.170808 Z-1.000000
G02 X14.115778 Y10.684309 Z-1.000000 I8.185805 J3.365233
G02 X14.096800 Y10.792812 Z-1.000000 I0.337920 J0.115015
G03 X13.960643 Y11.192045 Z-1.000000 I-0.690031 J-0.012499
G03 X13.548776 Y11.530115 Z-1.000000 I-0.884192 J-0.657279
G03 X13.245486 Y11.646338 Z-1.000000 I-0.903602 J-1.904159
G03 X12.471309 Y11.850264 Z-1.000000 I-3.647780 J-12.276807
G02 X11.741173 Y12.087145 Z-1.000000 I0.986357 J4.283931
G02 X11.633224 Y12.205726 Z-1.000000 I0.074910 J0.176619
G03 X11.533967 Y12.310100 Z-1.000000 I-0.156862 J-0.049789
G03 X11.289272 Y12.334247 Z-1.000000 I-0.167872 J-0.449261
G03 X10.443553 Y11.845697 Z-1.000000 I0.220321 J-1.357671
G03 X9.730462 Y10.422253 Z-1.000000 I2.832599 J-2.309360
G03 X9.471886 Y7.681257 Z-1.000000 I8.890663 J-2.221408
G03 X9.939506 Y6.741239 Z-1.000000 I1.330525 J0.075561
G03 X10.306141 Y6.522807 Z-1.000000 I0.831256 J0.978336
G03 X11.293796 Y6.215464 Z-1.000000 I2.729315 J7.030143
G03 X11.467025 Y6.192685 Z-1.000000 I0.197583 J0.832484
G03 X11.681621 Y6.204424 Z-1.000000 I0.036841 J1.293798
G02 X11.897782 Y6.227189 Z-1.000000 I0.454566 J-3.278575
G02 X13.017462 Y6.300894 Z-1.000000 I6.356306 J-88.019701
G01 X13.017462 Y6.300896 Z-1.000000
G00 Z0.000000

(End cutting path id: path24)


(Start cutting path id: path24)
(Change tool to Cone cutter)

G00 Z0.000000
G00 X13.017462 Y6.300896

G01 Z-1.000000 F100.0(Penetrate)
G02 X14.137725 Y6.360054 Z-1.000000 I5.031239 J-84.638412 F400.000000
G02 X14.245575 Y6.357596 Z-1.000000 I0.036122 J-0.782266
G01 X14.288955 Y6.406920 Z-1.000000
G03 X14.127154 Y6.887875 Z-1.000000 I-2.366905 J-0.528572
G02 X13.833541 Y7.952864 Z-1.000000 I3.146123 J1.440343
G02 X13.920712 Y8.779694 Z-1.000000 I1.948298 J0.212604
G02 X14.057841 Y9.083448 Z-1.000000 I1.505934 J-0.497021
G02 X14.272492 Y9.381004 Z-1.000000 I1.658833 J-0.970446
G01 X14.518167 Y9.660812 Z-1.000000
G01 X14.308506 Y10.170808 Z-1.000000
G02 X14.115778 Y10.684309 Z-1.000000 I8.185805 J3.365233
G02 X14.096800 Y10.792812 Z-1.000000 I0.337920 J0.115015
G03 X13.960643 Y11.192045 Z-1.000000 I-0.690031 J-0.012499
G03 X13.548776 Y11.530115 Z-1.000000 I-0.884192 J-0.657279
G03 X13.245486 Y11.646338 Z-1.000000 I-0.903602 J-1.904159
G03 X12.471309 Y11.850264 Z-1.000000 I-3.647780 J-12.276807
G02 X11.741173 Y12.087145 Z-1.000000 I0.986357 J4.283931
G02 X11.633224 Y12.205726 Z-1.000000 I0.074910 J0.176619
G03 X11.533967 Y12.310100 Z-1.000000 I-0.156862 J-0.049789
G03 X11.289272 Y12.334247 Z-1.000000 I-0.167872 J-0.449261
G03 X10.443553 Y11.845697 Z-1.000000 I0.220321 J-1.357671
G03 X9.730462 Y10.422253 Z-1.000000 I2.832599 J-2.309360
G03 X9.471886 Y7.681257 Z-1.000000 I8.890663 J-2.221408
G03 X9.939506 Y6.741239 Z-1.000000 I1.330525 J0.075561
G03 X10.306141 Y6.522807 Z-1.000000 I0.831256 J0.978336
G03 X11.293796 Y6.215464 Z-1.000000 I2.729315 J7.030143
G03 X11.467025 Y6.192685 Z-1.000000 I0.197583 J0.832484
G03 X11.681621 Y6.204424 Z-1.000000 I0.036841 J1.293798
G02 X11.897782 Y6.227189 Z-1.000000 I0.454566 J-3.278575
G02 X13.017462 Y6.300894 Z-1.000000 I6.356306 J-88.019701
G01 X13.017462 Y6.300896 Z-1.000000
G00 Z0.000000

(End cutting path id: path24)


(Start cutting path id: path24)
(Change tool to Cone cutter)

G00 Z0.000000
G00 X8.363564 Y6.029155

G01 Z-1.000000 F100.0(Penetrate)
G02 X8.721372 Y6.195790 Z-1.000000 I0.892693 J-1.449375 F400.000000
G02 X9.009939 Y6.243100 Z-1.000000 I0.293581 J-0.886973
G03 X9.309547 Y6.259842 Z-1.000000 I-0.015899 J2.973706
G03 X9.500864 Y6.295470 Z-1.000000 I-0.132798 J1.244597
G01 X9.690149 Y6.346230 Z-1.000000
G01 X9.482659 Y6.660576 Z-1.000000
G02 X9.034995 Y8.031505 Z-1.000000 I2.274342 J1.501220
G02 X9.291785 Y10.648269 Z-1.000000 I9.047925 J0.433086
G02 X9.816967 Y11.961465 Z-1.000000 I5.026120 J-1.248463
G02 X10.341532 Y12.492721 Z-1.000000 I1.254241 J-0.713837
G02 X11.441654 Y12.807774 Z-1.000000 I1.163973 J-1.986171
G02 X12.091332 Y12.541271 Z-1.000000 I0.024043 J-0.866527
G03 X12.263405 Y12.422368 Z-1.000000 I0.376912 J0.361495
G03 X12.715821 Y12.274991 Z-1.000000 I1.060111 J2.486216
G02 X13.869654 Y11.661438 Z-1.000000 I-0.567338 J-2.458633
G02 X14.517162 Y10.594621 Z-1.000000 I-1.569575 J-1.682571
G03 X14.639678 Y10.263322 Z-1.000000 I2.045260 J0.568047
G03 X14.778150 Y10.036648 Z-1.000000 I1.087248 J0.508550
G03 X14.952956 Y9.931816 Z-1.000000 I0.222011 J0.172041
G03 X15.115470 Y9.979138 Z-1.000000 I0.032551 J0.190926
G03 X15.416598 Y10.633705 Z-1.000000 I-0.614855 J0.679408
G03 X15.205330 Y13.292571 Z-1.000000 I-12.552634 J0.340421
G03 X14.661424 Y14.185917 Z-1.000000 I-1.454340 J-0.273214
G03 X13.776189 Y14.407935 Z-1.000000 I-0.693235 J-0.888258
G02 X12.751025 Y14.393652 Z-1.000000 I-0.557605 J3.224469
G02 X12.459480 Y14.598021 Z-1.000000 I0.056385 J0.390574
G02 X12.451502 Y14.924313 Z-1.000000 I0.319626 J0.171059
G02 X12.728801 Y15.166458 Z-1.000000 I0.416858 J-0.197526
G02 X13.665700 Y15.290846 Z-1.000000 I0.819521 J-2.582096
G02 X14.432469 Y15.092578 Z-1.000000 I-0.082426 J-1.900578
G03 X14.629194 Y15.045879 Z-1.000000 I0.198235 J0.397372
G01 X14.660877 Y15.091802 Z-1.000000
G02 X14.614061 Y15.233903 Z-1.000000 I1.451812 J0.557069
G02 X14.464690 Y15.800334 Z-1.000000 I22.961127 J6.357893
G03 X14.270642 Y16.339763 Z-1.000000 I-2.791526 J-0.699573
G03 X14.075470 Y16.616297 Z-1.000000 I-0.905420 J-0.431887
G03 X13.798171 Y16.780433 Z-1.000000 I-0.457082 J-0.455909
G03 X13.357202 Y16.824560 Z-1.000000 I-0.340053 J-1.172789
G03 X12.910709 Y16.714898 Z-1.000000 I0.120696 J-1.455208
G03 X12.275639 Y16.368643 Z-1.000000 I1.403795 J-3.330236
G03 X11.693575 Y15.922465 Z-1.000000 I3.790876 J-5.548163
G03 X11.436612 Y15.649511 Z-1.000000 I1.142610 J-1.333102
G02 X10.634073 Y14.741033 Z-1.000000 I-6.422614 J4.864949
G02 X9.562799 Y13.825467 Z-1.000000 I-7.595679 J7.802938
G03 X7.886148 Y11.973322 Z-1.000000 I3.909015 J-5.223596
G03 X6.988478 Y9.560449 Z-1.000000 I5.931246 J-3.580040
G03 X6.890703 Y8.781842 Z-1.000000 I8.721959 J-1.490723
G03 X6.855632 Y7.915118 Z-1.000000 I10.777060 J-0.870153
G03 X7.461604 Y6.185993 Z-1.000000 I2.767355 J-0.000924
G03 X8.363565 Y6.029182 Z-1.000000 I0.539626 J0.431475
G01 X8.363564 Y6.029155 Z-1.000000
G00 Z0.000000

(End cutting path id: path24)


(Start cutting path id: path24)
(Change tool to Cone cutter)

G00 Z0.000000
G00 X8.363564 Y6.029155

G01 Z-1.000000 F100.0(Penetrate)
G02 X8.721372 Y6.195790 Z-1.000000 I0.892693 J-1.449375 F400.000000
G02 X9.009939 Y6.243100 Z-1.000000 I0.293581 J-0.886973
G03 X9.309547 Y6.259842 Z-1.000000 I-0.015899 J2.973706
G03 X9.500864 Y6.295470 Z-1.000000 I-0.132798 J1.244597
G01 X9.690149 Y6.346230 Z-1.000000
G01 X9.482659 Y6.660576 Z-1.000000
G02 X9.034995 Y8.031505 Z-1.000000 I2.274342 J1.501220
G02 X9.291785 Y10.648269 Z-1.000000 I9.047925 J0.433086
G02 X9.816967 Y11.961465 Z-1.000000 I5.026120 J-1.248463
G02 X10.341532 Y12.492721 Z-1.000000 I1.254241 J-0.713837
G02 X11.441654 Y12.807774 Z-1.000000 I1.163973 J-1.986171
G02 X12.091332 Y12.541271 Z-1.000000 I0.024043 J-0.866527
G03 X12.263405 Y12.422368 Z-1.000000 I0.376912 J0.361495
G03 X12.715821 Y12.274991 Z-1.000000 I1.060111 J2.486216
G02 X13.869654 Y11.661438 Z-1.000000 I-0.567338 J-2.458633
G02 X14.517162 Y10.594621 Z-1.000000 I-1.569575 J-1.682571
G03 X14.639678 Y10.263322 Z-1.000000 I2.045260 J0.568047
G03 X14.778150 Y10.036648 Z-1.000000 I1.087248 J0.508550
G03 X14.952956 Y9.931816 Z-1.000000 I0.222011 J0.172041
G03 X15.115470 Y9.979138 Z-1.000000 I0.032551 J0.190926
G03 X15.416598 Y10.633705 Z-1.000000 I-0.614855 J0.679408
G03 X15.205330 Y13.292571 Z-1.000000 I-12.552634 J0.340421
G03 X14.661424 Y14.185917 Z-1.000000 I-1.454340 J-0.273214
G03 X13.776189 Y14.407935 Z-1.000000 I-0.693235 J-0.888258
G02 X12.751025 Y14.393652 Z-1.000000 I-0.557605 J3.224469
G02 X12.459480 Y14.598021 Z-1.000000 I0.056385 J0.390574
G02 X12.451502 Y14.924313 Z-1.000000 I0.319626 J0.171059
G02 X12.728801 Y15.166458 Z-1.000000 I0.416858 J-0.197526
G02 X13.665700 Y15.290846 Z-1.000000 I0.819521 J-2.582096
G02 X14.432469 Y15.092578 Z-1.000000 I-0.082426 J-1.900578
G03 X14.629194 Y15.045879 Z-1.000000 I0.198235 J0.397372
G01 X14.660877 Y15.091802 Z-1.000000
G02 X14.614061 Y15.233903 Z-1.000000 I1.451812 J0.557069
G02 X14.464690 Y15.800334 Z-1.000000 I22.961127 J6.357893
G03 X14.270642 Y16.339763 Z-1.000000 I-2.791526 J-0.699573
G03 X14.075470 Y16.616297 Z-1.000000 I-0.905420 J-0.431887
G03 X13.798171 Y16.780433 Z-1.000000 I-0.457082 J-0.455909
G03 X13.357202 Y16.824560 Z-1.000000 I-0.340053 J-1.172789
G03 X12.910709 Y16.714898 Z-1.000000 I0.120696 J-1.455208
G03 X12.275639 Y16.368643 Z-1.000000 I1.403795 J-3.330236
G03 X11.693575 Y15.922465 Z-1.000000 I3.790876 J-5.548163
G03 X11.436612 Y15.649511 Z-1.000000 I1.142610 J-1.333102
G02 X10.634073 Y14.741033 Z-1.000000 I-6.422614 J4.864949
G02 X9.562799 Y13.825467 Z-1.000000 I-7.595679 J7.802938
G03 X7.886148 Y11.973322 Z-1.000000 I3.909015 J-5.223596
G03 X6.988478 Y9.560449 Z-1.000000 I5.931246 J-3.580040
G03 X6.890703 Y8.781842 Z-1.000000 I8.721959 J-1.490723
G03 X6.855632 Y7.915118 Z-1.000000 I10.777060 J-0.870153
G03 X7.461604 Y6.185993 Z-1.000000 I2.767355 J-0.000924
G03 X8.363565 Y6.029182 Z-1.000000 I0.539626 J0.431475
G01 X8.363564 Y6.029155 Z-1.000000
G00 Z0.000000

(End cutting path id: path24)


(Start cutting path id: path24)
(Change tool to Cone cutter)

G00 Z0.000000
G00 X17.385655 Y9.938657

G01 Z-1.000000 F100.0(Penetrate)
G03 X17.525516 Y10.067582 Z-1.000000 I-0.092318 J0.240474 F400.000000
G03 X17.747959 Y10.692761 Z-1.000000 I-2.825459 J1.357479
G02 X18.689997 Y13.539272 Z-1.000000 I17.414364 J-4.184054
G02 X20.005070 Y15.981078 Z-1.000000 I14.093577 J-6.015290
G02 X20.755153 Y16.983667 Z-1.000000 I9.057562 J-5.994494
G02 X22.267868 Y18.667647 Z-1.000000 I27.151480 J-22.868692
G03 X22.404906 Y19.283300 Z-1.000000 I-0.439532 J0.420914
G03 X21.937435 Y19.645966 Z-1.000000 I-0.507358 J-0.171363
G02 X18.535377 Y20.366505 Z-1.000000 I0.968248 J12.963382
G02 X16.890012 Y21.447736 Z-1.000000 I1.400835 J3.924257
G01 X16.539580 Y21.823211 Z-1.000000
G01 X16.014696 Y20.819723 Z-1.000000
G03 X15.405435 Y19.148122 Z-1.000000 I5.970614 J-3.122987
G03 X15.175513 Y17.015277 Z-1.000000 I9.565740 J-2.110006
G03 X15.258292 Y15.602574 Z-1.000000 I12.597593 J0.029396
G03 X15.493309 Y14.257412 Z-1.000000 I11.652605 J1.342745
G02 X15.927377 Y11.839590 Z-1.000000 I-22.327631 J-5.256318
G02 X15.918865 Y10.844917 Z-1.000000 I-3.732291 J-0.465435
G02 X15.819971 Y10.253714 Z-1.000000 I-12.078262 J1.716524
G02 X15.776339 Y10.105044 Z-1.000000 I-0.800636 J0.154236
G03 X15.801930 Y10.009588 Z-1.000000 I0.076555 J-0.030634
G03 X16.005405 Y9.924925 Z-1.000000 I0.253514 J0.322438
G03 X17.015435 Y9.868129 Z-1.000000 I0.933882 J7.598395
G03 X17.385655 Y9.938655 Z-1.000000 I-0.010568 J1.062467
G01 X17.385655 Y9.938657 Z-1.000000
G00 Z0.000000

(End cutting path id: path24)


(Start cutting path id: path24)
(Change tool to Cone cutter)

G00 Z0.000000
G00 X17.385655 Y9.938657

G01 Z-1.000000 F100.0(Penetrate)
G03 X17.525516 Y10.067582 Z-1.000000 I-0.092318 J0.240474 F400.000000
G03 X17.747959 Y10.692761 Z-1.000000 I-2.825459 J1.357479
G02 X18.689997 Y13.539272 Z-1.000000 I17.414364 J-4.184054
G02 X20.005070 Y15.981078 Z-1.000000 I14.093577 J-6.015290
G02 X20.755153 Y16.983667 Z-1.000000 I9.057562 J-5.994494
G02 X22.267868 Y18.667647 Z-1.000000 I27.151480 J-22.868692
G03 X22.404906 Y19.283300 Z-1.000000 I-0.439532 J0.420914
G03 X21.937435 Y19.645966 Z-1.000000 I-0.507358 J-0.171363
G02 X18.535377 Y20.366505 Z-1.000000 I0.968248 J12.963382
G02 X16.890012 Y21.447736 Z-1.000000 I1.400835 J3.924257
G01 X16.539580 Y21.823211 Z-1.000000
G01 X16.014696 Y20.819723 Z-1.000000
G03 X15.405435 Y19.148122 Z-1.000000 I5.970614 J-3.122987
G03 X15.175513 Y17.015277 Z-1.000000 I9.565740 J-2.110006
G03 X15.258292 Y15.602574 Z-1.000000 I12.597593 J0.029396
G03 X15.493309 Y14.257412 Z-1.000000 I11.652605 J1.342745
G02 X15.927377 Y11.839590 Z-1.000000 I-22.327631 J-5.256318
G02 X15.918865 Y10.844917 Z-1.000000 I-3.732291 J-0.465435
G02 X15.819971 Y10.253714 Z-1.000000 I-12.078262 J1.716524
G02 X15.776339 Y10.105044 Z-1.000000 I-0.800636 J0.154236
G03 X15.801930 Y10.009588 Z-1.000000 I0.076555 J-0.030634
G03 X16.005405 Y9.924925 Z-1.000000 I0.253514 J0.322438
G03 X17.015435 Y9.868129 Z-1.000000 I0.933882 J7.598395
G03 X17.385655 Y9.938655 Z-1.000000 I-0.010568 J1.062467
G01 X17.385655 Y9.938657 Z-1.000000
G00 Z0.000000

(End cutting path id: path24)


(Start cutting path id: path24)
(Change tool to Cone cutter)

G00 Z0.000000
G00 X20.686063 Y8.978684

G01 Z-1.000000 F100.0(Penetrate)
G02 X21.046982 Y10.293519 Z-1.000000 I8.115676 J-1.520782 F400.000000
G02 X22.091820 Y12.823093 Z-1.000000 I31.244109 J-11.424772
G02 X23.967770 Y16.189079 Z-1.000000 I23.157491 J-10.700509
G02 X25.935718 Y18.638618 Z-1.000000 I14.149954 J-9.352718
G02 X27.487698 Y19.913937 Z-1.000000 I6.376187 J-6.177414
G02 X29.396857 Y20.879038 Z-1.000000 I5.471284 J-8.452377
G03 X30.503429 Y21.343680 Z-1.000000 I-5.911097 J15.627636
G03 X31.428707 Y21.819410 Z-1.000000 I-5.273765 J11.394961
G02 X32.346745 Y22.309276 Z-1.000000 I9.812788 J-17.284585
G02 X32.700877 Y22.456032 Z-1.000000 I1.207083 J-2.412123
G01 X33.066145 Y22.577788 Z-1.000000
G01 X32.435785 Y22.898429 Z-1.000000
G03 X31.270999 Y23.289721 Z-1.000000 I-1.908627 J-3.752247
G03 X30.133707 Y23.311693 Z-1.000000 I-0.637462 J-3.550957
G03 X28.136511 Y22.597232 Z-1.000000 I0.723354 J-5.170754
G03 X23.477417 Y19.248051 Z-1.000000 I19.908090 J-32.609690
G03 X21.048092 Y16.732114 Z-1.000000 I10.781288 J-12.840954
G03 X19.258972 Y13.850652 Z-1.000000 I12.424588 J-9.710683
G03 X18.038191 Y10.784043 Z-1.000000 I21.562844 J-10.360213
G03 X17.990309 Y9.887617 Z-1.000000 I1.685314 J-0.539511
G03 X18.056319 Y9.796269 Z-1.000000 I0.134548 J0.027703
G03 X18.619378 Y9.525455 Z-1.000000 I2.106642 J3.659252
G02 X19.215574 Y9.272891 Z-1.000000 I-4.474585 J-11.392558
G02 X19.825944 Y8.976241 Z-1.000000 I-5.570246 J-12.237268
G03 X20.434014 Y8.681940 Z-1.000000 I5.777644 J11.162164
G03 X20.527365 Y8.659736 Z-1.000000 I0.104291 J0.231123
G03 X20.591902 Y8.697830 Z-1.000000 I0.002929 J0.068752
G03 X20.686063 Y8.978684 Z-1.000000 I-0.962155 J0.478790
G01 X20.686063 Y8.978684 Z-1.000000
G00 Z0.000000

(End cutting path id: path24)


(Start cutting path id: path24)
(Change tool to Cone cutter)

G00 Z0.000000
G00 X20.686063 Y8.978684

G01 Z-1.000000 F100.0(Penetrate)
G02 X21.046982 Y10.293519 Z-1.000000 I8.115676 J-1.520782 F400.000000
G02 X22.091820 Y12.823093 Z-1.000000 I31.244109 J-11.424772
G02 X23.967770 Y16.189079 Z-1.000000 I23.157491 J-10.700509
G02 X25.935718 Y18.638618 Z-1.000000 I14.149954 J-9.352718
G02 X27.487698 Y19.913937 Z-1.000000 I6.376187 J-6.177414
G02 X29.396857 Y20.879038 Z-1.000000 I5.471284 J-8.452377
G03 X30.503429 Y21.343680 Z-1.000000 I-5.911097 J15.627636
G03 X31.428707 Y21.819410 Z-1.000000 I-5.273765 J11.394961
G02 X32.346745 Y22.309276 Z-1.000000 I9.812788 J-17.284585
G02 X32.700877 Y22.456032 Z-1.000000 I1.207083 J-2.412123
G01 X33.066145 Y22.577788 Z-1.000000
G01 X32.435785 Y22.898429 Z-1.000000
G03 X31.270999 Y23.289721 Z-1.000000 I-1.908627 J-3.752247
G03 X30.133707 Y23.311693 Z-1.000000 I-0.637462 J-3.550957
G03 X28.136511 Y22.597232 Z-1.000000 I0.723354 J-5.170754
G03 X23.477417 Y19.248051 Z-1.000000 I19.908090 J-32.609690
G03 X21.048092 Y16.732114 Z-1.000000 I10.781288 J-12.840954
G03 X19.258972 Y13.850652 Z-1.000000 I12.424588 J-9.710683
G03 X18.038191 Y10.784043 Z-1.000000 I21.562844 J-10.360213
G03 X17.990309 Y9.887617 Z-1.000000 I1.685314 J-0.539511
G03 X18.056319 Y9.796269 Z-1.000000 I0.134548 J0.027703
G03 X18.619378 Y9.525455 Z-1.000000 I2.106642 J3.659252
G02 X19.215574 Y9.272891 Z-1.000000 I-4.474585 J-11.392558
G02 X19.825944 Y8.976241 Z-1.000000 I-5.570246 J-12.237268
G03 X20.434014 Y8.681940 Z-1.000000 I5.777644 J11.162164
G03 X20.527365 Y8.659736 Z-1.000000 I0.104291 J0.231123
G03 X20.591902 Y8.697830 Z-1.000000 I0.002929 J0.068752
G03 X20.686063 Y8.978684 Z-1.000000 I-0.962155 J0.478790
G01 X20.686063 Y8.978684 Z-1.000000
G00 Z0.000000

(End cutting path id: path24)


(Start cutting path id: path24)
(Change tool to Cone cutter)

G00 Z0.000000
G00 X22.867848 Y7.409080

G01 Z-1.000000 F100.0(Penetrate)
G03 X22.814051 Y7.443013 Z-1.000000 I-0.101832 J-0.101832 F400.000000
G03 X22.160271 Y7.659427 Z-1.000000 I-5.629916 J-15.912079
G03 X21.622199 Y7.781210 Z-1.000000 I-1.061484 J-3.440384
G01 X21.600022 Y7.741747 Z-1.000000
G03 X21.719501 Y7.647752 Z-1.000000 I0.278666 J0.231285
G03 X22.099322 Y7.497401 Z-1.000000 I1.149296 J2.348449
G03 X22.835953 Y7.343028 Z-1.000000 I1.203595 J3.908577
G01 X22.867848 Y7.409071 Z-1.000000
G01 X22.867848 Y7.409080 Z-1.000000
G00 Z0.000000

(End cutting path id: path24)


(Start cutting path id: path24)
(Change tool to Cone cutter)

G00 Z0.000000
G00 X22.867848 Y7.409080

G01 Z-1.000000 F100.0(Penetrate)
G03 X22.814051 Y7.443013 Z-1.000000 I-0.101832 J-0.101832 F400.000000
G03 X22.160271 Y7.659427 Z-1.000000 I-5.629916 J-15.912079
G03 X21.622199 Y7.781210 Z-1.000000 I-1.061484 J-3.440384
G01 X21.600022 Y7.741747 Z-1.000000
G03 X21.719501 Y7.647752 Z-1.000000 I0.278666 J0.231285
G03 X22.099322 Y7.497401 Z-1.000000 I1.149296 J2.348449
G03 X22.835953 Y7.343028 Z-1.000000 I1.203595 J3.908577
G01 X22.867848 Y7.409071 Z-1.000000
G01 X22.867848 Y7.409080 Z-1.000000
G00 Z0.000000

(End cutting path id: path24)


(Start cutting path id: path24)
(Change tool to Cone cutter)

G00 Z0.000000
G00 X24.666325 Y7.657600

G01 Z-1.000000 F100.0(Penetrate)
G02 X25.190709 Y10.086145 Z-1.000000 I14.030518 J-1.758657 F400.000000
G02 X27.022376 Y15.257218 Z-1.000000 I65.847979 J-20.414342
G02 X28.593504 Y18.155313 Z-1.000000 I13.161584 J-5.260292
G02 X30.685041 Y20.460693 Z-1.000000 I10.333990 J-7.273976
G02 X32.586572 Y21.752527 Z-1.000000 I6.603100 J-7.674111
G02 X33.647655 Y22.014231 Z-1.000000 I1.062603 J-2.026396
G01 X34.132373 Y22.014576 Z-1.000000
G01 X33.836286 Y22.195078 Z-1.000000
G03 X33.306790 Y22.282007 Z-1.000000 I-0.372087 J-0.610351
G03 X31.893853 Y21.756579 Z-1.000000 I1.242365 J-5.503350
G02 X30.927949 Y21.277848 Z-1.000000 I-8.492639 J15.921255
G02 X29.908310 Y20.845319 Z-1.000000 I-7.944999 J17.311341
G03 X28.881558 Y20.427790 Z-1.000000 I14.276830 J-36.579564
G03 X28.444275 Y20.225747 Z-1.000000 I2.890384 J-6.829916
G03 X25.215995 Y17.559139 Z-1.000000 I4.208634 J-8.382539
G03 X21.863619 Y11.663751 Z-1.000000 I19.509572 J-14.994845
G03 X21.136577 Y9.655970 Z-1.000000 I31.625928 J-12.587665
G03 X20.936406 Y8.828361 Z-1.000000 I5.144115 J-1.682199
G03 X21.051268 Y8.562933 Z-1.000000 I0.265871 J-0.042513
G03 X22.023618 Y8.091856 Z-1.000000 I2.107501 J3.111040
G02 X23.714444 Y7.431183 Z-1.000000 I-4.181949 J-13.196610
G02 X23.833468 Y7.243986 Z-1.000000 I-0.087697 J-0.187197
G02 X23.749620 Y7.114759 Z-1.000000 I-0.141507 J0.000000
G02 X23.288845 Y7.000984 Z-1.000000 I-0.547330 J1.226694
G03 X22.985892 Y6.902925 Z-1.000000 I0.041708 J-0.645873
G01 X22.993181 Y6.814965 Z-1.000000
G03 X23.104816 Y6.790552 Z-1.000000 I0.122528 J0.292852
G03 X23.830030 Y6.786235 Z-1.000000 I0.438685 J12.776859
G01 X24.559149 Y6.802575 Z-1.000000
G01 X24.666325 Y7.657620 Z-1.000000
G01 X24.666325 Y7.657600 Z-1.000000
G00 Z0.000000

(End cutting path id: path24)


(Start cutting path id: path24)
(Change tool to Cone cutter)

G00 Z0.000000
G00 X24.666325 Y7.657600

G01 Z-1.000000 F100.0(Penetrate)
G02 X25.190709 Y10.086145 Z-1.000000 I14.030518 J-1.758657 F400.000000
G02 X27.022376 Y15.257218 Z-1.000000 I65.847979 J-20.414342
G02 X28.593504 Y18.155313 Z-1.000000 I13.161584 J-5.260292
G02 X30.685041 Y20.460693 Z-1.000000 I10.333990 J-7.273976
G02 X32.586572 Y21.752527 Z-1.000000 I6.603100 J-7.674111
G02 X33.647655 Y22.014231 Z-1.000000 I1.062603 J-2.026396
G01 X34.132373 Y22.014576 Z-1.000000
G01 X33.836286 Y22.195078 Z-1.000000
G03 X33.306790 Y22.282007 Z-1.000000 I-0.372087 J-0.610351
G03 X31.893853 Y21.756579 Z-1.000000 I1.242365 J-5.503350
G02 X30.927949 Y21.277848 Z-1.000000 I-8.492639 J15.921255
G02 X29.908310 Y20.845319 Z-1.000000 I-7.944999 J17.311341
G03 X28.881558 Y20.427790 Z-1.000000 I14.276830 J-36.579564
G03 X28.444275 Y20.225747 Z-1.000000 I2.890384 J-6.829916
G03 X25.215995 Y17.559139 Z-1.000000 I4.208634 J-8.382539
G03 X21.863619 Y11.663751 Z-1.000000 I19.509572 J-14.994845
G03 X21.136577 Y9.655970 Z-1.000000 I31.625928 J-12.587665
G03 X20.936406 Y8.828361 Z-1.000000 I5.144115 J-1.682199
G03 X21.051268 Y8.562933 Z-1.000000 I0.265871 J-0.042513
G03 X22.023618 Y8.091856 Z-1.000000 I2.107501 J3.111040
G02 X23.714444 Y7.431183 Z-1.000000 I-4.181949 J-13.196610
G02 X23.833468 Y7.243986 Z-1.000000 I-0.087697 J-0.187197
G02 X23.749620 Y7.114759 Z-1.000000 I-0.141507 J0.000000
G02 X23.288845 Y7.000984 Z-1.000000 I-0.547330 J1.226694
G03 X22.985892 Y6.902925 Z-1.000000 I0.041708 J-0.645873
G01 X22.993181 Y6.814965 Z-1.000000
G03 X23.104816 Y6.790552 Z-1.000000 I0.122528 J0.292852
G03 X23.830030 Y6.786235 Z-1.000000 I0.438685 J12.776859
G01 X24.559149 Y6.802575 Z-1.000000
G01 X24.666325 Y7.657620 Z-1.000000
G01 X24.666325 Y7.657600 Z-1.000000
G00 Z0.000000

(End cutting path id: path24)


(Start cutting path id: path24)
(Change tool to Cone cutter)

G00 Z0.000000
G00 X25.298584 Y6.927490

G01 Z-1.000000 F100.0(Penetrate)
G02 X25.603127 Y6.994375 Z-1.000000 I0.882631 J-3.292067 F400.000000
G02 X26.802781 Y7.186360 Z-1.000000 I8.771881 J-50.968539
G03 X28.485563 Y7.628608 Z-1.000000 I-1.159705 J7.835430
G03 X28.886240 Y7.987395 Z-1.000000 I-0.271608 J0.706441
G03 X28.953003 Y8.290006 Z-1.000000 I-0.535155 J0.276739
G03 X28.774176 Y10.594621 Z-1.000000 I-33.491442 J-1.439535
G02 X28.637388 Y13.686422 Z-1.000000 I22.727724 J2.554452
G02 X28.868036 Y14.588304 Z-1.000000 I2.068701 J-0.048617
G02 X29.462760 Y15.379457 Z-1.000000 I2.639058 J-1.364718
G02 X32.581076 Y18.109241 Z-1.000000 I35.842622 J-37.798163
G02 X34.392086 Y19.172284 Z-1.000000 I4.459174 J-5.522541
G02 X35.214104 Y19.168022 Z-1.000000 I0.405788 J-1.009133
G02 X35.558640 Y18.899537 Z-1.000000 I-0.314166 J-0.758464
G02 X36.509291 Y17.426843 Z-1.000000 I-10.608122 J-7.890915
G03 X36.755805 Y17.079830 Z-1.000000 I1.683030 J0.934535
G01 X36.799572 Y17.101461 Z-1.000000
G03 X36.175009 Y19.100030 Z-1.000000 I-9.094799 J-1.745298
G03 X35.142516 Y20.850434 Z-1.000000 I-7.978753 J-3.526630
G03 X34.541567 Y21.339919 Z-1.000000 I-1.311125 J-0.996051
G03 X33.642401 Y21.567580 Z-1.000000 I-1.017065 J-2.127483
G03 X32.993408 Y21.531194 Z-1.000000 I-0.153557 J-3.067111
G03 X32.499609 Y21.380779 Z-1.000000 I0.312505 J-1.911683
G03 X32.036339 Y21.132254 Z-1.000000 I1.736480 J-3.792979
G03 X31.481375 Y20.748845 Z-1.000000 I3.621255 J-5.834923
G03 X29.978135 Y19.433463 Z-1.000000 I9.329939 J-12.179062
G03 X28.731191 Y18.006385 Z-1.000000 I9.751230 J-9.778684
G03 X27.898051 Y16.597402 Z-1.000000 I5.657660 J-4.296219
G03 X26.546037 Y13.093937 Z-1.000000 I34.162948 J-15.196354
G02 X26.086689 Y11.716816 Z-1.000000 I-177.196324 J58.339908
G02 X25.692334 Y10.567342 Z-1.000000 I-123.832281 J41.841249
G03 X25.315943 Y9.412933 Z-1.000000 I28.725787 J-10.004501
G03 X25.128847 Y8.714401 Z-1.000000 I10.322705 J-3.139177
G03 X24.827694 Y6.951053 Z-1.000000 I14.768556 J-3.429638
G03 X24.922267 Y6.846129 Z-1.000000 I0.093964 J-0.010390
G03 X24.995911 Y6.854235 Z-1.000000 I-0.002256 J0.359094
G03 X25.298586 Y6.927489 Z-1.000000 I-1.343898 J6.214700
G01 X25.298584 Y6.927490 Z-1.000000
G00 Z0.000000

(End cutting path id: path24)


(Start cutting path id: path24)
(Change tool to Cone cutter)

G00 Z0.000000
G00 X25.298584 Y6.927490

G01 Z-1.000000 F100.0(Penetrate)
G02 X25.603127 Y6.994375 Z-1.000000 I0.882631 J-3.292067 F400.000000
G02 X26.802781 Y7.186360 Z-1.000000 I8.771881 J-50.968539
G03 X28.485563 Y7.628608 Z-1.000000 I-1.159705 J7.835430
G03 X28.886240 Y7.987395 Z-1.000000 I-0.271608 J0.706441
G03 X28.953003 Y8.290006 Z-1.000000 I-0.535155 J0.276739
G03 X28.774176 Y10.594621 Z-1.000000 I-33.491442 J-1.439535
G02 X28.637388 Y13.686422 Z-1.000000 I22.727724 J2.554452
G02 X28.868036 Y14.588304 Z-1.000000 I2.068701 J-0.048617
G02 X29.462760 Y15.379457 Z-1.000000 I2.639058 J-1.364718
G02 X32.581076 Y18.109241 Z-1.000000 I35.842622 J-37.798163
G02 X34.392086 Y19.172284 Z-1.000000 I4.459174 J-5.522541
G02 X35.214104 Y19.168022 Z-1.000000 I0.405788 J-1.009133
G02 X35.558640 Y18.899537 Z-1.000000 I-0.314166 J-0.758464
G02 X36.509291 Y17.426843 Z-1.000000 I-10.608122 J-7.890915
G03 X36.755805 Y17.079830 Z-1.000000 I1.683030 J0.934535
G01 X36.799572 Y17.101461 Z-1.000000
G03 X36.175009 Y19.100030 Z-1.000000 I-9.094799 J-1.745298
G03 X35.142516 Y20.850434 Z-1.000000 I-7.978753 J-3.526630
G03 X34.541567 Y21.339919 Z-1.000000 I-1.311125 J-0.996051
G03 X33.642401 Y21.567580 Z-1.000000 I-1.017065 J-2.127483
G03 X32.993408 Y21.531194 Z-1.000000 I-0.153557 J-3.067111
G03 X32.499609 Y21.380779 Z-1.000000 I0.312505 J-1.911683
G03 X32.036339 Y21.132254 Z-1.000000 I1.736480 J-3.792979
G03 X31.481375 Y20.748845 Z-1.000000 I3.621255 J-5.834923
G03 X29.978135 Y19.433463 Z-1.000000 I9.329939 J-12.179062
G03 X28.731191 Y18.006385 Z-1.000000 I9.751230 J-9.778684
G03 X27.898051 Y16.597402 Z-1.000000 I5.657660 J-4.296219
G03 X26.546037 Y13.093937 Z-1.000000 I34.162948 J-15.196354
G02 X26.086689 Y11.716816 Z-1.000000 I-177.196324 J58.339908
G02 X25.692334 Y10.567342 Z-1.000000 I-123.832281 J41.841249
G03 X25.315943 Y9.412933 Z-1.000000 I28.725787 J-10.004501
G03 X25.128847 Y8.714401 Z-1.000000 I10.322705 J-3.139177
G03 X24.827694 Y6.951053 Z-1.000000 I14.768556 J-3.429638
G03 X24.922267 Y6.846129 Z-1.000000 I0.093964 J-0.010390
G03 X24.995911 Y6.854235 Z-1.000000 I-0.002256 J0.359094
G03 X25.298586 Y6.927489 Z-1.000000 I-1.343898 J6.214700
G01 X25.298584 Y6.927490 Z-1.000000
G00 Z0.000000

(End cutting path id: path24)


(Start cutting path id: path24)
(Change tool to Cone cutter)

G00 Z0.000000
G00 X23.119112 Y2.655185

G01 Z-1.000000 F100.0(Penetrate)
G03 X23.062075 Y2.731696 Z-1.000000 I-0.143293 J-0.047307 F400.000000
G03 X22.401341 Y3.155213 Z-1.000000 I-5.833931 J-8.374409
G02 X20.454903 Y4.579461 Z-1.000000 I6.113916 J10.397710
G02 X20.213769 Y5.120186 Z-1.000000 I0.485703 J0.540725
G02 X20.242499 Y5.193821 Z-1.000000 I0.108728 J0.000000
G02 X20.346689 Y5.264581 Z-1.000000 I0.203059 J-0.186905
G02 X20.466270 Y5.249544 Z-1.000000 I0.045745 J-0.119220
G02 X21.057702 Y4.760662 Z-1.000000 I-2.992658 J-4.222597
G03 X23.575113 Y2.766756 Z-1.000000 I11.712288 J12.201247
G03 X24.057245 Y2.817716 Z-1.000000 I0.209563 J0.323526
G03 X24.062464 Y2.953455 Z-1.000000 I-0.070688 J0.070688
G03 X22.822717 Y4.258247 Z-1.000000 I-13.325314 J-11.419672
G02 X21.912336 Y5.156581 Z-1.000000 I23.076147 J24.296078
G02 X21.572072 Y5.540365 Z-1.000000 I3.857345 J3.762661
G02 X21.543986 Y5.945975 Z-1.000000 I0.276980 J0.222956
G02 X21.860054 Y6.021350 Z-1.000000 I0.194842 J-0.116659
G03 X24.144424 Y4.745048 Z-1.000000 I13.038965 J20.655113
G03 X24.748609 Y4.604882 Z-1.000000 I0.604185 J1.232091
G03 X24.810937 Y4.684428 Z-1.000000 I0.000000 J0.064192
G03 X24.617143 Y5.138538 Z-1.000000 I-1.487775 J-0.366512
G03 X24.224076 Y5.561282 Z-1.000000 I-1.333161 J-0.845463
G03 X22.567959 Y6.657554 Z-1.000000 I-11.128752 J-15.012924
G02 X21.543949 Y7.311562 Z-1.000000 I8.369073 J14.232508
G02 X20.844293 Y7.849918 Z-1.000000 I4.958727 J7.168261
G03 X19.501301 Y8.749271 Z-1.000000 I-4.516385 J-5.291845
G03 X17.925104 Y9.346193 Z-1.000000 I-3.450651 J-6.732120
G03 X17.249023 Y9.462178 Z-1.000000 I-1.056980 J-4.132733
G03 X16.016174 Y9.517330 Z-1.000000 I-1.232849 J-13.751757
G03 X14.813194 Y9.428476 Z-1.000000 I-0.000000 J-8.187900
G03 X14.560102 Y9.301047 Z-1.000000 I0.066378 J-0.446888
G03 X14.157990 Y8.501236 Z-1.000000 I1.007538 J-1.007536
G03 X14.267824 Y7.317611 Z-1.000000 I2.485526 J-0.366266
G03 X14.684998 Y6.703866 Z-1.000000 I1.336592 J0.459854
G03 X15.159244 Y6.554208 Z-1.000000 I0.412878 J0.482116
G03 X15.600900 Y6.610136 Z-1.000000 I-0.739449 J7.611088
G03 X15.982019 Y6.682845 Z-1.000000 I-0.896329 J5.733537
G02 X16.389799 Y6.634186 Z-1.000000 I0.135264 J-0.599435
G02 X16.426120 Y6.463145 Z-1.000000 I-0.049414 J-0.099870
G03 X16.392492 Y6.325748 Z-1.000000 I0.124428 J-0.103267
G03 X16.534555 Y5.960973 Z-1.000000 I1.210543 J0.261398
G03 X16.914461 Y5.479357 Z-1.000000 I1.926490 J1.129001
G03 X18.386625 Y4.182537 Z-1.000000 I15.819820 J16.474803
G03 X19.515825 Y3.371646 Z-1.000000 I7.743174 J9.591028
G03 X20.250236 Y2.997576 Z-1.000000 I2.324678 J3.656063
G03 X20.578573 Y2.927330 Z-1.000000 I0.375009 J0.950368
G01 X20.591185 Y2.981986 Z-1.000000
G02 X19.596699 Y3.678330 Z-1.000000 I1.194256 J2.763890
G02 X19.351936 Y4.293878 Z-1.000000 I0.651630 J0.615548
G02 X19.509090 Y4.423718 Z-1.000000 I0.132214 J0.000000
G02 X19.928322 Y4.183162 Z-1.000000 I-0.140212 J-0.729945
G03 X20.687038 Y3.518656 Z-1.000000 I2.866658 J2.507681
G03 X21.961933 Y2.831812 Z-1.000000 I4.345765 J6.539827
G03 X23.015554 Y2.532668 Z-1.000000 I1.715444 J4.036934
G03 X23.119112 Y2.655189 Z-1.000000 I0.014198 J0.093024
G01 X23.119112 Y2.655185 Z-1.000000
G00 Z0.000000

(End cutting path id: path24)


(Start cutting path id: path24)
(Change tool to Cone cutter)

G00 Z0.000000
G00 X23.119112 Y2.655185

G01 Z-1.000000 F100.0(Penetrate)
G03 X23.062075 Y2.731696 Z-1.000000 I-0.143293 J-0.047307 F400.000000
G03 X22.401341 Y3.155213 Z-1.000000 I-5.833931 J-8.374409
G02 X20.454903 Y4.579461 Z-1.000000 I6.113916 J10.397710
G02 X20.213769 Y5.120186 Z-1.000000 I0.485703 J0.540725
G02 X20.242499 Y5.193821 Z-1.000000 I0.108728 J0.000000
G02 X20.346689 Y5.264581 Z-1.000000 I0.203059 J-0.186905
G02 X20.466270 Y5.249544 Z-1.000000 I0.045745 J-0.119220
G02 X21.057702 Y4.760662 Z-1.000000 I-2.992658 J-4.222597
G03 X23.575113 Y2.766756 Z-1.000000 I11.712288 J12.201247
G03 X24.057245 Y2.817716 Z-1.000000 I0.209563 J0.323526
G03 X24.062464 Y2.953455 Z-1.000000 I-0.070688 J0.070688
G03 X22.822717 Y4.258247 Z-1.000000 I-13.325314 J-11.419672
G02 X21.912336 Y5.156581 Z-1.000000 I23.076147 J24.296078
G02 X21.572072 Y5.540365 Z-1.000000 I3.857345 J3.762661
G02 X21.543986 Y5.945975 Z-1.000000 I0.276980 J0.222956
G02 X21.860054 Y6.021350 Z-1.000000 I0.194842 J-0.116659
G03 X24.144424 Y4.745048 Z-1.000000 I13.038965 J20.655113
G03 X24.748609 Y4.604882 Z-1.000000 I0.604185 J1.232091
G03 X24.810937 Y4.684428 Z-1.000000 I0.000000 J0.064192
G03 X24.617143 Y5.138538 Z-1.000000 I-1.487775 J-0.366512
G03 X24.224076 Y5.561282 Z-1.000000 I-1.333161 J-0.845463
G03 X22.567959 Y6.657554 Z-1.000000 I-11.128752 J-15.012924
G02 X21.543949 Y7.311562 Z-1.000000 I8.369073 J14.232508
G02 X20.844293 Y7.849918 Z-1.000000 I4.958727 J7.168261
G03 X19.501301 Y8.749271 Z-1.000000 I-4.516385 J-5.291845
G03 X17.925104 Y9.346193 Z-1.000000 I-3.450651 J-6.732120
G03 X17.249023 Y9.462178 Z-1.000000 I-1.056980 J-4.132733
G03 X16.016174 Y9.517330 Z-1.000000 I-1.232849 J-13.751757
G03 X14.813194 Y9.428476 Z-1.000000 I-0.000000 J-8.187900
G03 X14.560102 Y9.301047 Z-1.000000 I0.066378 J-0.446888
G03 X14.157990 Y8.501236 Z-1.000000 I1.007538 J-1.007536
G03 X14.267824 Y7.317611 Z-1.000000 I2.485526 J-0.366266
G03 X14.684998 Y6.703866 Z-1.000000 I1.336592 J0.459854
G03 X15.159244 Y6.554208 Z-1.000000 I0.412878 J0.482116
G03 X15.600900 Y6.610136 Z-1.000000 I-0.739449 J7.611088
G03 X15.982019 Y6.682845 Z-1.000000 I-0.896329 J5.733537
G02 X16.389799 Y6.634186 Z-1.000000 I0.135264 J-0.599435
G02 X16.426120 Y6.463145 Z-1.000000 I-0.049414 J-0.099870
G03 X16.392492 Y6.325748 Z-1.000000 I0.124428 J-0.103267
G03 X16.534555 Y5.960973 Z-1.000000 I1.210543 J0.261398
G03 X16.914461 Y5.479357 Z-1.000000 I1.926490 J1.129001
G03 X18.386625 Y4.182537 Z-1.000000 I15.819820 J16.474803
G03 X19.515825 Y3.371646 Z-1.000000 I7.743174 J9.591028
G03 X20.250236 Y2.997576 Z-1.000000 I2.324678 J3.656063
G03 X20.578573 Y2.927330 Z-1.000000 I0.375009 J0.950368
G01 X20.591185 Y2.981986 Z-1.000000
G02 X19.596699 Y3.678330 Z-1.000000 I1.194256 J2.763890
G02 X19.351936 Y4.293878 Z-1.000000 I0.651630 J0.615548
G02 X19.509090 Y4.423718 Z-1.000000 I0.132214 J0.000000
G02 X19.928322 Y4.183162 Z-1.000000 I-0.140212 J-0.729945
G03 X20.687038 Y3.518656 Z-1.000000 I2.866658 J2.507681
G03 X21.961933 Y2.831812 Z-1.000000 I4.345765 J6.539827
G03 X23.015554 Y2.532668 Z-1.000000 I1.715444 J4.036934
G03 X23.119112 Y2.655189 Z-1.000000 I0.014198 J0.093024
G01 X23.119112 Y2.655185 Z-1.000000
G00 Z0.000000

(End cutting path id: path24)


(Start cutting path id: path24)
(Change tool to Cone cutter)

G00 Z0.000000
G00 X30.709983 Y2.714795

G01 Z-1.000000 F100.0(Penetrate)
G03 X31.525547 Y2.875817 Z-1.000000 I-0.533854 J4.849811 F400.000000
G03 X32.150157 Y3.129270 Z-1.000000 I-0.887260 J3.082942
G03 X32.676276 Y3.503258 Z-1.000000 I-1.198664 J2.243318
G03 X32.779182 Y3.709655 Z-1.000000 I-0.220176 J0.238629
G03 X32.653436 Y4.126102 Z-1.000000 I-0.565595 J0.056426
G03 X31.962859 Y4.706984 Z-1.000000 I-1.892727 J-1.549217
G02 X31.543756 Y5.024936 Z-1.000000 I0.959094 J1.699408
G02 X31.075166 Y5.592583 Z-1.000000 I2.698214 J2.704595
G03 X30.077437 Y6.725310 Z-1.000000 I-4.881719 J-3.294143
G03 X29.295364 Y7.154123 Z-1.000000 I-1.356042 J-1.545581
G03 X28.832146 Y7.211464 Z-1.000000 I-0.409551 J-1.408797
G03 X28.335619 Y7.118993 Z-1.000000 I0.062838 J-1.716710
G02 X27.834401 Y6.975783 Z-1.000000 I-1.591254 J4.620479
G02 X27.151525 Y6.848048 Z-1.000000 I-1.935985 J8.460668
G03 X26.463021 Y6.741481 Z-1.000000 I5.798599 J-39.740890
G03 X25.520516 Y6.581092 Z-1.000000 I12.210886 J-74.604985
G02 X24.577312 Y6.433681 Z-1.000000 I-4.187066 J23.699510
G02 X24.297490 Y6.414736 Z-1.000000 I-0.279822 J2.057079
G03 X24.034574 Y6.381436 Z-1.000000 I0.000000 J-1.054564
G03 X23.962743 Y6.328556 Z-1.000000 I0.029781 J-0.115680
G03 X23.956493 Y6.268588 Z-1.000000 I0.058978 J-0.036457
G01 X23.993803 Y6.242376 Z-1.000000
G02 X24.068234 Y6.216880 Z-1.000000 I0.000000 J-0.121390
G02 X24.553205 Y5.808182 Z-1.000000 I-4.836866 J-6.231637
G02 X25.272009 Y4.666271 Z-1.000000 I-1.715549 J-1.877085
G02 X25.034273 Y4.215239 Z-1.000000 I-0.347573 J-0.104967
G02 X24.763284 Y4.216756 Z-1.000000 I-0.133150 J0.419536
G02 X23.425327 Y4.745773 Z-1.000000 I3.885423 J11.783215
G01 X22.611405 Y5.123529 Z-1.000000
G01 X23.314161 Y4.368652 Z-1.000000
G02 X23.994904 Y3.596537 Z-1.000000 I-13.919700 J-12.958591
G02 X24.279311 Y3.212318 Z-1.000000 I-3.148679 J-2.628092
G01 X24.541705 Y2.810864 Z-1.000000
G01 X25.544974 Y2.755824 Z-1.000000
G02 X26.547726 Y2.694916 Z-1.000000 I-4.707852 J-85.792049
G02 X26.763700 Y2.674634 Z-1.000000 I-0.265816 J-3.990589
G03 X28.468029 Y2.580324 Z-1.000000 I1.571577 J12.953721
G03 X30.709983 Y2.714794 Z-1.000000 I-0.229815 J22.588319
G01 X30.709983 Y2.714795 Z-1.000000
G00 Z0.000000

(End cutting path id: path24)


(Start cutting path id: path24)
(Change tool to Cone cutter)

G00 Z0.000000
G00 X30.709983 Y2.714795

G01 Z-1.000000 F100.0(Penetrate)
G03 X31.525547 Y2.875817 Z-1.000000 I-0.533854 J4.849811 F400.000000
G03 X32.150157 Y3.129270 Z-1.000000 I-0.887260 J3.082942
G03 X32.676276 Y3.503258 Z-1.000000 I-1.198664 J2.243318
G03 X32.779182 Y3.709655 Z-1.000000 I-0.220176 J0.238629
G03 X32.653436 Y4.126102 Z-1.000000 I-0.565595 J0.056426
G03 X31.962859 Y4.706984 Z-1.000000 I-1.892727 J-1.549217
G02 X31.543756 Y5.024936 Z-1.000000 I0.959094 J1.699408
G02 X31.075166 Y5.592583 Z-1.000000 I2.698214 J2.704595
G03 X30.077437 Y6.725310 Z-1.000000 I-4.881719 J-3.294143
G03 X29.295364 Y7.154123 Z-1.000000 I-1.356042 J-1.545581
G03 X28.832146 Y7.211464 Z-1.000000 I-0.409551 J-1.408797
G03 X28.335619 Y7.118993 Z-1.000000 I0.062838 J-1.716710
G02 X27.834401 Y6.975783 Z-1.000000 I-1.591254 J4.620479
G02 X27.151525 Y6.848048 Z-1.000000 I-1.935985 J8.460668
G03 X26.463021 Y6.741481 Z-1.000000 I5.798599 J-39.740890
G03 X25.520516 Y6.581092 Z-1.000000 I12.210886 J-74.604985
G02 X24.577312 Y6.433681 Z-1.000000 I-4.187066 J23.699510
G02 X24.297490 Y6.414736 Z-1.000000 I-0.279822 J2.057079
G03 X24.034574 Y6.381436 Z-1.000000 I0.000000 J-1.054564
G03 X23.962743 Y6.328556 Z-1.000000 I0.029781 J-0.115680
G03 X23.956493 Y6.268588 Z-1.000000 I0.058978 J-0.036457
G01 X23.993803 Y6.242376 Z-1.000000
G02 X24.068234 Y6.216880 Z-1.000000 I0.000000 J-0.121390
G02 X24.553205 Y5.808182 Z-1.000000 I-4.836866 J-6.231637
G02 X25.272009 Y4.666271 Z-1.000000 I-1.715549 J-1.877085
G02 X25.034273 Y4.215239 Z-1.000000 I-0.347573 J-0.104967
G02 X24.763284 Y4.216756 Z-1.000000 I-0.133150 J0.419536
G02 X23.425327 Y4.745773 Z-1.000000 I3.885423 J11.783215
G01 X22.611405 Y5.123529 Z-1.000000
G01 X23.314161 Y4.368652 Z-1.000000
G02 X23.994904 Y3.596537 Z-1.000000 I-13.919700 J-12.958591
G02 X24.279311 Y3.212318 Z-1.000000 I-3.148679 J-2.628092
G01 X24.541705 Y2.810864 Z-1.000000
G01 X25.544974 Y2.755824 Z-1.000000
G02 X26.547726 Y2.694916 Z-1.000000 I-4.707852 J-85.792049
G02 X26.763700 Y2.674634 Z-1.000000 I-0.265816 J-3.990589
G03 X28.468029 Y2.580324 Z-1.000000 I1.571577 J12.953721
G03 X30.709983 Y2.714794 Z-1.000000 I-0.229815 J22.588319
G01 X30.709983 Y2.714795 Z-1.000000
G00 Z0.000000

(End cutting path id: path24)


(Start cutting path id: path24)
(Change tool to Cone cutter)

G00 Z0.000000
G00 X33.975486 Y3.481814

G01 Z-1.000000 F100.0(Penetrate)
G03 X34.928593 Y4.141134 Z-1.000000 I-1.424694 J3.078087 F400.000000
G03 X35.590563 Y5.069537 Z-1.000000 I-2.301712 J2.341367
G03 X36.984887 Y9.076873 Z-1.000000 I-17.437578 J8.313524
G03 X37.336778 Y12.706115 Z-1.000000 I-13.907476 J3.180146
G03 X37.073811 Y14.849133 Z-1.000000 I-11.923836 J-0.375518
G03 X36.509507 Y16.536411 Z-1.000000 I-7.918031 J-1.710151
G03 X35.452868 Y18.527100 Z-1.000000 I-18.546224 J-8.568389
G03 X35.159244 Y18.772925 Z-1.000000 I-0.504937 J-0.304848
G03 X34.803850 Y18.828291 Z-1.000000 I-0.306392 J-0.798414
G03 X34.404891 Y18.729625 Z-1.000000 I0.063972 J-1.114609
G01 X34.195291 Y18.634125 Z-1.000000
G01 X34.478281 Y18.018613 Z-1.000000
G02 X34.968015 Y16.608237 Z-1.000000 I-7.022486 J-3.228680
G02 X35.294793 Y14.645236 Z-1.000000 I-13.346521 J-3.230473
G02 X35.357930 Y13.695816 Z-1.000000 I-18.205749 J-1.687512
G02 X35.435806 Y11.154812 Z-1.000000 I-130.376048 J-5.267401
G02 X35.323470 Y7.567358 Z-1.000000 I-34.387417 J-0.718697
G02 X34.997855 Y5.922235 Z-1.000000 I-7.483047 J0.626316
G02 X34.340702 Y4.542116 Z-1.000000 I-5.330637 J1.691707
G02 X33.414622 Y3.513501 Z-1.000000 I-3.831611 J2.518473
G03 X33.150061 Y3.223977 Z-1.000000 I0.865191 J-1.056229
G01 X33.184357 Y3.174201 Z-1.000000
G03 X33.436888 Y3.252722 Z-1.000000 I-0.438811 J1.856599
G03 X33.975486 Y3.481810 Z-1.000000 I-3.385209 J8.706490
G01 X33.975486 Y3.481814 Z-1.000000
G00 Z0.000000

(End cutting path id: path24)


(Start cutting path id: path24)
(Change tool to Cone cutter)

G00 Z0.000000
G00 X33.975486 Y3.481814

G01 Z-1.000000 F100.0(Penetrate)
G03 X34.928593 Y4.141134 Z-1.000000 I-1.424694 J3.078087 F400.000000
G03 X35.590563 Y5.069537 Z-1.000000 I-2.301712 J2.341367
G03 X36.984887 Y9.076873 Z-1.000000 I-17.437578 J8.313524
G03 X37.336778 Y12.706115 Z-1.000000 I-13.907476 J3.180146
G03 X37.073811 Y14.849133 Z-1.000000 I-11.923836 J-0.375518
G03 X36.509507 Y16.536411 Z-1.000000 I-7.918031 J-1.710151
G03 X35.452868 Y18.527100 Z-1.000000 I-18.546224 J-8.568389
G03 X35.159244 Y18.772925 Z-1.000000 I-0.504937 J-0.304848
G03 X34.803850 Y18.828291 Z-1.000000 I-0.306392 J-0.798414
G03 X34.404891 Y18.729625 Z-1.000000 I0.063972 J-1.114609
G01 X34.195291 Y18.634125 Z-1.000000
G01 X34.478281 Y18.018613 Z-1.000000
G02 X34.968015 Y16.608237 Z-1.000000 I-7.022486 J-3.228680
G02 X35.294793 Y14.645236 Z-1.000000 I-13.346521 J-3.230473
G02 X35.357930 Y13.695816 Z-1.000000 I-18.205749 J-1.687512
G02 X35.435806 Y11.154812 Z-1.000000 I-130.376048 J-5.267401
G02 X35.323470 Y7.567358 Z-1.000000 I-34.387417 J-0.718697
G02 X34.997855 Y5.922235 Z-1.000000 I-7.483047 J0.626316
G02 X34.340702 Y4.542116 Z-1.000000 I-5.330637 J1.691707
G02 X33.414622 Y3.513501 Z-1.000000 I-3.831611 J2.518473
G03 X33.150061 Y3.223977 Z-1.000000 I0.865191 J-1.056229
G01 X33.184357 Y3.174201 Z-1.000000
G03 X33.436888 Y3.252722 Z-1.000000 I-0.438811 J1.856599
G03 X33.975486 Y3.481810 Z-1.000000 I-3.385209 J8.706490
G01 X33.975486 Y3.481814 Z-1.000000
G00 Z0.000000

(End cutting path id: path24)


(Start cutting path id: path24)
(Change tool to Cone cutter)

G00 Z0.000000
G00 X33.790588 Y4.454064

G01 Z-1.000000 F100.0(Penetrate)
G03 X34.351051 Y5.382474 Z-1.000000 I-4.253295 J3.201004 F400.000000
G03 X34.797601 Y6.587101 Z-1.000000 I-6.755707 J3.189395
G03 X34.908526 Y7.243071 Z-1.000000 I-3.168479 J0.873155
G03 X35.014492 Y9.862066 Z-1.000000 I-50.905242 J3.371299
G03 X34.790358 Y15.311291 Z-1.000000 I-48.841206 J0.720319
G03 X34.272139 Y17.494107 Z-1.000000 I-8.226927 J-0.800220
G03 X33.743129 Y18.156138 Z-1.000000 I-1.316120 J-0.509299
G03 X33.288504 Y18.155089 Z-1.000000 I-0.226536 J-0.337117
G03 X31.642764 Y16.877411 Z-1.000000 I9.165901 J-13.505088
G03 X29.783758 Y15.056146 Z-1.000000 I16.868893 J-19.077851
G03 X29.259319 Y14.390262 Z-1.000000 I4.030204 J-3.713580
G03 X29.145195 Y14.101842 Z-1.000000 I0.609937 J-0.408134
G03 X29.020799 Y12.270343 Z-1.000000 I9.443886 J-1.561405
G03 X29.269752 Y9.689700 Z-1.000000 I19.084203 J0.538710
G02 X29.406193 Y8.612078 Z-1.000000 I-14.039037 J-2.324977
G02 X29.395529 Y8.260332 Z-1.000000 I-1.487891 J-0.130925
G01 X29.342899 Y7.908255 Z-1.000000
G01 X30.162439 Y7.807540 Z-1.000000
G02 X31.997798 Y7.212534 Z-1.000000 I-0.619131 J-5.037958
G02 X32.395068 Y6.574134 Z-1.000000 I-0.372784 J-0.674788
G02 X32.315739 Y6.376632 Z-1.000000 I-0.255471 J-0.012071
G02 X32.100144 Y6.293993 Z-1.000000 I-0.207275 J0.218207
G02 X31.800524 Y6.340996 Z-1.000000 I0.032907 J1.188226
G02 X31.302584 Y6.526395 Z-1.000000 I1.020349 J3.501806
G01 X30.813591 Y6.750264 Z-1.000000
G01 X31.057491 Y6.431679 Z-1.000000
G02 X31.299387 Y6.111596 Z-1.000000 I-25.554736 J-19.563870
G02 X31.535880 Y5.790388 Z-1.000000 I-25.484510 J-19.010951
G03 X31.799551 Y5.497810 Z-1.000000 I1.518681 J1.103533
G03 X32.279433 Y5.121985 Z-1.000000 I3.005761 J3.343700
G02 X32.984660 Y4.514990 Z-1.000000 I-2.295156 J-3.379767
G02 X33.255091 Y4.066239 Z-1.000000 I-0.951325 J-0.879157
G03 X33.319183 Y3.930904 Z-1.000000 I0.682831 J0.240534
G01 X33.346711 Y3.915418 Z-1.000000
G01 X33.377868 Y3.930116 Z-1.000000
G03 X33.790586 Y4.454064 Z-1.000000 I-11.678892 J9.624073
G01 X33.790588 Y4.454064 Z-1.000000
G00 Z0.000000

(End cutting path id: path24)


(Start cutting path id: path24)
(Change tool to Cone cutter)

G00 Z0.000000
G00 X33.790588 Y4.454064

G01 Z-1.000000 F100.0(Penetrate)
G03 X34.351051 Y5.382474 Z-1.000000 I-4.253295 J3.201004 F400.000000
G03 X34.797601 Y6.587101 Z-1.000000 I-6.755707 J3.189395
G03 X34.908526 Y7.243071 Z-1.000000 I-3.168479 J0.873155
G03 X35.014492 Y9.862066 Z-1.000000 I-50.905242 J3.371299
G03 X34.790358 Y15.311291 Z-1.000000 I-48.841206 J0.720319
G03 X34.272139 Y17.494107 Z-1.000000 I-8.226927 J-0.800220
G03 X33.743129 Y18.156138 Z-1.000000 I-1.316120 J-0.509299
G03 X33.288504 Y18.155089 Z-1.000000 I-0.226536 J-0.337117
G03 X31.642764 Y16.877411 Z-1.000000 I9.165901 J-13.505088
G03 X29.783758 Y15.056146 Z-1.000000 I16.868893 J-19.077851
G03 X29.259319 Y14.390262 Z-1.000000 I4.030204 J-3.713580
G03 X29.145195 Y14.101842 Z-1.000000 I0.609937 J-0.408134
G03 X29.020799 Y12.270343 Z-1.000000 I9.443886 J-1.561405
G03 X29.269752 Y9.689700 Z-1.000000 I19.084203 J0.538710
G02 X29.406193 Y8.612078 Z-1.000000 I-14.039037 J-2.324977
G02 X29.395529 Y8.260332 Z-1.000000 I-1.487891 J-0.130925
G01 X29.342899 Y7.908255 Z-1.000000
G01 X30.162439 Y7.807540 Z-1.000000
G02 X31.997798 Y7.212534 Z-1.000000 I-0.619131 J-5.037958
G02 X32.395068 Y6.574134 Z-1.000000 I-0.372784 J-0.674788
G02 X32.315739 Y6.376632 Z-1.000000 I-0.255471 J-0.012071
G02 X32.100144 Y6.293993 Z-1.000000 I-0.207275 J0.218207
G02 X31.800524 Y6.340996 Z-1.000000 I0.032907 J1.188226
G02 X31.302584 Y6.526395 Z-1.000000 I1.020349 J3.501806
G01 X30.813591 Y6.750264 Z-1.000000
G01 X31.057491 Y6.431679 Z-1.000000
G02 X31.299387 Y6.111596 Z-1.000000 I-25.554736 J-19.563870
G02 X31.535880 Y5.790388 Z-1.000000 I-25.484510 J-19.010951
G03 X31.799551 Y5.497810 Z-1.000000 I1.518681 J1.103533
G03 X32.279433 Y5.121985 Z-1.000000 I3.005761 J3.343700
G02 X32.984660 Y4.514990 Z-1.000000 I-2.295156 J-3.379767
G02 X33.255091 Y4.066239 Z-1.000000 I-0.951325 J-0.879157
G03 X33.319183 Y3.930904 Z-1.000000 I0.682831 J0.240534
G01 X33.346711 Y3.915418 Z-1.000000
G01 X33.377868 Y3.930116 Z-1.000000
G03 X33.790586 Y4.454064 Z-1.000000 I-11.678892 J9.624073
G01 X33.790588 Y4.454064 Z-1.000000
G00 Z0.000000

(End cutting path id: path24)


(Start cutting path id: path24)
(Change tool to Cone cutter)

G00 Z0.000000
G00 X31.775313 Y6.938455

G01 Z-1.000000 F100.0(Penetrate)
G03 X30.958217 Y7.391125 Z-1.000000 I-1.686193 J-2.079889 F400.000000
G03 X30.658399 Y7.321741 Z-1.000000 I-0.094327 J-0.274870
G01 X30.662676 Y7.288960 Z-1.000000
G03 X31.249150 Y6.978840 Z-1.000000 I4.215516 J7.262432
G03 X31.739129 Y6.847574 Z-1.000000 I0.595428 J1.242452
G03 X31.775313 Y6.938450 Z-1.000000 I0.003921 J0.051081
G01 X31.775313 Y6.938455 Z-1.000000
G00 Z0.000000

(End cutting path id: path24)


(Start cutting path id: path24)
(Change tool to Cone cutter)

G00 Z0.000000
G00 X31.775313 Y6.938455

G01 Z-1.000000 F100.0(Penetrate)
G03 X30.958217 Y7.391125 Z-1.000000 I-1.686193 J-2.079889 F400.000000
G03 X30.658399 Y7.321741 Z-1.000000 I-0.094327 J-0.274870
G01 X30.662676 Y7.288960 Z-1.000000
G03 X31.249150 Y6.978840 Z-1.000000 I4.215516 J7.262432
G03 X31.739129 Y6.847574 Z-1.000000 I0.595428 J1.242452
G03 X31.775313 Y6.938450 Z-1.000000 I0.003921 J0.051081
G01 X31.775313 Y6.938455 Z-1.000000
G00 Z0.000000

(End cutting path id: path24)


(Start cutting path id: path24)
(Change tool to Cone cutter)

G00 Z0.000000
G00 X24.356244 Y20.527247

G01 Z-1.000000 F100.0(Penetrate)
G03 X24.854796 Y21.157763 Z-1.000000 I-2.499272 J2.488547 F400.000000
G03 X25.160008 Y21.824072 Z-1.000000 I-2.492173 J1.544633
G03 X25.385602 Y22.883962 Z-1.000000 I-5.477388 J1.719796
G03 X25.650925 Y26.066636 Z-1.000000 I-49.536951 J5.732037
G03 X25.682068 Y28.004205 Z-1.000000 I-27.594917 J1.412580
G03 X25.595645 Y28.975322 Z-1.000000 I-6.992451 J-0.132880
G03 X25.418114 Y29.915947 Z-1.000000 I-16.865243 J-2.696040
G01 X25.384812 Y29.942773 Z-1.000000
G03 X25.336245 Y29.925173 Z-1.000000 I0.000000 J-0.075810
G03 X25.124935 Y29.725947 Z-1.000000 I1.535004 J-1.839786
G02 X24.108502 Y29.040210 Z-1.000000 I-2.019483 J1.897206
G02 X21.868496 Y28.461353 Z-1.000000 I-3.571337 J9.196509
G01 X21.076283 Y28.353460 Z-1.000000
G01 X21.024893 Y28.079528 Z-1.000000
G03 X21.003395 Y27.805184 Z-1.000000 I1.263003 J-0.236986
G03 X21.046103 Y27.349899 Z-1.000000 I3.548161 J0.103191
G03 X21.200577 Y26.968848 Z-1.000000 I0.901459 J0.143606
G03 X21.420341 Y26.817072 Z-1.000000 I0.315179 J0.221371
G02 X21.963758 Y26.527096 Z-1.000000 I-0.321172 J-1.256050
G02 X22.109485 Y26.200322 Z-1.000000 I-0.291741 J-0.325985
G02 X21.941291 Y25.681199 Z-1.000000 I-0.890149 J0.001597
G02 X21.537609 Y25.407435 Z-1.000000 I-0.576809 J0.416031
G02 X21.328778 Y25.424837 Z-1.000000 I-0.078936 J0.314472
G02 X21.082473 Y25.606443 Z-1.000000 I0.277017 J0.633536
G02 X20.869245 Y25.870342 Z-1.000000 I3.922364 J3.387326
G02 X20.770237 Y26.019862 Z-1.000000 I1.155322 J0.872563
G03 X20.657428 Y26.096442 Z-1.000000 I-0.135374 J-0.078039
G03 X20.468596 Y26.063882 Z-1.000000 I-0.044566 J-0.305382
G03 X18.489722 Y24.592697 Z-1.000000 I3.785014 J-7.157650
G03 X17.180379 Y22.730895 Z-1.000000 I4.911064 J-4.845097
G03 X17.032253 Y22.247510 Z-1.000000 I1.526815 J-0.732259
G03 X17.072559 Y22.005257 Z-1.000000 I0.395215 J-0.058724
G03 X17.372523 Y21.652061 Z-1.000000 I0.915138 J0.473236
G03 X18.378804 Y21.032922 Z-1.000000 I3.999283 J5.372683
G03 X19.682614 Y20.566105 Z-1.000000 I2.596805 J5.198653
G03 X22.713091 Y20.043734 Z-1.000000 I6.375640 J27.935914
G03 X23.681872 Y20.125876 Z-1.000000 I0.283430 J2.411208
G03 X24.356250 Y20.527250 Z-1.000000 I-0.446532 J1.517474
G01 X24.356244 Y20.527247 Z-1.000000
G00 Z0.000000

(End cutting path id: path24)


(Start cutting path id: path24)
(Change tool to Cone cutter)

G00 Z0.000000
G00 X24.356244 Y20.527247

G01 Z-1.000000 F100.0(Penetrate)
G03 X24.854796 Y21.157763 Z-1.000000 I-2.499272 J2.488547 F400.000000
G03 X25.160008 Y21.824072 Z-1.000000 I-2.492173 J1.544633
G03 X25.385602 Y22.883962 Z-1.000000 I-5.477388 J1.719796
G03 X25.650925 Y26.066636 Z-1.000000 I-49.536951 J5.732037
G03 X25.682068 Y28.004205 Z-1.000000 I-27.594917 J1.412580
G03 X25.595645 Y28.975322 Z-1.000000 I-6.992451 J-0.132880
G03 X25.418114 Y29.915947 Z-1.000000 I-16.865243 J-2.696040
G01 X25.384812 Y29.942773 Z-1.000000
G03 X25.336245 Y29.925173 Z-1.000000 I0.000000 J-0.075810
G03 X25.124935 Y29.725947 Z-1.000000 I1.535004 J-1.839786
G02 X24.108502 Y29.040210 Z-1.000000 I-2.019483 J1.897206
G02 X21.868496 Y28.461353 Z-1.000000 I-3.571337 J9.196509
G01 X21.076283 Y28.353460 Z-1.000000
G01 X21.024893 Y28.079528 Z-1.000000
G03 X21.003395 Y27.805184 Z-1.000000 I1.263003 J-0.236986
G03 X21.046103 Y27.349899 Z-1.000000 I3.548161 J0.103191
G03 X21.200577 Y26.968848 Z-1.000000 I0.901459 J0.143606
G03 X21.420341 Y26.817072 Z-1.000000 I0.315179 J0.221371
G02 X21.963758 Y26.527096 Z-1.000000 I-0.321172 J-1.256050
G02 X22.109485 Y26.200322 Z-1.000000 I-0.291741 J-0.325985
G02 X21.941291 Y25.681199 Z-1.000000 I-0.890149 J0.001597
G02 X21.537609 Y25.407435 Z-1.000000 I-0.576809 J0.416031
G02 X21.328778 Y25.424837 Z-1.000000 I-0.078936 J0.314472
G02 X21.082473 Y25.606443 Z-1.000000 I0.277017 J0.633536
G02 X20.869245 Y25.870342 Z-1.000000 I3.922364 J3.387326
G02 X20.770237 Y26.019862 Z-1.000000 I1.155322 J0.872563
G03 X20.657428 Y26.096442 Z-1.000000 I-0.135374 J-0.078039
G03 X20.468596 Y26.063882 Z-1.000000 I-0.044566 J-0.305382
G03 X18.489722 Y24.592697 Z-1.000000 I3.785014 J-7.157650
G03 X17.180379 Y22.730895 Z-1.000000 I4.911064 J-4.845097
G03 X17.032253 Y22.247510 Z-1.000000 I1.526815 J-0.732259
G03 X17.072559 Y22.005257 Z-1.000000 I0.395215 J-0.058724
G03 X17.372523 Y21.652061 Z-1.000000 I0.915138 J0.473236
G03 X18.378804 Y21.032922 Z-1.000000 I3.999283 J5.372683
G03 X19.682614 Y20.566105 Z-1.000000 I2.596805 J5.198653
G03 X22.713091 Y20.043734 Z-1.000000 I6.375640 J27.935914
G03 X23.681872 Y20.125876 Z-1.000000 I0.283430 J2.411208
G03 X24.356250 Y20.527250 Z-1.000000 I-0.446532 J1.517474
G01 X24.356244 Y20.527247 Z-1.000000
G00 Z0.000000

(End cutting path id: path24)


(Start cutting path id: path24)
(Change tool to Cone cutter)

G00 Z0.000000
G00 X26.284822 Y21.979950

G01 Z-1.000000 F100.0(Penetrate)
G03 X26.980227 Y22.487576 Z-1.000000 I-5.500198 J8.264941 F400.000000
G03 X27.064322 Y22.602518 Z-1.000000 I-0.169539 J0.212274
G03 X27.098779 Y22.746202 Z-1.000000 I-0.527818 J0.202552
G03 X27.205478 Y23.950773 Z-1.000000 I-37.661358 J3.942983
G01 X27.293128 Y25.159599 Z-1.000000
G01 X27.030221 Y25.942564 Z-1.000000
G02 X26.636838 Y27.582815 Z-1.000000 I9.038810 J3.035085
G02 X26.489649 Y29.598039 Z-1.000000 I13.535081 J2.001570
G02 X26.524472 Y31.191049 Z-1.000000 I38.206551 J-0.038297
G02 X26.629613 Y32.873005 Z-1.000000 I42.692817 J-1.824520
G03 X26.748739 Y34.554705 Z-1.000000 I-73.450684 J6.048074
G03 X26.822145 Y36.116876 Z-1.000000 I-63.332083 J3.758764
G01 X26.876305 Y37.680173 Z-1.000000
G01 X26.352499 Y38.065776 Z-1.000000
G03 X25.306260 Y38.674011 Z-1.000000 I-3.328290 J-4.521118
G03 X24.341838 Y38.960321 Z-1.000000 I-1.577016 J-3.544650
G01 X23.982924 Y39.017711 Z-1.000000
G01 X24.396212 Y38.510303 Z-1.000000
G02 X25.073503 Y37.441010 Z-1.000000 I-4.136377 J-3.369129
G02 X25.545458 Y36.104876 Z-1.000000 I-6.033184 J-2.882487
G02 X25.912420 Y34.034769 Z-1.000000 I-17.661754 J-4.198427
G02 X26.023639 Y32.054261 Z-1.000000 I-16.049445 J-1.894664
G03 X26.018919 Y31.020058 Z-1.000000 I728.341245 J-3.841396
G03 X26.015139 Y29.813495 Z-1.000000 I836.068480 J-3.222374
G02 X25.857242 Y23.452140 Z-1.000000 I-142.606094 J0.357026
G02 X25.651846 Y22.110710 Z-1.000000 I-6.478682 J0.305558
G03 X25.511607 Y21.512955 Z-1.000000 I11.284819 J-2.962855
G01 X25.524755 Y21.496806 Z-1.000000
G03 X25.556090 Y21.505922 Z-1.000000 I-0.000000 J0.058411
G03 X26.284835 Y21.979947 Z-1.000000 I-22.248727 J35.001412
G01 X26.284822 Y21.979950 Z-1.000000
G00 Z0.000000

(End cutting path id: path24)


(Start cutting path id: path24)
(Change tool to Cone cutter)

G00 Z0.000000
G00 X26.284822 Y21.979950

G01 Z-1.000000 F100.0(Penetrate)
G03 X26.980227 Y22.487576 Z-1.000000 I-5.500198 J8.264941 F400.000000
G03 X27.064322 Y22.602518 Z-1.000000 I-0.169539 J0.212274
G03 X27.098779 Y22.746202 Z-1.000000 I-0.527818 J0.202552
G03 X27.205478 Y23.950773 Z-1.000000 I-37.661358 J3.942983
G01 X27.293128 Y25.159599 Z-1.000000
G01 X27.030221 Y25.942564 Z-1.000000
G02 X26.636838 Y27.582815 Z-1.000000 I9.038810 J3.035085
G02 X26.489649 Y29.598039 Z-1.000000 I13.535081 J2.001570
G02 X26.524472 Y31.191049 Z-1.000000 I38.206551 J-0.038297
G02 X26.629613 Y32.873005 Z-1.000000 I42.692817 J-1.824520
G03 X26.748739 Y34.554705 Z-1.000000 I-73.450684 J6.048074
G03 X26.822145 Y36.116876 Z-1.000000 I-63.332083 J3.758764
G01 X26.876305 Y37.680173 Z-1.000000
G01 X26.352499 Y38.065776 Z-1.000000
G03 X25.306260 Y38.674011 Z-1.000000 I-3.328290 J-4.521118
G03 X24.341838 Y38.960321 Z-1.000000 I-1.577016 J-3.544650
G01 X23.982924 Y39.017711 Z-1.000000
G01 X24.396212 Y38.510303 Z-1.000000
G02 X25.073503 Y37.441010 Z-1.000000 I-4.136377 J-3.369129
G02 X25.545458 Y36.104876 Z-1.000000 I-6.033184 J-2.882487
G02 X25.912420 Y34.034769 Z-1.000000 I-17.661754 J-4.198427
G02 X26.023639 Y32.054261 Z-1.000000 I-16.049445 J-1.894664
G03 X26.018919 Y31.020058 Z-1.000000 I728.341245 J-3.841396
G03 X26.015139 Y29.813495 Z-1.000000 I836.068480 J-3.222374
G02 X25.857242 Y23.452140 Z-1.000000 I-142.606094 J0.357026
G02 X25.651846 Y22.110710 Z-1.000000 I-6.478682 J0.305558
G03 X25.511607 Y21.512955 Z-1.000000 I11.284819 J-2.962855
G01 X25.524755 Y21.496806 Z-1.000000
G03 X25.556090 Y21.505922 Z-1.000000 I-0.000000 J0.058411
G03 X26.284835 Y21.979947 Z-1.000000 I-22.248727 J35.001412
G01 X26.284822 Y21.979950 Z-1.000000
G00 Z0.000000

(End cutting path id: path24)


(Start cutting path id: path24)
(Change tool to Cone cutter)

G00 Z0.000000
G00 X27.794881 Y22.917272

G01 Z-1.000000 F100.0(Penetrate)
G01 X28.041852 Y23.044986 Z-1.000000 F400.000000
G01 X27.855239 Y23.623796 Z-1.000000
G03 X27.693798 Y23.961114 Z-1.000000 I-1.327150 J-0.427886
G01 X27.642065 Y23.948544 Z-1.000000
G02 X27.611824 Y23.694953 Z-1.000000 I-8.752605 J0.915142
G02 X27.547385 Y23.242021 Z-1.000000 I-27.907379 J3.739385
G03 X27.498341 Y22.805984 Z-1.000000 I5.795613 J-0.872647
G01 X27.513585 Y22.789559 Z-1.000000
G03 X27.546195 Y22.796615 Z-1.000000 I-0.000000 J0.078882
G03 X27.794880 Y22.917272 Z-1.000000 I-2.238060 J4.929456
G01 X27.794881 Y22.917272 Z-1.000000
G00 Z0.000000

(End cutting path id: path24)


(Start cutting path id: path24)
(Change tool to Cone cutter)

G00 Z0.000000
G00 X27.794881 Y22.917272

G01 Z-1.000000 F100.0(Penetrate)
G01 X28.041852 Y23.044986 Z-1.000000 F400.000000
G01 X27.855239 Y23.623796 Z-1.000000
G03 X27.693798 Y23.961114 Z-1.000000 I-1.327150 J-0.427886
G01 X27.642065 Y23.948544 Z-1.000000
G02 X27.611824 Y23.694953 Z-1.000000 I-8.752605 J0.915142
G02 X27.547385 Y23.242021 Z-1.000000 I-27.907379 J3.739385
G03 X27.498341 Y22.805984 Z-1.000000 I5.795613 J-0.872647
G01 X27.513585 Y22.789559 Z-1.000000
G03 X27.546195 Y22.796615 Z-1.000000 I-0.000000 J0.078882
G03 X27.794880 Y22.917272 Z-1.000000 I-2.238060 J4.929456
G01 X27.794881 Y22.917272 Z-1.000000
G00 Z0.000000

(End cutting path id: path24)


(Start cutting path id: path24)
(Change tool to Cone cutter)

G00 Z0.000000
G00 X29.358533 Y23.562001

G01 Z-1.000000 F100.0(Penetrate)
G02 X30.762712 Y23.742946 Z-1.000000 I1.334137 J-4.814373 F400.000000
G02 X32.104798 Y23.523491 Z-1.000000 I-0.064621 J-4.608711
G01 X32.138510 Y23.567151 Z-1.000000
G03 X31.816758 Y23.976991 Z-1.000000 I-2.209429 J-1.403330
G02 X30.656721 Y25.343494 Z-1.000000 I10.531760 J10.116145
G02 X29.996558 Y26.409252 Z-1.000000 I5.719059 J4.279899
G02 X29.392007 Y28.085572 Z-1.000000 I6.614103 J3.332495
G02 X28.879084 Y31.279905 Z-1.000000 I23.793463 J5.458931
G03 X28.734127 Y32.742768 Z-1.000000 I-124.708438 J-11.618890
G03 X28.652945 Y33.433191 Z-1.000000 I-27.859386 J-2.925814
G03 X28.047907 Y37.411922 Z-1.000000 I-92.995532 J-12.106275
G03 X27.714620 Y38.822846 Z-1.000000 I-11.989911 J-2.087420
G03 X26.245980 Y40.659561 Z-1.000000 I-3.014167 J-0.904612
G03 X22.564950 Y41.726167 Z-1.000000 I-4.104589 J-7.280380
G01 X21.598074 Y41.775230 Z-1.000000
G01 X21.509204 Y41.541486 Z-1.000000
G03 X21.424320 Y41.307011 Z-1.000000 I7.285935 J-2.770223
G03 X21.420334 Y41.283170 Z-1.000000 I0.069300 J-0.023841
G01 X21.432469 Y41.270181 Z-1.000000
G03 X22.562263 Y41.205487 Z-1.000000 I3.581340 J52.645603
G02 X24.819483 Y40.810333 Z-1.000000 I-0.420836 J-9.048414
G02 X25.988017 Y40.145266 Z-1.000000 I-0.921952 J-2.978984
G02 X26.573504 Y39.399325 Z-1.000000 I-1.871994 J-2.072067
G02 X26.894610 Y38.465234 Z-1.000000 I-2.666312 J-1.438817
G03 X27.000893 Y38.126449 Z-1.000000 I1.285251 J0.217144
G03 X27.239093 Y37.734687 Z-1.000000 I1.965800 J0.926951
G02 X27.781777 Y36.823890 Z-1.000000 I-3.684443 J-2.812391
G02 X28.185506 Y35.630866 Z-1.000000 I-5.965402 J-2.683565
G02 X28.355369 Y34.120105 Z-1.000000 I-6.291020 J-1.472263
G02 X28.149816 Y29.641126 Z-1.000000 I-56.197537 J0.334858
G02 X27.865828 Y26.540686 Z-1.000000 I-278.038013 J23.903954
G02 X27.797894 Y26.021427 Z-1.000000 I-7.858247 J0.764011
G03 X27.761611 Y24.995925 Z-1.000000 I3.969105 J-0.653822
G03 X27.990430 Y23.946568 Z-1.000000 I4.387831 J0.407168
G01 X28.269144 Y23.150716 Z-1.000000
G01 X28.497048 Y23.268569 Z-1.000000
G02 X28.731928 Y23.368642 Z-1.000000 I0.787982 J-1.523789
G02 X29.358531 Y23.561996 Z-1.000000 I3.648442 J-10.711507
G01 X29.358533 Y23.562001 Z-1.000000
G00 Z0.000000

(End cutting path id: path24)


(Start cutting path id: path24)
(Change tool to Cone cutter)

G00 Z0.000000
G00 X29.358533 Y23.562001

G01 Z-1.000000 F100.0(Penetrate)
G02 X30.762712 Y23.742946 Z-1.000000 I1.334137 J-4.814373 F400.000000
G02 X32.104798 Y23.523491 Z-1.000000 I-0.064621 J-4.608711
G01 X32.138510 Y23.567151 Z-1.000000
G03 X31.816758 Y23.976991 Z-1.000000 I-2.209429 J-1.403330
G02 X30.656721 Y25.343494 Z-1.000000 I10.531760 J10.116145
G02 X29.996558 Y26.409252 Z-1.000000 I5.719059 J4.279899
G02 X29.392007 Y28.085572 Z-1.000000 I6.614103 J3.332495
G02 X28.879084 Y31.279905 Z-1.000000 I23.793463 J5.458931
G03 X28.734127 Y32.742768 Z-1.000000 I-124.708438 J-11.618890
G03 X28.652945 Y33.433191 Z-1.000000 I-27.859386 J-2.925814
G03 X28.047907 Y37.411922 Z-1.000000 I-92.995532 J-12.106275
G03 X27.714620 Y38.822846 Z-1.000000 I-11.989911 J-2.087420
G03 X26.245980 Y40.659561 Z-1.000000 I-3.014167 J-0.904612
G03 X22.564950 Y41.726167 Z-1.000000 I-4.104589 J-7.280380
G01 X21.598074 Y41.775230 Z-1.000000
G01 X21.509204 Y41.541486 Z-1.000000
G03 X21.424320 Y41.307011 Z-1.000000 I7.285935 J-2.770223
G03 X21.420334 Y41.283170 Z-1.000000 I0.069300 J-0.023841
G01 X21.432469 Y41.270181 Z-1.000000
G03 X22.562263 Y41.205487 Z-1.000000 I3.581340 J52.645603
G02 X24.819483 Y40.810333 Z-1.000000 I-0.420836 J-9.048414
G02 X25.988017 Y40.145266 Z-1.000000 I-0.921952 J-2.978984
G02 X26.573504 Y39.399325 Z-1.000000 I-1.871994 J-2.072067
G02 X26.894610 Y38.465234 Z-1.000000 I-2.666312 J-1.438817
G03 X27.000893 Y38.126449 Z-1.000000 I1.285251 J0.217144
G03 X27.239093 Y37.734687 Z-1.000000 I1.965800 J0.926951
G02 X27.781777 Y36.823890 Z-1.000000 I-3.684443 J-2.812391
G02 X28.185506 Y35.630866 Z-1.000000 I-5.965402 J-2.683565
G02 X28.355369 Y34.120105 Z-1.000000 I-6.291020 J-1.472263
G02 X28.149816 Y29.641126 Z-1.000000 I-56.197537 J0.334858
G02 X27.865828 Y26.540686 Z-1.000000 I-278.038013 J23.903954
G02 X27.797894 Y26.021427 Z-1.000000 I-7.858247 J0.764011
G03 X27.761611 Y24.995925 Z-1.000000 I3.969105 J-0.653822
G03 X27.990430 Y23.946568 Z-1.000000 I4.387831 J0.407168
G01 X28.269144 Y23.150716 Z-1.000000
G01 X28.497048 Y23.268569 Z-1.000000
G02 X28.731928 Y23.368642 Z-1.000000 I0.787982 J-1.523789
G02 X29.358531 Y23.561996 Z-1.000000 I3.648442 J-10.711507
G01 X29.358533 Y23.562001 Z-1.000000
G00 Z0.000000

(End cutting path id: path24)


(Start cutting path id: path24)
(Change tool to Cone cutter)

G00 Z0.000000
G00 X27.534365 Y26.947904

G01 Z-1.000000 F100.0(Penetrate)
G02 X27.646160 Y28.175363 Z-1.000000 I109.993930 J-9.399270 F400.000000
G02 X27.807332 Y29.770407 Z-1.000000 I185.846829 J-17.973293
G03 X27.886452 Y34.885165 Z-1.000000 I-28.448872 J2.998066
G03 X27.269883 Y37.013950 Z-1.000000 I-5.355075 J-0.397331
G01 X27.065342 Y37.397629 Z-1.000000
G01 X27.046632 Y36.492705 Z-1.000000
G02 X27.011308 Y35.588562 Z-1.000000 I-24.614822 J0.508905
G02 X26.875700 Y33.519381 Z-1.000000 I-129.098911 J7.421752
G03 X26.693970 Y28.966419 Z-1.000000 I67.699042 J-4.982297
G03 X26.838090 Y27.572733 Z-1.000000 I6.418187 J-0.040594
G03 X27.287237 Y25.781153 Z-1.000000 I27.174202 J5.860445
G03 X27.368632 Y25.719792 Z-1.000000 I0.081395 J0.023305
G01 X27.402351 Y25.749266 Z-1.000000
G03 X27.534365 Y26.947904 Z-1.000000 I-24.440706 J3.298405
G01 X27.534365 Y26.947904 Z-1.000000
G00 Z0.000000

(End cutting path id: path24)


(Start cutting path id: path24)
(Change tool to Cone cutter)

G00 Z0.000000
G00 X27.534365 Y26.947904

G01 Z-1.000000 F100.0(Penetrate)
G02 X27.646160 Y28.175363 Z-1.000000 I109.993930 J-9.399270 F400.000000
G02 X27.807332 Y29.770407 Z-1.000000 I185.846829 J-17.973293
G03 X27.886452 Y34.885165 Z-1.000000 I-28.448872 J2.998066
G03 X27.269883 Y37.013950 Z-1.000000 I-5.355075 J-0.397331
G01 X27.065342 Y37.397629 Z-1.000000
G01 X27.046632 Y36.492705 Z-1.000000
G02 X27.011308 Y35.588562 Z-1.000000 I-24.614822 J0.508905
G02 X26.875700 Y33.519381 Z-1.000000 I-129.098911 J7.421752
G03 X26.693970 Y28.966419 Z-1.000000 I67.699042 J-4.982297
G03 X26.838090 Y27.572733 Z-1.000000 I6.418187 J-0.040594
G03 X27.287237 Y25.781153 Z-1.000000 I27.174202 J5.860445
G03 X27.368632 Y25.719792 Z-1.000000 I0.081395 J0.023305
G01 X27.402351 Y25.749266 Z-1.000000
G03 X27.534365 Y26.947904 Z-1.000000 I-24.440706 J3.298405
G01 X27.534365 Y26.947904 Z-1.000000
G00 Z0.000000

(End cutting path id: path24)


(Start cutting path id: path24)
(Change tool to Cone cutter)

G00 Z0.000000
G00 X22.709469 Y29.041091

G01 Z-1.000000 F100.0(Penetrate)
G03 X24.902228 Y30.173855 Z-1.000000 I-1.225412 J5.060812 F400.000000
G03 X25.683870 Y31.629402 Z-1.000000 I-1.531711 J1.760191
G03 X25.695769 Y33.191095 Z-1.000000 I-6.294451 J0.828852
G03 X25.163775 Y36.104880 Z-1.000000 I-22.682279 J-2.635836
G03 X24.391330 Y37.941587 Z-1.000000 I-6.356944 J-1.592691
G03 X23.416760 Y38.949756 Z-1.000000 I-2.765689 J-1.698388
G03 X23.056526 Y39.099062 Z-1.000000 I-0.564790 J-0.853459
G03 X21.680010 Y39.304039 Z-1.000000 I-2.605431 J-12.772195
G03 X19.822384 Y39.317100 Z-1.000000 I-1.003352 J-10.595312
G03 X18.709541 Y39.064832 Z-1.000000 I0.322321 J-4.002582
G03 X18.312677 Y38.806214 Z-1.000000 I0.402197 J-1.051010
G03 X18.049354 Y38.399090 Z-1.000000 I0.837193 J-0.830206
G03 X17.922613 Y37.903422 Z-1.000000 I2.050889 J-0.788443
G03 X17.854677 Y36.951108 Z-1.000000 I7.583435 J-1.019568
G03 X17.872415 Y35.998207 Z-1.000000 I17.342476 J-0.153794
G03 X17.901597 Y35.932100 Z-1.000000 I0.099907 J0.004608
G03 X17.962933 Y35.915060 Z-1.000000 I0.045743 J0.045743
G03 X18.214498 Y36.009880 Z-1.000000 I-0.277528 J1.117425
G02 X19.335471 Y36.133709 Z-1.000000 I0.721436 J-1.395104
G02 X20.180407 Y35.492772 Z-1.000000 I-0.353299 J-1.343148
G02 X20.384530 Y34.739473 Z-1.000000 I-1.283222 J-0.752022
G02 X20.178707 Y33.508589 Z-1.000000 I-3.802978 J0.003265
G03 X20.211933 Y32.766287 Z-1.000000 I0.958837 J-0.328976
G03 X20.624311 Y32.510691 Z-1.000000 I0.394620 J0.176215
G02 X21.464077 Y32.398259 Z-1.000000 I0.100444 J-2.442134
G02 X21.576364 Y32.208562 Z-1.000000 I-0.050047 J-0.157706
G02 X21.499255 Y32.131967 Z-1.000000 I-0.095239 J0.018767
G02 X20.707885 Y32.043456 Z-1.000000 I-0.973174 J5.119031
G02 X19.895244 Y32.087923 Z-1.000000 I-0.158739 J4.546871
G02 X19.688751 Y32.191469 Z-1.000000 I0.052680 J0.362723
G02 X19.579927 Y32.495860 Z-1.000000 I0.267164 J0.267164
G02 X19.835937 Y33.678015 Z-1.000000 I5.264116 J-0.521212
G03 X20.008628 Y34.287555 Z-1.000000 I-5.795964 J1.971306
G03 X20.041409 Y34.578609 Z-1.000000 I-1.275697 J0.291054
G01 X20.041409 Y34.875082 Z-1.000000
G01 X19.575889 Y34.816922 Z-1.000000
G02 X19.145429 Y34.837744 Z-1.000000 I-0.155520 J1.244802
G02 X18.975100 Y34.951882 Z-1.000000 I0.062227 J0.277023
G03 X18.828040 Y35.040260 Z-1.000000 I-0.172841 J-0.121063
G03 X18.668181 Y34.989662 Z-1.000000 I-0.024623 J-0.200033
G02 X18.357380 Y34.878087 Z-1.000000 I-0.290773 J0.321302
G02 X18.231560 Y35.009862 Z-1.000000 I0.006097 J0.131775
G02 X18.253793 Y35.074118 Z-1.000000 I0.103970 J0.000000
G02 X18.453870 Y35.292663 Z-1.000000 I1.552576 J-1.220519
G02 X18.703049 Y35.433779 Z-1.000000 I0.414040 J-0.440546
G02 X19.191030 Y35.501598 Z-1.000000 I0.487981 J-1.721689
G01 X19.705879 Y35.501598 Z-1.000000
G01 X19.481006 Y35.695508 Z-1.000000
G03 X19.019791 Y35.859747 Z-1.000000 I-0.442631 J-0.513286
G03 X18.336242 Y35.664108 Z-1.000000 I0.039193 J-1.428895
G01 X17.951779 Y35.438798 Z-1.000000
G01 X17.997659 Y33.961987 Z-1.000000
G03 X18.213004 Y32.040435 Z-1.000000 I12.009787 J0.373074
G03 X18.540906 Y31.169676 Z-1.000000 I2.731140 J0.531347
G03 X19.992139 Y29.282441 Z-1.000000 I8.092666 J4.721446
G03 X20.903238 Y28.795635 Z-1.000000 I1.250408 J1.244242
G03 X21.339618 Y28.782866 Z-1.000000 I0.256700 J1.309654
G03 X22.709472 Y29.041087 Z-1.000000 I-1.831043 J13.476240
G01 X22.709469 Y29.041091 Z-1.000000
G00 Z0.000000

(End cutting path id: path24)


(Start cutting path id: path24)
(Change tool to Cone cutter)

G00 Z0.000000
G00 X22.709469 Y29.041091

G01 Z-1.000000 F100.0(Penetrate)
G03 X24.902228 Y30.173855 Z-1.000000 I-1.225412 J5.060812 F400.000000
G03 X25.683870 Y31.629402 Z-1.000000 I-1.531711 J1.760191
G03 X25.695769 Y33.191095 Z-1.000000 I-6.294451 J0.828852
G03 X25.163775 Y36.104880 Z-1.000000 I-22.682279 J-2.635836
G03 X24.391330 Y37.941587 Z-1.000000 I-6.356944 J-1.592691
G03 X23.416760 Y38.949756 Z-1.000000 I-2.765689 J-1.698388
G03 X23.056526 Y39.099062 Z-1.000000 I-0.564790 J-0.853459
G03 X21.680010 Y39.304039 Z-1.000000 I-2.605431 J-12.772195
G03 X19.822384 Y39.317100 Z-1.000000 I-1.003352 J-10.595312
G03 X18.709541 Y39.064832 Z-1.000000 I0.322321 J-4.002582
G03 X18.312677 Y38.806214 Z-1.000000 I0.402197 J-1.051010
G03 X18.049354 Y38.399090 Z-1.000000 I0.837193 J-0.830206
G03 X17.922613 Y37.903422 Z-1.000000 I2.050889 J-0.788443
G03 X17.854677 Y36.951108 Z-1.000000 I7.583435 J-1.019568
G03 X17.872415 Y35.998207 Z-1.000000 I17.342476 J-0.153794
G03 X17.901597 Y35.932100 Z-1.000000 I0.099907 J0.004608
G03 X17.962933 Y35.915060 Z-1.000000 I0.045743 J0.045743
G03 X18.214498 Y36.009880 Z-1.000000 I-0.277528 J1.117425
G02 X19.335471 Y36.133709 Z-1.000000 I0.721436 J-1.395104
G02 X20.180407 Y35.492772 Z-1.000000 I-0.353299 J-1.343148
G02 X20.384530 Y34.739473 Z-1.000000 I-1.283222 J-0.752022
G02 X20.178707 Y33.508589 Z-1.000000 I-3.802978 J0.003265
G03 X20.211933 Y32.766287 Z-1.000000 I0.958837 J-0.328976
G03 X20.624311 Y32.510691 Z-1.000000 I0.394620 J0.176215
G02 X21.464077 Y32.398259 Z-1.000000 I0.100444 J-2.442134
G02 X21.576364 Y32.208562 Z-1.000000 I-0.050047 J-0.157706
G02 X21.499255 Y32.131967 Z-1.000000 I-0.095239 J0.018767
G02 X20.707885 Y32.043456 Z-1.000000 I-0.973174 J5.119031
G02 X19.895244 Y32.087923 Z-1.000000 I-0.158739 J4.546871
G02 X19.688751 Y32.191469 Z-1.000000 I0.052680 J0.362723
G02 X19.579927 Y32.495860 Z-1.000000 I0.267164 J0.267164
G02 X19.835937 Y33.678015 Z-1.000000 I5.264116 J-0.521212
G03 X20.008628 Y34.287555 Z-1.000000 I-5.795964 J1.971306
G03 X20.041409 Y34.578609 Z-1.000000 I-1.275697 J0.291054
G01 X20.041409 Y34.875082 Z-1.000000
G01 X19.575889 Y34.816922 Z-1.000000
G02 X19.145429 Y34.837744 Z-1.000000 I-0.155520 J1.244802
G02 X18.975100 Y34.951882 Z-1.000000 I0.062227 J0.277023
G03 X18.828040 Y35.040260 Z-1.000000 I-0.172841 J-0.121063
G03 X18.668181 Y34.989662 Z-1.000000 I-0.024623 J-0.200033
G02 X18.357380 Y34.878087 Z-1.000000 I-0.290773 J0.321302
G02 X18.231560 Y35.009862 Z-1.000000 I0.006097 J0.131775
G02 X18.253793 Y35.074118 Z-1.000000 I0.103970 J0.000000
G02 X18.453870 Y35.292663 Z-1.000000 I1.552576 J-1.220519
G02 X18.703049 Y35.433779 Z-1.000000 I0.414040 J-0.440546
G02 X19.191030 Y35.501598 Z-1.000000 I0.487981 J-1.721689
G01 X19.705879 Y35.501598 Z-1.000000
G01 X19.481006 Y35.695508 Z-1.000000
G03 X19.019791 Y35.859747 Z-1.000000 I-0.442631 J-0.513286
G03 X18.336242 Y35.664108 Z-1.000000 I0.039193 J-1.428895
G01 X17.951779 Y35.438798 Z-1.000000
G01 X17.997659 Y33.961987 Z-1.000000
G03 X18.213004 Y32.040435 Z-1.000000 I12.009787 J0.373074
G03 X18.540906 Y31.169676 Z-1.000000 I2.731140 J0.531347
G03 X19.992139 Y29.282441 Z-1.000000 I8.092666 J4.721446
G03 X20.903238 Y28.795635 Z-1.000000 I1.250408 J1.244242
G03 X21.339618 Y28.782866 Z-1.000000 I0.256700 J1.309654
G03 X22.709472 Y29.041087 Z-1.000000 I-1.831043 J13.476240
G01 X22.709469 Y29.041091 Z-1.000000
G00 Z0.000000

(End cutting path id: path24)


(Start cutting path id: path24)
(Change tool to Cone cutter)

G00 Z0.000000
G00 X20.239557 Y30.469011

G01 Z-1.000000 F100.0(Penetrate)
G02 X19.948435 Y30.667538 Z-1.000000 I0.157016 J0.542965 F400.000000
G02 X19.951728 Y30.843493 Z-1.000000 I0.111783 J0.085917
G03 X19.948691 Y30.932134 Z-1.000000 I-0.051349 J0.042614
G03 X19.743690 Y31.061860 Z-1.000000 I-0.361473 J-0.344384
G02 X19.493599 Y31.202822 Z-1.000000 I0.232821 J0.705396
G02 X19.438119 Y31.323304 Z-1.000000 I0.103080 J0.120482
G02 X19.550975 Y31.470614 Z-1.000000 I0.152570 J0.000000
G02 X19.867196 Y31.438981 Z-1.000000 I0.116474 J-0.432035
G03 X20.745898 Y31.220787 Z-1.000000 I0.928717 J1.861656
G03 X21.630299 Y31.396581 Z-1.000000 I0.049609 J2.062982
G02 X22.039872 Y31.542733 Z-1.000000 I1.194375 J-2.700117
G02 X22.119168 Y31.531376 Z-1.000000 I0.026629 J-0.096576
G02 X22.162164 Y31.230554 Z-1.000000 I-0.104049 J-0.168355
G02 X21.502471 Y30.846810 Z-1.000000 I-0.927490 J0.835536
G03 X21.293443 Y30.754343 Z-1.000000 I0.123199 J-0.560991
G03 X21.247969 Y30.666351 Z-1.000000 I0.062394 J-0.087992
G02 X21.128664 Y30.475885 Z-1.000000 I-0.211689 J-0.000000
G02 X20.660621 Y30.381463 Z-1.000000 I-0.416973 J0.859665
G02 X20.517241 Y30.400112 Z-1.000000 I0.051488 J0.956368
G02 X20.239557 Y30.469013 Z-1.000000 I0.759717 J3.655807
G01 X20.239557 Y30.469011 Z-1.000000
G00 Z0.000000

(End cutting path id: path24)


(Start cutting path id: path24)
(Change tool to Cone cutter)

G00 Z0.000000
G00 X20.239557 Y30.469011

G01 Z-1.000000 F100.0(Penetrate)
G02 X19.948435 Y30.667538 Z-1.000000 I0.157016 J0.542965 F400.000000
G02 X19.951728 Y30.843493 Z-1.000000 I0.111783 J0.085917
G03 X19.948691 Y30.932134 Z-1.000000 I-0.051349 J0.042614
G03 X19.743690 Y31.061860 Z-1.000000 I-0.361473 J-0.344384
G02 X19.493599 Y31.202822 Z-1.000000 I0.232821 J0.705396
G02 X19.438119 Y31.323304 Z-1.000000 I0.103080 J0.120482
G02 X19.550975 Y31.470614 Z-1.000000 I0.152570 J0.000000
G02 X19.867196 Y31.438981 Z-1.000000 I0.116474 J-0.432035
G03 X20.745898 Y31.220787 Z-1.000000 I0.928717 J1.861656
G03 X21.630299 Y31.396581 Z-1.000000 I0.049609 J2.062982
G02 X22.039872 Y31.542733 Z-1.000000 I1.194375 J-2.700117
G02 X22.119168 Y31.531376 Z-1.000000 I0.026629 J-0.096576
G02 X22.162164 Y31.230554 Z-1.000000 I-0.104049 J-0.168355
G02 X21.502471 Y30.846810 Z-1.000000 I-0.927490 J0.835536
G03 X21.293443 Y30.754343 Z-1.000000 I0.123199 J-0.560991
G03 X21.247969 Y30.666351 Z-1.000000 I0.062394 J-0.087992
G02 X21.128664 Y30.475885 Z-1.000000 I-0.211689 J-0.000000
G02 X20.660621 Y30.381463 Z-1.000000 I-0.416973 J0.859665
G02 X20.517241 Y30.400112 Z-1.000000 I0.051488 J0.956368
G02 X20.239557 Y30.469013 Z-1.000000 I0.759717 J3.655807
G01 X20.239557 Y30.469011 Z-1.000000
G00 Z0.000000

(End cutting path id: path24)


(Start cutting path id: path24)
(Change tool to Cone cutter)

G00 Z0.000000
G00 X16.013955 Y31.257069

G01 Z-1.000000 F100.0(Penetrate)
G02 X16.011360 Y32.824668 Z-1.000000 I28.779978 J0.831450 F400.000000
G02 X16.062815 Y33.167316 Z-1.000000 I1.406072 J-0.035962
G01 X16.007552 Y33.193810 Z-1.000000
G03 X15.728546 Y32.700639 Z-1.000000 I2.162364 J-1.548844
G03 X15.455400 Y31.397535 Z-1.000000 I3.052897 J-1.320103
G03 X15.716096 Y30.264331 Z-1.000000 I2.536911 J-0.012966
G03 X16.009407 Y29.696781 Z-1.000000 I14.584075 J7.177512
G01 X16.030495 Y29.684224 Z-1.000000
G01 X16.044665 Y29.698544 Z-1.000000
G03 X16.013955 Y31.257069 Z-1.000000 I-84.390217 J-0.883328
G01 X16.013955 Y31.257069 Z-1.000000
G00 Z0.000000

(End cutting path id: path24)


(Start cutting path id: path24)
(Change tool to Cone cutter)

G00 Z0.000000
G00 X16.013955 Y31.257069

G01 Z-1.000000 F100.0(Penetrate)
G02 X16.011360 Y32.824668 Z-1.000000 I28.779978 J0.831450 F400.000000
G02 X16.062815 Y33.167316 Z-1.000000 I1.406072 J-0.035962
G01 X16.007552 Y33.193810 Z-1.000000
G03 X15.728546 Y32.700639 Z-1.000000 I2.162364 J-1.548844
G03 X15.455400 Y31.397535 Z-1.000000 I3.052897 J-1.320103
G03 X15.716096 Y30.264331 Z-1.000000 I2.536911 J-0.012966
G03 X16.009407 Y29.696781 Z-1.000000 I14.584075 J7.177512
G01 X16.030495 Y29.684224 Z-1.000000
G01 X16.044665 Y29.698544 Z-1.000000
G03 X16.013955 Y31.257069 Z-1.000000 I-84.390217 J-0.883328
G01 X16.013955 Y31.257069 Z-1.000000
G00 Z0.000000

(End cutting path id: path24)


(Start cutting path id: path24)
(Change tool to Cone cutter)

G00 Z0.000000
G00 X19.477163 Y25.957096

G01 Z-1.000000 F100.0(Penetrate)
G02 X20.182015 Y26.499442 Z-1.000000 I11.641827 J-14.400915 F400.000000
G02 X20.364590 Y26.606606 Z-1.000000 I0.619769 J-0.846795
G03 X20.477328 Y26.747566 Z-1.000000 I-0.083605 J0.182428
G03 X20.558502 Y27.524731 Z-1.000000 I-3.679703 J0.777165
G01 X20.558502 Y28.353987 Z-1.000000
G01 X19.438119 Y29.488944 Z-1.000000
G03 X18.391382 Y30.444466 Z-1.000000 I-9.705195 J-9.580575
G01 X18.317736 Y30.409664 Z-1.000000
G02 X18.297926 Y30.197512 Z-1.000000 I-1.145916 J0.000000
G02 X17.965377 Y28.539348 Z-1.000000 I-70.935915 J13.363955
G03 X17.449858 Y25.815637 Z-1.000000 I60.040404 J-12.774547
G03 X17.318594 Y24.642501 Z-1.000000 I10.981100 J-1.822600
G01 X17.268224 Y23.780668 Z-1.000000
G01 X18.025937 Y24.588562 Z-1.000000
G02 X18.806792 Y25.371546 Z-1.000000 I13.147394 J-12.330781
G02 X19.477163 Y25.957096 Z-1.000000 I8.012291 J-8.496419
G01 X19.477163 Y25.957096 Z-1.000000
G00 Z0.000000

(End cutting path id: path24)


(Start cutting path id: path24)
(Change tool to Cone cutter)

G00 Z0.000000
G00 X19.477163 Y25.957096

G01 Z-1.000000 F100.0(Penetrate)
G02 X20.182015 Y26.499442 Z-1.000000 I11.641827 J-14.400915 F400.000000
G02 X20.364590 Y26.606606 Z-1.000000 I0.619769 J-0.846795
G03 X20.477328 Y26.747566 Z-1.000000 I-0.083605 J0.182428
G03 X20.558502 Y27.524731 Z-1.000000 I-3.679703 J0.777165
G01 X20.558502 Y28.353987 Z-1.000000
G01 X19.438119 Y29.488944 Z-1.000000
G03 X18.391382 Y30.444466 Z-1.000000 I-9.705195 J-9.580575
G01 X18.317736 Y30.409664 Z-1.000000
G02 X18.297926 Y30.197512 Z-1.000000 I-1.145916 J0.000000
G02 X17.965377 Y28.539348 Z-1.000000 I-70.935915 J13.363955
G03 X17.449858 Y25.815637 Z-1.000000 I60.040404 J-12.774547
G03 X17.318594 Y24.642501 Z-1.000000 I10.981100 J-1.822600
G01 X17.268224 Y23.780668 Z-1.000000
G01 X18.025937 Y24.588562 Z-1.000000
G02 X18.806792 Y25.371546 Z-1.000000 I13.147394 J-12.330781
G02 X19.477163 Y25.957096 Z-1.000000 I8.012291 J-8.496419
G01 X19.477163 Y25.957096 Z-1.000000
G00 Z0.000000

(End cutting path id: path24)


(Start cutting path id: path24)
(Change tool to Cone cutter)

G00 Z0.000000
G00 X21.506518 Y26.098396

G01 Z-1.000000 F100.0(Penetrate)
G03 X21.473626 Y26.195839 Z-1.000000 I-0.160782 J0.000000 F400.000000
G03 X21.377244 Y26.268058 Z-1.000000 I-0.175368 J-0.133618
G03 X21.306500 Y26.240645 Z-1.000000 I-0.020243 J-0.052750
G03 X21.300284 Y26.114666 Z-1.000000 I0.139579 J-0.070030
G03 X21.424075 Y26.022198 Z-1.000000 I0.135177 J0.051871
G03 X21.506521 Y26.098396 Z-1.000000 I0.006011 J0.076198
G01 X21.506518 Y26.098396 Z-1.000000
G00 Z0.000000

(End cutting path id: path24)


(Start cutting path id: path24)
(Change tool to Cone cutter)

G00 Z0.000000
G00 X21.506518 Y26.098396

G01 Z-1.000000 F100.0(Penetrate)
G03 X21.473626 Y26.195839 Z-1.000000 I-0.160782 J0.000000 F400.000000
G03 X21.377244 Y26.268058 Z-1.000000 I-0.175368 J-0.133618
G03 X21.306500 Y26.240645 Z-1.000000 I-0.020243 J-0.052750
G03 X21.300284 Y26.114666 Z-1.000000 I0.139579 J-0.070030
G03 X21.424075 Y26.022198 Z-1.000000 I0.135177 J0.051871
G03 X21.506521 Y26.098396 Z-1.000000 I0.006011 J0.076198
G01 X21.506518 Y26.098396 Z-1.000000
G00 Z0.000000

(End cutting path id: path24)


(Start cutting path id: path24)
(Change tool to Cone cutter)

G00 Z0.000000
G00 X15.768602 Y23.591821

G01 Z-1.000000 F100.0(Penetrate)
G03 X16.447940 Y25.005750 Z-1.000000 I-3.082678 J2.351271 F400.000000
G03 X16.551715 Y26.734847 Z-1.000000 I-4.587343 J1.142980
G01 X16.492435 Y27.209290 Z-1.000000
G01 X16.293753 Y26.859503 Z-1.000000
G02 X16.087064 Y26.514729 Z-1.000000 I-7.446051 J4.229491
G02 X15.821453 Y26.112028 Z-1.000000 I-10.425683 J6.587575
G03 X15.245055 Y25.049382 Z-1.000000 I4.722864 J-3.249411
G03 X15.107482 Y24.381836 Z-1.000000 I1.684440 J-0.695092
G03 X15.255112 Y23.468096 Z-1.000000 I2.651962 J-0.040327
G03 X15.482388 Y23.306659 Z-1.000000 I0.227276 J0.079265
G03 X15.539432 Y23.330226 Z-1.000000 I-0.000000 J0.080822
G03 X15.768600 Y23.591821 Z-1.000000 I-1.811184 J1.817848
G01 X15.768602 Y23.591821 Z-1.000000
G00 Z0.000000

(End cutting path id: path24)


(Start cutting path id: path24)
(Change tool to Cone cutter)

G00 Z0.000000
G00 X15.768602 Y23.591821

G01 Z-1.000000 F100.0(Penetrate)
G03 X16.447940 Y25.005750 Z-1.000000 I-3.082678 J2.351271 F400.000000
G03 X16.551715 Y26.734847 Z-1.000000 I-4.587343 J1.142980
G01 X16.492435 Y27.209290 Z-1.000000
G01 X16.293753 Y26.859503 Z-1.000000
G02 X16.087064 Y26.514729 Z-1.000000 I-7.446051 J4.229491
G02 X15.821453 Y26.112028 Z-1.000000 I-10.425683 J6.587575
G03 X15.245055 Y25.049382 Z-1.000000 I4.722864 J-3.249411
G03 X15.107482 Y24.381836 Z-1.000000 I1.684440 J-0.695092
G03 X15.255112 Y23.468096 Z-1.000000 I2.651962 J-0.040327
G03 X15.482388 Y23.306659 Z-1.000000 I0.227276 J0.079265
G03 X15.539432 Y23.330226 Z-1.000000 I-0.000000 J0.080822
G03 X15.768600 Y23.591821 Z-1.000000 I-1.811184 J1.817848
G01 X15.768602 Y23.591821 Z-1.000000
G00 Z0.000000

(End cutting path id: path24)


(Start cutting path id: path24)
(Change tool to Cone cutter)

G00 Z0.000000
G00 X14.950243 Y19.542048

G01 Z-1.000000 F100.0(Penetrate)
G02 X15.367627 Y20.649060 Z-1.000000 I5.366622 J-1.391224 F400.000000
G02 X16.680362 Y22.969575 Z-1.000000 I25.133847 J-12.686857
G03 X16.941843 Y23.567314 Z-1.000000 I-1.849152 J1.164974
G03 X17.074114 Y24.434691 Z-1.000000 I-3.817219 J1.025882
G02 X17.204819 Y25.746422 Z-1.000000 I11.130504 J-0.446699
G02 X17.713533 Y28.434565 Z-1.000000 I47.380440 J-7.574245
G03 X18.068450 Y30.770468 Z-1.000000 I-17.832932 J3.904453
G03 X17.977876 Y31.499710 Z-1.000000 I-1.759346 J0.151729
G02 X17.820645 Y32.052001 Z-1.000000 I4.863334 J1.683063
G02 X17.708469 Y32.695862 Z-1.000000 I6.503462 J1.464762
G02 X17.397618 Y36.974584 Z-1.000000 I41.814413 J5.188484
G02 X17.587387 Y38.302553 Z-1.000000 I4.118857 J0.088953
G01 X17.655327 Y38.518011 Z-1.000000
G01 X17.467312 Y38.351915 Z-1.000000
