; generated by Slic3r 1.3.0 on 2019-11-11 at 11:14:50

; external perimeters extrusion width = 0.55mm (4.37mm^3/s)
; perimeters extrusion width = 0.70mm (11.44mm^3/s)
; infill extrusion width = 0.63mm (13.45mm^3/s)
; solid infill extrusion width = 0.70mm (3.81mm^3/s)
; top infill extrusion width = 0.70mm (2.86mm^3/s)

M107
M104 S205 ; set temperature
G28 ; home all axes
G1 Z5 F5000 ; lift nozzle

; Filament gcode

M109 S205 ; set temperature and wait for it to be reached
G21 ; set units to millimeters
G90 ; use absolute coordinates
M82 ; use absolute distances for extrusion
G92 E0
G1 Z0.300 F7800.000
G1 E-2.00000 F2400.00000
G92 E0
G1 X94.698 Y93.850 F7800.000
G1 E2.00000 F2400.00000
G1 F1800
G1 X95.763 Y92.785 E2.03423
G1 X96.440 Y92.638 E2.04998
G1 X96.569 Y92.592 E2.05310
G1 X96.676 Y92.483 E2.05658
G1 X96.740 Y92.376 E2.05942
G1 X96.905 Y91.870 E2.07150
G1 X97.136 Y91.411 E2.08318
G1 X97.428 Y91.120 F7800.000
G1 F1800
G1 X97.274 Y91.163 E2.08683
G1 X97.155 Y91.230 E2.08994
G1 X96.986 Y91.382 E2.09510
G1 X96.795 Y91.668 E2.10292
G1 X96.710 Y91.838 E2.10724
G1 X97.855 Y90.693 E2.14403
G1 X98.101 Y90.676 E2.14965
G1 X98.299 Y90.712 E2.15421
G1 X98.398 Y90.769 E2.15681
G1 X98.476 Y90.863 E2.15958
G1 X98.501 Y90.928 E2.16118
G1 X94.564 Y94.865 E2.28774
G1 X94.515 Y95.311 E2.29793
G1 X94.497 Y95.813 E2.30936
G1 X98.641 Y91.668 E2.44260
G1 X98.777 Y91.798 E2.44687
G1 X98.922 Y91.858 E2.45044
G1 X99.302 Y91.889 E2.45910
G1 X94.410 Y96.781 E2.61639
G1 X94.092 Y97.642 E2.63725
G1 X94.087 Y97.767 E2.64008
G1 X94.133 Y97.938 E2.64413
G1 X100.105 Y91.966 E2.83612
G1 X100.455 Y92.025 E2.84418
G1 X100.829 Y92.124 E2.85296
G1 X94.857 Y98.096 E3.04495
G1 X94.909 Y98.110 E3.04618
G1 X95.043 Y98.206 E3.04992
G1 X95.171 Y98.379 E3.05481
G1 X95.264 Y98.570 E3.05964
G1 X101.438 Y92.395 E3.25816
G1 X101.614 Y92.497 E3.26277
G1 X101.959 Y92.756 E3.27257
G1 X95.512 Y99.202 E3.47982
G1 X95.532 Y99.240 E3.48080
G1 X95.549 Y99.490 E3.48648
G1 X95.420 Y99.665 E3.49143
G1 X95.201 Y99.808 E3.49738
G1 X94.883 Y99.953 E3.50533
G1 X94.755 Y100.054 E3.50903
G1 X94.654 Y100.222 E3.51349
G1 X94.600 Y100.434 E3.51846
G1 X94.605 Y100.618 E3.52264
G1 X94.672 Y100.923 E3.52975
G1 X102.392 Y93.203 E3.77795
G1 X102.781 Y93.695 E3.79221
G1 X95.048 Y101.428 E4.04081
G1 X95.188 Y101.491 E4.04430
G1 X95.721 Y101.637 E4.05684
G1 X103.112 Y94.245 E4.29446
G1 X103.383 Y94.855 E4.30963
G1 X96.240 Y101.998 E4.53928
G1 X96.306 Y102.168 E4.54342
G1 X96.147 Y102.404 E4.54991
G1 X95.908 Y102.571 E4.55651
G1 X95.690 Y102.676 E4.56201
G1 X95.543 Y102.774 E4.56604
G1 X95.327 Y103.011 E4.57333
G1 X95.213 Y103.190 E4.57815
G1 X95.117 Y103.395 E4.58329
G1 X95.019 Y103.713 E4.59086
G1 X94.991 Y103.909 E4.59537
G1 X94.995 Y104.124 E4.60025
G1 X103.581 Y95.538 E4.87626
G1 X103.732 Y96.268 E4.89320
G1 X95.154 Y104.846 E5.16897
G1 X95.303 Y105.209 E5.17790
G1 X95.381 Y105.500 E5.18474
G1 X103.843 Y97.038 E5.45679
G1 X103.849 Y97.185 E5.46013
G1 X103.802 Y97.960 E5.47779
G1 X95.473 Y106.289 E5.74554
G1 X95.485 Y106.398 E5.74803
G1 X95.650 Y106.992 E5.76206
G1 X103.733 Y98.910 E6.02191
G1 X103.685 Y99.317 E6.03123
G1 X103.546 Y99.978 E6.04658
G1 X95.933 Y107.591 E6.29133
G1 X96.109 Y107.904 E6.29949
G1 X96.280 Y108.124 E6.30584
G1 X103.021 Y101.384 E6.52255
G1 X102.781 Y102.113 E6.54001
G1 X102.720 Y102.412 E6.54694
G1 X102.714 Y102.572 E6.55058
G1 X96.707 Y108.579 E6.74369
G1 X97.228 Y108.939 E6.75809
G1 X103.064 Y103.102 E6.94572
G1 X103.277 Y103.149 E6.95068
G1 X103.392 Y103.141 E6.95329
G1 X103.598 Y103.078 E6.95818
G1 X103.838 Y102.928 E6.96463
G1 X104.034 Y102.754 E6.97059
G1 X104.227 Y102.546 E6.97703
G1 X105.143 Y101.423 E7.00997
G1 X105.431 Y101.153 E7.01894
G1 X105.701 Y100.967 E7.02641
G1 X105.826 Y100.933 E7.02934
G1 X105.866 Y101.004 E7.03119
G1 X105.900 Y101.148 E7.03454
G1 X97.856 Y109.191 E7.29313
G1 X98.615 Y109.313 E7.31060
G1 X105.946 Y101.982 E7.54628
G1 X105.940 Y102.554 E7.55928
G1 X105.884 Y102.926 E7.56782
G1 X99.456 Y109.353 E7.77446
G1 X99.889 Y109.305 E7.78437
G1 X100.182 Y109.230 E7.79123
G1 X100.619 Y109.071 E7.80180
G1 X105.579 Y104.111 E7.96127
G1 X105.486 Y104.414 E7.96847
G1 X105.288 Y104.902 E7.98044
G1 X104.992 Y105.440 E7.99440
G1 X104.646 Y105.921 E8.00787
G1 X103.156 Y107.415 E8.05584
M104 S200 ; set temperature
G1 Z0.600 F7800.000
G1 X103.580 Y106.139 F7800.000
G1 F951.423
G1 X103.085 Y105.645 E8.07623
G1 X103.218 Y105.351 E8.08564
G1 X103.346 Y104.934 E8.09836
G1 X104.067 Y105.655 E8.12808
G1 X104.297 Y105.433 E8.13739
G1 X104.601 Y105.217 E8.14827
G1 X103.513 Y104.129 E8.19311
G1 X103.553 Y103.581 E8.20915
G1 X103.523 Y103.310 E8.21710
G1 X103.444 Y103.088 E8.22397
G1 X105.399 Y105.043 E8.30460
G1 X105.629 Y104.302 E8.32724
G1 X103.869 Y102.542 E8.39982
G1 X104.289 Y101.990 E8.42004
G1 X105.780 Y103.481 E8.48153
G1 X105.837 Y103.033 E8.49469
G1 X105.848 Y102.577 E8.50800
G1 X104.725 Y101.454 E8.55430
G1 X104.968 Y101.208 E8.56437
G1 X105.262 Y101.019 E8.57457
G1 X105.756 Y101.514 E8.59496
G1 E6.59496 F2400.00000
G92 E0
G1 X104.895 Y105.776 F7800.000
G1 E2.00000 F2400.00000
G1 F3805.69
G1 X104.393 Y105.274 E2.01689
G1 X104.152 Y105.456 E2.02407
G1 X103.924 Y105.685 E2.03178
G1 X104.633 Y106.395 E2.05565
G1 X104.614 Y106.431 E2.05663
G1 X104.663 Y106.460 E2.05798
G1 X104.274 Y106.916 E2.07225
G1 X103.479 Y106.122 E2.09897
G1 X103.194 Y106.333 E2.10741
G1 X102.944 Y106.468 E2.11417
G1 X103.804 Y107.327 E2.14310
G1 X103.300 Y107.704 E2.15807
G1 E0.15807 F2400.00000
G92 E0
G1 X95.496 Y106.067 F7800.000
G1 E2.00000 F2400.00000
G1 F3805.69
G1 X98.652 Y109.223 E2.10621
G1 X99.007 Y109.294 E2.11482
G1 X99.648 Y109.339 E2.13012
G1 X95.365 Y105.055 E2.27426
G1 X95.292 Y104.707 E2.28271
G1 X95.015 Y104.114 E2.29829
G1 X94.965 Y103.949 E2.30239
G1 X94.930 Y103.739 E2.30745
G1 X100.459 Y109.268 E2.49348
G1 X101.135 Y109.064 E2.51030
G1 X95.021 Y102.950 E2.71603
G1 X95.171 Y102.636 E2.72431
G1 X95.353 Y102.400 E2.73138
G1 X101.741 Y108.788 E2.94633
G1 X102.266 Y108.433 E2.96142
G1 X95.953 Y102.119 E3.17387
G1 X96.084 Y102.036 E3.17757
G1 X96.241 Y101.857 E3.18323
G1 X96.294 Y101.607 E3.18931
G1 X96.275 Y101.561 E3.19049
G1 X102.793 Y108.078 E3.40979
G1 X103.300 Y107.704 E3.42478
G1 X95.044 Y99.448 E3.70258
G1 X95.323 Y99.318 E3.70990
G1 X95.456 Y99.233 E3.71366
G1 X95.559 Y99.083 E3.71801
G1 X102.768 Y106.292 E3.96059
G1 X103.091 Y105.733 E3.97593
G1 X94.280 Y96.923 E4.27241
G1 X94.454 Y96.543 E4.28235
G1 X94.508 Y96.270 E4.28896
G1 X103.300 Y105.062 E4.58481
G1 X103.378 Y104.693 E4.59379
G1 X103.425 Y104.306 E4.60307
G1 X94.503 Y95.384 E4.90327
G1 X94.553 Y94.553 E4.92308
G1 X102.756 Y102.756 E5.19909
G1 X102.830 Y102.449 E5.20659
G1 X102.951 Y102.070 E5.21606
G1 X94.652 Y93.771 E5.49533
G1 X94.704 Y93.497 E5.50195
G1 X94.761 Y93.351 E5.50569
G1 X94.910 Y93.149 E5.51168
G1 X103.203 Y101.441 E5.79070
G1 X103.449 Y100.807 E5.80689
G1 X95.432 Y92.789 E6.07667
G1 X95.682 Y92.715 E6.08287
G1 X96.115 Y92.773 E6.09327
G1 X96.266 Y92.742 E6.09694
G1 X103.640 Y100.117 E6.34508
G1 X103.763 Y99.359 E6.36335
G1 X96.494 Y92.090 E6.60795
G1 X96.494 Y92.066 E6.60850
G1 X96.463 Y92.058 E6.60927
G1 X96.716 Y91.431 E6.62537
G1 X103.816 Y98.530 E6.86426
G1 X103.866 Y97.700 E6.88406
G1 X97.082 Y90.916 E7.11234
G1 X97.266 Y90.817 E7.11730
G1 X97.265 Y90.839 E7.11783
G1 X97.600 Y90.856 E7.12582
G1 X97.782 Y90.911 E7.13034
G1 X97.905 Y91.022 E7.13427
G1 X98.087 Y91.302 E7.14222
G1 X98.111 Y91.474 E7.14635
G1 X98.153 Y91.606 E7.14964
G1 X98.237 Y91.734 E7.15328
G1 X98.380 Y91.861 E7.15784
G1 X98.614 Y91.896 E7.16347
G1 X98.930 Y91.882 E7.17098
G1 X103.763 Y96.716 E7.33364
G1 X103.495 Y95.567 E7.36171
G1 X99.886 Y91.958 E7.48315
G1 X100.157 Y92.014 E7.48974
G1 X100.529 Y92.127 E7.49899
G1 X100.827 Y92.249 E7.50665
G1 X101.157 Y92.420 E7.51550
G1 X101.362 Y92.552 E7.52129
G1 X102.761 Y93.952 E7.56839
G1 X96.408 Y101.693 F7800.000
G1 F3805.69
G1 X94.624 Y99.910 E7.62841
G1 Z0.900 F7800.000
G1 E5.62841 F2400.00000
G92 E0
G1 X96.830 Y101.408 F7800.000
G1 E2.00000 F2400.00000
G1 F2853.71
G1 X96.879 Y101.635 E2.00553
G1 X96.775 Y101.688 E2.00830
G1 X96.686 Y101.887 E2.01349
G1 X96.551 Y102.033 E2.01821
G1 X96.368 Y102.137 E2.02322
G1 X96.055 Y102.183 E2.03077
G1 X95.078 Y103.160 E2.06364
G1 X102.205 Y102.199 F7800.000
G1 F2853.71
G1 X103.240 Y101.165 E2.09844
G1 X103.327 Y101.006 E2.10276
G1 X103.373 Y101.027 E2.10396
G1 X103.597 Y100.382 E2.12020
G1 X103.748 Y99.775 E2.13508
G1 X95.930 Y107.593 E2.39815
G1 X95.846 Y107.452 E2.40208
G1 X95.643 Y106.999 E2.41386
G1 X103.924 Y98.719 E2.69250
G1 X103.951 Y98.500 E2.69774
G1 X103.989 Y97.773 E2.71506
G1 X95.465 Y106.297 E3.00187
G1 X95.373 Y105.508 E3.02077
G1 X103.981 Y96.900 E3.31042
G1 X103.947 Y96.357 E3.32337
G1 X103.910 Y96.090 E3.32978
G1 X95.166 Y104.834 E3.62401
G1 X95.049 Y104.605 E3.63011
G1 X94.968 Y104.349 E3.63651
G1 X94.941 Y104.178 E3.64063
G1 X103.769 Y95.350 E3.93767
G1 X103.631 Y94.883 E3.94927
G1 X103.551 Y94.687 E3.95429
G1 X96.365 Y101.873 E4.19608
G1 X96.347 Y101.688 E4.20050
G1 X95.909 Y101.458 E4.21228
G1 X95.801 Y101.597 E4.21646
G1 X95.763 Y101.594 E4.21737
G1 X103.265 Y94.092 E4.46981
G1 X103.020 Y93.713 E4.48056
G1 X102.907 Y93.570 E4.48490
G1 X95.074 Y101.402 E4.74845
G1 X95.010 Y101.346 E4.75048
G1 X94.748 Y100.992 E4.76097
G1 X94.707 Y100.889 E4.76361
G1 X102.498 Y93.097 E5.02580
G1 X102.340 Y92.932 E5.03124
G1 X102.034 Y92.681 E5.04066
G1 X95.544 Y99.171 E5.25904
G1 X95.442 Y98.868 E5.26663
G1 X95.569 Y98.791 E5.27017
G1 X95.377 Y98.456 E5.27934
G1 X101.475 Y92.358 E5.48454
G1 X101.241 Y92.243 E5.49075
G1 X100.855 Y92.098 E5.50057
G1 X94.703 Y98.250 E5.70759
G1 X94.418 Y98.332 E5.71463
G1 X94.245 Y98.242 E5.71926
G1 X94.245 Y98.012 E5.72474
G1 X94.279 Y97.792 E5.73003
G1 X100.137 Y91.935 E5.92712
G1 X99.948 Y91.908 E5.93166
G1 X99.617 Y91.903 E5.93953
G1 X99.248 Y91.943 E5.94836
G1 X94.582 Y96.609 E6.10535
G1 X94.552 Y95.757 E6.12562
G1 X98.594 Y91.715 E6.26163
G1 X98.559 Y91.631 E6.26380
G1 X98.510 Y91.647 E6.26504
G1 X98.353 Y91.281 E6.27453
G1 X98.262 Y91.166 E6.27799
G1 X96.621 Y92.807 E6.33321
G1 X96.593 Y92.325 E6.34471
G1 X96.750 Y91.910 E6.35528
G1 X96.820 Y91.780 E6.35877
G1 X96.832 Y91.796 E6.35924
G1 X97.192 Y91.554 E6.36956
G1 X97.381 Y91.494 E6.37429
G1 X97.501 Y91.492 E6.37714
G1 X97.620 Y91.518 E6.38003
G1 X97.797 Y91.632 E6.38505
G1 X97.087 Y92.342 F7800.000
G1 F2853.71
G1 X97.116 Y92.514 E6.38919
G1 X97.088 Y92.817 E6.39644
G1 X96.754 Y92.886 E6.40455
G1 X96.576 Y92.853 E6.40886
G1 X94.606 Y94.823 E6.47514
G1 X102.431 Y101.973 F7800.000
G1 F2853.71
G1 X96.287 Y108.118 E6.68190
G1 X96.450 Y108.300 E6.68771
G1 X96.742 Y108.544 E6.69676
G1 X102.646 Y102.639 E6.89545
G1 X102.806 Y102.916 E6.90306
G1 X102.948 Y103.219 E6.91100
G1 X97.285 Y108.882 E7.10156
G1 X97.919 Y109.128 E7.11776
G1 X103.121 Y103.926 E7.29281
G1 X103.137 Y104.243 E7.30036
G1 X103.121 Y104.466 E7.30568
G1 X103.079 Y104.685 E7.31098
G1 X102.999 Y104.929 E7.31711
G1 X98.671 Y109.257 E7.46274
G1 X99.011 Y109.283 E7.47087
G1 X99.543 Y109.266 E7.48353
G1 X102.287 Y106.523 E7.57584
G1 X102.297 Y106.697 E7.58000
G1 X102.357 Y106.855 E7.58403
G1 X102.462 Y106.963 E7.58760
G1 X102.645 Y107.045 E7.59237
G1 X100.686 Y109.004 E7.65830
M106 S255
G1 Z1.200 F7800.000
G1 E5.65830 F2400.00000
G92 E0
G1 X102.615 Y106.139 F7800.000
G1 E2.00000 F2400.00000
G1 F2762.48
G1 X97.374 Y100.898 E2.17636
G1 X97.260 Y101.106 E2.18199
G1 X96.927 Y101.181 E2.19012
G1 X96.776 Y101.180 E2.19373
G1 X102.217 Y106.622 E2.37684
G1 X102.120 Y106.855 E2.38286
G1 X102.079 Y107.038 E2.38731
G1 X102.073 Y107.239 E2.39210
G1 X102.107 Y107.392 E2.39584
G1 X96.378 Y101.664 E2.58859
G1 X96.099 Y101.998 E2.59896
G1 X95.932 Y102.098 E2.60359
G1 X102.017 Y108.184 E2.80835
G1 X101.514 Y108.561 E2.82332
G1 X95.310 Y102.358 E3.03207
G1 X95.104 Y102.640 E3.04039
G1 X95.004 Y102.932 E3.04773
G1 X100.936 Y108.864 E3.24734
G1 X100.625 Y108.971 E3.25517
G1 X100.252 Y109.061 E3.26430
G1 X95.013 Y103.823 E3.44056
G1 X95.104 Y104.197 E3.44971
G1 X95.342 Y104.752 E3.46409
G1 X95.407 Y105.098 E3.47246
G1 X99.531 Y109.222 E3.61122
G1 X99.332 Y109.227 E3.61596
G1 X98.797 Y109.185 E3.62874
G1 X98.550 Y109.121 E3.63479
G1 X95.574 Y106.145 E3.73494
G1 E1.73494 F2400.00000
G92 E0
G1 X95.155 Y100.441 F7800.000
G1 E2.00000 F2400.00000
G1 F2762.48
G1 X95.156 Y100.606 E2.00392
G1 X95.217 Y100.848 E2.00987
G1 X95.243 Y100.826 E2.01069
G1 X95.499 Y101.095 E2.01955
G1 X95.641 Y101.207 E2.02384
G1 X95.933 Y101.354 E2.03163
G1 X96.147 Y101.433 E2.03705
G1 X94.690 Y99.976 E2.08608
G1 X94.738 Y99.801 E2.09039
G1 X94.825 Y99.668 E2.09417
G1 X94.945 Y99.558 E2.09804
G1 X95.074 Y99.479 E2.10165
G1 X96.683 Y101.087 E2.15576
G1 X96.684 Y100.549 E2.16858
G1 X97.020 Y100.544 E2.17657
G1 X95.609 Y99.133 E2.22405
G1 X95.652 Y98.967 E2.22813
G1 X95.565 Y98.681 E2.23524
G1 X95.480 Y98.218 E2.24645
G1 X95.530 Y98.183 E2.24790
G1 X95.525 Y98.168 E2.24829
G1 X102.923 Y105.566 E2.49721
G1 X103.038 Y105.286 E2.50441
G1 X103.109 Y105.004 E2.51132
G1 X103.120 Y104.882 E2.51423
G1 X95.803 Y97.565 E2.76047
G1 X96.003 Y97.409 E2.76649
G1 X96.121 Y97.271 E2.77082
G1 X96.224 Y97.105 E2.77547
G1 X103.018 Y103.899 E3.00410
G1 E1.00410 F2400.00000
G92 E0
G1 X103.131 Y94.321 F7800.000
G1 E2.00000 F2400.00000
G1 F2762.48
G1 X101.440 Y92.631 E2.05689
G1 X101.202 Y92.489 E2.06348
G1 X100.540 Y92.183 E2.08083
G1 X100.168 Y92.055 E2.09018
G1 X99.933 Y92.004 E2.09592
G1 X103.764 Y95.836 E2.22485
G1 X103.843 Y96.171 E2.23304
G1 X103.910 Y96.636 E2.24422
G1 X103.925 Y96.877 E2.24997
G1 X99.010 Y91.963 E2.41535
G1 X98.685 Y92.009 E2.42315
G1 X98.678 Y92.085 E2.42499
G1 X98.269 Y92.102 E2.43473
G1 X103.962 Y97.795 E2.62628
G1 X103.961 Y97.828 E2.62708
G1 X103.884 Y97.824 E2.62892
G1 X103.810 Y98.525 E2.64568
G1 X96.917 Y91.647 E2.87737
G1 X96.839 Y91.915 E2.88401
G1 X96.803 Y92.126 E2.88909
G1 X96.840 Y92.435 E2.89651
G1 X103.680 Y99.275 E3.12666
G1 X103.532 Y100.008 E3.14446
G1 X96.509 Y92.986 E3.38075
G1 X96.367 Y92.983 E3.38413
G1 X96.033 Y92.896 E3.39236
G1 X96.034 Y92.831 E3.39390
G1 X95.905 Y92.797 E3.39709
G1 X95.774 Y92.785 E3.40022
G1 X95.486 Y92.843 E3.40721
G1 X103.326 Y100.683 E3.67103
G1 X103.219 Y100.966 E3.67824
G1 X103.049 Y101.287 E3.68687
G1 X94.990 Y93.229 E3.95801
G1 X94.827 Y93.463 E3.96482
G1 X94.749 Y93.661 E3.96989
G1 X94.709 Y93.828 E3.97396
G1 X102.561 Y101.680 E4.23816
G1 X102.347 Y101.690 E4.24324
G1 X102.077 Y101.652 E4.24975
G1 X101.681 Y101.681 E4.25919
G1 X94.610 Y94.610 E4.49712
G1 X94.601 Y95.482 E4.51787
G1 X95.913 Y96.794 E4.56202
G1 X95.805 Y97.056 E4.56876
G1 X95.701 Y97.463 E4.57877
G1 X94.612 Y96.374 E4.61542
G1 X94.566 Y96.563 E4.62004
G1 X94.647 Y96.589 E4.62206
G1 X94.496 Y97.138 E4.63561
G1 X95.450 Y98.093 E4.66772
G1 X95.378 Y98.111 E4.66948
G1 X95.024 Y98.291 E4.67893
G1 X94.936 Y98.319 E4.68114
G1 X94.824 Y98.316 E4.68379
G1 X94.870 Y97.944 E4.69271
G1 X94.961 Y97.604 E4.70109
G1 X98.269 Y92.103 F7800.000
G1 F2762.48
G1 X97.490 Y91.324 E4.72731
G1 X97.593 Y91.362 E4.72993
G1 X97.674 Y91.420 E4.73229
G1 X97.757 Y91.530 E4.73557
G1 X97.804 Y91.638 E4.73837
G1 Z1.500 F7800.000
G1 X97.714 Y92.596 F7800.000
G1 F2600.79
G1 X97.651 Y92.543 E4.74032
G1 X97.472 Y92.311 E4.74731
G1 X97.381 Y92.239 E4.75006
G1 X97.293 Y92.229 E4.75217
G1 X97.194 Y92.291 E4.75494
G1 X97.146 Y92.485 E4.75970
G1 X97.155 Y92.970 E4.77124
G1 X97.107 Y93.203 E4.77690
G1 X98.179 Y92.130 E4.81300
G1 X98.260 Y92.205 E4.81560
G1 X98.477 Y92.269 E4.82099
G1 X98.667 Y92.248 E4.82554
G1 X99.055 Y92.136 E4.83516
G1 X94.786 Y96.405 E4.97881
G1 X94.818 Y96.822 E4.98877
G1 X94.740 Y97.332 E5.00104
G1 X95.288 Y96.784 E5.01948
G1 X95.379 Y96.532 E5.02586
G1 X95.443 Y96.409 E5.02917
G1 X95.577 Y96.227 E5.03454
G1 X95.831 Y96.240 E5.04060
G1 X100.070 Y92.001 E5.18324
G1 X100.585 Y92.083 E5.19564
G1 X100.799 Y92.154 E5.20099
G1 X96.178 Y96.774 E5.35646
G1 X96.313 Y97.225 E5.36764
G1 X96.354 Y97.237 E5.36868
G1 X96.350 Y97.484 E5.37455
G1 X101.416 Y92.418 E5.54501
G1 X101.979 Y92.736 E5.56040
G1 X95.572 Y99.143 E5.77599
G1 X95.594 Y99.217 E5.77783
G1 X95.637 Y99.209 E5.77887
G1 X95.768 Y99.827 E5.79392
G1 X102.470 Y93.125 E6.01945
G1 X102.609 Y93.254 E6.02396
G1 X102.896 Y93.581 E6.03430
G1 X96.257 Y100.219 E6.25768
G1 X96.455 Y100.291 E6.26269
G1 X96.821 Y100.536 E6.27317
G1 X103.254 Y94.103 E6.48965
G1 X103.527 Y94.712 E6.50551
G1 X97.373 Y100.865 E6.71255
G1 X97.982 Y101.137 E6.72842
G1 X103.637 Y95.482 E6.91868
G1 X103.655 Y95.601 E6.92153
G1 X103.711 Y96.289 E6.93797
G1 X95.165 Y104.835 E7.22554
G1 X95.346 Y105.236 E7.23600
G1 X95.419 Y105.462 E7.24165
G1 X103.710 Y97.171 E7.52062
G1 X103.671 Y97.609 E7.53108
G1 X103.563 Y98.199 E7.54535
G1 X95.671 Y106.091 E7.81090
G1 X95.846 Y106.797 E7.82821
G1 X101.092 Y101.551 E8.00474
G1 X101.657 Y101.866 E8.02015
G1 X96.111 Y107.413 E8.20677
G1 X96.239 Y107.608 E8.21233
G1 X96.488 Y107.917 E8.22176
G1 X102.200 Y102.204 E8.41398
G1 X102.424 Y102.432 E8.42157
G1 X102.606 Y102.680 E8.42889
G1 X96.924 Y108.362 E8.62008
G1 X97.157 Y108.561 E8.62738
G1 X97.115 Y108.614 E8.62900
G1 X97.395 Y108.772 E8.63664
G1 X102.925 Y103.242 E8.82272
G1 X103.036 Y103.590 E8.83142
G1 X103.090 Y103.958 E8.84025
G1 X98.010 Y109.037 E9.01119
G1 X98.193 Y109.097 E9.01576
G1 X98.663 Y109.160 E9.02706
G1 X98.658 Y109.080 E9.02897
G1 X98.868 Y109.061 E9.03399
G1 X102.606 Y105.323 E9.15976
G1 X102.429 Y105.595 E9.16748
G1 X101.994 Y106.090 E9.18316
G1 X101.837 Y106.340 E9.19018
G1 X101.765 Y106.520 E9.19481
G1 X101.723 Y106.700 E9.19919
G1 X101.684 Y107.125 E9.20935
G1 X99.937 Y108.872 E9.26813
G1 X95.034 Y104.085 F7800.000
G1 F2600.79
G1 X97.866 Y101.253 E9.36342
G1 X97.380 Y101.259 E9.37499
G1 X97.138 Y101.365 E9.38128
G1 X97.023 Y101.456 E9.38476
G1 X96.573 Y101.947 E9.40060
G1 X96.416 Y102.065 E9.40529
G1 X96.234 Y102.136 E9.40993
G1 X96.062 Y102.177 E9.41414
G1 X95.175 Y103.063 E9.44396
G1 X95.319 Y102.846 E9.45013
G1 X95.477 Y102.690 E9.45543
G1 X95.596 Y102.642 E9.45849
G1 X95.374 Y101.102 F7800.000
G1 F2600.79
G1 X96.317 Y100.159 E9.49024
G1 X96.284 Y100.473 E9.49775
G1 X96.233 Y100.690 E9.50305
G1 X96.200 Y100.754 E9.50477
G1 X96.098 Y100.737 E9.50723
G1 X95.839 Y100.637 E9.51384
G1 X94.889 Y100.706 F7800.000
G1 F2600.79
G1 X96.233 Y99.362 E9.55906
G1 E7.55906 F2400.00000
G92 E0
G1 X94.624 Y95.686 F7800.000
G1 E2.00000 F2400.00000
G1 F2600.79
G1 X97.233 Y93.077 E2.08779
G1 X97.144 Y93.101 E2.08999
G1 X97.011 Y93.091 E2.09317
G1 X96.694 Y93.026 E2.10085
G1 X96.662 Y92.935 E2.10313
G1 X96.537 Y92.892 E2.10627
G1 X94.665 Y94.764 E2.16927
G1 X94.689 Y94.511 E2.17533
G1 X94.749 Y94.269 E2.18124
G1 X94.852 Y94.004 E2.18801
G1 X94.987 Y93.775 E2.19434
G1 X95.155 Y93.574 E2.20057
G1 X95.349 Y93.417 E2.20651
G1 X95.476 Y93.358 E2.20983
G1 X95.611 Y93.323 E2.21315
G1 X95.826 Y93.308 E2.21829
G1 X96.071 Y93.357 E2.22424
G1 X98.645 Y92.545 F7800.000
G1 F2600.79
G1 X99.122 Y92.069 E2.24028
G1 X103.563 Y98.199 F7800.000
G1 F2600.79
G1 X103.367 Y98.985 E2.25956
G1 X103.241 Y99.402 E2.26994
G1 X101.274 Y101.369 E2.33612
M106 S239.7
G1 Z1.800 F7800.000
G1 X102.002 Y102.632 F7800.000
G1 F1200
G1 X101.764 Y102.354 E2.34641
G1 X101.503 Y102.134 E2.35601
G1 X102.497 Y103.127 E2.39547
G1 E0.39547 F2400.00000
G92 E0
G1 X98.717 Y101.220 F7800.000
G1 E2.00000 F2400.00000
G1 F1200
G1 X95.510 Y98.013 E2.12743
G1 X95.476 Y98.140 E2.13112
G1 X95.507 Y98.500 E2.14128
G1 X95.540 Y98.635 E2.14518
G1 X95.707 Y98.949 E2.15519
G1 X95.760 Y99.199 E2.16236
G1 X96.563 Y100.002 E2.19427
G1 X96.497 Y100.201 E2.20015
G1 X96.335 Y100.204 E2.20472
G1 X96.289 Y100.664 E2.21772
G1 X95.339 Y99.714 E2.25545
G1 X95.041 Y100.324 E2.27452
G1 X94.986 Y100.297 E2.27625
G1 X95.651 Y100.963 E2.30268
G1 X95.566 Y100.907 E2.30555
G1 X95.449 Y100.776 E2.31047
G1 X95.481 Y100.792 E2.31145
G1 E0.31145 F2400.00000
G92 E0
G1 X94.696 Y97.199 F7800.000
G1 E2.00000 F2400.00000
G1 F1200
G1 X95.314 Y97.817 E2.02457
G1 X95.391 Y97.711 E2.02824
G1 X95.517 Y97.461 E2.03611
G1 X95.610 Y97.177 E2.04451
G1 X94.836 Y96.402 E2.07529
G1 X94.842 Y96.227 E2.08021
G1 X94.820 Y96.010 E2.08634
G1 X94.684 Y95.314 E2.10626
G1 X95.852 Y96.482 E2.15266
G1 E0.15266 F2400.00000
G92 E0
G1 X97.836 Y92.849 F7800.000
G1 E2.00000 F2400.00000
G1 F1200
G1 X97.173 Y92.186 E2.02635
G1 X97.174 Y92.546 E2.03646
G1 X97.069 Y93.000 E2.04955
G1 X97.050 Y93.000 E2.05007
G1 X103.377 Y99.327 E2.30145
G1 X103.159 Y100.044 E2.32252
G1 X96.117 Y93.003 E2.60230
G1 X95.902 Y92.957 E2.60846
G1 X95.689 Y92.965 E2.61446
G1 X95.466 Y93.020 E2.62092
G1 X95.294 Y93.115 E2.62645
G1 X102.838 Y100.659 E2.92619
G1 X102.509 Y101.090 E2.94140
G1 X102.418 Y101.176 E2.94492
G1 X94.883 Y93.641 E3.24430
G1 X94.743 Y93.996 E3.25501
G1 X94.686 Y94.380 E3.26592
G1 X101.647 Y101.341 E3.54251
G1 X101.326 Y101.318 E3.55155
G1 X101.062 Y101.326 E3.55898
G1 X100.838 Y101.469 E3.56642
G1 X96.373 Y97.003 E3.74386
G1 X96.368 Y97.224 E3.75007
G1 X96.349 Y97.243 E3.75084
G1 X96.308 Y97.511 E3.75845
G1 X96.138 Y97.482 E3.76329
G1 X96.134 Y97.532 E3.76472
G1 X96.012 Y97.578 E3.76839
G1 X102.979 Y104.546 E4.04523
G1 X102.945 Y104.893 E4.05503
G1 X102.884 Y105.120 E4.06164
G1 X102.808 Y105.311 E4.06740
G1 X98.257 Y100.759 E4.24823
G1 X98.125 Y101.357 E4.26541
G1 X97.895 Y101.334 E4.27191
G1 X102.494 Y105.933 E4.45463
G1 X102.366 Y106.110 E4.46078
G1 X102.067 Y106.442 E4.47332
G1 X96.915 Y101.290 E4.67800
G1 X96.748 Y101.342 E4.68291
G1 X96.560 Y101.479 E4.68945
G1 X96.367 Y101.678 E4.69725
G1 X101.730 Y107.041 E4.91033
G1 X101.682 Y107.309 E4.91798
G1 X101.656 Y107.677 E4.92835
G1 X101.609 Y107.856 E4.93355
G1 X95.976 Y102.224 E5.15734
G1 X95.435 Y102.414 E5.17346
G1 X95.431 Y102.398 E5.17391
G1 X95.341 Y102.525 E5.17826
G1 X101.227 Y108.411 E5.41213
G1 X101.026 Y108.566 E5.41927
G1 X100.644 Y108.764 E5.43135
G1 X95.144 Y103.264 E5.64987
G1 X95.142 Y104.074 E5.67263
G1 X95.159 Y104.215 E5.67663
G1 X99.903 Y108.959 E5.86511
G1 X99.549 Y109.019 E5.87521
G1 X99.253 Y109.041 E5.88355
G1 X99.040 Y109.032 E5.88952
G1 X95.720 Y105.712 E6.02146
G1 X95.836 Y106.196 E6.03546
G1 X95.957 Y106.559 E6.04620
G1 X96.068 Y106.802 E6.05369
G1 X96.201 Y107.028 E6.06107
G1 X96.622 Y107.550 E6.07993
G1 X97.170 Y108.098 E6.10169
G1 X97.117 Y108.045 E6.10381
G1 E4.10381 F2400.00000
G92 E0
G1 X102.399 Y93.667 F7800.000
G1 E2.00000 F2400.00000
G1 F1200
G1 X101.898 Y93.166 E2.01990
G1 X101.586 Y92.912 E2.03120
G1 X101.141 Y92.621 E2.04614
G1 X100.785 Y92.423 E2.05760
G1 X100.413 Y92.260 E2.06900
G1 X100.139 Y92.171 E2.07710
G1 X99.929 Y92.134 E2.08308
G1 X103.581 Y95.786 E2.22817
G1 X103.659 Y96.314 E2.24316
G1 X103.688 Y96.829 E2.25766
G1 X98.954 Y92.095 E2.44575
G1 X98.798 Y92.116 E2.45019
G1 X98.193 Y92.270 E2.46771
G1 X103.678 Y97.755 E2.68564
G1 X103.622 Y98.257 E2.69983
G1 X103.559 Y98.572 E2.70885
G1 X97.628 Y92.641 E2.94449
M106 S242.25
G1 Z2.100 F7800.000
G1 E0.94449 F2400.00000
G92 E0
G1 X96.445 Y102.048 F7800.000
G1 E2.00000 F2400.00000
G1 F1200
G1 X96.940 Y101.554 E2.01932
G1 X97.079 Y101.453 E2.02408
G1 X97.226 Y101.389 E2.02849
G1 X97.389 Y101.349 E2.03314
G1 X97.576 Y101.334 E2.03830
G1 X97.819 Y101.356 E2.04505
G1 X98.012 Y101.402 E2.05055
G1 X95.237 Y104.177 E2.15897
G1 X95.250 Y104.435 E2.16609
G1 X95.237 Y104.738 E2.17448
G1 X95.303 Y105.032 E2.18281
G1 X98.772 Y101.563 E2.31838
G1 X99.182 Y101.581 E2.32970
G1 X99.708 Y101.548 E2.34426
G1 X95.670 Y105.586 E2.50202
G1 X95.812 Y105.891 E2.51133
G1 X95.916 Y106.260 E2.52192
G1 X100.592 Y101.585 E2.70460
G1 X101.079 Y101.729 E2.71866
G1 X101.282 Y101.815 E2.72474
G1 X96.116 Y106.981 E2.92659
G1 X96.273 Y107.327 E2.93709
G1 X96.434 Y107.583 E2.94545
G1 X101.876 Y102.141 E3.15808
G1 X102.165 Y102.359 E3.16806
G1 X102.371 Y102.567 E3.17616
G1 X96.858 Y108.080 E3.39155
G1 X97.068 Y108.270 E3.39939
G1 X97.374 Y108.484 E3.40970
G1 X102.729 Y103.130 E3.61890
G1 X102.810 Y103.364 E3.62575
G1 X102.850 Y103.571 E3.63159
G1 X102.862 Y103.917 E3.64113
G1 X98.013 Y108.766 E3.83058
G1 X98.330 Y108.849 E3.83964
G1 X98.636 Y108.879 E3.84811
G1 X98.832 Y108.867 E3.85355
G1 X101.275 Y106.425 E3.94898
G1 X101.183 Y106.665 E3.95608
G1 X101.103 Y107.203 E3.97112
G1 X101.004 Y107.522 E3.98033
G1 X100.893 Y107.706 E3.98627
G1 X100.212 Y108.409 E4.01331
G1 E2.01331 F2400.00000
G92 E0
G1 X101.472 Y100.822 F7800.000
G1 E2.00000 F2400.00000
G1 F1200
G1 X102.084 Y100.208 E2.02455
G1 X102.246 Y99.980 E2.03248
G1 X102.585 Y99.636 E2.04615
G1 X102.738 Y99.410 E2.05389
G1 X102.927 Y99.042 E2.06560
G1 X103.098 Y98.630 E2.07823
G1 X103.253 Y98.098 E2.09392
G1 X100.195 Y101.156 E2.21641
G1 X99.320 Y101.197 E2.24122
G1 X99.221 Y101.187 E2.24405
G1 X103.471 Y96.936 E2.41432
G1 X103.493 Y96.386 E2.42991
G1 X103.486 Y95.978 E2.44147
G1 X98.408 Y101.055 E2.64486
G1 X97.664 Y100.855 E2.66668
G1 X103.400 Y95.119 E2.89646
G1 X103.308 Y94.745 E2.90737
G1 X103.180 Y94.396 E2.91790
G1 X96.975 Y100.601 E3.16645
G1 X96.686 Y100.447 E3.17570
G1 X96.402 Y100.230 E3.18585
G1 X102.824 Y93.807 E3.44312
G1 X102.735 Y93.689 E3.44733
G1 X102.382 Y93.306 E3.46208
G1 X95.920 Y99.768 E3.72093
G1 X95.515 Y99.229 E3.74002
G1 X101.868 Y92.876 E3.99450
G1 X101.291 Y92.509 E4.01386
G1 X96.369 Y97.432 E4.21103
G1 X96.228 Y96.979 E4.22446
G1 X96.162 Y96.695 E4.23272
G1 X100.615 Y92.241 E4.41110
G1 X100.132 Y92.148 E4.42506
G1 X99.778 Y92.134 E4.43507
G1 X95.979 Y95.934 E4.58726
G1 X95.893 Y95.621 E4.59644
G1 X95.391 Y95.970 E4.61375
G1 X95.104 Y96.323 E4.62664
G1 X95.004 Y96.211 E4.63089
G1 X95.158 Y96.266 E4.63552
G1 X95.402 Y95.738 E4.65201
G1 X95.294 Y95.675 E4.65556
G1 X98.520 Y92.449 E4.78480
G1 X98.176 Y92.613 E4.79560
G1 X97.608 Y93.096 E4.81672
G1 X97.494 Y93.166 E4.82050
G1 X97.363 Y93.221 E4.82452
G1 X97.225 Y93.232 E4.82845
G1 X96.824 Y93.201 E4.83983
G1 X94.705 Y95.320 E4.92474
G1 X94.721 Y94.810 E4.93919
G1 X94.756 Y94.609 E4.94498
G1 X94.877 Y94.282 E4.95486
G1 X95.156 Y93.925 E4.96769
G1 X95.652 Y93.429 E4.98757
M106 S244.8
G1 Z2.400 F7800.000
G1 E2.98757 F2400.00000
G92 E0
G1 X102.173 Y103.007 F7800.000
G1 E2.00000 F2400.00000
G1 F1200
G1 X101.676 Y102.510 E2.02032
G1 X101.479 Y102.345 E2.02775
G1 X101.226 Y102.177 E2.03652
G1 X100.679 Y101.909 E2.05413
G1 X100.301 Y101.786 E2.06563
G1 X99.913 Y101.710 E2.07705
G1 X102.673 Y104.470 E2.18988
G1 X102.617 Y104.743 E2.19793
G1 X102.536 Y104.967 E2.20483
G1 X102.424 Y105.184 E2.21189
G1 X98.932 Y101.692 E2.35466
G1 X98.372 Y101.717 E2.37089
G1 X97.932 Y101.656 E2.38371
G1 X102.032 Y105.755 E2.55131
G1 X101.793 Y105.972 E2.56065
G1 X101.481 Y106.168 E2.57128
G1 X96.809 Y101.496 E2.76229
G1 X96.683 Y101.529 E2.76605
G1 X96.479 Y101.628 E2.77262
G1 X96.363 Y101.758 E2.77765
G1 X96.271 Y101.921 E2.78306
G1 X100.867 Y106.517 E2.97099
G1 X100.766 Y106.609 E2.97493
G1 X100.594 Y106.822 E2.98286
G1 X100.524 Y106.949 E2.98706
G1 X100.477 Y107.090 E2.99135
G1 X95.881 Y102.495 E3.17923
G1 X95.815 Y102.506 E3.18117
G1 X95.740 Y102.554 E3.18374
G1 X95.622 Y102.677 E3.18869
G1 X95.515 Y102.822 E3.19389
G1 X95.445 Y103.021 E3.19999
G1 X100.366 Y107.942 E3.40118
G1 X100.293 Y108.117 E3.40665
G1 X100.148 Y108.286 E3.41311
G1 X99.907 Y108.447 E3.42147
G1 X95.422 Y103.962 E3.60483
G1 X95.472 Y104.402 E3.61762
G1 X95.327 Y104.375 E3.62190
G1 X95.343 Y104.538 E3.62665
G1 X95.426 Y104.650 E3.63067
G1 X95.909 Y105.145 E3.65066
G1 X96.000 Y105.305 E3.65599
G1 X96.104 Y105.608 E3.66524
G1 X99.142 Y108.645 E3.78943
G1 X98.799 Y108.630 E3.79936
G1 X98.530 Y108.571 E3.80731
G1 X98.189 Y108.442 E3.81787
G1 X97.966 Y108.327 E3.82511
G1 X97.718 Y108.154 E3.83386
G1 X97.519 Y107.985 E3.84140
G1 X97.019 Y107.485 E3.86184
G1 E1.86184 F2400.00000
G92 E0
G1 X96.332 Y99.756 F7800.000
G1 E2.00000 F2400.00000
G1 F1200
G1 X96.342 Y99.766 E2.00038
G1 X95.838 Y99.261 E2.01982
G1 X95.591 Y98.959 E2.03047
G1 X95.464 Y98.703 E2.03826
G1 X95.407 Y98.443 E2.04552
G1 X95.423 Y98.190 E2.05242
G1 X95.473 Y98.061 E2.05621
G1 X95.536 Y98.051 E2.05793
G1 X98.340 Y100.855 E2.16605
G1 X98.883 Y100.969 E2.18117
G1 X99.421 Y101.028 E2.19593
G1 X96.395 Y98.001 E2.31262
G1 X96.473 Y98.020 E2.31483
G1 X96.598 Y97.545 E2.32819
G1 X96.459 Y97.157 E2.33943
G1 X100.320 Y101.018 E2.48827
G1 X100.567 Y100.973 E2.49511
G1 X100.796 Y100.891 E2.50176
G1 X100.986 Y100.777 E2.50781
G1 X96.108 Y95.898 E2.69587
G1 X96.085 Y95.660 E2.70242
G1 X96.117 Y95.656 E2.70330
G1 X96.014 Y95.101 E2.71870
G1 X95.679 Y94.784 E2.73127
G1 X95.813 Y94.695 E2.73566
G1 X101.246 Y100.128 E2.94512
G1 X101.487 Y100.062 E2.95193
G1 X101.742 Y100.073 E2.95887
G1 X101.839 Y100.051 E2.96160
G1 X101.993 Y99.967 E2.96638
G1 X95.535 Y93.509 E3.21535
G1 X95.644 Y93.488 E3.21835
G1 X96.141 Y93.514 E3.23194
G1 X96.427 Y93.492 E3.23975
G1 X102.419 Y99.484 E3.47074
G1 X102.758 Y98.915 E3.48880
G1 X97.091 Y93.247 E3.70730
G1 X97.616 Y92.865 E3.72502
G1 X103.004 Y98.252 E3.93271
G1 X103.142 Y97.715 E3.94782
G1 X103.174 Y97.513 E3.95339
G1 X98.165 Y92.505 E4.14647
G1 X98.284 Y92.440 E4.15016
G1 X98.557 Y92.337 E4.15812
G1 X98.849 Y92.280 E4.16621
G1 X103.252 Y96.683 E4.33595
G1 X103.252 Y95.987 E4.35493
G1 X103.228 Y95.751 E4.36140
G1 X99.735 Y92.258 E4.49605
G1 X100.002 Y92.305 E4.50343
G1 X100.351 Y92.412 E4.51340
G1 X100.702 Y92.573 E4.52392
G1 X101.049 Y92.787 E4.53502
G1 X101.440 Y93.082 E4.54836
G1 X102.256 Y93.871 E4.57933
M106 S247.35
G1 Z2.700 F7800.000
G1 E2.57933 F2400.00000
G92 E0
G1 X98.961 Y101.937 F7800.000
G1 E2.00000 F2400.00000
G1 F1200
G1 X98.372 Y102.526 E2.02470
G1 X97.132 Y101.788 F7800.000
G1 F1200
G1 X96.564 Y102.376 E2.04896
G1 X96.520 Y102.475 E2.05219
G1 X96.493 Y102.624 E2.05666
G1 X96.494 Y102.924 E2.06558
G1 X96.435 Y103.167 E2.07301
G1 X96.222 Y103.316 E2.08072
G1 X95.972 Y103.307 E2.08814
G1 X95.922 Y103.321 E2.08967
G1 X95.839 Y103.381 E2.09271
G1 X95.752 Y103.478 E2.09656
G1 X95.687 Y103.615 E2.10109
G1 X95.630 Y103.845 E2.10812
G1 X95.617 Y103.985 E2.11228
G1 X95.629 Y104.280 E2.12106
G1 X98.081 Y101.828 E2.22397
G1 X98.168 Y101.847 E2.22661
G1 X98.308 Y102.413 E2.24393
G1 X98.530 Y102.368 E2.25066
G1 X95.714 Y105.184 E2.36889
G1 X95.747 Y105.236 E2.37073
G1 X95.704 Y105.265 E2.37226
G1 X96.007 Y105.446 E2.38275
G1 X96.220 Y105.667 E2.39185
G1 X99.922 Y101.965 E2.54721
G1 X99.910 Y102.172 E2.55334
G1 X100.532 Y102.216 E2.57186
G1 X100.558 Y101.938 E2.58014
G1 X100.857 Y102.019 E2.58932
G1 X96.507 Y106.369 E2.77188
G1 X96.600 Y106.722 E2.78273
G1 X96.749 Y107.116 E2.79523
G1 X101.557 Y102.308 E2.99703
G1 X101.864 Y102.500 E3.00780
G1 X102.120 Y102.734 E3.01807
G1 X97.144 Y107.710 E3.22693
G1 X97.153 Y107.721 E3.22736
G1 X97.384 Y107.924 E3.23648
G1 X97.726 Y108.117 E3.24812
G1 X98.671 Y107.172 E3.28780
G1 X98.651 Y107.049 E3.29149
G1 X98.667 Y106.843 E3.29764
G1 X98.646 Y106.832 E3.29835
G1 X98.816 Y106.312 E3.31460
G1 X99.360 Y106.404 E3.33098
G1 X99.550 Y106.236 E3.33849
G1 X99.697 Y106.146 E3.34363
G1 X102.434 Y103.409 E3.45849
G1 X102.456 Y103.661 E3.46601
G1 X102.440 Y103.842 E3.47138
G1 X102.402 Y104.017 E3.47671
G1 X102.238 Y104.437 E3.49007
G1 X102.123 Y104.641 E3.49704
G1 X101.975 Y104.849 E3.50460
G1 X101.236 Y105.595 E3.53578
G1 E1.53578 F2400.00000
G92 E0
G1 X98.903 Y100.836 F7800.000
G1 E2.00000 F2400.00000
G1 F1200
G1 X99.747 Y99.993 E2.03236
G1 X99.624 Y99.931 E2.03607
G1 X99.198 Y99.637 E2.05012
G1 X98.050 Y100.785 E2.09417
G1 X97.746 Y100.745 E2.10248
G1 X97.311 Y100.620 E2.11475
G1 E0.11475 F2400.00000
G92 E0
G1 X96.877 Y98.342 F7800.000
G1 E2.00000 F2400.00000
G1 F1200
G1 X101.917 Y93.302 E2.19337
G1 X101.561 Y92.998 E2.20607
G1 X101.417 Y92.898 E2.21083
G1 X96.612 Y97.703 E2.39519
G1 X96.368 Y97.043 E2.41429
G1 X100.850 Y92.561 E2.58623
G1 X100.521 Y92.447 E2.59567
G1 X100.129 Y92.378 E2.60647
G1 X96.177 Y96.330 E2.75810
G1 X96.167 Y95.437 E2.78235
G1 X99.161 Y92.443 E2.89723
G1 X98.938 Y92.513 E2.90356
G1 X98.560 Y92.689 E2.91487
G1 X98.196 Y92.925 E2.92666
G1 X97.431 Y93.542 E2.95331
G1 X96.742 Y93.980 E2.97546
G1 X96.595 Y94.104 E2.98068
G1 X96.101 Y94.598 E2.99964
G1 E0.99964 F2400.00000
G92 E0
G1 X95.785 Y98.530 F7800.000
G1 E2.00000 F2400.00000
G1 F1200
G1 X95.737 Y98.516 E2.00135
G1 X95.681 Y98.546 E2.00310
G1 X95.623 Y98.621 E2.00565
G1 X95.591 Y98.724 E2.00859
G1 X96.279 Y98.036 E2.03501
G1 X96.563 Y98.163 E2.04345
G1 X96.860 Y98.360 E2.05309
G1 X95.702 Y99.517 E2.09752
G1 X95.738 Y99.593 E2.09979
G1 X95.895 Y99.792 E2.10667
G1 X96.121 Y100.002 E2.11504
G1 X102.353 Y93.770 E2.35414
G1 X102.496 Y93.949 E2.36035
G1 X102.714 Y94.313 E2.37187
G1 X96.678 Y100.349 E2.60345
G1 X97.108 Y100.547 E2.61629
G1 X97.311 Y100.620 E2.62215
G1 X102.948 Y94.984 E2.83839
G1 X102.997 Y95.442 E2.85091
G1 X102.991 Y95.844 E2.86181
G1 X99.056 Y99.779 E3.01277
G1 X99.437 Y99.718 E3.02323
G1 X100.067 Y99.672 E3.04036
G1 X102.845 Y96.894 E3.14695
G1 X102.714 Y97.362 E3.16011
G1 X102.476 Y97.926 E3.17674
G1 X102.323 Y98.187 E3.18494
G1 X102.073 Y98.544 E3.19676
G1 X101.920 Y98.723 E3.20316
G1 X101.423 Y99.220 E3.22221
M106 S255
G1 Z3.000 F7800.000
G1 E1.22221 F2400.00000
G92 E0
G1 X101.299 Y102.858 F7800.000
G1 E2.00000 F2400.00000
G1 F1138.05
G1 X101.793 Y103.353 E2.02032
G1 X101.997 Y104.525 F7800.000
G1 F1138.05
G1 X99.665 Y102.193 E2.11615
G1 X99.147 Y102.211 E2.13122
G1 X98.767 Y102.263 E2.14236
G1 X101.612 Y105.108 E2.25928
G1 X101.460 Y105.253 E2.26537
G1 X101.207 Y105.425 E2.27427
G1 X101.043 Y105.507 E2.27960
G1 X97.976 Y102.441 E2.40563
G1 X97.881 Y102.509 E2.40903
G1 X97.744 Y102.571 E2.41341
G1 X97.645 Y102.591 E2.41634
G1 X97.486 Y102.588 E2.42095
G1 X97.485 Y102.681 E2.42365
G1 X97.255 Y102.688 E2.43033
G1 X100.262 Y105.695 E2.55391
G1 X100.177 Y105.708 E2.55640
G1 X100.046 Y105.765 E2.56057
G1 X99.944 Y105.835 E2.56416
G1 X99.856 Y105.972 E2.56888
G1 X99.774 Y106.175 E2.57526
G1 X96.505 Y102.906 E2.70964
G1 X96.391 Y103.040 E2.71474
G1 X96.172 Y103.541 E2.73066
G1 X98.733 Y106.103 E2.83591
G1 X98.566 Y106.323 E2.84397
G1 X98.387 Y106.725 E2.85674
G1 X95.695 Y104.032 E2.96741
G1 X95.630 Y104.136 E2.97097
G1 X95.583 Y104.327 E2.97666
G1 X95.581 Y104.457 E2.98045
G1 X95.624 Y104.540 E2.98316
G1 X95.780 Y104.644 E2.98861
G1 X96.139 Y104.770 E2.99968
G1 X96.434 Y104.899 E3.00903
G1 X96.654 Y105.063 E3.01699
G1 X96.769 Y105.180 E3.02176
G1 X96.872 Y105.319 E3.02679
G1 X96.988 Y105.577 E3.03502
G1 X97.134 Y106.218 E3.05413
G1 X97.256 Y106.510 E3.06332
G1 X97.327 Y106.620 E3.06712
G1 X97.445 Y106.751 E3.07224
G1 X97.939 Y107.245 E3.09256
G1 E1.09256 F2400.00000
G92 E0
G1 X98.547 Y100.464 F7800.000
G1 E2.00000 F2400.00000
G1 F1138.05
G1 X98.052 Y99.969 E2.02263
G1 X97.022 Y100.018 F7800.000
G1 F1138.05
G1 X96.035 Y99.031 E2.06786
G1 X97.428 Y97.971 F7800.000
G1 F1138.05
G1 X98.053 Y98.588 E2.09234
G1 X98.254 Y98.739 E2.09932
G1 X98.521 Y98.892 E2.10790
G1 X99.111 Y99.136 E2.12569
G1 X99.360 Y99.202 E2.13285
G1 X99.622 Y99.236 E2.14021
G1 X96.443 Y96.058 E2.26541
G1 X96.401 Y95.688 E2.27577
G1 X96.405 Y95.092 E2.29237
G1 X100.457 Y99.143 E2.45195
G1 X100.731 Y99.086 E2.45977
G1 X101.014 Y98.985 E2.46812
G1 X101.153 Y98.912 E2.47250
G1 X96.539 Y94.298 E2.65422
G1 X96.730 Y94.023 E2.66355
G1 X96.972 Y93.802 E2.67265
G1 X101.684 Y98.514 E2.85823
G1 X102.025 Y98.124 E2.87268
G1 X102.102 Y98.005 E2.87663
G1 X97.456 Y93.359 E3.05961
G1 X97.685 Y93.148 E3.06829
G1 X97.971 Y92.946 E3.07803
G1 X102.418 Y97.393 E3.25319
G1 X102.556 Y96.944 E3.26625
G1 X102.610 Y96.657 E3.27440
G1 X98.598 Y92.645 E3.43240
G1 X98.945 Y92.561 E3.44232
G1 X99.433 Y92.552 E3.45593
G1 X102.688 Y95.807 E3.58413
G1 E1.58413 F2400.00000
G92 E0
G1 X101.747 Y93.938 F7800.000
G1 E2.00000 F2400.00000
G1 F1138.05
G1 X101.252 Y93.443 E2.01947
G1 Z3.300 F7800.000
G1 E0.01947 F2400.00000
G92 E0
G1 X96.586 Y103.430 F7800.000
G1 E2.00000 F2400.00000
G1 F730.241
G1 X97.080 Y102.935 E2.02245
G1 X97.233 Y102.821 E2.02857
G1 X97.468 Y102.724 E2.03677
G1 X97.592 Y102.696 E2.04084
G1 X97.903 Y102.715 E2.05084
G1 X98.134 Y102.785 E2.05861
G1 X98.241 Y102.845 E2.06253
G1 X96.116 Y104.970 E2.15904
G1 X96.601 Y105.129 E2.17544
G1 X96.902 Y105.254 E2.18590
G1 X99.342 Y102.814 E2.29670
G1 X99.886 Y102.713 E2.31449
G1 X100.258 Y102.692 E2.32644
G1 X100.503 Y102.723 E2.33436
G1 X97.630 Y105.596 E2.46483
G1 X98.860 Y105.436 E2.50465
G1 X101.226 Y103.070 E2.61211
G1 X101.338 Y103.172 E2.61699
G1 X101.406 Y103.281 E2.62111
G1 X101.443 Y103.394 E2.62492
G1 X101.470 Y103.598 E2.63154
G1 X101.431 Y103.835 E2.63926
G1 X101.367 Y103.966 E2.64392
G1 X101.267 Y104.098 E2.64924
G1 X100.756 Y104.609 E2.67245
G1 E0.67245 F2400.00000
G92 E0
G1 X101.013 Y97.815 F7800.000
G1 E2.00000 F2400.00000
G1 F730.241
G1 X101.510 Y97.318 E2.02154
G1 X101.850 Y96.916 E2.03766
G1 X102.045 Y96.559 E2.05012
G1 X102.128 Y96.332 E2.05752
G1 X102.286 Y95.631 E2.07956
G1 X102.298 Y95.509 E2.08329
G1 X99.271 Y98.537 E2.21445
G1 X98.915 Y98.520 E2.22536
G1 X98.692 Y98.476 E2.23234
G1 X98.410 Y98.377 E2.24150
G1 X102.184 Y94.603 E2.40500
G1 X102.038 Y94.301 E2.41527
G1 X101.798 Y93.968 E2.42785
G1 X97.776 Y97.989 E2.60208
G1 X97.621 Y97.842 E2.60865
G1 X97.320 Y97.425 E2.62440
G1 X101.306 Y93.439 E2.79711
G1 X101.050 Y93.225 E2.80734
G1 X100.708 Y93.016 E2.81961
G1 X96.972 Y96.752 E2.98146
G1 X96.838 Y96.341 E2.99471
G1 X96.818 Y95.885 E3.00869
G1 X99.903 Y92.800 E3.14236
G1 X99.496 Y92.804 E3.15483
G1 X99.347 Y92.828 E3.15946
G1 X98.966 Y92.951 E3.17171
G1 X98.558 Y93.169 E3.18591
G1 X98.178 Y93.504 E3.20142
G1 X97.684 Y93.998 E3.22284
G1 Z3.600 F7800.000
G1 E1.22284 F2400.00000
G92 E0
G1 X100.182 Y103.970 F7800.000
G1 E2.00000 F2400.00000
G1 F600
G1 X99.687 Y103.475 E2.02040
G1 X99.561 Y103.391 E2.02480
G1 X99.353 Y103.326 E2.03116
G1 X99.109 Y103.316 E2.03825
G1 X98.937 Y103.365 E2.04347
G1 X98.755 Y103.513 E2.05030
G1 X99.893 Y104.651 E2.09716
G1 X99.523 Y104.850 E2.10940
G1 X99.227 Y104.955 E2.11855
G1 X97.213 Y102.941 E2.20146
G1 X96.957 Y102.944 E2.20891
G1 X96.758 Y103.037 E2.21531
G1 X96.644 Y103.186 E2.22079
G1 X96.606 Y103.305 E2.22441
G1 X98.364 Y105.062 E2.29678
G1 X98.038 Y105.073 E2.30626
G1 X97.609 Y105.015 E2.31888
G1 X97.337 Y104.935 E2.32713
G1 X97.170 Y104.838 E2.33276
G1 X96.674 Y104.343 E2.35317
G1 E0.35317 F2400.00000
G92 E0
G1 X98.461 Y97.157 F7800.000
G1 E2.00000 F2400.00000
G1 F600
G1 X97.967 Y96.662 E2.01943
G1 X97.740 Y96.410 E2.02887
G1 X97.533 Y96.060 E2.04018
G1 X97.418 Y95.721 E2.05013
G1 X97.378 Y95.397 E2.05920
G1 X97.397 Y95.167 E2.06562
G1 X99.947 Y97.716 E2.16583
G1 X100.216 Y97.694 E2.17334
G1 X100.640 Y97.583 E2.18553
G1 X100.706 Y97.549 E2.18758
G1 X97.569 Y94.412 E2.31090
G1 X97.701 Y94.148 E2.31911
G1 X97.918 Y93.835 E2.32969
G1 X101.238 Y97.155 E2.46022
G1 X101.421 Y96.940 E2.46807
G1 X101.615 Y96.606 E2.47881
G1 X98.403 Y93.393 E2.60510
G1 X98.569 Y93.289 E2.61056
G1 X98.912 Y93.173 E2.62063
G1 X99.088 Y93.153 E2.62556
G1 X101.813 Y95.877 E2.73265
G1 X101.128 Y94.266 F7800.000
G1 F600
G1 X100.634 Y93.772 E2.75209
G1 Z3.900 F7800.000
G1 E0.75209 F2400.00000
G92 E0
G1 X97.400 Y103.419 F7800.000
G1 E2.00000 F2400.00000
G1 F600
G1 X96.905 Y103.914 E2.02037
G1 X97.474 Y104.314 F7800.000
G1 F600
G1 X97.969 Y103.820 E2.04072
G1 E0.04072 F2400.00000
G92 E0
G1 X100.153 Y96.537 F7800.000
G1 E2.00000 F2400.00000
G1 F600
G1 X100.649 Y96.041 E2.01926
G1 X100.847 Y95.806 E2.02771
G1 X100.977 Y95.599 E2.03443
G1 X101.034 Y95.470 E2.03830
G1 X101.078 Y95.280 E2.04367
G1 X101.082 Y95.004 E2.05123
G1 X101.034 Y94.740 E2.05860
G1 X99.115 Y96.659 E2.13314
G1 X98.856 Y96.527 E2.14113
G1 X98.651 Y96.368 E2.14826
G1 X98.580 Y96.279 E2.15138
G1 X100.722 Y94.137 E2.23458
G1 X100.476 Y93.899 E2.24397
G1 X100.324 Y93.804 E2.24891
G1 X100.190 Y93.753 E2.25283
G1 X98.288 Y95.656 E2.32674
G1 X98.259 Y95.475 E2.33177
G1 X98.261 Y95.138 E2.34103
G1 X98.309 Y94.890 E2.34797
G1 X98.405 Y94.663 E2.35475
G1 X98.502 Y94.527 E2.35933
G1 X98.998 Y94.031 E2.37860
G1 E0.37860 F2400.00000
G92 E0
M107
; Filament-specific end gcode 
;END gcode for filament

M104 S0 ; turn off temperature
G28 X0  ; home X axis
M84     ; disable motors

M140 S0 ; set bed temperature
; filament used = 53.7mm (0.4cm3)
; total filament cost = 0.0

; avoid_crossing_perimeters = 0
; bed_shape = 0x0,200x0,200x200,0x200
; bed_temperature = 0
; before_layer_gcode = 
; between_objects_gcode = 
; bridge_acceleration = 0
; bridge_fan_speed = 100
; brim_connections_width = 0
; brim_width = 0
; complete_objects = 0
; cooling = 1
; default_acceleration = 0
; disable_fan_first_layers = 3
; duplicate_distance = 6
; end_filament_gcode = "; Filament-specific end gcode \n;END gcode for filament\n"
; end_gcode = M104 S0 ; turn off temperature\nG28 X0  ; home X axis\nM84     ; disable motors\n
; extruder_clearance_height = 20
; extruder_clearance_radius = 20
; extruder_offset = 0x0
; extrusion_axis = E
; extrusion_multiplier = 1
; fan_always_on = 0
; fan_below_layer_time = 60
; filament_colour = #FFFFFF
; filament_cost = 0
; filament_density = 0
; filament_diameter = 3
; filament_max_volumetric_speed = 0
; filament_notes = ""
; first_layer_acceleration = 0
; first_layer_bed_temperature = 0
; first_layer_extrusion_width = 200%
; first_layer_speed = 30
; first_layer_temperature = 205
; gcode_arcs = 0
; gcode_comments = 0
; gcode_flavor = reprap
; has_heatbed = 1
; infill_acceleration = 0
; infill_first = 0
; interior_brim_width = 0
; layer_gcode = 
; max_fan_speed = 100
; max_layer_height = 0.3
; max_print_speed = 80
; max_volumetric_speed = 0
; min_fan_speed = 35
; min_layer_height = 0.15
; min_print_speed = 10
; min_skirt_length = 0
; notes = 
; nozzle_diameter = 0.5
; only_retract_when_crossing_perimeters = 1
; ooze_prevention = 0
; output_filename_format = [input_filename_base].gcode
; perimeter_acceleration = 0
; post_process = 
; pressure_advance = 0
; printer_notes = 
; resolution = 0
; retract_before_travel = 2
; retract_layer_change = 0
; retract_length = 2
; retract_length_toolchange = 10
; retract_lift = 0
; retract_lift_above = 0
; retract_lift_below = 0
; retract_restart_extra = 0
; retract_restart_extra_toolchange = 0
; retract_speed = 40
; skirt_distance = 6
; skirt_height = 1
; skirts = 0
; slowdown_below_layer_time = 5
; spiral_vase = 0
; standby_temperature_delta = -5
; start_filament_gcode = "; Filament gcode\n"
; start_gcode = G28 ; home all axes\nG1 Z5 F5000 ; lift nozzle\n
; temperature = 200
; threads = 8
; toolchange_gcode = 
; travel_speed = 130
; use_firmware_retraction = 0
; use_relative_e_distances = 0
; use_set_and_wait_bed = 0
; use_set_and_wait_extruder = 0
; use_volumetric_e = 0
; vibration_limit = 0
; wipe = 0
; z_offset = 0
; z_steps_per_mm = 0
; adaptive_slicing = 0
; adaptive_slicing_quality = 75%
; dont_support_bridges = 1
; extrusion_width = 0
; first_layer_height = 0.3
; infill_only_where_needed = 0
; interface_shells = 0
; layer_height = 0.3
; match_horizontal_surfaces = 0
; raft_layers = 0
; regions_overlap = 0
; seam_position = aligned
; sequential_print_priority = 0
; support_material = 0
; support_material_angle = 0
; support_material_buildplate_only = 0
; support_material_contact_distance = 0.2
; support_material_enforce_layers = 0
; support_material_extruder = 1
; support_material_extrusion_width = 0
; support_material_interface_extruder = 1
; support_material_interface_extrusion_width = 0
; support_material_interface_layers = 3
; support_material_interface_spacing = 0
; support_material_interface_speed = 100%
; support_material_max_layers = 0
; support_material_pattern = pillars
; support_material_spacing = 2.5
; support_material_speed = 60
; support_material_threshold = 60%
; xy_size_compensation = 0
; bottom_infill_pattern = rectilinear
; bottom_solid_layers = 0
; bridge_flow_ratio = 1
; bridge_speed = 60
; external_perimeter_extrusion_width = 0
; external_perimeter_speed = 50%
; external_perimeters_first = 0
; extra_perimeters = 1
; fill_angle = 45
; fill_density = 90%
; fill_gaps = 1
; fill_pattern = rectilinear
; gap_fill_speed = 20
; infill_every_layers = 1
; infill_extruder = 1
; infill_extrusion_width = 0
; infill_overlap = 55%
; infill_speed = 80
; overhangs = 1
; perimeter_extruder = 1
; perimeter_extrusion_width = 0
; perimeter_speed = 60
; perimeters = 0
; small_perimeter_speed = 15
; solid_infill_below_area = 70
; solid_infill_every_layers = 0
; solid_infill_extruder = 1
; solid_infill_extrusion_width = 0
; solid_infill_speed = 20
; thin_walls = 1
; top_infill_extrusion_width = 0
; top_infill_pattern = rectilinear
; top_solid_infill_speed = 15
; top_solid_layers = 0
