; generated by Slic3r 1.3.0 on 2019-11-11 at 10:54:23

; external perimeters extrusion width = 0.55mm (4.37mm^3/s)
; perimeters extrusion width = 0.70mm (11.44mm^3/s)
; infill extrusion width = 0.63mm (13.45mm^3/s)
; solid infill extrusion width = 0.70mm (3.81mm^3/s)
; top infill extrusion width = 0.70mm (2.86mm^3/s)

M107
M104 S205 ; set temperature
G28 ; home all axes
G1 Z5 F5000 ; lift nozzle

; Filament gcode

M109 S205 ; set temperature and wait for it to be reached
G21 ; set units to millimeters
G90 ; use absolute coordinates
M82 ; use absolute distances for extrusion
G92 E0
G1 Z0.300 F7800.000
G1 E-2.00000 F2400.00000
G92 E0
G1 X98.211 Y97.434 F7800.000
G1 E2.00000 F2400.00000
G1 F704.125
G1 X97.793 Y97.852 E2.01418
G1 X97.443 Y98.279 E2.02744
G1 X97.182 Y98.768 E2.04071
G1 X97.021 Y99.298 E2.05399
G1 X97.007 Y99.437 E2.05735
G1 X99.796 Y96.649 E2.15190
G1 X100.221 Y96.608 E2.16213
G1 X100.598 Y96.646 E2.17122
G1 X98.111 Y99.133 E2.25557
G1 X98.267 Y99.175 E2.25945
G1 X98.558 Y99.484 E2.26964
G1 X101.236 Y96.806 E2.36045
G1 X101.765 Y97.076 E2.37470
G1 X97.436 Y101.406 E2.52151
G1 X97.443 Y101.418 E2.52186
G1 X97.794 Y101.847 E2.53514
G1 X102.206 Y97.435 E2.68476
G1 X102.564 Y97.875 E2.69838
G1 X98.235 Y102.205 E2.84520
G1 X98.763 Y102.475 E2.85943
G1 X101.442 Y99.797 E2.95026
G1 X101.733 Y100.106 E2.96045
G1 X101.889 Y100.148 E2.96434
G1 X99.402 Y102.636 E3.04869
G1 X99.792 Y102.674 E3.05809
G1 X100.203 Y102.633 E3.06799
G1 X102.993 Y99.844 E3.16260
G1 X102.979 Y99.983 E3.16596
G1 X102.819 Y100.513 E3.17924
G1 X102.558 Y101.002 E3.19252
G1 X102.207 Y101.429 E3.20578
G1 X101.789 Y101.847 E3.21995
G1 X101.025 Y100.213 F7800.000
G1 F704.125
G1 X100.927 Y99.849 E3.22901
G1 X101.032 Y99.460 E3.23866
G1 X101.316 Y99.175 E3.24832
G1 X101.705 Y99.071 E3.25798
G1 X102.070 Y99.169 E3.26703
G1 X102.835 Y98.404 E3.29296
G1 X102.979 Y98.881 E3.30491
G1 X102.995 Y99.043 E3.30880
G1 X102.421 Y99.617 E3.32828
G1 E1.32828 F2400.00000
G92 E0
G1 X97.166 Y100.877 F7800.000
G1 E2.00000 F2400.00000
G1 F704.125
G1 X97.930 Y100.113 E2.02591
G1 X97.621 Y99.821 E2.03609
G1 X97.579 Y99.664 E2.03999
G1 X97.005 Y100.238 E2.05945
G1 X96.967 Y99.849 E2.06883
G1 X97.007 Y99.437 E2.07876
M104 S200 ; set temperature
G1 Z0.600 F7800.000
G1 X98.019 Y99.142 F7800.000
G1 F738.352
G1 X96.925 Y98.047 E2.12467
G1 X96.848 Y98.190 E2.12948
G1 X96.669 Y98.780 E2.14776
G1 X97.562 Y99.673 E2.18519
G1 X97.504 Y99.888 E2.19179
G1 X97.615 Y100.303 E2.20453
G1 X97.919 Y100.606 E2.21726
G1 X98.333 Y100.718 E2.23000
G1 X98.549 Y100.660 E2.23662
G1 X98.023 Y102.110 F7800.000
G1 F738.352
G1 X97.529 Y101.616 E2.25735
G1 X97.138 Y101.140 E2.27560
G1 X96.848 Y100.597 E2.29387
G1 X96.669 Y100.007 E2.31215
G1 X96.643 Y99.742 E2.32004
G1 X99.899 Y102.998 E2.45656
G1 X100.248 Y103.032 E2.46696
G1 X100.861 Y102.972 E2.48523
G1 X98.055 Y100.166 E2.60292
G1 X98.254 Y100.112 E2.60904
G1 X98.558 Y99.808 E2.62177
G1 X98.585 Y99.707 E2.62487
G1 X101.594 Y102.716 E2.75106
G1 X101.994 Y102.502 E2.76453
G1 X102.199 Y102.334 E2.77240
G1 X97.307 Y97.441 E2.97758
G1 X97.529 Y97.170 E2.98799
G1 X97.801 Y96.947 E2.99840
G1 X102.693 Y101.840 E3.20357
G1 X102.862 Y101.635 E3.21145
G1 X103.076 Y101.234 E3.22491
G1 X101.981 Y100.139 E3.27084
G1 X102.081 Y100.112 E3.27393
G1 X102.385 Y99.808 E3.28666
G1 X102.438 Y99.608 E3.29279
G1 X103.331 Y100.501 E3.33024
G1 X103.391 Y99.888 E3.34851
G1 X103.357 Y99.539 E3.35891
G1 X100.101 Y96.284 E3.49545
G1 X100.366 Y96.310 E3.50333
G1 X100.956 Y96.489 E3.52162
G1 X101.500 Y96.779 E3.53989
G1 X101.975 Y97.169 E3.55814
G1 X102.471 Y97.665 E3.57893
G1 X101.945 Y99.116 F7800.000
G1 F738.352
G1 X99.140 Y96.310 E3.69660
G1 X98.550 Y96.489 E3.71488
G1 X98.407 Y96.565 E3.71968
G1 X101.415 Y99.574 E3.84586
G1 X101.331 Y99.888 E3.85550
G1 X101.442 Y100.303 E3.86824
G1 X101.746 Y100.606 E3.88097
G1 X102.161 Y100.718 E3.89371
G1 X102.475 Y100.633 E3.90336
G1 Z0.900 F7800.000
G1 X102.237 Y102.373 F7800.000
G1 F932.152
G1 X102.732 Y101.877 E3.92237
G1 X103.169 Y101.346 E3.94103
G1 X103.494 Y100.738 E3.95969
G1 X103.694 Y100.079 E3.97838
G1 X103.701 Y100.005 E3.98038
G1 X100.365 Y103.341 E4.10830
G1 X99.753 Y103.401 E4.12496
G1 X99.433 Y103.370 E4.13369
G1 X103.729 Y99.073 E4.29844
G1 X103.694 Y98.708 E4.30839
G1 X103.577 Y98.323 E4.31931
G1 X102.393 Y99.506 E4.36468
G1 X102.385 Y99.473 E4.36561
G1 X102.234 Y99.322 E4.37137
G1 X102.234 Y99.210 E4.37442
G1 X101.881 Y99.115 E4.38435
G1 X103.303 Y97.693 E4.43890
G1 X103.169 Y97.442 E4.44661
G1 X102.935 Y97.157 E4.45660
G1 X97.516 Y102.576 E4.66439
G1 X97.268 Y102.372 E4.67309
G1 X97.065 Y102.124 E4.68179
G1 X102.484 Y96.705 E4.88958
G1 X102.200 Y96.472 E4.89955
G1 X101.948 Y96.338 E4.90728
G1 X98.611 Y99.674 E5.03522
G1 X98.558 Y99.473 E5.04086
G1 X98.254 Y99.169 E5.05251
G1 X98.222 Y99.160 E5.05342
G1 X101.318 Y96.064 E5.17214
G1 X100.933 Y95.947 E5.18305
G1 X100.567 Y95.911 E5.19301
G1 X96.271 Y100.208 E5.35774
G1 X96.239 Y99.888 E5.36645
G1 X96.300 Y99.275 E5.38315
G1 X99.635 Y95.940 E5.51103
G1 X99.562 Y95.947 E5.51300
G1 X98.903 Y96.147 E5.53169
G1 X98.295 Y96.472 E5.55036
G1 X97.763 Y96.908 E5.56901
G1 X97.269 Y97.403 E5.58797
G1 E3.58797 F2400.00000
G92 E0
G1 X96.271 Y100.208 F7800.000
G1 E2.00000 F2400.00000
G1 F932.152
G1 X96.307 Y100.573 E2.00996
G1 X96.424 Y100.958 E2.02087
G1 X97.607 Y99.775 E2.06623
G1 X97.615 Y99.808 E2.06715
G1 X97.919 Y100.112 E2.07879
G1 X98.119 Y100.166 E2.08443
G1 X96.697 Y101.588 E2.13897
G1 X97.516 Y102.576 F7800.000
G1 F932.152
G1 X97.801 Y102.809 E2.14895
G1 X98.052 Y102.944 E2.15667
G1 X101.389 Y99.607 E2.28461
G1 X101.442 Y99.808 E2.29025
G1 X101.746 Y100.112 E2.30189
G1 X101.778 Y100.121 E2.30281
G1 X98.682 Y103.217 E2.42154
M106 S255
G1 Z1.200 F7800.000
G1 X97.555 Y102.579 F7800.000
G1 F1005.73
G1 X97.060 Y102.085 E2.44208
G1 X96.588 Y101.509 E2.46396
G1 X96.236 Y100.851 E2.48588
G1 X96.019 Y100.136 E2.50781
G1 X96.011 Y100.057 E2.51015
G1 X99.584 Y103.630 E2.65858
G1 X100.248 Y103.695 E2.67817
G1 X100.594 Y103.661 E2.68839
G1 X95.980 Y99.047 E2.88008
G1 X96.019 Y98.651 E2.89176
G1 X96.146 Y98.234 E2.90458
G1 X97.567 Y99.654 E2.96361
G1 X97.615 Y99.473 E2.96913
G1 X97.919 Y99.169 E2.98174
G1 X98.030 Y99.139 E2.98513
G1 X96.442 Y97.551 E3.05112
G1 X96.588 Y97.279 E3.06019
G1 X96.840 Y96.970 E3.07190
G1 X102.670 Y102.800 E3.31411
G1 X102.939 Y102.580 E3.32433
G1 X103.160 Y102.311 E3.33454
G1 X97.330 Y96.481 E3.57676
G1 X97.638 Y96.228 E3.58847
G1 X97.910 Y96.083 E3.59754
G1 X101.413 Y99.585 E3.74304
G1 X101.443 Y99.473 E3.74644
G1 X101.746 Y99.169 E3.75906
G1 X101.927 Y99.120 E3.76457
G1 X98.593 Y95.786 E3.90308
G1 X99.010 Y95.660 E3.91590
G1 X99.406 Y95.621 E3.92758
G1 X104.020 Y100.235 E4.11927
G1 X104.054 Y99.888 E4.12949
G1 X103.989 Y99.225 E4.14908
G1 X100.416 Y95.652 E4.29751
G1 X100.496 Y95.660 E4.29985
G1 X101.210 Y95.876 E4.32178
G1 X101.868 Y96.228 E4.34370
G1 X102.444 Y96.701 E4.36559
G1 X102.940 Y97.197 E4.38619
G1 E2.38619 F2400.00000
G92 E0
G1 X103.855 Y101.048 F7800.000
G1 E2.00000 F2400.00000
G1 F1005.73
G1 X102.433 Y99.627 E2.05905
G1 X102.385 Y99.808 E2.06457
G1 X102.081 Y100.112 E2.07718
G1 X101.970 Y100.142 E2.08058
G1 X103.558 Y101.731 E2.14658
G1 X103.413 Y102.003 E2.15565
G1 X103.160 Y102.311 E2.16736
G1 X102.090 Y103.199 F7800.000
G1 F1005.73
G1 X98.587 Y99.696 E2.31287
G1 X98.558 Y99.808 E2.31627
G1 X98.254 Y100.112 E2.32889
G1 X98.073 Y100.161 E2.33440
G1 X101.407 Y103.495 E2.47293
G1 X100.990 Y103.622 E2.48575
G1 X100.594 Y103.661 E2.49744
G1 Z1.500 F7800.000
G1 X98.718 Y103.787 F7800.000
G1 F1166.59
G1 X102.326 Y100.179 E2.64361
G1 X102.161 Y100.223 E2.64851
G1 X101.746 Y100.112 E2.66082
G1 X101.592 Y99.958 E2.66705
G1 X98.019 Y103.532 E2.81186
G1 X97.503 Y103.256 E2.82862
G1 X97.413 Y103.182 E2.83194
G1 X96.458 Y102.228 F7800.000
G1 F1166.59
G1 X98.510 Y100.176 E2.91507
G1 X98.333 Y100.223 E2.92031
G1 X97.919 Y100.112 E2.93261
G1 X97.769 Y99.962 E2.93868
G1 X96.109 Y101.622 E3.00594
G1 X96.011 Y101.438 E3.01192
G1 X95.854 Y100.922 E3.02736
G1 E1.02736 F2400.00000
G92 E0
G1 X97.384 Y96.528 F7800.000
G1 E2.00000 F2400.00000
G1 F1166.59
G1 X96.888 Y97.024 E2.02009
G1 X96.385 Y97.638 E2.04282
G1 X96.011 Y98.338 E2.06557
G1 X95.785 Y99.082 E2.08785
G1 X99.442 Y95.425 E2.23602
G1 X100.247 Y95.343 E2.25922
G1 X100.458 Y95.364 E2.26529
G1 X95.723 Y100.099 E2.45717
G1 X95.780 Y100.678 E2.47385
G1 X95.854 Y100.922 E2.48116
G1 X97.054 Y99.722 E2.52977
G1 X97.121 Y99.473 E2.53718
G1 X97.424 Y99.169 E2.54948
G1 X97.675 Y99.102 E2.55690
G1 X101.282 Y95.495 E2.70306
G1 X101.797 Y95.651 E2.71851
G1 X101.982 Y95.750 E2.72449
G1 X98.408 Y99.323 E2.86929
G1 X98.558 Y99.473 E2.87536
G1 X98.668 Y99.888 E2.88765
G1 X98.621 Y100.065 E2.89291
G1 X102.587 Y96.099 E3.05362
G1 X103.112 Y96.529 E3.07306
G1 X96.889 Y102.752 E3.32522
G1 X97.413 Y103.182 E3.34466
G1 X100.884 Y99.711 E3.48531
G1 X100.948 Y99.473 E3.49238
G1 X101.252 Y99.169 E3.50469
G1 X101.491 Y99.105 E3.51178
G1 X103.542 Y97.054 E3.59490
G1 X103.615 Y97.143 E3.59822
G1 X103.891 Y97.659 E3.61498
G1 X102.231 Y99.319 E3.68225
G1 X102.385 Y99.473 E3.68847
G1 X102.496 Y99.888 E3.70078
G1 X102.451 Y100.054 E3.70570
G1 X104.146 Y98.359 E3.77437
G1 X104.220 Y98.603 E3.78168
G1 X104.277 Y99.183 E3.79837
G1 X99.542 Y103.918 E3.99023
G1 X99.753 Y103.938 E3.99630
G1 X100.558 Y103.856 E4.01949
G1 X104.216 Y100.199 E4.16769
G1 X103.989 Y100.944 E4.19000
G1 X103.615 Y101.644 E4.21275
G1 X103.112 Y102.257 E4.23547
G1 X102.616 Y102.753 E4.25556
M106 S252.45
G1 Z1.800 F7800.000
G1 X102.411 Y100.651 F7800.000
G1 F1200
G1 X102.161 Y100.718 E4.26284
G1 X101.746 Y100.606 E4.27489
G1 X101.442 Y100.303 E4.28693
G1 X101.331 Y99.888 E4.29897
G1 X101.398 Y99.637 E4.30624
G1 X97.508 Y95.747 E4.46049
G1 X98.119 Y95.423 E4.47987
G1 X101.839 Y99.144 E4.62740
G1 X103.285 Y96.852 F7800.000
G1 F1200
G1 X102.789 Y96.356 E4.64707
G1 X102.139 Y95.823 E4.67064
G1 X101.396 Y95.426 E4.69425
G1 X100.719 Y95.221 E4.71410
G1 X104.420 Y98.922 E4.86089
G1 X104.459 Y99.050 E4.86463
G1 X104.541 Y99.888 E4.88825
G1 X104.533 Y99.969 E4.89054
G1 X99.671 Y95.107 E5.08335
G1 X98.915 Y95.182 E5.10465
G1 X98.835 Y95.206 E5.10698
G1 X104.435 Y100.805 E5.32903
G1 X104.217 Y101.522 E5.35003
G1 X102.410 Y99.715 E5.42170
G1 X102.385 Y99.808 E5.42442
G1 X102.081 Y100.112 E5.43646
G1 X101.917 Y100.156 E5.44122
G1 X103.893 Y102.133 E5.51960
G1 X103.818 Y102.274 E5.52409
G1 X103.495 Y102.668 E5.53838
G1 X96.973 Y96.146 E5.79699
G1 X96.716 Y96.357 E5.80630
G1 X96.506 Y96.614 E5.81561
G1 X103.027 Y103.135 E6.07422
G1 X102.633 Y103.459 E6.08851
G1 X102.492 Y103.534 E6.09300
G1 X98.602 Y99.644 E6.24727
G1 X98.558 Y99.808 E6.25205
G1 X98.254 Y100.112 E6.26409
G1 X98.161 Y100.137 E6.26680
G1 X101.881 Y103.858 E6.41434
G1 X101.165 Y104.076 E6.43534
G1 X95.565 Y98.476 E6.65738
G1 X95.541 Y98.556 E6.65971
G1 X95.467 Y99.312 E6.68101
G1 X100.329 Y104.174 E6.87382
G1 X100.248 Y104.182 E6.87611
G1 X99.409 Y104.100 E6.89973
G1 X99.282 Y104.061 E6.90347
G1 X95.580 Y100.360 E7.05025
G1 X95.786 Y101.037 E7.07009
G1 X96.182 Y101.780 E7.09371
G1 X96.716 Y102.429 E7.11727
G1 X97.210 Y102.924 E7.13688
G1 X98.655 Y100.632 F7800.000
G1 F1200
G1 X98.333 Y100.718 E7.14622
G1 X97.919 Y100.606 E7.15826
G1 X97.615 Y100.303 E7.17030
G1 X97.504 Y99.888 E7.18234
G1 X97.590 Y99.567 E7.19166
G1 X95.783 Y97.759 E7.26333
G1 X96.107 Y97.149 E7.28271
G1 X98.083 Y99.125 E7.36106
M106 S249.9
G1 Z2.100 F7800.000
G1 X97.509 Y99.413 F7800.000
G1 F1200
G1 X95.542 Y101.381 E7.43671
G1 X95.610 Y101.604 E7.44305
G1 X95.824 Y102.005 E7.45541
G1 X97.818 Y100.011 E7.53207
G1 X97.919 Y100.112 E7.53596
G1 X98.333 Y100.223 E7.54763
G1 X98.577 Y100.158 E7.55448
G1 X96.173 Y102.561 E7.64689
G1 X96.582 Y103.059 E7.66439
G1 X103.418 Y96.222 E7.92728
G1 X103.827 Y96.720 E7.94478
G1 X101.424 Y99.123 E8.03717
G1 X101.667 Y99.058 E8.04399
G1 X102.081 Y99.169 E8.05567
G1 X102.182 Y99.270 E8.05956
G1 X104.176 Y97.277 E8.13623
G1 X104.390 Y97.677 E8.14858
G1 X104.458 Y97.901 E8.15493
G1 X102.491 Y99.868 E8.23058
G1 X101.396 Y99.151 F7800.000
G1 F1200
G1 X97.079 Y103.467 E8.39657
G1 X97.261 Y103.617 E8.40297
G1 X97.636 Y103.817 E8.41452
G1 X101.543 Y99.909 E8.56477
G1 X101.746 Y100.112 E8.57256
G1 X102.141 Y100.218 E8.58368
G1 X98.260 Y104.099 E8.73290
G1 X98.878 Y104.286 E8.75045
G1 X98.970 Y104.295 E8.75295
G1 X104.655 Y98.610 E8.97156
G1 X104.727 Y99.444 E8.99433
G1 X99.804 Y104.367 E9.18362
G1 X100.628 Y104.286 E9.20613
G1 X100.862 Y104.215 E9.21277
G1 X104.575 Y100.502 E9.35555
G1 X104.390 Y101.109 E9.37281
G1 X103.976 Y101.885 E9.39672
G1 X103.419 Y102.564 E9.42059
G1 X102.923 Y103.060 E9.43966
G1 X98.603 Y100.132 F7800.000
G1 F1200
G1 X102.921 Y95.814 E9.60568
G1 X102.739 Y95.665 E9.61208
G1 X102.364 Y95.465 E9.62363
G1 X98.457 Y99.372 E9.77388
G1 X98.254 Y99.169 E9.78168
G1 X97.860 Y99.063 E9.79278
G1 X101.740 Y95.183 E9.94200
G1 X101.122 Y94.995 E9.95956
G1 X101.031 Y94.986 E9.96206
G1 X95.346 Y100.671 E10.18066
G1 X95.273 Y99.838 E10.20342
G1 X100.197 Y94.914 E10.39274
G1 X99.372 Y94.995 E10.41528
G1 X99.139 Y95.066 E10.42191
G1 X95.426 Y98.779 E10.56469
G1 X95.610 Y98.172 E10.58195
G1 X96.024 Y97.397 E10.60586
G1 X96.581 Y96.718 E10.62973
G1 X97.077 Y96.222 E10.64880
M106 S255
G1 Z2.400 F7800.000
G1 X98.226 Y99.107 F7800.000
G1 F1534.22
G1 X96.011 Y96.892 E10.72334
G1 X95.703 Y97.465 E10.73882
G1 X97.675 Y99.437 E10.80517
G1 X97.634 Y99.478 E10.80654
G1 X97.528 Y99.873 E10.81628
G1 X97.634 Y100.269 E10.82602
G1 X97.924 Y100.558 E10.83576
G1 X98.319 Y100.664 E10.84550
G1 X98.714 Y100.558 E10.85525
G1 X98.755 Y100.517 E10.85662
G1 X95.940 Y101.226 F7800.000
G1 F1534.22
G1 X96.055 Y101.604 E10.86602
G1 X96.473 Y102.386 E10.88712
G1 X97.035 Y103.071 E10.90821
G1 X97.720 Y103.633 E10.92931
G1 X98.502 Y104.051 E10.95040
G1 X98.880 Y104.166 E10.95980
G1 X95.475 Y100.761 E11.07439
G1 X95.332 Y100.291 E11.08608
G1 X95.272 Y99.676 E11.10076
G1 X99.964 Y104.369 E11.25866
G1 X100.233 Y104.395 E11.26508
G1 X100.814 Y104.338 E11.27899
G1 X95.303 Y98.826 E11.46445
G1 X95.332 Y98.526 E11.47164
G1 X95.460 Y98.103 E11.48215
G1 X101.538 Y104.180 E11.68663
G1 X101.963 Y104.051 E11.69722
G1 X102.176 Y103.938 E11.70295
G1 X98.290 Y100.052 E11.83369
G1 X98.539 Y99.803 E11.84205
G1 X98.619 Y99.500 E11.84952
G1 X102.749 Y103.630 E11.98848
G1 X103.233 Y103.233 E12.00337
G1 X96.408 Y96.408 E12.23304
G1 X96.570 Y96.210 E12.23911
G1 X96.856 Y95.975 E12.24793
G1 X103.666 Y102.785 E12.47706
G1 X103.993 Y102.386 E12.48933
G1 X104.047 Y102.285 E12.49206
G1 X101.902 Y100.140 E12.56423
G1 X102.076 Y100.093 E12.56853
G1 X102.366 Y99.803 E12.57827
G1 X102.383 Y99.740 E12.57984
G1 X104.353 Y101.711 E12.64615
G1 X104.410 Y101.604 E12.64903
G1 X104.578 Y101.054 E12.66270
G1 X98.587 Y95.063 E12.86428
G1 X98.885 Y94.973 E12.87169
G1 X99.333 Y94.929 E12.88241
G1 X104.712 Y100.307 E13.06340
G1 X104.755 Y99.874 E13.07377
G1 X104.711 Y99.425 E13.08450
G1 X100.216 Y94.930 E13.23575
G1 X100.650 Y94.973 E13.24614
G1 X101.353 Y95.186 E13.26361
G1 X104.454 Y98.288 E13.36798
G1 E11.36798 F2400.00000
G92 E0
G1 X101.814 Y99.171 F7800.000
G1 E2.00000 F2400.00000
G1 F1534.22
G1 X97.930 Y95.287 E2.13069
G1 X97.356 Y95.594 E2.14618
G1 X101.415 Y99.653 E2.28275
G1 X101.355 Y99.873 E2.28817
G1 X101.462 Y100.269 E2.29792
G1 X101.751 Y100.558 E2.30766
G1 X102.146 Y100.664 E2.31740
G1 X102.367 Y100.605 E2.32284
G1 Z2.700 F7800.000
G1 X102.575 Y103.592 F7800.000
G1 F1563.5
G1 X103.951 Y102.216 E2.36914
G1 X104.122 Y102.007 E2.37557
G1 X104.554 Y101.198 E2.39739
G1 X104.758 Y100.528 E2.41405
G1 X100.887 Y104.398 E2.54429
G1 X100.680 Y104.461 E2.54944
G1 X99.863 Y104.541 E2.56897
G1 X104.901 Y99.504 E2.73846
G1 X104.910 Y99.408 E2.74075
G1 X104.839 Y98.685 E2.75805
G1 X99.044 Y104.480 E2.95305
G1 X98.855 Y104.461 E2.95758
G1 X98.338 Y104.304 E2.97042
G1 X104.664 Y97.979 E3.18326
G1 X104.554 Y97.618 E3.19223
G1 X104.411 Y97.351 E3.19945
G1 X102.325 Y99.437 E3.26965
G1 X102.076 Y99.188 E3.27802
G1 X101.774 Y99.107 E3.28547
G1 X104.099 Y96.782 E3.36371
G1 X103.702 Y96.298 E3.37861
G1 X96.657 Y103.343 E3.61566
G1 X96.460 Y103.181 E3.62174
G1 X96.225 Y102.894 E3.63056
G1 X103.254 Y95.865 E3.86708
G1 X102.832 Y95.519 E3.88007
G1 X102.758 Y95.480 E3.88205
G1 X98.585 Y99.653 E4.02247
G1 X98.539 Y99.478 E4.02678
G1 X98.249 Y99.188 E4.03652
G1 X98.186 Y99.171 E4.03808
G1 X102.184 Y95.173 E4.17261
G1 X102.022 Y95.087 E4.17697
G1 X101.537 Y94.939 E4.18904
G1 X95.299 Y101.178 E4.39896
G1 X95.180 Y100.786 E4.40870
G1 X95.147 Y100.449 E4.41676
G1 X100.808 Y94.787 E4.60727
G1 X100.232 Y94.730 E4.62103
G1 X99.957 Y94.758 E4.62762
G1 X95.117 Y99.597 E4.79048
G1 X95.180 Y98.961 E4.80570
G1 X95.313 Y98.520 E4.81666
G1 X98.879 Y94.954 E4.93664
G1 E2.93664 F2400.00000
G92 E0
G1 X95.299 Y101.178 F7800.000
G1 E2.00000 F2400.00000
G1 F1563.5
G1 X95.446 Y101.663 E2.01207
G1 X95.532 Y101.825 E2.01644
G1 X97.617 Y99.740 E2.08659
G1 X97.634 Y99.803 E2.08816
G1 X97.924 Y100.093 E2.09790
G1 X98.098 Y100.140 E2.10220
G1 X95.839 Y102.399 E2.17821
G1 X96.657 Y103.343 F7800.000
G1 F1563.5
G1 X97.141 Y103.740 E2.19311
G1 X101.380 Y99.501 E2.33575
G1 X101.462 Y99.803 E2.34322
G1 X101.616 Y99.958 E2.34841
G1 X101.616 Y100.057 E2.35076
G1 X101.686 Y100.076 E2.35250
G1 X97.710 Y104.052 E2.48629
G1 Z3.000 F7800.000
G1 X96.010 Y102.177 F7800.000
G1 F1725.01
G1 X96.214 Y102.559 E2.49659
G1 X96.815 Y103.291 E2.51913
G1 X97.548 Y103.892 E2.54168
G1 X97.929 Y104.096 E2.55197
G1 X95.545 Y101.711 E2.63220
G1 X95.302 Y101.257 E2.64444
G1 X95.023 Y100.309 E2.66797
G1 X99.332 Y104.618 E2.81297
G1 X100.295 Y104.700 E2.83596
G1 X94.941 Y99.345 E3.01614
G1 X95.020 Y98.543 E3.03531
G1 X101.098 Y104.621 E3.23983
G1 X101.176 Y104.614 E3.24169
G1 X101.786 Y104.428 E3.25686
G1 X95.212 Y97.855 E3.47804
G1 X95.302 Y97.559 E3.48542
G1 X95.475 Y97.236 E3.49411
G1 X97.675 Y99.437 E3.56816
G1 X97.924 Y99.188 E3.57652
G1 X98.226 Y99.107 E3.58397
G1 X95.791 Y96.672 E3.66590
G1 X96.188 Y96.188 E3.68080
G1 X103.453 Y103.453 E3.92525
G1 X103.650 Y103.291 E3.93132
G1 X103.885 Y103.004 E3.94014
G1 X96.637 Y95.756 E4.18406
G1 X97.083 Y95.390 E4.19778
G1 X97.127 Y95.366 E4.19899
G1 X101.415 Y99.653 E4.34325
G1 X101.462 Y99.478 E4.34756
G1 X101.751 Y99.188 E4.35730
G1 X101.814 Y99.171 E4.35886
G1 X97.701 Y95.059 E4.49724
G1 X97.918 Y94.943 E4.50308
G1 X98.339 Y94.815 E4.51355
G1 X104.826 Y101.302 E4.73182
G1 X104.973 Y100.816 E4.74390
G1 X104.995 Y100.591 E4.74929
G1 X99.050 Y94.646 E4.94933
G1 X99.767 Y94.575 E4.96647
G1 X99.871 Y94.585 E4.96895
G1 X105.055 Y99.770 E5.14340
G1 X104.973 Y98.930 E5.16347
G1 X104.919 Y98.753 E5.16788
G1 X100.888 Y94.722 E5.30351
G1 X101.617 Y94.943 E5.32162
G1 X102.419 Y95.372 E5.34327
G1 X104.269 Y97.222 E5.40552
G1 E3.40552 F2400.00000
G92 E0
G1 X104.582 Y101.939 F7800.000
G1 E2.00000 F2400.00000
G1 F1725.01
G1 X102.383 Y99.740 E2.07401
G1 X102.366 Y99.803 E2.07557
G1 X102.076 Y100.093 E2.08531
G1 X101.902 Y100.140 E2.08961
G1 X104.275 Y102.514 E2.16948
G1 X103.885 Y103.004 E2.18440
G1 X102.969 Y103.850 F7800.000
G1 F1725.01
G1 X98.619 Y99.500 E2.33076
G1 X98.539 Y99.803 E2.33822
G1 X98.290 Y100.052 E2.34658
G1 X102.404 Y104.166 E2.48502
G1 X102.082 Y104.338 E2.49371
G1 X101.786 Y104.428 E2.50109
G1 Z3.300 F7800.000
G1 X101.585 Y104.582 F7800.000
G1 F1857.87
G1 X104.941 Y101.225 E2.61404
G1 X105.193 Y100.395 E2.63468
G1 X105.226 Y100.059 E2.64270
G1 X100.514 Y104.771 E2.80126
G1 X100.338 Y104.789 E2.80547
G1 X100.155 Y105.074 E2.81353
G1 X99.931 Y105.200 E2.81965
G1 X99.767 Y105.230 E2.82362
G1 X99.604 Y105.200 E2.82757
G1 X99.391 Y105.084 E2.83334
G1 X99.360 Y105.044 E2.83454
G1 X105.264 Y99.141 E3.03319
G1 X105.193 Y98.421 E3.05039
G1 X105.172 Y98.351 E3.05212
G1 X98.780 Y104.744 E3.26723
G1 X98.543 Y104.672 E3.27311
G1 X98.480 Y104.743 E3.27535
G1 X98.035 Y104.608 E3.28643
G1 X104.967 Y97.676 E3.51968
G1 X104.905 Y97.473 E3.52473
G1 X104.691 Y97.071 E3.53556
G1 X102.325 Y99.437 E3.61517
G1 X102.076 Y99.188 E3.62354
G1 X101.774 Y99.107 E3.63099
G1 X104.368 Y96.513 E3.71828
G1 X103.971 Y96.029 E3.73317
G1 X96.388 Y103.612 E3.98831
G1 X96.191 Y103.450 E3.99438
G1 X95.956 Y103.163 E4.00321
G1 X103.523 Y95.597 E4.25781
G1 X103.038 Y95.200 E4.27271
G1 X98.585 Y99.653 E4.42253
G1 X98.539 Y99.478 E4.42684
G1 X98.249 Y99.188 E4.43659
G1 X98.186 Y99.171 E4.43814
G1 X102.464 Y94.893 E4.58209
G1 X102.168 Y94.735 E4.59006
G1 X101.840 Y94.636 E4.59821
G1 X94.995 Y101.481 E4.82854
G1 X94.801 Y100.795 E4.84552
G1 X101.154 Y94.441 E5.05931
G1 X100.352 Y94.362 E5.07848
G1 X94.722 Y99.993 E5.26795
G1 X94.710 Y99.874 E5.27080
G1 X94.792 Y99.042 E5.29069
G1 X99.401 Y94.432 E5.44579
G1 X99.246 Y94.448 E5.44950
G1 X98.297 Y94.735 E5.47309
G1 X98.125 Y94.827 E5.47772
G1 X95.186 Y97.766 E5.57662
G1 X95.562 Y97.064 E5.59558
G1 X96.191 Y96.297 E5.61917
G1 X96.958 Y95.668 E5.64276
G1 X97.660 Y95.292 E5.66172
G1 E3.66172 F2400.00000
G92 E0
G1 X94.995 Y101.481 F7800.000
G1 E2.00000 F2400.00000
G1 F1857.87
G1 X95.095 Y101.809 E2.00815
G1 X95.253 Y102.104 E2.01613
G1 X97.617 Y99.740 E2.09569
G1 X97.634 Y99.803 E2.09726
G1 X97.924 Y100.093 E2.10700
G1 X98.098 Y100.140 E2.11130
G1 X95.560 Y102.678 E2.19672
G1 X96.388 Y103.612 F7800.000
G1 F1857.87
G1 X96.872 Y104.009 E2.21161
G1 X101.380 Y99.501 E2.36330
G1 X101.462 Y99.803 E2.37076
G1 X101.710 Y100.052 E2.37912
G1 X97.430 Y104.331 E2.52312
G1 Z3.600 F7800.000
G1 X95.395 Y101.562 F7800.000
G1 F1922
G1 X95.480 Y101.842 E2.53008
G1 X95.956 Y102.731 E2.55407
G1 X96.595 Y103.511 E2.57807
G1 X97.375 Y104.150 E2.60206
G1 X98.264 Y104.626 E2.62605
G1 X98.544 Y104.711 E2.63301
G1 X94.930 Y101.097 E2.75462
G1 X94.722 Y100.411 E2.77165
G1 X94.678 Y99.964 E2.78235
G1 X100.275 Y105.561 E2.97068
G1 X100.563 Y105.509 E2.97764
G1 X100.744 Y105.405 E2.98262
G1 X100.881 Y105.285 E2.98693
G1 X94.658 Y99.062 E3.19633
G1 X94.722 Y98.404 E3.21206
G1 X94.759 Y98.283 E3.21508
G1 X101.289 Y104.813 E3.43480
G1 X101.641 Y104.706 E3.44355
G1 X101.710 Y104.775 E3.44586
G1 X102.034 Y104.676 E3.45392
G1 X94.964 Y97.607 E3.69180
G1 X95.015 Y97.440 E3.69596
G1 X95.246 Y97.008 E3.70761
G1 X102.633 Y104.395 E3.95618
G1 X103.091 Y104.150 E3.96853
G1 X103.189 Y104.070 E3.97155
G1 X95.571 Y96.452 E4.22788
G1 X95.968 Y95.968 E4.24277
G1 X103.673 Y103.673 E4.50202
G1 X103.870 Y103.511 E4.50810
G1 X104.105 Y103.224 E4.51692
G1 X96.417 Y95.536 E4.77563
G1 X96.900 Y95.139 E4.79053
G1 X104.502 Y102.740 E5.04632
G1 X104.811 Y102.168 E5.06179
G1 X97.473 Y94.830 E5.30870
G1 X97.799 Y94.656 E5.31750
G1 X98.091 Y94.567 E5.32476
G1 X105.074 Y101.550 E5.55972
G1 X105.278 Y100.874 E5.57654
G1 X98.767 Y94.363 E5.79562
G1 X99.569 Y94.284 E5.81479
G1 X105.357 Y100.071 E6.00954
G1 X105.376 Y99.874 E6.01427
G1 X105.304 Y99.138 E6.03186
G1 X100.503 Y94.337 E6.19341
G1 X100.771 Y94.363 E6.19981
G1 X101.689 Y94.641 E6.22263
G1 X104.999 Y97.952 E6.33403
G1 Z3.900 F7800.000
G1 X97.975 Y94.978 F7800.000
G1 F1964.13
G1 X97.766 Y95.041 E6.33922
G1 X96.862 Y95.524 E6.36362
G1 X96.069 Y96.175 E6.38801
G1 X95.419 Y96.967 E6.41241
G1 X94.935 Y97.872 E6.43680
G1 X94.872 Y98.081 E6.44199
G1 X98.440 Y94.513 E6.56205
G1 X99.212 Y94.279 E6.58125
G1 X99.592 Y94.241 E6.59034
G1 X94.600 Y99.233 E6.75832
G1 X94.537 Y99.874 E6.77363
G1 X94.565 Y100.150 E6.78024
G1 X100.509 Y94.205 E6.98027
G1 X101.302 Y94.293 E6.99925
G1 X94.653 Y100.943 E7.22299
G1 X94.858 Y101.619 E7.23980
G1 X101.978 Y94.498 E7.47939
G1 X102.234 Y94.576 E7.48576
G1 X102.591 Y94.766 E7.49538
G1 X95.126 Y102.231 E7.74656
G1 X95.437 Y102.801 E7.76201
G1 X103.161 Y95.077 E8.02191
G1 X103.645 Y95.474 E8.03680
G1 X95.834 Y103.285 E8.29962
G1 X96.069 Y103.572 E8.30845
G1 X96.266 Y103.734 E8.31451
G1 X104.093 Y95.907 E8.57788
G1 X104.490 Y96.391 E8.59277
G1 X96.750 Y104.131 E8.85321
G1 X96.862 Y104.222 E8.85663
G1 X97.304 Y104.458 E8.86856
G1 X104.818 Y96.944 E9.12139
G1 X105.065 Y97.407 E9.13387
G1 X105.105 Y97.538 E9.13714
G1 X97.898 Y104.745 E9.37965
G1 X98.190 Y104.834 E9.38691
G1 X98.258 Y104.765 E9.38922
G1 X98.642 Y104.882 E9.39877
G1 X105.310 Y98.214 E9.62312
G1 X105.362 Y98.388 E9.62744
G1 X105.421 Y98.984 E9.64169
G1 X98.978 Y105.427 E9.85849
G1 X99.099 Y105.541 E9.86245
G1 X99.208 Y105.611 E9.86553
G1 X99.375 Y105.698 E9.87003
G1 X99.545 Y105.741 E9.87419
G1 X105.417 Y99.868 E10.07179
G1 X105.362 Y100.428 E10.08518
G1 X105.199 Y100.968 E10.09860
G1 X101.339 Y104.828 E10.22847
G1 Z4.200 F7800.000
G1 X99.577 Y105.743 F7800.000
G1 F1998.96
G1 X98.697 Y104.864 E10.25806
G1 X98.522 Y104.513 E10.26739
G1 X98.270 Y104.437 E10.27365
G1 X95.814 Y102.861 F7800.000
G1 F1998.96
G1 X96.779 Y103.827 E10.30613
G1 X97.304 Y104.257 E10.32227
G1 X98.215 Y104.744 E10.34687
G1 X98.735 Y104.902 E10.35980
G1 X94.739 Y100.906 E10.49427
G1 X94.597 Y100.436 E10.50594
G1 X94.536 Y99.822 E10.52063
G1 X100.590 Y105.876 E10.72434
G1 X100.711 Y105.840 E10.72733
G1 X100.931 Y105.723 E10.73327
G1 X101.140 Y105.545 E10.73980
G1 X94.541 Y98.946 E10.96185
G1 X94.597 Y98.379 E10.97539
G1 X94.657 Y98.181 E10.98033
G1 X101.470 Y104.994 E11.20958
G1 X101.478 Y104.978 E11.21000
G1 X102.136 Y104.779 E11.22636
G1 X94.862 Y97.505 E11.47111
G1 X94.897 Y97.390 E11.47396
G1 X95.152 Y96.913 E11.48683
G1 X102.727 Y104.489 E11.74174
G1 X103.162 Y104.257 E11.75346
G1 X103.279 Y104.160 E11.75708
G1 X95.480 Y96.361 E12.01951
G1 X95.877 Y95.877 E12.03441
G1 X103.763 Y103.763 E12.29976
G1 X103.961 Y103.602 E12.30584
G1 X104.196 Y103.315 E12.31465
G1 X96.326 Y95.445 E12.57947
G1 X96.810 Y95.048 E12.59436
G1 X104.593 Y102.831 E12.85625
G1 X104.905 Y102.262 E12.87169
G1 X97.379 Y94.736 E13.12495
G1 X97.750 Y94.537 E13.13496
G1 X97.989 Y94.465 E13.14090
G1 X105.176 Y101.652 E13.38274
G1 X105.381 Y100.976 E13.39955
G1 X98.665 Y94.260 E13.62554
G1 X98.739 Y94.237 E13.62739
G1 X99.453 Y94.167 E13.64445
G1 X105.474 Y100.188 E13.84705
G1 X105.505 Y99.874 E13.85457
G1 X105.446 Y99.280 E13.86877
G1 X100.361 Y94.195 E14.03988
G1 X100.796 Y94.237 E14.05028
G1 X101.498 Y94.450 E14.06772
G1 X105.191 Y98.143 E14.19199
G1 Z4.500 F7800.000
G1 X103.023 Y104.025 F7800.000
G1 F2006.4
G1 X104.383 Y102.665 E14.23775
G1 X104.639 Y102.353 E14.24737
G1 X105.129 Y101.436 E14.27208
G1 X105.302 Y100.864 E14.28631
G1 X101.224 Y104.943 E14.42356
G1 X101.000 Y105.011 E14.42912
G1 X100.821 Y105.345 E14.43814
G1 X100.439 Y105.727 E14.45100
G1 X100.224 Y105.838 E14.45676
G1 X99.881 Y105.915 E14.46511
G1 X99.665 Y105.915 E14.47027
G1 X99.424 Y105.861 E14.47613
G1 X105.494 Y99.791 E14.68039
G1 X105.532 Y99.408 E14.68954
G1 X105.484 Y98.920 E14.70120
G1 X98.865 Y105.539 E14.92392
G1 X98.727 Y105.371 E14.92911
G1 X98.518 Y105.006 E14.93912
G1 X105.365 Y98.159 E15.16951
G1 X105.160 Y97.483 E15.18632
G1 X97.842 Y104.801 E15.43256
G1 X97.739 Y104.769 E15.43511
G1 X97.253 Y104.509 E15.44825
G1 X104.869 Y96.893 E15.70452
G1 X104.639 Y96.464 E15.71611
G1 X104.539 Y96.342 E15.71986
G1 X96.701 Y104.180 E15.98360
G1 X96.217 Y103.783 E15.99849
G1 X104.142 Y95.858 E16.26515
G1 X103.980 Y95.661 E16.27122
G1 X103.694 Y95.426 E16.28004
G1 X95.785 Y103.334 E16.54616
G1 X95.388 Y102.850 E16.56105
G1 X103.210 Y95.028 E16.82426
G1 X102.642 Y94.715 E16.83969
G1 X95.075 Y102.282 E17.09431
G1 X94.871 Y101.902 E17.10458
G1 X94.802 Y101.674 E17.11024
G1 X102.033 Y94.443 E17.35355
G1 X101.357 Y94.238 E17.37036
G1 X94.597 Y100.998 E17.59782
G1 X94.570 Y100.907 E17.60008
G1 X94.501 Y100.213 E17.61667
G1 X100.572 Y94.142 E17.82096
G1 X100.232 Y94.108 E17.82908
G1 X99.669 Y94.164 E17.84254
G1 X94.524 Y99.310 E18.01570
G1 X94.570 Y98.839 E18.02695
G1 X94.769 Y98.184 E18.04324
G1 X98.543 Y94.409 E18.17026
G1 Z4.800 F7800.000
G1 X104.808 Y97.760 F7800.000
G1 F2081.31
G1 X104.689 Y97.369 E18.17997
G1 X104.197 Y96.448 E18.20482
G1 X103.534 Y95.641 E18.22967
G1 X102.727 Y94.979 E18.25451
G1 X101.806 Y94.487 E18.27935
G1 X101.416 Y94.368 E18.28907
G1 X105.273 Y98.225 E18.41886
G1 X105.507 Y99.341 F7800.000
G1 F2081.31
G1 X100.300 Y94.134 E18.59408
G1 X99.767 Y94.081 E18.60682
G1 X99.402 Y94.117 E18.61554
G1 X105.524 Y100.238 E18.82151
G1 X105.457 Y100.913 E18.83764
G1 X105.425 Y101.020 E18.84031
G1 X98.621 Y94.216 E19.06926
G1 X97.945 Y94.421 E19.08606
G1 X105.220 Y101.696 E19.33086
G1 X105.154 Y101.912 E19.33623
G1 X104.946 Y102.303 E19.34677
G1 X97.338 Y94.695 E19.60275
G1 X96.771 Y95.009 E19.61817
G1 X104.632 Y102.870 E19.88269
G1 X104.235 Y103.354 E19.89758
G1 X96.287 Y95.406 E20.16500
G1 X96.001 Y95.641 E20.17382
G1 X95.839 Y95.839 E20.17990
G1 X103.802 Y103.802 E20.44786
G1 X103.318 Y104.199 E20.46276
G1 X95.441 Y96.322 E20.72781
G1 X95.338 Y96.448 E20.73169
G1 X95.111 Y96.873 E20.74314
G1 X102.768 Y104.530 E21.00078
G1 X102.272 Y104.795 E21.01417
G1 X102.180 Y104.823 E21.01645
G1 X94.818 Y97.461 E21.26416
G1 X94.613 Y98.137 E21.28096
G1 X101.504 Y105.028 E21.51283
G1 X101.167 Y105.143 E21.52131
G1 X100.983 Y105.387 E21.52859
G1 X94.491 Y98.896 E21.74702
G1 X94.440 Y99.408 E21.75928
G1 X94.475 Y99.761 E21.76770
G1 X100.411 Y105.696 E21.96744
G1 X100.103 Y105.704 E21.97477
G1 X99.976 Y105.684 E21.97783
G1 X99.814 Y105.621 E21.98195
G1 X99.616 Y105.513 E21.98734
G1 X99.437 Y105.344 E21.99319
G1 X99.299 Y105.143 E21.99899
G1 X98.818 Y104.984 E22.01105
G1 X94.657 Y100.824 E22.15104
G1 X94.846 Y101.447 E22.16654
G1 X95.338 Y102.368 E22.19139
G1 X97.173 Y104.221 E22.25344
G1 X96.466 Y103.640 E22.27522
G1 X95.883 Y102.931 E22.29705
G1 Z5.100 F7800.000
G1 X102.735 Y104.312 F7800.000
G1 F2010.85
G1 X104.672 Y102.375 E22.36224
G1 X105.166 Y101.452 E22.38715
G1 X105.362 Y100.804 E22.40325
G1 X101.164 Y105.003 E22.54452
G1 X100.890 Y105.086 E22.55133
G1 X100.423 Y105.132 E22.56249
G1 X100.277 Y105.299 E22.56776
G1 X100.105 Y105.398 E22.57250
G1 X99.922 Y105.463 E22.57712
G1 X99.809 Y105.477 E22.57983
G1 X105.539 Y99.747 E22.77264
G1 X105.572 Y99.408 E22.78073
G1 X105.521 Y98.884 E22.79326
G1 X99.185 Y105.219 E23.00645
G1 X99.112 Y105.132 E23.00917
G1 X98.645 Y105.086 E23.02033
G1 X98.486 Y105.038 E23.02428
G1 X105.397 Y98.127 E23.25682
G1 X105.192 Y97.451 E23.27363
G1 X97.810 Y104.833 E23.52202
G1 X97.724 Y104.806 E23.52415
G1 X97.223 Y104.539 E23.53767
G1 X104.898 Y96.864 E23.79592
G1 X104.672 Y96.441 E23.80732
G1 X104.567 Y96.314 E23.81126
G1 X96.673 Y104.208 E24.07689
G1 X96.189 Y103.811 E24.09179
G1 X104.170 Y95.830 E24.36034
G1 X104.008 Y95.632 E24.36642
G1 X103.722 Y95.397 E24.37523
G1 X95.757 Y103.362 E24.64326
G1 X95.359 Y102.879 E24.65815
G1 X103.238 Y95.000 E24.92326
G1 X102.671 Y94.686 E24.93868
G1 X95.045 Y102.312 E25.19528
G1 X94.835 Y101.917 E25.20593
G1 X94.771 Y101.706 E25.21118
G1 X102.065 Y94.411 E25.45663
G1 X101.389 Y94.206 E25.47344
G1 X94.566 Y101.030 E25.70304
G1 X94.531 Y100.915 E25.70590
G1 X94.465 Y100.249 E25.72181
G1 X100.609 Y94.106 E25.92854
G1 X100.296 Y94.075 E25.93603
G1 X99.707 Y94.126 E25.95009
G1 X94.479 Y99.354 E26.12601
G1 X94.531 Y98.831 E26.13851
G1 X94.709 Y98.243 E26.15313
G1 X98.603 Y94.350 E26.28414
G1 Z5.400 F7800.000
G1 X105.267 Y98.219 F7800.000
G1 F1989.4
G1 X101.422 Y94.374 E26.41353
G1 X100.806 Y94.188 E26.42884
G1 X100.304 Y94.138 E26.44083
G1 X105.503 Y99.336 E26.61575
G1 X105.556 Y99.874 E26.62859
G1 X105.520 Y100.235 E26.63722
G1 X99.406 Y94.121 E26.84295
G1 X98.729 Y94.188 E26.85915
G1 X98.624 Y94.219 E26.86175
G1 X105.422 Y101.017 E27.09048
G1 X105.217 Y101.693 E27.10729
G1 X97.948 Y94.424 E27.35187
G1 X97.730 Y94.490 E27.35728
G1 X97.341 Y94.698 E27.36778
G1 X104.943 Y102.300 E27.62356
G1 X104.629 Y102.867 E27.63898
G1 X96.774 Y95.012 E27.90330
G1 X96.290 Y95.409 E27.91820
G1 X104.232 Y103.351 E28.18543
G1 X103.997 Y103.637 E28.19425
G1 X103.799 Y103.799 E28.20033
G1 X95.841 Y95.841 E28.46810
G1 X95.444 Y96.325 E28.48299
G1 X103.315 Y104.196 E28.74785
G1 X103.190 Y104.299 E28.75170
G1 X102.765 Y104.527 E28.76318
G1 X95.114 Y96.876 E29.02062
G1 X94.850 Y97.371 E29.03396
G1 X94.821 Y97.464 E29.03629
G1 X102.177 Y104.819 E29.28378
G1 X101.501 Y105.024 E29.30059
G1 X94.617 Y98.140 E29.53224
G1 X94.547 Y98.369 E29.53793
G1 X94.495 Y98.899 E29.55060
G1 X100.726 Y105.131 E29.76030
G1 X100.233 Y105.180 E29.77210
G1 X99.857 Y105.143 E29.78108
G1 X94.480 Y99.765 E29.96203
G1 X94.547 Y100.447 E29.97832
G1 X94.663 Y100.830 E29.98785
G1 X98.811 Y104.978 E30.12743
G1 X98.196 Y104.791 E30.14274
G1 X97.275 Y104.299 E30.16758
G1 X97.144 Y104.192 E30.17161
G1 X95.448 Y102.495 E30.22870
G1 Z5.700 F7800.000
G1 X102.974 Y104.074 F7800.000
G1 F1979.62
G1 X104.434 Y102.613 E30.27784
G1 X104.645 Y102.356 E30.28574
G1 X105.135 Y101.439 E30.31050
G1 X105.313 Y100.854 E30.32505
G1 X101.213 Y104.953 E30.46300
G1 X100.803 Y105.078 E30.47320
G1 X100.143 Y105.143 E30.48898
G1 X105.502 Y99.783 E30.66932
G1 X105.539 Y99.408 E30.67828
G1 X105.490 Y98.914 E30.69010
G1 X99.274 Y105.131 E30.89930
G1 X98.732 Y105.078 E30.91224
G1 X98.512 Y105.011 E30.91770
G1 X105.371 Y98.153 E31.14847
G1 X105.166 Y97.477 E31.16528
G1 X97.837 Y104.806 E31.41189
G1 X97.737 Y104.776 E31.41437
G1 X97.247 Y104.514 E31.42757
G1 X104.874 Y96.888 E31.68419
G1 X104.645 Y96.460 E31.69575
G1 X104.544 Y96.337 E31.69953
G1 X96.696 Y104.185 E31.96360
G1 X96.212 Y103.788 E31.97849
G1 X104.147 Y95.853 E32.24548
G1 X103.985 Y95.656 E32.25155
G1 X103.699 Y95.421 E32.26037
G1 X95.780 Y103.339 E32.52682
G1 X95.383 Y102.855 E32.54171
G1 X103.215 Y95.023 E32.80525
G1 X102.647 Y94.710 E32.82068
G1 X95.070 Y102.287 E33.07564
G1 X94.865 Y101.904 E33.08598
G1 X94.797 Y101.679 E33.09157
G1 X102.039 Y94.437 E33.33525
G1 X101.363 Y94.233 E33.35206
G1 X94.592 Y101.003 E33.57990
G1 X94.563 Y100.908 E33.58226
G1 X94.495 Y100.219 E33.59873
G1 X100.579 Y94.136 E33.80345
G1 X100.233 Y94.101 E33.81172
G1 X99.677 Y94.156 E33.82501
G1 X94.516 Y99.318 E33.99868
G1 X94.563 Y98.838 E34.01015
G1 X94.758 Y98.194 E34.02615
G1 X98.554 Y94.399 E34.15386
G1 Z6.000 F7800.000
G1 X104.752 Y97.705 F7800.000
G1 F2026.12
G1 X104.655 Y97.384 E34.16185
G1 X104.166 Y96.469 E34.18652
G1 X103.508 Y95.667 E34.21120
G1 X102.707 Y95.009 E34.23587
G1 X101.792 Y94.521 E34.26054
G1 X101.471 Y94.423 E34.26853
G1 X105.218 Y98.170 E34.39460
G1 X105.466 Y99.300 F7800.000
G1 F2026.12
G1 X100.341 Y94.175 E34.56705
G1 X99.767 Y94.118 E34.58077
G1 X99.436 Y94.151 E34.58868
G1 X105.490 Y100.204 E34.79238
G1 X105.421 Y100.905 E34.80914
G1 X105.395 Y100.991 E34.81126
G1 X98.650 Y94.246 E35.03822
G1 X97.974 Y94.451 E35.05502
G1 X105.190 Y101.666 E35.29783
G1 X105.120 Y101.898 E35.30358
G1 X104.918 Y102.275 E35.31377
G1 X97.365 Y94.723 E35.56791
G1 X96.797 Y95.035 E35.58335
G1 X104.606 Y102.844 E35.84610
G1 X104.209 Y103.328 E35.86099
G1 X96.313 Y95.432 E36.12666
G1 X96.027 Y95.667 E36.13547
G1 X95.865 Y95.865 E36.14155
G1 X103.776 Y103.776 E36.40775
G1 X103.292 Y104.173 E36.42265
G1 X95.468 Y96.349 E36.68593
G1 X95.369 Y96.469 E36.68964
G1 X95.138 Y96.900 E36.70127
G1 X102.740 Y104.502 E36.95707
G1 X102.257 Y104.761 E36.97011
G1 X102.150 Y104.793 E36.97277
G1 X94.848 Y97.491 E37.21849
G1 X94.643 Y98.166 E37.23530
G1 X101.474 Y104.998 E37.46518
G1 X101.265 Y105.062 E37.47039
G1 X100.711 Y105.116 E37.48362
G1 X94.525 Y98.929 E37.69179
G1 X94.477 Y99.408 E37.70325
G1 X94.516 Y99.802 E37.71266
G1 X99.839 Y105.124 E37.89175
G1 X99.200 Y105.062 E37.90702
G1 X98.762 Y104.929 E37.91792
G1 X94.712 Y100.879 E38.05419
G1 X94.880 Y101.433 E38.06796
G1 X95.369 Y102.347 E38.09263
G1 X95.686 Y102.733 E38.10452
G1 X96.908 Y103.955 E38.14563
G1 X96.492 Y103.614 E38.15843
G1 X96.151 Y103.199 E38.17121
G1 Z6.300 F7800.000
G1 X103.210 Y103.838 F7800.000
G1 F1959.07
G1 X104.198 Y102.849 E38.20447
G1 X104.617 Y102.338 E38.22021
G1 X105.105 Y101.426 E38.24481
G1 X105.263 Y100.903 E38.25782
G1 X101.262 Y104.904 E38.39245
G1 X100.796 Y105.045 E38.40404
G1 X100.179 Y105.106 E38.41879
G1 X105.466 Y99.820 E38.59666
G1 X105.506 Y99.408 E38.60650
G1 X105.460 Y98.944 E38.61760
G1 X99.304 Y105.101 E38.82477
G1 X98.738 Y105.045 E38.83828
G1 X98.539 Y104.985 E38.84324
G1 X105.344 Y98.179 E39.07224
G1 X105.139 Y97.504 E39.08904
G1 X97.863 Y104.780 E39.33388
G1 X97.749 Y104.745 E39.33671
G1 X97.272 Y104.490 E39.34959
G1 X104.849 Y96.912 E39.60458
G1 X104.617 Y96.478 E39.61629
G1 X104.521 Y96.360 E39.61992
G1 X96.720 Y104.161 E39.88242
G1 X96.236 Y103.764 E39.89731
G1 X104.124 Y95.876 E40.16273
G1 X103.962 Y95.679 E40.16880
G1 X103.675 Y95.444 E40.17763
G1 X95.803 Y103.316 E40.44251
G1 X95.406 Y102.832 E40.45740
G1 X103.191 Y95.047 E40.71936
G1 X102.623 Y94.735 E40.73480
G1 X95.094 Y102.263 E40.98813
G1 X94.895 Y101.892 E40.99816
G1 X94.823 Y101.653 E41.00409
G1 X102.013 Y94.464 E41.24600
G1 X101.337 Y94.259 E41.26281
G1 X94.618 Y100.977 E41.48887
G1 X94.595 Y100.902 E41.49074
G1 X94.525 Y100.189 E41.50778
G1 X100.549 Y94.166 E41.71047
G1 X100.233 Y94.135 E41.71803
G1 X99.640 Y94.193 E41.73218
G1 X94.552 Y99.281 E41.90339
G1 X94.595 Y98.844 E41.91384
G1 X94.807 Y98.145 E41.93122
G1 X98.505 Y94.448 E42.05562
G1 Z6.600 F7800.000
G1 X104.703 Y97.655 F7800.000
G1 F1995.31
G1 X104.624 Y97.396 E42.06207
G1 X104.138 Y96.487 E42.08659
G1 X103.485 Y95.691 E42.11111
G1 X102.688 Y95.037 E42.13563
G1 X101.781 Y94.552 E42.16011
G1 X101.525 Y94.478 E42.16645
G1 X105.168 Y98.121 E42.28904
G1 X105.429 Y99.263 F7800.000
G1 F1995.31
G1 X100.378 Y94.211 E42.45903
G1 X99.767 Y94.151 E42.47362
G1 X99.466 Y94.181 E42.48082
G1 X105.460 Y100.174 E42.68250
G1 X105.369 Y100.964 E42.70141
G1 X98.677 Y94.272 E42.92660
G1 X98.001 Y94.477 E42.94341
G1 X105.164 Y101.640 E43.18444
G1 X105.089 Y101.885 E43.19054
G1 X104.894 Y102.251 E43.20041
G1 X97.390 Y94.747 E43.45292
G1 X96.820 Y95.059 E43.46836
G1 X104.582 Y102.820 E43.72954
G1 X104.185 Y103.304 E43.74443
G1 X96.337 Y95.456 E44.00853
G1 X96.050 Y95.691 E44.01735
G1 X95.888 Y95.888 E44.02342
G1 X103.753 Y103.753 E44.28806
G1 X103.269 Y104.150 E44.30296
G1 X95.491 Y96.372 E44.56467
G1 X95.396 Y96.487 E44.56822
G1 X95.163 Y96.925 E44.58001
G1 X102.716 Y104.478 E44.83418
G1 X102.245 Y104.730 E44.84690
G1 X102.124 Y104.767 E44.84990
G1 X94.874 Y97.517 E45.09386
G1 X94.669 Y98.193 E45.11066
G1 X101.448 Y104.972 E45.33877
G1 X101.258 Y105.029 E45.34349
G1 X100.681 Y105.086 E45.35728
G1 X94.555 Y98.959 E45.56343
G1 X94.511 Y99.408 E45.57417
G1 X94.553 Y99.839 E45.58445
G1 X99.802 Y105.088 E45.76109
G1 X99.207 Y105.029 E45.77532
G1 X98.713 Y104.879 E45.78760
G1 X94.761 Y100.928 E45.92056
G1 X94.911 Y101.420 E45.93280
G1 X95.396 Y102.329 E45.95731
G1 X95.922 Y102.969 E45.97702
G1 X96.672 Y103.719 E46.00227
G1 X96.515 Y103.591 E46.00708
G1 X96.387 Y103.434 E46.01190
G1 Z6.900 F7800.000
G1 X101.346 Y104.820 F7800.000
G1 F1942.57
G1 X105.180 Y100.987 E46.14090
G1 X105.350 Y100.426 E46.15485
G1 X105.403 Y99.882 E46.16784
G1 X100.242 Y105.044 E46.34153
G1 X99.768 Y105.091 E46.35286
G1 X99.355 Y105.050 E46.36274
G1 X105.409 Y98.995 E46.56647
G1 X105.350 Y98.390 E46.58094
G1 X105.300 Y98.224 E46.58507
G1 X98.584 Y104.940 E46.81106
G1 X97.908 Y104.735 E46.82786
G1 X105.095 Y97.548 E47.06969
G1 X105.053 Y97.411 E47.07309
G1 X104.808 Y96.954 E47.08544
G1 X97.313 Y104.449 E47.33765
G1 X96.869 Y104.211 E47.34964
G1 X96.759 Y104.122 E47.35301
G1 X104.481 Y96.400 E47.61284
G1 X104.084 Y95.916 E47.62773
G1 X96.275 Y103.725 E47.89049
G1 X96.078 Y103.563 E47.89656
G1 X95.843 Y103.276 E47.90538
G1 X103.636 Y95.483 E48.16760
G1 X103.152 Y95.086 E48.18250
G1 X95.446 Y102.792 E48.44179
G1 X95.135 Y102.222 E48.45724
G1 X102.581 Y94.776 E48.70780
G1 X102.229 Y94.588 E48.71729
G1 X101.968 Y94.508 E48.72380
G1 X94.868 Y101.609 E48.96271
G1 X94.663 Y100.932 E48.97952
G1 X101.292 Y94.303 E49.20257
G1 X100.498 Y94.217 E49.22158
G1 X94.576 Y100.138 E49.42084
G1 X94.550 Y99.874 E49.42717
G1 X94.615 Y99.219 E49.44282
G1 X99.578 Y94.255 E49.60985
G1 X99.215 Y94.291 E49.61854
G1 X98.421 Y94.532 E49.63828
G1 X94.891 Y98.062 E49.75706
G1 X94.947 Y97.877 E49.76166
G1 X95.429 Y96.975 E49.78600
G1 X96.078 Y96.184 E49.81033
G1 X96.869 Y95.535 E49.83467
G1 X97.771 Y95.053 E49.85900
G1 X97.956 Y94.997 E49.86361
G1 Z7.200 F7800.000
G1 X95.363 Y101.529 F7800.000
G1 F1920.98
G1 X95.460 Y101.850 E49.87158
G1 X95.937 Y102.743 E49.89568
G1 X96.580 Y103.526 E49.91978
G1 X97.363 Y104.168 E49.94387
G1 X98.256 Y104.646 E49.96796
G1 X98.577 Y104.743 E49.97594
G1 X94.898 Y101.064 E50.09974
G1 X94.701 Y100.416 E50.11586
G1 X94.654 Y99.940 E50.12724
G1 X99.701 Y104.987 E50.29706
G1 X100.233 Y105.039 E50.30978
G1 X100.598 Y105.003 E50.31851
G1 X94.638 Y99.042 E50.51907
G1 X94.701 Y98.400 E50.53443
G1 X94.742 Y98.266 E50.53778
G1 X101.375 Y104.899 E50.76098
G1 X102.051 Y104.694 E50.77779
G1 X94.947 Y97.590 E51.01684
G1 X94.995 Y97.431 E51.02078
G1 X95.230 Y96.992 E51.03264
G1 X102.649 Y104.411 E51.28229
G1 X103.103 Y104.168 E51.29453
G1 X103.204 Y104.085 E51.29765
G1 X95.556 Y96.437 E51.55502
G1 X95.953 Y95.953 E51.56991
G1 X103.688 Y103.688 E51.83021
G1 X103.886 Y103.526 E51.83628
G1 X104.121 Y103.240 E51.84510
G1 X96.401 Y95.520 E52.10485
G1 X96.885 Y95.123 E52.11974
G1 X104.518 Y102.756 E52.37657
G1 X104.827 Y102.184 E52.39204
G1 X97.457 Y94.814 E52.64004
G1 X97.791 Y94.635 E52.64904
G1 X98.073 Y94.550 E52.65608
G1 X105.091 Y101.567 E52.89221
G1 X105.296 Y100.891 E52.90901
G1 X98.749 Y94.345 E53.12930
G1 X99.549 Y94.264 E53.14844
G1 X105.377 Y100.091 E53.34452
G1 X105.398 Y99.874 E53.34973
G1 X105.328 Y99.162 E53.36675
G1 X100.479 Y94.312 E53.52992
G1 X100.775 Y94.342 E53.53700
G1 X101.656 Y94.609 E53.55890
G1 X105.032 Y97.984 E53.67249
G1 Z7.500 F7800.000
G1 X101.500 Y104.666 F7800.000
G1 F1887.36
G1 X105.025 Y101.141 E53.79110
G1 X105.249 Y100.406 E53.80939
G1 X105.289 Y99.997 E53.81916
G1 X100.356 Y104.929 E53.98513
G1 X99.768 Y104.987 E53.99920
G1 X99.449 Y104.956 E54.00683
G1 X105.315 Y99.090 E54.20422
G1 X105.249 Y98.410 E54.22046
G1 X105.217 Y98.307 E54.22304
G1 X98.666 Y104.858 E54.44348
G1 X97.990 Y104.653 E54.46028
G1 X105.012 Y97.631 E54.69656
G1 X104.957 Y97.451 E54.70103
G1 X104.732 Y97.030 E54.71239
G1 X97.389 Y104.373 E54.95948
G1 X96.926 Y104.126 E54.97197
G1 X96.832 Y104.048 E54.97486
G1 X104.408 Y96.473 E55.22976
G1 X104.011 Y95.989 E55.24466
G1 X96.349 Y103.651 E55.50249
G1 X96.151 Y103.490 E55.50856
G1 X95.916 Y103.203 E55.51738
G1 X103.562 Y95.557 E55.77467
G1 X103.078 Y95.160 E55.78956
G1 X95.519 Y102.719 E56.04393
G1 X95.211 Y102.146 E56.05941
G1 X102.505 Y94.852 E56.30485
G1 X102.190 Y94.683 E56.31336
G1 X101.885 Y94.591 E56.32093
G1 X94.950 Y101.526 E56.55428
G1 X94.749 Y100.846 E56.57115
G1 X101.205 Y94.390 E56.78839
G1 X100.404 Y94.311 E56.80757
G1 X94.670 Y100.044 E57.00048
G1 X94.653 Y99.874 E57.00456
G1 X94.729 Y99.104 E57.02296
G1 X99.464 Y94.370 E57.18226
G1 X99.235 Y94.392 E57.18774
G1 X98.262 Y94.690 E57.21194
G1 X95.050 Y97.903 E57.32003
G1 X95.515 Y97.032 E57.34352
G1 X96.151 Y96.257 E57.36738
G1 X96.926 Y95.621 E57.39123
G1 X97.797 Y95.156 E57.41472
G1 Z7.800 F7800.000
G1 X95.517 Y101.684 F7800.000
G1 F1864.79
G1 X95.556 Y101.811 E57.41788
G1 X96.024 Y102.686 E57.44149
G1 X96.653 Y103.453 E57.46511
G1 X97.420 Y104.083 E57.48872
G1 X98.295 Y104.550 E57.51233
G1 X98.422 Y104.589 E57.51548
G1 X95.052 Y101.218 E57.62889
G1 X94.803 Y100.396 E57.64934
G1 X94.769 Y100.054 E57.65750
G1 X99.586 Y104.872 E57.81961
G1 X100.233 Y104.935 E57.83506
G1 X100.504 Y104.909 E57.84154
G1 X94.732 Y99.137 E58.03577
G1 X94.803 Y98.420 E58.05289
G1 X94.824 Y98.348 E58.05469
G1 X101.293 Y104.816 E58.27234
G1 X101.969 Y104.611 E58.28915
G1 X95.029 Y97.672 E58.52264
G1 X95.090 Y97.471 E58.52765
G1 X95.306 Y97.068 E58.53852
G1 X102.573 Y104.335 E58.78305
G1 X103.045 Y104.083 E58.79579
G1 X103.131 Y104.012 E58.79843
G1 X95.629 Y96.510 E59.05088
G1 X96.026 Y96.026 E59.06577
G1 X103.615 Y103.615 E59.32114
G1 X103.812 Y103.453 E59.32721
G1 X104.047 Y103.166 E59.33603
G1 X96.474 Y95.593 E59.59085
G1 X96.959 Y95.197 E59.60575
G1 X104.444 Y102.682 E59.85761
G1 X104.751 Y102.108 E59.87310
G1 X97.533 Y94.890 E60.11598
G1 X97.830 Y94.731 E60.12400
G1 X98.156 Y94.632 E60.13210
G1 X105.008 Y101.485 E60.36268
G1 X105.204 Y100.799 E60.37964
G1 X98.842 Y94.437 E60.59372
G1 X99.644 Y94.358 E60.61290
G1 X105.283 Y99.997 E60.80264
G1 X105.295 Y99.874 E60.80559
G1 X105.214 Y99.047 E60.82535
G1 X100.594 Y94.427 E60.98081
G1 X100.755 Y94.443 E60.98467
G1 X101.705 Y94.731 E61.00828
G1 X101.863 Y94.816 E61.01255
G1 X104.825 Y97.777 E61.11221
G1 Z8.100 F7800.000
G1 X101.655 Y104.512 F7800.000
G1 F1827.23
G1 X104.871 Y101.296 E61.22042
G1 X105.147 Y100.386 E61.24305
G1 X105.174 Y100.112 E61.24960
G1 X100.471 Y104.815 E61.40786
G1 X99.768 Y104.884 E61.42467
G1 X99.543 Y104.862 E61.43004
G1 X105.221 Y99.184 E61.62109
G1 X105.135 Y98.389 E61.64011
G1 X98.748 Y104.775 E61.85500
G1 X98.073 Y104.570 E61.87181
G1 X104.929 Y97.713 E62.10253
G1 X104.862 Y97.491 E62.10807
G1 X104.656 Y97.106 E62.11845
G1 X97.465 Y104.297 E62.36042
G1 X96.984 Y104.040 E62.37340
G1 X96.906 Y103.975 E62.37581
G1 X104.335 Y96.546 E62.62579
G1 X103.938 Y96.062 E62.64069
G1 X96.422 Y103.578 E62.89359
G1 X96.224 Y103.416 E62.89966
G1 X95.989 Y103.130 E62.90848
G1 X103.489 Y95.630 E63.16085
G1 X103.003 Y95.235 E63.17575
G1 X95.594 Y102.644 E63.42505
G1 X95.287 Y102.070 E63.44053
G1 X102.429 Y94.928 E63.68085
G1 X102.150 Y94.779 E63.68838
G1 X101.803 Y94.674 E63.69701
G1 X95.033 Y101.443 E63.92481
G1 X94.853 Y100.851 E63.93955
G1 X94.843 Y100.752 E63.94191
G1 X101.111 Y94.484 E64.15282
G1 X100.309 Y94.405 E64.17199
G1 X94.764 Y99.950 E64.35857
G1 X94.757 Y99.874 E64.36040
G1 X94.844 Y98.990 E64.38154
G1 X99.349 Y94.485 E64.53312
G1 X99.255 Y94.494 E64.53537
G1 X98.315 Y94.779 E64.55873
G1 X98.011 Y94.941 E64.56694
G1 X95.301 Y97.652 E64.65814
G1 X95.601 Y97.090 E64.67330
G1 X96.225 Y96.330 E64.69667
G1 X96.984 Y95.707 E64.72005
G1 X97.546 Y95.407 E64.73521
G1 Z8.400 F7800.000
G1 X95.705 Y101.871 F7800.000
G1 F1805.99
G1 X96.110 Y102.628 E64.75563
G1 X96.726 Y103.380 E64.77876
G1 X97.478 Y103.997 E64.80189
G1 X98.234 Y104.401 E64.82230
G1 X95.240 Y101.406 E64.92307
G1 X95.186 Y101.306 E64.92578
G1 X94.904 Y100.376 E64.94891
G1 X94.884 Y100.169 E64.95384
G1 X99.472 Y104.757 E65.10823
G1 X100.233 Y104.832 E65.12643
G1 X100.410 Y104.814 E65.13066
G1 X94.826 Y99.231 E65.31854
G1 X94.907 Y98.431 E65.33768
G1 X101.210 Y104.734 E65.54978
G1 X101.886 Y104.529 E65.56658
G1 X95.112 Y97.755 E65.79453
G1 X95.186 Y97.510 E65.80060
G1 X95.382 Y97.144 E65.81049
G1 X102.497 Y104.259 E66.04990
G1 X102.988 Y103.997 E66.06314
G1 X103.058 Y103.939 E66.06530
G1 X95.702 Y96.583 E66.31282
G1 X96.099 Y96.099 E66.32771
G1 X103.542 Y103.542 E66.57815
G1 X103.739 Y103.380 E66.58423
G1 X103.974 Y103.093 E66.59304
G1 X96.548 Y95.667 E66.84295
G1 X97.035 Y95.273 E66.85785
G1 X104.368 Y102.606 E67.10460
G1 X104.675 Y102.032 E67.12009
G1 X97.609 Y94.966 E67.35784
G1 X97.870 Y94.827 E67.36488
G1 X98.238 Y94.715 E67.37405
G1 X104.926 Y101.402 E67.59907
G1 X105.097 Y100.841 E67.61304
G1 X105.110 Y100.705 E67.61628
G1 X98.936 Y94.531 E67.82403
G1 X99.738 Y94.452 E67.84320
G1 X105.188 Y99.903 E68.02661
G1 X105.099 Y98.933 E68.04979
G1 X100.709 Y94.543 E68.19750
G1 X101.666 Y94.827 E68.22123
G1 X102.114 Y95.067 E68.23333
G1 X104.574 Y97.527 E68.31611
G1 Z8.700 F7800.000
G1 X101.975 Y104.192 F7800.000
G1 F1743.32
G1 X104.551 Y101.615 E68.40279
G1 X104.734 Y101.273 E68.41204
G1 X105.012 Y100.359 E68.43477
G1 X105.021 Y100.265 E68.43702
G1 X100.624 Y104.662 E68.58497
G1 X99.768 Y104.745 E68.60544
G1 X99.669 Y104.736 E68.60780
G1 X105.095 Y99.310 E68.79039
G1 X105.017 Y98.507 E68.80957
G1 X98.866 Y104.657 E69.01652
G1 X98.183 Y104.460 E69.03345
G1 X104.819 Y97.824 E69.25675
G1 X104.734 Y97.543 E69.26372
G1 X104.555 Y97.207 E69.27279
G1 X97.567 Y104.195 E69.50792
G1 X97.061 Y103.925 E69.52157
G1 X97.003 Y103.878 E69.52334
G1 X104.237 Y96.644 E69.76675
G1 X103.840 Y96.160 E69.78164
G1 X96.519 Y103.481 E70.02797
G1 X96.322 Y103.319 E70.03404
G1 X96.087 Y103.032 E70.04286
G1 X103.391 Y95.728 E70.28865
G1 X102.902 Y95.337 E70.30356
G1 X95.696 Y102.542 E70.54603
G1 X95.389 Y101.968 E70.56151
G1 X102.328 Y95.030 E70.79499
G1 X102.097 Y94.906 E70.80121
G1 X101.693 Y94.784 E70.81127
G1 X95.143 Y101.333 E71.03165
G1 X94.989 Y100.824 E71.04431
G1 X94.969 Y100.626 E71.04904
G1 X100.986 Y94.610 E71.25148
G1 X100.173 Y94.541 E71.27088
G1 X94.901 Y99.814 E71.44828
G1 X94.989 Y98.923 E71.46958
G1 X95.023 Y98.811 E71.47236
G1 X99.170 Y94.663 E71.61193
G1 X98.368 Y94.906 E71.63187
G1 X97.676 Y95.277 E71.65056
G1 X95.636 Y97.316 E71.71919
G1 X95.716 Y97.167 E71.72323
G1 X96.322 Y96.428 E71.74596
G1 X97.061 Y95.822 E71.76869
G1 X97.211 Y95.742 E71.77273
G1 Z9.000 F7800.000
G1 X96.141 Y102.308 F7800.000
G1 F1691.02
G1 X96.259 Y102.529 E71.77870
G1 X96.853 Y103.253 E71.80098
G1 X97.578 Y103.847 E71.82328
G1 X97.799 Y103.965 E71.82924
G1 X95.676 Y101.842 E71.90068
G1 X95.352 Y101.237 E71.91702
G1 X95.091 Y100.377 E71.93840
G1 X99.264 Y104.550 E72.07882
G1 X100.246 Y104.651 E72.10230
G1 X94.990 Y99.394 E72.27918
G1 X95.069 Y98.592 E72.29835
G1 X101.049 Y104.572 E72.49957
G1 X101.165 Y104.561 E72.50236
G1 X101.743 Y104.385 E72.51671
G1 X95.255 Y97.898 E72.73500
G1 X95.352 Y97.579 E72.74293
G1 X95.514 Y97.276 E72.75111
G1 X102.365 Y104.127 E72.98163
G1 X102.888 Y103.847 E72.99574
G1 X102.931 Y103.812 E72.99706
G1 X95.829 Y96.710 E73.23603
G1 X96.226 Y96.226 E73.25092
G1 X103.415 Y103.415 E73.49281
G1 X103.612 Y103.253 E73.49889
G1 X103.847 Y102.966 E73.50771
G1 X96.675 Y95.794 E73.74906
G1 X97.167 Y95.405 E73.76398
G1 X104.236 Y102.474 E74.00184
G1 X104.542 Y101.900 E74.01733
G1 X97.741 Y95.098 E74.24618
G1 X97.939 Y94.993 E74.25151
G1 X98.382 Y94.858 E74.26253
G1 X104.783 Y101.259 E74.47791
G1 X104.920 Y100.806 E74.48918
G1 X104.946 Y100.541 E74.49550
G1 X99.099 Y94.695 E74.69223
G1 X99.767 Y94.629 E74.70820
G1 X99.931 Y94.645 E74.71210
G1 X104.995 Y99.710 E74.88254
G1 X104.920 Y98.941 E74.90093
G1 X104.839 Y98.672 E74.90760
G1 X100.969 Y94.803 E75.03781
G1 X101.596 Y94.993 E75.05341
G1 X102.423 Y95.434 E75.07571
G1 X102.752 Y95.705 E75.08585
G1 X103.936 Y96.888 E75.12567
G1 Z9.300 F7800.000
G1 X98.892 Y94.942 F7800.000
G1 F1571.28
G1 X95.301 Y98.532 E75.24649
G1 X95.172 Y98.959 E75.25710
G1 X95.108 Y99.607 E75.27258
G1 X99.966 Y94.748 E75.43605
G1 X100.232 Y94.722 E75.44242
G1 X100.816 Y94.780 E75.45637
G1 X95.139 Y100.456 E75.64738
G1 X95.172 Y100.788 E75.65530
G1 X95.292 Y101.184 E75.66517
G1 X101.544 Y94.933 E75.87552
G1 X102.026 Y95.079 E75.88751
G1 X102.190 Y95.167 E75.89195
G1 X95.526 Y101.831 E76.11619
G1 X95.833 Y102.405 E76.13168
G1 X102.764 Y95.474 E76.36491
G1 X102.836 Y95.512 E76.36684
G1 X103.260 Y95.859 E76.37988
G1 X96.219 Y102.900 E76.61679
G1 X96.454 Y103.187 E76.62561
G1 X96.651 Y103.349 E76.63168
G1 X103.708 Y96.292 E76.86913
G1 X104.105 Y96.776 E76.88403
G1 X97.135 Y103.746 E77.11856
G1 X97.704 Y104.058 E77.13399
G1 X104.417 Y97.345 E77.35989
G1 X104.562 Y97.615 E77.36718
G1 X104.670 Y97.972 E77.37607
G1 X98.332 Y104.311 E77.58936
G1 X98.853 Y104.469 E77.60232
G1 X99.036 Y104.487 E77.60670
G1 X104.847 Y98.677 E77.80221
G1 X104.918 Y99.408 E77.81969
G1 X104.910 Y99.495 E77.82176
G1 X99.854 Y104.550 E77.99187
G1 X100.682 Y104.469 E78.01165
G1 X100.875 Y104.411 E78.01646
G1 X104.770 Y100.516 E78.14752
G1 X104.562 Y101.201 E78.16457
G1 X104.129 Y102.012 E78.18643
G1 X104.010 Y102.156 E78.19088
G1 X102.516 Y103.651 E78.24117
G1 Z9.600 F7800.000
G1 X104.789 Y99.503 F7800.000
G1 F1521.3
G1 X100.137 Y94.852 E78.39768
G1 X99.767 Y94.815 E78.40653
G1 X99.269 Y94.865 E78.41844
G1 X104.776 Y100.372 E78.60375
G1 X104.737 Y100.769 E78.61326
G1 X104.634 Y101.110 E78.62173
G1 X98.531 Y95.007 E78.82708
G1 X98.010 Y95.165 E78.84003
G1 X97.878 Y95.236 E78.84359
G1 X104.405 Y101.762 E79.06320
G1 X104.099 Y102.337 E79.07869
G1 X97.304 Y95.542 E79.30732
G1 X97.216 Y95.590 E79.30970
G1 X96.806 Y95.926 E79.32230
G1 X103.715 Y102.834 E79.55478
G1 X103.480 Y103.121 E79.56359
G1 X103.283 Y103.283 E79.56967
G1 X96.358 Y96.358 E79.80268
G1 X95.961 Y96.842 E79.81758
G1 X102.799 Y103.680 E80.04767
G1 X102.227 Y103.989 E80.06313
G1 X95.651 Y97.413 E80.28441
G1 X95.525 Y97.651 E80.29081
G1 X95.404 Y98.047 E80.30067
G1 X101.594 Y104.237 E80.50893
G1 X101.129 Y104.378 E80.52049
G1 X100.879 Y104.402 E80.52648
G1 X95.239 Y98.762 E80.71626
G1 X95.175 Y99.408 E80.73170
G1 X95.194 Y99.598 E80.73624
G1 X100.042 Y104.447 E80.89939
G1 X99.337 Y104.378 E80.91627
G1 X98.986 Y104.271 E80.92499
G1 X95.370 Y100.655 E81.04666
G1 X104.095 Y97.928 F7800.000
G1 F1521.3
G1 X104.010 Y97.651 E81.05356
G1 X103.586 Y96.857 E81.07497
G1 X103.015 Y96.161 E81.09640
G1 X102.319 Y95.590 E81.11782
G1 X101.525 Y95.165 E81.13924
G1 X101.248 Y95.081 E81.14614
G1 X104.560 Y98.393 E81.25759
G1 Z9.900 F7800.000
G1 X101.154 Y104.132 F7800.000
G1 F1490.46
G1 X104.491 Y100.794 E81.36988
G1 X104.646 Y100.286 E81.38253
G1 X104.703 Y99.702 E81.39650
G1 X100.061 Y104.344 E81.55269
G1 X99.768 Y104.372 E81.55970
G1 X99.206 Y104.317 E81.57312
G1 X104.677 Y98.847 E81.75719
G1 X104.646 Y98.530 E81.76477
G1 X104.521 Y98.121 E81.77493
G1 X98.481 Y104.162 E81.97819
G1 X98.046 Y104.030 E81.98901
G1 X97.841 Y103.921 E81.99453
G1 X104.280 Y97.482 E82.21119
G1 X103.973 Y96.908 E82.22667
G1 X97.267 Y103.614 E82.45233
G1 X96.783 Y103.217 E82.46722
G1 X103.576 Y96.424 E82.69580
G1 X103.414 Y96.227 E82.70187
G1 X103.128 Y95.991 E82.71069
G1 X96.351 Y102.768 E82.93873
G1 X96.027 Y102.373 E82.95089
G1 X95.970 Y102.268 E82.95373
G1 X102.627 Y95.611 E83.17773
G1 X102.053 Y95.304 E83.19322
G1 X95.664 Y101.694 E83.40822
G1 X95.611 Y101.595 E83.41088
G1 X95.441 Y101.035 E83.42480
G1 X101.395 Y95.082 E83.62514
G1 X101.111 Y94.995 E83.63220
G1 X100.646 Y94.949 E83.64331
G1 X95.309 Y100.286 E83.82290
G1 X95.268 Y99.874 E83.83277
G1 X95.315 Y99.399 E83.84411
G1 X99.759 Y94.955 E83.99365
G1 X99.355 Y94.995 E84.00331
G1 X98.613 Y95.220 E84.02175
G1 X95.580 Y98.254 E84.12382
G1 X95.611 Y98.152 E84.12636
G1 X96.027 Y97.374 E84.14735
G1 X96.586 Y96.692 E84.16833
G1 X97.268 Y96.132 E84.18932
G1 X98.046 Y95.717 E84.21031
G1 X98.148 Y95.686 E84.21284
M106 S252.45
G1 Z10.200 F7800.000
G1 X103.328 Y96.809 F7800.000
G1 F1200
G1 X102.832 Y96.313 E84.23279
G1 X102.173 Y95.772 E84.25704
G1 X101.419 Y95.369 E84.28134
G1 X100.733 Y95.161 E84.30176
G1 X104.480 Y98.908 E84.45249
G1 X104.520 Y99.038 E84.45635
G1 X104.603 Y99.888 E84.48064
G1 X104.595 Y99.971 E84.48300
G1 X99.675 Y95.051 E84.68086
G1 X98.902 Y95.122 E84.70295
G1 X98.822 Y95.146 E84.70532
G1 X104.495 Y100.819 E84.93349
G1 X104.274 Y101.545 E84.95509
G1 X98.095 Y95.367 E85.20361
G1 X97.476 Y95.695 E85.22355
G1 X103.946 Y102.165 E85.48376
G1 X103.869 Y102.308 E85.48838
G1 X103.541 Y102.708 E85.50309
G1 X96.933 Y96.100 E85.76888
G1 X96.673 Y96.313 E85.77845
G1 X96.459 Y96.574 E85.78803
G1 X103.067 Y103.182 E86.05381
G1 X102.668 Y103.510 E86.06852
G1 X102.524 Y103.586 E86.07314
G1 X96.055 Y97.117 E86.33335
G1 X95.726 Y97.736 E86.35328
G1 X101.905 Y103.915 E86.60180
G1 X101.178 Y104.136 E86.62341
G1 X95.505 Y98.463 E86.85157
G1 X95.481 Y98.544 E86.85396
G1 X95.405 Y99.311 E86.87588
G1 X100.330 Y104.235 E87.07397
G1 X100.248 Y104.243 E87.07632
G1 X99.397 Y104.160 E87.10062
G1 X99.268 Y104.121 E87.10447
G1 X95.520 Y100.373 E87.25520
G1 X95.729 Y101.060 E87.27561
G1 X96.131 Y101.814 E87.29991
G1 X96.672 Y102.473 E87.32416
G1 X97.167 Y102.967 E87.34404
G1 Z10.500 F7800.000
G1 E85.34404 F2400.00000
G92 E0
G1 X102.729 Y102.865 F7800.000
G1 E2.00000 F2400.00000
G1 F1200
G1 X103.225 Y102.369 E2.01927
G1 X103.748 Y101.732 E2.04193
G1 X104.136 Y101.004 E2.06462
G1 X104.338 Y100.340 E2.08370
G1 X100.700 Y103.979 E2.22513
G1 X100.574 Y104.017 E2.22873
G1 X99.753 Y104.097 E2.25141
G1 X99.673 Y104.089 E2.25363
G1 X104.449 Y99.314 E2.43927
G1 X104.376 Y98.572 E2.45975
G1 X104.352 Y98.494 E2.46199
G1 X98.853 Y103.993 E2.67575
G1 X98.151 Y103.780 E2.69593
G1 X104.139 Y97.792 E2.92870
G1 X103.822 Y97.193 E2.94732
G1 X97.553 Y103.462 E3.19100
G1 X97.414 Y103.388 E3.19532
G1 X97.028 Y103.071 E3.20906
G1 X103.430 Y96.668 E3.45795
G1 X103.224 Y96.417 E3.46689
G1 X102.973 Y96.210 E3.47583
G1 X96.570 Y102.613 E3.72472
G1 X96.253 Y102.227 E3.73845
G1 X96.179 Y102.088 E3.74278
G1 X102.448 Y95.819 E3.98646
G1 X101.849 Y95.502 E4.00508
G1 X95.861 Y101.490 E4.23785
G1 X95.648 Y100.787 E4.25804
G1 X101.147 Y95.288 E4.47179
G1 X101.069 Y95.265 E4.47403
G1 X100.328 Y95.192 E4.49450
G1 X95.551 Y99.968 E4.68017
G1 X95.543 Y99.888 E4.68238
G1 X95.624 Y99.067 E4.70507
G1 X95.662 Y98.941 E4.70868
G1 X99.300 Y95.303 E4.85010
G1 X98.636 Y95.504 E4.86918
G1 X97.909 Y95.893 E4.89186
G1 X97.271 Y96.416 E4.91451
G1 X96.777 Y96.911 E4.93373
M106 S255
G1 Z10.800 F7800.000
G1 E2.93373 F2400.00000
G92 E0
G1 X96.879 Y102.266 F7800.000
G1 E2.00000 F2400.00000
G1 F1154.56
G1 X97.375 Y102.762 E2.02016
G1 X97.990 Y103.267 E2.04303
G1 X98.692 Y103.642 E2.06593
G1 X99.439 Y103.869 E2.08836
G1 X95.772 Y100.202 E2.23742
G1 X95.689 Y99.394 E2.26077
G1 X95.710 Y99.182 E2.26689
G1 X100.459 Y103.930 E2.45991
G1 X101.040 Y103.873 E2.47670
G1 X101.285 Y103.799 E2.48406
G1 X95.842 Y98.356 E2.70532
G1 X95.999 Y97.839 E2.72086
G1 X96.098 Y97.654 E2.72688
G1 X101.987 Y103.543 E2.96628
G1 X102.505 Y103.267 E2.98316
G1 X102.595 Y103.193 E2.98649
G1 X96.448 Y97.046 E3.23635
G1 X96.879 Y96.520 E3.25591
G1 X103.121 Y102.761 E3.50961
G1 X103.552 Y102.235 E3.52917
G1 X97.406 Y96.089 E3.77903
G1 X97.495 Y96.015 E3.78237
G1 X98.013 Y95.738 E3.79924
G1 X103.903 Y101.628 E4.03864
G1 X104.001 Y101.443 E4.04467
G1 X104.158 Y100.926 E4.06020
G1 X98.715 Y95.483 E4.28146
G1 X98.960 Y95.408 E4.28882
G1 X99.541 Y95.351 E4.30560
G1 X104.290 Y100.099 E4.49863
G1 X104.310 Y99.888 E4.50472
G1 X104.228 Y99.080 E4.52808
G1 X100.561 Y95.413 E4.67714
G1 X101.308 Y95.639 E4.69958
G1 X102.011 Y96.015 E4.72248
G1 X102.625 Y96.519 E4.74534
G1 X103.121 Y97.015 E4.76550
G1 Z11.100 F7800.000
G1 E2.76550 F2400.00000
G92 E0
G1 X97.478 Y96.623 F7800.000
G1 E2.00000 F2400.00000
G1 F1116.95
G1 X96.982 Y97.119 E2.01943
G1 X96.496 Y97.712 E2.04068
G1 X96.134 Y98.389 E2.06196
G1 X95.916 Y99.108 E2.08280
G1 X99.468 Y95.556 E2.22200
G1 X100.247 Y95.476 E2.24370
G1 X100.451 Y95.496 E2.24938
G1 X95.856 Y100.092 E2.42946
G1 X95.911 Y100.652 E2.44507
G1 X95.983 Y100.888 E2.45190
G1 X101.248 Y95.623 E2.65822
G1 X101.746 Y95.775 E2.67267
G1 X101.924 Y95.870 E2.67826
G1 X96.229 Y101.565 E2.90144
G1 X96.496 Y102.064 E2.91713
G1 X96.567 Y102.151 E2.92023
G1 X102.510 Y96.207 E3.15313
G1 X103.017 Y96.623 E3.17131
G1 X96.983 Y102.658 E3.40778
G1 X97.490 Y103.074 E3.42596
G1 X103.433 Y97.131 E3.65886
G1 X103.505 Y97.217 E3.66197
G1 X103.771 Y97.716 E3.67765
G1 X98.076 Y103.412 E3.90084
G1 X98.254 Y103.507 E3.90644
G1 X98.752 Y103.658 E3.92087
G1 X104.018 Y98.393 E4.12720
G1 X104.090 Y98.629 E4.13405
G1 X104.144 Y99.190 E4.14964
G1 X99.549 Y103.785 E4.32972
G1 X99.753 Y103.805 E4.33541
G1 X100.532 Y103.726 E4.35709
G1 X104.085 Y100.172 E4.49634
G1 X103.866 Y100.893 E4.51720
G1 X103.505 Y101.570 E4.53848
G1 X103.018 Y102.163 E4.55973
G1 X102.522 Y102.659 E4.57916
G1 Z11.400 F7800.000
G1 E2.57916 F2400.00000
G92 E0
G1 X97.580 Y102.554 F7800.000
G1 E2.00000 F2400.00000
G1 F997.57
G1 X97.085 Y102.059 E2.02035
G1 X96.617 Y101.489 E2.04182
G1 X96.269 Y100.837 E2.06333
G1 X96.054 Y100.129 E2.08485
G1 X96.047 Y100.051 E2.08715
G1 X99.590 Y103.594 E2.23299
G1 X100.248 Y103.659 E2.25220
G1 X100.591 Y103.625 E2.26224
G1 X96.016 Y99.050 E2.45052
G1 X96.054 Y98.658 E2.46199
G1 X96.180 Y98.245 E2.47456
G1 X101.397 Y103.461 E2.68925
G1 X101.691 Y103.372 E2.69820
G1 X102.073 Y103.168 E2.71081
G1 X96.473 Y97.568 E2.94125
G1 X96.617 Y97.299 E2.95015
G1 X96.868 Y96.993 E2.96164
G1 X102.648 Y102.773 E3.19951
G1 X102.914 Y102.555 E3.20953
G1 X103.133 Y102.288 E3.21956
G1 X97.353 Y96.508 E3.45743
G1 X97.658 Y96.258 E3.46892
G1 X97.928 Y96.114 E3.47782
G1 X103.527 Y101.713 E3.70827
G1 X103.732 Y101.331 E3.72087
G1 X103.821 Y101.037 E3.72982
G1 X98.604 Y95.820 E3.94451
G1 X99.018 Y95.695 E3.95709
G1 X99.409 Y95.656 E3.96855
G1 X103.985 Y100.231 E4.15683
G1 X104.018 Y99.888 E4.16687
G1 X103.954 Y99.231 E4.18609
G1 X100.410 Y95.687 E4.33193
G1 X100.489 Y95.695 E4.33422
G1 X101.196 Y95.910 E4.35574
G1 X101.848 Y96.258 E4.37725
G1 X102.419 Y96.726 E4.39873
G1 X102.915 Y97.222 E4.41914
G1 Z11.700 F7800.000
G1 E2.41914 F2400.00000
G92 E0
G1 X102.303 Y102.439 F7800.000
G1 E2.00000 F2400.00000
G1 F958.548
G1 X102.799 Y101.943 E2.01952
G1 X103.247 Y101.398 E2.03918
G1 X103.580 Y100.774 E2.05885
G1 X103.785 Y100.097 E2.07854
G1 X103.793 Y100.022 E2.08065
G1 X100.381 Y103.433 E2.21495
G1 X99.753 Y103.495 E2.23251
G1 X99.424 Y103.463 E2.24171
G1 X103.822 Y99.065 E2.41483
G1 X103.785 Y98.690 E2.42531
G1 X103.665 Y98.294 E2.43683
G1 X98.654 Y103.306 E2.63411
G1 X98.373 Y103.221 E2.64228
G1 X98.007 Y103.025 E2.65382
G1 X103.385 Y97.647 E2.86551
G1 X103.247 Y97.390 E2.87364
G1 X103.007 Y97.097 E2.88417
G1 X97.457 Y102.647 E3.10264
G1 X97.202 Y102.438 E3.11181
G1 X96.993 Y102.184 E3.12099
G1 X102.543 Y96.634 E3.33946
G1 X102.251 Y96.394 E3.34997
G1 X101.993 Y96.256 E3.35812
G1 X96.616 Y101.634 E3.56980
G1 X96.420 Y101.269 E3.58132
G1 X96.335 Y100.987 E3.58951
G1 X101.346 Y95.976 E3.78678
G1 X100.951 Y95.856 E3.79827
G1 X100.576 Y95.819 E3.80877
G1 X96.178 Y100.216 E3.98187
G1 X96.146 Y99.888 E3.99105
G1 X96.208 Y99.259 E4.00865
G1 X99.617 Y95.849 E4.14286
G1 X99.543 Y95.856 E4.14495
G1 X98.867 Y96.061 E4.16461
G1 X98.243 Y96.394 E4.18429
G1 X97.697 Y96.842 E4.20394
G1 X97.203 Y97.336 E4.22340
G1 Z12.000 F7800.000
G1 E2.22340 F2400.00000
G92 E0
G1 X97.358 Y101.786 F7800.000
G1 E2.00000 F2400.00000
G1 F834.439
G1 X97.854 Y102.282 E2.02015
G1 X98.367 Y102.703 E2.03921
G1 X98.952 Y103.016 E2.05827
G1 X99.587 Y103.208 E2.07735
G1 X99.754 Y103.225 E2.08217
G1 X96.416 Y99.887 E2.21783
G1 X96.367 Y99.394 E2.23206
G1 X96.414 Y98.927 E2.24555
G1 X100.714 Y103.227 E2.42033
G1 X100.908 Y103.208 E2.42592
G1 X101.479 Y103.035 E2.44308
G1 X96.606 Y98.162 E2.64114
G1 X96.930 Y97.528 E2.66159
G1 X102.113 Y102.711 E2.87223
G1 X102.128 Y102.703 E2.87273
G1 X102.641 Y102.282 E2.89180
G1 X97.359 Y96.999 E3.10647
G1 X97.887 Y96.570 E3.12603
G1 X103.071 Y101.754 E3.33668
G1 X103.395 Y101.120 E3.35713
G1 X98.521 Y96.247 E3.55518
G1 X99.093 Y96.073 E3.57235
G1 X99.286 Y96.054 E3.57794
G1 X103.587 Y100.355 E3.75271
G1 X103.633 Y99.888 E3.76619
G1 X103.584 Y99.395 E3.78044
G1 X100.246 Y96.057 E3.91609
G1 X100.413 Y96.073 E3.92091
G1 X101.049 Y96.266 E3.93999
G1 X101.634 Y96.578 E3.95905
G1 X102.146 Y96.999 E3.97809
G1 X102.642 Y97.495 E3.99824
G1 Z12.300 F7800.000
G1 E1.99824 F2400.00000
G92 E0
G1 X101.989 Y102.126 F7800.000
G1 E2.00000 F2400.00000
G1 F716.339
G1 X102.485 Y101.630 E2.02092
G1 X102.878 Y101.151 E2.03941
G1 X103.170 Y100.604 E2.05791
G1 X103.350 Y100.011 E2.07642
G1 X103.377 Y99.744 E2.08441
G1 X100.103 Y103.017 E2.22253
G1 X99.753 Y103.052 E2.23303
G1 X99.135 Y102.991 E2.25156
G1 X103.350 Y98.776 E2.42942
G1 X103.170 Y98.183 E2.44792
G1 X103.093 Y98.039 E2.45279
G1 X98.398 Y102.734 E2.65093
G1 X97.995 Y102.519 E2.66456
G1 X97.789 Y102.349 E2.67254
G1 X102.709 Y97.429 E2.88015
G1 X102.484 Y97.156 E2.89069
G1 X102.211 Y96.932 E2.90123
G1 X97.291 Y101.852 E3.10884
G1 X97.122 Y101.646 E3.11680
G1 X96.907 Y101.242 E3.13044
G1 X101.602 Y96.547 E3.32857
G1 X101.458 Y96.471 E3.33342
G1 X100.864 Y96.291 E3.35194
G1 X96.650 Y100.505 E3.52978
G1 X96.589 Y99.888 E3.54827
G1 X96.624 Y99.537 E3.55880
G1 X99.896 Y96.264 E3.69690
G1 X99.630 Y96.291 E3.70488
G1 X99.036 Y96.471 E3.72339
G1 X98.490 Y96.763 E3.74189
G1 X98.011 Y97.156 E3.76037
G1 X97.516 Y97.650 E3.78123
G1 Z12.600 F7800.000
G1 E1.78123 F2400.00000
G92 E0
G1 X97.672 Y101.473 F7800.000
G1 E2.00000 F2400.00000
G1 F648.293
G1 X98.168 Y101.969 E2.01946
G1 X98.613 Y102.334 E2.03544
G1 X99.121 Y102.606 E2.05144
G1 X99.673 Y102.774 E2.06745
G1 X99.921 Y102.798 E2.07436
G1 X96.843 Y99.720 E2.19515
G1 X96.811 Y99.394 E2.20424
G1 X96.867 Y98.820 E2.22025
G1 X100.821 Y102.774 E2.37541
G1 X101.373 Y102.606 E2.39141
G1 X101.507 Y102.535 E2.39562
G1 X97.106 Y98.134 E2.56832
G1 X97.306 Y97.759 E2.58011
G1 X97.464 Y97.567 E2.58701
G1 X102.074 Y102.177 E2.76791
G1 X102.328 Y101.968 E2.77702
G1 X102.536 Y101.714 E2.78614
G1 X97.926 Y97.105 E2.96704
G1 X98.118 Y96.947 E2.97393
G1 X98.493 Y96.747 E2.98572
G1 X102.894 Y101.148 E3.15842
G1 X102.966 Y101.014 E3.16263
G1 X103.133 Y100.462 E3.17863
G1 X99.179 Y96.508 E3.33379
G1 X99.753 Y96.451 E3.34979
G1 X100.079 Y96.484 E3.35889
G1 X103.157 Y99.562 E3.47968
G1 X102.328 Y97.808 F7800.000
G1 F648.293
G1 X101.834 Y97.314 E3.49909
G1 Z12.900 F7800.000
G1 E1.49909 F2400.00000
G92 E0
G1 X98.340 Y97.485 F7800.000
G1 E2.00000 F2400.00000
G1 F600
G1 X97.844 Y97.981 E2.02008
G1 X97.509 Y98.389 E2.03519
G1 X97.260 Y98.855 E2.05033
G1 X97.107 Y99.362 E2.06548
G1 X97.073 Y99.706 E2.07539
G1 X100.062 Y96.716 E2.19645
G1 X100.270 Y96.697 E2.20243
G1 X100.773 Y96.747 E2.21690
G1 X100.936 Y96.797 E2.22176
G1 X97.156 Y100.577 E2.37481
G1 X97.260 Y100.921 E2.38510
G1 X97.436 Y101.250 E2.39580
G1 X101.610 Y97.077 E2.56478
G1 X101.746 Y97.150 E2.56921
G1 X102.155 Y97.485 E2.58435
G1 X97.845 Y101.796 E2.75887
G1 X98.254 Y102.132 E2.77402
G1 X98.390 Y102.204 E2.77844
G1 X102.564 Y98.031 E2.94743
G1 X102.740 Y98.361 E2.95814
G1 X102.844 Y98.704 E2.96842
G1 X99.064 Y102.485 E3.12149
G1 X99.226 Y102.534 E3.12636
G1 X99.753 Y102.586 E3.14152
G1 X99.934 Y102.568 E3.14673
G1 X102.928 Y99.575 E3.26792
G1 X102.894 Y99.920 E3.27784
G1 X102.740 Y100.426 E3.29298
G1 X102.491 Y100.892 E3.30812
G1 X102.156 Y101.300 E3.32324
G1 X101.660 Y101.796 E3.34331
G1 Z13.200 F7800.000
G1 E1.34331 F2400.00000
G92 E0
G1 X102.596 Y99.861 F7800.000
G1 E2.00000 F2400.00000
G1 F600
G1 X99.779 Y97.045 E2.11354
G1 X99.294 Y97.088 E2.12741
G1 X98.970 Y97.186 E2.13706
G1 X102.455 Y100.671 E2.27753
G1 X102.419 Y100.787 E2.28101
G1 X102.202 Y101.194 E2.29415
G1 X102.124 Y101.289 E2.29767
G1 X98.351 Y97.517 E2.44975
G1 X98.091 Y97.731 E2.45937
G1 X97.876 Y97.992 E2.46899
G1 X101.649 Y101.764 E2.62107
G1 X101.553 Y101.843 E2.62459
G1 X101.147 Y102.060 E2.63772
G1 X101.030 Y102.095 E2.64120
G1 X97.546 Y98.611 E2.78168
G1 X97.447 Y98.935 E2.79133
G1 X97.405 Y99.420 E2.80520
G1 X100.221 Y102.236 E2.91874
G1 X99.789 Y102.194 E2.93111
G1 X99.348 Y102.060 E2.94425
G1 X98.941 Y101.843 E2.95739
G1 X98.586 Y101.551 E2.97050
G1 X98.090 Y101.055 E2.99049
G1 E0.99049 F2400.00000
G92 E0
G1 X101.416 Y97.732 F7800.000
G1 E2.00000 F2400.00000
G1 F600
G1 X101.910 Y98.226 E2.01993
G1 Z13.500 F7800.000
G1 E0.01993 F2400.00000
G92 E0
G1 X98.831 Y97.976 F7800.000
G1 E2.00000 F2400.00000
G1 F600
G1 X98.336 Y98.472 E2.01988
G1 X98.087 Y98.775 E2.03097
G1 X97.902 Y99.121 E2.04211
G1 X97.788 Y99.497 E2.05324
G1 X97.749 Y99.888 E2.06438
G1 X97.760 Y99.992 E2.06735
G1 X100.352 Y97.400 E2.17124
G1 X100.638 Y97.429 E2.17940
G1 X101.014 Y97.542 E2.19053
G1 X101.105 Y97.591 E2.19346
G1 X97.951 Y100.746 E2.31991
G1 X98.087 Y101.001 E2.32810
G1 X98.336 Y101.305 E2.33924
G1 X101.664 Y97.977 E2.47263
G1 X101.913 Y98.280 E2.48376
G1 X102.050 Y98.536 E2.49197
G1 X98.895 Y101.690 E2.61841
G1 X98.986 Y101.739 E2.62133
G1 X99.362 Y101.853 E2.63247
G1 X99.649 Y101.881 E2.64062
G1 X102.241 Y99.289 E2.74452
G1 X102.251 Y99.394 E2.74750
G1 X102.212 Y99.784 E2.75862
G1 X102.098 Y100.160 E2.76975
G1 X101.913 Y100.507 E2.78089
G1 X101.665 Y100.809 E2.79199
G1 X101.169 Y101.305 E2.81186
G1 Z13.800 F7800.000
G1 X101.776 Y100.262 F7800.000
G1 F600
G1 X99.379 Y97.865 E2.92161
G1 X99.149 Y97.934 E2.92939
G1 X98.875 Y98.081 E2.93942
G1 X98.678 Y98.243 E2.94769
G1 X101.398 Y100.963 E3.07222
G1 X101.125 Y101.201 E3.08395
G1 X100.852 Y101.347 E3.09398
G1 X100.738 Y101.381 E3.09783
G1 X98.260 Y98.903 E3.21129
G1 X98.120 Y99.365 E3.22693
G1 X98.177 Y99.424 E3.22958
G1 X98.204 Y99.701 E3.23860
G1 X98.315 Y100.037 E3.25003
G1 X99.603 Y101.325 E3.30903
G1 X99.370 Y101.201 E3.31760
G1 X99.131 Y101.005 E3.32760
G1 X98.934 Y100.765 E3.33763
G1 X98.809 Y100.531 E3.34622
G1 E1.34622 F2400.00000
G92 E0
G1 X100.870 Y98.277 F7800.000
G1 E2.00000 F2400.00000
G1 F600
G1 X101.364 Y98.772 E2.02263
G1 Z14.100 F7800.000
G1 X101.267 Y99.976 F7800.000
G1 F600
G1 X101.761 Y99.481 E2.04381
G1 X101.272 Y99.503 E2.05865
G1 X101.145 Y99.088 E2.07179
G1 X99.447 Y100.786 E2.14452
G1 X99.223 Y100.680 E2.15203
G1 X99.079 Y100.562 E2.15768
G1 X98.965 Y100.422 E2.16314
G1 X98.911 Y100.313 E2.16682
G1 X100.676 Y98.548 E2.24243
G1 X100.433 Y98.459 E2.25027
G1 X100.248 Y98.441 E2.25591
G1 X100.062 Y98.459 E2.26158
G1 X99.883 Y98.513 E2.26723
G1 X99.718 Y98.601 E2.27289
G1 X99.573 Y98.720 E2.27856
G1 X99.455 Y98.864 E2.28420
G1 X99.367 Y99.029 E2.28987
G1 X99.223 Y99.503 E2.30487
G1 X98.734 Y99.481 E2.31971
G1 X98.239 Y99.976 E2.34088
G1 Z14.400 F7800.000
G1 Z14.700 F7800.000
G1 X97.844 Y99.977 F7800.000
G1 F600
G1 X97.741 Y99.955 E2.34428
G1 X97.828 Y99.993 E2.34734
G1 X98.338 Y99.483 E2.37071
G1 X98.552 Y99.529 E2.37778
G1 X98.904 Y99.549 E2.38920
G1 X99.252 Y99.518 E2.40052
G1 X99.425 Y99.475 E2.40628
G1 X98.930 Y99.969 E2.42892
G1 X100.652 Y99.989 F7800.000
G1 F600
G1 X100.575 Y99.969 E2.43150
G1 X100.640 Y100.001 E2.43383
G1 X101.146 Y99.494 E2.45703
G1 X101.590 Y99.549 E2.47150
G1 X101.943 Y99.529 E2.48293
G1 X102.259 Y99.461 E2.49339
G1 X101.764 Y99.955 E2.51603
G1 Z15.000 F7800.000
G1 X101.412 Y100.039 F7800.000
G1 F600
G1 X101.066 Y99.969 E2.52747
G1 X101.333 Y100.076 E2.53677
G1 X101.476 Y100.103 E2.54150
G1 X100.917 Y99.545 E2.56706
G1 X101.176 Y99.568 E2.57547
G1 X101.537 Y99.548 E2.58716
G1 X101.913 Y99.462 E2.59965
G1 X102.407 Y99.956 E2.62229
G1 E0.62229 F2400.00000
G92 E0
G1 X99.429 Y99.969 F7800.000
G1 E2.00000 F2400.00000
G1 F600
G1 X98.934 Y99.474 E2.02263
G1 X98.686 Y99.536 E2.03092
G1 X98.329 Y99.568 E2.04251
G1 X97.918 Y99.537 E2.05587
G1 X98.479 Y100.098 E2.08158
G1 X98.268 Y100.046 E2.08861
G1 X98.087 Y99.956 E2.09515
G1 X98.412 Y100.031 E2.10595
G1 Z15.300 F7800.000
G1 X98.930 Y99.968 F7800.000
G1 F600
G1 X99.425 Y99.473 E2.12860
G1 X99.102 Y99.550 E2.13934
G1 X98.740 Y99.578 E2.15110
G1 X98.286 Y99.533 E2.16586
G1 X97.739 Y100.080 E2.19090
G1 X97.525 Y99.993 E2.19838
G1 X97.430 Y99.928 E2.20213
G1 X97.511 Y99.963 E2.20499
G1 X97.792 Y100.027 E2.21433
G1 E0.21433 F2400.00000
G92 E0
G1 X100.884 Y100.041 F7800.000
G1 E2.00000 F2400.00000
G1 F600
G1 X100.575 Y99.967 E2.01028
G1 X100.839 Y100.085 E2.01966
G1 X101.378 Y99.546 E2.04433
G1 X101.755 Y99.578 E2.05656
G1 X102.118 Y99.553 E2.06834
G1 X102.489 Y99.469 E2.08068
G1 X102.570 Y99.433 E2.08353
G1 X102.075 Y99.928 E2.10617
G1 Z15.600 F7800.000
G1 X101.791 Y100.075 F7800.000
G1 F600
G1 X101.470 Y100.050 E2.11657
G1 X101.084 Y99.955 E2.12944
G1 X101.282 Y100.064 E2.13676
G1 X101.459 Y100.120 E2.14276
G1 X101.642 Y100.153 E2.14878
G1 X101.873 Y100.157 E2.15626
G1 X101.296 Y99.580 E2.18265
G1 X101.706 Y99.559 E2.19594
G1 X102.081 Y99.474 E2.20837
G1 X102.211 Y99.417 E2.21298
G1 X102.706 Y99.911 E2.23562
G1 E0.23562 F2400.00000
G92 E0
G1 X99.410 Y99.955 F7800.000
G1 E2.00000 F2400.00000
G1 F600
G1 X98.915 Y99.460 E2.02263
G1 X98.530 Y99.556 E2.03550
G1 X98.165 Y99.584 E2.04734
G1 X97.946 Y99.569 E2.05446
G1 X98.535 Y100.158 E2.08142
G1 X98.262 Y100.131 E2.09030
G1 X98.075 Y100.078 E2.09658
G1 X97.917 Y100.006 E2.10219
G1 X97.803 Y99.927 E2.10668
G1 X97.789 Y99.911 E2.10739
G1 X97.919 Y99.968 E2.11202
G1 X98.294 Y100.054 E2.12444
G1 X98.440 Y100.063 E2.12919
G1 Z15.900 F7800.000
G1 X98.907 Y99.930 F7800.000
G1 F600
G1 X99.402 Y99.435 E2.15184
G1 X99.319 Y99.473 E2.15478
G1 X98.943 Y99.561 E2.16727
G1 X98.576 Y99.586 E2.17918
G1 X98.202 Y99.556 E2.19133
G1 X97.632 Y100.127 E2.21745
G1 X97.337 Y100.013 E2.22769
G1 X97.187 Y99.894 E2.23387
G1 X97.345 Y99.964 E2.23946
G1 X97.708 Y100.051 E2.25153
G1 E0.25153 F2400.00000
G92 E0
G1 X101.080 Y100.057 F7800.000
G1 E2.00000 F2400.00000
G1 F600
G1 X100.681 Y99.967 E2.01324
G1 X100.598 Y99.929 E2.01620
G1 X100.700 Y100.005 E2.02032
G1 X100.852 Y100.079 E2.02577
G1 X101.008 Y100.129 E2.03109
G1 X101.575 Y99.562 E2.05701
G1 X101.918 Y99.586 E2.06816
G1 X102.284 Y99.558 E2.08003
G1 X102.655 Y99.470 E2.09239
G1 X102.813 Y99.399 E2.09798
G1 X102.284 Y99.932 E2.12227
G1 Z16.200 F7800.000
G1 X102.926 Y99.870 F7800.000
G1 F600
G1 X102.432 Y99.375 E2.14161
G1 X102.238 Y99.464 E2.14750
G1 X101.869 Y99.554 E2.15801
G1 X101.702 Y99.567 E2.16265
G1 X102.299 Y100.164 E2.18601
G1 X102.207 Y100.179 E2.18859
G1 X101.792 Y100.177 E2.20006
G1 X101.600 Y100.144 E2.20546
G1 X101.413 Y100.087 E2.21085
G1 X101.257 Y100.012 E2.21563
G1 X101.145 Y99.931 E2.21946
G1 X100.649 Y99.435 E2.23886
G1 X99.375 Y99.903 F7800.000
G1 F600
G1 X98.880 Y99.409 E2.26150
G1 X98.739 Y99.471 E2.26649
G1 X98.367 Y99.556 E2.27886
G1 X97.972 Y99.580 E2.29165
G1 X98.570 Y100.177 E2.31902
G1 X98.288 Y100.179 E2.32815
G1 X98.094 Y100.147 E2.33452
G1 X97.904 Y100.091 E2.34093
G1 X97.744 Y100.017 E2.34665
G1 X97.568 Y99.870 E2.35406
G1 X97.762 Y99.958 E2.36095
G1 X98.131 Y100.048 E2.37325
G1 X98.467 Y100.074 E2.38415
G1 Z16.500 F7800.000
G1 X98.783 Y99.934 F7800.000
G1 F600
G1 X99.321 Y99.391 E2.40567
G1 X99.146 Y99.467 E2.41102
G1 X98.774 Y99.549 E2.42174
G1 X98.413 Y99.571 E2.43194
G1 X98.224 Y99.555 E2.43729
G1 X97.619 Y100.160 E2.46139
G1 X97.332 Y100.092 E2.46968
G1 X97.174 Y100.017 E2.47461
G1 X97.060 Y99.934 E2.47857
G1 X96.990 Y99.851 E2.48166
G1 X97.484 Y99.356 E2.50135
G1 E0.50135 F2400.00000
G92 E0
G1 X100.679 Y99.886 F7800.000
G1 E2.00000 F2400.00000
G1 F600
G1 X101.174 Y99.391 E2.01903
G1 X101.348 Y99.467 E2.02420
G1 X101.720 Y99.549 E2.03457
G1 X101.912 Y99.561 E2.03980
G1 X101.303 Y100.170 E2.06325
G1 X102.445 Y99.935 F7800.000
G1 F600
G1 X102.939 Y99.440 E2.08228
G1 Z16.800 F7800.000
G1 X103.093 Y99.825 F7800.000
G1 F600
G1 X102.599 Y99.331 E2.10238
G1 X102.375 Y99.436 E2.10949
G1 X102.022 Y99.526 E2.11997
G1 X101.852 Y99.541 E2.12487
G1 X102.470 Y100.159 E2.14998
G1 X102.364 Y100.177 E2.15307
G1 X101.949 Y100.179 E2.16500
G1 X101.754 Y100.148 E2.17066
G1 X101.564 Y100.092 E2.17636
G1 X101.404 Y100.017 E2.18143
G1 X101.288 Y99.935 E2.18551
G1 X100.792 Y99.439 E2.20567
G1 X99.277 Y99.853 F7800.000
G1 F600
G1 X98.783 Y99.359 E2.22532
G1 X98.559 Y99.455 E2.23216
G1 X98.194 Y99.536 E2.24267
G1 X98.033 Y99.546 E2.24719
G1 X98.650 Y100.162 E2.27170
G1 X98.546 Y100.179 E2.27467
G1 X98.131 Y100.177 E2.28633
G1 X97.938 Y100.144 E2.29181
G1 X97.752 Y100.087 E2.29730
G1 X97.595 Y100.013 E2.30216
G1 X97.483 Y99.932 E2.30606
G1 X96.987 Y99.436 E2.32577
G1 Z17.100 F7800.000
G1 X97.336 Y99.308 F7800.000
G1 F600
G1 X96.842 Y99.803 E2.34582
G1 X96.929 Y99.926 E2.35016
G1 X97.038 Y100.006 E2.35402
G1 X97.189 Y100.080 E2.35885
G1 X97.448 Y100.152 E2.36656
G1 X98.081 Y99.519 E2.39223
G1 X98.250 Y99.534 E2.39709
G1 X98.596 Y99.516 E2.40704
G1 X98.955 Y99.440 E2.41755
G1 X99.198 Y99.338 E2.42512
G1 X98.624 Y99.932 E2.44882
G1 E0.44882 F2400.00000
G92 E0
G1 X100.802 Y99.832 F7800.000
G1 E2.00000 F2400.00000
G1 F600
G1 X101.296 Y99.338 E2.01960
G1 X101.539 Y99.440 E2.02700
G1 X101.898 Y99.516 E2.03727
G1 X102.044 Y99.524 E2.04138
G1 X101.414 Y100.154 E2.06636
G1 X102.576 Y99.927 F7800.000
G1 F600
G1 X103.070 Y99.432 E2.08596
G1 Z17.400 F7800.000
G1 X103.214 Y99.772 F7800.000
G1 F600
G1 X102.720 Y99.278 E2.10596
G1 X102.454 Y99.406 E2.11439
G1 X102.163 Y99.474 E2.12295
G1 X101.982 Y99.493 E2.12815
G1 X102.624 Y100.135 E2.15412
G1 X102.514 Y100.155 E2.15732
G1 X102.112 Y100.161 E2.16882
G1 X101.922 Y100.132 E2.17432
G1 X101.735 Y100.079 E2.17989
G1 X101.577 Y100.008 E2.18482
G1 X101.465 Y99.929 E2.18875
G1 X100.969 Y99.433 E2.20882
G1 X99.124 Y99.800 F7800.000
G1 F600
G1 X98.629 Y99.306 E2.22846
G1 X98.360 Y99.419 E2.23667
G1 X98.011 Y99.493 E2.24666
G1 X97.887 Y99.499 E2.25017
G1 X98.527 Y100.139 E2.27559
G1 X98.382 Y100.161 E2.27968
G1 X97.980 Y100.155 E2.29098
G1 X97.620 Y100.065 E2.30141
G1 X97.473 Y99.994 E2.30599
G1 X97.369 Y99.917 E2.30962
G1 X96.873 Y99.421 E2.32931
G1 Z17.700 F7800.000
G1 X97.243 Y99.251 F7800.000
G1 F600
G1 X96.746 Y99.763 E2.34920
G1 X96.773 Y99.841 E2.35150
G1 X96.927 Y99.981 E2.35728
G1 X97.065 Y100.051 E2.36160
G1 X97.304 Y100.118 E2.36852
G1 X97.963 Y99.460 E2.39445
G1 X98.086 Y99.472 E2.39790
G1 X98.407 Y99.459 E2.40686
G1 X98.807 Y99.378 E2.41822
G1 X99.023 Y99.277 E2.42487
G1 X98.993 Y99.352 E2.42713
G1 X98.930 Y99.421 E2.42973
G1 X98.433 Y99.918 E2.44929
G1 E0.44929 F2400.00000
G92 E0
G1 X100.977 Y99.771 F7800.000
G1 E2.00000 F2400.00000
G1 F600
G1 X101.472 Y99.277 E2.01925
G1 X101.752 Y99.391 E2.02759
G1 X102.087 Y99.459 E2.03700
G1 X102.203 Y99.464 E2.04018
G1 X101.547 Y100.119 E2.06572
G1 X102.676 Y99.907 F7800.000
G1 F600
G1 X103.171 Y99.413 E2.08498
G1 Z18.000 F7800.000
G1 E0.08498 F2400.00000
G92 E0
G1 X98.908 Y99.741 F7800.000
G1 E2.00000 F2400.00000
G1 F600
G1 X98.414 Y99.246 E2.02264
G1 X98.133 Y99.358 E2.03241
G1 X97.811 Y99.419 E2.04304
G1 X97.517 Y99.428 E2.05256
G1 X98.209 Y100.121 E2.08426
G1 X97.838 Y100.111 E2.09629
G1 X97.510 Y100.025 E2.10726
G1 X97.287 Y99.890 E2.11568
G1 X97.217 Y99.788 E2.11969
G1 X97.217 Y99.739 E2.12129
G1 X97.228 Y99.715 E2.12214
G1 X97.414 Y99.808 E2.12887
G1 X97.707 Y99.889 E2.13870
G1 X98.011 Y99.923 E2.14862
G1 E0.14862 F2400.00000
G92 E0
G1 X102.392 Y99.920 F7800.000
G1 E2.00000 F2400.00000
G1 F600
G1 X102.189 Y99.914 E2.00658
G1 X101.869 Y99.853 E2.01712
G1 X101.586 Y99.741 E2.02698
G1 X101.611 Y99.840 E2.03030
G1 X101.673 Y99.907 E2.03325
G1 X101.781 Y99.981 E2.03750
G1 X101.928 Y100.048 E2.04272
G1 X102.282 Y100.121 E2.05440
G1 X102.585 Y100.113 E2.06423
G1 X101.898 Y99.425 E2.09569
G1 X102.293 Y99.395 E2.10854
G1 X102.586 Y99.314 E2.11836
G1 X102.772 Y99.221 E2.12509
G1 X103.267 Y99.716 E2.14774
G1 Z18.300 F7800.000
G1 E0.14774 F2400.00000
G92 E0
G1 X98.208 Y99.889 F7800.000
G1 E2.00000 F2400.00000
G1 F600
G1 X98.761 Y99.333 E2.02540
G1 X98.786 Y99.269 E2.02762
G1 X98.763 Y99.210 E2.02965
G1 X98.501 Y99.314 E2.03879
G1 X98.203 Y99.370 E2.04859
G1 X97.916 Y99.377 E2.05789
G1 X97.673 Y99.345 E2.06582
G1 X97.006 Y100.013 E2.09637
G1 X96.844 Y99.938 E2.10214
G1 X96.763 Y99.875 E2.10546
G1 X96.718 Y99.821 E2.10774
G1 X96.701 Y99.743 E2.11031
G1 X96.738 Y99.682 E2.11261
G1 X96.882 Y99.757 E2.11788
G1 X97.179 Y99.840 E2.12784
G1 E0.12784 F2400.00000
G92 E0
G1 X101.526 Y100.013 F7800.000
G1 E2.00000 F2400.00000
G1 F600
G1 X102.189 Y99.350 E2.03033
G1 X102.742 Y99.875 F7800.000
G1 F600
G1 X103.237 Y99.381 E2.05296
G1 Z18.600 F7800.000
G1 E0.05296 F2400.00000
G92 E0
G1 X98.587 Y99.670 F7800.000
G1 E2.00000 F2400.00000
G1 F600
G1 X98.090 Y99.173 E2.02274
G1 X97.865 Y99.258 E2.03054
G1 X97.594 Y99.304 E2.03941
G1 X97.341 Y99.308 E2.04761
G1 X97.117 Y99.279 E2.05494
G1 X97.885 Y100.047 E2.09011
G1 X97.714 Y100.040 E2.09565
G1 X97.417 Y99.958 E2.10563
G1 X97.246 Y99.849 E2.11220
G1 X97.193 Y99.763 E2.11546
G1 X97.208 Y99.724 E2.11683
G1 X97.280 Y99.658 E2.11998
G1 X97.611 Y99.773 E2.13134
G1 E0.13134 F2400.00000
G92 E0
G1 X102.266 Y99.774 F7800.000
G1 E2.00000 F2400.00000
G1 F600
G1 X102.085 Y99.733 E2.00602
G1 X102.085 Y99.965 E2.01351
G1 X102.303 Y100.034 E2.02093
G1 X102.541 Y100.050 E2.02866
G1 X101.771 Y99.280 E2.06390
G1 X101.911 Y99.304 E2.06850
G1 X102.164 Y99.308 E2.07670
G1 X102.407 Y99.276 E2.08462
G1 X102.723 Y99.162 E2.09548
G1 X103.253 Y99.683 E2.11954
G1 Z18.900 F7800.000
G1 E0.11954 F2400.00000
G92 E0
G1 X98.411 Y99.361 F7800.000
G1 E2.00000 F2400.00000
G1 F600
G1 X97.917 Y99.856 E2.02263
G1 X97.517 Y99.177 F7800.000
G1 F600
G1 X96.820 Y99.874 E2.05454
G1 E0.05454 F2400.00000
G92 E0
G1 X101.627 Y99.881 F7800.000
G1 E2.00000 F2400.00000
G1 F600
G1 X102.320 Y99.188 E2.03172
G1 X102.760 Y99.826 F7800.000
G1 F600
G1 X103.254 Y99.332 E2.05436
G1 Z19.200 F7800.000
G1 E0.05436 F2400.00000
G92 E0
G1 X98.280 Y99.721 F7800.000
G1 E2.00000 F2400.00000
G1 F600
G1 X97.786 Y99.226 E2.02251
G1 X97.284 Y99.796 F7800.000
G1 F600
G1 X96.756 Y99.269 E2.04652
G1 E0.04652 F2400.00000
G92 E0
G1 X101.722 Y99.314 F7800.000
G1 E2.00000 F2400.00000
G1 F600
G1 X102.221 Y99.813 E2.02273
G1 X102.748 Y99.268 F7800.000
G1 F600
G1 X102.719 Y99.238 E2.02407
G1 X103.242 Y99.762 E2.04791
G1 Z19.500 F7800.000
G1 Z19.800 F7800.000
G1 Z20.100 F7800.000
G1 E0.04791 F2400.00000
G92 E0
M107
; Filament-specific end gcode 
;END gcode for filament

M104 S0 ; turn off temperature
G28 X0  ; home X axis
M84     ; disable motors

M140 S0 ; set bed temperature
; filament used = 140.7mm (1.0cm3)
; total filament cost = 0.0

; avoid_crossing_perimeters = 0
; bed_shape = 0x0,200x0,200x200,0x200
; bed_temperature = 0
; before_layer_gcode = 
; between_objects_gcode = 
; bridge_acceleration = 0
; bridge_fan_speed = 100
; brim_connections_width = 0
; brim_width = 0
; complete_objects = 0
; cooling = 1
; default_acceleration = 0
; disable_fan_first_layers = 3
; duplicate_distance = 6
; end_filament_gcode = "; Filament-specific end gcode \n;END gcode for filament\n"
; end_gcode = M104 S0 ; turn off temperature\nG28 X0  ; home X axis\nM84     ; disable motors\n
; extruder_clearance_height = 20
; extruder_clearance_radius = 20
; extruder_offset = 0x0
; extrusion_axis = E
; extrusion_multiplier = 1
; fan_always_on = 0
; fan_below_layer_time = 60
; filament_colour = #FFFFFF
; filament_cost = 0
; filament_density = 0
; filament_diameter = 3
; filament_max_volumetric_speed = 0
; filament_notes = ""
; first_layer_acceleration = 0
; first_layer_bed_temperature = 0
; first_layer_extrusion_width = 200%
; first_layer_speed = 30
; first_layer_temperature = 205
; gcode_arcs = 0
; gcode_comments = 0
; gcode_flavor = reprap
; has_heatbed = 1
; infill_acceleration = 0
; infill_first = 0
; interior_brim_width = 0
; layer_gcode = 
; max_fan_speed = 100
; max_layer_height = 0.3
; max_print_speed = 80
; max_volumetric_speed = 0
; min_fan_speed = 35
; min_layer_height = 0.15
; min_print_speed = 10
; min_skirt_length = 0
; notes = 
; nozzle_diameter = 0.5
; only_retract_when_crossing_perimeters = 1
; ooze_prevention = 0
; output_filename_format = [input_filename_base].gcode
; perimeter_acceleration = 0
; post_process = 
; pressure_advance = 0
; printer_notes = 
; resolution = 0
; retract_before_travel = 2
; retract_layer_change = 0
; retract_length = 2
; retract_length_toolchange = 10
; retract_lift = 0
; retract_lift_above = 0
; retract_lift_below = 0
; retract_restart_extra = 0
; retract_restart_extra_toolchange = 0
; retract_speed = 40
; skirt_distance = 6
; skirt_height = 1
; skirts = 0
; slowdown_below_layer_time = 5
; spiral_vase = 0
; standby_temperature_delta = -5
; start_filament_gcode = "; Filament gcode\n"
; start_gcode = G28 ; home all axes\nG1 Z5 F5000 ; lift nozzle\n
; temperature = 200
; threads = 8
; toolchange_gcode = 
; travel_speed = 130
; use_firmware_retraction = 0
; use_relative_e_distances = 0
; use_set_and_wait_bed = 0
; use_set_and_wait_extruder = 0
; use_volumetric_e = 0
; vibration_limit = 0
; wipe = 0
; z_offset = 0
; z_steps_per_mm = 0
; adaptive_slicing = 0
; adaptive_slicing_quality = 75%
; dont_support_bridges = 1
; extrusion_width = 0
; first_layer_height = 0.3
; infill_only_where_needed = 0
; interface_shells = 0
; layer_height = 0.3
; match_horizontal_surfaces = 0
; raft_layers = 0
; regions_overlap = 0
; seam_position = aligned
; sequential_print_priority = 0
; support_material = 0
; support_material_angle = 0
; support_material_buildplate_only = 0
; support_material_contact_distance = 0.2
; support_material_enforce_layers = 0
; support_material_extruder = 1
; support_material_extrusion_width = 0
; support_material_interface_extruder = 1
; support_material_interface_extrusion_width = 0
; support_material_interface_layers = 3
; support_material_interface_spacing = 0
; support_material_interface_speed = 100%
; support_material_max_layers = 0
; support_material_pattern = pillars
; support_material_spacing = 2.5
; support_material_speed = 60
; support_material_threshold = 60%
; xy_size_compensation = 0
; bottom_infill_pattern = rectilinear
; bottom_solid_layers = 0
; bridge_flow_ratio = 1
; bridge_speed = 60
; external_perimeter_extrusion_width = 0
; external_perimeter_speed = 50%
; external_perimeters_first = 0
; extra_perimeters = 1
; fill_angle = 45
; fill_density = 90%
; fill_gaps = 1
; fill_pattern = rectilinear
; gap_fill_speed = 20
; infill_every_layers = 1
; infill_extruder = 1
; infill_extrusion_width = 0
; infill_overlap = 55%
; infill_speed = 80
; overhangs = 1
; perimeter_extruder = 1
; perimeter_extrusion_width = 0
; perimeter_speed = 60
; perimeters = 0
; small_perimeter_speed = 15
; solid_infill_below_area = 70
; solid_infill_every_layers = 0
; solid_infill_extruder = 1
; solid_infill_extrusion_width = 0
; solid_infill_speed = 20
; thin_walls = 1
; top_infill_extrusion_width = 0
; top_infill_pattern = rectilinear
; top_solid_infill_speed = 15
; top_solid_layers = 0
