; generated by Slic3r 1.3.0 on 2019-11-11 at 11:02:01

; external perimeters extrusion width = 0.55mm (4.37mm^3/s)
; perimeters extrusion width = 0.70mm (11.44mm^3/s)
; infill extrusion width = 0.63mm (13.45mm^3/s)
; solid infill extrusion width = 0.70mm (3.81mm^3/s)
; top infill extrusion width = 0.70mm (2.86mm^3/s)

M107
M104 S205 ; set temperature
G28 ; home all axes
G1 Z5 F5000 ; lift nozzle

; Filament gcode

M109 S205 ; set temperature and wait for it to be reached
G21 ; set units to millimeters
G90 ; use absolute coordinates
M82 ; use absolute distances for extrusion
G92 E0
G1 Z0.300 F7800.000
G1 E-2.00000 F2400.00000
G92 E0
G1 X92.511 Y95.156 F7800.000
G1 E2.00000 F2400.00000
G1 F1800
G1 X92.272 Y95.035 E2.00609
G1 X91.940 Y94.963 E2.01382
G1 X91.871 Y94.980 E2.01544
G1 X91.842 Y95.045 E2.01704
G1 X91.856 Y95.384 E2.02477
G1 X91.954 Y95.713 E2.03256
G1 X92.938 Y94.729 E2.06417
G1 X93.217 Y94.870 E2.07128
G1 X93.489 Y95.059 E2.07880
G1 X92.207 Y96.341 E2.12002
G1 X92.365 Y96.682 E2.12857
G1 X92.504 Y96.925 E2.13493
G1 X94.000 Y95.428 E2.18305
G1 X94.481 Y95.829 E2.19727
G1 X92.824 Y97.486 E2.25055
G1 X93.171 Y98.020 E2.26503
G1 X94.944 Y96.247 E2.32204
G1 X95.397 Y96.675 E2.33620
G1 X93.525 Y98.547 E2.39637
G1 X93.908 Y99.044 E2.41065
G1 X95.822 Y97.130 E2.47219
G1 X96.243 Y97.590 E2.48637
G1 X94.291 Y99.542 E2.54912
G1 X94.674 Y100.040 E2.56340
G1 X96.664 Y98.051 E2.62736
G1 X97.080 Y98.515 E2.64154
G1 X95.072 Y100.524 E2.70610
G1 X95.486 Y100.991 E2.72029
G1 X97.471 Y99.006 E2.78411
G1 X97.861 Y99.496 E2.79836
G1 X95.900 Y101.457 E2.86140
G1 X96.341 Y101.897 E2.87556
G1 X98.229 Y100.009 E2.93626
G1 X98.596 Y100.523 E2.95062
G1 X96.782 Y102.337 E3.00893
G1 X98.215 Y103.547 F7800.000
G1 F1800
G1 X101.210 Y100.551 E3.10524
G1 X101.271 Y99.610 E3.12668
G1 X97.718 Y103.163 E3.24088
G1 X97.243 Y102.757 E3.25508
G1 X101.312 Y98.688 E3.38592
G1 X101.330 Y97.789 E3.40636
G1 X98.750 Y100.369 E3.48931
G1 X98.698 Y99.540 E3.50818
G1 X101.304 Y96.934 E3.59195
G1 X101.271 Y96.086 E3.61126
G1 X98.678 Y98.679 E3.69462
G1 X98.679 Y97.797 E3.71466
G1 X101.239 Y95.237 E3.79696
G1 X101.163 Y94.433 E3.81533
G1 X98.714 Y96.881 E3.89404
G1 X98.749 Y95.965 E3.91488
G1 X101.067 Y93.648 E3.98939
G1 X100.944 Y92.890 E4.00684
G1 X98.821 Y95.012 E4.07509
G1 X98.893 Y94.320 E4.09091
G1 X98.943 Y94.009 E4.09807
G1 X100.776 Y92.176 E4.15700
G1 X100.711 Y91.912 E4.16318
G1 X100.558 Y91.514 E4.17289
G1 X99.143 Y92.928 E4.21835
G1 X99.289 Y92.339 E4.23215
G1 X99.521 Y91.737 E4.24681
G1 X99.673 Y91.518 E4.25288
G1 X100.216 Y90.975 E4.27034
G1 E2.27034 F2400.00000
G92 E0
G1 X105.447 Y96.315 F7800.000
G1 E2.00000 F2400.00000
G1 F1800
G1 X104.530 Y97.171 E2.02851
G1 X103.882 Y97.880 E2.05034
G1 X105.873 Y95.888 E2.11436
G1 X106.538 Y95.335 E2.13400
G1 X107.209 Y94.870 E2.15257
G1 X107.728 Y94.609 E2.16578
G1 X108.060 Y94.536 E2.17351
G1 X108.101 Y94.542 E2.17444
G1 X98.743 Y103.900 E2.47527
G1 X99.011 Y104.079 E2.48259
G1 X99.029 Y104.494 E2.49205
G1 X107.948 Y95.576 E2.77878
G1 X107.635 Y96.256 E2.79580
G1 X107.138 Y97.127 E2.81859
G1 X106.865 Y97.540 E2.82985
G1 X99.067 Y105.338 E3.08055
G1 X99.111 Y106.175 E3.09960
G1 X100.959 Y104.326 E3.15903
G1 X100.918 Y105.248 E3.18000
G1 X99.218 Y106.949 E3.23468
G1 X99.325 Y107.723 E3.25244
G1 X100.824 Y106.224 E3.30064
G1 X100.682 Y107.246 E3.32409
G1 X99.499 Y108.429 E3.36214
M104 S200 ; set temperature
G1 Z0.600 F7800.000
G1 X99.763 Y107.692 F7800.000
G1 F1928.13
G1 X99.937 Y108.430 E3.38019
G1 X100.103 Y108.846 E3.39085
G1 X100.233 Y109.028 E3.39617
G1 X100.362 Y108.846 E3.40148
G1 X100.520 Y108.449 E3.41167
G1 X99.298 Y107.226 E3.45280
G1 X99.157 Y106.204 E3.47735
G1 X100.695 Y107.742 E3.52910
G1 X100.802 Y106.968 E3.54769
G1 X99.062 Y105.229 E3.60623
G1 X99.021 Y104.307 E3.62818
G1 X100.909 Y106.194 E3.69169
G1 X100.953 Y105.357 E3.71164
G1 X93.116 Y97.520 E3.97535
G1 X92.843 Y97.107 E3.98713
G1 X92.345 Y96.237 E4.01098
G1 X92.031 Y95.555 E4.02884
G1 X100.990 Y104.514 E4.33029
G1 X101.009 Y104.098 E4.34019
G1 X101.276 Y103.919 E4.34786
G1 X91.880 Y94.523 E4.66404
G1 X91.920 Y94.517 E4.66501
G1 X92.253 Y94.589 E4.67310
G1 X92.771 Y94.851 E4.68692
G1 X93.443 Y95.316 E4.70636
G1 X94.107 Y95.869 E4.72693
G1 X96.137 Y97.899 E4.79523
G1 E2.79523 F2400.00000
G92 E0
G1 X98.769 Y100.531 F7800.000
G1 E2.00000 F2400.00000
G1 F1928.13
G1 X101.805 Y103.567 E2.10214
G1 X102.015 Y103.426 E2.10816
G1 X102.301 Y103.182 E2.11711
G1 X98.710 Y99.591 E2.23796
G1 X98.668 Y98.668 E2.25994
G1 X102.777 Y102.777 E2.39820
G1 X103.237 Y102.357 E2.41303
G1 X101.385 Y100.504 E2.47538
G1 X101.751 Y99.989 E2.49041
G1 X103.678 Y101.916 E2.55526
G1 X104.119 Y101.476 E2.57008
G1 X102.119 Y99.476 E2.63738
G1 X102.510 Y98.986 E2.65229
G1 X104.534 Y101.010 E2.72040
G1 X104.948 Y100.543 E2.73525
G1 X102.901 Y98.496 E2.80413
G1 X103.317 Y98.031 E2.81898
G1 X105.345 Y100.060 E2.88723
G1 X105.728 Y99.562 E2.90217
G1 X103.737 Y97.571 E2.96916
G1 X104.158 Y97.111 E2.98400
G1 X106.111 Y99.064 E3.04972
G1 X106.494 Y98.566 E3.06467
G1 X104.584 Y96.656 E3.12895
G1 X105.036 Y96.227 E3.14378
G1 X106.849 Y98.039 E3.20476
G1 X107.196 Y97.505 E3.21991
G1 X105.499 Y95.809 E3.27698
G1 X105.980 Y95.409 E3.29187
G1 X107.516 Y96.945 E3.34355
G1 X107.655 Y96.702 E3.35020
G1 X107.812 Y96.360 E3.35916
G1 X106.491 Y95.039 E3.40359
G1 X106.764 Y94.851 E3.41147
G1 X107.043 Y94.710 E3.41892
G1 X108.065 Y95.732 E3.45330
G1 E1.45330 F2400.00000
G92 E0
G1 X101.850 Y100.969 F7800.000
G1 E2.00000 F2400.00000
G1 F1928.13
G1 X101.699 Y101.181 E2.00620
G1 X101.229 Y101.014 E2.01806
G1 X101.269 Y100.388 E2.03300
G1 X98.649 Y97.769 E2.12113
G1 X98.676 Y96.915 E2.14146
G1 X101.322 Y99.560 E2.23047
G1 X101.341 Y98.698 E2.25099
G1 X98.709 Y96.066 E2.33954
G1 X98.741 Y95.218 E2.35974
G1 X101.340 Y97.816 E2.44718
G1 X101.305 Y96.900 E2.46898
G1 X98.818 Y94.413 E2.55268
G1 X98.913 Y93.628 E2.57150
G1 X101.270 Y95.984 E2.65080
G1 X101.255 Y95.576 E2.66052
G1 X101.198 Y95.031 E2.67355
G1 X99.037 Y92.870 E2.74628
G1 X99.204 Y92.157 E2.76371
G1 X101.076 Y94.028 E2.82669
G1 X100.948 Y93.239 E2.84571
G1 X100.876 Y92.948 E2.85285
G1 X99.423 Y91.495 E2.90175
G1 X99.501 Y91.291 E2.90693
G1 X99.713 Y90.986 E2.91576
G1 X99.759 Y90.956 E2.91708
G1 X100.345 Y91.536 E2.93668
G1 Z0.900 F7800.000
G1 X100.235 Y90.955 F7800.000
G1 F1940.62
G1 X99.654 Y91.537 E2.95626
G1 X99.501 Y91.757 E2.96262
G1 X99.269 Y92.358 E2.97796
G1 X99.124 Y92.948 E2.99240
G1 X100.577 Y91.495 E3.04130
G1 X100.731 Y91.893 E3.05146
G1 X100.796 Y92.157 E3.05793
G1 X98.924 Y94.029 E3.12092
G1 X98.873 Y94.339 E3.12841
G1 X98.802 Y95.032 E3.14497
G1 X100.963 Y92.870 E3.21771
G1 X101.086 Y93.628 E3.23598
G1 X98.730 Y95.985 E3.31527
G1 X98.695 Y96.901 E3.33708
G1 X101.182 Y94.413 E3.42078
G1 X101.259 Y95.218 E3.44001
G1 X98.660 Y97.817 E3.52746
G1 X98.659 Y98.698 E3.54843
G1 X101.291 Y96.066 E3.63699
G1 X101.323 Y96.915 E3.65720
G1 X98.678 Y99.560 E3.74620
G1 X98.731 Y100.388 E3.76595
G1 X101.350 Y97.769 E3.85408
G1 X101.332 Y98.668 E3.87547
G1 X97.223 Y102.777 E4.01372
G1 X97.699 Y103.182 E4.02859
G1 X101.290 Y99.591 E4.14943
G1 X101.230 Y100.532 E4.17186
G1 X98.195 Y103.567 E4.27398
G1 X96.762 Y102.357 F7800.000
G1 F1940.62
G1 X98.615 Y100.504 E4.33632
G1 X98.249 Y99.989 E4.35135
G1 X96.322 Y101.916 E4.41619
G1 X95.881 Y101.476 E4.43101
G1 X97.881 Y99.476 E4.49831
G1 X97.490 Y98.986 E4.51322
G1 X95.466 Y101.010 E4.58133
G1 X95.052 Y100.543 E4.59618
G1 X97.099 Y98.496 E4.66506
G1 X96.683 Y98.031 E4.67991
G1 X94.655 Y100.060 E4.74816
G1 X94.272 Y99.562 E4.76310
G1 X96.263 Y97.571 E4.83009
G1 X95.842 Y97.111 E4.84493
G1 X93.889 Y99.064 E4.91065
G1 X93.506 Y98.566 E4.92560
G1 X95.416 Y96.656 E4.98988
G1 X94.964 Y96.227 E5.00471
G1 X93.151 Y98.039 E5.06569
G1 X92.804 Y97.505 E5.08084
G1 X94.501 Y95.809 E5.13792
G1 X94.020 Y95.409 E5.15280
G1 X92.484 Y96.945 E5.20448
G1 X92.345 Y96.702 E5.21114
G1 X92.188 Y96.360 E5.22009
G1 X93.509 Y95.039 E5.26453
G1 X93.236 Y94.851 E5.27241
G1 X92.957 Y94.710 E5.27985
G1 X91.935 Y95.732 E5.31424
G1 X91.836 Y95.404 E5.32240
G1 X91.823 Y95.064 E5.33049
G1 X91.851 Y95.000 E5.33216
G1 X91.920 Y94.982 E5.33386
G1 X92.253 Y95.055 E5.34195
G1 X92.492 Y95.175 E5.34832
G1 E3.34832 F2400.00000
G92 E0
G1 X105.428 Y96.334 F7800.000
G1 E2.00000 F2400.00000
G1 F1940.62
G1 X104.511 Y97.190 E2.02984
G1 X103.863 Y97.899 E2.05269
G1 X105.893 Y95.869 E2.12100
G1 X106.557 Y95.316 E2.14157
G1 X107.229 Y94.851 E2.16100
G1 X107.747 Y94.589 E2.17483
G1 X108.080 Y94.517 E2.18291
G1 X108.120 Y94.523 E2.18389
G1 X98.724 Y103.919 E2.50007
G1 X98.991 Y104.098 E2.50774
G1 X99.010 Y104.514 E2.51764
G1 X107.967 Y95.556 E2.81905
G1 X107.655 Y96.237 E2.83687
G1 X107.157 Y97.107 E2.86073
G1 X106.884 Y97.520 E2.87251
G1 X99.047 Y105.357 E3.13622
G1 X99.091 Y106.194 E3.15616
G1 X100.979 Y104.307 E3.21967
G1 X100.938 Y105.229 E3.24163
G1 X99.198 Y106.968 E3.30016
G1 X99.305 Y107.742 E3.31875
G1 X100.843 Y106.204 E3.37050
G1 X100.702 Y107.226 E3.39506
G1 X99.480 Y108.449 E3.43619
M106 S255
G1 Z1.200 F7800.000
G1 X99.763 Y107.692 F7800.000
G1 F1928.09
G1 X99.937 Y108.430 E3.45424
G1 X100.103 Y108.846 E3.46490
G1 X100.233 Y109.028 E3.47021
G1 X100.362 Y108.846 E3.47553
G1 X100.520 Y108.449 E3.48571
G1 X99.298 Y107.226 E3.52684
G1 X99.157 Y106.204 E3.55140
G1 X100.695 Y107.742 E3.60315
G1 X100.802 Y106.968 E3.62174
G1 X99.062 Y105.229 E3.68028
G1 X99.021 Y104.307 E3.70223
G1 X100.909 Y106.194 E3.76574
G1 X100.953 Y105.357 E3.78568
G1 X93.116 Y97.520 E4.04940
G1 X92.843 Y97.107 E4.06117
G1 X92.345 Y96.237 E4.08503
G1 X92.031 Y95.555 E4.10288
G1 X100.990 Y104.514 E4.40434
G1 X101.009 Y104.098 E4.41424
G1 X101.276 Y103.919 E4.42190
G1 X91.880 Y94.523 E4.73809
G1 X91.920 Y94.517 E4.73906
G1 X92.253 Y94.589 E4.74715
G1 X92.771 Y94.851 E4.76097
G1 X93.443 Y95.316 E4.78041
G1 X94.107 Y95.869 E4.80098
G1 X96.137 Y97.899 E4.86928
G1 E2.86928 F2400.00000
G92 E0
G1 X98.769 Y100.531 F7800.000
G1 E2.00000 F2400.00000
G1 F1928.09
G1 X101.805 Y103.567 E2.10214
G1 X102.015 Y103.426 E2.10816
G1 X102.301 Y103.182 E2.11711
G1 X98.710 Y99.591 E2.23796
G1 X98.668 Y98.668 E2.25994
G1 X102.777 Y102.777 E2.39820
G1 X103.237 Y102.357 E2.41303
G1 X101.385 Y100.504 E2.47538
G1 X101.751 Y99.989 E2.49041
G1 X103.678 Y101.916 E2.55526
G1 X104.119 Y101.476 E2.57008
G1 X102.119 Y99.476 E2.63738
G1 X102.510 Y98.986 E2.65229
G1 X104.534 Y101.010 E2.72040
G1 X104.948 Y100.543 E2.73525
G1 X102.901 Y98.496 E2.80413
G1 X103.317 Y98.031 E2.81898
G1 X105.345 Y100.060 E2.88723
G1 X105.728 Y99.562 E2.90217
G1 X103.737 Y97.571 E2.96916
G1 X104.158 Y97.111 E2.98400
G1 X106.111 Y99.064 E3.04972
G1 X106.494 Y98.566 E3.06467
G1 X104.584 Y96.656 E3.12895
G1 X105.036 Y96.227 E3.14378
G1 X106.849 Y98.039 E3.20476
G1 X107.196 Y97.505 E3.21991
G1 X105.499 Y95.809 E3.27698
G1 X105.980 Y95.409 E3.29187
G1 X107.516 Y96.945 E3.34355
G1 X107.655 Y96.702 E3.35020
G1 X107.812 Y96.360 E3.35916
G1 X106.491 Y95.039 E3.40359
G1 X106.764 Y94.851 E3.41147
G1 X107.043 Y94.710 E3.41892
G1 X108.065 Y95.732 E3.45330
G1 E1.45330 F2400.00000
G92 E0
G1 X101.850 Y100.969 F7800.000
G1 E2.00000 F2400.00000
G1 F1928.09
G1 X101.699 Y101.181 E2.00620
G1 X101.229 Y101.014 E2.01806
G1 X101.269 Y100.388 E2.03300
G1 X98.649 Y97.769 E2.12113
G1 X98.676 Y96.915 E2.14146
G1 X101.322 Y99.560 E2.23047
G1 X101.341 Y98.698 E2.25099
G1 X98.709 Y96.066 E2.33954
G1 X98.741 Y95.218 E2.35974
G1 X101.340 Y97.816 E2.44718
G1 X101.305 Y96.900 E2.46898
G1 X98.818 Y94.413 E2.55268
G1 X98.913 Y93.628 E2.57150
G1 X101.270 Y95.984 E2.65080
G1 X101.255 Y95.576 E2.66052
G1 X101.198 Y95.031 E2.67355
G1 X99.037 Y92.870 E2.74628
G1 X99.204 Y92.157 E2.76371
G1 X101.076 Y94.028 E2.82669
G1 X100.948 Y93.239 E2.84571
G1 X100.876 Y92.948 E2.85285
G1 X99.423 Y91.495 E2.90175
G1 X99.501 Y91.291 E2.90693
G1 X99.713 Y90.986 E2.91576
G1 X99.770 Y90.961 E2.91726
G1 X100.345 Y91.536 E2.93659
G1 Z1.500 F7800.000
G1 X100.235 Y90.955 F7800.000
G1 F2149.65
G1 X99.654 Y91.537 E2.95617
G1 X99.501 Y91.757 E2.96253
G1 X99.269 Y92.358 E2.97787
G1 X99.124 Y92.948 E2.99232
G1 X100.577 Y91.495 E3.04121
G1 X100.731 Y91.893 E3.05138
G1 X100.796 Y92.157 E3.05784
G1 X98.924 Y94.029 E3.12083
G1 X98.873 Y94.339 E3.12832
G1 X98.802 Y95.032 E3.14488
G1 X100.963 Y92.870 E3.21762
G1 X101.086 Y93.628 E3.23590
G1 X98.730 Y95.985 E3.31519
G1 X98.695 Y96.901 E3.33700
G1 X101.182 Y94.413 E3.42069
G1 X101.259 Y95.218 E3.43992
G1 X98.660 Y97.817 E3.52737
G1 X98.659 Y98.698 E3.54835
G1 X101.291 Y96.066 E3.63691
G1 X101.323 Y96.915 E3.65711
G1 X98.678 Y99.560 E3.74611
G1 X98.731 Y100.388 E3.76586
G1 X101.350 Y97.769 E3.85399
G1 X101.332 Y98.668 E3.87538
G1 X97.223 Y102.777 E4.01363
G1 X97.699 Y103.182 E4.02850
G1 X101.290 Y99.591 E4.14934
G1 X101.230 Y100.532 E4.17178
G1 X99.265 Y102.497 E4.23791
G1 X98.660 Y103.101 F7800.000
G1 F2149.65
G1 X98.898 Y103.260 E4.24472
G1 X98.999 Y102.763 E4.25679
G1 X98.195 Y103.567 E4.28383
G1 X96.762 Y102.357 F7800.000
G1 F2149.65
G1 X98.615 Y100.504 E4.34617
G1 X98.249 Y99.989 E4.36120
G1 X96.322 Y101.916 E4.42604
G1 X95.881 Y101.476 E4.44086
G1 X97.881 Y99.476 E4.50815
G1 X97.490 Y98.986 E4.52307
G1 X95.466 Y101.010 E4.59118
G1 X95.052 Y100.543 E4.60602
G1 X97.099 Y98.496 E4.67491
G1 X96.683 Y98.031 E4.68975
G1 X94.655 Y100.060 E4.75800
G1 X94.272 Y99.562 E4.77295
G1 X96.263 Y97.571 E4.83994
G1 X95.842 Y97.111 E4.85477
G1 X93.889 Y99.064 E4.92050
G1 X93.506 Y98.566 E4.93544
G1 X95.416 Y96.656 E4.99973
G1 X94.964 Y96.227 E5.01456
G1 X93.151 Y98.039 E5.07554
G1 X92.804 Y97.505 E5.09069
G1 X94.501 Y95.809 E5.14776
G1 X94.020 Y95.409 E5.16265
G1 X92.484 Y96.945 E5.21432
G1 X92.345 Y96.702 E5.22098
G1 X92.188 Y96.360 E5.22993
G1 X93.509 Y95.039 E5.27438
G1 X93.236 Y94.851 E5.28225
G1 X92.957 Y94.710 E5.28970
G1 X91.935 Y95.732 E5.32409
G1 X91.836 Y95.404 E5.33225
G1 X91.823 Y95.064 E5.34034
G1 X91.851 Y95.000 E5.34201
G1 X91.920 Y94.982 E5.34371
G1 X92.253 Y95.055 E5.35179
G1 X92.492 Y95.175 E5.35817
G1 E3.35817 F2400.00000
G92 E0
G1 X101.034 Y103.371 F7800.000
G1 E2.00000 F2400.00000
G1 F2149.65
G1 X106.884 Y97.520 E2.19688
G1 X107.157 Y97.107 E2.20865
G1 X107.655 Y96.237 E2.23251
G1 X107.967 Y95.556 E2.25033
G1 X100.722 Y102.802 E2.49415
G1 X100.261 Y102.492 E2.50736
G1 X100.169 Y102.474 E2.50960
G1 X108.120 Y94.523 E2.77715
G1 X108.080 Y94.517 E2.77812
G1 X107.747 Y94.589 E2.78621
G1 X107.229 Y94.851 E2.80003
G1 X106.557 Y95.316 E2.81947
G1 X105.893 Y95.869 E2.84004
G1 X103.863 Y97.899 E2.90834
G1 X104.511 Y97.190 E2.93120
G1 X105.428 Y96.334 E2.96104
G1 E0.96104 F2400.00000
G92 E0
G1 X99.870 Y104.534 F7800.000
G1 E2.00000 F2400.00000
G1 F2149.65
G1 X99.047 Y105.357 E2.02770
G1 X99.091 Y106.194 E2.04764
G1 X100.872 Y104.414 E2.10756
G1 X100.977 Y104.345 E2.11055
G1 X100.938 Y105.229 E2.13161
G1 X99.198 Y106.968 E2.19014
G1 X99.305 Y107.742 E2.20873
G1 X100.843 Y106.204 E2.26049
G1 X100.702 Y107.226 E2.28504
G1 X99.480 Y108.449 E2.32617
G1 E0.32617 F2400.00000
G92 E0
G1 X100.265 Y104.261 F7800.000
G1 E2.00000 F2400.00000
G1 F600
G1 X100.760 Y103.766 E2.02156
G1 X100.923 Y103.518 E2.03069
G1 X100.973 Y103.253 E2.03899
G1 X100.923 Y102.988 E2.04729
G1 X100.760 Y102.740 E2.05643
G1 X99.240 Y104.261 E2.12262
G1 X99.077 Y104.012 E2.13177
G1 X99.026 Y103.748 E2.14006
G1 X99.077 Y103.483 E2.14836
G1 X99.240 Y103.235 E2.15750
G1 X99.735 Y102.740 E2.17906
G1 Z1.800 F7800.000
G1 X100.266 Y102.741 F7800.000
G1 F600
G1 X100.761 Y103.236 E2.20058
G1 X100.760 Y104.261 F7800.000
G1 F600
G1 X99.240 Y102.740 E2.26677
G1 X99.077 Y102.988 E2.27591
G1 X99.026 Y103.253 E2.28421
G1 X99.077 Y103.518 E2.29250
G1 X99.240 Y103.766 E2.30164
G1 X99.734 Y104.260 E2.32317
G1 Z2.100 F7800.000
G1 X100.265 Y104.261 F7800.000
G1 F600
G1 X100.760 Y103.766 E2.34472
G1 X100.923 Y103.518 E2.35386
G1 X100.973 Y103.253 E2.36216
G1 X100.923 Y102.988 E2.37046
G1 X100.760 Y102.741 E2.37959
G1 X99.240 Y104.261 E2.44576
G1 X99.077 Y104.012 E2.45491
G1 X99.026 Y103.748 E2.46320
G1 X99.077 Y103.483 E2.47150
G1 X99.240 Y103.235 E2.48064
G1 X99.735 Y102.740 E2.50220
G1 Z2.400 F7800.000
G1 X100.268 Y102.743 F7800.000
G1 F600
G1 X100.762 Y103.238 E2.52372
G1 X100.760 Y104.261 F7800.000
G1 F600
G1 X99.240 Y102.740 E2.58988
G1 X99.077 Y102.988 E2.59901
G1 X99.026 Y103.253 E2.60730
G1 X99.077 Y103.518 E2.61559
G1 X99.240 Y103.766 E2.62473
G1 X99.734 Y104.260 E2.64625
G1 Z2.700 F7800.000
G1 X100.265 Y104.261 F7800.000
G1 F600
G1 X100.760 Y103.766 E2.66780
G1 X100.923 Y103.518 E2.67694
G1 X100.973 Y103.253 E2.68524
G1 X100.923 Y102.988 E2.69354
G1 X100.760 Y102.740 E2.70268
G1 X99.240 Y104.261 E2.76887
G1 X99.077 Y104.012 E2.77802
G1 X99.026 Y103.748 E2.78632
G1 X99.077 Y103.483 E2.79461
G1 X99.240 Y103.235 E2.80376
G1 X99.735 Y102.740 E2.82531
G1 Z3.000 F7800.000
G1 X100.266 Y102.740 F7800.000
G1 F600
G1 X100.760 Y103.235 E2.84684
G1 X100.760 Y104.261 F7800.000
G1 F600
G1 X99.240 Y102.740 E2.91304
G1 X99.077 Y102.988 E2.92218
G1 X99.026 Y103.253 E2.93048
G1 X99.077 Y103.518 E2.93878
G1 X99.240 Y103.766 E2.94792
G1 X99.734 Y104.260 E2.96945
G1 Z3.300 F7800.000
G1 X100.265 Y104.261 F7800.000
G1 F600
G1 X100.760 Y103.766 E2.99100
G1 X100.923 Y103.518 E3.00014
G1 X100.973 Y103.253 E3.00844
G1 X100.923 Y102.988 E3.01674
G1 X100.760 Y102.740 E3.02588
G1 X99.240 Y104.261 E3.09208
G1 X99.077 Y104.012 E3.10122
G1 X99.026 Y103.748 E3.10952
G1 X99.077 Y103.483 E3.11782
G1 X99.240 Y103.235 E3.12696
G1 X99.735 Y102.740 E3.14851
G1 Z3.600 F7800.000
G1 X100.266 Y102.740 F7800.000
G1 F600
G1 X100.760 Y103.235 E3.17004
G1 X100.760 Y104.261 F7800.000
G1 F600
G1 X99.240 Y102.740 E3.23624
G1 X99.077 Y102.988 E3.24538
G1 X99.026 Y103.253 E3.25368
G1 X99.077 Y103.518 E3.26198
G1 X99.240 Y103.766 E3.27112
G1 X99.734 Y104.260 E3.29265
G1 Z3.900 F7800.000
G1 X100.265 Y104.261 F7800.000
G1 F600
G1 X100.760 Y103.766 E3.31420
G1 X100.923 Y103.518 E3.32334
G1 X100.973 Y103.253 E3.33164
G1 X100.923 Y102.988 E3.33994
G1 X100.760 Y102.740 E3.34908
G1 X99.240 Y104.261 E3.41528
G1 X99.077 Y104.012 E3.42442
G1 X99.026 Y103.748 E3.43272
G1 X99.077 Y103.483 E3.44102
G1 X99.240 Y103.235 E3.45016
G1 X99.735 Y102.740 E3.47171
G1 Z4.200 F7800.000
G1 X100.266 Y102.740 F7800.000
G1 F600
G1 X100.760 Y103.235 E3.49324
G1 X100.760 Y104.261 F7800.000
G1 F600
G1 X99.240 Y102.740 E3.55944
G1 X99.077 Y102.988 E3.56858
G1 X99.026 Y103.253 E3.57688
G1 X99.077 Y103.518 E3.58518
G1 X99.240 Y103.766 E3.59432
G1 X99.734 Y104.260 E3.61585
G1 Z4.500 F7800.000
G1 X100.265 Y104.261 F7800.000
G1 F600
G1 X100.760 Y103.766 E3.63741
G1 X100.923 Y103.518 E3.64654
G1 X100.973 Y103.253 E3.65484
G1 X100.923 Y102.988 E3.66314
G1 X100.760 Y102.740 E3.67228
G1 X99.240 Y104.261 E3.73848
G1 X99.077 Y104.012 E3.74762
G1 X99.026 Y103.748 E3.75592
G1 X99.077 Y103.483 E3.76422
G1 X99.240 Y103.235 E3.77336
G1 X99.735 Y102.740 E3.79492
G1 Z4.800 F7800.000
G1 X100.266 Y102.740 F7800.000
G1 F600
G1 X100.760 Y103.235 E3.81644
G1 X100.760 Y104.261 F7800.000
G1 F600
G1 X99.240 Y102.740 E3.88264
G1 X99.077 Y102.988 E3.89179
G1 X99.026 Y103.253 E3.90008
G1 X99.077 Y103.518 E3.90838
G1 X99.240 Y103.766 E3.91752
G1 X99.734 Y104.260 E3.93905
G1 Z5.100 F7800.000
G1 X100.265 Y104.261 F7800.000
G1 F600
G1 X100.760 Y103.766 E3.96061
G1 X100.923 Y103.518 E3.96974
G1 X100.973 Y103.253 E3.97804
G1 X100.923 Y102.988 E3.98634
G1 X100.760 Y102.740 E3.99548
G1 X99.240 Y104.261 E4.06168
G1 X99.077 Y104.012 E4.07082
G1 X99.026 Y103.748 E4.07912
G1 X99.077 Y103.483 E4.08742
G1 X99.240 Y103.235 E4.09656
G1 X99.735 Y102.740 E4.11812
G1 Z5.400 F7800.000
G1 X100.266 Y102.740 F7800.000
G1 F600
G1 X100.760 Y103.235 E4.13964
G1 X100.760 Y104.261 F7800.000
G1 F600
G1 X99.240 Y102.740 E4.20584
G1 X99.077 Y102.988 E4.21499
G1 X99.026 Y103.253 E4.22328
G1 X99.077 Y103.518 E4.23158
G1 X99.240 Y103.766 E4.24072
G1 X99.734 Y104.260 E4.26225
G1 Z5.700 F7800.000
G1 X100.265 Y104.261 F7800.000
G1 F600
G1 X100.760 Y103.766 E4.28381
G1 X100.923 Y103.518 E4.29294
G1 X100.973 Y103.253 E4.30124
G1 X100.923 Y102.988 E4.30954
G1 X100.760 Y102.740 E4.31868
G1 X99.240 Y104.261 E4.38488
G1 X99.077 Y104.012 E4.39402
G1 X99.026 Y103.748 E4.40232
G1 X99.077 Y103.483 E4.41062
G1 X99.240 Y103.235 E4.41976
G1 X99.735 Y102.740 E4.44132
G1 Z6.000 F7800.000
G1 X100.266 Y102.740 F7800.000
G1 F600
G1 X100.760 Y103.235 E4.46284
G1 X100.760 Y104.261 F7800.000
G1 F600
G1 X99.240 Y102.740 E4.52904
G1 X99.077 Y102.988 E4.53819
G1 X99.026 Y103.253 E4.54648
G1 X99.077 Y103.518 E4.55478
G1 X99.240 Y103.766 E4.56392
G1 X99.734 Y104.260 E4.58545
G1 Z6.300 F7800.000
G1 X100.265 Y104.261 F7800.000
G1 F600
G1 X100.760 Y103.766 E4.60701
G1 X100.923 Y103.518 E4.61614
G1 X100.973 Y103.253 E4.62444
G1 X100.923 Y102.988 E4.63275
G1 X100.760 Y102.740 E4.64188
G1 X99.240 Y104.261 E4.70808
G1 X99.077 Y104.012 E4.71722
G1 X99.026 Y103.748 E4.72552
G1 X99.077 Y103.483 E4.73382
G1 X99.240 Y103.235 E4.74296
G1 X99.735 Y102.740 E4.76452
G1 Z6.600 F7800.000
G1 X100.266 Y102.740 F7800.000
G1 F600
G1 X100.760 Y103.235 E4.78604
G1 X100.760 Y104.261 F7800.000
G1 F600
G1 X99.240 Y102.740 E4.85224
G1 X99.077 Y102.988 E4.86139
G1 X99.026 Y103.253 E4.86969
G1 X99.077 Y103.518 E4.87798
G1 X99.240 Y103.766 E4.88712
G1 X99.734 Y104.260 E4.90865
G1 Z6.900 F7800.000
G1 X100.265 Y104.261 F7800.000
G1 F600
G1 X100.760 Y103.766 E4.93021
G1 X100.923 Y103.518 E4.93934
G1 X100.973 Y103.253 E4.94764
G1 X100.923 Y102.988 E4.95595
G1 X100.760 Y102.740 E4.96508
G1 X99.240 Y104.261 E5.03128
G1 X99.077 Y104.012 E5.04043
G1 X99.026 Y103.748 E5.04872
G1 X99.077 Y103.483 E5.05702
G1 X99.240 Y103.235 E5.06616
G1 X99.735 Y102.740 E5.08772
G1 Z7.200 F7800.000
G1 X100.266 Y102.740 F7800.000
G1 F600
G1 X100.760 Y103.235 E5.10925
G1 X100.760 Y104.261 F7800.000
G1 F600
G1 X99.240 Y102.740 E5.17544
G1 X99.077 Y102.988 E5.18459
G1 X99.026 Y103.253 E5.19289
G1 X99.077 Y103.518 E5.20118
G1 X99.240 Y103.766 E5.21033
G1 X99.734 Y104.260 E5.23185
G1 Z7.500 F7800.000
G1 X100.265 Y104.261 F7800.000
G1 F600
G1 X100.760 Y103.766 E5.25341
G1 X100.923 Y103.518 E5.26254
G1 X100.973 Y103.253 E5.27084
G1 X100.923 Y102.988 E5.27915
G1 X100.760 Y102.740 E5.28828
G1 X99.240 Y104.261 E5.35448
G1 X99.077 Y104.012 E5.36363
G1 X99.026 Y103.748 E5.37192
G1 X99.077 Y103.483 E5.38022
G1 X99.240 Y103.235 E5.38936
G1 X99.735 Y102.740 E5.41092
G1 Z7.800 F7800.000
G1 X100.266 Y102.740 F7800.000
G1 F600
G1 X100.760 Y103.235 E5.43245
G1 X100.760 Y104.261 F7800.000
G1 F600
G1 X99.240 Y102.740 E5.49865
G1 X99.077 Y102.988 E5.50779
G1 X99.026 Y103.253 E5.51609
G1 X99.077 Y103.518 E5.52439
G1 X99.240 Y103.766 E5.53353
G1 X99.734 Y104.260 E5.55505
G1 Z8.100 F7800.000
G1 X100.265 Y104.261 F7800.000
G1 F600
G1 X100.760 Y103.766 E5.57661
G1 X100.923 Y103.518 E5.58574
G1 X100.973 Y103.253 E5.59405
G1 X100.923 Y102.988 E5.60235
G1 X100.760 Y102.740 E5.61148
G1 X99.240 Y104.261 E5.67768
G1 X99.077 Y104.012 E5.68683
G1 X99.026 Y103.748 E5.69512
G1 X99.077 Y103.483 E5.70342
G1 X99.240 Y103.235 E5.71256
G1 X99.735 Y102.740 E5.73412
G1 Z8.400 F7800.000
G1 X100.266 Y102.740 F7800.000
G1 F600
G1 X100.760 Y103.235 E5.75565
G1 X100.760 Y104.261 F7800.000
G1 F600
G1 X99.240 Y102.740 E5.82185
G1 X99.077 Y102.988 E5.83099
G1 X99.026 Y103.253 E5.83929
G1 X99.077 Y103.518 E5.84759
G1 X99.240 Y103.766 E5.85673
G1 X99.734 Y104.260 E5.87825
G1 Z8.700 F7800.000
G1 X100.265 Y104.261 F7800.000
G1 F600
G1 X100.760 Y103.766 E5.89981
G1 X100.923 Y103.518 E5.90894
G1 X100.973 Y103.253 E5.91725
G1 X100.923 Y102.988 E5.92555
G1 X100.760 Y102.740 E5.93468
G1 X99.240 Y104.261 E6.00088
G1 X99.077 Y104.012 E6.01003
G1 X99.026 Y103.748 E6.01833
G1 X99.077 Y103.483 E6.02662
G1 X99.240 Y103.235 E6.03576
G1 X99.735 Y102.740 E6.05732
G1 Z9.000 F7800.000
G1 X100.266 Y102.740 F7800.000
G1 F600
G1 X100.760 Y103.235 E6.07885
G1 X100.760 Y104.261 F7800.000
G1 F600
G1 X99.240 Y102.740 E6.14505
G1 X99.077 Y102.988 E6.15419
G1 X99.026 Y103.253 E6.16249
G1 X99.077 Y103.518 E6.17079
G1 X99.240 Y103.766 E6.17993
G1 X99.734 Y104.260 E6.20146
G1 Z9.300 F7800.000
G1 X100.265 Y104.261 F7800.000
G1 F600
G1 X100.760 Y103.766 E6.22301
G1 X100.923 Y103.518 E6.23214
G1 X100.973 Y103.253 E6.24045
G1 X100.923 Y102.988 E6.24875
G1 X100.760 Y102.740 E6.25788
G1 X99.240 Y104.261 E6.32408
G1 X99.077 Y104.012 E6.33323
G1 X99.026 Y103.748 E6.34153
G1 X99.077 Y103.483 E6.34982
G1 X99.240 Y103.235 E6.35897
G1 X99.735 Y102.740 E6.38052
G1 Z9.600 F7800.000
G1 X100.266 Y102.740 F7800.000
G1 F600
G1 X100.760 Y103.235 E6.40205
G1 X100.760 Y104.261 F7800.000
G1 F600
G1 X99.240 Y102.740 E6.46825
G1 X99.077 Y102.988 E6.47739
G1 X99.026 Y103.253 E6.48569
G1 X99.077 Y103.518 E6.49399
G1 X99.240 Y103.766 E6.50313
G1 X99.734 Y104.260 E6.52466
G1 Z9.900 F7800.000
G1 X100.265 Y104.261 F7800.000
G1 F600
G1 X100.760 Y103.766 E6.54621
G1 X100.923 Y103.518 E6.55535
G1 X100.973 Y103.253 E6.56365
G1 X100.923 Y102.988 E6.57195
G1 X100.760 Y102.740 E6.58109
G1 X99.240 Y104.261 E6.64729
G1 X99.077 Y104.012 E6.65643
G1 X99.026 Y103.748 E6.66473
G1 X99.077 Y103.483 E6.67302
G1 X99.240 Y103.235 E6.68217
G1 X99.735 Y102.740 E6.70372
G1 Z10.200 F7800.000
G1 X100.266 Y102.740 F7800.000
G1 F600
G1 X100.760 Y103.235 E6.72525
G1 X100.760 Y104.261 F7800.000
G1 F600
G1 X99.240 Y102.740 E6.79145
G1 X99.077 Y102.988 E6.80059
G1 X99.026 Y103.253 E6.80889
G1 X99.077 Y103.518 E6.81719
G1 X99.240 Y103.766 E6.82633
G1 X99.734 Y104.260 E6.84786
G1 Z10.500 F7800.000
G1 X100.265 Y104.261 F7800.000
G1 F600
G1 X100.760 Y103.766 E6.86941
G1 X100.923 Y103.518 E6.87855
G1 X100.973 Y103.253 E6.88685
G1 X100.923 Y102.988 E6.89515
G1 X100.760 Y102.740 E6.90429
G1 X99.240 Y104.261 E6.97049
G1 X99.077 Y104.012 E6.97963
G1 X99.026 Y103.748 E6.98793
G1 X99.077 Y103.483 E6.99623
G1 X99.240 Y103.235 E7.00537
G1 X99.735 Y102.740 E7.02692
G1 Z10.800 F7800.000
G1 X100.266 Y102.740 F7800.000
G1 F600
G1 X100.760 Y103.235 E7.04845
G1 X100.760 Y104.261 F7800.000
G1 F600
G1 X99.240 Y102.740 E7.11465
G1 X99.077 Y102.988 E7.12379
G1 X99.026 Y103.253 E7.13209
G1 X99.077 Y103.518 E7.14039
G1 X99.240 Y103.766 E7.14953
G1 X99.734 Y104.260 E7.17106
G1 Z11.100 F7800.000
G1 X100.265 Y104.261 F7800.000
G1 F600
G1 X100.760 Y103.766 E7.19261
G1 X100.923 Y103.518 E7.20175
G1 X100.973 Y103.253 E7.21005
G1 X100.923 Y102.988 E7.21835
G1 X100.760 Y102.740 E7.22749
G1 X99.240 Y104.261 E7.29369
G1 X99.077 Y104.012 E7.30283
G1 X99.026 Y103.748 E7.31113
G1 X99.077 Y103.483 E7.31943
G1 X99.240 Y103.235 E7.32857
G1 X99.735 Y102.740 E7.35012
G1 Z11.400 F7800.000
G1 X100.266 Y102.740 F7800.000
G1 F600
G1 X100.760 Y103.235 E7.37165
G1 X100.760 Y104.261 F7800.000
G1 F600
G1 X99.240 Y102.740 E7.43785
G1 X99.077 Y102.988 E7.44700
G1 X99.026 Y103.253 E7.45529
G1 X99.077 Y103.518 E7.46359
G1 X99.240 Y103.766 E7.47273
G1 X99.734 Y104.260 E7.49426
G1 Z11.700 F7800.000
G1 X100.265 Y104.261 F7800.000
G1 F600
G1 X100.760 Y103.766 E7.51582
G1 X100.923 Y103.518 E7.52495
G1 X100.973 Y103.253 E7.53325
G1 X100.923 Y102.988 E7.54155
G1 X100.760 Y102.740 E7.55069
G1 X99.240 Y104.261 E7.61689
G1 X99.077 Y104.012 E7.62603
G1 X99.026 Y103.748 E7.63433
G1 X99.077 Y103.483 E7.64263
G1 X99.240 Y103.235 E7.65177
G1 X99.735 Y102.740 E7.67333
G1 Z12.000 F7800.000
G1 X100.266 Y102.740 F7800.000
G1 F600
G1 X100.760 Y103.235 E7.69485
G1 X100.760 Y104.261 F7800.000
G1 F600
G1 X99.240 Y102.740 E7.76105
G1 X99.077 Y102.988 E7.77020
G1 X99.026 Y103.253 E7.77849
G1 X99.077 Y103.518 E7.78679
G1 X99.240 Y103.766 E7.79593
G1 X99.734 Y104.260 E7.81746
G1 Z12.300 F7800.000
G1 X100.265 Y104.261 F7800.000
G1 F600
G1 X100.760 Y103.766 E7.83902
G1 X100.923 Y103.518 E7.84815
G1 X100.973 Y103.253 E7.85645
G1 X100.923 Y102.988 E7.86475
G1 X100.760 Y102.740 E7.87389
G1 X99.240 Y104.261 E7.94009
G1 X99.077 Y104.012 E7.94923
G1 X99.026 Y103.748 E7.95753
G1 X99.077 Y103.483 E7.96583
G1 X99.240 Y103.235 E7.97497
G1 X99.735 Y102.740 E7.99653
G1 Z12.600 F7800.000
G1 X100.266 Y102.740 F7800.000
G1 F600
G1 X100.760 Y103.235 E8.01805
G1 X100.760 Y104.261 F7800.000
G1 F600
G1 X99.240 Y102.740 E8.08425
G1 X99.077 Y102.988 E8.09340
G1 X99.026 Y103.253 E8.10169
G1 X99.077 Y103.518 E8.10999
G1 X99.240 Y103.766 E8.11913
G1 X99.734 Y104.260 E8.14066
G1 Z12.900 F7800.000
G1 X100.265 Y104.261 F7800.000
G1 F600
G1 X100.760 Y103.766 E8.16222
G1 X100.923 Y103.518 E8.17135
G1 X100.973 Y103.253 E8.17965
G1 X100.923 Y102.988 E8.18795
G1 X100.760 Y102.740 E8.19709
G1 X99.240 Y104.261 E8.26329
G1 X99.077 Y104.012 E8.27243
G1 X99.026 Y103.748 E8.28073
G1 X99.077 Y103.483 E8.28903
G1 X99.240 Y103.235 E8.29817
G1 X99.735 Y102.740 E8.31973
G1 Z13.200 F7800.000
G1 X100.266 Y102.740 F7800.000
G1 F600
G1 X100.760 Y103.235 E8.34125
G1 X100.760 Y104.261 F7800.000
G1 F600
G1 X99.240 Y102.740 E8.40745
G1 X99.077 Y102.988 E8.41660
G1 X99.026 Y103.253 E8.42490
G1 X99.077 Y103.518 E8.43319
G1 X99.240 Y103.766 E8.44233
G1 X99.734 Y104.260 E8.46386
G1 Z13.500 F7800.000
G1 X100.265 Y104.261 F7800.000
G1 F600
G1 X100.760 Y103.766 E8.48542
G1 X100.923 Y103.518 E8.49455
G1 X100.973 Y103.253 E8.50285
G1 X100.923 Y102.988 E8.51116
G1 X100.760 Y102.740 E8.52029
G1 X99.240 Y104.261 E8.58649
G1 X99.077 Y104.012 E8.59563
G1 X99.026 Y103.748 E8.60393
G1 X99.077 Y103.483 E8.61223
G1 X99.240 Y103.235 E8.62137
G1 X99.735 Y102.740 E8.64293
G1 Z13.800 F7800.000
G1 X100.266 Y102.740 F7800.000
G1 F600
G1 X100.760 Y103.235 E8.66445
G1 X100.760 Y104.261 F7800.000
G1 F600
G1 X99.240 Y102.740 E8.73065
G1 X99.077 Y102.988 E8.73980
G1 X99.026 Y103.253 E8.74810
G1 X99.077 Y103.518 E8.75639
G1 X99.240 Y103.766 E8.76553
G1 X99.734 Y104.260 E8.78706
G1 Z14.100 F7800.000
G1 X100.265 Y104.261 F7800.000
G1 F600
G1 X100.760 Y103.766 E8.80862
G1 X100.923 Y103.518 E8.81775
G1 X100.973 Y103.253 E8.82605
G1 X100.923 Y102.988 E8.83436
G1 X100.760 Y102.740 E8.84349
G1 X99.240 Y104.261 E8.90969
G1 X99.077 Y104.012 E8.91884
G1 X99.026 Y103.748 E8.92713
G1 X99.077 Y103.483 E8.93543
G1 X99.240 Y103.235 E8.94457
G1 X99.735 Y102.740 E8.96613
G1 E6.96613 F2400.00000
G92 E0
M107
; Filament-specific end gcode 
;END gcode for filament

M104 S0 ; turn off temperature
G28 X0  ; home X axis
M84     ; disable motors

M140 S0 ; set bed temperature
; filament used = 25.8mm (0.2cm3)
; total filament cost = 0.0

; avoid_crossing_perimeters = 0
; bed_shape = 0x0,200x0,200x200,0x200
; bed_temperature = 0
; before_layer_gcode = 
; between_objects_gcode = 
; bridge_acceleration = 0
; bridge_fan_speed = 100
; brim_connections_width = 0
; brim_width = 0
; complete_objects = 0
; cooling = 1
; default_acceleration = 0
; disable_fan_first_layers = 3
; duplicate_distance = 6
; end_filament_gcode = "; Filament-specific end gcode \n;END gcode for filament\n"
; end_gcode = M104 S0 ; turn off temperature\nG28 X0  ; home X axis\nM84     ; disable motors\n
; extruder_clearance_height = 20
; extruder_clearance_radius = 20
; extruder_offset = 0x0
; extrusion_axis = E
; extrusion_multiplier = 1
; fan_always_on = 0
; fan_below_layer_time = 60
; filament_colour = #FFFFFF
; filament_cost = 0
; filament_density = 0
; filament_diameter = 3
; filament_max_volumetric_speed = 0
; filament_notes = ""
; first_layer_acceleration = 0
; first_layer_bed_temperature = 0
; first_layer_extrusion_width = 200%
; first_layer_speed = 30
; first_layer_temperature = 205
; gcode_arcs = 0
; gcode_comments = 0
; gcode_flavor = reprap
; has_heatbed = 1
; infill_acceleration = 0
; infill_first = 0
; interior_brim_width = 0
; layer_gcode = 
; max_fan_speed = 100
; max_layer_height = 0.3
; max_print_speed = 80
; max_volumetric_speed = 0
; min_fan_speed = 35
; min_layer_height = 0.15
; min_print_speed = 10
; min_skirt_length = 0
; notes = 
; nozzle_diameter = 0.5
; only_retract_when_crossing_perimeters = 1
; ooze_prevention = 0
; output_filename_format = [input_filename_base].gcode
; perimeter_acceleration = 0
; post_process = 
; pressure_advance = 0
; printer_notes = 
; resolution = 0
; retract_before_travel = 2
; retract_layer_change = 0
; retract_length = 2
; retract_length_toolchange = 10
; retract_lift = 0
; retract_lift_above = 0
; retract_lift_below = 0
; retract_restart_extra = 0
; retract_restart_extra_toolchange = 0
; retract_speed = 40
; skirt_distance = 6
; skirt_height = 1
; skirts = 0
; slowdown_below_layer_time = 5
; spiral_vase = 0
; standby_temperature_delta = -5
; start_filament_gcode = "; Filament gcode\n"
; start_gcode = G28 ; home all axes\nG1 Z5 F5000 ; lift nozzle\n
; temperature = 200
; threads = 8
; toolchange_gcode = 
; travel_speed = 130
; use_firmware_retraction = 0
; use_relative_e_distances = 0
; use_set_and_wait_bed = 0
; use_set_and_wait_extruder = 0
; use_volumetric_e = 0
; vibration_limit = 0
; wipe = 0
; z_offset = 0
; z_steps_per_mm = 0
; adaptive_slicing = 0
; adaptive_slicing_quality = 75%
; dont_support_bridges = 1
; extrusion_width = 0
; first_layer_height = 0.3
; infill_only_where_needed = 0
; interface_shells = 0
; layer_height = 0.3
; match_horizontal_surfaces = 0
; raft_layers = 0
; regions_overlap = 0
; seam_position = aligned
; sequential_print_priority = 0
; support_material = 0
; support_material_angle = 0
; support_material_buildplate_only = 0
; support_material_contact_distance = 0.2
; support_material_enforce_layers = 0
; support_material_extruder = 1
; support_material_extrusion_width = 0
; support_material_interface_extruder = 1
; support_material_interface_extrusion_width = 0
; support_material_interface_layers = 3
; support_material_interface_spacing = 0
; support_material_interface_speed = 100%
; support_material_max_layers = 0
; support_material_pattern = pillars
; support_material_spacing = 2.5
; support_material_speed = 60
; support_material_threshold = 60%
; xy_size_compensation = 0
; bottom_infill_pattern = rectilinear
; bottom_solid_layers = 0
; bridge_flow_ratio = 1
; bridge_speed = 60
; external_perimeter_extrusion_width = 0
; external_perimeter_speed = 50%
; external_perimeters_first = 0
; extra_perimeters = 1
; fill_angle = 45
; fill_density = 90%
; fill_gaps = 1
; fill_pattern = rectilinear
; gap_fill_speed = 20
; infill_every_layers = 1
; infill_extruder = 1
; infill_extrusion_width = 0
; infill_overlap = 55%
; infill_speed = 80
; overhangs = 1
; perimeter_extruder = 1
; perimeter_extrusion_width = 0
; perimeter_speed = 60
; perimeters = 0
; small_perimeter_speed = 15
; solid_infill_below_area = 70
; solid_infill_every_layers = 0
; solid_infill_extruder = 1
; solid_infill_extrusion_width = 0
; solid_infill_speed = 20
; thin_walls = 1
; top_infill_extrusion_width = 0
; top_infill_pattern = rectilinear
; top_solid_infill_speed = 15
; top_solid_layers = 0
