; generated by Slic3r 1.3.0 on 2021-01-08 at 14:12:53

; external perimeters extrusion width = 0.55mm (6.64mm^3/s)
; perimeters extrusion width = 0.52mm (12.53mm^3/s)
; infill extrusion width = 0.52mm (16.71mm^3/s)
; solid infill extrusion width = 0.52mm (4.18mm^3/s)
; top infill extrusion width = 0.52mm (3.13mm^3/s)

M107
M104 S205 ; set temperature
G28 ; home all axes
G1 Z5 F5000 ; lift nozzle

; Filament gcode

M109 S205 ; set temperature and wait for it to be reached
G21 ; set units to millimeters
G90 ; use absolute coordinates
M82 ; use absolute distances for extrusion
G92 E0
G1 Z0.500 F7800.000
G1 E-2.00000 F2400.00000
G92 E0
G1 X86.325 Y95.954 F7800.000
G1 E2.00000 F2400.00000
G1 F1800
G1 X84.954 Y97.325 E2.12239
G1 X84.954 Y98.309 E2.18456
G1 X87.309 Y95.954 E2.39486
G1 X88.294 Y95.954 E2.45703
G1 X84.954 Y99.294 E2.75526
G1 X84.954 Y100.278 E2.81743
G1 X89.278 Y95.954 E3.20357
G1 X90.263 Y95.954 E3.26574
G1 X84.954 Y101.263 E3.73980
G1 X84.954 Y102.247 E3.80197
G1 X91.247 Y95.954 E4.36396
G1 X92.232 Y95.954 E4.42613
G1 X84.954 Y103.232 E5.07603
G1 X84.954 Y104.046 E5.12745
G1 X85.124 Y104.046 E5.13820
G1 X93.216 Y95.954 E5.86082
G1 X94.201 Y95.954 E5.92299
G1 X86.109 Y104.046 E6.64561
G1 X87.093 Y104.046 E6.70778
G1 X95.185 Y95.954 E7.43040
G1 X96.170 Y95.954 E7.49257
G1 X88.078 Y104.046 E8.21519
G1 X89.062 Y104.046 E8.27736
G1 X97.154 Y95.954 E8.99998
G1 X98.139 Y95.954 E9.06215
G1 X90.047 Y104.046 E9.78477
G1 X91.031 Y104.046 E9.84693
G1 X99.123 Y95.954 E10.56956
G1 X100.108 Y95.954 E10.63172
G1 X92.016 Y104.046 E11.35435
G1 X93.000 Y104.046 E11.41651
G1 X101.092 Y95.954 E12.13914
G1 X102.077 Y95.954 E12.20130
G1 X93.985 Y104.046 E12.92392
G1 X94.970 Y104.046 E12.98609
G1 X103.061 Y95.954 E13.70871
G1 X104.046 Y95.954 E13.77088
G1 X95.954 Y104.046 E14.49350
G1 X96.939 Y104.046 E14.55567
G1 X105.030 Y95.954 E15.27829
G1 X106.015 Y95.954 E15.34046
G1 X97.923 Y104.046 E16.06308
G1 X98.908 Y104.046 E16.12525
G1 X107.000 Y95.954 E16.84787
G1 X107.984 Y95.954 E16.91004
G1 X99.892 Y104.046 E17.63266
G1 X100.877 Y104.046 E17.69483
G1 X108.969 Y95.954 E18.41745
G1 X109.953 Y95.954 E18.47962
G1 X101.861 Y104.046 E19.20224
G1 X102.846 Y104.046 E19.26441
G1 X110.938 Y95.954 E19.98703
G1 X111.922 Y95.954 E20.04920
G1 X103.830 Y104.046 E20.77182
G1 X104.815 Y104.046 E20.83399
G1 X112.907 Y95.954 E21.55661
G1 X113.891 Y95.954 E21.61878
G1 X105.799 Y104.046 E22.34140
G1 X106.784 Y104.046 E22.40357
G1 X114.876 Y95.954 E23.12619
G1 X115.046 Y95.954 E23.13694
G1 X115.046 Y96.768 E23.18836
G1 X107.768 Y104.046 E23.83826
G1 X108.753 Y104.046 E23.90043
G1 X115.046 Y97.753 E24.46242
G1 X115.046 Y98.737 E24.52458
G1 X109.737 Y104.046 E24.99865
G1 X110.722 Y104.046 E25.06082
G1 X115.046 Y99.722 E25.44696
G1 X115.046 Y100.706 E25.50913
G1 X111.706 Y104.046 E25.80736
G1 X112.691 Y104.046 E25.86953
G1 X115.046 Y101.691 E26.07983
G1 X115.046 Y102.675 E26.14200
G1 X113.675 Y104.046 E26.26439
M104 S200 ; set temperature
G1 Z1.000 F7800.000
G1 E24.26439 F2400.00000
G92 E0
G1 X114.954 Y97.232 F7800.000
G1 E2.00000 F2400.00000
G1 F4495.14
G1 X113.768 Y96.046 E2.04955
G1 X112.783 Y96.046 E2.07864
G1 X114.954 Y98.217 E2.16932
G1 X114.954 Y99.201 E2.19841
G1 X111.799 Y96.046 E2.33023
G1 X110.814 Y96.046 E2.35932
G1 X114.954 Y100.186 E2.53228
G1 X114.954 Y101.170 E2.56137
G1 X109.830 Y96.046 E2.77547
G1 X108.845 Y96.046 E2.80456
G1 X114.954 Y102.155 E3.05980
G1 X114.954 Y103.139 E3.08889
G1 X107.861 Y96.046 E3.38526
G1 X106.876 Y96.046 E3.41435
G1 X114.783 Y103.954 E3.74475
G1 X113.799 Y103.954 E3.77384
G1 X105.892 Y96.046 E4.10424
G1 X104.907 Y96.046 E4.13333
G1 X112.814 Y103.954 E4.46373
G1 X111.830 Y103.954 E4.49281
G1 X103.923 Y96.046 E4.82321
G1 X102.938 Y96.046 E4.85230
G1 X110.845 Y103.954 E5.18270
G1 X109.861 Y103.954 E5.21179
G1 X101.954 Y96.046 E5.54219
G1 X100.969 Y96.046 E5.57128
G1 X108.876 Y103.954 E5.90168
G1 X107.892 Y103.954 E5.93077
G1 X99.984 Y96.046 E6.26117
G1 X99.000 Y96.046 E6.29026
G1 X106.907 Y103.954 E6.62066
G1 X105.923 Y103.954 E6.64975
G1 X98.015 Y96.046 E6.98015
G1 X97.031 Y96.046 E7.00924
G1 X104.938 Y103.954 E7.33963
G1 X103.954 Y103.954 E7.36872
G1 X96.046 Y96.046 E7.69912
G1 X95.062 Y96.046 E7.72821
G1 X102.969 Y103.954 E8.05861
G1 X101.985 Y103.954 E8.08770
G1 X94.077 Y96.046 E8.41810
G1 X93.093 Y96.046 E8.44719
G1 X101.000 Y103.954 E8.77759
G1 X100.016 Y103.954 E8.80668
G1 X92.108 Y96.046 E9.13708
G1 X91.124 Y96.046 E9.16617
G1 X99.031 Y103.954 E9.49657
G1 X98.046 Y103.954 E9.52566
G1 X90.139 Y96.046 E9.85606
G1 X89.155 Y96.046 E9.88514
G1 X97.062 Y103.954 E10.21554
G1 X96.077 Y103.954 E10.24463
G1 X88.170 Y96.046 E10.57503
G1 X87.186 Y96.046 E10.60412
G1 X95.093 Y103.954 E10.93452
G1 X94.108 Y103.954 E10.96361
G1 X86.201 Y96.046 E11.29401
G1 X85.217 Y96.046 E11.32310
G1 X93.124 Y103.954 E11.65350
G1 X92.139 Y103.954 E11.68259
G1 X85.046 Y96.861 E11.97896
G1 X85.046 Y97.845 E12.00805
G1 X91.155 Y103.954 E12.26329
G1 X90.170 Y103.954 E12.29238
G1 X85.046 Y98.830 E12.50648
G1 X85.046 Y99.814 E12.53556
G1 X89.186 Y103.954 E12.70853
G1 X88.201 Y103.954 E12.73761
G1 X85.046 Y100.799 E12.86944
G1 X85.046 Y101.783 E12.89853
G1 X87.217 Y103.954 E12.98921
G1 X86.232 Y103.954 E13.01830
G1 X85.046 Y102.768 E13.06785
G1 Z1.500 F7800.000
G1 X86.232 Y96.046 F7800.000
G1 F4495.14
G1 X85.046 Y97.232 E13.11739
G1 X85.046 Y98.217 E13.14648
G1 X87.217 Y96.046 E13.23717
G1 X88.201 Y96.046 E13.26626
G1 X85.046 Y99.201 E13.39808
G1 X85.046 Y100.186 E13.42717
G1 X89.186 Y96.046 E13.60013
G1 X90.170 Y96.046 E13.62922
G1 X85.046 Y101.170 E13.84332
G1 X85.046 Y102.155 E13.87241
G1 X91.155 Y96.046 E14.12764
G1 X92.139 Y96.046 E14.15673
G1 X85.046 Y103.139 E14.45311
G1 X85.046 Y103.954 E14.47717
G1 X85.217 Y103.954 E14.48220
G1 X93.124 Y96.046 E14.81260
G1 X94.108 Y96.046 E14.84168
G1 X86.201 Y103.954 E15.17208
G1 X87.186 Y103.954 E15.20117
G1 X95.093 Y96.046 E15.53157
G1 X96.077 Y96.046 E15.56066
G1 X88.170 Y103.954 E15.89106
G1 X89.155 Y103.954 E15.92015
G1 X97.062 Y96.046 E16.25055
G1 X98.046 Y96.046 E16.27964
G1 X90.139 Y103.954 E16.61004
G1 X91.124 Y103.954 E16.63913
G1 X99.031 Y96.046 E16.96953
G1 X100.016 Y96.046 E16.99862
G1 X92.108 Y103.954 E17.32902
G1 X93.093 Y103.954 E17.35810
G1 X101.000 Y96.046 E17.68850
G1 X101.985 Y96.046 E17.71759
G1 X94.077 Y103.954 E18.04799
G1 X95.062 Y103.954 E18.07708
G1 X102.969 Y96.046 E18.40748
G1 X103.954 Y96.046 E18.43657
G1 X96.046 Y103.954 E18.76697
G1 X97.031 Y103.954 E18.79606
G1 X104.938 Y96.046 E19.12646
G1 X105.923 Y96.046 E19.15555
G1 X98.015 Y103.954 E19.48595
G1 X99.000 Y103.954 E19.51504
G1 X106.907 Y96.046 E19.84544
G1 X107.892 Y96.046 E19.87453
G1 X99.984 Y103.954 E20.20493
G1 X100.969 Y103.954 E20.23401
G1 X108.876 Y96.046 E20.56441
G1 X109.861 Y96.046 E20.59350
G1 X101.954 Y103.954 E20.92390
G1 X102.938 Y103.954 E20.95299
G1 X110.845 Y96.046 E21.28339
G1 X111.830 Y96.046 E21.31248
G1 X103.923 Y103.954 E21.64288
G1 X104.907 Y103.954 E21.67197
G1 X112.814 Y96.046 E22.00237
G1 X113.799 Y96.046 E22.03146
G1 X105.892 Y103.954 E22.36186
G1 X106.876 Y103.954 E22.39095
G1 X114.783 Y96.046 E22.72135
G1 X114.954 Y96.046 E22.72638
G1 X114.954 Y96.861 E22.75044
G1 X107.861 Y103.954 E23.04681
G1 X108.845 Y103.954 E23.07590
G1 X114.954 Y97.845 E23.33114
G1 X114.954 Y98.830 E23.36022
G1 X109.830 Y103.954 E23.57432
G1 X110.814 Y103.954 E23.60341
G1 X114.954 Y99.814 E23.77637
G1 X114.954 Y100.799 E23.80546
G1 X111.799 Y103.954 E23.93728
G1 X112.783 Y103.954 E23.96637
G1 X114.954 Y101.783 E24.05706
G1 X114.954 Y102.768 E24.08615
G1 X113.768 Y103.954 E24.13569
M106 S255
G1 Z2.000 F7800.000
G1 X114.954 Y97.232 F7800.000
G1 F4495.14
G1 X113.768 Y96.046 E24.18524
G1 X112.783 Y96.046 E24.21433
G1 X114.954 Y98.217 E24.30501
G1 X114.954 Y99.201 E24.33410
G1 X111.799 Y96.046 E24.46593
G1 X110.814 Y96.046 E24.49502
G1 X114.954 Y100.186 E24.66798
G1 X114.954 Y101.170 E24.69707
G1 X109.830 Y96.046 E24.91116
G1 X108.845 Y96.046 E24.94025
G1 X114.954 Y102.155 E25.19549
G1 X114.954 Y103.139 E25.22458
G1 X107.861 Y96.046 E25.52095
G1 X106.876 Y96.046 E25.55004
G1 X114.783 Y103.954 E25.88044
G1 X113.799 Y103.954 E25.90953
G1 X105.892 Y96.046 E26.23993
G1 X104.907 Y96.046 E26.26902
G1 X112.814 Y103.954 E26.59942
G1 X111.830 Y103.954 E26.62851
G1 X103.923 Y96.046 E26.95891
G1 X102.938 Y96.046 E26.98800
G1 X110.845 Y103.954 E27.31840
G1 X109.861 Y103.954 E27.34749
G1 X101.954 Y96.046 E27.67789
G1 X100.969 Y96.046 E27.70697
G1 X108.876 Y103.954 E28.03737
G1 X107.892 Y103.954 E28.06646
G1 X99.984 Y96.046 E28.39686
G1 X99.000 Y96.046 E28.42595
G1 X106.907 Y103.954 E28.75635
G1 X105.923 Y103.954 E28.78544
G1 X98.015 Y96.046 E29.11584
G1 X97.031 Y96.046 E29.14493
G1 X104.938 Y103.954 E29.47533
G1 X103.954 Y103.954 E29.50442
G1 X96.046 Y96.046 E29.83482
G1 X95.062 Y96.046 E29.86391
G1 X102.969 Y103.954 E30.19431
G1 X101.985 Y103.954 E30.22340
G1 X94.077 Y96.046 E30.55379
G1 X93.093 Y96.046 E30.58288
G1 X101.000 Y103.954 E30.91328
G1 X100.016 Y103.954 E30.94237
G1 X92.108 Y96.046 E31.27277
G1 X91.124 Y96.046 E31.30186
G1 X99.031 Y103.954 E31.63226
G1 X98.046 Y103.954 E31.66135
G1 X90.139 Y96.046 E31.99175
G1 X89.155 Y96.046 E32.02084
G1 X97.062 Y103.954 E32.35124
G1 X96.077 Y103.954 E32.38033
G1 X88.170 Y96.046 E32.71073
G1 X87.186 Y96.046 E32.73982
G1 X95.093 Y103.954 E33.07022
G1 X94.108 Y103.954 E33.09930
G1 X86.201 Y96.046 E33.42970
G1 X85.217 Y96.046 E33.45879
G1 X93.124 Y103.954 E33.78919
G1 X92.139 Y103.954 E33.81828
G1 X85.046 Y96.861 E34.11466
G1 X85.046 Y97.845 E34.14375
G1 X91.155 Y103.954 E34.39898
G1 X90.170 Y103.954 E34.42807
G1 X85.046 Y98.830 E34.64217
G1 X85.046 Y99.814 E34.67126
G1 X89.186 Y103.954 E34.84422
G1 X88.201 Y103.954 E34.87331
G1 X85.046 Y100.799 E35.00513
G1 X85.046 Y101.783 E35.03422
G1 X87.217 Y103.954 E35.12491
G1 X86.232 Y103.954 E35.15399
G1 X85.046 Y102.768 E35.20354
G1 Z2.500 F7800.000
G1 X86.232 Y96.046 F7800.000
G1 F4495.14
G1 X85.046 Y97.232 E35.25309
G1 X85.046 Y98.217 E35.28218
G1 X87.217 Y96.046 E35.37286
G1 X88.201 Y96.046 E35.40195
G1 X85.046 Y99.201 E35.53377
G1 X85.046 Y100.186 E35.56286
G1 X89.186 Y96.046 E35.73582
G1 X90.170 Y96.046 E35.76491
G1 X85.046 Y101.170 E35.97901
G1 X85.046 Y102.155 E36.00810
G1 X91.155 Y96.046 E36.26334
G1 X92.139 Y96.046 E36.29243
G1 X85.046 Y103.139 E36.58880
G1 X85.046 Y103.954 E36.61286
G1 X85.217 Y103.954 E36.61789
G1 X93.124 Y96.046 E36.94829
G1 X94.108 Y96.046 E36.97738
G1 X86.201 Y103.954 E37.30778
G1 X87.186 Y103.954 E37.33687
G1 X95.093 Y96.046 E37.66727
G1 X96.077 Y96.046 E37.69636
G1 X88.170 Y103.954 E38.02676
G1 X89.155 Y103.954 E38.05584
G1 X97.062 Y96.046 E38.38624
G1 X98.046 Y96.046 E38.41533
G1 X90.139 Y103.954 E38.74573
G1 X91.124 Y103.954 E38.77482
G1 X99.031 Y96.046 E39.10522
G1 X100.016 Y96.046 E39.13431
G1 X92.108 Y103.954 E39.46471
G1 X93.093 Y103.954 E39.49380
G1 X101.000 Y96.046 E39.82420
G1 X101.985 Y96.046 E39.85329
G1 X94.077 Y103.954 E40.18369
G1 X95.062 Y103.954 E40.21278
G1 X102.969 Y96.046 E40.54318
G1 X103.954 Y96.046 E40.57226
G1 X96.046 Y103.954 E40.90266
G1 X97.031 Y103.954 E40.93175
G1 X104.938 Y96.046 E41.26215
G1 X105.923 Y96.046 E41.29124
G1 X98.015 Y103.954 E41.62164
G1 X99.000 Y103.954 E41.65073
G1 X106.907 Y96.046 E41.98113
G1 X107.892 Y96.046 E42.01022
G1 X99.984 Y103.954 E42.34062
G1 X100.969 Y103.954 E42.36971
G1 X108.876 Y96.046 E42.70011
G1 X109.861 Y96.046 E42.72920
G1 X101.954 Y103.954 E43.05960
G1 X102.938 Y103.954 E43.08869
G1 X110.845 Y96.046 E43.41909
G1 X111.830 Y96.046 E43.44817
G1 X103.923 Y103.954 E43.77857
G1 X104.907 Y103.954 E43.80766
G1 X112.814 Y96.046 E44.13806
G1 X113.799 Y96.046 E44.16715
G1 X105.892 Y103.954 E44.49755
G1 X106.876 Y103.954 E44.52664
G1 X114.783 Y96.046 E44.85704
G1 X114.954 Y96.046 E44.86207
G1 X114.954 Y96.861 E44.88613
G1 X107.861 Y103.954 E45.18250
G1 X108.845 Y103.954 E45.21159
G1 X114.954 Y97.845 E45.46683
G1 X114.954 Y98.830 E45.49592
G1 X109.830 Y103.954 E45.71002
G1 X110.814 Y103.954 E45.73911
G1 X114.954 Y99.814 E45.91207
G1 X114.954 Y100.799 E45.94116
G1 X111.799 Y103.954 E46.07298
G1 X112.783 Y103.954 E46.10207
G1 X114.954 Y101.783 E46.19275
G1 X114.954 Y102.768 E46.22184
G1 X113.768 Y103.954 E46.27139
G1 Z3.000 F7800.000
G1 X114.954 Y97.232 F7800.000
G1 F4495.14
G1 X113.768 Y96.046 E46.32093
G1 X112.783 Y96.046 E46.35002
G1 X114.954 Y98.217 E46.44071
G1 X114.954 Y99.201 E46.46980
G1 X111.799 Y96.046 E46.60162
G1 X110.814 Y96.046 E46.63071
G1 X114.954 Y100.186 E46.80367
G1 X114.954 Y101.170 E46.83276
G1 X109.830 Y96.046 E47.04686
G1 X108.845 Y96.046 E47.07595
G1 X114.954 Y102.155 E47.33118
G1 X114.954 Y103.139 E47.36027
G1 X107.861 Y96.046 E47.65665
G1 X106.876 Y96.046 E47.68574
G1 X114.783 Y103.954 E48.01614
G1 X113.799 Y103.954 E48.04523
G1 X105.892 Y96.046 E48.37562
G1 X104.907 Y96.046 E48.40471
G1 X112.814 Y103.954 E48.73511
G1 X111.830 Y103.954 E48.76420
G1 X103.923 Y96.046 E49.09460
G1 X102.938 Y96.046 E49.12369
G1 X110.845 Y103.954 E49.45409
G1 X109.861 Y103.954 E49.48318
G1 X101.954 Y96.046 E49.81358
G1 X100.969 Y96.046 E49.84267
G1 X108.876 Y103.954 E50.17307
G1 X107.892 Y103.954 E50.20216
G1 X99.984 Y96.046 E50.53256
G1 X99.000 Y96.046 E50.56165
G1 X106.907 Y103.954 E50.89205
G1 X105.923 Y103.954 E50.92113
G1 X98.015 Y96.046 E51.25153
G1 X97.031 Y96.046 E51.28062
G1 X104.938 Y103.954 E51.61102
G1 X103.954 Y103.954 E51.64011
G1 X96.046 Y96.046 E51.97051
G1 X95.062 Y96.046 E51.99960
G1 X102.969 Y103.954 E52.33000
G1 X101.985 Y103.954 E52.35909
G1 X94.077 Y96.046 E52.68949
G1 X93.093 Y96.046 E52.71858
G1 X101.000 Y103.954 E53.04898
G1 X100.016 Y103.954 E53.07807
G1 X92.108 Y96.046 E53.40847
G1 X91.124 Y96.046 E53.43756
G1 X99.031 Y103.954 E53.76795
G1 X98.046 Y103.954 E53.79704
G1 X90.139 Y96.046 E54.12744
G1 X89.155 Y96.046 E54.15653
G1 X97.062 Y103.954 E54.48693
G1 X96.077 Y103.954 E54.51602
G1 X88.170 Y96.046 E54.84642
G1 X87.186 Y96.046 E54.87551
G1 X95.093 Y103.954 E55.20591
G1 X94.108 Y103.954 E55.23500
G1 X86.201 Y96.046 E55.56540
G1 X85.217 Y96.046 E55.59449
G1 X93.124 Y103.954 E55.92489
G1 X92.139 Y103.954 E55.95398
G1 X85.046 Y96.861 E56.25035
G1 X85.046 Y97.845 E56.27944
G1 X91.155 Y103.954 E56.53468
G1 X90.170 Y103.954 E56.56377
G1 X85.046 Y98.830 E56.77786
G1 X85.046 Y99.814 E56.80695
G1 X89.186 Y103.954 E56.97991
G1 X88.201 Y103.954 E57.00900
G1 X85.046 Y100.799 E57.14083
G1 X85.046 Y101.783 E57.16991
G1 X87.217 Y103.954 E57.26060
G1 X86.232 Y103.954 E57.28969
G1 X85.046 Y102.768 E57.33924
G1 Z3.500 F7800.000
G1 X86.232 Y96.046 F7800.000
G1 F4495.14
G1 X85.046 Y97.232 E57.38878
G1 X85.046 Y98.217 E57.41787
G1 X87.217 Y96.046 E57.50856
G1 X88.201 Y96.046 E57.53765
G1 X85.046 Y99.201 E57.66947
G1 X85.046 Y100.186 E57.69856
G1 X89.186 Y96.046 E57.87152
G1 X90.170 Y96.046 E57.90061
G1 X85.046 Y101.170 E58.11471
G1 X85.046 Y102.155 E58.14379
G1 X91.155 Y96.046 E58.39903
G1 X92.139 Y96.046 E58.42812
G1 X85.046 Y103.139 E58.72449
G1 X85.046 Y103.954 E58.74855
G1 X85.217 Y103.954 E58.75358
G1 X93.124 Y96.046 E59.08398
G1 X94.108 Y96.046 E59.11307
G1 X86.201 Y103.954 E59.44347
G1 X87.186 Y103.954 E59.47256
G1 X95.093 Y96.046 E59.80296
G1 X96.077 Y96.046 E59.83205
G1 X88.170 Y103.954 E60.16245
G1 X89.155 Y103.954 E60.19154
G1 X97.062 Y96.046 E60.52194
G1 X98.046 Y96.046 E60.55103
G1 X90.139 Y103.954 E60.88143
G1 X91.124 Y103.954 E60.91052
G1 X99.031 Y96.046 E61.24092
G1 X100.016 Y96.046 E61.27000
G1 X92.108 Y103.954 E61.60040
G1 X93.093 Y103.954 E61.62949
G1 X101.000 Y96.046 E61.95989
G1 X101.985 Y96.046 E61.98898
G1 X94.077 Y103.954 E62.31938
G1 X95.062 Y103.954 E62.34847
G1 X102.969 Y96.046 E62.67887
G1 X103.954 Y96.046 E62.70796
G1 X96.046 Y103.954 E63.03836
G1 X97.031 Y103.954 E63.06745
G1 X104.938 Y96.046 E63.39785
G1 X105.923 Y96.046 E63.42694
G1 X98.015 Y103.954 E63.75734
G1 X99.000 Y103.954 E63.78642
G1 X106.907 Y96.046 E64.11682
G1 X107.892 Y96.046 E64.14591
G1 X99.984 Y103.954 E64.47631
G1 X100.969 Y103.954 E64.50540
G1 X108.876 Y96.046 E64.83580
G1 X109.861 Y96.046 E64.86489
G1 X101.954 Y103.954 E65.19529
G1 X102.938 Y103.954 E65.22438
G1 X110.845 Y96.046 E65.55478
G1 X111.830 Y96.046 E65.58387
G1 X103.923 Y103.954 E65.91427
G1 X104.907 Y103.954 E65.94336
G1 X112.814 Y96.046 E66.27376
G1 X113.799 Y96.046 E66.30285
G1 X105.892 Y103.954 E66.63325
G1 X106.876 Y103.954 E66.66233
G1 X114.783 Y96.046 E66.99273
G1 X114.954 Y96.046 E66.99776
G1 X114.954 Y96.861 E67.02182
G1 X107.861 Y103.954 E67.31820
G1 X108.845 Y103.954 E67.34729
G1 X114.954 Y97.845 E67.60252
G1 X114.954 Y98.830 E67.63161
G1 X109.830 Y103.954 E67.84571
G1 X110.814 Y103.954 E67.87480
G1 X114.954 Y99.814 E68.04776
G1 X114.954 Y100.799 E68.07685
G1 X111.799 Y103.954 E68.20867
G1 X112.783 Y103.954 E68.23776
G1 X114.954 Y101.783 E68.32845
G1 X114.954 Y102.768 E68.35753
G1 X113.768 Y103.954 E68.40708
G1 Z4.000 F7800.000
G1 X114.954 Y97.232 F7800.000
G1 F4495.14
G1 X113.768 Y96.046 E68.45663
G1 X112.783 Y96.046 E68.48572
G1 X114.954 Y98.217 E68.57640
G1 X114.954 Y99.201 E68.60549
G1 X111.799 Y96.046 E68.73731
G1 X110.814 Y96.046 E68.76640
G1 X114.954 Y100.186 E68.93936
G1 X114.954 Y101.170 E68.96845
G1 X109.830 Y96.046 E69.18255
G1 X108.845 Y96.046 E69.21164
G1 X114.954 Y102.155 E69.46688
G1 X114.954 Y103.139 E69.49597
G1 X107.861 Y96.046 E69.79234
G1 X106.876 Y96.046 E69.82143
G1 X114.783 Y103.954 E70.15183
G1 X113.799 Y103.954 E70.18092
G1 X105.892 Y96.046 E70.51132
G1 X104.907 Y96.046 E70.54041
G1 X112.814 Y103.954 E70.87081
G1 X111.830 Y103.954 E70.89990
G1 X103.923 Y96.046 E71.23030
G1 X102.938 Y96.046 E71.25939
G1 X110.845 Y103.954 E71.58978
G1 X109.861 Y103.954 E71.61887
G1 X101.954 Y96.046 E71.94927
G1 X100.969 Y96.046 E71.97836
G1 X108.876 Y103.954 E72.30876
G1 X107.892 Y103.954 E72.33785
G1 X99.984 Y96.046 E72.66825
G1 X99.000 Y96.046 E72.69734
G1 X106.907 Y103.954 E73.02774
G1 X105.923 Y103.954 E73.05683
G1 X98.015 Y96.046 E73.38723
G1 X97.031 Y96.046 E73.41632
G1 X104.938 Y103.954 E73.74672
G1 X103.954 Y103.954 E73.77581
G1 X96.046 Y96.046 E74.10621
G1 X95.062 Y96.046 E74.13529
G1 X102.969 Y103.954 E74.46569
G1 X101.985 Y103.954 E74.49478
G1 X94.077 Y96.046 E74.82518
G1 X93.093 Y96.046 E74.85427
G1 X101.000 Y103.954 E75.18467
G1 X100.016 Y103.954 E75.21376
G1 X92.108 Y96.046 E75.54416
G1 X91.124 Y96.046 E75.57325
G1 X99.031 Y103.954 E75.90365
G1 X98.046 Y103.954 E75.93274
G1 X90.139 Y96.046 E76.26314
G1 X89.155 Y96.046 E76.29223
G1 X97.062 Y103.954 E76.62263
G1 X96.077 Y103.954 E76.65172
G1 X88.170 Y96.046 E76.98211
G1 X87.186 Y96.046 E77.01120
G1 X95.093 Y103.954 E77.34160
G1 X94.108 Y103.954 E77.37069
G1 X86.201 Y96.046 E77.70109
G1 X85.217 Y96.046 E77.73018
G1 X93.124 Y103.954 E78.06058
G1 X92.139 Y103.954 E78.08967
G1 X85.046 Y96.861 E78.38604
G1 X85.046 Y97.845 E78.41513
G1 X91.155 Y103.954 E78.67037
G1 X90.170 Y103.954 E78.69946
G1 X85.046 Y98.830 E78.91356
G1 X85.046 Y99.814 E78.94265
G1 X89.186 Y103.954 E79.11561
G1 X88.201 Y103.954 E79.14470
G1 X85.046 Y100.799 E79.27652
G1 X85.046 Y101.783 E79.30561
G1 X87.217 Y103.954 E79.39629
G1 X86.232 Y103.954 E79.42538
G1 X85.046 Y102.768 E79.47493
G1 Z4.500 F7800.000
G1 X86.232 Y96.046 F7800.000
G1 F4495.14
G1 X85.046 Y97.232 E79.52448
G1 X85.046 Y98.217 E79.55357
G1 X87.217 Y96.046 E79.64425
G1 X88.201 Y96.046 E79.67334
G1 X85.046 Y99.201 E79.80516
G1 X85.046 Y100.186 E79.83425
G1 X89.186 Y96.046 E80.00721
G1 X90.170 Y96.046 E80.03630
G1 X85.046 Y101.170 E80.25040
G1 X85.046 Y102.155 E80.27949
G1 X91.155 Y96.046 E80.53473
G1 X92.139 Y96.046 E80.56381
G1 X85.046 Y103.139 E80.86019
G1 X85.046 Y103.954 E80.88425
G1 X85.217 Y103.954 E80.88928
G1 X93.124 Y96.046 E81.21968
G1 X94.108 Y96.046 E81.24877
G1 X86.201 Y103.954 E81.57917
G1 X87.186 Y103.954 E81.60825
G1 X95.093 Y96.046 E81.93865
G1 X96.077 Y96.046 E81.96774
G1 X88.170 Y103.954 E82.29814
G1 X89.155 Y103.954 E82.32723
G1 X97.062 Y96.046 E82.65763
G1 X98.046 Y96.046 E82.68672
G1 X90.139 Y103.954 E83.01712
G1 X91.124 Y103.954 E83.04621
G1 X99.031 Y96.046 E83.37661
G1 X100.016 Y96.046 E83.40570
G1 X92.108 Y103.954 E83.73610
G1 X93.093 Y103.954 E83.76519
G1 X101.000 Y96.046 E84.09559
G1 X101.985 Y96.046 E84.12468
G1 X94.077 Y103.954 E84.45508
G1 X95.062 Y103.954 E84.48416
G1 X102.969 Y96.046 E84.81456
G1 X103.954 Y96.046 E84.84365
G1 X96.046 Y103.954 E85.17405
G1 X97.031 Y103.954 E85.20314
G1 X104.938 Y96.046 E85.53354
G1 X105.923 Y96.046 E85.56263
G1 X98.015 Y103.954 E85.89303
G1 X99.000 Y103.954 E85.92212
G1 X106.907 Y96.046 E86.25252
G1 X107.892 Y96.046 E86.28161
G1 X99.984 Y103.954 E86.61201
G1 X100.969 Y103.954 E86.64110
G1 X108.876 Y96.046 E86.97150
G1 X109.861 Y96.046 E87.00058
G1 X101.954 Y103.954 E87.33098
G1 X102.938 Y103.954 E87.36007
G1 X110.845 Y96.046 E87.69047
G1 X111.830 Y96.046 E87.71956
G1 X103.923 Y103.954 E88.04996
G1 X104.907 Y103.954 E88.07905
G1 X112.814 Y96.046 E88.40945
G1 X113.799 Y96.046 E88.43854
G1 X105.892 Y103.954 E88.76894
G1 X106.876 Y103.954 E88.79803
G1 X114.783 Y96.046 E89.12843
G1 X114.954 Y96.046 E89.13346
G1 X114.954 Y96.861 E89.15752
G1 X107.861 Y103.954 E89.45389
G1 X108.845 Y103.954 E89.48298
G1 X114.954 Y97.845 E89.73822
G1 X114.954 Y98.830 E89.76731
G1 X109.830 Y103.954 E89.98140
G1 X110.814 Y103.954 E90.01049
G1 X114.954 Y99.814 E90.18345
G1 X114.954 Y100.799 E90.21254
G1 X111.799 Y103.954 E90.34437
G1 X112.783 Y103.954 E90.37346
G1 X114.954 Y101.783 E90.46414
G1 X114.954 Y102.768 E90.49323
G1 X113.768 Y103.954 E90.54278
G1 Z5.000 F7800.000
G1 E88.54278 F2400.00000
G92 E0
G1 X114.954 Y97.232 F7800.000
G1 E2.00000 F2400.00000
G1 F4495.14
G1 X113.768 Y96.046 E2.04955
G1 X112.783 Y96.046 E2.07864
G1 X114.954 Y98.217 E2.16932
G1 X114.954 Y99.201 E2.19841
G1 X111.799 Y96.046 E2.33023
G1 X110.814 Y96.046 E2.35932
G1 X114.954 Y100.186 E2.53228
G1 X114.954 Y101.170 E2.56137
G1 X109.830 Y96.046 E2.77547
G1 X108.845 Y96.046 E2.80456
G1 X114.954 Y102.155 E3.05980
G1 X114.954 Y103.139 E3.08889
G1 X107.861 Y96.046 E3.38526
G1 X106.876 Y96.046 E3.41435
G1 X114.783 Y103.954 E3.74475
G1 X113.799 Y103.954 E3.77384
G1 X105.892 Y96.046 E4.10424
G1 X104.907 Y96.046 E4.13333
G1 X112.814 Y103.954 E4.46373
G1 X111.830 Y103.954 E4.49281
G1 X103.923 Y96.046 E4.82321
G1 X102.938 Y96.046 E4.85230
G1 X110.845 Y103.954 E5.18270
G1 X109.861 Y103.954 E5.21179
G1 X101.954 Y96.046 E5.54219
G1 X100.969 Y96.046 E5.57128
G1 X108.876 Y103.954 E5.90168
G1 X107.892 Y103.954 E5.93077
G1 X99.984 Y96.046 E6.26117
G1 X99.000 Y96.046 E6.29026
G1 X106.907 Y103.954 E6.62066
G1 X105.923 Y103.954 E6.64975
G1 X98.015 Y96.046 E6.98015
G1 X97.031 Y96.046 E7.00924
G1 X104.938 Y103.954 E7.33963
G1 X103.954 Y103.954 E7.36872
G1 X96.046 Y96.046 E7.69912
G1 X95.062 Y96.046 E7.72821
G1 X102.969 Y103.954 E8.05861
G1 X101.985 Y103.954 E8.08770
G1 X94.077 Y96.046 E8.41810
G1 X93.093 Y96.046 E8.44719
G1 X101.000 Y103.954 E8.77759
G1 X100.016 Y103.954 E8.80668
G1 X92.108 Y96.046 E9.13708
G1 X91.124 Y96.046 E9.16617
G1 X99.031 Y103.954 E9.49657
G1 X98.046 Y103.954 E9.52566
G1 X90.139 Y96.046 E9.85606
G1 X89.155 Y96.046 E9.88514
G1 X97.062 Y103.954 E10.21554
G1 X96.077 Y103.954 E10.24463
G1 X88.170 Y96.046 E10.57503
G1 X87.186 Y96.046 E10.60412
G1 X95.093 Y103.954 E10.93452
G1 X94.108 Y103.954 E10.96361
G1 X86.201 Y96.046 E11.29401
G1 X85.217 Y96.046 E11.32310
G1 X93.124 Y103.954 E11.65350
G1 X92.139 Y103.954 E11.68259
G1 X85.046 Y96.861 E11.97896
G1 X85.046 Y97.845 E12.00805
G1 X91.155 Y103.954 E12.26329
G1 X90.170 Y103.954 E12.29238
G1 X85.046 Y98.830 E12.50648
G1 X85.046 Y99.814 E12.53556
G1 X89.186 Y103.954 E12.70853
G1 X88.201 Y103.954 E12.73761
G1 X85.046 Y100.799 E12.86944
G1 X85.046 Y101.783 E12.89853
G1 X87.217 Y103.954 E12.98921
G1 X86.232 Y103.954 E13.01830
G1 X85.046 Y102.768 E13.06785
G1 E11.06785 F2400.00000
G92 E0
M107
; Filament-specific end gcode 
;END gcode for filament

M104 S0 ; turn off temperature
G28 X0  ; home X axis
M84     ; disable motors

M140 S0 ; set bed temperature
; filament used = 123.9mm (0.9cm3)
; total filament cost = 0.0

; avoid_crossing_perimeters = 0
; bed_shape = 0x0,200x0,200x200,0x200
; bed_temperature = 0
; before_layer_gcode = 
; between_objects_gcode = 
; bridge_acceleration = 0
; bridge_fan_speed = 100
; brim_connections_width = 0
; brim_width = 0
; complete_objects = 0
; cooling = 1
; default_acceleration = 0
; disable_fan_first_layers = 3
; duplicate_distance = 6
; end_filament_gcode = "; Filament-specific end gcode \n;END gcode for filament\n"
; end_gcode = M104 S0 ; turn off temperature\nG28 X0  ; home X axis\nM84     ; disable motors\n
; extruder_clearance_height = 20
; extruder_clearance_radius = 20
; extruder_offset = 0x0
; extrusion_axis = E
; extrusion_multiplier = 1
; fan_always_on = 0
; fan_below_layer_time = 60
; filament_colour = #FFFFFF
; filament_cost = 0
; filament_density = 0
; filament_diameter = 3
; filament_max_volumetric_speed = 0
; filament_notes = ""
; first_layer_acceleration = 0
; first_layer_bed_temperature = 0
; first_layer_extrusion_width = 200%
; first_layer_speed = 30
; first_layer_temperature = 205
; gcode_arcs = 0
; gcode_comments = 0
; gcode_flavor = reprap
; has_heatbed = 1
; infill_acceleration = 0
; infill_first = 0
; interior_brim_width = 0
; layer_gcode = 
; max_fan_speed = 100
; max_layer_height = 0.3
; max_print_speed = 80
; max_volumetric_speed = 0
; min_fan_speed = 35
; min_layer_height = 0.15
; min_print_speed = 10
; min_skirt_length = 0
; notes = 
; nozzle_diameter = 0.5
; only_retract_when_crossing_perimeters = 1
; ooze_prevention = 0
; output_filename_format = [input_filename_base].gcode
; perimeter_acceleration = 0
; post_process = 
; pressure_advance = 0
; printer_notes = 
; resolution = 0
; retract_before_travel = 2
; retract_layer_change = 0
; retract_length = 2
; retract_length_toolchange = 10
; retract_lift = 0
; retract_lift_above = 0
; retract_lift_below = 0
; retract_restart_extra = 0
; retract_restart_extra_toolchange = 0
; retract_speed = 40
; skirt_distance = 6
; skirt_height = 1
; skirts = 0
; slowdown_below_layer_time = 5
; spiral_vase = 0
; standby_temperature_delta = -5
; start_filament_gcode = "; Filament gcode\n"
; start_gcode = G28 ; home all axes\nG1 Z5 F5000 ; lift nozzle\n
; temperature = 200
; threads = 8
; toolchange_gcode = 
; travel_speed = 130
; use_firmware_retraction = 0
; use_relative_e_distances = 0
; use_set_and_wait_bed = 0
; use_set_and_wait_extruder = 0
; use_volumetric_e = 0
; vibration_limit = 0
; wipe = 0
; z_offset = 0
; z_steps_per_mm = 0
; adaptive_slicing = 0
; adaptive_slicing_quality = 75%
; dont_support_bridges = 1
; extrusion_width = 0
; first_layer_height = 0.5
; infill_only_where_needed = 0
; interface_shells = 0
; layer_height = 0.5
; match_horizontal_surfaces = 0
; raft_layers = 0
; regions_overlap = 0
; seam_position = aligned
; sequential_print_priority = 0
; support_material = 0
; support_material_angle = 0
; support_material_buildplate_only = 0
; support_material_contact_distance = 0.2
; support_material_enforce_layers = 0
; support_material_extruder = 1
; support_material_extrusion_width = 0
; support_material_interface_extruder = 1
; support_material_interface_extrusion_width = 0
; support_material_interface_layers = 3
; support_material_interface_spacing = 0
; support_material_interface_speed = 100%
; support_material_max_layers = 0
; support_material_pattern = pillars
; support_material_spacing = 2.5
; support_material_speed = 60
; support_material_threshold = 60%
; xy_size_compensation = 0
; bottom_infill_pattern = rectilinear
; bottom_solid_layers = 0
; bridge_flow_ratio = 1
; bridge_speed = 60
; external_perimeter_extrusion_width = 0
; external_perimeter_speed = 50%
; external_perimeters_first = 0
; extra_perimeters = 1
; fill_angle = 45
; fill_density = 60%
; fill_gaps = 1
; fill_pattern = rectilinear
; gap_fill_speed = 20
; infill_every_layers = 1
; infill_extruder = 1
; infill_extrusion_width = 0
; infill_overlap = 55%
; infill_speed = 80
; overhangs = 1
; perimeter_extruder = 1
; perimeter_extrusion_width = 0
; perimeter_speed = 60
; perimeters = 0
; small_perimeter_speed = 15
; solid_infill_below_area = 70
; solid_infill_every_layers = 0
; solid_infill_extruder = 1
; solid_infill_extrusion_width = 0
; solid_infill_speed = 20
; thin_walls = 1
; top_infill_extrusion_width = 0
; top_infill_pattern = rectilinear
; top_solid_infill_speed = 15
; top_solid_layers = 0
