%
(Header)
(Generated by gcodetools from Inkscape.)
(Using default header. To add your own header create file "header" in the output dir.)
M3
(Header end.)
G21 (All units in mm)

(Start cutting path id: path1760)
(Change tool to Cone cutter)

G00 Z0.000000
G00 X0.679515 Y6.438797

G01 Z-1.000000 F100.0(Penetrate)
G02 X0.904116 Y8.437859 Z-1.000000 I6.577401 J0.273157 F400.000000
G02 X1.721927 Y10.275761 Z-1.000000 I6.352804 J-1.725906
G02 X4.007814 Y12.434165 Z-1.000000 I5.514647 J-3.550708
G02 X7.035836 Y13.269920 Z-1.000000 I3.182549 J-5.627402
G02 X8.610983 Y13.112677 Z-1.000000 I0.153707 J-6.428227
G02 X10.099353 Y12.574135 Z-1.000000 I-1.411389 J-6.226639
G02 X11.409176 Y11.685369 Z-1.000000 I-2.889467 J-5.667927
G02 X12.457898 Y10.499967 Z-1.000000 I-4.169858 J-4.745664
G02 X13.178465 Y9.090694 Z-1.000000 I-5.200299 J-3.547784
G02 X13.523349 Y7.546102 Z-1.000000 I-5.879735 J-2.123656
G02 X13.468584 Y5.964334 Z-1.000000 I-6.202984 J-0.577068
G02 X13.015710 Y4.447978 Z-1.000000 I-6.105940 J0.997791
G02 X12.192325 Y3.096407 Z-1.000000 I-5.633776 J2.505539
G02 X11.051187 Y2.000075 Z-1.000000 I-4.777662 J3.830867
G02 X9.666798 Y1.233333 Z-1.000000 I-3.624178 J4.910463
G02 X8.131653 Y0.849694 Z-1.000000 I-2.224719 J5.639006
G02 X6.613817 Y0.876374 Z-1.000000 I-0.658118 J5.747921
G02 X5.169808 Y1.328459 Z-1.000000 I0.731707 J4.869356
G02 X3.939510 Y2.213995 Z-1.000000 I2.024240 J4.109735
G02 X3.097024 Y3.466814 Z-1.000000 I2.858795 J2.832146
G02 X2.794689 Y4.729388 Z-1.000000 I3.564907 J1.521137
G02 X2.932447 Y6.019228 Z-1.000000 I3.756001 J0.251125
G02 X3.503129 Y7.184738 Z-1.000000 I3.566634 J-1.023900
G02 X4.443780 Y8.077101 Z-1.000000 I2.913354 J-2.129048
G02 X5.640974 Y8.576445 Z-1.000000 I1.945702 J-2.980057
G02 X6.936581 Y8.607247 Z-1.000000 I0.728699 J-3.387322
G02 X8.152252 Y8.156438 Z-1.000000 I-0.559449 J-3.373154
G02 X9.107527 Y7.281599 Z-1.000000 I-1.729949 J-2.847980
G02 X9.656741 Y6.086416 Z-1.000000 I-2.629141 J-1.931931
G02 X9.674349 Y4.774372 Z-1.000000 I-3.004557 J-0.696461
G02 X9.136740 Y3.575631 Z-1.000000 I-2.941000 J0.599051
G02 X8.131653 Y2.734907 Z-1.000000 I-2.282015 J1.706999
G02 X7.519278 Y2.513193 Z-1.000000 I-1.247449 J2.488910
G02 X6.872179 Y2.443049 Z-1.000000 I-0.609209 J2.600222
G02 X6.227362 Y2.533193 Z-1.000000 I0.037132 J2.616926
G02 X5.626350 Y2.782521 Z-1.000000 I0.655782 J2.429828
G02 X5.110188 Y3.179043 Z-1.000000 I1.233062 J2.139315
G02 X4.718380 Y3.698250 Z-1.000000 I1.685753 J1.679555
G02 X4.483270 Y4.304963 Z-1.000000 I2.040427 J1.139606
G02 X4.427763 Y4.952806 Z-1.000000 I2.197246 J0.514558
G02 X4.664636 Y5.819973 Z-1.000000 I2.177346 J-0.128823
G02 X5.242366 Y6.503511 Z-1.000000 I1.765176 J-0.906016
G02 X5.632981 Y6.729125 Z-1.000000 I1.148293 J-1.537137
G02 X6.065856 Y6.855018 Z-1.000000 I0.725910 J-1.688843
G02 X6.516541 Y6.870581 Z-1.000000 I0.286983 J-1.777260
G02 X6.956167 Y6.771478 Z-1.000000 I-0.157259 J-1.722260
G02 X7.360698 Y6.557269 Z-1.000000 I-0.588644 J-1.600730
G02 X7.692921 Y6.242569 Z-1.000000 I-0.977505 J-1.364645
G02 X7.927408 Y5.849521 Z-1.000000 I-1.299464 J-1.041712
G02 X8.045077 Y5.407368 Z-1.000000 I-1.510312 J-0.638668
G02 X8.035491 Y4.949858 Z-1.000000 I-1.615502 J-0.195008
G02 X7.898014 Y4.513531 Z-1.000000 I-1.581731 J0.258549
G02 X7.642410 Y4.134049 Z-1.000000 I-1.433439 J0.689684
G02 X7.288851 Y3.843857 Z-1.000000 I-1.160493 J1.053423
G02 X6.799523 Y3.655287 Z-1.000000 I-0.784176 J1.305715
G02 X6.276709 Y3.652517 Z-1.000000 I-0.268627 J1.361399
G02 X5.790930 Y3.848037 Z-1.000000 I0.243287 J1.305692
G02 X5.425817 Y4.220899 Z-1.000000 I0.671912 J1.023140
G02 X5.302698 Y4.483877 Z-1.000000 I1.008939 J0.632666
G02 X5.247994 Y4.768907 Z-1.000000 I1.097482 J0.358397
G02 X5.266679 Y5.058608 Z-1.000000 I1.134812 J0.072259
G02 X5.359113 Y5.333650 Z-1.000000 I1.083545 J-0.211094
G02 X5.520538 Y5.574848 Z-1.000000 I0.976787 J-0.479111
G02 X5.740594 Y5.763852 Z-1.000000 I0.792565 J-0.700170
G02 X6.004035 Y5.885467 Z-1.000000 I0.564587 J-0.876860
G02 X6.290797 Y5.928681 Z-1.000000 I0.293066 J-0.971685
G02 X6.533483 Y5.900402 Z-1.000000 I0.006142 J-1.002774
G02 X6.761794 Y5.813636 Z-1.000000 I-0.230966 J-0.951514
G02 X6.961364 Y5.672758 Z-1.000000 I-0.454161 J-0.855172
G02 X7.118747 Y5.486040 Z-1.000000 I-0.639377 J-0.698610
G02 X7.222848 Y5.265095 Z-1.000000 I-0.788034 J-0.506289
G02 X7.265596 Y5.024715 Z-1.000000 I-0.873128 J-0.279264
G02 X7.243018 Y4.781565 Z-1.000000 I-0.906043 J-0.038491
G02 X7.155778 Y4.553584 Z-1.000000 I-0.865383 J0.200470
G02 X7.002938 Y4.352184 Z-1.000000 I-0.761950 J0.419536
G02 X6.797587 Y4.205284 Z-1.000000 I-0.573284 J0.584414
G02 X6.556707 Y4.129029 Z-1.000000 I-0.357361 J0.710282
G02 X6.304477 Y4.134444 Z-1.000000 I-0.110199 J0.744121
G02 X6.068468 Y4.224142 Z-1.000000 I0.138268 J0.719140
G02 X5.878726 Y4.390094 Z-1.000000 I0.355592 J0.598017
G02 X5.761540 Y4.613507 Z-1.000000 I0.531952 J0.421463
G02 X5.736322 Y4.864090 Z-1.000000 I0.618997 J0.188853
G02 X5.778321 Y5.038147 Z-1.000000 I0.633093 J-0.060664
G02 X5.867627 Y5.193242 Z-1.000000 I0.577775 J-0.229431
G02 X5.997653 Y5.316278 Z-1.000000 I0.483031 J-0.380249
G02 X6.157795 Y5.396086 Z-1.000000 I0.345297 J-0.492297
G02 X6.334416 Y5.424947 Z-1.000000 I0.183143 J-0.565916
G02 X6.511469 Y5.399386 Z-1.000000 I0.006379 J-0.581789
G02 X6.672320 Y5.321025 Z-1.000000 I-0.168810 J-0.550780
G02 X6.800914 Y5.196743 Z-1.000000 I-0.323006 J-0.462883
G02 X6.859719 Y5.098139 Z-1.000000 I-0.435608 J-0.326628
G02 X6.895123 Y4.989094 Z-1.000000 I-0.441418 J-0.203583
G02 X6.903264 Y4.874651 Z-1.000000 I-0.452370 J-0.089692
G02 X6.881522 Y4.762187 Z-1.000000 I-0.417951 J0.022464
G02 X6.829394 Y4.660082 Z-1.000000 I-0.378659 J0.128958
G02 X6.749558 Y4.578103 Z-1.000000 I-0.299975 J0.212272
G02 X6.647929 Y4.525273 Z-1.000000 I-0.211547 J0.282790
G02 X6.534766 Y4.509193 Z-1.000000 I-0.101965 J0.311333
G02 X6.412531 Y4.537903 Z-1.000000 I0.011082 J0.321753
G02 X6.310590 Y4.611208 Z-1.000000 I0.133174 J0.292729
G02 X6.244477 Y4.717954 Z-1.000000 I0.235192 J0.219512
G02 X6.224260 Y4.841878 Z-1.000000 I0.301304 J0.112766
G00 Z0.000000

(End cutting path id: path1760)
