; generated by Slic3r 1.3.0 on 2021-10-22 at 21:19:40

; external perimeters extrusion width = 0.55mm (5.57mm^3/s)
; perimeters extrusion width = 0.58mm (11.78mm^3/s)
; infill extrusion width = 0.58mm (15.71mm^3/s)
; solid infill extrusion width = 0.58mm (3.93mm^3/s)
; top infill extrusion width = 0.58mm (2.95mm^3/s)

M107
M104 S205 ; set temperature
G28 ; home all axes
G1 Z5 F5000 ; lift nozzle

; Filament gcode

M109 S205 ; set temperature and wait for it to be reached
G21 ; set units to millimeters
G90 ; use absolute coordinates
M82 ; use absolute distances for extrusion
G92 E0
G1 Z0.400 F7800.000
G1 E-2.00000 F2400.00000
G92 E0
G1 X96.828 Y96.828 F7800.000
G1 E2.00000 F2400.00000
G1 F1666.76
G1 X103.172 Y96.828 E2.25636
G1 X103.172 Y103.172 E2.51271
G1 X96.828 Y103.172 E2.76907
G1 X96.828 Y96.903 E3.02239
G1 X96.114 Y96.114 F7800.000
G1 F1666.76
G1 X103.886 Y96.114 E3.33647
G1 X103.886 Y103.886 E3.65055
G1 X96.114 Y103.886 E3.96462
G1 X96.114 Y96.189 E4.27567
G1 X95.400 Y95.400 F7800.000
G1 F1800
G1 X104.600 Y95.400 E4.64747
G1 X104.600 Y104.600 E5.01927
G1 X95.400 Y104.600 E5.39107
G1 X95.400 Y95.475 E5.75984
G1 X95.883 Y95.529 F7800.000
G1 E3.75984 F2400.00000
G92 E0
G1 X97.265 Y97.820 F7800.000
G1 E2.00000 F2400.00000
G1 F1666.76
G1 X97.820 Y97.265 E2.03433
G1 X98.913 Y97.265 E2.08207
G1 X97.265 Y98.913 E2.18391
G1 X97.265 Y100.005 E2.23165
G1 X100.005 Y97.265 E2.40100
G1 X101.097 Y97.265 E2.44873
G1 X97.265 Y101.097 E2.68559
G1 X97.265 Y102.189 E2.73333
G1 X102.189 Y97.265 E3.03769
G1 X102.735 Y97.265 E3.06156
G1 X102.735 Y97.811 E3.08542
G1 X97.811 Y102.735 E3.38979
G1 X98.903 Y102.735 E3.43752
G1 X102.735 Y98.903 E3.67438
G1 X102.735 Y99.995 E3.72211
G1 X99.995 Y102.735 E3.89146
G1 X101.087 Y102.735 E3.93920
G1 X102.735 Y101.087 E4.04104
G1 X102.735 Y102.180 E4.08878
G1 X102.180 Y102.735 E4.12312
M104 S200 ; set temperature
G1 Z0.800 F7800.000
G1 X96.243 Y96.243 F7800.000
G1 F900
G1 X103.757 Y96.243 E4.33182
G1 X103.757 Y103.757 E4.54052
G1 X96.243 Y103.757 E4.74922
G1 X96.243 Y96.318 E4.95584
G1 X95.753 Y95.753 F7800.000
G1 F900
G1 X104.247 Y95.753 E5.19181
G1 X104.247 Y104.247 E5.42778
G1 X95.753 Y104.247 E5.66375
G1 X95.753 Y95.828 E5.89764
G1 X95.275 Y95.275 F7800.000
G1 F900
G1 X104.725 Y95.275 E6.14585
G1 X104.725 Y104.725 E6.39407
G1 X95.275 Y104.725 E6.64228
G1 X95.275 Y95.350 E6.88853
G1 X95.758 Y95.404 F7800.000
G1 X96.543 Y103.075 F7800.000
G1 F1200
G1 X96.925 Y103.457 E6.90421
G1 X97.651 Y103.457 E6.92529
G1 X96.543 Y102.349 E6.97077
G1 X96.543 Y101.623 E6.99185
G1 X98.377 Y103.457 E7.06714
G1 X99.102 Y103.457 E7.08821
G1 X96.543 Y100.898 E7.19331
G1 X96.543 Y100.172 E7.21438
G1 X99.828 Y103.457 E7.34927
G1 X100.554 Y103.457 E7.37035
G1 X96.543 Y99.446 E7.53505
G1 X96.543 Y98.720 E7.55612
G1 X101.280 Y103.457 E7.75062
G1 X102.005 Y103.457 E7.77169
G1 X96.543 Y97.995 E7.99600
G1 X96.543 Y97.269 E8.01707
G1 X102.731 Y103.457 E8.27117
G1 X103.457 Y103.457 E8.29225
G1 X96.543 Y96.543 E8.57616
G1 X97.269 Y96.543 E8.59723
G1 X103.457 Y102.731 E8.85133
G1 X103.457 Y102.005 E8.87241
G1 X97.995 Y96.543 E9.09671
G1 X98.720 Y96.543 E9.11778
G1 X103.457 Y101.280 E9.31228
G1 X103.457 Y100.554 E9.33336
G1 X99.446 Y96.543 E9.49805
G1 X100.172 Y96.543 E9.51913
G1 X103.457 Y99.828 E9.65402
G1 X103.457 Y99.102 E9.67510
G1 X100.898 Y96.543 E9.78019
G1 X101.623 Y96.543 E9.80126
G1 X103.457 Y98.377 E9.87655
G1 X103.457 Y97.651 E9.89763
G1 X102.349 Y96.543 E9.94311
G1 X103.075 Y96.543 E9.96419
G1 X103.457 Y96.925 E9.97987
G1 Z1.200 F7800.000
G1 X96.243 Y96.243 F7800.000
G1 F900
G1 X103.757 Y96.243 E10.18857
G1 X103.757 Y103.757 E10.39727
G1 X96.243 Y103.757 E10.60597
G1 X96.243 Y96.318 E10.81259
G1 X95.753 Y95.753 F7800.000
G1 F900
G1 X104.247 Y95.753 E11.04856
G1 X104.247 Y104.247 E11.28453
G1 X95.753 Y104.247 E11.52051
G1 X95.753 Y95.828 E11.75439
G1 X95.275 Y95.275 F7800.000
G1 F900
G1 X104.725 Y95.275 E12.00261
G1 X104.725 Y104.725 E12.25082
G1 X95.275 Y104.725 E12.49904
G1 X95.275 Y95.350 E12.74528
G1 X95.758 Y95.404 F7800.000
G1 X96.925 Y96.543 F7800.000
G1 F1200
G1 X96.543 Y96.925 E12.76097
G1 X96.543 Y97.651 E12.78204
G1 X97.651 Y96.543 E12.82753
G1 X98.377 Y96.543 E12.84860
G1 X96.543 Y98.377 E12.92389
G1 X96.543 Y99.102 E12.94496
G1 X99.102 Y96.543 E13.05006
G1 X99.828 Y96.543 E13.07113
G1 X96.543 Y99.828 E13.20603
G1 X96.543 Y100.554 E13.22710
G1 X100.554 Y96.543 E13.39180
G1 X101.280 Y96.543 E13.41287
G1 X96.543 Y101.280 E13.60737
G1 X96.543 Y102.005 E13.62845
G1 X102.005 Y96.543 E13.85275
G1 X102.731 Y96.543 E13.87382
G1 X96.543 Y102.731 E14.12793
G1 X96.543 Y103.457 E14.14900
G1 X103.457 Y96.543 E14.43291
G1 X103.457 Y97.269 E14.45398
G1 X97.269 Y103.457 E14.70809
G1 X97.995 Y103.457 E14.72916
G1 X103.457 Y97.995 E14.95346
G1 X103.457 Y98.720 E14.97453
G1 X98.720 Y103.457 E15.16903
G1 X99.446 Y103.457 E15.19011
G1 X103.457 Y99.446 E15.35481
G1 X103.457 Y100.172 E15.37588
G1 X100.172 Y103.457 E15.51077
G1 X100.898 Y103.457 E15.53185
G1 X103.457 Y100.898 E15.63694
G1 X103.457 Y101.623 E15.65801
G1 X101.623 Y103.457 E15.73330
G1 X102.349 Y103.457 E15.75438
G1 X103.457 Y102.349 E15.79987
G1 X103.457 Y103.075 E15.82094
G1 X103.075 Y103.457 E15.83662
M106 S232.05
G1 Z1.600 F7800.000
G1 X96.243 Y96.243 F7800.000
G1 F900
G1 X103.757 Y96.243 E16.04532
G1 X103.757 Y103.757 E16.25403
G1 X96.243 Y103.757 E16.46273
G1 X96.243 Y96.318 E16.66934
G1 X95.753 Y95.753 F7800.000
G1 F900
G1 X104.247 Y95.753 E16.90531
G1 X104.247 Y104.247 E17.14129
G1 X95.753 Y104.247 E17.37726
G1 X95.753 Y95.828 E17.61115
G1 X95.275 Y95.275 F7800.000
G1 F900
G1 X104.725 Y95.275 E17.85936
G1 X104.725 Y104.725 E18.10757
G1 X95.275 Y104.725 E18.35579
G1 X95.275 Y95.350 E18.60203
G1 X95.758 Y95.404 F7800.000
G1 X96.543 Y103.075 F7800.000
G1 F1200
G1 X96.925 Y103.457 E18.61772
G1 X97.651 Y103.457 E18.63879
G1 X96.543 Y102.349 E18.68428
G1 X96.543 Y101.623 E18.70535
G1 X98.377 Y103.457 E18.78064
G1 X99.102 Y103.457 E18.80172
G1 X96.543 Y100.898 E18.90681
G1 X96.543 Y100.172 E18.92788
G1 X99.828 Y103.457 E19.06278
G1 X100.554 Y103.457 E19.08385
G1 X96.543 Y99.446 E19.24855
G1 X96.543 Y98.720 E19.26962
G1 X101.280 Y103.457 E19.46412
G1 X102.005 Y103.457 E19.48519
G1 X96.543 Y97.995 E19.70950
G1 X96.543 Y97.269 E19.73057
G1 X102.731 Y103.457 E19.98467
G1 X103.457 Y103.457 E20.00575
G1 X96.543 Y96.543 E20.28965
G1 X97.269 Y96.543 E20.31072
G1 X103.457 Y102.731 E20.56483
G1 X103.457 Y102.005 E20.58590
G1 X97.995 Y96.543 E20.81020
G1 X98.720 Y96.543 E20.83127
G1 X103.457 Y101.280 E21.02577
G1 X103.457 Y100.554 E21.04685
G1 X99.446 Y96.543 E21.21154
G1 X100.172 Y96.543 E21.23262
G1 X103.457 Y99.828 E21.36751
G1 X103.457 Y99.102 E21.38858
G1 X100.898 Y96.543 E21.49368
G1 X101.623 Y96.543 E21.51475
G1 X103.457 Y98.377 E21.59004
G1 X103.457 Y97.651 E21.61111
G1 X102.349 Y96.543 E21.65660
G1 X103.075 Y96.543 E21.67767
G1 X103.457 Y96.925 E21.69336
G1 Z2.000 F7800.000
G1 X96.243 Y96.243 F7800.000
G1 F900
G1 X103.757 Y96.243 E21.90206
G1 X103.757 Y103.757 E22.11076
G1 X96.243 Y103.757 E22.31946
G1 X96.243 Y96.318 E22.52608
G1 X95.753 Y95.753 F7800.000
G1 F900
G1 X104.247 Y95.753 E22.76205
G1 X104.247 Y104.247 E22.99802
G1 X95.753 Y104.247 E23.23399
G1 X95.753 Y95.828 E23.46788
G1 X95.275 Y95.275 F7800.000
G1 F900
G1 X104.725 Y95.275 E23.71609
G1 X104.725 Y104.725 E23.96431
G1 X95.275 Y104.725 E24.21252
G1 X95.275 Y95.350 E24.45877
G1 X95.758 Y95.404 F7800.000
G1 X96.925 Y96.543 F7800.000
G1 F1200
G1 X96.543 Y96.925 E24.47445
G1 X96.543 Y97.651 E24.49553
G1 X97.651 Y96.543 E24.54101
G1 X98.377 Y96.543 E24.56209
G1 X96.543 Y98.377 E24.63738
G1 X96.543 Y99.102 E24.65845
G1 X99.102 Y96.543 E24.76354
G1 X99.828 Y96.543 E24.78462
G1 X96.543 Y99.828 E24.91951
G1 X96.543 Y100.554 E24.94059
G1 X100.554 Y96.543 E25.10528
G1 X101.280 Y96.543 E25.12636
G1 X96.543 Y101.280 E25.32085
G1 X96.543 Y102.005 E25.34193
G1 X102.005 Y96.543 E25.56623
G1 X102.731 Y96.543 E25.58730
G1 X96.543 Y102.731 E25.84141
G1 X96.543 Y103.457 E25.86248
G1 X103.457 Y96.543 E26.14638
G1 X103.457 Y97.269 E26.16746
G1 X97.269 Y103.457 E26.42156
G1 X97.995 Y103.457 E26.44263
G1 X103.457 Y97.995 E26.66693
G1 X103.457 Y98.720 E26.68801
G1 X98.720 Y103.457 E26.88251
G1 X99.446 Y103.457 E26.90358
G1 X103.457 Y99.446 E27.06828
G1 X103.457 Y100.172 E27.08935
G1 X100.172 Y103.457 E27.22424
G1 X100.898 Y103.457 E27.24532
G1 X103.457 Y100.898 E27.35041
G1 X103.457 Y101.623 E27.37148
G1 X101.623 Y103.457 E27.44677
G1 X102.349 Y103.457 E27.46785
G1 X103.457 Y102.349 E27.51333
G1 X103.457 Y103.075 E27.53441
G1 X103.075 Y103.457 E27.55009
G1 Z2.400 F7800.000
G1 X96.243 Y96.243 F7800.000
G1 F900
G1 X103.757 Y96.243 E27.75879
G1 X103.757 Y103.757 E27.96749
G1 X96.243 Y103.757 E28.17619
G1 X96.243 Y96.318 E28.38281
G1 X95.753 Y95.753 F7800.000
G1 F900
G1 X104.247 Y95.753 E28.61878
G1 X104.247 Y104.247 E28.85475
G1 X95.753 Y104.247 E29.09072
G1 X95.753 Y95.828 E29.32461
G1 X95.275 Y95.275 F7800.000
G1 F900
G1 X104.725 Y95.275 E29.57283
G1 X104.725 Y104.725 E29.82104
G1 X95.275 Y104.725 E30.06925
G1 X95.275 Y95.350 E30.31550
G1 X95.758 Y95.404 F7800.000
G1 X96.543 Y103.075 F7800.000
G1 F1200
G1 X96.925 Y103.457 E30.33119
G1 X97.651 Y103.457 E30.35226
G1 X96.543 Y102.349 E30.39775
G1 X96.543 Y101.623 E30.41882
G1 X98.377 Y103.457 E30.49411
G1 X99.102 Y103.457 E30.51518
G1 X96.543 Y100.898 E30.62028
G1 X96.543 Y100.172 E30.64135
G1 X99.828 Y103.457 E30.77625
G1 X100.554 Y103.457 E30.79732
G1 X96.543 Y99.446 E30.96202
G1 X96.543 Y98.720 E30.98309
G1 X101.280 Y103.457 E31.17759
G1 X102.005 Y103.457 E31.19866
G1 X96.543 Y97.995 E31.42296
G1 X96.543 Y97.269 E31.44404
G1 X102.731 Y103.457 E31.69814
G1 X103.457 Y103.457 E31.71921
G1 X96.543 Y96.543 E32.00312
G1 X97.269 Y96.543 E32.02419
G1 X103.457 Y102.731 E32.27829
G1 X103.457 Y102.005 E32.29937
G1 X97.995 Y96.543 E32.52367
G1 X98.720 Y96.543 E32.54474
G1 X103.457 Y101.280 E32.73924
G1 X103.457 Y100.554 E32.76031
G1 X99.446 Y96.543 E32.92501
G1 X100.172 Y96.543 E32.94608
G1 X103.457 Y99.828 E33.08098
G1 X103.457 Y99.102 E33.10205
G1 X100.898 Y96.543 E33.20714
G1 X101.623 Y96.543 E33.22822
G1 X103.457 Y98.377 E33.30351
G1 X103.457 Y97.651 E33.32458
G1 X102.349 Y96.543 E33.37007
G1 X103.075 Y96.543 E33.39114
G1 X103.457 Y96.925 E33.40682
G1 Z2.800 F7800.000
G1 X96.243 Y96.243 F7800.000
G1 F900
G1 X103.757 Y96.243 E33.61553
G1 X103.757 Y103.757 E33.82423
G1 X96.243 Y103.757 E34.03293
G1 X96.243 Y96.318 E34.23954
G1 X95.753 Y95.753 F7800.000
G1 F900
G1 X104.247 Y95.753 E34.47552
G1 X104.247 Y104.247 E34.71149
G1 X95.753 Y104.247 E34.94746
G1 X95.753 Y95.828 E35.18135
G1 X95.275 Y95.275 F7800.000
G1 F900
G1 X104.725 Y95.275 E35.42956
G1 X104.725 Y104.725 E35.67777
G1 X95.275 Y104.725 E35.92599
G1 X95.275 Y95.350 E36.17223
G1 X95.758 Y95.404 F7800.000
G1 X96.925 Y96.543 F7800.000
G1 F1200
G1 X96.543 Y96.925 E36.18792
G1 X96.543 Y97.651 E36.20899
G1 X97.651 Y96.543 E36.25448
G1 X98.377 Y96.543 E36.27555
G1 X96.543 Y98.377 E36.35084
G1 X96.543 Y99.102 E36.37192
G1 X99.102 Y96.543 E36.47701
G1 X99.828 Y96.543 E36.49808
G1 X96.543 Y99.828 E36.63298
G1 X96.543 Y100.554 E36.65405
G1 X100.554 Y96.543 E36.81875
G1 X101.280 Y96.543 E36.83982
G1 X96.543 Y101.280 E37.03432
G1 X96.543 Y102.005 E37.05539
G1 X102.005 Y96.543 E37.27970
G1 X102.731 Y96.543 E37.30077
G1 X96.543 Y102.731 E37.55487
G1 X96.543 Y103.457 E37.57595
G1 X103.457 Y96.543 E37.85985
G1 X103.457 Y97.269 E37.88092
G1 X97.269 Y103.457 E38.13503
G1 X97.995 Y103.457 E38.15610
G1 X103.457 Y97.995 E38.38040
G1 X103.457 Y98.720 E38.40147
G1 X98.720 Y103.457 E38.59597
G1 X99.446 Y103.457 E38.61705
G1 X103.457 Y99.446 E38.78174
G1 X103.457 Y100.172 E38.80282
G1 X100.172 Y103.457 E38.93771
G1 X100.898 Y103.457 E38.95878
G1 X103.457 Y100.898 E39.06388
G1 X103.457 Y101.623 E39.08495
G1 X101.623 Y103.457 E39.16024
G1 X102.349 Y103.457 E39.18131
G1 X103.457 Y102.349 E39.22680
G1 X103.457 Y103.075 E39.24787
G1 X103.075 Y103.457 E39.26356
G1 Z3.200 F7800.000
G1 X96.243 Y96.243 F7800.000
G1 F900
G1 X103.757 Y96.243 E39.47226
G1 X103.757 Y103.757 E39.68096
G1 X96.243 Y103.757 E39.88966
G1 X96.243 Y96.318 E40.09628
G1 X95.753 Y95.753 F7800.000
G1 F900
G1 X104.247 Y95.753 E40.33225
G1 X104.247 Y104.247 E40.56822
G1 X95.753 Y104.247 E40.80419
G1 X95.753 Y95.828 E41.03808
G1 X95.275 Y95.275 F7800.000
G1 F900
G1 X104.725 Y95.275 E41.28629
G1 X104.725 Y104.725 E41.53451
G1 X95.275 Y104.725 E41.78272
G1 X95.275 Y95.350 E42.02897
G1 X95.758 Y95.404 F7800.000
G1 X96.543 Y103.075 F7800.000
G1 F1200
G1 X96.925 Y103.457 E42.04465
G1 X97.651 Y103.457 E42.06573
G1 X96.543 Y102.349 E42.11121
G1 X96.543 Y101.623 E42.13229
G1 X98.377 Y103.457 E42.20758
G1 X99.102 Y103.457 E42.22865
G1 X96.543 Y100.898 E42.33374
G1 X96.543 Y100.172 E42.35482
G1 X99.828 Y103.457 E42.48971
G1 X100.554 Y103.457 E42.51079
G1 X96.543 Y99.446 E42.67548
G1 X96.543 Y98.720 E42.69656
G1 X101.280 Y103.457 E42.89106
G1 X102.005 Y103.457 E42.91213
G1 X96.543 Y97.995 E43.13643
G1 X96.543 Y97.269 E43.15750
G1 X102.731 Y103.457 E43.41161
G1 X103.457 Y103.457 E43.43268
G1 X96.543 Y96.543 E43.71659
G1 X97.269 Y96.543 E43.73766
G1 X103.457 Y102.731 E43.99176
G1 X103.457 Y102.005 E44.01283
G1 X97.995 Y96.543 E44.23714
G1 X98.720 Y96.543 E44.25821
G1 X103.457 Y101.280 E44.45271
G1 X103.457 Y100.554 E44.47378
G1 X99.446 Y96.543 E44.63848
G1 X100.172 Y96.543 E44.65955
G1 X103.457 Y99.828 E44.79444
G1 X103.457 Y99.102 E44.81552
G1 X100.898 Y96.543 E44.92061
G1 X101.623 Y96.543 E44.94168
G1 X103.457 Y98.377 E45.01697
G1 X103.457 Y97.651 E45.03805
G1 X102.349 Y96.543 E45.08353
G1 X103.075 Y96.543 E45.10461
G1 X103.457 Y96.925 E45.12029
G1 Z3.600 F7800.000
G1 X96.243 Y96.243 F7800.000
G1 F900
G1 X103.757 Y96.243 E45.32899
G1 X103.757 Y103.757 E45.53769
G1 X96.243 Y103.757 E45.74639
G1 X96.243 Y96.318 E45.95301
G1 X95.753 Y95.753 F7800.000
G1 F900
G1 X104.247 Y95.753 E46.18898
G1 X104.247 Y104.247 E46.42495
G1 X95.753 Y104.247 E46.66092
G1 X95.753 Y95.828 E46.89481
G1 X95.275 Y95.275 F7800.000
G1 F900
G1 X104.725 Y95.275 E47.14303
G1 X104.725 Y104.725 E47.39124
G1 X95.275 Y104.725 E47.63946
G1 X95.275 Y95.350 E47.88570
G1 X95.758 Y95.404 F7800.000
G1 X96.925 Y96.543 F7800.000
G1 F1200
G1 X96.543 Y96.925 E47.90139
G1 X96.543 Y97.651 E47.92246
G1 X97.651 Y96.543 E47.96795
G1 X98.377 Y96.543 E47.98902
G1 X96.543 Y98.377 E48.06431
G1 X96.543 Y99.102 E48.08538
G1 X99.102 Y96.543 E48.19048
G1 X99.828 Y96.543 E48.21155
G1 X96.543 Y99.828 E48.34645
G1 X96.543 Y100.554 E48.36752
G1 X100.554 Y96.543 E48.53222
G1 X101.280 Y96.543 E48.55329
G1 X96.543 Y101.280 E48.74779
G1 X96.543 Y102.005 E48.76886
G1 X102.005 Y96.543 E48.99316
G1 X102.731 Y96.543 E49.01424
G1 X96.543 Y102.731 E49.26834
G1 X96.543 Y103.457 E49.28941
G1 X103.457 Y96.543 E49.57332
G1 X103.457 Y97.269 E49.59439
G1 X97.269 Y103.457 E49.84849
G1 X97.995 Y103.457 E49.86957
G1 X103.457 Y97.995 E50.09387
G1 X103.457 Y98.720 E50.11494
G1 X98.720 Y103.457 E50.30944
G1 X99.446 Y103.457 E50.33051
G1 X103.457 Y99.446 E50.49521
G1 X103.457 Y100.172 E50.51628
G1 X100.172 Y103.457 E50.65118
G1 X100.898 Y103.457 E50.67225
G1 X103.457 Y100.898 E50.77734
G1 X103.457 Y101.623 E50.79842
G1 X101.623 Y103.457 E50.87371
G1 X102.349 Y103.457 E50.89478
G1 X103.457 Y102.349 E50.94027
G1 X103.457 Y103.075 E50.96134
G1 X103.075 Y103.457 E50.97703
G1 Z4.000 F7800.000
G1 X96.243 Y96.243 F7800.000
G1 F900
G1 X103.757 Y96.243 E51.18573
G1 X103.757 Y103.757 E51.39443
G1 X96.243 Y103.757 E51.60313
G1 X96.243 Y96.318 E51.80974
G1 X95.753 Y95.753 F7800.000
G1 F900
G1 X104.247 Y95.753 E52.04572
G1 X104.247 Y104.247 E52.28169
G1 X95.753 Y104.247 E52.51766
G1 X95.753 Y95.828 E52.75155
G1 X95.275 Y95.275 F7800.000
G1 F900
G1 X104.725 Y95.275 E52.99976
G1 X104.725 Y104.725 E53.24797
G1 X95.275 Y104.725 E53.49619
G1 X95.275 Y95.350 E53.74243
G1 X95.758 Y95.404 F7800.000
G1 X96.543 Y103.075 F7800.000
G1 F1200
G1 X96.925 Y103.457 E53.75812
G1 X97.651 Y103.457 E53.77919
G1 X96.543 Y102.349 E53.82468
G1 X96.543 Y101.623 E53.84575
G1 X98.377 Y103.457 E53.92104
G1 X99.102 Y103.457 E53.94212
G1 X96.543 Y100.898 E54.04721
G1 X96.543 Y100.172 E54.06828
G1 X99.828 Y103.457 E54.20318
G1 X100.554 Y103.457 E54.22425
G1 X96.543 Y99.446 E54.38895
G1 X96.543 Y98.720 E54.41002
G1 X101.280 Y103.457 E54.60452
G1 X102.005 Y103.457 E54.62560
G1 X96.543 Y97.995 E54.84990
G1 X96.543 Y97.269 E54.87097
G1 X102.731 Y103.457 E55.12507
G1 X103.457 Y103.457 E55.14615
G1 X96.543 Y96.543 E55.43005
G1 X97.269 Y96.543 E55.45113
G1 X103.457 Y102.731 E55.70523
G1 X103.457 Y102.005 E55.72630
G1 X97.995 Y96.543 E55.95060
G1 X98.720 Y96.543 E55.97168
G1 X103.457 Y101.280 E56.16617
G1 X103.457 Y100.554 E56.18725
G1 X99.446 Y96.543 E56.35194
G1 X100.172 Y96.543 E56.37302
G1 X103.457 Y99.828 E56.50791
G1 X103.457 Y99.102 E56.52898
G1 X100.898 Y96.543 E56.63408
G1 X101.623 Y96.543 E56.65515
G1 X103.457 Y98.377 E56.73044
G1 X103.457 Y97.651 E56.75151
G1 X102.349 Y96.543 E56.79700
G1 X103.075 Y96.543 E56.81807
G1 X103.457 Y96.925 E56.83376
G1 Z4.400 F7800.000
G1 X96.243 Y96.243 F7800.000
G1 F900
G1 X103.757 Y96.243 E57.04246
G1 X103.757 Y103.757 E57.25116
G1 X96.243 Y103.757 E57.45986
G1 X96.243 Y96.318 E57.66648
G1 X95.753 Y95.753 F7800.000
G1 F900
G1 X104.247 Y95.753 E57.90245
G1 X104.247 Y104.247 E58.13842
G1 X95.753 Y104.247 E58.37439
G1 X95.753 Y95.828 E58.60828
G1 X95.275 Y95.275 F7800.000
G1 F900
G1 X104.725 Y95.275 E58.85649
G1 X104.725 Y104.725 E59.10471
G1 X95.275 Y104.725 E59.35292
G1 X95.275 Y95.350 E59.59917
G1 X95.758 Y95.404 F7800.000
G1 X96.925 Y96.543 F7800.000
G1 F1200
G1 X96.543 Y96.925 E59.61485
G1 X96.543 Y97.651 E59.63593
G1 X97.651 Y96.543 E59.68141
G1 X98.377 Y96.543 E59.70249
G1 X96.543 Y98.377 E59.77778
G1 X96.543 Y99.102 E59.79885
G1 X99.102 Y96.543 E59.90394
G1 X99.828 Y96.543 E59.92502
G1 X96.543 Y99.828 E60.05991
G1 X96.543 Y100.554 E60.08099
G1 X100.554 Y96.543 E60.24568
G1 X101.280 Y96.543 E60.26676
G1 X96.543 Y101.280 E60.46126
G1 X96.543 Y102.005 E60.48233
G1 X102.005 Y96.543 E60.70663
G1 X102.731 Y96.543 E60.72770
G1 X96.543 Y102.731 E60.98181
G1 X96.543 Y103.457 E61.00288
G1 X103.457 Y96.543 E61.28679
G1 X103.457 Y97.269 E61.30786
G1 X97.269 Y103.457 E61.56196
G1 X97.995 Y103.457 E61.58303
G1 X103.457 Y97.995 E61.80734
G1 X103.457 Y98.720 E61.82841
G1 X98.720 Y103.457 E62.02291
G1 X99.446 Y103.457 E62.04398
G1 X103.457 Y99.446 E62.20868
G1 X103.457 Y100.172 E62.22975
G1 X100.172 Y103.457 E62.36464
G1 X100.898 Y103.457 E62.38572
G1 X103.457 Y100.898 E62.49081
G1 X103.457 Y101.623 E62.51188
G1 X101.623 Y103.457 E62.58717
G1 X102.349 Y103.457 E62.60825
G1 X103.457 Y102.349 E62.65373
G1 X103.457 Y103.075 E62.67481
G1 X103.075 Y103.457 E62.69049
G1 Z4.800 F7800.000
G1 X96.243 Y96.243 F7800.000
G1 F900
G1 X103.757 Y96.243 E62.89919
G1 X103.757 Y103.757 E63.10789
G1 X96.243 Y103.757 E63.31659
G1 X96.243 Y96.318 E63.52321
G1 X95.753 Y95.753 F7800.000
G1 F900
G1 X104.247 Y95.753 E63.75918
G1 X104.247 Y104.247 E63.99515
G1 X95.753 Y104.247 E64.23113
G1 X95.753 Y95.828 E64.46501
G1 X95.275 Y95.275 F7800.000
G1 F900
G1 X104.725 Y95.275 E64.71323
G1 X104.725 Y104.725 E64.96144
G1 X95.275 Y104.725 E65.20966
G1 X95.275 Y95.350 E65.45590
G1 X95.758 Y95.404 F7800.000
G1 X96.543 Y103.075 F7800.000
G1 F1200
G1 X96.925 Y103.457 E65.47159
G1 X97.651 Y103.457 E65.49266
G1 X96.543 Y102.349 E65.53815
G1 X96.543 Y101.623 E65.55922
G1 X98.377 Y103.457 E65.63451
G1 X99.102 Y103.457 E65.65558
G1 X96.543 Y100.898 E65.76068
G1 X96.543 Y100.172 E65.78175
G1 X99.828 Y103.457 E65.91665
G1 X100.554 Y103.457 E65.93772
G1 X96.543 Y99.446 E66.10242
G1 X96.543 Y98.720 E66.12349
G1 X101.280 Y103.457 E66.31799
G1 X102.005 Y103.457 E66.33906
G1 X96.543 Y97.995 E66.56336
G1 X96.543 Y97.269 E66.58444
G1 X102.731 Y103.457 E66.83854
G1 X103.457 Y103.457 E66.85961
G1 X96.543 Y96.543 E67.14352
G1 X97.269 Y96.543 E67.16459
G1 X103.457 Y102.731 E67.41870
G1 X103.457 Y102.005 E67.43977
G1 X97.995 Y96.543 E67.66407
G1 X98.720 Y96.543 E67.68514
G1 X103.457 Y101.280 E67.87964
G1 X103.457 Y100.554 E67.90071
G1 X99.446 Y96.543 E68.06541
G1 X100.172 Y96.543 E68.08648
G1 X103.457 Y99.828 E68.22138
G1 X103.457 Y99.102 E68.24245
G1 X100.898 Y96.543 E68.34754
G1 X101.623 Y96.543 E68.36862
G1 X103.457 Y98.377 E68.44391
G1 X103.457 Y97.651 E68.46498
G1 X102.349 Y96.543 E68.51047
G1 X103.075 Y96.543 E68.53154
G1 X103.457 Y96.925 E68.54723
G1 Z5.200 F7800.000
G1 X96.243 Y96.243 F7800.000
G1 F900
G1 X103.757 Y96.243 E68.75593
G1 X103.757 Y103.757 E68.96463
G1 X96.243 Y103.757 E69.17333
G1 X96.243 Y96.318 E69.37994
G1 X95.753 Y95.753 F7800.000
G1 F900
G1 X104.247 Y95.753 E69.61592
G1 X104.247 Y104.247 E69.85189
G1 X95.753 Y104.247 E70.08786
G1 X95.753 Y95.828 E70.32175
G1 X95.275 Y95.275 F7800.000
G1 F900
G1 X104.725 Y95.275 E70.56996
G1 X104.725 Y104.725 E70.81818
G1 X95.275 Y104.725 E71.06639
G1 X95.275 Y95.350 E71.31263
G1 X95.758 Y95.404 F7800.000
G1 X96.925 Y96.543 F7800.000
G1 F1200
G1 X96.543 Y96.925 E71.32832
G1 X96.543 Y97.651 E71.34939
G1 X97.651 Y96.543 E71.39488
G1 X98.377 Y96.543 E71.41595
G1 X96.543 Y98.377 E71.49125
G1 X96.543 Y99.102 E71.51232
G1 X99.102 Y96.543 E71.61741
G1 X99.828 Y96.543 E71.63848
G1 X96.543 Y99.828 E71.77338
G1 X96.543 Y100.554 E71.79445
G1 X100.554 Y96.543 E71.95915
G1 X101.280 Y96.543 E71.98022
G1 X96.543 Y101.280 E72.17472
G1 X96.543 Y102.005 E72.19580
G1 X102.005 Y96.543 E72.42010
G1 X102.731 Y96.543 E72.44117
G1 X96.543 Y102.731 E72.69527
G1 X96.543 Y103.457 E72.71635
G1 X103.457 Y96.543 E73.00025
G1 X103.457 Y97.269 E73.02133
G1 X97.269 Y103.457 E73.27543
G1 X97.995 Y103.457 E73.29650
G1 X103.457 Y97.995 E73.52080
G1 X103.457 Y98.720 E73.54188
G1 X98.720 Y103.457 E73.73637
G1 X99.446 Y103.457 E73.75745
G1 X103.457 Y99.446 E73.92214
G1 X103.457 Y100.172 E73.94322
G1 X100.172 Y103.457 E74.07811
G1 X100.898 Y103.457 E74.09918
G1 X103.457 Y100.898 E74.20428
G1 X103.457 Y101.623 E74.22535
G1 X101.623 Y103.457 E74.30064
G1 X102.349 Y103.457 E74.32171
G1 X103.457 Y102.349 E74.36720
G1 X103.457 Y103.075 E74.38827
G1 X103.075 Y103.457 E74.40396
G1 Z5.600 F7800.000
G1 X96.243 Y96.243 F7800.000
G1 F900
G1 X103.757 Y96.243 E74.61266
G1 X103.757 Y103.757 E74.82136
G1 X96.243 Y103.757 E75.03006
G1 X96.243 Y96.318 E75.23668
G1 X95.753 Y95.753 F7800.000
G1 F900
G1 X104.247 Y95.753 E75.47265
G1 X104.247 Y104.247 E75.70862
G1 X95.753 Y104.247 E75.94459
G1 X95.753 Y95.828 E76.17848
G1 X95.275 Y95.275 F7800.000
G1 F900
G1 X104.725 Y95.275 E76.42669
G1 X104.725 Y104.725 E76.67491
G1 X95.275 Y104.725 E76.92312
G1 X95.275 Y95.350 E77.16937
G1 X95.758 Y95.404 F7800.000
G1 X96.543 Y103.075 F7800.000
G1 F1200
G1 X96.925 Y103.457 E77.18505
G1 X97.651 Y103.457 E77.20613
G1 X96.543 Y102.349 E77.25161
G1 X96.543 Y101.623 E77.27269
G1 X98.377 Y103.457 E77.34798
G1 X99.102 Y103.457 E77.36905
G1 X96.543 Y100.898 E77.47414
G1 X96.543 Y100.172 E77.49522
G1 X99.828 Y103.457 E77.63011
G1 X100.554 Y103.457 E77.65119
G1 X96.543 Y99.446 E77.81588
G1 X96.543 Y98.720 E77.83696
G1 X101.280 Y103.457 E78.03146
G1 X102.005 Y103.457 E78.05253
G1 X96.543 Y97.995 E78.27683
G1 X96.543 Y97.269 E78.29790
G1 X102.731 Y103.457 E78.55201
G1 X103.457 Y103.457 E78.57308
G1 X96.543 Y96.543 E78.85699
G1 X97.269 Y96.543 E78.87806
G1 X103.457 Y102.731 E79.13216
G1 X103.457 Y102.005 E79.15324
G1 X97.995 Y96.543 E79.37754
G1 X98.720 Y96.543 E79.39861
G1 X103.457 Y101.280 E79.59311
G1 X103.457 Y100.554 E79.61418
G1 X99.446 Y96.543 E79.77888
G1 X100.172 Y96.543 E79.79995
G1 X103.457 Y99.828 E79.93484
G1 X103.457 Y99.102 E79.95592
G1 X100.898 Y96.543 E80.06101
G1 X101.623 Y96.543 E80.08208
G1 X103.457 Y98.377 E80.15737
G1 X103.457 Y97.651 E80.17845
G1 X102.349 Y96.543 E80.22393
G1 X103.075 Y96.543 E80.24501
G1 X103.457 Y96.925 E80.26069
G1 Z6.000 F7800.000
G1 X96.243 Y96.243 F7800.000
G1 F900
G1 X103.757 Y96.243 E80.46939
G1 X103.757 Y103.757 E80.67809
G1 X96.243 Y103.757 E80.88679
G1 X96.243 Y96.318 E81.09341
G1 X95.753 Y95.753 F7800.000
G1 F900
G1 X104.247 Y95.753 E81.32938
G1 X104.247 Y104.247 E81.56535
G1 X95.753 Y104.247 E81.80133
G1 X95.753 Y95.828 E82.03521
G1 X95.275 Y95.275 F7800.000
G1 F900
G1 X104.725 Y95.275 E82.28343
G1 X104.725 Y104.725 E82.53164
G1 X95.275 Y104.725 E82.77986
G1 X95.275 Y95.350 E83.02610
G1 X95.758 Y95.404 F7800.000
G1 X96.925 Y96.543 F7800.000
G1 F1200
G1 X96.543 Y96.925 E83.04179
G1 X96.543 Y97.651 E83.06286
G1 X97.651 Y96.543 E83.10835
G1 X98.377 Y96.543 E83.12942
G1 X96.543 Y98.377 E83.20471
G1 X96.543 Y99.102 E83.22579
G1 X99.102 Y96.543 E83.33088
G1 X99.828 Y96.543 E83.35195
G1 X96.543 Y99.828 E83.48685
G1 X96.543 Y100.554 E83.50792
G1 X100.554 Y96.543 E83.67262
G1 X101.280 Y96.543 E83.69369
G1 X96.543 Y101.280 E83.88819
G1 X96.543 Y102.005 E83.90926
G1 X102.005 Y96.543 E84.13356
G1 X102.731 Y96.543 E84.15464
G1 X96.543 Y102.731 E84.40874
G1 X96.543 Y103.457 E84.42981
G1 X103.457 Y96.543 E84.71372
G1 X103.457 Y97.269 E84.73479
G1 X97.269 Y103.457 E84.98890
G1 X97.995 Y103.457 E85.00997
G1 X103.457 Y97.995 E85.23427
G1 X103.457 Y98.720 E85.25534
G1 X98.720 Y103.457 E85.44984
G1 X99.446 Y103.457 E85.47091
G1 X103.457 Y99.446 E85.63561
G1 X103.457 Y100.172 E85.65668
G1 X100.172 Y103.457 E85.79158
G1 X100.898 Y103.457 E85.81265
G1 X103.457 Y100.898 E85.91774
G1 X103.457 Y101.623 E85.93882
G1 X101.623 Y103.457 E86.01411
G1 X102.349 Y103.457 E86.03518
G1 X103.457 Y102.349 E86.08067
G1 X103.457 Y103.075 E86.10174
G1 X103.075 Y103.457 E86.11743
G1 Z6.400 F7800.000
G1 X96.243 Y96.243 F7800.000
G1 F900
G1 X103.757 Y96.243 E86.32613
G1 X103.757 Y103.757 E86.53483
G1 X96.243 Y103.757 E86.74353
G1 X96.243 Y96.318 E86.95014
G1 X95.753 Y95.753 F7800.000
G1 F900
G1 X104.247 Y95.753 E87.18612
G1 X104.247 Y104.247 E87.42209
G1 X95.753 Y104.247 E87.65806
G1 X95.753 Y95.828 E87.89195
G1 X95.275 Y95.275 F7800.000
G1 F900
G1 X104.725 Y95.275 E88.14016
G1 X104.725 Y104.725 E88.38838
G1 X95.275 Y104.725 E88.63659
G1 X95.275 Y95.350 E88.88283
G1 X95.758 Y95.404 F7800.000
G1 X96.543 Y103.075 F7800.000
G1 F1200
G1 X96.925 Y103.457 E88.89852
G1 X97.651 Y103.457 E88.91959
G1 X96.543 Y102.349 E88.96508
G1 X96.543 Y101.623 E88.98615
G1 X98.377 Y103.457 E89.06145
G1 X99.102 Y103.457 E89.08252
G1 X96.543 Y100.898 E89.18761
G1 X96.543 Y100.172 E89.20868
G1 X99.828 Y103.457 E89.34358
G1 X100.554 Y103.457 E89.36465
G1 X96.543 Y99.446 E89.52935
G1 X96.543 Y98.720 E89.55042
G1 X101.280 Y103.457 E89.74492
G1 X102.005 Y103.457 E89.76600
G1 X96.543 Y97.995 E89.99030
G1 X96.543 Y97.269 E90.01137
G1 X102.731 Y103.457 E90.26547
G1 X103.457 Y103.457 E90.28655
G1 X96.543 Y96.543 E90.57045
G1 X97.269 Y96.543 E90.59153
G1 X103.457 Y102.731 E90.84563
G1 X103.457 Y102.005 E90.86670
G1 X97.995 Y96.543 E91.09100
G1 X98.720 Y96.543 E91.11208
G1 X103.457 Y101.280 E91.30657
G1 X103.457 Y100.554 E91.32765
G1 X99.446 Y96.543 E91.49234
G1 X100.172 Y96.543 E91.51342
G1 X103.457 Y99.828 E91.64831
G1 X103.457 Y99.102 E91.66939
G1 X100.898 Y96.543 E91.77448
G1 X101.623 Y96.543 E91.79555
G1 X103.457 Y98.377 E91.87084
G1 X103.457 Y97.651 E91.89191
G1 X102.349 Y96.543 E91.93740
G1 X103.075 Y96.543 E91.95847
G1 X103.457 Y96.925 E91.97416
G1 Z6.800 F7800.000
G1 X96.243 Y96.243 F7800.000
G1 F900
G1 X103.757 Y96.243 E92.18286
G1 X103.757 Y103.757 E92.39156
G1 X96.243 Y103.757 E92.60026
G1 X96.243 Y96.318 E92.80688
G1 X95.753 Y95.753 F7800.000
G1 F900
G1 X104.247 Y95.753 E93.04285
G1 X104.247 Y104.247 E93.27882
G1 X95.753 Y104.247 E93.51479
G1 X95.753 Y95.828 E93.74868
G1 X95.275 Y95.275 F7800.000
G1 F900
G1 X104.725 Y95.275 E93.99689
G1 X104.725 Y104.725 E94.24511
G1 X95.275 Y104.725 E94.49332
G1 X95.275 Y95.350 E94.73957
G1 X95.758 Y95.404 F7800.000
G1 X96.925 Y96.543 F7800.000
G1 F1200
G1 X96.543 Y96.925 E94.75525
G1 X96.543 Y97.651 E94.77633
G1 X97.651 Y96.543 E94.82182
G1 X98.377 Y96.543 E94.84289
G1 X96.543 Y98.377 E94.91818
G1 X96.543 Y99.102 E94.93925
G1 X99.102 Y96.543 E95.04434
G1 X99.828 Y96.543 E95.06542
G1 X96.543 Y99.828 E95.20031
G1 X96.543 Y100.554 E95.22139
G1 X100.554 Y96.543 E95.38608
G1 X101.280 Y96.543 E95.40716
G1 X96.543 Y101.280 E95.60166
G1 X96.543 Y102.005 E95.62273
G1 X102.005 Y96.543 E95.84703
G1 X102.731 Y96.543 E95.86810
G1 X96.543 Y102.731 E96.12221
G1 X96.543 Y103.457 E96.14328
G1 X103.457 Y96.543 E96.42719
G1 X103.457 Y97.269 E96.44826
G1 X97.269 Y103.457 E96.70236
G1 X97.995 Y103.457 E96.72344
G1 X103.457 Y97.995 E96.94774
G1 X103.457 Y98.720 E96.96881
G1 X98.720 Y103.457 E97.16331
G1 X99.446 Y103.457 E97.18438
G1 X103.457 Y99.446 E97.34908
G1 X103.457 Y100.172 E97.37015
G1 X100.172 Y103.457 E97.50504
G1 X100.898 Y103.457 E97.52612
G1 X103.457 Y100.898 E97.63121
G1 X103.457 Y101.623 E97.65228
G1 X101.623 Y103.457 E97.72757
G1 X102.349 Y103.457 E97.74865
G1 X103.457 Y102.349 E97.79413
G1 X103.457 Y103.075 E97.81521
G1 X103.075 Y103.457 E97.83089
G1 Z7.200 F7800.000
G1 X96.243 Y96.243 F7800.000
G1 F900
G1 X103.757 Y96.243 E98.03959
G1 X103.757 Y103.757 E98.24829
G1 X96.243 Y103.757 E98.45699
G1 X96.243 Y96.318 E98.66361
G1 X95.753 Y95.753 F7800.000
G1 F900
G1 X104.247 Y95.753 E98.89958
G1 X104.247 Y104.247 E99.13555
G1 X95.753 Y104.247 E99.37153
G1 X95.753 Y95.828 E99.60541
G1 X95.275 Y95.275 F7800.000
G1 F900
G1 X104.725 Y95.275 E99.85363
G1 X104.725 Y104.725 E100.10184
G1 X95.275 Y104.725 E100.35006
G1 X95.275 Y95.350 E100.59630
G1 X95.758 Y95.404 F7800.000
G1 X96.543 Y103.075 F7800.000
G1 F1200
G1 X96.925 Y103.457 E100.61199
G1 X97.651 Y103.457 E100.63306
G1 X96.543 Y102.349 E100.67855
G1 X96.543 Y101.623 E100.69962
G1 X98.377 Y103.457 E100.77491
G1 X99.102 Y103.457 E100.79599
G1 X96.543 Y100.898 E100.90108
G1 X96.543 Y100.172 E100.92215
G1 X99.828 Y103.457 E101.05705
G1 X100.554 Y103.457 E101.07812
G1 X96.543 Y99.446 E101.24282
G1 X96.543 Y98.720 E101.26389
G1 X101.280 Y103.457 E101.45839
G1 X102.005 Y103.457 E101.47946
G1 X96.543 Y97.995 E101.70376
G1 X96.543 Y97.269 E101.72484
G1 X102.731 Y103.457 E101.97894
G1 X103.457 Y103.457 E102.00001
G1 X96.543 Y96.543 E102.28392
G1 X97.269 Y96.543 E102.30499
G1 X103.457 Y102.731 E102.55910
G1 X103.457 Y102.005 E102.58017
G1 X97.995 Y96.543 E102.80447
G1 X98.720 Y96.543 E102.82554
G1 X103.457 Y101.280 E103.02004
G1 X103.457 Y100.554 E103.04112
G1 X99.446 Y96.543 E103.20581
G1 X100.172 Y96.543 E103.22688
G1 X103.457 Y99.828 E103.36178
G1 X103.457 Y99.102 E103.38285
G1 X100.898 Y96.543 E103.48794
G1 X101.623 Y96.543 E103.50902
G1 X103.457 Y98.377 E103.58431
G1 X103.457 Y97.651 E103.60538
G1 X102.349 Y96.543 E103.65087
G1 X103.075 Y96.543 E103.67194
G1 X103.457 Y96.925 E103.68763
G1 Z7.600 F7800.000
G1 X96.243 Y96.243 F7800.000
G1 F900
G1 X103.757 Y96.243 E103.89633
G1 X103.757 Y103.757 E104.10503
G1 X96.243 Y103.757 E104.31373
G1 X96.243 Y96.318 E104.52035
G1 X95.753 Y95.753 F7800.000
G1 F900
G1 X104.247 Y95.753 E104.75632
G1 X104.247 Y104.247 E104.99229
G1 X95.753 Y104.247 E105.22826
G1 X95.753 Y95.828 E105.46215
G1 X95.275 Y95.275 F7800.000
G1 F900
G1 X104.725 Y95.275 E105.71036
G1 X104.725 Y104.725 E105.95858
G1 X95.275 Y104.725 E106.20679
G1 X95.275 Y95.350 E106.45303
G1 X95.758 Y95.404 F7800.000
G1 X96.925 Y96.543 F7800.000
G1 F1200
G1 X96.543 Y96.925 E106.46872
G1 X96.543 Y97.651 E106.48979
G1 X97.651 Y96.543 E106.53528
G1 X98.377 Y96.543 E106.55636
G1 X96.543 Y98.377 E106.63165
G1 X96.543 Y99.102 E106.65272
G1 X99.102 Y96.543 E106.75781
G1 X99.828 Y96.543 E106.77889
G1 X96.543 Y99.828 E106.91378
G1 X96.543 Y100.554 E106.93485
G1 X100.554 Y96.543 E107.09955
G1 X101.280 Y96.543 E107.12062
G1 X96.543 Y101.280 E107.31512
G1 X96.543 Y102.005 E107.33620
G1 X102.005 Y96.543 E107.56050
G1 X102.731 Y96.543 E107.58157
G1 X96.543 Y102.731 E107.83567
G1 X96.543 Y103.457 E107.85675
G1 X103.457 Y96.543 E108.14065
G1 X103.457 Y97.269 E108.16173
G1 X97.269 Y103.457 E108.41583
G1 X97.995 Y103.457 E108.43690
G1 X103.457 Y97.995 E108.66120
G1 X103.457 Y98.720 E108.68228
G1 X98.720 Y103.457 E108.87677
G1 X99.446 Y103.457 E108.89785
G1 X103.457 Y99.446 E109.06254
G1 X103.457 Y100.172 E109.08362
G1 X100.172 Y103.457 E109.21851
G1 X100.898 Y103.457 E109.23959
G1 X103.457 Y100.898 E109.34468
G1 X103.457 Y101.623 E109.36575
G1 X101.623 Y103.457 E109.44104
G1 X102.349 Y103.457 E109.46211
G1 X103.457 Y102.349 E109.50760
G1 X103.457 Y103.075 E109.52867
G1 X103.075 Y103.457 E109.54436
G1 Z8.000 F7800.000
G1 X96.243 Y96.243 F7800.000
G1 F900
G1 X103.757 Y96.243 E109.75306
G1 X103.757 Y103.757 E109.96176
G1 X96.243 Y103.757 E110.17046
G1 X96.243 Y96.318 E110.37708
G1 X95.753 Y95.753 F7800.000
G1 F900
G1 X104.247 Y95.753 E110.61305
G1 X104.247 Y104.247 E110.84902
G1 X95.753 Y104.247 E111.08499
G1 X95.753 Y95.828 E111.31888
G1 X95.275 Y95.275 F7800.000
G1 F900
G1 X104.725 Y95.275 E111.56709
G1 X104.725 Y104.725 E111.81531
G1 X95.275 Y104.725 E112.06352
G1 X95.275 Y95.350 E112.30977
G1 X95.758 Y95.404 F7800.000
G1 X96.543 Y103.075 F7800.000
G1 F1200
G1 X96.925 Y103.457 E112.32545
G1 X97.651 Y103.457 E112.34653
G1 X96.543 Y102.349 E112.39202
G1 X96.543 Y101.623 E112.41309
G1 X98.377 Y103.457 E112.48838
G1 X99.102 Y103.457 E112.50945
G1 X96.543 Y100.898 E112.61455
G1 X96.543 Y100.172 E112.63562
G1 X99.828 Y103.457 E112.77051
G1 X100.554 Y103.457 E112.79159
G1 X96.543 Y99.446 E112.95628
G1 X96.543 Y98.720 E112.97736
G1 X101.280 Y103.457 E113.17186
G1 X102.005 Y103.457 E113.19293
G1 X96.543 Y97.995 E113.41723
G1 X96.543 Y97.269 E113.43831
G1 X102.731 Y103.457 E113.69241
G1 X103.457 Y103.457 E113.71348
G1 X96.543 Y96.543 E113.99739
G1 X97.269 Y96.543 E114.01846
G1 X103.457 Y102.731 E114.27256
G1 X103.457 Y102.005 E114.29364
G1 X97.995 Y96.543 E114.51794
G1 X98.720 Y96.543 E114.53901
G1 X103.457 Y101.280 E114.73351
G1 X103.457 Y100.554 E114.75458
G1 X99.446 Y96.543 E114.91928
G1 X100.172 Y96.543 E114.94035
G1 X103.457 Y99.828 E115.07525
G1 X103.457 Y99.102 E115.09632
G1 X100.898 Y96.543 E115.20141
G1 X101.623 Y96.543 E115.22248
G1 X103.457 Y98.377 E115.29777
G1 X103.457 Y97.651 E115.31885
G1 X102.349 Y96.543 E115.36433
G1 X103.075 Y96.543 E115.38541
G1 X103.457 Y96.925 E115.40109
G1 Z8.400 F7800.000
G1 X96.243 Y96.243 F7800.000
G1 F900
G1 X103.757 Y96.243 E115.60979
G1 X103.757 Y103.757 E115.81849
G1 X96.243 Y103.757 E116.02720
G1 X96.243 Y96.318 E116.23381
G1 X95.753 Y95.753 F7800.000
G1 F900
G1 X104.247 Y95.753 E116.46978
G1 X104.247 Y104.247 E116.70576
G1 X95.753 Y104.247 E116.94173
G1 X95.753 Y95.828 E117.17561
G1 X95.275 Y95.275 F7800.000
G1 F900
G1 X104.725 Y95.275 E117.42383
G1 X104.725 Y104.725 E117.67204
G1 X95.275 Y104.725 E117.92026
G1 X95.275 Y95.350 E118.16650
G1 X95.758 Y95.404 F7800.000
G1 X96.925 Y96.543 F7800.000
G1 F1200
G1 X96.543 Y96.925 E118.18219
G1 X96.543 Y97.651 E118.20326
G1 X97.651 Y96.543 E118.24875
G1 X98.377 Y96.543 E118.26982
G1 X96.543 Y98.377 E118.34511
G1 X96.543 Y99.102 E118.36619
G1 X99.102 Y96.543 E118.47128
G1 X99.828 Y96.543 E118.49235
G1 X96.543 Y99.828 E118.62725
G1 X96.543 Y100.554 E118.64832
G1 X100.554 Y96.543 E118.81302
G1 X101.280 Y96.543 E118.83409
G1 X96.543 Y101.280 E119.02859
G1 X96.543 Y102.005 E119.04966
G1 X102.005 Y96.543 E119.27396
G1 X102.731 Y96.543 E119.29504
G1 X96.543 Y102.731 E119.54914
G1 X96.543 Y103.457 E119.57021
G1 X103.457 Y96.543 E119.85412
G1 X103.457 Y97.269 E119.87519
G1 X97.269 Y103.457 E120.12930
G1 X97.995 Y103.457 E120.15037
G1 X103.457 Y97.995 E120.37467
G1 X103.457 Y98.720 E120.39574
G1 X98.720 Y103.457 E120.59024
G1 X99.446 Y103.457 E120.61132
G1 X103.457 Y99.446 E120.77601
G1 X103.457 Y100.172 E120.79708
G1 X100.172 Y103.457 E120.93198
G1 X100.898 Y103.457 E120.95305
G1 X103.457 Y100.898 E121.05814
G1 X103.457 Y101.623 E121.07922
G1 X101.623 Y103.457 E121.15451
G1 X102.349 Y103.457 E121.17558
G1 X103.457 Y102.349 E121.22107
G1 X103.457 Y103.075 E121.24214
G1 X103.075 Y103.457 E121.25783
G1 Z8.800 F7800.000
G1 X96.243 Y96.243 F7800.000
G1 F900
G1 X103.757 Y96.243 E121.46653
G1 X103.757 Y103.757 E121.67523
G1 X96.243 Y103.757 E121.88393
G1 X96.243 Y96.318 E122.09055
G1 X95.753 Y95.753 F7800.000
G1 F900
G1 X104.247 Y95.753 E122.32652
G1 X104.247 Y104.247 E122.56249
G1 X95.753 Y104.247 E122.79846
G1 X95.753 Y95.828 E123.03235
G1 X95.275 Y95.275 F7800.000
G1 F900
G1 X104.725 Y95.275 E123.28056
G1 X104.725 Y104.725 E123.52878
G1 X95.275 Y104.725 E123.77699
G1 X95.275 Y95.350 E124.02323
G1 X95.758 Y95.404 F7800.000
G1 X96.543 Y103.075 F7800.000
G1 F1200
G1 X96.925 Y103.457 E124.03892
G1 X97.651 Y103.457 E124.05999
G1 X96.543 Y102.349 E124.10548
G1 X96.543 Y101.623 E124.12656
G1 X98.377 Y103.457 E124.20185
G1 X99.102 Y103.457 E124.22292
G1 X96.543 Y100.898 E124.32801
G1 X96.543 Y100.172 E124.34909
G1 X99.828 Y103.457 E124.48398
G1 X100.554 Y103.457 E124.50505
G1 X96.543 Y99.446 E124.66975
G1 X96.543 Y98.720 E124.69082
G1 X101.280 Y103.457 E124.88532
G1 X102.005 Y103.457 E124.90640
G1 X96.543 Y97.995 E125.13070
G1 X96.543 Y97.269 E125.15177
G1 X102.731 Y103.457 E125.40588
G1 X103.457 Y103.457 E125.42695
G1 X96.543 Y96.543 E125.71085
G1 X97.269 Y96.543 E125.73193
G1 X103.457 Y102.731 E125.98603
G1 X103.457 Y102.005 E126.00710
G1 X97.995 Y96.543 E126.23140
G1 X98.720 Y96.543 E126.25248
G1 X103.457 Y101.280 E126.44698
G1 X103.457 Y100.554 E126.46805
G1 X99.446 Y96.543 E126.63275
G1 X100.172 Y96.543 E126.65382
G1 X103.457 Y99.828 E126.78871
G1 X103.457 Y99.102 E126.80979
G1 X100.898 Y96.543 E126.91488
G1 X101.623 Y96.543 E126.93595
G1 X103.457 Y98.377 E127.01124
G1 X103.457 Y97.651 E127.03231
G1 X102.349 Y96.543 E127.07780
G1 X103.075 Y96.543 E127.09887
G1 X103.457 Y96.925 E127.11456
G1 Z9.200 F7800.000
G1 X96.243 Y96.243 F7800.000
G1 F900
G1 X103.757 Y96.243 E127.32326
G1 X103.757 Y103.757 E127.53196
G1 X96.243 Y103.757 E127.74066
G1 X96.243 Y96.318 E127.94728
G1 X95.753 Y95.753 F7800.000
G1 F900
G1 X104.247 Y95.753 E128.18325
G1 X104.247 Y104.247 E128.41922
G1 X95.753 Y104.247 E128.65519
G1 X95.753 Y95.828 E128.88908
G1 X95.275 Y95.275 F7800.000
G1 F900
G1 X104.725 Y95.275 E129.13730
G1 X104.725 Y104.725 E129.38551
G1 X95.275 Y104.725 E129.63372
G1 X95.275 Y95.350 E129.87997
G1 X95.758 Y95.404 F7800.000
G1 X96.925 Y96.543 F7800.000
G1 F1200
G1 X96.543 Y96.925 E129.89565
G1 X96.543 Y97.651 E129.91673
G1 X97.651 Y96.543 E129.96222
G1 X98.377 Y96.543 E129.98329
G1 X96.543 Y98.377 E130.05858
G1 X96.543 Y99.102 E130.07965
G1 X99.102 Y96.543 E130.18475
G1 X99.828 Y96.543 E130.20582
G1 X96.543 Y99.828 E130.34071
G1 X96.543 Y100.554 E130.36179
G1 X100.554 Y96.543 E130.52649
G1 X101.280 Y96.543 E130.54756
G1 X96.543 Y101.280 E130.74206
G1 X96.543 Y102.005 E130.76313
G1 X102.005 Y96.543 E130.98744
G1 X102.731 Y96.543 E131.00851
G1 X96.543 Y102.731 E131.26261
G1 X96.543 Y103.457 E131.28369
G1 X103.457 Y96.543 E131.56760
G1 X103.457 Y97.269 E131.58867
G1 X97.269 Y103.457 E131.84277
G1 X97.995 Y103.457 E131.86385
G1 X103.457 Y97.995 E132.08815
G1 X103.457 Y98.720 E132.10922
G1 X98.720 Y103.457 E132.30372
G1 X99.446 Y103.457 E132.32480
G1 X103.457 Y99.446 E132.48949
G1 X103.457 Y100.172 E132.51057
G1 X100.172 Y103.457 E132.64546
G1 X100.898 Y103.457 E132.66654
G1 X103.457 Y100.898 E132.77163
G1 X103.457 Y101.623 E132.79270
G1 X101.623 Y103.457 E132.86799
G1 X102.349 Y103.457 E132.88907
G1 X103.457 Y102.349 E132.93455
G1 X103.457 Y103.075 E132.95563
G1 X103.075 Y103.457 E132.97131
G1 Z9.600 F7800.000
G1 X96.243 Y96.243 F7800.000
G1 F900
G1 X103.757 Y96.243 E133.18001
G1 X103.757 Y103.757 E133.38871
G1 X96.243 Y103.757 E133.59741
G1 X96.243 Y96.318 E133.80403
G1 X95.753 Y95.753 F7800.000
G1 F900
G1 X104.247 Y95.753 E134.04000
G1 X104.247 Y104.247 E134.27597
G1 X95.753 Y104.247 E134.51195
G1 X95.753 Y95.828 E134.74583
G1 X95.275 Y95.275 F7800.000
G1 F900
G1 X104.725 Y95.275 E134.99405
G1 X104.725 Y104.725 E135.24226
G1 X95.275 Y104.725 E135.49048
G1 X95.275 Y95.350 E135.73672
G1 X95.758 Y95.404 F7800.000
G1 X96.543 Y103.075 F7800.000
G1 F1200
G1 X96.925 Y103.457 E135.75241
G1 X97.651 Y103.457 E135.77348
G1 X96.543 Y102.349 E135.81897
G1 X96.543 Y101.623 E135.84004
G1 X98.377 Y103.457 E135.91533
G1 X99.102 Y103.457 E135.93641
G1 X96.543 Y100.898 E136.04150
G1 X96.543 Y100.172 E136.06257
G1 X99.828 Y103.457 E136.19747
G1 X100.554 Y103.457 E136.21854
G1 X96.543 Y99.446 E136.38324
G1 X96.543 Y98.720 E136.40431
G1 X101.280 Y103.457 E136.59881
G1 X102.005 Y103.457 E136.61989
G1 X96.543 Y97.995 E136.84419
G1 X96.543 Y97.269 E136.86526
G1 X102.731 Y103.457 E137.11937
G1 X103.457 Y103.457 E137.14044
G1 X96.543 Y96.543 E137.42435
G1 X97.269 Y96.543 E137.44542
G1 X103.457 Y102.731 E137.69953
G1 X103.457 Y102.005 E137.72060
G1 X97.995 Y96.543 E137.94490
G1 X98.720 Y96.543 E137.96598
G1 X103.457 Y101.280 E138.16048
G1 X103.457 Y100.554 E138.18155
G1 X99.446 Y96.543 E138.34625
G1 X100.172 Y96.543 E138.36732
G1 X103.457 Y99.828 E138.50221
G1 X103.457 Y99.102 E138.52329
G1 X100.898 Y96.543 E138.62838
G1 X101.623 Y96.543 E138.64945
G1 X103.457 Y98.377 E138.72474
G1 X103.457 Y97.651 E138.74582
G1 X102.349 Y96.543 E138.79131
G1 X103.075 Y96.543 E138.81238
G1 X103.457 Y96.925 E138.82806
M106 S226.95
G1 Z10.000 F7800.000
G1 E136.82806 F2400.00000
G92 E0
G1 X96.243 Y96.243 F7800.000
G1 E2.00000 F2400.00000
G1 F900
G1 X103.757 Y96.243 E2.20870
G1 X103.757 Y103.757 E2.41740
G1 X96.243 Y103.757 E2.62610
G1 X96.243 Y96.318 E2.83272
G1 X95.753 Y95.753 F7800.000
G1 F900
G1 X104.247 Y95.753 E3.06869
G1 X104.247 Y104.247 E3.30466
G1 X95.753 Y104.247 E3.54063
G1 X95.753 Y95.828 E3.77452
G1 X95.275 Y95.275 F7800.000
G1 F900
G1 X104.725 Y95.275 E4.02274
G1 X104.725 Y104.725 E4.27095
G1 X95.275 Y104.725 E4.51916
G1 X95.275 Y95.350 E4.76541
G1 X95.758 Y95.404 F7800.000
G1 E2.76541 F2400.00000
G92 E0
G1 X96.925 Y96.543 F7800.000
G1 E2.00000 F2400.00000
G1 F900
G1 X96.543 Y96.925 E2.01569
G1 X96.543 Y97.651 E2.03676
G1 X97.651 Y96.543 E2.08225
G1 X98.377 Y96.543 E2.10332
G1 X96.543 Y98.377 E2.17861
G1 X96.543 Y99.102 E2.19969
G1 X99.102 Y96.543 E2.30478
G1 X99.828 Y96.543 E2.32585
G1 X96.543 Y99.828 E2.46075
G1 X96.543 Y100.554 E2.48182
G1 X100.554 Y96.543 E2.64652
G1 X101.280 Y96.543 E2.66759
G1 X96.543 Y101.280 E2.86209
G1 X96.543 Y102.005 E2.88317
G1 X102.005 Y96.543 E3.10747
G1 X102.731 Y96.543 E3.12854
G1 X96.543 Y102.731 E3.38265
G1 X96.543 Y103.457 E3.40372
G1 X103.457 Y96.543 E3.68763
G1 X103.457 Y97.269 E3.70870
G1 X97.269 Y103.457 E3.96281
G1 X97.995 Y103.457 E3.98388
G1 X103.457 Y97.995 E4.20818
G1 X103.457 Y98.720 E4.22926
G1 X98.720 Y103.457 E4.42375
G1 X99.446 Y103.457 E4.44483
G1 X103.457 Y99.446 E4.60953
G1 X103.457 Y100.172 E4.63060
G1 X100.172 Y103.457 E4.76549
G1 X100.898 Y103.457 E4.78657
G1 X103.457 Y100.898 E4.89166
G1 X103.457 Y101.623 E4.91273
G1 X101.623 Y103.457 E4.98802
G1 X102.349 Y103.457 E5.00910
G1 X103.457 Y102.349 E5.05459
G1 X103.457 Y103.075 E5.07566
G1 X103.075 Y103.457 E5.09134
G1 E3.09134 F2400.00000
G92 E0
M107
; Filament-specific end gcode 
;END gcode for filament

M104 S0 ; turn off temperature
G28 X0  ; home X axis
M84     ; disable motors

M140 S0 ; set bed temperature
; filament used = 146.4mm (1.0cm3)
; total filament cost = 0.0

; avoid_crossing_perimeters = 0
; bed_shape = 0x0,200x0,200x200,0x200
; bed_temperature = 0
; before_layer_gcode = 
; between_objects_gcode = 
; bridge_acceleration = 0
; bridge_fan_speed = 100
; brim_connections_width = 0
; brim_width = 0
; complete_objects = 0
; cooling = 1
; default_acceleration = 0
; disable_fan_first_layers = 3
; duplicate_distance = 6
; end_filament_gcode = "; Filament-specific end gcode \n;END gcode for filament\n"
; end_gcode = M104 S0 ; turn off temperature\nG28 X0  ; home X axis\nM84     ; disable motors\n
; extruder_clearance_height = 20
; extruder_clearance_radius = 20
; extruder_offset = 0x0
; extrusion_axis = E
; extrusion_multiplier = 1
; fan_always_on = 0
; fan_below_layer_time = 60
; filament_colour = #FFFFFF
; filament_cost = 0
; filament_density = 0
; filament_diameter = 3
; filament_max_volumetric_speed = 0
; filament_notes = ""
; first_layer_acceleration = 0
; first_layer_bed_temperature = 0
; first_layer_extrusion_width = 200%
; first_layer_speed = 30
; first_layer_temperature = 205
; gcode_arcs = 0
; gcode_comments = 0
; gcode_flavor = reprap
; has_heatbed = 1
; infill_acceleration = 0
; infill_first = 0
; interior_brim_width = 0
; layer_gcode = 
; max_fan_speed = 100
; max_layer_height = 0.3
; max_print_speed = 80
; max_volumetric_speed = 0
; min_fan_speed = 35
; min_layer_height = 0.15
; min_print_speed = 10
; min_skirt_length = 0
; notes = 
; nozzle_diameter = 0.5
; only_retract_when_crossing_perimeters = 1
; ooze_prevention = 0
; output_filename_format = [input_filename_base].gcode
; perimeter_acceleration = 0
; post_process = 
; pressure_advance = 0
; printer_notes = 
; resolution = 0
; retract_before_travel = 2
; retract_layer_change = 0
; retract_length = 2
; retract_length_toolchange = 10
; retract_lift = 0
; retract_lift_above = 0
; retract_lift_below = 0
; retract_restart_extra = 0
; retract_restart_extra_toolchange = 0
; retract_speed = 40
; skirt_distance = 6
; skirt_height = 1
; skirts = 0
; slowdown_below_layer_time = 5
; spiral_vase = 0
; standby_temperature_delta = -5
; start_filament_gcode = "; Filament gcode\n"
; start_gcode = G28 ; home all axes\nG1 Z5 F5000 ; lift nozzle\n
; temperature = 200
; threads = 12
; toolchange_gcode = 
; travel_speed = 130
; use_firmware_retraction = 0
; use_relative_e_distances = 0
; use_set_and_wait_bed = 0
; use_set_and_wait_extruder = 0
; use_volumetric_e = 0
; vibration_limit = 0
; wipe = 0
; z_offset = 0
; z_steps_per_mm = 0
; adaptive_slicing = 0
; adaptive_slicing_quality = 75%
; dont_support_bridges = 1
; extrusion_width = 0
; first_layer_height = 0.4
; infill_only_where_needed = 0
; interface_shells = 0
; layer_height = 0.4
; match_horizontal_surfaces = 0
; raft_layers = 0
; regions_overlap = 0
; seam_position = aligned
; sequential_print_priority = 0
; support_material = 0
; support_material_angle = 0
; support_material_buildplate_only = 0
; support_material_contact_distance = 0.2
; support_material_enforce_layers = 0
; support_material_extruder = 1
; support_material_extrusion_width = 0
; support_material_interface_extruder = 1
; support_material_interface_extrusion_width = 0
; support_material_interface_layers = 3
; support_material_interface_spacing = 0
; support_material_interface_speed = 100%
; support_material_max_layers = 0
; support_material_pattern = pillars
; support_material_spacing = 2.5
; support_material_speed = 60
; support_material_threshold = 60%
; xy_size_compensation = 0
; bottom_infill_pattern = rectilinear
; bottom_solid_layers = 3
; bridge_flow_ratio = 1
; bridge_speed = 60
; external_perimeter_extrusion_width = 0
; external_perimeter_speed = 50%
; external_perimeters_first = 0
; extra_perimeters = 1
; fill_angle = 45
; fill_density = 60%
; fill_gaps = 1
; fill_pattern = stars
; gap_fill_speed = 20
; infill_every_layers = 1
; infill_extruder = 1
; infill_extrusion_width = 0
; infill_overlap = 55%
; infill_speed = 80
; overhangs = 1
; perimeter_extruder = 1
; perimeter_extrusion_width = 0
; perimeter_speed = 60
; perimeters = 3
; small_perimeter_speed = 15
; solid_infill_below_area = 70
; solid_infill_every_layers = 0
; solid_infill_extruder = 1
; solid_infill_extrusion_width = 0
; solid_infill_speed = 20
; thin_walls = 1
; top_infill_extrusion_width = 0
; top_infill_pattern = rectilinear
; top_solid_infill_speed = 15
; top_solid_layers = 3
