%
(Header)
(Generated by gcodetools from Inkscape.)
(Using default header. To add your own header create file "header" in the output dir.)
M3
(Header end.)
G21 (All units in mm)

(Start cutting path id: path3280)
(Change tool to Default tool)

G00 Z5.000000
G00 X14.906039 Y9.859737

G01 Z-1.000000 F100.0(Penetrate)
G01 X18.003058 Y9.909763 Z-1.000000 F400.000000
G00 Z5.000000

(End cutting path id: path3280)


(Start cutting path id: path2896-7)
(Change tool to Default tool)

G00 Z5.000000
G00 X2.398318 Y9.716615

G01 Z-1.000000 F100.0(Penetrate)
G03 X4.238517 Y8.142412 Z-1.000000 I24.493230 J26.769209 F400.000000
G03 X6.363996 Y6.950435 Z-1.000000 I4.682740 J5.859032
G03 X8.904867 Y6.488074 Z-1.000000 I2.634147 J7.263004
G03 X11.329073 Y6.925565 Z-1.000000 I0.078485 J6.500306
G03 X13.283487 Y8.171007 Z-1.000000 I-2.123575 J5.488634
G03 X14.906020 Y9.859743 Z-1.000000 I-20.370882 J21.196124
G00 Z5.000000

(End cutting path id: path2896-7)


(Start cutting path id: path2896)
(Change tool to Default tool)

G00 Z5.000000
G00 X2.398318 Y9.716615

G01 Z-1.000000 F100.0(Penetrate)
G02 X4.238517 Y11.290819 Z-1.000000 I24.493286 J-26.769274 F400.000000
G02 X6.363995 Y12.482796 Z-1.000000 I4.682742 J-5.859034
G02 X8.911577 Y12.951567 Z-1.000000 I2.673138 J-7.370504
G02 X11.329079 Y12.555383 Z-1.000000 I0.110505 J-6.899553
G02 X13.297523 Y11.397445 Z-1.000000 I-2.012569 J-5.673381
G02 X14.906020 Y9.859745 Z-1.000000 I-18.254621 J-20.705205
G00 Z5.000000

(End cutting path id: path2896)


(Start cutting path id: path3278)
(Change tool to Default tool)

G00 Z5.000000
G00 X2.398283 Y9.716619

G01 Z-1.000000 F100.0(Penetrate)
G02 X1.199545 Y9.712283 Z-1.000000 I-13.984487 J3695.642717 F400.000000
G02 X0.000036 Y9.708329 Z-1.000000 I-13.101061 J3798.070406
G00 Z5.000000

(End cutting path id: path3278)


(Footer)
M5
G00 X0.0000 Y0.0000
M2
(Using default footer. To add your own footer create file "footer" in the output dir.)
(end)
%